Tylouw/Master_Thesis_Code/training_data/batch_1/small_rod_t0.1/sample_5_session_1.csv
timestamp[s],tcp_force_x[N],tcp_force_y[N],tcp_force_z[N],tcp_force_rx[Nm?],tcp_force_ry[Nm?],tcp_force_rz[Nm?],tcp_pose_x[m],tcp_pose_y[m],tcp_pose_z[m],tcp_pose_rx[rot_vec_x],tcp_pose_ry[rot_vec_y],tcp_pose_rz[rot_vec_z],tcp_velo_x[m/s],tcp_velo_y[m/s],tcp_velo_z[m/s],tcp_velo_rx[rot_vec_x/s],tcp_velo_ry[rot_vec_y/s],tcp_velo_rz[rot_vec_z/s],q1[rad],q2[rad],q3[rad],q4[rad],q5[rad],q6[rad],qd1[rad/s],qd2[rad/s],qd3[rad/s],qd4[rad/s],qd5[rad/s],qd6[rad/s],tool_acc_x,tool_acc_y,tool_acc_z,current_of_whole_robot[A],voltage_of_whole_robot[V],current_J1[A],current_J2[A],current_J3[A],current_J4[A],current_J5[A],current_J6[A],temp_J1[C],temp_J2[C],temp_J3[C],temp_J4[C],temp_J5[C],temp_J6[C]
5.159818e-07,-0.71981746,-1.0251005,-0.06827837,-0.027344897,0.019494588,0.014242932,-0.38107747,-0.34853107,0.059986625,-3.0785267,0.62485987,-8.192222e-05,0.002210202,0.0011326817,-0.0024974926,0.0025358046,-0.005226263,1.8124727e-05,0.4778101,-1.4259455,1.9576916,-2.100845,-1.5707935,2.452752,-7.191118e-05,0.0011375779,0.0043340297,0.000334794,0.00016149311,-9.2387454e-05,-0.038307227,0.15322891,-8.772355,0.71279734,47.696735,0.028001077,-2.7439806,-2.4161694,-0.4484074,0.1104539,0.014798,25.0625,25.5,24.875,27.125,27.4375,27.875
0.002052461,-0.32466322,-1.0844544,-0.0687799,-0.023022125,0.025936704,0.009669957,-0.38106117,-0.34852237,0.05995246,-3.0785003,0.6249121,-0.00020280646,-0.00026186803,-0.0001542844,-0.0035215735,-0.00076773425,0.0011129685,1.9982312e-05,0.47778615,-1.4259083,1.9577283,-2.1008494,-1.5707573,2.452764,-7.1099654e-05,0.0043995716,0.0056185517,-0.01136007,0.00015589783,-9.121705e-05,0.038307227,0.05746084,-8.695741,0.7665104,47.71554,-0.008723864,-2.8254638,-2.5822463,-0.41067958,0.103867,0.042160697,25.0625,25.5,24.875,27.125,27.4375,27.875
0.004052584,-0.5024241,-0.73739314,-0.051640935,-0.02737301,0.018314913,0.013038146,-0.38105273,-0.34853563,0.059966877,-3.0785432,0.6248633,-0.0001687497,-0.0014200214,-0.00075612403,-0.0027124463,-0.0023321868,0.004129615,2.0640136e-05,0.4778101,-1.4259446,1.9577392,-2.1008613,-1.5707458,2.452752,-7.0306225e-05,0.0042373706,0.0044177515,-0.013395246,0.0001506771,-9.0075955e-05,0.0,0.095768064,-8.7532015,0.78217715,47.691364,0.018406808,-3.1087027,-2.6760578,-0.3092649,0.09114827,0.034999087,25.0625,25.5,24.875,27.125,27.4375,27.875
0.006051734,-0.58441705,-0.5536794,-0.1976963,-0.0003564579,-0.0058714743,0.013836563,-0.38107014,-0.34854952,0.059970453,-3.0785537,0.624865,-8.85387e-05,-0.0010352443,-0.00056378974,-0.0012273666,-0.0018515661,0.0031700062,1.9887142e-05,0.4778342,-1.4259213,1.9577149,-2.1009066,-1.5707697,2.452776,-6.9530295e-05,0.0020073655,0.0023413298,-0.008015755,0.00017298578,-8.8963025e-05,0.019153614,0.076614454,-8.734048,0.7553206,47.709274,0.0049302094,-2.9643345,-2.5651166,-0.3388765,0.09089127,0.031187592,25.0625,25.5,24.875,27.125,27.4375,27.875
0.008051934,0.26210988,-0.055067465,-0.5569993,0.031919472,-0.013938213,0.011267326,-0.38107455,-0.34852934,0.0599749,-3.0785365,0.6249584,-0.000115881485,-0.0006623515,-0.00040653904,-0.00055464363,-0.0013003392,0.0021252763,8.712831e-05,0.47778618,-1.4259456,1.9577268,-2.1008818,-1.5707573,2.4527884,-9.328376e-07,0.0009649899,0.0012338723,-0.0046846936,0.0001693347,-8.7877255e-05,0.019153614,0.1340753,-8.868123,0.7284641,47.67166,0.03748108,-2.916553,-2.4935775,-0.37678954,0.100079075,0.04029911,25.0625,25.5,24.875,27.125,27.4375,27.875
0.010052056,0.09156318,-0.061474428,-0.7994953,0.023472115,-0.018547958,0.0049577886,-0.38106912,-0.34853742,0.059941825,-3.078531,0.6248801,-0.0001854475,-0.00051782315,-0.00032953554,0.00016940199,-0.0013276257,0.0021953434,8.668994e-05,0.4777981,-1.4258742,1.9577264,-2.1009052,-1.5707458,2.452752,-1.25152075e-08,-0.0003696132,0.00068967714,-0.002880642,0.0001642977,-8.681767e-05,0.095768064,0.095768064,-9.078813,0.7351769,47.64658,-0.27602553,-2.1351125,-3.18498,-0.4181462,0.10023552,0.0008256595,25.0625,25.5,24.875,27.125,27.4375,27.875
0.012052437,-0.078897946,-0.47623783,-0.8818414,-0.018289944,0.0014841582,-0.00050366076,-0.381056,-0.3485219,0.059918515,-3.0784569,0.62488407,-0.0002658502,-0.0019529754,-0.0010519109,-0.0017624479,0.00045216738,-0.0012797463,3.8294253e-05,0.47779807,-1.4258358,1.9577249,-2.100857,-1.5707697,2.452764,-5.6389323e-05,0.007893741,-0.004503197,-0.002046859,0.0001724955,-9.10562e-05,0.15322891,0.019153614,-9.251195,0.88289046,47.73077,-0.39205033,-2.1150022,-3.289606,-0.41472018,0.11406082,-0.036678776,25.0625,25.5,24.875,27.125,27.4375,27.875
0.01405164,-0.08810602,-1.2891722,-1.0793469,-0.04610348,0.041042462,-0.0008500517,-0.38103828,-0.34852976,0.059911214,-3.0784657,0.6248103,-0.00030860366,-0.0044237585,-4.51025e-05,-0.0048620384,0.0032556846,-0.00673001,-0.0016593313,0.47782046,-1.4258319,1.9577345,-2.1008456,-1.5707573,2.4527392,-0.004146011,0.018043516,-0.009123797,-0.0014474369,0.00017981003,-0.002479241,0.05746084,0.19153613,-9.423578,0.7777002,47.72719,-0.34983343,-2.894593,-3.1664114,-0.41137338,0.119096756,-0.07257719,25.0625,25.5,24.875,27.125,27.4375,27.875
0.016051775,-1.8085723,-2.2511234,-1.2524772,-0.062010515,0.037144937,0.0022880987,-0.38108426,-0.34851053,0.059918527,-3.0784476,0.62484276,-0.00026986346,-0.005820126,0.0009928534,-0.004124827,0.002706584,-0.0058246236,0.0018286669,0.47775948,-1.4257963,1.9576744,-2.1008332,-1.5707816,2.4527009,-0.00732682,0.01721286,-0.010013299,-0.0007852657,0.00024787697,-0.009147988,-0.15322891,0.36391866,-9.615114,0.7911258,47.737934,-0.11674079,-2.714792,-3.2802083,-0.42715257,0.114824414,-0.024302496,25.0625,25.5,24.875,27.125,27.4375,27.875
0.018051898,-1.4275894,-2.1710217,-1.2846268,-0.08586294,0.070016935,-0.0127262985,-0.38105252,-0.34850052,0.059898242,-3.0784197,0.6248555,-0.00040732566,-0.0058738063,0.00065723807,-0.0033896223,0.0020944276,-0.0049835676,0.0043586595,0.47774783,-1.4257966,1.9577101,-2.100785,-1.5707458,2.4527006,-0.0068806414,0.01624094,-0.010737062,-0.00011846503,0.00040299085,-0.011232044,-0.24899697,0.4405331,-9.710882,0.81351066,47.701214,-0.27712417,-2.3742967,-3.4990003,-0.4395314,0.13979499,-0.00521443,25.0625,25.5,24.875,27.125,27.4375,27.875
0.020052323,-1.8019019,-2.444396,-1.394947,-0.076356016,0.068261996,-0.0119208,-0.38105112,-0.34850237,0.059852567,-3.078387,0.6248867,-0.0005210076,-0.006210655,-0.00028576015,-0.0038396188,0.000872182,-0.00645366,0.0049490803,0.4777359,-1.4256998,1.9577097,-2.1008089,-1.5707206,2.4527123,-0.0066595403,0.018923866,-0.012793323,-7.7349205e-06,0.002159067,-0.011603454,-0.4596867,0.45968673,-9.749189,0.7709874,47.704796,-0.4377988,-2.3935082,-3.5214517,-0.44299704,0.14179486,-0.016146231,25.0625,25.5,24.875,27.125,27.4375,27.875
0.02205249,-2.3904881,-2.5378444,-1.6615177,-0.060566023,0.059076566,-0.018507916,-0.3810874,-0.3485123,0.059871815,-3.0784218,0.62485546,-0.00040740735,-0.0077733584,-0.0009884859,-0.0033614335,-0.001479371,-0.0061520175,0.0037447612,0.47773543,-1.4256873,1.9576596,-2.100845,-1.5707444,2.452688,-0.00812129,0.020838581,-0.016071701,-5.050351e-07,0.0041023665,-0.011862499,-0.57460845,0.49799395,-9.844957,0.83589023,47.71286,-0.42182714,-2.3944795,-3.452104,-0.4482451,0.1341998,-0.0393271,25.0625,25.5,24.875,27.125,27.4375,27.875
0.024052037,-1.3756702,-2.072843,-1.7365346,-0.060785986,0.077547245,-0.033754423,-0.38105813,-0.3485218,0.059852004,-3.0784054,0.6247947,-0.00049430924,-0.008361014,-0.0012168357,-0.0029382,-0.0027169238,-0.0056990534,0.00377349,0.47777104,-1.4256632,1.957672,-2.1008208,-1.5707315,2.4526877,-0.008837289,0.020889886,-0.017098075,-3.297518e-08,0.004989937,-0.012608709,-0.47884035,0.47884035,-9.825804,0.79560274,47.703903,-0.5360363,-2.3574739,-3.5256557,-0.4446165,0.100400716,-0.062838666,25.0625,25.5,24.875,27.125,27.4375,27.875
0.026052522,-1.4687895,-1.2451692,-1.5045491,-0.07378406,0.06996694,-0.044921443,-0.3811055,-0.34852818,0.059861064,-3.0784113,0.6247578,-0.00046703964,-0.0099248355,-0.001062982,-0.0026094334,-0.003112776,-0.0048334734,0.0029496776,0.47774655,-1.4255909,1.9575633,-2.100797,-1.5707439,2.4526396,-0.010524824,0.022301799,-0.01946066,-2.1530435e-09,0.004938041,-0.013470853,-0.47884035,0.4213795,-9.844957,0.7530795,47.703903,-0.48033294,-2.3038595,-3.4768023,-0.4535387,0.10729481,-0.07399712,25.0625,25.5,24.875,27.125,27.4375,27.875
0.028051931,-1.9539363,-2.4103649,-1.5471375,-0.04341695,0.05986545,-0.050437167,-0.38112295,-0.34852558,0.059836946,-3.0784152,0.6247207,-0.00053496216,-0.011259534,-0.0008283295,-0.0026035304,-0.0031348343,-0.004553449,0.0020423678,0.47770992,-1.4255184,1.9575385,-2.1008089,-1.5707196,2.4525793,-0.012103557,0.024038201,-0.021455038,-1.4057835e-10,0.004823651,-0.014140943,-0.51714754,0.3256114,-9.80665,0.7642693,47.6636,-0.5516853,-2.3104608,-3.4565754,-0.44721827,0.10836646,-0.071702085,25.0625,25.5,24.875,27.125,27.4375,27.875
0.03005204,-1.659759,-1.1798989,-1.442335,-0.055087574,0.06783211,-0.078020915,-0.3811631,-0.34852615,0.059831828,-3.0784118,0.62481654,-0.0005049133,-0.012852362,-0.0015059635,-0.001717289,-0.0050444035,-0.0030901574,0.002288522,0.4776737,-1.4254582,1.9574898,-2.100845,-1.5707196,2.4526033,-0.013033111,0.025134599,-0.02473246,-9.178762e-12,0.005839392,-0.015316717,-0.47884035,0.24899697,-9.80665,0.800085,47.655537,-0.5531429,-2.2576916,-3.4748888,-0.4466215,0.10427725,-0.08195723,25.0625,25.5,24.875,27.125,27.4375,27.875
0.03205217,-1.7727458,-1.3503466,-1.3971384,-0.029300312,0.06661793,-0.087984614,-0.38118127,-0.3485307,0.059821498,-3.0784264,0.6247622,-0.000559301,-0.01376953,-0.0015734108,-0.0018486608,-0.006166904,-0.0037591977,0.001168145,0.47764915,-1.4253978,1.9574417,-2.1008327,-1.5706953,2.452543,-0.014607351,0.026737839,-0.026261806,-5.9930755e-13,0.007139899,-0.01577231,-0.36391866,0.076614454,-9.768343,0.8605109,47.705692,-0.53858435,-2.3048735,-3.4881916,-0.44958103,0.07452215,-0.07378684,25.0625,25.5,24.875,27.125,27.4375,27.875
0.034052137,-1.253701,-0.95637953,-1.2791384,-0.012181685,0.06493108,-0.102870524,-0.3812078,-0.3485666,0.0598413,-3.0784762,0.62482995,-0.0005895284,-0.014420413,-0.0018621046,-0.0016593159,-0.007002263,-0.003571961,0.0009511753,0.477649,-1.4253496,1.9573334,-2.100797,-1.5706347,2.4525788,-0.015120483,0.02757851,-0.027654199,-3.9130496e-14,0.00779293,-0.016068757,-0.3256114,0.0,-9.749189,0.8605109,47.687782,-0.6527648,-2.279008,-3.509509,-0.44280487,0.0782546,-0.07633853,25.0625,25.5,24.875,27.125,27.4375,27.875
0.03605237,-1.1177247,-0.7310381,-1.2627081,0.0065824394,0.052689362,-0.114508346,-0.38125095,-0.348555,0.059830982,-3.07848,0.62485176,-0.0005744061,-0.016386844,-0.002196754,-0.0008052164,-0.008291733,-0.0018211037,-0.0015024246,0.47758842,-1.4252892,1.9572963,-2.1008327,-1.5706347,2.4525313,-0.016560866,0.028964935,-0.03118897,-2.5549417e-15,0.008126458,-0.015054098,-0.4405331,0.0,-9.653421,0.81351066,47.71465,-0.5580208,-2.263054,-3.4298415,-0.4477546,0.063435316,-0.08744046,25.0625,25.5,24.875,27.125,27.4375,27.875
0.038052533,-0.7912673,-0.20623071,-1.5476228,0.014087141,0.051961076,-0.13005145,-0.38126394,-0.3485395,0.059804115,-3.0784283,0.6248209,-0.000624354,-0.01743486,-0.0027374683,-0.0003978281,-0.008361479,-0.0005692786,-0.0018149262,0.47756457,-1.4252168,1.9572724,-2.1008208,-1.570659,2.4524949,-0.01623258,0.030451616,-0.033817723,-1.6681942e-16,0.0076068793,-0.014411192,-0.2873042,-0.05746084,-9.634268,0.7642693,47.668976,-0.62036765,-2.2715797,-3.4027295,-0.42460185,0.063086584,-0.104678646,25.0625,25.5,24.875,27.125,27.4375,27.875
0.04005193,-0.91376776,-0.13624942,-1.445462,0.012024661,0.056255832,-0.1330133,-0.38131514,-0.34858555,0.059829395,-3.0785465,0.6247891,-0.0005918776,-0.018462319,-0.0025424492,-0.00046966455,-0.0077697714,-0.00018853621,-0.0035178487,0.4775522,-1.4251565,1.9571513,-2.100845,-1.570587,2.4524477,-0.017072007,0.03205978,-0.035488404,-1.0892115e-17,0.0069044475,-0.013544591,-0.17238252,-0.095768064,-9.672575,0.7284641,47.661808,-0.59678984,-2.28711,-3.353263,-0.42647177,0.059437506,-0.1351386,25.0625,25.5,24.875,27.125,27.4375,27.875
0.04205237,-1.4875757,-0.23295812,-1.1197358,-0.0027473434,0.044734318,-0.1228912,-0.38136864,-0.34857482,0.05982642,-3.0785255,0.6248809,-0.0005644392,-0.019580657,-0.0023487478,-0.00014818167,-0.007541303,0.00088887586,-0.0042272825,0.47749197,-1.4250842,1.9570783,-2.1008565,-1.5705999,2.4524474,-0.017992401,0.032858532,-0.037136268,-7.1117727e-19,0.006203125,-0.013753162,-0.1340753,-0.11492168,-9.634268,0.79560274,47.696735,-0.5560813,-2.280322,-3.3737118,-0.4230305,0.065101355,-0.15057677,25.0625,25.5,24.875,27.125,27.4375,27.875
0.0440519,-1.0194364,-0.731214,-1.2151489,-0.008576866,0.058022343,-0.11568332,-0.38141668,-0.34857726,0.059840687,-3.0785453,0.62498116,-0.00051952054,-0.020856338,-0.0025911562,0.000611448,-0.00833648,0.0025104552,-0.0046833022,0.4774438,-1.4250481,1.9570073,-2.1008685,-1.5705875,2.4524593,-0.01871089,0.03334266,-0.0394254,-4.6434792e-20,0.0061600604,-0.014014032,-0.2681506,0.019153614,-9.5385,0.8023209,47.652847,-0.6149657,-2.1880763,-3.374872,-0.4371002,0.06251544,-0.14409259,25.0625,25.5,24.875,27.125,27.4375,27.875
0.046053756,-1.1979327,-1.1200644,-1.2472788,-0.016928067,0.042835336,-0.10606746,-0.3814438,-0.34856892,0.05982132,-3.078491,0.62497014,-0.00056699035,-0.022166887,-0.0028632754,0.0015355644,-0.008877644,0.00465549,-0.0043150354,0.47741964,-1.424952,1.9569339,-2.1008327,-1.5706118,2.4524353,-0.019106112,0.033602897,-0.041837823,-3.03186e-21,0.0056488663,-0.014775639,-0.19153613,0.095768064,-9.5385,0.7777002,47.698532,-0.5472747,-2.1421785,-3.3563766,-0.43133247,0.07184972,-0.15366517,25.0625,25.5,24.875,27.125,27.4375,27.875
0.04805302,-0.8675186,-1.4118098,-1.3105983,-0.025134498,0.04028964,-0.10846366,-0.3814785,-0.34860015,0.059838947,-3.0785666,0.62488914,-0.0005453788,-0.022915011,-0.0028204212,0.00077717175,-0.008319976,0.003456458,-0.0046928003,0.47741944,-1.4249034,1.956838,-2.1008327,-1.5705756,2.452375,-0.019908562,0.036523957,-0.043437324,-1.979588e-22,0.005701568,-0.015198892,-0.076614454,0.21068975,-9.519346,0.779936,47.655537,-0.58698493,-2.1765578,-3.359087,-0.41920328,0.08301006,-0.15856692,25.0625,25.5,24.875,27.125,27.4375,27.875
0.050051827,-0.6894255,-1.4444907,-1.3052223,-0.034578193,0.037305035,-0.105505206,-0.3815548,-0.3485769,0.059850797,-3.0785363,0.6250556,-0.00047796578,-0.02358241,-0.0029454166,0.00027914927,-0.0076257754,0.002930863,-0.0041890005,0.47732332,-1.4248427,1.9567417,-2.1008327,-1.5705999,2.4523866,-0.02005398,0.03900461,-0.045130648,-1.2925295e-23,0.005323724,-0.015845964,-0.095768064,0.2681506,-9.576807,0.7911258,47.66808,-0.6270908,-2.2269452,-3.41098,-0.42992726,0.0933542,-0.15060496,25.0625,25.5,24.875,27.125,27.4375,27.875
0.052051913,-0.63610786,-1.5925049,-1.3227278,-0.04423031,0.031898167,-0.10863859,-0.3816096,-0.34860736,0.059874978,-3.0786188,0.62497634,-0.00041268909,-0.024876686,-0.0033780942,0.0016676489,-0.009606616,0.005342114,-0.0046891114,0.47731096,-1.4247829,1.956621,-2.100845,-1.5705756,2.4523144,-0.020899134,0.03814393,-0.047323603,-8.439294e-25,0.005971872,-0.016190812,-0.076614454,0.3256114,-9.519346,0.84708,47.686886,-0.57275426,-2.1887043,-3.363333,-0.4232248,0.09142406,-0.17759994,25.0625,25.5,24.875,27.125,27.4375,27.875
0.05405234,-0.37607622,-2.1147285,-1.3011894,-0.048001997,0.041545514,-0.10634742,-0.38167182,-0.34858572,0.05986663,-3.078578,0.6251029,-0.00044313696,-0.025998883,-0.0034186367,0.0020626222,-0.0105717145,0.005978899,-0.005297306,0.47721463,-1.424687,1.9565252,-2.1008208,-1.5705751,2.4523022,-0.022223178,0.038882256,-0.04907228,-5.5102557e-26,0.0065331496,-0.016906837,-0.038307227,0.4213795,-9.672575,0.88289046,47.690468,-0.5678991,-2.0103931,-3.420684,-0.42407253,0.086996906,-0.1806729,25.0625,25.5,24.875,27.125,27.4375,27.875
0.056052446,-0.88238263,-2.449433,-1.4036872,-0.047265567,0.03241836,-0.103049636,-0.38172048,-0.34860855,0.059889797,-3.0786204,0.6251306,-0.00038187843,-0.026323458,-0.0034358036,0.00085921097,-0.00939324,0.003923551,-0.0043666908,0.47720245,-1.4246377,1.956416,-2.1008208,-1.5705632,2.452302,-0.022424325,0.042398512,-0.050368596,0.00014776584,0.0064287093,-0.018036848,-0.05746084,0.49799395,-9.519346,0.7665104,47.707485,-0.5721901,-2.06594,-3.3521094,-0.4271291,0.09871408,-0.2141841,25.0625,25.5,24.875,27.125,27.4375,27.875
0.058051955,-0.7769372,-2.413694,-1.2658068,-0.051444665,0.038949016,-0.09365296,-0.38175628,-0.34862217,0.059883606,-3.0786705,0.6250828,-0.00045556956,-0.028166445,-0.0041840062,0.0021906942,-0.010681364,0.006710841,-0.004202143,0.4771545,-1.4245536,1.9563316,-2.1008089,-1.5705031,2.4522178,-0.022701615,0.04315265,-0.054300252,0.00025970492,0.00628471,-0.018476442,-0.038307227,0.51714754,-9.519346,0.75084364,47.684196,-0.5944315,-2.0747156,-3.3915796,-0.41054434,0.10166326,-0.22437283,25.0625,25.5,24.875,27.125,27.4375,27.875
0.06005203,-0.8285011,-2.6477723,-1.2422096,-0.044042695,0.035492603,-0.09882043,-0.38184187,-0.34861732,0.059907794,-3.0786808,0.6252001,-0.00033156402,-0.028600415,-0.0042333114,0.0008733634,-0.009833545,0.004356738,-0.003980764,0.47708222,-1.4244925,1.9562119,-2.1008327,-1.570527,2.4522176,-0.023222966,0.047033682,-0.055725623,0.0002834818,0.0066116764,-0.01921788,-0.095768064,0.47884035,-9.5385,0.8023209,47.711964,-0.6068956,-2.1690574,-3.2583766,-0.4127488,0.09056022,-0.23275113,25.0625,25.5,24.875,27.125,27.4375,27.875
0.062052146,-0.6347413,-2.258743,-1.0241078,-0.04694928,0.031308163,-0.10584864,-0.38186097,-0.34863144,0.059858836,-3.0786686,0.625082,-0.00043100584,-0.029141607,-0.0042640325,0.0010956558,-0.010839952,0.004463229,-0.003694225,0.47708184,-1.4243366,1.9561514,-2.1008565,-1.570515,2.452145,-0.024213599,0.04721154,-0.05643901,0.00025956152,0.0074534877,-0.020496627,-0.019153614,0.45968673,-9.442732,0.8493211,47.703903,-0.53586334,-2.1642928,-3.4432194,-0.4086633,0.109313175,-0.24346977,25.0625,25.5,24.875,27.125,27.4375,27.875
0.06405249,-0.92416716,-2.25611,-0.9770872,-0.039292794,0.017454002,-0.09539803,-0.3819505,-0.34866226,0.05989144,-3.078727,0.6251508,-0.0003246649,-0.030625718,-0.005162501,0.0022785226,-0.012948781,0.0065205283,-0.0026354603,0.47704577,-1.4242407,1.9559702,-2.1008685,-1.5705026,2.4521446,-0.024582334,0.04774311,-0.059746582,0.0002369748,0.008377137,-0.021923192,-0.038307227,0.4405331,-9.404425,0.8090337,47.705692,-0.62902904,-2.0202157,-3.289452,-0.4119631,0.09221105,-0.23789039,25.0625,25.5,24.875,27.125,27.4375,27.875
0.06605212,-0.76932466,-1.5921429,-0.89231616,-0.037904162,0.022985447,-0.10398868,-0.3820151,-0.34866196,0.05991922,3.0787437,-0.6252502,0.00025200765,-0.033049162,-0.006022217,0.0028419266,-0.013850833,0.008090227,-0.002530378,0.47698554,-1.4242035,1.9558614,-2.1008565,-1.5705026,2.4521444,-0.025335992,0.051321946,-0.06511459,0.00021784904,0.008448156,-0.022778284,-0.05746084,0.38307226,-9.3661175,0.78888994,47.688675,-0.59921944,-2.1191075,-3.198349,-0.39646912,0.094652995,-0.24172863,25.0625,25.5,24.875,27.125,27.4375,27.875
0.06805268,-0.7389514,-1.5144361,-0.8862147,-0.030566894,0.026016062,-0.09440384,-0.38204396,-0.34867865,0.05988456,-3.0787578,0.6251558,-0.0004152783,-0.032338925,-0.0055711204,0.0013717114,-0.012724419,0.005193614,-0.0019169184,0.47694945,-1.4240472,1.9557542,-2.1008208,-1.5704426,2.4520476,-0.025692852,0.053069413,-0.063754685,0.00020157281,0.008778438,-0.023750298,-0.05746084,0.30645782,-9.3661175,0.78888994,47.647476,-0.6620115,-2.1464539,-3.115131,-0.3950176,0.090006724,-0.24839835,25.0625,25.5,24.875,27.125,27.4375,27.875
0.07005181,-1.2405055,-1.6554785,-0.8607999,-0.02623448,0.024372913,-0.09689502,-0.38211766,-0.34866995,0.059897203,-3.078753,0.62519324,-0.00032102008,-0.033568226,-0.006307325,0.0020245346,-0.014490478,0.0061560688,-0.0010264716,0.47688913,-1.4239749,1.9556454,-2.1008327,-1.5704783,2.4520113,-0.026243163,0.05422934,-0.06657054,0.00018755965,0.00990113,-0.025190873,-0.038307227,0.28730422,-9.251195,0.7978386,47.66987,-0.64586437,-2.1562233,-3.2441106,-0.39283797,0.080759756,-0.25474763,25.0625,25.5,24.875,27.125,27.4375,27.875
0.07205183,-0.76040417,-0.8771819,-0.67549634,-0.03428829,0.040602848,-0.10829101,-0.38218546,-0.34869787,0.0599039,3.0786932,-0.6251612,0.00036417364,-0.034502972,-0.0067790714,0.0022226316,-0.014746715,0.0068137776,-0.0001514487,0.47682935,-1.4238545,1.95549,-2.1008208,-1.5704063,2.451939,-0.026211485,0.05586613,-0.06889422,0.00017536954,0.009823067,-0.026032453,-0.15322891,0.24899697,-9.212888,0.8493211,47.703903,-0.66207373,-2.0867715,-3.1375616,-0.40323305,0.07595647,-0.2700109,25.0625,25.5,24.875,27.125,27.4375,27.875
0.0740519,-0.9185443,-0.5776578,-0.46547857,-0.03414706,0.03931582,-0.10826871,-0.3822804,-0.34871817,0.059936333,3.078648,-0.62517005,0.00022236157,-0.035745203,-0.0073123304,0.002713795,-0.015546958,0.007884751,0.0007043379,0.47679314,-1.4237583,1.9553088,-2.1008327,-1.5704302,2.4519143,-0.026545307,0.0573205,-0.07168423,0.00019137842,0.010039522,-0.027219824,-0.22984336,0.22984336,-9.11712,0.8918391,47.71465,-0.76300424,-2.0218925,-3.1812074,-0.37942222,0.06283837,-0.2815056,25.0625,25.5,24.875,27.125,27.4375,27.875
0.07605201,-1.1599085,-0.8526444,-0.55180955,-0.01402789,0.03181113,-0.10275029,-0.38234106,-0.3487403,0.059931707,3.0786226,-0.6251073,0.00027190818,-0.03645519,-0.0074909274,0.0023544405,-0.015926303,0.007094844,0.0011714487,0.4767449,-1.4236257,1.9551653,-2.1008208,-1.5703815,2.4518301,-0.027329952,0.059417408,-0.073267534,0.00020509129,0.010736268,-0.02847154,-0.21068975,0.24899697,-9.11712,0.8314132,47.71286,-0.7318752,-2.1441362,-3.130128,-0.3670817,0.06516573,-0.28226453,25.0625,25.5,24.875,27.125,27.4375,27.875
0.07805216,-0.83467966,-0.8742308,-0.78357035,-0.0036642414,0.04234425,-0.101622246,-0.38243186,-0.34875137,0.059935454,3.078573,-0.62507707,0.00019638757,-0.03738039,-0.007993052,0.0027830666,-0.016295264,0.008169339,0.0026448818,0.47667298,-1.4235057,1.9550332,-2.1008804,-1.5703696,2.4517457,-0.027175283,0.06056067,-0.075565554,0.0002378907,0.010569268,-0.02978799,-0.1340753,0.095768064,-9.193734,0.77545905,47.70211,-0.740221,-2.0237334,-3.1065898,-0.36083204,0.06892098,-0.30563617,25.0625,25.5,24.875,27.125,27.4375,27.875
0.08005225,-0.8225183,-1.0218399,-0.8156986,-0.006742854,0.039526682,-0.10123501,-0.38252077,-0.34877458,0.05995051,3.07848,-0.6251537,0.00016964697,-0.03832129,-0.008606587,0.0033227543,-0.017328193,0.009077093,0.0039191353,0.47660092,-1.4233855,1.9548644,-2.1008928,-1.5703214,2.4517334,-0.027268948,0.06154041,-0.07795157,0.00036449105,0.011068793,-0.031154647,-0.1340753,0.1340753,-9.136273,0.7351769,47.681515,-0.7917909,-2.0801742,-3.126041,-0.3431608,0.06565279,-0.30394357,25.0625,25.5,24.875,27.125,27.4375,27.875
0.082051866,-1.722984,-1.1100429,-0.754489,-0.0058759185,0.026798703,-0.09229235,-0.38257235,-0.34878775,0.059946153,3.0785253,-0.62504774,0.00021555656,-0.03885751,-0.008686286,0.0016040514,-0.016058302,0.0060264226,0.0039689136,0.47657663,-1.4232517,1.954708,-2.1008327,-1.5703214,2.4516373,-0.027793445,0.066631034,-0.07987715,0.00049219886,0.011335269,-0.03172799,-0.21068975,0.11492168,-9.136273,0.8806493,47.70032,-0.8882861,-2.1171052,-3.0744271,-0.3592295,0.0592924,-0.30254084,25.0625,25.5,24.875,27.125,27.4375,27.875
0.08405235,-1.5115807,-1.2879174,-0.9756302,-0.0084901955,0.036836352,-0.09008287,-0.38264695,-0.34879705,0.059949063,3.0784907,-0.62509745,0.00019955974,-0.039569624,-0.008440156,0.002760656,-0.016041731,0.0076492606,0.004026554,0.4765166,-1.4231322,1.9545645,-2.1008317,-1.5703095,2.4516127,-0.028386243,0.06527166,-0.08127582,0.0018198186,0.010577745,-0.032376908,-0.22984336,0.17238252,-9.232041,0.8112748,47.68599,-0.84396625,-2.1140127,-3.0472524,-0.34265062,0.069857836,-0.30694592,25.0625,25.5,24.875,27.125,27.4375,27.875
0.086052515,-1.0648038,-1.4520434,-1.0242848,-0.012284453,0.04826638,-0.099264465,-0.38273004,-0.34883988,0.059976704,3.0784268,-0.62504554,0.00014870614,-0.03984713,-0.0087710535,0.0026891974,-0.016518617,0.0067413487,0.004355917,0.47649243,-1.4230115,1.9543608,-2.1008198,-1.5702733,2.4515643,-0.028594363,0.06651576,-0.08271852,0.0026050273,0.011419359,-0.03291401,-0.24899697,0.15322891,-9.232041,0.81351066,47.689575,-0.88093686,-1.9717972,-3.0629363,-0.3706323,0.059975784,-0.30800927,25.0625,25.5,24.875,27.125,27.4375,27.875
0.08805258,-0.82659084,-1.187649,-0.7992352,-0.027405532,0.058841288,-0.10722966,-0.38281724,-0.34881964,0.05993953,3.078443,-0.62516445,0.00019573681,-0.04078457,-0.008683493,0.0019896107,-0.015728606,0.005843738,0.004294604,0.47638416,-1.4228184,1.9542278,-2.1008317,-1.5702857,2.4515283,-0.029412454,0.069579795,-0.08463903,0.002623608,0.011124778,-0.033669524,-0.22984336,0.24899697,-9.232041,0.8090337,47.677036,-0.8899113,-2.050181,-3.1079383,-0.36295724,0.05821047,-0.3347103,25.0625,25.5,24.875,27.125,27.4375,27.875
0.09005172,-0.9929363,-1.3178648,-0.811422,-0.03110211,0.056593385,-0.10458947,-0.38289496,-0.34883925,0.0599529,3.07841,-0.6250406,0.00017446923,-0.041561157,-0.008889351,0.0015226409,-0.015363033,0.0057246583,0.0065590674,0.47632414,-1.4227093,1.9540728,-2.1008322,-1.5702499,2.4513953,-0.029578572,0.0720064,-0.08622261,0.002057783,0.010852429,-0.036097962,-0.2681506,0.22984336,-9.2703495,0.7620334,47.694946,-0.9475305,-2.1760495,-3.1879158,-0.3580665,0.062277436,-0.35515755,25.0625,25.5,24.875,27.125,27.4375,27.875
0.092051886,-1.4443791,-1.1767052,-0.85494924,-0.03573939,0.041754168,-0.0944009,-0.3829621,-0.34885174,0.059938565,3.0784183,-0.62506205,0.00023192835,-0.041591264,-0.009171696,0.0012591372,-0.016297998,0.0048265127,0.0068856454,0.47627598,-1.422541,1.953905,-2.1007965,-1.570237,2.4513595,-0.029902715,0.072803326,-0.08651081,0.0019153097,0.012093509,-0.0367505,-0.21068975,0.24899697,-9.32781,0.7463667,47.709274,-0.9878161,-2.048745,-3.1710892,-0.33057323,0.05554142,-0.33933288,25.0625,25.5,24.875,27.125,27.4375,27.875
0.09405208,-0.7231683,-0.8062963,-1.0116069,-0.04474502,0.048540365,-0.105956875,-0.38306117,-0.3488889,0.059961203,3.0783503,-0.62502915,0.00017859272,-0.04366335,-0.009373667,0.0019704357,-0.01656535,0.0069232206,0.0047125355,0.47622773,-1.4223964,1.953688,-2.1007965,-1.5702018,2.4512994,-0.030970607,0.07464918,-0.09022873,0.0018055076,0.011364666,-0.035641328,-0.22984336,0.28730422,-9.3661175,0.82694155,47.701214,-1.0310578,-2.1412716,-3.1636953,-0.32551956,0.043257408,-0.3712204,25.0625,25.5,24.875,27.125,27.4375,27.875
0.09605208,-0.98614997,-1.2591466,-1.06511,-0.030721892,0.035542935,-0.09675703,-0.38312474,-0.3488943,0.05993647,3.0783467,-0.6250672,0.00027664637,-0.042909693,-0.008687366,-0.00012774409,-0.014460372,0.0029577124,0.004613919,0.47615558,-1.422227,1.9535455,-2.1007721,-1.570166,2.4512515,-0.031453714,0.0776563,-0.08892869,0.0019900734,0.011313925,-0.036026567,-0.24899697,0.28730422,-9.404425,0.7597976,47.70838,-1.0300084,-2.1577609,-3.3067577,-0.3392918,0.06345302,-0.4053769,25.0625,25.5,24.875,27.125,27.4375,27.875
0.09805252,-1.1914872,-1.2494122,-1.3231884,-0.03001925,0.021184651,-0.09225191,-0.3832204,-0.3489057,0.059946027,3.0783346,-0.62498593,0.00019264233,-0.043718684,-0.008876394,-0.0001224703,-0.014052705,0.002963122,0.0067297486,0.4760954,-1.4220942,1.9533771,-2.100796,-1.5701779,2.4511423,-0.03161739,0.07946783,-0.091158524,0.0025929855,0.0109488135,-0.03830368,-0.13407528,0.21068975,-9.442732,0.7418897,47.67614,-1.0934507,-2.2175558,-3.4019299,-0.3191744,0.060760193,-0.39296597,25.0625,25.5,24.875,27.125,27.4375,27.875
0.100052685,-1.2736552,-1.3159933,-1.3386784,-0.02887688,0.01953623,-0.0929545,-0.38332,-0.34892532,0.059961747,3.0783057,-0.6248834,0.00015849157,-0.045126542,-0.008719073,0.0005998771,-0.01418787,0.0043043327,0.0071256165,0.47602308,-1.4219499,1.9531735,-2.100784,-1.5701541,2.4510098,-0.032858454,0.080023795,-0.09359851,0.0032272441,0.010453391,-0.03993833,0.0,0.24899697,-9.481039,0.82694155,47.67345,-1.0497851,-2.1807184,-3.145556,-0.34174263,0.061758928,-0.37826258,25.0625,25.5,24.875,27.125,27.4375,27.875
0.10205225,-1.2571383,-1.62383,-1.4310787,-0.022492131,0.02082651,-0.09224347,-0.3834134,-0.3489512,0.059968848,3.0782747,-0.6248368,0.00011292856,-0.045283396,-0.008759396,0.00016557846,-0.013971579,0.003175232,0.010081165,0.47597492,-1.4217932,1.9529809,-2.1007955,-1.5701417,2.4509366,-0.03313428,0.08148501,-0.09438729,0.0036588586,0.010781099,-0.04316909,-0.05746084,0.30645782,-9.557653,0.85155696,47.688675,-1.117081,-2.1544898,-3.4157224,-0.3296721,0.055675328,-0.37294555,25.0625,25.5,24.875,27.125,27.4375,27.875
0.10405172,-0.79777694,-1.3117899,-1.1361744,-0.036601175,0.026673483,-0.09988815,-0.38350365,-0.3489506,0.059952464,3.0783122,-0.62476814,0.00015890686,-0.04553174,-0.008777987,-0.0005207253,-0.013354158,0.0019547301,0.0102917,0.4758908,-1.4216005,1.9527897,-2.1007597,-1.5701417,2.450805,-0.03332419,0.08360304,-0.09529353,0.0038159036,0.010789093,-0.043569226,-0.076614454,0.2681506,-9.481039,0.8493211,47.701214,-1.0826027,-2.173231,-3.400735,-0.3206579,0.057969414,-0.35611647,25.0625,25.5,24.875,27.125,27.4375,27.875
0.106052265,-0.5663365,-1.5707673,-1.1368126,-0.03289518,0.03305859,-0.10323959,-0.38361758,-0.34898832,0.059974052,3.0781572,-0.6249106,9.912317e-05,-0.046919372,-0.00849941,-0.00028906067,-0.014036276,0.002713695,0.007921529,0.47580627,-1.421456,1.952586,-2.100808,-1.5700697,2.450829,-0.035246007,0.084584475,-0.09686534,0.0034220635,0.01104866,-0.043119024,-0.076614454,0.2681506,-9.423578,0.81351066,47.67614,-1.1503818,-2.0776145,-3.404095,-0.32435757,0.04080257,-0.37045312,25.0625,25.5,24.875,27.125,27.4375,27.875
0.108052194,-0.63693243,-1.4625548,-1.2249984,-0.027555311,0.021511843,-0.09477201,-0.38370386,-0.3490083,0.059968006,3.078209,-0.62474525,0.00010483514,-0.047594834,-0.008235428,-0.00070013956,-0.013484225,0.0022129337,0.01022297,0.47576997,-1.4212631,1.952371,-2.1007717,-1.5700816,2.450683,-0.036155943,0.086294256,-0.09790551,0.0034530128,0.010785901,-0.046329517,-0.038307227,0.28730422,-9.404425,0.87617236,47.672558,-1.1067386,-2.0921564,-3.5373328,-0.31971973,0.054532014,-0.36427176,25.0625,25.5,24.875,27.125,27.4375,27.875
0.11005227,-0.5908438,-1.1877422,-1.1748812,-0.02601349,0.021918226,-0.10378289,-0.3837969,-0.3490219,0.059955217,3.0781958,-0.6247033,0.00015305712,-0.049475074,-0.008550594,0.00048765808,-0.013966053,0.004947183,0.012731327,0.47568572,-1.4210707,1.9521774,-2.1007597,-1.5700463,2.4505744,-0.03677429,0.087013796,-0.101512276,0.0036962528,0.009956074,-0.049453575,0.0,0.2681506,-9.442732,0.81351066,47.689575,-1.1412066,-1.9707643,-3.4574852,-0.31893763,0.0573032,-0.3443492,25.0625,25.5,24.875,27.125,27.4375,27.875
0.11205243,-0.8768782,-1.0976748,-1.1165856,-0.02234068,0.02135099,-0.09672578,-0.38391197,-0.34904602,0.059965316,3.078162,-0.6246367,9.566343e-05,-0.048096877,-0.008906534,-0.0002719307,-0.013374358,0.0025049946,0.016337054,0.47561434,-1.4208903,1.9519504,-2.1007707,-1.5700334,2.450466,-0.03525407,0.08753108,-0.10061917,0.004728328,0.010557007,-0.051539756,0.0,0.24899697,-9.32781,0.7978386,47.701214,-1.2736243,-1.9554458,-3.6221871,-0.30881086,0.08029671,-0.3364997,25.0625,25.5,24.875,27.125,27.4375,27.875
0.11405207,-0.59814346,-0.9969722,-1.1575723,-0.024530735,0.03077441,-0.09941618,-0.38399646,-0.34903926,0.059959456,3.0781794,-0.6246209,0.0001519731,-0.050391987,-0.0087510785,-0.00059998524,-0.013649089,0.0019761433,0.015957436,0.47551736,-1.4207326,1.9517697,-2.100711,-1.570022,2.450357,-0.037933398,0.09166795,-0.10467911,0.0049970574,0.0110349525,-0.053837806,-0.038307227,0.2681506,-9.346964,0.82694155,47.67166,-1.2119145,-2.0467575,-3.5265532,-0.32441986,0.042872045,-0.3038516,25.0625,25.5,24.875,27.125,27.4375,27.875
0.11605243,-1.1370417,-1.0671029,-1.1278158,-0.023702886,0.01847377,-0.10532469,-0.38412476,-0.34907827,0.059988305,3.0780926,-0.6245636,5.5341414e-05,-0.051207606,-0.008599203,0.0008826657,-0.014699954,0.004541262,0.01746731,0.47544518,-1.4205654,1.9515179,-2.100735,-1.5699857,2.4502602,-0.038781557,0.08934458,-0.105508104,0.005392903,0.010801722,-0.056194484,-0.038307227,0.28730422,-9.346964,0.93436235,47.721813,-1.1920514,-1.8775121,-3.5415616,-0.3047989,0.049052704,-0.28612128,25.0625,25.5,24.875,27.125,27.4375,27.875
0.11805262,-0.20724599,-1.0133129,-1.0609826,-0.029983021,0.039398577,-0.10776915,-0.38421434,-0.3490974,0.059981473,3.0781002,-0.6244883,4.305571e-05,-0.053050328,-0.008959387,0.00060689216,-0.015569006,0.0041608675,0.018249134,0.47539648,-1.4203839,1.9513258,-2.100735,-1.5699853,2.4501636,-0.04043292,0.09311627,-0.10917338,0.0052256235,0.011742481,-0.058626093,-0.13407528,0.2681506,-9.423578,0.8314132,47.67614,-1.1921314,-1.9422793,-3.4722056,-0.32649276,0.061993424,-0.24168223,25.0625,25.5,24.875,27.125,27.4375,27.875
0.12005165,-1.2491702,-1.7623302,-1.3849202,-0.016625427,0.02521507,-0.09551457,-0.3843397,-0.34912112,0.060017474,3.0780325,-0.62441444,-2.5007044e-05,-0.054227926,-0.009262295,0.0018704929,-0.016728634,0.0064853053,0.019953595,0.47530034,-1.4202402,1.9510735,-2.100711,-1.5699495,2.45003,-0.040937975,0.09243203,-0.11134561,0.0054894965,0.011713023,-0.060833715,-0.17238252,0.2873042,-9.423578,0.8493211,47.675243,-1.1326233,-1.9192104,-3.4523852,-0.30990738,0.06596118,-0.19075319,25.0625,25.5,24.875,27.125,27.4375,27.875
0.1220518,-0.9899172,-1.439111,-1.4119568,-0.029373184,0.04541402,-0.10137564,-0.38441876,-0.34913915,0.059992194,3.0780337,-0.6243371,6.875403e-05,-0.054266967,-0.009799205,0.0013099206,-0.016714778,0.004745506,0.022325836,0.47522855,-1.4200351,1.9508938,-2.1006987,-1.5699013,2.44991,-0.040517483,0.09478584,-0.11296711,0.0063128807,0.0124948025,-0.06278568,-0.1340753,0.21068975,-9.519346,0.8560339,47.705692,-1.2496153,-1.804769,-3.481612,-0.31952894,0.05867353,-0.15156677,25.0625,25.5,24.875,27.125,27.4375,27.875
0.1240523,-0.97672725,-1.4861565,-1.4112017,-0.026496787,0.059288412,-0.098328695,-0.3845219,-0.34915617,0.05999564,3.0780478,-0.6242236,8.241921e-05,-0.055135734,-0.009882924,0.0018082615,-0.01688378,0.0050595966,0.022219913,0.4751563,-1.4198426,1.9506544,-2.1006505,-1.5698894,2.4497652,-0.04115437,0.095521055,-0.11523149,0.007487486,0.012500251,-0.0633157,-0.22984336,0.30645782,-9.576807,0.8403672,47.67614,-1.3072656,-1.8194852,-3.412774,-0.33670583,0.05142683,-0.104928225,25.0625,25.5,24.875,27.125,27.4375,27.875
0.12605226,-1.6698427,-1.6812102,-1.3699008,-0.028560866,0.05087194,-0.08987756,-0.38464212,-0.34917486,0.059998836,3.0780346,-0.6242043,8.080654e-05,-0.05667251,-0.009160182,0.0015542366,-0.016691161,0.0048146984,0.018087007,0.47507143,-1.4196259,1.9503907,-2.1006148,-1.5698775,2.44967,-0.043783396,0.0975107,-0.11696062,0.007533824,0.012438298,-0.061810512,-0.3256114,0.30645782,-9.557653,0.8314132,47.681515,-1.2491777,-1.7413416,-3.4907248,-0.34293815,0.054138206,-0.10495953,25.0625,25.5,24.875,27.125,27.4375,27.875
0.12805231,-1.320723,-1.5773327,-1.5070436,-0.040952023,0.06264725,-0.09888467,-0.38476938,-0.3491885,0.06000821,3.0779722,-0.6241528,4.1039248e-06,-0.05797169,-0.009532674,0.0016334987,-0.017712878,0.0052112634,0.018032411,0.47496298,-1.419457,1.9501866,-2.1006625,-1.5698527,2.4495375,-0.04476406,0.09954192,-0.11938607,0.007109132,0.013166318,-0.062734626,-0.24899697,0.26815057,-9.615114,0.83813137,47.63315,-1.1045072,-1.7529476,-3.4774902,-0.3478359,0.054032635,-0.098165885,25.0625,25.5,24.875,27.125,27.4375,27.875
0.13005215,-1.9224514,-1.7719053,-1.5769597,-0.0341324,0.053963,-0.089162804,-0.38486686,-0.34921804,0.060009353,3.0779557,-0.62405497,2.4124498e-05,-0.05893468,-0.009707839,0.0015803275,-0.01735498,0.0056257346,0.0154734235,0.4749031,-1.4192642,1.9499577,-2.1006386,-1.5698174,2.4494188,-0.044990998,0.10146508,-0.12147882,0.0070767975,0.012653983,-0.060400687,-0.4405331,0.28730422,-9.653421,0.8179876,47.67166,-1.2758703,-1.7741787,-3.4908402,-0.33848938,0.075633325,-0.09575109,25.0625,25.5,24.875,27.125,27.4375,27.875
0.13205239,-1.585409,-1.860706,-1.4348061,-0.03234158,0.06778862,-0.08821632,-0.38499597,-0.34922358,0.060021162,3.0779681,-0.62403953,4.2575568e-05,-0.06040845,-0.009890042,0.00032202792,-0.01667532,0.0037814882,0.012164294,0.4747947,-1.4190462,1.9496592,-2.1005433,-1.5698174,2.4492993,-0.046147432,0.106912,-0.12483859,0.0069394596,0.012884237,-0.05824589,-0.49799395,0.19153613,-9.500193,0.8112748,47.655537,-1.240112,-1.8295763,-3.4373064,-0.34723923,0.076954566,-0.14426607,25.0625,25.5,24.875,27.125,27.4375,27.875
0.13405176,-1.5840836,-1.5911534,-1.3955278,-0.02813321,0.06311996,-0.099447794,-0.38512477,-0.34924906,0.060035024,3.077895,-0.6239869,-2.621515e-05,-0.06331975,-0.0107841585,0.0029896207,-0.018966168,0.00955857,0.010343192,0.47469845,-1.4188662,1.9494294,-2.100579,-1.5697812,2.4491796,-0.046812717,0.10625489,-0.13013992,0.006717148,0.012274526,-0.05708601,-0.45968673,0.19153613,-9.500193,0.87393653,47.64479,-1.2001998,-1.9014897,-3.27332,-0.33624682,0.08137157,-0.1420782,25.0625,25.5,24.875,27.125,27.4375,27.875
0.13605188,-1.4275472,-1.454269,-1.2499993,-0.01828818,0.06492011,-0.096199095,-0.38523757,-0.34928197,0.06002911,3.0778825,-0.6238886,-2.708946e-05,-0.06291574,-0.009906258,-0.0001795225,-0.016414903,0.0039370656,0.009546833,0.47463796,-1.418636,1.949179,-2.100579,-1.5697573,2.4490595,-0.048177343,0.1118253,-0.12924935,0.006423761,0.012578216,-0.05765382,-0.47884035,0.21068975,-9.519346,0.8157518,47.687782,-1.2129576,-1.9325569,-3.3645203,-0.32887778,0.086557135,-0.123591036,25.0625,25.5,24.875,27.125,27.4375,27.875
0.13805191,-1.5126996,-1.068582,-1.288518,-0.026198056,0.064538054,-0.09948683,-0.38539892,-0.3493151,0.060063723,3.0777745,-0.62388766,-0.000113056376,-0.0652416,-0.010834754,0.0023823332,-0.019340051,0.0094350185,0.0046849106,0.47451788,-1.4184324,1.9488667,-2.1005795,-1.5697092,2.4489527,-0.0486858,0.110224076,-0.13310248,0.0056511587,0.012662035,-0.05329732,-0.4405331,0.2681506,-9.615114,0.7866488,47.67345,-1.2560858,-1.7773998,-3.161717,-0.33833152,0.068763,-0.15731646,25.0625,25.5,24.875,27.125,27.4375,27.875
0.14005351,-1.4259357,-1.3599178,-1.3936601,-0.029216526,0.065501355,-0.105462916,-0.38553104,-0.3493266,0.060059857,3.0777762,-0.62383157,-9.939434e-05,-0.06620129,-0.0108977305,0.001101425,-0.018706374,0.007106531,0.0025255354,0.4744094,-1.4181905,1.9485902,-2.1005437,-1.5696968,2.4488091,-0.04974965,0.11484379,-0.1355441,0.0058331382,0.013158078,-0.0522003,-0.3256114,0.22984336,-9.557653,0.85826975,47.66091,-1.2286439,-1.8261482,-3.2616012,-0.31887418,0.080697775,-0.18367174,25.0625,25.5,24.875,27.125,27.4375,27.875
0.14205395,-1.503281,-1.7042397,-1.2590456,-0.02414586,0.05984583,-0.09678575,-0.38563153,-0.3493663,0.060045928,3.077716,-0.6238585,-5.245355e-05,-0.06729631,-0.010783573,0.0009090047,-0.018883012,0.0065178196,0.0009719985,0.4743489,-1.4179615,1.9483618,-2.1005547,-1.5696367,2.4487731,-0.051207896,0.116924666,-0.13761565,0.0062691686,0.013581983,-0.052103948,-0.47884035,0.2681506,-9.442732,0.84484416,47.703007,-1.2441648,-1.9388303,-3.2538865,-0.31806296,0.08154267,-0.20287418,25.0625,25.5,24.875,27.125,27.4375,27.875
0.14405261,-1.9361389,-1.6443908,-1.0004785,-0.035381217,0.05246658,-0.0941725,-0.38581192,-0.3493647,0.060090236,3.0776818,-0.62379336,-0.00023361557,-0.06876729,-0.010923949,0.0015631289,-0.019366002,0.007840137,-0.00014984033,0.47420472,-1.4177809,1.9480509,-2.1005433,-1.569673,2.448593,-0.052159242,0.11799766,-0.14043759,0.0066217454,0.01341069,-0.051930323,-0.5363012,0.2681506,-9.404425,0.83813137,47.66808,-1.2439692,-1.8352742,-3.239456,-0.3320356,0.10311321,-0.23028938,25.0625,25.5,24.875,27.125,27.4375,27.875
0.14605252,-1.6053534,-1.9000735,-0.9458279,-0.036609083,0.055857215,-0.09446724,-0.38595366,-0.34939167,0.0600996,3.077597,-0.62383366,-0.00023033473,-0.06815239,-0.010003112,-0.00015726802,-0.017339436,0.0048521324,-0.00036076692,0.47408453,-1.4175521,1.9477643,-2.1005309,-1.5696133,2.4485087,-0.05291983,0.11993948,-0.13875833,0.006591194,0.012980054,-0.052479748,-0.4405331,0.38307226,-9.289502,0.83813137,47.67614,-1.2328274,-1.9339588,-3.325739,-0.31505784,0.112864345,-0.24925488,25.0625,25.5,24.875,27.125,27.4375,27.875
0.14805244,-1.5501193,-1.733981,-0.8599596,-0.032360412,0.055096462,-0.09578347,-0.38607866,-0.34939945,0.060070246,3.077608,-0.6238364,-0.00017401265,-0.07013625,-0.009938355,0.0006372114,-0.018390533,0.006612888,-0.0021345667,0.47397584,-1.4172755,1.9475111,-2.100519,-1.5696005,2.4484005,-0.054898463,0.120935574,-0.14173058,0.0065228315,0.013104695,-0.052683562,-0.2681506,0.30645782,-9.212888,0.7933669,47.683304,-1.1772287,-1.8020784,-3.1933408,-0.3166422,0.13509,-0.28199536,25.0625,25.5,24.875,27.125,27.4375,27.875
0.15005328,-1.4992768,-2.0735464,-0.86499375,-0.012311751,0.048226137,-0.08743329,-0.38623112,-0.3494228,0.060074825,3.0775554,-0.62388426,-0.00016589263,-0.07136357,-0.009945523,0.00025412865,-0.019502895,0.0060356315,-0.0032514187,0.47385496,-1.4170103,1.9471883,-2.1004837,-1.5695647,2.4483163,-0.056781206,0.12326367,-0.14341176,0.0058817375,0.014356431,-0.053448547,-0.3256114,0.30645782,-9.174581,0.8112748,47.651955,-1.0581574,-1.8498518,-3.309868,-0.32792917,0.12368807,-0.29554504,25.0625,25.5,24.875,27.125,27.4375,27.875
0.15205395,-1.5043796,-1.5202789,-0.7440143,-0.008324861,0.03241964,-0.100636415,-0.38638365,-0.3494726,0.060099,3.0774965,-0.6237555,-0.00029642897,-0.07075596,-0.010737467,-0.0018653221,-0.017879533,0.002379178,-0.0011467112,0.4737958,-1.4167805,1.9468774,-2.1005194,-1.5695523,2.4481845,-0.054956246,0.12843063,-0.14452013,0.005818533,0.014585041,-0.053725407,-0.3256114,0.2681506,-9.136273,0.9254084,47.69763,-1.223326,-1.8295002,-3.3692307,-0.3044515,0.13350408,-0.32365012,25.0625,25.5,24.875,27.125,27.4375,27.875
0.15405278,-1.0459914,-1.1385722,-0.43179348,0.0013971638,0.034445573,-0.09736987,-0.38653874,-0.34947494,0.060099706,3.0774531,-0.62380517,-0.0003297977,-0.072775565,-0.010852917,0.0011333574,-0.021813568,0.007704527,-0.0033999498,0.47365087,-1.4165418,1.9466017,-2.1005194,-1.5695404,2.4480762,-0.057243977,0.12417116,-0.14640813,0.0054314067,0.01565541,-0.05375948,-0.22984336,0.17238252,-8.944737,0.8851263,47.694054,-1.1498437,-1.7834213,-3.3636775,-0.30005234,0.11163697,-0.32909662,25.0625,25.5,24.875,27.125,27.4375,27.875
0.15605308,-0.9916376,-0.47334462,-0.40949103,-0.0021553405,0.021511331,-0.0934457,-0.38668802,-0.34950536,0.060120057,3.0773566,-0.6238252,-0.00035575224,-0.073919795,-0.009510395,-0.0010325366,-0.019206963,0.0041746222,-0.005650805,0.4735299,-1.4163234,1.9463018,-2.1005075,-1.5694803,2.4479802,-0.06017088,0.12947479,-0.14764628,0.0057046344,0.014949877,-0.054432936,-0.13407528,0.15322891,-9.002198,0.8090337,47.684196,-1.0765145,-1.9764736,-3.3892465,-0.275465,0.14037381,-0.34501183,25.0625,25.5,24.875,27.125,27.4375,27.875
0.15805264,-0.5722035,-0.6194985,-0.56875855,0.010290753,0.02282541,-0.10397256,-0.38682765,-0.3495161,0.060103767,3.077353,-0.62380505,-0.00036937746,-0.07499131,-0.009819884,-0.00049250916,-0.020266006,0.005378093,-0.00614186,0.4734217,-1.4160591,1.9460381,-2.1005194,-1.5694803,2.44786,-0.060822662,0.13007489,-0.14954053,0.0054452503,0.015341188,-0.054592613,-0.038307227,0.19153613,-8.829816,0.86498255,47.694946,-0.964713,-1.7836442,-3.4599295,-0.27085638,0.15204298,-0.3638947,25.0625,25.5,24.875,27.125,27.4375,27.875
0.16005294,-0.7867533,-0.6249573,-0.49207,0.004900364,0.017284054,-0.096006274,-0.38700476,-0.3495231,0.060104843,3.0772648,-0.62393975,-0.00036399555,-0.07576333,-0.010406104,-0.00043300193,-0.020218886,0.0055278027,-0.005541056,0.4732419,-1.4157822,1.9457148,-2.1005075,-1.5694321,2.4477756,-0.0603791,0.132145,-0.15219817,0.00592704,0.015230953,-0.054747865,-0.1340753,0.076614454,-8.848969,0.88289046,47.690468,-1.1570902,-1.8523407,-3.4483244,-0.28465605,0.17384288,-0.3943788,25.0625,25.5,24.875,27.125,27.4375,27.875
0.16205287,-0.47159398,-0.418743,-0.51715696,-0.0013499222,0.021008333,-0.10116864,-0.38715485,-0.34957036,0.06012965,3.0772305,-0.62379956,-0.00045364184,-0.076672256,-0.009332632,-0.0011827865,-0.019230273,0.0035704584,-0.0074160555,0.47318104,-1.4155414,1.9453787,-2.100495,-1.5694202,2.4476318,-0.06308436,0.13427083,-0.15320617,0.0070045833,0.015249757,-0.055576313,-0.1340753,0.038307227,-8.983045,0.900793,47.690468,-1.0037825,-1.7936902,-3.3788638,-0.27822417,0.17685685,-0.43063334,25.0625,25.5,24.875,27.125,27.4375,27.875
0.16405271,-0.73252296,-0.75498533,-0.9039884,-0.0009034011,0.019837506,-0.097131826,-0.38729692,-0.3495769,0.060123213,3.0771744,-0.62388295,-0.00037711978,-0.07804868,-0.009614716,-0.0007865029,-0.019633599,0.003897731,-0.006920628,0.47302473,-1.4152884,1.9450916,-2.100447,-1.5693601,2.4475348,-0.06393559,0.13619077,-0.15657137,0.0079814885,0.01545751,-0.056921553,-0.076614454,0.038307227,-9.059659,0.81351066,47.692257,-0.97082067,-1.9049418,-3.3474069,-0.28049618,0.19143242,-0.4478475,25.0625,25.5,24.875,27.125,27.4375,27.875
0.16605216,-0.7185408,-0.8299241,-0.7605067,-0.016713604,0.027136581,-0.09713755,-0.38746858,-0.34959272,0.060112875,3.077154,-0.62395525,-0.00041704575,-0.079727486,-0.009817937,-0.0010759837,-0.019623715,0.00333265,-0.0066147298,0.4729043,-1.414975,1.944755,-2.100447,-1.569372,2.4474623,-0.065225914,0.13993056,-0.16038501,0.008565246,0.01570414,-0.058515217,-0.22984336,0.1340753,-9.040505,0.85826975,47.71286,-0.95672596,-1.7641926,-3.4437325,-0.28853178,0.18811955,-0.46610355,25.0625,25.5,24.875,27.125,27.4375,27.875
0.16805255,-1.2189081,-1.4272933,-0.8385624,-0.015319677,0.02874929,-0.08917872,-0.387623,-0.3496081,0.060118813,3.077118,-0.62386876,-0.00039820778,-0.0799125,-0.009926095,0.000210318,-0.021093745,0.004546383,-0.0029324808,0.4727602,-1.4147233,1.9444436,-2.1004107,-1.5693239,2.447269,-0.0656563,0.1376155,-0.1609463,0.009699328,0.016470324,-0.062627956,-0.21068975,0.19153613,-9.040505,0.8179876,47.683304,-0.9403167,-1.7931786,-3.4367342,-0.28549993,0.18878919,-0.46431914,25.0625,25.5,24.875,27.125,27.4375,27.875
0.17005166,-1.5634966,-1.614304,-1.1712797,-0.014941599,0.03359758,-0.08711099,-0.38775226,-0.34962645,0.06008615,3.0771139,-0.6238661,-0.00031435202,-0.080557026,-0.009773774,-0.0011991304,-0.019707229,0.001379732,2.7187518e-05,0.47265184,-1.4144214,1.944168,-2.1003978,-1.5692877,2.4471595,-0.066616,0.14222556,-0.16336477,0.010967022,0.016679324,-0.06654643,-0.19153613,0.2873042,-9.155427,0.85155696,47.70211,-0.8968148,-1.9171712,-3.2820427,-0.30059227,0.20939386,-0.43294328,25.0625,25.5,24.875,27.125,27.4375,27.875
0.17205185,-1.5057365,-1.8412446,-1.3077079,-0.020106815,0.051114332,-0.091061704,-0.3879013,-0.34964806,0.060081866,3.0770974,-0.62384284,-0.0002628621,-0.08218974,-0.010119017,-0.00037476025,-0.02178161,0.0029074063,0.0007687865,0.47253132,-1.4141331,1.9438323,-2.1003377,-1.5692514,2.4470267,-0.06819047,0.1428845,-0.16595608,0.010598473,0.017828023,-0.06886158,-0.24899697,0.38307226,-9.308657,0.88289046,47.711964,-0.9085917,-1.7728938,-3.2818308,-0.3011846,0.21954185,-0.44035697,25.0625,25.5,24.875,27.125,27.4375,27.875
0.17405237,-2.0951362,-2.017622,-1.4915507,-0.03775188,0.046440374,-0.09219055,-0.38808346,-0.34965715,0.060091417,3.0770316,-0.62386364,-0.0002594662,-0.083503366,-0.0103739975,-8.0241145e-05,-0.021796247,0.0031480575,0.0054865573,0.47235125,-1.4138561,1.9434837,-2.100302,-1.5692033,2.4468682,-0.068828054,0.14500037,-0.16934171,0.011661839,0.017738601,-0.07421462,-0.3256114,0.40222588,-9.461885,0.91198283,47.696735,-0.89274246,-1.8065138,-3.3635225,-0.31759173,0.21760416,-0.4044249,25.0625,25.5,24.875,27.125,27.4375,27.875
0.17605266,-1.6145078,-2.239931,-1.599011,-0.05029903,0.0649714,-0.09637276,-0.38825163,-0.34967467,0.060079634,3.0770168,-0.6238398,-0.00020622066,-0.08373203,-0.009821583,-0.0011849415,-0.020750413,0.0010766558,0.010367409,0.4722067,-1.4135311,1.9431256,-2.1002543,-1.5691675,2.4467108,-0.06998029,0.14730924,-0.16958709,0.011932811,0.017758243,-0.08024766,-0.4405331,0.47884035,-9.576807,0.8940802,47.684196,-0.8387731,-1.8224583,-3.4584098,-0.3497331,0.21351898,-0.31586093,25.0625,25.5,24.875,27.125,27.4375,27.875
0.17805178,-2.1035712,-2.7228856,-1.6968772,-0.05204119,0.059751622,-0.086855166,-0.38839644,-0.349694,0.060074907,3.0770085,-0.62370193,-0.0001838877,-0.085218854,-0.010026967,-0.0008106586,-0.02197912,0.0021596327,0.011262482,0.4720863,-1.4132663,1.9428262,-2.1002305,-1.5691313,2.4465055,-0.071314216,0.14864491,-0.17188841,0.011381454,0.01835891,-0.08247523,-0.40222588,0.5363012,-9.576807,0.85155696,47.67614,-0.8215866,-1.8127123,-3.3223367,-0.3538165,0.23431057,-0.30056548,25.0625,25.5,24.875,27.125,27.4375,27.875
0.1800529,-1.9412442,-2.3503497,-1.603728,-0.072372064,0.07269188,-0.101366736,-0.38860273,-0.34970453,0.060081057,3.0769503,-0.62376505,-0.0002703022,-0.08641358,-0.010171692,-0.00023463486,-0.022545833,0.0037376236,0.014814708,0.4719181,-1.4129536,1.9424547,-2.1002424,-1.5691313,2.4463844,-0.0719589,0.14922048,-0.17384622,0.011110769,0.018155202,-0.086669885,-0.4213795,0.49799395,-9.634268,0.8403672,47.677036,-0.7668715,-1.7796321,-3.403244,-0.33496308,0.24709138,-0.21887363,25.0625,25.5,24.875,27.125,27.4375,27.875
0.18205301,-1.9999619,-2.553229,-1.8004616,-0.050130393,0.06602878,-0.090724856,-0.3887621,-0.349736,0.060075417,3.07694,-0.62362736,-0.00022032957,-0.08713334,-0.010399024,-0.0012275289,-0.022601252,0.0026474784,0.015993103,0.47179803,-1.41264,1.9420956,-2.1001952,-1.5690826,2.4461799,-0.07252054,0.1524859,-0.17515944,0.01011161,0.01869877,-0.08840878,-0.4213795,0.40222588,-9.672575,0.9388393,47.723602,-0.79003453,-1.9521763,-3.4226003,-0.3363399,0.2628553,-0.17107183,25.0625,25.5,24.875,27.125,27.4375,27.875
0.18405169,-1.8808517,-2.357696,-1.7264091,-0.030314747,0.062250875,-0.08676043,-0.38892677,-0.34976238,0.06006157,3.0769145,-0.62356526,-0.00017263656,-0.08916381,-0.010048803,-0.0016980537,-0.023551805,0.0024567065,0.013662495,0.47166488,-1.4123151,1.9417475,-2.1001713,-1.5690349,2.4460113,-0.0755255,0.15563913,-0.17752793,0.009069397,0.019627225,-0.08908151,-0.57460845,0.36391866,-9.653421,0.9030289,47.70032,-0.68525505,-1.7948244,-3.3693569,-0.3371858,0.2645687,-0.15660354,25.0625,25.5,24.875,27.125,27.4375,27.875
0.18605247,-1.6115577,-1.7308111,-1.5614244,-0.022883719,0.065974146,-0.090228245,-0.38913506,-0.34979403,0.060081884,3.0767903,-0.62351924,-0.0002466112,-0.0883141,-0.011262243,-0.0025806513,-0.023516497,0.0011945346,0.016057452,0.4714859,-1.4120262,1.9413766,-2.1002076,-1.5689625,2.4458196,-0.072923966,0.15774055,-0.17782855,0.00841681,0.02017937,-0.08887212,-0.45968673,0.28730422,-9.595961,0.7911258,47.66987,-0.7949458,-1.8932298,-3.5710404,-0.31770134,0.26318052,-0.117622614,25.0625,25.5,24.875,27.125,27.4375,27.875
0.18805195,-2.1012218,-1.2705532,-1.6335634,-0.017425692,0.048269503,-0.08813485,-0.38931435,-0.3497946,0.060072836,3.0767891,-0.6235589,-0.00020237853,-0.09048755,-0.0118796425,-0.0024501835,-0.024916269,0.0021009094,0.012737208,0.4713173,-1.4117004,1.9410051,-2.1001356,-1.5689505,2.445676,-0.07427933,0.1611631,-0.18194926,0.007670055,0.021000993,-0.086905226,-0.34476504,0.21068975,-9.653421,0.85826975,47.650166,-0.78575146,-2.0350692,-3.5714078,-0.3030209,0.25247985,-0.14080074,25.0625,25.5,24.875,27.125,27.4375,27.875
0.19005266,-1.3238091,-0.91873175,-1.7074112,-0.014280164,0.055511456,-0.09206482,-0.38952032,-0.3498246,0.060085226,3.0767207,-0.6234515,-0.00028275148,-0.09090804,-0.0110546015,-0.0036781672,-0.024862068,-0.00023519498,0.006901191,0.47116062,-1.4113874,1.9406217,-2.10016,-1.5689138,2.4454613,-0.07670893,0.16322547,-0.18147449,0.0072361077,0.02201795,-0.08349663,-0.30645782,0.15322891,-9.557653,0.7620334,47.675243,-0.60450315,-2.0883327,-3.6181827,-0.28113067,0.2510302,-0.14436917,25.0625,25.5,24.875,27.125,27.4375,27.875
0.1920525,-1.0225488,-1.0810096,-1.5452504,-0.013166856,0.04666371,-0.09324593,-0.38968095,-0.3498304,0.060054254,3.0767415,-0.62341654,-0.00022507751,-0.09043295,-0.013185078,-0.0034815797,-0.025331883,0.00019974881,0.0074486644,0.47101822,-1.4110507,1.9402984,-2.100136,-1.5689019,2.4452946,-0.07262823,0.16499652,-0.18406813,0.0074552344,0.022227041,-0.07996285,-0.19153613,0.15322891,-9.500193,0.9186956,47.684196,-0.8575563,-2.061119,-3.5154924,-0.29343304,0.2666446,-0.18762329,25.0625,25.5,24.875,27.125,27.4375,27.875
0.19405256,-0.71251196,-1.2857132,-1.3330519,-0.013612015,0.04749985,-0.08778236,-0.38990337,-0.3498654,0.060076468,3.0765865,-0.6234832,-0.00028701563,-0.09085139,-0.012586835,-0.0055042114,-0.022911716,-0.002590377,0.0035415622,0.47082582,-1.4107368,1.9398912,-2.10016,-1.5688184,2.4451637,-0.07343129,0.16962406,-0.18476875,0.0071213553,0.021339921,-0.076855406,-0.1340753,0.17238252,-9.423578,0.9768804,47.689575,-0.8865265,-2.1520712,-3.577251,-0.2724689,0.28337482,-0.2010898,25.0625,25.5,24.875,27.125,27.4375,27.875
0.19605201,-0.55741817,-1.1567101,-1.2137729,-0.018301258,0.037593026,-0.094600834,-0.39007413,-0.34990337,0.06008667,3.0765893,-0.62336975,-0.00038362812,-0.091775246,-0.012960351,-0.003940079,-0.024785366,0.0002748163,-0.00039202758,0.47075364,-1.410437,1.9395193,-2.100148,-1.5688418,2.4450207,-0.07380374,0.16770078,-0.18613313,0.0069977483,0.021706004,-0.07329263,-0.095768064,0.17238252,-9.404425,0.8784135,47.67614,-0.89916235,-1.9977562,-3.5606823,-0.24748284,0.29684034,-0.2694729,25.0625,25.5,24.875,27.125,27.4375,27.875
0.19805242,-0.38119906,-1.167621,-1.1399431,-0.017937427,0.02085255,-0.09465747,-0.39027417,-0.3499254,0.060079135,3.0765328,-0.6233754,-0.00033792577,-0.09353241,-0.013944604,-0.002923598,-0.02632451,0.0021895329,0.0014651616,0.47057372,-1.4100764,1.9391121,-2.1001122,-1.5687817,2.4448516,-0.073921725,0.16935779,-0.19048738,0.0073007764,0.022207266,-0.07526532,-0.038307227,0.17238252,-9.346964,0.7597976,47.679718,-0.96393484,-2.0950432,-3.5658517,-0.2590558,0.305196,-0.28024974,25.0625,25.5,24.875,27.125,27.4375,27.875
0.2000526,0.051346682,-1.3419386,-0.97038484,-0.009541342,0.013728159,-0.08509358,-0.39045185,-0.34994328,0.060061082,3.0765183,-0.62331533,-0.00032700662,-0.095257714,-0.014952012,-0.0019805175,-0.027566053,0.0036740475,0.0014272211,0.47042966,-1.4097393,1.938764,-2.1001117,-1.5687574,2.444672,-0.07393145,0.17139639,-0.1952321,0.0081243655,0.022635406,-0.07523446,0.05746084,0.22984336,-9.174581,0.9186956,47.67793,-0.9568014,-2.1004977,-3.4465601,-0.26170313,0.31601113,-0.2753375,25.0625,25.5,24.875,27.125,27.4375,27.875
0.20205165,0.12081367,-1.7006512,-1.3329543,-0.0062977173,0.0031276864,-0.08138052,-0.3906453,-0.3499639,0.060045164,3.0764601,-0.6233803,-0.00029241946,-0.09671293,-0.015224119,-0.0013011952,-0.028244555,0.0050224937,0.00015939608,0.47026137,-1.4093783,1.9383806,-2.1000993,-1.5687097,2.444552,-0.07470167,0.17251459,-0.19821155,0.008482672,0.022626106,-0.07473526,0.1340753,0.2681506,-9.193734,0.8672237,47.68062,-0.98640156,-2.076768,-3.2720227,-0.23041883,0.30698875,-0.310761,25.0625,25.5,24.875,27.125,27.4375,27.875
0.20405225,-0.29274857,-1.3474822,-1.162711,-0.025852658,-0.0106607685,-0.09023686,-0.39084938,-0.3500013,0.060070276,3.0763595,-0.62334037,-0.0003501978,-0.09745229,-0.015183714,-0.000871815,-0.028797915,0.0057268534,-7.485835e-05,0.4701052,-1.409078,1.9379739,-2.100088,-1.5686496,2.4443839,-0.07549819,0.1726183,-0.19940597,0.008703334,0.02280909,-0.07529492,0.19153613,0.30645782,-9.174581,0.9567419,47.664497,-0.9459223,-1.9153361,-3.348968,-0.24459982,0.3145743,-0.3266585,25.0625,25.5,24.875,27.125,27.4375,27.875
0.20605232,-0.2843873,-1.990689,-1.1946434,-0.04494838,0.010107133,-0.09489929,-0.3910343,-0.35003808,0.060062315,3.0763125,-0.6233504,-0.00031461328,-0.09818016,-0.015135804,-0.0014450075,-0.028620576,0.004039189,-0.001600426,0.46997282,-1.408717,1.9375666,-2.1000512,-1.5686015,2.444264,-0.07657543,0.17529999,-0.20148072,0.009684997,0.023415273,-0.07484504,0.05746084,0.4405331,-9.270349,0.8851263,47.72271,-1.0124592,-1.9005358,-3.3563805,-0.24847655,0.32969156,-0.3388728,25.0625,25.5,24.875,27.125,27.4375,27.875
0.20805244,-0.50373024,-2.5064855,-1.1076572,-0.061009604,0.020042155,-0.09674963,-0.3912409,-0.35005513,0.060065597,3.076291,-0.6233455,-0.00035558248,-0.09854214,-0.015783636,-0.00036933445,-0.029947033,0.0050355345,-0.0008445195,0.46981695,-1.408369,1.9371485,-2.100015,-1.568601,2.444108,-0.07617848,0.17452179,-0.203354,0.010849393,0.02415134,-0.07520247,0.095768064,0.49799395,-9.308657,0.7866488,47.65643,-0.9897362,-1.9163263,-3.3674455,-0.2475237,0.33604258,-0.36945337,25.0625,25.5,24.875,27.125,27.4375,27.875
0.21005172,-1.434824,-2.7727277,-1.209883,-0.06738705,0.011529089,-0.085796006,-0.39142302,-0.35008058,0.06005318,3.076253,-0.6232989,-0.00029501767,-0.10016509,-0.015061165,-0.0003728786,-0.030298002,0.0049681934,-0.0021447306,0.46965984,-1.4080198,1.9367651,-2.0999792,-1.5685409,2.4439268,-0.0790686,0.17605004,-0.2052282,0.011107025,0.024497023,-0.076791346,0.095768064,0.61291564,-9.32781,0.83813137,47.677036,-0.88577724,-1.9867628,-3.2411466,-0.2550315,0.34848815,-0.38496667,25.0625,25.5,24.875,27.125,27.4375,27.875
0.21205176,-1.2371733,-3.1829236,-1.2392049,-0.060934063,0.024435079,-0.07871613,-0.39164308,-0.35013533,0.0600615,3.0761538,-0.62323666,-0.0002982426,-0.09989554,-0.016397446,-0.00045018073,-0.030793296,0.0048425826,0.0027047193,0.46950492,-1.407635,1.9362983,-2.0999668,-1.568457,2.4437459,-0.07674949,0.17755097,-0.20685506,0.011134898,0.025005167,-0.079318926,0.076614454,0.6703765,-9.308657,0.95897776,47.689575,-1.0717895,-1.8217341,-3.3909957,-0.2625985,0.3544586,-0.38366428,25.0625,25.5,24.875,27.125,27.4375,27.875
0.21405193,-1.2410747,-2.8096323,-1.2563707,-0.050874047,0.027525492,-0.07956826,-0.39181113,-0.35015023,0.060040455,3.07616,-0.6231976,-0.00026938017,-0.1011109,-0.016848054,5.6251818e-05,-0.032354604,0.0059008067,0.0055406755,0.4693725,-1.4072986,1.9359516,-2.099943,-1.5684446,2.4435885,-0.07758632,0.17850341,-0.20908272,0.010769226,0.025921788,-0.08299051,0.0,0.49799395,-9.308657,0.91421866,47.68599,-1.0772827,-1.8066881,-3.4814181,-0.2613643,0.3407261,-0.3638564,25.0625,25.5,24.875,27.125,27.4375,27.875
0.21605286,-0.58967954,-2.1361668,-1.3272634,-0.041267782,0.03279717,-0.08953118,-0.3920535,-0.35020372,0.06004348,3.0760612,-0.62313765,-0.00030088273,-0.10382595,-0.0166307,0.00032635173,-0.03406623,0.00730109,0.007034888,0.4692033,-1.406877,1.93546,-2.0999558,-1.5683726,2.4433947,-0.08090623,0.1810655,-0.2124579,0.009577509,0.026825206,-0.08780002,-0.019153614,0.4405331,-9.270349,0.92764956,47.66808,-0.9052384,-1.8228259,-3.3788033,-0.23269579,0.33500558,-0.31944215,25.0625,25.5,24.875,27.125,27.4375,27.875
0.21805212,-0.8316963,-1.6727656,-1.3845702,-0.02351783,0.02275966,-0.092204854,-0.39223868,-0.35021403,0.060024668,3.0760338,-0.62312806,-0.00023411949,-0.103048764,-0.018426165,-0.0008015002,-0.03419487,0.0054550287,0.014288527,0.46902466,-1.406527,1.9350895,-2.0999196,-1.568324,2.4432137,-0.077619754,0.18463607,-0.2139786,0.009131083,0.027780594,-0.0917659,-0.019153614,0.3256114,-9.251195,0.85155696,47.68062,-1.2156963,-1.9843681,-3.362768,-0.2392054,0.35422704,-0.260418,25.0625,25.5,24.875,27.125,27.4375,27.875
0.2200522,-1.0956018,-1.572971,-1.4211426,-0.014007574,0.02094339,-0.08462773,-0.39245537,-0.35024655,0.060019784,3.0760233,-0.6230255,-0.00026323288,-0.103540495,-0.01767404,-0.0018479662,-0.033016343,0.0038309577,0.020082477,0.46888018,-1.4061301,1.9346355,-2.0998957,-1.568312,2.4430068,-0.07913088,0.18687496,-0.2142699,0.009188221,0.02748362,-0.099069975,-0.038307227,0.28730422,-9.308657,0.842603,47.67345,-1.1596644,-2.017082,-3.5021093,-0.21263364,0.33443218,-0.20689777,25.0625,25.5,24.875,27.125,27.4375,27.875
0.22205216,-0.9333349,-1.3378823,-1.340625,-0.018117763,0.032884337,-0.08857898,-0.39267614,-0.35033157,0.060028505,3.075887,-0.6228827,-0.00024899867,-0.10485604,-0.017806463,-0.0012761018,-0.034150884,0.004910986,0.019827068,0.46874762,-1.4057219,1.9341458,-2.0999076,-1.56818,2.4428027,-0.08035289,0.18760858,-0.21649718,0.009223071,0.028016785,-0.10003273,-0.038307227,0.30645782,-9.346964,1.0082139,47.686886,-1.1178304,-1.9070092,-3.5206566,-0.20999798,0.36439008,-0.15995616,25.0625,25.5,24.875,27.125,27.4375,27.875
0.22405167,-0.72704554,-1.3649662,-1.0725267,-0.015034509,0.036389362,-0.09616172,-0.3928724,-0.3503585,0.060038406,3.0758584,-0.6227776,-0.00028219976,-0.10561718,-0.018513367,-0.0013431861,-0.034753863,0.004085038,0.023969455,0.46860364,-1.4053965,1.9337381,-2.0998719,-1.5681552,2.442597,-0.0803289,0.19013847,-0.21956213,0.010236214,0.028940016,-0.10414767,-0.05746084,0.22984336,-9.270349,0.9567419,47.686886,-1.172087,-2.0085392,-3.496836,-0.20130023,0.34602362,-0.110957995,25.0625,25.5,24.875,27.125,27.4375,27.875
0.2260518,-1.101262,-1.2390897,-1.2511034,-0.012772336,0.031440206,-0.08356804,-0.39310533,-0.35040247,0.060008977,3.0757563,-0.6227962,-0.00022922349,-0.10644892,-0.01878891,-0.0017763127,-0.03510652,0.003517716,0.020927453,0.4684117,-1.4049394,1.9332837,-2.0999076,-1.5680593,2.4424298,-0.08088033,0.19259147,-0.22145073,0.010025959,0.029507745,-0.10165464,-0.17238252,0.19153614,-9.270349,0.9254084,47.668976,-1.2094584,-2.0856063,-3.5260572,-0.19055633,0.33995974,-0.08966368,25.0625,25.5,24.875,27.125,27.4375,27.875
0.22805198,-1.2010404,-1.3262538,-1.461282,-0.0069206995,0.03786126,-0.07984399,-0.39329848,-0.35044274,0.060009837,3.0757275,-0.6226761,-0.00021067454,-0.10731901,-0.018865298,-0.0020302646,-0.035234187,0.0032132172,0.0187033,0.46827948,-1.4045782,1.9328521,-2.09986,-1.5680116,2.4422264,-0.08162689,0.19456573,-0.22323085,0.010049961,0.029756721,-0.10017523,-0.22984336,0.038307227,-9.308657,0.8784135,47.678825,-1.286275,-2.0277524,-3.5755014,-0.19368374,0.33282852,-0.08766255,25.0625,25.5,24.875,27.125,27.4375,27.875
0.23005201,-1.1894301,-0.9713685,-1.3132612,-0.0040208255,0.037520606,-0.080989,-0.39352652,-0.3504777,0.060024295,3.075658,-0.62260664,-0.00021993597,-0.107999906,-0.018473431,-0.0025705197,-0.034094114,0.0022605234,0.015219675,0.46809915,-1.4042045,1.9323748,-2.0998113,-1.5679516,2.4420118,-0.08247821,0.19671124,-0.22471967,0.010764405,0.029170308,-0.09754106,-0.1340753,0.095768064,-9.251195,0.9164598,47.666286,-1.1997708,-2.2632806,-3.614874,-0.17924416,0.3333421,-0.08992209,25.0625,25.5,24.875,27.125,27.4375,27.875
0.23205225,-1.5713447,-1.1173102,-1.3882093,0.007674844,0.028922588,-0.08550386,-0.3937398,-0.350505,0.06000662,3.0755935,-0.622614,-0.00018985549,-0.10905874,-0.018635955,-0.0024172761,-0.03465427,0.0021947136,0.01134411,0.46791872,-1.403808,1.9319552,-2.0998113,-1.5678915,2.4418445,-0.08340412,0.19832914,-0.22716177,0.011395868,0.029694552,-0.094589174,-0.30645782,0.076614454,-9.289502,0.8851263,47.687782,-1.2491713,-2.229637,-3.5127945,-0.1926375,0.34290665,-0.12399683,25.0625,25.5,24.875,27.125,27.4375,27.875
0.2340525,-1.592025,-1.2235801,-1.3377678,6.401376e-06,0.04280312,-0.0765977,-0.39395002,-0.3505317,0.059995163,3.07559,-0.6224992,-0.00017816132,-0.10955079,-0.019289501,-0.002448752,-0.036680378,0.0013754485,0.00711546,0.4677625,-1.4034111,1.9315127,-2.0997756,-1.5678667,2.4416173,-0.0840178,0.1996607,-0.2287109,0.011420227,0.031864285,-0.090971254,-0.4213795,0.095768064,-9.289502,0.9298854,47.66987,-1.2213212,-2.161591,-3.573163,-0.18699013,0.32486796,-0.1523534,25.0625,25.5,24.875,27.125,27.4375,27.875
0.23605189,-1.7801706,-1.2505093,-1.3136351,-0.009839936,0.05481042,-0.082306944,-0.39416602,-0.3505938,0.060001016,3.0754833,-0.6224616,-0.00015532906,-0.11111908,-0.01860703,-0.0021857114,-0.037206296,0.001446429,0.0014187914,0.4676177,-1.4030145,1.9310335,-2.0997508,-1.5677704,2.4414628,-0.08681685,0.20068656,-0.23073083,0.012117406,0.032299783,-0.08807061,-0.5554548,0.15322891,-9.232041,0.8560339,47.705692,-1.1955031,-2.1411445,-3.5465603,-0.16251364,0.3051921,-0.22819301,25.0625,25.5,24.875,27.125,27.4375,27.875
0.2380521,-1.8253466,-1.305534,-1.4486309,-0.02005515,0.062179755,-0.08767023,-0.39435568,-0.35061836,0.05994741,3.075458,-0.62251383,3.2546694e-05,-0.11206766,-0.02043565,-0.0009955765,-0.040216852,0.0029629557,0.00049514597,0.467438,-1.4025582,1.9306148,-2.099703,-1.5676855,2.441319,-0.085663006,0.201563,-0.23460789,0.012407565,0.034287147,-0.08599253,-0.61291564,0.19153613,-9.404425,0.842603,47.699425,-1.193186,-2.0370612,-3.4889407,-0.17466412,0.28360265,-0.25340438,25.0625,25.5,24.875,27.125,27.4375,27.875
0.24005213,-2.4248466,-1.6526244,-1.4681045,-0.02158949,0.058466516,-0.07931459,-0.3945917,-0.35065946,0.0599605,3.0753815,-0.62244093,-2.2446973e-05,-0.11307576,-0.020586945,-1.20723835e-05,-0.041628808,0.0038701058,-0.0016288088,0.46726963,-1.402174,1.9301361,-2.0996912,-1.5676373,2.4411151,-0.086766586,0.20125186,-0.23679534,0.013464033,0.035144918,-0.08496794,-0.6895301,0.15322891,-9.385271,0.85826975,47.705692,-1.2215614,-1.9862177,-3.4639802,-0.16291097,0.25991604,-0.30873725,25.0625,25.5,24.875,27.125,27.4375,27.875
0.24205261,-2.640278,-2.222818,-1.9413841,-0.012681132,0.05983003,-0.06982959,-0.39481694,-0.35071418,0.059959482,3.075299,-0.62244576,3.3093413e-05,-0.115519,-0.018790836,-0.00027563897,-0.040963117,0.0038374383,-0.0063512013,0.46711192,-1.4017409,1.9296216,-2.099631,-1.5675534,2.4409711,-0.09163271,0.20330945,-0.23871417,0.013669564,0.03456714,-0.085110545,-0.57460845,0.22984336,-9.442732,0.90750587,47.701214,-0.9665891,-1.9890258,-3.4809108,-0.17579484,0.23144555,-0.3131801,25.0625,25.5,24.875,27.125,27.4375,27.875
0.24405229,-2.3399088,-1.709425,-1.7581162,-0.0164302,0.07475834,-0.07879478,-0.39504018,-0.35073724,0.059948437,3.0752084,-0.62254226,7.687133e-05,-0.11521281,-0.019461121,-0.0013566157,-0.039972506,0.001961965,-0.007461804,0.46690875,-1.4013431,1.9291791,-2.0996072,-1.5674819,2.44084,-0.09008963,0.2064006,-0.23999314,0.013982962,0.034524392,-0.08245535,-0.51714754,0.22984336,-9.595961,0.9231726,47.668976,-1.1793089,-2.0289435,-3.5731354,-0.15216833,0.24641412,-0.38671708,25.0625,25.5,24.875,27.125,27.4375,27.875
0.24605179,-2.560674,-1.612715,-1.5985343,-0.028418168,0.0675732,-0.0833915,-0.39527032,-0.3507699,0.059925526,3.0751452,-0.62253,0.00013478007,-0.118028685,-0.019572336,9.0086005e-06,-0.042936817,0.00427663,-0.008781202,0.4667155,-1.4008987,1.9287118,-2.0995948,-1.5674089,2.4406474,-0.09332953,0.207318,-0.24423607,0.013920739,0.036130134,-0.08437209,-0.61291564,0.21068975,-9.481039,0.8493211,47.66987,-1.0105457,-1.9739031,-3.552012,-0.16928566,0.233701,-0.44351858,25.0625,25.5,24.875,27.125,27.4375,27.875
0.24805194,-2.0051134,-1.8080076,-1.8779831,-0.015198756,0.066456944,-0.080196604,-0.39552572,-0.35081336,0.059939045,3.0750618,-0.62249476,8.174893e-05,-0.11936915,-0.019221231,0.00027640612,-0.04394929,0.0048985532,-0.011839151,0.4665346,-1.400478,1.9281863,-2.099571,-1.5673608,2.4404554,-0.09544518,0.20802009,-0.24567808,0.013655096,0.03675948,-0.083425626,-0.4213795,0.19153613,-9.557653,0.8179876,47.683304,-0.85887235,-1.8533918,-3.5359197,-0.15148778,0.18727304,-0.46580774,25.0625,25.5,24.875,27.125,27.4375,27.875
0.2500521,-1.6261383,-1.3721609,-2.1011755,0.0005231732,0.05158107,-0.082983345,-0.39576063,-0.35086593,0.059941046,3.074919,-0.6225797,0.00014239381,-0.12043695,-0.018910488,-0.0008036906,-0.043248456,0.0035214243,-0.010512276,0.46634227,-1.4000564,1.9276832,-2.0995352,-1.5672406,2.4403346,-0.09685308,0.21162343,-0.24742666,0.013372072,0.036763612,-0.0861576,-0.45968673,0.15322891,-9.691729,0.8224646,47.681515,-0.81536853,-1.9295745,-3.5048106,-0.1514642,0.18458495,-0.50041837,25.0625,25.5,24.875,27.125,27.4375,27.875
0.25205237,-1.3585728,-1.2971145,-1.8484646,-0.005133793,0.052985694,-0.0829541,-0.39599058,-0.3508785,0.05991866,3.0748897,-0.62255156,0.00016577975,-0.12143719,-0.01892766,-0.0012627327,-0.04282263,0.0031785415,-0.0065161036,0.46613818,-1.3996351,1.9272412,-2.0995233,-1.5672048,2.440117,-0.09749134,0.21425496,-0.24952845,0.01336753,0.036550015,-0.09079085,-0.38307226,0.21068975,-9.557653,0.9186956,47.686886,-0.8364217,-1.9961153,-3.633815,-0.122454084,0.15896353,-0.48945624,25.0625,25.5,24.875,27.125,27.4375,27.875
0.2540519,-1.6837004,-1.7092189,-1.823865,-0.002808782,0.048509277,-0.08229948,-0.39624798,-0.3509269,0.05993294,3.0747616,-0.6225405,0.00015683634,-0.12212752,-0.019551592,-0.00036832446,-0.044285852,0.004358745,-0.00034425862,0.46593416,-1.3992146,1.9267138,-2.0994995,-1.5671085,2.4399226,-0.09743136,0.21410842,-0.25159398,0.013902952,0.037352044,-0.09689822,-0.30645782,0.2681506,-9.5385,0.9321212,47.704796,-0.8429798,-1.9920254,-3.7385259,-0.12772726,0.13625653,-0.44460487,25.0625,25.5,24.875,27.125,27.4375,27.875
0.25605208,-1.8701835,-1.7100817,-1.733805,-0.013339483,0.052413706,-0.07710881,-0.39649096,-0.35096616,0.059929788,3.074702,-0.6224856,0.00020207408,-0.122625634,-0.01994555,-0.0010241299,-0.043630224,0.003402181,0.0062918547,0.46574244,-1.3987689,1.9261883,-2.0994394,-1.5670365,2.4397044,-0.09701537,0.21707,-0.25371957,0.0142534105,0.037215106,-0.10311673,-0.24899697,0.22984336,-9.481039,0.8090337,47.691364,-0.88076437,-2.0831244,-3.6772258,-0.124612585,0.103924036,-0.4030127,25.0625,25.5,24.875,27.125,27.4375,27.875
0.25805178,-1.3842227,-1.8412666,-1.7626154,-0.022403115,0.059416138,-0.08672396,-0.39674866,-0.35098922,0.05992367,3.0746233,-0.6225053,0.00017706596,-0.12475376,-0.019282565,-0.0012056333,-0.043028187,0.0035106963,0.0102566285,0.46552548,-1.3983358,1.9256977,-2.099439,-1.5669893,2.43951,-0.099598594,0.22012118,-0.25706643,0.0147615895,0.036651,-0.10966174,-0.19153613,0.19153613,-9.442732,0.8851263,47.703007,-0.80721855,-2.061882,-3.6582417,-0.111788504,0.10679049,-0.32523704,25.0625,25.5,24.875,27.125,27.4375,27.875
0.260052,-0.55093026,-1.4793713,-1.527537,-0.03489838,0.06988078,-0.09349049,-0.3969811,-0.35102066,0.059899908,3.0745747,-0.6223757,0.000245652,-0.12538196,-0.020704828,-0.0013717199,-0.043044098,0.0038525085,0.017641922,0.465322,-1.3978903,1.9252299,-2.099427,-1.5669049,2.439232,-0.09751149,0.22336297,-0.26055133,0.0147293275,0.036524378,-0.11495798,-0.095768064,0.3256114,-9.442732,0.88960326,47.692257,-0.9243149,-2.0919216,-3.562367,-0.12790862,0.0949245,-0.26425564,25.0625,25.5,24.875,27.125,27.4375,27.875
0.26205224,-1.2287042,-1.7582668,-1.87624,-0.016705668,0.033237275,-0.08294771,-0.39723784,-0.35105565,0.05991014,3.074532,-0.6223081,0.00019699594,-0.12782651,-0.020418176,0.00029625813,-0.044117454,0.0075779203,0.017877745,0.46514174,-1.397458,1.9246916,-2.0993788,-1.5668811,2.4390154,-0.099630676,0.22289053,-0.26389074,0.01475105,0.035822757,-0.1173107,-0.05746084,0.3256114,-9.500193,0.97240865,47.705692,-0.94189095,-2.1940618,-3.5683734,-0.10608418,0.08983461,-0.20717824,25.0625,25.5,24.875,27.125,27.4375,27.875
0.26405254,-0.44204533,-1.7749976,-1.7970428,-0.01782268,0.030741246,-0.08578848,-0.39749822,-0.35111365,0.059917554,3.0744019,-0.6222203,0.00021132472,-0.12824053,-0.021020446,0.00012663586,-0.043144643,0.007964161,0.022259984,0.4649382,-1.3970128,1.9241532,-2.0993674,-1.5667619,2.4387739,-0.098207004,0.22495866,-0.2660609,0.014980732,0.034799278,-0.12026691,-0.11492168,0.30645782,-9.500193,0.9567419,47.690468,-0.93579215,-2.0877817,-3.517231,-0.099777,0.10101271,-0.15394746,25.0625,25.5,24.875,27.125,27.4375,27.875
0.26605245,-0.59515464,-2.0804536,-1.5795755,-0.028917661,0.011830553,-0.08258175,-0.39775985,-0.35113454,0.059899304,3.0743659,-0.62221724,0.00023282014,-0.12988973,-0.020868963,0.00088440446,-0.043457434,0.010052948,0.016543474,0.4647216,-1.3965323,1.9236258,-2.0993311,-1.5667256,2.4385602,-0.09940258,0.22551785,-0.26851314,0.014863005,0.03413096,-0.115745604,-0.11492168,0.36391866,-9.404425,0.8918391,47.661808,-0.9772686,-2.1503193,-3.4793215,-0.08697192,0.08818576,-0.1623307,25.0625,25.5,24.875,27.125,27.4375,27.875
0.26805383,-1.3601079,-2.0809243,-1.5035087,-0.039417658,0.006478619,-0.074215785,-0.39801887,-0.3511877,0.059898276,3.0742939,-0.62210727,0.00023074828,-0.13183707,-0.020898324,0.0019724588,-0.04386251,0.012328915,0.012896235,0.46454138,-1.3960634,1.9230756,-2.0993073,-1.5666541,2.4383209,-0.10055429,0.22631145,-0.27216002,0.015507001,0.033471324,-0.11324774,-0.11492168,0.38307226,-9.404425,0.8851263,47.66808,-0.8630082,-2.055724,-3.4509277,-0.0691024,0.08529647,-0.17932782,25.0625,25.5,24.875,27.125,27.4375,27.875
0.2700541,-1.0578309,-2.041201,-1.5921274,-0.040530674,0.024722785,-0.070864685,-0.39828122,-0.3512271,0.059904885,3.0742283,-0.6220976,0.0002222717,-0.13279928,-0.020816738,0.0030893807,-0.0437426,0.0137706,0.006082179,0.4643492,-1.3956071,1.9225138,-2.0992463,-1.5666059,2.4381313,-0.10096565,0.22582902,-0.27462184,0.017204711,0.032708667,-0.10684417,-0.19153613,0.59376204,-9.3661175,0.8493211,47.672558,-0.9528061,-2.1400244,-3.3678346,-0.069588035,0.092931636,-0.26736534,25.0625,25.5,24.875,27.125,27.4375,27.875
0.27205345,-0.9608679,-2.3061304,-1.5094717,-0.033687614,0.049541887,-0.07925649,-0.39854243,-0.35127467,0.05991447,3.074134,-0.6220602,0.0002067817,-0.13168646,-0.020418148,0.0023109885,-0.04220536,0.011045561,0.0045311633,0.46415734,-1.3951627,1.921965,-2.0992105,-1.5665339,2.4379284,-0.10050257,0.22618632,-0.2738081,0.019164866,0.03256749,-0.1048289,-0.11492168,0.5363012,-9.442732,0.8493211,47.705692,-0.9594879,-1.9170525,-3.4872699,-0.097798415,0.09973489,-0.2987609,25.0625,25.5,24.875,27.125,27.4375,27.875
0.2740529,-1.1679186,-2.2551234,-1.6541171,-0.037719037,0.0517149,-0.08017732,-0.3988034,-0.3513192,0.059905842,3.0740678,-0.6219498,0.0002458872,-0.13200045,-0.020035097,0.0019296848,-0.041110523,0.010705944,0.0036181982,0.46395338,-1.3946819,1.9214147,-2.0991743,-1.5664505,2.4376643,-0.100831494,0.22724594,-0.27434734,0.01945421,0.031747293,-0.10424507,-0.019153614,0.5554548,-9.461885,0.8717007,47.690468,-1.0315744,-1.843966,-3.587882,-0.07583961,0.09235368,-0.32243776,25.0625,25.5,24.875,27.125,27.4375,27.875
0.27605274,-2.0230339,-2.3648872,-1.5652305,-0.028931115,0.0346697,-0.070199676,-0.39907017,-0.35134563,0.059902392,3.0739756,-0.62196976,0.00028584627,-0.1328936,-0.019847497,0.0008897826,-0.03974165,0.0096777305,0.0030281555,0.4637131,-1.3942243,1.9208769,-2.0991266,-1.566367,2.4374485,-0.101359546,0.23081918,-0.27622387,0.01930838,0.030988254,-0.10418221,0.0,0.38307226,-9.519346,0.9030289,47.687782,-1.0018375,-1.7455316,-3.6532278,-0.090233825,0.11068035,-0.33714285,25.0625,25.5,24.875,27.125,27.4375,27.875
0.27805185,-0.73485464,-1.6823212,-1.858883,-0.025861334,0.046437953,-0.077675216,-0.3993452,-0.35139653,0.05990634,3.0739074,-0.6219545,0.00020925698,-0.13268155,-0.020298641,-5.6180255e-05,-0.038861927,0.0085370615,0.0038566526,0.46354565,-1.3937429,1.9203023,-2.0991142,-1.5663427,2.4372807,-0.1001342,0.2331899,-0.27688128,0.019015841,0.030720763,-0.10378293,0.038307227,0.3256114,-9.5385,0.8605109,47.67614,-1.0620418,-1.8819137,-3.6036534,-0.07200523,0.12587154,-0.36605638,25.0625,25.5,24.875,27.125,27.4375,27.875
0.28005207,-1.4660875,-1.8498003,-1.7931228,-0.006990404,0.007978214,-0.06392619,-0.39961427,-0.35143784,0.05990249,3.0738378,-0.6218854,0.00016747216,-0.13596253,-0.019415094,0.0013917801,-0.039687146,0.012001591,-0.0007322418,0.4633521,-1.3932743,1.919763,-2.0991142,-1.566295,2.4370532,-0.103926904,0.23374033,-0.28092924,0.019055815,0.029911261,-0.1029845,0.05746084,0.28730422,-9.500193,0.91421866,47.69763,-0.9663492,-1.8027048,-3.6583557,-0.0665796,0.11268177,-0.3902012,25.0625,25.5,24.875,27.125,27.4375,27.875
0.2820521,-0.6842365,-1.1122494,-1.5765005,-0.0150055215,0.01334517,-0.08023097,-0.39989084,-0.35147262,0.059912898,3.0737495,-0.6218611,0.00016731666,-0.13551183,-0.021353142,0.00036669825,-0.03851918,0.011041901,0.007840373,0.46312588,-1.3928163,1.9191898,-2.0990546,-1.5662235,2.4368234,-0.0996959,0.23806968,-0.28374165,0.018955057,0.029315284,-0.107324034,0.038307227,0.3256114,-9.308657,0.9545008,47.689575,-1.2135603,-1.9882212,-3.5939426,-0.04142169,0.1260733,-0.35552484,25.0625,25.5,24.875,27.125,27.4375,27.875
0.28405252,-0.38800043,-0.77450246,-1.9544111,0.0011466708,0.0077001224,-0.08072888,-0.4001435,-0.35151583,0.059894707,3.0736616,-0.62184423,0.00023255235,-0.1378031,-0.019383444,-0.00040841536,-0.03741113,0.009617402,0.0051820492,0.4629201,-1.3923349,1.9186624,-2.0990303,-1.5661277,2.4366186,-0.10479955,0.24108234,-0.28580922,0.019808201,0.02897349,-0.10976848,0.05746084,0.30645782,-9.3661175,0.9388393,47.699425,-1.0594265,-2.1172895,-3.5914333,-0.05636908,0.13708597,-0.36795473,25.0625,25.5,24.875,27.125,27.4375,27.875
0.2860526,-0.583944,-0.9312179,-1.7971581,-0.023269294,0.022291753,-0.086764224,-0.40044934,-0.3515594,0.05991636,3.0736175,-0.6218098,0.0001324603,-0.13831796,-0.02104302,0.0004983878,-0.037648592,0.011716827,0.014926697,0.46272933,-1.39183,1.9180053,-2.0989583,-1.5661281,2.4364123,-0.10183185,0.24227616,-0.28951117,0.020370714,0.028278952,-0.11654321,0.095768064,0.28730422,-9.5385,0.8806493,47.696735,-1.1789112,-2.0987172,-3.5260203,-0.03285491,0.15147528,-0.28614995,25.0625,25.5,24.875,27.125,27.4375,27.875
0.28805164,-0.6261098,-2.2750108,-1.5638573,-0.03194476,0.047195766,-0.07966104,-0.40071332,-0.35159323,0.059925515,3.0735257,-0.62171274,9.81541e-05,-0.14110307,-0.021197941,0.0024202946,-0.039180353,0.01560461,0.017994592,0.4625125,-1.3914092,1.9174889,-2.0989463,-1.5660557,2.436147,-0.10367114,0.24247783,-0.29431885,0.020852609,0.02793859,-0.121447094,0.05746084,0.24899697,-9.346964,0.87617236,47.67345,-1.1210034,-2.1687827,-3.3914607,-0.05116404,0.17243043,-0.25039995,25.0625,25.5,24.875,27.125,27.4375,27.875
0.2900522,-1.3789946,-2.046489,-1.6700089,-0.03538377,0.028541522,-0.08102516,-0.4009978,-0.3516287,0.059920065,3.0734801,-0.62167907,0.00011764944,-0.14197102,-0.021112321,0.0019351544,-0.03875905,0.014841728,0.02455489,0.4622964,-1.3908925,1.9168795,-2.0988743,-1.566008,2.435916,-0.104466625,0.244955,-0.29634166,0.021315344,0.027933748,-0.12880157,-0.076614454,0.30645782,-9.500193,0.79560274,47.677036,-1.0869352,-2.0666044,-3.3807511,-0.038299136,0.20042995,-0.17149888,25.0625,25.5,24.875,27.125,27.4375,27.875
0.29205254,-1.2928712,-1.9817634,-1.6542878,-0.041470334,0.0469626,-0.078785755,-0.40129253,-0.35169184,0.05993737,3.0733786,-0.6215622,5.6648343e-05,-0.14178525,-0.020590724,0.0011881628,-0.03816453,0.012934539,0.02639592,0.462104,-1.3903995,1.9162568,-2.09885,-1.5659355,2.435664,-0.105324045,0.24590585,-0.2960362,0.022057686,0.028283458,-0.13149682,-0.15322891,0.38307226,-9.557653,0.9701675,47.69763,-1.0875567,-2.0679743,-3.4014814,-0.038727514,0.20835757,-0.089706525,25.0625,25.5,24.875,27.125,27.4375,27.875
0.294052,-1.1265455,-1.609279,-1.9373764,-0.040709354,0.05358535,-0.07616197,-0.40157068,-0.35170832,0.05992549,3.0733767,-0.62148565,8.4783605e-05,-0.14193922,-0.020442432,0.0014596626,-0.03894667,0.012638956,0.025426118,0.46187565,-1.3898945,1.9156722,-2.0987656,-1.5659112,2.4353883,-0.10613391,0.24542089,-0.2963661,0.022794567,0.029121587,-0.13133551,-0.19153613,0.3256114,-9.634268,1.0395473,47.69763,-1.1156604,-2.0265067,-3.6697774,-0.0318532,0.21541834,-0.0719746,25.0625,25.5,24.875,27.125,27.4375,27.875
0.29605195,-1.2773983,-1.4484001,-1.4201251,-0.045397323,0.061421808,-0.08040293,-0.4018739,-0.35176814,0.05994979,3.0732615,-0.621368,-7.1356926e-06,-0.14271213,-0.020025237,0.0010056548,-0.037711225,0.012443732,0.021280693,0.46167147,-1.3894142,1.9150509,-2.0987537,-1.5658401,2.4351258,-0.106782004,0.2472893,-0.2976735,0.022960873,0.028109465,-0.12783627,-0.2681506,0.2681506,-9.595961,0.842603,47.664497,-1.1021092,-1.8764951,-3.7108812,-0.04017043,0.21098056,-0.08398861,25.0625,25.5,24.875,27.125,27.4375,27.875
0.29805222,-1.9794888,-1.3188186,-1.197044,-0.036117237,0.05550694,-0.07442439,-0.40213284,-0.3518029,0.059931368,3.0731878,-0.6213189,4.3896907e-05,-0.14577417,-0.019310277,0.0021386049,-0.039753035,0.015426951,0.01218694,0.4614541,-1.3889334,1.9145235,-2.0987308,-1.5657557,2.4348874,-0.11086802,0.24782501,-0.30074194,0.021903865,0.028590262,-0.12282547,-0.59376204,0.17238253,-9.423578,0.8918391,47.64837,-1.0029888,-1.7986369,-3.7144194,-0.029369872,0.2467418,-0.11553113,25.0625,25.5,24.875,27.125,27.4375,27.875
0.30005255,-2.0680087,-0.87732625,-1.4110556,-0.0037945341,0.046367165,-0.07172554,-0.40242878,-0.3518626,0.05995441,3.0731075,-0.621187,-1.2088746e-05,-0.14515425,-0.020922167,0.0021380975,-0.041176394,0.014978928,0.011189648,0.46126306,-1.3884406,1.9138788,-2.0986707,-1.5656952,2.4346247,-0.10836203,0.24876207,-0.3019524,0.021935083,0.030065253,-0.11931562,-0.51714754,0.038307227,-9.461885,0.9388393,47.68599,-1.0906024,-1.69841,-3.6201377,-0.0113318,0.23837042,-0.15974486,25.0625,25.5,24.875,27.125,27.4375,27.875
0.3020519,-1.1115127,0.14482096,-1.3139672,-0.00050093984,0.06849183,-0.08428448,-0.40272632,-0.35189128,0.05995154,3.0729961,-0.6212284,-2.9594368e-05,-0.14810418,-0.0199522,0.002745242,-0.04220804,0.016216673,-3.635313e-05,0.46100965,-1.3879477,1.9133037,-2.0986583,-1.5656227,2.4344118,-0.112690784,0.25057957,-0.30564222,0.022220109,0.030420147,-0.1124138,-0.51714754,0.038307227,-9.32781,0.9835985,47.70032,-1.0089033,-1.6482861,-3.6794896,0.0013497358,0.25031424,-0.23511952,25.0625,25.5,24.875,27.125,27.4375,27.875
0.30405223,-1.6868222,-0.08887012,-1.3894368,0.026557203,0.04923158,-0.07275695,-0.4030404,-0.35193866,0.05997356,3.072887,-0.62124044,-8.75538e-05,-0.14823183,-0.021633744,0.0018267939,-0.041913453,0.014639886,0.0028448682,0.46078265,-1.3874414,1.9126452,-2.0985987,-1.5655631,2.4342067,-0.11005936,0.25524488,-0.3092708,0.022740072,0.030869579,-0.11265779,-0.40222588,-0.05746084,-9.32781,1.0507371,47.71465,-1.0331094,-1.739378,-3.5467162,0.012289833,0.26143968,-0.27941003,25.0625,25.5,24.875,27.125,27.4375,27.875
0.30605164,-1.6438239,0.07874385,-1.4326742,0.020307789,0.05519948,-0.07252406,-0.40330726,-0.35196966,0.059960872,3.0728648,-0.62118214,-9.032738e-05,-0.14962253,-0.021859773,0.0016648063,-0.04241432,0.014261063,-0.002645929,0.46059015,-1.3869475,1.9120826,-2.0985506,-1.5655383,2.433981,-0.111145556,0.2580742,-0.3124473,0.02318794,0.03147116,-0.10824948,-0.47884035,0.1340753,-9.404425,0.87617236,47.713753,-1.016426,-1.9252448,-3.5481074,0.03188661,0.26395142,-0.34565663,25.0625,25.5,24.875,27.125,27.4375,27.875
0.30805176,-1.7797024,-0.7303787,-1.6090522,0.006360483,0.07233994,-0.06909287,-0.40364075,-0.3520251,0.059997696,3.072677,-0.62125885,-0.00018550188,-0.15038167,-0.021788716,0.001784022,-0.04236009,0.013976016,-0.00582713,0.4603381,-1.3864552,1.9114145,-2.0985258,-1.5654424,2.4338014,-0.11184728,0.2592697,-0.31449547,0.024325162,0.031561095,-0.10576446,-0.57460845,0.24899697,-9.385271,0.8627467,47.672558,-1.0749558,-1.9796692,-3.5126271,0.029181298,0.26356956,-0.38177124,25.0625,25.5,24.875,27.125,27.4375,27.875
0.31005192,-2.4381106,-2.0497234,-1.7983745,-0.010639022,0.07639593,-0.063451186,-0.4039333,-0.35207266,0.05999522,3.072647,-0.6212347,-0.00016300134,-0.15126917,-0.021737145,0.0021554034,-0.041838557,0.014383925,-0.0073328726,0.4601459,-1.3859016,1.9107441,-2.0984175,-1.5654072,2.4335983,-0.11218612,0.2602703,-0.3169566,0.025657993,0.030912299,-0.1045984,-0.53630114,0.28730422,-9.500193,0.9634547,47.677036,-1.0349466,-2.0188878,-3.5127425,0.020786341,0.2862878,-0.4474159,25.0625,25.5,24.875,27.125,27.4375,27.875
0.31205216,-1.8273697,-2.0981987,-1.4123311,-0.053772848,0.09692845,-0.075813584,-0.4042417,-0.35210386,0.05999101,3.0725498,-0.6212331,-0.00014120735,-0.15108766,-0.02085306,0.0013014369,-0.040145174,0.011760558,-0.006638829,0.4598816,-1.3853735,1.9101213,-2.0983694,-1.5653232,2.4333458,-0.11322178,0.26160643,-0.31718007,0.027675353,0.030583886,-0.106327966,-0.4213795,0.3256114,-9.461885,0.99702406,47.70838,-1.0473669,-1.93057,-3.471377,-0.01671392,0.31736797,-0.4864015,25.0625,25.5,24.875,27.125,27.4375,27.875
0.31405252,-1.9066013,-2.7415686,-1.6777693,-0.039868623,0.066931844,-0.06274526,-0.40453666,-0.35214388,0.06000397,3.072515,-0.62118477,-0.00019687242,-0.15182568,-0.020193094,0.00062506873,-0.039288823,0.009550726,-0.0033124622,0.45968905,-1.3848679,1.9094771,-2.0982845,-1.5653108,2.4331279,-0.11503985,0.26406747,-0.31908476,0.029513525,0.030830374,-0.111469544,-0.47884035,0.4213795,-9.500193,1.0104496,47.70659,-0.98186326,-1.7907522,-3.61548,-0.038036566,0.33939356,-0.48137158,25.0625,25.5,24.875,27.125,27.4375,27.875
0.31605244,-1.093068,-1.9451325,-1.6839938,-0.055578083,0.06719778,-0.085483946,-0.40488228,-0.3522029,0.06004357,3.0723515,-0.6212225,-0.00031930694,-0.15263842,-0.019796096,4.349001e-05,-0.03966641,0.00835047,0.00377971,0.4594484,-1.3843509,1.9087704,-2.0982492,-1.5652384,2.4329324,-0.116870075,0.26599318,-0.32018295,0.029655296,0.031762384,-0.120384276,-0.30645782,0.47884035,-9.423578,0.9634547,47.678825,-0.9212141,-1.8382208,-3.7675633,-0.046398364,0.35980356,-0.42752972,25.0625,25.5,24.875,27.125,27.4375,27.875
0.3180524,-0.8264126,-1.7343771,-1.3742495,-0.051520936,0.049426973,-0.088563606,-0.40518752,-0.35224724,0.060035046,3.0722804,-0.6211665,-0.00035785098,-0.15339144,-0.020058302,-0.00024040614,-0.040270112,0.008054195,0.010169259,0.45923233,-1.3838094,1.9081491,-2.0982373,-1.5651897,2.4326909,-0.11739027,0.26790676,-0.32188603,0.029491104,0.03247572,-0.1272892,-0.22984336,0.34476504,-9.519346,0.88960326,47.655537,-0.95431083,-1.8309448,-3.8193994,-0.040474802,0.3642081,-0.35929948,25.0625,25.5,24.875,27.125,27.4375,27.875
0.3200523,-0.3080466,-1.6142422,-1.3077968,-0.038239226,0.04808466,-0.081125386,-0.40550587,-0.3522875,0.060046434,3.072162,-0.62111545,-0.00036795292,-0.15436365,-0.021405898,0.00029915752,-0.041785292,0.00919079,0.02078264,0.45896876,-1.3832927,1.9075035,-2.0981896,-1.5650939,2.432411,-0.11633527,0.2697712,-0.32544747,0.029569035,0.033384092,-0.136841,-0.11492168,0.30645782,-9.346964,0.98135734,47.650166,-0.93992007,-1.8008189,-3.724122,-0.035294436,0.38098547,-0.2496558,25.0625,25.5,24.875,27.125,27.4375,27.875
0.3220518,-0.43508178,-1.2591581,-1.0582757,-0.029001273,0.041230306,-0.075206,-0.40584165,-0.35232335,0.060043443,3.0721233,-0.6209927,-0.00043123847,-0.15704678,-0.021190979,0.001111303,-0.043580826,0.0104440125,0.020867888,0.45872748,-1.3827151,1.9068207,-2.0981529,-1.5650696,2.4320984,-0.11954164,0.2716991,-0.3298331,0.030134112,0.034462012,-0.14012529,-0.1340753,0.30645782,-9.212888,1.0082139,47.67614,-0.89601326,-1.8294792,-3.4962935,-0.04295086,0.37446874,-0.19549313,25.0625,25.5,24.875,27.125,27.4375,27.875
0.32405218,-0.16259679,-0.8390594,-1.1721809,-0.0024511502,0.040436137,-0.08654582,-0.40611723,-0.35236967,0.060029693,3.0720477,-0.620917,-0.0002723908,-0.15767926,-0.023280287,0.003188718,-0.046214018,0.013569976,0.02502469,0.45848858,-1.3821748,1.9061874,-2.0980332,-1.564937,2.431822,-0.11697505,0.27080327,-0.333841,0.031101784,0.035443626,-0.14171234,-0.19153613,0.2681506,-9.232041,0.9567419,47.66271,-0.9940343,-1.7864399,-3.5473723,-0.042611703,0.38962373,-0.14242236,25.0625,25.5,24.875,27.125,27.4375,27.875
0.3260521,-0.8329632,-0.7612789,-1.1095544,-0.0045042015,0.03186919,-0.07610583,-0.40648028,-0.35242108,0.06006363,3.0719216,-0.6208349,-0.00043213242,-0.15762535,-0.023351092,0.001966873,-0.046238355,0.010342511,0.021803817,0.45823652,-1.381634,1.9054693,-2.0980208,-1.5648888,2.4315355,-0.11757942,0.27375287,-0.33490217,0.03209238,0.036911957,-0.13908465,-0.22984336,0.30645782,-9.155427,1.0552088,47.664497,-0.9598129,-1.673017,-3.3785386,-0.049325272,0.37749898,-0.15349467,25.0625,25.5,24.875,27.125,27.4375,27.875
0.32805255,-0.21596393,-0.8303427,-0.7980271,-0.029053925,0.052180924,-0.080199525,-0.40679568,-0.35244155,0.06005327,3.07187,-0.6208281,-0.00041368595,-0.15814595,-0.023657382,0.0027298753,-0.04726139,0.010518875,0.015204151,0.45797226,-1.3810807,1.9048232,-2.0979488,-1.5648407,2.431274,-0.11787161,0.2736346,-0.3369899,0.03366445,0.037730683,-0.13277318,-0.22984336,0.34476504,-9.11712,0.88960326,47.683304,-1.0092736,-1.598495,-3.5545292,-0.06634843,0.39427066,-0.21104422,25.0625,25.5,24.875,27.125,27.4375,27.875
0.3300523,-0.21952702,-0.9181943,-0.92076296,-0.039830063,0.054197058,-0.07866841,-0.40707695,-0.35249498,0.06003377,3.0718021,-0.62077785,-0.00029015102,-0.15776427,-0.02376445,0.00093992637,-0.045665227,0.005944318,0.010184339,0.4577563,-1.380515,1.9041771,-2.097852,-1.564732,2.4310355,-0.11760078,0.2780215,-0.33875278,0.035838414,0.038300306,-0.12748033,-0.076614454,0.2681506,-9.136273,0.85155696,47.682407,-0.9846809,-1.6893979,-3.4770174,-0.09910382,0.397537,-0.26397896,25.0625,25.5,24.875,27.125,27.4375,27.875
0.33205226,-0.7322992,-1.8937929,-1.2335641,-0.018209308,0.025466325,-0.074046835,-0.4074246,-0.35255688,0.06005081,3.0717037,-0.6206627,-0.0003765711,-0.15777916,-0.0240744,-0.00022742602,-0.04506685,0.0023526757,0.0067327875,0.45752853,-1.3799373,1.9034475,-2.0978153,-1.5646714,2.430749,-0.11760206,0.28176805,-0.34116757,0.037985098,0.039353006,-0.12402098,-0.019153614,0.3256114,-9.174581,1.0082139,47.699425,-1.1068778,-1.806121,-3.539722,-0.12663719,0.3815492,-0.32934904,25.0625,25.5,24.875,27.125,27.4375,27.875
0.3340516,-0.43218216,-1.4485,-0.9169673,-0.032769706,0.03385919,-0.06935472,-0.40775397,-0.35259625,0.060058624,3.0715714,-0.6207327,-0.0003961503,-0.15891688,-0.023038203,-0.0011945884,-0.044323124,0.00021882265,0.0035655275,0.45726344,-1.3793955,1.9027785,-2.0977676,-1.5645875,2.430545,-0.12038942,0.28463835,-0.3427227,0.038930524,0.039640233,-0.12363639,-0.038307227,0.30645782,-9.193734,1.0462601,47.690468,-0.943186,-1.9195826,-3.5813186,-0.17368725,0.38219914,-0.35999358,25.0625,25.5,24.875,27.125,27.4375,27.875
0.3360517,-0.35450497,-0.9798122,-1.2373024,-0.02574602,0.023662217,-0.0647982,-0.4080756,-0.35264537,0.060044855,3.0715199,-0.6206442,-0.00037985502,-0.15839183,-0.024851343,-0.001026173,-0.04495078,0.00014364424,0.004848431,0.45703664,-1.3787942,1.9020847,-2.097707,-1.5645274,2.43027,-0.117068365,0.28596467,-0.3449994,0.03967315,0.04023137,-0.121594176,-0.019153614,0.34476504,-9.174581,0.85155696,47.674347,-1.1467435,-2.0914037,-3.6268075,-0.1744598,0.38487673,-0.37168914,25.0625,25.5,24.875,27.125,27.4375,27.875
0.33805194,0.31769055,-1.4206219,-1.0590236,-0.020806307,0.03804754,-0.08297265,-0.40837148,-0.35270202,0.060026806,3.0714278,-0.6205866,-0.00027688392,-0.15993749,-0.02469944,-0.0010148505,-0.047297977,-0.00085041317,0.0046432703,0.45680737,-1.3782176,1.9014271,-2.097635,-1.5644068,2.4300168,-0.12010595,0.28781548,-0.3474724,0.040184587,0.042792045,-0.12441628,0.019153614,0.4213795,-9.136273,0.91198283,47.689575,-0.9922789,-1.9541554,-3.5561705,-0.1939823,0.3856318,-0.40428996,25.0625,25.5,24.875,27.125,27.4375,27.875
0.3400521,-0.11206967,-1.6388215,-0.74665236,-0.039318968,0.026602546,-0.07952261,-0.40869,-0.35271928,0.06002022,3.071386,-0.6206531,-0.00023907814,-0.16099258,-0.025510684,7.2891125e-05,-0.04945669,0.0004373719,0.00615685,0.45654362,-1.3776523,1.9007453,-2.0975149,-1.56437,2.4298003,-0.12032724,0.288,-0.35046697,0.040908996,0.044170644,-0.1261456,0.0,0.45968673,-9.002198,0.8403672,47.698532,-1.0649347,-1.9243779,-3.511166,-0.2028048,0.3762387,-0.4185835,25.0625,25.5,24.875,27.125,27.4375,27.875
0.34205222,0.27586952,-1.4346591,-0.90471685,-0.037278052,0.024613272,-0.07773576,-0.4090334,-0.3527778,0.060021106,3.071305,-0.6205951,-0.0002677233,-0.16165054,-0.025293294,-0.0006663714,-0.050278194,-0.0014333576,0.010163921,0.45631507,-1.3770399,1.9000043,-2.0974548,-1.5643095,2.4295464,-0.122114845,0.29021567,-0.35164496,0.04123773,0.045773998,-0.13193123,0.1340753,0.4405331,-8.983045,1.0283576,47.707485,-0.952806,-1.7974644,-3.5367875,-0.23971665,0.36434764,-0.3723355,25.0625,25.5,24.875,27.125,27.4375,27.875
0.34405237,0.13745946,-1.9667792,-1.0712785,-0.047784038,0.0141989235,-0.07164421,-0.4093407,-0.35284624,0.06000283,3.0711956,-0.6205114,-0.000117163254,-0.16354743,-0.02634571,0.00053506275,-0.054217037,0.0004975752,0.016637266,0.45607457,-1.3764269,1.8992981,-2.09736,-1.5641526,2.429268,-0.12346738,0.29102507,-0.3553642,0.040752392,0.048495397,-0.1397463,0.05746084,0.38307226,-9.078813,1.0574499,47.691364,-0.95527005,-1.8323896,-3.6015546,-0.25589323,0.3277262,-0.31256738,25.0625,25.5,24.875,27.125,27.4375,27.875
0.34605175,-0.20468321,-1.9590743,-0.8874106,-0.062632754,0.016893646,-0.071365505,-0.4096678,-0.35287985,0.059993107,3.0711598,-0.6204046,-4.5777477e-05,-0.16499308,-0.02648757,0.0013270224,-0.0555354,0.0017076537,0.021620706,0.4558103,-1.3758259,1.89858,-2.0972393,-1.5640801,2.4289417,-0.12472598,0.29165843,-0.35820535,0.041355316,0.04917955,-0.14598551,0.019153614,0.38307226,-9.11712,0.9030289,47.71554,-0.95237553,-1.6968722,-3.430049,-0.27041847,0.30672243,-0.2067245,25.0625,25.5,24.875,27.125,27.4375,27.875
0.3480518,-0.20214532,-2.2149522,-1.1555531,-0.053706426,0.022586707,-0.06270789,-0.40999588,-0.35293946,0.059994645,3.0710852,-0.62025225,-3.8441078e-05,-0.16572015,-0.027801005,0.001540617,-0.057887595,0.0016496271,0.02575947,0.45558226,-1.3752365,1.8978614,-2.0971677,-1.5639952,2.4286284,-0.124293655,0.2936122,-0.3611671,0.041421134,0.051344503,-0.14968018,-0.095768064,0.49799395,-9.155427,0.99031126,47.672558,-0.9159768,-1.65134,-3.472004,-0.29348186,0.27350485,-0.10681917,25.0625,25.5,24.875,27.125,27.4375,27.875
0.3500517,-0.46408874,-1.9700878,-0.87612617,-0.0547103,0.04217563,-0.069225304,-0.41031525,-0.3529927,0.059998415,3.0709412,-0.620241,7.121479e-05,-0.1655366,-0.028762374,0.0012462843,-0.059324514,0.0008134017,0.027602954,0.45530677,-1.374671,1.8971575,-2.09706,-1.5638388,2.4283648,-0.123379454,0.29487073,-0.36209145,0.04124403,0.053016968,-0.15060161,-0.21068975,0.51714754,-9.174581,0.9679317,47.698532,-1.0409311,-1.8976761,-3.5083354,-0.3186004,0.22058195,-0.10751789,25.0625,25.5,24.875,27.125,27.4375,27.875
0.3520519,-0.90396,-1.5651764,-1.0895138,-0.043486185,0.0652893,-0.068431266,-0.41065583,-0.35304824,0.05997871,3.0708594,-0.62018925,0.00013328863,-0.16670413,-0.029599648,0.00017856788,-0.059294466,0.0008557873,0.022283554,0.45505503,-1.3740218,1.8964156,-2.0969894,-1.563743,2.4280915,-0.12273837,0.29936954,-0.36476013,0.039375637,0.05293979,-0.14463866,-0.05746084,0.34476504,-9.212888,0.99702406,47.72092,-1.0939708,-1.8190773,-3.5364978,-0.31977066,0.21303356,-0.12712874,25.0625,25.5,24.875,27.125,27.4375,27.875
0.3540525,-0.93316394,-0.83404416,-1.0800828,-0.033622254,0.07643709,-0.0699347,-0.4109783,-0.3531185,0.05995478,3.0707488,-0.620094,0.0002455563,-0.16898184,-0.029680803,-0.00018126072,-0.061232656,0.0015279005,0.014056079,0.45481393,-1.3733834,1.8956984,-2.0969298,-1.5635985,2.4278054,-0.12525013,0.30268085,-0.36759895,0.037435763,0.054353893,-0.1389151,-0.076614454,0.40222588,-9.136273,0.98807013,47.70659,-0.90488005,-1.9369128,-3.584342,-0.32056946,0.19273448,-0.2133848,25.0625,25.5,24.875,27.125,27.4375,27.875
0.35605165,-1.0125451,-0.96612954,-0.9256418,-0.02901043,0.08388712,-0.06699576,-0.41132247,-0.35316154,0.059961136,3.0706775,-0.6200799,0.00019169442,-0.16823372,-0.031209923,-0.00035888475,-0.06320827,0.0015295432,0.011698728,0.4545749,-1.3727953,1.8949689,-2.0968583,-1.5635618,2.4275672,-0.12295062,0.30304816,-0.36746565,0.03604456,0.056116685,-0.13424778,-0.22984336,0.4213795,-9.155427,0.9365982,47.68062,-1.2015114,-2.0180666,-3.6138542,-0.3285906,0.13326049,-0.2535221,25.0625,25.5,24.875,27.125,27.4375,27.875
0.35805252,-0.53922135,-0.6560147,-0.82441324,-0.04495712,0.091086924,-0.08532905,-0.41166207,-0.35322133,0.059948552,3.0705364,-0.6201112,0.0002612111,-0.16999435,-0.02996527,-0.001718754,-0.06159819,0.00092355243,0.0053149946,0.45431006,-1.3721691,1.8942398,-2.0967991,-1.5634302,2.4273405,-0.1256693,0.30683422,-0.36878753,0.034841824,0.05492385,-0.13058421,-0.17238252,0.24899697,-9.232041,0.88289046,47.677036,-0.9845706,-1.9683554,-3.6803794,-0.3082729,0.10755213,-0.31681088,25.0625,25.5,24.875,27.125,27.4375,27.875
0.36005163,-0.9246045,-0.76072633,-1.0051521,-0.039556183,0.06452509,-0.07494595,-0.41199875,-0.35328203,0.059922174,3.0704477,-0.62003773,0.00035949633,-0.17329139,-0.029303655,-0.00096103543,-0.059909146,0.0057680476,0.00032797514,0.45405746,-1.3715081,1.8934973,-2.096728,-1.5633115,2.4270537,-0.12715374,0.30909038,-0.37302056,0.03322304,0.051257394,-0.12709385,-0.24899697,0.24899697,-9.193734,0.8851263,47.694054,-1.0328878,-2.1067948,-3.6291072,-0.2923278,0.1118882,-0.35243356,25.0625,25.5,24.875,27.125,27.4375,27.875
0.3620517,-0.84460616,-1.2220418,-0.9319801,-0.03226577,0.06744663,-0.06882285,-0.41233966,-0.35334948,0.059907082,3.0703356,-0.6199588,0.0004416432,-0.17577223,-0.02937194,0.00049058784,-0.060980175,0.009845935,-0.004199406,0.45380518,-1.3708594,1.8927435,-2.096656,-1.5631799,2.4267669,-0.1284439,0.30937266,-0.37665147,0.032445464,0.05041698,-0.12385725,-0.3256114,0.24899697,-9.289502,0.947788,47.717335,-0.99281335,-2.0216086,-3.5122905,-0.27679947,0.10640408,-0.43506968,25.0625,25.5,24.875,27.125,27.4375,27.875
0.36405218,-0.5652623,-0.84596705,-1.2679482,-0.021613682,0.060719796,-0.07619346,-0.41266188,-0.35341024,0.05991729,3.0702007,-0.6199692,0.00048278095,-0.17731619,-0.029326076,0.0005220859,-0.06014632,0.01121126,-0.005114645,0.45356515,-1.3702945,1.8920263,-2.0965607,-1.5630606,2.426551,-0.12884158,0.31164435,-0.3795408,0.032229215,0.049074955,-0.12334131,-0.19153613,0.2681506,-9.251195,1.0238806,47.693153,-0.9505328,-1.9791594,-3.5007603,-0.27947196,0.11522289,-0.49465793,25.0625,25.5,24.875,27.125,27.4375,27.875
0.3660524,-1.3244534,-0.69440615,-1.4790186,-0.006263734,0.0534352,-0.07746772,-0.4130381,-0.35347015,0.0599024,3.0700982,-0.61992466,0.00047322526,-0.18004249,-0.02922133,0.0023871358,-0.059938595,0.017130338,-0.0002682352,0.45330104,-1.3696095,1.8912362,-2.096525,-1.5629777,2.4262729,-0.12944397,0.31133676,-0.3833738,0.031215267,0.04633354,-0.12879735,-0.36391866,0.19153613,-9.232041,0.9612189,47.68599,-1.023615,-1.9924953,-3.411559,-0.24842192,0.11351343,-0.5148496,25.0625,25.5,24.875,27.125,27.4375,27.875
0.3680524,-0.956507,-0.782779,-1.5495542,0.0031353047,0.089058645,-0.08308384,-0.4133903,-0.3535281,0.059894875,3.07002,-0.61988664,0.00048526455,-0.18061736,-0.028999446,0.0025080645,-0.05899918,0.01970344,0.005301994,0.45306107,-1.36896,1.8904604,-2.096442,-1.5629061,2.4260197,-0.12895769,0.31113946,-0.3831866,0.029390536,0.044402603,-0.1338881,-0.47884035,0.22984336,-9.423578,0.92093146,47.668976,-0.97391117,-1.9649831,-3.536458,-0.23934603,0.13675135,-0.47738552,25.0625,25.5,24.875,27.125,27.4375,27.875
0.3700518,-1.9578793,-1.0100029,-1.7547925,-0.0009267889,0.09259802,-0.08169766,-0.41377336,-0.3535668,0.05989588,3.0698805,-0.6198709,0.0004444788,-0.18039857,-0.026668418,-0.0006021712,-0.05512799,0.014543972,0.014085013,0.45274818,-1.3683354,1.8897079,-2.0964177,-1.5628108,2.4257154,-0.13187571,0.31515786,-0.3812266,0.029868947,0.04327772,-0.1455907,-0.24899697,0.21068975,-9.615114,0.9925471,47.675243,-1.0184398,-1.9761207,-3.7725687,-0.21356651,0.14965484,-0.36515668,25.0625,25.5,24.875,27.125,27.4375,27.875
0.37205178,-2.0500777,-1.3431498,-1.9224269,-0.019851517,0.10270692,-0.08038571,-0.41410702,-0.35362458,0.05986787,3.0698316,-0.6197776,0.00055504387,-0.17993982,-0.027205348,-0.001290533,-0.05307622,0.013088793,0.024996758,0.45250905,-1.3676617,1.8889431,-2.096309,-1.5627149,2.4254246,-0.12971944,0.3175237,-0.3831127,0.031694036,0.04212471,-0.15435189,-0.21068975,0.2681506,-9.710882,1.0283576,47.734352,-1.0349922,-2.041818,-3.9283125,-0.21795362,0.16545075,-0.27377507,25.0625,25.5,24.875,27.125,27.4375,27.875
0.37405184,-1.8348013,-1.986604,-1.9129407,-0.024720179,0.09928111,-0.07240784,-0.41446596,-0.35368505,0.059873495,3.0697436,-0.61960346,0.000490623,-0.18148533,-0.027037565,-0.0018233215,-0.051083706,0.013593241,0.029568298,0.45226896,-1.3670478,1.8881897,-2.0962732,-1.5626439,2.4250875,-0.12992783,0.32118177,-0.38651288,0.031920373,0.040157065,-0.15913503,-0.3256114,0.28730422,-9.634268,1.061927,47.66987,-1.0576203,-2.1062264,-3.933589,-0.22547552,0.1737753,-0.18420494,25.0625,25.5,24.875,27.125,27.4375,27.875
0.376052,-2.0346081,-1.6207902,-2.0440364,-0.031448066,0.065863326,-0.061848816,-0.41484886,-0.35370466,0.059869923,3.069727,-0.6195232,0.00048514002,-0.1824892,-0.026491692,-0.003500907,-0.048397638,0.011836486,0.02949935,0.45196873,-1.3663847,1.8873757,-2.096142,-1.56262,2.4247396,-0.1305125,0.3260532,-0.38878006,0.03209587,0.038519766,-0.15965608,-0.36391866,0.30645782,-9.825804,0.9410752,47.66091,-1.0823339,-2.315407,-3.7970645,-0.20269923,0.20919801,-0.15532283,25.0625,25.5,24.875,27.125,27.4375,27.875
