Tylouw/Master_Thesis_Code/training_data/batch_1/small_rod_t0.1/sample_10_session_1.csv
timestamp[s],tcp_force_x[N],tcp_force_y[N],tcp_force_z[N],tcp_force_rx[Nm?],tcp_force_ry[Nm?],tcp_force_rz[Nm?],tcp_pose_x[m],tcp_pose_y[m],tcp_pose_z[m],tcp_pose_rx[rot_vec_x],tcp_pose_ry[rot_vec_y],tcp_pose_rz[rot_vec_z],tcp_velo_x[m/s],tcp_velo_y[m/s],tcp_velo_z[m/s],tcp_velo_rx[rot_vec_x/s],tcp_velo_ry[rot_vec_y/s],tcp_velo_rz[rot_vec_z/s],q1[rad],q2[rad],q3[rad],q4[rad],q5[rad],q6[rad],qd1[rad/s],qd2[rad/s],qd3[rad/s],qd4[rad/s],qd5[rad/s],qd6[rad/s],tool_acc_x,tool_acc_y,tool_acc_z,current_of_whole_robot[A],voltage_of_whole_robot[V],current_J1[A],current_J2[A],current_J3[A],current_J4[A],current_J5[A],current_J6[A],temp_J1[C],temp_J2[C],temp_J3[C],temp_J4[C],temp_J5[C],temp_J6[C]
7.3900446e-07,-0.0349832,-0.44552216,0.18384837,-0.037641823,0.027380737,-0.0050605107,-0.3810579,-0.3485477,0.05997619,-3.0785453,0.62484413,-0.00014358902,0.0010633514,0.0005160416,-0.0013200946,0.00060087716,-0.0013814259,8.054231e-05,0.47783422,-1.425934,1.9577025,-2.1008465,-1.5707573,2.452764,-7.24e-43,-1.2077805e-05,0.0034767024,-0.001962001,0.00010462546,-8.208766e-05,0.11492168,0.076614454,-8.7532015,0.7284641,47.686886,0.004274009,-2.729518,-2.4141562,-0.4372516,0.09685874,0.024814522,25.125,25.625,24.9375,27.25,27.6875,28.0625
0.002052879,-0.104506,-0.46157697,0.10764333,-0.031106869,0.026693592,-0.012715798,-0.381069,-0.34851992,0.059971448,-3.0785093,0.62487555,-0.00010920498,-0.00053214503,-0.0003189132,-0.003456546,-0.0008492952,0.0013645134,7.973182e-05,0.4777981,-1.4259441,1.9577283,-2.1008608,-1.5707935,2.452752,-1e-44,0.0048759608,0.0049405727,-0.011419199,0.00011105411,-7.935157e-05,0.11492168,0.19153613,-8.714894,0.7463667,47.701214,-0.04679501,-2.8459845,-2.3813004,-0.39507204,0.102975994,0.03225936,25.125,25.625,24.9375,27.25,27.6875,28.0625
0.004051865,0.16715506,-0.4888903,0.33704725,-0.030112041,0.030519666,-0.015702613,-0.38107324,-0.34854212,0.059977558,-3.0785596,0.6248475,-0.00011476716,-0.0008317971,-0.0004770401,-0.0033296167,-0.0014703788,0.0025452946,7.838656e-05,0.47781014,-1.4259323,1.9577035,-2.1008728,-1.5707573,2.4527402,-0.0,0.0046776575,0.0051922603,-0.0128067415,0.00011694221,-7.78938e-05,0.038307227,0.19153613,-8.63828,0.7150385,47.711063,0.012474924,-3.127383,-2.7639413,-0.31871912,0.10098206,0.03529714,25.125,25.625,24.9375,27.25,27.6875,28.0625
0.006052085,0.6390088,0.11339994,0.21184458,-0.01878435,0.02601597,-0.019641245,-0.38105655,-0.34852457,0.059954874,-3.07852,0.62483937,-0.00013258551,-0.0010036757,-0.00056531705,-0.0014139529,-0.0018945572,0.0033770187,7.702287e-05,0.47781014,-1.4259332,1.9577616,-2.1008956,-1.5707816,2.4527402,0.0,0.002089855,0.002855834,-0.00881613,0.00011532064,-7.656304e-05,0.11492168,0.17238252,-8.619126,0.7329411,47.711063,-0.025386073,-3.0005422,-2.631071,-0.33524084,0.09283256,0.025070108,25.125,25.625,24.9375,27.25,27.6875,28.0625
0.008052197,0.28098917,0.37117347,-0.19911723,0.017953094,-0.010316647,-0.008822119,-0.38107592,-0.34855255,0.05997656,-3.0785656,0.6248482,-7.2599585e-05,-0.0007658684,-0.000439767,0.0003140074,-0.0021218678,0.0038336595,7.5126634e-05,0.47783422,-1.4259224,1.957702,-2.1009057,-1.5707697,2.452764,0.0,-0.0010219172,0.0015685793,-0.004927115,0.00011328101,-7.528173e-05,0.038307227,0.095768064,-8.829816,0.7620334,47.705692,-0.019032795,-2.826483,-2.5725865,-0.36085045,0.10431561,0.016173137,25.125,25.625,24.9375,27.25,27.6875,28.0625
0.010052211,0.25409245,0.7154384,-0.5870149,0.012491386,-0.01394992,-0.0060903574,-0.3810492,-0.34852034,0.059926063,-3.0784912,0.6249293,-0.00024225826,-0.00056630065,-0.00034026362,0.0003844482,-0.0015377728,0.0026862232,7.3896306e-05,0.47778618,-1.4258863,1.9577736,-2.1008937,-1.5707458,2.452776,0.0,-0.0008516966,0.00077945867,-0.003020731,0.00012509862,-7.404303e-05,0.076614454,0.095768064,-9.021352,0.7239871,47.70211,-0.3119639,-2.0803883,-3.2059917,-0.40352792,0.104238026,-0.008924996,25.125,25.625,24.9375,27.25,27.6875,28.0625
0.01205218,0.4126232,-0.06936085,-0.9101357,-0.01884386,0.014002246,-0.01865585,-0.38106853,-0.3485284,0.059934728,-3.0784788,0.6248886,-0.00022241521,-0.0019933195,-0.0010170082,-0.0028359813,0.0014687749,-0.0031417706,-3.1380307e-05,0.47779804,-1.4258466,1.9577001,-2.100857,-1.5707697,2.452764,-0.00012663042,0.010534023,-0.0050698766,-0.001999332,0.00012483628,-9.083429e-05,0.05746084,0.095768064,-9.308656,0.7642693,47.72719,-0.39736035,-2.3865066,-3.3470743,-0.39621985,0.10628015,-0.05140578,25.125,25.625,24.9375,27.25,27.6875,28.0625
0.014052391,-0.28927675,-1.2209556,-0.9789319,-0.04943901,0.035543803,-0.012015774,-0.3810569,-0.3485257,0.05992512,-3.0784695,0.62483233,-0.00029283433,-0.0058582607,0.00038190102,-0.0035301375,0.0021562302,-0.004486668,-0.0054806406,0.477796,-1.4258324,1.9576977,-2.1008213,-1.5707573,2.452728,-0.006195155,0.016630396,-0.010660164,-0.0009951262,0.00012283135,-0.0007065072,0.038307227,0.24899697,-9.385271,0.78888994,47.711964,-0.27804396,-2.820243,-3.0505252,-0.39975715,0.10679771,-0.09703052,25.125,25.625,24.9375,27.25,27.6875,28.0625
0.016052471,-1.3040824,-2.1074219,-1.2093221,-0.07790785,0.057015296,-0.004468706,-0.3810609,-0.3485076,0.05990293,-3.0784202,0.62481713,-0.0003020673,-0.0060734455,0.00072292314,-0.0034536808,0.0023905637,-0.0049409783,0.002962077,0.47778368,-1.4257965,1.9577101,-2.1008327,-1.5707935,2.4527125,-0.006999424,0.016667426,-0.011080521,-0.000102421865,0.00012097408,-0.009953458,-0.22984336,0.40222588,-9.595961,0.71279734,47.705692,-0.09159753,-2.5195913,-3.2938914,-0.4068745,0.114260375,-0.037950464,25.125,25.625,24.9375,27.25,27.6875,28.0625
0.018052215,-1.9470853,-2.6368227,-1.4896036,-0.09096202,0.07512808,-0.022464572,-0.38105717,-0.34851462,0.05990287,-3.078435,0.6248375,-0.00032580577,-0.005845347,0.00022888671,-0.0034330387,0.0023504172,-0.004940392,0.006729015,0.47778404,-1.4257964,1.9577101,-2.1008327,-1.5707697,2.4527237,-0.005932194,0.01699722,-0.011525375,-6.6874154e-06,0.00015453021,-0.012652971,-0.24899697,0.4213795,-9.730036,0.7217513,47.67614,-0.28386128,-2.4052715,-3.5032372,-0.40471834,0.10233584,-0.008990606,25.125,25.625,24.9375,27.25,27.6875,28.0625
0.020052383,-1.989821,-2.39444,-1.4504161,-0.09113066,0.088772655,-0.026530387,-0.38106078,-0.34852326,0.059888516,-3.0784051,0.6247935,-0.00039987624,-0.006379977,-1.815156e-05,-0.00364626,0.0034199625,-0.0071113324,0.0060840975,0.47779602,-1.4257234,1.9576486,-2.1007836,-1.5707697,2.452712,-0.0060215024,0.019942407,-0.015086558,0.003028848,0.00020189834,-0.012095805,-0.45968673,0.61291564,-9.768343,0.72622824,47.689575,-0.42524546,-2.4019556,-3.5478797,-0.4515484,0.10763554,-0.012740303,25.125,25.625,24.9375,27.25,27.6875,28.0625
0.02205243,-1.9536061,-2.4169867,-1.7240092,-0.06854832,0.07878365,-0.029125955,-0.3810611,-0.3485144,0.059852645,-3.078382,0.6247317,-0.00050007814,-0.007400135,-0.00013193279,-0.0037648522,0.0023400374,-0.0075305495,0.0044665714,0.47777158,-1.425651,1.9576482,-2.100784,-1.5707568,2.452652,-0.0075102067,0.021684013,-0.016756445,0.0028288553,0.001348618,-0.0119681405,-0.5363012,0.5554548,-9.80665,0.7463667,47.71823,-0.5333936,-2.364376,-3.4162514,-0.43372625,0.12296866,-0.040558465,25.125,25.625,24.9375,27.25,27.6875,28.0625
0.02405244,-1.3889604,-2.1341255,-1.8531687,-0.06914801,0.07933426,-0.05142879,-0.38110322,-0.34850672,0.059857145,-3.0783765,0.6248843,-0.00048154232,-0.0086818505,-0.00078983646,-0.0029402708,0.00029918613,-0.0056567295,0.004777876,0.47771117,-1.4256148,1.9575995,-2.1007965,-1.5707449,2.4526875,-0.008139881,0.02207613,-0.018893598,0.0019682185,0.0022922852,-0.012909643,-0.47884035,0.5554548,-9.864111,0.80456203,47.716442,-0.5231937,-2.3694253,-3.5355916,-0.43508124,0.11855677,-0.0592333,25.125,25.625,24.9375,27.25,27.6875,28.0625
0.026051776,-1.5928416,-2.030315,-1.5454929,-0.073304154,0.06759942,-0.061931506,-0.3811034,-0.34851792,0.059845954,-3.0783753,0.6249036,-0.00050768803,-0.009760962,-0.0010110341,-0.0025748676,-0.00080652407,-0.0047172387,0.0048482385,0.47772282,-1.4255787,1.9575866,-2.1008084,-1.5707325,2.4527113,-0.0091004325,0.02286193,-0.020508071,0.0014522335,0.002836984,-0.013940627,-0.51714754,0.45968673,-9.864111,0.78217715,47.67166,-0.55527484,-2.3272405,-3.4988523,-0.423406,0.099082395,-0.079411775,25.125,25.625,24.9375,27.25,27.6875,28.0625
0.02805182,-1.4135753,-1.8742775,-1.5036548,-0.06889536,0.06746932,-0.078454494,-0.3811438,-0.34851646,0.05984756,-3.0783799,0.62482804,-0.00046898905,-0.011714981,-0.00096848846,-0.0020782591,-0.0014681221,-0.0027091696,0.004161881,0.47769824,-1.4255183,1.9575142,-2.1008089,-1.5707563,2.452639,-0.010761534,0.02427441,-0.023033267,0.00047834145,0.0024932432,-0.014912963,-0.5363012,0.3256114,-9.768343,0.73741806,47.686886,-0.49381435,-2.334167,-3.5416436,-0.41451922,0.11494418,-0.08201111,25.125,25.625,24.9375,27.25,27.6875,28.0625
0.030051904,-0.8363775,-1.4846625,-1.4562843,-0.053940225,0.085300274,-0.09496136,-0.38115668,-0.3485361,0.05984456,-3.0784223,0.6247592,-0.0005045366,-0.0130666895,-0.0010208809,-0.0019979565,-0.0015813643,-0.002252856,0.004249889,0.47769794,-1.4254696,1.9574655,-2.1008089,-1.5707206,2.4525905,-0.0118459435,0.026266316,-0.02549092,0.00048760243,0.0023781566,-0.0160836,-0.49799395,0.24899697,-9.80665,0.6971306,47.687782,-0.48588002,-2.3225343,-3.4054255,-0.4187076,0.12101711,-0.0841737,25.125,25.625,24.9375,27.25,27.6875,28.0625
0.032052033,-1.2658451,-0.38561445,-1.4153807,-0.040954873,0.07424337,-0.10964834,-0.38118023,-0.34854776,0.05982901,-3.078435,0.6247626,-0.00056908914,-0.014126055,-0.0010642722,-0.0019297618,-0.0019217946,-0.0020643468,0.003669828,0.4776736,-1.4253854,1.957405,-2.1008089,-1.5706848,2.4525666,-0.012886515,0.02778689,-0.027396455,0.00054848025,0.0025892016,-0.016543403,-0.36391866,0.17238253,-9.710882,0.64342284,47.69763,-0.60060835,-2.3243775,-3.4797125,-0.39169014,0.11825387,-0.095690966,25.125,25.625,24.9375,27.25,27.6875,28.0625
0.034052487,-0.963096,-0.26447567,-1.3164059,-0.010885038,0.068543345,-0.13109246,-0.3812114,-0.3485465,0.059822608,-3.0784214,0.6246844,-0.000507601,-0.015511454,-0.0014712742,-0.0014089751,-0.003461396,-0.0012751421,0.0019119004,0.4776731,-1.425325,1.9573563,-2.1008327,-1.570732,2.4525192,-0.014095007,0.0290434,-0.030008478,0.0004910013,0.0035884073,-0.015994402,-0.22984336,0.038307227,-9.615114,0.7709874,47.704796,-0.5096308,-2.3130186,-3.4439576,-0.3900042,0.09838946,-0.09612526,25.125,25.625,24.9375,27.25,27.6875,28.0625
0.03605188,-0.64605975,-0.049058698,-1.1809483,0.00319995,0.06026099,-0.13832527,-0.38125163,-0.34854046,0.05983373,-3.0784218,0.6247225,-0.0004933593,-0.017206768,-0.002160696,-0.0006553221,-0.005598641,-8.1261984e-05,-0.00029223415,0.4776248,-1.4252886,1.9572839,-2.1008089,-1.5707315,2.4524946,-0.015309969,0.030516975,-0.03337841,0.0003400796,0.0049308096,-0.015005881,-0.3256114,-0.05746084,-9.519346,0.75755644,47.705692,-0.5739163,-2.309792,-3.4063358,-0.37684613,0.09847769,-0.09883258,25.125,25.625,24.9375,27.25,27.6875,28.0625
0.038051873,-0.75430894,-0.253209,-1.2949177,0.010221153,0.048530407,-0.1405379,-0.38128394,-0.34856775,0.05982998,-3.0784504,0.62480783,-0.00052548584,-0.0181407,-0.002439811,-0.00041008022,-0.0062075066,0.00042736848,-0.0021280881,0.4776124,-1.4252043,1.957199,-2.1008208,-1.5706838,2.4525318,-0.01587477,0.03170511,-0.035295554,0.00033727824,0.0052344585,-0.013734213,-0.30645782,-0.1340753,-9.5385,0.7732232,47.689575,-0.52985406,-2.3044298,-3.3169374,-0.37419236,0.08664284,-0.11533126,25.125,25.625,24.9375,27.25,27.6875,28.0625
0.040054142,-0.8834115,-0.587027,-1.2917658,0.0030889667,0.043195274,-0.14568417,-0.38133937,-0.3485518,0.059832074,-3.0784423,0.6248434,-0.00049769453,-0.019472493,-0.002970436,0.00026504503,-0.0069211093,0.001979416,-0.0027284734,0.47754046,-1.4251441,1.9571255,-2.1008208,-1.5706958,2.4524832,-0.016106192,0.032897864,-0.0382026,0.00034574434,0.005149269,-0.013363366,-0.17238252,-0.095768064,-9.615114,0.7642693,47.67614,-0.57594013,-2.2966335,-3.3667793,-0.35206902,0.052897125,-0.12988247,25.125,25.625,24.9375,27.25,27.6875,28.0625
0.042052183,-0.58074796,-0.6198074,-1.132337,-0.013880954,0.05656664,-0.15185082,-0.38139197,-0.34858993,0.059850495,-3.078519,0.6248787,-0.00045877634,-0.020448638,-0.0030724802,0.0007161882,-0.0073548155,0.003087459,-0.0028680502,0.47752818,-1.4250721,1.9570068,-2.100845,-1.5706476,2.4524832,-0.016743328,0.033440758,-0.039832942,0.0002509251,0.00502229,-0.0138594,-0.15322891,0.0,-9.576807,0.77545905,47.71465,-0.56622493,-2.269334,-3.3433168,-0.3414705,0.085544124,-0.14085947,25.125,25.625,24.9375,27.25,27.6875,28.0625
0.04405225,-0.52676547,-1.113583,-1.3497216,-0.009851883,0.06041642,-0.13708337,-0.38142237,-0.34857875,0.059836116,-3.078485,0.6248337,-0.0004508253,-0.021861658,-0.0031407224,0.001236366,-0.007881846,0.0041833445,-0.0033049742,0.4775037,-1.4249997,1.9569572,-2.100845,-1.5706838,2.452435,-0.017901719,0.03453778,-0.04231389,0.00041904705,0.004981311,-0.014579518,-0.15322891,0.019153614,-9.5385,0.71279734,47.7254,-0.5816763,-2.2060404,-3.3988485,-0.3422612,0.05314352,-0.1505487,25.125,25.625,24.9375,27.25,27.6875,28.0625
0.04605248,-0.96170795,-1.3665235,-1.381289,-0.009936383,0.044958837,-0.1312078,-0.38146007,-0.34857813,0.059842087,-3.0784914,0.62483454,-0.00043855177,-0.02200563,-0.0030962683,0.00090061943,-0.007099113,0.0023203287,-0.003286656,0.4774677,-1.4249512,1.9568852,-2.1008317,-1.5706838,2.4523988,-0.01821803,0.036284994,-0.0439808,0.0023526624,0.005143369,-0.014913674,-0.19153613,0.1340753,-9.481039,0.7463667,47.704796,-0.53367245,-2.168356,-3.3428144,-0.34153524,0.06005807,-0.16419297,25.125,25.625,24.9375,27.25,27.6875,28.0625
0.04805166,-0.013303149,-1.0795473,-1.4377171,-0.024307704,0.066891395,-0.13534798,-0.3815263,-0.34856755,0.059845,-3.078485,0.6249294,-0.00038378773,-0.022410545,-0.0029592633,0.00028087484,-0.005435628,0.00066556333,-0.0031101434,0.47739565,-1.4248784,1.9568008,-2.100855,-1.5706962,2.4523869,-0.018367512,0.03898909,-0.046005405,0.003910019,0.004426183,-0.015237022,-0.24899697,0.22984336,-9.519346,0.80679786,47.690468,-0.5875528,-2.2014396,-3.3927822,-0.3626377,0.06493119,-0.1800391,25.125,25.625,24.9375,27.25,27.6875,28.0625
0.050052192,-0.5562176,-1.5784085,-1.4537882,-0.029567726,0.0500621,-0.1280512,-0.38154715,-0.34857553,0.05983209,-3.0784776,0.6249287,-0.00051865855,-0.023578553,-0.0025771873,0.00061322394,-0.0049554533,0.0015939771,-0.0037112813,0.4773592,-1.4247824,1.9567045,-2.1007836,-1.5706481,2.4523509,-0.019567855,0.039741836,-0.047706306,0.0042581423,0.0035690216,-0.015833989,-0.21068975,0.30645782,-9.557653,0.7597976,47.664497,-0.534802,-2.221287,-3.3301806,-0.3485964,0.079128504,-0.17403224,25.125,25.625,24.9375,27.25,27.6875,28.0625
0.052052137,-0.50749654,-1.871354,-1.4862827,-0.046749387,0.054669563,-0.12982543,-0.38160628,-0.34856826,0.059844464,-3.07846,0.62494254,-0.00042589504,-0.02501084,-0.00302404,0.0019914971,-0.0060291253,0.004764157,-0.0025203077,0.47732317,-1.4247227,1.9566082,-2.1007836,-1.5706967,2.4523258,-0.01976425,0.039217494,-0.050192464,0.003960631,0.0030603828,-0.017219042,-0.1340753,0.40222588,-9.576807,0.7709874,47.71465,-0.5851457,-2.021227,-3.4464934,-0.35332584,0.08240457,-0.18418345,25.125,25.625,24.9375,27.25,27.6875,28.0625
0.054052193,-0.7287337,-2.474309,-1.6512843,-0.056738533,0.04870892,-0.1251586,-0.38167676,-0.34856677,0.059871413,-3.0784833,0.6249671,-0.0003423009,-0.025687428,-0.003033612,0.001319018,-0.0053062057,0.0042162584,-0.0022668235,0.47726306,-1.4246738,1.956488,-2.1007712,-1.5707086,2.4522781,-0.020114105,0.041783437,-0.051479757,0.0035020786,0.002667306,-0.017820338,-0.076614454,0.51714754,-9.519346,0.78888994,47.7254,-0.57001513,-2.0250096,-3.405356,-0.3193835,0.09798375,-0.198676,25.125,25.625,24.9375,27.25,27.6875,28.0625
0.05605232,-0.5571898,-2.6108782,-1.5194929,-0.0644597,0.045529965,-0.11881821,-0.381696,-0.34860525,0.05987303,-3.0785367,0.62490183,-0.00041658117,-0.027292132,-0.0032147563,0.0016873083,-0.005583661,0.0050274814,-0.0027229616,0.47727457,-1.4245894,1.9563798,-2.1007354,-1.5706486,2.4522421,-0.021189746,0.043799765,-0.05470823,0.0038676935,0.00253448,-0.018437764,-0.095768064,0.47884035,-9.595961,0.7933669,47.704796,-0.5552608,-2.157573,-3.400782,-0.31873125,0.09532114,-0.22065288,25.125,25.625,24.9375,27.25,27.6875,28.0625
0.058052577,-0.14478865,-2.4479518,-1.3693806,-0.058032256,0.049365085,-0.12592956,-0.3817616,-0.34861675,0.059878796,-3.0785646,0.6249251,-0.00038502016,-0.027961409,-0.0034886685,0.0011548349,-0.0050808387,0.0033712352,-0.0025136012,0.47722656,-1.4244925,1.9562587,-2.1007469,-1.5706366,2.4522052,-0.021521695,0.046954475,-0.057369657,0.0050757565,0.0028464433,-0.018977959,-0.1340753,0.45968673,-9.519346,0.7642693,47.684196,-0.5901811,-2.1365063,-3.2221966,-0.344026,0.098197654,-0.2398505,25.125,25.625,24.9375,27.25,27.6875,28.0625
0.06005183,-0.29668418,-2.1173906,-1.3593277,-0.05156539,0.036573697,-0.12409754,-0.3818234,-0.34859726,0.059873994,-3.0785103,0.6250681,-0.00040396978,-0.027540974,-0.003357232,4.9638827e-05,-0.0044430834,0.0010005848,-0.0019225107,0.4771425,-1.4243959,1.9561514,-2.100711,-1.5706486,2.4522173,-0.021701574,0.0487709,-0.056960214,0.0052467342,0.0033695898,-0.019749923,-0.019153614,0.49799395,-9.404425,0.80679786,47.693153,-0.6161225,-2.1874313,-3.4899945,-0.33455998,0.09707442,-0.25523624,25.125,25.625,24.9375,27.25,27.6875,28.0625
0.06205184,-0.27620837,-1.5345076,-1.1303638,-0.051986996,0.03484809,-0.12310733,-0.38187003,-0.34861872,0.05987631,-3.0785708,0.62504154,-0.0004196882,-0.029554218,-0.0041718944,0.0022953446,-0.0068936194,0.0055125165,-0.0009719998,0.47710624,-1.4243126,1.9560536,-2.100723,-1.5706004,2.4521568,-0.022172593,0.047486912,-0.060577855,0.0050157025,0.0034663582,-0.02116989,-0.076614454,0.4405331,-9.385271,0.7777002,47.689575,-0.5492262,-2.0869331,-3.3745213,-0.32797098,0.09284448,-0.25525868,25.125,25.625,24.9375,27.25,27.6875,28.0625
0.06405187,-0.56966066,-1.7498887,-1.1718057,-0.035548147,0.03694147,-0.12521708,-0.38195038,-0.3486449,0.059902508,-3.0786264,0.62493664,-0.00029522105,-0.031823464,-0.004977953,0.0027741014,-0.007877993,0.006826597,6.105616e-05,0.47709394,-1.4242156,1.9558858,-2.100735,-1.5706242,2.4520721,-0.023004912,0.05090548,-0.06556496,0.0049634185,0.0037279006,-0.023032384,0.0,0.3256114,-9.289503,0.75084364,47.699425,-0.56883335,-2.047793,-3.1733892,-0.32189494,0.09463701,-0.2468123,25.125,25.625,24.9375,27.25,27.6875,28.0625
0.066052325,-0.6693013,-1.8904663,-1.0424105,-0.033098504,0.03855743,-0.110391326,-0.38203168,-0.3486558,0.059924573,-3.078658,0.6249611,-0.00019614407,-0.031381015,-0.004682432,0.0011618903,-0.006679982,0.0037873157,0.0008949011,0.4770459,-1.4241308,1.9557413,-2.1007469,-1.5706362,2.4520354,-0.023333525,0.053617872,-0.06496633,0.004901097,0.0040621897,-0.024194997,-0.019153614,0.40222588,-9.289502,0.7709874,47.70211,-0.5711835,-2.1182635,-3.2363744,-0.3122135,0.097821206,-0.26373047,25.125,25.625,24.9375,27.25,27.6875,28.0625
0.06805246,-0.540603,-1.6466007,-0.9185467,-0.04210674,0.044202115,-0.12130694,-0.38209355,-0.34868073,0.059938375,-3.0787003,0.6250076,-0.00018781856,-0.03245689,-0.00516284,0.0016942599,-0.0074752276,0.0044242875,0.001806974,0.47700977,-1.4240346,1.9555973,-2.100735,-1.5706004,2.452023,-0.023736054,0.054846887,-0.06772639,0.0055006873,0.0044725537,-0.025508668,-0.095768064,0.30645782,-9.32781,0.8179876,47.694946,-0.6109999,-2.1253781,-3.2403092,-0.3039718,0.07067483,-0.2546283,25.125,25.625,24.9375,27.25,27.6875,28.0625
0.07005227,-0.70596486,-1.5727979,-0.8443335,-0.03167931,0.03206822,-0.11819508,-0.3821577,-0.3486781,0.05993043,-3.0786798,0.6250424,-0.00024509736,-0.03346371,-0.0055946,0.0019480746,-0.007752773,0.0047025443,0.0020206051,0.47693774,-1.4239022,1.9554533,-2.1006868,-1.570588,2.4519753,-0.023967357,0.056624338,-0.07047918,0.00610165,0.004586356,-0.025952429,-0.17238252,0.2681506,-9.289502,0.7642693,47.66987,-0.65958226,-2.0964706,-3.1098862,-0.2888373,0.08837773,-0.26648742,25.125,25.625,24.9375,27.25,27.6875,28.0625
0.072052345,-0.7442745,-1.2808763,-0.75700337,-0.017735561,0.031039864,-0.118802145,-0.38221127,-0.3486992,0.05992235,-3.0787027,0.62493056,-0.00024551322,-0.034428302,-0.0059288032,0.00229999,-0.007880005,0.005201768,0.0025175111,0.47692567,-1.42377,1.9553207,-2.1006863,-1.570588,2.4518907,-0.024183996,0.05802403,-0.07303806,0.0067594247,0.0044661798,-0.026664417,-0.11492168,0.30645782,-9.136273,0.75084364,47.703903,-0.62202275,-2.1152923,-3.2248936,-0.29957002,0.08977233,-0.29668045,25.125,25.625,24.9375,27.25,27.6875,28.0625
0.07405254,-0.6769937,-0.80933946,-0.65807974,-0.017073931,0.030971376,-0.11640249,-0.38231197,-0.3487062,0.059937216,-3.078732,0.62507015,-0.0001957295,-0.035119444,-0.006152411,0.0022004445,-0.007901919,0.0047309776,0.0036562295,0.4768296,-1.4236494,1.9551519,-2.1006982,-1.5705642,2.451878,-0.024568064,0.05984552,-0.07502758,0.0073359683,0.0047009694,-0.028186154,-0.11492168,0.26815057,-9.097966,0.81351066,47.688675,-0.64309025,-2.094046,-3.0857596,-0.2956999,0.09352592,-0.29568082,25.125,25.625,24.9375,27.25,27.6875,28.0625
0.07605177,-0.754993,-1.008308,-0.75790787,-0.008552578,0.031689,-0.115697466,-0.3823743,-0.3487164,0.059942737,-3.0787365,0.62507045,-0.00012904145,-0.036103718,-0.0067496984,0.002344171,-0.0090230135,0.004970727,0.0044998038,0.47680533,-1.4235532,1.9550322,-2.1007106,-1.5705875,2.4518535,-0.024984553,0.061627377,-0.07735328,0.0071485536,0.0055826423,-0.029445956,-0.095768064,0.17238252,-9.155427,0.79560274,47.694946,-0.73025835,-2.07322,-3.097808,-0.28872722,0.08965053,-0.30474514,25.125,25.625,24.9375,27.25,27.6875,28.0625
0.078051865,-0.50198406,-0.46520886,-0.67091423,-0.025259303,0.04378943,-0.13265768,-0.38244602,-0.3487553,0.059963178,3.0787685,-0.6249992,0.00014443487,-0.037369933,-0.007103857,0.002678761,-0.0095367,0.0056641675,0.005578697,0.47676915,-1.4234326,1.9548396,-2.1006749,-1.5705274,2.4517689,-0.025605466,0.06333567,-0.080122545,0.007359306,0.0057166107,-0.031144166,-0.1340753,0.21068975,-9.174581,0.8112748,47.67345,-0.73912567,-2.1119163,-3.1011028,-0.2849703,0.07370408,-0.3078148,25.125,25.625,24.9375,27.25,27.6875,28.0625
0.08005189,-0.37378228,-0.5186459,-0.6202219,-0.02819921,0.06026316,-0.12602068,-0.38249284,-0.3487548,0.059939038,-3.0787916,0.6249845,-0.00017777305,-0.03793236,-0.0072312322,0.0021215312,-0.008633551,0.0040227645,0.006886071,0.47673303,-1.4233001,1.9547433,-2.100674,-1.5705398,2.4517207,-0.025861809,0.0662839,-0.08252828,0.008689758,0.005664291,-0.032706622,-0.1340753,0.21068975,-9.11712,0.78217715,47.692257,-0.68251693,-2.0375333,-3.105924,-0.2714091,0.063196965,-0.29332995,25.125,25.625,24.9375,27.25,27.6875,28.0625
0.08205215,-0.7262983,-1.3125585,-0.7350975,-0.0100474525,0.058707558,-0.11804917,-0.3825739,-0.34876958,0.059939075,3.0787659,-0.6249984,0.00020032824,-0.03852362,-0.007247541,0.002322387,-0.008224064,0.0040982515,0.0068614106,0.47666097,-1.4231553,1.954575,-2.1006615,-1.5705036,2.4516606,-0.026110942,0.0671868,-0.08423943,0.009621901,0.005265151,-0.032929618,-0.17238252,0.22984336,-9.155427,0.7642693,47.705692,-0.7933548,-2.1925344,-3.02118,-0.3062927,0.08623803,-0.30148262,25.125,25.625,24.9375,27.25,27.6875,28.0625
0.084052175,-0.9155659,-1.2458981,-0.85103726,-0.02020678,0.060890656,-0.112690665,-0.38266462,-0.34879223,0.059974637,3.0787497,-0.6249356,0.000115689,-0.03905756,-0.007611516,0.0026783901,-0.008412731,0.0044610254,0.0075934804,0.47662517,-1.4230472,1.9543594,-2.1006138,-1.5705155,2.451588,-0.025951533,0.06794156,-0.08607317,0.010291838,0.0052661705,-0.033501077,-0.21068975,0.22984336,-9.232041,0.7016076,47.711063,-0.81888455,-1.9360237,-3.0597677,-0.30511284,0.08313893,-0.32158756,25.125,25.625,24.9375,27.25,27.6875,28.0625
0.086052485,-1.0134853,-1.2229788,-1.0769279,-0.028675808,0.05179088,-0.11608724,-0.38271126,-0.34879127,0.0599333,3.0788016,-0.62488866,0.00025727844,-0.03973091,-0.0078096744,0.002305176,-0.008624453,0.003940294,0.0076219197,0.47656494,-1.4228661,1.9542388,-2.100578,-1.5704917,2.4514918,-0.026488042,0.06997922,-0.087507226,0.010053484,0.0056867106,-0.034066144,-0.2873042,0.24899697,-9.270349,0.7396539,47.69763,-0.83805585,-2.0399513,-3.110694,-0.30022162,0.061704226,-0.3416374,25.125,25.625,24.9375,27.25,27.6875,28.0625
0.08805246,-0.8904232,-1.2747303,-0.97859067,-0.03244758,0.055658128,-0.11553901,-0.38280693,-0.3488095,0.05995702,3.0787904,-0.6248476,0.000190942,-0.039916303,-0.0076343003,0.00072246784,-0.006700711,0.00022371231,0.008897276,0.47651678,-1.4227326,1.9540237,-2.1005414,-1.5705036,2.4514196,-0.02696249,0.07449093,-0.089415304,0.011634879,0.0056833145,-0.03581435,-0.36391866,0.2681506,-9.385271,0.7665104,47.658226,-0.8758596,-2.2094712,-3.1433878,-0.3083976,0.06905715,-0.3531693,25.125,25.625,24.9375,27.25,27.6875,28.0625
0.09005246,-0.77386206,-1.1951503,-0.9213425,-0.035880443,0.0566086,-0.119973846,-0.38288742,-0.3488375,0.059957523,3.0787518,-0.62481976,0.00019800127,-0.040203128,-0.007653671,0.0011273415,-0.007206711,0.0010272608,0.010117023,0.47646865,-1.4225767,1.9538444,-2.1005418,-1.5704674,2.451359,-0.027236499,0.07391429,-0.089664996,0.01151659,0.005764527,-0.037308063,-0.21068975,0.3256114,-9.385271,0.7777002,47.68062,-0.86872745,-2.0610685,-3.1430516,-0.31704402,0.07422991,-0.3444458,25.125,25.625,24.9375,27.25,27.6875,28.0625
0.092052445,-0.92548054,-1.6455272,-1.0954158,-0.02735934,0.04848893,-0.109021924,-0.38296574,-0.3488532,0.059953876,3.078791,-0.62471294,0.00020098173,-0.042172063,-0.008094424,0.0015188075,-0.007673132,0.0023370688,0.008349047,0.47643232,-1.4224076,1.9536513,-2.1005056,-1.5704798,2.4512513,-0.028136395,0.07661054,-0.09362738,0.011405224,0.005569265,-0.03643736,-0.19153613,0.2681506,-9.346964,0.7597976,47.709274,-0.87296003,-2.111948,-3.1231704,-0.3198711,0.06858526,-0.36473614,25.125,25.625,24.9375,27.25,27.6875,28.0625
0.094052374,-0.79980063,-1.2431556,-0.9855187,-0.038064584,0.050927855,-0.12287822,-0.3830307,-0.34884408,0.05992737,3.078815,-0.62477535,0.00030307015,-0.04105601,-0.0075018546,-0.00048423835,-0.0057854885,-0.0017398082,0.007728309,0.4763482,-1.4222386,1.9535078,-2.100458,-1.5704674,2.451203,-0.028277822,0.078985825,-0.091858305,0.011749615,0.0057636253,-0.035959367,-0.30645782,0.22984336,-9.346964,0.80456203,47.711964,-0.927707,-2.1869526,-3.2904549,-0.3394314,0.07205038,-0.41048676,25.125,25.625,24.9375,27.25,27.6875,28.0625
0.09605253,-0.565829,-1.0411403,-0.9764243,-0.042714205,0.05277228,-0.11894757,-0.38315815,-0.3488429,0.059947863,3.0787907,-0.6248461,0.00019415241,-0.04341355,-0.008680355,0.00072561915,-0.007732674,0.0011166633,0.010182882,0.47625217,-1.4220816,1.9532789,-2.100446,-1.5705036,2.4511545,-0.028612373,0.081100754,-0.09694664,0.011289795,0.0061746105,-0.03874585,-0.19153613,0.30645782,-9.461885,0.80456203,47.701214,-0.93754125,-2.184245,-3.2836828,-0.3236329,0.08319357,-0.39766172,25.125,25.625,24.9375,27.25,27.6875,28.0625
0.098051734,-1.1332475,-1.421418,-1.0434858,-0.031198835,0.032255366,-0.11085002,-0.38325483,-0.34887934,0.05996358,3.0787416,-0.6247589,0.00015946198,-0.04314269,-0.008054613,-6.58964e-05,-0.0070236274,-0.00027654384,0.010679722,0.47620395,-1.4219253,1.9530643,-2.100446,-1.5704669,2.4510581,-0.029471297,0.08161781,-0.0956951,0.011086326,0.0061877775,-0.040101804,-0.11492168,0.3256114,-9.481039,0.87617236,47.690468,-0.99941957,-2.1414316,-3.3280015,-0.31528538,0.07841035,-0.38871902,25.125,25.625,24.9375,27.25,27.6875,28.0625
0.10005168,-0.91498935,-1.4392658,-1.2653985,-0.031510666,0.03170893,-0.11296128,-0.38331985,-0.3488988,0.059955142,3.0787444,-0.6246809,0.00022403694,-0.044519756,-0.00832593,0.00028631304,-0.0074630706,0.001299172,0.01247671,0.47615567,-1.4217688,1.9528965,-2.1004107,-1.5704316,2.4509609,-0.030030545,0.08301471,-0.097937666,0.010333504,0.0058485847,-0.042456225,-0.076614454,0.28730422,-9.423578,0.7351769,47.683304,-0.94787836,-2.072928,-3.3496737,-0.30770284,0.07100297,-0.384265,25.125,25.625,24.9375,27.25,27.6875,28.0625
0.1020517,-0.014274928,-0.8193394,-1.0934335,-0.047061425,0.045071635,-0.122899175,-0.38343757,-0.3489169,0.059962362,3.0787065,-0.6247102,0.00019386996,-0.045003034,-0.008486605,-8.920879e-05,-0.0070429714,0.0009572942,0.014644446,0.47607166,-1.4215759,1.9526566,-2.1003983,-1.5704197,2.4509,-0.030037044,0.084880866,-0.099206865,0.010235174,0.0056307446,-0.044629026,-0.019153614,0.24899697,-9.442732,0.8247004,47.70838,-1.0021682,-2.092151,-3.3847406,-0.30644387,0.08902658,-0.36306104,25.125,25.625,24.9375,27.25,27.6875,28.0625
0.10405258,-0.16249022,-0.8912881,-1.0835998,-0.042791154,0.036793403,-0.12025717,-0.38348857,-0.34893653,0.05993359,3.0787623,-0.6245881,0.0002541058,-0.045414414,-0.008431417,-0.00035486996,-0.0070022624,4.3280997e-05,0.013147575,0.47605947,-1.4213953,1.9525131,-2.1003864,-1.5704197,2.4508047,-0.030755281,0.08623168,-0.100287825,0.010794911,0.0060102986,-0.043850638,-0.05746084,0.22984336,-9.385271,0.7732232,47.661808,-1.0209923,-2.0094957,-3.4706392,-0.30599278,0.07625843,-0.38962,25.125,25.625,24.9375,27.25,27.6875,28.0625
0.10605211,0.12060168,-0.99476963,-1.1874832,-0.03482646,0.040669143,-0.1225772,-0.38357916,-0.34893143,0.059936278,3.078766,-0.62458664,0.00032259608,-0.04611136,-0.008645357,-0.000517359,-0.007355023,-0.00019560862,0.01535324,0.4759513,-1.4212385,1.9523085,-2.1003025,-1.5703954,2.4506953,-0.03127485,0.087885,-0.101800576,0.010705856,0.0064283535,-0.046575744,-0.038307227,0.2681506,-9.346964,0.7665104,47.698532,-1.0195132,-2.0685277,-3.4823194,-0.31420714,0.06937429,-0.397299,25.125,25.625,24.9375,27.25,27.6875,28.0625
0.10805215,-0.40935892,-1.2959759,-1.146267,-0.03467402,0.024112668,-0.119578436,-0.38370198,-0.34896126,0.05995219,3.0787008,-0.62457126,0.00019248413,-0.046839714,-0.009283328,-0.00014707336,-0.008542449,0.00018275774,0.018540524,0.4758912,-1.4210701,1.952093,-2.100362,-1.5703954,2.450634,-0.031373587,0.08892096,-0.1038825,0.010869411,0.0073115956,-0.04986123,0.038307227,0.24899697,-9.404425,0.83589023,47.664497,-1.0327538,-2.0281353,-3.392074,-0.30081195,0.08203717,-0.36689898,25.125,25.625,24.9375,27.25,27.6875,28.0625
0.110052235,-0.06939858,-1.0101616,-1.2316931,-0.04209547,0.028941354,-0.11990107,-0.38381964,-0.34900635,0.0599831,3.0786552,-0.6244465,8.900694e-05,-0.047657404,-0.009129556,-0.000101327816,-0.008942636,0.00031318533,0.019380227,0.47585487,-1.4209018,1.9518298,-2.100362,-1.570383,2.4505258,-0.032579433,0.089766264,-0.10495023,0.010792865,0.0076101893,-0.051905848,0.05746084,0.2873042,-9.385271,0.8314132,47.696735,-1.1436331,-1.9789071,-3.6319258,-0.3123373,0.06819957,-0.3527482,25.125,25.625,24.9375,27.25,27.6875,28.0625
0.11205226,-0.096237734,-1.4389174,-1.4909486,-0.03731757,0.03716833,-0.115214035,-0.38390696,-0.3490126,0.059975646,3.078663,-0.6244274,0.00015743039,-0.04968467,-0.009079595,-0.0003960462,-0.008343007,0.00085654086,0.020392384,0.47577024,-1.42072,1.9516252,-2.100303,-1.5703591,2.4504282,-0.03400686,0.09348967,-0.10845921,0.010375481,0.0068184007,-0.054342236,0.0,0.2681506,-9.404425,0.78888994,47.690468,-1.0250875,-2.135081,-3.4122024,-0.30577758,0.07729791,-0.32917634,25.125,25.625,24.9375,27.25,27.6875,28.0625
0.114052445,-0.6240009,-1.5291837,-1.2917124,-0.0369978,0.033342324,-0.11961019,-0.38399675,-0.3490031,0.059952956,3.0787327,-0.62436295,0.00020669495,-0.05072748,-0.00963193,0.0010449652,-0.009726564,0.003896109,0.023353618,0.47568628,-1.4205163,1.9514331,-2.1002553,-1.570383,2.4502954,-0.033863176,0.09231875,-0.11037082,0.010122867,0.0066488865,-0.057159178,0.0,0.24899697,-9.404425,0.8314132,47.69763,-1.1394393,-1.9062274,-3.5400524,-0.30123103,0.08161546,-0.29755402,25.125,25.625,24.9375,27.25,27.6875,28.0625
0.11605165,-0.7642889,-1.7978894,-1.4403632,-0.029651497,0.03513203,-0.115556106,-0.38409576,-0.34903884,0.059955966,3.0787315,-0.62420774,0.00017661604,-0.051460516,-0.010618029,0.00036598576,-0.010129494,0.0027261665,0.025988832,0.47565055,-1.4203228,1.9512047,-2.1002553,-1.5703706,2.4501631,-0.033357933,0.09624194,-0.1132957,0.009978361,0.0075385617,-0.05928813,-0.05746084,0.2681506,-9.442732,0.8493211,47.693153,-1.1508914,-1.9869063,-3.4353302,-0.2950123,0.092684954,-0.24480295,25.125,25.625,24.9375,27.25,27.6875,28.0625
0.118051626,-0.9336953,-1.7426703,-1.4436433,-0.037609387,0.03644133,-0.11805182,-0.38418552,-0.34906015,0.059966777,3.0787177,-0.62406814,0.00015648351,-0.05269245,-0.010902884,0.001969663,-0.0121367555,0.00553708,0.027504008,0.47559038,-1.4201794,1.951013,-2.1002429,-1.5703467,2.4500177,-0.034291938,0.0946018,-0.11509789,0.010003417,0.008034974,-0.061737135,-0.11492168,0.3256114,-9.5385,0.7866488,47.682407,-1.220166,-1.8195021,-3.5257316,-0.30757385,0.072218694,-0.20453581,25.125,25.625,24.9375,27.25,27.6875,28.0625
0.12005264,-0.62118596,-1.6609347,-1.4902594,-0.044063427,0.053033803,-0.11454986,-0.38431567,-0.34908187,0.05997911,3.078685,-0.62406164,0.00015333679,-0.05413802,-0.010497017,0.0016736657,-0.011874337,0.0046923114,0.027332783,0.4754936,-1.419962,1.950725,-2.1001947,-1.5703224,2.4499211,-0.036417894,0.097262934,-0.11766614,0.010784063,0.008187244,-0.0636904,-0.05746084,0.38307226,-9.576807,0.8247004,47.684196,-1.1653998,-1.8207397,-3.4613752,-0.292291,0.08144811,-0.16738814,25.125,25.625,24.9375,27.25,27.6875,28.0625
0.12205181,-0.6552408,-1.4194084,-1.4298748,-0.057988327,0.053184733,-0.11680569,-0.38442007,-0.34908396,0.059979398,3.0787175,-0.62395215,0.00014279704,-0.054649506,-0.010839836,0.0019000542,-0.012259646,0.0050110943,0.027894199,0.47540948,-1.4197816,1.9505094,-2.1001585,-1.5703348,2.4497647,-0.03639174,0.09804667,-0.1191525,0.011026278,0.008382058,-0.06422517,-0.11492168,0.4213795,-9.576807,0.7709874,47.704796,-1.1892871,-1.7627077,-3.5365639,-0.3066913,0.08010486,-0.13349067,25.125,25.625,24.9375,27.25,27.6875,28.0625
0.12405182,-1.2614781,-2.2179844,-1.5344317,-0.043890975,0.051638573,-0.10711178,-0.3845362,-0.34914094,0.06000456,3.0786693,-0.62381023,0.000117689975,-0.056484565,-0.010667044,0.0019369324,-0.012728388,0.005482917,0.024276365,0.47537264,-1.4195766,1.950209,-2.1001227,-1.5702866,2.4496455,-0.03849526,0.10040148,-0.12189679,0.010783931,0.008580337,-0.06270889,-0.22984336,0.34476504,-9.672575,0.88289046,47.70032,-1.1848719,-1.8348372,-3.5157285,-0.30288655,0.059514463,-0.13988674,25.125,25.625,24.9375,27.25,27.6875,28.0625
0.1260521,-0.854981,-1.610247,-1.3557495,-0.05648005,0.0692095,-0.11570766,-0.38463575,-0.34913412,0.059998326,3.0786896,-0.623832,0.00013700353,-0.057372607,-0.011197569,0.0020642574,-0.013694455,0.0055943914,0.025124224,0.47527662,-1.4193959,1.9500054,-2.100075,-1.5702981,2.4495606,-0.038873896,0.102065615,-0.12411371,0.010793149,0.00938321,-0.063935354,-0.28730422,0.30645782,-9.710882,0.7530795,47.683304,-1.1293049,-1.7729166,-3.461144,-0.30127165,0.04270996,-0.13821669,25.125,25.625,24.9375,27.25,27.6875,28.0625
0.12805222,-1.2046039,-1.621428,-1.6465638,-0.043756325,0.066166334,-0.1138119,-0.38477382,-0.34919402,0.0600187,3.0786462,-0.62361276,2.883186e-05,-0.058777872,-0.012089592,0.002421127,-0.013886617,0.007058487,0.023404226,0.4752409,-1.4191669,1.9497045,-2.1001108,-1.5702747,2.4493937,-0.03824639,0.104600795,-0.12780084,0.010558222,0.00888235,-0.06158403,-0.28730422,0.2681506,-9.595961,0.7933669,47.655537,-1.2338203,-1.8884978,-3.4016557,-0.2904446,0.05501272,-0.12545657,25.125,25.625,24.9375,27.25,27.6875,28.0625
0.13005303,-0.9252464,-1.3073314,-1.306213,-0.045460742,0.0776478,-0.11962672,-0.38488883,-0.3492212,0.06001734,3.0786042,-0.6235482,7.627758e-05,-0.060457665,-0.012621182,0.0017193829,-0.014226568,0.0058222543,0.02013217,0.47514442,-1.4189488,1.9494523,-2.100087,-1.5702142,2.4492624,-0.039383996,0.10950403,-0.13186339,0.010661945,0.009742936,-0.059447832,-0.4405331,0.24899697,-9.672575,0.86498255,47.652847,-1.2441335,-2.0014815,-3.4497714,-0.29913566,0.055762123,-0.13801968,25.125,25.625,24.9375,27.25,27.6875,28.0625
0.13205217,-0.9144776,-0.7087087,-1.2438861,-0.0465617,0.07110549,-0.12596321,-0.38499507,-0.3492371,0.0600123,3.078589,-0.6235273,9.981231e-05,-0.06210615,-0.012191568,0.0027065594,-0.015206236,0.008109257,0.016961487,0.4750598,-1.4187449,1.9492248,-2.1000636,-1.5701903,2.4491668,-0.041518845,0.10893909,-0.13340554,0.010289682,0.009564594,-0.0584111,-0.34476504,0.2681506,-9.557653,0.8291774,47.698532,-1.254583,-1.8939364,-3.2853036,-0.2902098,0.046898454,-0.13666037,25.125,25.625,24.9375,27.25,27.6875,28.0625
0.1340521,-1.3097696,-1.3432974,-1.356261,-0.025734002,0.061984953,-0.11123705,-0.38516435,-0.34925652,0.060043693,3.0785353,-0.62349737,-1.4968832e-05,-0.06369668,-0.0124076,0.0017999421,-0.0141725885,0.007056,0.016159037,0.47493938,-1.4185268,1.9489001,-2.1000507,-1.5701908,2.4490347,-0.04228571,0.11399708,-0.13718703,0.010425306,0.009126289,-0.05837156,-0.45968673,0.24899697,-9.557653,0.8537928,47.68599,-1.1602957,-2.1026363,-3.206067,-0.2703085,0.043623485,-0.12588897,25.125,25.625,24.9375,27.25,27.6875,28.0625
0.13605238,-1.2221397,-1.322485,-1.1648862,-0.03173447,0.07370302,-0.11338177,-0.38524157,-0.3492964,0.060032908,3.0785332,-0.623403,3.75982e-05,-0.064139836,-0.012537963,0.0018751697,-0.014285106,0.007115935,0.011299798,0.47491544,-1.4183226,1.948685,-2.1000268,-1.5701541,2.4489522,-0.04249539,0.11476022,-0.13831526,0.010685624,0.009195054,-0.053721625,-0.4213795,0.21068975,-9.519346,0.80679786,47.67614,-1.2183979,-1.9090936,-3.2031622,-0.27675056,0.036905393,-0.17254156,25.125,25.625,24.9375,27.25,27.6875,28.0625
0.13805237,-1.0816063,-1.3178153,-1.1960665,-0.038320456,0.07785816,-0.12300632,-0.3854117,-0.3492988,0.060062874,3.0785174,-0.62343866,-9.8426004e-05,-0.065511815,-0.012639683,0.0019892892,-0.014433869,0.0076252483,0.00991633,0.4747951,-1.4181057,1.9483598,-2.099991,-1.5702022,2.4488564,-0.0434792,0.1167872,-0.14094019,0.010761362,0.009094314,-0.053319663,-0.57460845,0.32561144,-9.519346,0.8291774,47.675243,-1.2102757,-1.9929674,-3.2158103,-0.2742422,0.042401176,-0.22138718,25.125,25.625,24.9375,27.25,27.6875,28.0625
0.1400525,-1.4569093,-1.5799434,-1.0831589,-0.035444867,0.0814004,-0.11217196,-0.38553017,-0.34934968,0.060070336,3.0784364,-0.6233271,-8.6944296e-05,-0.06711429,-0.012843709,0.0027439778,-0.015029728,0.009465165,0.008821509,0.4747228,-1.4178891,1.9480971,-2.100003,-1.5701188,2.4487247,-0.04436168,0.11776497,-0.14380278,0.010743543,0.008780982,-0.05310499,-0.47884035,0.34476504,-9.500193,0.8291774,47.668976,-1.2169003,-1.9045926,-3.2559206,-0.27057415,0.044054992,-0.24083678,25.125,25.625,24.9375,27.25,27.6875,28.0625
0.14205255,-1.1753201,-1.3636417,-0.8443451,-0.05220705,0.090547904,-0.1171864,-0.38568428,-0.34936202,0.060066875,3.0784755,-0.62327707,-0.00011815725,-0.066376165,-0.012234677,0.0008949579,-0.013676978,0.0052186935,0.0074644247,0.4746264,-1.4176,1.9477624,-2.0999548,-1.5701541,2.4485924,-0.045219652,0.12038114,-0.14279112,0.0115071125,0.009523463,-0.05260694,-0.40222588,0.3256114,-9.346964,0.81351066,47.709274,-1.2306921,-1.839759,-3.3434138,-0.25643072,0.044802967,-0.2769107,25.125,25.625,24.9375,27.25,27.6875,28.0625
0.1440526,-1.6264794,-1.7773091,-0.7596239,-0.032997783,0.0684748,-0.110959806,-0.38580838,-0.3494183,0.06010068,3.0783584,-0.62327313,-0.00016284842,-0.06802198,-0.012308402,0.0006616829,-0.013549115,0.005546415,0.0069277203,0.474566,-1.4174186,1.9474744,-2.099943,-1.5700821,2.4485445,-0.04640373,0.12346361,-0.14573039,0.011136546,0.00925875,-0.053251237,-0.40222588,0.24899697,-9.32781,0.8112748,47.711063,-1.2120602,-1.8133337,-3.1821654,-0.24653848,0.036480997,-0.28130665,25.125,25.625,24.9375,27.25,27.6875,28.0625
0.14605194,-0.9095422,-0.949651,-0.6431933,-0.038017686,0.072142795,-0.11545002,-0.38597795,-0.34943992,0.060107216,3.078315,-0.6232444,-0.00019599636,-0.06912972,-0.012464816,0.0007554659,-0.013871393,0.006079323,0.006144213,0.4744338,-1.4171419,1.9471391,-2.099931,-1.5700582,2.4484,-0.047135834,0.12506989,-0.14777963,0.010960601,0.009301046,-0.053198237,-0.4213795,0.24899697,-9.232041,0.784413,47.69763,-1.2309338,-1.8883489,-3.2556205,-0.2271418,0.03270092,-0.2993239,25.125,25.625,24.9375,27.25,27.6875,28.0625
0.1480519,-0.6971026,-0.6006292,-0.4140515,-0.030379118,0.060488738,-0.119216315,-0.38613054,-0.34946224,0.060129654,3.0782967,-0.6231645,-0.00032111673,-0.0699459,-0.012025755,0.00035020438,-0.013257337,0.005567789,0.0053173006,0.4743493,-1.4169252,1.9468392,-2.099931,-1.5700821,2.4482682,-0.04843305,0.12677692,-0.14886571,0.0110761365,0.008992088,-0.053666815,-0.30645782,0.17238252,-9.097966,0.7665104,47.67614,-1.2163116,-1.7685721,-3.3250136,-0.20495543,0.034585472,-0.32328162,25.125,25.625,24.9375,27.25,27.6875,28.0625
0.15005189,-0.50618064,-0.46619895,-0.3261127,-0.011449079,0.049898587,-0.12276284,-0.3862767,-0.3494918,0.060133725,3.0782535,-0.6231367,-0.00035494755,-0.07122593,-0.012111551,0.0007177116,-0.013747135,0.0065237735,0.0050720586,0.474253,-1.4166725,1.9465398,-2.099931,-1.5700587,2.4481602,-0.049422476,0.12795837,-0.15108211,0.011039523,0.008990479,-0.054409385,-0.22984336,0.11492168,-9.078813,0.7978386,47.690468,-1.1892675,-1.998731,-3.414112,-0.1991069,0.040400438,-0.33684325,25.125,25.625,24.9375,27.25,27.6875,28.0625
0.15205184,0.008007614,0.20080155,-0.055748496,-0.015048912,0.049063943,-0.12395543,-0.38642737,-0.3494928,0.0601271,3.0782425,-0.62321055,-0.00040559837,-0.07183839,-0.011584429,-0.0007803742,-0.011902603,0.004033185,0.004673407,0.47413263,-1.4164189,1.9462637,-2.099931,-1.5700825,2.4480875,-0.05056125,0.13197063,-0.15238303,0.011388261,0.008487757,-0.05514782,-0.21068975,0.038307227,-9.002198,0.8112748,47.66091,-1.1767594,-1.6832093,-3.401535,-0.18848535,0.054612964,-0.34643477,25.125,25.625,24.9375,27.25,27.6875,28.0625
0.15405224,0.21158727,-0.32235387,-0.19773237,0.0008649517,0.049893115,-0.12696245,-0.38658124,-0.34953278,0.060129978,3.078175,-0.62315786,-0.00040474057,-0.07326077,-0.011836929,0.00089560705,-0.013108799,0.007536356,0.0044941357,0.4740245,-1.4161432,1.9459404,-2.099931,-1.570023,2.4479551,-0.05104191,0.13056651,-0.15462331,0.011371534,0.007960787,-0.05544768,-0.19153613,0.019153614,-8.829816,0.784413,47.688675,-1.1285846,-1.7233713,-3.4363604,-0.16936633,0.059105515,-0.3851927,25.125,25.625,24.9375,27.25,27.6875,28.0625
0.15605219,-0.12563819,0.09416382,-0.2768369,-0.004590821,0.03240416,-0.11971941,-0.38672194,-0.34955055,0.060136154,3.0781605,-0.6231568,-0.000430966,-0.07448113,-0.011081868,-0.00034015393,-0.012629096,0.0045659193,0.0017603342,0.4739273,-1.4159015,1.9456404,-2.0998948,-1.5700225,2.4478593,-0.0540588,0.1345319,-0.15658486,0.012227292,0.0088900365,-0.055729836,-0.095768064,0.019153614,-8.90643,0.8090337,47.683304,-1.0597913,-1.8280511,-3.4131768,-0.14727311,0.03524127,-0.42278376,25.125,25.625,24.9375,27.25,27.6875,28.0625
0.15805222,-0.4638438,-0.38544735,-0.37184227,-0.002530925,0.018578012,-0.11322531,-0.38685858,-0.34958935,0.06014173,3.0781763,-0.62298596,-0.0004046834,-0.07409642,-0.011415707,-0.00064098864,-0.012132817,0.0029246768,0.002908086,0.4738555,-1.4156249,1.9452933,-2.0998228,-1.5699981,2.447679,-0.05329637,0.13569492,-0.15762734,0.013794779,0.009199651,-0.056115046,-0.095768064,0.076614454,-8.810662,0.83589023,47.66808,-1.0027263,-1.6765835,-3.3812218,-0.13193345,0.05039055,-0.4574023,25.125,25.625,24.9375,27.25,27.6875,28.0625
0.16005242,0.046063717,-0.35930452,-0.38556793,-0.013358418,0.03550225,-0.12650822,-0.38703138,-0.34958133,0.060147513,3.078122,-0.6231665,-0.0004988721,-0.07503625,-0.011731454,-0.0003336364,-0.0120344125,0.0031019414,0.0032279356,0.47369972,-1.4153839,1.9450058,-2.0998337,-1.5700225,2.447643,-0.05345251,0.13732739,-0.16049074,0.014913884,0.009032527,-0.056589045,-0.11492168,0.22984336,-8.963891,0.78888994,47.66808,-1.1912633,-1.8547488,-3.3441486,-0.14463687,0.04332607,-0.47734135,25.125,25.625,24.9375,27.25,27.6875,28.0625
0.16205254,-0.49273372,-0.7767546,-0.5326136,-0.02096114,0.03056776,-0.11434512,-0.38714796,-0.34961605,0.060137752,3.078144,-0.62307394,-0.0004298561,-0.0770659,-0.011872646,0.0005147248,-0.012986544,0.004324813,0.0035863402,0.47363904,-1.4151071,1.9446934,-2.0997617,-1.5699981,2.447522,-0.055211227,0.1389159,-0.1644915,0.015805854,0.00931569,-0.058704734,-0.095768064,0.19153613,-8.963891,0.8157518,47.72002,-1.0934656,-1.7872524,-3.2268498,-0.13831523,0.050015446,-0.49416792,25.125,25.625,24.9375,27.25,27.6875,28.0625
0.16405165,-0.11794817,-1.132028,-0.6594847,-0.022440234,0.04622622,-0.11672315,-0.38731602,-0.349618,0.060128417,3.078146,-0.6230562,-0.00040190923,-0.07862481,-0.010690814,-5.0653736e-05,-0.011980531,0.003166202,0.0023159443,0.47348186,-1.4148058,1.9443573,-2.099714,-1.5699862,2.4473536,-0.058438472,0.1413991,-0.16627985,0.016605701,0.008949034,-0.060660455,-0.076614454,0.2681506,-9.059659,0.88289046,47.705692,-0.9828998,-2.009244,-3.3447669,-0.15200838,0.05443234,-0.4897585,25.125,25.625,24.9375,27.25,27.6875,28.0625
0.16605176,-0.86325365,-1.5606679,-0.79409546,-0.028232777,0.03867775,-0.11980051,-0.3874315,-0.34963652,0.060098227,3.0781574,-0.6230541,-0.00028959961,-0.078867584,-0.011549991,-0.0010173303,-0.010666905,0.00148311,0.008910257,0.4733865,-1.4145162,1.9440821,-2.0996659,-1.5699505,2.4472556,-0.056862194,0.14562741,-0.16914813,0.0173505,0.008543567,-0.06567694,-0.22984336,0.34476504,-9.11712,0.83589023,47.685097,-1.031152,-1.762938,-3.3279796,-0.14797719,0.055107743,-0.48128968,25.125,25.625,24.9375,27.25,27.6875,28.0625
0.1680518,-0.41773048,-1.4690021,-0.9754183,-0.04365009,0.057976168,-0.123917356,-0.3875904,-0.34966347,0.060114563,3.0781007,-0.62304145,-0.00031141785,-0.07912828,-0.0113596795,-0.00066878326,-0.011333778,0.0013191964,0.009955124,0.47326618,-1.4142644,1.9437469,-2.0996296,-1.5699142,2.4471347,-0.057833675,0.14511922,-0.16956809,0.018123047,0.009218198,-0.06769343,-0.22984336,0.45968673,-9.251195,0.83589023,47.685097,-1.126894,-1.7634065,-3.375432,-0.14194217,0.055954643,-0.47988912,25.125,25.625,24.9375,27.25,27.6875,28.0625
0.17005175,-0.99123114,-1.9398572,-1.1170764,-0.051202808,0.05396429,-0.1142956,-0.38777888,-0.3497062,0.06011394,3.0781062,-0.6229044,-0.00035284873,-0.08061024,-0.011206902,-0.0006138591,-0.012239309,0.00087333703,0.011905838,0.4731702,-1.4139034,1.9433273,-2.0996053,-1.5699142,2.4469528,-0.060063675,0.14709948,-0.17215653,0.018715689,0.010229677,-0.07187311,-0.22984336,0.4405331,-9.423578,0.7553206,47.67166,-0.9768636,-1.7531495,-3.2859774,-0.13679893,0.0529452,-0.47042823,25.125,25.625,24.9375,27.25,27.6875,28.0625
0.17205212,-1.3012078,-2.1462786,-1.3022436,-0.06587923,0.056890592,-0.109921955,-0.38790256,-0.34970316,0.060098674,3.0781257,-0.6229055,-0.00025383424,-0.081690215,-0.011214185,-0.0006474537,-0.011349919,0.0009947565,0.019222142,0.47303718,-1.4136503,1.9430517,-2.0995214,-1.5698904,2.446818,-0.060455743,0.14929983,-0.17482595,0.01949379,0.009381187,-0.079580136,-0.34476504,0.51714754,-9.557653,0.76874626,47.72629,-0.9567158,-1.7765511,-3.3173041,-0.16583887,0.05335722,-0.39758757,25.125,25.625,24.9375,27.25,27.6875,28.0625
0.17405245,-1.1881257,-2.5510113,-1.3304671,-0.06689461,0.07069651,-0.11382947,-0.38809425,-0.34972966,0.06010362,3.0781395,-0.6227723,-0.00030757693,-0.08313494,-0.011315698,-0.0003879269,-0.01173959,0.0015277766,0.02034176,0.47291747,-1.4133134,1.9426445,-2.0994856,-1.5699023,2.4466138,-0.06161602,0.15114616,-0.17767023,0.019841267,0.009485307,-0.08185829,-0.4213795,0.51714754,-9.481039,0.78217715,47.684196,-0.96278816,-1.7722746,-3.3157818,-0.14417662,0.069581926,-0.34616765,25.125,25.625,24.9375,27.25,27.6875,28.0625
0.17605232,-1.6893272,-2.6388342,-1.3120581,-0.06028569,0.06259512,-0.09961731,-0.38828784,-0.34974048,0.06011741,3.078075,-0.6227946,-0.00032951077,-0.08406835,-0.011889489,-0.000103649196,-0.013267778,0.0019608533,0.02420888,0.47273737,-1.4130248,1.9422725,-2.0994499,-1.5698656,2.446456,-0.062154647,0.15238035,-0.17972007,0.019579446,0.010652599,-0.086263165,-0.47884035,0.45968673,-9.404425,0.84484416,47.689575,-0.95662695,-1.7402964,-3.4217443,-0.15155277,0.05206193,-0.31326273,25.125,25.625,24.9375,27.25,27.6875,28.0625
0.17805244,-0.92800444,-1.7856166,-1.2643175,-0.057150036,0.08342721,-0.117713474,-0.38843977,-0.3497683,0.060103253,3.0780942,-0.62266237,-0.00031376223,-0.0853418,-0.011657047,-0.0011738215,-0.0121612875,0.0010031043,0.02600113,0.4726412,-1.4127105,1.9419373,-2.0994256,-1.5698541,2.446275,-0.063332915,0.15641451,-0.181849,0.019037087,0.01010058,-0.08923175,-0.4213795,0.4213795,-9.576807,0.8784135,47.6636,-0.96801734,-1.8667263,-3.3595886,-0.13099524,0.059008535,-0.24088204,25.125,25.625,24.9375,27.25,27.6875,28.0625
0.18005256,-1.2931774,-1.4901187,-1.4821715,-0.03779172,0.06979342,-0.10871911,-0.3886135,-0.3498042,0.06010011,3.078052,-0.62255764,-0.00028434928,-0.08620916,-0.011443526,-0.000861592,-0.012320573,0.0022449258,0.027179627,0.47250867,-1.4123865,1.9415659,-2.0994022,-1.5697945,2.4460826,-0.06418234,0.15654807,-0.18264782,0.018534089,0.009679106,-0.091258824,-0.36391866,0.28730422,-9.595961,0.8179876,47.66987,-0.8501791,-1.725527,-3.3968017,-0.12994444,0.053964555,-0.2105025,25.125,25.625,24.9375,27.25,27.6875,28.0625
0.1820526,-1.31763,-1.3090796,-1.4905777,-0.023980075,0.06638251,-0.10744047,-0.38879532,-0.34982675,0.060091514,3.0780516,-0.6225197,-0.0002673868,-0.086451575,-0.011151868,-0.002189679,-0.011393519,0.00024386036,0.026749019,0.4723757,-1.4120373,1.941172,-2.099354,-1.5697821,2.4459262,-0.064929195,0.15946805,-0.18294075,0.018113248,0.00976339,-0.0915746,-0.28730422,0.28730422,-9.710882,0.779936,47.694946,-0.8673283,-1.9016749,-3.5257502,-0.130566,0.061352152,-0.16561972,25.125,25.625,24.9375,27.25,27.6875,28.0625
0.18405272,-0.9244948,-0.60149425,-1.3642236,-0.02641523,0.069197655,-0.11603417,-0.38897625,-0.34984934,0.060086835,3.078032,-0.62241924,-0.00031276778,-0.08768213,-0.010693845,-0.0033729295,-0.0103190625,-0.0011644027,0.023827363,0.472244,-1.4117236,1.9408239,-2.0993664,-1.5697702,2.4457345,-0.066604584,0.16341683,-0.18475369,0.017722847,0.009446097,-0.09032627,-0.2681506,0.24899697,-9.615114,0.83365434,47.694946,-0.8889762,-2.013938,-3.4272232,-0.11048603,0.058997646,-0.15534928,25.125,25.625,24.9375,27.25,27.6875,28.0625
0.18605202,-1.0472696,-0.9182088,-1.4325771,-0.021944735,0.059143037,-0.11679758,-0.38918057,-0.34986064,0.06010769,3.0779798,-0.6224305,-0.00034653564,-0.08937216,-0.010789459,-0.0031719056,-0.010682723,-0.0002341327,0.019459506,0.4720635,-1.4114227,1.9404157,-2.0993063,-1.5697459,2.4455678,-0.06784638,0.16558959,-0.18771757,0.017521698,0.009341891,-0.08719804,-0.24899697,0.17238252,-9.595961,0.8403672,47.72271,-0.77265173,-2.0736392,-3.4658437,-0.0867685,0.072387576,-0.16387847,25.125,25.625,24.9375,27.25,27.6875,28.0625
0.18805218,-0.88819855,-1.1364983,-1.5234387,-0.014334674,0.056844603,-0.10556468,-0.38933972,-0.3498878,0.060090855,3.078014,-0.62230474,-0.0003285751,-0.08947546,-0.010524588,-0.0039442284,-0.009917057,-0.0021977222,0.014688408,0.47196728,-1.4110856,1.9400572,-2.0992706,-1.5697459,2.445389,-0.06850371,0.16751629,-0.1884336,0.018404623,0.009548315,-0.08308413,-0.21068975,0.076614454,-9.615114,0.85155696,47.691364,-0.73683786,-2.049265,-3.5828495,-0.07115102,0.080415025,-0.20449913,25.125,25.625,24.9375,27.25,27.6875,28.0625
0.1900522,-1.0095112,-0.71027696,-1.3181311,-0.02321098,0.050052736,-0.11135357,-0.38952065,-0.3499006,0.060084503,3.0780137,-0.6222488,-0.0003808723,-0.09058314,-0.010476048,-0.0049991887,-0.008364796,-0.004534656,0.012445484,0.47183427,-1.410772,1.9397095,-2.0992696,-1.5697583,2.4452214,-0.069342494,0.17231685,-0.19196324,0.01992111,0.009225358,-0.08167747,-0.28730422,0.019153614,-9.595961,0.84708,47.705692,-0.7610743,-2.0820282,-3.5638475,-0.06581451,0.08531537,-0.23001827,25.125,25.625,24.9375,27.25,27.6875,28.0625
0.19205238,-0.8462762,-0.646481,-1.252428,-0.017781945,0.052392475,-0.11001603,-0.3897073,-0.34993413,0.06008574,3.0779681,-0.6221846,-0.0003108033,-0.09256209,-0.010638809,-0.0025816148,-0.011043975,-0.0007225778,0.005190292,0.4716785,-1.4104241,1.939289,-2.0991976,-1.5696863,2.4450314,-0.07120346,0.17001173,-0.1950474,0.020697128,0.009869519,-0.0762827,-0.21068975,0.076614454,-9.442732,0.8806493,47.711964,-0.7299013,-2.0167723,-3.5311427,-0.09327084,0.0893425,-0.2829877,25.125,25.625,24.9375,27.25,27.6875,28.0625
0.19405256,-0.95441055,-0.6289062,-1.0769376,-0.012965543,0.049733363,-0.11013819,-0.38990185,-0.3499659,0.06009744,3.077936,-0.62215793,-0.00038209296,-0.09324909,-0.011381268,-0.0029581392,-0.011219719,-0.00089590286,0.0054291748,0.4715587,-1.4100991,1.9388818,-2.0991738,-1.5696863,2.4448993,-0.07062557,0.17276034,-0.19732292,0.020298712,0.010103561,-0.075941764,-0.21068975,0.05746084,-9.404425,0.8851263,47.695843,-0.6251594,-2.0685067,-3.521995,-0.06173247,0.080263,-0.29768324,25.125,25.625,24.9375,27.25,27.6875,28.0625
0.19605201,-0.6721281,-0.52727216,-0.957619,-0.01019472,0.060790777,-0.114886485,-0.39008075,-0.3499961,0.060072415,3.0779424,-0.62206,-0.00031478747,-0.09448481,-0.012497527,-0.0021861293,-0.01196471,0.0007563641,0.0088649085,0.47142708,-1.4097141,1.938486,-2.0991375,-1.56965,2.444706,-0.06967583,0.17449543,-0.20123522,0.020672498,0.010010463,-0.07842607,-0.22984336,0.095768064,-9.3661175,0.8627467,47.71465,-0.81274223,-2.0196524,-3.414417,-0.041661132,0.08837791,-0.27681017,25.125,25.625,24.9375,27.25,27.6875,28.0625
0.19805227,-0.46991438,-0.48412272,-1.1198798,-0.013172573,0.06431927,-0.1179643,-0.39028278,-0.3500217,0.060098782,3.0778973,-0.622015,-0.00038822272,-0.09589715,-0.012152466,-0.0017282324,-0.012392441,0.00096465717,0.004753145,0.47128233,-1.4094132,1.9380673,-2.0990894,-1.5696381,2.444539,-0.071688026,0.17549491,-0.20373774,0.02179508,0.010298155,-0.07632488,-0.26815057,0.21068975,-9.3661175,0.8224646,47.67614,-0.79472744,-2.0527668,-3.3697581,-0.036037117,0.083086744,-0.33026388,25.125,25.625,24.9375,27.25,27.6875,28.0625
0.20005232,-0.5710749,-1.0318711,-1.0871757,-0.02353563,0.05961695,-0.11399286,-0.39047837,-0.350033,0.060092665,3.0778897,-0.6220904,-0.00037062392,-0.0962983,-0.012707591,-0.0010349103,-0.012839953,0.0014871362,0.0058148555,0.4711256,-1.409053,1.9376487,-2.0990174,-1.5696377,2.4444306,-0.0711271,0.17570731,-0.20592044,0.02309837,0.010458552,-0.076825164,-0.34476507,0.28730422,-9.3661175,0.8537928,47.699425,-0.66165507,-1.8861942,-3.35878,-0.045424566,0.09819397,-0.35215145,25.125,25.625,24.9375,27.25,27.6875,28.0625
0.20205271,-1.0821146,-1.4565519,-0.8936548,-0.05263236,0.05537941,-0.11031921,-0.39066404,-0.3500514,0.060069613,3.077896,-0.62205034,-0.00034318655,-0.096661106,-0.013770144,-0.0014500505,-0.011764735,0.0010203056,0.007901032,0.47098336,-1.4086796,1.9372643,-2.0989935,-1.5696262,2.4442627,-0.069063805,0.17910089,-0.20912318,0.023816656,0.009706968,-0.076846115,-0.28730422,0.2681506,-9.308657,0.8784135,47.684196,-0.910471,-1.8486382,-3.314186,-0.055648647,0.094139576,-0.3708691,25.125,25.625,24.9375,27.25,27.6875,28.0625
0.204052,-0.9985517,-2.1896095,-1.131081,-0.053373914,0.059900098,-0.107194245,-0.39087066,-0.35008132,0.060088117,3.0778399,-0.6221155,-0.0003352888,-0.09824472,-0.01387707,0.00016699995,-0.013112529,0.003977031,0.00680525,0.47082707,-1.4083315,1.936798,-2.0988977,-1.5695904,2.4441545,-0.070154905,0.17801642,-0.21171118,0.024247596,0.0095649185,-0.07684034,-0.21068975,0.38307226,-9.346964,0.9097417,47.679718,-0.88855857,-1.8783798,-3.3634028,-0.050901838,0.13176192,-0.38621894,25.125,25.625,24.9375,27.25,27.6875,28.0625
0.20605224,-0.9331766,-1.9790212,-1.1708444,-0.07278724,0.06291023,-0.118928425,-0.39106873,-0.3501008,0.060091864,3.0778415,-0.62199885,-0.00037626666,-0.098326504,-0.014384502,-0.00039562996,-0.013102262,0.003415705,0.009251271,0.47068313,-1.4079946,1.9363917,-2.098862,-1.5695904,2.4439378,-0.069448814,0.17988092,-0.21251464,0.0236939,0.009813195,-0.07857941,-0.22984336,0.4213795,-9.346964,0.9634547,47.683304,-0.921474,-1.9253318,-3.4568424,-0.04717146,0.12302237,-0.40259796,25.125,25.625,24.9375,27.25,27.6875,28.0625
0.2080524,-0.9425911,-2.4176354,-1.2251223,-0.060224075,0.051832464,-0.10684778,-0.39126533,-0.35012388,0.060078748,3.077811,-0.6220682,-0.0003751422,-0.09909216,-0.014336412,-0.0007834502,-0.013131207,0.002399362,0.01094556,0.47053894,-1.4076216,1.9359845,-2.0988371,-1.569578,2.443841,-0.0704844,0.18201187,-0.21428004,0.024224725,0.010302301,-0.08130843,-0.076614454,0.4213795,-9.404425,0.8537928,47.681515,-0.99103504,-1.8436065,-3.3985624,-0.03366856,0.14041919,-0.41186976,25.125,25.625,24.9375,27.25,27.6875,28.0625
0.21005233,-0.3506975,-1.9121586,-1.0256951,-0.058829527,0.048909616,-0.11328759,-0.39147586,-0.3501522,0.06006113,3.077847,-0.62193847,-0.0003842875,-0.10051716,-0.01527428,0.0003154231,-0.014199731,0.004697584,0.014942781,0.47040704,-1.4072007,1.9355296,-2.0988014,-1.56959,2.4436238,-0.07001074,0.18296225,-0.21801573,0.024481665,0.010210531,-0.08483031,-0.05746084,0.51714754,-9.32781,0.7732232,47.667187,-0.96406054,-1.8004079,-3.4498568,-0.030795507,0.13271928,-0.39157772,25.125,25.625,24.9375,27.25,27.6875,28.0625
0.21205255,-0.11282501,-1.6665199,-1.2146533,-0.039501503,0.03236918,-0.10823527,-0.39169154,-0.35019097,0.06007371,3.0777862,-0.621865,-0.0004079179,-0.10171613,-0.015502872,0.00037085637,-0.015327985,0.005091972,0.018352972,0.47025067,-1.4068395,1.9350747,-2.0987656,-1.5695418,2.4434295,-0.071161844,0.18459958,-0.21997637,0.023949953,0.01104415,-0.089390144,-0.019153614,0.51714754,-9.308656,0.8605109,47.689575,-0.955106,-1.8451765,-3.4630132,-0.02146577,0.13114133,-0.35366243,25.125,25.625,24.9375,27.25,27.6875,28.0625
0.21405263,0.17976433,-1.6070489,-1.280787,-0.025281185,0.02070859,-0.10904222,-0.39189836,-0.35021198,0.060071837,3.0777714,-0.6218607,-0.00040641314,-0.10189582,-0.01499798,-0.0011137853,-0.0140843205,0.0033538078,0.021528263,0.47009435,-1.4064661,1.9346331,-2.098706,-1.5695299,2.4432726,-0.07195318,0.18731448,-0.2195744,0.022954537,0.010728611,-0.093356356,0.038307227,0.47884035,-9.346964,1.0015011,47.703007,-0.92902845,-1.9327965,-3.4512258,0.011236511,0.14954463,-0.31293964,25.125,25.625,24.9375,27.25,27.6875,28.0625
0.21605197,0.28871337,-1.4554638,-1.2139087,-0.033687457,0.015364315,-0.1137198,-0.39210814,-0.35023233,0.060061406,3.0777657,-0.6217582,-0.0003935346,-0.10264466,-0.015142846,-0.0018967441,-0.01407635,0.0013971827,0.027891248,0.46992612,-1.4060808,1.9342026,-2.0986702,-1.5695051,2.4430413,-0.07288064,0.19063371,-0.2218693,0.023687657,0.011615555,-0.100645624,0.21068975,0.36391866,-9.32781,0.8627467,47.705692,-0.9489391,-2.0880668,-3.5228944,0.017569374,0.17588808,-0.24092822,25.125,25.625,24.9375,27.25,27.6875,28.0625
0.21805249,0.048715044,-1.6389011,-1.1472516,-0.03868808,0.010272094,-0.10737715,-0.3923194,-0.3502899,0.060067635,3.077747,-0.6216186,-0.00045346207,-0.103676,-0.015887378,-0.0010646904,-0.014270699,0.0025687043,0.029932376,0.46983036,-1.4056841,1.9337233,-2.098646,-1.5694937,2.442861,-0.07222795,0.19182959,-0.22552574,0.025020914,0.011261943,-0.10203183,0.1340753,0.4405331,-9.251195,0.9097417,47.677036,-0.9415539,-1.9023924,-3.4364505,0.030215833,0.16469908,-0.18136716,25.125,25.625,24.9375,27.25,27.6875,28.0625
0.22005257,0.052073393,-1.6637629,-1.2898991,-0.039615598,0.0094904,-0.10403558,-0.39253312,-0.35032248,0.060087714,3.0777183,-0.62147766,-0.00047338905,-0.10506993,-0.014648855,-0.0019384284,-0.0131683955,0.00072044943,0.031258237,0.46967322,-1.4053351,1.9332565,-2.098573,-1.5694579,2.4426198,-0.075499594,0.19469772,-0.22712311,0.025908684,0.01112609,-0.106627926,0.17238252,0.30645782,-9.289502,0.83589023,47.689575,-0.90308595,-1.9994407,-3.4452374,0.015185304,0.18447101,-0.13891368,25.125,25.625,24.9375,27.25,27.6875,28.0625
0.22205177,0.38466886,-1.0861835,-1.0259775,-0.05053648,0.0217469,-0.11620226,-0.39272368,-0.3503519,0.060038146,3.0778077,-0.62126577,-0.0003797904,-0.10507004,-0.015999176,-0.002239586,-0.013417366,-0.00026376572,0.030850662,0.46955383,-1.4048654,1.932814,-2.0985248,-1.5694574,2.442357,-0.073506884,0.19740598,-0.22984006,0.02667866,0.0117790615,-0.10422725,0.19153613,0.28730422,-9.289502,0.7597976,47.717335,-0.9091521,-1.9897649,-3.487471,0.026329486,0.18479675,-0.10555712,25.125,25.625,24.9375,27.25,27.6875,28.0625
0.22405218,-0.3733838,-1.3153992,-1.0329593,-0.038538344,-0.0020489187,-0.099668756,-0.39294812,-0.35035643,0.060030404,3.0777426,-0.6213673,-0.00037325008,-0.10637158,-0.016603574,-0.0014118975,-0.014768447,0.0016403754,0.028777612,0.469338,-1.4044929,1.9323944,-2.0985014,-1.5694212,2.442213,-0.07375976,0.19805577,-0.23247516,0.026357632,0.012117718,-0.10240567,0.21068975,0.3256114,-9.212888,0.9298854,47.68599,-1.060663,-2.0114703,-3.4765015,0.021785058,0.18559012,-0.112435326,25.125,25.625,24.9375,27.25,27.6875,28.0625
0.22605251,0.37197,-1.0174133,-1.0114251,-0.028348112,0.018529132,-0.10778906,-0.393152,-0.35042048,0.06002957,3.0777254,-0.62121415,-0.00040431847,-0.10750145,-0.015435287,-0.0015322461,-0.014940501,0.00050373113,0.022434264,0.4692526,-1.4040844,1.9319171,-2.0984771,-1.5693973,2.4420345,-0.077190995,0.1987635,-0.23334771,0.027455933,0.012787215,-0.09949296,0.076614454,0.28730422,-9.193734,0.92093146,47.705692,-0.95900905,-2.124296,-3.4630613,0.046900176,0.1942054,-0.12388908,25.125,25.625,24.9375,27.25,27.6875,28.0625
0.2280526,0.3286628,-0.6741699,-1.2868782,-0.024471147,0.022729568,-0.10536533,-0.39332998,-0.35046145,0.06000782,3.077763,-0.6210666,-0.00026438988,-0.10605701,-0.017130665,-0.0026421607,-0.013685461,-0.002849221,0.02355336,0.46913427,-1.403663,1.9314502,-2.098357,-1.5693487,2.4418194,-0.0731399,0.20225488,-0.23544285,0.029619044,0.013173866,-0.096561,-0.019153614,0.30645782,-9.251195,0.8717007,47.71286,-1.0743347,-2.1012158,-3.5630174,0.04309667,0.20091076,-0.14935753,25.125,25.625,24.9375,27.25,27.6875,28.0625
0.23005165,-0.10991983,-1.0503341,-1.0316479,-0.022902163,0.02639195,-0.108890675,-0.39354882,-0.35047674,0.05998472,3.0777645,-0.6210692,-0.00025897173,-0.10664085,-0.016787376,-0.0030235953,-0.012887703,-0.004778294,0.018421257,0.46896565,-1.4032418,1.9310082,-2.0983322,-1.5693487,2.4416525,-0.07430108,0.20437334,-0.23759581,0.031731516,0.013329595,-0.09258935,-0.095768064,0.34476504,-9.136273,0.84484416,47.689575,-1.1991374,-2.1103272,-3.5979984,0.018496025,0.19552538,-0.20233902,25.125,25.625,24.9375,27.25,27.6875,28.0625
0.23205177,-0.44113526,-0.92187315,-1.1602869,-0.028877111,0.03239868,-0.11080322,-0.39378673,-0.3505192,0.060011882,3.0776987,-0.62101954,-0.0002843688,-0.10820895,-0.016865997,-0.0023026234,-0.013311132,-0.004186405,0.0144486595,0.46879733,-1.4028566,1.9304799,-2.0982478,-1.569301,2.4414618,-0.07556534,0.20577772,-0.24130332,0.033318046,0.013437689,-0.08987875,-0.095768064,0.30645782,-9.212888,0.81351066,47.693153,-1.1158531,-2.0112016,-3.4551616,0.002690895,0.2059378,-0.24147065,25.125,25.625,24.9375,27.25,27.6875,28.0625
0.2340519,-0.6636253,-1.565934,-1.4996037,-0.025290484,0.045675687,-0.10024391,-0.393974,-0.35055086,0.059982046,3.0777488,-0.62091434,-0.00019398858,-0.10836656,-0.017151562,-0.0026153384,-0.01340596,-0.005911136,0.012481889,0.46867743,-1.4024236,1.9300259,-2.0981638,-1.5692881,2.44127,-0.075703025,0.20755875,-0.24308431,0.034811165,0.014293281,-0.08805003,-0.11492168,0.34476504,-9.3661175,0.9186956,47.701214,-1.1711419,-2.1314235,-3.5474813,-0.025126252,0.18814334,-0.29503712,25.125,25.625,24.9375,27.25,27.6875,28.0625
0.23605211,-1.0898315,-1.4916859,-1.2932404,-0.04258601,0.056103956,-0.10256779,-0.39418396,-0.3506058,0.05997666,3.077675,-0.6209177,-0.00012262687,-0.10891221,-0.017326538,-0.0021180366,-0.013398715,-0.0060940734,0.012113867,0.46853328,-1.4020032,1.9295357,-2.0981028,-1.5692047,2.4411376,-0.075873524,0.2081862,-0.24546807,0.036742937,0.014369289,-0.08785171,-0.24899697,0.3256114,-9.404425,0.8314132,47.72271,-1.1865602,-1.9518931,-3.3928256,-0.03508643,0.19593099,-0.33801597,25.125,25.625,24.9375,27.25,27.6875,28.0625
0.23805222,-1.2176119,-1.356143,-1.3803544,-0.049243778,0.06891954,-0.10834192,-0.39440075,-0.35062256,0.059970677,3.0777106,-0.6209069,-8.646825e-05,-0.10910992,-0.016962484,-0.0019680578,-0.01273085,-0.006766891,0.010094511,0.4683771,-1.4015826,1.9290332,-2.0979822,-1.5692166,2.4409704,-0.076438405,0.20835955,-0.24649386,0.038497537,0.014073846,-0.08639766,-0.34476504,0.24899697,-9.500193,0.8627467,47.709274,-1.2565327,-1.9547389,-3.4844775,-0.07619484,0.20457436,-0.35593125,25.125,25.625,24.9375,27.25,27.6875,28.0625
0.24005216,-1.4854566,-1.2584306,-1.4014387,-0.04211403,0.07839404,-0.11164476,-0.39463148,-0.35064727,0.05996133,3.0776708,-0.62088084,-5.1921394e-05,-0.11066848,-0.016925657,-0.0019002719,-0.01279764,-0.0066708024,0.0066479566,0.4681847,-1.4011616,1.9285539,-2.097934,-1.5691689,2.440767,-0.07782591,0.21076731,-0.24968304,0.03916693,0.014082965,-0.084336944,-0.36391866,0.24899697,-9.576807,0.9254084,47.7451,-1.2014316,-1.9918602,-3.3934417,-0.116774514,0.20535505,-0.42306626,25.125,25.625,24.9375,27.25,27.6875,28.0625
0.24205244,-1.5001369,-0.8256535,-1.1519877,-0.03434712,0.078308746,-0.105822146,-0.3948795,-0.35069725,0.059975766,3.0776188,-0.6208109,-8.6779284e-05,-0.11150846,-0.017039355,-0.0012419678,-0.013408778,-0.005901196,0.008787247,0.46802843,-1.4007292,1.9280046,-2.0978744,-1.5691327,2.440574,-0.078436136,0.21092565,-0.25164482,0.040016666,0.014287147,-0.08708512,-0.40222588,0.19153613,-9.5385,0.9388393,47.698532,-1.2215989,-1.8930328,-3.4478297,-0.110926285,0.22535107,-0.45184255,25.125,25.625,24.9375,27.25,27.6875,28.0625
0.24405263,-1.5064183,-0.43381512,-1.4064348,-0.009241381,0.06695354,-0.10160693,-0.39509037,-0.3507334,0.059965737,3.0776284,-0.6207942,-4.1701922e-05,-0.11240199,-0.017214667,-0.001020261,-0.013914693,-0.0058644414,0.006598261,0.46789628,-1.4002961,1.9275016,-2.097778,-1.5691203,2.4404304,-0.079138584,0.2121705,-0.253841,0.04070627,0.014714845,-0.08559816,-0.4405331,0.15322891,-9.461885,0.88289046,47.68599,-1.2126544,-1.9620359,-3.5406404,-0.15386459,0.20906466,-0.48929706,25.125,25.625,24.9375,27.25,27.6875,28.0625
0.24605176,-1.0784706,-0.0670654,-1.5782676,3.2184162e-06,0.06846237,-0.11305725,-0.39530474,-0.35077727,0.059945185,3.0776265,-0.6206951,3.856065e-05,-0.1132425,-0.01743223,-0.0017441249,-0.013329276,-0.0069845472,0.009415198,0.46775216,-1.3998384,1.9269994,-2.0977066,-1.5690726,2.440225,-0.07943327,0.21554905,-0.2562969,0.04105868,0.014694383,-0.08870881,-0.47884035,0.1340753,-9.519346,0.842603,47.711063,-1.177911,-2.0437813,-3.4816885,-0.16330925,0.21082142,-0.51724017,25.125,25.625,24.9375,27.25,27.6875,28.0625
0.24805261,-1.3106049,-0.6539265,-1.4751444,-0.006085074,0.07463345,-0.11454235,-0.39552382,-0.3507894,0.05991944,3.0776508,-0.6206797,0.0001130217,-0.113963075,-0.015650261,-0.0027134898,-0.012130893,-0.009198602,0.011066105,0.46757105,-1.3993937,1.9265212,-2.0976226,-1.5690602,2.4400313,-0.08306932,0.21680045,-0.2558193,0.041858815,0.014627037,-0.09399683,-0.40222588,0.1340753,-9.519346,0.84708,47.704796,-1.1506685,-2.0616589,-3.5948086,-0.20175835,0.21876001,-0.488258,25.125,25.625,24.9375,27.25,27.6875,28.0625
0.25005183,-1.4598271,-0.75281984,-1.2057002,-0.02972714,0.077146664,-0.10946711,-0.39572757,-0.3508281,0.059895355,3.077675,-0.6205635,0.0002376315,-0.114216626,-0.016760927,-0.0030976338,-0.011885333,-0.009804509,0.01967228,0.4674276,-1.3989363,1.9260186,-2.0975144,-1.5690125,2.4398124,-0.08133249,0.21973038,-0.25856015,0.042339142,0.014677185,-0.10086572,-0.28730422,0.1340753,-9.519346,0.9231726,47.661808,-1.1744633,-2.035697,-3.6653414,-0.22639191,0.22495067,-0.44642687,25.125,25.625,24.9375,27.25,27.6875,28.0625
0.25205198,-1.2465378,-1.2009598,-1.4227906,-0.028862562,0.07777995,-0.103151545,-0.3959753,-0.35084176,0.0598873,3.0776956,-0.62052524,0.00020385467,-0.115685314,-0.016652491,-0.0028719709,-0.012028924,-0.00939223,0.025666473,0.46724704,-1.3984911,1.9255046,-2.0974543,-1.5690364,2.4396057,-0.08271646,0.22151768,-0.2613918,0.042963292,0.014623421,-0.1082425,-0.34476504,0.11492168,-9.461885,0.9388393,47.694946,-1.190318,-2.0599995,-3.6944132,-0.24327612,0.23637673,-0.37920323,25.125,25.625,24.9375,27.25,27.6875,28.0625
0.25405207,-1.2678814,-0.9724606,-1.0191444,-0.052243665,0.08521262,-0.11626961,-0.39623576,-0.35089594,0.059911426,3.0776224,-0.62037474,0.00018635408,-0.119305424,-0.015613441,-0.0016058456,-0.013291591,-0.0066504925,0.026928553,0.46706522,-1.3980584,1.924929,-2.0973828,-1.5689644,2.4393394,-0.087583885,0.22274399,-0.26584658,0.043196555,0.014521553,-0.11436903,-0.40222588,0.17238252,-9.481039,0.947788,47.711964,-0.9180076,-2.1492667,-3.6907096,-0.26797754,0.24638268,-0.31265333,25.125,25.625,24.9375,27.25,27.6875,28.0625
0.25605205,-1.076874,-1.1364499,-1.3895577,-0.034039706,0.0711518,-0.11017039,-0.39641997,-0.3509163,0.05987765,3.0776742,-0.62032366,0.0003304448,-0.119921625,-0.017048283,-0.0019716672,-0.013264294,-0.0068165786,0.032883327,0.46692225,-1.3976249,1.9244732,-2.097263,-1.56894,2.4391582,-0.08559725,0.22645521,-0.2694468,0.043257818,0.01455738,-0.11833662,-0.30645782,0.19153613,-9.519346,0.92093146,47.690468,-1.0718772,-2.1478376,-3.4828663,-0.2805372,0.24815139,-0.25573108,25.125,25.625,24.9375,27.25,27.6875,28.0625
0.25805208,-1.1397254,-0.7247592,-1.4550834,-0.029587667,0.054636203,-0.10729877,-0.3966848,-0.35095277,0.059876297,3.0776477,-0.62024206,0.00033922598,-0.12249698,-0.016671302,-0.001365858,-0.014676372,-0.005404343,0.032287475,0.466729,-1.3971436,1.9238986,-2.097191,-1.5689043,2.4389176,-0.08883981,0.22825247,-0.27299294,0.043119732,0.015180314,-0.12098161,-0.38307226,0.19153613,-9.519346,0.86498255,47.723602,-0.9388039,-2.1450834,-3.5018964,-0.30190617,0.2418255,-0.21276034,25.125,25.625,24.9375,27.25,27.6875,28.0625
0.26005206,-1.0132058,-1.1745827,-1.4986571,-0.02860857,0.054064978,-0.10587642,-0.39695337,-0.35096544,0.059897296,3.07765,-0.62014705,0.00021771966,-0.124872886,-0.016864818,-0.0005111991,-0.016104748,-0.0026912256,0.030038536,0.4665365,-1.3967348,1.9233602,-2.097132,-1.56894,2.4386659,-0.090550676,0.22968403,-0.2764617,0.042088926,0.015233957,-0.12044079,-0.45968673,0.24899697,-9.481039,0.8493211,47.661808,-0.85412323,-2.1305318,-3.4843302,-0.32083994,0.25461861,-0.19443738,25.125,25.625,24.9375,27.25,27.6875,28.0625
0.2620523,-1.355574,-1.4281511,-1.5594714,-0.028896227,0.0480198,-0.09658222,-0.39717868,-0.35100746,0.059863463,3.077687,-0.6200016,0.00035559692,-0.12686694,-0.017559996,0.00043175003,-0.018077988,0.0007399494,0.027517794,0.46638048,-1.396218,1.9228095,-2.0970242,-1.5688924,2.4384146,-0.09115294,0.2305498,-0.27927655,0.040090144,0.015432508,-0.118522115,-0.38307226,0.28730422,-9.557653,0.8493211,47.73077,-0.8611624,-2.0764902,-3.2904258,-0.33776307,0.27614835,-0.20167989,25.125,25.625,24.9375,27.25,27.6875,28.0625
0.26405254,-1.2975802,-1.3840368,-1.4057766,-0.05166657,0.06391954,-0.10596902,-0.3974111,-0.35102794,0.059869353,3.0776808,-0.6199662,0.00042318655,-0.12777391,-0.017527059,-0.00010964939,-0.017963996,0.0008144243,0.020301467,0.4661882,-1.3957967,1.9222716,-2.0968816,-1.5688561,2.4382012,-0.09183662,0.23272826,-0.28044298,0.039058965,0.015283764,-0.111989014,-0.59376204,0.36391866,-9.481039,0.8627467,47.71286,-0.8287642,-2.0421462,-3.4322045,-0.33656052,0.2593536,-0.23135687,25.125,25.625,24.9375,27.25,27.6875,28.0625
0.26605263,-1.7973369,-2.0645337,-1.4062234,-0.06986916,0.08223732,-0.10812212,-0.39770806,-0.35106993,0.059887104,3.0775895,-0.6200261,0.00033238876,-0.12836376,-0.018062435,0.0010137073,-0.019995881,0.0028238385,0.016190592,0.46598417,-1.3953166,1.9216622,-2.0968454,-1.5688318,2.4380465,-0.09190864,0.23137741,-0.28144157,0.038695578,0.016200587,-0.107948996,-0.63206923,0.47884035,-9.557653,0.9030289,47.709274,-0.77084327,-1.9789345,-3.5834792,-0.33491802,0.28327125,-0.2933183,25.125,25.625,24.9375,27.25,27.6875,28.0625
0.26805183,-1.8437611,-2.273855,-1.6290202,-0.07724856,0.100059204,-0.10781899,-0.397964,-0.3511046,0.059871666,3.0776162,-0.6198401,0.00037380427,-0.12885986,-0.017914103,0.0010732414,-0.020443335,0.0036714093,0.014028629,0.46580395,-1.3948123,1.921089,-2.096762,-1.568808,2.437747,-0.09252956,0.23136127,-0.2814573,0.037771955,0.016216146,-0.10640833,-0.51714754,0.38307226,-9.615114,0.9410752,47.690468,-0.78913677,-1.8178573,-3.7657073,-0.33110762,0.27687603,-0.32980525,25.125,25.625,24.9375,27.25,27.6875,28.0625
0.27005196,-1.9298519,-2.3049183,-1.5869098,-0.065970644,0.095782705,-0.1034604,-0.3981917,-0.35115883,0.059880063,3.0775666,-0.6197335,0.00038896213,-0.13060865,-0.01888107,0.0020180806,-0.022939919,0.006603197,0.013498731,0.46565992,-1.3943918,1.9205621,-2.096691,-1.5687479,2.437543,-0.092888236,0.23222177,-0.28430435,0.03602309,0.017125515,-0.10623541,-0.49799395,0.2873042,-9.653421,0.9030289,47.67166,-0.9112379,-1.7830806,-3.7272158,-0.3514378,0.26203582,-0.34703952,25.125,25.625,24.9375,27.25,27.6875,28.0625
0.27205217,-1.046087,-1.7152847,-1.4921993,-0.052958373,0.09472366,-0.10802662,-0.39845642,-0.3511679,0.059844885,3.077557,-0.6197515,0.00047147757,-0.13200621,-0.019811371,0.0016675188,-0.023610637,0.008000023,0.0137633,0.46542,-1.3938744,1.9200238,-2.0966318,-1.5687116,2.4373157,-0.092380635,0.23550713,-0.2869711,0.033863015,0.01708665,-0.105991326,-0.38307226,0.3256114,-9.615114,0.8784135,47.734352,-0.7940732,-1.7399683,-3.571002,-0.31972677,0.27894193,-0.3643083,25.125,25.625,24.9375,27.25,27.6875,28.0625
0.27405226,-0.8431134,-0.87517244,-1.5659394,-0.033807803,0.06640772,-0.107309006,-0.39872006,-0.35122925,0.05984733,3.0774887,-0.6196783,0.00043315403,-0.13289839,-0.02116696,0.0017587737,-0.024658125,0.00937354,0.014669116,0.46526462,-1.3933929,1.9194497,-2.0966084,-1.5686635,2.4371235,-0.09093159,0.23786038,-0.28974745,0.032594305,0.017406916,-0.10544552,-0.095768064,0.3256114,-9.710882,0.9097417,47.721813,-0.98014563,-1.8217013,-3.7008483,-0.29258707,0.27528766,-0.40415412,25.125,25.625,24.9375,27.25,27.6875,28.0625
0.27605274,-0.40642238,-0.6857798,-1.8528646,-0.022174058,0.043456532,-0.103905946,-0.39904705,-0.35127616,0.059895203,3.0773954,-0.6196587,0.00024498705,-0.13595363,-0.020334084,0.0010467812,-0.024823159,0.009972108,0.014210718,0.4650591,-1.3929229,1.9187797,-2.0965612,-1.5686635,2.436918,-0.09488615,0.24234645,-0.2930785,0.03084149,0.017299484,-0.10893692,-0.11492168,0.34476504,-9.595961,0.9455522,47.674347,-0.8033924,-1.8995012,-3.627646,-0.26756564,0.2812147,-0.40449938,25.125,25.625,24.9375,27.25,27.6875,28.0625
0.27805206,-0.01572676,-0.74813694,-2.0135245,-0.025940772,0.02566854,-0.101478726,-0.3992948,-0.35130674,0.05987223,3.0773928,-0.619618,0.00028527042,-0.13679026,-0.0219001,0.0006703008,-0.024861315,0.011051489,0.017593494,0.4648801,-1.3924291,1.9182404,-2.0965016,-1.5686401,2.4367142,-0.09253268,0.24605727,-0.29636148,0.029441271,0.016842669,-0.10996452,0.095768064,0.34476504,-9.576807,0.9567419,47.703903,-0.9987422,-2.1950936,-3.592151,-0.248177,0.28976646,-0.40527648,25.125,25.625,24.9375,27.25,27.6875,28.0625
0.28005216,-0.37857604,-1.2848822,-1.8298062,-0.05085629,0.012193078,-0.10510281,-0.39959,-0.35133374,0.0598809,3.0773778,-0.6195521,0.00020248524,-0.13953544,-0.022330409,0.0020097306,-0.026422113,0.014380635,0.024526946,0.46467555,-1.3919361,1.9176296,-2.096442,-1.5686516,2.4364707,-0.09403759,0.24754004,-0.30118817,0.029129382,0.01675745,-0.11839986,0.1340753,0.36391866,-9.653421,0.8672237,47.723602,-0.891788,-2.0971274,-3.4471726,-0.22846073,0.30064708,-0.34916344,25.125,25.625,24.9375,27.25,27.6875,28.0625
0.28205225,-0.6147262,-2.0428946,-1.662105,-0.06418529,0.029513275,-0.10293202,-0.39987132,-0.35141182,0.05989893,3.0773027,-0.6193814,0.00017176471,-0.14013062,-0.022580855,0.0023603146,-0.026414283,0.014575499,0.028717464,0.4645196,-1.3914309,1.916983,-2.096382,-1.56858,2.436218,-0.09398671,0.24839571,-0.30337024,0.03030532,0.016680717,-0.12253755,-0.019153614,0.24899697,-9.32781,0.94331104,47.72002,-0.8832902,-2.223393,-3.3567312,-0.2011246,0.32931662,-0.28148007,25.125,25.625,24.9375,27.25,27.6875,28.0625
0.28405228,-0.5982163,-1.8312664,-2.0918226,-0.054764487,0.0189221,-0.093366295,-0.40014276,-0.3514269,0.059895914,3.07732,-0.61938155,0.00018006253,-0.14133255,-0.022803336,0.002830009,-0.027452521,0.014852637,0.034004945,0.46431518,-1.3909384,1.916385,-2.0962613,-1.568591,2.4360118,-0.095068656,0.24961124,-0.3061815,0.031200891,0.01749351,-0.12890624,0.0,0.4213795,-9.595961,0.9567419,47.716442,-0.829155,-2.1846876,-3.403449,-0.19221014,0.3156017,-0.2358144,25.125,25.625,24.9375,27.25,27.6875,28.0625
0.2860522,-0.36341047,-2.0407615,-1.8694127,-0.06906774,0.03974757,-0.10017301,-0.40041426,-0.35146353,0.05988945,3.0773046,-0.61924016,0.00021695417,-0.13975494,-0.02228659,0.0008986604,-0.026024094,0.010462271,0.03916236,0.46411133,-1.3904334,1.9157885,-2.0961773,-1.5685433,2.4357219,-0.0949369,0.25113636,-0.3038592,0.031936925,0.018201793,-0.13393292,0.0,0.45968673,-9.864111,0.9097417,47.68599,-0.9282563,-2.0079677,-3.448812,-0.18250275,0.33806688,-0.13329312,25.125,25.625,24.9375,27.25,27.6875,28.0625
0.28805247,-0.31441092,-2.2007418,-1.548136,-0.07729923,0.04828568,-0.10247263,-0.4007438,-0.35152942,0.059940748,3.0771677,-0.6191354,3.069326e-05,-0.14007775,-0.0224503,0.0013279932,-0.025824156,0.01062829,0.039826542,0.46390748,-1.3899645,1.915119,-2.0961654,-1.5684952,2.4354703,-0.094686754,0.25141284,-0.30558392,0.033338297,0.01797835,-0.1343433,0.019153614,0.45968673,-9.615114,0.90527004,47.68062,-0.9644667,-2.064877,-3.6585612,-0.19184268,0.33772457,-0.10058825,25.125,25.625,24.9375,27.25,27.6875,28.0625
0.2900526,-0.10608435,-1.8662374,-1.5375053,-0.06667313,0.04395856,-0.10623289,-0.40103236,-0.35157275,0.059941735,3.077146,-0.61899775,-2.2781576e-06,-0.14165147,-0.023349855,0.0024069832,-0.028047193,0.01318039,0.03679733,0.46371546,-1.3894482,1.9144973,-2.0961058,-1.5684708,2.4351954,-0.0949342,0.2519941,-0.30866063,0.032554526,0.01882193,-0.1315593,0.095768064,0.38307226,-9.481039,0.8985519,47.634937,-1.00923,-1.9902956,-3.7273026,-0.16773185,0.33151227,-0.09260602,25.125,25.625,24.9375,27.25,27.6875,28.0625
0.29205257,-0.32228792,-1.3871269,-1.4104776,-0.05376184,0.03506019,-0.09342023,-0.40130585,-0.3516379,0.059942268,3.0771022,-0.61879826,-4.3213666e-05,-0.14264004,-0.024318794,0.002475534,-0.029222531,0.014326969,0.033049263,0.46355954,-1.3889431,1.9138979,-2.0960824,-1.5684227,2.4349208,-0.094368234,0.25400218,-0.31101522,0.03134768,0.019357901,-0.1272426,0.095768064,0.2681506,-9.442732,0.9164598,47.698532,-1.041312,-1.7939378,-3.5424442,-0.12854338,0.32052982,-0.13747302,25.125,25.625,24.9375,27.25,27.6875,28.0625
0.29405195,0.4221577,-0.5092463,-1.5138494,-0.025341736,0.0300107,-0.098919936,-0.40158403,-0.35168377,0.059940387,3.0770621,-0.6187366,-2.2817007e-05,-0.14521226,-0.024158368,0.004030312,-0.031290483,0.017765086,0.02635192,0.46336666,-1.3884267,1.9132766,-2.0959985,-1.568375,2.4346948,-0.09697657,0.25378698,-0.31430647,0.030853698,0.019662898,-0.123151965,0.076614454,0.19153613,-9.3661175,0.9947882,47.67345,-1.0882338,-1.7515624,-3.5641406,-0.08301212,0.320054,-0.1915574,25.125,25.625,24.9375,27.25,27.6875,28.0625
0.2960523,0.42475566,-0.32288277,-1.3064138,-0.006125769,0.024120906,-0.10053603,-0.40189257,-0.35175273,0.059959915,3.0769527,-0.6186405,-0.00015051676,-0.14488818,-0.026596334,0.0045626317,-0.03233958,0.017852606,0.024162967,0.46318692,-1.3879216,1.9126414,-2.09601,-1.5683264,2.4344692,-0.09294898,0.25568718,-0.31818867,0.032280423,0.020567747,-0.116930746,0.17238252,0.17238252,-9.308657,0.8851263,47.703007,-1.1892474,-1.6740284,-3.4575448,-0.065737724,0.3173556,-0.23099697,25.125,25.625,24.9375,27.25,27.6875,28.0625
0.298052,0.16565827,0.29789263,-1.5238944,0.00409875,0.016250985,-0.102908924,-0.40215775,-0.35179263,0.059957746,3.076922,-0.6185752,-0.00011248483,-0.14629246,-0.025664927,0.0030494959,-0.03091661,0.014242017,0.020474385,0.4629951,-1.3874274,1.9120435,-2.0959132,-1.5682782,2.4342408,-0.095900886,0.26073772,-0.32122537,0.034139328,0.020910008,-0.11619221,0.038307227,0.21068975,-9.32781,0.900793,47.677036,-1.1918241,-1.7739773,-3.441102,-0.06721085,0.32196933,-0.29497755,25.125,25.625,24.9375,27.25,27.6875,28.0625
0.30005246,-0.2721118,-0.2193049,-1.6510056,-0.0052300356,0.030848583,-0.09815612,-0.40248135,-0.35186768,0.0599838,3.0768077,-0.6185168,-0.00014449656,-0.1466681,-0.025546813,0.00224235,-0.029550817,0.0123129515,0.015706943,0.46279106,-1.386874,1.9113144,-2.0958292,-1.5681943,2.434015,-0.0960989,0.2636197,-0.32324746,0.035619494,0.020554693,-0.11162031,-0.019153614,0.2681506,-9.5385,0.9388393,47.699425,-1.100621,-1.9720204,-3.4521563,-0.049836446,0.32746422,-0.34941232,25.125,25.625,24.9375,27.25,27.6875,28.0625
0.30205262,-0.99631524,-1.2417597,-1.582675,-0.036692627,0.052984413,-0.10257075,-0.40275338,-0.35189757,0.059962578,3.0768328,-0.6184264,-9.89079e-05,-0.14721857,-0.02558305,0.0024357724,-0.029175205,0.011451439,0.013295347,0.4625991,-1.3863329,1.910704,-2.0957325,-1.5681823,2.4337637,-0.096446745,0.26488543,-0.32582358,0.03786859,0.020599958,-0.1095564,-0.05746084,0.28730422,-9.500193,1.0283576,47.704796,-1.2233483,-2.028801,-3.4906378,-0.0626751,0.33119765,-0.40259397,25.125,25.625,24.9375,27.25,27.6875,28.0625
0.30405194,-1.3678987,-1.9621396,-1.3586544,-0.067557156,0.067792624,-0.091295876,-0.40303376,-0.35193378,0.059977196,3.0768127,-0.61838496,-0.00015279056,-0.14746067,-0.024695698,0.00256496,-0.028678061,0.009977173,0.010113045,0.4624185,-1.385852,1.9100827,-2.0956357,-1.5681823,2.4335601,-0.09823176,0.26468295,-0.32656097,0.04034927,0.020822894,-0.108158395,-0.17238252,0.36391866,-9.423578,0.91421866,47.68062,-1.1416273,-1.9942646,-3.4226604,-0.08396977,0.31794778,-0.46941036,25.125,25.625,24.9375,27.25,27.6875,28.0625
0.30605224,-1.5319362,-2.2603843,-1.2251501,-0.07349786,0.07795666,-0.09492985,-0.40335295,-0.35198638,0.060015105,3.076719,-0.61836565,-0.00021961979,-0.14776653,-0.024649883,0.0021061925,-0.028386593,0.008004249,0.010784248,0.4622023,-1.3853475,1.9093779,-2.0955274,-1.5681337,2.4333441,-0.09886197,0.26670057,-0.32840827,0.0420858,0.021459166,-0.109456904,-0.24899697,0.38307226,-9.481039,0.9321212,47.689575,-1.1452092,-1.9042983,-3.55486,-0.08890573,0.31889778,-0.48846722,25.125,25.625,24.9375,27.25,27.6875,28.0625
0.3080517,-1.353903,-2.0757782,-1.580172,-0.0570577,0.06717784,-0.09879917,-0.4036607,-0.35205597,0.06002161,3.0766647,-0.61827487,-0.00027092287,-0.1481669,-0.024109224,0.0011463293,-0.027231691,0.0063317637,0.014756079,0.46203384,-1.3847824,1.9086841,-2.0954678,-1.5680984,2.4331262,-0.0998738,0.268993,-0.32918367,0.042602304,0.021192353,-0.11443907,-0.22984336,0.36391866,-9.519346,0.9321212,47.637623,-1.0955042,-1.8169813,-3.6976256,-0.09467462,0.3293209,-0.47118694,25.125,25.625,24.9375,27.25,27.6875,28.0625
0.31005177,-0.524357,-1.2043271,-1.2009888,-0.06292959,0.079017855,-0.11129174,-0.40392655,-0.3520946,0.05999155,3.0766163,-0.6182592,-0.00015537096,-0.14946342,-0.024596961,0.001433098,-0.028255722,0.0073867934,0.02351634,0.46181774,-1.3842409,1.9080981,-2.0953958,-1.568014,2.4329066,-0.10033818,0.27065971,-0.3318527,0.042241286,0.021653293,-0.12366295,-0.19153614,0.40222588,-9.461885,1.0015011,47.65464,-1.1192988,-1.7929645,-3.691224,-0.05194264,0.32557756,-0.4373684,25.125,25.625,24.9375,27.25,27.6875,28.0625
0.31205192,-0.6173586,-1.225506,-1.1476362,-0.034075174,0.06019832,-0.09765392,-0.40424308,-0.35214198,0.060017142,3.0765848,-0.61819166,-0.00024245954,-0.15066907,-0.025172153,0.0016851916,-0.028805338,0.008895147,0.030635431,0.4616259,-1.3837118,1.9073919,-2.095289,-1.568014,2.432677,-0.10018143,0.2723504,-0.33438215,0.04150838,0.021494476,-0.1306229,-0.34476504,0.30645782,-9.423578,0.97464454,47.728977,-1.0931726,-1.8151697,-3.6796193,-0.047291577,0.31315944,-0.36484447,25.125,25.625,24.9375,27.25,27.6875,28.0625
0.31405202,-0.74283624,-0.44926733,-1.2358376,-0.018509544,0.040165212,-0.095452026,-0.40454492,-0.35220242,0.06002899,3.076528,-0.6179453,-0.0002987227,-0.15417588,-0.024304325,0.0023122246,-0.029469294,0.011022551,0.03598877,0.4614323,-1.3831941,1.9067463,-2.0952528,-1.5679544,2.432337,-0.10438919,0.27501613,-0.33904153,0.04134108,0.021169785,-0.1401804,-0.24899697,0.34476504,-9.289502,0.97464454,47.672558,-0.92620397,-1.7982423,-3.5597498,-0.018194119,0.32402498,-0.26695833,25.125,25.625,24.9375,27.25,27.6875,28.0625
0.3160522,-1.0130658,-0.9455659,-1.413183,-0.0053941626,0.047366068,-0.087756254,-0.40485683,-0.35226262,0.060037453,3.0764568,-0.6179082,-0.0002979316,-0.15430443,-0.025611062,0.0034193064,-0.030777449,0.0127579,0.041996032,0.46122915,-1.3826299,1.9060396,-2.095157,-1.5678939,2.43212,-0.10239616,0.2744822,-0.34119934,0.04191937,0.021586347,-0.14419293,-0.4213795,0.24899697,-9.289502,0.98135734,47.698532,-1.0803304,-1.8555729,-3.4559486,-0.013557948,0.32793507,-0.20503967,25.125,25.625,24.9375,27.25,27.6875,28.0625
0.31805232,-0.7420072,-0.54641175,-1.1288879,-0.022416854,0.066828236,-0.10185463,-0.40517113,-0.3523093,0.060058776,3.0764441,-0.6177347,-0.0003283747,-0.15548569,-0.024283757,0.0022862311,-0.030677717,0.008671083,0.03908647,0.46102348,-1.382089,1.9053224,-2.0950239,-1.5678695,2.431808,-0.10667255,0.27776897,-0.34318694,0.044330347,0.023331067,-0.14555639,-0.45968673,0.30645782,-9.232041,0.90750587,47.690468,-0.90911484,-1.6548785,-3.51699,-0.009582564,0.31286854,-0.17313448,25.125,25.625,24.9375,27.25,27.6875,28.0625
0.32005242,-1.1394316,-1.1058458,-0.8592639,-0.03825967,0.079949714,-0.09108157,-0.40548235,-0.35235947,0.060045447,3.0764015,-0.61759126,-0.00028281382,-0.15416299,-0.025617091,0.002763757,-0.030565301,0.0061265,0.039161652,0.4607967,-1.3815,1.9046406,-2.0949504,-1.5677971,2.4314973,-0.10376909,0.27805686,-0.345831,0.049019758,0.024367578,-0.14272638,-0.57460845,0.22984336,-9.193734,0.9410752,47.687782,-1.1102126,-1.6655486,-3.514499,-0.041652396,0.29200292,-0.16565448,25.125,25.625,24.9375,27.25,27.6875,28.0625
0.3220526,-1.3758323,-0.9308974,-0.33984262,-0.05762968,0.09794954,-0.103296764,-0.40579563,-0.35243312,0.060065188,3.076331,-0.6174466,-0.00032439386,-0.15576755,-0.025895813,0.0036481114,-0.031547733,0.007859006,0.031738196,0.4606165,-1.380947,1.9039234,-2.0948665,-1.567737,2.431236,-0.104621686,0.27890292,-0.3490681,0.049415495,0.024469351,-0.1361524,-0.6703765,0.17238252,-9.11712,0.9097417,47.705692,-1.0996971,-1.4799132,-3.4824295,-0.06972469,0.28192025,-0.20343162,25.125,25.625,24.9375,27.25,27.6875,28.0625
0.32405192,-1.0467288,-0.57228726,-0.7437021,-0.033583667,0.1057573,-0.09905153,-0.40609467,-0.35247016,0.060054764,3.0763261,-0.6173336,-0.00028349576,-0.15467964,-0.02536439,0.00062436593,-0.029210646,0.00067570276,0.02496268,0.46040034,-1.380381,1.9032534,-2.0947578,-1.5677003,2.4309502,-0.10517072,0.28414875,-0.34904623,0.051609315,0.025560284,-0.12992458,-0.5363012,0.076614454,-9.11712,1.0373062,47.695843,-1.1007806,-1.5686309,-3.496779,-0.04817996,0.2613871,-0.26484042,25.125,25.625,24.9375,27.25,27.6875,28.0625
0.3260518,-1.3812362,-0.18573011,-0.68379164,-0.0059740925,0.083177745,-0.09211218,-0.40643737,-0.35251614,0.060057692,3.0762417,-0.6172994,-0.00031040225,-0.15505771,-0.025249252,-0.00029763998,-0.028371358,-0.0026900982,0.021233493,0.46014813,-1.3797908,1.9025353,-2.0946977,-1.5676407,2.4306877,-0.1060282,0.28758526,-0.35178307,0.05430096,0.026307885,-0.1270493,-0.5363012,0.095768064,-9.136273,0.9835985,47.67614,-1.0156534,-1.8280349,-3.5471168,-0.086822495,0.23846269,-0.32088697,25.125,25.625,24.9375,27.25,27.6875,28.0625
0.32805195,-0.9150318,0.46492007,-0.3011072,-0.0084670605,0.08003145,-0.09851549,-0.40673494,-0.35257462,0.06004918,3.0762017,-0.6172706,-0.00024559913,-0.15482572,-0.024762351,-0.000697858,-0.026343048,-0.0062250234,0.02148665,0.45995596,-1.379202,1.9018306,-2.0945761,-1.5675806,2.4304829,-0.10640824,0.28936413,-0.35421744,0.05904016,0.026068088,-0.12768254,-0.51714754,0.076614454,-8.868123,0.95002913,47.65912,-1.0974447,-1.8795886,-3.4601576,-0.13792753,0.22943252,-0.34924585,25.125,25.625,24.9375,27.25,27.6875,28.0625
0.3300522,0.12577811,0.6471482,-0.5544675,0.01018269,0.07331876,-0.10778267,-0.40705794,-0.35263118,0.060058687,3.076142,-0.6171846,-0.00024382472,-0.15683635,-0.02417128,-0.0013744956,-0.025172155,-0.00575687,0.015474948,0.4597393,-1.3786244,1.901101,-2.0944688,-1.567521,2.4302204,-0.10823433,0.29301497,-0.35697898,0.05825565,0.024798958,-0.12349589,-0.32561144,0.076614454,-8.963891,0.86945957,47.66091,-1.0046871,-1.9068587,-3.5730789,-0.15719561,0.23266497,-0.4090348,25.125,25.625,24.9375,27.25,27.6875,28.0625
0.33205253,-0.17277567,0.28773314,-0.3666978,-0.0017448694,0.048522815,-0.106269404,-0.40737125,-0.3526472,0.060049422,3.0761685,-0.6171305,-0.00021251202,-0.15857445,-0.023638204,-0.00012006779,-0.025529562,-0.0033883313,0.017406328,0.45949885,-1.3780477,1.9004062,-2.0943248,-1.5675215,2.429943,-0.11005936,0.29244816,-0.35950416,0.059087023,0.0240733,-0.12725335,-0.28730422,0.095768064,-8.868123,0.9365982,47.689575,-0.9458561,-1.8411591,-3.5876513,-0.17566405,0.22378188,-0.40996298,25.125,25.625,24.9375,27.25,27.6875,28.0625
0.33405188,-0.23030718,-0.76605415,-0.3003995,-0.01433682,0.03920873,-0.09026472,-0.4077202,-0.3527181,0.060065497,3.076108,-0.617039,-0.00030475535,-0.15905996,-0.024255214,0.0002423187,-0.025350094,-0.0037319146,0.021284785,0.45930707,-1.3774351,1.8996276,-2.0942519,-1.5674971,2.4297023,-0.10930066,0.29394856,-0.36276212,0.06125005,0.02408453,-0.13036999,-0.22984336,0.21068975,-8.714894,1.0082139,47.692257,-0.96159726,-1.7227774,-3.5038238,-0.19961305,0.21448185,-0.4287669,25.125,25.625,24.9375,27.25,27.6875,28.0625
0.33605215,-0.098268606,-0.39518476,-0.35146832,-0.04371843,0.03828002,-0.097921364,-0.40800315,-0.35275078,0.06002397,3.0760846,-0.6170314,-7.5467266e-05,-0.16043979,-0.023740394,0.00032297533,-0.0257088,-0.0043369033,0.026640167,0.4590541,-1.3768213,1.898959,-2.094096,-1.5673889,2.4294477,-0.111607134,0.2955571,-0.36533642,0.06264289,0.024680562,-0.13803293,-0.17238252,0.24899697,-8.7532015,0.90527004,47.682407,-0.80591863,-1.7689815,-3.4868836,-0.23256196,0.2053493,-0.359123,25.125,25.625,24.9375,27.25,27.6875,28.0625
0.33805224,0.07869805,-0.8615398,-0.37647495,-0.053261902,0.053050946,-0.09947307,-0.40831804,-0.35280478,0.06003245,3.0760949,-0.61685395,-6.3116706e-05,-0.15995099,-0.0247953,0.0005272816,-0.025752287,-0.004943752,0.036827143,0.45886314,-1.3762325,1.8982061,-2.09394,-1.567365,2.4291449,-0.10947335,0.2962815,-0.36720687,0.064347744,0.025011893,-0.1460853,-0.076614454,0.28730422,-8.810662,0.9298854,47.72002,-1.0448081,-1.7096429,-3.4665709,-0.26005688,0.19046548,-0.2950164,25.125,25.625,24.9375,27.25,27.6875,28.0625
0.3400518,0.075591736,-0.9071562,-0.25640276,-0.054450296,0.064455114,-0.10147665,-0.40863615,-0.35284287,0.060016416,3.0761156,-0.61664456,-9.741958e-06,-0.1622156,-0.024799518,0.0013686724,-0.027083369,-0.0029806201,0.04174891,0.45863435,-1.3756199,1.8974885,-2.0938199,-1.5673283,2.428783,-0.11147641,0.29767215,-0.37094018,0.06437436,0.025345588,-0.15300891,-0.076614454,0.30645782,-8.868123,0.9186956,47.685097,-0.8796356,-1.6037242,-3.4296865,-0.3038069,0.18707171,-0.18820259,25.125,25.625,24.9375,27.25,27.6875,28.0625
0.34205183,-0.032887727,-1.1479839,-0.29617614,-0.051016107,0.07783263,-0.09262902,-0.40896854,-0.35289407,0.060018275,3.0760536,-0.6166322,4.8411035e-05,-0.16267468,-0.025064347,0.0007052845,-0.027325112,-0.0032218758,0.041033164,0.45839432,-1.3750063,1.8967236,-2.0936773,-1.5672563,2.4285433,-0.11147997,0.29967222,-0.37172526,0.06328246,0.025666416,-0.15229584,-0.095768064,0.3256114,-8.963891,1.0104496,47.717335,-0.994226,-1.6975198,-3.4753094,-0.31988186,0.17864126,-0.122592956,25.125,25.625,24.9375,27.25,27.6875,28.0625
0.34405217,0.12143551,-0.5354547,-0.37268496,-0.053332373,0.08180069,-0.100345194,-0.40929118,-0.3529258,0.060007967,3.0760784,-0.6164644,6.263411e-05,-0.16396761,-0.025980411,0.00014622994,-0.027917033,-0.0022469698,0.040393636,0.45816672,-1.3744051,1.896006,-2.093558,-1.5672444,2.428208,-0.11094043,0.3032112,-0.37436134,0.061246842,0.02575404,-0.15111536,-0.095768064,0.3256114,-9.021352,1.0015011,47.683304,-1.0030336,-1.7208455,-3.5270693,-0.3157857,0.17570063,-0.09127243,25.125,25.625,24.9375,27.25,27.6875,28.0625
0.34605262,0.09703387,-0.6960007,-0.7909427,-0.05159025,0.077743344,-0.099901974,-0.4096031,-0.35296094,0.05996957,3.0760589,-0.6164063,0.00024805695,-0.16503523,-0.026243137,-6.382313e-05,-0.029263932,-0.0011328647,0.034311846,0.4579023,-1.3737553,1.8952888,-2.093415,-1.5671486,2.42791,-0.111687176,0.3046118,-0.37524942,0.059139553,0.026440365,-0.14578117,-0.038307227,0.30645782,-9.097966,0.947788,47.696735,-0.99342775,-1.8568987,-3.539075,-0.30770025,0.14634128,-0.15641356,25.125,25.625,24.9375,27.25,27.6875,28.0625
0.34805197,-0.10237065,-1.2486049,-0.8032679,-0.048285335,0.06333492,-0.09507436,-0.4099364,-0.35302314,0.05993963,3.0760508,-0.6163497,0.00027443847,-0.16607824,-0.02677979,-0.0014947964,-0.028984519,-0.0012999113,0.02837696,0.45771056,-1.37307,1.8945235,-2.0933325,-1.5671242,2.4276843,-0.11140967,0.30908778,-0.37694272,0.056617472,0.026239928,-0.1395679,-0.038307227,0.38307226,-9.097966,0.98135734,47.664497,-1.0351242,-1.8314785,-3.672473,-0.2897843,0.13009842,-0.24552605,25.125,25.625,24.9375,27.25,27.6875,28.0625
0.350052,0.15027769,-1.3117552,-0.7824997,-0.069470264,0.06062765,-0.09750065,-0.41026226,-0.35307342,0.059942357,3.0760157,-0.6162482,0.00031980997,-0.16759956,-0.027762193,-0.0012029294,-0.029931113,0.0013560858,0.024486965,0.45748287,-1.3724682,1.8937691,-2.0931895,-1.5670642,2.427398,-0.11067775,0.3111711,-0.37978905,0.05457845,0.025897102,-0.1349449,-0.019153614,0.3256114,-9.232041,0.9321212,47.682407,-1.09404,-1.9445019,-3.6727185,-0.25969216,0.12355998,-0.3082535,25.125,25.625,24.9375,27.25,27.6875,28.0625
0.3520522,-0.11046182,-1.8281912,-0.72137815,-0.077621736,0.05444308,-0.097484194,-0.4106121,-0.35311723,0.059933342,3.0760045,-0.6161904,0.00030553024,-0.17062508,-0.027688833,-0.0008353997,-0.030820081,0.004201331,0.019234832,0.4572542,-1.3718183,1.8929919,-2.0930822,-1.5670527,2.427135,-0.112936206,0.31410214,-0.3838953,0.052806728,0.02542367,-0.13194947,-0.19153613,0.47884035,-9.289502,0.92764956,47.688675,-0.92789984,-2.1110628,-3.574566,-0.23045935,0.13008668,-0.37581795,25.125,25.625,24.9375,27.25,27.6875,28.0625
0.35405236,-0.09806093,-1.9482974,-1.0382925,-0.080689885,0.052898537,-0.08965409,-0.41095984,-0.35316586,0.059925176,3.0759075,-0.61619,0.00032915582,-0.17115404,-0.029459944,-0.00033183378,-0.031724386,0.0066055357,0.018653566,0.45699102,-1.3711933,1.8922504,-2.0930111,-1.5669688,2.4268842,-0.11005423,0.31552574,-0.38663104,0.051568314,0.025166791,-0.12848446,-0.076614454,0.5554548,-9.3661175,0.9835985,47.689575,-1.2464769,-2.0426073,-3.5397086,-0.21049972,0.118036956,-0.43907818,25.125,25.625,24.9375,27.25,27.6875,28.0625
0.3560526,-0.2557596,-1.7529917,-1.1968703,-0.0624087,0.04971557,-0.09550332,-0.41127348,-0.35321608,0.059892084,3.075915,-0.61613697,0.00048100273,-0.17440352,-0.029518807,0.0006975709,-0.033834122,0.00990277,0.014173425,0.45677406,-1.3705192,1.8914846,-2.0928438,-1.5669082,2.4266334,-0.11282809,0.3175031,-0.39123225,0.05030788,0.025583081,-0.12677792,-0.076614454,0.47884035,-9.442732,0.9925471,47.704796,-0.97450954,-2.0810876,-3.5375316,-0.1907224,0.10192024,-0.48645008,25.125,25.625,24.9375,27.25,27.6875,28.0625
0.3580517,-0.040832847,-1.200541,-1.3708037,-0.05702831,0.056463264,-0.09830138,-0.4116402,-0.35329074,0.059924714,3.0758314,-0.6160412,0.0003684652,-0.17472087,-0.029320484,0.0010598652,-0.03433072,0.01126656,0.015038165,0.4565699,-1.3699076,1.8906602,-2.0927484,-1.566873,2.4263804,-0.11321286,0.31652206,-0.39087608,0.04950498,0.025449403,-0.12802534,-0.095768064,0.57460845,-9.442732,0.9298854,47.66808,-1.0782323,-1.9890771,-3.5363145,-0.17068042,0.09167744,-0.555089,25.125,25.625,24.9375,27.25,27.6875,28.0625
0.36005184,-0.13870217,-1.1577126,-1.5750526,-0.06038139,0.067997135,-0.10523505,-0.41199434,-0.3533399,0.059892103,3.0757864,-0.61595196,0.00040020395,-0.17526235,-0.028521875,-0.00017609034,-0.033812605,0.009952521,0.02001724,0.45631754,-1.3692225,1.8899068,-2.0927007,-1.5668124,2.4260783,-0.11497021,0.31860808,-0.39053753,0.04852863,0.025588697,-0.13476141,-0.095768064,0.51714754,-9.500193,0.97464454,47.690468,-1.0110219,-1.8590095,-3.8704553,-0.14423513,0.07828925,-0.4948578,25.125,25.625,24.9375,27.25,27.6875,28.0625
0.36205214,-0.60423183,-1.3339097,-1.5469242,-0.065427355,0.06671962,-0.10725205,-0.41233492,-0.35339582,0.05988432,3.0757518,-0.61586076,0.0004498589,-0.17520168,-0.027697446,-0.0020005663,-0.03192805,0.0064116004,0.03154025,0.456089,-1.3685725,1.889119,-2.0925686,-1.5667528,2.4257975,-0.11613117,0.32191482,-0.39075974,0.04951802,0.025498277,-0.14744548,-0.05746084,0.45968673,-9.672575,0.97464454,47.705692,-0.9327363,-2.0222418,-3.9024901,-0.120076284,0.073782355,-0.4187551,25.125,25.625,24.9375,27.25,27.6875,28.0625
0.3640522,-0.58607125,-1.7699076,-1.8596652,-0.062914215,0.07220132,-0.10362709,-0.4126872,-0.3534291,0.059864435,3.0757685,-0.6157446,0.00043832412,-0.17678565,-0.02763573,-0.0014187347,-0.031871356,0.008107911,0.038718354,0.45584902,-1.3679117,1.8883537,-2.0924728,-1.5667528,2.4254832,-0.11694715,0.32308438,-0.39376092,0.049892556,0.024722373,-0.1554396,-0.038307227,0.38307226,-9.883265,0.9097417,47.68062,-0.93663245,-1.9922125,-4.0174065,-0.11889294,0.06036625,-0.32106462,25.125,25.625,24.9375,27.25,27.6875,28.0625
0.36605242,-0.992142,-1.6834996,-1.8111929,-0.0673314,0.05758139,-0.09536248,-0.41301695,-0.35350406,0.05987512,3.0756958,-0.6155724,0.00050169165,-0.1775588,-0.027706943,-0.0015357638,-0.03023172,0.006960082,0.04540315,0.4556332,-1.367298,1.8875641,-2.0923278,-1.5666455,2.4251692,-0.11676042,0.3258352,-0.39762908,0.05281443,0.023780422,-0.16193703,-0.076614454,0.40222588,-9.883265,0.99031126,47.65464,-0.9742454,-2.1485682,-3.9331837,-0.09289449,0.07856874,-0.23705775,25.125,25.625,24.9375,27.25,27.6875,28.0625
0.3680527,-0.50987315,-1.3069531,-1.9909025,-0.058075514,0.067415446,-0.10038869,-0.41339752,-0.3535639,0.05987126,3.0756507,-0.6154289,0.00044932193,-0.17949681,-0.02864231,-0.0016168512,-0.030457009,0.008057043,0.046410087,0.45539293,-1.3666122,1.8867372,-2.0922563,-1.5666093,2.4248455,-0.11647547,0.32998967,-0.40254498,0.052507468,0.023506617,-0.16265579,-0.17238252,0.3256114,-9.940725,0.95226496,47.657326,-1.0426726,-2.1414106,-3.8155026,-0.10995941,0.0702264,-0.1777263,25.125,25.625,24.9375,27.25,27.6875,28.0625
0.370052,-0.49126244,-0.9289418,-1.8890098,-0.059817288,0.07530831,-0.1061546,-0.41376814,-0.35362315,0.059881754,3.075598,-0.6152851,0.0004103453,-0.18139888,-0.029369997,-0.0013584367,-0.030940441,0.00988365,0.042127505,0.45515335,-1.3659623,1.8859123,-2.0921485,-1.5665616,2.424523,-0.11645065,0.3329383,-0.40670496,0.051862735,0.02313066,-0.15834576,-0.17238252,0.30645782,-9.940725,0.9992599,47.645687,-1.0067208,-2.3296583,-3.613192,-0.05971268,0.06850289,-0.17604345,25.125,25.625,24.9375,27.25,27.6875,28.0625
0.37205234,-0.8073642,-0.9973989,-1.7910861,-0.055136185,0.07558401,-0.09992671,-0.4141403,-0.35369423,0.05988362,3.0755424,-0.6151427,0.00039827166,-0.18130319,-0.028771631,-0.001857544,-0.030018654,0.008665108,0.03611086,0.45492518,-1.3652775,1.885065,-2.0920413,-1.5665015,2.4242134,-0.11705844,0.33343804,-0.4065772,0.05272816,0.022838304,-0.15293661,-0.15322891,0.34476507,-9.883265,0.93436235,47.705692,-1.1603253,-2.3501387,-3.7290041,-0.044978,0.064504616,-0.24967428,25.125,25.625,24.9375,27.25,27.6875,28.0625
0.3740524,-0.43423855,-0.46324745,-1.8110992,-0.059850574,0.07995243,-0.11046198,-0.41450515,-0.35373917,0.059887946,3.0755293,-0.6150673,0.00034262793,-0.18045585,-0.02916815,-0.0021801842,-0.027700644,0.006580301,0.032576486,0.4546963,-1.3646286,1.884251,-2.0919201,-1.566502,2.4239395,-0.11481342,0.3348372,-0.40849677,0.056124866,0.02166947,-0.14715771,-0.2873042,0.36391866,-9.864111,0.9947882,47.709274,-1.189855,-2.2926984,-3.8220544,-0.05483427,0.072649345,-0.32817364,25.125,25.625,24.9375,27.25,27.6875,28.0625
