Tylouw/Master_Thesis_Code/training_data/batch_1/small_rod_t0.1/sample_14_session_1.csv
timestamp[s],tcp_force_x[N],tcp_force_y[N],tcp_force_z[N],tcp_force_rx[Nm?],tcp_force_ry[Nm?],tcp_force_rz[Nm?],tcp_pose_x[m],tcp_pose_y[m],tcp_pose_z[m],tcp_pose_rx[rot_vec_x],tcp_pose_ry[rot_vec_y],tcp_pose_rz[rot_vec_z],tcp_velo_x[m/s],tcp_velo_y[m/s],tcp_velo_z[m/s],tcp_velo_rx[rot_vec_x/s],tcp_velo_ry[rot_vec_y/s],tcp_velo_rz[rot_vec_z/s],q1[rad],q2[rad],q3[rad],q4[rad],q5[rad],q6[rad],qd1[rad/s],qd2[rad/s],qd3[rad/s],qd4[rad/s],qd5[rad/s],qd6[rad/s],tool_acc_x,tool_acc_y,tool_acc_z,current_of_whole_robot[A],voltage_of_whole_robot[V],current_J1[A],current_J2[A],current_J3[A],current_J4[A],current_J5[A],current_J6[A],temp_J1[C],temp_J2[C],temp_J3[C],temp_J4[C],temp_J5[C],temp_J6[C]
8.830102e-07,0.01884898,-0.8129465,-0.016965922,-0.0155243585,0.025113354,-0.015494451,-0.38109073,-0.34852207,0.059989918,-3.0785356,0.6249385,-6.4518186e-05,0.0020810766,0.0010732013,-0.0024697788,0.0023286499,-0.004819823,1.1220246e-06,0.4777741,-1.4259574,1.957703,-2.1008685,-1.5707816,2.452764,-8.315742e-05,0.001143943,0.0043788413,-0.0001725384,0.00015729037,-8.653996e-05,0.019153614,0.19153614,-8.791509,0.71279734,47.67345,-0.0077054827,-2.7404778,-2.4812117,-0.4609523,0.10476537,0.0011698203,25.1875,25.6875,25.0,27.375,27.875,28.25
0.002054356,-0.7048261,-0.89385694,0.102688186,-0.015693039,0.0054071667,-0.0074448907,-0.3810546,-0.34852353,0.059965592,-3.0785048,0.6248746,-0.00014775984,-0.00075071247,-0.00040256453,-0.002759251,-0.0015944146,0.002705061,3.17014e-06,0.4778101,-1.4259447,1.9577397,-2.1008499,-1.5707816,2.452764,-8.189627e-05,0.0035705243,0.0048708566,-0.011577256,0.00015575564,-8.490696e-05,0.05746084,0.095768064,-8.714894,0.7105615,47.63225,-0.03411646,-2.8087,-2.4511116,-0.42354962,0.10512252,0.013068385,25.1875,25.6875,25.0,27.375,27.875,28.25
0.004053861,-0.86579823,-1.4391761,0.010249475,-0.0024218902,0.0063085994,0.0038161355,-0.38107997,-0.34853888,0.05998193,-3.0785496,0.62490296,-0.000112524285,-0.0020849511,-0.0010970205,-0.0021603107,-0.0035054313,0.006381968,3.913814e-06,0.47779807,-1.4259326,1.9576916,-2.1008623,-1.5707573,2.452764,-8.067286e-05,0.003680866,0.0041897474,-0.015150345,0.0001523702,-8.333447e-05,0.095768064,0.19153613,-8.63828,0.83365434,47.672558,0.028614305,-3.0493145,-2.6866732,-0.27769792,0.11110248,0.005631564,25.1875,25.6875,25.0,27.375,27.875,28.25
0.006054084,-0.10803177,-0.52651954,-0.2232052,-0.0023198624,0.0025697183,-0.0098441765,-0.38105848,-0.34852096,0.05995142,-3.0785232,0.6248403,-0.00018718248,-0.0011122192,-0.0005890412,-0.0015506855,-0.0018830801,0.0032833568,2.91744e-06,0.47778615,-1.4259212,1.9577502,-2.1008713,-1.5707573,2.4527164,-7.948543e-05,0.0025290386,0.0027156132,-0.0090267565,0.00014749882,-8.1819366e-05,0.019153614,0.21068975,-8.714894,0.6948948,47.675243,-0.001660115,-3.0302703,-2.5209954,-0.33152512,0.10098001,0.008076417,25.1875,25.6875,25.0,27.375,27.875,28.1875
0.008054728,-0.10446723,-0.22528999,-0.6969454,0.03989865,-0.030774578,-0.0027930124,-0.38105765,-0.3485382,0.05993273,-3.0785317,0.62484187,-0.0001990961,-0.0004531015,-0.00024401037,-0.000350993,-0.0012306216,0.0020525416,1.8432546e-06,0.4778101,-1.425874,1.9577497,-2.1009176,-1.5707458,2.4527402,-7.833239e-05,0.00016561888,0.0015466984,-0.004101405,0.000142825,-8.0358215e-05,0.038307227,0.076614454,-8.772355,0.7933669,47.675243,0.017677153,-2.9010782,-2.566625,-0.37179834,0.093876645,0.011166792,25.1875,25.6875,25.0,27.375,27.875,28.1875
0.010054135,0.289565,0.21742837,-0.8586022,0.034420226,-0.022004066,-0.0025339234,-0.38108075,-0.3485328,0.05996482,-3.0785239,0.62487835,-8.0566446e-05,-0.000103382234,-7.033797e-05,-0.00023838149,-0.00058563997,0.00076861004,1.3503178e-06,0.4778101,-1.42591,1.9577144,-2.1009047,-1.5707935,2.452764,-7.721236e-05,2.2219886e-06,0.0009831917,-0.0019378564,0.0001642521,-7.894843e-05,0.038307227,0.15322891,-9.040505,0.683705,47.68599,-0.20409483,-2.1657014,-3.2632043,-0.38764745,0.083322234,-0.041360192,25.1875,25.6875,25.0,27.375,27.875,28.1875
0.012053414,0.042924378,-0.85944706,-1.1599712,0.01024377,-0.0049022934,-0.016791744,-0.38104802,-0.348529,0.05993096,-3.078492,0.62483376,-0.0002492121,-0.0022436199,-0.0011686748,-0.002303399,0.0012824457,-0.0028175327,4.9225328e-06,0.4778101,-1.4258704,1.9577359,-2.100857,-1.5707573,2.4527402,-9.9512996e-05,0.010277996,-0.006232716,-0.00095413206,0.00014114482,-9.971287e-05,0.19153613,0.095768064,-9.251195,0.68818194,47.684196,-0.29027194,-2.2404673,-3.4615917,-0.37217948,0.08422594,-0.07206798,25.1875,25.6875,25.0,27.375,27.875,28.1875
0.0140540525,-0.73786265,-1.8590927,-1.3321643,-0.025809573,0.01569897,-0.006672215,-0.3810512,-0.34851265,0.059905663,-3.078438,0.6248609,-0.00031075953,-0.0038124204,-0.0018953824,-0.0037264992,0.0028763567,-0.005892566,0.00015081937,0.4777861,-1.4258201,1.9577335,-2.1008446,-1.5707697,2.45274,-0.00025943317,0.017863378,-0.012000469,0.0006917964,0.00013085414,-0.00040172864,-0.076614454,0.30645782,-9.3661175,0.7978386,47.67614,-0.32195646,-2.7478783,-3.1027539,-0.39165205,0.06847704,-0.099279046,25.1875,25.6875,25.0,27.375,27.875,28.1875
0.016053846,-1.4548149,-2.821079,-1.4841646,-0.052826468,0.041913826,-0.0031515036,-0.38102737,-0.3485212,0.059890147,-3.0784304,0.6247996,-0.00040865058,-0.0054560183,0.00056269375,-0.003796595,0.0037937125,-0.0076550124,0.003455043,0.47780788,-1.425796,1.957733,-2.1008074,-1.5707458,2.4527245,-0.0061485185,0.018099144,-0.01265629,0.0030974257,0.00012676351,-0.009595153,-0.2681506,0.47884035,-9.481039,0.7777002,47.66808,-0.08184196,-2.5467327,-3.3954468,-0.38848913,0.06039477,-0.0477588,25.1875,25.6875,25.0,27.375,27.875,28.1875
0.01805351,-1.6947169,-3.1589592,-1.7527403,-0.06866916,0.06504549,-0.008799014,-0.38104203,-0.3485181,0.059880853,-3.0784073,0.624793,-0.00042688785,-0.0051076054,0.00045041068,-0.0036897394,0.00440667,-0.008789865,0.0073310593,0.47779617,-1.425748,1.9576968,-2.100795,-1.5707573,2.4527116,-0.005612325,0.018305063,-0.01359604,0.005120318,0.00010499851,-0.012934836,-0.34476504,0.53630114,-9.576807,0.7217513,47.655537,-0.15299483,-2.2677383,-3.5743484,-0.393134,0.037925214,-0.010143799,25.1875,25.6875,25.0,27.375,27.875,28.1875
0.020053491,-1.9766123,-2.7926867,-1.492621,-0.08016936,0.07257509,-0.029123655,-0.3810499,-0.34851316,0.059871204,-3.078394,0.62478983,-0.0004818971,-0.0060271467,-0.00072040124,-0.0032772687,0.0038381321,-0.0076893573,0.007842312,0.47777262,-1.4257114,1.9576715,-2.1007707,-1.5707458,2.4526877,-0.0043785963,0.020382244,-0.01690546,0.0051141484,9.639793e-05,-0.012210343,-0.4405331,0.59376204,-9.825804,0.7553206,47.668976,-0.27648598,-2.3001277,-3.5481975,-0.41467547,0.040221646,-0.036542535,25.1875,25.6875,25.0,27.375,27.875,28.1875
0.022053415,-2.273385,-2.7891061,-1.7264951,-0.06840601,0.067443125,-0.039068736,-0.3810611,-0.34851223,0.05985769,-3.0783718,0.6248249,-0.00051098294,-0.00678511,-0.0010740382,-0.0033920766,0.003647184,-0.0072807367,0.0073218998,0.47776055,-1.4256629,1.9576472,-2.1007712,-1.5707458,2.4527004,-0.0044377977,0.022080155,-0.01843953,0.0044997926,7.322226e-05,-0.011747922,-0.57460845,0.7661445,-9.825804,0.7396539,47.66091,-0.35123324,-2.3423238,-3.5469084,-0.3838418,0.046653293,-0.043285713,25.1875,25.6875,25.0,27.375,27.875,28.1875
0.024053553,-2.009402,-2.504222,-1.9110676,-0.061092895,0.06402782,-0.04037236,-0.38109446,-0.34852526,0.059852686,-3.078371,0.62478536,-0.0004994439,-0.008110329,-0.0012733841,-0.0028595885,0.0030394623,-0.0058677397,0.007309505,0.47776026,-1.4255787,1.9575628,-2.1007712,-1.5707573,2.4526756,-0.0052356785,0.02304279,-0.020702692,0.0042662746,-4.2615102e-05,-0.012531836,-0.38307226,0.6703765,-9.80665,0.7709874,47.678825,-0.36569434,-2.266857,-3.5724516,-0.3845109,0.020772401,-0.06727783,25.1875,25.6875,25.0,27.375,27.875,28.1875
0.026054213,-1.6300657,-2.3210518,-1.7332387,-0.057799213,0.055529494,-0.05982423,-0.38111275,-0.3485391,0.05985705,-3.078379,0.6247298,-0.00044535822,-0.00973503,-0.0010920687,-0.0023102332,0.00261033,-0.004760225,0.006500583,0.47778368,-1.4255424,1.9575142,-2.1007836,-1.5707816,2.4526634,-0.0069767707,0.02411128,-0.023243694,0.004557982,-0.00017559473,-0.013462351,-0.36391866,0.45968673,-9.844957,0.7553206,47.64837,-0.34886026,-2.2593093,-3.5615635,-0.35265517,0.022049505,-0.075565815,25.1875,25.6875,25.0,27.375,27.875,28.1875
0.02805427,-1.3119113,-2.304468,-1.584302,-0.04319458,0.050359543,-0.07220171,-0.381139,-0.3485346,0.05985579,-3.0783825,0.62473094,-0.0004994505,-0.0110606365,-0.0014774423,-0.0016045127,0.0022114823,-0.0038364977,0.006292524,0.47773552,-1.4254941,1.9574536,-2.1007469,-1.5707573,2.4526155,-0.0074697663,0.025438134,-0.026605058,0.005589359,-0.0002517063,-0.013745431,-0.5554548,0.38307226,-9.864111,0.7530795,47.6636,-0.367658,-2.1760516,-3.517278,-0.35819644,-0.00016344283,-0.096954465,25.1875,25.6875,25.0,27.375,27.875,28.1875
0.030053299,-1.1793644,-1.881556,-1.7354145,-0.022789206,0.054709654,-0.08519933,-0.3811512,-0.34853402,0.059840266,-3.07836,0.62472665,-0.0005437991,-0.011951952,-0.0013053324,-0.0019130653,0.002511956,-0.004305647,0.006182321,0.47772318,-1.4254335,1.9574174,-2.100735,-1.5707573,2.4526033,-0.008565887,0.027395586,-0.028169744,0.0057514044,-0.0003069544,-0.014730161,-0.4405331,0.2681506,-9.883265,0.75084364,47.657326,-0.44791883,-2.224118,-3.532679,-0.33803385,0.013972227,-0.10140385,25.1875,25.6875,25.0,27.375,27.875,28.1875
0.032054003,-1.6172034,-1.0295722,-1.666786,-0.013694676,0.048454102,-0.10027495,-0.38120097,-0.3485373,0.05983973,-3.078364,0.6247267,-0.00047524372,-0.013271677,-0.0013154923,-0.0017178921,0.0029728995,-0.0035642888,0.006176923,0.47769895,-1.425361,1.9573439,-2.1007702,-1.5707821,2.4525788,-0.00927899,0.029249683,-0.030809326,0.0060926815,-0.001061992,-0.015434808,-0.21068975,0.24899697,-9.672575,0.75755644,47.66808,-0.42409447,-2.2508116,-3.5491695,-0.3194692,-0.003031475,-0.09333752,25.1875,25.6875,25.0,27.375,27.875,28.1875
0.034053676,-0.79765767,-0.53196037,-1.3834182,0.00043946484,0.06125921,-0.1253337,-0.38122714,-0.34856185,0.059850737,-3.078407,0.6247164,-0.00042723634,-0.015318078,-0.0019581276,-0.0004441316,0.0017607337,-0.0012911493,0.0060399896,0.4777106,-1.4253247,1.9572829,-2.1007946,-1.5707701,2.4525785,-0.010047422,0.03050818,-0.035307884,0.0067567886,-0.0010382455,-0.01606407,-0.22984336,0.13407528,-9.615114,0.7105615,47.698532,-0.45842063,-2.2806876,-3.4095612,-0.32282954,-0.010392902,-0.09874235,25.1875,25.6875,25.0,27.375,27.875,28.1875
0.036053468,-0.8959047,-0.83546793,-1.3788494,0.020080741,0.041349337,-0.12643524,-0.38124973,-0.34856445,0.059837054,-3.0783944,0.62467724,-0.00049758406,-0.016189309,-0.0018044019,-0.0006686471,0.0020292255,-0.002158719,0.0039386945,0.47768623,-1.42524,1.9572095,-2.1007583,-1.5707577,2.4525313,-0.011229896,0.032508638,-0.03727374,0.0076158163,-0.0008804099,-0.015144384,-0.24899697,0.076614454,-9.557653,0.7620334,47.66808,-0.47908795,-2.214162,-3.4335527,-0.30218834,0.004657915,-0.102153,25.1875,25.6875,25.0,27.375,27.875,28.1875
0.038053334,-0.74943495,-0.48692688,-1.3657254,0.017331114,0.027737927,-0.14315923,-0.3812993,-0.3485586,0.059840407,-3.0783732,0.62473106,-0.00048665266,-0.017631495,-0.0019468173,-0.00024701364,0.001647034,-0.0014451862,0.0021925375,0.47763795,-1.4251676,1.9571136,-2.100734,-1.5707701,2.4525194,-0.012314636,0.034122515,-0.040192865,0.00811156,-0.00087392936,-0.0144813545,-0.24899697,-0.15322891,-9.595961,0.74413085,47.686886,-0.4394133,-2.220643,-3.4428635,-0.30239475,-0.028768575,-0.123607785,25.1875,25.6875,25.0,27.375,27.875,28.1875
0.040053464,-0.43950635,-0.5349996,-1.454737,0.014809162,0.035635907,-0.15233828,-0.38131213,-0.34857658,0.059835397,-3.0783823,0.6246946,-0.00051478663,-0.017844334,-0.0018700885,-0.0005916413,0.0025769502,-0.0031696258,0.00082609104,0.4776499,-1.425107,1.9570531,-2.1007211,-1.5707577,2.4525075,-0.012628406,0.035950124,-0.04191247,0.009962942,-0.0009060776,-0.013427817,-0.17238252,-0.038307227,-9.5385,0.77545905,47.667187,-0.5094936,-2.2763166,-3.3616872,-0.29288194,-0.045710463,-0.1388031,25.1875,25.6875,25.0,27.375,27.875,28.1875
0.042053565,-0.552443,-1.0649245,-1.3425819,0.023244869,0.035500824,-0.14886647,-0.38135386,-0.3485622,0.059819046,-3.0783198,0.6247204,-0.0005635213,-0.019387888,-0.0019391176,0.00054190756,0.002212512,-0.0018409729,-0.00050276256,0.47760147,-1.424999,1.9569563,-2.100673,-1.5707821,2.4524832,-0.013742902,0.036447413,-0.045462083,0.011668507,-0.0011977095,-0.01321128,-0.22984336,0.0,-9.5385,0.7732232,47.678825,-0.49254835,-2.2128863,-3.4711146,-0.2947322,-0.053742133,-0.1510036,25.1875,25.6875,25.0,27.375,27.875,28.1875
0.044054154,-1.2231627,-1.2961984,-1.3201411,0.01722013,0.020775704,-0.13777566,-0.38139954,-0.34857714,0.059849937,-3.0783534,0.6246116,-0.0004813132,-0.020099672,-0.0016138147,0.00049362384,0.004290239,-0.0014676927,-0.0005787895,0.4776015,-1.4249628,1.9568361,-2.1006367,-1.5708064,2.4524112,-0.013668606,0.03795047,-0.047281843,0.012615782,-0.0032155507,-0.013055953,-0.17238252,0.05746084,-9.500193,0.800085,47.689575,-0.5438443,-2.101517,-3.3763523,-0.30226266,-0.05052798,-0.15991518,25.1875,25.6875,25.0,27.375,27.875,28.1875
0.046053655,-0.8379058,-1.3692929,-1.3705063,0.0042308667,0.04169663,-0.13025902,-0.3814467,-0.34857425,0.059838317,-3.0783336,0.62466544,-0.00049726764,-0.021071887,-0.001185839,-0.00055181974,0.0057640458,-0.0033934065,-0.0006569678,0.47755298,-1.4248656,1.9567517,-2.1006362,-1.5708069,2.4523988,-0.015050256,0.04173893,-0.049374763,0.013309015,-0.0036433893,-0.014356997,-0.13407528,0.076614454,-9.615114,0.71279734,47.62419,-0.4746893,-2.1948605,-3.4734268,-0.30965328,-0.04264308,-0.164314,25.1875,25.6875,25.0,27.375,27.875,28.1875
0.04805399,-0.9498707,-1.6865104,-1.3361995,-0.010315863,0.032486953,-0.13250121,-0.3814634,-0.34859392,0.059833597,-3.0783195,0.62470126,-0.0006321784,-0.022346953,-0.0017533978,0.0002530078,0.0041015684,-0.0021841521,-0.0010308427,0.4775408,-1.4247694,1.9566311,-2.1005409,-1.5707582,2.4524107,-0.015814405,0.042456746,-0.052067716,0.013443373,-0.0027294874,-0.014747511,-0.076614454,0.21068975,-9.576807,0.77545905,47.694946,-0.45512462,-2.227385,-3.394896,-0.32739332,-0.05399857,-0.16916075,25.1875,25.6875,25.0,27.375,27.875,28.1875
0.050053827,-0.4986507,-2.032216,-1.4310231,-0.0354869,0.039514158,-0.13386717,-0.38152316,-0.34857607,0.059841014,-3.0782971,0.62465924,-0.0005424687,-0.02326795,-0.0020635568,0.0012244673,0.002831895,-0.0010094808,-0.0015853931,0.47749248,-1.4247098,1.9565462,-2.1005409,-1.5708178,2.4523392,-0.016491951,0.042162593,-0.054117434,0.014157313,-0.0021442983,-0.01487096,-0.24899697,0.22984336,-9.615114,0.79560274,47.687782,-0.48448858,-2.0507534,-3.4528637,-0.3089918,-0.07555776,-0.20342669,25.1875,25.6875,25.0,27.375,27.875,28.1875
0.052054007,-1.4842898,-2.9604046,-1.5797391,-0.023249,0.019011188,-0.12004674,-0.3815707,-0.34856933,0.05983254,-3.0782728,0.62465346,-0.00056083966,-0.023758825,-0.0024014893,0.0006303893,0.002957638,-0.0021139474,-0.0014077264,0.47744453,-1.4246129,1.9564494,-2.100516,-1.5708302,2.4522908,-0.016598696,0.044794273,-0.055781927,0.014227089,-0.0017525436,-0.015154913,-0.21068975,0.3256114,-9.615114,0.7239871,47.655537,-0.49157366,-2.0344253,-3.4673018,-0.34172273,-0.09456894,-0.20477064,25.1875,25.6875,25.0,27.375,27.875,28.1875
0.05405376,-1.3212674,-2.9278493,-1.656425,-0.027062401,0.032569528,-0.11468079,-0.38160414,-0.3486222,0.0598644,-3.078353,0.6246879,-0.0005450822,-0.02646338,-0.0038086914,0.0023769573,0.0009138497,0.0020366104,-0.00022544053,0.4774685,-1.4245644,1.9563159,-2.1004927,-1.5707701,2.452326,-0.016532173,0.04654505,-0.061660256,0.013730224,-0.0018580823,-0.01626724,-0.1340753,0.45968673,-9.595961,0.83589023,47.666286,-0.45822942,-2.0520678,-3.3546033,-0.34268045,-0.102715835,-0.22476995,25.1875,25.6875,25.0,27.375,27.875,28.1875
0.05605426,-0.90794855,-2.6624935,-1.481752,-0.030689873,0.057152644,-0.12396729,-0.38167208,-0.34859025,0.05984383,-3.0782826,0.62477016,-0.0005578226,-0.025685828,-0.0025843692,-0.000278441,0.004848681,-0.002538908,-0.00013130993,0.47737235,-1.4244434,1.9562219,-2.1004803,-1.5708064,2.4522903,-0.017082412,0.050475497,-0.06018881,0.014204356,-0.0032474753,-0.01690885,-0.17238252,0.5363012,-9.500193,0.76874626,47.67614,-0.45099175,-2.1825454,-3.3985834,-0.34593356,-0.10495563,-0.22600493,25.1875,25.6875,25.0,27.375,27.875,28.1875
0.05805416,-1.6126827,-2.5380275,-1.4399194,-0.03281376,0.040257215,-0.11675931,-0.38171995,-0.3486107,0.059860583,-3.0782967,0.624696,-0.000529044,-0.027211761,-0.0031359387,0.0008452173,0.004095386,0.0004832873,0.00033816262,0.4773724,-1.4243593,1.956077,-2.100433,-1.5708188,2.4522424,-0.017040024,0.050797302,-0.06300691,0.013672558,-0.0039742575,-0.017332906,-0.17238252,0.51714754,-9.500193,0.78217715,47.690468,-0.48166507,-2.1226182,-3.504171,-0.340604,-0.106153265,-0.21808088,25.1875,25.6875,25.0,27.375,27.875,28.1875
0.060053974,-1.1498644,-2.5660844,-1.2608463,-0.035116334,0.03985253,-0.11698886,-0.38180006,-0.34860927,0.059879452,-3.0783138,0.62477493,-0.0004959971,-0.030154409,-0.004077419,0.003041917,0.0018521851,0.0056264997,0.000569516,0.47728807,-1.4242755,1.955933,-2.1004097,-1.5708069,2.4522052,-0.017832652,0.051145848,-0.06827447,0.012993739,-0.004357369,-0.018353427,-0.17238252,0.53630114,-9.442732,0.71279734,47.63315,-0.5164923,-1.964581,-3.3534184,-0.33957317,-0.118537985,-0.22893938,25.1875,25.6875,25.0,27.375,27.875,28.1875
0.062053487,-1.0453717,-2.6564784,-1.3783908,-0.031537585,0.02766111,-0.11649506,-0.38186938,-0.3486341,0.05989397,-3.0783422,0.62474203,-0.00042461415,-0.030577252,-0.004232517,0.0017874899,0.0029952824,0.0041384716,0.0015752597,0.47727606,-1.4241663,1.9557751,-2.1004097,-1.5708193,2.4521692,-0.017729504,0.054841764,-0.06948576,0.0123567,-0.004692791,-0.019254258,-0.17238252,0.47884035,-9.461885,0.784413,47.67793,-0.5421056,-2.078022,-3.2677622,-0.32373607,-0.13336208,-0.25370708,25.1875,25.6875,25.0,27.375,27.875,28.1875
0.06405353,-0.5591484,-2.753329,-1.2764952,-0.027775947,0.03368175,-0.12066012,-0.38192487,-0.34864277,0.0598966,-3.0783486,0.6247424,-0.0004125048,-0.03136131,-0.004308581,0.001418647,0.003950428,0.0036093714,0.0023318229,0.47724012,-1.4240696,1.9556559,-2.1003973,-1.5708193,2.4521327,-0.017921535,0.05738791,-0.07168108,0.012916433,-0.0053018345,-0.020200308,-0.11492168,0.47884035,-9.385271,0.6926589,47.68062,-0.53697205,-2.0887017,-3.4069986,-0.31338984,-0.11214108,-0.26128566,25.1875,25.6875,25.0,27.375,27.875,28.1875
0.066053376,-0.76066643,-2.3813143,-0.96662396,-0.028338544,0.03254748,-0.126627,-0.3819987,-0.34866294,0.059917893,-3.0783615,0.62474453,-0.0003556375,-0.03331529,-0.00448591,0.0023222913,0.004248531,0.00636187,0.0030426232,0.47721598,-1.4239614,1.9554757,-2.1003616,-1.5708321,2.4521084,-0.01841126,0.058713328,-0.075250424,0.012857231,-0.006838513,-0.021396037,-0.019153614,0.5363012,-9.32781,0.8090337,47.689575,-0.5486132,-2.02535,-3.2587843,-0.29500917,-0.10551437,-0.28491554,25.1875,25.6875,25.0,27.375,27.875,28.1875
0.0680533,-0.6850959,-1.8420306,-0.9210412,-0.018349448,0.037709773,-0.12366155,-0.38205168,-0.34867442,0.05990817,-3.0783446,0.62472165,-0.00042613412,-0.034657538,-0.004265579,0.00250731,0.0062737684,0.007900718,0.0044714804,0.47717988,-1.4238169,1.9553193,-2.1003015,-1.5708207,2.4520602,-0.018409135,0.060605805,-0.07792075,0.013207114,-0.009350886,-0.02281588,-0.038307227,0.45968673,-9.32781,0.76874626,47.704796,-0.57979506,-2.0754194,-3.2246852,-0.2914772,-0.101947784,-0.29172742,25.1875,25.6875,25.0,27.375,27.875,28.1875
0.07005323,-1.0788722,-1.5968881,-0.61099786,-0.008905742,0.036481876,-0.12095915,-0.38211745,-0.34869707,0.05991248,-3.0783575,0.6247226,-0.00036996425,-0.035966206,-0.0040220493,0.002354021,0.00801753,0.008674182,0.005944727,0.47716767,-1.4236963,1.9551743,-2.100313,-1.5708336,2.452047,-0.018809479,0.06304754,-0.08040016,0.013364688,-0.01126013,-0.024684483,-0.05746084,0.34476504,-9.193734,0.75084364,47.67614,-0.5039538,-2.0484695,-3.2040677,-0.2999713,-0.07150434,-0.28297535,25.1875,25.6875,25.0,27.375,27.875,28.1875
0.07205421,-0.99967605,-1.751419,-0.62516576,0.0036751062,0.042530734,-0.12445548,-0.38220176,-0.34869385,0.059911557,-3.0783374,0.62468094,-0.00033461463,-0.037243158,-0.00414675,0.002766457,0.008151686,0.00982765,0.0058089066,0.47710752,-1.4235522,1.9550065,-2.100289,-1.5708698,2.4519637,-0.019337276,0.06440689,-0.08295614,0.0135989925,-0.011913913,-0.02507375,-0.095768064,0.3256114,-9.078813,0.7396539,47.672558,-0.5666404,-1.9929199,-3.1480987,-0.2901134,-0.055969328,-0.27775925,25.1875,25.6875,25.0,27.375,27.875,28.1875
0.07405417,-0.5788927,-1.2181869,-0.6403351,-0.0057204943,0.035085216,-0.121910654,-0.38227922,-0.34871635,0.059934188,-3.078359,0.6246833,-0.00026356298,-0.038213428,-0.004697617,0.002886245,0.007906218,0.010025995,0.0070679267,0.4770836,-1.4234436,1.9548253,-2.1002653,-1.5708817,2.4519386,-0.0193318,0.06652468,-0.08573962,0.0139743965,-0.01179127,-0.026326468,-0.1340753,0.28730422,-9.078813,0.7665104,47.687782,-0.5905616,-2.029252,-3.1607442,-0.2710955,-0.07183149,-0.28985184,25.1875,25.6875,25.0,27.375,27.875,28.1875
0.07605391,-1.2160503,-1.7515783,-0.6793355,0.0025237484,0.008782183,-0.108457595,-0.38234228,-0.34873396,0.05993786,-3.07836,0.624586,-0.00024222492,-0.038915418,-0.005684216,0.002906998,0.006004266,0.0088837035,0.008532441,0.4770714,-1.4233111,1.9546574,-2.100229,-1.5709046,2.4518657,-0.01965993,0.06883702,-0.08858906,0.014643582,-0.00958249,-0.028121684,-0.076614454,0.21068975,-9.097966,0.71279734,47.684196,-0.5065149,-1.9830033,-3.057046,-0.26031816,-0.0772952,-0.28285474,25.1875,25.6875,25.0,27.375,27.875,28.1875
0.07805358,-0.7648164,-1.8924503,-0.8396959,0.0016076086,0.004384993,-0.1129488,-0.3824373,-0.3487471,0.059942257,-3.078365,0.62468266,-0.00022599314,-0.03965407,-0.0062109767,0.0023847313,0.0054513873,0.007187715,0.009361785,0.47699922,-1.4231536,1.9544648,-2.100217,-1.5708927,2.4518533,-0.020221554,0.072035,-0.09121234,0.0153163755,-0.008316321,-0.0295136,-0.05746084,0.21068975,-9.251195,0.7732232,47.657326,-0.5960836,-2.2493198,-3.0672421,-0.2592365,-0.086505204,-0.30160794,25.1875,25.6875,25.0,27.375,27.875,28.1875
0.0800534,-0.5760836,-1.4028026,-0.7603784,-0.008215959,0.012589831,-0.116645105,-0.382501,-0.34875813,0.05993081,-3.078352,0.6245832,-0.0002306121,-0.040329028,-0.0068756496,0.0034656145,0.004016777,0.00857244,0.010205484,0.47697535,-1.4229978,1.9543074,-2.1001928,-1.5709165,2.451769,-0.020072408,0.07156587,-0.09331057,0.015991528,-0.0076813963,-0.03020836,-0.11492168,0.21068975,-9.174581,0.8224646,47.668976,-0.6075065,-1.9321834,-3.094141,-0.2256877,-0.10885659,-0.3090812,25.1875,25.6875,25.0,27.375,27.875,28.1875
0.08205385,-0.86821604,-1.9712139,-0.80463976,0.0057187667,0.01890943,-0.10587947,-0.38258347,-0.34876978,0.05994641,-3.0783448,0.6246009,-0.000209629,-0.040540833,-0.0068571423,0.002778068,0.0047229235,0.006828742,0.010566443,0.47692728,-1.4228649,1.9541062,-2.1001327,-1.570928,2.451733,-0.020407394,0.07383255,-0.09452406,0.016810061,-0.0075088018,-0.030903911,-0.17238252,0.19153613,-9.136273,0.7418897,47.67614,-0.61008656,-1.9905095,-3.17061,-0.2276094,-0.12864819,-0.31457257,25.1875,25.6875,25.0,27.375,27.875,28.1875
0.08405371,-1.2544638,-1.636855,-1.048564,0.00014013148,0.025444936,-0.11752116,-0.38266847,-0.34878913,0.059953973,-3.0783541,0.6245451,-0.000184727,-0.040870007,-0.0065251654,0.0012050137,0.0066002775,0.0031710614,0.010284291,0.47689086,-1.4227071,1.9539002,-2.1000955,-1.5709399,2.4516609,-0.021303559,0.07828572,-0.096371554,0.018314838,-0.0074980366,-0.031516716,-0.19153613,0.24899697,-9.155427,0.83589023,47.67614,-0.5797313,-2.2259977,-3.0957336,-0.2319872,-0.113174096,-0.31510204,25.1875,25.6875,25.0,27.375,27.875,28.1875
0.08605409,-1.4539435,-1.4903847,-1.00447,-0.000649914,0.0332922,-0.11729847,-0.38275293,-0.34879464,0.05996073,-3.0783517,0.6245047,-0.00017341608,-0.042599212,-0.006847666,0.0028845058,0.006678814,0.0063583246,0.01086403,0.47683102,-1.4225632,1.9537095,-2.1000478,-1.5709528,2.4515762,-0.02132107,0.078177914,-0.10040136,0.019661311,-0.00903654,-0.032109343,-0.076614454,0.22984336,-9.212888,0.7530795,47.66987,-0.6622169,-1.9949014,-3.165059,-0.22902754,-0.13331148,-0.340924,25.1875,25.6875,25.0,27.375,27.875,28.1875
0.08805408,-1.3485202,-1.4936663,-0.9962004,0.0021982586,0.036192447,-0.115209736,-0.38283813,-0.34881172,0.05995634,-3.0783558,0.62444746,-0.0001877834,-0.04186149,-0.005822975,0.0011364574,0.010183112,0.0037134704,0.01145269,0.47678295,-1.4223821,1.9535044,-2.100012,-1.5709532,2.451492,-0.021223616,0.0802878,-0.09891569,0.020030163,-0.010932679,-0.03259734,-0.11492168,0.2681506,-9.32781,0.7665104,47.64927,-0.67202103,-2.128321,-3.293391,-0.23757601,-0.1125609,-0.3348686,25.1875,25.6875,25.0,27.375,27.875,28.1875
0.090053946,-1.2798295,-1.4106084,-0.95901513,-0.01050928,0.03668879,-0.11756798,-0.38291228,-0.3488208,0.059961107,-3.0783243,0.62446034,-0.00018168733,-0.043435182,-0.005615479,0.00086485985,0.011637986,0.0041341027,0.011475962,0.47674668,-1.4222372,1.9533142,-2.099952,-1.570978,2.451468,-0.022070698,0.08340508,-0.10190784,0.020202858,-0.012425331,-0.033462744,-0.095768064,0.22984336,-9.251195,0.7933669,47.661808,-0.61359644,-2.1167986,-3.3477871,-0.23903167,-0.09669964,-0.34237325,25.1875,25.6875,25.0,27.375,27.875,28.1875
0.09205383,-1.0421302,-1.4515469,-0.8548495,-0.015349556,0.03591373,-0.120505966,-0.3829985,-0.34883642,0.05995914,-3.0783274,0.624383,-0.00014566594,-0.043726016,-0.004911939,-0.00013054826,0.014040874,0.0032381737,0.012875887,0.4767106,-1.422068,1.9531225,-2.0999396,-1.5710024,2.4513834,-0.022463221,0.08552655,-0.102055416,0.020131923,-0.014150217,-0.035251632,-0.17238252,0.2681506,-9.32781,0.8023209,47.687782,-0.64128274,-2.1816642,-3.2991886,-0.21226619,-0.08234181,-0.34341544,25.1875,25.6875,25.0,27.375,27.875,28.1875
0.094053864,-0.3924849,-1.6149406,-1.0689085,-0.014670526,0.043954026,-0.119000115,-0.3830786,-0.3488491,0.059946768,-3.0783138,0.6243215,-0.00013674484,-0.044927683,-0.005639766,0.00072560203,0.012963859,0.0046510175,0.012924628,0.4766746,-1.4218876,1.9529418,-2.0999277,-1.5710262,2.4513109,-0.02247036,0.086467296,-0.1052059,0.02058969,-0.013847811,-0.035306334,-0.19153613,0.28730422,-9.385271,0.78217715,47.694946,-0.6933229,-2.0882714,-3.3660057,-0.20316005,-0.06376199,-0.36655125,25.1875,25.6875,25.0,27.375,27.875,28.1875
0.09605346,-0.93933517,-1.7029942,-1.1368232,-0.019401092,0.02606904,-0.11060185,-0.38318387,-0.34885454,0.059949376,-3.0782921,0.62429833,-0.00012887211,-0.044975605,-0.00615084,0.00036956693,0.0123517625,0.003474977,0.012234746,0.47660264,-1.4216949,1.9527019,-2.099868,-1.57105,2.4512274,-0.022300344,0.08802097,-0.10623957,0.020828487,-0.012766252,-0.034447674,-0.19153613,0.21068975,-9.3661175,0.7709874,47.682407,-0.705793,-2.105159,-3.4219818,-0.19466956,-0.08479891,-0.39801764,25.1875,25.6875,25.0,27.375,27.875,28.1875
0.09805383,-0.9767695,-1.6540649,-1.044796,-0.020298213,0.025439968,-0.11011118,-0.38325563,-0.34885177,0.059940696,-3.0782173,0.62433994,-0.00016826218,-0.04513111,-0.0064722328,0.00010766877,0.011497978,0.0022503436,0.0130374525,0.4765544,-1.4215262,1.9525098,-2.0997841,-1.5710853,2.4512148,-0.022720583,0.08925915,-0.10715519,0.021195274,-0.011449797,-0.035671923,-0.21068975,0.24899697,-9.385271,0.7933669,47.63404,-0.6592798,-2.0314157,-3.497981,-0.18140495,-0.10223537,-0.41693655,25.1875,25.6875,25.0,27.375,27.875,28.1875
0.100053705,-0.6288656,-1.3732045,-0.93076813,-0.018378597,0.035456076,-0.119590186,-0.38335082,-0.34886953,0.05995117,-3.07823,0.62426484,-0.00014300348,-0.04613275,-0.0064305323,6.3268184e-05,0.011962569,0.0019363296,0.014326537,0.47650617,-1.4213575,1.9522818,-2.099736,-1.5710977,2.4511182,-0.023532882,0.09126373,-0.10956436,0.022090988,-0.011722573,-0.037771583,-0.1340753,0.19153613,-9.442732,0.7418897,47.66987,-0.69276077,-2.0158405,-3.62036,-0.17622015,-0.10198848,-0.39430487,25.1875,25.6875,25.0,27.375,27.875,28.1875
0.10205339,-1.1864264,-1.4065269,-1.2598008,-0.0039887745,0.028061723,-0.11128162,-0.38347474,-0.34890056,0.059977546,-3.078255,0.62419134,-3.5269455e-05,-0.046969213,-0.0062991204,-0.00013720454,0.013061957,0.0021129397,0.01576625,0.4764701,-1.4211649,1.9519929,-2.0996993,-1.5711335,2.4510334,-0.023841655,0.09312033,-0.11129704,0.022315558,-0.012782409,-0.039517656,-0.19153613,0.24899697,-9.519346,0.7777002,47.667187,-0.761414,-1.9698737,-3.4736571,-0.17006117,-0.0908028,-0.39010343,25.1875,25.6875,25.0,27.375,27.875,28.1875
0.1040533,-1.8493166,-1.6931902,-1.1499743,-0.0017192997,0.015930314,-0.10419382,-0.38357902,-0.3489344,0.05998184,-3.078285,0.62419575,2.242666e-05,-0.048184544,-0.0068300352,0.00046231787,0.012261133,0.0033255569,0.018453546,0.47643405,-1.4209721,1.9517654,-2.0997121,-1.5711335,2.4509964,-0.024109151,0.09431905,-0.11408848,0.0224609,-0.012632035,-0.04247183,-0.05746084,0.22984336,-9.481039,0.7777002,47.690468,-0.77786255,-2.0044074,-3.6829925,-0.15494089,-0.07879454,-0.39142257,25.1875,25.6875,25.0,27.375,27.875,28.1875
0.106054045,-0.81931853,-1.821358,-1.2900157,-0.0076603773,0.025882069,-0.108243056,-0.38365236,-0.34893653,0.059965983,-3.078244,0.6240729,-4.3489214e-05,-0.048869897,-0.0071549797,-0.000535823,0.012893241,0.0016028598,0.018154154,0.47638592,-1.4207788,1.9515613,-2.0996282,-1.5711578,2.450877,-0.024302008,0.09825292,-0.1163644,0.022621332,-0.012411511,-0.04236312,-0.019153614,0.28730422,-9.500193,0.7866488,47.694946,-0.80862,-1.9684434,-3.5701451,-0.14457525,-0.08290135,-0.38405812,25.1875,25.6875,25.0,27.375,27.875,28.1875
0.10805388,-0.7728657,-2.0363948,-1.403795,-0.017022913,0.016058302,-0.10617631,-0.38377014,-0.34896183,0.059982423,-3.0782657,0.62401885,3.6905392e-05,-0.050534207,-0.008200289,0.0016011964,0.010459895,0.005464041,0.018482158,0.47633806,-1.4205868,1.9512986,-2.099604,-1.5711821,2.4507928,-0.024220617,0.0971673,-0.120077275,0.022869576,-0.012025286,-0.042609468,0.0,0.2681506,-9.519346,0.8112748,47.684196,-0.80917597,-1.9109366,-3.5247064,-0.12002491,-0.08724081,-0.3969958,25.1875,25.6875,25.0,27.375,27.875,28.1875
0.110054284,-0.3729256,-2.1385808,-1.4882036,-0.0214932,0.012012976,-0.118158065,-0.38386425,-0.3489636,0.059978545,-3.0782387,0.62389463,2.706612e-05,-0.051164854,-0.008179741,0.001023295,0.01234681,0.0041924077,0.0222541,0.47627798,-1.4203936,1.9510697,-2.0995314,-1.5712184,2.4506588,-0.024118293,0.100296125,-0.122692816,0.024351042,-0.0131247,-0.046275046,0.0,0.3256114,-9.519346,0.77545905,47.634937,-0.8449557,-1.8742989,-3.453855,-0.11158304,-0.08024232,-0.39279044,25.1875,25.6875,25.0,27.375,27.875,28.1875
0.112054095,-0.3098784,-1.9365367,-1.4431099,-0.03157558,0.011811767,-0.11801317,-0.38396478,-0.3489888,0.05999029,-3.0782464,0.62385625,2.4504554e-05,-0.051901598,-0.0084030535,0.0020132468,0.011654052,0.004820621,0.024393046,0.47622982,-1.4202014,1.9508065,-2.099459,-1.5712179,2.4505858,-0.024600897,0.100025214,-0.12506218,0.02611207,-0.012799448,-0.048896458,-0.038307227,0.34476504,-9.5385,0.83813137,47.66987,-0.85347134,-1.9482676,-3.5250897,-0.12235053,-0.07682225,-0.36733246,25.1875,25.6875,25.0,27.375,27.875,28.1875
0.11405425,-1.0531195,-2.62543,-1.6292008,-0.0159428,-0.00010142571,-0.1041476,-0.38408193,-0.3489959,0.05999101,-3.0782351,0.6238151,7.510995e-05,-0.052286685,-0.008366695,0.0014686912,0.012430851,0.0034983843,0.025552379,0.47615772,-1.4199965,1.9505647,-2.099435,-1.5712537,2.4504898,-0.024953002,0.10221566,-0.12652864,0.026916001,-0.012885209,-0.050407022,-0.17238252,0.38307226,-9.500193,0.8627467,47.696735,-0.84430265,-1.7445259,-3.5659142,-0.102666534,-0.08803624,-0.35151434,25.1875,25.6875,25.0,27.375,27.875,28.1875
0.11605342,-0.7713655,-2.4559963,-1.6859956,-0.024737753,0.024645608,-0.11156842,-0.38416436,-0.3490119,0.059968,-3.0781968,0.6236325,2.0791575e-05,-0.05369081,-0.008861463,0.0018873699,0.011984809,0.003907399,0.027404035,0.4761336,-1.4197555,1.9503249,-2.099363,-1.5712899,2.4503567,-0.025490193,0.10440345,-0.13022788,0.027855035,-0.012687073,-0.052793384,-0.095768064,0.34476504,-9.576807,0.784413,47.651955,-0.8896799,-1.848558,-3.5123487,-0.10018006,-0.07723129,-0.33114263,25.1875,25.6875,25.0,27.375,27.875,28.1875
0.1180542,-1.4587296,-2.6062276,-1.6004751,-0.023401989,0.018359814,-0.10970782,-0.3842904,-0.3490326,0.060006686,-3.078207,0.62357515,0.00013744498,-0.054203324,-0.00926765,0.0019871984,0.01169709,0.0034337468,0.029730745,0.47608557,-1.4195868,1.9500269,-2.0992906,-1.571338,2.4502718,-0.02553758,0.105828,-0.13231906,0.028804226,-0.012214795,-0.05516808,-0.019153614,0.40222588,-9.634268,0.80456203,47.705692,-0.90036595,-1.7798667,-3.5400677,-0.08509521,-0.087466285,-0.27728477,25.1875,25.6875,25.0,27.375,27.875,28.1875
0.120053895,-1.0140254,-2.4884698,-1.5059701,-0.034558184,0.03233506,-0.12139987,-0.38440877,-0.34906468,0.060007326,-3.0782473,0.6235056,0.00015550465,-0.055348307,-0.009840084,0.002097439,0.011223488,0.003150053,0.031389363,0.4760255,-1.4193579,1.9497603,-2.0992782,-1.5713257,2.4501634,-0.025918366,0.10838441,-0.13572344,0.029683873,-0.011668816,-0.057206977,-0.038307227,0.38307226,-9.710882,0.7777002,47.67614,-0.946774,-1.7872064,-3.4384727,-0.08674424,-0.086114526,-0.2407481,25.1875,25.6875,25.0,27.375,27.875,28.1875
0.122053675,-1.1412466,-2.2689388,-1.4363389,-0.035117686,0.025565227,-0.11312202,-0.3844885,-0.34906992,0.059990946,-3.0782158,0.62340045,2.2165026e-05,-0.057098065,-0.010919377,0.003057278,0.009861109,0.0045268205,0.033846587,0.47595346,-1.4191407,1.9495214,-2.099158,-1.5713133,2.4500299,-0.025970053,0.110536054,-0.14060366,0.030560557,-0.011104353,-0.059713352,-0.05746084,0.40222588,-9.710882,0.8224646,47.629562,-1.062274,-1.8550825,-3.4519315,-0.075488426,-0.102018595,-0.19885707,25.1875,25.6875,25.0,27.375,27.875,28.1875
0.124053665,-0.42556518,-1.6321803,-1.3479736,-0.03701012,0.034262072,-0.123512976,-0.38462853,-0.3490804,0.060009226,-3.0782013,0.6232429,0.0001731977,-0.05730404,-0.011095668,0.0014353675,0.011595294,0.0016220952,0.03573672,0.47590563,-1.4189228,1.949222,-2.0991228,-1.5714096,2.4498858,-0.025702246,0.115222655,-0.142402,0.031041984,-0.011315877,-0.061334293,-0.05746084,0.38307226,-9.672575,0.7933669,47.688675,-0.99772054,-2.0245914,-3.4129663,-0.070575915,-0.100743264,-0.18414667,25.1875,25.6875,25.0,27.375,27.875,28.1875
0.1260537,-1.0341456,-2.113532,-1.5418066,-0.011679754,0.013456533,-0.103731945,-0.38477057,-0.34913826,0.060044482,-3.0782862,0.623144,0.0002650536,-0.058985967,-0.011843681,0.0026144611,0.010623847,0.004033725,0.035671763,0.47586948,-1.4186945,1.9488715,-2.099086,-1.5713972,2.4497774,-0.025753548,0.11620157,-0.146321,0.031394653,-0.011559699,-0.06131919,-0.11492168,0.36391866,-9.653421,0.82022345,47.67345,-1.0172298,-1.8677098,-3.186617,-0.068527885,-0.08537184,-0.15962034,25.1875,25.6875,25.0,27.375,27.875,28.1875
0.12805375,-1.0875666,-1.9999647,-1.5957979,-0.015341415,0.016349,-0.111681715,-0.38485038,-0.3491592,0.060041085,-3.0782712,0.62302685,0.00018953891,-0.059451655,-0.011682398,0.0017857162,0.011319238,0.0017728794,0.03312099,0.47583324,-1.4184892,1.9486192,-2.0989778,-1.5713972,2.44967,-0.026726164,0.11906711,-0.14799495,0.03253064,-0.011146253,-0.059740115,-0.076614454,0.2873042,-9.576807,0.800085,47.68062,-1.0289433,-2.0459108,-3.2627425,-0.06307401,-0.11278148,-0.14975962,25.1875,25.6875,25.0,27.375,27.875,28.1875
0.13005367,-0.99488544,-1.6960123,-1.3256658,-0.026447807,0.033219147,-0.1122263,-0.38498425,-0.3491899,0.06004649,-3.0782976,0.62291604,0.00022833122,-0.060290854,-0.011629088,0.0013250167,0.012364747,0.0008488593,0.033736013,0.47577298,-1.418236,1.9483083,-2.098942,-1.5714101,2.4495375,-0.027249184,0.12182572,-0.15033479,0.0334117,-0.011654875,-0.060876068,-0.13407528,0.2681506,-9.576807,0.8560339,47.64837,-1.0510217,-2.0541875,-3.2525704,-0.048276886,-0.10214577,-0.12904102,25.1875,25.6875,25.0,27.375,27.875,28.1875
0.13205382,-1.294607,-2.391545,-1.2329798,-0.02851405,0.04376587,-0.11226572,-0.38509268,-0.34919262,0.060044188,-3.078274,0.6227775,0.00021660855,-0.061628357,-0.0124737695,0.001665785,0.010680326,0.0019979093,0.03192397,0.47570103,-1.4180192,1.9480461,-2.098859,-1.5714453,2.4493823,-0.027590018,0.12368265,-0.15305595,0.032477822,-0.010693639,-0.059404563,-0.2681506,0.4213795,-9.442732,0.8090337,47.698532,-1.1719233,-1.9533579,-3.2985516,-0.034437157,-0.09947014,-0.10358815,25.1875,25.6875,25.0,27.375,27.875,28.1875
0.13405368,-1.9714174,-3.0074387,-1.2718892,-0.027772304,0.035265952,-0.110464506,-0.38523746,-0.349243,0.060062565,-3.0783134,0.6226515,0.0002715582,-0.06179091,-0.012752042,0.0017048008,0.010540749,0.0017377209,0.029242288,0.47566497,-1.4177427,1.9476732,-2.0987985,-1.5714573,2.4492629,-0.027393833,0.124372795,-0.15408345,0.03298304,-0.010448155,-0.056527108,-0.30645782,0.40222588,-9.3661175,0.8314132,47.694946,-1.1535156,-1.94238,-3.4795628,-0.025727686,-0.11793832,-0.12872505,25.1875,25.6875,25.0,27.375,27.875,28.1875
0.13605404,-1.7787366,-2.8384998,-0.9192856,-0.03886016,0.04567284,-0.11085546,-0.3853759,-0.34927642,0.060083423,-3.0783587,0.6226039,0.00036806086,-0.061969433,-0.01241652,0.0006542092,0.012655493,-0.00081395084,0.027978012,0.47560486,-1.4175254,1.9473733,-2.0987856,-1.5714692,2.4491675,-0.027681548,0.12751748,-0.1557086,0.03470244,-0.011155282,-0.05554904,-0.22984336,0.4213795,-9.346964,0.7665104,47.66091,-1.2048227,-1.8222238,-3.372938,-0.027388234,-0.11453697,-0.15456706,25.1875,25.6875,25.0,27.375,27.875,28.1875
0.13805388,-1.6829093,-2.402026,-1.0513157,-0.023204189,0.036534756,-0.10778617,-0.3855287,-0.34930125,0.06011782,-3.078368,0.62256813,0.00046162456,-0.06353183,-0.0121722855,0.0010081878,0.011895178,-0.00019515287,0.026613496,0.47553205,-1.417297,1.9470137,-2.0987022,-1.5715054,2.4490714,-0.029777642,0.12871175,-0.15794583,0.03484233,-0.010765192,-0.056280665,-0.36391866,0.3256114,-9.32781,0.86498255,47.689575,-1.1336609,-1.9101386,-3.4256248,-0.012459677,-0.1258463,-0.15805343,25.1875,25.6875,25.0,27.375,27.875,28.1875
0.14005375,-1.3418574,-1.7140357,-0.6614629,-0.013375095,0.028342027,-0.11125247,-0.3856478,-0.349329,0.06010425,-3.0783465,0.622507,0.00039651102,-0.06352662,-0.011814772,-2.1297521e-05,0.014011876,-0.0022879709,0.023266597,0.47547218,-1.4170076,1.9466933,-2.0986183,-1.5715059,2.4489763,-0.029795423,0.13128883,-0.15885337,0.03600811,-0.011690421,-0.05294869,-0.28730422,0.2681506,-9.32781,0.81351066,47.661808,-1.1858675,-1.725349,-3.508043,0.009408047,-0.12076886,-0.16495284,25.1875,25.6875,25.0,27.375,27.875,28.1875
0.1420537,-1.1431812,-1.499934,-0.51796764,0.0025864027,0.02588634,-0.11343478,-0.385763,-0.34934396,0.06009562,-3.0783253,0.62238866,0.00042835667,-0.06444002,-0.011938412,-0.0016603095,0.015284507,-0.005210208,0.020062556,0.47542387,-1.4167653,1.9464267,-2.098582,-1.5715536,2.448857,-0.030533412,0.13690196,-0.16167483,0.036395617,-0.011489617,-0.05048075,-0.2681506,0.19153613,-9.193734,0.7911258,47.693153,-1.2009598,-1.9116839,-3.4857001,0.023547005,-0.109117426,-0.2191186,25.1875,25.6875,25.0,27.375,27.875,28.1875
0.14405371,-1.3518622,-0.76542264,-0.29082847,0.013898919,0.00794718,-0.11138212,-0.38587964,-0.34937695,0.06010147,-3.0783262,0.6223129,0.0003994744,-0.06646947,-0.01206484,0.00070818816,0.012462356,-0.0002452016,0.018072791,0.47537526,-1.4165143,1.9461035,-2.0984867,-1.5715536,2.4487612,-0.032297388,0.13410026,-0.16369545,0.035510685,-0.011260784,-0.0502545,-0.30645782,0.22984336,-9.021352,0.88289046,47.688675,-1.1216177,-1.743434,-3.536298,0.027904492,-0.11978811,-0.23074883,25.1875,25.6875,25.0,27.375,27.875,28.1875
0.14605354,-0.6300039,-0.7973922,-0.31840837,0.02945366,0.019935878,-0.10769986,-0.3860514,-0.34944126,0.060142383,-3.0784261,0.6222166,0.0005818377,-0.06761858,-0.0124213975,0.00053645554,0.0127277495,-0.0002217793,0.018060388,0.47533932,-1.4162608,1.9457215,-2.098498,-1.5715655,2.4486527,-0.032545842,0.13688223,-0.16657552,0.035709128,-0.011506496,-0.050489962,-0.2681506,0.17238252,-8.925584,0.76874626,47.68599,-1.1639106,-1.7883906,-3.4456105,0.0706746,-0.11629623,-0.2534414,25.1875,25.6875,25.0,27.375,27.875,28.1875
0.1480535,-0.78239024,-0.20938544,-0.20738909,0.02012722,0.015119969,-0.11764842,-0.38621244,-0.349446,0.060149103,-3.078386,0.6222278,0.00062874646,-0.06720646,-0.012485191,-7.441641e-05,0.013862912,-0.003897141,0.01804486,0.47523138,-1.4159839,1.9453715,-2.0984251,-1.5716137,2.4485571,-0.032471403,0.13913877,-0.1686212,0.03927975,-0.010831017,-0.050400555,-0.19153613,0.095768064,-8.868123,0.85155696,47.698532,-1.2015101,-1.7752368,-3.4742632,0.07006636,-0.13237654,-0.2784154,25.1875,25.6875,25.0,27.375,27.875,28.1875
0.1500534,-0.70812917,-0.6414958,-0.28201243,0.027210724,0.01689895,-0.111730464,-0.38629785,-0.3494542,0.060099494,-3.0782974,0.62215215,0.0004874799,-0.06822518,-0.012184678,0.0002608253,0.015174969,-0.004674881,0.01737173,0.47518298,-1.415683,1.9451197,-2.0983403,-1.5716375,2.448473,-0.033394545,0.14085227,-0.17208672,0.042324655,-0.011649697,-0.050646257,-0.19153613,0.076614454,-8.848969,0.784413,47.686886,-1.2323421,-1.7363789,-3.3479934,0.0550057,-0.15588726,-0.2879135,25.1875,25.6875,25.0,27.375,27.875,28.1875
0.15205331,-0.46818337,-0.6265929,-0.3451004,0.023423798,0.025759714,-0.117701,-0.38646406,-0.34949714,0.060135193,-3.0783153,0.6220407,0.0005379211,-0.0695837,-0.012029732,0.0003345946,0.016112268,-0.0059542754,0.016308287,0.47512248,-1.415394,1.9446758,-2.0982077,-1.5716618,2.448341,-0.034729764,0.14374927,-0.17627005,0.045176193,-0.011900031,-0.050915934,-0.21068975,0.095768064,-8.90643,0.8314132,47.67614,-1.1536533,-1.8431656,-3.396037,0.027352976,-0.15867051,-0.32326716,25.1875,25.6875,25.0,27.375,27.875,28.1875
0.1540541,-0.10589697,-0.67897713,-0.2258361,0.015340234,0.033817064,-0.121224135,-0.38657686,-0.3495213,0.0601307,-3.0783074,0.6219616,0.00049076666,-0.070223115,-0.011224465,0.00013176793,0.017699188,-0.007852388,0.015496132,0.47506195,-1.415141,1.9443759,-2.0981228,-1.5716618,2.4482322,-0.036368214,0.14535728,-0.17834367,0.048056018,-0.01244394,-0.05174007,-0.2681506,0.095768064,-9.078813,0.81351066,47.67345,-1.1157935,-1.7922328,-3.368884,0.007609918,-0.15370426,-0.34408462,25.1875,25.6875,25.0,27.375,27.875,28.1875
0.1560534,-0.9734414,-1.0143732,-0.46127117,0.013674382,0.02025101,-0.11628357,-0.3867269,-0.34955126,0.06013325,-3.0782986,0.62195945,0.0004726585,-0.07108592,-0.011307439,-0.00027904133,0.01969871,-0.009697854,0.016063392,0.47497803,-1.4148394,1.9440039,-2.098038,-1.5716623,2.4481483,-0.036386665,0.14910485,-0.1824093,0.050931487,-0.013382595,-0.05232184,-0.19153613,0.15322891,-9.021352,0.7665104,47.645687,-1.1094841,-1.9334016,-3.4124174,-0.033386435,-0.15581255,-0.3592408,25.1875,25.6875,25.0,27.375,27.875,28.1875
0.15805334,-0.572013,-0.8147158,-0.51570356,0.0032540916,0.037549425,-0.11813748,-0.38686737,-0.34956303,0.06013294,-3.0782518,0.6218916,0.00044613093,-0.0701786,-0.01037786,-0.0021527708,0.022511669,-0.015355185,0.015461605,0.4748938,-1.4145503,1.9436449,-2.0979178,-1.5716985,2.4480278,-0.03723641,0.15221675,-0.18249929,0.054223534,-0.013294329,-0.05256943,-0.32561144,0.19153613,-9.097966,0.83813137,47.678825,-1.1409007,-1.6659851,-3.33948,-0.06328304,-0.13799933,-0.37931767,25.1875,25.6875,25.0,27.375,27.875,28.1875
0.16005336,-1.3871582,-1.6423137,-0.7938003,0.005272691,0.030472271,-0.11079816,-0.38698825,-0.34959587,0.060109295,-3.0782132,0.62182677,0.00031390678,-0.07099213,-0.010293398,-0.0010011367,0.022466397,-0.015328951,0.015038466,0.4748333,-1.414214,1.9432844,-2.0977962,-1.5716861,2.447932,-0.03812438,0.1519416,-0.18561985,0.057574533,-0.013271922,-0.05303224,-0.2873042,0.30645782,-9.155427,0.8247004,47.66987,-1.162399,-1.6991456,-3.4041343,-0.11136325,-0.163365,-0.3936428,25.1875,25.6875,25.0,27.375,27.875,28.1875
0.16205359,-1.4053981,-2.0350502,-0.93969786,-0.011158311,0.034404915,-0.11312093,-0.38713753,-0.3495724,0.06011056,-3.0780919,0.62176216,0.00032621314,-0.07141652,-0.010383923,-0.001198864,0.023354672,-0.017321857,0.015578406,0.47472537,-1.413937,1.9429272,-2.0976398,-1.5717944,2.4477994,-0.038403828,0.15428206,-0.18851872,0.060303003,-0.013158152,-0.053849664,-0.2681506,0.36391866,-9.32781,0.7978386,47.681515,-1.1393772,-1.7548838,-3.3601007,-0.17027393,-0.1697756,-0.42269838,25.1875,25.6875,25.0,27.375,27.875,28.1875
0.16405362,-1.7876552,-2.3112645,-1.1708783,-0.032524746,0.0406963,-0.10309387,-0.38727334,-0.34962407,0.060095906,-3.0780816,0.6216832,0.00021400911,-0.07224714,-0.009822715,-0.0016396744,0.025204873,-0.018911608,0.015012027,0.4746771,-1.4135759,1.9425176,-2.0975196,-1.5717705,2.4477034,-0.039538372,0.15685897,-0.1910283,0.062498733,-0.014083124,-0.05441371,-0.4405331,0.38307226,-9.32781,0.84708,47.705692,-1.1458085,-1.7116227,-3.3885303,-0.21971573,-0.1669854,-0.4448331,25.1875,25.6875,25.0,27.375,27.875,28.1875
0.16605334,-2.0569851,-3.3651316,-1.2891911,-0.025153,0.039709117,-0.10114341,-0.38742384,-0.34962776,0.060109027,-3.0780067,0.6216484,0.00023574971,-0.07259315,-0.009481489,-0.0019324025,0.026051424,-0.02033619,0.014736792,0.4745927,-1.4132988,1.9421362,-2.0973756,-1.5718426,2.447607,-0.040365413,0.1582727,-0.19238852,0.06409388,-0.014189341,-0.054964207,-0.36391866,0.45968673,-9.3661175,0.8314132,47.690468,-1.0899588,-1.7722037,-3.3432217,-0.27274835,-0.1537185,-0.47449964,25.1875,25.6875,25.0,27.375,27.875,28.1875
0.16805355,-1.7841105,-2.8294373,-1.3660983,-0.03493778,0.041005056,-0.11053159,-0.38758054,-0.34962547,0.06009597,-3.0779,0.6216059,0.00016315932,-0.07415966,-0.009543384,-0.0011989404,0.025890488,-0.018225595,0.015736734,0.47448447,-1.4129504,1.9417266,-2.0972078,-1.5719026,2.4474862,-0.041118905,0.15907134,-0.19499843,0.063950226,-0.015027131,-0.05671286,-0.36391866,0.53630114,-9.385271,0.8560339,47.690468,-1.1291049,-1.6683207,-3.3716974,-0.3074094,-0.13907197,-0.4939946,25.1875,25.6875,25.0,27.375,27.875,28.1875
0.1700536,-1.3311174,-2.8286054,-1.3315289,-0.03240598,0.05355902,-0.106105834,-0.3877368,-0.34966114,0.060099944,-3.0779252,0.62149525,0.00019570114,-0.07456068,-0.009614679,-0.0025472057,0.026270425,-0.02022574,0.017272905,0.47441226,-1.4126486,1.9413589,-2.09716,-1.5719141,2.447342,-0.041704003,0.16258459,-0.19585265,0.06323753,-0.014457759,-0.05883473,-0.32561144,0.4405331,-9.5385,0.83589023,47.679718,-1.0981567,-1.826709,-3.496959,-0.34057015,-0.15443648,-0.50426614,25.1875,25.6875,25.0,27.375,27.875,28.1875
0.1720534,-1.0053223,-2.3455899,-1.4703901,-0.031643223,0.04721187,-0.11066255,-0.38784933,-0.3496936,0.060064882,-3.0778673,0.62142146,-5.103194e-06,-0.07697928,-0.01015744,-0.0028092242,0.025854575,-0.018541746,0.02144553,0.47435182,-1.4122872,1.9409875,-2.0970056,-1.5718907,2.447243,-0.042657923,0.16686802,-0.19977939,0.061188463,-0.014885769,-0.06395534,-0.1340753,0.38307226,-9.557653,0.81351066,47.67345,-1.0058333,-1.8098279,-3.502466,-0.3442043,-0.16159618,-0.47926432,25.1875,25.6875,25.0,27.375,27.875,28.1875
0.17405315,-1.7009127,-2.4509444,-1.2721622,-0.01688802,0.02609407,-0.104923174,-0.38804406,-0.34970665,0.060094412,-3.0778368,0.6213384,8.157821e-05,-0.078439906,-0.010684306,-0.0027243576,0.023869406,-0.01672197,0.02264944,0.4742435,-1.4119742,1.9405297,-2.096875,-1.5719622,2.447087,-0.043620717,0.16835596,-0.20113033,0.058513593,-0.01396415,-0.0661233,-0.1340753,0.22984336,-9.423578,0.83365434,47.67345,-1.0737084,-1.8513697,-3.6190748,-0.3471188,-0.18443578,-0.4654402,25.1875,25.6875,25.0,27.375,27.875,28.1875
0.17605336,-1.2115196,-1.7102062,-1.3324219,-0.025048925,0.032579098,-0.11087989,-0.38821965,-0.349727,0.06009093,-3.0778017,0.62132895,7.084957e-05,-0.07928621,-0.01059634,-0.0042235753,0.024883553,-0.017109536,0.025883531,0.47413552,-1.4116246,1.940113,-2.09678,-1.571987,2.4469779,-0.04404174,0.17214458,-0.20154803,0.05594518,-0.014704721,-0.06977505,-0.11492168,0.21068975,-9.5385,0.8314132,47.681515,-1.040659,-1.9515266,-3.5687473,-0.33159232,-0.19326925,-0.45156476,25.1875,25.6875,25.0,27.375,27.875,28.1875
0.17805351,-1.4003378,-1.7434088,-1.3210942,-0.022467215,0.028310388,-0.10824878,-0.388374,-0.34975716,0.060079608,-3.0777798,0.6212039,3.679039e-05,-0.0817632,-0.011853245,-0.0035132584,0.022094557,-0.013187394,0.032363005,0.47406316,-1.4112755,1.9397148,-2.0966852,-1.5720104,2.4468305,-0.044483446,0.17437504,-0.20499068,0.05237996,-0.0140420105,-0.07669478,-0.11492168,0.22984336,-9.481039,0.8940802,47.703903,-1.0212839,-1.9785191,-3.6545157,-0.30910385,-0.19437715,-0.3876229,25.1875,25.6875,25.0,27.375,27.875,28.1875
0.18005343,-1.3011699,-1.8313673,-1.3280911,-0.010015672,0.030198041,-0.10705256,-0.38854423,-0.34978077,0.060077302,-3.0777876,0.62112826,-8.461215e-06,-0.084346615,-0.011742187,-0.0026731808,0.021128593,-0.010256128,0.032673046,0.4739426,-1.4109387,1.93931,-2.0965903,-1.571999,2.446662,-0.04667325,0.17577884,-0.20832968,0.05126379,-0.014537613,-0.079191096,-0.11492168,0.17238252,-9.500193,0.92093146,47.698532,-1.0505078,-1.953538,-3.700838,-0.2848333,-0.18894757,-0.33283275,25.1875,25.6875,25.0,27.375,27.875,28.1875
0.18205371,-0.93204445,-1.6131737,-1.423328,-0.0027169758,0.031766698,-0.112625286,-0.38870528,-0.34979445,0.060079128,-3.0777407,0.6209817,-9.06641e-06,-0.0858104,-0.012325462,-0.0030806712,0.02013066,-0.009354139,0.03632011,0.4738583,-1.4106127,1.9388999,-2.0964592,-1.5720581,2.4464924,-0.047243934,0.17879817,-0.21044372,0.049086995,-0.014080997,-0.08340764,-0.076614454,0.19153613,-9.461885,0.81351066,47.696735,-0.90627587,-2.1609046,-3.5315256,-0.27825794,-0.20040253,-0.30308732,25.1875,25.6875,25.0,27.375,27.875,28.1875
0.18405358,-1.1732271,-1.617586,-1.3411932,-2.3120767e-05,0.02476566,-0.105754554,-0.38886744,-0.34982625,0.060042467,-3.0777395,0.6207854,-5.7748643e-05,-0.088358924,-0.014284729,-0.0021258672,0.0181598,-0.0036830388,0.04123215,0.47377515,-1.4102161,1.9385179,-2.0964248,-1.572071,2.4462872,-0.04553355,0.18149185,-0.21483648,0.044836808,-0.014943397,-0.08660324,-0.15322891,0.24899697,-9.481039,0.8179876,47.69763,-1.0752285,-2.0670342,-3.4695282,-0.2253815,-0.20974523,-0.25542724,25.1875,25.6875,25.0,27.375,27.875,28.1875
0.18605389,-1.2337421,-2.1040945,-1.3770611,0.006981597,0.029441167,-0.10413707,-0.38904253,-0.3498739,0.060059596,-3.0777335,0.62061095,1.2085063e-05,-0.08966824,-0.014194983,-0.0017269407,0.01755634,-0.0025817736,0.04166124,0.47373846,-1.4098675,1.938052,-2.096317,-1.572131,2.4461427,-0.046874058,0.1822926,-0.21668024,0.044616114,-0.014915013,-0.08837216,-0.22984336,0.22984336,-9.385271,0.81351066,47.67793,-1.0442128,-2.026614,-3.4863815,-0.18623546,-0.22323017,-0.21192972,25.1875,25.6875,25.0,27.375,27.875,28.1875
0.18805376,-1.5092614,-2.2580528,-1.5486531,-0.008951558,0.032174945,-0.10214943,-0.3892574,-0.349894,0.06007446,-3.077753,0.6204988,6.4880245e-05,-0.09092479,-0.014262184,-0.001734696,0.018196737,-0.0021123562,0.041669052,0.47359446,-1.4095064,1.9375819,-2.0962327,-1.5721554,2.4459264,-0.047348477,0.18457802,-0.21944204,0.04496481,-0.015704084,-0.08885121,-0.17238252,0.3256114,-9.423578,0.8672237,47.685097,-1.0561359,-2.015679,-3.4558578,-0.15557392,-0.22215007,-0.17351589,25.1875,25.6875,25.0,27.375,27.875,28.1875
0.1900536,-1.4686571,-2.5568287,-1.377827,-0.037607133,0.040520094,-0.110318065,-0.38943055,-0.34992647,0.060068924,-3.0777345,0.6203809,3.9472572e-05,-0.09162814,-0.013376138,-0.0013659458,0.018023852,-0.0032738084,0.03811648,0.47350946,-1.4091341,1.9371399,-2.0961244,-1.5721787,2.4457705,-0.049947813,0.18437096,-0.22064455,0.04732487,-0.015020895,-0.08789921,-0.2681506,0.40222588,-9.519346,0.8314132,47.696735,-0.95447683,-1.9770526,-3.504433,-0.1879212,-0.22408801,-0.14858107,25.1875,25.6875,25.0,27.375,27.875,28.1875
0.19205344,-1.872251,-3.1277888,-1.4072222,-0.054639503,0.046203203,-0.09968669,-0.3896191,-0.34994063,0.060070008,-3.0776923,0.6202767,6.6980196e-05,-0.09216153,-0.014168206,-0.0012801541,0.017869886,-0.0020861838,0.037041344,0.47340193,-1.4087732,1.9366959,-2.0960166,-1.5722388,2.4456036,-0.048744217,0.18576318,-0.22231872,0.046477996,-0.015431506,-0.08561799,-0.5554548,0.47884035,-9.672575,0.83589023,47.696735,-0.9203827,-1.858775,-3.4332688,-0.16331401,-0.20431957,-0.1465029,25.1875,25.6875,25.0,27.375,27.875,28.1875
0.19405335,-2.1698802,-3.5126412,-1.507515,-0.053124893,0.054557204,-0.097875215,-0.38978672,-0.34995016,0.060051255,-3.077637,0.6201904,-1.5915059e-05,-0.09382577,-0.015130522,-0.0006042194,0.01658265,0.0005788582,0.033074405,0.4732821,-1.4084004,1.9362782,-2.095886,-1.5722626,2.4454372,-0.04847473,0.18743145,-0.22553687,0.04507245,-0.01551376,-0.081378154,-0.47884035,0.49799395,-9.595961,0.8537928,47.664497,-1.1276171,-2.0123897,-3.5806298,-0.13466182,-0.23285893,-0.1649108,25.1875,25.6875,25.0,27.375,27.875,28.1875
0.19605367,-1.8905885,-3.1160192,-1.3842078,-0.046289194,0.061588276,-0.10934373,-0.38996175,-0.3499791,0.060028642,-3.0775712,0.6200637,-1.0802321e-05,-0.09532939,-0.01418633,-0.00071667245,0.01767783,-0.00048349868,0.027989028,0.4732211,-1.4079909,1.9358371,-2.095801,-1.5723356,2.4453058,-0.051148657,0.18958741,-0.22831261,0.0471361,-0.016007146,-0.07896335,-0.36391866,0.40222588,-9.519346,0.82022345,47.661808,-0.9577539,-1.9600908,-3.543769,-0.13050751,-0.24035662,-0.1970495,25.1875,25.6875,25.0,27.375,27.875,28.1875
0.19805346,-1.9516442,-2.3299162,-1.2518356,-0.033090558,0.04595376,-0.10480799,-0.39018086,-0.35001954,0.0600538,-3.0776217,0.62003857,0.00010231009,-0.09616743,-0.01421671,-0.0008156253,0.017299855,-0.00064799015,0.022452645,0.47310084,-1.4076424,1.9353684,-2.0957654,-1.5723466,2.4451637,-0.052079804,0.19107035,-0.22987847,0.047196906,-0.015587485,-0.07435978,-0.34476504,0.30645782,-9.576807,0.90750587,47.67166,-0.8704827,-1.8630174,-3.468834,-0.10977943,-0.24889058,-0.24580054,25.1875,25.6875,25.0,27.375,27.875,28.1875
0.20005345,-1.4049205,-1.8202604,-1.0661325,-0.008446442,0.045032933,-0.107990906,-0.39038557,-0.35008332,0.060065664,-3.0776927,0.6199385,0.000107888016,-0.097647406,-0.015033663,-0.00019651395,0.015584732,0.0010171027,0.020502929,0.47300473,-1.4072455,1.9348658,-2.0956938,-1.5723108,2.4449964,-0.05243495,0.19252676,-0.23288913,0.046488687,-0.01482372,-0.07276622,-0.45968673,0.30645782,-9.461885,0.85826975,47.677036,-0.89289296,-1.7527186,-3.542026,-0.06425209,-0.2577619,-0.29629922,25.1875,25.6875,25.0,27.375,27.875,28.1875
0.20205422,-0.5917703,-0.54606575,-1.0225153,-0.008897008,0.053034108,-0.11479354,-0.39058068,-0.3501115,0.06004048,-3.0776534,0.6197536,7.828361e-05,-0.09862739,-0.015100168,-0.00013913507,0.015885532,0.0010748225,0.023446573,0.47290856,-1.4068002,1.9343861,-2.095598,-1.572359,2.4447901,-0.05297149,0.1942824,-0.23529828,0.04721813,-0.015130969,-0.07624356,-0.36391866,0.28730422,-9.308657,0.87393653,47.698532,-0.8806317,-1.8727582,-3.5764205,-0.036963407,-0.27302635,-0.28901,25.1875,25.6875,25.0,27.375,27.875,28.1875
0.20405395,-0.825861,-0.6254707,-1.1637937,0.007455912,0.036579426,-0.11699796,-0.39079976,-0.35012472,0.06006563,-3.0776408,0.6197727,0.00017947315,-0.09979352,-0.015340645,0.000370585,0.015833054,0.0014612589,0.020854449,0.47276437,-1.406463,1.9339193,-2.0955136,-1.5724066,2.4446597,-0.053475015,0.19576396,-0.23855591,0.04862473,-0.015258846,-0.07415391,-0.30645782,0.1340753,-9.270349,0.89631605,47.709274,-0.8475537,-1.9742002,-3.5544806,-0.019538697,-0.2727169,-0.29047352,25.1875,25.6875,25.0,27.375,27.875,28.1875
0.20605366,-0.5916956,-1.1252404,-1.0314333,0.014601085,0.04037524,-0.11541621,-0.39099428,-0.35015225,0.06003065,-3.0775769,0.6197006,0.0001477862,-0.10059447,-0.014873258,-4.522928e-05,0.017196817,1.980856e-05,0.019458594,0.47266808,-1.4060061,1.9334534,-2.095441,-1.5724553,2.444527,-0.054620318,0.19812289,-0.24083675,0.050448485,-0.015822552,-0.073899865,-0.24899697,0.17238252,-9.270349,0.84708,47.658226,-0.8250507,-2.0217018,-3.5483043,0.0033452287,-0.28070801,-0.3242805,25.1875,25.6875,25.0,27.375,27.875,28.1875
0.20805389,-1.1880747,-0.89506334,-0.9176171,-0.00046275064,0.02626212,-0.11038389,-0.39120957,-0.35018644,0.060061473,-3.0775576,0.6196201,0.0002268276,-0.1008893,-0.014471998,-0.0012234173,0.018699547,-0.0032220304,0.019047283,0.4725718,-1.4056329,1.932918,-2.0952966,-1.5725149,2.4443831,-0.055639394,0.20154652,-0.24261792,0.052369107,-0.01568463,-0.07450739,-0.15322891,0.0,-9.251195,0.8717007,47.66987,-0.8103657,-1.8537027,-3.5800421,0.0008952175,-0.30560625,-0.33518982,25.1875,25.6875,25.0,27.375,27.875,28.1875
0.2100539,-0.8487763,-0.83805126,-1.0642254,0.002308388,0.033751495,-0.109256595,-0.3914191,-0.35022298,0.060052037,-3.0775647,0.61960185,0.00020172387,-0.102346376,-0.01472383,-0.0009474365,0.019489188,-0.0030536067,0.018378891,0.47243953,-1.4052116,1.9324349,-2.0952246,-1.5725034,2.444239,-0.0559644,0.20427342,-0.24688475,0.054120827,-0.016471462,-0.0741597,-0.11492168,0.038307227,-9.289502,0.81351066,47.65464,-0.8197241,-1.9815223,-3.5593362,0.008141188,-0.303938,-0.35419106,25.1875,25.6875,25.0,27.375,27.875,28.1875
0.21205439,-0.4440241,-1.0149843,-1.0151728,0.014747441,0.03906662,-0.11174272,-0.39164874,-0.35025942,0.060066093,-3.0775683,0.6195458,0.0002743016,-0.10317796,-0.014452756,-0.0013367812,0.020369265,-0.0046278127,0.017570533,0.47231922,-1.4048022,1.931909,-2.0951397,-1.5725392,2.4440835,-0.05709885,0.20680326,-0.2494148,0.055918418,-0.016539807,-0.07448501,-0.1340753,0.038307227,-9.232041,0.83813137,47.65912,-0.76788336,-1.967406,-3.5176764,0.027461976,-0.3069731,-0.3890385,25.1875,25.6875,25.0,27.375,27.875,28.1875
0.21405403,-0.35297966,-0.76558065,-0.99890816,0.0057897624,0.032585416,-0.11387184,-0.3918383,-0.35024807,0.06002434,-3.0774415,0.6194608,0.00017611624,-0.10287993,-0.01345914,-0.0028474533,0.023933407,-0.010225451,0.018231457,0.47217485,-1.4043566,1.9314545,-2.0949943,-1.5726117,2.4439025,-0.058122016,0.21066271,-0.25165713,0.060898874,-0.017175872,-0.07616434,-0.114921674,0.11492168,-9.251195,0.8403672,47.67166,-0.7118703,-1.9438729,-3.5197752,-0.009536458,-0.31235924,-0.3758887,25.1875,25.6875,25.0,27.375,27.875,28.1875
0.21605411,-0.42245314,-0.76983047,-1.0642153,0.008391683,0.02539055,-0.117949784,-0.39202997,-0.35031608,0.06003461,-3.0774937,0.6193536,0.000111445486,-0.10417196,-0.01376335,-0.0022316577,0.023203516,-0.009483339,0.020635273,0.4720906,-1.4039481,1.9309272,-2.0948622,-1.5725635,2.443745,-0.05890525,0.21185632,-0.25472772,0.06177811,-0.016875211,-0.079350755,-0.19153613,0.11492168,-9.251195,0.7978386,47.677036,-0.70155597,-1.9161205,-3.536363,-0.014918495,-0.31810254,-0.37748778,25.1875,25.6875,25.0,27.375,27.875,28.1875
0.21805418,-0.58924013,-0.7411817,-0.9586083,0.0064721317,0.020958705,-0.11705139,-0.39225003,-0.3503256,0.060030382,-3.0774238,0.619241,0.00017122361,-0.104846254,-0.013799127,-0.00129265,0.02342749,-0.010337057,0.023550728,0.4719704,-1.4035271,1.9304236,-2.094753,-1.5726594,2.4435637,-0.059519067,0.21230558,-0.2583943,0.06584038,-0.016694646,-0.082879186,-0.19153613,0.19153613,-9.212888,0.9365982,47.66987,-0.72359765,-1.9826686,-3.437216,-0.041667227,-0.30791023,-0.356318,25.1875,25.6875,25.0,27.375,27.875,28.1875
0.220054,-0.41384128,-0.96949035,-0.91789186,-0.0028327403,0.028143618,-0.107985534,-0.39245522,-0.35034847,0.060004313,-3.0773907,0.61915433,7.196477e-05,-0.10408571,-0.012833684,-0.002222315,0.027117115,-0.016176594,0.027689088,0.4718262,-1.40307,1.9299248,-2.0946314,-1.5726599,2.4433699,-0.060070634,0.21485363,-0.26085708,0.0726242,-0.017333355,-0.08756557,-0.17238252,0.19153613,-9.136273,0.8873621,47.67166,-0.60240763,-2.0709727,-3.4203897,-0.10820589,-0.33271068,-0.32462892,25.1875,25.6875,25.0,27.375,27.875,28.1875
0.222054,-0.8238548,-1.2076986,-1.0563787,-0.0025326314,0.020905918,-0.11443176,-0.392636,-0.3503784,0.060000528,-3.077308,0.6190201,7.400954e-06,-0.104281716,-0.012229529,-0.0015900887,0.027548466,-0.017337352,0.030153604,0.47175395,-1.4026495,1.9293989,-2.0944269,-1.5727195,2.4432247,-0.061351568,0.21415183,-0.26233453,0.07601884,-0.017202182,-0.091309875,-0.15322891,0.28730422,-9.232041,0.83589023,47.691364,-0.6354424,-1.9452903,-3.4640121,-0.15882641,-0.33137316,-0.2716962,25.1875,25.6875,25.0,27.375,27.875,28.1875
0.22405398,-0.93736297,-1.985476,-1.1992972,-0.0041408464,0.034903724,-0.10433114,-0.39282995,-0.3503961,0.059967887,-3.0772347,0.618866,-0.00010616444,-0.10400227,-0.011559842,-0.0023783164,0.02958272,-0.019962003,0.036757678,0.47163376,-1.4021809,1.9288934,-2.09427,-1.5727557,2.443018,-0.061819814,0.21566716,-0.2629089,0.078322455,-0.01784456,-0.09837814,-0.21068975,0.2681506,-9.32781,0.8851263,47.690468,-0.46671897,-1.936857,-3.5378222,-0.19639942,-0.36204684,-0.19655898,25.1875,25.6875,25.0,27.375,27.875,28.1875
0.22605404,-1.4618479,-1.9471291,-0.96075785,-0.01390513,0.039448775,-0.09948701,-0.39307874,-0.35042644,0.06000744,-3.0772457,0.61882704,-4.261797e-05,-0.10427241,-0.013428662,-0.0012821864,0.029044794,-0.019122774,0.04090132,0.4714787,-1.4017843,1.9283069,-2.094114,-1.5727795,2.4428375,-0.058801964,0.21693595,-0.26748613,0.08063123,-0.01775453,-0.099503055,-0.21068975,0.19153613,-9.251195,0.84708,47.664497,-0.67375517,-1.8549517,-3.578292,-0.24546227,-0.36775786,-0.14763439,25.1875,25.6875,25.0,27.375,27.875,28.1875
0.22805405,-1.475688,-1.8267976,-0.9228759,-0.007346629,0.040636253,-0.10313298,-0.3932399,-0.35044342,0.059967436,-3.0771544,0.6185951,-0.00019098374,-0.10530222,-0.0133701395,-0.0018461164,0.029640395,-0.020552827,0.043444354,0.4713944,-1.4013385,1.9278392,-2.0939343,-1.5728277,2.4426203,-0.059853062,0.22014074,-0.27026376,0.0817343,-0.01766426,-0.10309332,-0.17238252,0.28730422,-9.251195,0.8672237,47.66987,-0.6536516,-1.8834276,-3.5121574,-0.28132933,-0.37058148,-0.10451581,25.1875,25.6875,25.0,27.375,27.875,28.1875
0.23005372,-0.7840184,-1.3199952,-1.2900965,-0.0010266302,0.04710926,-0.11020315,-0.39348918,-0.35045192,0.059964053,-3.0771117,0.61855024,-0.00023192014,-0.10719473,-0.012607119,-0.0014028487,0.02971648,-0.018789072,0.03869382,0.47120157,-1.4008696,1.9272665,-2.0937788,-1.5728525,2.4424052,-0.06225649,0.22088607,-0.27214602,0.08133686,-0.018544676,-0.10074147,-0.11492168,0.24899697,-9.346964,0.84708,47.661808,-0.6685118,-1.8422627,-3.544926,-0.3235581,-0.35644412,-0.092772305,25.1875,25.6875,25.0,27.375,27.875,28.1875
0.2320536,-1.4729642,-1.8384877,-1.3206668,-0.00087684253,0.023186637,-0.099087425,-0.39372423,-0.3504626,0.059979916,-3.077047,0.6184209,-0.0001700351,-0.10801351,-0.014283502,-0.0010627122,0.028406132,-0.016557539,0.03886439,0.47107032,-1.4004487,1.9267029,-2.093612,-1.5729479,2.4422019,-0.0601059,0.22280271,-0.27482337,0.079506546,-0.018402401,-0.098759905,-0.076614454,0.2681506,-9.3661175,0.8873621,47.640312,-0.59546757,-1.8245006,-3.6045847,-0.31214717,-0.36066446,-0.08478092,25.1875,25.6875,25.0,27.375,27.875,28.1875
0.23405346,-1.025592,-1.9626255,-1.3999273,-0.013889472,0.02212681,-0.096876346,-0.3939126,-0.3505069,0.059940785,-3.0769947,0.6182384,-0.0003146465,-0.108400136,-0.014826646,-0.0025243906,0.029246282,-0.017273162,0.03677375,0.47098678,-1.3999424,1.9261678,-2.093457,-1.5729603,2.4420114,-0.059189957,0.22675529,-0.27573824,0.077493705,-0.018841578,-0.09574833,0.038307227,0.24899697,-9.3661175,0.8940802,47.67166,-0.79818356,-1.9632638,-3.6078203,-0.3174006,-0.38137117,-0.09649734,25.1875,25.6875,25.0,27.375,27.875,28.1875
0.23605345,-1.0573355,-2.226797,-1.2546871,-0.027145527,0.01907317,-0.102947146,-0.39413023,-0.3505093,0.059925877,-3.076884,0.61819774,-0.00036517007,-0.110998474,-0.015009093,-0.0016598479,0.028433146,-0.012838423,0.03255049,0.47084227,-1.399486,1.92563,-2.0932782,-1.5730327,2.441856,-0.06031315,0.22802141,-0.27868125,0.07485221,-0.020147948,-0.09263996,-0.019153614,0.2681506,-9.385271,0.8605109,47.686886,-0.79139006,-1.9725789,-3.609264,-0.30040562,-0.37656903,-0.13176833,25.1875,25.6875,25.0,27.375,27.875,28.1875
0.23805408,-0.5470757,-2.4944086,-1.5609034,-0.02179132,0.028841851,-0.100287266,-0.39435574,-0.35054064,0.059927925,-3.0768614,0.618117,-0.00038329515,-0.11336661,-0.016249212,-0.00071533397,0.026695801,-0.008078079,0.02959364,0.47071043,-1.3990412,1.9250749,-2.0931356,-1.5730566,2.4416769,-0.059818972,0.22984102,-0.2823272,0.07165388,-0.020772401,-0.089183785,-0.076614454,0.28730422,-9.346964,0.9254084,47.683304,-0.72503734,-1.9506202,-3.557023,-0.27897674,-0.39292693,-0.18093345,25.1875,25.6875,25.0,27.375,27.875,28.1875
0.2400533,-0.38814908,-2.2129056,-1.7358645,-0.029425008,0.018758336,-0.108698666,-0.3945873,-0.35059112,0.059928995,-3.0768626,0.61796516,-0.00035235967,-0.11531955,-0.017502913,-0.00026234792,0.024619782,-0.0046643843,0.026994785,0.47061452,-1.3985716,1.9245013,-2.0930293,-1.5730928,2.4414864,-0.059517846,0.23203383,-0.28529283,0.06844369,-0.020479513,-0.08628292,0.05746084,0.30645782,-9.461885,0.8403672,47.689575,-0.8214967,-1.9543133,-3.5331082,-0.24881119,-0.38968235,-0.2296367,25.1875,25.6875,25.0,27.375,27.875,28.1875
0.24205458,-0.6884358,-2.8926113,-1.727992,-0.035991617,0.01409566,-0.09954668,-0.39481834,-0.35059887,0.059903365,-3.0767536,0.6178848,-0.00035633595,-0.11680136,-0.017819649,-0.0005995594,0.024304144,-0.0028322272,0.024863845,0.47048253,-1.3980782,1.9239553,-2.0928986,-1.5731887,2.4413185,-0.059879765,0.23447324,-0.28687757,0.06580859,-0.021043006,-0.08450896,0.019153614,0.4405331,-9.500193,0.88960326,47.690468,-0.7980977,-2.08996,-3.6015954,-0.19178727,-0.3827058,-0.26791042,25.1875,25.6875,25.0,27.375,27.875,28.1875
0.24405468,-0.6620019,-3.028728,-1.8241994,-0.043835923,0.02035814,-0.0987796,-0.3950145,-0.3506557,0.05988489,-3.0767472,0.61770946,-0.00047050518,-0.11862411,-0.019041449,-0.00075814046,0.02354416,-0.0012872752,0.02484618,0.47039878,-1.3975966,1.9234008,-2.0927436,-1.5731767,2.4411263,-0.059311412,0.23853321,-0.29097828,0.06412873,-0.021085339,-0.083918594,0.0,0.6512229,-9.481039,0.900793,47.689575,-0.79044664,-2.1466765,-3.5315952,-0.17414972,-0.36910188,-0.31360948,25.1875,25.6875,25.0,27.375,27.875,28.1875
0.24605365,-0.6608554,-3.219448,-1.8679708,-0.043480992,0.018590994,-0.103564605,-0.3952755,-0.35069135,0.059901737,-3.076704,0.6176816,-0.00041527714,-0.12036399,-0.019278178,-0.00020597193,0.023094721,0.0009479621,0.024182765,0.4702665,-1.3971156,1.9227661,-2.0925882,-1.5732373,2.4409826,-0.05999828,0.2399379,-0.29380587,0.0633499,-0.021707285,-0.08393828,0.11492168,0.7086837,-9.615114,0.85155696,47.668976,-0.8440397,-2.1022344,-3.5219274,-0.13605702,-0.38490522,-0.32236984,25.1875,25.6875,25.0,27.375,27.875,28.1875
0.24805358,-0.76251495,-3.383325,-1.9393649,-0.06321413,0.024701562,-0.09987562,-0.39550334,-0.35072604,0.059878208,-3.0766578,0.6175783,-0.0004587842,-0.12191402,-0.019701969,0.00018219628,0.02276877,0.0024099464,0.021074453,0.4701464,-1.3966104,1.922203,-2.092468,-1.5732731,2.4408042,-0.06035003,0.24189076,-0.29704896,0.06319227,-0.022086127,-0.08117737,0.0,0.7469909,-9.768343,0.9030289,47.657326,-0.8767875,-2.0764496,-3.622136,-0.11612502,-0.3805958,-0.3956687,25.1875,25.6875,25.0,27.375,27.875,28.1875
0.25005347,-1.1865029,-3.6575625,-1.8988075,-0.06709646,0.025957987,-0.09687964,-0.3957638,-0.35075882,0.059898376,-3.0766265,0.6176078,-0.00038845796,-0.12200269,-0.019269872,-0.00015310745,0.02467431,0.00056417345,0.022314422,0.4700023,-1.3961535,1.9215935,-2.0923355,-1.5733217,2.440683,-0.06057457,0.24342386,-0.29878363,0.0658948,-0.022949748,-0.08263856,-0.11492168,0.8810662,-9.710882,0.8717007,47.653748,-0.8226821,-2.0730755,-3.672265,-0.107319966,-0.38118684,-0.42935598,25.1875,25.6875,25.0,27.375,27.875,28.1875
0.2520542,-1.0967598,-3.3781993,-1.9692218,-0.066034734,0.03437505,-0.10184603,-0.3960222,-0.3507984,0.059900757,-3.076584,0.61748356,-0.0003105528,-0.1226577,-0.019367345,0.00046383945,0.024324032,0.0026943334,0.021696284,0.4698943,-1.3956486,1.9209718,-2.0922167,-1.5734056,2.4405031,-0.06051919,0.24280484,-0.29939118,0.06505849,-0.023604931,-0.08196244,-0.15322891,0.68953013,-9.730036,0.9567419,47.653748,-0.8613719,-2.1084416,-3.794564,-0.09439109,-0.38916183,-0.45726448,25.1875,25.6875,25.0,27.375,27.875,28.1875
0.25405395,-1.340943,-3.2341893,-1.9358914,-0.061619066,0.036057316,-0.10095402,-0.39622715,-0.35084122,0.05987198,-3.0765595,0.61734205,-0.00041688269,-0.123471364,-0.01994933,0.0009644171,0.023314288,0.003947518,0.024203397,0.46978635,-1.3951565,1.9204324,-2.0920846,-1.5734056,2.4403102,-0.060382344,0.24340953,-0.30128744,0.06476548,-0.023290582,-0.08433127,-0.076614454,0.5554548,-9.672575,0.9455522,47.655537,-0.96482104,-1.9873165,-3.8126187,-0.0520219,-0.40378475,-0.49217725,25.1875,25.6875,25.0,27.375,27.875,28.1875
0.25605404,-1.6149256,-2.909151,-1.9638758,-0.042212196,0.030502679,-0.096037306,-0.39648622,-0.35089147,0.05987261,-3.076557,0.6172046,-0.0003901827,-0.124768004,-0.019612294,0.0016188655,0.022819983,0.0033167438,0.026530765,0.4696657,-1.3946397,1.9197997,-2.091964,-1.5734409,2.4401045,-0.06251377,0.24430397,-0.3045514,0.06745314,-0.022577636,-0.08879189,-0.095768064,0.40222588,-9.787497,0.8717007,47.645687,-0.84370285,-1.8353539,-3.795994,-0.049017362,-0.39073187,-0.48793155,25.1875,25.6875,25.0,27.375,27.875,28.1875
0.2580543,-0.9492712,-1.8087265,-1.9171358,-0.023959106,0.036335703,-0.10189974,-0.39676768,-0.35095078,0.059901558,-3.0765896,0.61712915,-0.0002971819,-0.12523216,-0.020928545,0.0005192528,0.024132371,0.0018102764,0.034599196,0.46953443,-1.3941455,1.9191288,-2.0918448,-1.5734657,2.4399223,-0.060260903,0.24960986,-0.30848092,0.067994624,-0.023083804,-0.09460457,-0.095768064,0.36391866,-9.691729,0.9321212,47.65912,-0.9592389,-1.8130069,-3.7821784,-0.039625585,-0.39343667,-0.44911492,25.1875,25.6875,25.0,27.375,27.875,28.1875
0.26005322,-1.0327706,-0.9603458,-1.9299068,0.0014892794,0.03188474,-0.10740316,-0.3970141,-0.35097256,0.05988165,-3.076509,0.6169935,-0.00026723408,-0.12654528,-0.020733412,0.0010916675,0.02433681,0.004431647,0.040180154,0.46941438,-1.3936287,1.9185427,-2.091725,-1.573562,2.4397283,-0.060827933,0.2497292,-0.30980197,0.06692659,-0.024478605,-0.100745454,-0.1340753,0.3256114,-9.787497,0.90527004,47.677036,-1.0462538,-1.8914249,-3.6979039,0.026285559,-0.37625712,-0.38858455,25.1875,25.6875,25.0,27.375,27.875,28.1875
0.26205385,-1.3137757,-1.1859235,-1.9297588,0.010980176,0.03897891,-0.10168853,-0.39727437,-0.35104734,0.059893608,-3.0765626,0.61684644,-0.0002537657,-0.1294138,-0.020791953,0.0023833602,0.0242318,0.0061805863,0.044818643,0.46930578,-1.393112,1.9178833,-2.0916045,-1.5735501,2.4395213,-0.06275674,0.25217834,-0.3162761,0.06932669,-0.025199315,-0.10730786,-0.05746084,0.114921674,-9.634268,0.8493211,47.647476,-1.0194522,-1.892952,-3.637628,0.04186544,-0.38284284,-0.33962065,25.1875,25.6875,25.0,27.375,27.875,28.1875
0.26405373,-1.4774876,-1.1041251,-1.7046863,0.011228034,0.03637656,-0.10269029,-0.39754915,-0.35107663,0.059905972,-3.0765426,0.61662674,-0.00013889684,-0.1299216,-0.02108565,0.0013322685,0.027203623,0.003086084,0.05092113,0.4691739,-1.3926172,1.9172486,-2.0914834,-1.5736464,2.4392552,-0.06184037,0.25736848,-0.32084864,0.072788686,-0.026464198,-0.112487435,-0.038307227,0.076614454,-9.595961,0.8717007,47.64479,-0.9757594,-2.1498423,-3.4196157,0.02260902,-0.37931943,-0.26262072,25.1875,25.6875,25.0,27.375,27.875,28.1875
0.2660536,-1.2685373,-0.7481979,-1.6438715,0.017115757,0.026128283,-0.11108665,-0.39780608,-0.35111436,0.059914995,-3.0765188,0.61650383,-0.000113727096,-0.12937598,-0.021000827,0.00063052995,0.02998486,-0.00031934967,0.05519877,0.46904248,-1.3921239,1.9166149,-2.0913265,-1.5736951,2.4390504,-0.060849078,0.2598502,-0.32320714,0.07694513,-0.027412444,-0.11576903,-0.114921674,0.05746084,-9.691729,0.84708,47.67614,-1.11448,-2.2176142,-3.459714,0.0068289097,-0.36562788,-0.21864903,25.1875,25.6875,25.0,27.375,27.875,28.1875
0.2680535,-1.4783078,-1.0089412,-1.6389736,0.022307578,0.026639787,-0.099329665,-0.39805079,-0.35117298,0.059907604,-3.076503,0.6162488,-0.00012476357,-0.12869251,-0.01965549,-0.00065384567,0.033962335,-0.005557123,0.057434697,0.46895808,-1.3915827,1.9159621,-2.091169,-1.5737437,2.4388092,-0.061782468,0.2622556,-0.32440823,0.08219765,-0.02859817,-0.11893246,-0.3256114,0.1340753,-9.481039,0.92093146,47.705692,-1.130052,-2.124308,-3.558868,-0.024247786,-0.34688056,-0.16277975,25.1875,25.6875,25.0,27.375,27.875,28.1875
0.2700534,-0.38171306,-0.5607757,-1.5803921,0.013831332,0.045872316,-0.11189747,-0.39832714,-0.35121766,0.059936695,-3.0765045,0.6161369,-7.900529e-05,-0.12761745,-0.017989224,-0.0016504561,0.03749781,-0.010659394,0.052002788,0.46881363,-1.3910898,1.9152769,-2.0909874,-1.5737795,2.438595,-0.06313434,0.26295003,-0.324264,0.08751579,-0.029425628,-0.11485029,-0.1340753,0.019153614,-9.519346,0.9231726,47.694946,-1.091624,-2.1637626,-3.6149182,-0.06235178,-0.32263982,-0.1718216,25.1875,25.6875,25.0,27.375,27.875,28.1875
0.27205357,-0.8967193,-0.9905209,-1.5083418,0.015143037,0.023476599,-0.0957145,-0.39859456,-0.35126305,0.059936363,-3.076498,0.6159234,-2.6829983e-05,-0.12694332,-0.017716158,-0.0012811472,0.03879763,-0.013682294,0.05077927,0.46869373,-1.3905615,1.9146308,-2.0908663,-1.5738395,2.438343,-0.06308921,0.2628014,-0.32628986,0.0929674,-0.02921189,-0.113582514,-0.076614454,-0.076614454,-9.519346,0.9030289,47.63315,-1.1394643,-2.004296,-3.780395,-0.15514182,-0.31426919,-0.1707402,25.1875,25.6875,25.0,27.375,27.875,28.1875
0.27405334,-0.74699974,-1.1645663,-1.0310112,0.007091882,0.023030346,-0.095506854,-0.3988402,-0.35130653,0.059925262,-3.076411,0.6157965,-6.602317e-05,-0.12806898,-0.017903814,-0.0012949172,0.039923582,-0.014109094,0.04340845,0.46859768,-1.3900081,1.9139608,-2.0906622,-1.573912,2.4381793,-0.063198484,0.26563537,-0.33015013,0.09489869,-0.030021561,-0.10631352,-0.34476504,-0.038307227,-9.289503,0.92093146,47.67345,-1.1346732,-2.0075448,-3.7223425,-0.17700958,-0.30092558,-0.24568906,25.1875,25.6875,25.0,27.375,27.875,28.1875
0.2760536,-0.62479895,-0.541817,-1.0781783,0.023111029,0.014959907,-0.102009006,-0.39910114,-0.35130644,0.05993287,-3.076345,0.61572546,-7.298545e-05,-0.12855007,-0.016892519,-7.802203e-05,0.042424783,-0.015086296,0.03950757,0.46840534,-1.3895397,1.91335,-2.0904682,-1.5739726,2.4379513,-0.06417561,0.26491922,-0.33357847,0.10104861,-0.03180899,-0.10338049,-0.1340753,-0.11492168,-9.308657,0.8560339,47.660015,-1.1442865,-1.959523,-3.6026664,-0.24186882,-0.2647925,-0.2935373,25.1875,25.6875,25.0,27.375,27.875,28.1875
0.27805373,-0.8833874,-0.49587595,-1.2324353,0.03723002,0.008581745,-0.09624772,-0.39935696,-0.35137528,0.059941303,-3.076325,0.6156076,-7.134558e-05,-0.13050273,-0.017678466,0.0012733383,0.040621925,-0.011851519,0.038299415,0.46832126,-1.3889989,1.9126552,-2.0902889,-1.5740083,2.4377966,-0.06457026,0.2654795,-0.33733526,0.10054088,-0.031672984,-0.10256527,-0.038307227,-0.11492168,-9.270349,0.9768804,47.674347,-1.1251305,-1.8222514,-3.5683784,-0.28635305,-0.25015706,-0.32062328,25.1875,25.6875,25.0,27.375,27.875,28.1875
0.2800537,-0.8747921,-0.5734215,-1.4223286,0.031619743,0.010402804,-0.09343056,-0.39962098,-0.35138252,0.059943635,-3.076208,0.61540914,-7.619341e-05,-0.13287383,-0.01826571,0.0032900416,0.037904155,-0.007760193,0.037318442,0.4681767,-1.3884708,1.9119734,-2.090038,-1.5741285,2.4375434,-0.06592675,0.26486936,-0.34126216,0.10018041,-0.031118482,-0.102938816,-0.13407528,0.0,-9.232041,0.9097417,47.687782,-1.05972,-1.6572206,-3.556221,-0.28510883,-0.24776988,-0.33449772,25.1875,25.6875,25.0,27.375,27.875,28.1875
0.28205377,-1.238482,-1.3219081,-1.2565178,0.019628562,0.017280117,-0.09379339,-0.3998886,-0.35142493,0.05995746,-3.076182,0.6152718,-6.316816e-05,-0.13486949,-0.018978275,0.003412542,0.03647881,-0.0049894364,0.036420006,0.46804458,-1.3879535,1.911291,-2.0898473,-1.5741767,2.4373293,-0.066390686,0.2673004,-0.3438564,0.09722046,-0.031113615,-0.10250199,-0.30645782,0.15322891,-9.232041,0.9410752,47.67614,-1.1293874,-1.5422443,-3.484958,-0.28937203,-0.23572654,-0.3519518,25.1875,25.6875,25.0,27.375,27.875,28.1875
0.2840537,-1.7154086,-1.6717767,-1.6184571,-0.01847074,0.042332087,-0.09978889,-0.40014064,-0.35145685,0.059948638,-3.0761108,0.6151205,-0.00017450396,-0.13612887,-0.01882178,0.0012209719,0.03776488,-0.0061243507,0.034790613,0.4679003,-1.3873992,1.9106029,-2.089597,-1.5742124,2.4371,-0.067292616,0.2729445,-0.34496593,0.09427592,-0.031771787,-0.10176662,-0.40222588,0.22984336,-9.308656,0.900793,47.650166,-1.0538073,-1.7323921,-3.431547,-0.27605945,-0.19811875,-0.37284094,25.1875,25.6875,25.0,27.375,27.875,28.1875
0.28605357,-2.0128977,-2.5579832,-1.4546638,-0.05438844,0.08024875,-0.10604956,-0.4004369,-0.351503,0.05998212,-3.0760763,0.6150343,-3.5072117e-05,-0.13836803,-0.019209707,0.0013696337,0.03660794,-0.0029918386,0.037974276,0.46778002,-1.3868816,1.9098805,-2.089431,-1.5743088,2.4369307,-0.0682706,0.27522075,-0.34738854,0.09107758,-0.03217508,-0.10592634,-0.24899697,0.28730422,-9.442732,0.86945957,47.660015,-1.0555534,-1.8975391,-3.557199,-0.24047108,-0.1874508,-0.37136698,25.1875,25.6875,25.0,27.375,27.875,28.1875
0.28805336,-2.7118967,-3.5992281,-1.5007778,-0.066665344,0.08990485,-0.09015446,-0.40070385,-0.35151613,0.059965584,-3.0759726,0.6148785,-2.9932178e-05,-0.13945389,-0.019108178,0.0010151658,0.035896067,-0.0010712666,0.037379168,0.46763572,-1.3863293,1.9092282,-2.0892522,-1.5744165,2.4367027,-0.0691752,0.27618515,-0.34711155,0.08778487,-0.032424532,-0.106232144,-0.30645782,0.3256114,-9.500193,0.9612189,47.65464,-1.0858753,-1.8065989,-3.714114,-0.20098321,-0.17144059,-0.3803149,25.1875,25.6875,25.0,27.375,27.875,28.1875
0.29005364,-2.8016365,-3.7283766,-1.3666208,-0.072373286,0.09234195,-0.09616892,-0.4010037,-0.3515702,0.059986964,-3.0759473,0.61477405,2.7942884e-05,-0.14125597,-0.01937549,0.0011110095,0.034507867,0.0015808746,0.044448316,0.46750346,-1.3857638,1.908471,-2.089062,-1.5744766,2.436509,-0.07022788,0.27771834,-0.3485794,0.08468509,-0.032417074,-0.11435328,-0.5363012,0.5554548,-9.481039,0.90750587,47.64837,-0.8568965,-1.7683282,-3.84546,-0.17160687,-0.15235436,-0.32780343,25.1875,25.6875,25.0,27.375,27.875,28.1875
0.29205367,-2.1501951,-2.822336,-1.3735716,-0.07823725,0.094533846,-0.10032637,-0.401299,-0.35160375,0.06000095,-3.0759223,0.61461085,9.350462e-05,-0.14314835,-0.020479789,0.0018876091,0.03232063,0.005113588,0.048275188,0.46734738,-1.385223,1.9077648,-2.088895,-1.5745486,2.4362545,-0.07011572,0.27907646,-0.35150138,0.08208103,-0.032081757,-0.11806809,-0.4405331,0.51714754,-9.519346,0.947788,47.651955,-1.0215207,-1.7446482,-3.9400005,-0.12519422,-0.15250076,-0.27129406,25.1875,25.6875,25.0,27.375,27.875,28.1875
0.29405347,-1.8187393,-2.6986325,-1.5891058,-0.05316291,0.0633439,-0.09782444,-0.40157664,-0.35163692,0.05998648,-3.07589,0.6144494,8.406761e-05,-0.14568086,-0.02098702,0.002333305,0.03061936,0.0073286425,0.052680288,0.46719107,-1.3846574,1.9070991,-2.088752,-1.5745963,2.4360018,-0.071688466,0.28181028,-0.35556006,0.08062644,-0.031597268,-0.12404488,-0.38307226,0.59376204,-9.461885,1.0238806,47.66987,-0.96946365,-1.7695799,-3.7418795,-0.076371014,-0.13083765,-0.21830061,25.1875,25.6875,25.0,27.375,27.875,28.1875
0.29605362,-1.3760422,-2.3278434,-1.4631777,-0.036848083,0.03471409,-0.09209062,-0.40190756,-0.35169622,0.060020998,-3.0759335,0.6143405,0.00024507788,-0.14893994,-0.020878347,0.0030256703,0.029440295,0.009986127,0.05420088,0.4670339,-1.3841044,1.9063443,-2.0886447,-1.5746449,2.4357715,-0.074543305,0.2845911,-0.3603513,0.07970566,-0.031755734,-0.12842044,-0.45968673,0.59376204,-9.32781,0.900793,47.64389,-0.718239,-1.7391427,-3.6452303,-0.03480031,-0.10026592,-0.13862157,25.1875,25.6875,25.0,27.375,27.875,28.1875
0.2980538,-0.4662075,-2.084551,-1.4454982,-0.023239655,0.022984376,-0.101278566,-0.40216234,-0.3517549,0.059996538,-3.075929,0.61404896,0.00017715788,-0.14918041,-0.022553094,0.00385262,0.027352536,0.011029284,0.05702125,0.46692654,-1.3835152,1.90567,-2.0884883,-1.5746683,2.435483,-0.07266748,0.28506494,-0.36302698,0.08002125,-0.030378623,-0.12936813,-0.4213795,0.61291564,-9.270349,0.91421866,47.66987,-0.8646936,-1.7578995,-3.588921,0.004987251,-0.11469568,-0.090350874,25.1875,25.6875,25.0,27.375,27.875,28.1875
0.3000537,-0.30886948,-1.9611211,-1.7375536,-0.023944385,0.022929603,-0.09821544,-0.40248126,-0.35179275,0.06001778,-3.0759048,0.6139508,0.00026843196,-0.14999987,-0.0215383,0.0029071448,0.027929408,0.008153131,0.051658534,0.46675763,-1.3829501,1.9049171,-2.0883205,-1.5747398,2.4352562,-0.07553971,0.28762,-0.36440563,0.08166606,-0.029589236,-0.1268813,-0.40222588,0.51714754,-9.385271,0.900793,47.66091,-0.85029495,-1.7414933,-3.683642,0.022052074,-0.10744259,-0.07578146,25.1875,25.6875,25.0,27.375,27.875,28.1875
0.3020533,-0.5416001,-1.7330447,-1.3865305,-0.04410493,0.029350217,-0.1023597,-0.40278047,-0.35182145,0.060016125,-3.0758421,0.61376816,0.0003434837,-0.14996926,-0.020838907,0.0022882544,0.0291971,0.003536323,0.046067823,0.46661294,-1.3823724,1.9042038,-2.0881631,-1.5748476,2.435006,-0.077240124,0.28984848,-0.36689433,0.086614855,-0.028630327,-0.12299417,-0.28730422,0.30645782,-9.442732,0.90750587,47.670765,-0.70413756,-1.745397,-3.737732,0.020194853,-0.1104511,-0.111945905,25.1875,25.6875,25.0,27.375,27.875,28.1875
0.30405405,-0.90295744,-1.897396,-1.2373271,-0.039440583,0.031093806,-0.098194316,-0.4030797,-0.35188794,0.060025208,-3.0758278,0.6136354,0.0003194734,-0.15062207,-0.021264758,0.0030823126,0.028605493,0.0032116717,0.040763073,0.46648094,-1.3817593,1.9034103,-2.0879467,-1.5748714,2.4347932,-0.077426106,0.29047108,-0.37022075,0.089355044,-0.02794719,-0.117876604,-0.24899697,0.24899697,-9.3661175,0.9186956,47.666286,-0.645088,-1.8092408,-3.6271493,0.019409936,-0.10774108,-0.1649265,25.1875,25.6875,25.0,27.375,27.875,28.1875
0.30605412,-1.2154458,-1.3297069,-0.8510554,-0.030232543,0.034404196,-0.095451854,-0.40342784,-0.35192943,0.060047403,-3.0758157,0.61353904,0.00046512877,-0.14894937,-0.02045613,0.0020864576,0.031240942,-0.0047856113,0.035553653,0.46630076,-1.381159,1.9026202,-2.0878117,-1.5749549,2.4345548,-0.07806273,0.29230964,-0.3721897,0.09781405,-0.026672225,-0.11331113,-0.30645782,0.21068975,-9.097966,0.92764956,47.651955,-0.6610721,-1.5671935,-3.697454,-0.0348934,-0.11674169,-0.202402,25.1875,25.6875,25.0,27.375,27.875,28.1875
0.3080542,-0.47368896,-0.4273346,-1.0592246,0.007521696,0.038959984,-0.10068845,-0.40369627,-0.35197592,0.060034215,-3.075783,0.61336124,0.00041668082,-0.14895703,-0.02069313,0.0008654657,0.03179294,-0.009778621,0.031649284,0.4661686,-1.3805805,1.9019259,-2.087631,-1.5749902,2.4343162,-0.078687094,0.29657945,-0.37544945,0.10151272,-0.024919521,-0.110036016,-0.2873042,0.114921674,-9.155427,0.9365982,47.64927,-0.6375314,-1.66499,-3.6634202,-0.08971134,-0.11979368,-0.2860906,25.1875,25.6875,25.0,27.375,27.875,28.1875
0.31005427,-0.64037514,0.030568851,-0.98502874,0.032772027,0.017298318,-0.100230694,-0.4039956,-0.3520222,0.060037922,-3.075717,0.6132493,0.0003901769,-0.1487984,-0.021241527,0.00030636147,0.032451134,-0.014060027,0.030590504,0.4660246,-1.3799666,1.9011372,-2.0873902,-1.5750498,2.434111,-0.07836083,0.29994023,-0.3793721,0.10618644,-0.023587741,-0.10865417,-0.095768064,-0.095768064,-9.193734,0.9321212,47.63404,-0.60016906,-1.8615502,-3.593584,-0.14058048,-0.1451283,-0.29936004,25.1875,25.6875,25.0,27.375,27.875,28.1875
0.31205407,-0.21766019,0.36388826,-0.57590127,0.03205095,0.02151615,-0.095424406,-0.4042894,-0.35208467,0.06002744,-3.075722,0.61317486,0.00033574452,-0.1488788,-0.02135411,-0.00045984794,0.033645123,-0.017204959,0.027859753,0.4658687,-1.3793528,1.9003996,-2.0872338,-1.5750378,2.4339085,-0.07837295,0.303051,-0.3821619,0.109220035,-0.02324016,-0.10593539,-0.24899697,-0.15322891,-9.021352,0.90527004,47.62688,-0.6432402,-1.8925629,-3.6052802,-0.1916512,-0.15006427,-0.36653265,25.1875,25.6875,25.0,27.375,27.875,28.1875
0.3140544,-0.05155878,0.52969974,-0.62818354,0.04216434,0.013938276,-0.10245464,-0.40458834,-0.3521168,0.06000832,-3.0756419,0.61304414,0.00027495925,-0.14964487,-0.022312798,0.0002586719,0.03339044,-0.016407907,0.027046788,0.46570128,-1.3787158,1.8996404,-2.0870178,-1.5750979,2.43367,-0.07721877,0.30438483,-0.385912,0.11080901,-0.023383787,-0.10396423,-0.076614454,-0.19153614,-8.944737,0.95897776,47.6421,-0.822178,-2.0788097,-3.5370224,-0.19206901,-0.16747455,-0.4365698,25.1875,25.6875,25.0,27.375,27.875,28.1875
0.3160542,0.08966781,0.20727219,-0.6010625,0.035474118,0.024108788,-0.10995451,-0.4049099,-0.3521482,0.06001696,-3.075561,0.6130287,0.00028740254,-0.15156282,-0.021692552,0.00038495418,0.033763878,-0.015978923,0.024837397,0.46552038,-1.3781031,1.8988441,-2.0867903,-1.5751694,2.4334903,-0.079518594,0.3065082,-0.38906267,0.11161083,-0.023925323,-0.104049966,-0.019153614,-0.19153613,-8.90643,0.8918391,47.64927,-0.60503614,-1.8862063,-3.4813077,-0.23675811,-0.15606841,-0.49153095,25.1875,25.6875,25.0,27.375,27.875,28.1875
0.31805363,-0.30033943,-0.54073536,-0.5251927,0.012664178,0.031759672,-0.096936345,-0.40522122,-0.3522136,0.06003466,-3.0755448,0.6129443,0.00028090607,-0.1522241,-0.023726348,0.0015246087,0.032873496,-0.0122602945,0.03117774,0.46537772,-1.3774898,1.8980259,-2.0865629,-1.5751942,2.4332974,-0.07596067,0.30716857,-0.3923629,0.11051304,-0.024823911,-0.10682647,-0.05746084,0.0,-8.887277,0.95897776,47.660015,-0.83910394,-1.924166,-3.4978323,-0.20706984,-0.15543878,-0.5011029,25.1875,25.6875,25.0,27.375,27.875,28.1875
0.32005367,-0.8711473,-1.6110145,-0.72794014,-0.008434838,0.029216152,-0.10172994,-0.4054951,-0.35224175,0.06001285,-3.0754354,0.61274564,0.00016769541,-0.15365951,-0.023837928,0.0014255132,0.03258078,-0.010140411,0.036370166,0.4652335,-1.3768649,1.8972734,-2.0862892,-1.5752667,2.4330435,-0.076478705,0.3087904,-0.39370644,0.10817444,-0.02556069,-0.112529226,-0.076614454,0.1340753,-8.925584,0.9545008,47.64389,-0.9332842,-1.833137,-3.3928394,-0.21817365,-0.14608641,-0.4656162,25.1875,25.6875,25.0,27.375,27.875,28.1875
0.32205406,-1.0289476,-2.405973,-0.815916,-0.039703734,0.046882473,-0.09481881,-0.4057857,-0.35227528,0.05998755,-3.0753434,0.6125876,7.227493e-05,-0.15678571,-0.023513867,0.0024093664,0.030201925,-0.0053479318,0.043980006,0.4650764,-1.3762162,1.8965081,-2.0860507,-1.5753268,2.4327998,-0.07959898,0.3092257,-0.39580673,0.104429245,-0.025652777,-0.12325517,-0.076614454,0.17238252,-9.021352,0.9545008,47.64927,-0.68243873,-1.7440629,-3.471334,-0.18068454,-0.15667114,-0.3708964,25.1875,25.6875,25.0,27.375,27.875,28.1875
0.32405382,-1.1997349,-2.7376306,-1.0529876,-0.04687022,0.047604807,-0.089027956,-0.40610456,-0.35231733,0.05999471,-3.0753095,0.61243737,9.4665455e-05,-0.15766716,-0.025619349,0.0029377104,0.028750876,-0.0015079576,0.053582933,0.46490964,-1.3756028,1.8957185,-2.085848,-1.5753869,2.432544,-0.07637417,0.31081718,-0.3983613,0.10126984,-0.026119478,-0.12962924,-0.05746084,0.28730422,-9.136273,0.95897776,47.647476,-0.926682,-1.6304357,-3.482891,-0.150864,-0.1527428,-0.32560316,25.1875,25.6875,25.0,27.375,27.875,28.1875
0.32605374,-1.0497165,-2.9947839,-1.0225164,-0.06381,0.05508915,-0.097775474,-0.40642923,-0.3523455,0.05998879,-3.0752487,0.61224914,0.000109356486,-0.15894972,-0.025318462,0.0017913426,0.02837676,-0.0010223521,0.058883548,0.4647291,-1.3749653,1.8949298,-2.085646,-1.5754708,2.432254,-0.07795097,0.31355333,-0.39843693,0.09795924,-0.026044747,-0.13650554,-0.15322891,0.49799395,-9.212888,0.9186956,47.651955,-0.856083,-1.630604,-3.6845992,-0.105928436,-0.15903063,-0.2234633,25.1875,25.6875,25.0,27.375,27.875,28.1875
0.3280536,-1.0141951,-2.8469691,-1.1268458,-0.0667615,0.05728382,-0.10111013,-0.4067315,-0.35241944,0.059982758,-3.0752406,0.61207455,7.925806e-05,-0.15989952,-0.025408205,0.0010568475,0.028226541,-0.0019496024,0.061756376,0.46460882,-1.3743157,1.8941287,-2.0854542,-1.5754942,2.4320261,-0.07886587,0.31649593,-0.40039334,0.09770862,-0.025520934,-0.1402942,-0.15322891,0.5363012,-9.270349,0.9254084,47.639416,-0.8217273,-1.7491524,-3.729017,-0.053066462,-0.16742992,-0.18441568,25.1875,25.6875,25.0,27.375,27.875,28.1875
0.33005363,-0.8197407,-2.5397456,-1.2412343,-0.056923974,0.044926777,-0.0949957,-0.40703368,-0.3524749,0.05996605,-3.0752094,0.6118373,1.1419798e-05,-0.16169725,-0.026690802,0.002477452,0.026614003,0.0009462085,0.062374648,0.46446505,-1.3736544,1.8933324,-2.0852387,-1.5755304,2.4317386,-0.078214295,0.31767035,-0.40531558,0.098136395,-0.025399458,-0.1402579,-0.15322891,0.6512228,-9.289502,0.97464454,47.63315,-0.83260536,-1.8593686,-3.7137513,-0.04798889,-0.15228882,-0.15400258,25.1875,25.6875,25.0,27.375,27.875,28.1875
0.33205354,-0.7940176,-2.5390432,-1.4750954,-0.044414923,0.031723775,-0.08573878,-0.4073602,-0.3525127,0.059973523,-3.0751872,0.61166227,4.5702356e-05,-0.16237992,-0.026809936,0.0012084652,0.027305562,-0.0013772957,0.057485383,0.46428487,-1.3730409,1.8925427,-2.0850465,-1.57559,2.4314523,-0.078771695,0.32185873,-0.40772364,0.098750316,-0.024969228,-0.13592671,-0.19153613,0.47884035,-9.346964,1.005978,47.63225,-0.86659217,-1.8503461,-3.6448932,-0.029880244,-0.16129811,-0.15393066,25.1875,25.6875,25.0,27.375,27.875,28.1875
0.33405328,-0.30694768,-2.1746426,-1.5028119,-0.04528909,0.029544184,-0.09086278,-0.40768033,-0.35257676,0.059960466,-3.075169,0.6114318,7.5072326e-06,-0.164083,-0.027479742,0.0016794,0.026657326,0.0006450008,0.05080192,0.464141,-1.3723551,1.8917111,-2.0848439,-1.5756267,2.4311671,-0.07880835,0.32395044,-0.41137242,0.098234534,-0.025288416,-0.12927538,-0.19153613,0.5554548,-9.32781,0.9545008,47.647476,-0.85727143,-1.8678515,-3.654585,0.013898639,-0.17265001,-0.21219237,25.1875,25.6875,25.0,27.375,27.875,28.1875
0.33605438,-0.18002675,-2.0692937,-1.6436889,-0.045544885,0.028586863,-0.091042295,-0.40800095,-0.3526209,0.05994755,-3.0750933,0.611361,8.455552e-06,-0.16522358,-0.027617022,0.001833446,0.02774679,0.0008637481,0.04654885,0.4639848,-1.3716937,1.89091,-2.0846512,-1.5756987,2.4309769,-0.078803144,0.32622698,-0.41499752,0.09988734,-0.026356867,-0.12500885,-0.28730422,0.63206923,-9.404425,0.8717007,47.653748,-0.8895327,-1.9631345,-3.5555634,0.02620361,-0.17314318,-0.280437,25.1875,25.6875,25.0,27.375,27.875,28.1875
0.33805338,-0.45576814,-2.5184,-1.5237069,-0.04237069,0.03946513,-0.080717646,-0.40834525,-0.35267434,0.05994637,-3.0750623,0.6111815,2.5570569e-05,-0.16330403,-0.026727496,-0.00023162823,0.03197804,-0.005745292,0.04522634,0.46381718,-1.3710084,1.8900508,-2.0844467,-1.5757593,2.4307015,-0.07807223,0.32889637,-0.4147766,0.104802534,-0.027170304,-0.12295079,-0.28730422,0.5554548,-9.385271,0.9321212,47.66271,-0.9588796,-2.0266547,-3.6527147,0.012602784,-0.17971596,-0.3172703,25.1875,25.6875,25.0,27.375,27.875,28.1875
0.34005356,-0.6528749,-2.143427,-1.5873241,-0.05202206,0.031800985,-0.088010184,-0.40868327,-0.35274744,0.059959143,-3.075076,0.61099154,6.270362e-05,-0.16188906,-0.026039047,-0.0006933781,0.03384443,-0.01092742,0.045334864,0.46367306,-1.3703475,1.8891906,-2.0842526,-1.5757946,2.4304373,-0.078348726,0.3291152,-0.41552958,0.11079409,-0.026513364,-0.12334014,-0.13407528,0.40222588,-9.461885,0.97464454,47.651955,-0.9949093,-1.9394027,-3.8766894,-0.04818407,-0.17853683,-0.34564912,25.1875,25.6875,25.0,27.375,27.875,28.1875
0.3420534,-0.33698532,-1.9634011,-1.3653362,-0.037249796,0.027642552,-0.089705355,-0.40899184,-0.35278296,0.059932675,-3.0749733,0.61087453,-3.8638176e-05,-0.16018826,-0.025832744,-0.0013211803,0.03716639,-0.017937003,0.043142896,0.46350557,-1.369662,1.8883766,-2.083998,-1.5758547,2.4302104,-0.07725837,0.3311701,-0.4187594,0.11972901,-0.026343696,-0.12005505,-0.05746084,0.3256114,-9.461885,0.9567419,47.64837,-1.0222656,-1.9900601,-3.9027507,-0.117386565,-0.20126551,-0.40585113,25.1875,25.6875,25.0,27.375,27.875,28.1875
0.3440535,0.51398385,-0.7434005,-1.5439628,-0.022924453,0.022497678,-0.09477625,-0.40932745,-0.3528607,0.059929963,-3.0749714,0.61068195,-3.2293854e-05,-0.16283283,-0.025145376,6.7667555e-05,0.035418514,-0.016534427,0.043250244,0.46337202,-1.3689649,1.8875083,-2.0838068,-1.5758904,2.4299572,-0.08117197,0.3315369,-0.42297485,0.1215101,-0.025435174,-0.12407954,-0.095768064,0.28730422,-9.385271,1.0261165,47.66091,-0.88354504,-1.9517348,-3.8531907,-0.15637346,-0.20556009,-0.39434034,25.1875,25.6875,25.0,27.375,27.875,28.1875
0.346054,0.43474352,-0.22429806,-1.5106612,0.010610983,0.009204421,-0.094545476,-0.40968102,-0.3528897,0.059951946,-3.0749092,0.61058736,1.4900353e-05,-0.16154021,-0.027246641,-0.0004902238,0.037423495,-0.021421082,0.050567113,0.46316975,-1.3683277,1.8866409,-2.0835526,-1.5759739,2.4297042,-0.07661159,0.33605844,-0.42874736,0.1279977,-0.025063468,-0.12683563,-0.038307227,0.17238252,-9.557653,0.95897776,47.658226,-1.0842408,-2.0047827,-3.6383357,-0.2338337,-0.22432792,-0.4126457,25.1875,25.6875,25.0,27.375,27.875,28.1875
0.3480539,0.36796954,-0.14311323,-1.4614788,0.015321536,0.019760951,-0.0999234,-0.40996882,-0.35294327,0.059911937,-3.0748055,0.61038995,-0.00017982161,-0.16395494,-0.026480563,-0.00032878103,0.037856746,-0.020898452,0.05440283,0.46303692,-1.3676057,1.8858026,-2.0832531,-1.5760106,2.4294617,-0.079482384,0.33871946,-0.4327393,0.1290139,-0.025747474,-0.13353251,0.095768064,0.038307227,-9.5385,1.0149267,47.667187,-1.1538001,-2.025243,-3.5319848,-0.27179614,-0.23780732,-0.3415318,25.1875,25.6875,25.0,27.375,27.875,28.1875
0.35005352,0.046639077,-0.45555812,-1.3170615,0.00684825,0.03601304,-0.09459637,-0.4103405,-0.35300234,0.059923317,-3.0747814,0.6101895,-0.0001607001,-0.16554223,-0.026116826,-0.0012671329,0.037647493,-0.021383315,0.060676403,0.46285602,-1.3668838,1.884858,-2.0830028,-1.5760702,2.4291592,-0.08157095,0.34210408,-0.4345904,0.12776254,-0.025396686,-0.14189537,0.038307227,-0.038307227,-9.404425,0.90750587,47.653748,-0.880472,-2.098774,-3.5254068,-0.27375928,-0.2551535,-0.24078399,25.1875,25.6875,25.0,27.375,27.875,28.1875
0.35205337,-0.19195601,-0.50555414,-1.5211033,-0.0027019007,0.04260329,-0.09720897,-0.41064894,-0.35305727,0.05992728,-3.0747695,0.60993314,-0.00022839165,-0.16516241,-0.026897348,-0.0023576457,0.037871383,-0.021860568,0.06837157,0.4627006,-1.3662462,1.8840278,-2.0827396,-1.5760945,2.4288454,-0.07980902,0.3442076,-0.43441927,0.12597609,-0.025429282,-0.14782685,-0.019153614,0.05746084,-9.404425,0.9455522,47.634937,-1.1138748,-2.3741689,-3.698049,-0.2740819,-0.2808473,-0.1621508,25.1875,25.6875,25.0,27.375,27.875,28.1875
0.35405344,-0.7712752,-1.5862265,-1.6260386,-0.02791783,0.06468443,-0.0875126,-0.41097194,-0.3531215,0.059923504,-3.0747497,0.6096797,-0.0002794232,-0.16773005,-0.026967628,-0.0030309167,0.0365295,-0.016469188,0.06787381,0.46255633,-1.3655615,1.8831619,-2.0824916,-1.5761312,2.4285457,-0.08102551,0.346509,-0.4340315,0.11785528,-0.026670812,-0.14853631,0.0,0.22984336,-9.615114,0.9567419,47.66271,-1.0045707,-2.2124672,-3.830481,-0.21568754,-0.26825488,-0.09946534,25.1875,25.6875,25.0,27.375,27.875,28.1875
0.356054,-1.3240132,-2.300979,-1.5125421,-0.04093624,0.06741925,-0.08932082,-0.41131806,-0.3531745,0.059928086,-3.0747023,0.6095546,-0.00027524884,-0.17077762,-0.027444772,-0.002225066,0.035679452,-0.012271065,0.06625361,0.46238786,-1.3648754,1.8822769,-2.0822523,-1.5761913,2.4283056,-0.08201355,0.34912896,-0.4387597,0.11582178,-0.027806353,-0.14789453,0.019153614,0.038307227,-9.557653,0.97464454,47.68062,-0.996865,-2.2367775,-3.8753672,-0.17436936,-0.25236085,-0.092824474,25.1875,25.6875,25.0,27.375,27.875,28.1875
0.35805374,-0.69268996,-2.4821665,-1.6008804,-0.044593208,0.06915916,-0.08487021,-0.41167673,-0.35322535,0.05993446,-3.0746644,0.6093383,-0.00022730889,-0.17500338,-0.029152198,0.001104126,0.03041279,-0.0018168722,0.06019218,0.46221995,-1.3641793,1.8813785,-2.0820267,-1.5762752,2.4280078,-0.08263513,0.3478534,-0.4438398,0.11048505,-0.027761567,-0.14245269,-0.15322891,0.15322891,-9.595961,1.0328293,47.68599,-1.0216184,-2.1132786,-3.7218118,-0.10350553,-0.27099767,-0.14038527,25.1875,25.6875,25.0,27.375,27.875,28.1875
0.36005387,-0.45093715,-1.9031854,-1.5459826,-0.045597922,0.06739902,-0.09631321,-0.41199282,-0.3532877,0.05992162,-3.0746336,0.609201,-0.00031733004,-0.17704844,-0.029894534,0.003088537,0.027605029,0.0029828758,0.05350826,0.4620637,-1.3634951,1.8805345,-2.0817878,-1.5762872,2.4277701,-0.08325043,0.3466649,-0.44686,0.10917236,-0.027383754,-0.13638355,-0.30645782,0.2681506,-9.557653,0.9768804,47.67345,-0.9919357,-1.888277,-3.6564717,-0.069509886,-0.30196097,-0.2067034,25.1875,25.6875,25.0,27.375,27.875,28.1875
0.36205378,-0.34478897,-1.1771331,-2.1260064,-0.023101043,0.04591676,-0.1001654,-0.41234997,-0.35333478,0.05992276,-3.0745842,0.60900086,-0.00031628716,-0.17780206,-0.030110778,0.003146749,0.027922401,0.0034637498,0.04872533,0.46188372,-1.3627862,1.8796262,-2.0815365,-1.5763592,2.4274719,-0.08311548,0.34809527,-0.44903293,0.10964112,-0.027872052,-0.13146076,-0.38307226,0.34476504,-9.691729,0.9567419,47.66091,-1.0116999,-1.8338792,-3.7136664,-0.031516068,-0.3281628,-0.27400288,25.1875,25.6875,25.0,27.375,27.875,28.1875
0.36405388,-0.5734301,-1.2798449,-2.2123904,-0.02324478,0.053982794,-0.09926282,-0.4126999,-0.3533805,0.05993998,-3.0745308,0.60885674,-0.00026926282,-0.17768946,-0.029148947,0.0016581329,0.029950159,0.00076239224,0.045122325,0.46171546,-1.3621246,1.8787373,-2.0812848,-1.5764436,2.4272208,-0.08417749,0.35036486,-0.44874045,0.11040228,-0.028474752,-0.12891568,-0.32561144,0.3256114,-9.787497,0.9768804,47.66091,-1.008117,-1.8771099,-3.8969655,-0.015888397,-0.3208418,-0.31468514,25.1875,25.6875,25.0,27.375,27.875,28.1875
0.36605376,-1.3546606,-1.8808482,-1.9406477,-0.034946296,0.05795189,-0.095199555,-0.41303948,-0.35346115,0.05993974,-3.0745332,0.608687,-0.00030547671,-0.17778067,-0.028561015,0.00045526304,0.03176994,-0.0027786777,0.0406446,0.4615711,-1.361415,1.8778352,-2.0810564,-1.576456,2.4269705,-0.085130475,0.35343766,-0.45052168,0.1131067,-0.02851474,-0.12538917,-0.51714754,0.4405331,-9.844957,1.0350704,47.66987,-1.0144091,-1.8312078,-3.9324274,-0.02767629,-0.32223395,-0.37178993,25.1875,25.6875,25.0,27.375,27.875,28.1875
0.3680538,-1.2813036,-1.842685,-1.9523839,-0.054258935,0.082889296,-0.09933192,-0.41338113,-0.35351226,0.05991877,-3.074453,0.6084608,-0.0003145838,-0.17700137,-0.02698757,-0.0029828202,0.03656872,-0.012383564,0.036133803,0.46142638,-1.3606799,1.8769492,-2.080827,-1.5765518,2.426695,-0.08703632,0.36023936,-0.45240006,0.11891979,-0.028525768,-0.12278109,-0.6703764,0.4213795,-9.9790325,1.0641627,47.66987,-0.72408146,-2.1723192,-4.1095357,-0.05464176,-0.3350672,-0.44328398,25.1875,25.6875,25.0,27.375,27.875,28.1875
0.37005386,-1.6752825,-2.6268988,-2.1253588,-0.043812726,0.09099861,-0.097487755,-0.41374314,-0.35355166,0.059924353,-3.074388,0.60840845,-0.0003168394,-0.17642777,-0.027113957,-0.0016019057,0.038484182,-0.015101795,0.036751837,0.46122286,-1.3599851,1.8760451,-2.0805724,-1.5766119,2.4264677,-0.08590918,0.35975954,-0.45707536,0.12735373,-0.029030567,-0.12226698,-0.47884035,0.40222588,-10.036493,1.0104496,47.664497,-0.9138069,-2.1168828,-3.9963393,-0.118317604,-0.35233745,-0.48324198,25.1875,25.6875,25.0,27.375,27.875,28.1875
0.37205476,-1.7480416,-2.6414843,-1.3690288,-0.054555234,0.099465065,-0.09639568,-0.4140928,-0.35360917,0.059951443,-3.0743504,0.60826373,-0.00033175878,-0.17845184,-0.025451098,-0.0013033749,0.041064106,-0.018036664,0.03946475,0.46105337,-1.3593128,1.8751053,-2.0802586,-1.57666,2.426213,-0.08969126,0.36275125,-0.46306655,0.1340844,-0.030075056,-0.12875251,-0.38307226,0.30645782,-9.80665,1.0373062,47.664497,-0.8381458,-2.0955377,-3.83618,-0.20940077,-0.36526948,-0.48224205,25.1875,25.6875,25.0,27.375,27.875,28.1875
0.37405372,-1.1359031,-1.1134418,-1.592407,-0.021654854,0.06871287,-0.09822946,-0.41449472,-0.35366428,0.05995533,-3.0743227,0.60815513,-0.00025102156,-0.17814708,-0.026734559,0.00034498138,0.041208435,-0.016855417,0.05023421,0.4608507,-1.3585576,1.8741454,-2.0800664,-1.5767325,2.4259465,-0.086708464,0.36158898,-0.4664448,0.13757202,-0.03077185,-0.13653515,-0.34476504,0.30645782,-9.787497,1.0104496,47.66091,-0.91702676,-2.0180109,-3.7056808,-0.26338485,-0.3738577,-0.46691126,25.1875,25.6875,25.0,27.375,27.875,28.1875
