Tylouw/Master_Thesis_Code/training_data/batch_1/small_rod_t0.1/sample_94_session_3.csv
timestamp[s],tcp_force_x[N],tcp_force_y[N],tcp_force_z[N],tcp_force_rx[Nm?],tcp_force_ry[Nm?],tcp_force_rz[Nm?],tcp_pose_x[m],tcp_pose_y[m],tcp_pose_z[m],tcp_pose_rx[rot_vec_x],tcp_pose_ry[rot_vec_y],tcp_pose_rz[rot_vec_z],tcp_velo_x[m/s],tcp_velo_y[m/s],tcp_velo_z[m/s],tcp_velo_rx[rot_vec_x/s],tcp_velo_ry[rot_vec_y/s],tcp_velo_rz[rot_vec_z/s],q1[rad],q2[rad],q3[rad],q4[rad],q5[rad],q6[rad],qd1[rad/s],qd2[rad/s],qd3[rad/s],qd4[rad/s],qd5[rad/s],qd6[rad/s],tool_acc_x,tool_acc_y,tool_acc_z,current_of_whole_robot[A],voltage_of_whole_robot[V],current_J1[A],current_J2[A],current_J3[A],current_J4[A],current_J5[A],current_J6[A],temp_J1[C],temp_J2[C],temp_J3[C],temp_J4[C],temp_J5[C],temp_J6[C]
9.920041e-07,0.4190601,0.0459568,1.0926282,-0.016872598,0.031336274,-0.012241577,-0.38106075,-0.34852472,0.059958313,-3.078481,0.6248505,-0.00014308323,0.0020098772,0.0010330955,-0.0020828403,0.0022691668,-0.0047354805,5.0396633e-05,0.47782204,-1.4259096,1.9577154,-2.100845,-1.5708054,2.452764,-8.722212e-05,0.00076419086,0.0037132322,0.00077049993,0.00017230121,-0.00013983154,-0.019153614,0.1340753,-8.695741,0.72622824,47.71465,-0.018615086,-2.7571661,-2.4278104,-0.46655652,0.16385172,0.05201438,26.6875,27.5625,26.6875,30.0625,31.375,31.9375
0.002054522,-0.22062318,-0.020535035,1.1123401,-0.014115333,0.0115504945,-0.008116154,-0.3810192,-0.3485207,0.059930492,-3.0784974,0.6248158,-0.0002456594,-0.0007698155,-0.00041459018,-0.0031800119,-0.001416218,0.002334273,5.1440213e-05,0.47782204,-1.4259324,1.9578112,-2.1008732,-1.5707573,2.4527402,-8.602929e-05,0.004400641,0.0050145653,-0.012139929,0.00016697664,-0.00013716762,-0.019153614,0.076614454,-8.810662,0.7239871,47.704796,-0.022613373,-2.8818846,-2.495149,-0.38852042,0.16723767,0.02873293,26.6875,27.5625,26.6875,30.0625,31.375,31.9375
0.00405389,-0.07393088,0.073493175,1.1716893,-0.01232929,0.013541291,-0.0033837259,-0.38104796,-0.34854925,0.0599466,-3.078531,0.62484133,-0.0001717451,-0.0016916433,-0.0008936567,-0.002446949,-0.002631448,0.00467979,5.0856386e-05,0.47784612,-1.4258966,1.9577392,-2.1008976,-1.5707573,2.452776,-8.487209e-05,0.0041935216,0.0038685196,-0.013428391,0.0001619681,-0.00013460312,0.038307227,0.15322891,-8.772355,0.7172743,47.689575,-0.04474794,-3.145773,-2.731866,-0.29687268,0.1676771,0.047901437,26.6875,27.5625,26.6875,30.0625,31.375,31.9375
0.006054068,0.25040597,0.84980357,0.98017055,0.0047743088,-0.0008084134,-0.0016546202,-0.3810676,-0.3485392,0.05996383,-3.0785482,0.6248643,-0.0001300757,-0.0010673669,-0.000566908,-0.0014162466,-0.0017254693,0.0029598784,4.899225e-05,0.4778101,-1.4259212,1.9577273,-2.1008952,-1.5707573,2.452752,-8.374211e-05,0.0024544823,0.0023000364,-0.008176944,0.00015725131,-0.00013213293,0.0,0.19153613,-8.734048,0.784413,47.713753,0.0017315826,-3.0684114,-2.59373,-0.33348745,0.17765965,0.04565301,26.6875,27.5625,26.6875,30.0625,31.375,31.9375
0.008053917,1.1159761,1.3473198,0.49285823,0.035122205,-0.015600928,-0.010883936,-0.38105068,-0.3485371,0.059942354,-3.0785308,0.6248034,-0.00018698737,-0.0005389133,-0.00028996757,-0.00027979005,-0.0013149994,0.0021928146,4.700865e-05,0.47782204,-1.425898,1.9577497,-2.1008942,-1.5707573,2.4527283,-8.264364e-05,0.00019062746,0.0013546413,-0.0040977667,0.00015280131,-0.00012975174,0.0,0.19153613,-8.925584,0.79560274,47.71823,-0.013162725,-2.911275,-2.5326452,-0.38328066,0.18108794,0.04454344,26.6875,27.5625,26.6875,30.0625,31.375,31.9375
0.0100538675,0.8568338,0.9873038,0.017384607,0.039350737,-0.017656125,-0.0050924765,-0.3810462,-0.34853476,0.059926473,-3.0785155,0.6248003,-0.00021738885,-0.0001557134,-8.511967e-05,-0.00018657597,-0.0006082868,0.00084596354,3.789091e-05,0.47782204,-1.4258741,1.9577612,-2.1009047,-1.5707573,2.4527283,-8.924805e-05,2.5575107e-06,0.00085280306,-0.0018868572,0.00014859601,-0.00012745486,0.095768064,0.13407528,-9.155427,0.7150385,47.70211,-0.341429,-2.2314181,-3.160463,-0.41102016,0.16907588,0.022259941,26.6875,27.5625,26.6875,30.0625,31.375,31.9375
0.012053835,0.24241385,0.7395049,0.056125645,-0.00958449,-0.011222957,-0.013586818,-0.38103196,-0.34852064,0.059911825,-3.0784762,0.6248306,-0.00028058293,0.00027743942,0.00013167193,-0.0044927937,0.0036920453,-0.007490991,4.1873678e-05,0.4778101,-1.4258705,1.957785,-2.1008804,-1.5707573,2.4527402,-8.9419904e-05,0.009951416,-0.00091830397,-0.00068396336,0.00016247644,-0.00012940622,0.076614454,0.095768064,-9.251195,0.81351066,47.73256,-0.50288653,-2.3983297,-3.3403583,-0.43663317,0.19908428,0.0113557,26.6875,27.5625,26.6875,30.0625,31.375,31.9375
0.014054367,0.24687068,-0.58123475,-0.09728309,-0.035013814,0.026846794,-0.011305111,-0.38103735,-0.3485263,0.059910223,-3.07847,0.62479496,-0.00033494754,-0.0054992256,0.0012509634,-0.004124554,0.002930128,-0.006098641,-0.007257216,0.4778077,-1.4258324,1.9577345,-2.1008327,-1.5707458,2.4527164,-0.0074455105,0.01649609,-0.009269121,-0.00046468334,0.00018130659,-0.00018123025,0.0,0.22984336,-9.404425,0.74413085,47.670765,-0.30663487,-2.9271379,-3.1041226,-0.44905794,0.20014264,0.010728355,26.6875,27.5625,26.6875,30.0625,31.375,31.9375
0.016054058,-0.50054854,-0.85356855,-0.370927,-0.06977405,0.04545254,-0.021449009,-0.38103426,-0.34852645,0.059894823,-3.0784523,0.6249062,-0.00038634666,-0.0062248516,0.0015689343,-0.0031388483,0.002037726,-0.0043728733,-0.0065907906,0.477795,-1.4258091,1.9577459,-2.100845,-1.5707215,2.4527752,-0.008679844,0.01482284,-0.009637364,-0.00036625293,0.00017878026,-0.0020820894,-0.22984336,0.30645782,-9.519346,0.7239871,47.694946,-0.14619859,-2.693141,-3.262489,-0.4398573,0.21800828,0.01851009,26.625,27.5625,26.6875,30.0625,31.4375,31.9375
0.018053954,-1.5047078,-1.8264222,-0.51972914,-0.057482623,0.04732062,-0.010405349,-0.38106117,-0.34851858,0.059888292,-3.0784266,0.62486047,-0.00039373428,-0.005848188,0.00048612853,-0.003530076,0.0010710617,-0.005766389,-0.0032237577,0.47777155,-1.4257486,1.9576863,-2.1008208,-1.5707453,2.4527266,-0.007379558,0.01652903,-0.010728261,-0.00019433982,0.0016749266,-0.0041509117,-0.2681506,0.34476504,-9.576807,0.7866488,47.667187,-0.32270622,-2.4758692,-3.432251,-0.45548025,0.22781116,0.022140907,26.625,27.5625,26.6875,30.0625,31.4375,31.9375
0.020054098,-1.319405,-0.8290062,-0.6379555,-0.06980211,0.06663472,-0.017011466,-0.3810356,-0.34851253,0.05986521,-3.0783796,0.624907,-0.0004686774,-0.0060997307,-0.00073420885,-0.003552656,-0.0017023562,-0.0070646666,-0.0010790979,0.47778353,-1.4257361,1.9577221,-2.1008089,-1.5707439,2.4527736,-0.007430417,0.018190805,-0.012585529,-0.00013266047,0.004729621,-0.006351361,-0.34476504,0.45968673,-9.80665,0.7553206,47.752266,-0.42354876,-2.4184923,-3.516102,-0.4580612,0.19348828,0.02334056,26.625,27.5625,26.6875,30.0625,31.4375,31.9375
0.022054063,-1.2561307,-1.0636523,-0.67531866,-0.04764469,0.069269665,-0.019071804,-0.38106483,-0.34852278,0.059860285,-3.0783954,0.6248921,-0.00050554494,-0.008008416,-0.0007821638,-0.00291254,-0.003146599,-0.0059717,-0.0020698586,0.47775885,-1.4256637,1.9576482,-2.100797,-1.5707196,2.4527376,-0.009615114,0.0195314,-0.015582463,-0.00011364615,0.0055024046,-0.007545156,-0.5554548,0.51714754,-9.902418,0.72622824,47.71823,-0.5383992,-2.4626734,-3.4883242,-0.47236165,0.18462327,0.03146427,26.625,27.5625,26.6875,30.0625,31.4375,31.9375
0.024053702,-1.5126692,-0.96322745,-0.8534546,-0.040195126,0.05578082,-0.018279858,-0.3810942,-0.34852007,0.059862096,-3.0784118,0.6248765,-0.00045086665,-0.008481054,-0.00079369114,-0.0031691587,-0.0030522963,-0.006310096,-0.0018521891,0.4777346,-1.4256393,1.9576243,-2.1008327,-1.5707315,2.4527016,-0.010077592,0.020856824,-0.01649069,-0.00018727515,0.00557197,-0.008224562,-0.45968673,0.51714754,-9.864111,0.78888994,47.67614,-0.50454915,-2.3813403,-3.463006,-0.46965218,0.17808956,0.026408825,26.625,27.5625,26.6875,30.0625,31.4375,31.9375
0.02605358,-1.395807,-0.6184761,-0.72574896,-0.05235348,0.05466426,-0.03026195,-0.3810988,-0.34852165,0.059852514,-3.0784097,0.6249151,-0.000529372,-0.010439944,-0.000490184,-0.0024883244,-0.003788567,-0.004728761,-0.0028635454,0.47770983,-1.4256032,1.9575995,-2.1008089,-1.5706958,2.452701,-0.012378953,0.021791644,-0.01909684,-0.00025815435,0.005491978,-0.009513128,-0.4213795,0.51714754,-9.844957,0.7463667,47.684196,-0.5688523,-2.3699632,-3.4932885,-0.49159992,0.18146428,0.03645619,26.625,27.5625,26.6875,30.0625,31.4375,31.9375
0.028053362,-0.93549985,-0.8660236,-0.6420552,-0.046144005,0.06656,-0.044752285,-0.3811067,-0.34850365,0.059821017,-3.0783484,0.6249019,-0.0005932574,-0.011083168,-0.0009885236,-0.0021296607,-0.0051307897,-0.0043613976,-0.0026556058,0.4776857,-1.425531,1.9575866,-2.100797,-1.5707191,2.4526765,-0.012750821,0.022423476,-0.020627765,-0.00030622497,0.006510599,-0.0100945365,-0.61291564,0.3256114,-9.864111,0.7866488,47.69763,-0.5289309,-2.3004131,-3.4975336,-0.49747205,0.17185694,0.05544054,26.625,27.5625,26.6875,30.0625,31.4375,31.9375
0.03005393,-1.3218752,-0.65472806,-0.652432,-0.04414642,0.05433548,-0.057295423,-0.38114145,-0.34854567,0.05983346,-3.078457,0.62492526,-0.0005884769,-0.012380364,-0.0016810019,-0.0013602814,-0.007961086,-0.003782652,-0.0045479713,0.4776733,-1.4254829,1.9575142,-2.100845,-1.5706347,2.4526649,-0.014177471,0.023175512,-0.023257544,-0.00025079056,0.0087534655,-0.009631355,-0.7086837,0.28730422,-9.80665,0.7620334,47.71823,-0.6176392,-2.3575313,-3.5277655,-0.49921146,0.16402552,0.050515056,26.625,27.5625,26.6875,30.0625,31.4375,31.9375
0.032053415,-1.0390804,-0.3660026,-0.4850507,-0.025721543,0.06469097,-0.0640088,-0.3811719,-0.34852564,0.059822045,-3.078409,0.62495494,-0.0006094421,-0.013680225,-0.0016184017,-0.0013574398,-0.0077414974,-0.0032661962,-0.0064950264,0.47762498,-1.4254221,1.9574655,-2.1008208,-1.5706586,2.4526412,-0.015207697,0.025125096,-0.025466267,-0.00034753676,0.0083162375,-0.008712522,-0.59376204,0.076614454,-9.825804,0.7486078,47.711964,-0.6366639,-2.3318043,-3.370905,-0.50487167,0.16250908,0.0315998,26.625,27.5625,26.6875,30.0625,31.4375,31.9375
0.034053814,-1.2763528,0.032908645,-0.5531334,0.001187003,0.05506857,-0.06272708,-0.3811902,-0.34854606,0.05981557,-3.0784335,0.62492305,-0.0006052864,-0.0153235635,-0.0017961459,-0.0010504453,-0.008721156,-0.0010638253,-0.008407881,0.47763655,-1.4253619,1.9574174,-2.100846,-1.5706466,2.4526298,-0.016315531,0.026376292,-0.027146328,-0.002324311,0.008166232,-0.007905655,-0.38307226,0.0,-9.768343,0.8493211,47.737934,-0.61686283,-2.3390532,-3.4342737,-0.46835488,0.1530266,0.024198439,26.625,27.5625,26.6875,30.0625,31.4375,31.9375
0.036053248,-0.7415786,0.8857175,-0.29532716,0.008156549,0.051958185,-0.079889566,-0.38124275,-0.34855732,0.059821162,-3.0784776,0.62504774,-0.00059341115,-0.016579097,-0.0028996593,-0.00053866324,-0.011146926,0.00065835746,-0.009279056,0.47757655,-1.4253016,1.9573439,-2.1008818,-1.5705985,2.452642,-0.01639436,0.027706832,-0.029454539,-0.00399515,0.009521168,-0.00711385,-0.22984336,-0.05746084,-9.691729,0.7911258,47.716442,-0.5278478,-2.3442078,-3.3993204,-0.45768723,0.15055117,0.0029992925,26.625,27.5625,26.6875,30.0625,31.4375,31.9375
0.03805397,-0.28670165,1.1790522,-0.30934048,0.014157167,0.041081876,-0.08122957,-0.38126066,-0.34855977,0.059811097,-3.0784483,0.62511855,-0.0006225183,-0.0182828,-0.0032848835,0.00016473031,-0.011710575,0.0026154625,-0.010452678,0.47756433,-1.4252411,1.9572953,-2.10087,-1.5705985,2.4526777,-0.017022599,0.029152634,-0.03265867,-0.004232435,0.009114967,-0.0065660016,-0.28730422,-0.13407528,-9.615114,0.7866488,47.709274,-0.66325307,-2.3627214,-3.312572,-0.44748235,0.14314362,-0.023485018,26.625,27.5625,26.6875,30.0625,31.4375,31.9375
0.040053904,-0.38632903,0.74820364,-0.38034698,0.030851737,0.032036908,-0.08678149,-0.38132104,-0.34856167,0.059834857,-3.0784864,0.62516516,-0.0005618473,-0.01887796,-0.00303404,6.107641e-05,-0.010817278,0.0024973322,-0.010230852,0.47750407,-1.4252046,1.9571995,-2.10087,-1.5705866,2.4526417,-0.017535442,0.03034097,-0.033909485,-0.003651177,0.008375044,-0.007298009,-0.19153613,-0.076614454,-9.691729,0.7217513,47.721813,-0.64731663,-2.3229423,-3.33079,-0.45537055,0.13041857,-0.03359714,26.625,27.5625,26.6875,30.0625,31.4375,31.9375
0.042053603,-0.1190831,1.0221063,-0.25623032,0.008481851,0.039331917,-0.09942453,-0.3813613,-0.34855333,0.059829794,-3.0784538,0.6251968,-0.00055142853,-0.020175966,-0.0029983956,0.00064274564,-0.011151053,0.0033259317,-0.009829137,0.47746772,-1.4251326,1.957126,-2.1008575,-1.5706109,2.4526293,-0.018740416,0.031207334,-0.03639551,-0.002920395,0.0082864985,-0.0089033805,-0.11492168,-0.114921674,-9.519346,0.78217715,47.71286,-0.6264669,-2.3098152,-3.3709717,-0.4648342,0.15338287,-0.031839486,26.625,27.5625,26.6875,30.0625,31.4375,31.9375
0.044053495,-0.22066742,0.15681483,-0.10456519,-0.0020762847,0.04113801,-0.10076399,-0.38140267,-0.34857008,0.059845243,-3.0785048,0.62522656,-0.0005037725,-0.02130969,-0.002818096,0.0010679071,-0.011123011,0.0040697437,-0.01040656,0.47744343,-1.4250965,1.957055,-2.1008813,-1.5705866,2.4526172,-0.019867714,0.031974364,-0.03837018,-0.0023587309,0.007917343,-0.009451076,-0.1340753,0.0,-9.481039,0.7530795,47.687782,-0.60405535,-2.2498407,-3.2927976,-0.49271554,0.16786884,-0.022407234,26.625,27.5625,26.6875,30.0625,31.4375,31.9375
0.046053726,0.0225459,0.17027348,-0.22585331,-0.021852132,0.042369198,-0.111866966,-0.38145325,-0.34857568,0.059850495,-3.0785325,0.62527007,-0.0005239507,-0.022020945,-0.0031714935,0.0014436106,-0.011549552,0.0045360383,-0.010055132,0.47738332,-1.4250243,1.9569577,-2.100869,-1.5705508,2.4525807,-0.019999495,0.032835357,-0.040322125,-0.0018776676,0.0080793165,-0.009933467,-0.19153613,0.1340753,-9.423578,0.77545905,47.675243,-0.64911485,-2.1961865,-3.3753822,-0.4739209,0.15904675,-0.027747545,26.625,27.5625,26.6875,30.0625,31.4375,31.9375
0.048053455,-0.30245054,-0.17194033,-0.35251263,-0.025983294,0.025672246,-0.116069496,-0.38150027,-0.3485981,0.059854425,-3.0785444,0.62527263,-0.00044139323,-0.022904636,-0.0032231573,0.0015236974,-0.011431016,0.0044794627,-0.010123506,0.47739506,-1.4249401,1.9568609,-2.1009047,-1.5705746,2.4525926,-0.020671038,0.03436486,-0.04240089,-0.0012237119,0.007997225,-0.010534944,-0.019153614,0.22984336,-9.519346,0.8090337,47.692257,-0.64077234,-2.108573,-3.3366039,-0.47275776,0.17400739,-0.029514585,26.625,27.5625,26.6875,30.0625,31.4375,31.9375
0.050054055,-0.55249536,-0.9115098,-0.4650853,-0.01884197,0.012413562,-0.112861276,-0.38153103,-0.34859112,0.05984448,-3.078547,0.6252938,-0.0005498707,-0.023589795,-0.003156765,0.0004792777,-0.011280908,0.0023936685,-0.011762589,0.4773226,-1.4248669,1.9567894,-2.100857,-1.570526,2.452533,-0.021954805,0.03771643,-0.043841504,-0.0012149694,0.008819325,-0.010180301,0.019153614,0.22984336,-9.576807,0.7530795,47.704796,-0.5739487,-2.2002919,-3.3295531,-0.5006905,0.14905512,-0.042182073,26.625,27.5625,26.6875,30.0625,31.4375,31.9375
0.05205398,-0.049329877,-0.96712327,-0.35214546,-0.026036564,0.016747989,-0.1224003,-0.38158005,-0.3485874,0.05986124,-3.0785544,0.6253528,-0.00045243243,-0.024719538,-0.0034411289,0.0010667454,-0.0121028405,0.00358102,-0.011870523,0.47728643,-1.4248427,1.9567288,-2.1008809,-1.5705503,2.4525328,-0.022608645,0.038417835,-0.045987405,-0.001203262,0.009000075,-0.010724816,-0.095768064,0.34476504,-9.576807,0.7665104,47.65643,-0.6003466,-2.250659,-3.3392859,-0.49578226,0.17880249,-0.047067836,26.625,27.5625,26.6875,30.0625,31.4375,31.9375
0.054053627,-0.52502507,-1.3372357,-0.43826744,-0.029469281,0.005366912,-0.1323044,-0.38164172,-0.34860814,0.05986365,-3.0785663,0.62543195,-0.00046073121,-0.025748301,-0.003799708,0.0024051045,-0.013399292,0.006355547,-0.011985813,0.4772504,-1.4247233,1.9565843,-2.100869,-1.570526,2.4525447,-0.02283525,0.03720693,-0.047619365,-0.0014193554,0.00887362,-0.010835126,-0.076614454,0.40222588,-9.615114,0.71279734,47.707485,-0.5921487,-2.0899992,-3.3594275,-0.47874105,0.18786636,-0.06011447,26.625,27.5625,26.6875,30.0625,31.4375,31.9375
0.056053918,-0.15172485,-1.2182084,-0.42152998,-0.047517445,0.018727643,-0.14237581,-0.38170767,-0.348617,0.059886575,-3.0786412,0.62548524,-0.00044793607,-0.026419232,-0.0042932928,0.0019981724,-0.014146382,0.0056854007,-0.012349803,0.47716615,-1.4246747,1.9564766,-2.100869,-1.5704659,2.4524841,-0.023202343,0.039572675,-0.04928704,-0.0018673672,0.00984205,-0.010838077,-0.05746084,0.4213795,-9.519346,0.78217715,47.70211,-0.62428886,-2.0206096,-3.341467,-0.4835953,0.17049672,-0.08043462,26.625,27.5625,26.6875,30.0625,31.4375,31.9375
0.058054022,-0.36591756,-1.4526091,-0.20131674,-0.051506467,0.013092742,-0.14046453,-0.3817255,-0.3486102,0.05985712,-3.0786064,0.6254786,-0.00054712436,-0.027607081,-0.0045252917,0.0020406733,-0.01522327,0.0059329397,-0.013238654,0.47712982,-1.4245781,1.9564284,-2.100846,-1.570454,2.4524481,-0.024430143,0.04128247,-0.05122909,-0.00235206,0.010679233,-0.0111779,-0.05746084,0.45968673,-9.481039,0.83365434,47.698532,-0.6621215,-2.1574595,-3.329163,-0.49748516,0.1763098,-0.08952983,26.625,27.5625,26.6875,30.0625,31.4375,31.9375
0.06005377,-0.04048062,-1.3894209,-0.19904089,-0.050646666,0.022866363,-0.15906446,-0.38180414,-0.34861302,0.059861854,-3.0786164,0.62557715,-0.00046164205,-0.029527968,-0.005242116,0.0025206427,-0.015983462,0.0069732796,-0.013641594,0.47706953,-1.4244816,1.9563183,-2.1008933,-1.5704654,2.4524481,-0.025050584,0.044197008,-0.05572474,-0.0020443362,0.010869237,-0.01139243,-0.019153614,0.49799395,-9.442732,0.7396539,47.69763,-0.6347867,-2.0440323,-3.2642422,-0.49844992,0.17208047,-0.080555655,26.625,27.5625,26.6875,30.0625,31.4375,31.9375
0.06205547,-0.24182025,-0.9796989,-0.09531774,-0.045597926,0.010582149,-0.16119994,-0.38184625,-0.34863463,0.05987068,-3.078653,0.6256045,-0.0004721248,-0.028600188,-0.0047970912,0.0006101693,-0.014745326,0.003007929,-0.014457463,0.47704545,-1.4244086,1.9562119,-2.1008809,-1.5704292,2.4524364,-0.025452571,0.046667386,-0.054202523,-0.0019478191,0.011594213,-0.010979964,0.0,0.47884035,-9.500193,0.81351066,47.686886,-0.60311514,-2.2537866,-3.2992475,-0.49812776,0.16643217,-0.08396542,26.625,27.5625,26.6875,30.0625,31.4375,31.9375
0.06405398,-0.079848275,-1.2162181,-0.10651498,-0.026624458,0.016532466,-0.16364336,-0.38191205,-0.34865287,0.059892878,3.0786283,-0.6256764,0.00040973505,-0.03018254,-0.005343108,0.0020516857,-0.016430847,0.0056987456,-0.015272625,0.47700927,-1.4243368,1.9560794,-2.1008809,-1.5704173,2.4524484,-0.026105547,0.046404485,-0.057226513,-0.0018256537,0.011850974,-0.010816054,-0.05746084,0.4405331,-9.481039,0.7530795,47.705692,-0.66486084,-2.1792965,-3.333045,-0.5011314,0.17496744,-0.086852044,26.625,27.5625,26.6875,30.0625,31.4375,31.9375
0.066054285,-0.24811265,-0.72828466,0.016771596,-0.021768207,0.011478263,-0.17047639,-0.38197392,-0.3486711,0.059901398,3.0785582,-0.62572086,0.00038447214,-0.03180351,-0.0059669917,0.0026659134,-0.017677994,0.0071352306,-0.016196284,0.47696096,-1.4242525,1.9559692,-2.1009052,-1.570381,2.4524367,-0.026776543,0.04811978,-0.060531,-0.0020858678,0.012292938,-0.010561533,0.0,0.36391866,-9.32781,0.8403672,47.707485,-0.6837027,-2.0132282,-3.2467947,-0.50346476,0.14435749,-0.09932151,26.625,27.5625,26.6875,30.0625,31.4375,31.9375
0.06805349,0.108752474,-0.13872129,0.13149934,-0.018200992,0.024377076,-0.17859824,-0.38205096,-0.34867278,0.059904866,3.0785139,-0.6257689,0.00038028366,-0.033540275,-0.0069656847,0.0029973716,-0.019312764,0.008523992,-0.016303034,0.47687694,-1.4241437,1.9558371,-2.1009052,-1.5703567,2.4523883,-0.027122999,0.050817896,-0.06412366,-0.0031771006,0.013099056,-0.010799795,-0.095768064,0.28730422,-9.270349,0.8314132,47.698532,-0.7136762,-2.1435869,-3.046204,-0.47954518,0.14102778,-0.10384535,26.625,27.5625,26.6875,30.0625,31.4375,31.9375
0.07005368,0.3317821,-0.3316236,0.24126652,-0.019095406,0.044069763,-0.18151873,-0.3820933,-0.34869012,0.059902348,3.0784848,-0.6258202,0.00040478978,-0.032489937,-0.0067113317,0.0013944306,-0.018379329,0.0056377333,-0.015879463,0.4768531,-1.4240472,1.9557303,-2.1008942,-1.5703329,2.4524002,-0.026925929,0.052380808,-0.062118478,-0.0037536598,0.01359785,-0.0110277515,-0.1340753,0.3256114,-9.270349,0.7620334,47.707485,-0.747564,-2.1983519,-3.2594323,-0.46737683,0.14578204,-0.12905778,26.625,27.5625,26.6875,30.0625,31.4375,31.9375
0.07205331,-0.2949148,-0.3208765,0.1560869,-0.015365709,0.034823366,-0.17557663,-0.38218826,-0.34872556,0.059924047,3.0783792,-0.62581867,0.00029406618,-0.034333523,-0.007581313,0.002275762,-0.019863538,0.0072550653,-0.016346512,0.47680485,-1.423939,1.9555734,-2.1009657,-1.5702966,2.4523644,-0.027445424,0.05432061,-0.06640055,-0.0035305042,0.014167521,-0.011077002,-0.076614454,0.21068975,-9.308656,0.784413,47.71017,-0.776369,-2.1667542,-3.1275449,-0.47381,0.1361693,-0.13413925,26.625,27.5625,26.6875,30.0625,31.4375,31.9375
0.074054055,-0.5618665,-0.53046626,0.1932225,0.0013488331,0.030264843,-0.15882401,-0.3822444,-0.34872952,0.05991989,3.078365,-0.6258348,0.0003336668,-0.035046708,-0.007328293,0.0022070115,-0.019377831,0.0068369764,-0.016671432,0.47674453,-1.4238307,1.9554538,-2.1009414,-1.5702728,2.452316,-0.028390922,0.0556082,-0.06790387,-0.0027182132,0.013927249,-0.0116966255,-0.095768064,0.21068975,-9.232041,0.75755644,47.68599,-0.72342217,-2.1199381,-3.0913415,-0.48178545,0.112921365,-0.13732338,26.625,27.5625,26.6875,30.0625,31.4375,31.9375
0.07605336,-0.2743841,-0.14419292,0.3324859,0.010743168,0.03403528,-0.16216366,-0.38233054,-0.34877163,0.05997202,3.0782247,-0.62588257,0.00020502678,-0.035976842,-0.007837974,0.002621791,-0.019779745,0.0076738335,-0.015779518,0.47670856,-1.4237823,1.955285,-2.1009653,-1.5702246,2.4523277,-0.028318549,0.056879044,-0.07036108,-0.002458338,0.013897997,-0.012512743,-0.17238252,0.22984336,-9.193734,0.7978386,47.684196,-0.8060677,-2.1158133,-3.0626035,-0.4776519,0.10295752,-0.15045965,26.625,27.5625,26.6875,30.0625,31.4375,31.9375
0.07805419,-0.3251819,-0.14875454,0.2746417,0.018392863,0.03750034,-0.15428862,-0.38238525,-0.3487705,0.05994198,3.0782528,-0.625927,0.0003055181,-0.03678045,-0.007840551,0.0024482934,-0.018689396,0.008005159,-0.015919182,0.4766486,-1.4236138,1.9551529,-2.100929,-1.5702132,2.452292,-0.028320577,0.058782134,-0.07217591,-0.00233571,0.012773561,-0.0123733785,-0.13407528,0.21068975,-9.193734,0.8023209,47.705692,-0.8717313,-2.0836353,-3.0873752,-0.4823104,0.11396642,-0.14173019,26.625,27.5625,26.6875,30.0625,31.4375,31.9375
0.08005401,-1.3046231,-0.29956037,0.19551744,0.021130411,0.022230688,-0.14196354,-0.38245392,-0.34875634,0.059933987,3.0782356,-0.6260009,0.00033187578,-0.037849337,-0.0080837365,0.0026367684,-0.0191594,0.008743068,-0.016268732,0.47655234,-1.4235058,1.9550451,-2.1009176,-1.5702013,2.452244,-0.028914893,0.060180448,-0.074139975,-0.0026400425,0.012849149,-0.012617154,-0.21068975,0.076614454,-9.174581,0.72622824,47.6636,-0.91472685,-2.104668,-3.0632682,-0.46994627,0.1019737,-0.13678986,26.625,27.5625,26.6875,30.0625,31.4375,31.9375
0.08205346,-0.5174334,0.3249434,0.21202065,-0.0012204564,0.04526594,-0.16265924,-0.38254365,-0.34878457,0.05994651,3.0781608,-0.62612,0.0002958016,-0.0388523,-0.008107241,0.0030149624,-0.019195674,0.009986648,-0.016559502,0.4765042,-1.4233617,1.954852,-2.1009176,-1.5701774,2.4522798,-0.029438777,0.060859878,-0.07574244,-0.0028357022,0.012308505,-0.012847976,-0.21068975,0.17238252,-9.193734,0.74413085,47.693153,-0.9636392,-2.0436616,-3.0684495,-0.47301447,0.10866223,-0.15157172,26.625,27.5625,26.6875,30.0625,31.4375,31.9375
0.08405342,-0.16962636,-0.036480132,0.25364456,-0.0012964734,0.05682694,-0.16622576,-0.38262668,-0.34882933,0.059957743,3.07808,-0.6260257,0.00025583536,-0.039586805,-0.008355849,0.0013218198,-0.017985398,0.007154035,-0.016213777,0.4764681,-1.4232277,1.9546841,-2.1009653,-1.5701174,2.4521952,-0.029812943,0.06638939,-0.078196146,-0.0028385331,0.012528707,-0.013565064,-0.21068975,0.095768064,-9.232041,0.74413085,47.694946,-0.9305744,-2.1956875,-3.0680418,-0.46948665,0.094791695,-0.16849926,26.625,27.5625,26.6875,30.0625,31.4375,31.9375
0.08605366,-1.2207395,-0.62369746,0.102012746,0.0011447328,0.03593805,-0.14498982,-0.3827047,-0.34884274,0.059958316,3.0780644,-0.626061,0.00024090387,-0.040803563,-0.008314297,0.0032649902,-0.018966334,0.010688392,-0.016370496,0.4764199,-1.4230846,1.9545168,-2.1009533,-1.5701174,2.452171,-0.030511469,0.06391954,-0.07997196,-0.002179892,0.01177821,-0.014105419,-0.36391866,0.17238252,-9.289502,0.7665104,47.682407,-0.9956848,-2.1187925,-3.0705452,-0.46652782,0.106924124,-0.17903024,26.625,27.5625,26.6875,30.0625,31.4375,31.9375
0.088053256,-1.191311,-0.6632894,-0.05094828,-0.0033890423,0.031104011,-0.14963497,-0.38279334,-0.34884766,0.05997605,3.0779634,-0.6261941,0.00018964168,-0.041202236,-0.008051596,0.0027340278,-0.017626612,0.009750423,-0.016197491,0.47632372,-1.4229997,1.9543847,-2.1009772,-1.5700816,2.4521708,-0.03084243,0.06585971,-0.08113289,-0.0015066145,0.0110196145,-0.014606896,-0.28730422,0.21068975,-9.3661175,0.81351066,47.675243,-1.0308955,-2.057649,-3.0019846,-0.47596186,0.12880433,-0.1977798,26.625,27.5625,26.6875,30.0625,31.4375,31.9375
0.090053976,-0.5631997,-0.8711607,-0.119834155,-0.0015910738,0.03831505,-0.15226713,-0.38287884,-0.34884927,0.05997672,3.0779827,-0.6262362,0.00018255398,-0.041588273,-0.007917317,0.0015633603,-0.01687261,0.0073420657,-0.016789628,0.47626352,-1.4228425,1.9541925,-2.1009285,-1.5701059,2.4521346,-0.031709746,0.06916882,-0.082336456,-0.0011272546,0.011452821,-0.014881726,-0.30645782,0.2681506,-9.3661175,0.7486078,47.719128,-1.0664036,-2.0048351,-3.090487,-0.49021924,0.10658947,-0.20455377,26.625,27.5625,26.6875,30.0625,31.4375,31.9375
0.09205365,-0.64443576,-0.6561868,-0.14503482,-0.013471775,0.037120905,-0.1479139,-0.38294652,-0.34885025,0.059954923,3.0779579,-0.6263278,0.00026342866,-0.042371806,-0.007935523,0.0014316931,-0.01699621,0.0070115956,-0.016984364,0.4761791,-1.4226856,1.9540604,-2.100917,-1.5700692,2.4521105,-0.032557588,0.070765555,-0.08392266,-0.00089979713,0.01171206,-0.0155346,-0.11492168,0.24899697,-9.3661175,0.7665104,47.68599,-1.0484556,-2.2785378,-3.1340013,-0.4994244,0.122545786,-0.1978412,26.625,27.5625,26.6875,30.0625,31.4375,31.9375
0.09405345,-0.62378395,-0.7057565,-0.29203528,-0.02123134,0.034529995,-0.15289325,-0.38304287,-0.34890193,0.059981458,3.0778496,-0.6262866,0.00019217536,-0.042299442,-0.008157261,0.00096591184,-0.017274309,0.005857914,-0.016656652,0.47614306,-1.4225533,1.9538568,-2.1009529,-1.5700091,2.4520626,-0.03259259,0.071956664,-0.084229775,-0.0008871516,0.012489668,-0.015896635,-0.15322891,0.24899697,-9.481039,0.7329411,47.64837,-1.1044439,-2.0798836,-3.1381469,-0.491286,0.1112739,-0.22023381,26.625,27.5625,26.6875,30.0625,31.4375,31.9375
0.09605358,-0.8783839,-0.8205421,-0.33506048,-0.021798598,0.027823366,-0.14390692,-0.38309878,-0.34889707,0.05995358,3.0778716,-0.6263671,0.00026584227,-0.044275742,-0.008814784,0.0018049411,-0.018054333,0.00802433,-0.016106218,0.47608292,-1.4223965,1.9537357,-2.1009285,-1.5700091,2.45205,-0.0330388,0.073917575,-0.08837736,-0.000980996,0.012181017,-0.016891288,-0.15322891,0.28730422,-9.519346,0.78217715,47.675243,-1.1741112,-2.1766639,-3.1290312,-0.4927791,0.12669264,-0.20648307,26.625,27.5625,26.6875,30.0625,31.4375,31.9375
0.098053575,-0.73257816,-1.1295898,-0.2680799,-0.016302418,0.024901202,-0.143069,-0.3831989,-0.34893495,0.05996203,3.0778048,-0.6264112,0.00024627376,-0.043623097,-0.0078094956,-0.00034682697,-0.015760632,0.004038881,-0.016297227,0.47603467,-1.4222152,1.9535092,-2.1009285,-1.5699733,2.4520378,-0.03407764,0.076767296,-0.08676292,-0.00084919913,0.011974232,-0.017738743,-0.11492168,0.34476504,-9.404425,0.7777002,47.694054,-1.1803311,-2.1816812,-3.2152164,-0.50394183,0.12169738,-0.20222533,26.625,27.5625,26.6875,30.0625,31.4375,31.9375
0.100053445,-0.27882582,-0.75771767,-0.32795295,-0.015012956,0.028510096,-0.14751603,-0.3833241,-0.3489254,0.059974466,3.077742,-0.62653315,0.00017472495,-0.04452147,-0.008058316,-0.00043246243,-0.015843641,0.004167432,-0.016137157,0.4759026,-1.4220704,1.953318,-2.100941,-1.5699733,2.45199,-0.034454975,0.07867456,-0.08873926,-0.0009305212,0.011987337,-0.018274184,-0.038307227,0.2681506,-9.461885,0.75084364,47.690468,-1.192557,-2.2310767,-3.3628848,-0.51681936,0.11922055,-0.2129727,26.625,27.5625,26.6875,30.0625,31.4375,31.9375
0.10205414,-0.22654375,-0.41597345,-0.32263634,-0.017115554,0.021189682,-0.15124245,-0.38338813,-0.3489513,0.05996908,3.077695,-0.62654334,0.00017975543,-0.04680228,-0.008423318,0.00091484387,-0.01761114,0.008083437,-0.016718742,0.47586608,-1.4219383,1.953185,-2.1009653,-1.5699371,2.4519658,-0.035746664,0.07886673,-0.09169815,-0.002452008,0.011755752,-0.018981967,-0.019153614,0.17238252,-9.557653,0.77545905,47.64837,-1.2350278,-2.203192,-3.0594602,-0.48820084,0.14904867,-0.20581391,26.625,27.5625,26.6875,30.0625,31.4375,31.9375
0.104054,-0.00035246206,-0.59649473,-0.11307326,-0.011544534,0.022877647,-0.14388998,-0.38350105,-0.34895772,0.059960973,3.0776892,-0.6265804,0.0001545933,-0.047704153,-0.008019274,0.00023648617,-0.018017847,0.0075159622,-0.018136928,0.47578126,-1.4217336,1.9529694,-2.1009657,-1.569949,2.451905,-0.037678864,0.080700375,-0.09197983,-0.0036869359,0.012375464,-0.01949588,-0.05746084,0.22984336,-9.461885,0.8023209,47.67614,-1.0856173,-2.1194527,-3.2683158,-0.46942407,0.14361788,-0.2079215,26.625,27.5625,26.6875,30.0625,31.4375,31.9375
0.1060537,-0.14905207,-0.41493902,-0.033226307,-0.017816108,0.021326318,-0.15875393,-0.38361055,-0.3489784,0.059975978,3.077625,-0.6265859,6.508818e-05,-0.04832153,-0.008370134,0.00023616858,-0.01796097,0.007594967,-0.017592931,0.4757095,-1.4215887,1.9527777,-2.101002,-1.5699371,2.451845,-0.037555035,0.08226219,-0.093831725,-0.0034393002,0.012288183,-0.019913847,-0.095768064,0.24899697,-9.442732,0.7665104,47.687782,-1.2235879,-2.0973866,-3.3085525,-0.48266363,0.1522362,-0.2144531,26.625,27.5625,26.6875,30.0625,31.4375,31.9375
0.108053654,-0.1082069,-0.27696475,-0.08633999,-0.017400775,0.025053568,-0.15033528,-0.38369647,-0.34899575,0.059989896,3.0775573,-0.6267056,7.3665935e-05,-0.04775328,-0.008945096,-0.00025358776,-0.018226948,0.005775477,-0.016322672,0.47563782,-1.4214562,1.952586,-2.1009653,-1.5699009,2.4518566,-0.03669713,0.08348327,-0.09428489,-0.0027134703,0.013360217,-0.0203267,-0.038307227,0.22984336,-9.404425,0.82022345,47.694946,-1.2971134,-2.131682,-3.402289,-0.48162687,0.14744169,-0.22783193,26.625,27.5625,26.6875,30.0625,31.4375,31.9375
0.11005336,-0.3196546,-0.64067024,-0.11383502,-0.0027704474,0.013329686,-0.13996454,-0.38379958,-0.34900984,0.059980847,3.077474,-0.62680507,0.000104722756,-0.04862936,-0.008454391,-0.0006042664,-0.018123383,0.0045317486,-0.017871974,0.4755291,-1.4212755,1.9524053,-2.1009886,-1.5698408,2.4518206,-0.038664624,0.08523433,-0.09568376,-0.0019112277,0.013838519,-0.020744247,0.0,0.19153613,-9.461885,0.7396539,47.734352,-1.316443,-2.095506,-3.3679848,-0.47298962,0.14073202,-0.25010687,26.625,27.5625,26.6875,30.0625,31.4375,31.9375
0.112054124,0.024491778,-0.6262288,-0.2522647,0.003573557,0.01566762,-0.14965619,-0.38388968,-0.34904295,0.059989937,3.0774736,-0.62669027,6.124951e-05,-0.05064103,-0.009006766,0.00083984213,-0.020151503,0.006859313,-0.018656228,0.4755047,-1.421107,1.9521893,-2.1009772,-1.5698403,2.4517248,-0.039996345,0.08570668,-0.099645555,-0.0014214753,0.014570065,-0.021289963,-0.038307227,0.22984336,-9.346964,0.8291774,47.723602,-1.2132808,-2.0599277,-3.4750016,-0.504938,0.1551601,-0.26010036,26.625,27.5625,26.6875,30.0625,31.4375,31.9375
0.11405417,-0.098732226,-0.3259196,-0.15585482,-0.007362891,0.014129544,-0.14550534,-0.3839983,-0.3490648,0.059982944,3.0773983,-0.6268477,7.015065e-05,-0.050595045,-0.007907972,-4.240899e-05,-0.019113949,0.0051700673,-0.019538704,0.47542012,-1.4209028,1.9519743,-2.1009886,-1.5698041,2.4517481,-0.04179094,0.08626734,-0.09830781,-0.0013397693,0.014426125,-0.022202265,0.019153614,0.24899697,-9.442732,0.80679786,47.72002,-1.2665724,-2.0292602,-3.4319863,-0.49603546,0.14837036,-0.26117033,26.625,27.5625,26.6875,30.0625,31.4375,31.9375
0.11605443,-0.47099942,-0.77840656,-0.38813424,-0.0034754064,0.016930854,-0.14195211,-0.3841059,-0.34907228,0.060005043,3.0773304,-0.62685424,3.3174576e-05,-0.05235756,-0.0078573255,-0.0009992927,-0.018509924,0.0039686174,-0.02100593,0.4753115,-1.4207809,1.9517816,-2.1009772,-1.5697683,2.4516523,-0.04348745,0.091153316,-0.10168758,-0.0014987551,0.0144341085,-0.022428248,-0.038307227,0.19153613,-9.423578,0.6926589,47.70211,-1.0996851,-2.1185021,-3.522997,-0.5051734,0.16031733,-0.25638527,26.625,27.5625,26.6875,30.0625,31.4375,31.9375
0.118053295,-0.22469813,-0.47809944,-0.20799272,-0.012160454,0.037947945,-0.1436618,-0.38420787,-0.34908867,0.060000185,3.077264,-0.62691677,5.2119176e-05,-0.052863933,-0.008800396,0.00097434036,-0.021105876,0.007363064,-0.020223517,0.47521576,-1.4206018,1.9515904,-2.1009886,-1.5697201,2.4516041,-0.042750694,0.08832051,-0.1029364,-0.0016233943,0.015188071,-0.022474015,-0.095768064,0.21068975,-9.404425,0.784413,47.688675,-1.2670314,-1.9526287,-3.3882747,-0.50614905,0.16666676,-0.25840664,26.625,27.5625,26.6875,30.0625,31.4375,31.9375
0.12005417,-0.9384031,-0.46152595,-0.28210777,-0.0052329022,0.029281342,-0.14121075,-0.38431263,-0.34908912,0.059974864,3.0772984,-0.62696207,4.684242e-05,-0.054248102,-0.009473408,0.00073947327,-0.021759108,0.007504111,-0.020896507,0.47514355,-1.4203725,1.9513859,-2.100989,-1.5697559,2.451556,-0.043144245,0.091617525,-0.106057495,-0.0022253585,0.015696736,-0.02219323,-0.1340753,0.15322891,-9.423578,0.7642693,47.69763,-1.3068362,-1.8776217,-3.4530892,-0.48444372,0.17071423,-0.26271617,26.625,27.5625,26.6875,30.0625,31.4375,31.9375
0.1220539,-0.5231743,-0.39926854,-0.39944544,0.0010162176,0.04160485,-0.14604416,-0.38442484,-0.3491387,0.060016062,3.0771263,-0.6270058,5.505505e-06,-0.056553293,-0.008953179,0.0023447827,-0.022871416,0.010873047,-0.023953374,0.47505876,-1.4202527,1.9511575,-2.1010015,-1.5696481,2.4515204,-0.04579931,0.09070251,-0.10869288,-0.002174232,0.015143151,-0.021788035,-0.15322891,0.22984336,-9.461885,0.85155696,47.71286,-1.2990569,-1.9131478,-3.3661516,-0.48448554,0.17585558,-0.26588994,26.625,27.5625,26.6875,30.0625,31.4375,31.9375
0.124053575,-0.8039517,-0.59845734,-0.46033937,-0.004951106,0.040835477,-0.14195593,-0.38453057,-0.34915224,0.059997227,3.0770888,-0.62705594,4.5386325e-05,-0.056863524,-0.008941943,0.001979902,-0.023266042,0.0095928935,-0.024430716,0.47496232,-1.420036,1.9509548,-2.1010125,-1.5696119,2.4514601,-0.04669157,0.09205267,-0.10952423,-0.0017357718,0.016080916,-0.022203166,-0.2681506,0.24899697,-9.595961,0.8314132,47.70032,-1.1773175,-1.810019,-3.4507203,-0.49235857,0.18006545,-0.29252693,26.625,27.5625,26.6875,30.0625,31.4375,31.9375
0.12605411,-1.2357347,-0.91115546,-0.4949853,-0.008346955,0.03352289,-0.13565528,-0.38464275,-0.34916297,0.06001342,3.0770512,-0.62716246,1.5468053e-05,-0.057617445,-0.009098514,0.001715843,-0.022820361,0.009134182,-0.023283036,0.4748785,-1.419867,1.9507135,-2.1009648,-1.5696119,2.4514477,-0.04696773,0.094286665,-0.11159793,-0.0012808532,0.015894134,-0.023625232,-0.34476504,0.28730422,-9.634268,0.81351066,47.690468,-1.1951814,-1.8168678,-3.4349244,-0.506538,0.18217507,-0.29225272,26.625,27.5625,26.6875,30.0625,31.4375,31.9375
0.12805396,-1.4150481,-1.050791,-0.55272704,-0.025050122,0.044381913,-0.1364533,-0.3847456,-0.34917256,0.05998136,3.077022,-0.62723356,0.00011050229,-0.05847369,-0.009023153,0.0013814737,-0.02351932,0.008009594,-0.023887198,0.4747698,-1.4196261,1.9505109,-2.1009648,-1.5695633,2.4513872,-0.048599083,0.09621513,-0.113129966,-0.0009967434,0.017029103,-0.024652893,-0.40222588,0.30645782,-9.576807,0.8247004,47.683304,-1.2284092,-1.8054135,-3.4570098,-0.512373,0.18380621,-0.30094263,26.625,27.5625,26.6875,30.0625,31.4375,31.9375
0.13005383,-1.4245411,-1.230786,-0.68369377,-0.025658848,0.053488906,-0.13122907,-0.38488954,-0.34921938,0.06002842,3.076902,-0.62726736,-1.5273296e-05,-0.059645552,-0.00943421,0.0020248794,-0.024263235,0.009283352,-0.02425252,0.4746977,-1.4194577,1.9502105,-2.1009648,-1.5695275,2.4513516,-0.04897383,0.097113185,-0.115680836,-0.00081501814,0.017108018,-0.024658797,-0.45968673,0.24899697,-9.672575,0.7351769,47.703903,-1.2470952,-1.7975991,-3.489908,-0.51602286,0.18610771,-0.29895222,26.625,27.5625,26.6875,30.0625,31.4375,31.9375
0.13205433,-1.3345138,-0.8310109,-0.6581855,-0.027607268,0.062396493,-0.14174108,-0.3850096,-0.34921584,0.060012747,3.076875,-0.6273765,-5.335857e-05,-0.060717326,-0.009332905,0.0014453409,-0.024021797,0.008310686,-0.02565104,0.47458926,-1.4192524,1.9500192,-2.1010005,-1.5695394,2.451315,-0.050260734,0.10002278,-0.11773978,-0.0006895284,0.017336113,-0.02454554,-0.36391866,0.2873042,-9.710882,0.7866488,47.699425,-1.2501204,-1.761452,-3.4445956,-0.51337963,0.20560655,-0.31449914,26.625,27.5625,26.6875,30.0625,31.4375,31.9375
0.13405387,-1.0842311,-0.84871274,-0.5952745,-0.016989587,0.06433567,-0.13719335,-0.38511074,-0.34926438,0.060030024,3.076735,-0.6273687,-2.205135e-05,-0.061919756,-0.009789268,0.0013131858,-0.02472869,0.008123609,-0.027154617,0.474505,-1.4190955,1.9498028,-2.1010125,-1.5694193,2.4512436,-0.05099332,0.10267597,-0.12047299,-0.000765163,0.018046841,-0.023771923,-0.4405331,0.21068975,-9.672575,0.79560274,47.690468,-1.2521708,-1.7826934,-3.3455715,-0.5239795,0.2100698,-0.3298693,26.625,27.5625,26.6875,30.0625,31.4375,31.9375
0.1360533,-0.78198814,-0.35285866,-0.41291463,-0.019697366,0.06466492,-0.14560452,-0.38525718,-0.34926096,0.060038608,3.0767066,-0.62747765,-6.303866e-05,-0.063362606,-0.009517748,0.0010750114,-0.024026355,0.008324812,-0.02712126,0.47437266,-1.4188783,1.9495262,-2.1009772,-1.5694312,2.451183,-0.052302998,0.10521061,-0.12285486,-0.00076976477,0.017329354,-0.025112676,-0.36391866,0.21068975,-9.595961,0.81351066,47.661808,-1.2490226,-1.9568362,-3.421884,-0.50772,0.21747847,-0.3177453,26.625,27.5625,26.6875,30.0625,31.4375,31.9375
0.13805425,-0.93081886,-0.4883417,-0.59794354,-0.0071811383,0.053913303,-0.14799468,-0.38538554,-0.3492927,0.06005171,3.076631,-0.62751913,-0.00010067354,-0.0648986,-0.009938736,0.0009798876,-0.024558837,0.008490595,-0.026816916,0.47428834,-1.4186735,1.9492615,-2.1009772,-1.5693954,2.4511344,-0.05319574,0.10824586,-0.1260938,-0.00095433334,0.017724238,-0.026306842,-0.28730422,0.2681506,-9.5385,0.77545905,47.637623,-1.2837398,-1.7620234,-3.2514465,-0.52426463,0.22736022,-0.31222445,26.625,27.5625,26.6875,30.0625,31.4375,31.9375
0.14005408,-0.7224567,-0.7015755,-0.42581332,-0.0033101584,0.055206228,-0.1396395,-0.38550818,-0.34932157,0.060042176,3.0765703,-0.6276032,-9.242958e-05,-0.06789918,-0.010921708,0.0022250747,-0.02699695,0.01264773,-0.027340537,0.4742039,-1.4184321,1.9490093,-2.100989,-1.5693592,2.4511104,-0.054342996,0.110327005,-0.13086009,-0.0030786307,0.0179827,-0.026927182,-0.4213795,0.21068975,-9.461885,0.7396539,47.67793,-1.2786295,-1.9400707,-3.203755,-0.5047815,0.24083447,-0.31799603,26.625,27.5625,26.6875,30.0625,31.4375,31.9375
0.14205368,-0.88933474,-0.6210418,-0.29049656,-0.022037007,0.055300362,-0.14732401,-0.38567623,-0.34932238,0.060061827,3.0765102,-0.62764806,-0.00021870561,-0.06814768,-0.010563662,0.00069887977,-0.025977608,0.010554432,-0.02765586,0.47405952,-1.4182268,1.9487346,-2.1010134,-1.5693711,2.451002,-0.055205733,0.11350635,-0.13084722,-0.0039402484,0.018035956,-0.02747233,-0.4213795,0.24899697,-9.404425,0.8179876,47.694946,-1.274311,-1.9749588,-3.251288,-0.48376775,0.25628218,-0.3282528,26.625,27.5625,26.6875,30.0625,31.4375,31.9375
0.14405338,-0.4251903,-0.7727446,-0.2272829,-0.028794875,0.06335104,-0.14901476,-0.3858211,-0.34935033,0.06008206,3.0763474,-0.6278079,-0.00022577106,-0.06995212,-0.010184507,0.0009467316,-0.027263349,0.010305494,-0.029314937,0.47391456,-1.4180343,1.9484705,-2.1010253,-1.5692748,2.4509776,-0.058301985,0.11519684,-0.13350666,-0.003333934,0.019296432,-0.028906863,-0.4405331,0.24899697,-9.3661175,0.81351066,47.704796,-1.1293641,-1.9424,-3.1460664,-0.49401003,0.25474387,-0.3327801,26.625,27.5625,26.6875,30.0625,31.4375,31.9375
0.14605418,-0.523787,-0.9901534,-0.08767322,-0.01893892,0.05959282,-0.14227033,-0.38593426,-0.34937915,0.06007902,3.076307,-0.62781763,-0.00017598932,-0.069929905,-0.010835036,0.0011442483,-0.027625917,0.010080412,-0.027198177,0.4738308,-1.4178056,1.9482068,-2.100989,-1.5692261,2.450905,-0.0573858,0.115834564,-0.13489208,-0.0025482236,0.019723848,-0.030106988,-0.4213795,0.34476504,-9.270349,0.85826975,47.705692,-1.1079705,-1.914505,-3.1565604,-0.50060344,0.26085454,-0.32539943,26.625,27.5625,26.6875,30.0625,31.4375,31.9375
0.14805412,-1.5474008,-0.9927771,0.0075321444,-0.022299225,0.034057368,-0.13622007,-0.38608038,-0.3493748,0.060067303,3.0762339,-0.62797564,-0.00019501064,-0.07051992,-0.01074364,0.0008911148,-0.02708804,0.009273086,-0.028047489,0.47367477,-1.4175768,1.9479793,-2.1010249,-1.5692028,2.4508572,-0.057983376,0.11759541,-0.13655916,-0.0016743261,0.019615939,-0.02985369,-0.36391866,0.30645782,-9.251195,0.8717007,47.71823,-1.32762,-1.8296368,-3.1095033,-0.49830198,0.27360025,-0.3312691,26.625,27.5625,26.6875,30.0625,31.4375,31.9375
0.15005386,-0.90270406,-1.0401546,0.0906846,-0.0113648735,0.050683044,-0.14105213,-0.38623047,-0.34942397,0.060081795,3.0761235,-0.62801224,-0.00020929721,-0.072287165,-0.010743364,0.0013146629,-0.028144374,0.009880774,-0.030381305,0.47357807,-1.4173238,1.947656,-2.1010249,-1.5691303,2.4507976,-0.05999016,0.11929848,-0.13957025,-0.001387679,0.020276645,-0.029523741,-0.38307226,0.30645782,-9.212888,0.82694155,47.717335,-1.2316474,-1.8985726,-3.192943,-0.5217257,0.27436653,-0.32852626,26.625,27.5625,26.6875,30.0625,31.4375,31.9375
0.15205355,-0.44310585,-0.3638563,0.30618337,-0.016225856,0.052750498,-0.15794924,-0.38638997,-0.3494487,0.06009645,3.0760372,-0.6280907,-0.00031286027,-0.07339939,-0.009412651,0.00033700932,-0.027652584,0.008080517,-0.032232523,0.47346875,-1.417095,1.947368,-2.1010602,-1.5691184,2.4507484,-0.06357225,0.12139031,-0.13974549,-0.0014740244,0.020666907,-0.031252347,-0.30645782,0.24899697,-9.193734,0.8291774,47.711964,-1.0204735,-1.8148575,-3.212285,-0.510467,0.27119341,-0.33192903,26.625,27.5625,26.6875,30.0625,31.4375,31.9375
0.15405443,-0.5758995,-0.43878016,0.5051633,-0.010047914,0.044775903,-0.14530256,-0.38654327,-0.34945992,0.060100485,3.0759647,-0.6281886,-0.00032143376,-0.073483884,-0.010606174,0.00024056961,-0.028074289,0.008488699,-0.028539212,0.4733255,-1.4168543,1.94708,-2.1010492,-1.5690821,2.4506757,-0.061631538,0.12311486,-0.14138733,-0.0021061308,0.020857742,-0.03300308,-0.21068975,0.24899697,-9.040505,0.80679786,47.694946,-1.1267548,-1.8138025,-3.222321,-0.48886418,0.2945673,-0.30238417,26.625,27.5625,26.6875,30.0625,31.4375,31.9375
0.15605396,-0.33194843,-0.12078573,0.55009305,-0.0051974463,0.033301443,-0.14642219,-0.38670844,-0.34949413,0.060140852,3.0758252,-0.62827665,-0.00043259893,-0.07525314,-0.010245858,0.0002624063,-0.02940805,0.009928775,-0.030028718,0.47320458,-1.4166616,1.9467696,-2.101061,-1.569034,2.4506278,-0.064184025,0.12432236,-0.1423568,-0.0042299447,0.021390084,-0.034062296,-0.17238252,0.19153613,-8.925584,0.83589023,47.68062,-1.0723672,-1.935494,-3.2577255,-0.47290626,0.28318715,-0.26628172,26.625,27.5625,26.6875,30.0625,31.4375,31.9375
0.1580538,0.1996143,0.32900307,0.61569756,0.0029783337,0.034532823,-0.15190692,-0.38688847,-0.34950948,0.06014774,3.075738,-0.6283932,-0.00052177947,-0.076831445,-0.010184075,-0.00039326723,-0.029967025,0.008997583,-0.03102511,0.4730599,-1.4163961,1.9464573,-2.1010973,-1.5690216,2.4505672,-0.06628396,0.12788048,-0.14486974,-0.0046989014,0.02231333,-0.035162065,-0.019153614,0.095768064,-8.944737,0.8157518,47.689575,-0.96893525,-1.8298647,-3.2471733,-0.45724726,0.30717382,-0.28363764,26.625,27.5625,26.6875,30.0625,31.4375,31.9375
0.16005386,0.4265097,0.45444664,0.54745436,0.019636014,0.013641729,-0.14870493,-0.38703325,-0.34953338,0.06014945,3.0756636,-0.6284164,-0.0005337164,-0.07757629,-0.010130974,0.0009292736,-0.03193718,0.010528612,-0.031500727,0.4729394,-1.4161568,1.9461812,-2.1011093,-1.5689734,2.450471,-0.067702174,0.12585582,-0.14572848,-0.0040737716,0.023375377,-0.036103368,-0.095768064,-0.019153614,-9.002198,0.8493211,47.704796,-0.9820043,-1.7210124,-3.2690794,-0.45002902,0.30541003,-0.25944108,26.625,27.5625,26.6875,30.0625,31.4375,31.9375
0.16205356,0.556973,0.55321383,0.6738215,0.034016646,0.0052365703,-0.14920394,-0.38718855,-0.34953564,0.060136452,3.0755906,-0.62855417,-0.00049778156,-0.07829837,-0.010177697,-0.0001275061,-0.031170715,0.008301204,-0.031120557,0.47277123,-1.415891,1.9459056,-2.1011088,-1.5689253,2.4503982,-0.06845302,0.12978527,-0.14802584,-0.0033673432,0.02371025,-0.037232544,-0.095768064,0.019153614,-8.925584,0.80679786,47.694054,-0.9073143,-1.8482223,-3.306394,-0.43366796,0.29973945,-0.24799831,26.625,27.5625,26.6875,30.0625,31.4375,31.9375
0.16405421,-0.10098365,0.6978487,0.49399647,0.03514379,0.002192345,-0.1443168,-0.38733116,-0.3495671,0.060125016,3.0755212,-0.6286166,-0.00042477666,-0.07907558,-0.009740879,-7.234537e-05,-0.030839859,0.008320149,-0.030910177,0.4726508,-1.4156024,1.9455947,-2.101085,-1.5688533,2.4503257,-0.06970159,0.1304948,-0.14912303,-0.002836672,0.023410976,-0.038691174,-0.05746084,0.0,-8.868123,0.8090337,47.691364,-0.94661605,-1.8119608,-3.2941942,-0.4530847,0.30726707,-0.22924107,26.625,27.5625,26.6875,30.0625,31.4375,31.9375
0.16605346,0.22582427,0.6909077,0.31453043,0.024468113,0.030527525,-0.14985175,-0.38746378,-0.34957108,0.060099483,3.0754666,-0.6287021,-0.0003743032,-0.079451166,-0.009650089,-0.0011594377,-0.030606575,0.00555952,-0.0311813,0.47250637,-1.4153492,1.9453672,-2.1011083,-1.5688051,2.4502418,-0.070845395,0.13367015,-0.15050012,-0.0020675613,0.024462989,-0.039562657,-0.05746084,-0.019153614,-8.983045,0.7777002,47.71286,-0.9078791,-1.8495591,-3.4268222,-0.44844046,0.3226917,-0.21022525,26.625,27.5625,26.6875,30.0625,31.4375,31.9375
0.16805342,-0.40876237,0.19946103,0.4014207,0.007996572,0.029310377,-0.14956771,-0.38765737,-0.34960473,0.060115244,3.0753708,-0.6287389,-0.00048029874,-0.08033619,-0.009935325,-0.0007104681,-0.03195098,0.005832378,-0.03159986,0.4723741,-1.4150606,1.9450077,-2.101144,-1.5687803,2.450145,-0.071794055,0.13432296,-0.15239647,-0.0016773806,0.025540503,-0.04008887,-0.076614454,0.095768064,-9.078813,0.83589023,47.692257,-0.8649057,-1.8356303,-3.2835908,-0.4392106,0.31220382,-0.18805371,26.625,27.5625,26.6875,30.0625,31.4375,31.9375
0.17005435,0.2160979,-0.24747981,0.32795787,-0.006777471,0.057836182,-0.15088551,-0.38780078,-0.34961355,0.060126178,3.075269,-0.6288724,-0.00041173052,-0.08204577,-0.0100455815,-0.00083588326,-0.03215088,0.005499,-0.032133125,0.47220564,-1.4148431,1.9447192,-2.1010845,-1.5686964,2.450073,-0.07332073,0.13758565,-0.15601876,-0.001103381,0.025869282,-0.041079774,-0.11492168,0.17238252,-9.136273,0.8112748,47.704796,-0.81894684,-2.0930533,-3.2491412,-0.45614058,0.3193872,-0.14924935,26.625,27.5625,26.6875,30.0625,31.4375,31.9375
0.17205416,-0.33249602,-0.6428351,-0.15314762,-0.016145961,0.04568027,-0.14531332,-0.38794765,-0.34963155,0.06010435,3.0752218,-0.62895924,-0.00034663014,-0.082705736,-0.009767994,-0.0011171874,-0.03209184,0.0046902713,-0.033104066,0.47207323,-1.4145427,1.9444207,-2.101072,-1.5686482,2.450001,-0.07457343,0.13900883,-0.15716045,-0.00063289347,0.026185563,-0.041361187,-0.21068975,0.24899697,-9.212888,0.8493211,47.704796,-0.73999274,-1.7932991,-3.3348126,-0.4672255,0.32047874,-0.125401,26.625,27.5625,26.6875,30.0625,31.4375,31.9375
0.17405498,-1.0488499,-1.2520406,-0.45557147,-0.015689768,0.030807586,-0.13336569,-0.38813388,-0.34965178,0.06010871,3.0751307,-0.6290367,-0.00039867658,-0.08334865,-0.009862645,-0.0010466324,-0.032478083,0.0044031874,-0.033175908,0.47191688,-1.414254,1.944084,-2.101096,-1.568612,2.449905,-0.075250104,0.14010721,-0.15875308,-5.339217e-05,0.026665032,-0.04196319,-0.40222588,0.36391866,-9.3661175,0.82022345,47.693153,-0.77428955,-1.8332095,-3.379856,-0.46515498,0.3399921,-0.09807325,26.625,27.5625,26.6875,30.0625,31.4375,31.9375
0.17605375,-0.65162754,-1.2317646,-0.64799404,-0.031567547,0.050723117,-0.14955033,-0.3882836,-0.34966695,0.060101826,3.0750892,-0.6291044,-0.00036098453,-0.08388181,-0.010078921,-0.0015181134,-0.03245567,0.0033342657,-0.033912156,0.47178504,-1.4139768,1.9437727,-2.1010597,-1.5685762,2.4498208,-0.07561239,0.14240453,-0.16043818,0.0002993335,0.027129669,-0.041588042,-0.36391866,0.45968673,-9.481039,0.8090337,47.694946,-0.80646634,-1.895705,-3.2555013,-0.47314292,0.3517099,-0.08458615,26.625,27.5625,26.6875,30.0625,31.4375,31.9375
0.17805332,-1.4133855,-1.9885265,-0.7582758,-0.037785165,0.05627222,-0.1373249,-0.3884209,-0.3496654,0.06006862,3.075034,-0.62923014,-0.00020518707,-0.08611542,-0.009566988,-0.0010781621,-0.03307358,0.004442606,-0.037596986,0.47160378,-1.413688,1.943508,-2.1010244,-1.5684918,2.4497252,-0.0785162,0.1440797,-0.16341744,0.00034200982,0.027169492,-0.040807035,-0.51714754,0.5554548,-9.5385,0.8403672,47.69763,-0.7097134,-1.8229098,-3.3793106,-0.4629205,0.33904868,-0.08050527,26.625,27.5625,26.6875,30.0625,31.4375,31.9375
0.18005405,-2.0109313,-2.4332328,-0.82133144,-0.046607256,0.061758876,-0.1360188,-0.38859963,-0.3496935,0.060055744,3.0749576,-0.6293475,-0.00018441293,-0.08531095,-0.010971167,-0.0015082486,-0.03306365,0.0036689604,-0.03586427,0.47146097,-1.4133509,1.9431494,-2.1010244,-1.5684441,2.4496655,-0.07549107,0.14573975,-0.16439612,0.0003562091,0.02751104,-0.039513275,-0.53630114,0.51714754,-9.768343,0.82694155,47.703007,-0.84372663,-1.8851457,-3.423167,-0.47677723,0.3521626,-0.09149139,26.625,27.5625,26.6875,30.0625,31.4375,31.9375
0.18205395,-1.271885,-1.6824905,-0.6247369,-0.06545301,0.088947594,-0.15103182,-0.38880852,-0.34972766,0.060098868,3.0748284,-0.6293977,-0.0003497033,-0.08692987,-0.011196313,-0.0007155811,-0.034801744,0.0050046346,-0.037332308,0.47131643,-1.4130986,1.9427661,-2.1010482,-1.5684193,2.4495692,-0.077112556,0.14647484,-0.16707045,0.00031809646,0.028456334,-0.03966061,-0.47884035,0.51714754,-9.825804,0.8314132,47.687782,-0.80076617,-1.8568518,-3.4159389,-0.4840673,0.3516452,-0.09070409,26.625,27.5625,26.6875,30.0625,31.4375,31.9375
0.18405366,-1.5734311,-1.8537238,-0.767695,-0.04790799,0.072242424,-0.14421411,-0.3889742,-0.3497253,0.06007911,3.0747368,-0.62961096,-0.00028853246,-0.08834444,-0.011054084,-0.0007457707,-0.03575694,0.004836167,-0.039295997,0.47112373,-1.4128097,1.9424785,-2.1010482,-1.5683588,2.4495215,-0.07918478,0.14834483,-0.16918571,0.00028474626,0.029383326,-0.039767437,-0.34476504,0.4213795,-9.864111,0.7978386,47.717335,-0.62886846,-1.6615207,-3.3909261,-0.49083656,0.3605926,-0.061812658,26.625,27.5625,26.6875,30.0625,31.4375,31.9375
0.18605395,-0.89433986,-1.0348965,-0.5866791,-0.03498629,0.05463251,-0.14105085,-0.38916445,-0.34974808,0.06007151,3.0746622,-0.62972885,-0.00029461432,-0.087684736,-0.012837169,-0.0006451212,-0.036407262,0.005073722,-0.0382111,0.47096905,-1.4124731,1.942108,-2.1010482,-1.568323,2.4494503,-0.075702965,0.14942136,-0.17068024,0.00019474392,0.029851109,-0.037368454,-0.40222588,0.4405331,-9.730036,0.8157518,47.694946,-0.9105528,-1.8614321,-3.4250488,-0.47945753,0.3437919,-0.06894906,26.625,27.5625,26.6875,30.0625,31.4375,31.9375
0.18805392,-0.7025214,-0.6826681,-0.8156215,-0.012268839,0.027667047,-0.14317706,-0.38932803,-0.34979618,0.06006561,3.0745502,-0.6297465,-0.00023012918,-0.089003764,-0.012785386,-0.0019493125,-0.035107683,0.0033859496,-0.04145064,0.47083667,-1.4121587,1.9417595,-2.1010482,-1.5682148,2.4493434,-0.076685354,0.1545037,-0.17359051,0.00012037157,0.029451337,-0.035108455,-0.2681506,0.38307226,-9.634268,0.8672237,47.709274,-0.91480756,-2.0003915,-3.3486757,-0.48258665,0.35589844,-0.07620531,26.625,27.5625,26.6875,30.0625,31.4375,31.9375
0.19005378,-0.09365918,-0.35029003,-0.86465603,0.0038062362,0.023002122,-0.1436817,-0.3895101,-0.34981388,0.060059756,3.0744715,-0.6298821,-0.00023694214,-0.08900429,-0.013057024,-0.0027176167,-0.034887984,0.0020300767,-0.040603444,0.47068068,-1.4118459,1.9414123,-2.1010482,-1.568179,2.4492824,-0.076431535,0.1565792,-0.17425367,2.1931311e-05,0.029874142,-0.035699993,-0.076614454,0.22984336,-9.576807,0.81351066,47.723602,-0.9801117,-2.0183706,-3.4893694,-0.4822182,0.3583872,-0.083951384,26.625,27.5625,26.6875,30.0625,31.4375,31.9375
0.19205363,0.041819464,-0.45573595,-0.5554457,0.007260797,0.01241744,-0.14173976,-0.38969067,-0.34984237,0.060052983,3.0743783,-0.6300366,-0.0002303881,-0.09022219,-0.013992724,-0.0027639724,-0.036749024,0.0015322216,-0.041860234,0.47053653,-1.4115206,1.9410528,-2.1010482,-1.5681299,2.449247,-0.07704068,0.15950975,-0.17756608,1.431958e-06,0.03175375,-0.03504805,0.05746084,0.15322891,-9.672575,0.8873621,47.709274,-0.97074413,-2.0979242,-3.494142,-0.47017673,0.3551656,-0.06974507,26.625,27.5625,26.6875,30.0625,31.4375,31.9375
0.19405343,0.28278306,-0.48976412,-0.48554718,-0.0062158364,0.012787334,-0.14892775,-0.3898885,-0.3498651,0.060050596,3.0742407,-0.63016146,-0.00023374025,-0.09006274,-0.013981211,-0.0035742703,-0.03631204,1.6422222e-05,-0.04231651,0.4703446,-1.4112076,1.9407057,-2.101084,-1.568046,2.4491508,-0.077054724,0.16110839,-0.17760728,9.349663e-08,0.03205594,-0.034603212,0.05746084,0.17238252,-9.500193,0.8090337,47.694946,-1.0365652,-2.166338,-3.4965081,-0.4877211,0.3552575,-0.08612398,26.625,27.5625,26.6875,30.0625,31.4375,31.9375
0.19605364,0.48581505,-0.52902305,-0.49552715,-0.00564868,0.0066104033,-0.13740027,-0.39009157,-0.3499041,0.0600821,3.0741122,-0.63027096,-0.00031815222,-0.0918563,-0.013838785,-0.0030703251,-0.036480427,0.0016818678,-0.044174027,0.4702001,-1.4109191,1.9402984,-2.101072,-1.5679988,2.4490914,-0.078478165,0.16248076,-0.18033534,-0.00019783183,0.031450145,-0.03416484,0.076614454,0.15322891,-9.481039,0.81351066,47.689575,-0.98796344,-2.1134827,-3.460122,-0.468937,0.353617,-0.09498707,26.625,27.5625,26.6875,30.0625,31.4375,31.9375
0.19805351,0.5747305,-0.7042959,-0.36801508,-0.0026336832,0.0016200147,-0.14483765,-0.39027998,-0.349945,0.060093697,3.0739865,-0.6303425,-0.00034725814,-0.09241674,-0.013519932,-0.004221525,-0.03607103,0.00047301815,-0.04726911,0.47005582,-1.4106175,1.939927,-2.1010845,-1.5679258,2.4490082,-0.07960753,0.16510858,-0.1805179,-0.0013788315,0.031630114,-0.032195777,0.1340753,0.21068975,-9.404425,0.8851263,47.71017,-0.9327848,-2.2982483,-3.4975882,-0.45026955,0.36551467,-0.108126454,26.625,27.5625,26.6875,30.0625,31.4375,31.9375
0.20005414,0.56254655,-0.4119364,6.9337846e-05,-0.011451779,-0.012734022,-0.13868149,-0.3904806,-0.3499335,0.060088772,3.0738895,-0.6306102,-0.00036640436,-0.09278376,-0.014176073,-0.0045720455,-0.037244882,-0.00076823984,-0.049139686,0.46983972,-1.4103168,1.9395913,-2.1010845,-1.5679015,2.448972,-0.07975257,0.16720276,-0.18222117,-0.0011973286,0.03323592,-0.030466504,0.21068975,0.19153613,-9.251195,0.83589023,47.716442,-1.0017551,-2.116223,-3.4742942,-0.4638365,0.36532778,-0.15860924,26.625,27.5625,26.6875,30.0625,31.4375,31.9375
0.20205376,0.82556874,-0.61203635,-0.036840014,-0.00952063,-0.016830644,-0.14752978,-0.39066926,-0.35000026,0.06009508,3.0737238,-0.630673,-0.0002968304,-0.094995245,-0.014888252,-0.0026604587,-0.040262036,0.00240838,-0.049959056,0.46969533,-1.4099686,1.9391726,-2.1010725,-1.5677575,2.4488883,-0.08123119,0.16689387,-0.18631539,-0.0009858839,0.03448592,-0.031120777,0.24899697,0.24899697,-9.212888,0.8403672,47.703903,-1.029059,-2.079461,-3.4207158,-0.45350325,0.3416807,-0.16251284,26.625,27.5625,26.6875,30.0625,31.4375,31.9375
0.20405373,0.7399249,-0.7605591,0.023680018,-0.006802288,-0.019057058,-0.14380014,-0.39082175,-0.35004127,0.06007132,3.073653,-0.6307536,-0.00027773835,-0.09605554,-0.015913257,-0.0022208027,-0.04255263,0.0025850008,-0.049387548,0.46959925,-1.4096437,1.9388598,-2.1011083,-1.5677088,2.4488518,-0.08159733,0.1685953,-0.1893628,-0.0008335261,0.036447447,-0.032053918,0.15322891,0.28730422,-9.232041,0.84484416,47.690468,-0.8778877,-2.030148,-3.3746371,-0.44638166,0.3331859,-0.17719692,26.625,27.5625,26.6875,30.0625,31.4375,31.9375
0.20605372,0.25101042,-1.4058682,-0.22443001,-0.0068399245,-0.012493343,-0.14288434,-0.39101762,-0.35007456,0.06007011,3.0735373,-0.6308634,-0.00021116229,-0.09690406,-0.017777512,-0.00095471303,-0.04597237,0.004127495,-0.04839841,0.46941972,-1.4092952,1.9384521,-2.1010725,-1.5676116,2.448756,-0.080527335,0.16908926,-0.19289024,-0.00072177255,0.038796496,-0.03196801,0.11492168,0.38307226,-9.155427,0.8717007,47.70211,-1.1271446,-2.0226622,-3.2987452,-0.43689927,0.31048733,-0.18740706,26.625,27.5625,26.6875,30.0625,31.4375,31.9375
0.20805326,-0.20119418,-1.5615609,-0.23941259,-0.029483434,0.0070967637,-0.14486691,-0.39123842,-0.35008997,0.06006893,3.073422,-0.63107145,-0.00026155528,-0.098904476,-0.016585102,-0.0004853468,-0.046188027,0.005204896,-0.051691942,0.46922627,-1.4089469,1.9380578,-2.101096,-1.5675763,2.4487076,-0.08416151,0.16951483,-0.194547,-0.000538258,0.03850629,-0.03230565,0.095768064,0.5554548,-9.212888,0.88289046,47.703007,-0.9920043,-1.8698072,-3.2680042,-0.45044857,0.2812969,-0.21456741,26.625,27.5625,26.6875,30.0625,31.4375,31.9375
0.21005411,-0.37866604,-2.1025686,-0.2473861,-0.04596435,0.037564594,-0.14042978,-0.39140305,-0.35014156,0.060053505,3.0733306,-0.63110834,-0.0001790877,-0.097782664,-0.018376356,-0.0018720826,-0.0458489,0.002410919,-0.04847347,0.46910766,-1.4085971,1.9376863,-2.101084,-1.56748,2.448624,-0.08058305,0.17343208,-0.19601263,-0.0003413263,0.03946655,-0.031943005,-0.095768064,0.61291564,-9.270349,0.7530795,47.7245,-1.0909412,-1.9156218,-3.289379,-0.44037986,0.27341437,-0.21757218,26.625,27.5625,26.6875,30.0625,31.4375,31.9375
0.21205412,-0.968116,-2.2672713,-0.31100264,-0.05748192,0.046209324,-0.14244428,-0.39162463,-0.35016719,0.06007851,3.0731719,-0.63134396,-0.00023718535,-0.09882066,-0.01897568,8.947745e-05,-0.049219705,0.0049040616,-0.04917556,0.4689152,-1.4082856,1.9372667,-2.101072,-1.5674189,2.4485993,-0.08159698,0.17108099,-0.19792287,0.00017636587,0.041352168,-0.032248314,-0.17238252,0.7661445,-9.308656,0.8851263,47.71286,-1.2389358,-1.8634998,-3.3229914,-0.45179248,0.23701707,-0.22249708,26.625,27.5625,26.6875,30.0625,31.4375,31.9375
0.21405387,-0.73915875,-2.003269,-0.25311288,-0.05264437,0.048237666,-0.14493024,-0.39178386,-0.3502031,0.060052235,3.073083,-0.6314614,-5.755119e-05,-0.10054387,-0.019392604,0.00060079206,-0.051433567,0.0052401074,-0.050325617,0.46875858,-1.4079247,1.9368957,-2.101012,-1.5672983,2.4485276,-0.083517544,0.17285982,-0.20125574,0.00043678144,0.04317338,-0.033016995,-0.21068975,0.78529817,-9.346964,0.84484416,47.71286,-1.1856976,-1.8344892,-3.318643,-0.4443498,0.20142087,-0.22154915,26.625,27.5625,26.6875,30.0625,31.4375,31.9375
0.21605375,-1.1670558,-1.9344591,-0.3475864,-0.035302233,0.02804039,-0.13728529,-0.3920255,-0.35026363,0.060086593,3.0729043,-0.6314989,-0.00020431084,-0.10060673,-0.019552875,-2.0601663e-05,-0.051298287,0.0040737637,-0.0497395,0.46860272,-1.4075878,1.9364418,-2.101072,-1.5672263,2.4484186,-0.083492905,0.17456988,-0.20186953,0.00045178103,0.043589912,-0.033569854,-0.3256114,0.47884035,-9.308656,0.9455522,47.688675,-1.2416239,-1.755027,-3.4514918,-0.45222968,0.18949401,-0.2167742,26.625,27.5625,26.6875,30.0625,31.4375,31.9375
0.21805444,-0.2852972,-0.94214255,-0.019259527,-0.037707422,0.03812025,-0.14658122,-0.39220098,-0.35029903,0.06004178,3.0728154,-0.6316734,-6.2930034e-05,-0.101194344,-0.019623669,-8.215671e-05,-0.052104924,0.0037895392,-0.05014941,0.46844637,-1.4071791,1.9360713,-2.101072,-1.56713,2.4483829,-0.084380746,0.1755174,-0.20288122,0.00041404515,0.04443991,-0.03404783,-0.2873042,0.45968673,-9.251195,0.90527004,47.694946,-1.1899873,-1.8031874,-3.429545,-0.43367997,0.15103269,-0.24519329,26.625,27.5625,26.6875,30.0625,31.4375,31.9375
0.2200535,-0.11860225,-0.584569,-0.13315172,-0.016654536,0.04380604,-0.1537716,-0.39239874,-0.35033634,0.06004073,3.072681,-0.63179934,1.3536275e-06,-0.10272117,-0.019884288,1.132545e-05,-0.05267941,0.0043194564,-0.05075279,0.46826604,-1.4068296,1.935664,-2.1010482,-1.5670217,2.4482987,-0.08539877,0.17788829,-0.20586686,0.00030889316,0.044713814,-0.034458976,-0.30645782,0.36391866,-9.270349,0.842603,47.71823,-1.25631,-1.7528541,-3.3873465,-0.44079596,0.12613666,-0.25914988,26.625,27.5625,26.6875,30.0625,31.4375,31.9375
0.22205329,-0.87353474,-0.072778866,-0.31662297,0.006465723,0.026592927,-0.14714737,-0.39262533,-0.35037947,0.06005218,3.07253,-0.6319213,-2.904991e-05,-0.1032778,-0.019753676,-0.0012066363,-0.051708296,0.0023967412,-0.05086729,0.46808589,-1.4064678,1.935222,-2.1010597,-1.5669378,2.4482145,-0.08606203,0.1814289,-0.2072514,0.00031988934,0.044721376,-0.035002608,-0.21068975,0.22984336,-9.346964,0.8314132,47.71554,-1.2510083,-2.0701246,-3.3901725,-0.42662704,0.11234327,-0.27585778,26.625,27.5625,26.6875,30.0625,31.4375,31.9375
0.22405389,-0.61218446,0.078126505,-0.28156522,0.017975735,0.04182696,-0.14876355,-0.3928396,-0.3504367,0.060057722,3.0723736,-0.6320234,-7.750694e-05,-0.104354374,-0.019760065,-0.0018880377,-0.05154034,0.001415817,-0.051858332,0.4679415,-1.4061066,1.9348024,-2.1011078,-1.5668539,2.4481544,-0.08713777,0.18461087,-0.20943196,0.00027838242,0.045016706,-0.03508073,-0.24899697,0.095768064,-9.404425,0.8672237,47.703903,-1.2296274,-1.9973238,-3.4343135,-0.41855046,0.08018227,-0.2867048,26.625,27.5625,26.6875,30.0625,31.4375,31.9375
0.22605395,-0.8467073,0.13366437,-0.04785378,0.019653814,0.04994803,-0.14796567,-0.39304045,-0.3504753,0.06004972,3.0722542,-0.6321138,1.1539398e-06,-0.105301954,-0.019496625,-0.0016667821,-0.051183395,0.0023499676,-0.052389912,0.4677611,-1.4057343,1.9343842,-2.101084,-1.5667456,2.4480462,-0.08790781,0.18528347,-0.21078245,0.00029903668,0.044279896,-0.035318866,-0.24899697,0.1340753,-9.289503,0.8627467,47.701214,-1.2176784,-1.9516697,-3.448956,-0.4193852,0.057569347,-0.31106526,26.625,27.5625,26.6875,30.0625,31.4375,31.9375
0.22805387,-1.6218517,0.35780737,9.308632e-05,0.017025545,0.04124936,-0.13469605,-0.3932493,-0.35051295,0.060037494,3.072111,-0.63233495,5.4000273e-05,-0.10728378,-0.018552102,-0.0022910468,-0.05009762,0.001977595,-0.054891236,0.4675802,-1.4053487,1.9339656,-2.101084,-1.5666503,2.4480221,-0.09074892,0.18861948,-0.21329708,0.00031518083,0.043479808,-0.035657037,-0.38307226,-0.038307227,-9.289502,0.89631605,47.690468,-1.1743746,-2.0036511,-3.4249744,-0.41955078,0.049507417,-0.33022082,26.625,27.5625,26.6875,30.0625,31.4375,31.9375
0.23005374,-1.0300149,0.4599279,-0.091822654,0.019721828,0.062870726,-0.14497201,-0.39344558,-0.35056823,0.060019314,3.0720325,-0.63239485,0.00013897705,-0.10750268,-0.019338125,-0.0023260578,-0.04967261,0.0024324749,-0.053481095,0.4674487,-1.4049277,1.9335111,-2.1010482,-1.5665663,2.4479384,-0.08913701,0.190189,-0.21512292,0.00036701656,0.042894006,-0.035455465,-0.4213795,-0.05746084,-9.442732,0.82022345,47.703007,-1.1731843,-2.1688652,-3.3814516,-0.40694052,0.02894428,-0.3507393,26.625,27.5625,26.6875,30.0625,31.4375,31.9375
0.23205537,-1.2075882,0.4864465,-0.15978914,0.018794365,0.063036114,-0.14662203,-0.39365596,-0.35059097,0.060021836,3.0718997,-0.6325787,0.00013563193,-0.10947756,-0.018275633,-0.0020737115,-0.048163522,0.0041845795,-0.055269793,0.46725616,-1.4045911,1.9331154,-2.1010482,-1.5664953,2.4478781,-0.09132373,0.19149625,-0.21727069,0.00034330404,0.040760785,-0.035853628,-0.30645782,0.0,-9.385271,0.83589023,47.683304,-1.2448914,-2.0585775,-3.4144192,-0.40771484,0.04496367,-0.35788864,26.625,27.5625,26.6875,30.0625,31.4375,31.9375
0.23405348,-1.1797606,0.23980235,-0.13290893,0.030740973,0.05654335,-0.14223392,-0.39390236,-0.35061115,0.06000831,3.0717752,-0.63276476,0.00014931423,-0.111605965,-0.017291402,-0.002164516,-0.046496972,0.0053933063,-0.05753481,0.46702722,-1.4041694,1.93266,-2.1010597,-1.5664243,2.4477818,-0.09356074,0.193915,-0.21993406,0.00027827302,0.03872985,-0.03582598,-0.36391866,-0.076614454,-9.346964,0.8537928,47.664497,-0.97415614,-2.2656834,-3.3604395,-0.385927,0.065498464,-0.3783662,26.625,27.5625,26.6875,30.0625,31.4375,31.9375
0.23605365,-0.7322824,0.35168895,-0.14015748,0.024938341,0.0678805,-0.14535247,-0.39411628,-0.35065347,0.059986196,3.071636,-0.63287014,0.00022489311,-0.112839565,-0.016821463,-0.002103913,-0.045041084,0.0066252192,-0.057738785,0.4668351,-1.4037604,1.9322418,-2.101084,-1.5663046,2.4476738,-0.09422631,0.19530231,-0.22176246,0.0002951054,0.03687896,-0.036288794,-0.40222588,0.038307227,-9.423578,0.86945957,47.647476,-1.1037724,-2.2224145,-3.3374226,-0.39404535,0.05686195,-0.39760238,26.625,27.5625,26.6875,30.0625,31.4375,31.9375
0.23805338,-2.1815379,-0.74383944,-0.017145786,0.031860363,0.041594166,-0.13542087,-0.3943361,-0.3506902,0.05997843,3.0715122,-0.6330953,0.00022716222,-0.11406769,-0.015375705,-0.0025556125,-0.04356122,0.006452291,-0.060274176,0.46666625,-1.4033641,1.9317998,-2.101084,-1.566245,2.4476619,-0.0969848,0.1964889,-0.22220755,0.00038782522,0.035641138,-0.036512338,-0.47884035,0.038307227,-9.442732,0.9612189,47.690468,-0.9909438,-2.1940167,-3.4881198,-0.38837343,0.061459742,-0.41404426,26.625,27.5625,26.6875,30.0625,31.4375,31.9375
0.24005397,-1.1458511,0.020290593,-0.25856924,0.0022641413,0.0665228,-0.14394282,-0.39459252,-0.3507206,0.06000081,3.071384,-0.6332413,0.00015853655,-0.11627029,-0.015049806,-0.0016674462,-0.043118436,0.00882324,-0.060595017,0.46646175,-1.4029794,1.9312967,-2.1010592,-1.5661973,2.4475656,-0.098496035,0.19776173,-0.22589704,0.0009057262,0.03418516,-0.03770065,-0.47884035,0.13407528,-9.461885,0.81351066,47.687782,-0.8770711,-2.1370764,-3.504654,-0.36842006,0.074809015,-0.4217744,26.625,27.5625,26.6875,30.0625,31.4375,31.9375
0.24205379,-0.9240202,-0.45740172,-0.2563278,0.0017032725,0.070699126,-0.14834872,-0.39478678,-0.35073265,0.05996431,3.0713081,-0.63339764,0.00028557342,-0.117363006,-0.014618225,-0.0014373747,-0.042040873,0.009771849,-0.060290337,0.46625757,-1.4025829,1.9309143,-2.1010358,-1.5661138,2.447469,-0.09926522,0.19872002,-0.22773433,0.0014419499,0.03280114,-0.03877775,-0.45968673,0.17238252,-9.423578,0.88960326,47.689575,-0.8333514,-2.094623,-3.501153,-0.3753691,0.10833442,-0.4427328,26.625,27.5625,26.6875,30.0625,31.4375,31.9375
0.24405353,-1.6143283,-0.8314334,-0.27478907,-0.0072746347,0.06152348,-0.14353071,-0.39503467,-0.3507861,0.05997816,3.0711834,-0.63348645,0.00020170581,-0.1182591,-0.014425382,-0.0006761343,-0.041835424,0.010454719,-0.059857734,0.46610114,-1.4021745,1.9304112,-2.1010473,-1.5660661,2.4473846,-0.10001274,0.19877775,-0.22999811,0.003144538,0.032322228,-0.03995482,-0.5554548,0.22984336,-9.423578,0.7978386,47.67793,-0.88240314,-1.9909303,-3.4632783,-0.39200807,0.12977368,-0.45283532,26.625,27.5625,26.6875,30.0625,31.4375,31.9375
0.24605423,-1.1754737,-0.5063542,-0.4380381,-0.011605236,0.07530275,-0.1484002,-0.39528167,-0.35080487,0.05997709,3.071062,-0.63374823,0.00019246347,-0.11905099,-0.014261189,-0.0010903539,-0.040984847,0.010171614,-0.058402635,0.46588507,-1.4017653,1.929933,-2.1010234,-1.5660185,2.447348,-0.10051971,0.20089151,-0.23162793,0.0033159843,0.03170106,-0.041915905,-0.5554548,0.28730422,-9.461885,0.8493211,47.695843,-0.90562487,-2.0411792,-3.4819489,-0.4071777,0.13079968,-0.4460935,26.625,27.5625,26.6875,30.0625,31.4375,31.9375
0.24805383,-1.2280229,-0.64067906,-0.7918191,-0.015198586,0.080022424,-0.1443121,-0.3954931,-0.35083288,0.059954446,3.0709538,-0.63387525,0.0002476186,-0.11941741,-0.014912185,-0.0018433654,-0.040943906,0.009533456,-0.054485317,0.46569347,-1.401368,1.9295257,-2.1010354,-1.5659341,2.4472501,-0.099798374,0.20373918,-0.2331295,0.0025823116,0.0319635,-0.045109678,-0.45968673,0.2681506,-9.615114,0.8873621,47.709274,-0.98698485,-2.0284243,-3.4639552,-0.3924901,0.15171434,-0.41760415,26.625,27.5625,26.6875,30.0625,31.4375,31.9375
0.25005335,-1.3166426,-1.2916489,-0.44655302,-0.023079429,0.082380354,-0.14462982,-0.39575413,-0.35085598,0.059946045,3.0708153,-0.634097,0.00022106802,-0.12055684,-0.01508377,-0.0013272498,-0.041924376,0.010940994,-0.05488371,0.4654651,-1.4009355,1.9290475,-2.1010587,-1.565874,2.4471786,-0.10057061,0.20425105,-0.23487438,0.0021284376,0.0322136,-0.045480087,-0.38307226,0.28730422,-9.653421,0.87393653,47.705692,-0.9299866,-2.013087,-3.5297198,-0.38083825,0.17758316,-0.39551106,26.625,27.5625,26.6875,30.0625,31.4375,31.9375
0.25205398,-1.7070843,-1.6287057,-0.60261357,-0.015619685,0.059011504,-0.13292058,-0.39601243,-0.35087624,0.05995186,3.0707178,-0.63420826,0.00016765855,-0.12139295,-0.016452566,-0.00043744518,-0.043136444,0.013130529,-0.051523834,0.46524975,-1.4005266,1.9285563,-2.1010478,-1.5658382,2.4470458,-0.098899804,0.20513208,-0.23792712,0.0018159493,0.03232271,-0.04716531,-0.3256114,0.30645782,-9.500193,0.8940802,47.686886,-1.1258149,-2.0309787,-3.4362555,-0.3812487,0.18937403,-0.39612484,26.625,27.5625,26.6875,30.0625,31.4375,31.9375
0.25405368,-0.90685725,-0.5372661,-0.7332867,-0.008574891,0.036480695,-0.14076796,-0.39624035,-0.3508769,0.059923757,3.0706706,-0.63437223,0.0002615568,-0.12366225,-0.014234743,-0.0016417467,-0.040642437,0.012045948,-0.05325896,0.4650199,-1.4000932,1.9281024,-2.1009877,-1.565791,2.4469247,-0.1035868,0.20871107,-0.23945886,0.0018870146,0.03059269,-0.050121274,-0.21068975,0.22984336,-9.500193,0.77545905,47.689575,-0.90595734,-1.9260017,-3.3674383,-0.37438798,0.19647223,-0.3639419,26.625,27.5625,26.6875,30.0625,31.4375,31.9375
0.25605336,0.2389896,0.12150277,-0.79318804,-0.008699851,0.023383481,-0.14138445,-0.3964891,-0.35093126,0.059916686,3.0705504,-0.6344763,0.0001937286,-0.123973906,-0.015534857,-0.0013693912,-0.040646553,0.0127300285,-0.04646837,0.46486497,-1.3996483,1.9276117,-2.1010354,-1.5657429,2.4468508,-0.10133602,0.21054219,-0.24242145,0.0024357673,0.030310575,-0.054657668,-0.11492168,0.21068975,-9.615114,0.90527004,47.687782,-1.0738382,-1.9984851,-3.4536743,-0.3606158,0.2370753,-0.32649538,26.625,27.5625,26.6875,30.0625,31.4375,31.9375
0.25805354,0.093612224,-0.38246667,-0.49432853,-0.0006778645,-0.0018468958,-0.14997141,-0.39675674,-0.35095492,0.059942283,3.0703988,-0.63463724,0.00014899304,-0.1260354,-0.015803635,-0.0004130712,-0.043010183,0.014371057,-0.04726432,0.46462438,-1.3992631,1.9270972,-2.1009996,-1.5656699,2.4467309,-0.10346032,0.21151884,-0.24576716,0.0022915737,0.031697962,-0.05597848,-0.095768064,0.3256114,-9.500193,0.8672237,47.689575,-1.0101802,-2.0392404,-3.4005463,-0.36307746,0.26479495,-0.28504014,26.625,27.5625,26.6875,30.0625,31.4375,31.9375
0.26005337,0.56508666,-0.4882954,-0.5530288,-0.029917238,0.01996227,-0.14396337,-0.39699477,-0.35098624,0.059915207,3.0703204,-0.63471645,0.00017871265,-0.12624265,-0.015657742,-0.0011666027,-0.042645853,0.013050011,-0.048046775,0.46443206,-1.3988062,1.9266294,-2.101011,-1.5656108,2.4465985,-0.103983924,0.21333428,-0.24626507,0.0023255532,0.031969283,-0.055718027,-0.11492168,0.36391866,-9.404425,0.8918391,47.67345,-1.004312,-2.0909302,-3.5271852,-0.3334919,0.28104478,-0.28305686,26.625,27.5625,26.6875,30.0625,31.4375,31.9375
0.26205423,0.070235096,-1.3154423,-0.6469038,-0.03192374,0.012205536,-0.14604965,-0.39726192,-0.35099924,0.05989556,3.0702462,-0.6348724,0.00016244048,-0.12678683,-0.015958695,-0.0019810298,-0.043323103,0.011167341,-0.045906078,0.46420383,-1.3983368,1.9261273,-2.101011,-1.5655855,2.4464777,-0.104769275,0.2162737,-0.24796258,0.0024821844,0.033434555,-0.05863859,0.076614454,0.34476504,-9.557653,0.9634547,47.71286,-0.9972507,-2.1195917,-3.6605992,-0.3495714,0.300604,-0.2368959,26.625,27.5625,26.6875,30.0625,31.4375,31.9375
0.26405376,0.19094475,-1.5567719,-0.2821418,-0.04162658,0.022244673,-0.15191904,-0.39752218,-0.3510146,0.059914794,3.070115,-0.63505477,0.00013455396,-0.12825868,-0.016965492,-0.0008489124,-0.04538358,0.012285389,-0.044781886,0.46396375,-1.3979524,1.9256247,-2.1009629,-1.5655249,2.446369,-0.10506399,0.21748888,-0.25230193,0.0036984428,0.03478698,-0.060050096,0.11492168,0.36391866,-9.385271,0.8560339,47.701214,-0.9550109,-2.1132379,-3.5235395,-0.3496703,0.30559227,-0.19648917,26.625,27.5625,26.6875,30.0625,31.4375,31.9375
0.26605338,0.11659644,-0.9507173,-0.4288871,-0.02848683,0.0017483883,-0.14516632,-0.3977701,-0.35107288,0.059897915,3.0699573,-0.6351753,0.00018025553,-0.12937517,-0.017821917,-0.0006742452,-0.046155617,0.012310178,-0.045016404,0.4637719,-1.3974829,1.9251217,-2.1009867,-1.5654052,2.4462733,-0.104892276,0.22008586,-0.25598386,0.0044251857,0.035467796,-0.059638478,0.0,0.4213795,-9.404425,0.90527004,47.687782,-1.0119975,-2.2687068,-3.4406242,-0.34248388,0.31825048,-0.15457201,26.6875,27.5625,26.6875,30.0625,31.4375,31.9375
0.26805404,0.48116982,-0.41620147,-0.7720991,-0.014470069,-0.0038925412,-0.15159436,-0.39801282,-0.3511023,0.05989773,3.0698688,-0.63523364,0.00015431129,-0.13061771,-0.018400965,-0.0002136412,-0.046843514,0.013497951,-0.045280907,0.4635798,-1.3970737,1.9246424,-2.1009753,-1.5653571,2.4461296,-0.10494002,0.22166282,-0.25896084,0.004463502,0.03555422,-0.059418093,0.05746084,0.4405331,-9.32781,0.91198283,47.688675,-1.1074085,-2.1929388,-3.508032,-0.35447395,0.32168612,-0.1371506,26.6875,27.5625,26.6875,30.0625,31.4375,31.9375
0.2700538,0.64622146,-0.819992,-0.5874383,-0.013823041,-0.0066984026,-0.14666669,-0.39827693,-0.351137,0.059887618,3.0697541,-0.63536423,0.00016850677,-0.13235116,-0.01805217,0.0003611986,-0.04852116,0.014654422,-0.048840463,0.46336302,-1.396605,1.924116,-2.1009629,-1.5652846,2.4460096,-0.107586935,0.22214048,-0.26082578,0.004070003,0.036539115,-0.058500543,0.11492168,0.49799395,-9.404425,0.8672237,47.696735,-1.1100243,-2.194438,-3.4100318,-0.3386844,0.3413713,-0.12327428,26.6875,27.5625,26.6875,30.0625,31.4375,31.9375
0.27205366,0.48550305,-1.1473701,-0.430409,-0.035890818,0.0077451286,-0.14822164,-0.39855662,-0.35115838,0.059892643,3.0696292,-0.63548934,0.00010081601,-0.13185777,-0.020673975,0.0007563484,-0.05087316,0.014741964,-0.045946036,0.46312433,-1.3961722,1.9236025,-2.1009753,-1.5652355,2.4458659,-0.103796855,0.22369047,-0.26364332,0.0042077103,0.03860835,-0.057594582,0.076614454,0.51714754,-9.3661175,0.92093146,47.684196,-1.1775955,-2.120469,-3.3422542,-0.32094312,0.3424875,-0.11294694,26.6875,27.5625,26.6875,30.0625,31.4375,31.9375
0.27405354,0.24020553,-1.2136309,-0.41098452,-0.056236297,0.020160392,-0.14623474,-0.39879763,-0.35122567,0.059882425,3.069482,-0.63559526,0.00016162152,-0.13446784,-0.019705877,0.0012830659,-0.051732615,0.015052205,-0.05200207,0.46295497,-1.3957022,1.9230746,-2.1009624,-1.5651158,2.4457822,-0.108068526,0.22548486,-0.267305,0.0054148575,0.039234634,-0.055805262,0.019153614,0.47884032,-9.385271,0.8493211,47.66808,-1.1254308,-2.2970188,-3.3076947,-0.33000213,0.34744224,-0.100103036,26.6875,27.5625,26.6875,30.0625,31.4375,31.9375
0.27605346,-0.14458819,-1.3602126,-0.61294955,-0.051697657,0.018093765,-0.13970354,-0.3990646,-0.35127175,0.05989439,3.0693543,-0.63572234,0.00011836044,-0.13460705,-0.021049364,0.0030123014,-0.05396672,0.017111287,-0.05280708,0.46276355,-1.3952589,1.9225243,-2.100938,-1.5650553,2.4456873,-0.10643718,0.22370848,-0.26950416,0.0065438687,0.040313363,-0.05336225,-0.076614454,0.49799395,-9.404425,0.8672237,47.67793,-1.1704606,-2.0587444,-3.238459,-0.35355335,0.375511,-0.119495265,26.6875,27.5625,26.6875,30.0625,31.4375,31.9375
0.2780546,0.13165043,-0.9025811,-0.6726759,-0.047178313,0.03533838,-0.15073717,-0.39935416,-0.35128272,0.05989717,3.069221,-0.635927,6.5107015e-05,-0.13423276,-0.020329274,0.0025031664,-0.053983796,0.015196134,-0.05670885,0.4624991,-1.3948148,1.9219993,-2.100938,-1.5650066,2.4455686,-0.10780097,0.22349794,-0.26836425,0.007316594,0.04119089,-0.050819274,-0.076614454,0.34476504,-9.5385,0.89631605,47.684196,-1.1580197,-1.8829826,-3.434955,-0.3620713,0.37265342,-0.13657114,26.6875,27.5625,26.6875,30.0625,31.4375,31.9375
0.28005466,-0.7462086,-1.2652358,-0.5341756,-0.029886693,0.024388634,-0.1367102,-0.39959812,-0.35133567,0.059884124,3.0690713,-0.6360694,0.00016764292,-0.13461858,-0.020510143,0.0025201135,-0.055887695,0.01470351,-0.060319223,0.46229467,-1.3943461,1.9214734,-2.1009018,-1.564874,2.445473,-0.1089363,0.2238107,-0.2687836,0.007008785,0.04311073,-0.048337616,-0.13407528,0.4405331,-9.5385,0.9164598,47.701214,-1.1180376,-1.8377206,-3.476606,-0.36112416,0.36901635,-0.14939353,26.6875,27.5625,26.6875,30.0625,31.4375,31.9375
0.28205425,-0.43456265,-0.59788054,-0.4965689,-0.023593789,0.034519993,-0.13906191,-0.39991224,-0.35139927,0.05990867,3.0688596,-0.6362569,4.6187626e-05,-0.13528971,-0.020359395,0.0012323719,-0.056083925,0.012792288,-0.06405376,0.46207818,-1.3938651,1.920864,-2.1009386,-1.5647897,2.445402,-0.11031829,0.22709902,-0.26959395,0.0061499826,0.044139966,-0.045973986,-0.2681506,0.36391866,-9.557653,0.9298854,47.698532,-1.093572,-1.8560976,-3.6363513,-0.3552783,0.36823457,-0.18058857,26.6875,27.5625,26.6875,30.0625,31.4375,31.9375
0.28405437,-0.5649882,-0.2254517,-0.44766346,-0.008354079,0.039061677,-0.1494971,-0.4001533,-0.3514264,0.059882827,3.0687504,-0.63642603,0.00011644422,-0.13566688,-0.020674521,0.00042956803,-0.056848086,0.0114576705,-0.064913146,0.46186215,-1.3934077,1.9203852,-2.1009262,-1.5647053,2.445306,-0.110810526,0.22947761,-0.27050242,0.0055407146,0.045421902,-0.045601822,-0.21068975,0.36391866,-9.500193,0.8627467,47.684196,-1.075526,-1.9002979,-3.6138415,-0.33484507,0.37441814,-0.20261902,26.6875,27.5625,26.6875,30.0625,31.4375,31.9375
0.28605354,-0.79002553,-0.1892249,-0.40885344,-0.0013704404,0.04137742,-0.14345193,-0.40041292,-0.3514763,0.059883077,3.0686278,-0.6365543,0.00014452769,-0.13667168,-0.021118544,-7.710709e-05,-0.057598233,0.010289616,-0.06722528,0.46166974,-1.3929379,1.9198245,-2.1008785,-1.5646209,2.4452102,-0.111564636,0.23265922,-0.27322388,0.005791041,0.04660997,-0.04403663,-0.3256114,0.24899697,-9.461885,0.93436235,47.701214,-1.0770805,-1.968616,-3.6091614,-0.31702334,0.34340638,-0.22122037,26.6875,27.5625,26.6875,30.0625,31.4375,31.9375
0.28805423,-0.17757435,0.5224176,-0.7125492,-0.00044759412,0.050576784,-0.15215334,-0.400712,-0.35153067,0.059896927,3.0684066,-0.6367605,0.00010176149,-0.13906063,-0.02036869,-0.0005844844,-0.05795778,0.00905599,-0.07325917,0.4614284,-1.3924681,1.9192489,-2.1009018,-1.5645007,2.4451272,-0.11536899,0.23660947,-0.2769527,0.0065137926,0.047478072,-0.041796308,-0.22984336,0.21068975,-9.576807,0.9186956,47.689575,-0.9453181,-2.179034,-3.5764618,-0.30946675,0.33861455,-0.25679493,26.6875,27.5625,26.6875,30.0625,31.4375,31.9375
0.2900541,-0.49997967,0.22661167,-0.7321928,0.0041286517,0.048651487,-0.1498803,-0.40097678,-0.35157415,0.059894107,3.0682626,-0.63693815,0.00013823349,-0.1393701,-0.022181768,-0.00018702485,-0.059507072,0.009292491,-0.06916304,0.4612133,-1.3919989,1.9186982,-2.100866,-1.5644044,2.4450424,-0.113202445,0.23857456,-0.28038576,0.007102147,0.048772547,-0.043718,-0.34476504,0.19153613,-9.576807,0.89631605,47.696735,-1.0877296,-2.1911912,-3.5583646,-0.32467076,0.34510136,-0.25569722,26.6875,27.5625,26.6875,30.0625,31.4375,31.9375
0.2920542,-0.88402134,-0.8212101,-0.5334748,-0.01043072,0.06851383,-0.1497881,-0.40126342,-0.35163614,0.05991557,3.068067,-0.63705146,0.00011049601,-0.14133325,-0.02167275,-0.00048571316,-0.061007276,0.008159737,-0.0718384,0.4609959,-1.3915416,1.9181117,-2.1008542,-1.5642833,2.444922,-0.11684265,0.24138767,-0.2831637,0.007429427,0.050632108,-0.04466938,-0.51714754,0.22984336,-9.557653,0.900793,47.695843,-0.88961446,-2.2001734,-3.4162045,-0.33036444,0.33727625,-0.2656137,26.6875,27.5625,26.6875,30.0625,31.4375,31.9375
0.2940538,-1.1975219,-0.79650927,-0.8212858,-0.01337363,0.057536826,-0.14191705,-0.40153137,-0.35164297,0.05988778,3.0679739,-0.6372784,0.00014414894,-0.14236178,-0.023744604,0.00093441154,-0.063645236,0.010387601,-0.06757111,0.46074483,-1.3910606,1.9176086,-2.1008422,-1.5642346,2.4448252,-0.114899516,0.24234574,-0.28771678,0.0078808945,0.052016098,-0.046986505,-0.4213795,0.21068975,-9.634268,0.8605109,47.704796,-1.1029551,-2.2240095,-3.4208946,-0.33559516,0.29459006,-0.24492854,26.6875,27.5625,26.6875,30.0625,31.4375,31.9375
0.29605368,-0.8517548,-1.0038662,-0.5423733,-0.021131424,0.06498442,-0.14125225,-0.40183076,-0.35172048,0.0599254,3.0677187,-0.63747454,9.5067226e-05,-0.14286146,-0.02474797,0.0017733638,-0.06702147,0.010638548,-0.0696102,0.4605288,-1.3906045,1.9169863,-2.1008298,-1.5640897,2.4447658,-0.11530583,0.24211049,-0.2894878,0.008158488,0.054932736,-0.045334693,-0.61291564,0.30645782,-9.5385,0.9186956,47.705692,-1.0684026,-2.1780627,-3.3142104,-0.31972355,0.26228222,-0.24068928,26.6875,27.5625,26.6875,30.0625,31.4375,31.9375
0.2980536,-1.1336778,-0.938797,-0.59701884,-0.017293487,0.05314275,-0.13988385,-0.40211955,-0.35177368,0.059930187,3.0675106,-0.637681,0.00010709885,-0.1439449,-0.025058562,0.0017654592,-0.0681112,0.010675025,-0.07169919,0.46028847,-1.3901236,1.9164122,-2.1008298,-1.563958,2.4446824,-0.116188504,0.24394876,-0.29168773,0.00801097,0.055895023,-0.04411871,-0.7278373,0.2681506,-9.442732,0.87617236,47.686886,-1.0221324,-2.001787,-3.357925,-0.31866497,0.23892793,-0.2882862,26.6875,27.5625,26.6875,30.0625,31.4375,31.9375
0.3000535,-0.57916325,-0.64289325,-0.83747995,-0.0053539528,0.06067796,-0.14993578,-0.40238822,-0.35180706,0.05992063,3.0674014,-0.63784826,0.00017877035,-0.14229071,-0.025190411,0.00019506339,-0.069175236,0.0060072728,-0.07025882,0.4600604,-1.3896306,1.9158396,-2.1007583,-1.5638727,2.4445734,-0.11633339,0.2449265,-0.28949073,0.008562429,0.05894455,-0.045693293,-0.59376204,0.28730422,-9.672575,0.8403672,47.699425,-1.1332946,-2.030705,-3.4604115,-0.31227526,0.19067043,-0.29197538,26.6875,27.5625,26.6875,30.0625,31.4375,31.9375
0.30205345,-0.76140434,-0.699633,-0.5071162,-0.02679425,0.07382122,-0.14726515,-0.4027096,-0.35183784,0.05993054,3.0672128,-0.6380778,0.000115610645,-0.14382634,-0.024593394,0.0012360207,-0.06990474,0.008187951,-0.07199561,0.4597838,-1.3891385,1.9152426,-2.1007693,-1.5637892,2.4444656,-0.11836773,0.24411169,-0.29102623,0.008658186,0.058644246,-0.045985032,-0.53630114,0.21068975,-9.672575,0.8784135,47.689575,-1.0790919,-1.9076512,-3.6679924,-0.33177346,0.18620172,-0.30707675,26.6875,27.5625,26.6875,30.0625,31.4375,31.9375
0.304054,-0.9531654,-0.40105325,-0.31032974,-0.035829075,0.06312054,-0.14445837,-0.40301815,-0.35190496,0.05994998,3.066969,-0.6382953,9.532055e-05,-0.14514796,-0.02422885,0.0011967717,-0.070077434,0.008422609,-0.07371449,0.45954317,-1.3886453,1.9146203,-2.1007698,-1.5636448,2.4443936,-0.12004828,0.24570197,-0.2929124,0.0086874785,0.058705766,-0.04593818,-0.4213795,0.19153613,-9.442732,0.90750587,47.675243,-0.9797771,-1.8383511,-3.7815275,-0.31843072,0.16035104,-0.303074,26.6875,27.5625,26.6875,30.0625,31.4375,31.9375
0.30605412,-0.5798443,-0.10503484,-0.3443562,-0.015494586,0.057478435,-0.14118856,-0.40328428,-0.35196945,0.05994484,3.066778,-0.6383885,0.00015847257,-0.1471578,-0.025379311,0.0034919793,-0.07379006,0.012358384,-0.07483973,0.45932695,-1.3881654,1.914069,-2.1007698,-1.5634879,2.4442613,-0.12066516,0.2446622,-0.29698014,0.008631646,0.060288392,-0.045417976,-0.2681506,0.19153614,-9.3661175,0.9567419,47.71286,-0.8733458,-1.7092744,-3.5120835,-0.31221163,0.12643275,-0.3369043,26.6875,27.5625,26.6875,30.0625,31.4375,31.9375
0.30805406,-0.7520167,0.1072504,-0.15584297,0.0137668345,0.037130356,-0.1429364,-0.40362903,-0.35201752,0.05997358,3.0665193,-0.6386998,8.533097e-05,-0.14912991,-0.025293423,0.0032073653,-0.07464401,0.0125408005,-0.07660107,0.45903802,-1.3876598,1.9134105,-2.1007698,-1.5633677,2.4442017,-0.12279981,0.24782005,-0.29999152,0.00796636,0.060986593,-0.04577766,-0.30645782,0.1340753,-9.308656,0.9097417,47.693153,-0.7563934,-1.8007603,-3.5309796,-0.30486643,0.095347434,-0.3494078,26.6875,27.5625,26.6875,30.0625,31.4375,31.9375
0.31005388,0.0045134253,0.8293213,0.020833958,0.030842522,0.041254386,-0.15190877,-0.40389746,-0.35206085,0.059979923,3.0663698,-0.6388764,0.00010504769,-0.15026318,-0.025507424,0.0029233936,-0.07181135,0.013825521,-0.07398753,0.4588229,-1.3872021,1.9128479,-2.100722,-1.5632733,2.444117,-0.12135362,0.25104716,-0.30330896,0.008197037,0.05788999,-0.046953287,-0.076614454,0.05746084,-9.346964,0.8873621,47.684196,-0.9721695,-1.9571252,-3.4366047,-0.27769122,0.09351635,-0.35084307,26.6875,27.5625,26.6875,30.0625,31.4375,31.9375
0.31205356,0.157216,1.1705421,0.09568297,0.03508804,0.039825954,-0.1545008,-0.40422994,-0.35212013,0.059994366,3.066105,-0.6390682,9.290709e-05,-0.15211019,-0.025777914,0.0024828229,-0.07158115,0.013320779,-0.0734989,0.45853433,-1.3866844,1.9122127,-2.1007454,-1.563105,2.443984,-0.12234871,0.25545952,-0.30774903,0.008815058,0.057926692,-0.048426695,-0.095768064,0.17238252,-9.251195,0.90750587,47.690468,-0.86670125,-1.9565175,-3.358777,-0.27063626,0.07947793,-0.35204315,26.6875,27.5625,26.6875,30.0625,31.4375,31.9375
0.3140532,-0.67669094,0.13018852,-0.23880623,0.034258302,0.030212307,-0.14779633,-0.40451938,-0.35214904,0.05998701,3.0660026,-0.63923806,8.245285e-05,-0.15204947,-0.024524746,0.0014710567,-0.06867913,0.011948464,-0.073032655,0.45830625,-1.3861796,1.9116277,-2.1007097,-1.5630578,2.443876,-0.12310572,0.25661173,-0.30711177,0.009572471,0.055953715,-0.049656775,-0.21068975,0.2681506,-9.289502,0.9321212,47.703903,-0.92663765,-1.9274285,-3.3249521,-0.28548998,0.08703089,-0.34542185,26.6875,27.5625,26.6875,30.0625,31.4375,31.9375
0.3160542,-0.68279237,-0.53641486,-0.08164005,0.001391437,0.05940333,-0.14466736,-0.40482807,-0.35220835,0.059986755,3.0657835,-0.6394583,0.000107178355,-0.1528829,-0.023754809,0.00151383,-0.065191545,0.012458514,-0.0712734,0.45805445,-1.3856506,1.9110063,-2.1007087,-1.5629147,2.4437914,-0.12293394,0.25809008,-0.30957174,0.011684828,0.052623983,-0.0512538,-0.17238252,0.45968673,-9.346964,0.85155696,47.71554,-0.9549531,-1.8615987,-3.4319813,-0.3101852,0.095119506,-0.34315407,26.6875,27.5625,26.6875,30.0625,31.4375,31.9375
0.31805402,-1.151012,-1.2246971,-0.34691477,-0.028002111,0.05529476,-0.14374949,-0.40512016,-0.35224426,0.059987828,3.0656614,-0.63966095,0.00016213601,-0.15348183,-0.023150485,0.0018301742,-0.062976256,0.013184131,-0.069167264,0.45781428,-1.3851336,1.9103736,-2.1006124,-1.5628318,2.4436944,-0.122936435,0.2584532,-0.3112342,0.013354481,0.050339594,-0.053371787,-0.05746084,0.4213795,-9.3661175,0.91421866,47.686886,-1.00862,-1.9417259,-3.4655833,-0.34147793,0.13846575,-0.32387668,26.6875,27.5625,26.6875,30.0625,31.4375,31.9375
0.32005453,-0.20368491,-1.5871507,-0.096076384,-0.05524999,0.07085268,-0.15487602,-0.40544888,-0.35229832,0.060008854,3.0654957,-0.63973886,8.044968e-05,-0.15435138,-0.022757502,0.0015109549,-0.060473613,0.013650263,-0.06686924,0.4575744,-1.3846164,1.9097146,-2.1006005,-1.5627488,2.4435258,-0.12270928,0.2606141,-0.31334144,0.014030266,0.04791456,-0.05544692,-0.076614454,0.5554548,-9.3661175,0.84484416,47.705692,-1.0156739,-1.8790112,-3.4187467,-0.3347759,0.16562799,-0.3066706,26.6875,27.5625,26.6875,30.0625,31.4375,31.9375
0.32205397,-0.41071,-1.9878147,-0.07291966,-0.05764324,0.046711516,-0.14977936,-0.4057704,-0.35232028,0.060020145,3.06532,-0.6400466,7.427425e-05,-0.15611744,-0.02109495,0.00092404906,-0.05844561,0.014246272,-0.06721079,0.45728534,-1.3841114,1.9090809,-2.1005409,-1.5626653,2.4434528,-0.1256578,0.2625192,-0.31424764,0.013439133,0.04585965,-0.058060165,-0.05746084,0.6703765,-9.308657,0.91198283,47.687782,-0.9924123,-1.8911453,-3.533019,-0.33246794,0.18732269,-0.27372634,26.6875,27.5625,26.6875,30.0625,31.4375,31.9375
0.32405385,-0.22871722,-1.41996,-0.08953607,-0.043557044,0.026192768,-0.14829026,-0.40609968,-0.35237795,0.06002985,3.0651689,-0.6401061,-1.5385222e-05,-0.15566237,-0.022601996,0.0008236493,-0.05775641,0.01575875,-0.06115183,0.45705888,-1.3835703,1.9084243,-2.1005528,-1.5625938,2.4432843,-0.12175307,0.2637431,-0.3153284,0.012279687,0.044598363,-0.060214523,-0.019153614,0.63206923,-9.308657,0.90750587,47.675243,-1.1478263,-1.8064108,-3.5367875,-0.33090925,0.21323402,-0.23924357,26.6875,27.5625,26.6875,30.0625,31.4375,31.9375
0.32605392,0.228158,-0.6317848,0.13143621,-0.028609509,0.01087729,-0.1486151,-0.40642035,-0.35241055,0.060030278,3.0649724,-0.6403915,-3.839817e-05,-0.1583174,-0.021621337,0.0019569236,-0.05866618,0.018200576,-0.06380618,0.45678142,-1.3830533,1.9078144,-2.1005528,-1.5624975,2.4432118,-0.12540972,0.26396903,-0.3183358,0.012495821,0.044354744,-0.061213125,0.038307227,0.49799395,-9.308656,0.9030289,47.691364,-1.0078781,-1.950092,-3.6197004,-0.32279652,0.24838473,-0.23663263,26.6875,27.5625,26.6875,30.0625,31.4375,31.9375
0.3280536,0.12281882,-0.7430422,0.10398297,-0.005097304,-0.005500144,-0.13771075,-0.40673527,-0.35246462,0.06002114,3.0648339,-0.64051116,-4.7349087e-05,-0.16019614,-0.022405326,0.0024248818,-0.059892777,0.020331519,-0.0596667,0.45655373,-1.3824885,1.9071668,-2.1005418,-1.5624136,2.4430778,-0.12564787,0.26629934,-0.32204154,0.011468732,0.044548165,-0.06558528,-0.019153614,0.34476504,-9.059659,0.9097417,47.688675,-1.0860276,-1.8219554,-3.4603848,-0.29681957,0.27682924,-0.16606626,26.6875,27.5625,26.6875,30.0625,31.4375,31.9375
0.33005336,0.7338339,0.19380002,-0.019021178,0.0044674156,4.5928016e-05,-0.14663985,-0.40705514,-0.35252643,0.060030743,3.064632,-0.6406616,-7.676217e-05,-0.162011,-0.022654088,0.002449122,-0.0606768,0.02148016,-0.062167253,0.45631325,-1.3819592,1.9065212,-2.1005418,-1.5622939,2.4429588,-0.1267482,0.26889065,-0.32505822,0.0105236275,0.044745997,-0.06417749,0.05746084,0.38307226,-9.174581,0.83813137,47.694946,-0.96014047,-1.7773223,-3.4178538,-0.28517762,0.2910648,-0.13437387,26.6875,27.5625,26.6875,30.0625,31.4375,31.9375
0.33205417,0.4524087,0.031198699,-0.005830118,-0.003180393,0.013127447,-0.15124471,-0.40739733,-0.3525637,0.06002879,3.0644977,-0.6408243,-0.00011969785,-0.16318808,-0.022423862,0.003335518,-0.062542625,0.022458179,-0.063362226,0.45604864,-1.3813826,1.9058398,-2.1005175,-1.5622333,2.4428144,-0.12878105,0.26827016,-0.32656965,0.010973997,0.046010993,-0.06500514,0.038307227,0.4405331,-9.136273,0.91198283,47.67614,-1.0140979,-1.8236146,-3.338339,-0.28306106,0.3105537,-0.10728816,26.6875,27.5625,26.6875,30.0625,31.4375,31.9375
0.3340539,0.2839983,-0.3266744,0.09843294,-0.01826736,0.035790756,-0.15017536,-0.40769762,-0.35258195,0.060015213,3.0643842,-0.6410105,-5.1798645e-05,-0.16381891,-0.022797873,0.0029642065,-0.063189484,0.02124637,-0.062539525,0.45577237,-1.3808534,1.9052294,-2.1004455,-1.5621489,2.4426699,-0.12923698,0.27063453,-0.3288046,0.011673041,0.04714419,-0.06627665,0.0,0.36391866,-9.193734,0.8918391,47.67345,-0.92413986,-1.6796718,-3.380818,-0.2959581,0.31111583,-0.07297416,26.6875,27.5625,26.6875,30.0625,31.4375,31.9375
0.33605382,-0.8264174,-1.1730772,-0.37265596,-0.020849083,0.02192152,-0.1429412,-0.40803382,-0.35265192,0.06002224,3.0641682,-0.6411948,-9.391329e-05,-0.16382127,-0.022911679,0.0014201609,-0.061906353,0.018069949,-0.064979196,0.45553258,-1.3802876,1.9045485,-2.1004574,-1.5620288,2.4425747,-0.12905206,0.27465066,-0.3304175,0.012682468,0.04738973,-0.0636439,-0.11492168,0.36391866,-9.232041,0.97240865,47.66987,-0.9258641,-1.8552084,-3.4615498,-0.30162758,0.3109288,-0.055173293,26.6875,27.5625,26.6875,30.0625,31.4375,31.9375
0.3380535,-0.9173508,-1.5303048,0.13947998,-0.044506945,0.04306023,-0.13155521,-0.40835157,-0.35271004,0.06002507,3.063985,-0.6413478,-5.339187e-05,-0.1652932,-0.024055501,0.0018867318,-0.06344492,0.018717771,-0.06731842,0.45528063,-1.3797342,1.9038776,-2.1004093,-1.5618962,2.4424434,-0.128865,0.2773175,-0.33487615,0.013210046,0.048475966,-0.06110655,-0.19153613,0.30645782,-9.251195,0.9455522,47.67614,-0.97270435,-1.9016433,-3.3364227,-0.32394335,0.32498488,-0.07751201,26.6875,27.5625,26.6875,30.0625,31.4375,31.9375
0.34005323,-0.82236034,-0.82508874,-0.026523538,-0.027731568,0.04602032,-0.14058688,-0.40868285,-0.35273248,0.060015406,3.0638478,-0.64158684,-3.9245653e-05,-0.16362287,-0.024745949,8.529983e-05,-0.06391044,0.014373931,-0.06705164,0.4549933,-1.379169,1.9032205,-2.100361,-1.5618232,2.4423242,-0.12756638,0.2794682,-0.33350793,0.013389092,0.05081464,-0.0600603,-0.2681506,0.2681506,-9.174581,0.8560339,47.687782,-1.1517353,-2.0506623,-3.4181807,-0.3245027,0.3211863,-0.07284248,26.6875,27.5625,26.6875,30.0625,31.4375,31.9375
0.34205362,-0.67032224,-0.104113035,-0.19583786,0.010405577,0.036368918,-0.1436059,-0.4090082,-0.3527964,0.06002956,3.0636497,-0.641679,-8.356399e-05,-0.1647164,-0.025635427,-0.0002657601,-0.06595541,0.013872294,-0.06965185,0.4547529,-1.3786398,1.9025635,-2.1003616,-1.5617026,2.4421685,-0.12809542,0.28243712,-0.3361636,0.0126215005,0.052867256,-0.057969745,-0.21068975,0.2681506,-9.32781,0.96569055,47.685097,-1.037478,-1.9759594,-3.4757047,-0.31732213,0.29727873,-0.09341775,26.6875,27.5625,26.6875,30.0625,31.4375,31.9375
0.3440533,-0.9085081,-0.21674125,0.0034916345,0.009819406,0.034603912,-0.14132436,-0.4093334,-0.35285088,0.06001054,3.0634902,-0.6418959,-6.445428e-05,-0.16663824,-0.02449115,0.0001999973,-0.0656506,0.016372826,-0.07461813,0.45451233,-1.3780388,1.901893,-2.1003501,-1.5616072,2.4420853,-0.13068156,0.2824832,-0.33716908,0.011469848,0.05148693,-0.055594236,-0.21068975,0.3256114,-9.136273,0.8851263,47.674347,-1.2295958,-2.0328898,-3.4943352,-0.29764956,0.32479465,-0.09724492,26.6875,27.5625,26.6875,30.0625,31.4375,31.9375
0.34605417,-0.2717417,-0.1492885,0.2748384,-0.008034766,0.05037905,-0.1534826,-0.4096987,-0.35290733,0.060035992,3.063287,-0.64208263,-0.00017172685,-0.16790025,-0.025571052,0.0013841907,-0.06766173,0.018506112,-0.076499894,0.45424846,-1.3774737,1.9011639,-2.1003373,-1.5615228,2.441966,-0.13027051,0.2829821,-0.34060442,0.01160088,0.05235389,-0.053287465,-0.30645782,0.3256114,-9.078813,0.9097417,47.694946,-1.1094811,-1.9407918,-3.543575,-0.2944617,0.33526155,-0.11885865,26.6875,27.5625,26.6875,30.0625,31.4375,31.9375
0.34805414,-0.60147697,-0.5323905,0.11841982,-0.0011463633,0.02926729,-0.140411,-0.41001096,-0.35295713,0.060012143,3.063144,-0.6422647,-7.104927e-05,-0.16931798,-0.025571875,0.0012047343,-0.06941487,0.0182012,-0.07975836,0.45399567,-1.3768729,1.9004935,-2.1002786,-1.5614022,2.4418466,-0.13237622,0.285022,-0.34264356,0.011107972,0.054061268,-0.052123353,-0.22984336,0.3256114,-9.11712,0.9254084,47.696735,-1.0606989,-1.8560349,-3.542529,-0.27772382,0.31402105,-0.13659431,26.6875,27.5625,26.6875,30.0625,31.4375,31.9375
0.3500538,-0.9467517,-1.1007247,0.057186704,-0.013720082,0.018777365,-0.13812001,-0.4103374,-0.35299385,0.05999197,3.0629973,-0.64250344,-4.6068813e-05,-0.17028713,-0.025862575,0.0014475837,-0.07073464,0.018223733,-0.082190566,0.45373127,-1.3762841,1.8998364,-2.1002543,-1.5613178,2.4417515,-0.13327001,0.2862426,-0.34488067,0.011525685,0.05523693,-0.050574932,-0.24899697,0.2681506,-9.174581,0.91421866,47.67614,-0.9923385,-1.885937,-3.6271014,-0.28876793,0.31883365,-0.15879202,26.6875,27.5625,26.6875,30.0625,31.4375,31.9375
0.35205343,-0.606338,-0.98397106,-0.022562709,-0.01766943,0.027994016,-0.13578546,-0.41071236,-0.35305038,0.06001232,3.0627193,-0.6427883,-0.00014011587,-0.17175168,-0.025708789,0.0023975037,-0.07035624,0.020516029,-0.08416159,0.4534312,-1.3757194,1.8991297,-2.1002896,-1.5611862,2.4416676,-0.13376096,0.28650832,-0.34763223,0.012130794,0.053899955,-0.04909257,-0.2873042,0.2681506,-9.251195,1.0082139,47.689575,-1.0204148,-1.774238,-3.5090332,-0.27933344,0.34557897,-0.17614174,26.6875,27.5625,26.6875,30.0625,31.4375,31.9375
0.35405338,-0.53962326,-0.5760122,-0.013591367,-0.013018185,0.03459581,-0.14249481,-0.41103947,-0.35311186,0.060004435,3.062575,-0.6429315,-0.00011936358,-0.17389713,-0.025281474,0.0025687243,-0.0720888,0.020441797,-0.08808195,0.4532019,-1.3751181,1.898424,-2.100242,-1.5610899,2.4415476,-0.13713309,0.28863424,-0.35075733,0.012444063,0.055493776,-0.048530407,-0.2681506,0.3256114,-9.212888,0.95002913,47.70211,-0.88469315,-1.8071725,-3.4317856,-0.27745682,0.34908086,-0.2086512,26.6875,27.5625,26.6875,30.0625,31.4375,31.9375
0.35605323,-0.90312475,-0.73039395,-0.12470225,0.0055420436,0.04736772,-0.13532986,-0.41137272,-0.35314485,0.059975006,3.0624037,-0.64321846,-2.8516635e-05,-0.17249203,-0.027624855,0.0019369931,-0.074330516,0.01785455,-0.08511202,0.45290333,-1.3745042,1.8977545,-2.1002057,-1.5609683,2.4414518,-0.13373144,0.29067245,-0.35201773,0.01301833,0.058652557,-0.04807786,-0.61291564,0.28730422,-9.212888,1.005978,47.693153,-1.0976243,-1.9206119,-3.40519,-0.27260217,0.3205069,-0.22100855,26.6875,27.5625,26.6875,30.0625,31.4375,31.9375
0.35805416,-1.5266241,-0.47010025,-0.1089104,0.01277699,0.052537136,-0.13733649,-0.41171995,-0.35320672,0.059980866,3.0622022,-0.6434436,-5.4787055e-05,-0.17346847,-0.0283286,0.00090389606,-0.076684944,0.015484297,-0.086793505,0.45265076,-1.373915,1.8970369,-2.1001818,-1.5608596,2.4413676,-0.13514249,0.294712,-0.35450068,0.012569186,0.061815027,-0.047780324,-0.4022259,0.19153613,-9.212888,0.9298854,47.699425,-1.0064553,-1.9799483,-3.4699402,-0.2770815,0.30733228,-0.25429678,26.6875,27.5625,26.6875,30.0625,31.4375,31.9375
0.3600539,-0.74245894,0.22921427,0.11384377,-0.0035688656,0.06945755,-0.14612162,-0.41204536,-0.35326996,0.059966467,3.0619788,-0.6436831,6.475483e-05,-0.17392096,-0.028777666,0.0003032834,-0.07787723,0.013461543,-0.08767883,0.4523747,-1.3733125,1.8963441,-2.1001337,-1.5606788,2.4412718,-0.13580756,0.29728287,-0.35651183,0.013323851,0.063782126,-0.04754445,-0.19153613,0.15322891,-9.32781,0.8493211,47.72271,-1.0666537,-2.0237718,-3.4930081,-0.25751773,0.26557082,-0.2759618,26.6875,27.5625,26.6875,30.0625,31.4375,31.9375
0.36205336,-1.064223,-0.22382186,0.08275737,-0.002963257,0.04896047,-0.14205423,-0.4124019,-0.3533321,0.059972536,3.061779,-0.6439078,1.1566142e-05,-0.17454052,-0.029659007,0.0006261865,-0.08041005,0.01322043,-0.087837644,0.45212275,-1.3727123,1.895615,-2.1001217,-1.560582,2.4411879,-0.1361365,0.29830003,-0.3586461,0.013564816,0.066180006,-0.04769129,-0.45968673,0.17238252,-9.232041,0.93436235,47.707485,-1.0859152,-2.1177795,-3.6114516,-0.25946483,0.22846355,-0.29264453,26.6875,27.5625,26.6875,30.0625,31.4375,31.9375
0.3640544,-0.33167654,-0.3963271,-0.0078142565,-0.0063170004,0.05104726,-0.14211011,-0.41275674,-0.35337076,0.05996499,3.0615773,-0.6441503,5.1827286e-05,-0.17392685,-0.029532185,-0.0016896882,-0.079428315,0.008672215,-0.08613001,0.45181045,-1.3721105,1.8949093,-2.100086,-1.5604495,2.4410548,-0.1363676,0.3023714,-0.35847157,0.013882163,0.06731676,-0.049618285,-0.38307226,0.19153613,-9.32781,0.9186956,47.668976,-1.0813025,-2.1659498,-3.6798213,-0.27665263,0.19585489,-0.31296915,26.6875,27.5625,26.6875,30.0625,31.4375,31.9375
0.36605343,-0.40827766,-0.37938753,-0.19252962,-0.017504303,0.029942002,-0.14357953,-0.41309577,-0.35343683,0.059954345,3.061382,-0.6443965,0.00010737505,-0.17469077,-0.030059863,-0.0015369041,-0.08115116,0.008685992,-0.08809109,0.45155844,-1.3714854,1.8941797,-2.1000383,-1.5603169,2.4409835,-0.13689509,0.3035374,-0.36034846,0.0138318,0.06885858,-0.048170287,-0.15322891,0.2681506,-9.461885,0.9186956,47.661808,-1.1007805,-2.2095942,-3.6373847,-0.2526504,0.17721784,-0.31284338,26.6875,27.5625,26.6875,30.0625,31.4375,31.9375
0.3680541,-0.23075321,-0.8051864,-0.10416526,-0.03220894,0.025566757,-0.14242935,-0.41341296,-0.35349193,0.05992341,3.0612223,-0.6446124,0.00022001532,-0.1772749,-0.03130553,0.00090500654,-0.084514886,0.01283389,-0.08990085,0.45130622,-1.3708614,1.8934969,-2.0999897,-1.5601844,2.4408882,-0.13751131,0.30350956,-0.3661456,0.014463849,0.07006694,-0.046966374,-0.2681506,0.30645782,-9.289502,0.9321212,47.685097,-1.135014,-2.1299913,-3.493692,-0.25332955,0.12794052,-0.35493755,26.6875,27.5625,26.6875,30.0625,31.4375,31.9375
0.37005395,-0.6375871,-1.2007946,-0.5352991,-0.018252969,0.0013785008,-0.13454022,-0.41380498,-0.35355055,0.059942506,3.0609546,-0.6448976,0.00011552622,-0.17847706,-0.031384543,0.0009225024,-0.085241,0.01333905,-0.09006699,0.451006,-1.3702598,1.892744,-2.100014,-1.5600647,2.4408033,-0.1384717,0.30516347,-0.3682373,0.014163928,0.07052408,-0.047744792,-0.19153614,0.36391866,-9.289502,0.9388393,47.684196,-1.1291691,-1.9952722,-3.5363388,-0.24589717,0.11595106,-0.37471965,26.6875,27.5625,26.6875,30.0625,31.4375,31.9375
