Tylouw/Master_Thesis_Code/training_data/batch_1/small_rod_t0.1/sample_70_session_2.csv
timestamp[s],tcp_force_x[N],tcp_force_y[N],tcp_force_z[N],tcp_force_rx[Nm?],tcp_force_ry[Nm?],tcp_force_rz[Nm?],tcp_pose_x[m],tcp_pose_y[m],tcp_pose_z[m],tcp_pose_rx[rot_vec_x],tcp_pose_ry[rot_vec_y],tcp_pose_rz[rot_vec_z],tcp_velo_x[m/s],tcp_velo_y[m/s],tcp_velo_z[m/s],tcp_velo_rx[rot_vec_x/s],tcp_velo_ry[rot_vec_y/s],tcp_velo_rz[rot_vec_z/s],q1[rad],q2[rad],q3[rad],q4[rad],q5[rad],q6[rad],qd1[rad/s],qd2[rad/s],qd3[rad/s],qd4[rad/s],qd5[rad/s],qd6[rad/s],tool_acc_x,tool_acc_y,tool_acc_z,current_of_whole_robot[A],voltage_of_whole_robot[V],current_J1[A],current_J2[A],current_J3[A],current_J4[A],current_J5[A],current_J6[A],temp_J1[C],temp_J2[C],temp_J3[C],temp_J4[C],temp_J5[C],temp_J6[C]
7.900235e-07,-0.6419306,-0.28317684,1.0988374,-0.0051635136,0.0044886447,-0.009754564,-0.38103676,-0.34854087,0.059948236,-3.0785272,0.6247833,-0.00023022859,0.0016066764,0.0008303555,-0.0013068961,0.0017082588,-0.003532122,6.367589e-05,0.4778342,-1.42591,1.9577388,-2.100845,-1.5707458,2.4527283,-6.3194384e-05,-1.2216037e-05,0.0027253823,0.001208457,0.00011595765,-0.00012869887,0.076614454,0.076614454,-8.7532015,0.7418897,47.67614,-0.04449466,-2.7882633,-2.3757303,-0.4300543,0.08899027,0.041852206,26.125,26.9375,26.0,29.125,30.125,30.5625
0.002052977,-0.07303491,0.110749304,1.0758953,-0.009317102,0.011903952,-0.018110087,-0.38104817,-0.34851775,0.05995048,-3.0785022,0.62485516,-0.00019023483,0.000196524,9.501963e-05,-0.0033648834,0.000117273965,-0.0004932647,6.248149e-05,0.47779807,-1.4259324,1.9577626,-2.1008599,-1.5707697,2.4527402,-6.231924e-05,0.0041252174,0.004938985,-0.008572699,0.00011351997,-0.00012512057,0.038307227,0.095768064,-8.791509,0.7709874,47.684196,-0.015484432,-2.783476,-2.484479,-0.4135964,0.07001687,0.04640821,26.125,26.9375,26.0,29.125,30.125,30.5625
0.004051801,0.13621522,0.17363831,0.9083673,-0.0025396622,0.010023661,-0.010870255,-0.38104835,-0.34851786,0.059942555,-3.0784805,0.62488896,-0.00021860779,-0.0009122021,-0.00048239803,-0.002928565,-0.0011560679,0.0019545867,6.105839e-05,0.47779807,-1.4259082,1.9577507,-2.100849,-1.5707697,2.452764,-6.146809e-05,0.004694637,0.0037886216,-0.010750984,0.000111182766,-0.000121735444,0.076614454,0.095768064,-8.695741,0.7396539,47.716442,-0.0064294655,-3.226048,-2.72054,-0.33583844,0.0919334,0.040012583,26.125,26.9375,26.0,29.125,30.125,30.5625
0.006051766,0.0510139,0.8403368,1.1073989,0.009220005,-0.010533019,-0.014852868,-0.3810449,-0.34852737,0.05993747,-3.078512,0.62485695,-0.00020202663,-0.00066770834,-0.0003542463,-0.0016293837,-0.0008537677,0.0013889725,5.8415946e-05,0.4778101,-1.425909,1.9577736,-2.1008947,-1.5707573,2.452752,-6.0639723e-05,0.0027900722,0.0020051466,-0.006421652,0.00010893955,-0.00011852849,0.0,0.17238252,-8.695741,0.73741806,47.686886,-0.03725782,-3.0638044,-2.5739465,-0.3494858,0.07334022,0.05267954,26.125,26.9375,26.0,29.125,30.125,30.5625
0.008051957,0.493063,1.2762389,0.41362113,0.027614541,-0.024781974,-0.010743268,-0.38104612,-0.34852996,0.059927963,-3.0785003,0.624893,-0.00027008954,-0.00058495085,-0.000309971,-0.00011770393,-0.0012438394,0.0021563368,5.5728546e-05,0.47779807,-1.4258741,1.9577497,-2.1008694,-1.5707334,2.452764,-5.9833426e-05,0.00013602394,0.00092027226,-0.0035435036,0.00010678523,-0.00011548656,0.019153614,0.17238252,-8.772355,0.7777002,47.698532,0.017046465,-2.913477,-2.5633304,-0.38395604,0.085003436,0.037502524,26.125,26.9375,26.0,29.125,30.125,30.5625
0.010052029,0.14008829,0.6060025,-0.079405084,0.027084747,-0.025626982,-0.001824921,-0.3810365,-0.34854326,0.059929315,-3.0785158,0.62476176,-0.00023193506,-0.00031636262,-0.0001654008,-6.895962e-05,-0.00076688116,0.0012455127,4.568495e-05,0.47784612,-1.4258741,1.9577492,-2.1008809,-1.5707573,2.4527283,-6.682547e-05,1.8249348e-06,0.0006316638,-0.0020925552,0.00010471448,-0.00011259668,-0.019153614,0.15322891,-9.059659,0.73069996,47.66271,-0.20430613,-2.226076,-3.256055,-0.3896711,0.07818149,0.024366926,26.125,26.9375,26.0,29.125,30.125,30.5625
0.012052155,0.16521196,0.10524436,-0.16445263,-0.01640856,0.006653848,-0.018260607,-0.38103253,-0.34851417,0.05989828,-3.0784378,0.62488025,-0.00033464935,-0.002017214,-0.0010415051,-0.0014280115,0.00037231983,-0.0009727652,4.3893288e-05,0.47779807,-1.4258363,1.9577717,-2.100857,-1.5707573,2.452764,-8.875541e-05,0.00738783,-0.00480402,-0.0015491933,0.0001027225,-0.00012892699,0.019153614,0.095768064,-9.346964,0.7172743,47.677036,-0.36560124,-1.9811009,-3.4677157,-0.38601664,0.08978821,-0.017374609,26.125,26.9375,26.0,29.125,30.125,30.5625
0.014052314,-1.1298649,-1.26065,-0.22397588,-0.033858646,0.0077636815,-0.006152429,-0.38103878,-0.3485189,0.059887413,-3.0784466,0.62492186,-0.00036125898,-0.005142275,-0.00063962955,-0.0042817537,0.0028732975,-0.005826545,-0.0035274466,0.4777852,-1.4258076,1.9577693,-2.1008809,-1.5707334,2.452776,-0.0037038573,0.018852916,-0.011508619,-0.0008494722,0.00010080497,-0.00016761434,0.019153614,0.19153613,-9.423578,0.6926589,47.699425,-0.4631123,-2.8554416,-3.1590939,-0.3791533,0.07072422,-0.051262423,26.125,26.9375,26.0,29.125,30.125,30.5625
0.016052224,-0.7737832,-1.1984819,-0.38424617,-0.057985168,0.041977633,-0.022092916,-0.3810365,-0.34851715,0.05989506,-3.0784156,0.62481856,-0.00036998492,-0.0061554955,0.00056539377,-0.0039413483,0.0028123658,-0.0057061235,-0.0021218355,0.47780773,-1.4257959,1.9577221,-2.1008089,-1.5707697,2.452738,-0.0067826095,0.01818673,-0.011689251,-0.00013837076,9.895757e-05,-0.004652136,-0.19153613,0.40222588,-9.500193,0.7732232,47.690468,-0.080846466,-2.7270145,-3.355752,-0.39148307,0.07213253,-0.047013592,26.125,26.9375,26.0,29.125,30.125,30.5625
0.018051943,-2.0318491,-1.4096763,-0.5530751,-0.059846602,0.02835984,-0.015109622,-0.3810259,-0.34850705,0.05985319,-3.0783834,0.62477064,-0.00050963304,-0.0066008265,2.4627929e-05,-0.0029839273,0.0019006514,-0.003954187,0.0035874215,0.477784,-1.4257244,1.9577335,-2.100797,-1.5707458,2.4526885,-0.006232184,0.017375425,-0.012982885,-9.034623e-06,9.717678e-05,-0.0098104775,-0.17238252,0.49799395,-9.672575,0.7463667,47.694054,-0.22114749,-2.3591597,-3.5644436,-0.3892296,0.07822865,0.012848946,26.125,26.9375,26.0,29.125,30.125,30.5625
0.020051818,-1.7740846,-1.6061352,-0.71739894,-0.05631324,0.049184654,-0.01969935,-0.38103923,-0.34850743,0.0598427,-3.0783756,0.6248076,-0.00051024184,-0.007184637,-0.00086201576,-0.0029321124,0.0017145807,-0.0036035543,0.005456539,0.47777236,-1.4256877,1.9577211,-2.1008208,-1.5707458,2.4527009,-0.005196976,0.019409647,-0.015422597,-5.898963e-07,9.5459036e-05,-0.01064283,-0.36391866,0.7086837,-9.902418,0.77545905,47.68599,-0.35491148,-2.4105048,-3.5179772,-0.37530363,0.08529721,0.033302963,26.125,26.9375,26.0,29.125,30.125,30.5625
0.022051813,-1.4217697,-1.0592629,-0.6505726,-0.06875854,0.063050054,-0.040638726,-0.3810312,-0.34849888,0.0598237,-3.0783193,0.6247764,-0.00060086173,-0.0078795245,-0.00079218694,-0.0029615294,0.0024704682,-0.005063295,0.005026085,0.477772,-1.4256392,1.9576954,-2.1007602,-1.5707573,2.4526882,-0.005965413,0.02145937,-0.018241173,0.002411932,9.380071e-05,-0.010979554,-0.51714754,0.61291564,-9.864111,0.8023209,47.70211,-0.4155159,-2.3305569,-3.5399337,-0.39149106,0.077436924,0.021987494,26.125,26.9375,26.0,29.125,30.125,30.5625
0.024051948,-1.4210371,-1.4157453,-0.7676732,-0.060519032,0.066357106,-0.05138092,-0.38106242,-0.34852132,0.059832294,-3.0783608,0.62482446,-0.00059333333,-0.008720486,-0.0005927127,-0.0028852671,0.00230287,-0.0047411863,0.0041486355,0.4777597,-1.4255909,1.9576234,-2.1007717,-1.5707215,2.4527006,-0.007097565,0.02225066,-0.019296221,0.0023129585,9.219919e-05,-0.011233573,-0.57460845,0.5363012,-9.864111,0.77545905,47.696735,-0.4893633,-2.3577023,-3.5344071,-0.40090424,0.088723026,-0.010088302,26.125,26.9375,26.0,29.125,30.125,30.5625
0.026052281,-1.8437426,-1.5816835,-0.7151619,-0.063080296,0.05482391,-0.053744014,-0.38106737,-0.34850606,0.05980716,-3.0783036,0.62473625,-0.00061607675,-0.010648713,-0.0010195754,-0.0017234784,0.00084396574,-0.0019391957,0.0032389506,0.47775924,-1.4255309,1.95761,-2.1007607,-1.5707697,2.4526525,-0.008123829,0.02279103,-0.022443436,0.0017602046,9.065141e-05,-0.011348371,-0.4405331,0.51714754,-9.940725,0.77545905,47.70211,-0.4948316,-2.3431184,-3.4946218,-0.37718362,0.0646358,-0.0057363305,26.125,26.9375,26.0,29.125,30.125,30.5625
0.028051676,-1.6954404,-1.2267276,-0.5984692,-0.058424994,0.05243539,-0.07546729,-0.38111842,-0.34853894,0.059849165,-3.0783894,0.62479264,-0.0005217758,-0.012202561,-0.0008603195,-0.0013902951,0.0003083496,-0.00094021135,0.0014075701,0.47774684,-1.4255184,1.9575022,-2.1007721,-1.5707334,2.4526644,-0.009853226,0.024054201,-0.024588397,0.0015089761,0.00010302724,-0.011245069,-0.53630114,0.4213795,-9.825804,0.74413085,47.703007,-0.5028884,-2.3497763,-3.518947,-0.36461487,0.08305752,-0.018525857,26.125,26.9375,26.0,29.125,30.125,30.5625
0.03005278,-1.9413321,-0.86777514,-0.64643896,-0.031446278,0.037495837,-0.071723305,-0.38115388,-0.34853703,0.05984567,-3.078397,0.6247571,-0.00052133686,-0.013814206,-0.0015298192,-0.0008377481,-0.000519183,0.00064301386,0.000393529,0.47771055,-1.4254578,1.9574412,-2.1007721,-1.5707334,2.452605,-0.010155029,0.026020912,-0.028022483,0.0011900085,0.000102260085,-0.010530722,-0.49799395,0.30645782,-9.730036,0.7933669,47.693153,-0.54393613,-2.2991087,-3.4843245,-0.3669321,0.068694755,-0.033149987,26.125,26.9375,26.0,29.125,30.125,30.5625
0.032052066,-1.0506217,-0.12957099,-0.5655096,-0.0046062693,0.04751528,-0.085769035,-0.38116753,-0.34851056,0.059805755,-3.0782843,0.6248681,-0.0006030435,-0.014613236,-0.0014815037,-0.0012211576,-0.00027647297,0.00016751121,0.00010333061,0.4776744,-1.4253613,1.9574169,-2.1007483,-1.5707697,2.4526525,-0.010980133,0.028087271,-0.029489713,0.0011242706,0.0001006849,-0.011064559,-0.36391866,0.076614454,-9.691729,0.7284641,47.707485,-0.5356201,-2.3242855,-3.4818697,-0.33608782,0.06451434,-0.032836184,26.125,26.9375,26.0,29.125,30.125,30.5625
0.034052458,-0.9996341,0.44111672,-0.3840983,0.017359098,0.041942388,-0.09513592,-0.3812058,-0.34853214,0.05981403,-3.07834,0.624803,-0.0005816739,-0.016023604,-0.0012644514,-0.0010707941,-0.0005497964,0.0006895003,-0.0011109717,0.47766176,-1.425301,1.957332,-2.1007607,-1.5707458,2.4525921,-0.012670026,0.02957682,-0.03152328,0.0010792777,9.910487e-05,-0.011538875,-0.24899697,-0.019153614,-9.595961,0.73069996,47.734352,-0.52253574,-2.2864122,-3.523473,-0.3265484,0.07918675,-0.04868546,26.125,26.9375,26.0,29.125,30.125,30.5625
0.036051895,-1.0600723,0.47077495,-0.4895441,0.03334526,0.028613046,-0.10864463,-0.3812753,-0.34854576,0.059845146,-3.0784166,0.6248571,-0.0004467704,-0.017991379,-0.0019628343,8.659926e-05,-0.0019207948,0.0033021283,-0.00080174406,0.47761354,-1.4252765,1.9572467,-2.1008203,-1.5707334,2.452568,-0.013253697,0.030725962,-0.035437316,0.00089371117,0.0001079193,-0.012429587,-0.21068975,-0.076614454,-9.595961,0.7642693,47.701214,-0.5687457,-2.2844334,-3.4342186,-0.3207361,0.07383322,-0.053701766,26.125,26.9375,26.0,29.125,30.125,30.5625
0.03805201,-0.9527507,0.29749724,-0.27624077,0.03345379,0.029301103,-0.115007386,-0.38130733,-0.34854004,0.059838198,-3.078376,0.62488747,-0.0004528326,-0.019281214,-0.0019136217,0.00045129503,-0.002343572,0.0041047307,-0.0012100787,0.47758916,-1.4252043,1.9571747,-2.1007965,-1.5707573,2.4525678,-0.014535095,0.031809054,-0.037531815,0.0009975595,0.00010957397,-0.013301454,-0.3256114,-0.076614454,-9.557653,0.7732232,47.707485,-0.5771166,-2.3123827,-3.4291506,-0.28785563,0.08608072,-0.056313954,26.125,26.9375,26.0,29.125,30.125,30.5625
0.040052004,-1.0217531,0.36531618,-0.3223537,0.018735643,0.022838034,-0.1304844,-0.38133565,-0.34855866,0.059826072,-3.0784016,0.62487364,-0.0005292618,-0.020002404,-0.0021100154,0.0006960992,-0.0021289524,0.0036882688,-0.001267537,0.47756505,-1.425108,1.9570898,-2.100784,-1.5707096,2.4525318,-0.01485199,0.033271812,-0.040126856,0.0025989688,0.00010814337,-0.013559677,-0.15322891,-0.05746084,-9.576807,0.74413085,47.69763,-0.5037694,-2.2714458,-3.3736877,-0.27640387,0.0731798,-0.07715039,26.125,26.9375,26.0,29.125,30.125,30.5625
0.042051982,-0.81877965,-0.112066954,-0.3886179,0.015059041,0.02259021,-0.13209534,-0.38136142,-0.34856135,0.059829026,-3.0783644,0.62482786,-0.0004987241,-0.019983485,-0.0017226605,0.00038315635,-0.0007857552,0.0011034284,-0.0017904387,0.47757685,-1.4250478,1.9570059,-2.1007469,-1.5707573,2.45252,-0.015522718,0.03474599,-0.041803133,0.0057134028,0.00010655704,-0.013707047,-0.13407528,-0.038307227,-9.5385,0.8023209,47.691364,-0.6126066,-2.1779277,-3.3964858,-0.31457305,0.0781598,-0.04864534,26.125,26.9375,26.0,29.125,30.125,30.5625
0.04405223,-1.1926457,-0.10000187,-0.29571432,0.00783128,0.01060629,-0.14360616,-0.38138416,-0.3485659,0.059824504,-3.0784,0.62483466,-0.0005180935,-0.02157372,-0.0022325874,0.0013016517,-0.0017280418,0.00291436,-0.0029193521,0.47754067,-1.4250114,1.9569801,-2.1007707,-1.5707215,2.4524834,-0.016085874,0.035813738,-0.045183342,0.00598502,0.00010500386,-0.01313947,-0.22984336,0.05746084,-9.442732,0.69041777,47.704796,-0.53178453,-2.1848264,-3.3655186,-0.31007248,0.063671455,-0.07785522,26.125,26.9375,26.0,29.125,30.125,30.5625
0.046051662,-0.9947739,-0.3713858,-0.42353836,0.0058238534,0.021431921,-0.1492216,-0.3814253,-0.34856468,0.059817247,-3.0783448,0.62486285,-0.00055214635,-0.022558212,-0.0021432631,0.0012236239,-0.0018147833,0.003077108,-0.004776061,0.4775162,-1.4249029,1.9568595,-2.100711,-1.5707458,2.4524837,-0.017153211,0.037316285,-0.046679147,0.005793673,0.00010349459,-0.012349078,-0.19153613,0.095768064,-9.423578,0.7396539,47.694946,-0.4764034,-2.1696098,-3.3791142,-0.3089729,0.05941945,-0.087446086,26.125,26.9375,26.0,29.125,30.125,30.5625
0.048052687,-0.84028476,-0.39908025,-0.5341469,-0.0072409506,0.02874022,-0.16121875,-0.38149512,-0.34855184,0.05982404,-3.0783405,0.6249011,-0.00048652088,-0.023110498,-0.0022192039,0.0006214767,-0.0010980638,0.0016919544,-0.005755705,0.47744423,-1.4248302,1.9567636,-2.1007226,-1.5707697,2.4524362,-0.017525472,0.040040933,-0.048580773,0.006530075,0.00010202801,-0.011740451,-0.17238252,0.22984336,-9.519346,0.8314132,47.719128,-0.5669012,-2.224827,-3.3801935,-0.28765643,0.08151661,-0.10659556,26.125,26.9375,26.0,29.125,30.125,30.5625
0.050052267,-0.8659623,-0.81608146,-0.4018598,-0.015795723,0.02200112,-0.16607764,-0.38156345,-0.3485826,0.059868947,-3.0784175,0.6249553,-0.00037859922,-0.023970267,-0.0026433459,0.0012453351,-0.0015284639,0.0025222516,-0.00576783,0.47742018,-1.424794,1.9566196,-2.1007226,-1.5707458,2.4524362,-0.017563263,0.040781114,-0.051027138,0.0073013236,0.00010060249,-0.01176491,-0.19153613,0.3256114,-9.576807,0.8023209,47.707485,-0.55562794,-2.1536405,-3.4455297,-0.30258068,0.06578727,-0.12140058,26.125,26.9375,26.0,29.125,30.125,30.5625
0.05205227,-0.9670599,-1.0073125,-0.51762867,-0.028838176,0.014860638,-0.16820987,-0.38159892,-0.34857652,0.059851453,-3.0783792,0.62498605,-0.00041157205,-0.024739416,-0.002671006,0.002044189,-0.0020192654,0.0034698744,-0.0061239866,0.4773839,-1.4246982,1.9565476,-2.1007102,-1.5707573,2.452424,-0.018221766,0.04045978,-0.0527014,0.00822957,9.9216195e-05,-0.0120666595,-0.17238252,0.2681506,-9.481039,0.76874626,47.70032,-0.544078,-2.0153275,-3.365221,-0.30230162,0.06824884,-0.123201944,26.125,26.9375,26.0,29.125,30.125,30.5625
0.054052252,-0.93819964,-1.2580224,-0.4876952,-0.03222875,0.011722579,-0.17101027,-0.38164094,-0.34856683,0.059837706,-3.0783436,0.62499756,-0.0004446175,-0.025025574,-0.0026579627,0.00097594777,-0.00071883254,0.000955123,-0.0061947987,0.47733587,-1.4246013,1.9564627,-2.1006854,-1.5707697,2.4523878,-0.01850793,0.04394118,-0.054496106,0.009373799,9.786759e-05,-0.012280792,-0.1340753,0.4213795,-9.576807,0.6948948,47.6636,-0.57579553,-2.07701,-3.4576516,-0.3029168,0.08469166,-0.13103187,26.125,26.9375,26.0,29.125,30.125,30.5625
0.05605259,-1.0562562,-1.9952254,-0.41758955,-0.029053973,0.012674892,-0.16725683,-0.38169354,-0.348585,0.059862215,-3.0783682,0.6250413,-0.00041195028,-0.027170874,-0.0032535389,0.0024707057,-0.0019110743,0.003246755,-0.006354285,0.47731143,-1.4245409,1.9563297,-2.1006496,-1.5707573,2.4523876,-0.019430071,0.045011945,-0.05942645,0.010650205,9.655515e-05,-0.013041051,-0.076614454,0.4405331,-9.576807,0.8112748,47.679718,-0.5394004,-2.0948792,-3.325098,-0.31508988,0.07313919,-0.14705919,26.125,26.9375,26.0,29.125,30.125,30.5625
0.05805257,-0.94772375,-1.8567617,-0.3849024,-0.03975621,0.011444294,-0.1636586,-0.3817565,-0.34858397,0.059850823,-3.0783453,0.6250752,-0.00044318303,-0.026737196,-0.0026598044,4.6216628e-05,0.00019727624,-0.00082648103,-0.006485477,0.4772513,-1.4244078,1.9561986,-2.1006262,-1.5707573,2.4523516,-0.020080663,0.049169824,-0.058529213,0.010181576,9.5277435e-05,-0.013560162,-0.15322891,0.40222588,-9.519346,0.76874626,47.71823,-0.55928373,-2.2187717,-3.3837056,-0.32042217,0.06780699,-0.15606856,26.125,26.9375,26.0,29.125,30.125,30.5625
0.060052637,-0.8287176,-1.5117368,-0.32891417,-0.041002527,0.018983753,-0.15875334,-0.3818258,-0.34860402,0.059883337,-3.0783882,0.62514096,-0.00036525488,-0.028291272,-0.0034263316,0.0013998455,-0.0014605275,0.0023666162,-0.005404874,0.4772154,-1.424348,1.9560531,-2.1006138,-1.5707458,2.4523513,-0.020150064,0.049105447,-0.061401132,0.0095200725,9.4033196e-05,-0.014708599,-0.076614454,0.49799395,-9.461885,0.7486078,47.668976,-0.56897295,-2.182634,-3.4599576,-0.29962772,0.081032455,-0.14884199,26.125,26.9375,26.0,29.125,30.125,30.5625
0.062052596,-0.5989281,-1.4424663,-0.09939878,-0.03295047,0.027531637,-0.16395424,-0.38187364,-0.34859753,0.059881557,-3.0783606,0.62511605,-0.00039926672,-0.030005207,-0.004102225,0.0026464965,-0.0027466116,0.004839159,-0.0052031633,0.47716704,-1.4242519,1.9559339,-2.1005538,-1.5707573,2.452291,-0.020529043,0.04977845,-0.06507008,0.009728753,9.282088e-05,-0.015287394,-0.095768064,0.49799395,-9.404425,0.8157518,47.670765,-0.516433,-2.0409644,-3.3911304,-0.30860227,0.07759979,-0.16770077,26.125,26.9375,26.0,29.125,30.125,30.5625
0.06405176,-0.8935041,-1.0388366,-0.20846018,-0.023306565,0.014413788,-0.15511908,-0.38195023,-0.34862378,0.059910197,-3.0784276,0.6251679,-0.00025221004,-0.031556,-0.0045212437,0.0024050483,-0.0026507096,0.004643954,-0.005247089,0.47714287,-1.4241908,1.9558123,-2.1006138,-1.5707573,2.4522908,-0.02121467,0.053450685,-0.068766356,0.00997015,9.1639544e-05,-0.015926696,-0.05746084,0.51714754,-9.423578,0.7620334,47.728977,-0.60836875,-2.1074498,-3.1426044,-0.29366094,0.088593274,-0.18134354,26.125,26.9375,26.0,29.125,30.125,30.5625
0.066052444,-0.858296,-1.2571712,-0.20656085,-0.0078879185,0.004080531,-0.14682536,-0.38199866,-0.34863096,0.059914622,-3.0784137,0.62514603,-0.000256617,-0.031090794,-0.004171566,0.0012447117,-0.0013736561,0.0021915939,-0.005285128,0.47711888,-1.4240943,1.9556812,-2.1005657,-1.5707697,2.452255,-0.021399764,0.05524129,-0.06827287,0.010450802,8.541204e-05,-0.016073812,-0.076614454,0.38307226,-9.442732,0.78888994,47.703903,-0.5915088,-2.1108274,-3.353465,-0.2933121,0.08864513,-0.19370446,26.125,26.9375,26.0,29.125,30.125,30.5625
0.06805245,-0.8121326,-0.75741947,0.078153804,-0.018801305,0.004965733,-0.14863138,-0.38208404,-0.3486394,0.059898682,-3.0784056,0.62520087,-0.00028263318,-0.032454014,-0.0048815166,0.0018819686,-0.0020830538,0.0035553437,-0.004403188,0.47704685,-1.4239141,1.9555119,-2.1005657,-1.5707573,2.4522183,-0.021390041,0.05689049,-0.07166905,0.010660656,8.229881e-05,-0.016944123,-0.019153614,0.3256114,-9.308657,0.7284641,47.703007,-0.6089432,-2.0980823,-3.2206097,-0.2955473,0.08303159,-0.1868205,26.125,26.9375,26.0,29.125,30.125,30.5625
0.070052475,-0.7477561,-0.96082914,0.012388154,-0.008698937,0.0041356566,-0.15452617,-0.38213435,-0.34867224,0.05991218,-3.078439,0.62514925,-0.00023974998,-0.0336573,-0.0051696044,0.0021543242,-0.0025541587,0.0044588973,-0.004152023,0.47705865,-1.4238178,1.9553684,-2.1005538,-1.5707573,2.4521937,-0.02198758,0.058398377,-0.07396511,0.010429715,8.072122e-05,-0.017791398,-0.038307227,0.34476504,-9.232041,0.800085,47.698532,-0.56816417,-2.1272495,-3.2698507,-0.28235185,0.081641935,-0.20954365,26.125,26.9375,26.0,29.125,30.125,30.5625
0.07205256,-0.5702934,-0.07449475,0.22113526,-0.02655756,0.014834093,-0.15926151,-0.3822211,-0.34868303,0.059935585,-3.0784924,0.6251792,-0.00021624094,-0.034912314,-0.005498265,0.0023492277,-0.0027709168,0.0048720352,-0.0040468643,0.47697446,-1.4237212,1.9551991,-2.1005294,-1.5707215,2.4521215,-0.022554493,0.060480222,-0.07687423,0.010791028,7.929218e-05,-0.018461758,-0.095768064,0.24899697,-9.155427,0.8023209,47.64389,-0.5957588,-2.0043073,-3.1068213,-0.27731,0.09804715,-0.20854509,26.125,26.9375,26.0,29.125,30.125,30.5625
0.07405253,-1.3367759,-0.7639129,0.3058833,0.0026784071,0.0029883184,-0.14051968,-0.38228348,-0.34869763,0.059937138,-3.078483,0.62521493,-0.00019080198,-0.035856795,-0.005796712,0.0025113686,-0.00301401,0.0053042434,-0.0029983856,0.4769504,-1.4236009,1.9550556,-2.1005175,-1.5707334,2.452121,-0.02290171,0.06201508,-0.07903312,0.010919054,9.246704e-05,-0.019856194,-0.095768064,0.24899697,-9.059659,0.8090337,47.733456,-0.6823096,-2.022912,-3.1485434,-0.2813468,0.0927789,-0.21317954,26.125,26.9375,26.0,29.125,30.125,30.5625
0.07605196,-0.66598153,-0.3062025,-0.0037220872,-0.0016755764,0.017869273,-0.14647518,-0.3823657,-0.3487088,0.059958227,-3.0785,0.62519926,-0.00013440225,-0.03699387,-0.006346882,0.002508543,-0.0034808049,0.006166867,-0.0024624034,0.47690237,-1.4234923,1.9548753,-2.1004822,-1.5707458,2.4520612,-0.02297752,0.06418861,-0.0813161,0.010047489,0.000105157844,-0.020466361,-0.095768064,0.24899697,-9.040505,0.7150385,47.65106,-0.6562405,-2.0814447,-3.1106138,-0.27455238,0.080933884,-0.22299784,26.125,26.9375,26.0,29.125,30.125,30.5625
0.07805292,-0.95199895,-0.6842163,0.08854716,0.00994814,0.01640963,-0.147402,-0.38240835,-0.3487356,0.059934918,-3.078499,0.62510216,-0.00020590756,-0.037944864,-0.0069563943,0.0032396652,-0.0041521597,0.0074288687,-0.001426544,0.4769024,-1.4233245,1.9547313,-2.100458,-1.5707334,2.4520009,-0.022779029,0.06493081,-0.083950214,0.010510145,0.00011648055,-0.021302436,-0.11492168,0.2681506,-9.212888,0.75084364,47.689575,-0.6588812,-1.9914315,-3.135334,-0.25148398,0.097615935,-0.23729347,26.125,26.9375,26.0,29.125,30.125,30.5625
0.08005212,-0.8082964,-0.12090842,0.14863048,-0.0011095809,0.022646567,-0.15015832,-0.38249895,-0.34874207,0.059950165,-3.078505,0.6251803,-0.00016490587,-0.03844174,-0.0069311582,0.0013273252,-0.0025330398,0.0037780988,-0.0013688032,0.47683024,-1.4232023,1.9545516,-2.100434,-1.5707334,2.4519768,-0.02342944,0.07045738,-0.08602149,0.011040595,0.0003514669,-0.022009194,-0.17238252,0.2681506,-9.212888,0.7732232,47.668976,-0.7434354,-2.2565155,-3.0775406,-0.27448618,0.08591783,-0.2388955,26.125,26.9375,26.0,29.125,30.125,30.5625
0.08205201,-0.8375931,-0.42858893,0.054089725,0.0028239193,0.02147689,-0.14612393,-0.3825792,-0.34874532,0.059944134,-3.0784898,0.6251762,-0.00016538078,-0.039649304,-0.0072352747,0.003414358,-0.004658747,0.0073455363,-0.0011487061,0.47676992,-1.4230472,1.9543828,-2.1004102,-1.5707458,2.451916,-0.024154788,0.0678002,-0.08783931,0.011369203,0.0005996348,-0.022954673,-0.19153613,0.21068975,-9.308657,0.7418897,47.698532,-0.74866366,-1.9824048,-3.147049,-0.2727245,0.08573479,-0.23347497,26.125,26.9375,26.0,29.125,30.125,30.5625
0.08405209,-1.1262938,-0.74595267,-0.26297963,-0.004156434,0.016549319,-0.14383422,-0.38264915,-0.3487794,0.059964005,-3.078513,0.62521935,-0.00013598963,-0.04008923,-0.0072741425,0.0026865194,-0.0038802358,0.005738891,-0.0005243441,0.4767578,-1.4229261,1.9541906,-2.1003735,-1.5707334,2.451928,-0.024517383,0.07055968,-0.08949008,0.012045246,0.0006439071,-0.023940573,-0.19153613,0.21068975,-9.251195,0.77545905,47.71465,-0.7821663,-2.0377684,-3.1273332,-0.28985304,0.07689809,-0.24190973,26.125,26.9375,26.0,29.125,30.125,30.5625
0.08605243,-0.68045306,-0.38343465,-0.1296497,-0.019234216,0.036855128,-0.15344828,-0.38271996,-0.348782,0.059951965,-3.0785253,0.62522066,-0.00020239902,-0.040284045,-0.007258759,0.000664195,-0.0019413525,0.0020610183,0.00014999256,0.47667384,-1.4227803,1.9540461,-2.1003497,-1.5706977,2.4518433,-0.02469416,0.07588565,-0.09105632,0.012443996,0.00060597155,-0.02479011,-0.22984336,0.22984336,-9.423578,0.779936,47.686886,-0.74663293,-2.159503,-3.1509957,-0.28528827,0.08376681,-0.2549786,26.125,26.9375,26.0,29.125,30.125,30.5625
0.0880525,-1.0055535,-0.3343599,-0.05431739,-0.024307791,0.044488233,-0.15613198,-0.38282624,-0.3488059,0.059980154,-3.078564,0.62524736,-8.921811e-05,-0.040655777,-0.007516984,0.0016509497,-0.0026961972,0.003638114,0.0012774207,0.47662595,-1.4226484,1.9538311,-2.1003497,-1.5707096,2.4518073,-0.024535796,0.07462819,-0.091981135,0.012878484,0.0005541882,-0.025758885,-0.28730422,0.2681506,-9.346964,0.784413,47.713753,-0.76376784,-2.0610476,-3.2177472,-0.27989915,0.083214946,-0.24924172,26.125,26.9375,26.0,29.125,30.125,30.5625
0.09005256,-1.346987,-0.9179554,-0.21683861,-0.015038484,0.038070966,-0.14545207,-0.3828836,-0.3487934,0.05995105,-3.0784595,0.6252255,-0.00014739198,-0.042568706,-0.008394897,0.0022080902,-0.0034101822,0.004955837,0.0013251535,0.4765897,-1.4224672,1.9536742,-2.1002781,-1.5707697,2.4517708,-0.024750197,0.07757128,-0.09669201,0.0131462095,0.0005721973,-0.026018372,-0.2681506,0.2681506,-9.442732,0.8023209,47.711063,-0.7898617,-2.1213193,-3.1144505,-0.29846373,0.08136301,-0.26584908,26.125,26.9375,26.0,29.125,30.125,30.5625
0.0920526,-1.3858237,-1.0472599,-0.31574187,-0.009656965,0.034227155,-0.14716737,-0.38298774,-0.34881136,0.059959345,-3.0784976,0.62519425,-0.00011902404,-0.0416432,-0.0074480926,-0.00019628461,-0.0011775248,0.00071620103,0.0018698943,0.47651756,-1.4222981,1.9534591,-2.1002657,-1.5707573,2.4516745,-0.025545502,0.08046181,-0.09443464,0.012790052,0.0005379728,-0.027358966,-0.22984336,0.2681506,-9.423578,0.78217715,47.689575,-0.85654914,-2.140758,-3.3265285,-0.2776314,0.075977005,-0.27232412,26.125,26.9375,26.0,29.125,30.125,30.5625
0.09405166,-1.1444671,-1.0042827,-0.24488601,-0.013639653,0.031228654,-0.13860297,-0.3830706,-0.34885144,0.05996149,-3.0785415,0.62520397,-0.00015142484,-0.044038974,-0.00847992,0.0010692918,-0.0026623406,0.0036446506,0.0020629873,0.4764813,-1.4221174,1.9532422,-2.100242,-1.5707096,2.4516387,-0.02589355,0.08251092,-0.09965719,0.012681614,0.0005030092,-0.027897129,-0.17238252,0.34476504,-9.442732,0.81351066,47.704796,-0.8453953,-2.1290255,-3.2384007,-0.275802,0.07754132,-0.2735049,26.125,26.9375,26.0,29.125,30.125,30.5625
0.09605184,-0.81297565,-0.50894606,-0.40550694,-0.020308357,0.024269124,-0.1468077,-0.3831439,-0.34884015,0.05995177,-3.0784776,0.625306,-0.00017500344,-0.0436472,-0.007857037,-0.00014597781,-0.0015760191,0.0014532035,0.0017894193,0.47640914,-1.4219728,1.9530882,-2.1001942,-1.5707334,2.4516385,-0.026655508,0.083881356,-0.09842326,0.012522025,0.00054404885,-0.028386,-0.19153613,0.2681506,-9.442732,0.7777002,47.684196,-0.86648417,-2.2361116,-3.3362255,-0.27311036,0.08480713,-0.2845974,26.125,26.9375,26.0,29.125,30.125,30.5625
0.09805215,-0.47866032,-0.5966228,-0.38466775,-0.01762628,0.028645938,-0.15256046,-0.38322666,-0.34886473,0.059935372,-3.078511,0.62523544,-0.00019973014,-0.044801954,-0.008176619,0.00022379015,-0.0019509082,0.0022840442,0.0013315103,0.47636098,-1.42178,1.9529079,-2.1002061,-1.5707096,2.4515421,-0.027110273,0.085302554,-0.10095438,0.012722616,0.0004912981,-0.028381357,-0.21068975,0.24899697,-9.481039,0.7665104,47.688675,-0.85025275,-2.0807683,-3.3705244,-0.27516878,0.07054125,-0.29757726,26.125,26.9375,26.0,29.125,30.125,30.5625
0.100052305,-1.1109955,-0.9942077,-0.42011335,-0.010026277,0.008536298,-0.13416523,-0.38332853,-0.34888864,0.059961557,-3.0785227,0.6251986,-0.00013261402,-0.04562015,-0.008478477,0.00012746514,-0.002154328,0.0027747343,0.0017828974,0.47632495,-1.4216232,1.9526552,-2.100146,-1.5707334,2.4514818,-0.027289672,0.08695542,-0.10248944,0.012074918,0.0004432709,-0.029010925,-0.11492168,0.2681506,-9.481039,0.83589023,47.687782,-0.93260694,-2.1313357,-3.4503386,-0.264474,0.08224051,-0.30777842,26.125,26.9375,26.0,29.125,30.125,30.5625
0.10205269,-0.61499554,-0.47569928,-0.23071384,-0.018687861,0.016191103,-0.14240529,-0.38343054,-0.3489031,0.059966218,-3.0785427,0.6251638,-7.808508e-05,-0.04631768,-0.008313853,-7.4208125e-05,-0.0019149106,0.0023949204,0.0022451088,0.47626466,-1.4214545,1.9524516,-2.100146,-1.5707458,2.4513974,-0.028187746,0.08839738,-0.10375307,0.012343539,0.0004035012,-0.030370358,-0.15322891,0.30645782,-9.423578,0.7709874,47.691364,-0.91966695,-2.109626,-3.4508615,-0.23932788,0.0819249,-0.31073847,26.125,26.9375,26.0,29.125,30.125,30.5625
0.104051955,-0.7506101,-0.7923929,-0.49865258,-0.012936395,0.011328204,-0.14276294,-0.38353938,-0.34891418,0.05997972,-3.078568,0.625246,-5.970412e-05,-0.04710428,-0.008379717,-0.00027978278,-0.0017787613,0.0020595775,0.002895689,0.47616833,-1.4212978,1.952236,-2.1001222,-1.5707215,2.4513493,-0.02880162,0.0902831,-0.10550541,0.012571158,0.00043412557,-0.031633753,-0.038307227,0.24899697,-9.346964,0.81351066,47.716442,-0.8909156,-2.0821166,-3.6118793,-0.24002525,0.08906944,-0.3098169,26.125,26.9375,26.0,29.125,30.125,30.5625
0.10605254,-0.27845278,-0.6902527,-0.3845747,-0.010142528,0.015801484,-0.13994753,-0.38362858,-0.3489378,0.05996915,-3.0785728,0.6252269,-8.881414e-05,-0.047662675,-0.008647022,-5.04297e-05,-0.0018891213,0.0023206705,0.0024630511,0.4761204,-1.4210932,1.9520205,-2.1000974,-1.5707096,2.451289,-0.028817182,0.09116682,-0.10717202,0.013071969,0.00040984707,-0.031215815,0.0,0.22984336,-9.442732,0.8314132,47.699425,-0.9426329,-1.9610313,-3.4731011,-0.23256403,0.09001028,-0.32919362,26.125,26.9375,26.0,29.125,30.125,30.5625
0.10805223,-0.4920693,-0.850917,-0.3631838,-0.009198268,0.0035593864,-0.14415407,-0.38373896,-0.3489481,0.059973672,-3.07856,0.6252636,-9.011287e-06,-0.048737876,-0.009135523,0.00079484575,-0.0026918813,0.0039323033,0.0013667379,0.47606045,-1.4209131,1.951804,-2.1000974,-1.5707458,2.4512537,-0.028910987,0.091582574,-0.109654084,0.013337109,0.0003814466,-0.03021204,-0.05746084,0.22984336,-9.442732,0.78888994,47.696735,-1.0071505,-1.9013201,-3.6461086,-0.2413182,0.10271168,-0.3538315,26.125,26.9375,26.0,29.125,30.125,30.5625
0.11005239,-0.24175163,-0.7089941,-0.54661465,-0.0122475065,0.008086334,-0.14550589,-0.38385114,-0.34897,0.059992034,-3.078584,0.6252677,5.9332556e-06,-0.049496215,-0.009131191,-0.00034687083,-0.0015747647,0.0017190698,0.0021325068,0.47598806,-1.4207311,1.9515404,-2.1000383,-1.5707334,2.451181,-0.029617371,0.095746666,-0.1119719,0.013970105,0.00039998878,-0.031682562,0.0,0.22984336,-9.385271,0.7665104,47.66987,-1.0432047,-2.1820433,-3.506436,-0.2204194,0.09339103,-0.37429464,26.125,26.9375,26.0,29.125,30.125,30.5625
0.112052366,-0.49945313,-1.024475,-0.5619354,-0.006869179,0.0017603479,-0.13914439,-0.3839444,-0.34898683,0.059968,-3.078569,0.62522477,-9.215911e-06,-0.05096877,-0.009781816,0.0015683374,-0.00335567,0.005184262,0.0035917896,0.47594008,-1.4205035,1.9513348,-2.1000383,-1.5707458,2.4511082,-0.029800192,0.09447642,-0.1150056,0.014377472,0.00038891778,-0.033323485,-0.038307227,0.24899697,-9.32781,0.8157518,47.653748,-0.9827452,-1.9609298,-3.4761443,-0.21254887,0.08574425,-0.3503278,26.125,26.9375,26.0,29.125,30.125,30.5625
0.11405188,-0.5053788,-0.47608986,-0.4853912,-0.016008928,0.0029978298,-0.14084654,-0.38403437,-0.34903327,0.05999724,-3.078625,0.6251976,-4.6827704e-06,-0.051708907,-0.01011638,0.00069966324,-0.002515841,0.00348892,0.004485466,0.47591612,-1.420346,1.9510711,-2.0999653,-1.5707096,2.4510603,-0.029899541,0.09843038,-0.11770768,0.015018338,0.00041595666,-0.034314733,-0.019153614,0.30645782,-9.385271,0.7777002,47.684196,-1.0886143,-1.9764463,-3.4017358,-0.20766892,0.09061636,-0.34655774,26.125,26.9375,26.0,29.125,30.125,30.5625
0.11605228,-0.8758282,-1.0896269,-0.652631,-0.013018885,-0.00037156223,-0.14117213,-0.3841435,-0.34900633,0.059977625,-3.0785704,0.6252622,-2.4866838e-05,-0.052896965,-0.010147593,0.002038036,-0.0036197375,0.005640746,0.005430529,0.47578362,-1.4201542,1.9508909,-2.0999415,-1.5707334,2.4509752,-0.030911233,0.097347215,-0.11968899,0.015663426,0.00040796303,-0.03627085,-0.019153614,0.34476504,-9.404425,0.7777002,47.694054,-1.1041999,-1.9226844,-3.4981103,-0.21544904,0.09362544,-0.34725344,26.125,26.9375,26.0,29.125,30.125,30.5625
0.118052505,-0.43264827,-1.0100951,-0.5878638,-0.02444464,0.023602871,-0.14303732,-0.38424194,-0.349064,0.059984196,-3.0786219,0.6251568,3.1108026e-05,-0.053996112,-0.009798158,0.0017426269,-0.0032322623,0.0048056124,0.005331728,0.47579515,-1.4199371,1.9506272,-2.099941,-1.5707334,2.4509146,-0.032557257,0.09955495,-0.121734895,0.016421145,0.00044486523,-0.03781694,-0.05746084,0.30645782,-9.481039,0.78888994,47.687782,-1.0394015,-1.7973309,-3.4622865,-0.20274407,0.093041256,-0.3587669,26.125,26.9375,26.0,29.125,30.125,30.5625
0.120052524,-1.0308056,-1.0496858,-0.80598944,-0.031356443,0.015930781,-0.14411686,-0.3843465,-0.34907317,0.059975736,-3.0786161,0.62505996,1.2672965e-05,-0.0547563,-0.010411297,0.0023125652,-0.0037213403,0.00566844,0.00538921,0.47572336,-1.4197208,1.9503878,-2.0998933,-1.5707458,2.4507833,-0.032180008,0.100443624,-0.12421043,0.017016502,0.00048001294,-0.03749604,-0.095768064,0.3256114,-9.519346,0.80679786,47.682407,-1.1107731,-1.8179255,-3.4695535,-0.20531471,0.0975519,-0.3470335,26.125,26.9375,26.0,29.125,30.125,30.5625
0.12205264,-1.3207214,-1.0408725,-0.64560944,-0.042930588,0.022169756,-0.14958976,-0.38446566,-0.34908766,0.059991583,-3.0786192,0.6251549,5.4530796e-05,-0.055152427,-0.010958012,0.0019329553,-0.0032005457,0.004588345,0.007375916,0.47563955,-1.4195398,1.9501361,-2.099857,-1.5707458,2.4507585,-0.031582326,0.103115655,-0.12663858,0.017971074,0.00051034073,-0.038883697,-0.114921674,0.3256114,-9.576807,0.85155696,47.696735,-1.1388423,-1.7906482,-3.4835768,-0.20500296,0.092362136,-0.36431536,26.125,26.9375,26.0,29.125,30.125,30.5625
0.124051735,-1.7272142,-1.6048847,-0.69445646,-0.025689794,0.018713433,-0.14169735,-0.38455272,-0.3491235,0.059984073,-3.0786462,0.6250617,-5.34301e-05,-0.055993672,-0.01150534,0.0020095212,-0.0038017086,0.0049508847,0.010428267,0.47559163,-1.4193109,1.9498719,-2.0997732,-1.5706972,2.450649,-0.031609364,0.10483658,-0.1287641,0.01777847,0.0008717833,-0.04196238,-0.15322891,0.34476504,-9.710882,0.8224646,47.71286,-1.246774,-1.8291149,-3.4872181,-0.18647432,0.09239675,-0.33824694,26.125,26.9375,26.0,29.125,30.125,30.5625
0.12605199,-1.124536,-1.1140302,-0.83292866,-0.026396565,0.034323286,-0.14222485,-0.38468367,-0.3491304,0.059988525,-3.0786335,0.62505955,1.0031935e-05,-0.058055136,-0.011251792,0.0022264377,-0.0045604277,0.0058823437,0.009418262,0.47550672,-1.4190941,1.9496077,-2.0997493,-1.570733,2.4505646,-0.03408803,0.10689358,-0.1315319,0.01731137,0.001114242,-0.04342968,-0.22984336,0.36391866,-9.653421,0.7665104,47.705692,-1.2461419,-1.7842004,-3.4360695,-0.19158694,0.1006356,-0.32511404,26.125,26.9375,26.0,29.125,30.125,30.5625
0.128052,-0.97293866,-1.3860732,-0.70045674,-0.01406727,0.03711225,-0.14639488,-0.3848044,-0.34916806,0.060013182,-3.0786867,0.62501144,0.00012324922,-0.06016175,-0.012076087,0.0023873574,-0.0050722756,0.0068421415,0.0107214665,0.4754706,-1.4189123,1.9493431,-2.0997493,-1.5707453,2.450492,-0.034556374,0.110829376,-0.13639021,0.01714551,0.0011229478,-0.045198154,-0.21068975,0.40222588,-9.576807,0.779936,47.703007,-1.1773155,-2.0291796,-3.2504232,-0.16600655,0.09632838,-0.2962157,26.125,26.9375,26.0,29.125,30.125,30.5625
0.1300524,-1.2399795,-0.7555932,-0.6996448,-0.02357924,0.024276253,-0.13841689,-0.38491258,-0.34921867,0.060025897,-3.0787663,0.62493104,9.272008e-05,-0.061735317,-0.012332029,0.0025956973,-0.005938661,0.007675096,0.011216759,0.47542205,-1.4186958,1.9490551,-2.0997016,-1.5706853,2.4503832,-0.035780225,0.112849064,-0.1391025,0.01670226,0.0015066226,-0.04691615,-0.22984336,0.3256114,-9.595961,0.8784135,47.690468,-1.1605395,-1.8264134,-3.374662,-0.14558601,0.087218314,-0.272618,26.125,26.9375,26.0,29.125,30.125,30.5625
0.1320525,-1.5893787,-1.0719514,-0.55970824,-0.017537277,0.025915777,-0.13901293,-0.3850333,-0.34921142,0.060012806,-3.0787144,0.62493867,5.438166e-05,-0.062289074,-0.012218449,0.0018526656,-0.0050824773,0.0061507183,0.012194015,0.47531396,-1.4184545,1.9487919,-2.0996296,-1.5707091,2.4502866,-0.03642696,0.11558081,-0.14070518,0.017319579,0.0014395135,-0.048539076,-0.26815057,0.30645782,-9.576807,0.7642693,47.683304,-1.1422002,-2.0917523,-3.264412,-0.14939411,0.09250061,-0.2472476,26.125,26.9375,26.0,29.125,30.125,30.5625
0.1340523,-1.2940419,-1.1830133,-0.6450563,-0.019492652,0.04502868,-0.14556111,-0.3851723,-0.34926513,0.06005548,-3.0788102,0.6248992,0.00016173368,-0.06297901,-0.012905395,0.0019973675,-0.0051199608,0.0064242096,0.014742413,0.47526616,-1.4182619,1.9484681,-2.0996058,-1.5706853,2.4502022,-0.035771333,0.117459655,-0.14331746,0.017794147,0.0013488684,-0.050430126,-0.34476504,0.34476504,-9.519346,0.7911258,47.71286,-1.211732,-1.9670995,-3.2065094,-0.14860938,0.10499272,-0.22822309,26.125,26.9375,26.0,29.125,30.125,30.5625
0.13605171,-2.033076,-1.342738,-0.54632235,-0.01694579,0.037563436,-0.1375152,-0.38532528,-0.34925658,0.0600478,-3.0787861,0.6249121,0.00020889507,-0.063378036,-0.012710249,0.0010491015,-0.0041264063,0.004522846,0.015939513,0.475134,-1.4180083,1.948192,-2.0995934,-1.570721,2.4500813,-0.036449857,0.12029352,-0.14455663,0.018343,0.0013354819,-0.052304834,-0.49799395,0.34476504,-9.481039,0.8157518,47.689575,-1.2945669,-2.0101027,-3.2825994,-0.12901796,0.08716552,-0.2010715,26.125,26.9375,26.0,29.125,30.125,30.5625
0.13805172,-1.6909735,-1.1755531,-0.37132198,-0.02594018,0.049449865,-0.14000422,-0.38545743,-0.3493087,0.060074072,3.0787926,-0.6248365,-0.00029778256,-0.06463568,-0.012489028,0.0014825918,-0.004492855,0.0051767277,0.015526074,0.4750974,-1.417792,1.9478811,-2.0995815,-1.5707091,2.449997,-0.037994523,0.12106563,-0.14656694,0.018832624,0.0013637489,-0.05343503,-0.4405331,0.4405331,-9.595961,0.87617236,47.690468,-1.238124,-1.9100614,-3.2450294,-0.122988865,0.08198984,-0.16319737,26.125,26.9375,26.0,29.125,30.125,30.5625
0.14005189,-1.7733679,-1.5778279,-0.37009284,-0.028061114,0.048792515,-0.13602538,-0.38559234,-0.34933063,0.06010054,3.0787895,-0.6247391,-0.00034018766,-0.06705253,-0.0126288645,0.0023515467,-0.005566319,0.007202103,0.0152436765,0.47501266,-1.417587,1.9475693,-2.0995095,-1.5707091,2.449852,-0.039951958,0.12287803,-0.15064661,0.01880773,0.0013859646,-0.055107825,-0.38307226,0.34476504,-9.404425,0.7642693,47.716442,-1.1614501,-1.7614993,-3.308923,-0.1149728,0.090727694,-0.13565552,26.125,26.9375,26.0,29.125,30.125,30.5625
0.14205195,-1.8806251,-1.0963933,-0.112522975,-0.028016225,0.03969973,-0.14244947,-0.38569653,-0.34936824,0.060074434,3.0787785,-0.62471825,-0.0002471511,-0.06729003,-0.01244258,0.0013200683,-0.0048910794,0.005486858,0.013989917,0.47495264,-1.41731,1.9473056,-2.099486,-1.570661,2.4497805,-0.040600076,0.12533596,-0.15111044,0.018649949,0.0015668536,-0.054501902,-0.4213795,0.2681506,-9.308657,0.82694155,47.711964,-1.1842155,-1.7476804,-3.387125,-0.09332087,0.09680994,-0.11542463,26.125,26.9375,26.0,29.125,30.125,30.5625
0.14405203,-1.6634866,-0.31037986,0.18058938,-0.014739188,0.03662657,-0.14644063,-0.38585648,-0.34940094,0.06009472,3.0787337,-0.6246338,-0.00033485377,-0.06749648,-0.012383117,-0.00017278765,-0.0033993525,0.002712337,0.012440109,0.47485644,-1.4170684,1.9469818,-2.0994856,-1.570649,2.4496374,-0.040836588,0.12933987,-0.15243444,0.019120714,0.001511729,-0.053187285,-0.4213795,0.2681506,-9.289502,0.7597976,47.691364,-1.1848087,-1.9910986,-3.3320346,-0.071327925,0.07628752,-0.11012843,26.125,26.9375,26.0,29.125,30.125,30.5625
0.14605173,-1.1815052,0.23521742,0.61527187,-0.008021862,0.03999301,-0.14724962,-0.38600016,-0.34942842,0.060106866,3.078775,-0.62456405,-0.00046211632,-0.068474345,-0.012147172,-0.000796646,-0.0030010834,0.0014379908,0.011746975,0.47482,-1.4168153,1.946658,-2.0994613,-1.570721,2.4495525,-0.042278524,0.13213123,-0.15434407,0.019549793,0.0017398203,-0.053935066,-0.36391866,0.21068975,-9.11712,0.7329411,47.68599,-1.1711202,-1.7673793,-3.3942952,-0.061190568,0.07075996,-0.08644926,26.125,26.9375,26.0,29.125,30.125,30.5625
0.14805162,-0.73993236,0.25889227,0.29711857,0.024176124,0.033391446,-0.14172547,-0.3861558,-0.34945402,0.06011345,3.0787292,-0.62453645,-0.0004695933,-0.06975367,-0.012466146,0.0013327635,-0.004674516,0.0049157823,0.010409746,0.47469988,-1.4165517,1.9463347,-2.099437,-1.5706853,2.4494212,-0.042788334,0.1298161,-0.15678152,0.020446882,0.0016373555,-0.053106893,-0.21068975,0.076614454,-9.002198,0.779936,47.705692,-1.182496,-1.8383038,-3.3182347,-0.033428416,0.08386125,-0.07149397,26.125,26.9375,26.0,29.125,30.125,30.5625
0.15005253,-0.4266931,0.8597728,0.6439219,0.028998582,0.021351581,-0.14861278,-0.38632095,-0.34948468,0.0601357,3.0786812,-0.6245495,-0.00055484247,-0.070442595,-0.011896108,-6.923433e-05,-0.0033154618,0.0020852361,0.0048130048,0.47460324,-1.4162979,1.9459871,-2.0994132,-1.5706853,2.449339,-0.044454306,0.13370366,-0.15823963,0.021156348,0.001723272,-0.04917498,-0.19153613,0.0,-8.829816,0.8291774,47.674347,-1.1846015,-1.8464587,-3.37637,-0.027641239,0.075019136,-0.10310131,26.125,26.9375,26.0,29.125,30.125,30.5625
0.15205249,-0.7915367,0.8275951,0.74824,0.036276292,0.0012823658,-0.14510001,-0.38642916,-0.349513,0.06012289,3.0786757,-0.6244707,-0.0005037031,-0.07166684,-0.012157035,0.000495183,-0.0037767955,0.002897522,0.003675015,0.47453097,-1.4160573,1.9457344,-2.0993888,-1.570649,2.4492183,-0.04511446,0.13487503,-0.16106953,0.021883383,0.0017574836,-0.048695847,-0.15322891,-0.038307227,-8.848969,0.83813137,47.689575,-1.1612289,-1.8400396,-3.3852508,-0.011147769,0.058875278,-0.11060205,26.125,26.9375,26.0,29.125,30.125,30.5625
0.15405196,-0.110589296,0.98347527,0.6301954,0.024003468,0.006993279,-0.14956993,-0.38659388,-0.34954613,0.060138825,3.078672,-0.62443215,-0.00055482215,-0.07177796,-0.011840397,-0.00031189382,-0.002687576,0.000597958,0.0024103366,0.47444677,-1.4157686,1.9453524,-2.0993283,-1.570661,2.4491107,-0.04580473,0.1370704,-0.16210103,0.023262026,0.0018417652,-0.048120957,-0.28730422,0.019153614,-8.810662,0.8537928,47.71017,-1.1241969,-1.8273225,-3.4120936,-0.0016180109,0.0747514,-0.11585532,26.125,26.9375,26.0,29.125,30.125,30.5625
0.15605198,-0.63362294,0.2797285,0.49501964,0.02626011,-0.0018618384,-0.14430134,-0.3867507,-0.34956336,0.06014435,3.0786324,-0.62450135,-0.00057220424,-0.072964974,-0.011823703,-0.0003347491,-0.002149912,-5.86243e-05,0.0012167507,0.47432643,-1.4155034,1.9450268,-2.099292,-1.570649,2.4490387,-0.04677236,0.13957764,-0.16531505,0.02479999,0.0016612116,-0.047893174,-0.22984336,0.17238252,-8.829816,0.79560274,47.69763,-1.109012,-1.7947097,-3.2178102,0.0018478825,0.06068673,-0.12356927,26.125,26.9375,26.0,29.125,30.125,30.5625
0.15805194,-1.0925318,-0.36656627,0.46064585,0.019658277,-0.007410154,-0.13924593,-0.38689226,-0.3495755,0.06013484,3.0786784,-0.6244934,-0.0005767988,-0.07476926,-0.01210388,0.00068797974,-0.0026725887,0.0012586855,-0.0038834005,0.47424203,-1.4152147,1.944703,-2.099232,-1.5706853,2.4489439,-0.047805842,0.1409213,-0.1695739,0.026303802,0.0015160692,-0.04382448,-0.19153613,0.21068975,-8.829816,0.85155696,47.687782,-1.0880153,-1.8066831,-3.3104825,-0.006534235,0.08391695,-0.1538592,26.125,26.9375,26.0,29.125,30.125,30.5625
0.160052,-0.89254254,-0.7356235,0.35105094,0.01284282,0.011655555,-0.14542793,-0.38701,-0.34958825,0.06011596,3.0786932,-0.6245164,-0.00044724156,-0.07493959,-0.011438412,-0.0013289115,-0.0001511072,-0.0030719668,-0.005725887,0.47413385,-1.4149368,1.9444045,-2.0991352,-1.570649,2.4488482,-0.048939392,0.14572456,-0.17087567,0.027809257,0.0012472782,-0.043114316,-0.17238252,0.17238252,-8.810662,0.86498255,47.695843,-1.0875762,-1.8135403,-3.3740308,-0.0011185212,0.067819394,-0.1967375,26.125,26.9375,26.0,29.125,30.125,30.5625
0.1620521,-1.3171749,-0.81511277,-0.071917,0.012116883,0.008265281,-0.1350578,-0.38717338,-0.3496293,0.06012249,3.0786574,-0.6245669,-0.00046470726,-0.07632269,-0.011859588,0.0015214779,-0.0021464112,0.0013906135,-0.0055057886,0.4740497,-1.414626,1.9440211,-2.099087,-1.5706371,2.4488003,-0.04925685,0.14225458,-0.17376766,0.029291539,0.0009835926,-0.04365107,-0.11492168,0.24899697,-9.021352,0.8605109,47.674347,-1.1391451,-1.6974783,-3.3325062,-0.002579687,0.060584135,-0.1928091,26.125,26.9375,26.0,29.125,30.125,30.5625
0.16405207,-1.6538751,-1.0387917,-0.23459445,-0.0077072377,0.00820531,-0.1376265,-0.3873402,-0.34964493,0.060139835,3.0786698,-0.62449276,-0.00052827696,-0.07675399,-0.010511223,-0.00028614432,2.9939965e-05,-0.0027810954,-0.0077836816,0.47394064,-1.4143602,1.943662,-2.099027,-1.570661,2.4486437,-0.051978447,0.14598121,-0.17431289,0.030814525,0.0009552669,-0.04409421,-0.22984336,0.30645782,-9.232041,0.8605109,47.696735,-1.0300549,-1.9218874,-3.3176074,-0.018307542,0.07354573,-0.20695177,26.125,26.9375,26.0,29.125,30.125,30.5625
0.16605227,-0.67036957,-1.2612139,-0.1988466,-0.033990424,0.039001416,-0.14270386,-0.38748258,-0.34963742,0.060112387,3.0787342,-0.62462026,-0.00044419593,-0.07724732,-0.011341915,-0.00039773213,0.00015200296,-0.0029979178,-0.0072443956,0.47382107,-1.414035,1.9433259,-2.0989187,-1.5706972,2.4485958,-0.050925076,0.148349,-0.17694478,0.03132592,0.0009363176,-0.043578744,-0.2681506,0.4405331,-9.32781,0.76874626,47.678825,-1.013765,-1.6690173,-3.3637164,-0.015128998,0.093071334,-0.23229945,26.125,26.9375,26.0,29.125,30.125,30.5625
0.16805224,-1.9330395,-2.1582801,-0.48197642,-0.043449342,0.027830487,-0.1338454,-0.3876317,-0.349682,0.060124274,3.0786774,-0.6245893,-0.00041300867,-0.07849067,-0.012006409,-0.0002925282,-0.00028705303,-0.0021098193,-0.006906279,0.47372532,-1.4137578,1.9429663,-2.0988595,-1.5706371,2.448488,-0.050844364,0.15072823,-0.17985855,0.030872704,0.00091533014,-0.043834336,-0.3256114,0.5554548,-9.423578,0.83813137,47.66808,-1.1439478,-1.7708042,-3.3733382,-0.027897669,0.081692725,-0.25115606,26.125,26.9375,26.0,29.125,30.125,30.5625
0.17005217,-1.3528913,-2.2199686,-0.5336002,-0.05851212,0.054321423,-0.1492895,-0.38778538,-0.3496709,0.06010587,3.0787606,-0.62468266,-0.00036610427,-0.07969172,-0.011647419,-0.00046964595,0.00011193904,-0.0027117576,-0.008462964,0.4736046,-1.413433,1.9426068,-2.098739,-1.5706972,2.4484153,-0.052482303,0.15285306,-0.18214755,0.031752378,0.00082790334,-0.043914385,-0.21068975,0.59376204,-9.461885,0.8314132,47.681515,-1.070312,-1.8218114,-3.3666873,-0.02522847,0.06523684,-0.26235774,26.125,26.9375,26.0,29.125,30.125,30.5625
0.17205225,-1.9017314,-2.0962708,-0.5940008,-0.057500266,0.039781924,-0.1391509,-0.38794395,-0.34971032,0.06009603,3.0786903,-0.62474716,-0.00029349112,-0.081599146,-0.01090576,7.279944e-05,-0.00030494464,-0.0018901724,-0.010610631,0.47348356,-1.4131082,1.9422473,-2.0987031,-1.5706252,2.4483435,-0.05548081,0.15370037,-0.18455388,0.03239346,0.00082040136,-0.04476415,-0.28730422,0.6703765,-9.576807,0.900793,47.681515,-0.9902426,-1.736799,-3.3187397,-0.04396868,0.08757011,-0.27924928,26.125,26.9375,26.0,29.125,30.125,30.5625
0.17405191,-1.5653728,-1.5949502,-0.46422675,-0.049826343,0.037091564,-0.14443102,-0.38811815,-0.3497331,0.06011392,3.0787194,-0.62473327,-0.00042238223,-0.08269251,-0.011749179,9.298282e-07,-0.0009936785,-0.00079111813,-0.009871294,0.47341168,-1.4128194,1.941863,-2.0986555,-1.5706972,2.4482596,-0.05502974,0.15612468,-0.18691453,0.031034088,0.00092615525,-0.04505085,-0.36391866,0.6512228,-9.595961,0.9231726,47.704796,-0.9338398,-1.6301627,-3.4041107,-0.021030148,0.08806241,-0.3226092,26.125,26.9375,26.0,29.125,30.125,30.5625
0.1760521,-1.1460634,-0.932175,-0.4398858,-0.038082805,0.04491054,-0.15150228,-0.38828167,-0.34976745,0.06011771,3.0787191,-0.62465394,-0.00042247385,-0.0826168,-0.012266111,-0.0003615556,-0.0016246132,-0.0012836569,-0.008397821,0.47331595,-1.4125068,1.9414805,-2.0985959,-1.5706853,2.4481146,-0.0545249,0.15717721,-0.1872072,0.030422784,0.0017108965,-0.046020083,-0.30645782,0.4405331,-9.576807,0.8493211,47.68599,-1.0852668,-1.8168292,-3.3874736,-0.01138875,0.06263953,-0.3268282,26.125,26.9375,26.0,29.125,30.125,30.5625
0.17805207,-1.0790077,-0.7559799,-0.7008401,-0.019547049,0.031748965,-0.13980618,-0.38844213,-0.3497743,0.06008888,3.078692,-0.6248033,-0.00032362464,-0.08376024,-0.011304067,-0.0022416096,-2.1674146e-05,-0.0045071165,-0.010593696,0.4731591,-1.4121683,1.9411453,-2.0985482,-1.570649,2.4480546,-0.05724167,0.16211411,-0.18869379,0.0305741,0.0017478174,-0.04653976,-0.17238252,0.3256114,-9.5385,0.8851263,47.713753,-0.964725,-1.927581,-3.5205102,-0.014265803,0.06852636,-0.32982317,26.125,26.9375,26.0,29.125,30.125,30.5625
0.18005215,-0.9660121,-0.45270726,-0.84723186,-0.009906123,0.022737112,-0.14678335,-0.38863325,-0.34982076,0.060118888,3.078661,-0.6247781,-0.00042033417,-0.08428363,-0.01118133,-0.0031943538,0.0004239275,-0.006307942,-0.011521064,0.4730748,-1.4118551,1.9407023,-2.0984886,-1.5706605,2.4479587,-0.058171824,0.16498412,-0.18991111,0.030725611,0.0021722838,-0.04654201,-0.2681506,0.22984336,-9.519346,0.80456203,47.68599,-0.8983779,-1.9618969,-3.5180273,-0.0017795598,0.06501314,-0.36061588,26.125,26.9375,26.0,29.125,30.125,30.5625
0.18205224,-0.47552913,0.10329745,-0.44824964,-0.016291376,0.026110781,-0.15351738,-0.3888121,-0.34984612,0.06011509,3.0786252,-0.6247899,-0.00042407715,-0.08580488,-0.011241686,-0.003613106,0.0005405527,-0.006317575,-0.0125979595,0.4729423,-1.4115298,1.9403304,-2.0984643,-1.5706371,2.4478383,-0.059338,0.1682102,-0.1926249,0.030276855,0.0020662085,-0.046629358,-0.24899697,0.17238252,-9.5385,0.85826975,47.684196,-0.9035837,-2.0865264,-3.4972782,0.018339869,0.0554092,-0.39074498,26.125,26.9375,26.0,29.125,30.125,30.5625
0.18405229,-0.8812404,-0.25446215,-0.30392715,0.0028349685,0.025236608,-0.14730927,-0.38897964,-0.34987786,0.06010549,3.0786262,-0.6248287,-0.00040525224,-0.085886694,-0.0108960625,-0.0043071355,0.0015189858,-0.008241689,-0.0131975515,0.4728462,-1.4111807,1.939936,-2.0984042,-1.5706371,2.4477665,-0.059990667,0.1699538,-0.1933737,0.03144089,0.0020712204,-0.046682157,-0.2873042,0.15322891,-9.595961,0.8672237,47.689575,-0.9004682,-2.121878,-3.6317396,0.023289492,0.05234912,-0.40979958,26.125,26.9375,26.0,29.125,30.125,30.5625
0.18605177,-0.77276367,0.17812836,-0.19382286,0.00048153405,0.029126193,-0.14298037,-0.38916683,-0.34988976,0.06011264,3.0785773,-0.6249144,-0.00043431576,-0.08628417,-0.01073445,-0.004230987,0.0024028812,-0.0095473435,-0.012749754,0.47269002,-1.4108803,1.9395646,-2.098367,-1.5706252,2.4476702,-0.06046972,0.17122585,-0.19564806,0.03400978,0.0018803391,-0.047607988,-0.1340753,0.1340753,-9.557653,0.8090337,47.689575,-0.89054734,-2.031993,-3.5691073,0.008498415,0.062578104,-0.4343244,26.125,26.9375,26.0,29.125,30.125,30.5625
0.18805179,-0.80263525,0.58129853,-0.17402644,0.003516844,0.02369003,-0.14834605,-0.38936114,-0.34992388,0.060120538,3.0785685,-0.6248932,-0.0004876643,-0.087921225,-0.011099004,-0.0034511008,0.0019036062,-0.008556398,-0.012210497,0.4725817,-1.4105314,1.939133,-2.0983188,-1.5706371,2.44755,-0.061264373,0.17288044,-0.19968173,0.035279,0.0018691415,-0.048939988,-0.05746084,0.095768064,-9.423578,0.8493211,47.68062,-0.8508687,-2.163782,-3.5334835,0.0031972665,0.053070344,-0.4520573,26.125,26.9375,26.0,29.125,30.125,30.5625
0.19005199,-0.7606929,0.40419626,0.09372623,0.0073374463,0.021861326,-0.15376751,-0.38951477,-0.34994572,0.06010558,3.0785964,-0.6249361,-0.00038528268,-0.08984278,-0.011556813,-0.0028316057,0.0017806212,-0.008059585,-0.011461643,0.4724734,-1.410182,1.9387363,-2.0981982,-1.5706252,2.4474652,-0.062082443,0.17572966,-0.20485687,0.03710789,0.0017415577,-0.05050444,-0.24899697,0.095768064,-9.308656,0.95226496,47.677036,-0.80925214,-2.1970346,-3.4619255,-0.005018074,0.055530816,-0.4527217,26.125,26.9375,26.0,29.125,30.125,30.5625
0.1920521,-0.644574,0.392618,-0.017543076,0.010444716,0.022647765,-0.15718053,-0.38969263,-0.3499602,0.060101453,3.0786147,-0.6249776,-0.00039213948,-0.09080962,-0.011738501,-0.00237646,0.0016995474,-0.008120749,-0.010924681,0.47235328,-1.4098452,1.9383405,-2.0981262,-1.570649,2.4473689,-0.06266034,0.17703426,-0.20784383,0.038806535,0.0018377554,-0.05161822,-0.19153613,0.11492168,-9.308657,0.85155696,47.689575,-0.8495175,-2.0484695,-3.3470476,-0.014965873,0.056961328,-0.47804594,26.125,26.9375,26.0,29.125,30.125,30.5625
0.19405214,-0.72647846,0.13012941,-0.18498325,0.007753148,0.014680395,-0.14841111,-0.38990086,-0.34998757,0.06009705,3.0785918,-0.62506634,-0.00042961419,-0.09136124,-0.0112377005,-0.0027173318,0.0026293225,-0.0097097065,-0.007554528,0.47222078,-1.4094601,1.9378976,-2.09809,-1.570661,2.447295,-0.063927375,0.17871971,-0.20948644,0.04060166,0.0017346465,-0.05625465,-0.28730422,0.15322891,-9.32781,0.89631605,47.704796,-0.81965697,-2.048144,-3.3906534,-0.044771746,0.05810315,-0.46543962,26.125,26.9375,26.0,29.125,30.125,30.5625
0.19605231,-0.99408615,-0.8437358,-0.18773954,0.0077336873,0.019955423,-0.14392616,-0.3900601,-0.35000047,0.060069233,3.078636,-0.6250164,-0.00027249948,-0.0926188,-0.011347554,-0.0014011938,0.0020232536,-0.008514149,-0.0060278955,0.47207665,-1.409088,1.9375037,-2.0979693,-1.5706252,2.4471142,-0.06481973,0.17854203,-0.21284579,0.042800706,0.0017221231,-0.058672745,-0.38307226,0.19153613,-9.3661175,0.8314132,47.709274,-0.7389264,-1.9755332,-3.330525,-0.06324538,0.06270628,-0.42685565,26.125,26.9375,26.0,29.125,30.125,30.5625
0.19805214,-1.1206545,-0.9586356,0.00056846143,-0.016516251,0.03601278,-0.14858627,-0.39025092,-0.35003507,0.060077216,3.0786448,-0.625036,-0.00030598565,-0.09238799,-0.010706749,-0.0023803036,0.0037273658,-0.0114888055,-0.004601853,0.47198036,-1.4087273,1.9370493,-2.0978844,-1.570649,2.4470294,-0.06559524,0.18044622,-0.21332976,0.04480412,0.0015605361,-0.060874015,-0.45968673,0.34476504,-9.155427,0.8314132,47.704796,-0.70400983,-1.8688368,-3.3367605,-0.116246715,0.058987096,-0.44044852,26.125,26.9375,26.0,29.125,30.125,30.5625
0.20005202,-2.0346475,-1.131587,0.116737545,-0.025112271,0.034375444,-0.14201441,-0.3904315,-0.3500451,0.060075395,3.0786436,-0.62509054,-0.00019529574,-0.09245882,-0.010704115,-0.0021265342,0.0043554273,-0.012436649,-2.080034e-05,0.47181222,-1.4083787,1.9366177,-2.0977404,-1.5706133,2.4468956,-0.06553257,0.18092214,-0.21506014,0.04719146,0.0014287168,-0.06539196,-0.36391866,0.36391866,-9.270349,0.87617236,47.69763,-0.7328986,-1.9747074,-3.347828,-0.15890744,0.06808484,-0.39614195,26.125,26.9375,26.0,29.125,30.125,30.5625
0.20205227,-1.4681622,-0.84734356,0.08818997,-0.033513643,0.059346233,-0.15156125,-0.39065018,-0.3500637,0.060091678,3.0786247,-0.62508446,-0.00026194844,-0.094390005,-0.009807082,-0.0018685313,0.0046583037,-0.012515509,0.0029764462,0.4716553,-1.4080292,1.9361628,-2.0976803,-1.5706252,2.4467375,-0.06864412,0.18265216,-0.21804033,0.048649978,0.0011939213,-0.071499094,-0.3256114,0.34476504,-9.270349,0.8717007,47.694946,-0.60965836,-1.9347405,-3.4354348,-0.1779918,0.06175802,-0.3143698,26.125,26.9375,26.0,29.125,30.125,30.5625
0.20405208,-1.69379,-1.2124434,0.09441946,-0.013908655,0.054035913,-0.1457541,-0.39081424,-0.35009378,0.060072847,3.07867,-0.62501496,-0.00020012261,-0.09436349,-0.011056489,-0.0017688419,0.004628435,-0.012326154,0.005372089,0.47156015,-1.4076567,1.9357556,-2.097596,-1.5706252,2.4465935,-0.06635124,0.18425643,-0.22029397,0.049117524,0.0011258761,-0.071600735,-0.34476504,0.38307226,-9.270349,0.8918391,47.704796,-0.6547442,-1.8047663,-3.3175492,-0.22999251,0.05235694,-0.29477516,26.125,26.9375,26.0,29.125,30.125,30.5625
0.20605221,-1.5747322,-0.80688715,0.16226596,-0.005793339,0.047608744,-0.14200118,-0.3910194,-0.35012564,0.060071837,3.0786564,-0.6250292,-0.00015862657,-0.09490944,-0.011154048,-0.0017336104,0.004431852,-0.012110974,0.00888004,0.47141603,-1.4072602,1.9352773,-2.0975,-1.5706013,2.4464602,-0.066669434,0.18509603,-0.22141479,0.049119625,0.0011985446,-0.07542648,-0.2873042,0.2681506,-9.155427,0.8560339,47.704796,-0.73745334,-1.784308,-3.3842015,-0.23924936,0.059988014,-0.2446503,26.125,26.9375,26.0,29.125,30.125,30.5625
0.20805222,-1.5119995,-0.5743726,-0.03887517,0.014313834,0.025802003,-0.13615415,-0.39122382,-0.3501502,0.060064383,3.078646,-0.62498796,-0.00013150783,-0.09692564,-0.011045829,-0.0015999512,0.003767729,-0.011179274,0.008853165,0.4712595,-1.4068748,1.9348348,-2.097441,-1.570577,2.4462795,-0.06872326,0.18745781,-0.22440727,0.048620336,0.0013577628,-0.077451944,-0.30645782,0.28730422,-9.193734,0.91198283,47.703007,-0.6746466,-1.7418652,-3.48285,-0.24927604,0.049659282,-0.19310164,26.125,26.9375,26.0,29.125,30.125,30.5625
0.21005225,-0.33552203,0.20473434,-0.02420842,0.0011117508,0.025098974,-0.15220068,-0.3914131,-0.35017708,0.06005799,3.0787115,-0.6248458,-0.00012014731,-0.09717255,-0.012155236,-0.0024748552,0.0041402574,-0.012016549,0.011638612,0.4711519,-1.4064885,1.9343804,-2.0973446,-1.5706013,2.4460752,-0.06698697,0.19116126,-0.22664224,0.048065256,0.0013964215,-0.07849962,-0.21068975,0.28730422,-9.251195,0.9321212,47.675243,-0.58757544,-1.9357834,-3.4878933,-0.277271,0.05499373,-0.15538737,26.125,26.9375,26.0,29.125,30.125,30.5625
0.2120524,-0.2422615,0.09648007,0.21161358,-0.01596632,0.017128026,-0.15236342,-0.39163288,-0.35018066,0.06005146,3.078697,-0.62499505,-8.763972e-05,-0.097427376,-0.013105084,-0.0029400324,0.004564499,-0.012711881,0.013244097,0.4709606,-1.4060918,1.9339141,-2.0972493,-1.5706013,2.445979,-0.06545132,0.19408846,-0.22912768,0.048436284,0.0013248767,-0.07856799,-0.21068975,0.19153613,-9.212888,0.8537928,47.707485,-0.895375,-1.9483917,-3.4537196,-0.28855383,0.059115857,-0.13045418,26.125,26.9375,26.0,29.125,30.125,30.5625
0.21405241,-0.3473638,-0.028484853,0.030921029,-0.022441965,0.012999545,-0.14804229,-0.39180365,-0.3501995,0.06003828,3.0787554,-0.62493134,2.2771526e-06,-0.09880459,-0.012937625,-0.0027135913,0.004208218,-0.011864227,0.010881672,0.47084013,-1.4057188,1.933482,-2.0971177,-1.5706013,2.4458117,-0.06688928,0.19533758,-0.23111944,0.048262388,0.0012457604,-0.07764251,-0.11492168,0.24899697,-9.097966,0.9321212,47.716442,-0.86809754,-1.9644634,-3.4616094,-0.297387,0.052275877,-0.112008385,26.125,26.9375,26.0,29.125,30.125,30.5625
0.21605246,-0.7194118,-0.40695816,-0.14228968,-0.018855002,0.0064434814,-0.13962676,-0.39203113,-0.35022524,0.060038052,3.0787745,-0.6249736,-2.2352556e-06,-0.099779665,-0.013510606,-0.002899714,0.0040525817,-0.011073734,0.009042336,0.47069615,-1.405286,1.9329566,-2.0970104,-1.5706252,2.445692,-0.06656301,0.19765574,-0.23323989,0.04728881,0.0010161161,-0.07547526,0.05746084,0.2873042,-9.193734,0.7553206,47.682407,-0.85710275,-1.9556565,-3.4473686,-0.31222218,0.06420804,-0.11334862,26.125,26.9375,26.0,29.125,30.125,30.5625
0.21805261,-0.45328903,-0.9906723,-0.20479384,-0.014242268,0.005741082,-0.13941589,-0.3922345,-0.3502447,0.06002883,3.0787654,-0.62493485,-2.9791609e-06,-0.10126101,-0.013970465,-0.0028901787,0.0035130752,-0.009625716,0.005447964,0.47054014,-1.4049128,1.932537,-2.0969746,-1.5706133,2.4455132,-0.06691706,0.19995952,-0.23568642,0.04589806,0.000830835,-0.0722331,0.11492168,0.3256114,-9.308656,0.8560339,47.699425,-0.8492096,-2.1056046,-3.3545437,-0.31166536,0.062438942,-0.11971031,26.125,26.9375,26.0,29.125,30.125,30.5625
0.22005263,0.1201611,-0.90551716,-0.1968157,-0.025911681,0.0068980744,-0.14176466,-0.3924163,-0.35028034,0.060003158,-3.078805,0.6249066,-0.00012914749,-0.103129216,-0.014871802,-0.0017263638,0.001812149,-0.006034692,0.0013184928,0.4704321,-1.404468,1.9320472,-2.096832,-1.5706018,2.4453828,-0.06688816,0.20067856,-0.2389291,0.04445106,0.0007009903,-0.06807297,0.076614454,0.28730422,-9.212888,0.800085,47.682407,-0.8983721,-1.9872019,-3.427238,-0.29438254,0.06777032,-0.16723251,26.125,26.9375,26.0,29.125,30.125,30.5625
0.2220523,-0.55249405,-1.3473567,-0.4358473,-0.0106033115,-0.021951372,-0.12474404,-0.39263618,-0.35031828,0.060005628,-3.078803,0.62488765,-5.337221e-05,-0.10417793,-0.015094672,-0.0019889057,0.0012245694,-0.0049281865,-0.000463819,0.47032392,-1.4040593,1.9315566,-2.0967844,-1.5706371,2.4452634,-0.06740142,0.20236701,-0.2399238,0.042502385,0.0007183229,-0.06680306,0.11492168,0.24899697,-9.212888,0.88289046,47.678825,-0.909329,-2.172839,-3.4426684,-0.3039875,0.052003432,-0.17449528,26.125,26.9375,26.0,29.125,30.125,30.5625
0.22405246,0.5968011,-1.0005194,-0.36979833,-0.026262872,-0.0029085376,-0.14647278,-0.39284125,-0.3503468,0.060011074,3.0788004,-0.6249084,8.9974455e-05,-0.10554722,-0.015396408,-0.0027806126,0.0010557998,-0.004557848,-0.0057447515,0.47016764,-1.4036858,1.9310893,-2.0966895,-1.5706018,2.4451206,-0.06802934,0.20588543,-0.24180992,0.040465932,0.00069147395,-0.062148433,0.17238252,0.3256114,-9.32781,0.90750587,47.71286,-0.8840847,-2.11378,-3.4573555,-0.29168928,0.08904101,-0.22655576,26.125,26.9375,26.0,29.125,30.125,30.5625
0.22605179,-0.060361814,-1.3331958,-0.41100135,-0.037196998,-0.017091053,-0.1347977,-0.39306283,-0.3503605,0.05998897,-3.0787482,0.62495536,-0.00010621803,-0.10739621,-0.015988236,-0.0024201372,0.00031147068,-0.003061977,-0.00706394,0.47002357,-1.4032282,1.9305867,-2.096594,-1.5706495,2.4450128,-0.068578236,0.20844327,-0.24558789,0.040012628,0.00066459074,-0.061376136,0.11492168,0.51714754,-9.404425,0.79560274,47.689575,-0.87387216,-2.1424782,-3.4794726,-0.2752649,0.07102907,-0.2707543,26.125,26.9375,26.0,29.125,30.125,30.5625
0.22805195,-0.30678278,-1.5876005,-0.44650334,-0.035199866,-0.0038910834,-0.13723691,-0.39326024,-0.3504033,0.05997913,-3.0787628,0.6249557,-0.00020044467,-0.108716264,-0.01662664,-0.0016562414,-0.00084030064,-0.0008463521,-0.0047675883,0.46989146,-1.4028078,1.9300965,-2.0964863,-1.5706018,2.4448793,-0.068599835,0.20918952,-0.24811749,0.03930216,0.0006781309,-0.06369294,0.11492168,0.5363012,-9.442732,0.8537928,47.691364,-0.8848708,-2.050092,-3.4946058,-0.2735662,0.08260848,-0.2804137,26.125,26.9375,26.0,29.125,30.125,30.5625
0.23005189,-1.2473602,-2.091775,-0.5581372,-0.035079032,-0.0027220852,-0.13270153,-0.39346153,-0.350424,0.05995029,-3.0787213,0.62500477,-0.00026346193,-0.11001639,-0.01718732,-0.0018773143,-0.0014853592,0.00060822,-0.003933033,0.4697476,-1.4023739,1.9296421,-2.0964153,-1.5706018,2.4447715,-0.06866878,0.21157585,-0.24999623,0.037206154,0.00058247044,-0.06459497,0.038307227,0.7086837,-9.461885,0.8851263,47.689575,-1.0164587,-2.1502223,-3.4823265,-0.26286763,0.084859446,-0.25651982,26.125,26.9375,26.0,29.125,30.125,30.5625
0.23205198,-1.2245387,-2.219002,-0.6736546,-0.053213455,0.026522856,-0.13738646,-0.39367393,-0.3504574,0.059953466,-3.0787132,0.62490773,-0.00022961528,-0.11173297,-0.016804397,-0.0017477619,-0.0020947733,0.0017420399,-0.007765452,0.4696389,-1.4019654,1.9291385,-2.09632,-1.5706376,2.4446037,-0.07083671,0.21296242,-0.251782,0.036316235,0.000607208,-0.06292954,0.0,0.59376204,-9.5385,0.86945957,47.696735,-0.88788736,-1.9937286,-3.500588,-0.23773095,0.08331941,-0.2967348,26.125,26.9375,26.0,29.125,30.125,30.5625
0.23405199,-1.1767101,-1.9651694,-0.6382877,-0.058322113,0.041576557,-0.14221033,-0.39392683,-0.35051093,0.059968125,-3.0787628,0.62499285,-0.00019284568,-0.11251071,-0.019016936,-3.3065942e-05,-0.0040988536,0.0055224393,-0.00410711,0.46948385,-1.4015211,1.9285749,-2.0962598,-1.5706018,2.4444957,-0.06764861,0.2129116,-0.2556363,0.035945524,0.00067887973,-0.06339828,-0.076614454,0.47884035,-9.615114,0.8851263,47.72271,-1.0724229,-1.8732395,-3.4982543,-0.22535911,0.08487135,-0.3080557,26.125,26.9375,26.0,29.125,30.125,30.5625
0.23605211,-1.2335005,-1.9734205,-0.714848,-0.040350243,0.036230717,-0.13523088,-0.39414766,-0.35055268,0.059944056,-3.0787718,0.6249553,-0.00022524601,-0.11343058,-0.019185131,-0.0005330123,-0.004846589,0.004201438,-0.004696076,0.4693515,-1.4010519,1.9280733,-2.0962121,-1.570589,2.444339,-0.068922214,0.21557744,-0.25775877,0.03623856,0.0019391176,-0.06408383,-0.15322891,0.3256114,-9.595961,0.84484416,47.703903,-1.0745975,-2.0514514,-3.4386258,-0.20121793,0.061405297,-0.3105498,26.125,26.9375,26.0,29.125,30.125,30.5625
0.23805234,-0.91050315,-0.6536828,-0.6720592,-0.0263052,0.029107822,-0.13399443,-0.39437336,-0.35059628,0.059944946,3.0787907,-0.62501866,0.00019710766,-0.11499583,-0.018291764,-0.0001896509,-0.0054536075,0.004339974,-0.008094897,0.4692185,-1.4006314,1.9275712,-2.096164,-1.5705765,2.4442434,-0.07212272,0.21611331,-0.25941363,0.036958903,0.0024188706,-0.06388568,-0.15322891,0.36391866,-9.557653,0.842603,47.693153,-0.8867854,-1.9054742,-3.5515122,-0.19846061,0.07146284,-0.32989115,26.125,26.9375,26.0,29.125,30.125,30.5625
0.2400521,-0.8383548,0.02697884,-0.9100012,-0.0030717321,0.023516428,-0.14663392,-0.3945701,-0.35061562,0.059901837,-3.0787306,0.6249076,-0.00026827495,-0.11540202,-0.020576786,0.00046061608,-0.0066953795,0.006901237,-0.0039882697,0.46909982,-1.4001621,1.9271044,-2.0960805,-1.5706128,2.4440634,-0.06840904,0.21772906,-0.2625796,0.03566147,0.0023538556,-0.06427708,-0.11492168,0.28730422,-9.595961,0.8672237,47.664497,-1.1655425,-1.9492333,-3.5087671,-0.17985423,0.05261155,-0.36138296,26.125,26.9375,26.0,29.125,30.125,30.5625
0.24205211,-1.1144763,-0.37365735,-0.8602013,0.008019743,0.021687804,-0.13573435,-0.3948335,-0.3506753,0.0599368,3.0787678,-0.6250106,0.00021209895,-0.116175294,-0.020014346,-0.0005579509,-0.0062857964,0.006669977,-0.0037495426,0.46893132,-1.3997413,1.9265188,-2.09601,-1.5705527,2.4439547,-0.06984555,0.21975255,-0.2622535,0.033708807,0.0020965538,-0.065951444,-0.17238252,0.22984336,-9.557653,0.8672237,47.661808,-1.1873329,-2.0176706,-3.5939684,-0.10574676,0.059957467,-0.3673204,26.125,26.9375,26.0,29.125,30.125,30.5625
0.24405219,-1.1668348,-0.6668285,-0.59305847,-0.0058597527,0.031769272,-0.1461017,-0.39504457,-0.35071635,0.059913598,-3.0787978,0.62493867,-0.0002511062,-0.117192164,-0.01960551,-0.0015802266,-0.00508507,0.0046293847,-0.002829599,0.46882284,-1.3992714,1.9260052,-2.0959256,-1.5705651,2.4437978,-0.071315885,0.2235183,-0.26462832,0.034681138,0.0019423938,-0.06834027,-0.21068975,0.19153613,-9.5385,0.9567419,47.709274,-1.139382,-2.0862145,-3.6544414,-0.09809792,0.06106374,-0.3641185,26.125,26.9375,26.0,29.125,30.125,30.5625
0.24605219,-1.0839808,-0.66187185,-0.62533844,-0.0074740876,0.03839927,-0.13949893,-0.39526173,-0.3507521,0.05990352,-3.0787697,0.62489176,-0.00023515486,-0.11747324,-0.019747803,-0.0016724773,-0.0038834382,0.0029326994,0.0002617719,0.46871492,-1.3988261,1.9254903,-2.0958407,-1.5706013,2.4436646,-0.07107398,0.22555175,-0.26754987,0.037624884,0.0016365084,-0.071188286,-0.21068975,0.19153613,-9.557653,0.8851263,47.690468,-1.1138618,-2.0699658,-3.667881,-0.102872916,0.062929794,-0.34607357,26.125,26.9375,26.0,29.125,30.125,30.5625
0.24805242,-0.48194134,-0.026076227,-0.56799597,-0.013405816,0.04240059,-0.14766675,-0.39549923,-0.35079432,0.059904374,-3.0788066,0.62493545,-0.00027049961,-0.118882924,-0.02039221,-0.0011239586,-0.0041028922,0.003798597,0.0037199087,0.4685469,-1.3983811,1.9249505,-2.0957563,-1.5705532,2.4435194,-0.071010135,0.22771361,-0.2716596,0.038706027,0.0014358107,-0.07458044,-0.21068975,0.1340753,-9.576807,0.85826975,47.670765,-1.1701107,-2.1109252,-3.7133696,-0.09344666,0.08061503,-0.32004115,26.125,26.9375,26.0,29.125,30.125,30.5625
0.25005254,-1.0468619,-0.4468662,-0.46264312,-0.013048514,0.03578901,-0.1466474,-0.39578074,-0.35081673,0.05991767,3.0787928,-0.6249881,0.00013912517,-0.12014515,-0.020177133,-0.0016895977,-0.0036892502,0.0029057518,0.0064125746,0.46836647,-1.397924,1.9243764,-2.0957086,-1.5706013,2.443374,-0.07245419,0.2307869,-0.27413857,0.039092068,0.0014710759,-0.07871581,-0.19153613,0.17238252,-9.5385,0.8918391,47.674347,-1.1980362,-2.1308749,-3.5484655,-0.0644328,0.070162654,-0.28093216,26.125,26.9375,26.0,29.125,30.125,30.5625
0.25205255,-1.1381803,-0.48320764,-0.6450586,-0.002167489,0.033621203,-0.13790593,-0.3959718,-0.35088074,0.059889738,3.0788147,-0.6247983,0.00026148782,-0.122407705,-0.021093363,2.8674509e-05,-0.0052938364,0.0058023124,0.00870944,0.46827027,-1.3974549,1.9238738,-2.0956242,-1.5705413,2.4431567,-0.07288681,0.23182718,-0.2796323,0.04024145,0.0015823367,-0.08144334,-0.24899697,0.2681506,-9.519346,0.8851263,47.65912,-1.1798952,-2.202061,-3.5807178,-0.05231896,0.060141385,-0.23137161,26.125,26.9375,26.0,29.125,30.125,30.5625
0.25405264,-1.3476827,-0.08563134,-0.66014063,-0.0069764564,0.026499078,-0.14184003,-0.39622134,-0.35092762,0.05989072,3.0788107,-0.6247558,0.00020934375,-0.123897694,-0.021456588,0.0005380328,-0.005607907,0.0062699798,0.01409115,0.4681381,-1.3969855,1.9233102,-2.0955637,-1.5705532,2.442999,-0.07355488,0.23388135,-0.2835994,0.04159512,0.001649304,-0.08749152,-0.22984336,0.13407528,-9.500193,0.9186956,47.704796,-1.2094544,-2.1803527,-3.4589758,-0.044695057,0.0682175,-0.16014351,26.125,26.9375,26.0,29.125,30.125,30.5625
0.2560518,-1.4099276,-0.73523253,-0.49676558,-0.0015503122,0.03504844,-0.14098261,-0.39647028,-0.35094914,0.059889097,3.0788288,-0.62475944,0.00018927749,-0.12480398,-0.021593519,0.0010256695,-0.006162547,0.00627324,0.013136747,0.46796972,-1.3965291,1.9227594,-2.0954678,-1.5705765,2.4428308,-0.07436115,0.23475257,-0.28615102,0.04301902,0.0021418093,-0.08734333,-0.38307226,0.22984336,-9.481039,0.8806493,47.675243,-1.1937469,-2.1116624,-3.3007534,-0.043095134,0.05227071,-0.12883893,26.125,26.9375,26.0,29.125,30.125,30.5625
0.25805202,-1.980892,-0.9665188,-0.61505526,-0.0054787113,0.026902456,-0.128172,-0.39672166,-0.351009,0.0599043,3.0787816,-0.62469107,0.0002239234,-0.12538317,-0.021226184,0.001418474,-0.0060729976,0.00638404,0.014924034,0.4678135,-1.3960603,1.92215,-2.0953472,-1.570517,2.4426382,-0.07536114,0.23467423,-0.28732994,0.044224348,0.0020149427,-0.09013027,-0.47884035,0.30645782,-9.5385,0.84708,47.661808,-1.1928889,-2.1094491,-3.5085604,-0.043750986,0.05588036,-0.09782897,26.125,26.9375,26.0,29.125,30.125,30.5625
0.2600521,-1.6378065,-1.1272453,-0.5229243,-0.018952532,0.061687212,-0.13619594,-0.39697295,-0.35103133,0.059896465,3.0787787,-0.6247295,0.00017453192,-0.12578458,-0.020831047,0.0017213912,-0.005930225,0.0059854565,0.0117616,0.4676453,-1.3956041,1.9216241,-2.095299,-1.5705413,2.4424946,-0.07636751,0.23461144,-0.28839934,0.04577454,0.0020718582,-0.08797424,-0.49799395,0.40222588,-9.442732,0.91198283,47.684196,-1.2057406,-2.1484308,-3.5751376,-0.042212453,0.0656429,-0.08153616,26.125,26.9375,26.0,29.125,30.125,30.5625
0.2620522,-2.3006766,-1.5866169,-0.5851384,-0.02364136,0.06890135,-0.1316938,-0.39722922,-0.35108304,0.059915435,3.0787785,-0.62461555,0.0001628613,-0.12603025,-0.02006687,0.0013050326,-0.004961034,0.00453909,0.008745788,0.46750075,-1.3951354,1.9210032,-2.095167,-1.5705289,2.4422793,-0.07771202,0.23545003,-0.28883258,0.047099218,0.0018635109,-0.08630269,-0.51714754,0.2681506,-9.519346,0.88289046,47.66271,-1.0569338,-1.8797499,-3.7322726,-0.045194637,0.058503576,-0.077743344,26.125,26.9375,26.0,29.125,30.125,30.5625
0.2640523,-1.9732096,-1.2477357,-0.7346238,-0.023514666,0.06980615,-0.13498728,-0.39747524,-0.35109767,0.059895687,3.0787818,-0.624713,0.00021047112,-0.12688652,-0.02046723,0.0019376476,-0.005363972,0.00550911,0.0064867493,0.46730873,-1.3946546,1.9204644,-2.095071,-1.5705289,2.442148,-0.07764416,0.2360941,-0.29131305,0.047888603,0.0017807318,-0.083974905,-0.49799395,0.22984336,-9.481039,0.95002913,47.67166,-1.1095006,-1.8556813,-3.683598,-0.030978004,0.055512562,-0.07149722,26.125,26.9375,26.0,29.125,30.125,30.5625
0.26605245,-1.6770277,-0.4918247,-0.72687995,-0.016314594,0.06077518,-0.14028737,-0.39774412,-0.35114187,0.05990217,3.0787866,-0.6246783,0.00014737478,-0.1283951,-0.01862036,0.0005645924,-0.0034315852,0.001670611,-0.0013485057,0.46716347,-1.394161,1.9198531,-2.0949862,-1.5705532,2.4419808,-0.08211712,0.2400904,-0.29354057,0.050415255,0.00178898,-0.08061155,-0.49799395,0.17238252,-9.481039,0.8806493,47.68062,-1.0202811,-1.7516851,-3.711004,-0.051070567,0.05907239,-0.097378545,26.125,26.9375,26.0,29.125,30.125,30.5625
0.26805267,-0.9335027,0.27029452,-0.7077505,0.0051199915,0.047973666,-0.14831528,-0.39804327,-0.35120428,0.05993507,3.0787377,-0.6245928,2.2324353e-05,-0.12948614,-0.019799864,0.0016305423,-0.0044521256,0.002973485,-0.0028571077,0.46700764,-1.3936676,1.9191846,-2.0949137,-1.5705527,2.4417782,-0.08115712,0.24133448,-0.29786345,0.05187024,0.002116165,-0.07814159,-0.34476504,0.19153613,-9.442732,0.9254084,47.70032,-0.90670335,-1.9272019,-3.6456919,-0.059257492,0.07088282,-0.13088658,26.125,26.9375,26.0,29.125,30.125,30.5625
0.2700523,-1.2070128,0.17928103,-0.7754659,0.023047429,0.018260213,-0.13309386,-0.39827883,-0.35124502,0.059924565,3.0787241,-0.6246873,6.572332e-05,-0.13106047,-0.019783955,0.0016915852,-0.0049314513,0.0037792304,-0.0069758357,0.46686316,-1.3931868,1.9186214,-2.0948064,-1.5705408,2.4416947,-0.08253934,0.24331905,-0.30033162,0.051419403,0.0021736447,-0.07540403,-0.40222588,0.21068975,-9.500193,0.9186956,47.661808,-0.9902427,-1.835239,-3.5993428,-0.04129433,0.057442263,-0.16472638,26.125,26.9375,26.0,29.125,30.125,30.5625
0.27205244,-0.91427237,0.2726044,-0.81976813,0.0047812527,0.019826474,-0.13984141,-0.3985347,-0.35128203,0.059904344,3.0787373,-0.6246922,0.00012773034,-0.13250577,-0.018844191,0.0007378982,-0.0030832733,0.00010298407,-0.011882314,0.46669412,-1.3926569,1.9180225,-2.0946977,-1.5705284,2.4415274,-0.085366696,0.24791871,-0.30450416,0.05510812,0.00217456,-0.07332322,-0.26815057,0.11492168,-9.442732,0.9030289,47.67614,-0.7719337,-2.045317,-3.4956515,-0.06805295,0.05297625,-0.2031124,26.125,26.9375,26.0,29.125,30.125,30.5625
0.27405187,-1.0148134,-0.59760684,-0.8971619,0.024671635,-0.0012264034,-0.12985805,-0.39880952,-0.3513058,0.059910756,3.0787342,-0.6247695,0.00012218075,-0.13323037,-0.018057114,0.00083081814,-0.0010421792,-0.003314054,-0.014847996,0.4665016,-1.3921638,1.9173998,-2.0945632,-1.5705413,2.4413838,-0.08710661,0.25020266,-0.30888146,0.061171938,0.001892873,-0.07209584,-0.15322891,0.15322891,-9.461885,0.9030289,47.70211,-0.7508184,-2.0646546,-3.3435988,-0.11176172,0.04881902,-0.23620799,26.125,26.9375,26.0,29.125,30.125,30.5625
0.276052,-0.91088,-0.78676206,-0.79090923,0.012054661,0.0076213954,-0.12987106,-0.3990419,-0.35134685,0.059889164,3.0787253,-0.6247875,0.00020652851,-0.13359755,-0.017750481,0.00023976609,0.00060580735,-0.0056159124,-0.016954895,0.46634546,-1.3916703,1.916849,-2.094467,-1.570505,2.4412403,-0.087612174,0.25279477,-0.31128117,0.06378097,0.001453467,-0.07049307,-0.30645782,0.24899697,-9.519346,0.85155696,47.689575,-0.6933279,-2.1103518,-3.3752325,-0.16912414,0.0620834,-0.26982322,26.125,26.9375,26.0,29.125,30.125,30.5625
0.27805242,-0.93283886,-0.5918772,-0.77228516,0.005614868,0.019491062,-0.1337309,-0.39937457,-0.35138643,0.059959266,3.078638,-0.62486386,3.9140832e-05,-0.13361801,-0.01742964,-0.00097311166,0.0020277482,-0.007976136,-0.015416864,0.4661293,-1.3912129,1.9161204,-2.094323,-1.570517,2.4410832,-0.08795877,0.25552097,-0.31198287,0.06450467,0.0012520757,-0.07237684,-0.19153613,0.24899697,-9.500193,0.8605109,47.687782,-0.72610235,-2.0209239,-3.4158907,-0.19529147,0.06685414,-0.30949754,26.125,26.9375,26.0,29.125,30.125,30.5625
0.2800517,-1.4982617,-0.61586577,-0.7238025,-0.0026010955,0.009077296,-0.12917927,-0.39964062,-0.35142243,0.059952207,3.078676,-0.6248541,5.0183087e-05,-0.13312158,-0.017064394,-0.00082425954,0.0028702673,-0.009482826,-0.017380401,0.46597338,-1.3906844,1.9154867,-2.0941904,-1.5705413,2.4409168,-0.08803127,0.2549666,-0.3124121,0.0672115,0.0011782697,-0.07048626,-0.21068975,0.2681506,-9.595961,0.8806493,47.681515,-0.7533455,-2.0770428,-3.600308,-0.214681,0.057469867,-0.32001445,26.125,26.9375,26.0,29.125,30.125,30.5625
0.28205177,-1.5007153,-1.4562912,-0.55331296,-0.023560433,0.020490188,-0.12991382,-0.39988783,-0.35145688,0.05993158,3.0786676,-0.6249858,0.0001806986,-0.13345808,-0.01707223,-0.0011419958,0.0034174796,-0.010589178,-0.018884014,0.4657933,-1.3901556,1.9148778,-2.094034,-1.570505,2.4408202,-0.08823303,0.25664884,-0.31406143,0.06841553,0.0011782615,-0.06918396,-0.21068975,0.24899697,-9.519346,0.9030289,47.655537,-0.68702286,-1.9443555,-3.6570797,-0.2708262,0.054124065,-0.3832666,26.125,26.9375,26.0,29.125,30.125,30.5625
0.2840518,-1.4949759,-1.474605,-0.35988805,-0.013564562,0.01326918,-0.12153063,-0.4001876,-0.35148647,0.059954885,3.0786405,-0.62501746,0.00011277109,-0.1347554,-0.017621843,-0.00020688357,0.0025482902,-0.009111445,-0.01738217,0.46558928,-1.3896627,1.9142193,-2.0939147,-1.570517,2.4406397,-0.08839234,0.2574705,-0.31747082,0.06929207,0.0012870979,-0.070844,0.019153614,0.19153613,-9.442732,1.0395473,47.69763,-0.81690276,-1.9297528,-3.5655944,-0.29165965,0.067439236,-0.40958068,26.125,26.9375,26.0,29.125,30.125,30.5625
0.28605193,-0.71597195,-0.6510198,-0.3295663,-0.015924076,0.016612086,-0.12867063,-0.40043446,-0.35151958,0.059946645,3.0786629,-0.6250787,0.00012163209,-0.13625874,-0.018714275,0.0014000844,0.00052080397,-0.005192527,-0.0167015,0.46544558,-1.3891703,1.9136328,-2.093795,-1.5705413,2.4405317,-0.08776943,0.25703683,-0.32052982,0.06837117,0.0013280046,-0.07090077,-0.076614454,0.22984336,-9.346964,0.8672237,47.68062,-0.7016827,-1.8334061,-3.6204007,-0.30587462,0.08350222,-0.42360768,26.125,26.9375,26.0,29.125,30.125,30.5625
0.28805235,-0.7286441,-0.7660484,-0.4581074,0.017914081,-0.0019469488,-0.12885839,-0.40072915,-0.35156682,0.05995955,3.078593,-0.62517786,8.936982e-05,-0.13770363,-0.020583302,0.0025747234,-0.0020813248,-0.0015257264,-0.013980166,0.46525413,-1.3886534,1.9129747,-2.0937002,-1.570517,2.4404113,-0.08612913,0.25806642,-0.32410544,0.06647259,0.0019985694,-0.071981065,-0.038307227,0.28730422,-9.193734,0.97240865,47.694946,-0.8486061,-1.7603505,-3.5347505,-0.31286883,0.059459966,-0.46846682,26.125,26.9375,26.0,29.125,30.125,30.5625
0.29005247,-0.22448695,0.07003329,-0.54129213,0.017394127,-0.009027529,-0.1348616,-0.40099376,-0.35160974,0.059950106,3.0786147,-0.625182,0.00013717872,-0.14152709,-0.020188399,0.0043730815,-0.005025367,0.0036504942,-0.01475968,0.46509662,-1.3881128,1.9123286,-2.0935571,-1.5705165,2.440254,-0.09025347,0.25816828,-0.3279488,0.06426724,0.0022920282,-0.07532479,0.076614454,0.2873042,-9.174581,0.99702406,47.67345,-0.7521578,-1.6755693,-3.3845465,-0.2995344,0.0629119,-0.4638006,26.125,26.9375,26.0,29.125,30.125,30.5625
0.29205245,-0.5046522,-0.44951648,-0.6807402,0.020583283,-0.012902367,-0.13625678,-0.40129492,-0.35164037,0.059960082,3.07861,-0.6252535,0.00012922136,-0.14121489,-0.02182308,0.0034534452,-0.0050962255,0.0037239278,-0.0072314152,0.4648939,-1.3875715,1.9116343,-2.0934021,-1.5705284,2.4400969,-0.08707593,0.26114634,-0.32903293,0.062276233,0.0023164018,-0.07967469,0.0,0.30645782,-9.270349,0.92093146,47.68062,-0.8755538,-1.6795171,-3.3897746,-0.2710691,0.07176638,-0.44882965,26.125,26.9375,26.0,29.125,30.125,30.5625
0.29405177,-1.218816,-1.0918895,-0.74750686,-0.010788206,-0.00437382,-0.13679858,-0.40157044,-0.35169768,0.05998439,3.0785875,-0.62516826,0.00011437156,-0.14224741,-0.021435795,0.0014076257,-0.003675262,0.0012379084,-0.0031376877,0.46473742,-1.3870776,1.9109658,-2.093259,-1.5705045,2.4398904,-0.08846517,0.26654613,-0.33063117,0.06133788,0.0021582665,-0.08515601,-0.038307227,0.36391866,-9.423578,0.99702406,47.716442,-0.8621155,-1.7438571,-3.4942093,-0.27472064,0.080318615,-0.3989011,26.125,26.9375,26.0,29.125,30.125,30.5625
0.29605186,-1.3463026,-2.2429821,-0.8179069,-0.03849698,0.032684047,-0.13053301,-0.40183038,-0.35173148,0.059973285,3.0786192,-0.625172,0.00017950163,-0.14325753,-0.021552198,0.0005054691,-0.0031242345,0.0003329062,0.0014214257,0.46456927,-1.3865474,1.9103321,-2.0931032,-1.570505,2.4397209,-0.08900225,0.27016205,-0.33289766,0.061046194,0.002061407,-0.090250924,-0.038307227,0.4405331,-9.5385,0.8605109,47.68599,-0.8556029,-1.9802881,-3.5354767,-0.279926,0.07193581,-0.35648227,26.125,26.9375,26.0,29.125,30.125,30.5625
0.29805222,-2.4289553,-2.8113935,-0.65551883,-0.05728339,0.037960332,-0.13078102,-0.4021137,-0.3517765,0.059964802,3.0785954,-0.6251824,0.00023214408,-0.14391246,-0.021637937,0.000105043364,-0.0031789509,0.0007765928,0.006523481,0.46437734,-1.3859941,1.9096731,-2.0929844,-1.5704688,2.4395387,-0.08923379,0.27167225,-0.33363312,0.05985585,0.0019061847,-0.09558396,-0.038307227,0.47884035,-9.500193,0.900793,47.68599,-0.8935907,-1.984487,-3.5113072,-0.25951126,0.07363699,-0.30597118,26.125,26.9375,26.0,29.125,30.125,30.5625
0.30005208,-1.3931706,-2.498199,-0.45554003,-0.08889898,0.0779162,-0.14741144,-0.4024,-0.35182598,0.059985355,3.0785816,-0.6251583,0.00016704552,-0.145524,-0.022412894,0.0010395672,-0.004914156,0.0042982153,0.010486463,0.4642212,-1.3854895,1.909005,-2.0928648,-1.5704812,2.4393697,-0.089192554,0.27209586,-0.335916,0.05778952,0.0018757889,-0.09950462,-0.1340753,0.51714754,-9.595961,0.9567419,47.67614,-0.8836216,-1.9238328,-3.6364393,-0.25491107,0.06816019,-0.2387498,26.125,26.9375,26.0,29.125,30.125,30.5625
0.3020523,-1.8590637,-2.140161,-0.8242361,-0.07112848,0.043139003,-0.13291645,-0.40271774,-0.35185942,0.059990946,3.0785785,-0.6251169,8.659016e-05,-0.14663033,-0.023228278,0.0011735883,-0.0062638596,0.0065369047,0.013676625,0.46401736,-1.3849369,1.9083227,-2.0927823,-1.570505,2.4391408,-0.08877241,0.2734497,-0.33739087,0.055302534,0.0020779176,-0.10227405,-0.1340753,0.61291564,-9.557653,0.9455522,47.684196,-0.9573791,-1.832871,-3.7346692,-0.20963076,0.07229403,-0.18979564,26.125,26.9375,26.0,29.125,30.125,30.5625
0.3040524,-0.9582486,-1.7414466,-0.53774667,-0.05027193,0.032440577,-0.13978492,-0.4030362,-0.35192698,0.060007516,3.0785403,-0.6250693,2.7970586e-05,-0.14925465,-0.024353605,0.0021362267,-0.0084752,0.010833897,0.014905915,0.46384922,-1.3843595,1.9075803,-2.0926754,-1.5704926,2.4389482,-0.08904436,0.27551436,-0.3415361,0.052552756,0.002125222,-0.10377324,-0.05746084,0.59376204,-9.576807,1.005978,47.689575,-0.93848616,-1.8190726,-3.699679,-0.16674313,0.06377695,-0.16356593,26.125,26.9375,26.0,29.125,30.125,30.5625
0.30605257,-0.7787548,-1.3009622,-0.61845535,-0.032175623,-0.0036564968,-0.13124615,-0.40332654,-0.35196194,0.060001317,3.0785527,-0.62497574,1.786521e-05,-0.15084045,-0.024973795,0.0021922656,-0.009310708,0.012379813,0.013193396,0.4636573,-1.3838181,1.9069346,-2.09258,-1.5704926,2.4386966,-0.089286745,0.27799675,-0.34442264,0.051200707,0.0021749428,-0.10230175,0.0,0.51714754,-9.481039,0.88960326,47.65464,-0.95849407,-1.8677655,-3.6184149,-0.113979146,0.07278141,-0.13099217,26.125,26.9375,26.0,29.125,30.125,30.5625
0.30805272,0.15164943,-0.6441853,-0.88193,-0.007998944,-0.012668314,-0.13974565,-0.4036335,-0.35204446,0.060023025,3.0785122,-0.624834,-8.571328e-05,-0.15199597,-0.026477521,0.0025685062,-0.010182164,0.014513068,0.011334435,0.4635259,-1.3832649,1.9062165,-2.092509,-1.5704812,2.4384823,-0.08750314,0.28037527,-0.34796864,0.050071932,0.0020009442,-0.09865715,-0.05746084,0.5554548,-9.461885,0.98135734,47.678825,-1.1416532,-1.7759156,-3.5483189,-0.07645322,0.06765092,-0.16511154,26.125,26.9375,26.0,29.125,30.125,30.5625
0.31005186,-0.46111912,-0.61139494,-0.84672976,-0.015462179,-0.022817872,-0.12867185,-0.4039265,-0.3520937,0.060018513,3.0785065,-0.624836,-9.339745e-05,-0.15272391,-0.02482096,0.0017983612,-0.008528922,0.011278875,0.0042139366,0.4633566,-1.3826993,1.9055346,-2.0923998,-1.5704812,2.4383154,-0.090877205,0.28222206,-0.34923607,0.05312454,0.0019745883,-0.094910555,-0.2681506,0.49799395,-9.500193,0.9231726,47.6636,-1.0172786,-1.9010075,-3.5213022,-0.047409985,0.077861436,-0.15925951,26.125,26.9375,26.0,29.125,30.125,30.5625
0.31205183,-0.88500136,-0.99296933,-0.7118261,-0.0200853,-0.0059820917,-0.14113191,-0.40428647,-0.35213625,0.060044076,3.078445,-0.624882,-0.00019242369,-0.15248786,-0.026688736,0.0027897446,-0.009200718,0.012751394,0.0019316869,0.46311808,-1.3821108,1.9047574,-2.092292,-1.5704812,2.4381137,-0.087305605,0.28241774,-0.35211545,0.0541904,0.0019230273,-0.08905577,-0.17238252,0.3256114,-9.461885,0.9791215,47.66539,-1.2741957,-1.7559533,-3.577695,-0.037467733,0.07715594,-0.23925751,26.125,26.9375,26.0,29.125,30.125,30.5625
0.31405178,-1.2913983,-1.3956915,-0.41925448,-0.0397951,0.025741622,-0.1303241,-0.40454775,-0.35219496,0.060008645,3.0784612,-0.62486863,-0.00013032675,-0.15456024,-0.025664704,0.0026126264,-0.009083141,0.011856459,-0.0036985683,0.4629848,-1.3815219,1.9041232,-2.0922077,-1.5704683,2.4379704,-0.09096026,0.2850405,-0.35528588,0.055591386,0.0022118015,-0.0870794,-0.17238252,0.3256114,-9.404425,1.0126908,47.70211,-1.1456912,-1.8429259,-3.5308483,-0.027148064,0.07293709,-0.27991316,26.125,26.9375,26.0,29.125,30.125,30.5625
0.31605184,-1.3893884,-1.1811063,-0.22561577,-0.045998644,0.045829326,-0.13697012,-0.4048659,-0.3522593,0.060061995,3.0783942,-0.6248144,-0.00022004366,-0.15478627,-0.026933951,0.0038532726,-0.01032931,0.012794275,-0.0021207123,0.4628055,-1.381017,1.9033698,-2.0920513,-1.5704445,2.437766,-0.08931064,0.2848197,-0.35841894,0.057549812,0.002916462,-0.0870075,-0.21068975,0.36391866,-9.232041,0.85155696,47.67614,-1.1394869,-1.6525103,-3.5110636,-0.006314908,0.07518848,-0.31569582,26.125,26.9375,26.0,29.125,30.125,30.5625
0.3180527,-1.5169533,-0.56196094,-0.4082249,-0.016315266,0.037892,-0.13512254,-0.40518874,-0.35229826,0.060039498,3.0783837,-0.62488955,-0.00023785385,-0.15388246,-0.025956132,0.0016343867,-0.007872139,0.006181899,-0.0033758092,0.46260095,-1.3803912,1.9026645,-2.0919778,-1.5704564,2.4376101,-0.09058297,0.2885221,-0.35874093,0.061180368,0.0036799954,-0.08702561,-0.17238252,0.28730422,-9.270349,0.94331104,47.660015,-1.1498122,-1.8622422,-3.556851,-0.029988868,0.0487699,-0.31260324,26.125,26.9375,26.0,29.125,30.125,30.5625
0.3200518,-1.0509115,0.4011842,-0.31928632,0.005724691,0.029403375,-0.13935405,-0.4054685,-0.35237223,0.06002986,3.0783694,-0.6248108,-0.00017167552,-0.15621205,-0.02641966,0.0012434832,-0.008882514,0.0073635695,-0.0050146226,0.4624565,-1.3798013,1.9019593,-2.0918477,-1.5704082,2.4374187,-0.09193597,0.29265174,-0.3624602,0.059265148,0.0040442636,-0.08673828,-0.19153613,0.19153614,-9.289502,0.9321212,47.63673,-1.1156335,-1.8610487,-3.5404952,0.006447447,0.043056704,-0.3279212,26.125,26.9375,26.0,29.125,30.125,30.5625
0.32205182,-1.0185874,0.28715676,-0.17094299,0.026282903,0.025697012,-0.13553828,-0.4058257,-0.3524336,0.060061328,3.0782967,-0.62487274,-0.00037782738,-0.1575359,-0.026340794,0.0016794351,-0.009210748,0.008537432,-0.006369544,0.4622761,-1.3792247,1.9011945,-2.091799,-1.570444,2.4372866,-0.09296443,0.29357737,-0.36473423,0.059415106,0.00382367,-0.08641038,-0.22984336,0.05746084,-9.174581,0.9186956,47.660015,-1.1033483,-2.0482175,-3.5594244,0.04734642,0.0308671,-0.35036898,26.125,26.9375,26.0,29.125,30.125,30.5625
0.3240519,-0.8461269,0.5244814,-0.22964524,0.0353997,0.014491406,-0.13619974,-0.4061141,-0.35248196,0.060025867,3.0783303,-0.62484103,-0.0002615789,-0.15814044,-0.025923451,0.0005987395,-0.0073341806,0.0056999903,-0.007677793,0.46209598,-1.3785868,1.9004873,-2.091655,-1.5704206,2.4370828,-0.09384326,0.29732868,-0.36742035,0.061730724,0.0034038236,-0.08597978,-0.1340753,0.15322891,-9.174581,0.9835985,47.71017,-1.1292961,-1.93892,-3.4783797,0.047922246,0.036771107,-0.3841632,26.125,26.9375,26.0,29.125,30.125,30.5625
0.326052,-0.8654407,0.071683176,-0.04763014,0.043979973,0.013740112,-0.13346438,-0.40643188,-0.35253915,0.060036544,3.0783136,-0.62487286,-0.0003091129,-0.15833107,-0.025920639,0.0012656471,-0.0067696483,0.0052152458,-0.002353337,0.46192792,-1.3779979,1.8997353,-2.091522,-1.5704325,2.436937,-0.0937361,0.29726273,-0.36971018,0.06477426,0.0031229034,-0.09119648,-0.26815057,0.17238252,-9.002198,0.8918391,47.690468,-1.1060874,-1.957851,-3.5891428,0.04919313,0.048552275,-0.37218893,26.125,26.9375,26.0,29.125,30.125,30.5625
0.32805234,-1.0670935,0.23723468,0.2924187,0.01575848,0.019587915,-0.13712235,-0.40674314,-0.3525987,0.06006381,3.0782814,-0.62482786,-0.00032654844,-0.15901095,-0.025578089,0.0017574771,-0.005860708,0.0038441222,-0.0026702625,0.46174753,-1.3774455,1.8989805,-2.0913532,-1.5704087,2.436733,-0.09468233,0.29827854,-0.37308875,0.06877337,0.00292664,-0.09182473,-0.40222588,0.15322891,-8.944737,0.95897776,47.711964,-1.084392,-1.8329132,-3.4809432,0.023533262,0.03176789,-0.3633543,26.125,26.9375,26.0,29.125,30.125,30.5625
0.33005235,-1.121604,-0.08367039,0.028842397,0.017872188,0.015989438,-0.13232835,-0.40706927,-0.3526242,0.060025003,3.0783155,-0.6249083,-0.00025457438,-0.15941064,-0.02349412,0.0011321269,-0.0034067538,-0.00061664457,0.00043715077,0.46151835,-1.3767718,1.89824,-2.0912197,-1.5704206,2.4365501,-0.09835391,0.29964826,-0.37468654,0.07409081,0.0027228452,-0.09860381,-0.3256114,0.21068975,-8.983045,0.9254084,47.683304,-1.0318778,-1.8790929,-3.4652665,-0.011088628,0.04064368,-0.30648828,26.125,26.9375,26.0,29.125,30.125,30.5625
0.3320525,-1.2923621,-0.12953433,0.25110868,-0.0028658423,0.02216932,-0.1322267,-0.4073699,-0.35268867,0.06003324,3.0783224,-0.6248299,-0.00023856609,-0.15916614,-0.025017489,0.0022795426,-0.0032961098,-0.0010229085,0.006589669,0.46136326,-1.3761835,1.8974851,-2.0910504,-1.5704087,2.4363456,-0.095489636,0.30025515,-0.37914443,0.07835734,0.002806049,-0.10189107,-0.4596867,0.17238252,-9.040505,0.9567419,47.696735,-1.0507872,-1.783551,-3.468007,-0.065028645,0.043909144,-0.25469577,26.125,26.9375,26.0,29.125,30.125,30.5625
0.33405265,-1.0593218,-0.10771806,0.61517775,-0.011179706,0.045377124,-0.15188226,-0.4077101,-0.35271862,0.06002874,3.0783072,-0.6249212,-0.00022897316,-0.15817945,-0.023053247,0.0014987416,6.463293e-05,-0.0074604363,0.008413618,0.46112275,-1.3755587,1.8967208,-2.090904,-1.5704087,2.4361644,-0.09780612,0.30091333,-0.38002136,0.0858393,0.002677366,-0.10603204,-0.49799395,0.076614454,-8.887277,0.9835985,47.696735,-1.0811679,-1.662523,-3.4552364,-0.12689385,0.040313575,-0.21028617,26.125,26.9375,26.0,29.125,30.125,30.5625
0.3360516,-1.1274256,0.1865879,0.4336564,0.0057934783,0.0459947,-0.15235108,-0.40801004,-0.35275644,0.060017888,3.078345,-0.6248877,-0.0001647368,-0.15934634,-0.02342506,0.0011980808,-0.00012763792,-0.00772947,0.012978972,0.4609304,-1.374957,1.8959903,-2.0907242,-1.5704087,2.4359467,-0.09823938,0.30382645,-0.38301852,0.08608,0.002958294,-0.11102986,-0.28730422,0.05746084,-8.829816,0.9388393,47.67614,-0.91069806,-1.6307206,-3.540555,-0.1769604,0.028772008,-0.14310512,26.125,26.9375,26.0,29.125,30.125,30.5625
0.33805266,-0.9258293,0.7117018,0.22112441,0.025058161,0.040310107,-0.1326393,-0.40835062,-0.352826,0.060034696,3.0783346,-0.62475,-0.0002067902,-0.15925837,-0.023218911,0.00043480608,0.0014715508,-0.010808357,0.014544078,0.46075043,-1.3743317,1.8951768,-2.0905802,-1.5703968,2.4356825,-0.09837214,0.3063287,-0.3851287,0.08915964,0.0029016696,-0.112727,-0.38307226,0.076614454,-8.944737,0.9388393,47.668976,-1.0061957,-1.7711781,-3.5171015,-0.20441455,0.023266388,-0.090339854,26.125,26.9375,26.0,29.125,30.125,30.5625
0.34005183,-0.87236154,0.7529324,0.37805325,0.026413431,0.033728506,-0.13546602,-0.40865147,-0.3528527,0.05999605,3.0784369,-0.6247129,-4.718451e-05,-0.15931256,-0.022599308,-0.00042068883,0.0023296936,-0.013012944,0.012711481,0.46054608,-1.3736584,1.8944129,-2.0903523,-1.5704087,2.4354424,-0.09949224,0.30788815,-0.38549185,0.09031819,0.0030967693,-0.11201528,-0.30645782,0.076614454,-8.925584,0.9164598,47.68599,-0.9946003,-1.8309879,-3.6238523,-0.2648665,0.02816153,-0.05061108,26.125,26.9375,26.0,29.125,30.125,30.5625
0.3420521,-0.9503665,0.7678537,0.20003574,0.026280558,0.019128323,-0.13522318,-0.4089549,-0.35290504,0.059992112,3.0784338,-0.62473416,5.1146144e-05,-0.16118552,-0.022941072,-0.0009973443,0.0023045843,-0.012719888,0.008427448,0.4603538,-1.3730452,1.8936466,-2.0901492,-1.5703725,2.435264,-0.1003224,0.31210938,-0.3891959,0.089531474,0.0029701977,-0.108559616,-0.36391866,0.05746084,-8.868123,0.91421866,47.684196,-1.0166814,-1.8675607,-3.5356436,-0.2721405,0.009807341,-0.0584971,26.125,26.9375,26.0,29.125,30.125,30.5625
0.3440521,-1.0164604,0.3288738,0.16535966,0.011496704,0.018803887,-0.12893158,-0.40928748,-0.35293067,0.059980623,3.0784376,-0.6247948,8.608745e-05,-0.16358815,-0.02371074,-1.3045243e-05,0.00071945746,-0.009203368,0.0040624104,0.4601136,-1.372419,1.8928927,-2.0899942,-1.5703725,2.4350617,-0.10083212,0.3138699,-0.39338487,0.088105515,0.0028096756,-0.10470255,-0.5363012,0.095768064,-8.944737,1.0104496,47.675243,-0.98582184,-1.8915954,-3.5411491,-0.29040033,0.034880538,-0.09860583,26.125,26.9375,26.0,29.125,30.125,30.5625
0.34605235,-1.5872666,-1.0117879,-0.13430063,-0.0059942263,0.023247417,-0.12630022,-0.4095933,-0.3529753,0.059960447,3.078461,-0.6248209,0.00017630223,-0.1659708,-0.024352752,1.6783688e-05,-0.000306896,-0.0061231107,-0.0011824885,0.4599216,-1.3717813,1.8921393,-2.0898159,-1.5703605,2.4348834,-0.10136515,0.31699947,-0.39667013,0.08504752,0.0023388513,-0.09998862,-0.36391866,0.076614454,-9.078813,0.8493211,47.687782,-0.99067533,-1.9633412,-3.4916058,-0.2888337,0.047219772,-0.1508483,26.125,26.9375,26.0,29.125,30.125,30.5625
0.3480524,-1.3449557,-0.66319185,0.025871282,-0.028921444,0.04575512,-0.12979743,-0.40995136,-0.35301828,0.059979647,3.0784616,-0.62480265,0.000111615445,-0.16949299,-0.024830215,0.001157591,-0.002486368,-0.0010015509,-0.00440843,0.45970494,-1.3711561,1.8913134,-2.0896494,-1.5703849,2.4346557,-0.10321359,0.31908435,-0.4012271,0.08196185,0.0020044595,-0.09860868,-0.24899697,0.15322891,-9.193734,0.86498255,47.685097,-0.86853516,-1.9901094,-3.369615,-0.2631196,0.03038137,-0.16426922,26.125,26.9375,26.0,29.125,30.125,30.5625
0.3500526,-1.5829436,-1.1855928,-0.4049868,-0.026614895,0.047421686,-0.1292121,-0.41029352,-0.35306382,0.0599634,3.0784433,-0.6248792,0.00017064194,-0.17085017,-0.024831193,0.0013552947,-0.003571881,0.0020718111,-0.01056593,0.45947665,-1.3704829,1.8905133,-2.0894945,-1.570361,2.4344778,-0.10398712,0.31933746,-0.40143335,0.078681625,0.0016026939,-0.09322431,-0.40222588,0.24899697,-9.289503,0.9298854,47.67614,-0.8486133,-1.9424083,-3.4258313,-0.22211833,0.036155354,-0.21964984,26.125,26.9375,26.0,29.125,30.125,30.5625
0.35205173,-1.6428547,-1.3471186,-0.6420091,-0.04535167,0.06795238,-0.13494018,-0.4106378,-0.35313016,0.059948724,3.078462,-0.6248619,0.00020442421,-0.1709119,-0.025079776,0.00048464446,-0.003934949,0.0028941734,-0.0100557525,0.45929697,-1.3697748,1.889665,-2.089328,-1.570361,2.4342854,-0.103469096,0.3203555,-0.40015388,0.07548672,0.0015569415,-0.093217015,-0.34476504,0.4405331,-9.385271,0.90527004,47.68599,-0.85560876,-1.8533733,-3.7371464,-0.2087115,0.042704165,-0.2676978,26.125,26.9375,26.0,29.125,30.125,30.5625
0.3540518,-1.4152985,-1.5713916,-0.87830186,-0.05413694,0.06902284,-0.13036689,-0.41095382,-0.35315606,0.05993858,3.0784898,-0.62492853,0.000259005,-0.17228648,-0.02445008,-0.00010870511,-0.004483265,0.0038270308,-0.014894214,0.45907995,-1.3691612,1.888913,-2.0891373,-1.5703729,2.4341068,-0.10563037,0.32186,-0.40020823,0.07295565,0.0016248603,-0.09053998,-0.2681506,0.5363012,-9.615114,1.0283576,47.687782,-0.70540655,-1.8190608,-3.9414077,-0.17937055,0.0470631,-0.28534466,26.125,26.9375,26.0,29.125,30.125,30.5625
0.35605192,-1.7354118,-2.0873053,-1.1579967,-0.05090963,0.05484789,-0.12653965,-0.4113016,-0.3532005,0.059932258,3.0784514,-0.6250349,0.00025984764,-0.17286654,-0.026265606,0.00022735067,-0.005604726,0.0058044833,-0.013576901,0.45885313,-1.3685118,1.8881229,-2.0890062,-1.570361,2.4339516,-0.10297276,0.3237254,-0.40311217,0.07172534,0.0017471252,-0.089198805,-0.49799395,0.5554548,-9.80665,0.8940802,47.67793,-0.91583145,-2.0109737,-3.90203,-0.14307095,0.04343736,-0.3400383,26.125,26.9375,26.0,29.125,30.125,30.5625
0.35805216,-1.6676329,-2.2386863,-1.5687332,-0.047062695,0.04396151,-0.11896604,-0.4116463,-0.35324475,0.059910852,3.078462,-0.6250578,0.00029491028,-0.1755722,-0.025873367,0.00013900684,-0.006604465,0.006786937,-0.018373815,0.45863593,-1.3678265,1.8873209,-2.0888627,-1.5703605,2.4337478,-0.10608249,0.32697618,-0.40679735,0.07083462,0.0021975306,-0.087510824,-0.4213795,0.5554548,-9.80665,0.97464454,47.690468,-0.74673975,-1.9659995,-3.9044013,-0.105417565,0.051552165,-0.39138904,26.125,26.9375,26.0,29.125,30.125,30.5625
0.3600525,-1.7865607,-2.5384908,-1.6345708,-0.047600795,0.0377109,-0.12124449,-0.4120032,-0.35328713,0.059920102,3.0784593,-0.6251328,0.00026248363,-0.17681314,-0.027178496,0.00036016013,-0.0070881336,0.007953523,-0.017412663,0.45842052,-1.367177,1.8864836,-2.0886834,-1.5703844,2.43358,-0.104724914,0.32997608,-0.4110836,0.07085965,0.0021082591,-0.087112635,-0.2873042,0.59376204,-9.883265,0.98135734,47.651955,-0.9021529,-2.011322,-3.7554543,-0.09181929,0.035176992,-0.43166202,26.125,26.9375,26.0,29.125,30.125,30.5625
0.36205247,-1.2427471,-1.992534,-1.6309108,-0.05880967,0.041828055,-0.12692754,-0.41238165,-0.3533299,0.05993121,3.0784197,-0.62523896,0.00019849271,-0.17785576,-0.02774258,-0.0005072359,-0.006553249,0.0067338496,-0.015165793,0.45818073,-1.3665148,1.8856343,-2.0885394,-1.5703968,2.4334118,-0.104542285,0.33437532,-0.41469404,0.07140149,0.0021676896,-0.08917534,-0.11492168,0.63206923,-9.844957,0.9410752,47.639416,-0.8795519,-2.1591523,-3.6519608,-0.07838738,0.048052005,-0.46767408,26.125,26.9375,26.0,29.125,30.125,30.5625
0.36405239,-1.4966079,-1.7939956,-1.4913828,-0.052645225,0.02970317,-0.13098066,-0.41271436,-0.35340923,0.059918948,3.0784018,-0.6251932,0.000240247,-0.17831679,-0.027459402,-0.0011056165,-0.0059597692,0.005929895,-0.011491851,0.4580124,-1.3658291,1.8848099,-2.0883958,-1.570361,2.4332175,-0.10518811,0.3360629,-0.41561556,0.07162498,0.0019907057,-0.093494795,-0.15322891,0.7086837,-9.921572,1.0104496,47.707485,-0.9163051,-2.3041444,-3.7888713,-0.05762685,0.044371832,-0.45392537,26.125,26.9375,26.0,29.125,30.125,30.5625
0.3660523,-0.99144065,-1.588377,-1.4893436,-0.041008234,0.02858291,-0.12975702,-0.4130865,-0.35346448,0.059918065,3.0783474,-0.625236,0.00018374181,-0.17809185,-0.027809966,-0.0016654077,-0.005426203,0.0049748747,-0.005107477,0.45778477,-1.3651563,1.8839854,-2.0883,-1.5703491,2.433024,-0.10423324,0.33751824,-0.4163871,0.07203783,0.001941148,-0.098924145,-0.1340753,0.68953013,-9.883265,0.85826975,47.687782,-0.90287983,-2.2396095,-3.8226647,-0.0064068004,0.050281838,-0.42931694,26.125,26.9375,26.0,29.125,30.125,30.5625
0.36805248,-0.5034188,-1.176785,-1.3664908,-0.05818901,0.02502947,-0.13350236,-0.41346422,-0.35352215,0.0599198,3.0783243,-0.62520736,0.00016077331,-0.17724366,-0.027152503,-0.0032648093,-0.0024851041,-0.0005780318,0.0030595502,0.4575568,-1.3644584,1.8831133,-2.0881546,-1.5703372,2.4327815,-0.104392074,0.34074718,-0.41786414,0.07657276,0.001768773,-0.107249506,0.076614454,0.45968673,-10.036493,0.9835985,47.723602,-0.91514915,-2.324254,-4.000785,-0.03314981,0.062497873,-0.3421778,26.125,26.9375,26.0,29.125,30.125,30.5625
0.37005275,0.062386893,-1.4051092,-1.0225952,-0.053464785,0.024039373,-0.13473602,-0.41383567,-0.35359037,0.05992269,3.078279,-0.62519586,0.000101669226,-0.18037617,-0.027192887,-0.00025314625,-0.005467432,0.0051532346,0.0049871514,0.45735207,-1.3637743,1.8822631,-2.0880468,-1.5703248,2.4325757,-0.1069111,0.33865663,-0.42246687,0.07681017,0.0019115866,-0.111695364,0.1340753,0.28730422,-9.787497,1.0216395,47.693153,-0.92922795,-2.167562,-3.953044,-0.009670882,0.05595354,-0.30463624,26.125,26.9375,26.0,29.125,30.125,30.5625
0.37205184,0.31770343,-0.46938562,-1.0284109,-0.0218721,3.7376274e-05,-0.13176246,-0.41420725,-0.35364464,0.05994159,3.078286,-0.62513435,-2.9188215e-05,-0.18069196,-0.029045478,0.0011783544,-0.005838823,0.006073075,0.014617426,0.45716104,-1.3631252,1.8814124,-2.0879142,-1.5703729,2.4323459,-0.10386293,0.33955058,-0.42776012,0.08021808,0.0018461732,-0.11827588,0.038307227,0.22984336,-9.500193,0.99702406,47.664497,-1.0578454,-1.9876087,-3.7368283,-0.013298698,0.054755278,-0.20160605,26.125,26.9375,26.0,29.125,30.125,30.5625
0.374052,0.6443097,0.9345699,-1.1761819,0.035643145,-0.028572595,-0.13366361,-0.41459778,-0.35369968,0.05995152,3.0782073,-0.62515616,-4.8777445e-05,-0.18136555,-0.027945256,0.0011730931,-0.00424996,0.0018227696,0.014691146,0.45689625,-1.3624407,1.8805388,-2.0877798,-1.5703243,2.432105,-0.10642687,0.3416378,-0.4319669,0.086858936,0.0023111175,-0.12091304,0.3256114,0.05746084,-9.576807,1.0238806,47.72271,-1.0167162,-1.9571934,-3.624141,-0.080117494,0.07340442,-0.16390827,26.125,26.9375,26.0,29.125,30.125,30.5625
