Tylouw/Master_Thesis_Code/training_data/batch_1/small_rod_t0.1/sample_41_session_1.csv
timestamp[s],tcp_force_x[N],tcp_force_y[N],tcp_force_z[N],tcp_force_rx[Nm?],tcp_force_ry[Nm?],tcp_force_rz[Nm?],tcp_pose_x[m],tcp_pose_y[m],tcp_pose_z[m],tcp_pose_rx[rot_vec_x],tcp_pose_ry[rot_vec_y],tcp_pose_rz[rot_vec_z],tcp_velo_x[m/s],tcp_velo_y[m/s],tcp_velo_z[m/s],tcp_velo_rx[rot_vec_x/s],tcp_velo_ry[rot_vec_y/s],tcp_velo_rz[rot_vec_z/s],q1[rad],q2[rad],q3[rad],q4[rad],q5[rad],q6[rad],qd1[rad/s],qd2[rad/s],qd3[rad/s],qd4[rad/s],qd5[rad/s],qd6[rad/s],tool_acc_x,tool_acc_y,tool_acc_z,current_of_whole_robot[A],voltage_of_whole_robot[V],current_J1[A],current_J2[A],current_J3[A],current_J4[A],current_J5[A],current_J6[A],temp_J1[C],temp_J2[C],temp_J3[C],temp_J4[C],temp_J5[C],temp_J6[C]
8.569914e-07,-0.1297303,0.25964788,1.1917648,-0.016631622,0.008501823,-0.0112051945,-0.38106674,-0.34854546,0.059980564,-3.078547,0.62486404,-0.00013263922,0.0018860206,0.0009774022,-0.002464403,0.002345105,-0.0047289426,7.723567e-05,0.47782204,-1.4259334,1.9576916,-2.100845,-1.5707573,2.452764,-5.6418758e-05,0.0015782574,0.003871835,-0.00017278701,0.00010003714,-0.0001354972,0.076614454,0.17238252,-8.695741,0.7463667,47.717335,-0.023659982,-2.7867212,-2.4797769,-0.42328677,0.083920196,-0.009270726,25.5625,26.25,25.4375,28.125,28.875,29.1875
0.002054931,0.14060329,0.4515133,1.2093464,-0.011207279,0.013418051,-0.014020498,-0.38104978,-0.34855217,0.05996813,-3.0785484,0.6248449,-0.00019687119,-0.00017870305,-9.835505e-05,-0.0030653593,-0.00046360385,0.00065719674,7.724661e-05,0.4778342,-1.4259206,1.9577035,-2.1008365,-1.5707334,2.452764,-5.5720157e-05,0.0039150445,0.004680428,-0.009392638,9.7861215e-05,-0.00013299471,0.0,0.076614454,-8.714894,0.7463667,47.705692,0.008965037,-2.8523605,-2.473297,-0.4025884,0.08689113,0.0025040112,25.5625,26.25,25.4375,28.125,28.875,29.1875
0.004053781,-0.30806038,0.4896967,1.2464278,-0.011225711,-0.002508284,-0.007441213,-0.38107166,-0.34851214,0.059956074,-3.0784967,0.6249115,-0.00014915399,-0.0011105299,-0.0005833134,-0.002491821,-0.001764426,0.0031606401,7.629206e-05,0.4777741,-1.4259206,1.9577392,-2.1008723,-1.5707816,2.452752,-5.5038683e-05,0.0038347568,0.0039099,-0.011363053,9.577828e-05,-0.00013058262,0.038307227,0.22984336,-8.695741,0.71279734,47.71286,0.03563406,-3.065909,-2.642949,-0.32053298,0.090135485,0.002986534,25.5625,26.25,25.4375,28.125,28.875,29.1875
0.006053444,0.2477375,1.19212,1.1376873,-0.006180168,-0.0065378137,-0.012542761,-0.38106063,-0.3485199,0.059954856,-3.0785234,0.62482125,-0.0001331033,-0.00072092825,-0.0003795396,-0.0013331531,-0.0013625931,0.002403327,7.4177355e-05,0.47779807,-1.4259334,1.9577616,-2.1008952,-1.5707816,2.4527164,-5.437372e-05,0.0018785696,0.002539411,-0.00717909,9.3782226e-05,-0.00012825648,0.05746084,0.19153613,-8.6574335,0.76874626,47.719128,0.018629402,-3.0176044,-2.6068997,-0.32644135,0.07050201,0.0028301592,25.5625,26.25,25.4375,28.125,28.875,29.1875
0.008053645,0.5252393,1.2151537,0.71284604,0.027332159,-0.023175305,-0.0076321964,-0.38106537,-0.34852457,0.05993751,-3.0785155,0.624877,-0.00018769338,-0.0007364094,-0.00038669712,0.00013318166,-0.0015685974,0.0028142764,7.2430455e-05,0.47778615,-1.425886,1.9577497,-2.1009057,-1.5707573,2.4527402,-5.3724547e-05,-0.00024060499,0.00083900266,-0.0038191434,9.186758e-05,-0.00012601174,0.019153614,0.19153613,-8.810662,0.7239871,47.67166,-0.024538301,-2.9219618,-2.5261426,-0.3925461,0.0856109,-0.012721667,25.5625,26.25,25.4375,28.125,28.875,29.1875
0.010054028,0.54978967,1.2483752,0.30417514,0.020657632,-0.0181551,-0.009744054,-0.38102674,-0.34853566,0.05992977,-3.0785062,0.62481725,-0.00025683365,-0.000606378,-0.00031870534,0.00033147156,-0.0012515514,0.00221021,7.086965e-05,0.4778342,-1.4258982,1.9577731,-2.1008694,-1.5707458,2.452752,-5.3090745e-05,-0.00042017185,0.00026328076,-0.002381646,9.0029476e-05,-0.00012384418,0.076614454,0.1340753,-9.059659,0.7396539,47.686886,-0.22555515,-2.1600113,-3.1815724,-0.39770633,0.09950078,-0.024001716,25.5625,26.25,25.4375,28.125,28.875,29.1875
0.012053876,0.39937076,0.82992136,0.16789015,-0.01978861,0.004447763,-0.009020818,-0.3810474,-0.3485329,0.059928544,-3.0785046,0.62485546,-0.00024547116,-0.0006803217,-0.00034525312,-0.0026506914,0.0019691677,-0.0040099435,5.694205e-05,0.4778101,-1.4258718,1.9577483,-2.1008804,-1.5707458,2.452752,-7.9003265e-05,0.007662573,-0.0025218837,-0.00067469815,8.826368e-05,-0.00013347424,0.076614454,0.13407528,-9.289503,0.7642693,47.691364,-0.36648557,-2.0667336,-3.2732434,-0.41666287,0.08531506,-0.063713804,25.5625,26.25,25.4375,28.125,28.875,29.1875
0.014053724,-0.58132344,-0.5837383,-0.10686253,-0.03541485,0.014800097,-0.013589739,-0.3810586,-0.34850776,0.059921004,-3.0784376,0.62484086,-0.0002595686,-0.0032290898,-0.0015802168,-0.0047448063,0.0035311896,-0.0070869843,0.0015444165,0.4777861,-1.4258436,1.9577225,-2.1008327,-1.5707935,2.4527276,-0.00025921565,0.018516205,-0.010159509,-0.00044039116,9.9411795e-05,-0.0017956466,0.0,0.19153613,-9.404425,0.7329411,47.687782,-0.48921204,-2.926705,-3.1947296,-0.42899168,0.093853444,-0.09997501,25.5625,26.25,25.4375,28.125,28.875,29.1875
0.016054042,-1.4445477,-1.3331491,-0.320726,-0.054469608,0.02584106,-0.012854442,-0.38102397,-0.34850568,0.059864853,-3.0783896,0.624889,-0.00045143766,-0.005843059,0.0011493419,-0.003994376,0.0028661015,-0.0058315615,0.00030241566,0.47778344,-1.4257724,1.9577698,-2.1008327,-1.5707458,2.452761,-0.0075374404,0.016917208,-0.010073028,-0.00034936232,0.000109985325,-0.007832222,-0.17238252,0.34476504,-9.481039,0.74413085,47.71286,-0.09979634,-2.6988466,-3.3146722,-0.4161105,0.11015377,-0.056117587,25.5625,26.25,25.4375,28.125,28.875,29.1875
0.018053446,-1.0187941,-1.2173492,-0.3956913,-0.071176246,0.05406249,-0.02190287,-0.38103265,-0.34851018,0.059872255,-3.0784013,0.62483263,-0.00045128926,-0.0065034945,0.0012321554,-0.0034041824,0.0023187818,-0.0048257746,0.002559684,0.47778338,-1.4257606,1.957734,-2.1008089,-1.5707458,2.4527242,-0.008309242,0.016463595,-0.010946601,-0.0001675141,0.00013060743,-0.010861,-0.22984336,0.51714754,-9.710882,0.7665104,47.693153,-0.12432197,-2.421667,-3.5551362,-0.43171948,0.13299118,-0.025394859,25.5625,26.25,25.4375,28.125,28.875,29.1875
0.020053744,-1.22361,-1.2113957,-0.38122067,-0.068606615,0.06245099,-0.03287276,-0.38103557,-0.3485141,0.059851587,-3.0783942,0.62481153,-0.0005340268,-0.0069791484,2.2954391e-05,-0.0033075658,0.0019028998,-0.0045769485,0.0046864157,0.4777718,-1.4256998,1.9577092,-2.100797,-1.5707215,2.4527004,-0.0067633353,0.0186961,-0.013748583,-1.0937474e-05,0.00037894864,-0.011440592,-0.40222588,0.5746084,-9.634268,0.74413085,47.67614,-0.3511973,-2.3470588,-3.4984212,-0.43838036,0.11838792,-0.011590224,25.5625,26.25,25.4375,28.125,28.875,29.1875
0.022054024,-1.7634083,-1.1370475,-0.45162755,-0.05875313,0.05719868,-0.03473768,-0.3810518,-0.34850943,0.05986111,-3.0783954,0.6248498,-0.0005196037,-0.007716586,-0.0011059024,-0.0028180983,-0.0005316271,-0.0044064852,0.005259573,0.47774783,-1.4256996,1.9576844,-2.100785,-1.5707206,2.4527001,-0.006790707,0.019888576,-0.016229628,-7.1413893e-07,0.0024569265,-0.012043817,-0.8619126,0.6703765,-9.691729,0.7418897,47.66271,-0.5039557,-2.3231816,-3.56568,-0.42728513,0.101866744,-0.01710707,25.5625,26.25,25.4375,28.125,28.875,29.1875
0.02405343,-1.3298124,-0.6572003,-0.56451035,-0.053321257,0.06980113,-0.055832632,-0.38106883,-0.34852454,0.059841298,-3.0784266,0.6247605,-0.00058529864,-0.008607077,-0.0015037566,-0.0026155072,-0.0022757442,-0.0046096807,0.004508866,0.4777353,-1.4256152,1.9576362,-2.100797,-1.5706843,2.452628,-0.007972898,0.021050323,-0.01801902,-4.6628173e-08,0.0040947804,-0.0124775795,-0.4405331,0.51714754,-9.768343,0.7150385,47.645687,-0.46850353,-2.3628168,-3.473764,-0.43024457,0.090206675,-0.03886819,25.5625,26.25,25.4375,28.125,28.875,29.1875
0.026054071,-1.3446615,-0.51184976,-0.49593922,-0.058659397,0.06296112,-0.06512723,-0.38108948,-0.34852144,0.059835616,-3.0784051,0.6248716,-0.0005837692,-0.010153867,-0.001317437,-0.0024058449,-0.003042982,-0.0042267404,0.0030991563,0.47771066,-1.4255788,1.9576105,-2.1008089,-1.5706843,2.4526753,-0.010061624,0.022582714,-0.02024604,-3.0444864e-09,0.004594853,-0.013156232,-0.40222588,0.40222588,-9.921572,0.7486078,47.660015,-0.48145932,-2.3281658,-3.5544043,-0.4354245,0.085017085,-0.043929283,25.5625,26.25,25.4375,28.125,28.875,29.1875
0.028054236,-1.4378226,-0.85250443,-0.43556166,-0.04470935,0.054659445,-0.07602459,-0.38110498,-0.34852058,0.059821695,-3.0783837,0.6248105,-0.0005888248,-0.011585735,-0.0011343892,-0.0022288733,-0.0027740737,-0.0033703467,0.0018590459,0.47771022,-1.4255183,1.9575733,-2.1008089,-1.5707082,2.4526396,-0.011299124,0.024219105,-0.02251732,-1.9878321e-10,0.003957127,-0.0131510245,-0.61291564,0.34476504,-9.902418,0.7463667,47.703903,-0.44533062,-2.3341582,-3.519484,-0.43526956,0.08302207,-0.05401206,25.5625,26.25,25.4375,28.125,28.875,29.1875
0.03005387,-1.6483017,-0.14618143,-0.37976584,-0.035764102,0.04993619,-0.08271565,-0.38114887,-0.3485094,0.05980927,-3.0783684,0.62488484,-0.0005883531,-0.013113772,-0.0011407328,-0.0018308103,-0.0025223247,-0.0019639349,0.0014282356,0.47764996,-1.425446,1.9575247,-2.1008327,-1.5707086,2.4526277,-0.012132226,0.02577862,-0.025206733,-1.2979123e-11,0.0030809122,-0.013549927,-0.49799395,0.24899697,-9.787497,0.7396539,47.70659,-0.47848845,-2.336957,-3.5539427,-0.42456105,0.09480448,-0.071275845,25.5625,26.25,25.4375,28.125,28.875,29.1875
0.032053594,-1.060802,0.0066388194,-0.4558163,-0.011220359,0.06060643,-0.10258237,-0.3811794,-0.34852937,0.059817445,-3.0784028,0.6248731,-0.00055746385,-0.014254651,-0.00078865024,-0.0018709218,-0.0026769459,-0.0019345577,0.00017466265,0.47764945,-1.4253976,1.9574536,-2.100845,-1.5706967,2.4526155,-0.013892563,0.027119547,-0.026645156,-8.4744397e-13,0.0032018323,-0.014055889,-0.40222588,0.11492168,-9.883265,0.8314132,47.69763,-0.6157335,-2.3487077,-3.4890804,-0.4312089,0.108583584,-0.08067447,25.5625,26.25,25.4375,28.125,28.875,29.1875
0.03405421,-1.3327192,0.26136544,-0.3713481,0.0061573028,0.04044025,-0.10948391,-0.3811918,-0.34854007,0.05982031,-3.0784402,0.6248801,-0.0006052413,-0.015066283,-0.0012756727,-0.0013459807,-0.0041406853,-0.0012646768,0.00024402476,0.47762534,-1.4253736,1.9574169,-2.1008327,-1.5706481,2.452591,-0.014419563,0.0276188,-0.028415026,-5.5332038e-14,0.0041897097,-0.014653259,-0.30645782,-0.019153614,-9.787497,0.7239871,47.685097,-0.6159394,-2.2829854,-3.53943,-0.4071687,0.09966247,-0.07676262,25.5625,26.25,25.4375,28.125,28.875,29.1875
0.03605395,-1.0516855,0.4707842,-0.24773741,0.02218801,0.035420265,-0.12460867,-0.38122937,-0.3485283,0.059795257,-3.0783677,0.6248663,-0.00063014054,-0.016945073,-0.0017375665,-0.0005969998,-0.0063843126,-0.0002677451,-0.0012647285,0.47760054,-1.4252533,1.9573315,-2.1008089,-1.5706958,2.4525669,-0.016328638,0.029093767,-0.031812843,-3.612787e-15,0.005715659,-0.015055035,-0.30645782,-0.05746084,-9.634268,0.75755644,47.71465,-0.5219434,-2.2838736,-3.5156667,-0.4110434,0.07880377,-0.10163462,25.5625,26.25,25.4375,28.125,28.875,29.1875
0.038053725,-1.2982593,0.90194154,-0.32381192,0.024171822,0.011813383,-0.12334523,-0.3812765,-0.3485353,0.05981878,-3.078418,0.6248384,-0.0005168462,-0.017965715,-0.0028857917,-0.00018702449,-0.007715701,0.00042053164,-0.0012709745,0.47757682,-1.4252405,1.9572715,-2.100845,-1.5707072,2.4525194,-0.015791286,0.03115216,-0.03509756,-2.3588917e-16,0.006576265,-0.014510679,-0.30645782,-0.17238252,-9.481039,0.75084364,47.695843,-0.57486916,-2.3203013,-3.4190469,-0.4074274,0.064849064,-0.10816793,25.5625,26.25,25.4375,28.125,28.875,29.1875
0.04005356,-1.1262743,0.57165915,-0.32897636,0.023781532,0.0187374,-0.1393792,-0.38132122,-0.3485736,0.059835527,-3.078486,0.624892,-0.0005173105,-0.019065464,-0.0028185328,0.00011843605,-0.007930439,0.001241027,-0.0032968079,0.4775644,-1.4251683,1.9571508,-2.100845,-1.5706471,2.4525318,-0.016804054,0.03204935,-0.036820456,-1.5401876e-17,0.006387367,-0.013495925,-0.17238252,-0.05746084,-9.576807,0.7418897,47.69763,-0.55012006,-2.3118107,-3.3494048,-0.3817329,0.052646257,-0.10925993,25.5625,26.25,25.4375,28.125,28.875,29.1875
0.042053413,-1.4802822,0.15707345,-0.3288557,0.013414735,0.013411058,-0.14506745,-0.38136563,-0.34856522,0.059834167,-3.0784698,0.6248884,-0.0005200296,-0.019965038,-0.0028227416,9.538463e-05,-0.007983646,0.001387222,-0.00465001,0.4775161,-1.425096,1.9570659,-2.1008208,-1.570659,2.4524834,-0.017612066,0.03350485,-0.038429987,-1.0056324e-18,0.0063642985,-0.012949728,-0.19153613,0.019153614,-9.615114,0.78888994,47.705692,-0.5905038,-2.289783,-3.3539145,-0.3841471,0.07323167,-0.1179817,25.5625,26.25,25.4375,28.125,28.875,29.1875
0.044053417,-0.8804994,0.12018302,-0.32214764,-0.007533561,0.03645968,-0.15927346,-0.3813782,-0.3485687,0.059803996,-3.0784762,0.62489015,-0.00062546285,-0.021103686,-0.002980777,0.0007112684,-0.008210129,0.002953161,-0.004973611,0.47747993,-1.4250119,1.9570416,-2.1008327,-1.5706118,2.4524474,-0.018043354,0.034086034,-0.0405033,-6.566061e-20,0.0058408664,-0.013055549,-0.17238252,0.13407528,-9.5385,0.71279734,47.64837,-0.57437956,-2.2492564,-3.4001732,-0.3738088,0.07192085,-0.1294959,25.5625,26.25,25.4375,28.125,28.875,29.1875
0.046054393,-1.0813217,-0.25519416,-0.42061988,-0.010659112,0.030667963,-0.15707994,-0.38143176,-0.3485675,0.059821434,-3.0784624,0.62498385,-0.00055631663,-0.02272796,-0.0030601704,0.0017514798,-0.008894742,0.0053091114,-0.006051791,0.4774437,-1.4249638,1.9569443,-2.1008208,-1.5706357,2.4524715,-0.019090405,0.034275465,-0.043098163,-4.2871685e-21,0.005361484,-0.013021932,-0.17238252,0.19153613,-9.500193,0.8112748,47.67345,-0.5209015,-2.1479163,-3.3419328,-0.3671677,0.07874003,-0.1500034,25.5625,26.25,25.4375,28.125,28.875,29.1875
0.048054185,-0.52838993,-0.37694836,-0.5326998,-0.011239432,0.04126416,-0.16190434,-0.38148046,-0.3485745,0.05983184,-3.0784912,0.62500906,-0.0005518091,-0.023162166,-0.0030975172,0.00081911444,-0.007860508,0.0039282227,-0.0060294643,0.4773956,-1.424903,1.9568485,-2.1008089,-1.5706118,2.4524355,-0.019238107,0.037305444,-0.044424836,-2.799215e-22,0.0050751427,-0.01319014,-0.11492168,0.22984336,-9.519346,0.8112748,47.70211,-0.5879246,-2.1557875,-3.4567027,-0.36621398,0.078953065,-0.16786996,25.5625,26.25,25.4375,28.1875,28.875,29.1875
0.050053842,-0.9103027,-0.70145357,-0.48114887,-0.015491667,0.01710435,-0.1453066,-0.38153684,-0.3485877,0.05983753,-3.0785248,0.6249966,-0.00052158214,-0.02387002,-0.00310715,2.7944354e-05,-0.0070192614,0.002817153,-0.0064512985,0.4773594,-1.424818,1.9567412,-2.1008208,-1.5706004,2.4523873,-0.019718353,0.04036797,-0.046112787,-1.8276875e-23,0.0048354487,-0.013246595,-0.1340753,0.28730422,-9.5385,0.71279734,47.704796,-0.50748706,-2.261037,-3.41394,-0.36792782,0.061486494,-0.17048392,25.5625,26.25,25.4375,28.1875,28.875,29.1875
0.052053872,-0.77831376,-1.0427818,-0.3642425,-0.021471418,0.012692157,-0.14239033,-0.3815634,-0.34859237,0.05983391,-3.0785174,0.62505275,-0.0005451491,-0.025603961,-0.0032808264,0.0021334675,-0.008778751,0.0069952095,-0.006679504,0.4773351,-1.4247588,1.9566792,-2.1008089,-1.570588,2.452399,-0.020774284,0.038260825,-0.04852341,-1.1933493e-24,0.004473276,-0.014072804,-0.17238252,0.34476504,-9.519346,0.7597976,47.69763,-0.54646194,-2.172413,-3.3971124,-0.36291766,0.073870905,-0.18072149,25.5625,26.25,25.4375,28.1875,28.875,29.1875
0.054053824,-0.2576189,-1.171194,-0.26593426,-0.037210815,0.023416912,-0.14469726,-0.3816361,-0.34856084,0.059838492,-3.0784712,0.62508225,-0.00047237266,-0.026150096,-0.0031380432,0.0017401485,-0.007935477,0.005601636,-0.006695416,0.4772508,-1.4246864,1.9565834,-2.1007965,-1.5706481,2.4523392,-0.021457762,0.04043167,-0.050408404,0.0013392615,0.0043641166,-0.014739092,-0.095768064,0.4213795,-9.615114,0.7418897,47.661808,-0.5243076,-2.046038,-3.4629884,-0.362705,0.08727314,-0.1977241,25.5625,26.25,25.4375,28.1875,28.875,29.1875
0.056053303,-1.1373305,-1.7716106,-0.37821332,-0.03875639,0.008333361,-0.12965909,-0.3817,-0.3485893,0.059859138,-3.0785298,0.62507415,-0.00042390754,-0.026705312,-0.0033546495,0.0012905739,-0.0077089127,0.0047352836,-0.0062414473,0.4772268,-1.4246016,1.9564394,-2.1007965,-1.5706242,2.4523027,-0.02170996,0.042741966,-0.05207071,0.0015646319,0.004558557,-0.015444208,-0.05746084,0.47884035,-9.691729,0.8023209,47.703007,-0.5665642,-2.077116,-3.4163692,-0.36545828,0.093851484,-0.21025999,25.5625,26.25,25.4375,28.1875,28.875,29.1875
0.058054086,-0.694503,-1.3993931,-0.32174656,-0.050911613,0.022864163,-0.13316566,-0.3817492,-0.34859654,0.059870146,-3.0785482,0.6251547,-0.0004177379,-0.028751064,-0.0042981077,0.0023910946,-0.00903063,0.0072255344,-0.0061404645,0.47717863,-1.4245412,1.9563426,-2.1007845,-1.5706004,2.4523025,-0.021935413,0.044544574,-0.05663045,0.0015031657,0.004579603,-0.015767986,-0.038307227,0.47884035,-9.595961,0.8179876,47.698532,-0.56421465,-2.0736415,-3.3258104,-0.36372316,0.10713351,-0.22932336,25.5625,26.25,25.4375,28.1875,28.875,29.1875
0.060053896,-0.6673291,-1.5498829,-0.14561693,-0.03829819,0.020249402,-0.1317118,-0.38182616,-0.3486096,0.059887696,-3.0786033,0.62510824,-0.0003322925,-0.028710205,-0.0040041497,0.0007677735,-0.008400295,0.0040067546,-0.0063216174,0.47713035,-1.4244562,1.956211,-2.1008084,-1.5705999,2.4522183,-0.023012923,0.047775604,-0.056579836,0.0013671798,0.0054990123,-0.016665114,-0.038307227,0.51714754,-9.557653,0.71951014,47.719128,-0.50521463,-2.257806,-3.3013027,-0.35023665,0.08640161,-0.22820497,25.5625,26.25,25.4375,28.1875,28.875,29.1875
0.062053643,0.18304354,-0.626421,-0.050039496,-0.043239504,0.03426744,-0.15087242,-0.3818735,-0.34862047,0.059882037,-3.0786169,0.62518793,-0.00036810653,-0.029823324,-0.004729273,0.0019369848,-0.010934844,0.0058061304,-0.0064358492,0.47708207,-1.4243605,1.9561146,-2.1008084,-1.5705632,2.452218,-0.023670517,0.047362607,-0.05874089,0.0011746724,0.0069194282,-0.017209897,0.05746084,0.4405331,-9.5385,0.7597976,47.701214,-0.55558634,-2.0957575,-3.4617925,-0.3461975,0.09804814,-0.22847584,25.5625,26.25,25.4375,28.1875,28.875,29.1875
0.06405348,-0.050681155,-0.66395336,0.167836,-0.030801564,0.024541771,-0.14776449,-0.38193905,-0.34863436,0.059876528,-3.0786068,0.62520415,-0.00038143207,-0.03126064,-0.005330728,0.0025309292,-0.011521888,0.007357805,-0.0058089066,0.47704607,-1.4242163,1.9559573,-2.1007845,-1.5705632,2.4521935,-0.02379763,0.048998766,-0.061956547,0.0011071869,0.0067213583,-0.01796181,0.0,0.47884035,-9.423578,0.78217715,47.707485,-0.60705096,-2.0855858,-3.358869,-0.3305117,0.06507729,-0.23735306,25.5625,26.25,25.4375,28.1875,28.875,29.1875
0.06605367,-0.33979884,0.059498265,0.12886666,-0.031615235,0.009335293,-0.13547158,-0.3820073,-0.34865633,0.059896663,-3.0786588,0.6252141,-0.00027904526,-0.03339332,-0.0062245685,0.0032551626,-0.012360756,0.009281813,-0.0048363125,0.47702202,-1.4241434,1.9558362,-2.1008203,-1.5705632,2.4521692,-0.02408167,0.05180941,-0.06680997,0.0010563281,0.0065741763,-0.019214751,0.019153614,0.49799395,-9.289502,0.78888994,47.689575,-0.638317,-2.1139467,-3.1328676,-0.31543657,0.09155917,-0.24706511,25.5625,26.25,25.4375,28.1875,28.875,29.1875
0.06805385,-0.31820762,-0.25475067,0.26011992,-0.021936832,0.013287596,-0.13864103,-0.38204724,-0.34864518,0.05986615,-3.0786278,0.6252651,-0.00037849677,-0.032575212,-0.005503541,0.0014421899,-0.010758488,0.005858153,-0.0047215326,0.47694978,-1.4240228,1.9557656,-2.1008084,-1.5705394,2.4521327,-0.024700467,0.053841382,-0.06497271,0.0009646818,0.0067257932,-0.019949595,-0.05746084,0.38307226,-9.289502,0.82022345,47.70211,-0.5817165,-2.1650522,-3.3072705,-0.312944,0.0917777,-0.25626332,25.5625,26.25,25.4375,28.1875,28.875,29.1875
0.07005398,-0.37842077,-0.2789169,0.58788973,-0.022425069,0.02094045,-0.1378822,-0.38214907,-0.34868005,0.059912063,-3.0787106,0.6253013,-0.0002696572,-0.03449127,-0.00671878,0.0028382249,-0.013253509,0.00822862,-0.004401729,0.4769016,-1.4239266,1.9555482,-2.1007965,-1.5705146,2.4520967,-0.025032166,0.05500362,-0.069522865,0.0010981332,0.0078473985,-0.02059975,-0.076614454,0.30645782,-9.232041,0.7083204,47.67614,-0.640695,-2.0897248,-3.2261639,-0.30138424,0.076040745,-0.262086,25.5625,26.25,25.4375,28.1875,28.875,29.1875
0.07205391,-0.4799645,0.12080586,0.48892048,-0.024030427,0.020453345,-0.1398847,-0.38223496,-0.3487131,0.05993779,3.0786786,-0.6253328,0.00019211162,-0.034687467,-0.0067737643,0.002537242,-0.012900655,0.006688015,-0.0033225017,0.47686544,-1.4238183,1.9553684,-2.100808,-1.5704907,2.4520843,-0.025366789,0.05661982,-0.07100179,0.0024910588,0.008243164,-0.022012848,-0.076614454,0.24899697,-9.212888,0.8090337,47.684196,-0.6686908,-2.0916314,-3.1802535,-0.3098837,0.07433111,-0.26864567,25.5625,26.25,25.4375,28.1875,28.875,29.1875
0.07405377,-0.55825967,-0.05896922,0.40698445,-0.009078651,0.023684,-0.13770029,-0.38228345,-0.3487113,0.059939116,3.0786908,-0.62531495,0.00020861575,-0.035403963,-0.0069749937,0.002544354,-0.012417089,0.006366077,-0.0019309722,0.4768175,-1.423734,1.9552606,-2.1007712,-1.5704907,2.4520237,-0.025482494,0.058466617,-0.073364496,0.0035165402,0.007958717,-0.02351849,-0.15322891,0.28730422,-9.097966,0.7665104,47.679718,-0.6641338,-2.0778127,-3.1120908,-0.3120627,0.06344597,-0.27328423,25.5625,26.25,25.4375,28.1875,28.875,29.1875
0.07605358,-0.57185215,0.8054923,0.7035508,-0.021880189,0.024703803,-0.14015804,-0.38236606,-0.3487334,0.059946097,3.0786219,-0.6253204,0.00016963726,-0.036086418,-0.0072303456,0.002306501,-0.012927325,0.0056439135,-0.0015817366,0.47675717,-1.4236133,1.9551152,-2.1008074,-1.570455,2.4519756,-0.02616019,0.060393296,-0.0750688,0.0037002887,0.008742309,-0.024544995,-0.17238252,0.22984336,-9.097966,0.7978386,47.690468,-0.75217825,-2.1502995,-3.17104,-0.30812496,0.06913237,-0.27162424,25.5625,26.25,25.4375,28.1875,28.875,29.1875
0.07805358,-0.3616461,0.58214325,0.55780166,-0.007495141,0.032759212,-0.14091168,-0.38241684,-0.348746,0.05993984,3.0786097,-0.6253172,0.00023655247,-0.03728828,-0.007583622,0.0026419198,-0.013328518,0.0067672026,-0.0009881437,0.47670916,-1.4234931,1.9549841,-2.1007712,-1.5704187,2.4519272,-0.026529923,0.06185512,-0.07745234,0.0034419543,0.00857747,-0.025506835,-0.11492168,0.095768064,-9.136273,0.7418897,47.687782,-0.74526334,-2.134047,-3.1197052,-0.30422103,0.069253765,-0.27415058,25.5625,26.25,25.4375,28.1875,28.875,29.1875
0.080054216,-0.80260015,0.03105237,0.4839464,0.008710654,0.026124036,-0.13517009,-0.3825296,-0.3487688,0.05997013,3.0785716,-0.6252885,9.364198e-05,-0.038566846,-0.008057278,0.0033714767,-0.014192087,0.008482794,-0.00027040477,0.47666103,-1.4233612,1.9547671,-2.100784,-1.5704426,2.4518661,-0.026845068,0.06266869,-0.08001543,0.0032709653,0.008554857,-0.026537424,-0.19153613,0.19153613,-9.155427,0.70608455,47.704796,-0.82656527,-1.9927917,-3.1376204,-0.27126998,0.06000339,-0.29530546,25.5625,26.25,25.4375,28.1875,28.875,29.1875
0.08205371,-0.8992235,0.3564212,0.6926881,0.00074791076,0.025632363,-0.1331393,-0.3825576,-0.34877864,0.059938718,3.0785954,-0.62527406,0.00019402875,-0.038853306,-0.00816722,0.001418425,-0.012202131,0.0050671874,0.00092177966,0.47663707,-1.4232271,1.9546827,-2.1007712,-1.5704187,2.4518301,-0.02678132,0.06815751,-0.08191403,0.0036304402,0.00834915,-0.027664363,-0.1340753,0.11492168,-9.193734,0.75755644,47.690468,-0.8417656,-2.2358742,-3.0076962,-0.27481735,0.07515806,-0.28722325,25.5625,26.25,25.4375,28.1875,28.875,29.1875
0.08405373,-0.9946721,0.057508502,0.36897317,-3.440689e-05,0.028853036,-0.13257872,-0.38264558,-0.3487971,0.059943113,3.0785556,-0.62528443,0.0002143626,-0.039689526,-0.008468709,0.0034588014,-0.014227093,0.0077269063,0.0011995322,0.47656488,-1.4230721,1.9544901,-2.1007469,-1.570382,2.4517696,-0.027381225,0.06537026,-0.08368966,0.004900771,0.008928591,-0.028542588,-0.21068975,0.17238252,-9.155427,0.7418897,47.701214,-0.83680886,-2.0489726,-3.024242,-0.27711612,0.061953954,-0.29279655,25.5625,26.25,25.4375,28.1875,28.875,29.1875
0.08605338,-1.2197285,-0.48433253,0.31803125,-0.0012842842,0.019092264,-0.12347533,-0.38275677,-0.34880295,0.05996937,3.0785034,-0.625293,8.7976216e-05,-0.039550364,-0.00859881,0.0024121127,-0.013437491,0.0045373007,0.0022642345,0.47648078,-1.4229629,1.9543108,-2.1007702,-1.5703944,2.4516976,-0.027509326,0.068398595,-0.085129835,0.0065069855,0.0096943835,-0.029734736,-0.22984336,0.17238252,-9.212888,0.75084364,47.678825,-0.8343669,-2.021927,-3.0322495,-0.29182032,0.048165444,-0.298792,25.5625,26.25,25.4375,28.1875,28.875,29.1875
0.0880534,-1.1913055,-0.23975314,0.21502198,-0.015388941,0.024443772,-0.13359001,-0.38280517,-0.3488187,0.05993996,3.0784934,-0.62534803,0.00021144786,-0.039742917,-0.0082644345,0.0009784868,-0.01130626,0.0019573832,0.0021721134,0.47643277,-1.4227934,1.9541787,-2.100746,-1.5703462,2.4516852,-0.027814139,0.072087266,-0.08623981,0.0072028665,0.00898153,-0.02994603,-0.2681506,0.2681506,-9.289502,0.8537928,47.689575,-0.9116487,-2.146883,-3.061656,-0.30324548,0.051802903,-0.32643443,25.5625,26.25,25.4375,28.1875,28.875,29.1875
0.09005406,-1.3945174,0.025911193,0.3041644,-0.0231295,0.020693267,-0.1396761,-0.38288432,-0.34883732,0.059962552,3.078508,-0.62521565,0.00012778316,-0.041155268,-0.008544863,0.0020065391,-0.012335392,0.0045620524,0.0024596404,0.4764086,-1.4226855,1.9539984,-2.1007226,-1.5703706,2.4515767,-0.028427018,0.07199104,-0.088353716,0.0066271587,0.008697413,-0.03084447,-0.28730422,0.28730422,-9.32781,0.7239871,47.684196,-0.93313,-2.165568,-3.115958,-0.29580316,0.052868403,-0.33703193,25.5625,26.25,25.4375,28.1875,28.875,29.1875
0.09205376,-0.9105896,-0.1886827,0.23094852,-0.024992242,0.039150316,-0.13269866,-0.3829624,-0.34886175,0.059955213,3.0784605,-0.6252642,0.00017840268,-0.04121703,-0.008539744,0.0010110737,-0.011727202,0.0024313277,0.0021690123,0.4763484,-1.4225162,1.9538192,-2.1007106,-1.5703219,2.4515529,-0.028768336,0.07454504,-0.08909137,0.00698368,0.009133701,-0.030895106,-0.24899697,0.28730422,-9.3661175,0.8851263,47.69763,-0.9405774,-2.1429205,-3.2208757,-0.29307997,0.05936519,-0.33325395,25.5625,26.25,25.4375,28.1875,28.875,29.1875
0.09405377,-0.95882183,-0.7005458,0.16467834,-0.017076422,0.032422043,-0.12921625,-0.38307774,-0.34886742,0.059955418,3.078435,-0.6252777,0.00013577528,-0.042251024,-0.008730517,0.0008249583,-0.011653061,0.0018453281,0.0024557414,0.4762522,-1.4223354,1.9536146,-2.100722,-1.5703219,2.4514685,-0.02950018,0.07709068,-0.09173799,0.0076399096,0.009334199,-0.031912066,-0.15322891,0.17238252,-9.346964,0.6702794,47.683304,-0.96013147,-2.1442578,-3.091414,-0.30542642,0.06666609,-0.35499132,25.5625,26.25,25.4375,28.1875,28.875,29.1875
0.09605413,-0.5597022,-0.37447473,0.22917104,-0.020622587,0.030248387,-0.13333113,-0.38315642,-0.34890333,0.059969038,3.0784109,-0.6251955,0.00011874735,-0.041670345,-0.007766498,-0.0009789154,-0.009376998,-0.0017997106,0.002802164,0.47622788,-1.4221905,1.9534124,-2.1006982,-1.5702981,2.451396,-0.030445047,0.07952201,-0.09056222,0.008318343,0.008987904,-0.033202942,-0.17238252,0.28730422,-9.289502,0.83813137,47.689575,-0.9897775,-2.1637921,-3.3488984,-0.29557157,0.062870674,-0.35607946,25.5625,26.25,25.4375,28.1875,28.875,29.1875
0.09805421,-0.96026796,-0.57664937,-0.011027657,-0.009895975,0.010823546,-0.13788496,-0.3832349,-0.34890145,0.059953142,3.0784578,-0.62520534,0.00015329316,-0.044129867,-0.008939437,0.0006589437,-0.011513387,0.0018016283,0.0034032448,0.4761677,-1.4220097,1.9532312,-2.1006505,-1.5703219,2.4513361,-0.030772846,0.08084402,-0.09575855,0.008011843,0.009222655,-0.034129746,-0.11492168,0.22984336,-9.3661175,0.86498255,47.704796,-1.0170538,-2.2462783,-3.225315,-0.2899289,0.055143785,-0.34564525,25.5625,26.25,25.4375,28.1875,28.875,29.1875
0.1000534,-0.26817113,-0.09081015,0.10312726,-0.02255739,0.0209592,-0.13789326,-0.38334343,-0.34890357,0.059990115,3.0784068,-0.6252335,6.711175e-05,-0.04357032,-0.008385234,-0.00038619686,-0.0108894035,0.00034670046,0.0019531387,0.47607157,-1.4219135,1.9530286,-2.1006148,-1.5703219,2.4512641,-0.031303003,0.081307106,-0.09369105,0.0070605963,0.009340001,-0.033210088,-0.076614454,0.21068975,-9.404425,0.70608455,47.677036,-1.0206192,-2.1289465,-3.4069943,-0.29847243,0.06167316,-0.3752755,25.5625,26.25,25.4375,28.1875,28.875,29.1875
0.1020535,-0.1362784,0.06394365,0.11104771,-0.025426202,0.018757403,-0.13838518,-0.3834348,-0.3489409,0.059980318,3.0783205,-0.6252541,0.00012140569,-0.0450818,-0.008824247,4.389062e-05,-0.011855766,0.0009974518,0.0013705798,0.47599933,-1.4217206,1.9528359,-2.1006386,-1.570238,2.4512157,-0.032263733,0.08325279,-0.096988074,0.007392312,0.009895637,-0.033586897,-0.076614454,0.2681506,-9.481039,0.80456203,47.687782,-1.0664775,-2.1748757,-3.3246455,-0.28968272,0.072086826,-0.39527595,25.5625,26.25,25.4375,28.1875,28.875,29.1875
0.104053475,-0.14162375,-0.27747744,0.08295026,-0.022428894,0.014974487,-0.13107106,-0.38351807,-0.34893915,0.059964832,3.0783525,-0.62525904,0.00015571689,-0.044980094,-0.009022588,-0.00036419163,-0.012099551,-0.00022744351,0.0035559854,0.47592726,-1.4215403,1.9526566,-2.1006024,-1.5702499,2.4511428,-0.032312248,0.084328435,-0.097363785,0.007667761,0.010672914,-0.035821933,0.0,0.2681506,-9.423578,0.8224646,47.661808,-1.0582488,-2.1076448,-3.4515238,-0.29590586,0.050801717,-0.3969705,25.5625,26.25,25.4375,28.1875,28.875,29.1875
0.1060543,-0.25872785,-0.10356625,0.097292036,-0.025381945,0.01198527,-0.13216697,-0.3836117,-0.34895775,0.059952322,3.0783203,-0.62523276,0.0002042279,-0.04568125,-0.009138231,-0.00036276845,-0.011761041,0.000117457486,0.004835569,0.47584316,-1.4213476,1.9524649,-2.1006024,-1.5702022,2.4510465,-0.032441214,0.0856755,-0.098942645,0.0077529247,0.010211433,-0.037228946,-0.095768064,0.24899697,-9.385271,0.7978386,47.68599,-1.0696203,-2.108364,-3.4107661,-0.2967905,0.05495192,-0.40529203,25.5625,26.25,25.4375,28.1875,28.875,29.1875
0.10805321,-0.6166614,-0.4613993,-0.16664653,-0.011497506,0.0022019974,-0.12289238,-0.3836897,-0.34897342,0.059948325,3.0783477,-0.62517977,0.00020844405,-0.046994053,-0.009021191,-0.00017061408,-0.012252205,0.0005950157,0.0057311887,0.47580662,-1.4211788,1.9522728,-2.1005666,-1.5702137,2.4509735,-0.03398533,0.08702772,-0.10094184,0.0077505535,0.010425072,-0.03966792,-0.05746084,0.2681506,-9.404425,0.79560274,47.67614,-1.1231117,-2.078362,-3.575134,-0.2952679,0.031476222,-0.39271748,25.5625,26.25,25.4375,28.1875,28.875,29.1875
0.11005412,-0.062811606,0.40847248,0.043451443,-0.028092384,0.01814141,-0.13897091,-0.38380516,-0.34901682,0.059982155,3.0782416,-0.6251769,0.00012460038,-0.047536053,-0.008839261,-0.0003919287,-0.011939004,-8.6376145e-05,0.0062684864,0.47574645,-1.4210343,1.9520329,-2.1005785,-1.570166,2.450925,-0.034816965,0.088373,-0.10211955,0.008335182,0.010462499,-0.041035123,-0.019153614,0.2681506,-9.423578,0.69937176,47.68599,-1.1137055,-2.0324802,-3.3812366,-0.2882746,0.055170696,-0.38966495,25.5625,26.25,25.4375,28.1875,28.875,29.1875
0.112053245,-0.65812266,0.052557696,-0.002131268,-0.019103767,0.005136101,-0.12679303,-0.3839314,-0.3490303,0.059988733,3.0782394,-0.62512004,6.990137e-05,-0.048299972,-0.008542081,-0.0009483558,-0.0113731,-0.0009389515,0.0044166883,0.47566205,-1.4208294,1.9517807,-2.1005666,-1.5701779,2.4508057,-0.03595704,0.09052603,-0.10335222,0.008432424,0.010349089,-0.040322002,-0.038307227,0.24899697,-9.32781,0.82694155,47.682407,-1.1252983,-2.0495033,-3.6645932,-0.29511106,0.06921436,-0.39849794,25.5625,26.25,25.4375,28.1875,28.875,29.1875
0.11405371,-0.53178275,-0.33923352,0.0808069,-0.013818985,0.013758935,-0.1275278,-0.38400486,-0.34904805,0.059979837,3.0782344,-0.6250776,0.00013526947,-0.049567677,-0.010074743,0.00062332756,-0.0133889485,0.0019534922,0.0077732815,0.4756025,-1.420661,1.9516,-2.1005304,-1.5701417,2.4507203,-0.034694023,0.09084473,-0.10736587,0.00863434,0.010808496,-0.04241442,-0.019153614,0.22984336,-9.423578,0.7866488,47.68062,-1.271914,-2.1573632,-3.4379191,-0.3124109,0.057934918,-0.39773136,25.5625,26.25,25.4375,28.1875,28.875,29.1875
0.11605334,-0.2734191,0.005806693,0.027644375,-0.022893686,0.020598352,-0.13246085,-0.38411984,-0.34906867,0.05997991,3.0781875,-0.6250677,0.00010330724,-0.050997816,-0.009867236,0.0010020644,-0.01441549,0.0023367216,0.00855719,0.4755177,-1.4204686,1.9513849,-2.1005538,-1.5701174,2.4506354,-0.036834802,0.0918279,-0.10943495,0.00891033,0.011545408,-0.045338377,0.0,0.22984336,-9.404425,0.800085,47.67614,-1.2006043,-1.9435585,-3.4908314,-0.2934354,0.034636565,-0.36452866,25.5625,26.25,25.4375,28.1875,28.875,29.1875
0.118053414,-0.5877848,0.15054573,-0.18473089,-0.02596458,0.013742674,-0.13150014,-0.38421595,-0.3490642,0.059961807,3.0782132,-0.6250913,0.00016287569,-0.05204856,-0.010008487,0.00047409727,-0.01390718,0.001378724,0.009639429,0.47542152,-1.4202633,1.9511803,-2.100506,-1.5701174,2.4505508,-0.03752346,0.09511187,-0.11211857,0.009396485,0.011526389,-0.0471081,-0.076614454,0.21068975,-9.5385,0.85155696,47.703007,-1.174716,-1.9809265,-3.4550931,-0.30149597,0.03937477,-0.36102912,25.5625,26.25,25.4375,28.1875,28.875,29.1875
0.120054,-0.5142815,-0.23808962,-0.16405946,-0.021641642,0.021096464,-0.13558675,-0.38431272,-0.3490935,0.059979808,3.0781858,-0.6249696,0.00015477509,-0.053251874,-0.009884899,0.0017646229,-0.015218819,0.0035343305,0.010193631,0.47536108,-1.4201076,1.9509529,-2.1004703,-1.5700811,2.450418,-0.03894747,0.09378934,-0.11363851,0.009724892,0.011706286,-0.049085665,-0.15322891,0.2681506,-9.481039,0.7016076,47.684196,-1.1778828,-1.8533503,-3.5305777,-0.30660734,0.017669033,-0.33602774,25.5625,26.25,25.4375,28.1875,28.875,29.1875
0.1220539,-0.81488776,-0.56104535,-0.35120937,-0.019093296,0.035049003,-0.12694184,-0.38440126,-0.3491118,0.059960313,3.0782306,-0.62490094,0.00021396363,-0.054891057,-0.009554062,0.001635006,-0.014587253,0.00408355,0.010615299,0.47531247,-1.4198785,1.950724,-2.1004221,-1.5700816,2.450321,-0.040495377,0.09623184,-0.11612736,0.009576512,0.01088628,-0.05105322,-0.15322891,0.30645782,-9.500193,0.800085,47.64837,-1.0873011,-1.8445048,-3.433871,-0.32082427,0.051798016,-0.31508875,25.5625,26.25,25.4375,28.1875,28.875,29.1875
0.124054044,-1.2723496,-0.90809405,-0.4092822,-0.019769808,0.043701112,-0.1293301,-0.38449225,-0.34916276,0.059965096,3.078149,-0.6248256,0.00023988305,-0.055093892,-0.010392628,0.001401817,-0.0147490725,0.0038607188,0.013625771,0.47526494,-1.4196978,1.950509,-2.1004345,-1.5699977,2.4502368,-0.03934465,0.09817088,-0.11780011,0.009439402,0.011131609,-0.052911628,-0.28730422,0.30645782,-9.615114,0.7978386,47.661808,-1.2215992,-1.8131922,-3.52274,-0.30230778,0.05322565,-0.28323096,25.5625,26.25,25.4375,28.1875,28.875,29.1875
0.12605369,-1.4942847,-0.31618965,-0.3276375,-0.036178455,0.04959033,-0.12869681,-0.38462865,-0.34917662,0.05999505,3.0781143,-0.6247972,0.00019281995,-0.05649938,-0.010579634,0.0021704372,-0.0150957275,0.005377439,0.014969785,0.4751567,-1.4195172,1.95022,-2.1003745,-1.5699857,2.4501154,-0.04003157,0.09902613,-0.12066601,0.009947328,0.010745332,-0.054940186,-0.24899697,0.28730422,-9.710882,0.83589023,47.691364,-1.2598107,-1.8293993,-3.4564812,-0.3165038,0.023552163,-0.25141096,25.5625,26.25,25.4375,28.1875,28.875,29.1875
0.12805344,-1.5393423,-0.75530654,-0.34554416,-0.025848059,0.04961751,-0.1297555,-0.38472787,-0.34917778,0.05998152,3.078132,-0.62478167,0.0002516236,-0.05774181,-0.010086989,0.0015736121,-0.014390775,0.00427965,0.015148841,0.47506008,-1.4193121,1.9500049,-2.1003263,-1.5699738,2.450007,-0.041942507,0.10190163,-0.122729704,0.010437721,0.010616901,-0.05702911,-0.21068975,0.22984336,-9.653421,0.8157518,47.677036,-1.2144675,-1.8293145,-3.442833,-0.32163483,0.051939063,-0.22026399,25.5625,26.25,25.4375,28.1875,28.875,29.1875
0.13005379,-2.0015907,-0.5214404,-0.35837162,-0.022075351,0.031413175,-0.12432471,-0.38485536,-0.34920704,0.059996024,3.0780706,-0.6247311,0.00014536687,-0.059981447,-0.010246239,0.0021320237,-0.015844194,0.0058532627,0.01461055,0.47498736,-1.4191313,1.9497756,-2.1003745,-1.5699619,2.4499106,-0.04406222,0.10387294,-0.12613665,0.009809694,0.01118787,-0.058608055,-0.2873042,0.2873042,-9.653421,0.76874626,47.683304,-1.1108556,-1.8537912,-3.3567362,-0.33528838,0.03570423,-0.1826521,25.5625,26.25,25.4375,28.1875,28.875,29.1875
0.13205397,-1.6981297,-0.64857095,-0.35662177,-0.016229013,0.03373293,-0.12764713,-0.3849682,-0.3492473,0.06000159,3.0780563,-0.6245928,0.00012607443,-0.061744493,-0.011440596,0.0024145753,-0.017073316,0.0074470323,0.0148687195,0.4749394,-1.4189137,1.9495109,-2.100363,-1.5699376,2.4497783,-0.04377973,0.10705735,-0.13020197,0.008711851,0.011543503,-0.058581054,-0.49799395,0.30645782,-9.634268,0.8627467,47.70032,-1.2171997,-1.9996439,-3.371087,-0.31991035,0.020510143,-0.16058336,25.5625,26.25,25.4375,28.1875,28.875,29.1875
0.13405402,-1.4050858,-0.4488246,-0.480131,-0.0103343325,0.038925223,-0.13342455,-0.38509566,-0.3492651,0.06001424,3.0780225,-0.6245492,0.00013510518,-0.06253495,-0.010891407,0.0015162476,-0.015718574,0.006656202,0.012152461,0.47483107,-1.4187088,1.9492363,-2.1003149,-1.5699018,2.4496472,-0.044907935,0.10962858,-0.13102299,0.008289689,0.010699515,-0.056991067,-0.47884035,0.24899697,-9.615114,0.7978386,47.682407,-1.2366657,-1.8906546,-3.2934904,-0.30309606,0.04658949,-0.14708014,25.5625,26.25,25.4375,28.1875,28.875,29.1875
0.13605349,-1.4326429,-0.06626027,-0.38128284,-0.016044164,0.0489211,-0.13595761,-0.38523665,-0.34929693,0.060034428,3.077958,-0.6245349,9.838113e-05,-0.064528614,-0.011648868,0.0022245548,-0.016838811,0.008511869,0.012650133,0.4747349,-1.4184917,1.9489359,-2.100291,-1.5698656,2.4495504,-0.04546272,0.11192995,-0.13524507,0.008051281,0.010843157,-0.058040608,-0.5363012,0.19153613,-9.634268,0.8247004,47.682407,-1.199468,-2.1678784,-3.1491194,-0.29848018,0.039635874,-0.13518475,25.5625,26.25,25.4375,28.1875,28.875,29.1875
0.1380534,-1.5163902,-0.3003474,-0.09741579,-0.014525331,0.057461455,-0.12501138,-0.3853574,-0.34932277,0.060026836,3.0779424,-0.6244566,6.851147e-05,-0.065213725,-0.011166487,0.001678746,-0.015956968,0.0073122974,0.010356407,0.4746624,-1.4182628,1.948696,-2.1003144,-1.5698537,2.4494312,-0.046772085,0.11393985,-0.13648929,0.008757219,0.010608527,-0.057054926,-0.4213795,0.30645782,-9.442732,0.82694155,47.695843,-1.2324526,-2.0105143,-3.1855845,-0.2902665,0.03872599,-0.1284907,25.5625,26.25,25.4375,28.1875,28.875,29.1875
0.1400542,-1.9544871,-0.56947887,-0.1694683,-0.012878017,0.04667665,-0.123704046,-0.38551494,-0.3493406,0.06005428,3.0778735,-0.62448335,-2.2109452e-05,-0.0665151,-0.011172593,0.0017941345,-0.016189722,0.0075922417,0.0058937073,0.47454214,-1.4180582,1.9483961,-2.100303,-1.5698417,2.4493365,-0.04797435,0.11576456,-0.1389237,0.009010757,0.01068732,-0.053792294,-0.51714754,0.2681506,-9.461885,0.7933669,47.694946,-1.2648374,-1.9606028,-3.265926,-0.30820346,0.051161923,-0.14567015,25.5625,26.25,25.4375,28.1875,28.875,29.1875
0.14205402,-1.9642915,-0.8091467,0.12318363,-0.015420044,0.05215031,-0.13268593,-0.38566864,-0.349383,0.060076997,3.0777824,-0.624445,-9.0673864e-05,-0.067382716,-0.011384776,0.001996185,-0.016455973,0.008520121,0.004698805,0.47444588,-1.4178295,1.9480847,-2.1003149,-1.569794,2.449228,-0.04824654,0.11676989,-0.14046933,0.008607587,0.010501743,-0.052867513,-0.49799395,0.3256114,-9.442732,0.8023209,47.690468,-1.2265193,-1.7449445,-3.2944078,-0.31438676,0.050184954,-0.14800487,25.5625,26.25,25.4375,28.1875,28.875,29.1875
0.14405413,-1.9313705,-0.777225,0.3430015,-0.031390082,0.052905258,-0.13371138,-0.38577366,-0.34938937,0.060070075,3.0778177,-0.6243955,-4.2655225e-05,-0.06756892,-0.010297218,0.00029147553,-0.013929891,0.005524711,0.0032671473,0.47436145,-1.4176123,1.9478348,-2.1002429,-1.5697945,2.4491084,-0.049753916,0.11999511,-0.14043273,0.009168442,0.00962339,-0.052942634,-0.45968673,0.34476504,-9.385271,0.8179876,47.67614,-1.23176,-1.8453152,-3.2736988,-0.29513916,0.044607602,-0.15717809,25.5625,26.25,25.4375,28.1875,28.875,29.1875
0.1460537,-1.7631297,-0.7909784,0.20884642,-0.026090335,0.04363071,-0.12622789,-0.38594288,-0.34943205,0.060105916,3.077774,-0.6243104,-0.0001855616,-0.06918423,-0.011026486,0.00052692054,-0.01525469,0.0060280166,0.0008262404,0.47428933,-1.4173709,1.9474734,-2.100231,-1.5698055,2.448989,-0.050525706,0.122715995,-0.1440903,0.009047679,0.010569109,-0.05127094,-0.45968673,0.34476504,-9.308657,0.82022345,47.67614,-1.2065752,-1.9291797,-3.1576684,-0.29594517,0.059954576,-0.15411724,25.5625,26.25,25.4375,28.1875,28.875,29.1875
0.14805436,-0.9654579,-0.27125552,0.43832096,-0.024719112,0.043610506,-0.12584554,-0.38606635,-0.3494231,0.060077526,3.0778012,-0.6243381,-0.00015303204,-0.07003066,-0.010464452,-2.5478246e-05,-0.014629706,0.0057774615,-0.003955942,0.47416875,-1.4171182,1.9472455,-2.1002195,-1.5698179,2.4488823,-0.05197744,0.12436608,-0.14461344,0.008428664,0.010121973,-0.04794,-0.47884035,0.38307226,-9.251195,0.78888994,47.677036,-1.2214575,-1.9620081,-3.3042126,-0.2822562,0.0606092,-0.19449832,25.5625,26.25,25.4375,28.1875,28.875,29.1875
0.15005335,-0.71552145,-0.11830645,0.5705665,-0.013292355,0.03987272,-0.13287048,-0.38624215,-0.34944347,0.060099367,3.0777225,-0.6243788,-0.00025677498,-0.07097889,-0.010594452,0.00030093352,-0.014817584,0.0069093094,-0.0043059625,0.4740366,-1.416878,1.9469227,-2.1002314,-1.569806,2.4487858,-0.05235577,0.12517223,-0.1462521,0.008171624,0.00977443,-0.047966246,-0.4213795,0.30645782,-9.11712,0.75084364,47.70211,-1.2426295,-1.7266302,-3.378596,-0.27281803,0.089584485,-0.22241443,25.5625,26.25,25.4375,28.1875,28.875,29.1875
0.15205337,-0.8420312,-0.017481532,0.7614146,0.0039281463,0.02384856,-0.12809236,-0.3863817,-0.34947586,0.06009795,3.0776472,-0.6244036,-0.0002387589,-0.0729559,-0.010090974,0.00037115527,-0.01589973,0.007202075,-0.007529864,0.47392753,-1.4166248,1.9466351,-2.1002314,-1.5697454,2.4487019,-0.055550326,0.12703893,-0.14849979,0.007799224,0.0106009785,-0.04793566,-0.22984336,0.26815057,-9.040505,0.82694155,47.69763,-1.0872116,-2.0002906,-3.4405737,-0.26858932,0.083644256,-0.21348676,25.5625,26.25,25.4375,28.1875,28.875,29.1875
0.15405442,-0.30590224,0.8599997,0.8381045,-0.0019117576,0.020746691,-0.14559592,-0.38655487,-0.34948808,0.060107827,3.077573,-0.6245034,-0.00031209405,-0.072956964,-0.010876749,-0.0008583704,-0.015594831,0.005102856,-0.0069407285,0.47378388,-1.4163712,1.9463242,-2.1002433,-1.569734,2.44863,-0.054574896,0.13084336,-0.15003355,0.0075349384,0.011288418,-0.04754766,-0.15322891,0.076614454,-8.983045,0.78217715,47.677036,-1.1008531,-1.7868037,-3.3978405,-0.24270561,0.057412714,-0.24874952,25.5625,26.25,25.4375,28.1875,28.875,29.1875
0.15605438,-0.24401428,1.0107441,1.0152601,0.004081663,0.018412435,-0.13825239,-0.38671112,-0.34951872,0.060121145,3.0775187,-0.62445384,-0.00040338642,-0.074127026,-0.010954174,0.00049155956,-0.017157873,0.0076776035,-0.007786441,0.47368753,-1.4161317,1.9460243,-2.1002676,-1.5697216,2.44851,-0.055613793,0.12941538,-0.15146883,0.0073950407,0.011506744,-0.047739565,-0.19153613,0.076614454,-8.772355,0.8672237,47.690468,-1.1482944,-1.7785671,-3.4213555,-0.21945187,0.07487406,-0.27654168,25.5625,26.25,25.4375,28.1875,28.875,29.1875
0.15805465,-0.103647746,0.7099973,1.0295383,0.022588056,0.01327698,-0.1377529,-0.38685384,-0.3495287,0.060120277,3.0774984,-0.6245075,-0.00038915686,-0.075174145,-0.010895631,-7.2539864e-05,-0.017167585,0.00616907,-0.008951796,0.4735672,-1.415878,1.9457239,-2.1002195,-1.5697092,2.4484258,-0.05708887,0.13244942,-0.15385662,0.008086653,0.012201819,-0.04804816,-0.019153614,0.05746084,-8.868123,0.83813137,47.672558,-1.1348507,-1.8743386,-3.327676,-0.23577467,0.08227947,-0.2848207,25.5625,26.25,25.4375,28.1875,28.875,29.1875
0.160054,-0.21287492,0.6502762,0.74354994,0.02509749,0.0005355003,-0.1309312,-0.38701305,-0.34956008,0.06012662,3.0774565,-0.6245195,-0.0004340373,-0.07685824,-0.009939778,-0.00037869767,-0.016993003,0.0055273385,-0.011610889,0.47346994,-1.4156014,1.9453887,-2.1002076,-1.5696973,2.4483416,-0.060365062,0.13456795,-0.15571699,0.00848111,0.012340131,-0.04866367,0.019153614,0.11492168,-8.887277,0.7486078,47.694946,-0.9646598,-1.8313918,-3.4155326,-0.21707094,0.10085632,-0.30357632,25.5625,26.25,25.4375,28.1875,28.875,29.1875
0.1620543,-0.16530049,0.48426995,0.8046884,0.011112849,-0.0012743956,-0.13527472,-0.387152,-0.34958434,0.060116205,3.0774329,-0.62449396,-0.0003956439,-0.077240214,-0.011202375,8.815565e-05,-0.017756032,0.005833935,-0.009513772,0.47336262,-1.4153247,1.9450887,-2.1001828,-1.5696605,2.4482214,-0.05880298,0.13606104,-0.15874092,0.009392936,0.012876903,-0.04919748,-0.095768064,0.15322891,-8.925584,0.7642693,47.691364,-1.0317036,-1.8314195,-3.2457173,-0.21943468,0.08933441,-0.33134878,25.5625,26.25,25.4375,28.1875,28.875,29.1875
0.16405377,0.0655366,0.2436435,0.75650245,0.0018021532,0.01448128,-0.14122733,-0.3873103,-0.3496016,0.060132995,3.0773954,-0.62448645,-0.00044090828,-0.07955898,-0.0108801825,0.001112619,-0.017881129,0.0081079,-0.010829949,0.47324172,-1.4150839,1.9447654,-2.1001465,-1.5696491,2.4481008,-0.06084802,0.13712431,-0.16246353,0.009977473,0.0119498335,-0.049923662,-0.15322891,0.15322891,-8.983045,0.7777002,47.693153,-1.0507287,-1.8327461,-3.4772716,-0.22123024,0.10912344,-0.3544848,25.5625,26.25,25.4375,28.1875,28.875,29.1875
0.16605407,-0.48529682,0.1541115,0.4848894,-0.0036259585,0.004102079,-0.1309279,-0.38743216,-0.34962228,0.06010763,3.077362,-0.62455714,-0.0002955615,-0.08010598,-0.0099410415,-4.823695e-05,-0.016492447,0.0054452345,-0.012548886,0.47312105,-1.4147946,1.944477,-2.100087,-1.5695771,2.4480286,-0.06295616,0.13984744,-0.16322447,0.011023821,0.011926972,-0.050313063,-0.11492168,0.22984336,-9.040505,0.83365434,47.66091,-0.9405659,-2.0374336,-3.3733244,-0.21647757,0.116786495,-0.3724746,25.5625,26.25,25.4375,28.1875,28.875,29.1875
0.16805409,-0.39299032,-0.025941402,0.24474287,-0.008183747,0.014446371,-0.14108394,-0.38761312,-0.34962255,0.060101233,3.0773504,-0.62459385,-0.0003333633,-0.080530144,-0.010291858,-0.0012330948,-0.016062865,0.0027125683,-0.012915483,0.47296506,-1.4144928,1.9441417,-2.1000745,-1.5695895,2.4478972,-0.06323884,0.14396764,-0.16547361,0.0117791975,0.01278912,-0.0502277,-0.17238252,0.24899697,-9.193734,0.8560339,47.68062,-0.9242945,-1.8129745,-3.279214,-0.2199078,0.110253364,-0.40200812,25.5625,26.25,25.4375,28.1875,28.875,29.1875
0.17005432,-1.1749349,-0.6429016,0.069281444,-0.013108414,0.011975151,-0.13113943,-0.38776192,-0.34965527,0.060110718,3.0772839,-0.6246564,-0.00031473942,-0.08181702,-0.010138339,1.08686745e-05,-0.01667702,0.00454059,-0.013802696,0.47285664,-1.414229,1.9438056,-2.100026,-1.5695413,2.4478364,-0.06445919,0.14325595,-0.16778183,0.012897234,0.012503532,-0.050559733,-0.3256114,0.2681506,-9.270349,0.7777002,47.687782,-0.91243494,-1.8281478,-3.240298,-0.24485126,0.14282288,-0.42425296,25.5625,26.25,25.4375,28.1875,28.875,29.1875
0.17205383,-1.0136238,-0.8549124,-0.134509,-0.027236983,0.038799662,-0.12783307,-0.38791713,-0.34966263,0.060080055,3.0772607,-0.6247098,-0.00027337213,-0.08304666,-0.011001922,0.00030997934,-0.018654546,0.0045292797,-0.014181903,0.47271246,-1.4139159,1.943518,-2.1000383,-1.5695161,2.4477286,-0.065147236,0.14539364,-0.1710114,0.013095877,0.014264159,-0.050867617,-0.38307226,0.40222588,-9.32781,0.9097417,47.686886,-0.9378905,-1.8118361,-3.3148675,-0.24302685,0.11934876,-0.4746391,25.5625,26.25,25.4375,28.1875,28.875,29.1875
0.17405406,-1.965386,-1.8905953,-0.40961125,-0.026444785,0.038666453,-0.12501884,-0.38808724,-0.3496818,0.060108624,3.0772438,-0.6247256,-0.0003000574,-0.083024815,-0.01031989,-0.00078844966,-0.017017629,0.0022581185,-0.014292796,0.4725922,-1.413651,1.9431232,-2.09993,-1.5695165,2.4476206,-0.0660236,0.14741835,-0.17105246,0.013883692,0.013845659,-0.05163253,-0.30645782,0.51714754,-9.5385,0.83813137,47.71286,-0.9097971,-1.7827001,-3.4341593,-0.25689742,0.13056694,-0.49088264,25.5625,26.25,25.4375,28.1875,28.875,29.1875
0.17605437,-1.6536976,-1.4562187,-0.2874298,-0.056201346,0.0644741,-0.124582045,-0.38824752,-0.34969306,0.060103342,3.0771961,-0.6247333,-0.000266432,-0.08421754,-0.010533376,-0.00031845662,-0.017899485,0.0030678627,-0.013175011,0.47243577,-1.4133743,1.9428114,-2.0999062,-1.5694684,2.4474752,-0.06695475,0.1484195,-0.17335728,0.014070602,0.014262311,-0.05368031,-0.38307226,0.63206923,-9.710882,0.8717007,47.716442,-0.88574636,-1.8530405,-3.3974204,-0.2595132,0.13952047,-0.50330967,25.5625,26.25,25.4375,28.1875,28.875,29.1875
0.17805453,-1.9081008,-1.661674,-0.28992376,-0.06318283,0.06437933,-0.13101526,-0.38842827,-0.34972444,0.060094185,3.0771747,-0.6247668,-0.0002943022,-0.085412495,-0.010372412,-0.00013029003,-0.01770181,0.0038874082,-0.012875812,0.47232747,-1.4130256,1.942428,-2.0998943,-1.5694689,2.4473908,-0.067929275,0.14967148,-0.17528746,0.014113984,0.013713192,-0.054952554,-0.51714754,0.4405331,-9.691729,0.83589023,47.695843,-0.918419,-1.7721548,-3.408062,-0.26251885,0.15329479,-0.5071253,25.5625,26.25,25.4375,28.1875,28.875,29.1875
0.18005413,-1.6650132,-1.1876566,-0.50505847,-0.0551519,0.060922783,-0.1302009,-0.3885897,-0.3497476,0.0600892,3.07713,-0.6247546,-0.0002316198,-0.08622633,-0.010255043,-0.0019679544,-0.017141735,0.0010969753,-0.0097280145,0.47218314,-1.4127238,1.9420809,-2.0998466,-1.5694083,2.4472446,-0.06932916,0.15465051,-0.1766842,0.013279653,0.0144854095,-0.059499014,-0.4213795,0.40222588,-9.672575,0.81351066,47.71823,-0.80988395,-1.7563155,-3.4066758,-0.27386522,0.16674116,-0.51161766,25.5625,26.25,25.4375,28.1875,28.875,29.1875
0.18205443,-1.7718548,-1.0024866,-0.5889475,-0.03626314,0.049745385,-0.1270394,-0.38878363,-0.3497806,0.060106054,3.0770526,-0.6247765,-0.0003118303,-0.08830888,-0.010562243,-7.305765e-05,-0.018989922,0.0056474647,-0.0076604853,0.4720507,-1.4124238,1.941697,-2.099847,-1.5693849,2.447136,-0.0703552,0.15344265,-0.17944726,0.012366115,0.014064223,-0.06259011,-0.5554548,0.3256114,-9.768343,0.90750587,47.674347,-0.81800663,-1.8059506,-3.4257205,-0.24108917,0.17802429,-0.47472,25.5625,26.25,25.4375,28.1875,28.875,29.1875
0.1840537,-1.3358196,-0.6173981,-0.5018995,-0.019016283,0.042023905,-0.13010208,-0.38894534,-0.34979072,0.060078017,3.077038,-0.6247922,-0.00027001172,-0.08890853,-0.010717353,-0.0012441776,-0.01960514,0.0043589356,-0.006372104,0.4719063,-1.4120984,1.9413861,-2.0998476,-1.5693601,2.4470034,-0.071310245,0.1564681,-0.17992939,0.010693206,0.015196862,-0.06483312,-0.4405331,0.24899697,-9.730036,0.8403672,47.660015,-0.74668837,-1.8892918,-3.5319223,-0.24220335,0.16739531,-0.47618094,25.5625,26.25,25.4375,28.1875,28.875,29.1875
0.18605468,-1.0490092,-0.05709645,-0.6250875,-0.01725901,0.045619797,-0.13018197,-0.3891333,-0.3498254,0.06008429,3.0769868,-0.6247581,-0.00029101968,-0.09079344,-0.011506026,-0.0014906608,-0.020141691,0.00514471,-0.001707357,0.47177443,-1.4117725,1.9409908,-2.0998242,-1.5693244,2.446857,-0.07165996,0.1605678,-0.18389808,0.009628911,0.015317691,-0.06984432,-0.40222588,0.21068975,-9.595961,0.83365434,47.66987,-0.7748324,-2.0088944,-3.4854903,-0.21801801,0.17809805,-0.44587857,25.5625,26.25,25.4375,28.1875,28.875,29.1875
0.18805425,-1.0071797,-0.041705646,-0.48611194,-0.012417858,0.04261009,-0.13051443,-0.38935748,-0.3498418,0.06010692,3.0768619,-0.6248463,-0.00037359906,-0.091439605,-0.010644031,-0.0027480938,-0.019648967,0.0025464376,0.0020074104,0.47156957,-1.4114717,1.940595,-2.0998356,-1.5692757,2.4467232,-0.0741865,0.16330326,-0.18427227,0.009818537,0.016077574,-0.076083615,-0.40222588,0.17238252,-9.519346,0.9030289,47.681515,-0.6635245,-2.0737863,-3.5692248,-0.20633118,0.19228831,-0.3644014,25.5625,26.25,25.4375,28.1875,28.875,29.1875
0.19005448,-0.91122425,0.1281817,-0.29502478,0.0012304516,0.041206352,-0.12933686,-0.38951358,-0.34986973,0.060097005,3.0768673,-0.6247297,-0.00034725026,-0.09096284,-0.011870856,-0.002706064,-0.019588158,0.0022169906,0.005740368,0.4714624,-1.4111586,1.9402484,-2.0997999,-1.5692519,2.4465427,-0.071624756,0.16446653,-0.18594988,0.0106588695,0.016173957,-0.07725416,-0.22984336,0.11492168,-9.500193,0.8179876,47.731667,-0.81937146,-2.0274305,-3.584722,-0.18835142,0.17909667,-0.33254662,25.5625,26.25,25.4375,28.1875,28.875,29.1875
0.19205429,-0.9314893,0.4551171,-0.14015025,0.004093493,0.03867436,-0.13358393,-0.3896941,-0.34986654,0.06006431,3.0768867,-0.62475085,-0.000300576,-0.091689676,-0.011409761,-0.0037478693,-0.019026374,0.0008416292,0.008551938,0.4712938,-1.4107975,1.9399008,-2.0997756,-1.5692519,2.4463851,-0.073124155,0.16715693,-0.18661349,0.010120892,0.016299874,-0.08156507,-0.17238252,0.019153614,-9.500193,0.9030289,47.699425,-0.89050084,-2.0433598,-3.6024256,-0.17452274,0.1764347,-0.27606714,25.5625,26.25,25.4375,28.1875,28.875,29.1875
0.19405447,-0.7047694,0.48935047,-0.16556856,0.007459491,0.03410639,-0.13354447,-0.38992473,-0.3499132,0.06008853,3.0767882,-0.624673,-0.00039833935,-0.09363221,-0.011056825,-0.002989126,-0.019587712,0.002802738,0.008104515,0.471137,-1.410449,1.9394463,-2.099788,-1.5692037,2.4461925,-0.075192355,0.16783947,-0.1891536,0.00998654,0.015917545,-0.08318274,-0.05746084,-0.019153614,-9.423578,0.800085,47.685097,-0.54731077,-2.101069,-3.6498537,-0.15725604,0.20281106,-0.22735697,25.5625,26.25,25.4375,28.1875,28.875,29.1875
0.19605415,-0.76606244,0.1510644,-0.05251991,0.013178964,0.019241607,-0.12620527,-0.39008886,-0.34994313,0.060077846,3.0767424,-0.6246802,-0.00039229722,-0.094115645,-0.013513487,-0.0020945612,-0.020549187,0.004921292,0.012914279,0.4710187,-1.4101359,1.9391092,-2.099788,-1.569168,2.4460847,-0.07120244,0.1698836,-0.19362724,0.010098422,0.015808027,-0.083999924,-0.1340753,0.05746084,-9.32781,0.8247004,47.684196,-0.92983145,-2.115112,-3.5269313,-0.13485166,0.2091583,-0.18916096,25.5625,26.25,25.4375,28.1875,28.875,29.1875
0.19805457,-0.29864788,0.14801902,0.18716396,0.012084133,0.014625322,-0.1315928,-0.39030784,-0.3499615,0.060093127,3.0766914,-0.62465084,-0.00044015172,-0.09606622,-0.01393873,-0.0011803401,-0.021695979,0.0064545404,0.011450088,0.47083813,-1.409799,1.9386772,-2.0997512,-1.5691437,2.4458926,-0.07236247,0.17148782,-0.19776385,0.01074752,0.016133934,-0.083692856,-0.13407528,0.095768064,-9.193734,0.7866488,47.68062,-0.91097844,-2.0439818,-3.4112592,-0.127288,0.22597829,-0.16724993,25.5625,26.25,25.4375,28.1875,28.875,29.1875
0.20005392,-0.13908781,0.09188186,-0.064586364,0.011979942,0.0047047455,-0.13070817,-0.39048696,-0.3499852,0.06008627,3.0766926,-0.6245345,-0.00048206485,-0.09636725,-0.014441081,-0.0011756478,-0.021405956,0.0061815344,0.011015446,0.47071853,-1.4094743,1.9383177,-2.0997508,-1.5691437,2.4457004,-0.07162289,0.17298353,-0.19975309,0.011616662,0.015999818,-0.08251721,0.0,0.2681506,-9.174581,0.800085,47.67614,-0.92341053,-2.0122128,-3.3030853,-0.12444328,0.22921091,-0.16097695,25.5625,26.25,25.4375,28.1875,28.875,29.1875
0.2020542,-0.2849487,-0.4083627,-0.09555546,0.004152765,-0.00440283,-0.13002308,-0.3907049,-0.3500252,0.06010369,3.0766041,-0.6245955,-0.0005071346,-0.09726081,-0.014498739,-0.00043358456,-0.022401279,0.0069588874,0.007099506,0.47056213,-1.4091139,1.9378508,-2.099703,-1.569096,2.4455936,-0.07261079,0.1728683,-0.20154075,0.012375494,0.01653479,-0.079587586,-0.038307227,0.36391866,-9.289502,0.8112748,47.689575,-0.96678597,-1.8784711,-3.407539,-0.10890093,0.23781787,-0.1710322,25.5625,26.25,25.4375,28.1875,28.875,29.1875
0.20405371,-0.6021366,-1.2965525,-0.10245363,-0.024664663,-0.0016155343,-0.1233264,-0.3908789,-0.35002115,0.0600774,3.0766325,-0.62458384,-0.00048591706,-0.09787446,-0.014858497,-7.5661286e-05,-0.022019166,0.0070077786,0.003064937,0.47040614,-1.4087772,1.9375161,-2.0996783,-1.5691079,2.445427,-0.0722464,0.17412555,-0.20421903,0.01392246,0.01616311,-0.07518805,-0.15322891,0.47884035,-9.232041,0.7911258,47.657326,-0.9775418,-1.8616698,-3.3669174,-0.112143405,0.25502676,-0.19163094,25.5625,26.25,25.4375,28.1875,28.875,29.1875
0.20605433,-0.49064317,-1.6587563,-0.09384949,-0.043714467,0.015219398,-0.12342457,-0.39107493,-0.3500525,0.06007408,3.0765986,-0.62454045,-0.00047562676,-0.09793481,-0.014521172,-0.0008006288,-0.021587601,0.0043640723,0.00045191048,0.47026184,-1.408416,1.9370979,-2.099642,-1.5690717,2.44526,-0.07336431,0.1759673,-0.2051225,0.01553629,0.016979503,-0.07369216,-0.076614454,0.59376204,-9.193734,0.8247004,47.647476,-1.0052224,-1.9665375,-3.3456578,-0.122744516,0.2756726,-0.23208205,25.5625,26.25,25.4375,28.1875,28.875,29.1875
0.20805453,-0.95616114,-2.1248436,-0.20174311,-0.04739379,0.007456006,-0.11950641,-0.39125752,-0.35009938,0.06008273,3.07655,-0.6245135,-0.00042755943,-0.09814601,-0.01435169,-0.0015957963,-0.020959824,0.0020572406,-0.004917564,0.47014162,-1.408067,1.9366554,-2.0995576,-1.5690116,2.4451294,-0.07411272,0.17833853,-0.20639074,0.016771512,0.01745965,-0.06907023,0.038307227,0.51714754,-9.308656,0.8672237,47.65912,-1.032639,-2.0090241,-3.367651,-0.13014671,0.27119082,-0.26095727,25.5625,26.25,25.4375,28.1875,28.875,29.1875
0.21005404,-0.19330591,-1.6382142,-0.15340912,-0.055732243,0.024925455,-0.13721366,-0.39147216,-0.35011777,0.060084723,3.0765,-0.624523,-0.00048819243,-0.09950659,-0.014617291,-0.00084975635,-0.022253845,0.0037635209,-0.0071138293,0.46997336,-1.4077187,1.9362482,-2.099558,-1.5689992,2.4449737,-0.07505166,0.1787887,-0.20858619,0.01640992,0.0178389,-0.06781077,0.05746084,0.63206923,-9.308656,0.76874626,47.666286,-0.9425867,-1.872524,-3.4209557,-0.12736458,0.28894052,-0.31354374,25.5625,26.25,25.4375,28.1875,28.875,29.1875
0.21205422,-0.765652,-1.6533685,-0.05893643,-0.050189935,0.0068608224,-0.12455365,-0.39168373,-0.35015923,0.060085613,3.0764248,-0.6245434,-0.00047116578,-0.100444056,-0.015603966,-5.954725e-05,-0.023987204,0.00509226,-0.0042943144,0.46981755,-1.4073342,1.9357933,-2.0995224,-1.5689386,2.4448404,-0.074709885,0.17952879,-0.21131043,0.016432326,0.018785741,-0.07028643,0.05746084,0.5746084,-9.270349,0.8493211,47.674347,-1.0203235,-1.8462219,-3.4474118,-0.11648604,0.27609175,-0.31105468,25.5625,26.25,25.4375,28.1875,28.875,29.1875
0.2140537,-0.5668128,-1.517365,-0.22274622,-0.03136975,0.001620463,-0.12108421,-0.39187765,-0.35017264,0.06007037,3.0763726,-0.6245739,-0.00043774242,-0.10270388,-0.01529151,0.00016191318,-0.025489911,0.0060890685,-0.008214818,0.4696365,-1.4069849,1.9354213,-2.099511,-1.5688905,2.4446852,-0.077787116,0.1815045,-0.21395399,0.015533384,0.01966889,-0.06944116,0.038307227,0.5554548,-9.32781,0.85826975,47.71286,-0.90575755,-1.7639292,-3.3053665,-0.096759245,0.28610831,-0.30044752,25.5625,26.25,25.4375,28.1875,28.875,29.1875
0.21605399,-0.1994244,-0.63596016,-0.11164551,-0.022396125,-0.0026633504,-0.12810703,-0.39207628,-0.35021305,0.060053654,3.076371,-0.6245523,-0.0004472928,-0.10205433,-0.016351897,-0.002070758,-0.024272244,0.0026514588,-0.006689283,0.46952933,-1.4065748,1.9349793,-2.099487,-1.5688905,2.444565,-0.0756015,0.18683442,-0.21494241,0.014807763,0.020135755,-0.06877954,0.05746084,0.45968673,-9.289502,0.8023209,47.682407,-1.007628,-1.8816335,-3.3944845,-0.0842367,0.3012956,-0.34567964,25.5625,26.25,25.4375,28.1875,28.875,29.1875
0.2180542,-0.3162713,-0.5140191,-0.07800095,-0.017206173,-0.012639735,-0.1258233,-0.3923064,-0.35025907,0.06008597,3.0762653,-0.62451154,-0.00054398284,-0.10326126,-0.017062714,-0.0016718105,-0.02589811,0.003597325,-0.0063698655,0.46937296,-1.406238,1.934513,-2.0994751,-1.5688418,2.444397,-0.07603038,0.18832469,-0.21752122,0.0143214995,0.021162756,-0.069523714,0.095768064,0.38307226,-9.289502,0.83365434,47.661808,-1.082938,-1.8131663,-3.4622717,-0.07281664,0.29495287,-0.3573875,25.5625,26.25,25.4375,28.1875,28.875,29.1875
0.22005396,-0.3334476,-0.58292097,-0.31621444,-0.008697151,-0.013796518,-0.11652074,-0.3925146,-0.3502976,0.06008509,3.0761943,-0.62455595,-0.0005110237,-0.104778856,-0.015892446,-0.0014487822,-0.02621715,0.0031313729,-0.009725676,0.4692158,-1.4058535,1.9340585,-2.0994265,-1.5687817,2.4442768,-0.07969503,0.18890359,-0.21904571,0.015544781,0.02166189,-0.06983147,0.05746084,0.34476504,-9.346964,0.8560339,47.689575,-0.90542316,-1.9077306,-3.5334668,-0.05346091,0.2880462,-0.38078666,25.5625,26.25,25.4375,28.1875,28.875,29.1875
0.22205429,-0.6694479,-0.53775156,-0.21251664,-0.006996356,-0.011249447,-0.12079804,-0.3927026,-0.3503234,0.06004841,3.0762224,-0.62455857,-0.0004238446,-0.10430844,-0.01763415,-0.001573052,-0.025713146,0.0021978905,-0.005989974,0.46908522,-1.4054198,1.933626,-2.0993664,-1.5687698,2.4441445,-0.07615679,0.19149052,-0.22221541,0.017192284,0.02162923,-0.070028834,0.019153614,0.2873042,-9.308657,0.8605109,47.690468,-1.161438,-2.0150688,-3.454022,-0.067962095,0.30445576,-0.39226758,25.5625,26.25,25.4375,28.1875,28.875,29.1875
0.22405455,-0.4453351,-0.36477336,-0.18311317,-0.0017722282,0.00234984,-0.12464082,-0.39291582,-0.3503459,0.060037464,3.0761416,-0.6245991,-0.00035135428,-0.105112605,-0.017389407,-0.002161238,-0.025401482,0.0004274725,-0.0057187174,0.46888065,-1.4050348,1.9331964,-2.0993297,-1.5686859,2.4439757,-0.077573106,0.19412513,-0.22425756,0.0183318,0.022155814,-0.07171505,0.076614454,0.2681506,-9.270349,0.83365434,47.67614,-1.1911474,-2.1109018,-3.4279222,-0.07766439,0.29682946,-0.40475655,25.5625,26.25,25.4375,28.1875,28.875,29.1875
0.22605437,-0.5419629,-0.10567669,-0.16799007,-0.009065716,0.012190673,-0.12445249,-0.39314163,-0.3503813,0.060030445,3.0761142,-0.62459314,-0.00043398415,-0.10669535,-0.01764835,-0.001804009,-0.026250795,0.0008141819,-0.0050468296,0.46874824,-1.4046259,1.932741,-2.0993416,-1.5686973,2.4438434,-0.07884894,0.19618559,-0.22768004,0.018969003,0.022742279,-0.07365962,-0.076614454,0.21068975,-9.346964,0.8918391,47.684196,-1.0936136,-1.9781592,-3.4874487,-0.06627921,0.28501034,-0.39499837,25.5625,26.25,25.4375,28.1875,28.875,29.1875
0.22805388,-0.9494752,-0.4104048,-0.0146998,-0.0039489483,0.0071945987,-0.12274225,-0.3933062,-0.35042295,0.06000548,3.076116,-0.6244562,-0.00030136196,-0.10711334,-0.017935816,-0.0027201232,-0.025810417,-0.0009761139,-0.0018129626,0.4686283,-1.4042401,1.9323343,-2.09927,-1.5686253,2.4436378,-0.07893846,0.1994356,-0.22952652,0.019374968,0.023158787,-0.076982886,-0.038307227,0.15322891,-9.32781,0.88289046,47.670765,-1.1903623,-2.18722,-3.4133186,-0.061486702,0.29745257,-0.3916422,25.5625,26.25,25.4375,28.1875,28.875,29.1875
0.23005415,-0.649299,0.005769726,-0.05857664,-0.0036203782,0.017664384,-0.13098867,-0.39355046,-0.35045496,0.060024846,3.0760117,-0.6245666,-0.00033832827,-0.107139915,-0.017711468,-0.003357269,-0.025390327,-0.002604355,0.001539315,0.46843615,-1.4038553,1.9318327,-2.0992215,-1.5685776,2.4435282,-0.07952326,0.20084693,-0.22993153,0.020026209,0.023534508,-0.08091811,-0.1340753,0.17238252,-9.251195,0.83365434,47.677036,-1.1677997,-2.1642923,-3.48733,-0.06922619,0.29489022,-0.35950607,25.5625,26.25,25.4375,28.1875,28.875,29.1875
0.23205434,-0.8487469,-0.06334286,0.100627646,-0.0056391284,0.028685093,-0.12952584,-0.3937711,-0.35050252,0.06001848,3.0759687,-0.62447786,-0.00033352466,-0.10879867,-0.01828209,-0.0020282387,-0.026352154,-0.00013553564,0.0058841873,0.468292,-1.4034349,1.9313539,-2.0991976,-1.5685295,2.4433343,-0.07978291,0.20132767,-0.23376222,0.020757075,0.023284856,-0.085520454,-0.21068975,0.21068975,-9.251195,0.8717007,47.683304,-1.171726,-2.1501231,-3.4639254,-0.050782297,0.28904113,-0.31667843,25.5625,26.25,25.4375,28.1875,28.875,29.1875
0.2340537,-1.3127986,0.13550153,-0.1489606,-0.009816645,0.026578221,-0.12279637,-0.39397144,-0.35053086,0.059993383,3.0759735,-0.6244382,-0.0002768485,-0.109887384,-0.01836239,-0.0020873856,-0.026324002,5.155265e-06,0.0089871455,0.4681476,-1.403014,1.9309114,-2.0991495,-1.5685052,2.4431648,-0.0805002,0.20330139,-0.23604845,0.0209708,0.02319849,-0.08934025,-0.24899697,0.22984336,-9.289502,0.80456203,47.694054,-1.2139174,-2.1293025,-3.5308707,-0.056730013,0.2964487,-0.27359316,25.5625,26.25,25.4375,28.1875,28.875,29.1875
0.23605415,-0.8738781,-0.37810174,-0.16344899,0.0008277812,0.043989893,-0.12558138,-0.39416495,-0.3505732,0.05998604,3.07593,-0.6243688,-0.0002049894,-0.11102511,-0.018556593,-0.0012637072,-0.027558208,0.0010946478,0.012746136,0.4680036,-1.4026294,1.930468,-2.0990894,-1.5684332,2.4429832,-0.08150695,0.20346825,-0.2383268,0.021571405,0.023815647,-0.094104975,-0.17238252,0.17238252,-9.346964,0.8940802,47.703903,-1.1973896,-2.1042318,-3.4373295,-0.06721595,0.30104908,-0.20818625,25.5625,26.25,25.4375,28.1875,28.875,29.1875
0.23805457,-1.8525269,-0.40446997,-0.0843825,-0.0019481927,0.032846436,-0.11909162,-0.39439583,-0.35063437,0.060003724,3.0758634,-0.6242213,-0.00020814488,-0.11267022,-0.018651178,-0.00019720715,-0.028784372,0.0030900433,0.012086576,0.46785897,-1.4022212,1.9299401,-2.0990298,-1.5683607,2.4427552,-0.08286369,0.2036425,-0.24109487,0.021842545,0.024013694,-0.09479959,-0.53630114,0.24899697,-9.270349,0.90750587,47.698532,-1.2132895,-1.9813379,-3.4481745,-0.0525178,0.32147038,-0.16368897,25.5625,26.25,25.4375,28.1875,28.875,29.1875
0.24005376,-1.7415301,-0.41781342,-0.3331963,-0.0018298228,0.052943245,-0.11841605,-0.39463115,-0.35065266,0.059988298,3.075837,-0.62423295,-0.00019349418,-0.11290546,-0.018390115,-0.00078809913,-0.02853773,0.0013854956,0.014430259,0.46766666,-1.4017881,1.9294637,-2.0989935,-1.5683368,2.4425738,-0.08381172,0.20524499,-0.2418839,0.022674404,0.024572343,-0.09809059,-0.53630114,0.19153613,-9.442732,0.7597976,47.695843,-1.2500687,-1.9325452,-3.4617434,-0.06699137,0.30559224,-0.09387824,25.5625,26.25,25.4375,28.1875,28.875,29.1875
0.2420541,-2.382892,-0.68896824,-0.6408782,0.0052762185,0.05116243,-0.111421615,-0.39487255,-0.35068715,0.059986528,3.075762,-0.6242202,-0.00019089003,-0.11351583,-0.01799534,-0.0016404808,-0.027874725,-0.00026724886,0.010098124,0.46747428,-1.4013668,1.9289726,-2.0989692,-1.5682768,2.4423833,-0.085065335,0.20775937,-0.24304199,0.023095181,0.024724564,-0.095010206,-0.59376204,0.22984336,-9.557653,0.95002913,47.652847,-1.0672944,-1.9796875,-3.5492167,-0.06503765,0.30566671,-0.109942555,25.5625,26.25,25.4375,28.1875,28.875,29.1875
0.24405465,-2.0486054,-0.633917,-0.26027843,-0.009839789,0.07498698,-0.11885381,-0.39506817,-0.35071906,0.059960842,3.0757527,-0.6242187,-5.5800487e-05,-0.11467401,-0.018281918,-0.001253991,-0.028238038,0.0014526872,0.007862413,0.4673182,-1.4009339,1.9285058,-2.0988734,-1.5682167,2.4422276,-0.08523582,0.20874287,-0.24498343,0.022360254,0.024260068,-0.09294581,-0.68953013,0.17238252,-9.519346,0.8314132,47.65464,-1.2601346,-2.0072792,-3.3909054,-0.069174886,0.31900012,-0.10831943,25.5625,26.25,25.4375,28.1875,28.875,29.1875
0.24605402,-1.5628097,-0.33133805,-0.3293869,-0.01170005,0.08188122,-0.12104157,-0.39532185,-0.3507542,0.059953827,3.075695,-0.6241341,-7.949825e-05,-0.11808993,-0.016926438,-0.00079535437,-0.029271616,0.0032589878,-0.00046477362,0.46712425,-1.4004887,1.9280041,-2.0988739,-1.568169,2.4419885,-0.09061209,0.21066326,-0.24816068,0.021540428,0.024362663,-0.089991815,-0.7469909,0.19153613,-9.519346,0.8717007,47.691364,-0.9839049,-1.869498,-3.5160847,-0.06428877,0.3151945,-0.12129134,25.5625,26.25,25.4375,28.1875,28.875,29.1875
0.24805436,-1.2573779,0.210009,-0.7516229,0.005787541,0.06496538,-0.12815262,-0.39553314,-0.3507997,0.059944425,3.0756712,-0.6240723,-5.7161036e-05,-0.117379,-0.018276725,-0.0020442456,-0.02882557,0.0009135926,-0.0009956807,0.46699336,-1.4000673,1.9275244,-2.0988262,-1.5681328,2.4418223,-0.087981254,0.21425599,-0.2496154,0.021693686,0.025014041,-0.08682843,-0.57460845,0.19153613,-9.5385,0.88289046,47.685097,-1.0695639,-1.9048731,-3.5594544,-0.047637023,0.31571454,-0.14078006,25.5625,26.25,25.4375,28.1875,28.875,29.1875
0.25005478,-1.5329468,0.19428487,-0.63260823,0.01063556,0.051773924,-0.12355916,-0.39578775,-0.35084042,0.05996626,3.0755734,-0.62409306,-8.4231135e-05,-0.119346894,-0.017849293,-0.0015001707,-0.029744875,0.0016932293,-0.0071150297,0.46680054,-1.3996586,1.9269851,-2.0987656,-1.5680722,2.4416552,-0.09068191,0.21551797,-0.25252464,0.02223066,0.02548052,-0.08340647,-0.45968673,0.15322891,-9.557653,0.8247004,47.690468,-1.0404955,-1.9525903,-3.461594,-0.031668875,0.2979182,-0.18186176,25.5625,26.25,25.4375,28.1875,28.875,29.1875
0.25205442,-1.4272423,-0.43948781,-0.4225281,0.007939409,0.04431667,-0.11866292,-0.39601898,-0.35086015,0.05994071,3.0755432,-0.6241087,-4.514602e-05,-0.12046769,-0.016953537,-0.0016576129,-0.029336894,0.0017846402,-0.01180398,0.46660766,-1.3992136,1.9265198,-2.0987418,-1.5680364,2.441476,-0.092896946,0.2164022,-0.25328225,0.022208959,0.025070643,-0.08093264,-0.49799395,0.22984336,-9.519346,0.9298854,47.677036,-0.8885286,-1.9877727,-3.5739913,-0.028343532,0.30751655,-0.21883641,25.5625,26.25,25.4375,28.1875,28.875,29.1875
0.25405383,-1.0068833,-0.4602156,-0.6259827,-0.0059307464,0.045778092,-0.12260189,-0.39627624,-0.35088378,0.05994467,3.075451,-0.62426347,-4.1320334e-05,-0.12219549,-0.016808905,-0.0017008431,-0.0294585,0.0029113148,-0.014573553,0.46639118,-1.3987805,1.9259928,-2.0986826,-1.5679888,2.4413683,-0.09433341,0.21861729,-0.2556446,0.021302512,0.024668485,-0.07959762,-0.40222588,0.05746084,-9.653421,0.91421866,47.66987,-0.77291715,-2.1014209,-3.6680536,-0.012871285,0.32333606,-0.26442763,25.5625,26.25,25.4375,28.1875,28.875,29.1875
0.25605416,-1.5933958,-0.9580663,-0.47833967,-0.0068509034,0.027138256,-0.11427618,-0.39650282,-0.3509063,0.059901815,3.0754611,-0.6242483,4.3176447e-06,-0.123326026,-0.01657163,-0.0024835072,-0.02867759,0.0012017032,-0.017855229,0.46622264,-1.398299,1.9255265,-2.0986702,-1.5679768,2.4411893,-0.09571317,0.22221561,-0.258392,0.022329675,0.02473223,-0.07769492,-0.2681506,0.095768064,-9.615114,0.8224646,47.71286,-0.79266644,-2.0400565,-3.713797,-0.025644956,0.33680904,-0.2958582,25.5625,26.25,25.4375,28.1875,28.875,29.1875
0.25805458,-1.0587935,-0.80455965,-0.2858744,-0.014673453,0.03865884,-0.12489011,-0.39676484,-0.350937,0.05991719,3.0753531,-0.62435764,-9.035127e-06,-0.12507881,-0.0177735,-0.0019065144,-0.03030771,0.0018425842,-0.016043283,0.46600682,-1.3978776,1.9249867,-2.0986102,-1.5679168,2.4410558,-0.09581767,0.22526707,-0.26352674,0.023119068,0.025902886,-0.07960669,-0.3256114,0.1340753,-9.481039,0.8940802,47.692257,-0.7382303,-2.1472297,-3.596627,-0.014532562,0.31238484,-0.31226203,25.5625,26.25,25.4375,28.1875,28.875,29.1875
0.2600545,-0.95441306,-0.33907542,-0.51285136,-0.0048708864,0.027079621,-0.11490338,-0.39700118,-0.35099602,0.059914995,3.075289,-0.6243274,8.747944e-06,-0.12566844,-0.018484484,-0.001034921,-0.032366335,0.0024089548,-0.019429848,0.4658627,-1.397421,1.9244484,-2.098562,-1.5678562,2.4409013,-0.09602425,0.2250938,-0.26558122,0.023910036,0.027482897,-0.07642413,-0.24899697,0.19153613,-9.404425,0.83365434,47.67614,-0.8179747,-2.163971,-3.4347014,-0.029347852,0.3074723,-0.37520045,25.5625,26.25,25.4375,28.1875,28.875,29.1875
0.2620542,-1.1722264,-1.0850142,-0.6991908,0.00875239,0.021850118,-0.1195813,-0.39726478,-0.35102022,0.059925687,3.075196,-0.62436604,-3.8447047e-06,-0.12719975,-0.018926175,-0.00051672646,-0.03310014,0.003840977,-0.020711722,0.46563452,-1.3970002,1.9239224,-2.0985143,-1.5677961,2.4407094,-0.09651762,0.22675571,-0.26876873,0.023835286,0.02749486,-0.07563259,-0.28730422,0.28730422,-9.3661175,0.9567419,47.716442,-0.8362963,-2.164779,-3.471527,0.0023336923,0.29347622,-0.4229856,25.5625,26.25,25.4375,28.1875,28.875,29.1875
0.26405466,-0.8700332,-0.9648935,-0.4637407,-0.016741656,0.03763032,-0.12593956,-0.39753678,-0.35105675,0.059919905,3.0751157,-0.6244811,-5.02745e-05,-0.12830405,-0.020255404,0.00054019544,-0.034868717,0.005821681,-0.016769465,0.46544287,-1.3965198,1.9233721,-2.098502,-1.5677713,2.4406002,-0.095529,0.22765712,-0.27235693,0.023971573,0.028193465,-0.07858262,-0.21068975,0.38307226,-9.461885,0.8560339,47.65643,-0.75491107,-2.1049068,-3.4385667,-0.0033000638,0.3112119,-0.42817745,25.5625,26.25,25.4375,28.1875,28.875,29.1875
0.26605403,-1.1444143,-0.9807284,-0.4645324,-0.02350768,0.024645096,-0.12931558,-0.3977996,-0.35107836,0.059913352,3.0750413,-0.6245619,2.162848e-05,-0.12891303,-0.021853717,0.0017830599,-0.03763799,0.0072572134,-0.01694045,0.46520337,-1.3960507,1.9228204,-2.098418,-1.5676988,2.4404209,-0.094341785,0.22770646,-0.27545846,0.024500342,0.030020623,-0.077221856,-0.24899697,0.47884035,-9.519346,0.8873621,47.690468,-0.9547974,-2.1042347,-3.3135138,-0.010829695,0.29332554,-0.48178113,25.5625,26.25,25.4375,28.1875,28.875,29.1875
0.26805437,-0.79947954,-1.2790571,-0.55365145,-0.038948696,0.025716702,-0.12563525,-0.39805925,-0.3511452,0.059934273,3.07494,-0.6245597,7.4464697e-06,-0.13073371,-0.020359246,0.0024373203,-0.038079314,0.007524847,-0.017809948,0.46504584,-1.3955946,1.9222239,-2.098346,-1.5676268,2.4402752,-0.09863829,0.22743556,-0.27705452,0.02594996,0.030312,-0.08064638,-0.1340753,0.4213795,-9.519346,0.93436235,47.693153,-0.690089,-2.0841887,-3.3689506,-0.0037642824,0.2563293,-0.4908042,25.5625,26.25,25.4375,28.1875,28.875,29.1875
0.27005377,-1.0951625,-1.6948087,-0.65601707,-0.04970552,0.011859411,-0.11057552,-0.39831316,-0.3511698,0.059920248,3.0748994,-0.62458533,3.0596384e-05,-0.12945315,-0.02120132,0.0020237959,-0.036762305,0.0056761676,-0.009983539,0.46484295,-1.3951261,1.9216975,-2.0982974,-1.5675911,2.4400938,-0.09575585,0.22842364,-0.27784032,0.028016204,0.029983886,-0.08559046,-0.15322891,0.40222588,-9.442732,0.8918391,47.691364,-0.9985079,-1.8602958,-3.5424714,-0.020874143,0.26028448,-0.48064545,25.5625,26.25,25.4375,28.1875,28.875,29.1875
0.27205408,-0.7639689,-1.6609287,-0.6107764,-0.037414838,0.009438916,-0.121268965,-0.3985638,-0.35120916,0.059898518,3.0748444,-0.6245325,0.00011632819,-0.12977865,-0.020347308,0.0012131222,-0.036106788,0.003885989,-0.006316798,0.46463838,-1.3946328,1.9211596,-2.0982492,-1.5675071,2.4398634,-0.097583555,0.2297914,-0.27782148,0.028553735,0.03021846,-0.09108499,-0.076614454,0.49799395,-9.557653,0.9321212,47.705692,-0.85906744,-1.8642433,-3.6424441,-0.02502468,0.2624478,-0.4466132,25.5625,26.25,25.4375,28.1875,28.875,29.1875
0.27405432,-0.860497,-1.5013257,-0.5598289,-0.030241907,0.00976522,-0.121012606,-0.3988253,-0.3512596,0.059904,3.074751,-0.6246068,0.00011975581,-0.1303013,-0.02085158,7.04619e-05,-0.036513433,0.0011726975,-0.0013545812,0.46445814,-1.3941633,1.9205846,-2.098189,-1.5674461,2.4397418,-0.098086685,0.23387131,-0.28022176,0.029140746,0.031814456,-0.09654611,0.019153614,0.36391866,-9.481039,0.85826975,47.67166,-0.8765367,-1.7879534,-3.7545657,-0.02981201,0.24608046,-0.3981006,25.5625,26.25,25.4375,28.1875,28.875,29.1875
0.27605456,-0.6105133,-0.56737655,-0.56462216,-0.018858232,0.0067805685,-0.12405855,-0.39911044,-0.3513072,0.05991672,3.0746317,-0.62455904,0.00011429223,-0.13155186,-0.021579387,0.00055631856,-0.038433876,0.0014597455,0.0038505946,0.46422994,-1.3936938,1.9199985,-2.0981529,-1.5673493,2.4394994,-0.098829985,0.23553051,-0.2834803,0.029654201,0.033423822,-0.10248908,0.13407528,0.3256114,-9.423578,0.90527004,47.667187,-0.8199278,-1.8846703,-3.6572273,-0.04302219,0.20736478,-0.33062607,25.5625,26.25,25.4375,28.1875,28.875,29.1875
0.2780539,0.06890627,0.049332142,-0.648057,-0.0031228706,0.0034532438,-0.12163786,-0.39937943,-0.35134783,0.05992549,3.074575,-0.62452465,5.1493207e-05,-0.13199455,-0.021863045,0.00051404163,-0.038845558,0.0009714981,0.008199929,0.46404994,-1.3932374,1.9194363,-2.0981166,-1.5673255,2.4393055,-0.099018194,0.23680085,-0.2851133,0.030290823,0.034030523,-0.107023105,0.21068975,0.34476504,-9.404425,0.89631605,47.707485,-0.90902877,-1.8459961,-3.6326985,-0.041177288,0.18299446,-0.266486,25.5625,26.25,25.4375,28.1875,28.875,29.1875
0.28005418,-0.15594119,-0.1680956,-0.75447434,0.011437273,-0.010022677,-0.1193671,-0.39965355,-0.3513896,0.05991913,3.074485,-0.6244842,0.00010419093,-0.13291503,-0.022500815,-0.00026242613,-0.038276743,-0.0002159707,0.011480433,0.4638222,-1.3927432,1.9188617,-2.0980685,-1.5672296,2.4390643,-0.09863691,0.24103723,-0.28853413,0.030819794,0.034061924,-0.109919444,0.19153613,0.34476504,-9.461885,0.8493211,47.70032,-1.0107969,-2.0771017,-3.6167536,-0.051847354,0.15659165,-0.2104088,25.5625,26.25,25.4375,28.1875,28.875,29.1875
0.28205442,-0.115762696,-0.19098309,-0.9218627,0.016445786,-0.021967478,-0.11926748,-0.39991975,-0.35144418,0.059932787,3.0744324,-0.62437624,8.1941325e-05,-0.1339722,-0.02252136,-0.0008521684,-0.037425265,-0.0016860957,0.0136119835,0.4636539,-1.3922734,1.9182643,-2.0979965,-1.5671815,2.4388356,-0.09938047,0.24459061,-0.29177982,0.03222937,0.033970583,-0.11279131,0.17238252,0.34476504,-9.576807,0.88289046,47.67345,-0.93974113,-2.172499,-3.6137483,-0.066552654,0.16008402,-0.17359883,25.5625,26.25,25.4375,28.1875,28.875,29.1875
0.28405395,-0.16903907,-0.74675596,-0.8081255,-0.015018934,-0.012141786,-0.122761704,-0.4001749,-0.3514955,0.05993117,3.07437,-0.62432534,0.00012334154,-0.13461715,-0.023895415,0.0007736674,-0.038306225,0.0004543379,0.012111693,0.46347475,-1.3917933,1.9176892,-2.0979245,-1.5671095,2.438633,-0.09736061,0.24436535,-0.29575416,0.034122948,0.033793196,-0.10926943,0.22984336,0.3256114,-9.481039,0.8918391,47.6421,-1.1049098,-2.1942523,-3.4326487,-0.09280175,0.13331077,-0.16845274,25.5625,26.25,25.4375,28.1875,28.875,29.1875
0.28605416,-0.68578845,-1.3785249,-0.7040134,-0.02945357,-0.010683024,-0.11392022,-0.40046468,-0.351536,0.05994621,3.0743027,-0.6242944,7.166825e-05,-0.13650253,-0.023112116,0.00093261653,-0.037767485,0.00015752792,0.008187697,0.4632696,-1.3913121,1.9170774,-2.0978634,-1.5670737,2.4384174,-0.10004512,0.24654475,-0.29918024,0.03588369,0.033448216,-0.10802674,0.095768064,0.3256114,-9.481039,0.88960326,47.675243,-0.89617,-2.0985947,-3.3173163,-0.10539328,0.1268435,-0.18375342,25.5625,26.25,25.4375,28.1875,28.875,29.1875
0.28805465,-0.2710865,-0.47823894,-0.8063532,-0.040047064,0.00122868,-0.11964108,-0.40070027,-0.35157648,0.059920743,3.0742571,-0.6242886,0.0002551766,-0.1360475,-0.023956342,0.0011140252,-0.036971144,-0.00045440707,0.002467548,0.4630665,-1.3908073,1.9165162,-2.0977428,-1.5669659,2.4382167,-0.097804815,0.24739009,-0.3011651,0.037917133,0.03298442,-0.10006851,-0.05746084,0.34476504,-9.595961,0.8784135,47.674347,-1.2044343,-2.1167834,-3.4135418,-0.15472057,0.13663955,-0.24545959,25.5625,26.25,25.4375,28.1875,28.875,29.1875
0.29005414,-0.9483788,-1.3565073,-0.8426301,-0.029634017,0.0024536955,-0.10459815,-0.40098593,-0.35164168,0.059939343,3.0741506,-0.62427044,0.0002249961,-0.1367646,-0.022295842,0.0002707099,-0.036137987,-0.0029785128,-0.004473125,0.46288502,-1.3903143,1.9158825,-2.0976832,-1.5668935,2.4380379,-0.1014511,0.24865164,-0.30114445,0.03926495,0.033371005,-0.0967712,-0.15322891,0.4405331,-9.557653,0.88960326,47.688675,-1.0146211,-2.089579,-3.4551044,-0.18636712,0.10502939,-0.28401032,25.5625,26.25,25.4375,28.1875,28.875,29.1875
0.29205474,-0.4953388,-0.84408754,-0.7980934,-0.034871265,0.018193046,-0.12327319,-0.40124884,-0.35167816,0.059929743,3.0741036,-0.62424016,0.00027360613,-0.1357232,-0.022444611,-0.00075452274,-0.034619205,-0.00496139,-0.004186393,0.46268192,-1.3898216,1.9153098,-2.0976102,-1.5668339,2.437822,-0.09989747,0.24990873,-0.30054024,0.039865505,0.03289947,-0.09550512,0.019153614,0.30645782,-9.576807,0.8605109,47.701214,-1.150601,-1.9454778,-3.6025157,-0.21993223,0.08936654,-0.32504857,25.5625,26.25,25.4375,28.1875,28.875,29.1875
0.29405418,-0.94774765,-0.953387,-0.40967795,-0.03292828,0.021213748,-0.12458147,-0.40153798,-0.35173404,0.059926577,3.074033,-0.62416834,0.00026086584,-0.13669449,-0.022325575,0.00019417048,-0.035340343,-0.0027234945,-0.005137487,0.46248946,-1.3892932,1.914689,-2.097575,-1.5667738,2.4375942,-0.10062772,0.24891107,-0.30158705,0.03959807,0.032550294,-0.0952829,0.019153614,0.30645782,-9.5385,0.90527004,47.67345,-1.1866454,-1.9568443,-3.6867692,-0.24242267,0.074949645,-0.32756954,25.5625,26.25,25.4375,28.1875,28.875,29.1875
0.2960545,-1.0752697,-0.6682185,-0.08789066,-0.024696147,0.030196335,-0.11380478,-0.4018226,-0.35179633,0.059953097,3.0739067,-0.62423885,0.0002557013,-0.13919765,-0.022532543,0.001075221,-0.03613149,-0.0003992337,-0.00710157,0.46229726,-1.388812,1.9140419,-2.097479,-1.5666898,2.4374626,-0.10213541,0.25099507,-0.3061611,0.03966876,0.03221976,-0.094822764,-0.26815057,0.19153614,-9.3661175,0.9925471,47.679718,-1.0921364,-1.8341918,-3.598677,-0.22954234,0.08339627,-0.35245055,25.5625,26.25,25.4375,28.1875,28.875,29.1875
0.29805434,-1.0476424,0.55058026,-0.4279913,0.0024967894,0.018846331,-0.120211154,-0.40210074,-0.35184205,0.059953418,3.0738447,-0.6241693,0.00022866491,-0.14048013,-0.022779733,0.0020136447,-0.03709656,0.0016100575,-0.008319784,0.46210495,-1.38832,1.9134554,-2.0974433,-1.5666422,2.437235,-0.10270213,0.25107363,-0.3085111,0.039719734,0.032189384,-0.09416873,-0.17238252,0.17238252,-9.385271,0.92764956,47.684196,-1.0772272,-1.6575938,-3.6161602,-0.26699919,0.06660106,-0.3724463,25.5625,26.25,25.375,28.125,28.875,29.1875
0.30005404,-0.94036096,1.058713,-0.22884642,0.016019149,0.029709546,-0.12566966,-0.40237278,-0.3518839,0.05994738,3.0737545,-0.6242466,0.00029663843,-0.14244142,-0.02323303,0.0024983727,-0.037641477,0.0038282117,-0.009515504,0.46188897,-1.3878146,1.9128565,-2.09736,-1.5665587,2.4370792,-0.103196785,0.2532535,-0.3121099,0.038924016,0.03168165,-0.09346647,-0.095768064,0.11492168,-9.461885,0.86498255,47.681515,-1.0805231,-1.7554164,-3.505665,-0.26068056,0.055445384,-0.41016704,25.5625,26.25,25.375,28.125,28.875,29.1875
0.3020544,-0.7968267,1.0611264,-0.16011599,0.028119002,0.033537816,-0.124506876,-0.40265054,-0.35193357,0.05996004,3.073692,-0.6242125,0.00031442527,-0.14425291,-0.023152018,0.0016995632,-0.036477476,0.0033036468,-0.0059886468,0.46169645,-1.38732,1.9122218,-2.0972521,-1.5664986,2.4368737,-0.10430816,0.2579154,-0.31593305,0.039107636,0.030886078,-0.09810297,-0.22984336,0.1340753,-9.404425,0.8851263,47.664497,-1.103291,-1.9198616,-3.370896,-0.2784391,0.040494926,-0.38320577,25.5625,26.25,25.375,28.125,28.875,29.1875
0.30405372,-1.4389709,1.0166396,-0.48660114,0.020240678,0.03868518,-0.117539555,-0.4029614,-0.35198694,0.05996453,3.0735781,-0.62422824,0.00031019736,-0.14612488,-0.021526426,0.0014238028,-0.034771018,0.003675842,-0.0075569456,0.46146727,-1.386779,1.9115647,-2.0972044,-1.5664152,2.4366693,-0.10756556,0.2595911,-0.3174847,0.03943899,0.029205969,-0.09979222,-0.3256114,0.1340753,-9.423578,0.8784135,47.66987,-1.0031266,-2.0136194,-3.4236476,-0.30996802,0.06562401,-0.38893598,25.5625,26.25,25.375,28.125,28.875,29.1875
0.30605406,-1.7996653,-0.118811294,-0.63215804,0.012833525,0.06402496,-0.12340912,-0.40323105,-0.3520079,0.059963252,3.0735548,-0.62423486,0.00038915023,-0.14650379,-0.022636078,0.0018363382,-0.03440004,0.005521604,0.0028743024,0.46124035,-1.3862864,1.9109553,-2.0970604,-1.5663675,2.4364498,-0.105161235,0.26073042,-0.31983098,0.03920859,0.02807259,-0.10782098,-0.5363012,0.11492168,-9.442732,0.8940802,47.66808,-1.1255717,-1.9317226,-3.451541,-0.31897527,0.066363335,-0.32878292,25.5625,26.25,25.375,28.125,28.875,29.1875
0.30805406,-2.4685824,-0.52566713,-0.36570546,-0.02272341,0.08291374,-0.11441169,-0.4035345,-0.35208476,0.060010478,3.0734289,-0.6241527,0.00032283462,-0.14914377,-0.02083566,0.001702795,-0.03389306,0.006103068,0.0017186604,0.4610586,-1.3858055,1.9102606,-2.096965,-1.5662841,2.4362333,-0.11000825,0.26268062,-0.3219029,0.039068174,0.027383069,-0.11150944,-0.6703765,0.28730422,-9.404425,0.93436235,47.681515,-1.0280535,-1.8533447,-3.5063252,-0.35112336,0.06967045,-0.26425093,25.5625,26.25,25.375,28.125,28.875,29.1875
0.31005448,-2.7166667,-0.8820124,-0.3542959,-0.03645828,0.08847312,-0.12443227,-0.40382853,-0.35211843,0.059993207,3.07343,-0.6241079,0.0003374691,-0.14847866,-0.021829054,0.00084906927,-0.032543957,0.006072022,0.010425422,0.4608556,-1.3852403,1.9096154,-2.0968816,-1.5662726,2.4360025,-0.10687814,0.26468042,-0.32222968,0.038058925,0.026206808,-0.11708807,-0.6703765,0.2681506,-9.346964,0.88289046,47.67614,-1.0787258,-1.8405478,-3.4623754,-0.3551807,0.08147682,-0.21504134,25.5625,26.25,25.375,28.125,28.875,29.1875
0.31205365,-1.981823,-0.874561,-0.37460226,-0.03998203,0.104361154,-0.115626045,-0.40412885,-0.35214922,0.059999283,3.0733824,-0.6240967,0.00033142153,-0.15013196,-0.021292614,0.00063991075,-0.03173576,0.007922524,0.013744881,0.4606273,-1.3847227,1.9089702,-2.0967863,-1.5662369,2.4357736,-0.10815634,0.26649845,-0.32364595,0.036395248,0.024676237,-0.12168691,-0.82360536,0.22984336,-9.519346,0.91421866,47.67614,-1.0554947,-1.854459,-3.6125364,-0.3629453,0.10161914,-0.1404163,25.5625,26.25,25.375,28.125,28.875,29.1875
0.3140538,-2.3609898,-0.7101485,-0.2640527,-0.03432003,0.08725119,-0.12102261,-0.40443802,-0.35220012,0.059997603,3.073304,-0.62406164,0.00031738356,-0.1510297,-0.021153688,0.00016554161,-0.031500857,0.008889559,0.013353783,0.46041104,-1.38417,1.9083122,-2.0967386,-1.5661768,2.435546,-0.108656704,0.2680886,-0.3241634,0.034576237,0.0240426,-0.12179563,-0.7469909,0.21068975,-9.404425,0.8493211,47.683304,-1.0933114,-1.8156867,-3.7129612,-0.34868598,0.097096525,-0.095449686,25.5625,26.25,25.375,28.125,28.875,29.1875
0.3160543,-1.7733159,-0.14773881,-0.20871457,-0.026402403,0.07227869,-0.12451562,-0.40473083,-0.35223594,0.05999561,3.07324,-0.6240305,0.00033326345,-0.15398003,-0.022423463,0.0012773793,-0.03375527,0.01348008,0.011113119,0.46018314,-1.3836527,1.9076909,-2.096668,-1.5661167,2.435307,-0.108869694,0.27060688,-0.32918957,0.03197373,0.024009041,-0.11976479,-0.68953013,0.22984336,-9.404425,0.9388393,47.67345,-1.0726924,-1.8083916,-3.6579883,-0.331917,0.123774946,-0.09427569,25.5625,26.25,25.375,28.125,28.875,29.1875
0.31805378,-0.9600258,0.11663984,-0.114689894,-0.013843751,0.05530235,-0.11868838,-0.40505782,-0.35227957,0.05999941,3.0731583,-0.6239583,0.00023529609,-0.15652291,-0.022940928,0.0025231552,-0.03553485,0.017712764,0.006562608,0.45995477,-1.383111,1.9070438,-2.096669,-1.5660809,2.4350445,-0.109857194,0.27152172,-0.33279857,0.030079689,0.023719177,-0.1161983,-0.61291564,0.24899697,-9.3661175,0.9835985,47.67166,-1.0483041,-1.8917663,-3.6282032,-0.29645094,0.1398449,-0.09630391,25.5625,26.25,25.375,28.125,28.875,29.1875
0.32005417,-1.1956215,0.15492007,-0.35666743,0.0050594816,0.03006222,-0.11445398,-0.405411,-0.35232186,0.060015287,3.0730622,-0.6239987,0.00015322442,-0.15877877,-0.022783183,0.0033998226,-0.036508825,0.020219896,-0.00070779445,0.4597021,-1.3825347,1.9063143,-2.0966089,-1.5660456,2.43483,-0.11177274,0.27251384,-0.3359888,0.029585076,0.023471585,-0.11084056,-0.51714754,0.19153613,-9.270349,0.85826975,47.67614,-0.9777069,-1.8597403,-3.4336386,-0.27851745,0.15767244,-0.1469254,25.5625,26.25,25.375,28.125,28.875,29.1875
0.32205465,-0.7817906,0.40654084,-0.547267,0.01635474,0.017408006,-0.12228178,-0.40572384,-0.352389,0.060031224,3.0730004,-0.6239493,7.637731e-05,-0.1602801,-0.02257912,0.0027263793,-0.036712337,0.019753551,-0.0051486385,0.45953363,-1.3819811,1.9056085,-2.0965378,-1.5660208,2.434639,-0.11354287,0.27570182,-0.3382106,0.028939558,0.0238596,-0.108166,-0.38307226,0.2681506,-9.32781,0.9567419,47.716442,-0.9524306,-1.7646956,-3.5223684,-0.26860523,0.1718958,-0.19152427,25.5625,26.25,25.375,28.125,28.875,29.1875
0.32405642,-1.2876197,-0.5831981,-0.24347706,-0.004837195,0.028026149,-0.107812986,-0.40604568,-0.35241073,0.060028363,3.0728958,-0.624085,7.815389e-05,-0.1608743,-0.022896552,0.003559002,-0.037923973,0.021809388,-0.011081955,0.45925763,-1.3814408,1.9049634,-2.0964777,-1.5659608,2.4344616,-0.113468476,0.27474794,-0.33894858,0.02823568,0.024023496,-0.10215695,-0.4405331,0.30645782,-9.32781,0.85826975,47.696735,-0.93980503,-1.7770157,-3.5203767,-0.2350893,0.17248648,-0.25270554,25.5625,26.25,25.375,28.125,28.875,29.1875
0.3260544,-1.0457344,-0.8198351,0.036681596,-0.03993816,0.065862976,-0.113835044,-0.40637538,-0.35246226,0.06003349,3.0728326,-0.62403226,2.4949039e-05,-0.16211557,-0.023407673,0.0035411709,-0.03834285,0.02234165,-0.010223692,0.45904148,-1.3808639,1.9042567,-2.0964181,-1.565925,2.434221,-0.11361992,0.2772181,-0.34194112,0.02810859,0.024174973,-0.103163466,-0.51714754,0.34476504,-9.270349,0.9545008,47.65912,-0.81537235,-1.547684,-3.507296,-0.2129544,0.18018153,-0.27987617,25.5625,26.25,25.375,28.125,28.875,29.1875
0.32805416,-1.1787971,-0.64577425,-0.15270811,-0.03307179,0.07014401,-0.11702868,-0.40667918,-0.35249305,0.06001188,3.0727453,-0.62415105,8.500503e-05,-0.16225088,-0.02311193,0.0018908514,-0.037102304,0.018466564,-0.014953047,0.45878956,-1.3802977,1.903623,-2.0963576,-1.565853,2.4340549,-0.114489414,0.2812727,-0.34347364,0.029603029,0.02477466,-0.09930133,-0.30645782,0.36391866,-9.212888,0.9321212,47.681515,-0.98810625,-1.7650988,-3.5480967,-0.20668945,0.20624097,-0.3329323,25.5625,26.25,25.375,28.125,28.875,29.1875
0.33005354,-1.438683,-0.13972555,-0.066817455,-0.023672465,0.068525426,-0.11825704,-0.4070125,-0.35254607,0.060023103,3.0726576,-0.62415284,6.543759e-06,-0.16270462,-0.022796666,0.00052918115,-0.035350215,0.016091147,-0.016930936,0.45857313,-1.379732,1.9029177,-2.096309,-1.5658168,2.4338512,-0.11497385,0.28504154,-0.3451801,0.030449966,0.02426377,-0.09780602,-0.34476504,0.34476504,-9.270349,0.9164598,47.72002,-0.83251035,-1.8175325,-3.5566247,-0.2095847,0.21791373,-0.38582823,25.5625,26.25,25.375,28.125,28.875,29.1875
0.33205402,-0.67658675,0.10595655,0.057051945,-0.0116832135,0.07313106,-0.11892245,-0.40734255,-0.35258934,0.06002377,3.0725374,-0.6242432,-9.905281e-06,-0.16448957,-0.02325493,0.0006055825,-0.03648432,0.017632484,-0.018761229,0.4583208,-1.3791665,1.9022368,-2.0962622,-1.5657448,2.4336712,-0.11578129,0.2874988,-0.3480771,0.029012688,0.024599439,-0.09677942,-0.17238252,0.2681506,-9.308656,0.97464454,47.694946,-0.8967352,-1.9583406,-3.6173217,-0.20031546,0.23641592,-0.4433419,25.5625,26.25,25.375,28.125,28.875,29.1875
0.334054,-0.95730406,0.16319756,0.09889962,-0.0048747375,0.035000235,-0.11391545,-0.40768513,-0.35261753,0.060027357,3.0724843,-0.62426984,-7.191308e-05,-0.16595869,-0.024240907,0.0004423853,-0.038052514,0.018033952,-0.018534128,0.45806918,-1.3785892,1.9015292,-2.0961907,-1.5657324,2.4334435,-0.115969725,0.29080963,-0.3515764,0.028152686,0.025834031,-0.09718889,-0.22984336,0.36391866,-9.251195,0.92764956,47.681515,-0.9429676,-1.9548241,-3.5355349,-0.15809597,0.24250968,-0.48047704,25.5625,26.25,25.375,28.125,28.875,29.1875
0.3360534,-0.67169666,-0.188177,0.24970324,-0.018135246,0.020065902,-0.115564615,-0.4080305,-0.3526709,0.06002336,3.0723667,-0.62432057,-0.00012789606,-0.16694857,-0.02449102,0.0017094305,-0.03972084,0.02010946,-0.015259166,0.4578288,-1.3779885,1.9008244,-2.0961783,-1.5656718,2.4332504,-0.11661944,0.28969896,-0.35336936,0.028486997,0.026442446,-0.101109706,-0.15322891,0.40222588,-9.059659,0.9455522,47.64658,-0.9562892,-1.8943608,-3.5298665,-0.10787222,0.2576929,-0.47899255,25.5625,26.25,25.375,28.125,28.875,29.1875
0.33805436,0.6136957,0.22524703,0.28743246,-0.031359393,0.023784768,-0.13150571,-0.40838164,-0.35272074,0.06002775,3.072289,-0.62431866,-0.00022165364,-0.16729745,-0.02463175,0.0017110615,-0.03857107,0.020181244,-0.009048349,0.45760083,-1.3773878,1.9000949,-2.0961425,-1.5656484,2.4330318,-0.11590105,0.2909621,-0.3552937,0.02963194,0.025417626,-0.10660212,0.11492168,0.36391866,-8.963891,0.9321212,47.65643,-0.9819727,-1.7836386,-3.4886527,-0.0973807,0.27655128,-0.45497054,25.5625,26.25,25.375,28.125,28.875,29.1875
0.34005353,0.351115,-0.17633012,0.13505994,-0.033117495,-0.005740516,-0.12573758,-0.40873536,-0.35277355,0.060044046,3.0721712,-0.62434685,-0.0003191611,-0.16857955,-0.02440573,0.0017018602,-0.038713753,0.0200626,-0.0014230371,0.45736063,-1.3768103,1.8993653,-2.0961058,-1.5656003,2.4328249,-0.11738179,0.29283902,-0.35781905,0.030380966,0.025653215,-0.11570404,0.05746084,0.45968673,-9.11712,0.85826975,47.684196,-1.0503837,-1.8506248,-3.6023242,-0.08266046,0.2982197,-0.37605107,25.5625,26.25,25.375,28.125,28.875,29.1875
0.34205344,0.27707133,-0.6959429,0.39731365,-0.037194144,-0.013273865,-0.12122188,-0.40904555,-0.35281038,0.06002341,3.0721798,-0.6242862,-0.00026521142,-0.16949825,-0.026213171,0.0033355984,-0.04040771,0.022699418,0.006056698,0.4571454,-1.3761983,1.8986591,-2.0959857,-1.5655764,2.432571,-0.11517104,0.29316014,-0.36232394,0.031485137,0.026028581,-0.12097148,-0.038307227,0.49799395,-8.963891,0.92093146,47.66987,-1.081482,-1.7721007,-3.4208283,-0.049028814,0.3096367,-0.33469614,25.5625,26.25,25.375,28.125,28.875,29.1875
0.34405357,0.6845102,0.16681056,0.2613464,-0.04384487,0.0006983488,-0.12911917,-0.40938744,-0.35286692,0.06001784,3.072056,-0.6242592,-0.00027282268,-0.17102943,-0.02497375,0.0033400522,-0.04056775,0.021378582,0.00957509,0.456892,-1.3755966,1.8979529,-2.0959613,-1.5654796,2.432317,-0.118928,0.29447764,-0.3645238,0.03353601,0.026805142,-0.12824237,0.11492168,0.4405331,-9.002198,0.8940802,47.653748,-1.0345448,-1.6408408,-3.402286,-0.08021304,0.30813465,-0.2247549,25.5625,26.25,25.375,28.125,28.875,29.1875
0.34605393,-0.27154553,-0.24695393,0.1403015,-0.025436947,-0.0084046675,-0.1107725,-0.40972877,-0.35290226,0.060003847,3.0720193,-0.6242289,-0.00026440658,-0.17044201,-0.02576151,0.0026465922,-0.040373184,0.019126408,0.014096513,0.4566407,-1.3749712,1.8972234,-2.0958774,-1.5654434,2.432052,-0.11746185,0.29657376,-0.36593816,0.034986056,0.027648741,-0.13129452,0.11492168,0.45968673,-8.963891,0.92093146,47.67166,-1.0629393,-1.7622097,-3.4262743,-0.062124934,0.33382624,-0.17509891,25.5625,26.25,25.375,28.125,28.875,29.1875
0.34805432,0.23797983,-0.089407824,0.20147431,-0.029686294,0.021051278,-0.122306496,-0.4100887,-0.35295713,0.060031697,3.071912,-0.62420774,-0.00036167097,-0.17149179,-0.025571588,0.0017039136,-0.04038026,0.017029963,0.012512077,0.45639998,-1.374394,1.8964585,-2.0958045,-1.5653952,2.4318123,-0.11911854,0.30016947,-0.36839,0.035730984,0.028599093,-0.13135985,0.17238253,0.38307226,-9.059659,0.93436235,47.67793,-1.0031403,-1.7818741,-3.4867287,-0.045237303,0.34477228,-0.1430604,25.5625,26.25,25.375,28.125,28.875,29.1875
0.35005334,0.19802375,0.27239308,0.37717986,-0.023873976,0.01980751,-0.12406771,-0.41039714,-0.3530137,0.05999417,3.0718772,-0.62412655,-0.00024642536,-0.17205346,-0.025279867,0.0013587254,-0.040762477,0.015459918,0.0077040135,0.45618346,-1.3737447,1.8957533,-2.09572,-1.5653108,2.4315498,-0.120595396,0.30164054,-0.3698028,0.036909513,0.029622238,-0.12802622,0.1340753,0.36391866,-9.078813,0.81351066,47.699425,-0.9009625,-1.8527493,-3.4823565,-0.034703024,0.3452435,-0.14148293,25.5625,26.25,25.375,28.125,28.875,29.1875
0.3520533,-0.0992485,-0.19995886,0.11938224,-0.019352915,0.020277116,-0.111829326,-0.41074985,-0.35307634,0.060024478,3.0717819,-0.6240337,-0.00031790664,-0.17248674,-0.025131835,-2.9365758e-05,-0.04062011,0.011821759,0.00031246504,0.45595497,-1.3731672,1.8949765,-2.0956242,-1.5652503,2.431276,-0.121978834,0.30552477,-0.37173176,0.038259834,0.031088809,-0.12200973,-0.11492168,0.4213795,-9.155427,0.91421866,47.70659,-0.80607677,-1.9280561,-3.5321727,-0.030499974,0.3487319,-0.17876378,25.5625,26.25,25.375,28.125,28.875,29.1875
0.35405326,0.19474213,-0.02132655,-0.11473903,-0.027698237,0.0205717,-0.12706557,-0.41108507,-0.353098,0.0599775,3.0717409,-0.6241243,-0.00023827709,-0.17243516,-0.025335837,-0.00068718434,-0.04083665,0.009952158,-0.0053920993,0.45567918,-1.3725054,1.8942827,-2.0955641,-1.5652021,2.4310625,-0.122052655,0.30727047,-0.37267718,0.039022975,0.03208501,-0.11637665,0.13407528,0.28730422,-9.155427,0.89631605,47.690468,-0.83420867,-2.0455153,-3.5944653,-0.04114992,0.33928895,-0.25477505,25.5625,26.25,25.375,28.125,28.875,29.1875
0.35605368,-0.41332394,-0.09294567,0.25614235,-0.019562708,-0.0031062553,-0.116472706,-0.411423,-0.35316017,0.059979923,3.071667,-0.6240705,-0.0002522229,-0.17359623,-0.02589136,-0.00057349214,-0.040841836,0.01000808,-0.007932347,0.4554632,-1.3718923,1.8935288,-2.0954802,-1.565142,2.4308228,-0.12192902,0.309871,-0.37645903,0.040151123,0.03205973,-0.11370969,0.0,0.2681506,-9.11712,1.0350704,47.683304,-0.8909011,-2.0700517,-3.6703115,-0.017564123,0.3515398,-0.30306458,25.5625,26.25,25.375,28.125,28.875,29.1875
0.3580537,-0.12365225,-0.28999764,0.34103024,-0.022495514,0.022450328,-0.11911727,-0.41177285,-0.35319585,0.059961297,3.0715942,-0.624133,-0.00024749967,-0.17454621,-0.026947679,3.2886004e-05,-0.04191407,0.010906127,-0.008792555,0.4551996,-1.3712552,1.8927993,-2.0954201,-1.5650939,2.430608,-0.12112215,0.31143236,-0.38004306,0.040898416,0.032624964,-0.11203873,-0.21068975,0.24899697,-9.11712,0.9030289,47.685097,-0.9964459,-1.9925486,-3.4870658,-0.018857624,0.35152882,-0.34384543,25.5625,26.25,25.375,28.125,28.875,29.1875
0.3600536,-0.2159069,-0.059418775,-0.07204137,-0.010162467,0.03315686,-0.1166781,-0.41210422,-0.3532466,0.059948947,3.0715032,-0.6241705,-0.00016572146,-0.17536671,-0.027848167,0.00029759688,-0.042959884,0.010966929,-0.007999017,0.45494786,-1.3706294,1.8920578,-2.0953119,-1.5649976,2.4303918,-0.12069494,0.31335115,-0.38329417,0.04173447,0.033541985,-0.11240103,-0.11492168,0.28730422,-9.078813,0.8873621,47.661808,-1.0711848,-2.0589595,-3.4750166,0.009323095,0.37816682,-0.3496566,25.5625,26.25,25.375,28.125,28.875,29.1875
0.36205384,0.03295014,0.498352,-0.23589113,-0.008453097,0.048582893,-0.1191629,-0.4124422,-0.35332146,0.059924744,3.071424,-0.624136,-8.755111e-05,-0.17646681,-0.028858991,0.0024005966,-0.045648966,0.0136064,-0.009441185,0.45473167,-1.3699452,1.8912786,-2.095228,-1.5649008,2.4301646,-0.12052462,0.31181473,-0.38675284,0.043181527,0.03479425,-0.11078386,-0.1340753,0.38307226,-9.232041,0.9365982,47.684196,-0.99845564,-2.008963,-3.3331494,-0.014887768,0.36506516,-0.42273328,25.5625,26.25,25.375,28.125,28.875,29.1875
0.3640539,-0.2579195,0.5376362,-0.09083897,-0.022358643,0.051218882,-0.12737599,-0.41277254,-0.35337144,0.059906874,3.0713768,-0.624106,-4.01999e-05,-0.17709893,-0.027244415,0.0013878813,-0.044667047,0.01085009,-0.009377814,0.45450267,-1.3693087,1.8905386,-2.0951312,-1.5648412,2.4299233,-0.12388639,0.313422,-0.38689256,0.044655178,0.03514883,-0.11420809,-0.22984336,0.34476504,-9.423578,0.8851263,47.691364,-1.0424757,-1.9081066,-3.4795296,-0.01671675,0.3453098,-0.39243138,25.5625,26.25,25.375,28.125,28.875,29.1875
0.3660539,-0.7641464,-0.2371094,-0.38632283,-0.016733348,0.044083063,-0.118528314,-0.41317293,-0.3534216,0.059936024,3.0712545,-0.6241926,-9.3901144e-05,-0.17489477,-0.026856013,-0.0012113021,-0.041463725,0.004400711,-0.0051735127,0.45421526,-1.3686585,1.8896669,-2.0949981,-1.5647811,2.4297063,-0.12252592,0.31651467,-0.3855056,0.04741061,0.0351411,-0.117049746,-0.095768064,0.3256114,-9.442732,1.0373062,47.657326,-1.003478,-1.9193358,-3.7428434,-0.01806457,0.3696888,-0.4110058,25.5625,26.25,25.375,28.125,28.875,29.1875
0.36805406,-0.6638987,-0.35099527,-0.5816507,-0.033627734,0.057647098,-0.117200434,-0.41351786,-0.35348308,0.05992692,3.0711763,-0.6241152,-9.521585e-05,-0.17488883,-0.025752002,-0.0018639342,-0.039711088,0.0010501936,0.00022680225,0.4539866,-1.3680215,1.888914,-2.0949376,-1.5647091,2.4294398,-0.12422409,0.3179252,-0.3867327,0.051066577,0.03508601,-0.12414681,-0.1340753,0.30645782,-9.557653,0.9388393,47.693153,-0.99649394,-2.0790486,-3.8696864,-0.075113304,0.37476718,-0.33131278,25.5625,26.25,25.375,28.125,28.875,29.1875
0.37005407,-0.6843778,-0.24866796,-0.48290977,-0.04348275,0.05660717,-0.11618725,-0.41386867,-0.3535178,0.059923306,3.0711153,-0.62415516,-7.574238e-05,-0.17649618,-0.025880402,-0.002379772,-0.040323067,0.0006752278,0.006668249,0.4537221,-1.3673959,1.8881482,-2.0948179,-1.5646604,2.4292085,-0.12565877,0.3214134,-0.3898525,0.050827555,0.03583748,-0.13201874,-0.22984336,0.2873042,-9.595961,0.8918391,47.696735,-0.88536406,-2.1087887,-3.8495445,-0.067962624,0.37819442,-0.25412643,25.5625,26.25,25.375,28.125,28.875,29.1875
0.37205428,-0.6913105,-0.22229992,-0.7261929,-0.040204205,0.050099287,-0.120970026,-0.41420472,-0.35357666,0.059917297,3.071047,-0.6240809,4.784848e-06,-0.17683344,-0.02617053,-0.002796017,-0.039812796,-0.0015806371,0.011330782,0.45348233,-1.3667583,1.8873705,-2.0946853,-1.5645646,2.4289315,-0.12564266,0.32413355,-0.39295843,0.053512815,0.03639376,-0.13666236,-0.28730422,0.34476504,-9.691729,0.88960326,47.684196,-0.887597,-2.180028,-3.7837114,-0.10269424,0.37650412,-0.18591186,25.5625,26.25,25.375,28.125,28.875,29.1875
