Tylouw/Master_Thesis_Code/training_data/batch_1/small_rod_t0.1/sample_93_session_3.csv
timestamp[s],tcp_force_x[N],tcp_force_y[N],tcp_force_z[N],tcp_force_rx[Nm?],tcp_force_ry[Nm?],tcp_force_rz[Nm?],tcp_pose_x[m],tcp_pose_y[m],tcp_pose_z[m],tcp_pose_rx[rot_vec_x],tcp_pose_ry[rot_vec_y],tcp_pose_rz[rot_vec_z],tcp_velo_x[m/s],tcp_velo_y[m/s],tcp_velo_z[m/s],tcp_velo_rx[rot_vec_x/s],tcp_velo_ry[rot_vec_y/s],tcp_velo_rz[rot_vec_z/s],q1[rad],q2[rad],q3[rad],q4[rad],q5[rad],q6[rad],qd1[rad/s],qd2[rad/s],qd3[rad/s],qd4[rad/s],qd5[rad/s],qd6[rad/s],tool_acc_x,tool_acc_y,tool_acc_z,current_of_whole_robot[A],voltage_of_whole_robot[V],current_J1[A],current_J2[A],current_J3[A],current_J4[A],current_J5[A],current_J6[A],temp_J1[C],temp_J2[C],temp_J3[C],temp_J4[C],temp_J5[C],temp_J6[C]
8.610077e-07,-0.52091545,-0.46864885,0.99848306,-0.0087378565,-0.00290632,-0.026108474,-0.38102815,-0.34850296,0.0599294,-3.0784373,0.62486106,-0.00028158235,0.0010801624,0.000565941,-0.0009906001,0.0010050309,-0.0022088164,5.5409673e-05,0.47779807,-1.42591,1.9577736,-2.1008089,-1.5707816,2.452752,-8.8955756e-05,-9.285678e-06,0.0022278626,0.00020452368,0.00012840207,-0.00014577169,0.05746084,0.17238252,-8.772355,0.7284641,47.682407,0.058193892,-2.756822,-2.3687081,-0.45031217,0.08765556,0.055013165,26.6875,27.5625,26.6875,30.0625,31.375,31.9375
0.00205489,-0.19200566,-0.11800467,1.0385848,-0.011659838,0.0011789218,-0.02649066,-0.38105682,-0.3485247,0.059953216,-3.0784788,0.6249281,-0.00017680947,-0.0013414222,-0.0006951994,-0.001471867,-0.002685944,0.004876527,5.4688106e-05,0.4778101,-1.4259094,1.9577278,-2.1008494,-1.5707816,2.4528008,-8.771727e-05,0.0019390669,0.0037045137,-0.01120955,0.00012483963,-0.00014193931,-0.019153614,0.11492168,-8.714894,0.7530795,47.695843,-0.013461271,-2.6937718,-2.482912,-0.39980647,0.069462135,0.052155517,26.6875,27.5625,26.6875,30.0625,31.375,31.9375
0.004053881,-0.07742396,-0.06483296,1.1030577,-0.008592965,0.0021123406,-0.025258968,-0.38102117,-0.34851918,0.059916068,-3.0784957,0.6248346,-0.00027030706,-0.0020372805,-0.0010578472,-0.002025816,-0.0030519709,0.0055770017,5.3265063e-05,0.4778101,-1.4259086,1.9578227,-2.1008976,-1.5707458,2.4527402,-8.6512715e-05,0.0039118277,0.0032468722,-0.013514996,0.00012146962,-0.00013830372,0.15322891,0.095768064,-8.676587,0.800085,47.690468,0.015299663,-3.1262984,-2.7071376,-0.30607748,0.092206895,0.06848309,26.6875,27.5625,26.6875,30.0625,31.375,31.9375
0.006054342,-0.026715158,0.28010157,0.90936375,0.009055472,-0.01929472,-0.01910355,-0.38104534,-0.34853432,0.059936885,-3.0785124,0.62485707,-0.0002012271,-0.0010553435,-0.000545458,-0.001295504,-0.0016884748,0.002974144,5.013522e-05,0.47782204,-1.4258972,1.9577616,-2.1008952,-1.5707573,2.452764,-8.534087e-05,0.0022561103,0.0021756534,-0.007849705,0.00011827693,-0.00013484986,0.05746084,0.1340753,-8.695741,0.7777002,47.711964,0.015807766,-3.0939398,-2.6361732,-0.3273514,0.08323521,0.05952233,26.6875,27.5625,26.6875,30.0625,31.375,31.9375
0.008053678,0.7175984,0.84774965,0.38307762,0.032737467,-0.028404238,-0.0269643,-0.3810194,-0.3485272,0.05991314,-3.0784876,0.6248903,-0.0003247422,-0.0008948664,-0.00046114117,-0.00024782418,-0.0013355617,0.002310188,4.7906586e-05,0.4778101,-1.4258857,1.9577969,-2.10087,-1.5707215,2.452776,-8.420026e-05,0.00094729837,0.0003998881,-0.004013227,0.00011524742,-0.00013156427,0.05746084,0.17238252,-8.848969,0.7709874,47.73077,0.0042473944,-2.9084322,-2.5422368,-0.37334248,0.08625355,0.043419648,26.6875,27.5625,26.6875,30.0625,31.375,31.9375
0.01005377,0.6072003,1.023465,0.22713858,0.024240809,-0.023906704,-0.03689634,-0.38105112,-0.34851456,0.059921894,-3.078502,0.6248745,-0.00024307558,-0.00073291356,-0.00037590595,0.0003769526,-0.0013818056,0.0024118912,4.5559973e-05,0.4777741,-1.4258862,1.9577855,-2.1009052,-1.5707458,2.4527283,-8.308983e-05,-0.00032303014,8.4470754e-05,-0.0025390433,0.00011236952,-0.00012843512,0.038307227,0.24899697,-9.174581,0.7351769,47.71286,-0.07011336,-2.1638887,-3.3135881,-0.37234426,0.052959915,0.012219175,26.6875,27.5625,26.6875,30.0625,31.375,31.9375
0.012053508,-0.20393375,-0.34148672,-0.112223685,0.002172635,-0.018510984,-0.020845467,-0.38106087,-0.34852892,0.059928533,-3.078499,0.6248736,-0.00022045623,-0.00018163232,-7.879888e-05,-0.003101856,0.0025871051,-0.005202631,7.018937e-05,0.47779807,-1.4258597,1.9577373,-2.1008928,-1.5707573,2.452752,-9.2357746e-05,0.0077837543,-0.0017261142,-0.00024839822,9.0589965e-05,-0.0001605478,0.1340753,0.17238252,-9.2703495,0.73069996,47.71017,-0.24641523,-2.0265963,-3.6638777,-0.37424386,0.050590064,-0.020009138,26.6875,27.5625,26.6875,30.0625,31.375,31.9375
0.014053702,-0.47820464,-1.074429,-0.27159214,-0.02333566,0.0064356853,-0.024932941,-0.3810377,-0.34851688,0.059905425,-3.078437,0.6248782,-0.00033685743,-0.0043974835,-0.0022828265,-0.0035984544,0.0024710698,-0.0050228583,0.0030431878,0.47779807,-1.4258316,1.9577445,-2.1008327,-1.5707573,2.4527628,-8.399143e-05,0.018719558,-0.013107569,-1.621863e-05,8.5807565e-05,-0.0031177346,0.0,0.24899697,-9.423578,0.8179876,47.705692,-0.32598865,-2.8359528,-3.2721138,-0.34651798,0.041858267,-0.06659359,26.6875,27.5625,26.6875,30.0625,31.375,31.9375
0.016054306,-1.481298,-1.5294098,-0.40321335,-0.040163685,0.018339165,-0.02991856,-0.3810554,-0.34850106,0.05989151,-3.078381,0.62488365,-0.0003213553,-0.004828564,-0.0006142561,-0.0035937573,0.0037564842,-0.007452861,0.006687186,0.47778484,-1.4257839,1.9577216,-2.1008313,-1.5708054,2.4527602,-0.0034357605,0.018485574,-0.013655159,0.0035127797,6.54833e-05,-0.010113936,-0.1340753,0.36391866,-9.634268,0.81351066,47.698532,-0.31892943,-2.6423054,-3.4142122,-0.36596978,0.03956132,0.009352941,26.6875,27.5625,26.6875,30.0625,31.375,31.9375
0.018053347,-1.4173124,-1.5901353,-0.44314906,-0.061120275,0.037137967,-0.048759185,-0.3810352,-0.34849843,0.059859287,-3.0783715,0.62486273,-0.0004963952,-0.005982361,0.00020190323,-0.0029644505,0.00361009,-0.0071671717,0.007377682,0.4777601,-1.4257362,1.9577326,-2.100795,-1.5707458,2.4527235,-0.0059522376,0.01817011,-0.015050214,0.0049024373,6.147887e-05,-0.013320533,-0.24899697,0.49799395,-9.787497,0.7530795,47.71823,-0.13643125,-2.3287258,-3.520277,-0.3903147,0.024206128,0.022162307,26.6875,27.5625,26.6875,30.0625,31.375,31.9375
0.02005415,-1.2412479,-1.4883701,-0.46467993,-0.07370128,0.047936197,-0.06007223,-0.38102627,-0.3485188,0.059847325,-3.0783958,0.62475085,-0.0005245923,-0.0059074797,-0.0004475385,-0.0034076814,0.0041054487,-0.008126103,0.009808477,0.4777965,-1.4256994,1.9577206,-2.100807,-1.5707334,2.452687,-0.004729394,0.02023709,-0.016498493,0.0053630606,5.994964e-05,-0.014527515,-0.34476504,0.6512228,-9.864111,0.800085,47.70211,-0.1621714,-2.4025247,-3.5965915,-0.39041278,0.0161666,0.03628182,26.6875,27.5625,26.6875,30.0625,31.375,31.9375
0.022054259,-1.2081629,-1.4385947,-0.8228731,-0.078397945,0.059749477,-0.075891525,-0.38105687,-0.3485127,0.059860293,-3.0783706,0.62474537,-0.0005153452,-0.0071043666,-0.0014963424,-0.0027604047,0.0032877154,-0.0063030375,0.01081521,0.4777728,-1.4256629,1.9576358,-2.1007469,-1.5707573,2.4526632,-0.0038960984,0.021869339,-0.019755013,0.004992474,-6.0475722e-05,-0.014698732,-0.5554548,0.7278373,-9.672575,0.800085,47.711063,-0.37730116,-2.3874612,-3.6106744,-0.3536961,0.017760709,0.030820148,26.6875,27.5625,26.6875,30.0625,31.375,31.9375
0.024054283,-1.8485993,-1.9533489,-0.81687033,-0.057814326,0.057964664,-0.08059462,-0.3810674,-0.34849334,0.05983659,-3.078332,0.62473816,-0.00056109903,-0.008092515,-0.0017390937,-0.0024887735,0.002999013,-0.0056558223,0.010400685,0.47773662,-1.4256145,1.9576348,-2.1007469,-1.5707697,2.4526274,-0.0043499405,0.02313967,-0.021851825,0.00511144,-0.00010688227,-0.014736715,-0.4596867,0.6895301,-9.80665,0.8112748,47.689575,-0.43905497,-2.2863631,-3.612977,-0.3692152,0.0014386944,0.021175066,26.6875,27.5625,26.6875,30.0625,31.375,31.9375
0.026054166,-1.2493627,-1.4228262,-0.79807717,-0.056770798,0.06763081,-0.09725091,-0.38107127,-0.34849992,0.059797253,-3.078274,0.6246698,-0.00063874514,-0.009246373,-0.0015321934,-0.0019839918,0.0028520876,-0.0053075175,0.008451641,0.47776017,-1.4254946,1.9575852,-2.1007345,-1.5707935,2.4526157,-0.0057659354,0.0238877,-0.024121,0.006255598,-0.00013950976,-0.014202557,-0.40222588,0.51714754,-9.844957,0.67475104,47.694054,-0.36086178,-2.2701423,-3.6149619,-0.34703603,0.017036438,-0.018698048,26.6875,27.5625,26.6875,30.0625,31.375,31.9375
0.02805338,-1.6729212,-1.6884378,-0.7711889,-0.03941342,0.035603855,-0.10108921,-0.3810762,-0.34850875,0.059810624,-3.0783238,0.6246804,-0.00063003384,-0.010875166,-0.0015897286,-0.0010754738,0.0021961348,-0.003986515,0.0075300434,0.47774777,-1.4255182,1.9575843,-2.1007464,-1.5707573,2.4526036,-0.007153173,0.024675567,-0.027305461,0.0071780477,-0.00016895663,-0.01466659,-0.40222588,0.4405331,-9.844957,0.7530795,47.703903,-0.46178675,-2.2269292,-3.6355503,-0.35660475,-0.0022954545,-0.036148775,26.6875,27.5625,26.6875,30.0625,31.375,31.9375
0.030053595,-1.0140215,-0.91417694,-0.58697003,-0.024241723,0.04072599,-0.11874163,-0.3811136,-0.34850556,0.05980076,-3.0782826,0.62467104,-0.0006509099,-0.011855635,-0.0015126115,-0.0012970504,0.0029142348,-0.0041410923,0.0077188765,0.47772348,-1.4254216,1.9574884,-2.1007102,-1.5707821,2.4525788,-0.007827294,0.02686271,-0.029374361,0.007528782,-0.0007404793,-0.015526992,-0.4213795,0.34476507,-9.80665,0.76874626,47.67345,-0.4099068,-2.289597,-3.6076508,-0.32640558,-0.0299967,-0.031922534,26.6875,27.5625,26.6875,30.0625,31.375,31.9375
0.032053884,-1.5321758,-0.6608364,-0.46550217,0.0064375824,0.025007928,-0.12952603,-0.38113037,-0.34854084,0.059797518,-3.0783284,0.62462306,-0.000671842,-0.013005862,-0.001685721,-0.0012520188,0.0029868577,-0.003619683,0.00763249,0.47774735,-1.4253491,1.9574159,-2.100722,-1.5707463,2.4525669,-0.008384962,0.028800063,-0.03167301,0.007462067,-0.0010498178,-0.015996143,-0.3256114,0.22984336,-9.768343,0.75084364,47.73256,-0.493135,-2.2552805,-3.5585685,-0.32548586,-0.03675506,-0.037384868,26.6875,27.5625,26.6875,30.0625,31.375,31.9375
0.03405418,-0.70264876,0.5238152,-0.33624685,0.0011688278,0.041492037,-0.15298183,-0.3811925,-0.34855258,0.059816916,-3.0783665,0.624632,-0.000595313,-0.015398434,-0.002348774,-0.00012716671,0.0023611498,-0.00048660126,0.0066600624,0.47771096,-1.4252886,1.9573053,-2.1007345,-1.5707468,2.4525313,-0.008839948,0.03074817,-0.036402315,0.007176545,-0.0019442809,-0.015474162,-0.1340753,0.076614454,-9.749189,0.83589023,47.69763,-0.4360783,-2.2828445,-3.5704691,-0.31284723,-0.05977868,-0.057960104,26.6875,27.5625,26.6875,30.0625,31.375,31.9375
0.036053777,-0.78005296,0.33770975,-0.25081918,0.019962337,0.027983466,-0.16077031,-0.38123098,-0.34854808,0.059818134,-3.0783389,0.62464577,-0.0006142532,-0.016830692,-0.0021598237,0.0003187464,0.0029054345,0.00038616708,0.004648054,0.47767475,-1.4252162,1.957209,-2.1006858,-1.5707582,2.4525073,-0.009923715,0.032143343,-0.03921899,0.008076318,-0.0028327142,-0.014542549,-0.22984336,0.038307227,-9.595961,0.8157518,47.707485,-0.469944,-2.186883,-3.439725,-0.30505794,-0.05711429,-0.06370128,26.6875,27.5625,26.6875,30.0625,31.375,31.9375
0.03805409,-0.91546243,0.26711246,-0.16545525,0.029424705,0.019363927,-0.1648723,-0.3812394,-0.3485322,0.059787177,-3.0782697,0.624652,-0.0006534787,-0.017657215,-0.001752531,0.00023199672,0.003765594,-0.0008285628,0.0025932654,0.47766224,-1.4251438,1.9571971,-2.100685,-1.5707945,2.4525075,-0.011279564,0.03391056,-0.04148755,0.010052172,-0.0030389347,-0.013841964,-0.21068975,0.019153614,-9.615114,0.82022345,47.70032,-0.46330303,-2.234593,-3.480673,-0.306151,-0.059283245,-0.0826596,26.6875,27.5625,26.6875,30.0625,31.375,31.9375
0.040053844,-0.57279986,-0.07639226,-0.26677606,0.029923756,0.019913862,-0.17465934,-0.38130125,-0.3485752,0.05983017,-3.078373,0.6246339,-0.0005832058,-0.018334003,-0.0021044768,0.00025663973,0.0041830656,-0.001533649,0.0024959734,0.47765037,-1.4250952,1.9570407,-2.1006734,-1.5707468,2.4524713,-0.011249167,0.03603397,-0.044312872,0.011572987,-0.0030867576,-0.013713012,-0.17238252,0.0,-9.557653,0.79560274,47.690468,-0.4531294,-2.1687531,-3.4071584,-0.30236962,-0.058971625,-0.09922536,26.6875,27.5625,26.6875,30.0625,31.375,31.9375
0.04205369,-0.6219929,0.07130364,-0.33510703,0.013067547,0.011856681,-0.17731833,-0.3813163,-0.34856927,0.059817627,-3.0783467,0.6246105,-0.0006426348,-0.019806996,-0.0022680152,0.0008968206,0.003451229,-0.0005043793,0.0016110193,0.47762588,-1.4250348,1.956992,-2.1006367,-1.5707468,2.4524355,-0.012432474,0.037161186,-0.047173604,0.01205527,-0.002915931,-0.014010057,-0.076614454,-0.038307227,-9.461885,0.7486078,47.675243,-0.45187402,-2.1601386,-3.4269354,-0.30457073,-0.086230785,-0.10140976,26.6875,27.5625,26.6875,30.0625,31.375,31.9375
0.04405384,-0.5152703,-0.46185574,-0.34827748,0.005546191,0.01868731,-0.1790866,-0.3813658,-0.348586,0.059824623,-3.0783615,0.6245934,-0.00065286824,-0.02092867,-0.0023753964,0.001463448,0.0032657797,0.0006225736,0.0019997668,0.47760165,-1.4249388,1.9568585,-2.100601,-1.5707344,2.4523988,-0.013045552,0.037906606,-0.049415953,0.012467384,-0.0032737844,-0.015009974,-0.19153613,0.19153613,-9.481039,0.85826975,47.686886,-0.45748377,-2.145949,-3.3784604,-0.3012543,-0.11339258,-0.107407495,26.6875,27.5625,26.6875,30.0625,31.375,31.9375
0.04605358,-1.4319769,-0.88136137,-0.33820817,0.0032342148,0.00813812,-0.16912182,-0.3814405,-0.34856462,0.059843846,-3.078305,0.62469655,-0.0005396507,-0.021972239,-0.0022957136,0.0006365401,0.004997956,-0.00031406092,0.002479513,0.4775416,-1.4248775,1.9567393,-2.100577,-1.5708069,2.4524105,-0.013428856,0.04175541,-0.052000858,0.012834029,-0.0043864953,-0.015868988,-0.17238252,0.15322891,-9.557653,0.83813137,47.690468,-0.5537197,-2.206907,-3.4075656,-0.31334126,-0.0712615,-0.111607,26.6875,27.5625,26.6875,30.0625,31.375,31.9375
0.04805373,-0.79686093,-0.93551815,-0.3801721,-0.0054929634,0.034346133,-0.16995384,-0.381474,-0.34855247,0.05983619,-3.0782607,0.62470776,-0.0005584031,-0.023203483,-0.0018369303,0.0008806777,0.00613252,0.00028898858,0.0017580825,0.47750506,-1.424805,1.9566659,-2.1005409,-1.5708317,2.4523866,-0.014544919,0.043035924,-0.0542369,0.013779417,-0.005674843,-0.016259609,-0.15322891,0.22984336,-9.500193,0.784413,47.70032,-0.51872075,-2.180604,-3.401802,-0.3311629,-0.08022231,-0.124146305,26.6875,27.5625,26.6875,30.0625,31.375,31.9375
0.050053455,-0.7303181,-0.83637214,-0.46422118,-0.020970251,0.03725082,-0.1700752,-0.38152757,-0.3485868,0.05985833,-3.078352,0.62459135,-0.00052037014,-0.024372557,-0.0020841889,0.0021370582,0.004893747,0.0024699045,0.0018270528,0.47749293,-1.4247336,1.9565338,-2.1005409,-1.5707954,2.4522903,-0.015245659,0.042274263,-0.05631939,0.014117333,-0.0055800737,-0.017029004,-0.19153613,0.24899697,-9.5385,0.79560274,47.703903,-0.47427797,-1.9707825,-3.4439416,-0.32502985,-0.09341507,-0.14384817,26.6875,27.5625,26.6875,30.0625,31.375,31.9375
0.052053392,-1.1903378,-1.8107975,-0.43129978,-0.020309554,0.02294732,-0.15033542,-0.38154894,-0.34857112,0.05984482,-3.0782654,0.62461233,-0.00058702583,-0.025200576,-0.0022963658,0.0018246068,0.0051509626,0.0019403686,0.0020578832,0.4774688,-1.4246489,1.9564489,-2.100457,-1.5708317,2.4522903,-0.015640782,0.044725098,-0.058469944,0.014404634,-0.0055709947,-0.017653104,-0.19153613,0.30645782,-9.557653,0.7933669,47.684196,-0.47296715,-2.045881,-3.448969,-0.3296743,-0.10432798,-0.14128003,26.6875,27.5625,26.6875,30.0625,31.375,31.9375
0.05405372,-1.2081693,-1.6099075,-0.46290997,-0.035948064,0.02182169,-0.1543974,-0.38162166,-0.3485907,0.05986605,-3.0783136,0.62466,-0.0005370097,-0.027879335,-0.0029930447,0.0032522243,0.0047685886,0.005712961,0.0028358444,0.47742078,-1.4245644,1.956304,-2.100457,-1.5708078,2.452266,-0.015964804,0.046647105,-0.063933276,0.014424549,-0.0069762,-0.018749466,-0.24899697,0.4213795,-9.672575,0.81351066,47.678825,-0.5010246,-2.0119145,-3.293704,-0.34054494,-0.09474851,-0.15540834,26.6875,27.5625,26.6875,30.0625,31.375,31.9375
0.056054253,-1.1248778,-2.0267642,-0.4459563,-0.030640945,0.026504755,-0.15840836,-0.38167712,-0.34859943,0.05987933,-3.0782957,0.6245978,-0.0005038077,-0.026971301,-0.002502623,0.0006542985,0.007744346,0.0015775717,0.0040341574,0.4774088,-1.4244671,1.956149,-2.1003969,-1.5708445,2.4522176,-0.0155153945,0.050797634,-0.06264477,0.014027575,-0.0077177202,-0.019496731,-0.15322891,0.47884035,-9.595961,0.83589023,47.72808,-0.49469224,-2.1417847,-3.4485,-0.33023515,-0.10564509,-0.18947539,26.6875,27.5625,26.6875,30.0625,31.375,31.9375
0.058053497,-0.973146,-1.6802942,-0.16677606,-0.045658745,0.031384084,-0.1591914,-0.3817276,-0.34861013,0.059876792,-3.0782857,0.6245564,-0.00047972862,-0.02896423,-0.002820935,0.0017756171,0.006819433,0.0045871474,0.0040887957,0.47739652,-1.424359,1.9560288,-2.1003854,-1.5708684,2.4521809,-0.016420491,0.05147734,-0.06586061,0.013466907,-0.008287838,-0.020453464,-0.21068975,0.49799395,-9.615114,0.81351066,47.709274,-0.53099537,-2.182402,-3.4514165,-0.3264365,-0.09519437,-0.19838741,26.6875,27.5625,26.6875,30.0625,31.375,31.9375
0.060053766,-0.7116189,-1.4593443,-0.14487503,-0.04283453,0.039677083,-0.15685351,-0.38177925,-0.34859678,0.05987832,-3.0782409,0.6245663,-0.00047130405,-0.031484857,-0.0039633806,0.0039298,0.0051921927,0.009130443,0.0053172954,0.47734854,-1.4242753,1.9559187,-2.1003368,-1.5709046,2.4521449,-0.016293474,0.05200617,-0.071455695,0.013751047,-0.008942299,-0.02155056,-0.2681506,0.4213795,-9.519346,0.7732232,47.67793,-0.50321954,-1.954254,-3.2865744,-0.31413555,-0.081303105,-0.2191903,26.6875,27.5625,26.6875,30.0625,31.375,31.9375
0.062053796,-0.7591832,-1.2706262,-0.19985674,-0.029633824,0.029840989,-0.15952124,-0.3818417,-0.3486089,0.059875183,-3.0782475,0.62456644,-0.00045943935,-0.031467102,-0.0032347813,0.0020739096,0.007616042,0.006064368,0.006097197,0.47731227,-1.424154,1.9557875,-2.1003368,-1.5709046,2.452108,-0.01708591,0.055625655,-0.07138443,0.013899111,-0.009686772,-0.023120936,-0.1340753,0.49799395,-9.442732,0.76874626,47.66987,-0.5171874,-2.060642,-3.3156357,-0.31125513,-0.08428582,-0.22373748,26.6875,27.5625,26.6875,30.0625,31.375,31.9375
0.0640536,-1.0641011,-1.058883,-0.009741185,-0.0276136,0.016175179,-0.14963704,-0.38192615,-0.34866604,0.059900913,-3.0783381,0.6245647,-0.0003774112,-0.032679703,-0.003843659,0.0022901138,0.007744642,0.0069654016,0.00784212,0.47731236,-1.4240215,1.955583,-2.100361,-1.5708688,2.4520955,-0.016777491,0.05797361,-0.07459273,0.014020603,-0.010220086,-0.024555366,-0.076614454,0.4405331,-9.442732,0.8291774,47.734352,-0.55790365,-2.1135025,-3.3824525,-0.28559068,-0.096672535,-0.22324234,26.6875,27.5625,26.6875,30.0625,31.375,31.9375
0.06605401,-1.1371838,-1.2701703,0.26417983,-0.022705033,0.011725171,-0.15464997,-0.3819844,-0.3486519,0.059898816,-3.0782802,0.6245518,-0.00037436537,-0.03382025,-0.004782868,0.0028543915,0.006014365,0.0073481067,0.008908398,0.4772643,-1.4239131,1.9554504,-2.100301,-1.5709165,2.4520469,-0.017039193,0.059670296,-0.07794128,0.014530722,-0.008866473,-0.025883894,-0.095768064,0.45968673,-9.3661175,0.78888994,47.675243,-0.55615366,-2.0439825,-3.155593,-0.29850075,-0.11030608,-0.22557059,26.6875,27.5625,26.6875,30.0625,31.375,31.9375
0.06805324,-1.039181,-1.007488,0.18407495,-0.02012556,0.0034030268,-0.15007593,-0.3820524,-0.3486581,0.059902765,-3.0782883,0.624496,-0.00032039956,-0.03522595,-0.0051804404,0.0033130494,0.005604193,0.008812098,0.009555696,0.47722825,-1.4238049,1.9553179,-2.1003015,-1.5709409,2.451975,-0.01742445,0.061230913,-0.08071377,0.014253626,-0.009180954,-0.02691436,-0.21068975,0.45968673,-9.270349,0.81351066,47.719128,-0.5873893,-2.065812,-3.221107,-0.271829,-0.11633097,-0.22331694,26.6875,27.5625,26.6875,30.0625,31.375,31.9375
0.070053354,-0.838971,-0.98440415,0.29867858,-0.013544029,0.0046244324,-0.1606724,-0.3821362,-0.34867924,0.05993818,-3.0783238,0.6245215,-0.00027444214,-0.03598629,-0.0057059084,0.0031412118,0.0056290315,0.008439155,0.010618218,0.47718027,-1.4237082,1.9551128,-2.100241,-1.5709285,2.4519386,-0.01728437,0.06369906,-0.083233185,0.014646658,-0.009035163,-0.027835963,-0.15322891,0.3256114,-9.193734,0.7597976,47.69763,-0.51788545,-2.0782614,-3.1381483,-0.272699,-0.11425945,-0.24245378,26.6875,27.5625,26.6875,30.0625,31.375,31.9375
0.07205425,-0.44146693,-0.39913175,0.39592114,-0.01936482,0.010296924,-0.15407823,-0.38220477,-0.34871218,0.05993775,-3.0783591,0.6244315,-0.00027148833,-0.037278168,-0.0056459503,0.0033662012,0.005856276,0.008838136,0.010867465,0.47716784,-1.4235518,1.9549326,-2.100229,-1.570917,2.4518657,-0.01832851,0.06540462,-0.08585613,0.015315228,-0.009424596,-0.029127272,-0.076614454,0.30645782,-9.212888,0.7418897,47.696735,-0.5794899,-2.0517426,-3.1096349,-0.26040864,-0.12029751,-0.25671545,26.6875,27.5625,26.6875,30.0625,31.375,31.9375
0.07405416,-0.7933243,-0.8606697,0.35292706,0.009794562,0.004726085,-0.14566322,-0.38229582,-0.3487129,0.059957813,-3.0783336,0.6243867,-0.00015699326,-0.03843464,-0.0059342952,0.0036885524,0.0065479656,0.009902366,0.012601526,0.477132,-1.4234313,1.9547409,-2.1001933,-1.5709895,2.4518054,-0.018161865,0.0672098,-0.08876945,0.015796628,-0.010532406,-0.030691274,-0.019153614,0.3256114,-9.174581,0.8179876,47.719128,-0.5740514,-2.0013146,-3.063715,-0.24043119,-0.10793027,-0.24928236,26.6875,27.5625,26.6875,30.0625,31.375,31.9375
0.07605415,-0.7094503,-0.07866711,0.35576296,0.0070486953,0.010616793,-0.15757549,-0.38236862,-0.34872356,0.05994505,-3.0783265,0.624346,-0.00018626025,-0.039502658,-0.005872281,0.003406757,0.008273777,0.009901388,0.01421013,0.47708392,-1.4232627,1.9545721,-2.100169,-1.57099,2.4517329,-0.018256217,0.07001495,-0.09150551,0.016525324,-0.012070536,-0.032389358,-0.076614454,0.24899697,-9.212888,0.86498255,47.69763,-0.53200555,-1.989647,-3.078887,-0.24963439,-0.11872388,-0.26465756,26.6875,27.5625,26.6875,30.0625,31.375,31.9375
0.0780535,-0.66206443,-0.37809402,0.4317592,0.01731074,0.014774363,-0.15496887,-0.3824365,-0.34876767,0.05996345,-3.0783842,0.6242614,-0.00017026004,-0.040339775,-0.0057677235,0.0028868902,0.009091002,0.00899379,0.014406752,0.47708365,-1.4231293,1.9543694,-2.1001327,-1.5709656,2.4516726,-0.019010797,0.07266836,-0.093469135,0.017018644,-0.012382186,-0.03333908,-0.095768064,0.2681506,-9.136273,0.7933669,47.66808,-0.5893926,-2.2264006,-3.0768638,-0.24031244,-0.113271564,-0.27749807,26.6875,27.5625,26.6875,30.0625,31.375,31.9375
0.08005367,-0.4145661,-0.06720486,0.4213709,0.004994105,0.023023821,-0.1527913,-0.38250896,-0.34875822,0.059955698,-3.0783355,0.62425053,-0.00017644867,-0.040900428,-0.005696635,0.003662963,0.009876242,0.010160471,0.014909391,0.47702378,-1.4229857,1.9542121,-2.1000845,-1.5710024,2.4516122,-0.018846907,0.07234096,-0.09519002,0.018393438,-0.01361706,-0.033674497,-0.11492168,0.28730422,-9.059659,0.79560274,47.704796,-0.6196188,-1.9455049,-3.0778866,-0.23489514,-0.07894462,-0.28862327,26.6875,27.5625,26.6875,30.0625,31.375,31.9375
0.08205427,-0.9555485,-0.64573383,0.1660181,0.0047529833,0.0099170245,-0.14951576,-0.3825747,-0.34877446,0.059959315,-3.0783331,0.6242115,-0.00016681573,-0.041514117,-0.00588453,0.0034641968,0.010432915,0.008766531,0.014908829,0.47699958,-1.4228525,1.9540433,-2.1000473,-1.5710143,2.451564,-0.019170402,0.07474922,-0.09790558,0.020193294,-0.013473409,-0.03399632,-0.1340753,0.2681506,-9.155427,0.7665104,47.68062,-0.5773611,-2.002853,-3.0773387,-0.22637594,-0.10804318,-0.30093074,26.6875,27.5625,26.6875,30.0625,31.375,31.9375
0.084054105,-0.5493104,-0.73576283,0.19891502,-0.0058377325,0.018555382,-0.15110716,-0.3826888,-0.34879348,0.059979036,-3.0783346,0.62417275,-8.9790716e-05,-0.04120637,-0.005331825,0.0016075206,0.012466817,0.0049605425,0.014837117,0.47695145,-1.4226711,1.95378,-2.0999997,-1.5710505,2.4514918,-0.019824443,0.07829705,-0.09790308,0.020955998,-0.013530287,-0.034578618,-0.1340753,0.3256114,-9.193734,0.81351066,47.677036,-0.63041794,-2.1367793,-3.2090497,-0.24011797,-0.095437676,-0.318671,26.6875,27.5625,26.6875,30.0625,31.375,31.9375
0.08605375,-0.6232951,-0.45827663,0.22731058,-0.019725908,0.015007924,-0.1508158,-0.3827582,-0.34877408,0.05997387,-3.0782788,0.62406427,-9.1046895e-05,-0.04274652,-0.0063689738,0.00255513,0.01068304,0.0065189735,0.01707304,0.47689128,-1.4225386,1.9536241,-2.0999277,-1.5711097,2.4513712,-0.019956263,0.079790466,-0.10183666,0.021185653,-0.012671709,-0.03694525,-0.17238252,0.22984336,-9.270349,0.8605109,47.704796,-0.65515316,-1.9536333,-3.0293489,-0.21936959,-0.09339742,-0.30634052,26.6875,27.5625,26.6875,30.0625,31.375,31.9375
0.088054106,-0.9889019,-0.4993267,0.107707396,-0.0112318,0.012356302,-0.14899823,-0.3828523,-0.3488114,0.059989102,-3.078347,0.6239997,-4.4985347e-05,-0.041659147,-0.005430803,0.00041130817,0.014115423,0.0029102152,0.018468937,0.4768555,-1.4223814,1.9534096,-2.0999272,-1.5710863,2.4512866,-0.019713948,0.08233829,-0.09993979,0.021527499,-0.014058309,-0.038097557,-0.15322891,0.24899697,-9.3661175,0.8023209,47.703903,-0.64085436,-2.0384998,-3.3340209,-0.19366613,-0.10052595,-0.30487978,26.6875,27.5625,26.6875,30.0625,31.375,31.9375
0.09005403,-0.8721952,-0.6189132,0.109390266,-0.0039978726,0.031475823,-0.15426815,-0.38291544,-0.34880376,0.059960034,-3.0782616,0.6239839,-0.00012463055,-0.04474874,-0.0064503546,0.0020553505,0.012451474,0.0062312535,0.016204527,0.47680712,-1.4221886,1.9532393,-2.0998557,-1.5711225,2.4512393,-0.020709235,0.08479542,-0.10663957,0.022054682,-0.0141204605,-0.0368234,-0.19153613,0.22984336,-9.251195,0.8157518,47.704796,-0.6145754,-2.0508368,-3.1206036,-0.19108102,-0.098799765,-0.32612845,26.6875,27.5625,26.6875,30.0625,31.375,31.9375
0.09205489,-0.9502049,-0.4405645,0.08722191,-0.0055117146,0.029535465,-0.1568472,-0.38302362,-0.34882665,0.059972085,-3.078281,0.6238902,-3.5648034e-05,-0.043416068,-0.0055103214,-0.0002900946,0.015128883,0.001811575,0.016790666,0.47677106,-1.4220073,1.9530019,-2.0998437,-1.5711583,2.4511425,-0.02091952,0.08720704,-0.10409792,0.022255927,-0.014463862,-0.037620734,-0.22984336,0.17238252,-9.346964,0.8090337,47.698532,-0.6975726,-2.1767564,-3.4382343,-0.17922324,-0.07829455,-0.34909558,26.6875,27.5625,26.6875,30.0625,31.375,31.9375
0.09405343,-0.99030703,-0.3919959,0.028277664,-0.009960415,0.018388402,-0.15329376,-0.3831019,-0.34884495,0.05997914,-3.0782514,0.62386376,-4.2017557e-05,-0.04452573,-0.006055057,0.00023107501,0.014231004,0.0025340624,0.018943902,0.47674698,-1.4218388,1.9527739,-2.0997598,-1.5711826,2.4511058,-0.021269191,0.08851979,-0.10690169,0.022688638,-0.014004984,-0.040122703,-0.22984336,0.22984336,-9.423578,0.7978386,47.713753,-0.61756533,-2.0946894,-3.3900232,-0.1742291,-0.07781893,-0.34937662,26.6875,27.5625,26.6875,30.0625,31.375,31.9375
0.09605421,-1.3650869,-0.9580677,-0.16047099,-0.008359455,0.0022904337,-0.141118,-0.38319868,-0.34887078,0.059994258,-3.078291,0.6237741,2.6396963e-05,-0.044970207,-0.0063649993,0.0001882438,0.014473834,0.00231968,0.020786509,0.47671098,-1.4216822,1.9525574,-2.099747,-1.571194,2.451009,-0.021046486,0.08998585,-0.108618654,0.023239994,-0.0141237965,-0.041742083,-0.15322891,0.24899697,-9.404425,0.83589023,47.705692,-0.6597998,-2.0936775,-3.4599335,-0.16512004,-0.08719562,-0.36186916,26.6875,27.5625,26.6875,30.0625,31.375,31.9375
0.098053336,-0.24887313,-0.9088218,-0.05683776,-0.022949588,0.018451992,-0.15374364,-0.38330895,-0.34888577,0.05999615,-3.0782564,0.623707,8.354912e-05,-0.044943396,-0.006244913,-0.00072876894,0.014851604,9.972078e-05,0.024064163,0.4766748,-1.4214654,1.9522942,-2.0996993,-1.5712541,2.4509356,-0.02166955,0.09204766,-0.10900576,0.023703115,-0.013442619,-0.045643702,-0.24899697,0.3256114,-9.385271,0.80679786,47.698532,-0.7124493,-1.9788032,-3.53308,-0.14256245,-0.06962751,-0.32684606,26.6875,27.5625,26.6875,30.0625,31.375,31.9375
0.100053184,-0.3803491,-0.7976633,0.03418138,-0.026729358,0.011355299,-0.14581208,-0.38338992,-0.34890282,0.059992306,-3.0782788,0.62365425,4.5181787e-05,-0.04687583,-0.0071962066,0.0005533611,0.013460476,0.0028445858,0.023906155,0.47661486,-1.4212967,1.9521021,-2.099664,-1.5712303,2.45084,-0.02173398,0.09329795,-0.113393754,0.023764133,-0.0134760225,-0.04554757,-0.11492168,0.28730422,-9.404425,0.82694155,47.668976,-0.7433834,-2.0156062,-3.4536395,-0.12365271,-0.0726735,-0.3289796,26.6875,27.5625,26.6875,30.0625,31.375,31.9375
0.102054656,-0.9579877,-0.85997164,-0.16582112,-0.019776976,-0.0008817419,-0.14880088,-0.3834791,-0.34890696,0.05998739,-3.078248,0.6235319,8.738312e-05,-0.046349708,-0.0068134665,-0.0004962871,0.014363126,0.00064415677,0.024217466,0.47657862,-1.4211161,1.9518985,-2.0996277,-1.5712899,2.4507315,-0.022057116,0.09451602,-0.11245174,0.023969004,-0.013267196,-0.046182595,-0.19153613,0.3256114,-9.404425,0.7777002,47.66987,-0.75070596,-1.9693363,-3.641272,-0.11630035,-0.07554108,-0.3676073,26.6875,27.5625,26.6875,30.0625,31.375,31.9375
0.10405404,-1.0320894,-0.6611423,-0.08536559,-0.022923568,-0.0016427211,-0.15320228,-0.3835809,-0.34894392,0.060010787,-3.0782874,0.62346065,0.00010390821,-0.04837819,-0.0078602685,0.0010938414,0.012593655,0.0028504857,0.027665533,0.47654256,-1.4209355,1.9516219,-2.0995553,-1.571278,2.4506462,-0.022419177,0.09574236,-0.1178122,0.025326476,-0.012716209,-0.04999154,-0.095768064,0.30645782,-9.385271,0.8314132,47.698532,-0.68452,-1.9150722,-3.475752,-0.0948455,-0.07842915,-0.34940636,26.6875,27.5625,26.6875,30.0625,31.375,31.9375
0.10605352,-0.6249261,-0.76675415,-0.16769634,-0.013046881,0.009480016,-0.15088359,-0.3836673,-0.34894404,0.059992578,-3.0782468,0.62331736,9.0428926e-05,-0.048637103,-0.007639819,-0.00034084785,0.014509895,-0.0007084393,0.029661892,0.47649434,-1.4207296,1.9514169,-2.0995066,-1.5713261,2.4505138,-0.022994736,0.10003766,-0.11988103,0.02713685,-0.012790838,-0.052561365,-0.11492168,0.30645782,-9.404425,0.89631605,47.70211,-0.7599181,-2.0406654,-3.5229652,-0.1064574,-0.07667431,-0.3241545,26.6875,27.5625,26.6875,30.0625,31.375,31.9375
0.108053066,-0.41908118,-0.6417571,-0.332275,-0.008882736,0.010909518,-0.15123373,-0.38377625,-0.34895805,0.059996016,-3.0782406,0.6232562,0.000113525064,-0.05004757,-0.008339108,0.0017471066,0.012239503,0.002574913,0.031887315,0.47643426,-1.4205261,1.9511651,-2.0994585,-1.57135,2.4504166,-0.023369225,0.09838194,-0.12294629,0.027893146,-0.012285675,-0.05516121,-0.05746084,0.2681506,-9.385271,0.8179876,47.707485,-0.7655902,-1.9036193,-3.5144913,-0.08460637,-0.11139068,-0.2856074,26.6875,27.5625,26.6875,30.0625,31.375,31.9375
0.11005349,-0.8862978,-0.9945617,-0.4684241,-0.00087480666,-0.0005413894,-0.15200786,-0.3838935,-0.34896967,0.060023766,-3.0782447,0.6232161,0.0001643451,-0.050582968,-0.008491292,0.00060799264,0.014071561,0.00047528665,0.034566354,0.47636235,-1.4203566,1.9508885,-2.099374,-1.5713738,2.4503193,-0.023150936,0.10266841,-0.12548327,0.028848015,-0.012954421,-0.057619218,-0.019153614,0.24899697,-9.404425,0.7933669,47.67793,-0.77253425,-1.9245919,-3.5377474,-0.08770798,-0.08069432,-0.24179947,26.6875,27.5625,26.6875,30.0625,31.375,31.9375
0.11205438,-0.18195301,-1.2424902,-0.47962144,-0.01560141,0.019391226,-0.1501357,-0.38400143,-0.3489923,0.060007326,-3.0782251,0.6230573,0.00015479837,-0.05128127,-0.00921763,0.0019595358,0.012648507,0.0018226231,0.036947217,0.47632644,-1.4200927,1.9506129,-2.099326,-1.5714101,2.450187,-0.0229133,0.102003165,-0.12817578,0.03034935,-0.012313317,-0.059762366,-0.038307227,0.2873042,-9.519346,0.8247004,47.64121,-0.8056735,-1.8000164,-3.4735484,-0.0715314,-0.093981154,-0.213899,26.6875,27.5625,26.6875,30.0625,31.375,31.9375
0.114053905,-0.743679,-1.3930961,-0.56061065,-0.030725794,0.013104458,-0.14663546,-0.38407144,-0.34900185,0.059992634,-3.0781903,0.62289447,0.00011519781,-0.05198615,-0.009121724,0.0018832695,0.013812083,0.0015390923,0.039562203,0.47630236,-1.4198998,1.9504093,-2.099254,-1.5714463,2.4500659,-0.02313732,0.10375605,-0.1302862,0.03149087,-0.013224703,-0.06259769,-0.095768064,0.34476504,-9.519346,0.8247004,47.705692,-0.85217655,-1.7587557,-3.5669289,-0.070789404,-0.082745604,-0.18280186,26.6875,27.5625,26.6875,30.0625,31.375,31.9375
0.11605353,-0.8892862,-1.7510649,-0.74374914,-0.028132899,0.010545752,-0.1421402,-0.3841846,-0.34901562,0.060000457,-3.0781853,0.6227959,9.486454e-05,-0.053137615,-0.009444021,0.0018770422,0.013595172,0.0007940701,0.04121296,0.47623003,-1.4196829,1.9501208,-2.099157,-1.5714577,2.4499328,-0.023954958,0.106404014,-0.13360554,0.032719288,-0.012698142,-0.06506507,-0.076614454,0.3256114,-9.595961,0.83589023,47.701214,-0.84044653,-1.8349106,-3.4540405,-0.08647539,-0.087022826,-0.15709913,26.6875,27.5625,26.6875,30.0625,31.375,31.9375
0.118053935,-0.88034236,-1.8182536,-0.6677128,-0.024395628,0.012375799,-0.1467687,-0.38432375,-0.34902713,0.060011975,-3.078191,0.6227,0.00015782144,-0.054471802,-0.009854117,0.0023557178,0.013411609,0.001648117,0.042399924,0.4761459,-1.4194539,1.9498214,-2.0991094,-1.571494,2.4497883,-0.024290217,0.10819686,-0.13693099,0.03340484,-0.01293191,-0.06658536,-0.038307227,0.30645782,-9.672575,0.78888994,47.693153,-0.83014506,-1.7897086,-3.461834,-0.08054344,-0.09870005,-0.1099613,26.6875,27.5625,26.6875,30.0625,31.375,31.9375
0.12005378,-0.99967325,-1.6226199,-0.6207542,-0.022799887,0.011170006,-0.14327502,-0.3844434,-0.34906274,0.06002883,-3.0782266,0.62257284,0.0002649208,-0.054909013,-0.010184225,0.0019626776,0.013726164,0.0006193227,0.041277695,0.47612202,-1.4192488,1.9495453,-2.0990975,-1.5715297,2.4496808,-0.024226245,0.11050751,-0.13885348,0.034072954,-0.012738108,-0.06539917,-0.095768064,0.3256114,-9.634268,0.8291774,47.667187,-0.91603786,-1.7937845,-3.4496028,-0.07243988,-0.08543149,-0.11058378,26.6875,27.5625,26.6875,30.0625,31.375,31.9375
0.12205363,-1.3483565,-1.4301873,-0.7757185,-0.0080974335,-0.0076809367,-0.14302279,-0.38453472,-0.3490899,0.060035214,-3.0782526,0.62240386,0.00024826077,-0.05587651,-0.01124452,0.0013917207,0.01357547,-0.0010352251,0.042350188,0.47608614,-1.4190553,1.9492925,-2.099025,-1.5715297,2.4495363,-0.023805443,0.11511035,-0.14307673,0.035090614,-0.011854062,-0.066049896,-0.038307227,0.30645782,-9.5385,0.79560274,47.678825,-0.9773158,-1.769804,-3.2785008,-0.06981394,-0.12248775,-0.09870608,26.6875,27.5625,26.6875,30.0625,31.375,31.9375
0.12405361,-0.15713802,-0.7239182,-0.6128634,-0.009572097,0.014645623,-0.1490653,-0.38462704,-0.3491043,0.06002673,-3.0782218,0.62222505,0.00020997522,-0.05805705,-0.011942159,0.0027841174,0.012896465,0.0021944486,0.041349262,0.4760501,-1.4188266,1.9490279,-2.0989292,-1.571566,2.4493928,-0.02399048,0.11634734,-0.14775844,0.035354815,-0.012743859,-0.06522907,-0.19153613,0.2681506,-9.557653,0.82022345,47.655537,-0.9522614,-2.0028756,-3.279682,-0.066963606,-0.106108576,-0.074753046,26.6875,27.5625,26.6875,30.0625,31.375,31.9375
0.12605426,-0.48875964,-1.2749369,-0.6455138,-0.0008021309,0.015714763,-0.1531986,-0.3847715,-0.34914085,0.060068004,-3.078263,0.62219673,0.0003062426,-0.058409527,-0.011956609,0.0004265375,0.014357062,-0.0011155515,0.038075943,0.47598982,-1.4186205,1.9486812,-2.098858,-1.5715779,2.4493098,-0.024420118,0.1220344,-0.14864637,0.034167465,-0.012524275,-0.0623852,-0.17238252,0.34476504,-9.576807,0.8112748,47.69763,-0.9799243,-1.9266837,-3.3231473,-0.03534722,-0.10534696,-0.102128774,26.6875,27.5625,26.6875,30.0625,31.375,31.9375
0.12805364,0.041065518,-0.86699605,-0.54330176,-0.025900187,0.033253662,-0.16347495,-0.38484842,-0.34916276,0.06002563,-3.0782251,0.6219583,0.00017119876,-0.059493378,-0.012149899,0.0018922098,0.014170352,0.001330734,0.03698417,0.47596583,-1.4183325,1.9484285,-2.0987737,-1.5715903,2.449142,-0.024442513,0.121122755,-0.15127188,0.035448205,-0.013488897,-0.061311457,-0.17238252,0.3256114,-9.576807,0.78217715,47.689575,-1.0128847,-1.9435357,-3.310542,0.0005005214,-0.12437017,-0.10230701,26.6875,27.5625,26.6875,30.0625,31.375,31.9375
0.13005428,-1.2815367,-1.5787283,-0.49596208,-0.036054865,0.011972269,-0.15116571,-0.3849919,-0.34919044,0.060068414,-3.078253,0.6219057,0.00029115847,-0.06010005,-0.012391593,0.0014552863,0.014584573,-0.0004354202,0.03670314,0.47590587,-1.4181392,1.9480928,-2.0987012,-1.5716256,2.449046,-0.024845783,0.12400181,-0.15395045,0.037002735,-0.013046217,-0.061434112,-0.30645782,0.51714754,-9.615114,0.8537928,47.683304,-1.0921011,-1.9184341,-3.3888392,-0.012258163,-0.1101217,-0.103091225,26.6875,27.5625,26.6875,30.0625,31.375,31.9375
0.13205329,-1.4758302,-2.1010797,-0.4013544,-0.038395908,0.018028872,-0.14505927,-0.38512784,-0.34921786,0.060080584,-3.078258,0.6218135,0.00032587544,-0.059598636,-0.011406293,4.506323e-05,0.017125864,-0.0034349135,0.03145546,0.47584558,-1.4178865,1.9477586,-2.0986288,-1.5716504,2.4489276,-0.025548458,0.12586129,-0.15316108,0.03818994,-0.013924043,-0.05688781,-0.30645782,0.4405331,-9.691729,0.81351066,47.690468,-1.1077521,-1.9765074,-3.440492,-0.0076413243,-0.11366573,-0.15476422,26.6875,27.5625,26.6875,30.0625,31.375,31.9375
0.134055,-1.2450975,-1.9439435,-0.077780105,-0.04333419,0.035722673,-0.14297071,-0.3852574,-0.34926498,0.06010192,-3.0782893,0.6216669,0.0004174638,-0.06090955,-0.011208879,0.0007954793,0.016753588,-0.0036043026,0.028716864,0.47583303,-1.4176459,1.9474229,-2.0985801,-1.5716861,2.4488199,-0.027354246,0.12669975,-0.15640685,0.040574625,-0.013514034,-0.055955246,-0.22984336,0.45968673,-9.557653,0.8560339,47.709274,-1.0645547,-1.8363905,-3.330964,-0.018305682,-0.13052446,-0.18008617,26.6875,27.5625,26.6875,30.0625,31.375,31.9375
0.13605385,-1.3344479,-1.4846597,0.011084597,-0.04049067,0.031759072,-0.1478087,-0.38537621,-0.349288,0.060095537,-3.0783007,0.62155247,0.00033363796,-0.061269354,-0.011863664,-0.00021724009,0.01782886,-0.004868695,0.029805157,0.47574934,-1.4173803,1.947111,-2.0984852,-1.5716623,2.4486635,-0.02626621,0.13059622,-0.15857182,0.040461242,-0.013899393,-0.05595243,-0.30645782,0.4213795,-9.442732,0.9030289,47.719128,-1.1443315,-1.798569,-3.4568734,-0.023096297,-0.1208197,-0.1947729,26.6875,27.5625,26.6875,30.0625,31.375,31.9375
0.13805397,-1.8688332,-1.2770749,0.071012005,-0.017029686,0.016190968,-0.14110819,-0.38550997,-0.34931064,0.06010351,-3.0782826,0.62147224,0.0004471838,-0.062450632,-0.012034474,-0.00041358077,0.017539231,-0.0039028167,0.028571874,0.47571316,-1.4171395,1.9468111,-2.0984614,-1.5717343,2.4485798,-0.026913652,0.13253479,-0.16004634,0.03900277,-0.014088989,-0.055365473,-0.3256114,0.38307226,-9.251195,0.82694155,47.687782,-1.1922808,-1.7729642,-3.509965,0.021595767,-0.12529796,-0.21596435,26.6875,27.5625,26.6875,30.0625,31.375,31.9375
0.14005424,-1.0440942,-0.19023061,0.54480433,-0.0174651,0.031105433,-0.15296817,-0.3856425,-0.34934556,0.06011596,-3.0783038,0.6213994,0.00045817308,-0.06298886,-0.012550487,-0.00046600538,0.01824982,-0.004678278,0.029375857,0.47565338,-1.4168863,1.9464754,-2.0983884,-1.5717343,2.448472,-0.026303042,0.13492095,-0.1630736,0.040658645,-0.014368586,-0.055556938,-0.2681506,0.30645782,-9.136273,0.8224646,47.666286,-1.2280036,-1.8388251,-3.431773,0.034985833,-0.14623041,-0.23639345,26.6875,27.5625,26.6875,30.0625,31.375,31.9375
0.14205402,-0.9210225,-0.048996884,0.71642554,0.014495245,0.012474482,-0.14759661,-0.3858069,-0.34938154,0.060148727,-3.0783129,0.62130475,0.0005881547,-0.06311937,-0.012371211,-0.0009160533,0.018901285,-0.0068311836,0.028688094,0.47560507,-1.4166214,1.9460801,-2.0983164,-1.5717944,2.4483638,-0.026990416,0.13664421,-0.16448982,0.04255839,-0.013958013,-0.05555764,-0.21068975,0.2681506,-9.059659,0.85826975,47.683304,-1.2418786,-1.9319365,-3.4663064,0.034021705,-0.15384763,-0.25723013,26.6875,27.5625,26.6875,30.0625,31.375,31.9375
0.14405493,-0.31308508,0.8573771,0.7211058,0.019968102,-0.0010406745,-0.15514328,-0.38590866,-0.34940875,0.0601181,-3.078301,0.62122613,0.00047318966,-0.06451416,-0.011921121,-0.0012190869,0.01994572,-0.008280786,0.027158486,0.47554445,-1.4163322,1.945804,-2.0982554,-1.5717705,2.4482558,-0.028873242,0.13975051,-0.16786651,0.044596825,-0.014230707,-0.05590759,-0.15322891,0.17238252,-8.868123,0.9365982,47.707485,-1.1564301,-1.7669493,-3.4887965,0.027213976,-0.15945365,-0.28636342,26.6875,27.5625,26.6875,30.0625,31.375,31.9375
0.14605425,-0.68373096,0.68801224,0.8222757,0.028996002,-0.020444423,-0.14396402,-0.38605765,-0.34943265,0.060144186,-3.0782795,0.62112373,0.0005715184,-0.0652062,-0.0122999,5.2944015e-05,0.019512147,-0.0070018223,0.028606933,0.47549665,-1.41608,1.945433,-2.0981596,-1.5718426,2.448147,-0.028693877,0.13911371,-0.17051138,0.046537455,-0.0144321,-0.057175837,-0.1340753,0.114921674,-8.848969,0.8851263,47.694054,-1.1689878,-1.7367916,-3.4320607,0.024382714,-0.16393164,-0.31163296,26.6875,27.5625,26.6875,30.0625,31.375,31.9375
0.14805335,-0.21875286,0.45956224,0.7811394,0.033672307,-0.0076198913,-0.15575404,-0.38617736,-0.34947395,0.060144085,-3.0782979,0.62095445,0.0005412404,-0.06640544,-0.012192101,0.00026159594,0.020905001,-0.007829956,0.028498668,0.47546023,-1.4158028,1.9450954,-2.0980747,-1.571843,2.4480028,-0.029413814,0.14164189,-0.17459358,0.049467232,-0.015295734,-0.057783645,-0.05746084,-0.038307227,-8.829816,0.8851263,47.696735,-1.2117273,-1.7747703,-3.3392518,0.005110221,-0.18050873,-0.32714137,26.6875,27.5625,26.6875,30.0625,31.375,31.9375
0.15005367,-0.5198488,0.39352077,0.6624068,0.026061589,-0.00461079,-0.15610367,-0.38631517,-0.34947124,0.06013441,-3.0782158,0.62088174,0.0005332434,-0.06783463,-0.011541083,0.00040428908,0.022234863,-0.009474164,0.026330061,0.47537544,-1.4155139,1.9447607,-2.0979655,-1.5719146,2.4478834,-0.031570785,0.14414345,-0.1786551,0.053093962,-0.015731087,-0.05776851,-0.11492168,0.038307227,-8.734048,0.88960326,47.688675,-1.1245687,-1.7711353,-3.433024,-0.031954102,-0.16334267,-0.3638053,26.6875,27.5625,26.6875,30.0625,31.375,31.9375
0.152054,-0.82639766,0.41713378,0.7856949,0.022607343,-0.0034552137,-0.15535912,-0.3864636,-0.34950274,0.060152207,-3.0782237,0.6207859,0.000542263,-0.06745407,-0.010868077,-0.00019646165,0.025003849,-0.012744817,0.026079873,0.4753035,-1.4152368,1.9443768,-2.0978563,-1.5719274,2.4477508,-0.031774756,0.14585634,-0.18019855,0.057101503,-0.016692005,-0.05772003,-0.11492168,0.076614454,-8.772355,0.84484416,47.65912,-1.168806,-1.7375469,-3.3403025,-0.07846689,-0.16104847,-0.38362908,26.6875,27.5625,26.6875,30.0625,31.375,31.9375
0.15405428,-0.36776617,0.40495464,0.74757653,0.01834855,0.012470706,-0.15596867,-0.3865829,-0.34951568,0.060126215,-3.0781255,0.62076557,0.00049388997,-0.06737208,-0.011356577,-0.0016137102,0.026211003,-0.017566606,0.02676141,0.47525558,-1.4149231,1.9440535,-2.09776,-1.571987,2.447703,-0.03155504,0.15085264,-0.1834533,0.060190797,-0.015565403,-0.058181122,-0.095768064,0.05746084,-8.925584,0.9030289,47.717335,-1.2050955,-1.7378889,-3.2582774,-0.11785015,-0.18394186,-0.42785162,26.6875,27.5625,26.6875,30.0625,31.375,31.9375
0.1560545,-0.8694134,0.2879502,0.38602757,0.018754376,0.00050929206,-0.15083121,-0.386712,-0.3495327,0.060122985,-3.078086,0.62060267,0.00041394864,-0.06786106,-0.010844563,0.00019201831,0.025893057,-0.01584394,0.027035497,0.4751832,-1.414624,1.9436811,-2.0976026,-1.5720114,2.447534,-0.032556776,0.14770849,-0.18458897,0.06279094,-0.016075145,-0.05945499,-0.17238252,0.15322891,-8.963891,0.8873621,47.69763,-1.2478303,-1.6203059,-3.287116,-0.15258472,-0.19867773,-0.4556032,26.6875,27.5625,26.6875,30.0625,31.375,31.9375
0.15805373,-0.7014834,-0.23201159,0.18888025,0.01387127,0.012289341,-0.14795947,-0.38685066,-0.34955704,0.060142558,-3.078065,0.62048197,0.00041621126,-0.06814985,-0.010380328,-0.0014022241,0.028054291,-0.020417197,0.027578618,0.47512278,-1.4143579,1.9432977,-2.0974586,-1.5720476,2.4474013,-0.033732448,0.15242095,-0.18703894,0.06557768,-0.015908351,-0.061172374,-0.19153613,0.22984336,-9.097966,0.86945957,47.687782,-1.182956,-1.7789823,-3.255589,-0.22803205,-0.19280112,-0.46218908,26.6875,27.5625,26.6875,30.0625,31.375,31.9375
0.16005406,-0.8021459,-0.42225462,0.044241186,-0.015726296,0.019636584,-0.15023603,-0.38697216,-0.3495815,0.06012386,-3.0780005,0.6203715,0.00027713316,-0.06988376,-0.009969087,-0.0010075981,0.029009787,-0.019868037,0.029958569,0.47506225,-1.4140209,1.9429144,-2.0972903,-1.572059,2.4472802,-0.03530425,0.15436478,-0.19056892,0.06710932,-0.017026313,-0.06511787,-0.21068975,0.28730422,-9.212888,0.8537928,47.679718,-1.1287794,-1.6972338,-3.384992,-0.26613238,-0.18316731,-0.45461637,26.6875,27.5625,26.6875,30.0625,31.375,31.9375
0.16205344,-1.4996022,-1.4966918,-0.10369157,-0.02952247,0.030361285,-0.14447702,-0.38711444,-0.34958982,0.060115583,-3.0779383,0.6202592,0.00023409074,-0.070115246,-0.010022165,-0.0015160802,0.029984524,-0.021176573,0.03437969,0.47497827,-1.4137081,1.9425434,-2.0971587,-1.5721077,2.4471343,-0.03522312,0.15645717,-0.19209354,0.06814104,-0.017307347,-0.06945514,-0.38307226,0.36391866,-9.32781,0.83589023,47.70659,-1.095959,-1.7079163,-3.3613048,-0.33395728,-0.19127981,-0.42751855,26.6875,27.5625,26.6875,30.0625,31.375,31.9375
0.16405389,-1.6812713,-1.844497,-0.18347323,-0.046533007,0.046274144,-0.16100669,-0.38725087,-0.34960657,0.060117554,-3.0778604,0.62020326,0.00015089253,-0.071280636,-0.010396749,-0.0016819509,0.029404916,-0.020732969,0.03639591,0.47490624,-1.4133947,1.9421347,-2.0969675,-1.5721434,2.4470375,-0.035797723,0.15873706,-0.19419019,0.067289576,-0.017013062,-0.07204364,-0.36391866,0.4213795,-9.404425,0.8537928,47.71286,-1.1295228,-1.7154217,-3.326559,-0.34191316,-0.20549186,-0.43500668,26.6875,27.5625,26.6875,30.0625,31.375,31.9375
0.16605364,-1.923422,-1.9988357,-0.39527708,-0.051748615,0.05776678,-0.15150057,-0.38738036,-0.34961,0.060086362,-3.0778058,0.6199965,2.4743207e-05,-0.07364664,-0.010760352,-0.00088990456,0.028329182,-0.0168286,0.042062383,0.47480977,-1.413058,1.9417886,-2.0968363,-1.5721678,2.446819,-0.036739323,0.16008016,-0.19703117,0.06481281,-0.017873013,-0.07864545,-0.22984336,0.40222588,-9.500193,0.89631605,47.719128,-1.1658845,-1.6689074,-3.4388895,-0.36665678,-0.1934647,-0.38523436,26.6875,27.5625,26.6875,30.0625,31.375,31.9375
0.1680537,-2.3380723,-2.2705407,-0.48431045,-0.04848838,0.05143299,-0.14681295,-0.38752663,-0.34963912,0.060084715,-3.0777555,0.6198494,4.8895854e-05,-0.07455995,-0.011149089,-0.002336774,0.027785698,-0.017543018,0.046653517,0.47477356,-1.4127326,1.9413933,-2.0967295,-1.5722393,2.4466977,-0.037381873,0.16409576,-0.19773516,0.06187061,-0.017081829,-0.08387926,-0.4405331,0.40222588,-9.500193,0.8291774,47.71286,-1.1181926,-1.6029943,-3.4950042,-0.36935318,-0.22306485,-0.32387024,26.6875,27.5625,26.6875,30.0625,31.375,31.9375
0.17005356,-2.020053,-2.173163,-0.70900285,-0.04288841,0.0507856,-0.14380361,-0.38769448,-0.349667,0.060091376,-3.07776,0.619674,1.7530385e-05,-0.07768226,-0.012206142,-0.00054670445,0.024271773,-0.011324455,0.049378157,0.47467735,-1.4123961,1.9409608,-2.0965993,-1.5722512,2.4464917,-0.038501903,0.1644329,-0.20139559,0.058047064,-0.0168259,-0.08772171,-0.36391866,0.47884035,-9.615114,0.8403672,47.694946,-1.1392745,-1.6217809,-3.5187807,-0.3366409,-0.23750812,-0.28837803,26.6875,27.5625,26.6875,30.0625,31.375,31.9375
0.1720535,-1.7629784,-1.5055242,-0.6259596,-0.046440113,0.042547293,-0.14125209,-0.38784984,-0.34969068,0.06008104,-3.0777414,0.61947566,-3.6281177e-05,-0.07879382,-0.012189309,-0.0017317889,0.024810243,-0.011784778,0.052901626,0.474593,-1.4120466,1.9405545,-2.0964801,-1.5722755,2.4462862,-0.03933604,0.16819587,-0.20266025,0.05619467,-0.017114665,-0.09207606,-0.3256114,0.45968673,-9.710882,0.92093146,47.691364,-1.0375894,-1.8061311,-3.6366138,-0.32895413,-0.2444601,-0.2263214,26.6875,27.5625,26.6875,30.0625,31.375,31.9375
0.17405447,-1.307279,-1.5147166,-0.741878,-0.025930658,0.04052726,-0.14560491,-0.38803342,-0.34972253,0.06010957,-3.0777552,0.6193236,8.172376e-05,-0.08052969,-0.012647135,-0.0030161028,0.02444984,-0.009763855,0.05461033,0.47452083,-1.4117446,1.940123,-2.096399,-1.5723361,2.4461176,-0.03969104,0.17239055,-0.20337541,0.050744858,-0.017731406,-0.09413706,-0.34476504,0.3256114,-9.653421,0.8873621,47.691364,-1.0937254,-1.9484003,-3.6292572,-0.26926062,-0.24121597,-0.18064332,26.6875,27.5625,26.6875,30.0625,31.375,31.9375
0.17605327,-1.5174258,-1.1711559,-0.6371117,-0.023039311,0.024792066,-0.1451079,-0.3881885,-0.34975496,0.060086075,-3.0777633,0.6190943,6.194181e-06,-0.083007775,-0.013393288,-0.0026531862,0.023096152,-0.006299862,0.054763265,0.47443664,-1.4113712,1.9397272,-2.096316,-1.5723361,2.4458895,-0.04035054,0.17511278,-0.20670243,0.047648504,-0.018132579,-0.09494488,-0.2873042,0.36391866,-9.595961,0.88960326,47.689575,-1.087393,-1.9634523,-3.7270708,-0.21555644,-0.25863314,-0.14352141,26.6875,27.5625,26.6875,30.0625,31.375,31.9375
0.1780535,-0.80960727,-0.69754004,-0.6586068,-0.029791687,0.03436764,-0.15136415,-0.38837472,-0.3497726,0.060098335,-3.077736,0.61897373,0.00011553417,-0.08500085,-0.013980743,-0.0023107606,0.021541132,-0.004255297,0.052978475,0.47435215,-1.4110464,1.9393085,-2.096245,-1.57242,2.4457335,-0.041385375,0.17733765,-0.2097053,0.04588775,-0.01769189,-0.09419462,-0.2681506,0.28730422,-9.557653,0.87393653,47.694054,-1.0463244,-1.9739,-3.7415528,-0.18940976,-0.27039504,-0.13312106,26.6875,27.5625,26.6875,30.0625,31.375,31.9375
0.18005338,-1.3702108,-1.2197604,-0.5861532,-0.007016005,0.007079516,-0.1383545,-0.3885392,-0.34980807,0.060079083,-3.0777173,0.6188175,7.673742e-05,-0.085606396,-0.013831684,-0.004011365,0.023885207,-0.0073224623,0.049850762,0.47428018,-1.41066,1.9388875,-2.0961607,-1.5724438,2.4455667,-0.041734163,0.18260996,-0.21220405,0.046917498,-0.01838134,-0.091411136,-0.17238252,0.2873042,-9.519346,0.8851263,47.695843,-1.045152,-2.0550585,-3.594367,-0.17522451,-0.24639633,-0.12346546,26.6875,27.5625,26.6875,30.0625,31.375,31.9375
0.18205355,-0.6195141,-0.89877146,-0.48076877,-0.008509389,0.021814248,-0.15047815,-0.38872737,-0.3498237,0.06009053,-3.0777113,0.61874187,0.00012484907,-0.08834216,-0.01469453,-0.0019429945,0.021930726,-0.0023944688,0.04457055,0.47415993,-1.410336,1.9384683,-2.0960767,-1.5724801,2.4454002,-0.04233552,0.18289196,-0.21717416,0.04633402,-0.018899333,-0.08672863,-0.21068975,0.3256114,-9.423578,0.8672237,47.707485,-1.0799294,-1.9064281,-3.4846177,-0.15176496,-0.26450065,-0.16178654,26.6875,27.5625,26.6875,30.0625,31.375,31.9375
0.18405606,-1.1747162,-1.3689698,-0.5206816,0.00068355585,0.011009808,-0.14252868,-0.38891152,-0.34986922,0.06008803,-3.0777378,0.61851686,0.00014591949,-0.089582786,-0.0153828785,-0.0012367975,0.020010812,-0.00010064953,0.04239735,0.47408792,-1.4099513,1.9380139,-2.0960062,-1.5725039,2.4451847,-0.042644724,0.18327917,-0.21895494,0.044808038,-0.018244155,-0.08486547,-0.22984336,0.30645782,-9.461885,0.9835985,47.70838,-1.0232642,-2.0103335,-3.449008,-0.0895309,-0.2835727,-0.18596414,26.6875,27.5625,26.6875,30.0625,31.375,31.9375
0.18605363,-0.80273426,-0.9092572,-0.46000248,-0.021590944,0.022274349,-0.1551003,-0.3890572,-0.34989282,0.060087588,-3.077685,0.61839354,0.000114713606,-0.09035661,-0.015281349,-0.001412279,0.020956028,-0.0017029727,0.036314726,0.47402757,-1.4096262,1.9376067,-2.0958612,-1.5725516,2.4450543,-0.043434918,0.18573712,-0.22200389,0.047261655,-0.018352957,-0.079570286,-0.40222588,0.30645782,-9.461885,0.9835985,47.71823,-1.1023161,-1.9838095,-3.5144906,-0.08020813,-0.2868804,-0.25062886,26.6875,27.5625,26.6875,30.0625,31.375,31.9375
0.18805365,-1.315316,-1.535049,-0.4642644,-0.024149723,0.020302018,-0.14212818,-0.38927633,-0.34992647,0.06008768,-3.077658,0.61836964,0.00017270609,-0.09150348,-0.014477885,-0.0010335172,0.022101715,-0.0017999867,0.03446808,0.473919,-1.4092056,1.9371041,-2.0957887,-1.5726002,2.4449346,-0.04522398,0.18649095,-0.22429733,0.049408395,-0.019328495,-0.07950937,-0.2681506,0.4213795,-9.442732,0.86498255,47.705692,-1.0101106,-1.9902673,-3.4681692,-0.08020467,-0.294097,-0.27893656,26.6875,27.5625,26.6875,30.0625,31.375,31.9375
0.19005363,-1.6027268,-1.814972,-0.47244817,-0.029633978,0.024988692,-0.14341483,-0.3894381,-0.3499743,0.060088445,-3.0776658,0.61815715,0.00016328332,-0.09084975,-0.01499274,-0.0016868719,0.022942645,-0.0039926306,0.037899848,0.47387144,-1.4088445,1.9366606,-2.0956805,-1.5726241,2.4447536,-0.043866582,0.18829289,-0.22529681,0.05093295,-0.019080462,-0.08158361,-0.30645782,0.53630114,-9.461885,0.83365434,47.674347,-0.9823445,-1.8299843,-3.451818,-0.07763687,-0.30226904,-0.26258796,26.6875,27.5625,26.6875,30.0625,31.375,31.9375
0.1920541,-1.4473987,-1.9732738,-0.26339412,-0.032087293,0.040498983,-0.14297135,-0.3896219,-0.35001257,0.0600845,-3.077664,0.6179456,0.00013637668,-0.09175111,-0.015176875,-0.0018120026,0.023460362,-0.005068298,0.03632857,0.47378746,-1.4084466,1.9361824,-2.0955598,-1.5726484,2.444538,-0.044347584,0.19091287,-0.22851585,0.05272403,-0.019056052,-0.08049116,-0.40222588,0.40222588,-9.423578,0.8806493,47.692257,-1.1079385,-2.0833972,-3.4797485,-0.064856336,-0.31234598,-0.30494145,26.6875,27.5625,26.6875,30.0625,31.375,31.9375
0.19405463,-0.9564107,-1.4176506,-0.31480414,-0.029652964,0.049300622,-0.14533384,-0.3898017,-0.3500078,0.060069107,-3.077584,0.6179105,0.00011730986,-0.093203776,-0.014809239,-0.001970925,0.024070704,-0.0053383387,0.035209138,0.47365466,-1.408086,1.9357761,-2.0954516,-1.5727085,2.4443939,-0.045995835,0.19336617,-0.23122795,0.053494785,-0.019488007,-0.08101611,-0.30645782,0.38307226,-9.3661175,0.9298854,47.719128,-1.0196521,-1.89888,-3.4693294,-0.057373732,-0.32228202,-0.3177355,26.6875,27.5625,26.6875,30.0625,31.375,31.9375
0.19605403,-1.1425978,-0.824596,-0.34819242,-0.010675543,0.029478785,-0.14843021,-0.39001092,-0.35007027,0.06008681,-3.0776415,0.61772984,0.00018552219,-0.09496762,-0.0147968,-0.0005497529,0.0228894,-0.0028033075,0.03344306,0.4735823,-1.4076897,1.9352611,-2.09538,-1.5727204,2.4442017,-0.047511935,0.19288348,-0.23411527,0.05406866,-0.019594777,-0.0807657,-0.2681506,0.2681506,-9.289502,0.8717007,47.693153,-1.0036492,-1.8896254,-3.4799166,-0.04064348,-0.33633667,-0.33783543,26.6875,27.5625,26.6875,30.0625,31.375,31.9375
0.19805369,-0.67945576,-0.50482637,-0.11130112,0.012335599,0.02890653,-0.14630774,-0.39022934,-0.35009253,0.060100634,-3.0776248,0.61768824,0.00028474032,-0.0966089,-0.014890543,0.0002996999,0.022001492,-0.0009977005,0.032358054,0.47346184,-1.4073173,1.9347824,-2.095308,-1.57278,2.4440577,-0.048767164,0.19352816,-0.23689225,0.054181844,-0.01963265,-0.08093526,-0.3256114,0.22984336,-9.174581,0.86498255,47.694946,-0.8969555,-1.8049831,-3.5240128,-0.02742162,-0.347982,-0.35527474,26.6875,27.5625,26.6875,30.0625,31.375,31.9375
0.20005421,-1.4380219,-0.36705706,-0.15058224,0.025855437,-0.00014117907,-0.14238593,-0.39039353,-0.35011822,0.06005991,-3.0775564,0.61755586,0.00013120701,-0.09674826,-0.015750455,-3.197124e-05,0.022784906,-0.0018630086,0.03571329,0.47336647,-1.4068722,1.9343275,-2.095164,-1.5727929,2.4438887,-0.047152184,0.19616643,-0.23952213,0.055295378,-0.019953303,-0.08267063,-0.22984336,0.1340753,-9.289502,0.89631605,47.68599,-0.9827763,-1.8253846,-3.5519714,0.0054401867,-0.3607123,-0.36871767,26.6875,27.5625,26.6875,30.0625,31.375,31.9375
0.20205407,-0.4925046,-0.0746541,-0.16141407,0.02446371,0.019943507,-0.15240295,-0.39060763,-0.35014248,0.060069475,-3.0775332,0.6175112,0.00018676743,-0.09750071,-0.015187052,-0.0013092153,0.024951607,-0.005297074,0.037721086,0.4732459,-1.4064856,1.9338363,-2.0950677,-1.5728406,2.4437435,-0.048545185,0.20060188,-0.24236465,0.057734273,-0.020323427,-0.086068995,-0.038307227,0.076614454,-9.289502,0.9030289,47.67614,-1.0211427,-1.9196393,-3.454606,0.03794441,-0.37062126,-0.3690983,26.6875,27.5625,26.6875,30.0625,31.375,31.9375
0.2040548,-0.6965194,0.27711114,-0.055672064,0.01292703,0.013027545,-0.15399855,-0.39079946,-0.3501757,0.06006489,-3.0775137,0.61729336,0.00018309195,-0.097372636,-0.013790511,-0.001904672,0.028111666,-0.009444835,0.04033451,0.47316146,-1.4060767,1.9333457,-2.0949457,-1.5728887,2.4435258,-0.050252456,0.20217761,-0.24409992,0.063013844,-0.02124961,-0.090385966,-0.076614454,0.095768064,-9.308657,0.9455522,47.71286,-0.9510417,-2.0020623,-3.5293221,0.00082841225,-0.38103014,-0.34973556,26.6875,27.5625,26.6875,30.0625,31.375,31.9375
0.2060534,-0.9980065,-0.39078403,-0.14212121,0.016568324,0.0034773014,-0.14787182,-0.39099243,-0.35020506,0.06007973,-3.0774934,0.6171517,0.00023910715,-0.09890635,-0.014090314,-0.0009792394,0.028201489,-0.007919633,0.045653865,0.47307727,-1.4057164,1.9328674,-2.094826,-1.5729493,2.443356,-0.050573397,0.20338939,-0.24798466,0.06435277,-0.022041,-0.09602216,-0.095768064,0.095768064,-9.155427,0.9321212,47.684196,-0.9032135,-1.8408136,-3.5361688,-0.024297513,-0.3835454,-0.30038372,26.6875,27.5625,26.6875,30.0625,31.375,31.9375
0.2080534,-0.80049455,-0.50583375,-0.033667102,0.014671779,0.008846279,-0.14007746,-0.39120838,-0.35024843,0.06007427,-3.07747,0.6169702,0.00021061313,-0.09924035,-0.0136881005,-0.001081617,0.029970113,-0.01075276,0.050023258,0.47298104,-1.4052473,1.9323033,-2.0946805,-1.572985,2.4431498,-0.051353276,0.20543833,-0.251235,0.06886556,-0.022336923,-0.10116849,-0.095768064,0.076614454,-9.078813,0.8851263,47.694946,-0.94908416,-1.8875468,-3.5170994,-0.05388309,-0.38751245,-0.2514517,26.6875,27.5625,26.6875,30.0625,31.375,31.9375
0.21005328,-0.45406082,-0.11067248,-0.036355592,0.022913296,0.00219402,-0.15591672,-0.39139515,-0.35025644,0.060053293,-3.0774052,0.6167629,0.00018484153,-0.09728064,-0.0120667415,-0.0028004602,0.03475015,-0.01906437,0.05407441,0.47287282,-1.404838,1.9318489,-2.094558,-1.5730575,2.4429207,-0.052090228,0.20752712,-0.25157684,0.07667574,-0.022808405,-0.105954275,-0.095768064,0.095768064,-9.11712,0.8179876,47.678825,-0.85207057,-1.9656,-3.4898157,-0.10344225,-0.39063942,-0.1543721,26.6875,27.5625,26.6875,30.0625,31.375,31.9375
0.21205342,-0.65463334,0.17720115,-0.0040734024,0.016126536,-0.007115225,-0.15350199,-0.39161885,-0.3503075,0.060074825,-3.0774546,0.61663634,0.00019844332,-0.09894877,-0.012626482,-0.0021104782,0.034341216,-0.017879581,0.056781113,0.47275278,-1.4044293,1.9312986,-2.0944383,-1.5730456,2.4427156,-0.052450363,0.20958924,-0.25583747,0.077625215,-0.022997838,-0.109019026,-0.15322891,0.1340753,-9.155427,0.8851263,47.68599,-0.84269416,-1.9218853,-3.4863536,-0.14987175,-0.3999535,-0.12282244,26.6875,27.5625,26.6875,30.0625,31.375,31.9375
0.21405424,-0.49600375,0.14693587,0.04784179,0.020012796,-0.0015264229,-0.14463049,-0.39179072,-0.35029656,0.06004751,-3.0773194,0.61643547,6.764705e-05,-0.099354066,-0.012244384,-0.0026400283,0.036178708,-0.020230372,0.056657255,0.4726323,-1.4040083,1.9308208,-2.0942094,-1.5731295,2.4424872,-0.053074013,0.21216162,-0.25833324,0.080467306,-0.023586096,-0.10951197,-0.15322891,0.13407528,-9.136273,0.9612189,47.689575,-0.83550817,-1.8714244,-3.501883,-0.19440225,-0.39925775,-0.06473503,26.6875,27.5625,26.6875,30.0625,31.375,31.9375
0.21605335,-0.52556294,0.09226837,0.09741275,0.009862271,0.003007847,-0.15289222,-0.39200246,-0.35032848,0.06003177,-3.0772722,0.6162344,4.8092097e-05,-0.10030278,-0.0118214665,-0.0028753853,0.03750888,-0.021518776,0.05362048,0.47253594,-1.4035387,1.930282,-2.0940773,-1.5731901,2.4422717,-0.054244168,0.21452859,-0.26112604,0.08264401,-0.024191627,-0.107640654,-0.19153613,0.21068975,-9.174581,0.9388393,47.67614,-0.7799976,-1.9655716,-3.407905,-0.24329123,-0.41127378,-0.07730654,26.6875,27.5625,26.6875,30.0625,31.375,31.9375
0.21805352,-1.0997263,-0.811717,-0.102774315,0.009013124,0.0063512675,-0.1480422,-0.39218816,-0.35035405,0.060036264,-3.0772254,0.6159953,1.4700406e-05,-0.10141862,-0.011673975,-0.0030741438,0.03935688,-0.021546284,0.05089754,0.472452,-1.4031411,1.929767,-2.0938857,-1.5732507,2.4420447,-0.054426525,0.21722607,-0.2641474,0.083837576,-0.025834281,-0.10509102,-0.22984336,0.28730422,-9.193734,0.8918391,47.68599,-0.7507547,-2.066439,-3.4300137,-0.2702914,-0.4067251,-0.08766112,26.6875,27.5625,26.6875,30.0625,31.375,31.9375
0.22005355,-1.3589146,-0.943719,-0.2341325,-0.011488246,0.019288743,-0.14245188,-0.39237553,-0.35034844,0.059991807,-3.0770848,0.61583436,-0.00014019212,-0.10250251,-0.011313423,-0.00219509,0.039830606,-0.01983823,0.04639824,0.47231972,-1.4026608,1.9292644,-2.093681,-1.5733231,2.4418302,-0.05521407,0.21685079,-0.2660232,0.08478665,-0.027050901,-0.10136961,-0.2681506,0.2681506,-9.289502,0.9097417,47.674347,-0.7752627,-1.9710407,-3.4856744,-0.28972062,-0.39011025,-0.113557205,26.6875,27.5625,26.6875,30.0625,31.375,31.9375
0.22205402,-1.5606215,-1.8181088,-0.35578594,-0.01797001,0.030853624,-0.13711022,-0.3926031,-0.3503992,0.06003036,-3.077116,0.61570835,-0.00010139238,-0.104329646,-0.011293338,-0.0016036364,0.03949672,-0.017585123,0.04121447,0.47221136,-1.4022641,1.9286779,-2.0935147,-1.573335,2.4416394,-0.05638297,0.21801771,-0.26865104,0.08409865,-0.027778342,-0.097351335,-0.30645782,0.3256114,-9.346964,0.8851263,47.71017,-0.7486496,-2.0103204,-3.5508213,-0.33563912,-0.38874826,-0.15176569,26.6875,27.5625,26.6875,30.0625,31.375,31.9375
0.22405475,-1.7679892,-2.0193825,-0.10222167,-0.039557885,0.036875892,-0.1347414,-0.39281154,-0.3503882,0.05999777,-3.0769815,0.61568296,-0.00022376684,-0.10636151,-0.011951379,-0.0010283613,0.037839375,-0.014581165,0.037247233,0.4720431,-1.4017949,1.9281639,-2.093324,-1.5733951,2.4414728,-0.057062585,0.21966802,-0.27146295,0.08182958,-0.027691672,-0.09405833,-0.30645782,0.3256114,-9.404425,0.97464454,47.698532,-0.67932236,-1.9839466,-3.4881282,-0.34396747,-0.3959837,-0.2022633,26.6875,27.5625,26.6875,30.0625,31.375,31.9375
0.22605404,-1.5850801,-1.6819074,-0.34894937,-0.028948748,0.04973401,-0.14445022,-0.39301333,-0.3504533,0.06000314,-3.0769942,0.6154938,-0.00024520277,-0.108005606,-0.012542125,-0.001523831,0.03684003,-0.012569845,0.03438589,0.47198305,-1.4013495,1.9276017,-2.0931814,-1.573407,2.4412932,-0.057450596,0.22261809,-0.2730358,0.07821087,-0.027726218,-0.09158261,-0.36391866,0.28730422,-9.32781,1.0037369,47.711964,-0.66338825,-1.8358078,-3.4649339,-0.31215245,-0.39835048,-0.26651308,26.6875,27.5625,26.6875,30.0625,31.375,31.9375
0.22805421,-1.6129788,-1.535545,-0.7644568,-0.0052035423,0.04430178,-0.13691573,-0.39322436,-0.350451,0.059976403,-3.076881,0.6153737,-0.00027157905,-0.111101456,-0.013269568,-0.00046888844,0.03509582,-0.0064927526,0.033619706,0.47185084,-1.4008925,1.9270991,-2.0930393,-1.5735034,2.4411008,-0.058122333,0.2241735,-0.27633455,0.07374085,-0.028964713,-0.09147842,-0.4213795,0.22984336,-9.385271,0.89631605,47.71286,-0.6623786,-1.8881153,-3.4656024,-0.26708907,-0.38461888,-0.3169456,26.6875,27.5625,26.6875,30.0625,31.375,31.9375
0.23005362,-1.7778339,-1.110893,-0.5113775,-0.009084399,0.053036686,-0.14521635,-0.39344278,-0.35046786,0.059968196,-3.076807,0.6152251,-0.00029178854,-0.112651445,-0.013159434,-0.00076244184,0.035536524,-0.0035500105,0.031497408,0.47173074,-1.4004357,1.9265488,-2.0928729,-1.5735763,2.4408977,-0.058547977,0.22588412,-0.2769515,0.07022746,-0.03070904,-0.08977178,-0.34476504,0.28730422,-9.519346,0.88960326,47.681515,-0.7104189,-1.8634195,-3.5686269,-0.20844765,-0.37396967,-0.34062594,26.6875,27.5625,26.6875,30.0625,31.375,31.9375
0.23205341,-1.4673121,-0.8815761,-0.4644442,-0.012325394,0.055422105,-0.15038776,-0.39366987,-0.3504962,0.059957005,-3.076751,0.6151756,-0.00024121432,-0.114172064,-0.013097417,-0.0017365144,0.03605069,-0.002760113,0.02915086,0.4716223,-1.3999774,1.9260224,-2.09279,-1.5736483,2.4407659,-0.05944836,0.22943266,-0.27836463,0.06761973,-0.03153481,-0.08832046,-0.36391866,0.28730422,-9.461885,0.9254084,47.67614,-0.47920147,-1.951877,-3.6845756,-0.18078557,-0.35834432,-0.3992371,26.6875,27.5625,26.6875,30.0625,31.375,31.9375
0.23405397,-2.1691544,-1.4631144,-0.573273,-0.0120275,0.04085872,-0.14544675,-0.39388162,-0.350521,0.059930295,-3.0766857,0.6150627,-0.00035268508,-0.11507818,-0.015009527,-0.0009117503,0.035156555,0.0011244379,0.03464244,0.47149152,-1.3994848,1.9254721,-2.0926235,-1.5736731,2.4405732,-0.05624379,0.23068272,-0.28131545,0.06544425,-0.032532357,-0.09059832,-0.4213795,0.34476504,-9.481039,0.9567419,47.70659,-0.68658495,-1.9659017,-3.6984031,-0.1386118,-0.33171654,-0.41865402,26.6875,27.5625,26.6875,30.0625,31.375,31.9375
0.2360542,-1.3088892,-1.2140723,-0.4303822,-0.021454282,0.054323982,-0.1455344,-0.39411724,-0.3505585,0.059933677,-3.0766187,0.6148576,-0.00032238002,-0.11729289,-0.0150963,-0.00031502199,0.035162117,0.0037817347,0.033224378,0.47140706,-1.398992,1.9248499,-2.0924437,-1.5737695,2.4403696,-0.05725276,0.23260649,-0.28484774,0.06468229,-0.03375827,-0.09018071,-0.45968673,0.38307226,-9.461885,0.9858343,47.705692,-0.7227434,-1.9859781,-3.6025205,-0.09410936,-0.33043745,-0.48425245,26.6875,27.5625,26.6875,30.0625,31.375,31.9375
0.2380541,-1.6697626,-1.0943527,-0.8954625,-0.014992035,0.023111552,-0.14245062,-0.39434987,-0.3505463,0.059911024,-3.076533,0.6148181,-0.00026413274,-0.11828664,-0.014450982,-0.0006745199,0.03713367,0.002079494,0.035573635,0.47123882,-1.3985586,1.924383,-2.0923827,-1.5738658,2.440188,-0.05857561,0.23533049,-0.28790754,0.06740758,-0.034757182,-0.09384652,-0.17238252,0.2873042,-9.672575,0.89631605,47.707485,-0.6721655,-2.0472717,-3.6813376,-0.07945098,-0.30192545,-0.48750412,26.6875,27.5625,26.6875,30.0625,31.375,31.9375
0.24005356,-1.4613744,-1.0065267,-0.74706376,-0.030970424,0.0034053423,-0.14831772,-0.39462763,-0.35058242,0.0599415,-3.0765314,0.6146404,-0.00012823509,-0.11974818,-0.015292685,-0.0004987117,0.036193125,0.0033043262,0.041564405,0.47110668,-1.3980893,1.9237369,-2.0922515,-1.5739497,2.4399455,-0.05852333,0.23786275,-0.2911794,0.066596076,-0.034497783,-0.099786006,-0.17238252,0.38307226,-9.672575,0.93436235,47.674347,-0.5664046,-2.1942039,-3.6243234,-0.079972394,-0.2963528,-0.4577502,26.6875,27.5625,26.6875,30.0625,31.375,31.9375
0.24205361,-1.3355439,-1.8354958,-0.596723,-0.033560596,0.006831812,-0.14726566,-0.3948669,-0.35062,0.05992428,-3.0764527,0.61450315,-0.00012466675,-0.12050178,-0.016649466,-0.00077247847,0.037787646,0.0042330823,0.05127202,0.4710118,-1.3975595,1.9231261,-2.092108,-1.5740341,2.4397752,-0.05559982,0.24173611,-0.29518414,0.06659587,-0.03637517,-0.10655794,-0.17238252,0.34476504,-9.500193,0.9186956,47.678825,-0.8331076,-2.205585,-3.6127014,-0.029134631,-0.26493424,-0.39959684,26.6875,27.5625,26.6875,30.0625,31.375,31.9375
0.2440542,-0.9727247,-1.3755096,-0.8364564,-0.03313735,0.006299593,-0.14812505,-0.3950878,-0.35066038,0.059926298,-3.0764594,0.61423165,-9.8779776e-05,-0.12221514,-0.016578373,0.00035351544,0.0386908,0.004248778,0.057356823,0.47091532,-1.3971144,1.9225749,-2.0919864,-1.5740823,2.4395087,-0.05667795,0.24343808,-0.30080333,0.07087895,-0.037212297,-0.11371489,-0.095768064,0.47884035,-9.557653,0.947788,47.696735,-0.7518649,-2.1261542,-3.5440135,-0.008086989,-0.22563303,-0.33572203,26.6875,27.5625,26.6875,30.0625,31.375,31.9375
0.24605428,-1.0796396,-1.421308,-1.0003151,-0.019060288,-0.006819397,-0.14282106,-0.3953267,-0.35069206,0.059903543,-3.076407,0.614024,-0.00013380949,-0.122134276,-0.016445145,-0.00094237016,0.039871663,0.0014459189,0.063581616,0.47079524,-1.3965847,1.9219764,-2.0918434,-1.5741423,2.439266,-0.056909632,0.24642234,-0.3016414,0.07173205,-0.037021764,-0.12016908,-0.095768064,0.4405331,-9.672575,0.91198283,47.699425,-0.8016566,-2.26118,-3.5362997,-0.036297724,-0.22411409,-0.28102714,26.6875,27.5625,26.6875,30.0625,31.375,31.9375
0.24805388,-0.13215089,-1.1302793,-0.760947,-0.04559093,0.022780906,-0.15263397,-0.3955638,-0.3507099,0.05987593,-3.076285,0.61389965,-0.00017949643,-0.12211181,-0.016910812,-0.0007273062,0.03989846,0.0019771873,0.068345636,0.47067577,-1.3960443,1.921368,-2.0916636,-1.5742387,2.4390848,-0.05584486,0.24656162,-0.30245844,0.071920514,-0.03731437,-0.123862915,-0.1340753,0.45968673,-9.672575,0.94331104,47.677036,-0.91283786,-2.139958,-3.6604185,0.015014684,-0.18927602,-0.19609258,26.6875,27.5625,26.6875,30.0625,31.375,31.9375
0.250054,-0.93450487,-1.5499668,-0.74629575,-0.045611124,0.006674884,-0.14290363,-0.39580438,-0.3507517,0.059894376,-3.0762768,0.6136467,-0.00011532302,-0.12188313,-0.016352162,-0.00042171025,0.040807784,0.00032105632,0.07114919,0.47057962,-1.3955877,1.9207572,-2.0915062,-1.5743107,2.438832,-0.05652439,0.24605092,-0.30341044,0.075246856,-0.037380636,-0.12734601,-0.05746084,0.47884035,-9.653421,0.8806493,47.682407,-0.8826412,-2.2386887,-3.7402458,0.013189996,-0.1701363,-0.14853626,26.6875,27.5625,26.6875,30.0625,31.375,31.9375
0.25205356,-0.69722813,-1.4187267,-0.80213463,-0.039179742,0.004660732,-0.14420906,-0.39608082,-0.35077757,0.059898067,-3.076272,0.6134166,-3.7068996e-05,-0.12270286,-0.017021617,0.00045535143,0.04021986,-0.0002313673,0.067657895,0.47042364,-1.3950833,1.9201349,-2.0913975,-1.5743822,2.4385333,-0.056524105,0.2472989,-0.3077294,0.078539245,-0.03659926,-0.123856835,-0.095768064,0.4213795,-9.691729,0.94331104,47.674347,-0.83044106,-1.9775848,-3.754179,-0.013761643,-0.14165272,-0.16922987,26.6875,27.5625,26.6875,30.0625,31.375,31.9375
0.25405416,-0.12688668,-0.82730114,-0.7058194,-0.029829381,-0.004847748,-0.14467284,-0.39631823,-0.3508335,0.059921894,-3.076267,0.6132049,-1.2398258e-05,-0.12270466,-0.016992815,0.0010710548,0.040905733,-0.0016703267,0.0653896,0.4703396,-1.3946147,1.9194893,-2.0912044,-1.5744299,2.438318,-0.05656214,0.24739249,-0.31025591,0.08256517,-0.036551595,-0.12162586,0.0,0.3256114,-9.653421,0.9791215,47.666286,-0.981497,-1.9046178,-3.652307,-0.021316797,-0.12894042,-0.15325294,26.6875,27.5625,26.6875,30.0625,31.375,31.9375
0.25605333,-0.30051118,-0.34141582,-0.8121439,-0.0068911235,-0.027115598,-0.14011657,-0.39656788,-0.35085693,0.059894275,-3.0761867,0.61301917,-9.44301e-08,-0.12334614,-0.016854515,0.00026570127,0.042965468,-0.005322868,0.058018386,0.47021943,-1.3940722,1.9188908,-2.0910838,-1.5745267,2.4380925,-0.057215657,0.25172213,-0.31454226,0.08672193,-0.036722388,-0.11490327,0.0,0.34476504,-9.595961,0.9768804,47.68062,-0.84346354,-1.9103627,-3.7076275,-0.0699379,-0.122503966,-0.2346115,26.6875,27.5625,26.6875,30.0625,31.375,31.9375
0.25805342,0.1473415,-0.10167117,-0.9762861,0.010930374,-0.030899176,-0.14162628,-0.39685246,-0.3508891,0.059909075,-3.076168,0.61280584,8.793448e-05,-0.12278556,-0.016453365,0.0002644371,0.04481632,-0.010488861,0.05471223,0.47007504,-1.3935558,1.9182199,-2.090937,-1.5746101,2.4378176,-0.05780094,0.2532103,-0.31808996,0.094218984,-0.036017183,-0.11218533,0.019153614,0.28730422,-9.576807,0.947788,47.71465,-0.9050735,-2.0230494,-3.6620834,-0.1172999,-0.09259164,-0.28932476,26.6875,27.5625,26.6875,30.0625,31.375,31.9375
0.26005405,0.43395355,0.084542245,-0.5668104,0.00078914466,-0.017958025,-0.15307672,-0.39707002,-0.35096186,0.05991305,-3.0761592,0.61261106,2.0286645e-05,-0.12434415,-0.017609075,0.0010806973,0.04322668,-0.01017138,0.05416415,0.47001523,-1.3930504,1.9175733,-2.0907333,-1.5746216,2.4376376,-0.05793674,0.255677,-0.3233675,0.09602056,-0.034758538,-0.111774385,0.19153613,0.19153613,-9.634268,0.947788,47.67614,-0.8996974,-1.8918763,-3.5161438,-0.1485177,-0.09920325,-0.31581834,26.6875,27.5625,26.6875,30.0625,31.375,31.9375
0.26205418,-0.16694754,-0.061917085,-0.7084639,0.015565266,-0.030994963,-0.14008251,-0.39729023,-0.35097924,0.05988836,-3.076055,0.6124177,-8.0410144e-05,-0.12343277,-0.017532865,-0.00070616935,0.045207992,-0.016999425,0.053652085,0.46989495,-1.392533,1.9169749,-2.0905159,-1.5746931,2.43741,-0.058045316,0.26006398,-0.32564583,0.10088188,-0.03344449,-0.11137164,0.21068975,0.24899697,-9.481039,0.89631605,47.683304,-0.9340061,-2.1521304,-3.4160547,-0.20179725,-0.11146273,-0.33072203,26.6875,27.5625,26.6875,30.0625,31.375,31.9375
0.2640543,-0.08952943,0.27825198,-0.6515517,0.009668949,-0.036215425,-0.14715071,-0.39755392,-0.35101026,0.059897922,-3.0759807,0.61220956,-6.8983485e-05,-0.123216175,-0.017599829,-0.0016698525,0.046049684,-0.02063912,0.05315117,0.469775,-1.3920029,1.9162811,-2.090288,-1.5747885,2.43717,-0.05824652,0.26293018,-0.3275203,0.10350014,-0.032555792,-0.11107343,0.095768064,0.22984336,-9.461885,0.9858343,47.704796,-0.99579525,-2.1506848,-3.3749022,-0.27958366,-0.09899591,-0.3535096,26.6875,27.5625,26.6875,30.0625,31.375,31.9375
0.26605347,-0.31072447,-0.7538669,-0.3393749,-0.0053475574,-0.011612001,-0.14679694,-0.39781842,-0.3510446,0.059900194,-3.075939,0.61206627,-8.865084e-05,-0.12362614,-0.016886713,-0.0030077393,0.046568867,-0.023381207,0.0532908,0.46963036,-1.3914732,1.9156121,-2.0900967,-1.5748366,2.4369416,-0.06026623,0.2656314,-0.32782054,0.10375772,-0.031796593,-0.11323455,0.076614454,0.19153613,-9.500193,0.9791215,47.694946,-0.87028956,-2.2320666,-3.6292226,-0.30183437,-0.117688924,-0.3789805,26.6875,27.5625,26.6875,30.0625,31.375,31.9375
0.26805338,-0.9431018,-0.80234665,-0.4568236,-0.033658125,-0.005163523,-0.14511867,-0.3980535,-0.35108578,0.059911665,-3.075888,0.611899,-0.00013585923,-0.1235399,-0.018638818,-0.0018574849,0.04470284,-0.0203,0.057300486,0.46952343,-1.3909813,1.9149555,-2.0898578,-1.5748843,2.436737,-0.057260737,0.2644949,-0.32892293,0.102390796,-0.031548567,-0.11423744,0.13407528,0.17238252,-9.442732,0.95226496,47.705692,-0.9937508,-2.17804,-3.7043235,-0.31417716,-0.101914026,-0.37502715,26.6875,27.5625,26.6875,30.0625,31.375,31.9375
0.27005354,-1.3126049,-1.5747651,-0.3529915,-0.044967975,0.0039034556,-0.14821039,-0.39831945,-0.35111734,0.059936393,-3.0758417,0.6116736,-7.5364886e-05,-0.12589744,-0.019578492,-0.0007730641,0.04150263,-0.015944138,0.06418209,0.4694031,-1.3904886,1.9142731,-2.0896437,-1.5749801,2.4364822,-0.058189917,0.26520354,-0.33157423,0.09894982,-0.030713016,-0.122050315,0.05746084,0.15322891,-9.461885,0.99031126,47.66808,-1.0710555,-2.0331836,-3.6320896,-0.30858985,-0.10885134,-0.3324319,26.6875,27.5625,26.6875,30.0625,31.375,31.9375
0.2720535,-1.3858539,-1.7689078,-0.15871358,-0.055021245,0.013352998,-0.14474896,-0.39858794,-0.35117528,0.059942584,-3.0758476,0.6113854,3.2778935e-05,-0.12939292,-0.020659352,0.00093988725,0.037320986,-0.0089805145,0.067587085,0.46931866,-1.3899596,1.9136146,-2.0895379,-1.5750641,2.4362173,-0.059699975,0.2656862,-0.33501545,0.09377017,-0.030169295,-0.12696695,-0.019153614,0.21068975,-9.442732,0.9679317,47.667187,-1.0423601,-1.920224,-3.7026548,-0.2548211,-0.11430782,-0.26750618,26.6875,27.5625,26.6875,30.0625,31.375,31.9375
0.27405438,-1.5295603,-1.0826119,-0.5670384,-0.04599498,0.004307907,-0.14224781,-0.39880607,-0.3511999,0.05990867,-3.0757403,0.61112887,-0.00015999039,-0.13262834,-0.022278076,0.0028362276,0.032856457,-0.0017979963,0.074086174,0.46919832,-1.3893957,1.9129685,-2.0892637,-1.5751117,2.4359508,-0.06012028,0.26608464,-0.33880928,0.0886979,-0.029507462,-0.13388215,-0.095768064,0.21068975,-9.423578,0.9768804,47.672558,-0.97545475,-1.8634608,-3.611531,-0.20547256,-0.10254714,-0.20824224,26.6875,27.5625,26.6875,30.0625,31.375,31.9375
0.27605337,-1.3661218,-1.345734,-0.44225317,-0.024692997,0.0025532548,-0.13954815,-0.39908952,-0.35126367,0.05995609,-3.0757709,0.61091834,-3.5186408e-06,-0.13496007,-0.025354296,0.0046620313,0.028829258,0.0044921706,0.08228209,0.46910354,-1.3889148,1.9122609,-2.0891092,-1.5751837,2.435721,-0.05725398,0.2677905,-0.34425846,0.084971026,-0.028790327,-0.13921481,-0.22984336,0.2681506,-9.442732,0.9925471,47.698532,-1.2127788,-1.7629354,-3.4994497,-0.15147874,-0.13021523,-0.10090296,26.6875,27.5625,26.6875,30.0625,31.375,31.9375
0.27805355,-1.4986863,-0.92364246,-0.7015352,-0.019130295,0.004226244,-0.13593712,-0.39937517,-0.3513129,0.059961274,-3.0757942,0.6106545,2.5476542e-05,-0.13619594,-0.025328683,0.0052831136,0.027014064,0.0069992202,0.08177495,0.46895894,-1.3883624,1.911568,-2.0889666,-1.5752195,2.4354088,-0.058620386,0.2671748,-0.34461802,0.08287501,-0.02831455,-0.14007646,-0.22984336,0.45968673,-9.500193,0.9365982,47.668976,-1.181967,-1.6536198,-3.4785738,-0.08699797,-0.12980324,-0.073087536,26.6875,27.5625,26.6875,30.0625,31.375,31.9375
0.28005365,-1.7157787,-1.2793343,-1.0259924,-0.018721493,0.015374503,-0.13528104,-0.39964285,-0.35136524,0.059974227,-3.0757864,0.6104054,5.9776867e-05,-0.13727812,-0.025464376,0.0046549453,0.02703948,0.005847819,0.078351304,0.46885067,-1.3878324,1.9108752,-2.0887868,-1.5752791,2.4351463,-0.059598394,0.2704721,-0.34728283,0.083279446,-0.027816152,-0.13763157,-0.4405331,0.49799395,-9.595961,0.9791215,47.694946,-1.1647546,-1.5970863,-3.5402513,-0.039371684,-0.15537763,-0.07495479,26.6875,27.5625,26.6875,30.0625,31.375,31.9375
0.28205353,-1.3303887,-1.4188572,-1.037342,-0.037103176,0.047797192,-0.1401864,-0.39988413,-0.3514423,0.05998461,-3.0758002,0.6101607,1.8292676e-05,-0.13722986,-0.02539259,0.002864141,0.028693218,0.0016742799,0.07309819,0.46877852,-1.3873017,1.9101814,-2.0885828,-1.575291,2.4349198,-0.059901644,0.27502158,-0.349069,0.085004486,-0.027394157,-0.13268168,-0.40222588,0.51714754,-9.749189,0.9567419,47.68062,-1.1692021,-1.8388654,-3.6355076,-0.05028592,-0.15551604,-0.104570106,26.6875,27.5625,26.6875,30.0625,31.375,31.9375
0.2840542,-2.1652944,-1.9436258,-0.9008228,-0.046951085,0.052388106,-0.1346303,-0.40018034,-0.35146812,0.059977125,-3.0757468,0.6099591,7.474077e-05,-0.13685934,-0.024930565,0.0009449126,0.03106221,-0.0022739917,0.06929034,0.4686226,-1.3867248,1.9094876,-2.0884383,-1.5753874,2.4346452,-0.06010432,0.27881965,-0.3496034,0.08633488,-0.027714942,-0.12907378,-0.7086837,0.4405331,-9.691729,0.99702406,47.698532,-1.1927526,-1.9322159,-3.7346268,-0.05098405,-0.15310536,-0.14458235,26.6875,27.5625,26.6875,30.0625,31.375,31.9375
0.286054,-1.9538622,-1.9040663,-0.89231354,-0.053951237,0.076722085,-0.1366433,-0.400423,-0.35150498,0.059944578,-3.0756636,0.6097549,-5.1218878e-05,-0.13738145,-0.024738766,0.00045101464,0.0320006,-0.0037990627,0.061273698,0.46850243,-1.3861353,1.9088196,-2.0882223,-1.575435,2.4344084,-0.060750622,0.28107888,-0.3516461,0.08792919,-0.027856274,-0.121698156,-0.7086837,0.4405331,-9.557653,1.0373062,47.674347,-1.1878195,-1.8532631,-3.7549329,-0.018374022,-0.16527623,-0.21735826,26.6875,27.5625,26.6875,30.0625,31.375,31.9375
0.28805324,-2.4369617,-2.089777,-0.7817412,-0.045695227,0.07642711,-0.1377779,-0.40073824,-0.35158274,0.059988167,-3.0757327,0.6095575,9.4921495e-05,-0.13764776,-0.024536816,0.00036894024,0.03339226,-0.006308744,0.060301997,0.468382,-1.385594,1.9080528,-2.0880892,-1.5754713,2.4341562,-0.061208073,0.28299758,-0.35477147,0.091998845,-0.02795146,-0.121185124,-0.59376204,0.47884035,-9.634268,1.005978,47.687782,-1.1447506,-1.8240044,-3.872374,-0.048267435,-0.18906501,-0.26686475,26.6875,27.5625,26.6875,30.0625,31.375,31.9375
0.29005402,-1.9749248,-1.1859441,-0.43080774,-0.04624124,0.063889734,-0.14182095,-0.40103245,-0.3516299,0.059993844,-3.0757022,0.6093801,0.00014420303,-0.14004907,-0.025056325,0.002334742,0.031763915,-0.002562881,0.05562491,0.4682499,-1.3850175,1.9073232,-2.0879219,-1.5755433,2.4339175,-0.062204823,0.28301442,-0.35958716,0.09272678,-0.028188717,-0.11750154,-0.3256114,0.34476504,-9.461885,0.93436235,47.67166,-1.2224348,-1.8240616,-3.7766962,-0.016389944,-0.18140183,-0.34069866,26.6875,27.5625,26.6875,30.0625,31.375,31.9375
0.29205447,-0.39036652,0.26569247,-0.17056793,-0.02724343,0.047035307,-0.1486896,-0.40133992,-0.3516812,0.060009815,-3.0756762,0.609299,0.00020837133,-0.14005333,-0.02450732,0.0021124715,0.034385342,-0.0072879614,0.05256599,0.4681056,-1.3844403,1.9065684,-2.0877516,-1.5756029,2.4337263,-0.062964134,0.28564537,-0.36392707,0.09983657,-0.02838219,-0.11520004,-0.4405331,0.19153613,-9.3661175,0.9612189,47.65912,-1.1048558,-1.7681484,-3.5464616,-0.059836067,-0.18009262,-0.38527903,26.6875,27.5625,26.6875,30.0,31.375,31.9375
0.29405436,0.040177815,0.8863963,-0.10031323,0.020159451,0.0014563733,-0.14441746,-0.4016057,-0.35171866,0.060005277,-3.0756042,0.60911185,0.00023588845,-0.14090548,-0.024281083,0.0021108699,0.03598028,-0.008437205,0.051488243,0.46799746,-1.3838869,1.905886,-2.087571,-1.5756997,2.4335108,-0.06347299,0.2878994,-0.36738187,0.10277474,-0.029294122,-0.11462385,-0.40222588,0.19153613,-9.270349,1.0753525,47.683304,-1.1409466,-1.8838283,-3.4768238,-0.089134775,-0.19585094,-0.4342377,26.6875,27.5625,26.6875,30.0,31.375,31.9375
0.2960541,0.8290101,1.6417323,-0.20214619,0.03782675,-0.009885262,-0.15400115,-0.4019087,-0.3518125,0.060036942,-3.0756798,0.6088574,0.0003119149,-0.14078486,-0.023005782,0.0012383112,0.03948544,-0.012260317,0.053295292,0.4679011,-1.38331,1.9050978,-2.087414,-1.5757121,2.4332461,-0.06462299,0.29002786,-0.36906898,0.1073128,-0.030698363,-0.11757507,-0.15322891,0.11492168,-9.193734,1.0865422,47.698532,-1.1656971,-1.7493494,-3.5479612,-0.13758987,-0.20597541,-0.47342107,26.6875,27.5625,26.6875,30.0,31.375,31.9375
0.29805383,0.73478734,1.8023363,0.04644845,0.031650238,-0.017690675,-0.15521978,-0.40218207,-0.35182345,0.060023133,-3.075571,0.6086765,0.00023806113,-0.14102049,-0.023014953,0.0007950899,0.0414486,-0.015023986,0.060440164,0.46773311,-1.382732,1.9043907,-2.0871613,-1.5757965,2.4329793,-0.06439837,0.29299197,-0.37256816,0.1111517,-0.031249,-0.1244877,-0.17238252,-0.038307227,-9.155427,1.0104496,47.691364,-1.1168826,-1.8831441,-3.5266016,-0.17564514,-0.1801858,-0.45061728,26.6875,27.5625,26.6875,30.0,31.375,31.9375
0.30005363,0.10851652,1.1003337,0.30354014,0.012552518,-0.0047725285,-0.15782845,-0.40247872,-0.35189372,0.060037926,-3.0755732,0.6084235,0.00025995745,-0.14202753,-0.021961117,0.0014361045,0.041471295,-0.016483085,0.06667279,0.46762407,-1.3821316,1.903602,-2.0869558,-1.5758442,2.4327123,-0.067403376,0.29294425,-0.37496585,0.11485085,-0.030649109,-0.13372797,-0.076614454,-0.15322891,-9.11712,0.9298854,47.686886,-1.0724787,-1.7688496,-3.399656,-0.20272024,-0.1858334,-0.35875088,26.6875,27.5625,26.6875,30.0,31.375,31.9375
0.30205435,-0.9526918,0.119408965,0.38234946,0.008323389,0.005718607,-0.14100502,-0.40274265,-0.35193875,0.06001627,-3.0755172,0.608174,0.00013760157,-0.14186895,-0.022850405,0.0007028056,0.041315228,-0.018909222,0.07826386,0.46749252,-1.3815181,1.9028729,-2.086716,-1.5758795,2.4324324,-0.06640239,0.2958378,-0.3771845,0.116203696,-0.029480953,-0.14432003,-0.1340753,-0.019153614,-8.963891,0.9768804,47.66987,-1.0439769,-1.8068714,-3.5440593,-0.25750327,-0.22849193,-0.26303542,26.6875,27.5625,26.6875,30.0,31.375,31.9375
0.3040542,-0.60907453,0.15726222,0.47521767,-0.008116693,0.049380716,-0.15552926,-0.40304935,-0.35196602,0.06005231,-3.0754564,0.6079872,0.0001563625,-0.1439833,-0.023439579,0.0023855325,0.039647557,-0.014989049,0.08220755,0.4673243,-1.3809655,1.9020709,-2.086418,-1.5759643,2.4321556,-0.066958204,0.29574135,-0.38095513,0.115780205,-0.029798314,-0.1488153,-0.114921674,-0.15322891,-9.040505,1.0104496,47.699425,-1.084637,-1.6186855,-3.5320592,-0.26111156,-0.23854163,-0.20121539,26.6875,27.5625,26.6875,30.0,31.375,31.9375
0.30605352,-1.0634938,0.06723945,0.14348646,-0.008120123,0.05761223,-0.14564183,-0.40335187,-0.35203215,0.060048226,-3.0754738,0.60766375,0.00018083963,-0.14716665,-0.023165286,0.0017475181,0.038965903,-0.012156515,0.08209831,0.46720335,-1.3803395,1.9013056,-2.086264,-1.576012,2.4318306,-0.06970163,0.2999191,-0.38363087,0.111420415,-0.030498037,-0.15144347,-0.05746084,-0.038307227,-9.174581,0.97464454,47.675243,-1.0167232,-1.8122224,-3.3627706,-0.24236673,-0.24672824,-0.13738288,26.6875,27.5625,26.6875,30.0,31.375,31.9375
0.30805337,-1.6558644,-0.031644795,0.25128788,-0.010616601,0.039604634,-0.14054948,-0.403615,-0.35206702,0.060030833,-3.0753987,0.607382,7.1169634e-05,-0.14961892,-0.02350027,0.0013796354,0.037428085,-0.008594787,0.07865393,0.46707097,-1.3797381,1.900575,-2.0860016,-1.5760721,2.4315321,-0.071034,0.30276668,-0.38515955,0.10622837,-0.030759381,-0.14932476,-0.17238253,0.076614454,-9.097966,0.97240865,47.709274,-0.8007817,-1.764857,-3.4303741,-0.17036219,-0.24918818,-0.13723502,26.6875,27.5625,26.6875,30.0,31.375,31.9375
0.31005374,-1.4937056,-0.33308348,0.3369788,-0.011275288,0.036976155,-0.13116376,-0.4039176,-0.3520977,0.06002647,-3.075332,0.607082,9.4440984e-05,-0.15152189,-0.025093026,0.0014532023,0.035784416,-0.0045897434,0.074028164,0.46692744,-1.3791244,1.8998111,-2.085788,-1.5761808,2.43121,-0.06967024,0.30575627,-0.38804588,0.10182274,-0.031098934,-0.14332962,-0.4405331,0.076614454,-9.040505,0.9298854,47.68062,-0.97359526,-1.8867745,-3.6440382,-0.114072114,-0.26079738,-0.1750476,26.6875,27.5625,26.6875,30.0,31.375,31.9375
0.31205392,-0.85911083,-0.2954529,0.12534164,-0.00919278,0.036483742,-0.14439546,-0.40421203,-0.35215926,0.060031302,-3.0753229,0.6068546,0.000105261606,-0.1538135,-0.024104187,0.0010440927,0.036037598,-0.0027058562,0.06476852,0.46680647,-1.3785231,1.8990453,-2.0855973,-1.576229,2.4309485,-0.072628446,0.30794317,-0.389316,0.09936607,-0.032160994,-0.13702047,-0.4213795,0.22984336,-9.059659,0.9634547,47.653748,-0.85072017,-1.9281361,-3.521475,-0.07332452,-0.26871446,-0.24857022,26.6875,27.5625,26.6875,30.0,31.375,31.9375
0.31405473,-0.7994831,-0.83298725,0.119213715,-0.02396126,0.0329837,-0.14208387,-0.40452304,-0.35221127,0.06003654,-3.0752785,0.6067135,0.00010980411,-0.15463284,-0.023900192,0.001397245,0.035603106,-0.0027907805,0.060284387,0.4666619,-1.3778981,1.8982447,-2.0853813,-1.5762886,2.4307218,-0.07387881,0.30842984,-0.39115104,0.10059886,-0.031730365,-0.13378757,-0.36391866,0.36391866,-9.232041,1.0171678,47.677036,-0.75381,-1.8009641,-3.5746636,-0.037177667,-0.28456107,-0.3110361,26.6875,27.5625,26.6875,30.0,31.375,31.9375
0.316054,-1.3418027,-1.6489692,-0.027186705,-0.033900272,0.022218222,-0.13717245,-0.40479714,-0.3522176,0.059998162,-3.0751398,0.60653025,3.9804436e-06,-0.15628068,-0.02463171,0.0024765066,0.034357186,-0.0013437166,0.060578756,0.4664939,-1.3772736,1.8975385,-2.085142,-1.5763844,2.4304574,-0.074243724,0.3097551,-0.3956529,0.10189953,-0.031302366,-0.13444307,-0.5363012,0.4405331,-9.232041,1.0283576,47.691364,-0.77335936,-1.7177289,-3.5521848,-0.021580022,-0.30060515,-0.32986468,26.6875,27.5625,26.6875,30.0,31.375,31.9375
0.31805435,-1.4514655,-1.6947737,0.008620305,-0.059809227,0.036016278,-0.13845024,-0.40512282,-0.35227692,0.05998872,-3.0751061,0.60629493,-6.724167e-06,-0.15645953,-0.024099028,0.0021932642,0.035744853,-0.0021716512,0.05679446,0.4663497,-1.3765882,1.8967017,-2.0849378,-1.5764445,2.4301708,-0.07469196,0.31055954,-0.3964602,0.10327601,-0.03216275,-0.13110034,-0.63206923,0.5363012,-9.174581,1.0663986,47.67614,-0.74571097,-1.7052659,-3.6537652,-0.018167024,-0.29769167,-0.3851093,26.6875,27.5625,26.6875,30.0,31.375,31.9375
0.3200535,-1.4612641,-1.98375,-0.106314145,-0.050507076,0.05699243,-0.14360006,-0.40544745,-0.3523425,0.060025103,-3.0751023,0.60609967,5.8774225e-05,-0.15780377,-0.02429977,0.0030092865,0.035763297,-0.0005282207,0.0596508,0.46621764,-1.3759872,1.895852,-2.0846975,-1.5765051,2.4299176,-0.074950196,0.31137598,-0.39965215,0.10416471,-0.032938097,-0.13420977,-0.61291564,0.59376204,-9.289502,0.9925471,47.701214,-0.76736027,-1.6913971,-3.6834476,0.01131622,-0.3221335,-0.36564812,26.6875,27.5625,26.6875,30.0,31.375,31.9375
0.32205352,-2.0474634,-1.8301214,0.0029402233,-0.04820063,0.06389848,-0.13511518,-0.40574974,-0.35237494,0.060003247,-3.0750537,0.6059719,-3.2093532e-05,-0.15735172,-0.023923885,0.002058616,0.03737476,-0.004122758,0.06313631,0.46602556,-1.3753504,1.8951,-2.0844934,-1.5765289,2.4296522,-0.07520211,0.3134672,-0.40081832,0.10714352,-0.032790385,-0.13794522,-0.49799395,0.5554548,-9.308656,0.9186956,47.65912,-0.74669087,-1.6113228,-3.7184315,0.002062098,-0.32950503,-0.37287956,26.6875,27.5625,26.6875,30.0,31.375,31.9375
0.3240541,-1.8741283,-1.2459114,0.21171011,-0.044238515,0.05888616,-0.13557537,-0.40608263,-0.3524316,0.059988283,-3.0750248,0.60567325,3.4282235e-05,-0.15675269,-0.023822127,0.0006833742,0.039960627,-0.009650958,0.071627736,0.46589366,-1.3746635,1.894286,-2.084348,-1.5766252,2.4293377,-0.07486256,0.31745836,-0.40373343,0.11210208,-0.032654617,-0.14609675,-0.30645782,0.49799395,-9.11712,1.061927,47.694946,-0.7738119,-1.7207634,-3.7789755,-0.04655909,-0.34317783,-0.29408836,26.6875,27.5625,26.6875,30.0,31.375,31.9375
0.3260539,-0.09353897,-0.17192355,0.17807724,-0.015031577,0.061074864,-0.15462542,-0.40638876,-0.35249683,0.059986353,-3.0749974,0.60543114,-2.890655e-05,-0.1569204,-0.024072206,0.0006320454,0.041940056,-0.0122772595,0.080574945,0.4657621,-1.3740023,1.8934482,-2.0840952,-1.576661,2.4290588,-0.07410514,0.32010412,-0.40803087,0.11693369,-0.03329457,-0.15427919,-0.1340753,0.36391866,-9.11712,1.0373062,47.660015,-0.79814625,-1.8627021,-3.7266479,-0.07466164,-0.35445714,-0.19939204,26.6875,27.5625,26.6875,30.0,31.375,31.9375
0.3280537,0.14626643,0.7605655,0.13734114,0.011229533,0.021509178,-0.14843565,-0.40670824,-0.35250902,0.05995877,-3.074877,0.60519296,-5.78424e-05,-0.15832931,-0.023124594,5.326045e-05,0.044696495,-0.015622515,0.08510397,0.4655812,-1.3733274,1.8926576,-2.0838654,-1.5767816,2.4287448,-0.076225,0.32438394,-0.41310224,0.12189109,-0.03430998,-0.1609165,-0.19153613,0.15322891,-9.097966,0.947788,47.719128,-0.8068663,-1.9318789,-3.5899363,-0.14183922,-0.35390332,-0.10098378,26.6875,27.5625,26.6875,30.0,31.375,31.9375
0.33005428,0.291447,1.4505771,0.09930532,0.030641804,-0.020757211,-0.14086802,-0.40702787,-0.35257822,0.059966546,-3.0748968,0.6049076,-7.380087e-05,-0.15746334,-0.023623927,0.00026850146,0.04743574,-0.018366236,0.08808339,0.465438,-1.3726795,1.8918203,-2.0836475,-1.576806,2.428421,-0.07378099,0.32572216,-0.41669777,0.12782256,-0.035532497,-0.16144264,-0.076614454,0.11492168,-8.944737,0.8940802,47.666286,-0.75403,-2.0525534,-3.4688926,-0.16250154,-0.35774353,-0.08493473,26.6875,27.5625,26.6875,30.0,31.375,31.9375
0.33205357,0.882244,1.2573819,0.36460578,0.03991183,-0.028165936,-0.13338529,-0.40737334,-0.3526339,0.059976846,-3.0748682,0.60461587,-4.797136e-06,-0.1587833,-0.023654755,-0.00010237319,0.049914494,-0.018938228,0.08442114,0.46529418,-1.3720055,1.8909467,-2.083432,-1.5769023,2.428099,-0.07357206,0.32971856,-0.42130077,0.13006356,-0.037485305,-0.15755677,0.038307227,0.019153614,-9.097966,0.8717007,47.691364,-0.8773626,-2.0256736,-3.433239,-0.22314085,-0.34699297,-0.082573384,26.6875,27.5625,26.6875,30.0,31.375,31.9375
0.33405426,0.861711,1.1299715,0.18922007,0.02091035,-0.022331132,-0.14225975,-0.40769532,-0.35265818,0.059979886,-3.0747485,0.6044613,-2.9857529e-05,-0.15908629,-0.02130817,-0.0019452312,0.0533529,-0.022502434,0.07552295,0.46512496,-1.3713558,1.8900994,-2.0831325,-1.577011,2.4278488,-0.076844364,0.33208844,-0.420446,0.13158463,-0.038949456,-0.15191819,-0.076614454,0.095768064,-9.021352,0.9365982,47.696735,-0.7646396,-2.1728668,-3.4494984,-0.26485223,-0.32392117,-0.13467601,26.6875,27.5625,26.6875,30.0,31.375,31.9375
0.33605355,0.45490763,0.22859532,0.105913796,0.009027571,0.00402193,-0.14296085,-0.4079885,-0.3527122,0.059974935,-3.0746965,0.6041836,-0.00012225186,-0.15945286,-0.022618204,-0.001753896,0.053386632,-0.019395752,0.072306186,0.46499425,-1.3707075,1.8892745,-2.0828464,-1.5770596,2.4275515,-0.07396518,0.33302736,-0.42163238,0.1291023,-0.04037294,-0.14580823,-0.076614454,0.076614454,-9.11712,0.9634547,47.69763,-0.7884133,-1.9497125,-3.6664405,-0.24052075,-0.32900506,-0.21027744,26.6875,27.5625,26.6875,30.0,31.375,31.9375
0.3380537,-0.37723115,-0.25510383,-0.078892015,-0.019978844,0.017785395,-0.14381625,-0.40829045,-0.35273126,0.05993357,-3.0745351,0.60396045,-0.00028895264,-0.1618318,-0.022987617,-0.0007702232,0.052164476,-0.014259526,0.06763679,0.4648259,-1.3699862,1.8884372,-2.082524,-1.577156,2.4272647,-0.0745299,0.33358335,-0.42400745,0.12579294,-0.04161144,-0.1416862,0.038307227,0.11492168,-9.308657,0.9701675,47.70211,-0.8628303,-2.057929,-3.761428,-0.25131053,-0.3074689,-0.29667145,26.6875,27.5625,26.6875,30.0,31.375,31.9375
0.34005332,-0.79792136,-1.0978843,-0.14332815,-0.038687687,0.04308471,-0.13731815,-0.40860122,-0.35276768,0.059905313,-3.0744522,0.6037153,-0.00040070232,-0.16507679,-0.023894252,0.00089730835,0.04949139,-0.007886941,0.06266427,0.4646577,-1.3692892,1.8876117,-2.0822618,-1.5772165,2.4269543,-0.0753851,0.33438623,-0.42819455,0.12229585,-0.042097818,-0.13755843,-0.11492168,0.19153613,-9.3661175,0.9567419,47.694946,-0.85961413,-1.9366682,-3.641222,-0.17834619,-0.30454072,-0.37792432,26.6875,27.5625,26.6875,30.0,31.375,31.9375
0.34205332,-0.641844,-1.2002958,-0.22289194,-0.045252126,0.064498514,-0.15059444,-0.4089423,-0.3528286,0.059928626,-3.0743906,0.603454,-0.00029279152,-0.1688117,-0.025143376,0.0010795937,0.047369245,-0.002150139,0.059340913,0.4645496,-1.3686267,1.8867129,-2.082013,-1.5773486,2.426691,-0.07596443,0.33883342,-0.43278775,0.11636066,-0.042784873,-0.13480671,-0.1340753,0.21068975,-9.481039,0.97464454,47.705692,-0.86045337,-2.0230975,-3.522527,-0.12195753,-0.28722882,-0.4359408,26.6875,27.5625,26.6875,30.0,31.375,31.9375
0.34405434,-0.7924242,-1.2145174,-0.6869076,-0.05286643,0.064021304,-0.1438145,-0.4092937,-0.3528757,0.05992821,-3.0743525,0.6032934,-0.00031465394,-0.17128795,-0.025471818,0.0026659453,0.04671827,0.0030436383,0.058352657,0.46435738,-1.3679302,1.8858289,-2.081774,-1.5773968,2.4264038,-0.0763355,0.33896953,-0.43645802,0.11495594,-0.044548277,-0.13417414,-0.095768064,0.2681506,-9.634268,0.9567419,47.690468,-0.87887037,-2.0031219,-3.4857993,-0.09113425,-0.27552378,-0.5211959,26.6875,27.5625,26.6875,30.0,31.375,31.9375
0.34605408,-1.057011,-1.6545302,-0.72542673,-0.046310954,0.044936854,-0.1455737,-0.4096304,-0.35291117,0.059938755,-3.0742304,0.6031092,-0.00023210357,-0.17036901,-0.024695877,0.0005527272,0.05068156,1.2977459e-06,0.065729186,0.46422574,-1.3672686,1.8849562,-2.0815103,-1.5775541,2.426173,-0.0754109,0.34184462,-0.43536824,0.11542348,-0.0467713,-0.14060912,-0.1340753,0.38307226,-9.768343,0.9567419,47.67614,-0.8806423,-2.0842311,-3.589639,-0.07366747,-0.23297311,-0.47757557,26.6875,27.5625,26.6875,30.0,31.375,31.9375
0.348054,-0.76558286,-1.5053822,-0.84996617,-0.04140761,0.030002791,-0.14465196,-0.4099673,-0.35297656,0.05992797,-3.074217,0.6028684,-0.00026784185,-0.17036004,-0.024439115,-0.0015881011,0.05267232,-0.0029789926,0.07802433,0.46406975,-1.3665586,1.8840841,-2.0812953,-1.5775899,2.4258685,-0.07542373,0.34615594,-0.4357615,0.11496703,-0.047298603,-0.1529111,-0.17238252,0.51714754,-9.80665,0.9030289,47.69763,-0.9120449,-2.0533023,-3.834146,-0.052732892,-0.23522659,-0.41981634,26.6875,27.5625,26.6875,30.0,31.375,31.9375
0.35005382,-0.4415708,-1.8374447,-1.2065637,-0.042943455,0.037032887,-0.14921474,-0.41029775,-0.35301757,0.05991589,-3.0741386,0.60248196,-0.00024189355,-0.16916461,-0.023755686,-0.0031967368,0.05518679,-0.0065859766,0.08760118,0.46393785,-1.3658614,1.8832248,-2.081055,-1.5777224,2.4255054,-0.07505027,0.34770277,-0.4344782,0.1163998,-0.047994133,-0.16210726,-0.22984336,0.5554548,-9.940725,0.95226496,47.64837,-0.9330369,-2.182886,-4.0555563,-0.034213077,-0.19613615,-0.2803924,26.6875,27.5625,26.6875,30.0,31.375,31.9375
0.35205397,-1.1357834,-2.0861406,-1.0680636,-0.054880895,0.020419661,-0.14847757,-0.4106193,-0.35304868,0.059892982,-3.0740545,0.6021152,-0.00028245064,-0.17007746,-0.023554366,-0.0019326765,0.05669923,-0.0070257876,0.09461601,0.46378192,-1.3651646,1.882387,-2.0808012,-1.5778307,2.4251313,-0.075333744,0.34817728,-0.43934008,0.12178521,-0.049212884,-0.16939087,-0.095768064,0.57460845,-9.940725,0.9791215,47.687782,-1.0078577,-2.1644,-4.036375,-0.06574378,-0.17978859,-0.1908581,26.6875,27.5625,26.6875,30.0,31.375,31.9375
0.35405466,-0.56893474,-1.773379,-0.89272237,-0.050108653,0.017463507,-0.1470146,-0.41097054,-0.35310152,0.059901595,-3.073998,0.60183537,-0.00023203294,-0.17059834,-0.023013243,-0.0017690117,0.06088104,-0.010014694,0.09636416,0.46363792,-1.3644671,1.8814763,-2.080548,-1.5779394,2.42482,-0.07511841,0.3510995,-0.44504443,0.12908383,-0.0516321,-0.17090282,-0.076614454,0.49799395,-9.902418,1.099968,47.687782,-0.9975848,-2.2613728,-3.9825597,-0.12696064,-0.1380322,-0.14580727,26.6875,27.5625,26.6875,30.0,31.375,31.9375
0.3560539,-0.5375606,-1.3338003,-0.73686624,-0.041217186,0.0051398384,-0.14346343,-0.41130504,-0.35316214,0.05990012,-3.0739634,0.6015035,-0.00022260833,-0.1705919,-0.023847088,0.00020564666,0.060683366,-0.010565852,0.09278599,0.46350637,-1.3637707,1.8805918,-2.0803063,-1.5780233,2.4244857,-0.07388385,0.35003045,-0.44989908,0.13542502,-0.051190645,-0.16608977,-0.21068975,0.36391866,-9.710882,1.0283576,47.704796,-1.1266395,-2.058755,-3.772229,-0.18482298,-0.10114315,-0.13712987,26.6875,27.5625,26.6875,30.0,31.375,31.9375
0.35805425,-0.18258855,-0.9118208,-0.8103388,-0.013223042,-0.0065962104,-0.14067452,-0.41167697,-0.35318702,0.059912644,-3.073894,0.6013412,-0.00018788423,-0.1716387,-0.023167789,0.0002888589,0.059744447,-0.013420088,0.08348876,0.4632891,-1.3630853,1.8796829,-2.0800416,-1.5781182,2.4241762,-0.07713603,0.35158384,-0.45299914,0.13911594,-0.049052797,-0.16005754,-0.21068975,0.36391866,-9.653421,0.90527004,47.686886,-0.9293023,-1.9292774,-3.7200904,-0.2439799,-0.10051474,-0.21585178,26.6875,27.5625,26.6875,30.0,31.375,31.9375
0.36005324,-0.11895486,-0.45584485,-0.96861494,0.0036113714,-0.023502778,-0.14022194,-0.41203257,-0.35325077,0.05992621,-3.0738099,0.60105455,-0.00010372917,-0.17026421,-0.024646573,-0.00015892321,0.061257772,-0.015590477,0.082750745,0.4631825,-1.3623642,1.8787264,-2.0797656,-1.5782627,2.4239016,-0.07315075,0.35352316,-0.4551622,0.1419666,-0.049417812,-0.15532912,-0.076614454,0.2681506,-9.710882,0.85826975,47.660015,-1.1623335,-1.945951,-3.801021,-0.26856786,-0.08141388,-0.28964216,26.6875,27.5625,26.6875,30.0,31.375,31.9375
0.3620541,0.17011516,0.032238238,-0.39882305,-0.012385142,-0.009412671,-0.1652333,-0.4123941,-0.35330296,0.059939474,-3.073763,0.60079664,-9.093322e-05,-0.17293689,-0.024515249,4.818356e-05,0.05891143,-0.012476756,0.078619994,0.46301386,-1.3616545,1.8777813,-2.07948,-1.5783461,2.423578,-0.07597635,0.35522175,-0.45709544,0.13835399,-0.048729032,-0.15402599,0.038307227,0.24899697,-9.672575,0.9835985,47.64837,-1.1504819,-1.9842565,-3.7302446,-0.2800389,-0.07715436,-0.3221504,26.6875,27.5625,26.6875,30.0,31.375,31.9375
0.3640546,-0.70266503,-0.4078821,-0.6358929,-0.024390891,0.002009255,-0.14362825,-0.41272414,-0.35336432,0.059944544,-3.07372,0.6005217,-0.00010606034,-0.17482431,-0.02490676,-0.0012107114,0.05650018,-0.012665647,0.07536178,0.46288073,-1.3609686,1.8768853,-2.0792058,-1.5784181,2.4232788,-0.07820094,0.35955346,-0.4588891,0.13489078,-0.046507988,-0.15300491,-0.095768064,0.24899697,-9.672575,1.0552088,47.709274,-0.8915068,-2.0767288,-3.9122238,-0.23839009,-0.08772142,-0.36367604,26.6875,27.5625,26.6875,30.0,31.375,31.9375
0.36605406,-0.6936593,-0.6287916,-0.6415505,-0.035994936,0.025872989,-0.16155079,-0.41306603,-0.35340747,0.059923947,-3.0736256,0.6002874,-0.00017859784,-0.17766096,-0.027974619,-0.0003539034,0.052038107,-0.006500047,0.07935487,0.46271387,-1.3602239,1.8759745,-2.0789206,-1.5785016,2.422978,-0.07604524,0.36309913,-0.46402407,0.12893234,-0.04532819,-0.1548438,0.076614454,0.05746084,-9.768343,0.9835985,47.691364,-1.1573356,-2.256404,-3.8122935,-0.18350941,-0.09091916,-0.38104242,26.6875,27.5625,26.6875,30.0,31.375,31.9375
0.36805415,-2.0174773,-1.6053149,-0.36135703,-0.050694756,0.026101643,-0.14474265,-0.41343,-0.35347763,0.059954133,-3.0736334,0.5999025,-7.754447e-05,-0.18153222,-0.029644905,0.00062701275,0.046820197,-0.0012943171,0.08305602,0.46258116,-1.3595392,1.8750275,-2.0786707,-1.5785965,2.4226038,-0.077820234,0.36632097,-0.4692407,0.123868056,-0.04304055,-0.1603361,0.038307227,0.05746084,-9.634268,0.9410752,47.66271,-1.0177667,-2.216624,-3.6288009,-0.108034104,-0.092086464,-0.33274263,26.6875,27.5625,26.6875,30.0,31.375,31.9375
0.37005413,-1.2284559,-0.9992309,-0.5204059,-0.042465508,0.031316932,-0.15047199,-0.41378412,-0.35353297,0.05994853,-3.073574,0.5996744,-7.787185e-05,-0.1829169,-0.030030103,0.002066275,0.044716727,0.001207875,0.09021853,0.46242493,-1.3588084,1.8741058,-2.078419,-1.5786799,2.422313,-0.07867204,0.36542994,-0.47171605,0.12397073,-0.042342197,-0.16835354,-0.19153613,0.076614454,-9.5385,0.9567419,47.657326,-1.016294,-2.1568632,-3.6421413,-0.06556712,-0.115758896,-0.24165097,26.6875,27.5625,26.6875,30.0,31.375,31.9375
0.37205362,-1.1160982,-1.105402,-0.8011232,-0.010994959,0.011836622,-0.15445063,-0.41413647,-0.35361,0.059958186,-3.0735953,0.5992899,-3.8818416e-05,-0.18392846,-0.031050734,0.0027260548,0.041868288,0.0036813891,0.09937073,0.4622928,-1.3581012,1.8731827,-2.0781925,-1.57874,2.421938,-0.07855478,0.3654712,-0.47298765,0.12162404,-0.04096446,-0.17739913,-0.21068975,0.17238252,-9.710882,0.9455522,47.661808,-1.0441166,-2.0543537,-3.6356552,0.007145713,-0.13312578,-0.12669094,26.6875,27.5625,26.6875,30.0,31.375,31.9375
