Tylouw/Master_Thesis_Code/training_data/batch_1/small_rod_t0.1/sample_7_session_1.csv
timestamp[s],tcp_force_x[N],tcp_force_y[N],tcp_force_z[N],tcp_force_rx[Nm?],tcp_force_ry[Nm?],tcp_force_rz[Nm?],tcp_pose_x[m],tcp_pose_y[m],tcp_pose_z[m],tcp_pose_rx[rot_vec_x],tcp_pose_ry[rot_vec_y],tcp_pose_rz[rot_vec_z],tcp_velo_x[m/s],tcp_velo_y[m/s],tcp_velo_z[m/s],tcp_velo_rx[rot_vec_x/s],tcp_velo_ry[rot_vec_y/s],tcp_velo_rz[rot_vec_z/s],q1[rad],q2[rad],q3[rad],q4[rad],q5[rad],q6[rad],qd1[rad/s],qd2[rad/s],qd3[rad/s],qd4[rad/s],qd5[rad/s],qd6[rad/s],tool_acc_x,tool_acc_y,tool_acc_z,current_of_whole_robot[A],voltage_of_whole_robot[V],current_J1[A],current_J2[A],current_J3[A],current_J4[A],current_J5[A],current_J6[A],temp_J1[C],temp_J2[C],temp_J3[C],temp_J4[C],temp_J5[C],temp_J6[C]
7.5399294e-07,-0.5986308,-0.65994257,0.27658346,-0.030038014,0.020878583,-0.002820576,-0.38106778,-0.34851903,0.059970982,-3.0785174,0.6249348,-0.00016149871,0.0019974865,0.000999868,-0.0018684658,0.0020535942,-0.0042929146,5.093509e-05,0.47777414,-1.425946,1.9577278,-2.100845,-1.5707573,2.452764,-3.150768e-05,0.00027531476,0.0038011188,0.00067942875,0.00015998606,-8.473438e-05,0.0,0.1340753,-8.599973,0.71279734,47.678825,-0.00079307356,-2.7050123,-2.4535575,-0.45354593,0.16046086,0.04552375,25.0625,25.5625,24.9375,27.125,27.5625,27.9375
0.002054597,-0.010099621,-0.45961815,0.23579775,-0.030714566,0.033672925,-0.003145431,-0.38105866,-0.34853455,0.059965793,-3.0785303,0.6248797,-0.0001583925,-0.0008590508,-0.00048740892,-0.00304178,-0.0014727169,0.0024700414,5.2756866e-05,0.47781014,-1.4259323,1.9577278,-2.1008613,-1.5707573,2.452764,-3.114424e-05,0.004399606,0.004649742,-0.011920558,0.00015449275,-8.3425315e-05,0.076614454,0.11492168,-8.599973,0.7217513,47.655537,-0.019152964,-2.7978168,-2.5088267,-0.39771992,0.16725174,0.06854797,25.0625,25.5625,24.9375,27.125,27.5625,27.9375
0.004054213,-0.35576835,-0.62728804,0.3539327,-0.028891843,0.022803267,0.0011492542,-0.38104507,-0.34853214,0.059944365,-3.0785053,0.62487495,-0.0001471352,-0.0019440008,-0.0010511039,-0.002459917,-0.0028049515,0.005038281,5.2871317e-05,0.47783422,-1.4259204,1.957774,-2.100909,-1.5707816,2.4527884,-3.078911e-05,0.0046437993,0.003492681,-0.013900902,0.00014936444,-8.2156104e-05,0.076614454,0.1340753,-8.561666,0.779936,47.693153,0.002498669,-3.1317837,-2.6558049,-0.30332592,0.17112099,0.060641278,25.0625,25.5625,24.9375,27.125,27.5625,27.9375
0.006053465,-0.06835925,-0.2637701,0.058043785,-0.012564717,0.012415186,-0.004932984,-0.38103512,-0.34852424,0.05993374,-3.078497,0.6249114,-0.0002692832,-0.0012538438,-0.0006894752,-0.0014568571,-0.0019281931,0.0033753407,6.132696e-05,0.4777981,-1.425909,1.957774,-2.1008594,-1.5707334,2.452776,-3.0441988e-05,0.0027395466,0.0022195352,-0.0088436045,0.0001445656,-9.0939924e-05,0.019153614,0.22984336,-8.580819,0.7217513,47.689575,0.01116734,-3.036705,-2.5865269,-0.32654983,0.16043314,0.063858606,25.0625,25.5625,24.9375,27.125,27.5625,27.9375
0.008053855,0.33547178,0.6448144,-0.35250476,0.0025476138,-0.0069870637,-0.0073756287,-0.38104898,-0.34853622,0.05994491,-3.0785117,0.6248568,-0.0002027685,-0.00058312877,-0.0003430387,-0.0003166335,-0.0012803557,0.0021229687,6.272222e-05,0.47782207,-1.425898,1.9577383,-2.10087,-1.5707573,2.452764,-3.0102605e-05,0.0004383141,0.0011481631,-0.0040610195,0.00015380573,-9.279161e-05,-0.019153614,0.24899697,-8.714894,0.7463667,47.691364,0.010342974,-2.9146042,-2.546861,-0.37520096,0.16988368,0.05727258,25.0625,25.5625,24.9375,27.125,27.5625,27.9375
0.010054201,0.16912872,0.3080906,-0.79464084,0.00695775,-0.008045134,-0.0049368916,-0.38105702,-0.3485224,0.059941057,-3.0784907,0.62491006,-0.00019093888,-0.0002855268,-0.00019113376,-8.807475e-05,-0.00081573124,0.0012152701,6.1679835e-05,0.4777981,-1.4258981,1.9577497,-2.1008809,-1.5707697,2.452776,-2.9770681e-05,5.8805435e-06,0.00068219117,-0.0021429462,0.00016207212,-9.16502e-05,0.038307227,0.13407528,-9.002198,0.7351769,47.71286,-0.1691471,-2.0672495,-3.36381,-0.37695295,0.14110827,0.032777254,25.0625,25.5625,24.9375,27.125,27.5625,27.9375
0.012054259,0.35233274,-0.22562642,-0.8846005,-0.023063527,0.018839048,-0.0068107396,-0.38103,-0.3485151,0.059906326,-3.0784276,0.6248779,-0.0003240933,-0.0019138188,-0.0010205662,-0.0028092284,0.001760324,-0.0037213678,5.173607e-05,0.4778101,-1.4258463,1.9577593,-2.1008332,-1.5707697,2.452776,-5.269395e-05,0.01074847,-0.0055928635,-0.0010420767,0.00013356927,-9.993458e-05,0.15322891,0.11492168,-9.385271,0.70608455,47.66539,-0.25830832,-2.2327538,-3.4768531,-0.3715905,0.14186242,0.0108781,25.0625,25.5625,24.9375,27.125,27.5625,27.9375
0.014053638,-0.79720783,-1.4341551,-1.1000056,-0.047317144,0.025059061,-0.005623906,-0.3810302,-0.34851047,0.05990294,-3.0784178,0.62480056,-0.00034272048,-0.005081822,-0.0012301847,-0.003482179,0.0025019287,-0.0051685856,-0.0024765523,0.47780946,-1.4258319,1.957745,-2.1008084,-1.5707816,2.4527283,-0.0026160697,0.01818001,-0.012856696,0.00041636563,0.00012821432,-0.00013045447,-0.038307227,0.2873042,-9.461885,0.78888994,47.71465,-0.32389525,-2.7954156,-3.1822333,-0.3597392,0.118292615,-0.015714321,25.0625,25.5625,24.9375,27.125,27.5625,27.9375
0.016054159,-1.6004603,-2.0862691,-1.3730309,-0.06746018,0.04183078,0.003164175,-0.38101578,-0.34851113,0.05988465,-3.0784066,0.6247982,-0.00042591503,-0.005276357,0.0002805152,-0.0039355797,0.0040087895,-0.008009416,-0.002337933,0.47780815,-1.4258078,1.9577564,-2.1007955,-1.5707573,2.4527268,-0.0054646446,0.018655743,-0.013023972,0.0033231233,0.00010132532,-0.0031180263,-0.28730422,0.40222588,-9.576807,0.7866488,47.694946,-0.08960417,-2.6033337,-3.439496,-0.3636181,0.11003333,-0.0028579277,25.0625,25.5625,24.9375,27.125,27.5625,27.9375
0.018053908,-1.8483349,-2.1687617,-1.4211931,-0.08707826,0.059964564,-0.011056333,-0.38104966,-0.3485222,0.059897933,-3.078421,0.62483674,-0.00038321802,-0.005515329,-0.0001764698,-0.0033394345,0.0039477493,-0.00788776,0.0026540905,0.4777964,-1.4257718,1.9576849,-2.100795,-1.5707573,2.4527373,-0.0048709232,0.018906796,-0.015045154,0.0049564773,9.707094e-05,-0.007515584,-0.22984336,0.61291564,-9.691729,0.77545905,47.709274,-0.1200057,-2.2631369,-3.4963913,-0.40681702,0.104886115,0.015425727,25.0625,25.5625,24.9375,27.125,27.5625,27.9375
0.020053439,-2.4597914,-2.736938,-1.566196,-0.085660115,0.057282943,0.0040400117,-0.3810383,-0.34850985,0.059847783,-3.0783513,0.6248024,-0.00052983616,-0.006016399,-0.001002753,-0.0032297142,0.0038306382,-0.007624952,0.005186336,0.47778487,-1.4256753,1.9576839,-2.1007707,-1.5707573,2.4527133,-0.0038526708,0.02070398,-0.017408848,0.005235601,7.3930605e-05,-0.009028121,-0.36391866,0.6703765,-9.80665,0.7396539,47.661808,-0.29774934,-2.3347416,-3.5275536,-0.39688033,0.09589177,0.024351362,25.0625,25.5625,24.9375,27.125,27.5625,27.9375
0.022053823,-2.1105115,-2.5468135,-1.5515616,-0.08459482,0.0714015,-0.0114083905,-0.38105157,-0.34850997,0.05985527,-3.078344,0.62483966,-0.00052933133,-0.0068115513,-0.0014564517,-0.0030733983,0.0035543062,-0.006891028,0.0045486125,0.47777283,-1.4256629,1.9576472,-2.1007469,-1.5707573,2.4527254,-0.0037206926,0.022090746,-0.019280452,0.0049421107,-2.2512104e-05,-0.008256999,-0.5363012,0.7469909,-9.787497,0.7597976,47.64927,-0.3795677,-2.3406808,-3.5415807,-0.370711,0.089825645,0.010239504,25.0625,25.5625,24.9375,27.125,27.5625,27.9375
0.024054125,-1.4123887,-2.0266678,-1.4084036,-0.092641585,0.08540734,-0.035948727,-0.38103604,-0.34851715,0.059815858,-3.0783265,0.6247981,-0.0006390285,-0.008566516,-0.0013185159,-0.00255758,0.0031389971,-0.005816957,0.0031496505,0.4777844,-1.4255905,1.9576577,-2.1007593,-1.5707334,2.4527133,-0.005507079,0.023507506,-0.022144664,0.0052454234,-0.00015378417,-0.0086425375,-0.47884035,0.61291564,-9.864111,0.78888994,47.694946,-0.46722573,-2.27392,-3.5242233,-0.35344118,0.083540216,0.009017422,25.0625,25.5625,24.9375,27.125,27.5625,27.9375
0.026053688,-1.3245366,-2.210528,-1.4721217,-0.08345386,0.07485022,-0.042032566,-0.38110957,-0.3485062,0.059833877,-3.0783093,0.62483305,-0.0005083516,-0.009457178,-0.0013909533,-0.0023438476,0.0031279942,-0.005604829,0.0031538047,0.47773594,-1.4255302,1.9575504,-2.1007707,-1.5707935,2.452689,-0.006143495,0.024736308,-0.02417368,0.005851883,-0.00024469194,-0.009281835,-0.40222588,0.51714754,-9.844957,0.80456203,47.698532,-0.34886676,-2.2365305,-3.5572093,-0.36996657,0.07434206,0.00074429007,25.0625,25.5625,24.9375,27.125,27.5625,27.9375
0.028054014,-1.4801393,-1.5304213,-1.5036052,-0.084501155,0.057350613,-0.03503247,-0.3811074,-0.34852904,0.059833676,-3.0783384,0.6248006,-0.0005836705,-0.011252857,-0.0014653677,-0.0013121004,0.0032294604,-0.0034298156,0.00261729,0.47774777,-1.425494,1.9575013,-2.1007345,-1.5707463,2.4526768,-0.006962336,0.025634414,-0.027734324,0.0066339727,-0.001341004,-0.009560108,-0.4213795,0.38307226,-9.921572,0.78217715,47.690468,-0.43053085,-2.202705,-3.5262527,-0.3480727,0.06439284,-0.017961372,25.0625,25.5625,24.9375,27.125,27.5625,27.9375
0.030054146,-1.3782893,-1.0428884,-1.1742576,-0.061143808,0.060225494,-0.052083325,-0.38114607,-0.3485287,0.059840113,-3.0783422,0.62482107,-0.0005687487,-0.011918982,-0.0014619059,-0.0017003211,0.0037938158,-0.0042900057,0.00276064,0.47771138,-1.4254453,1.9574283,-2.1007226,-1.5707463,2.4526527,-0.007515016,0.027859265,-0.029516935,0.0072153304,-0.001449659,-0.010254797,-0.36391866,0.30645782,-9.921572,0.7620334,47.71286,-0.3967157,-2.2462997,-3.5923057,-0.33613664,0.075749904,-0.034210153,25.0625,25.5625,24.9375,27.125,27.5625,27.9375
0.032053445,-1.3891279,-0.30424842,-1.1331738,-0.04699859,0.056575183,-0.06381206,-0.3811609,-0.34853628,0.05983605,-3.0783463,0.62476426,-0.00058316434,-0.013438528,-0.0015613876,-0.0013596489,0.0032068752,-0.0033442131,0.0026061325,0.47771105,-1.4253969,1.9573797,-2.1007106,-1.5707463,2.4526165,-0.008797657,0.029451177,-0.03208046,0.007076727,-0.0013698799,-0.011381506,-0.3256114,0.22984336,-9.710882,0.75755644,47.711063,-0.43062508,-2.2313905,-3.561346,-0.31937206,0.05469782,-0.027511362,25.0625,25.5625,24.9375,27.125,27.5625,27.9375
0.034053754,-1.2308931,-0.024458172,-1.0167582,-0.029218404,0.05158406,-0.07207323,-0.38122156,-0.3485501,0.059849717,-3.0783632,0.62482584,-0.00049898535,-0.015322388,-0.002253894,-0.00035603342,0.0019779238,-0.0012997984,0.0018100744,0.47768685,-1.4253246,1.9572715,-2.1007345,-1.5707577,2.4526286,-0.00940384,0.03095333,-0.036126442,0.007239348,-0.001226023,-0.011189758,-0.22984336,0.076614454,-9.595961,0.81351066,47.694946,-0.4834353,-2.2461054,-3.4855995,-0.3076034,0.040295467,-0.029907431,25.0625,25.5625,24.9375,27.125,27.5625,27.9375
0.036053754,-1.0303955,-0.054918084,-0.9814254,-0.008198437,0.0478334,-0.08183277,-0.38124755,-0.3485503,0.059843175,-3.0783212,0.6248172,-0.00049203925,-0.016225042,-0.0023252883,-0.00049044646,0.0022053088,-0.0018885045,0.0016822057,0.4776866,-1.425252,1.957198,-2.1007102,-1.570794,2.4526284,-0.010155816,0.03309653,-0.038448382,0.008044666,-0.0011610639,-0.011812622,-0.24899697,0.019153614,-9.595961,0.83365434,47.707485,-0.4723999,-2.2111163,-3.3733926,-0.30158353,0.029797073,-0.059115507,25.0625,25.5625,24.9375,27.125,27.5625,27.9375
0.038053837,-0.5306679,0.14539161,-0.9988074,-0.008031253,0.05077853,-0.097083725,-0.38128406,-0.3485577,0.059822317,-3.0783327,0.6247812,-0.00054472307,-0.017595317,-0.0024628253,-0.00011363703,0.0022005928,-0.001712861,0.0008771845,0.4776504,-1.4251435,1.9571246,-2.1007216,-1.5707701,2.4525683,-0.011126506,0.035034854,-0.041811954,0.009312268,-0.0012424119,-0.011976353,-0.24899697,0.0,-9.615114,0.7665104,47.677036,-0.47731546,-2.2393718,-3.390191,-0.30709305,0.016465189,-0.059369493,25.0625,25.5625,24.9375,27.125,27.5625,27.9375
0.0400538,-0.99830014,-0.15542758,-1.1528497,-0.0027219425,0.036514234,-0.101829775,-0.38130566,-0.34857526,0.059834193,-3.0783446,0.6248218,-0.00059678126,-0.01803539,-0.0020730295,-0.00020623532,0.0032245587,-0.003173867,0.00065287686,0.47763804,-1.425095,1.9570283,-2.1006606,-1.5707339,2.4525797,-0.012072476,0.036368262,-0.043636475,0.011572764,-0.0014795207,-0.012696831,-0.095768064,-0.038307227,-9.5385,0.7418897,47.694946,-0.4783443,-2.2112494,-3.3623023,-0.29401648,-0.0038257395,-0.07782586,25.0625,25.5625,24.9375,27.125,27.5625,27.9375
0.042053934,-0.8401348,-0.5407904,-0.972441,-0.004741499,0.0315158,-0.11492846,-0.38134795,-0.34856173,0.059843823,-3.0782924,0.6248497,-0.00053561456,-0.019493839,-0.0026060657,0.00086283183,0.0023106332,-0.0012111396,0.00092473795,0.47761387,-1.4250468,1.9569434,-2.1006253,-1.570794,2.4525797,-0.0124110645,0.037004218,-0.04691597,0.012052555,-0.0015764561,-0.013305428,-0.076614454,-0.05746084,-9.500193,0.6859408,47.65106,-0.5018462,-2.1669765,-3.3841224,-0.2812739,-0.0076763956,-0.07453097,25.0625,25.5625,24.9375,27.125,27.5625,27.9375
0.044053808,-0.9507012,-0.8746476,-0.9358632,-0.012855313,0.030344391,-0.12650947,-0.38138506,-0.34857592,0.059836358,-3.0783098,0.6248154,-0.00057492434,-0.02052795,-0.0023831672,0.00077716145,0.0030070054,-0.001488565,0.000373996,0.47758952,-1.4249504,1.9568475,-2.1006129,-1.5707706,2.4525318,-0.013442398,0.038925942,-0.049105525,0.0128888395,-0.002070702,-0.013783738,-0.019153614,0.076614454,-9.519346,0.78217715,47.699425,-0.52432436,-2.1379232,-3.3429146,-0.31120628,-0.015316151,-0.063821785,25.0625,25.5625,24.9375,27.125,27.5625,27.9375
0.0460537,-0.6472571,-0.7036227,-1.0103744,-0.023070823,0.04367327,-0.1408164,-0.3814118,-0.34858096,0.05982157,-3.0782897,0.6248111,-0.000645784,-0.021442268,-0.0025112196,0.0003250398,0.0040522213,-0.0016625143,-0.0005200404,0.47756556,-1.4248534,1.9567627,-2.100577,-1.5707582,2.4525077,-0.013507029,0.041763682,-0.051314566,0.012898385,-0.002923947,-0.0129508665,-0.15322891,0.19153613,-9.5385,0.80679786,47.66091,-0.55352616,-2.1694338,-3.3842807,-0.31168175,-0.03658884,-0.06985058,25.0625,25.5625,24.9375,27.125,27.5625,27.9375
0.048053574,-1.1231191,-1.3397,-1.167449,-0.02876672,0.0407075,-0.14037019,-0.3814692,-0.34857255,0.059845287,-3.0782673,0.624807,-0.0005692181,-0.02257753,-0.0020927058,0.00060535665,0.00489628,-0.001331794,-0.0022006405,0.47752914,-1.4248053,1.9566425,-2.1005285,-1.5708069,2.4524717,-0.01471226,0.042889643,-0.053505074,0.014059777,-0.00382714,-0.01247262,-0.17238252,0.2681506,-9.595961,0.7933669,47.690468,-0.57934767,-2.1430774,-3.3643913,-0.32494462,-0.03300399,-0.08231297,25.0625,25.5625,24.9375,27.125,27.5625,27.9375
0.05005347,-0.93257356,-1.5372695,-1.0242587,-0.04211882,0.054918393,-0.1531126,-0.38151795,-0.34858197,0.059827898,-3.0782287,0.6248953,-0.00063892704,-0.023926891,-0.0023781818,0.0019612364,0.0037547103,0.0014730435,-0.0031035102,0.47749293,-1.4246618,1.9565104,-2.1004927,-1.5707949,2.4524956,-0.01526772,0.042133264,-0.055742513,0.014038966,-0.004107576,-0.012123431,-0.15322891,0.30645782,-9.5385,0.78888994,47.67614,-0.5251907,-2.0067234,-3.4365911,-0.32822412,-0.0480689,-0.10737221,25.0625,25.5625,24.9375,27.125,27.5625,27.9375
0.052053552,-1.3230767,-2.0438585,-1.1753174,-0.050940875,0.04949103,-0.13879886,-0.38157597,-0.3485898,0.059850927,-3.078262,0.62482667,-0.00054275297,-0.024962401,-0.002183955,0.0010275441,0.0047981036,0.00014780983,-0.004704515,0.47746858,-1.4246126,1.9564017,-2.1004927,-1.5708188,2.4524243,-0.016361605,0.045796253,-0.05780107,0.01409192,-0.0044285743,-0.011614282,-0.17238252,0.4405331,-9.481039,0.7530795,47.6636,-0.47704095,-1.9630828,-3.4074266,-0.33233958,-0.054497205,-0.11717892,25.0625,25.5625,24.9375,27.125,27.5625,27.9375
0.054053612,-1.3237731,-2.165528,-1.1064728,-0.05919781,0.050025016,-0.12850398,-0.38161948,-0.34860572,0.05986423,-3.0782816,0.6247722,-0.00052707735,-0.02735275,-0.0035684656,0.0028665285,0.0025597406,0.003924609,-0.0040717497,0.4774566,-1.4245403,1.9562806,-2.100457,-1.5708188,2.452376,-0.016267879,0.046943873,-0.06331196,0.014071127,-0.004188164,-0.012150927,-0.28730422,0.45968673,-9.557653,0.8403672,47.71286,-0.46211636,-2.0960937,-3.2889326,-0.3470667,-0.0633201,-0.11951925,25.0625,25.5625,24.9375,27.125,27.5625,27.9375
0.056053612,-0.5241007,-1.6151221,-1.0473851,-0.07703906,0.07668597,-0.14441672,-0.38164222,-0.34861508,0.059854373,-3.078263,0.6247875,-0.0005856027,-0.026135825,-0.0027309167,-0.00019032223,0.006096126,-0.0013868877,-0.003912732,0.47744465,-1.424455,1.9561976,-2.1004207,-1.5708073,2.452376,-0.016179524,0.05138698,-0.06139533,0.014056543,-0.004884795,-0.012220219,-0.24899697,0.49799395,-9.653421,0.7351769,47.678825,-0.5200633,-2.164374,-3.4543576,-0.3320349,-0.05717344,-0.12995057,25.0625,25.5625,24.9375,27.125,27.5625,27.9375
0.058053873,-1.2027999,-1.8865539,-0.95555806,-0.065770574,0.05769123,-0.12924519,-0.38172597,-0.34862462,0.059879202,-3.0782638,0.62486494,-0.00055377197,-0.028262874,-0.003044468,0.001619686,0.0052873413,0.003109712,-0.0042260443,0.47738442,-1.4243474,1.9560045,-2.100361,-1.5708078,2.452364,-0.016702952,0.050812017,-0.06479211,0.013667401,-0.0062407055,-0.012425947,-0.3256114,0.49799395,-9.5385,0.8627467,47.67614,-0.549116,-2.088187,-3.4432766,-0.34398243,-0.05698628,-0.12827908,25.0625,25.5625,24.9375,27.125,27.5625,27.9375
0.06005395,-0.7743201,-2.049024,-0.8815894,-0.051516384,0.069974564,-0.13752668,-0.38176876,-0.34861794,0.059862256,-3.0782068,0.62483346,-0.0005222849,-0.031023627,-0.0036608214,0.0031109473,0.0058572427,0.007686867,-0.0034309628,0.4773726,-1.424239,1.9559196,-2.100361,-1.5708688,2.45234,-0.01645774,0.052734416,-0.07036607,0.0135239065,-0.008862844,-0.012967011,-0.22984336,0.45968673,-9.500193,0.784413,47.639416,-0.52553725,-1.9659266,-3.2675755,-0.32650703,-0.065319285,-0.13593036,25.0625,25.5625,24.9375,27.125,27.5625,27.9375
0.06205385,-1.1044496,-1.2981986,-0.66167057,-0.056900486,0.05817294,-0.13441844,-0.38183817,-0.34862867,0.05988123,-3.0782127,0.62493134,-0.00053211953,-0.03130463,-0.0026319588,0.0013983261,0.009231513,0.0055842428,-0.0039320784,0.47731224,-1.4241419,1.9557518,-2.1003015,-1.5708455,2.45234,-0.017222676,0.05621411,-0.07042905,0.013532042,-0.01089396,-0.013226089,-0.21068975,0.40222588,-9.423578,0.8291774,47.666286,-0.4814182,-2.0866866,-3.3862062,-0.31767392,-0.04637207,-0.1442516,25.0625,25.5625,24.9375,27.125,27.5625,27.9375
0.06405378,-1.0882561,-1.8168488,-0.8439065,-0.04379875,0.055339016,-0.116620965,-0.3819049,-0.34864345,0.059889153,-3.0782332,0.62487686,-0.0004244595,-0.03274579,-0.0029950757,0.0018843969,0.009676655,0.0073577673,-0.003355409,0.47730026,-1.4240454,1.9556316,-2.1003368,-1.5708817,2.4522915,-0.0171185,0.057986166,-0.07356648,0.013530281,-0.012110326,-0.013694896,-0.1340753,0.45968673,-9.423578,0.8672237,47.677036,-0.5531119,-2.1007621,-3.321518,-0.30350906,0.0036081187,-0.15994193,25.0625,25.5625,24.9375,27.125,27.5625,27.9375
0.066054426,-0.61571234,-1.4488053,-0.48101413,-0.0546054,0.055392988,-0.13383938,-0.3820019,-0.3486621,0.05991434,-3.0782313,0.62499136,-0.00035216968,-0.033909537,-0.0029579003,0.0021933883,0.01018478,0.008032437,-0.003455479,0.47725204,-1.4239132,1.9554151,-2.1003015,-1.5708946,2.452315,-0.0177584,0.05941153,-0.07606795,0.014242378,-0.012874839,-0.014232471,-0.19153613,0.4213795,-9.346964,0.7642693,47.682407,-0.54604363,-2.060276,-3.2639558,-0.31135374,0.00852971,-0.16520995,25.0625,25.5625,24.9375,27.125,27.5625,27.9375
0.06805388,-0.87594783,-1.8333588,-0.6085248,-0.046325505,0.043120544,-0.12780277,-0.38206303,-0.34867662,0.05990999,-3.0782344,0.62493396,-0.00034305642,-0.03516494,-0.0041549806,0.0027314213,0.0075856736,0.008762723,-0.002645233,0.47722805,-1.4237808,1.9552711,-2.100289,-1.5709051,2.452255,-0.01806554,0.06119815,-0.07923953,0.013776885,-0.010909987,-0.01535182,-0.21068975,0.47884035,-9.251195,0.7933669,47.703903,-0.5232222,-2.036693,-3.2261472,-0.2862807,-0.020871164,-0.17547682,25.0625,25.5625,24.9375,27.125,27.5625,27.9375
0.07005443,-0.7841206,-1.5987747,-0.56257665,-0.04279915,0.03524468,-0.11928093,-0.38212183,-0.3486877,0.05992763,-3.0782309,0.62489384,-0.0002777762,-0.03583326,-0.005408977,0.0029393963,0.0056990483,0.008440944,-0.0018719658,0.47721627,-1.4236962,1.9551262,-2.1002538,-1.5709404,2.4522188,-0.017635493,0.06327822,-0.08214964,0.0140188,-0.009091776,-0.015697164,-0.19153613,0.40222588,-9.155427,0.7978386,47.684196,-0.54606,-2.0458345,-3.2065415,-0.26611778,-0.042375565,-0.19365352,25.0625,25.5625,24.9375,27.125,27.5625,27.9375
0.07205413,-0.59961975,-1.3394703,-0.5824136,-0.044003434,0.029764643,-0.12229574,-0.38217697,-0.3486911,0.059901744,-3.0781934,0.624944,-0.00039027596,-0.036852516,-0.0058206124,0.0027675729,0.004601292,0.007689037,-0.002570663,0.47715583,-1.4235278,1.9549822,-2.1002057,-1.5709165,2.4521945,-0.018694673,0.06567433,-0.084539175,0.014170935,-0.0077771586,-0.01605815,-0.076614454,0.30645782,-9.155427,0.8157518,47.711964,-0.56922066,-2.0176551,-3.1354957,-0.2613529,-0.06300481,-0.20573707,25.0625,25.5625,24.9375,27.125,27.5625,27.9375
0.074054234,-0.784526,-1.0581545,-0.43927306,-0.033545334,0.026370334,-0.11821062,-0.38227525,-0.34872696,0.05993447,-3.0782428,0.62487614,-0.0002648592,-0.03773184,-0.0063884123,0.0031388626,0.004073442,0.0077647194,-0.0016228101,0.47714373,-1.4233954,1.9547533,-2.1001933,-1.5709399,2.452134,-0.018775024,0.06727151,-0.08744573,0.015168289,-0.007346073,-0.017086359,-0.019153614,0.30645782,-9.193734,0.77545905,47.70032,-0.54189205,-2.040768,-3.1116805,-0.26289964,-0.082132265,-0.21761054,25.0625,25.5625,24.9375,27.125,27.5625,27.9375
0.076053925,-0.6094523,-0.51730436,-0.46639174,-0.02630116,0.031272355,-0.12044084,-0.3823496,-0.34872732,0.059937924,-3.0782142,0.6250431,-0.00022425805,-0.03868783,-0.006471484,0.0023363861,0.0056684613,0.006992694,-0.0010357145,0.47708374,-1.4232862,1.9546207,-2.1001933,-1.5709523,2.4521818,-0.018813955,0.071056865,-0.089980625,0.015339091,-0.008413147,-0.017708674,-0.05746084,0.22984336,-9.155427,0.80456203,47.67614,-0.56262666,-1.983741,-3.0929322,-0.23369643,-0.07192851,-0.20255795,25.0625,25.5625,24.9375,27.125,27.5625,27.9375
0.07805423,-1.0716252,-0.48517582,-0.51250076,-0.022109535,0.026722858,-0.11956781,-0.38244247,-0.34875736,0.05995325,-3.0782452,0.62499124,-0.00015411613,-0.040198848,-0.006041418,0.0033238737,0.0071592247,0.009217581,-0.0007691867,0.47705957,-1.4231299,1.9544042,-2.1001804,-1.5709652,2.4521215,-0.019443158,0.07135238,-0.092884466,0.016663266,-0.010761735,-0.018599156,-0.095768064,0.2681506,-9.078813,0.7978386,47.661808,-0.5893145,-2.1708896,-3.0788608,-0.24021167,-0.0458761,-0.2076432,25.0625,25.5625,24.9375,27.125,27.5625,27.9375
0.08005352,-0.4406781,-0.50954306,-0.31615797,-0.023120169,0.053549107,-0.12877665,-0.38252845,-0.34875482,0.05994791,-3.0782056,0.62496346,-0.0001492957,-0.04091768,-0.005866309,0.0035117588,0.008433109,0.0097793685,-0.00014048521,0.47699946,-1.4229615,1.954213,-2.1001322,-1.5710019,2.4520493,-0.019507974,0.072359584,-0.09467287,0.017533729,-0.012153694,-0.019288883,-0.05746084,0.22984336,-9.021352,0.7665104,47.63673,-0.58939326,-1.9371922,-3.121665,-0.23133674,-0.04486234,-0.23182072,25.0625,25.5625,24.9375,27.125,27.5625,27.9375
0.082054205,-1.0344057,-1.0495721,-0.6632153,-0.019104127,0.043634724,-0.12096505,-0.3826172,-0.34878233,0.059975974,-3.0782664,0.62497544,-8.6541324e-05,-0.041319687,-0.0051228395,0.0021154045,0.012084165,0.007640691,0.0009064445,0.47695148,-1.4228523,1.9540213,-2.1001198,-1.570979,2.452001,-0.019727293,0.0762034,-0.09615904,0.018759819,-0.01441476,-0.02055072,-0.095768064,0.2681506,-9.174581,0.8247004,47.63404,-0.5964625,-2.032463,-3.1699984,-0.22788882,-0.02300268,-0.22931659,25.0625,25.5625,24.9375,27.125,27.5625,27.9375
0.08405361,-1.1999611,-1.2707688,-0.6009587,-0.030699367,0.0391592,-0.11689131,-0.38267118,-0.34879047,0.059953243,-3.0781949,0.62496084,-0.00014024945,-0.041665435,-0.004790891,0.0018891846,0.013067052,0.006272507,0.000658457,0.4769392,-1.4226714,1.953853,-2.1000597,-1.5710148,2.451989,-0.020473436,0.07757771,-0.097625524,0.020518487,-0.014660691,-0.02104678,-0.11492168,0.21068975,-9.212888,0.8090337,47.657326,-0.5772022,-2.126852,-3.150813,-0.22885758,-0.03343517,-0.22896901,25.0625,25.5625,24.9375,27.125,27.5625,27.9375
0.08605336,-0.8018949,-0.8531622,-0.62031037,-0.04837321,0.045041133,-0.11990292,-0.38277116,-0.3488023,0.059979085,-3.0781865,0.6249397,-7.583979e-05,-0.043154057,-0.005657512,0.0025276467,0.011936434,0.007072073,0.0006372492,0.47689104,-1.4225267,1.9536122,-2.0999877,-1.5710505,2.4519289,-0.020711988,0.07973402,-0.101718314,0.021221794,-0.014030032,-0.021263449,-0.1340753,0.17238252,-9.251195,0.78217715,47.66271,-0.62415886,-2.0486834,-3.0929408,-0.22318101,-0.020799223,-0.25165373,25.0625,25.5625,24.9375,27.125,27.5625,27.9375
0.088053465,-1.2296087,-1.4672381,-0.8214628,-0.028233176,0.029420339,-0.11673389,-0.3828413,-0.34881198,0.059967786,-3.078156,0.6249707,-0.0001241803,-0.0418638,-0.0054745656,0.0004256045,0.012814968,0.0026419086,0.0015221154,0.47684318,-1.4223577,1.9534339,-2.0999396,-1.57105,2.4519043,-0.02065595,0.0822797,-0.09981231,0.021103727,-0.012774557,-0.022094706,-0.17238252,0.19153613,-9.32781,0.8291774,47.690468,-0.64858437,-2.0824118,-3.285524,-0.21853781,-0.025650762,-0.26717505,25.0625,25.5625,24.9375,27.125,27.5625,27.9375
0.090053655,-0.72399443,-1.1279922,-0.61781335,-0.0386347,0.043599702,-0.12248432,-0.38293585,-0.34884113,0.059977956,-3.0781653,0.6249329,-3.1279924e-05,-0.044239357,-0.006393475,0.001623104,0.011843397,0.005161419,0.0025343453,0.47683105,-1.4221886,1.9532174,-2.099939,-1.5710863,2.4518676,-0.021016186,0.08460798,-0.10533907,0.021617318,-0.013078024,-0.023464208,-0.19153613,0.21068975,-9.346964,0.8605109,47.63315,-0.6106611,-2.1149886,-3.2026482,-0.20564549,-0.028941507,-0.26386172,25.0625,25.5625,24.9375,27.125,27.5625,27.9375
0.09205376,-1.0770075,-1.1529776,-0.9130069,-0.025029534,0.042069834,-0.1194396,-0.38301304,-0.3488584,0.059959855,-3.078141,0.62494713,-0.00010321665,-0.043780558,-0.0056381715,0.00021854173,0.013773249,0.002530064,0.0033806683,0.4767827,-1.421984,1.9530138,-2.0998914,-1.5710744,2.4518313,-0.021598665,0.0864599,-0.10435167,0.022002393,-0.013583908,-0.024891702,-0.19153613,0.28730422,-9.308656,0.7620334,47.655537,-0.6182954,-2.1038473,-3.410012,-0.17978567,-0.013328534,-0.24507734,25.0625,25.5625,24.9375,27.125,27.5625,27.9375
0.09405373,-1.1690289,-0.93174076,-0.6673868,-0.02454761,0.049232714,-0.11566469,-0.38309866,-0.3488493,0.059964225,-3.078099,0.6249379,-9.823094e-05,-0.044661693,-0.005743518,0.00032964777,0.014089486,0.003013007,0.0037362147,0.47671074,-1.4218392,1.9528221,-2.09982,-1.5711101,2.451759,-0.021887135,0.08788267,-0.10629773,0.022241369,-0.014091355,-0.025533272,-0.1340753,0.22984336,-9.3661175,0.784413,47.690468,-0.6763952,-2.069029,-3.3780193,-0.16776961,-0.04064644,-0.24031574,25.0625,25.5625,24.9375,27.125,27.5625,27.9375
0.096054204,-1.152246,-0.81542134,-0.800961,-0.0315681,0.05433817,-0.120353796,-0.38320336,-0.348846,0.05997661,-3.0780454,0.6249459,1.1718559e-05,-0.044821303,-0.005821392,-6.683419e-05,0.014537958,0.0018453399,0.0040611504,0.47666273,-1.4216824,1.9526061,-2.0997832,-1.571194,2.451723,-0.02197809,0.089473374,-0.10739231,0.022984976,-0.013954535,-0.025949119,-0.11492168,0.28730422,-9.308656,0.81351066,47.675243,-0.66138744,-2.0811214,-3.5071936,-0.17806777,-0.03985729,-0.24522996,25.0625,25.5625,24.9375,27.125,27.5625,27.9375
0.098053604,-0.307782,-0.4719727,-0.7473285,-0.040385153,0.07440854,-0.12969871,-0.38325834,-0.34887415,0.059947252,-3.0780141,0.6249007,-0.00015596875,-0.04528998,-0.006153247,-0.00024089037,0.014267227,0.0014648585,0.0040957574,0.47663867,-1.4214538,1.9523901,-2.0996878,-1.5711583,2.451675,-0.022082979,0.091026045,-0.10880792,0.023060814,-0.013545305,-0.026087053,-0.095768064,0.22984336,-9.346964,0.8112748,47.678825,-0.6646416,-2.0504076,-3.464275,-0.16526288,-0.047939513,-0.28025728,25.0625,25.5625,24.9375,27.125,27.5625,27.9375
0.10005419,-1.0423416,-1.0433621,-0.78266954,-0.038832568,0.043564998,-0.11844285,-0.38338655,-0.34890053,0.059989303,-3.0780532,0.62490886,1.0170014e-05,-0.047486864,-0.0068035643,0.0008307708,0.01341939,0.0038149115,0.0042117555,0.47659045,-1.4213089,1.9521254,-2.0996754,-1.571194,2.451627,-0.022729732,0.09293815,-0.11353072,0.02339358,-0.013877255,-0.026848061,-0.076614454,0.2681506,-9.32781,0.83589023,47.703007,-0.67200387,-1.9942694,-3.4694786,-0.14961457,-0.032359064,-0.29306787,25.0625,25.5625,24.9375,27.125,27.5625,27.9375
0.102053486,-0.31702074,-1.1595811,-1.0533783,-0.04665458,0.04266955,-0.11823686,-0.38348278,-0.3489124,0.05997336,-3.0780156,0.62486106,4.0519975e-05,-0.04680756,-0.005947404,-0.00057035574,0.015507226,0.001343727,0.00472364,0.47655424,-1.4210922,1.9519113,-2.099664,-1.5712427,2.451566,-0.023149643,0.0942613,-0.111910075,0.023603607,-0.014595844,-0.027778937,-0.095768064,0.2681506,-9.423578,0.82022345,47.686886,-0.66375965,-1.9408903,-3.6355643,-0.13539419,-0.0070317853,-0.2978473,25.0625,25.5625,24.9375,27.125,27.5625,27.9375
0.10405395,-0.40958843,-1.2489889,-1.0882281,-0.049934816,0.032658886,-0.12017066,-0.38358274,-0.3489062,0.059979122,-3.0779424,0.6249231,4.409449e-05,-0.049054775,-0.007106134,0.0014828077,0.013964174,0.0052105463,0.0049658567,0.4764824,-1.420912,1.95167,-2.0995672,-1.5712909,2.4515424,-0.022887563,0.094817914,-0.11744076,0.024432993,-0.015009625,-0.0277551,-0.17238252,0.24899697,-9.481039,0.8605109,47.65464,-0.78547895,-1.8479173,-3.5314348,-0.12840754,-0.0100632375,-0.308213,25.0625,25.5625,24.9375,27.125,27.5625,27.9375
0.106054135,-0.4291477,-1.5776352,-1.2544608,-0.042693377,0.029626101,-0.114524744,-0.3836758,-0.34892106,0.059982717,-3.0779247,0.6248607,7.6110824e-05,-0.04883495,-0.0071983896,-0.00014733664,0.0154948775,0.0010826895,0.005645955,0.47644645,-1.42073,1.9514426,-2.099519,-1.5713271,2.45147,-0.022862716,0.09911785,-0.11903117,0.026089683,-0.014476803,-0.02841025,-0.11492168,0.34476504,-9.461885,0.8023209,47.683304,-0.7274325,-2.065249,-3.5737333,-0.10725494,-0.016804172,-0.299274,25.0625,25.5625,24.9375,27.125,27.5625,27.9375
0.10805372,-0.2323133,-1.3850911,-1.3203439,-0.03403577,0.03603507,-0.118099935,-0.3837653,-0.34895623,0.059970476,-3.0779374,0.6248245,2.2934775e-05,-0.050354004,-0.007790739,0.0017294561,0.013339489,0.0038214813,0.005960693,0.4764102,-1.4205024,1.9512018,-2.0994828,-1.5713023,2.4514096,-0.023624718,0.098033436,-0.12231321,0.02703095,-0.013823778,-0.029486746,-0.1340753,0.3256114,-9.519346,0.78217715,47.674347,-0.732123,-1.8756595,-3.4973998,-0.1012387,-0.006400201,-0.30212674,25.0625,25.5625,24.9375,27.125,27.5625,27.9375
0.11005389,-0.6561772,-1.2283885,-1.272889,-0.036150575,0.033927113,-0.11495814,-0.3838734,-0.34897456,0.060005747,-3.0779371,0.62478614,0.00012589469,-0.050854657,-0.008371707,0.0006240191,0.013421377,0.0013359128,0.006495058,0.47637406,-1.4203568,1.9509381,-2.0994108,-1.57135,2.4513497,-0.02373923,0.10227592,-0.124759085,0.02747448,-0.012760069,-0.03013658,-0.05746084,0.34476504,-9.423578,0.82022345,47.67345,-0.80338454,-1.9825566,-3.4907045,-0.09291455,-0.013168341,-0.31423965,25.0625,25.5625,24.9375,27.125,27.5625,27.9375
0.11205412,-0.732532,-1.6184493,-1.1411469,-0.042542372,0.041191544,-0.11773151,-0.38398895,-0.3490008,0.060013726,-3.0779376,0.6248231,0.00014000272,-0.051433887,-0.00866221,0.0016431123,0.012807042,0.0019703894,0.0061315275,0.4763142,-1.4201407,1.9506615,-2.0993621,-1.57135,2.451313,-0.02391093,0.10183796,-0.12702918,0.029335484,-0.012505481,-0.029944746,-0.038307227,0.38307226,-9.461885,0.8247004,47.69763,-0.78375953,-1.7681036,-3.539743,-0.08859657,-0.02017786,-0.3237938,25.0625,25.5625,24.9375,27.125,27.5625,27.9375
0.114054054,-0.7001311,-1.5209495,-1.2983551,-0.059475165,0.04826261,-0.11971743,-0.38403752,-0.3489902,0.059956864,-3.0778193,0.6247808,-4.402662e-05,-0.051964123,-0.009005258,0.0014890135,0.012886482,0.00072944403,0.0052704923,0.47626606,-1.4199,1.9504937,-2.0992658,-1.5713738,2.4512537,-0.024104081,0.104005225,-0.12951393,0.030789658,-0.012014001,-0.029274544,-0.038307227,0.38307226,-9.634268,0.86945957,47.689575,-0.8325491,-1.8031378,-3.5985615,-0.08326066,-0.013617125,-0.36416352,25.0625,25.5625,24.9375,27.125,27.5625,27.9375
0.11605354,-0.980294,-2.020018,-1.4844358,-0.060349237,0.042760264,-0.11243965,-0.38418666,-0.34904298,0.060006,-3.0779026,0.62473893,0.00012745398,-0.052842192,-0.009210185,0.0018981311,0.013208519,0.0011532276,0.0065237847,0.47623006,-1.4197072,1.950158,-2.099254,-1.5713857,2.4511812,-0.024227336,0.105217695,-0.13211957,0.031953756,-0.012494485,-0.030650493,-0.095768064,0.38307226,-9.672575,0.8224646,47.64658,-0.88577735,-1.7616845,-3.5451956,-0.09500614,-0.022956867,-0.37575015,25.0625,25.5625,24.9375,27.125,27.5625,27.9375
0.11805373,-0.9485983,-2.393731,-1.4431428,-0.0626054,0.043837108,-0.10742237,-0.38429195,-0.34903696,0.059996016,-3.077823,0.6247601,7.327702e-05,-0.054025132,-0.009896315,0.0020492713,0.012913317,0.001320921,0.008158702,0.47614598,-1.4194782,1.9498938,-2.0991457,-1.571422,2.4511206,-0.02420258,0.10784339,-0.13563126,0.03255133,-0.012318797,-0.032258123,-0.038307227,0.4213795,-9.691729,0.88960326,47.689575,-0.8600464,-1.7554302,-3.5095558,-0.0976751,-0.021878295,-0.35430974,25.0625,25.5625,24.9375,27.125,27.5625,27.9375
0.12005385,-1.0183733,-1.9174427,-1.363449,-0.059366442,0.038499832,-0.11588707,-0.3844011,-0.34906456,0.060013838,-3.0778303,0.62470335,0.00012374818,-0.05487708,-0.010121225,0.0016297381,0.01324559,0.00076250813,0.008526507,0.4761099,-1.419285,1.9496182,-2.0990856,-1.5714458,2.4510484,-0.024551433,0.11052968,-0.1377994,0.03268014,-0.0123624215,-0.032973543,-0.11492168,0.4405331,-9.749189,0.8112748,47.664497,-0.8717371,-1.8220005,-3.516526,-0.072077245,-0.022206312,-0.3608379,25.0625,25.5625,24.9375,27.125,27.5625,27.9375
0.122054204,-0.5488759,-1.4724016,-1.3328898,-0.060494915,0.04173785,-0.12160764,-0.38450202,-0.34908983,0.060010966,-3.0778239,0.6247001,0.00010900739,-0.056679524,-0.010918894,0.0015826189,0.0133107165,0.0006474491,0.010736445,0.47606182,-1.4190674,1.9493645,-2.099038,-1.5714458,2.4509993,-0.024777483,0.114890374,-0.14291285,0.03356247,-0.012378631,-0.035406366,-0.095768064,0.38307226,-9.710882,0.842603,47.666286,-0.9112996,-1.8173323,-3.2913408,-0.071489014,-0.02985591,-0.3380614,25.0625,25.5625,24.9375,27.125,27.5625,27.9375
0.12405327,-0.5645989,-1.2173764,-1.2930249,-0.04701785,0.041705307,-0.122860625,-0.38462728,-0.3491079,0.060017597,-3.0778115,0.6246587,0.00015756661,-0.058269028,-0.011529005,0.0029690745,0.01204478,0.0028269866,0.011704369,0.47600174,-1.4188389,1.9490765,-2.0989897,-1.5714816,2.450915,-0.02522216,0.11521061,-0.14668165,0.03449006,-0.012258877,-0.03681768,-0.11492168,0.36391866,-9.615114,0.8493211,47.68062,-0.9078972,-1.8742797,-3.3748093,-0.06107215,-0.043687634,-0.33669388,25.0625,25.5625,24.9375,27.125,27.5625,27.9375
0.12605329,-0.56555545,-1.0678442,-1.2230263,-0.05008765,0.049613055,-0.11925819,-0.3847513,-0.34913608,0.06003807,-3.077795,0.62463593,0.00017803983,-0.058669336,-0.011578755,0.0007622473,0.014443755,-0.00032397368,0.011232714,0.47595376,-1.4186087,1.9487413,-2.098882,-1.5715064,2.4508553,-0.0250465,0.121175036,-0.14843243,0.034177974,-0.012951885,-0.036167108,-0.095768064,0.40222588,-9.557653,0.75755644,47.65643,-1.0091308,-1.9352045,-3.3514423,-0.06325449,-0.054695442,-0.34904963,25.0625,25.5625,24.9375,27.125,27.5625,27.9375
0.12805352,-1.251586,-1.5833222,-1.1716012,-0.042432223,0.03694798,-0.11566679,-0.3848518,-0.349162,0.06002851,-3.077777,0.6245156,0.00018351612,-0.059871048,-0.0126323765,0.0020966835,0.012526938,0.0026689547,0.012658757,0.47593,-1.4183686,1.9484771,-2.0988343,-1.5715417,2.450759,-0.02448731,0.12095072,-0.15110336,0.033531133,-0.012628137,-0.037032995,-0.1340753,0.47884035,-9.5385,0.8493211,47.689575,-0.9950093,-1.9077523,-3.2577,-0.02287662,-0.048045732,-0.36965698,25.0625,25.5625,24.9375,27.125,27.5625,27.9375
0.13005432,-1.3751935,-1.7346405,-1.0789293,-0.060132638,0.03957697,-0.10665483,-0.38498142,-0.349193,0.060045578,-3.077764,0.6245111,0.00021822847,-0.059990764,-0.012139498,0.000883742,0.014992635,-0.00024498248,0.014657923,0.47588184,-1.4181272,1.9481419,-2.0987494,-1.5715665,2.4507098,-0.024905533,0.12427271,-0.1525997,0.035424583,-0.013485052,-0.039447885,-0.21068975,0.45968673,-9.500193,0.82694155,47.713753,-1.0819232,-1.9239256,-3.3113828,0.0076534823,-0.03700899,-0.34507883,25.0625,25.5625,24.9375,27.125,27.5625,27.9375
0.13205355,-1.7663064,-2.4017618,-1.1187211,-0.056281026,0.039736707,-0.11089111,-0.38511008,-0.3492195,0.060070306,-3.077771,0.62441635,0.0002815861,-0.060432285,-0.011928949,0.00071431766,0.014505269,-0.0013302639,0.015016573,0.4758334,-1.4179106,1.9478182,-2.098666,-1.5716017,2.4506016,-0.026270634,0.12515987,-0.1534036,0.036075674,-0.012555285,-0.04117349,-0.21068975,0.4405331,-9.481039,0.84708,47.72719,-1.1034304,-1.9781885,-3.4209862,-0.015325457,-0.03868063,-0.33144945,25.0625,25.5625,24.9375,27.125,27.5625,27.9375
0.13405353,-1.5004879,-2.1248453,-0.95746785,-0.07082004,0.04507872,-0.111405194,-0.38524604,-0.34926018,0.060098574,-3.0778239,0.6243881,0.00034213363,-0.061917506,-0.012368862,0.0017441412,0.014063978,0.00039073155,0.01629356,0.47577322,-1.4176942,1.9474944,-2.0986178,-1.5715903,2.4505172,-0.026582172,0.1260611,-0.15704231,0.03708085,-0.0129556395,-0.04276029,-0.19153613,0.47884035,-9.308656,0.80679786,47.666286,-1.0877922,-1.7718472,-3.3105125,-0.0034803972,-0.051856965,-0.3035394,25.0625,25.5625,24.9375,27.125,27.5625,27.9375
0.13605402,-1.0221412,-1.9388269,-0.7552209,-0.060651954,0.05578748,-0.123993374,-0.38539404,-0.34929222,0.060118526,-3.077827,0.6243289,0.0004440108,-0.06200632,-0.012166799,0.0005027978,0.01578622,-0.0025993097,0.017775318,0.47572517,-1.4174407,1.9471468,-2.0985687,-1.5716385,2.450432,-0.026905905,0.12951681,-0.15854049,0.038566206,-0.013116262,-0.044565115,-0.28730422,0.40222588,-9.308657,0.81351066,47.682407,-1.1234953,-1.900743,-3.4054494,-0.01646291,-0.06480636,-0.26942468,25.0625,25.5625,24.9375,27.125,27.5625,27.9375
0.1380539,-1.533484,-0.96829766,-0.3733691,-0.054046612,0.03618069,-0.118272305,-0.38550538,-0.34931162,0.060087003,-3.077781,0.62428,0.0003654416,-0.062920794,-0.012489731,0.0005375207,0.015622097,-0.0019302676,0.019838927,0.475665,-1.41714,1.9468602,-2.0985096,-1.5716504,2.4503474,-0.027051097,0.13112336,-0.16040695,0.038153242,-0.013286746,-0.046771456,-0.17238252,0.28730422,-9.308657,0.90750587,47.67166,-1.1032041,-1.6989168,-3.446001,0.012424411,-0.080771334,-0.24993788,25.0625,25.5625,24.9375,27.125,27.5625,27.9375
0.14005382,-0.87591577,-0.984961,-0.27201766,-0.028966274,0.048069123,-0.11896831,-0.38563946,-0.3493499,0.060125906,-3.0778205,0.62426746,0.00046351855,-0.06408098,-0.013305238,0.00014380083,0.015036344,-0.0018914498,0.02109372,0.4756171,-1.4169468,1.946536,-2.09845,-1.5716618,2.4502869,-0.026982885,0.13453117,-0.16324474,0.03727632,-0.012789563,-0.047957916,-0.17238252,0.22984336,-9.174581,0.83365434,47.668976,-1.2354133,-1.7456017,-3.421782,0.04598609,-0.06563806,-0.22252782,25.0625,25.5625,24.9375,27.125,27.5625,27.9375
0.1420537,-0.16821757,-0.1588723,-0.022337858,-0.019296113,0.05325167,-0.12885496,-0.38577047,-0.3493658,0.06010674,-3.077772,0.6241224,0.0004331983,-0.06462377,-0.01239722,-0.00041385245,0.016187765,-0.0042596264,0.020218784,0.47555622,-1.4166335,1.9462007,-2.098365,-1.57171,2.450142,-0.029106438,0.13628323,-0.1645093,0.039416756,-0.012730983,-0.04920543,-0.076614454,0.22984336,-9.002198,0.84708,47.63315,-1.1194825,-1.9170742,-3.536066,0.053762473,-0.08054964,-0.21323615,25.0625,25.5625,24.9375,27.125,27.5625,27.9375
0.14405373,-0.8174677,-0.05781547,-0.041224826,0.0040168473,0.018604666,-0.10900088,-0.38596264,-0.34942013,0.06016016,-3.077869,0.62412226,0.0006485701,-0.0654254,-0.012372852,-0.00077895104,0.017952867,-0.0056744763,0.022063019,0.47548425,-1.4163923,1.9458045,-2.0983765,-1.5717224,2.4500577,-0.029273922,0.13942312,-0.16782078,0.041653935,-0.013647927,-0.051215954,-0.114921674,0.21068975,-8.829816,0.9097417,47.67166,-1.127646,-1.7359269,-3.4471514,0.044341892,-0.091937326,-0.1832721,25.0625,25.5625,24.9375,27.125,27.5625,27.9375
0.14605406,-0.6443342,-0.26897722,-0.020946449,0.021323772,0.011265249,-0.11666632,-0.3860543,-0.34943178,0.0601231,-3.0777884,0.6240087,0.0005083683,-0.06618726,-0.0125377085,0.0004718787,0.01735949,-0.004718268,0.022980122,0.47543618,-1.4160923,1.945517,-2.0982559,-1.5717462,2.4499493,-0.029720519,0.13867162,-0.17033906,0.043798275,-0.013566667,-0.05257737,-0.15322891,0.05746084,-8.695741,0.7866488,47.64927,-1.1399589,-1.7746419,-3.5100121,0.04684306,-0.09929362,-0.13825797,25.0625,25.5625,24.9375,27.125,27.5625,27.9375
0.14805432,0.42853713,0.3564882,-0.02762359,0.013031339,0.042873308,-0.1252313,-0.3861897,-0.3494585,0.06013829,-3.0777872,0.623913,0.0005296467,-0.06799784,-0.011891813,0.00071583217,0.01906815,-0.0052894377,0.020754019,0.47537538,-1.415839,1.9451693,-2.0981596,-1.571771,2.449829,-0.031687777,0.14139366,-0.17472704,0.046756875,-0.01482784,-0.052314065,-0.19153613,0.019153614,-8.714894,0.8873621,47.683304,-1.1028054,-1.7081506,-3.415053,0.034887735,-0.08823237,-0.10994216,25.0625,25.5625,24.9375,27.125,27.5625,27.9375
0.15005334,-0.045413766,0.63958144,0.17755657,-0.005813829,0.03426649,-0.13313778,-0.3863456,-0.34950534,0.060177743,-3.0778413,0.62386686,0.0006137993,-0.06734892,-0.011364125,-0.0006937273,0.021580158,-0.010048472,0.019221054,0.47531545,-1.4155978,1.9447855,-2.098086,-1.571771,2.4497337,-0.031980388,0.14444017,-0.17582166,0.050186787,-0.014874675,-0.051074315,-0.17238252,-0.019153614,-8.791509,0.8851263,47.666286,-1.0580834,-1.8395679,-3.510011,0.00941386,-0.1082923,-0.08482687,25.0625,25.5625,24.9375,27.125,27.5625,27.9375
0.15205325,-0.91931057,-0.37308258,0.12734067,-0.0010025995,0.027789876,-0.11689677,-0.38645554,-0.34949118,0.060130328,-3.0776815,0.62379575,0.00048770098,-0.067428,-0.011646159,-0.0005834979,0.022600232,-0.012128623,0.01889908,0.4752436,-1.4152608,1.9444736,-2.0979416,-1.5718545,2.4496381,-0.03156646,0.14618619,-0.17896762,0.053898595,-0.014837728,-0.05033493,-0.2873042,0.1340753,-8.848969,0.85826975,47.677036,-1.1816969,-1.6934644,-3.3868654,-0.030110464,-0.09847513,-0.083529,25.0625,25.5625,24.9375,27.125,27.5625,27.9375
0.15405369,-0.2853464,-0.43819708,-0.076140866,-0.014241173,0.054833576,-0.122814946,-0.3865636,-0.34953547,0.060117573,-3.0777097,0.62358904,0.00040016853,-0.067338616,-0.011180678,-0.002284328,0.025615303,-0.017318686,0.019038659,0.47520748,-1.4149712,1.9441503,-2.0978563,-1.5718306,2.4494696,-0.03209948,0.15103011,-0.18154009,0.05762261,-0.015144922,-0.051004846,-0.21068975,0.15322891,-8.848969,0.8560339,47.698532,-1.1748698,-1.743104,-3.3738627,-0.07706228,-0.11671093,-0.07720044,25.0625,25.5625,24.9375,27.125,27.5625,27.9375
0.15605348,-0.96506757,-0.6793533,-0.40967426,-0.0116218785,0.04429385,-0.111542284,-0.38670433,-0.34954968,0.06011467,-3.077625,0.6235933,0.00035878512,-0.068133555,-0.010587772,-0.00013444056,0.025140304,-0.01551623,0.014749813,0.4751349,-1.4146599,1.943766,-2.0977113,-1.5718788,2.4494107,-0.033591267,0.14773552,-0.18347463,0.06103313,-0.015547043,-0.0482061,-0.22984336,0.22984336,-8.963891,0.8493211,47.674347,-1.1502366,-1.6379801,-3.238995,-0.13200182,-0.118153766,-0.07805608,25.0625,25.5625,24.9375,27.125,27.5625,27.9375
0.15805358,-1.390721,-1.1374147,-0.36662644,-0.021555431,0.039132122,-0.11196065,-0.38683194,-0.34954387,0.06010539,-3.077504,0.62355095,0.0003200956,-0.069122784,-0.010029526,-0.0010622222,0.027078245,-0.018530363,0.010346576,0.47506237,-1.4143702,1.9434184,-2.0975544,-1.5719632,2.4493275,-0.0352383,0.151863,-0.18676092,0.06375853,-0.015896913,-0.04544588,-0.24899697,0.2681506,-9.11712,0.90750587,47.695843,-1.1352378,-1.7695341,-3.2988229,-0.18143831,-0.13762398,-0.10338357,25.0625,25.5625,24.9375,27.125,27.5625,27.9375
0.16005342,-1.3905817,-1.8142543,-0.6267197,-0.03658432,0.050017104,-0.11594953,-0.3869711,-0.34957933,0.06011066,-3.0774908,0.62347156,0.00023245314,-0.06965298,-0.009822485,-0.0013789125,0.028356755,-0.019967688,0.009063295,0.4749901,-1.4140571,1.9430107,-2.0973985,-1.5719513,2.4492075,-0.035757817,0.15400814,-0.18899179,0.06570939,-0.016381098,-0.044679023,-0.34476504,0.34476504,-9.193734,0.83365434,47.661808,-1.0399935,-1.6786511,-3.3648067,-0.23030967,-0.12589753,-0.120504454,25.0625,25.5625,24.9375,27.125,27.5625,27.9375
0.1620536,-2.0095031,-2.291698,-0.7537865,-0.048401605,0.046505842,-0.106632315,-0.38712683,-0.34960577,0.060121525,-3.0774627,0.62342715,0.00025180355,-0.07070878,-0.010062653,-0.0012029547,0.028871346,-0.019575708,0.008855655,0.47491816,-1.413756,1.9426149,-2.0972908,-1.571988,2.4491117,-0.03586473,0.15596256,-0.19186835,0.06651796,-0.017025046,-0.044575095,-0.4213795,0.34476504,-9.251195,0.8493211,47.6636,-1.1423734,-1.725051,-3.421028,-0.27455655,-0.11250341,-0.11245851,25.0625,25.5625,24.9375,27.125,27.5625,27.9375
0.16405399,-1.4613373,-2.1026564,-0.78635454,-0.066761546,0.07081487,-0.11963067,-0.3872294,-0.34960938,0.060095333,-3.0773296,0.62345886,6.620795e-05,-0.07168794,-0.010342516,-0.0015962692,0.028503085,-0.020742023,0.0072324392,0.4748459,-1.4134427,1.9422678,-2.0970871,-1.5720114,2.4490764,-0.03679475,0.15886335,-0.19448549,0.06709884,-0.016177664,-0.043879632,-0.36391866,0.45968673,-9.385271,0.8090337,47.688675,-1.1066706,-1.7069871,-3.3274698,-0.3368916,-0.1464879,-0.10174821,25.0625,25.5625,24.9375,27.125,27.5625,27.9375
0.16605328,-1.6890155,-2.1408622,-0.9171564,-0.07304619,0.068177745,-0.108490214,-0.387408,-0.34963372,0.060101803,-3.0772908,0.6234326,7.126555e-05,-0.07357248,-0.01045448,-0.001045233,0.027849598,-0.017856438,0.003037406,0.4747495,-1.4130943,1.9418248,-2.096968,-1.5720481,2.448969,-0.037808757,0.15995614,-0.19664505,0.06530458,-0.016925009,-0.040694878,-0.36391866,0.4405331,-9.461885,0.7866488,47.681515,-1.0654384,-1.6594021,-3.315042,-0.3316896,-0.1501483,-0.14149264,25.0625,25.5625,24.9375,27.125,27.5625,27.9375
0.16805333,-1.4025573,-2.0784955,-0.99141544,-0.067076944,0.074529655,-0.11445381,-0.38756067,-0.34967467,0.06009445,-3.077268,0.62339014,3.6309277e-05,-0.07411952,-0.010725622,-0.0027209294,0.027684936,-0.019224096,0.0015370104,0.4746894,-1.4127444,1.9414171,-2.0968735,-1.572059,2.4488854,-0.03830242,0.16392325,-0.1968467,0.06267753,-0.016162068,-0.039688423,-0.34476504,0.4405331,-9.481039,0.8806493,47.691364,-1.1074958,-1.6116557,-3.434651,-0.35478443,-0.15051742,-0.17856526,25.0625,25.5625,24.9375,27.125,27.5625,27.9375
0.17005338,-1.9445941,-2.135527,-1.0373076,-0.049620476,0.052758288,-0.11058443,-0.3877259,-0.34967417,0.060098786,-3.0772018,0.62341416,3.8013062e-05,-0.07692602,-0.011316402,-0.0012728979,0.0251894,-0.014013029,0.0014970759,0.4745689,-1.4124441,1.9410342,-2.0967543,-1.5721072,2.4487886,-0.039671578,0.16434413,-0.1999886,0.05961791,-0.016343988,-0.04101458,-0.2681506,0.36391866,-9.500193,0.8717007,47.70659,-1.1023307,-1.6770394,-3.5547757,-0.33887982,-0.15879661,-0.19347942,25.0625,25.5625,24.9375,27.125,27.5625,27.9375
0.17205343,-1.6585984,-1.852803,-1.177473,-0.04446486,0.0535285,-0.10383182,-0.38787806,-0.34971482,0.060109857,-3.0771685,0.6233109,5.3052103e-05,-0.077879705,-0.011612067,-0.002597867,0.025085147,-0.013650556,0.0010155631,0.47453272,-1.4121184,1.9406041,-2.0966241,-1.5721554,2.4486926,-0.039949812,0.16786242,-0.20024343,0.055982478,-0.016427541,-0.040809456,-0.24899697,0.3256114,-9.481039,0.80456203,47.66271,-1.0389388,-1.8342983,-3.6191363,-0.3131916,-0.17438836,-0.20031679,25.0625,25.5625,24.9375,27.125,27.5625,27.9375
0.17405389,-1.2828499,-1.4653373,-1.1366733,-0.042194266,0.052931793,-0.1114784,-0.3880124,-0.34974402,0.060080737,-3.077101,0.6232395,-1.6258022e-05,-0.07903822,-0.011873779,-0.0035881002,0.025622679,-0.013991448,-0.00012607843,0.4744847,-1.4117568,1.9402322,-2.0965292,-1.5721911,2.4486089,-0.04031372,0.17182212,-0.2022963,0.0546247,-0.016761154,-0.0400277,-0.21068975,0.30645782,-9.576807,0.8537928,47.66987,-1.0579393,-1.9127026,-3.5966177,-0.30223835,-0.17958388,-0.22804546,25.0625,25.5625,24.9375,27.125,27.5625,27.9375
0.17605332,-1.0048492,-1.4227717,-1.4005388,-0.04133625,0.05984931,-0.11878665,-0.38818577,-0.34975618,0.060069,-3.07703,0.62337905,-3.8187107e-05,-0.08152354,-0.011938199,-0.0037598037,0.025276152,-0.0104388185,-0.001077067,0.47436422,-1.4114074,1.9398373,-2.0964468,-1.5722159,2.4485848,-0.041574243,0.17461108,-0.20422956,0.050451785,-0.0180943,-0.040330958,-0.24899697,0.28730422,-9.5385,0.87393653,47.655537,-1.0515461,-1.9679198,-3.6946034,-0.26079202,-0.18446885,-0.24218711,25.0625,25.5625,24.9375,27.125,27.5625,27.9375
0.17805427,-0.9061293,-1.0209591,-1.0870181,-0.05239399,0.054424006,-0.12394866,-0.38835356,-0.34976637,0.060062528,-3.0769696,0.6233281,-2.5242907e-05,-0.08329199,-0.0128669655,-0.003481892,0.023354994,-0.007846362,-0.00020855584,0.4742681,-1.4110706,1.939442,-2.0963514,-1.572276,2.4484649,-0.041848153,0.17666367,-0.20664665,0.04762475,-0.017585928,-0.041472312,-0.11492168,0.2681506,-9.5385,0.8672237,47.690468,-1.0218204,-1.9946387,-3.7856064,-0.20613316,-0.16643927,-0.2509255,25.0625,25.5625,24.9375,27.125,27.5625,27.9375
0.1800535,-1.2335331,-1.686863,-1.1303525,-0.03410179,0.042966746,-0.11082987,-0.38853908,-0.34983265,0.060089987,-3.077009,0.6233736,3.495167e-05,-0.08582995,-0.013714369,-0.003815773,0.022693673,-0.0067624985,-0.00050214067,0.47420797,-1.4107323,1.9389728,-2.0962803,-1.5722636,2.4484284,-0.042691845,0.18185009,-0.21158226,0.046106003,-0.017506002,-0.04202039,-0.11492168,0.22984336,-9.615114,0.88960326,47.66091,-1.0475299,-2.0739086,-3.6512842,-0.17697346,-0.18748644,-0.2559374,25.0625,25.5625,24.9375,27.125,27.5625,27.9375
0.18205376,-1.5906296,-1.4281214,-1.0137651,-0.03442576,0.030729113,-0.100271605,-0.38869444,-0.34983626,0.06005895,-3.0769043,0.62335175,-2.6031788e-05,-0.087250866,-0.0138907395,-0.0028151083,0.022359869,-0.0052114245,-0.00087162206,0.47411165,-1.4103599,1.9385895,-2.096172,-1.5723237,2.448332,-0.043374576,0.18239886,-0.21482533,0.047264792,-0.01792761,-0.042329457,-0.17238252,0.24899697,-9.557653,0.9186956,47.678825,-0.99816734,-1.9346272,-3.5399792,-0.16127738,-0.20299853,-0.27167803,25.0625,25.5625,24.9375,27.125,27.5625,27.9375
0.18405382,-0.8279675,-1.269623,-1.2199756,-0.037022788,0.05026852,-0.1175676,-0.3888767,-0.34986714,0.060053144,-3.0768678,0.62332463,-4.920512e-05,-0.08873134,-0.014379176,-0.0019380737,0.021586567,-0.0033319606,-0.0010294762,0.4740156,-1.4099752,1.9381341,-2.0960643,-1.5723475,2.448224,-0.043714594,0.18334413,-0.21803933,0.047505986,-0.018107157,-0.042508956,-0.21068975,0.36391866,-9.519346,0.9231726,47.690468,-1.0549836,-2.0236623,-3.5190334,-0.15193912,-0.20390151,-0.3022253,25.0625,25.5625,24.9375,27.125,27.5625,27.9375
0.1860533,-1.0981668,-1.388967,-1.1155653,-0.04249765,0.046446897,-0.11013863,-0.3890647,-0.34989837,0.060066927,-3.0768301,0.62327826,-1.9640247e-05,-0.09073558,-0.014339008,-0.0018104202,0.020837558,-0.0012142162,-0.0020051298,0.47393093,-1.409614,1.9376558,-2.0959332,-1.5723962,2.4481156,-0.04537319,0.18523228,-0.22010809,0.04545682,-0.018419117,-0.043189265,-0.2681506,0.51714754,-9.481039,0.8291774,47.66539,-0.9046508,-2.0328078,-3.5596714,-0.09527934,-0.22859529,-0.32610995,25.0625,25.5625,24.9375,27.125,27.5625,27.9375
0.18805343,-1.266519,-1.6707561,-1.1210532,-0.06183392,0.05489081,-0.117979705,-0.3892439,-0.34993702,0.060078498,-3.0768178,0.6232746,4.2684973e-05,-0.091445625,-0.015142021,-0.0011970402,0.020230696,-0.0009111084,-0.0005926708,0.4738591,-1.4092773,1.9372243,-2.0958612,-1.5724319,2.4480433,-0.04483483,0.18644862,-0.2232933,0.046873234,-0.018022066,-0.044063605,-0.3256114,0.4405331,-9.615114,0.8918391,47.696735,-0.96814185,-1.9689903,-3.482357,-0.09040164,-0.23462492,-0.34923947,25.0625,25.5625,24.9375,27.125,27.5625,27.9375
0.19005333,-1.3976461,-1.9407128,-1.0693504,-0.07137325,0.064099945,-0.11742558,-0.3894456,-0.34996417,0.060072817,-3.0768056,0.62327117,7.668339e-05,-0.0916163,-0.0155774355,-0.00073976855,0.020945754,-0.0014758927,0.0007040034,0.47373948,-1.4088928,1.9367818,-2.0958126,-1.5724562,2.4479234,-0.043946758,0.18735167,-0.2260565,0.049559694,-0.018401867,-0.044470437,-0.34476504,0.4405331,-9.5385,0.8672237,47.66808,-1.0825846,-1.8858848,-3.4665027,-0.08849372,-0.25066286,-0.35274172,25.0625,25.5625,24.9375,27.125,27.5625,27.9375
0.19205326,-1.4403355,-1.9792652,-1.1606226,-0.072406776,0.06815867,-0.11210648,-0.3896485,-0.34999624,0.06009645,-3.0767667,0.6233028,0.00013300033,-0.09259354,-0.014521593,-0.0019311208,0.023014167,-0.003521883,-0.0014690902,0.47364268,-1.4085308,1.9362797,-2.0956805,-1.5725044,2.4478517,-0.046070274,0.19067918,-0.22742738,0.050366864,-0.019311085,-0.04441751,-0.34476504,0.4405331,-9.576807,0.87393653,47.661808,-0.98068273,-2.020612,-3.5174336,-0.08535108,-0.26482123,-0.36725742,25.0625,25.5625,24.9375,27.125,27.5625,27.9375
0.19405346,-1.4141314,-1.9135541,-1.0225723,-0.06251044,0.067431554,-0.11521812,-0.3898037,-0.35003158,0.060058016,-3.076689,0.623228,7.1891205e-05,-0.09361522,-0.014640844,-0.0020472314,0.022687636,-0.0044769095,-0.0025542981,0.4735945,-1.4081098,1.9358615,-2.095596,-1.5725521,2.447767,-0.047224246,0.19296725,-0.23013845,0.0514851,-0.01859286,-0.04448543,-0.28730422,0.36391866,-9.461885,0.8851263,47.705692,-1.0178373,-1.9811215,-3.5819016,-0.06115269,-0.25342435,-0.39476302,25.0625,25.5625,24.9375,27.125,27.5625,27.9375
0.19605374,-1.4517218,-1.955492,-0.9852179,-0.04016736,0.048426922,-0.11348848,-0.3899951,-0.35004592,0.060061894,-3.0766454,0.62331563,8.1003185e-05,-0.09514163,-0.014603809,-0.00045770514,0.021361254,-0.002168359,-0.003574009,0.47346193,-1.407762,1.9354285,-2.0954998,-1.5725764,2.447695,-0.048707344,0.19188055,-0.23282333,0.052592486,-0.018471375,-0.04494821,-0.19153613,0.28730422,-9.346964,0.8314132,47.679718,-0.90137553,-1.8645645,-3.3881574,-0.054234847,-0.27381414,-0.40831003,25.0625,25.5625,24.9375,27.125,27.5625,27.9375
0.19805375,-1.3954502,-0.84415406,-0.75977194,-0.038862646,0.04326908,-0.110595845,-0.39020512,-0.3501047,0.06006138,-3.076659,0.62322086,0.00012894967,-0.09531103,-0.015025396,-0.0005202353,0.02245887,-0.0018415925,-0.0012177598,0.47339043,-1.4073292,1.9349154,-2.0954401,-1.5726007,2.447563,-0.047367822,0.19319232,-0.23437697,0.05304374,-0.019601015,-0.045961313,-0.34476504,0.3256114,-9.3661175,0.93436235,47.67614,-0.9943038,-1.7804427,-3.4862208,-0.023826027,-0.27680513,-0.44504625,25.0625,25.5625,24.9375,27.125,27.5625,27.9375
0.20005392,-1.0759442,-0.6386404,-0.84199005,-0.010600792,0.03860369,-0.11065784,-0.39039055,-0.3501369,0.060057044,-3.0766008,0.6232647,9.007796e-05,-0.09641297,-0.015186498,-0.0007667792,0.021901298,-0.0028234117,-0.00061426393,0.47329405,-1.406932,1.9344357,-2.095308,-1.5726241,2.4475017,-0.04864567,0.19576344,-0.23701715,0.053722512,-0.018667642,-0.047843117,-0.15322891,0.28730422,-9.346964,0.90527004,47.652847,-1.0456307,-1.819118,-3.6005077,0.005941323,-0.29933074,-0.4595043,25.0625,25.5625,24.9375,27.125,27.5625,27.9375
0.20205396,-0.5015582,-0.035869505,-0.7990176,-0.02010382,0.044832494,-0.12484873,-0.39059535,-0.35015863,0.06004699,-3.0765274,0.62326884,9.914434e-05,-0.09787571,-0.01494901,-0.0013771671,0.022876283,-0.0042970655,-0.0006343065,0.4731854,-1.4065099,1.9339455,-2.0952003,-1.5726842,2.4474053,-0.050215352,0.1996724,-0.24053434,0.05507956,-0.018874083,-0.049389534,-0.19153613,0.24899697,-9.32781,0.8560339,47.66987,-0.87901473,-1.9689767,-3.5161662,0.004866492,-0.30632362,-0.4579313,25.0625,25.5625,24.9375,27.125,27.5625,27.9375
0.20405376,-0.37152842,-0.29991627,-0.603415,-0.019708173,0.04215025,-0.11774741,-0.3908124,-0.35020477,0.060074795,-3.0765262,0.6232663,0.0002158216,-0.09851083,-0.014514802,-0.0017762131,0.024596611,-0.0053588212,0.002247127,0.47310117,-1.4061369,1.933431,-2.095116,-1.5727328,2.44732,-0.050842445,0.20177643,-0.24248214,0.056644935,-0.019925904,-0.05289519,-0.19153613,0.17238252,-9.212888,0.8717007,47.66271,-0.8613217,-1.9521332,-3.5156078,0.025646608,-0.3375246,-0.4601667,25.0625,25.5625,24.9375,27.125,27.5625,27.9375
0.2060543,-0.8775686,-0.8577945,-0.7460598,-0.014858625,0.034108825,-0.10565553,-0.3910099,-0.35021794,0.060072728,-3.0764532,0.62328756,0.00017216224,-0.09842259,-0.014005803,-0.0015277719,0.026247056,-0.008269777,0.0045130868,0.47296903,-1.4057404,1.9329408,-2.0949585,-1.572769,2.4472108,-0.0515201,0.20250832,-0.24516734,0.06193131,-0.02007279,-0.05583675,-0.11492168,0.11492168,-9.232041,0.91421866,47.655537,-0.864606,-1.9027736,-3.5001776,-0.003126744,-0.34540325,-0.42127353,25.0625,25.5625,24.9375,27.125,27.5625,27.9375
0.20805408,-0.8038406,-0.89810854,-0.7059305,-0.009513611,0.038298048,-0.112979,-0.39121678,-0.35025227,0.060071606,-3.0764346,0.62318707,0.0002141793,-0.099290244,-0.013930359,-0.0020136582,0.027407944,-0.009553248,0.004799672,0.47287285,-1.4053309,1.9324497,-2.0948741,-1.5728167,2.4470546,-0.05210864,0.2055038,-0.24793202,0.063367106,-0.020527806,-0.05670908,-0.24899697,0.038307227,-9.193734,0.8851263,47.696735,-0.8580478,-1.890444,-3.535122,-0.006393175,-0.3262774,-0.42546433,25.0625,25.5625,24.9375,27.125,27.5625,27.9375
0.21005347,-0.9061627,-0.45636472,-0.688438,-0.003225444,0.031427484,-0.10689089,-0.39138967,-0.35026628,0.06002727,-3.0763316,0.6231633,9.647188e-05,-0.09964382,-0.013755575,-0.0022025565,0.02944593,-0.0121787,0.008386506,0.4727648,-1.4048856,1.9320072,-2.0947526,-1.5728534,2.4469452,-0.052296262,0.20806314,-0.2515228,0.067653805,-0.021160314,-0.0604778,-0.11492168,0.11492168,-9.212888,0.8851263,47.683304,-0.80764925,-2.0379224,-3.481205,-0.043758083,-0.33667523,-0.39440206,25.0625,25.5625,24.9375,27.125,27.5625,27.9375
0.21205352,-0.3410877,0.02094754,-0.31892884,-0.010766494,0.03888739,-0.12218195,-0.39162678,-0.35029793,0.060059164,-3.0763144,0.6231178,0.00019280086,-0.09896185,-0.0128637,-0.0021713846,0.031837083,-0.016884176,0.014120132,0.47264448,-1.4044894,1.9314445,-2.094618,-1.572913,2.446799,-0.053207316,0.20859309,-0.2538892,0.07474726,-0.021147849,-0.067123316,-0.114921674,0.095768064,-9.136273,0.9545008,47.689575,-0.8037462,-1.8824322,-3.5287304,-0.09551939,-0.35589913,-0.35175282,25.0625,25.5625,24.9375,27.125,27.5625,27.9375
0.2140534,-0.36704865,-0.060779095,-0.39908156,-0.0011450389,0.0258332,-0.11550241,-0.3917904,-0.35032737,0.060041398,-3.0762746,0.6230129,7.172881e-05,-0.09956855,-0.012715501,-0.0022477116,0.032135032,-0.01828053,0.0140555035,0.4725482,-1.4040927,1.9309896,-2.0944626,-1.5729126,2.4466426,-0.05420903,0.21020357,-0.25610894,0.0767301,-0.020788848,-0.06805871,-0.21068975,0.11492168,-9.097966,0.8784135,47.67614,-0.77854717,-1.9485793,-3.5816164,-0.159078,-0.36226487,-0.30310276,25.0625,25.5625,24.9375,27.125,27.5625,27.9375
0.21605416,-0.31146443,-0.3067411,-0.5969842,0.006163789,0.017429883,-0.11642272,-0.39200112,-0.35037,0.06003954,-3.0762103,0.62297904,5.418131e-05,-0.10044381,-0.012762878,-0.0028172422,0.033625364,-0.020513404,0.01601174,0.4724639,-1.4036347,1.930427,-2.0943058,-1.5729612,2.4465458,-0.05467297,0.21404758,-0.25996163,0.0793959,-0.021112485,-0.070474975,-0.15322891,0.17238252,-9.040505,0.87617236,47.668976,-0.7663443,-1.9702177,-3.5318422,-0.17240897,-0.3738491,-0.27957016,25.0625,25.5625,24.9375,27.125,27.5625,27.9375
0.21805333,-0.71998817,-0.88079536,-0.55456674,-0.008626999,0.014619956,-0.10636399,-0.3922126,-0.35037205,0.0600142,-3.0761,0.6229546,-4.970746e-05,-0.10106347,-0.01244444,-0.0024888883,0.035120234,-0.020868031,0.018503431,0.47230783,-1.403166,1.9299,-2.0941255,-1.5730094,2.446389,-0.05498226,0.21497916,-0.26245895,0.081948705,-0.022301117,-0.07326866,-0.15322891,0.24899697,-9.155427,0.8493211,47.647476,-0.75341654,-1.9771826,-3.4999852,-0.22314945,-0.38754377,-0.22262254,25.0625,25.5625,24.9375,27.125,27.5625,27.9375
0.22005337,-1.2121221,-1.6255119,-0.6604868,-0.024911223,0.026287789,-0.10691435,-0.39239,-0.35039312,0.060017984,-3.0760276,0.6228049,-9.90526e-05,-0.10185873,-0.0117174415,-0.0027191697,0.037098743,-0.021979338,0.018026887,0.47222334,-1.4027809,1.929398,-2.0939214,-1.5730695,2.4462206,-0.056128055,0.21683545,-0.26466662,0.084186554,-0.02356788,-0.07393076,-0.34476504,0.24899697,-9.136273,0.8672237,47.655537,-0.72383755,-2.0074067,-3.54556,-0.28173652,-0.3877216,-0.1875684,25.0625,25.5625,24.9375,27.125,27.5625,27.9375
0.22205345,-1.1221851,-1.8823514,-0.7032874,-0.04450625,0.058614444,-0.112976834,-0.3926008,-0.35042578,0.060010426,-3.0759635,0.6228109,-0.0002219321,-0.10245997,-0.011329018,-0.002203198,0.037073806,-0.021350274,0.01730512,0.4720911,-1.402312,1.9288243,-2.0937173,-1.5730699,2.4461007,-0.057123996,0.21632041,-0.26551637,0.08497709,-0.023844535,-0.07420162,-0.2873042,0.28730422,-9.11712,0.8918391,47.66987,-0.6811644,-1.9675901,-3.5359097,-0.3099444,-0.40991354,-0.15128289,25.0625,25.5625,24.9375,27.125,27.5625,27.9375
0.22405364,-1.2716441,-1.950364,-0.45855892,-0.06503592,0.08277665,-0.1203026,-0.3928176,-0.35044044,0.060004696,-3.0758727,0.62269557,-0.00020431283,-0.10440319,-0.012014748,-0.001633019,0.035634585,-0.01945748,0.016350904,0.47198296,-1.4018672,1.9282855,-2.0935624,-1.5731658,2.4459326,-0.057886265,0.2184358,-0.2691844,0.084178984,-0.023441039,-0.07400777,-0.22984336,0.24899697,-9.193734,0.8717007,47.67345,-0.6355432,-1.9670749,-3.524793,-0.3501544,-0.40828663,-0.12948568,25.0625,25.5625,24.9375,27.125,27.5625,27.9375
0.22605371,-2.0516818,-2.022825,-0.66983265,-0.04930598,0.066485986,-0.105289616,-0.3929877,-0.35045043,0.05995693,-3.075756,0.62261397,-0.00040383922,-0.106728464,-0.012813563,-0.0012127531,0.03407169,-0.01630519,0.014294391,0.4718627,-1.4013982,1.9278063,-2.0933716,-1.5731896,2.4457767,-0.058494885,0.22095017,-0.27256098,0.08152242,-0.023509309,-0.07255328,-0.28730422,0.2681506,-9.289502,0.8605109,47.664497,-0.61481607,-1.839677,-3.4540658,-0.35059437,-0.4068262,-0.12632811,25.0625,25.5625,24.9375,27.125,27.5625,27.9375
0.22805367,-1.2232167,-0.9391803,-0.68074185,-0.04946498,0.08313395,-0.113751605,-0.39320683,-0.35048097,0.05996235,-3.0757103,0.6225869,-0.0004134018,-0.10884121,-0.01342365,-0.0005086759,0.032742657,-0.011346517,0.011734569,0.47174272,-1.4009651,1.9272555,-2.093218,-1.5732263,2.445646,-0.05858803,0.22179428,-0.2743065,0.07740777,-0.024592543,-0.07008022,-0.3256114,0.22984336,-9.404425,0.9186956,47.690468,-0.6060696,-1.8157545,-3.554532,-0.31661755,-0.4048022,-0.1384682,25.0625,25.5625,24.9375,27.125,27.5625,27.9375
0.23005512,-1.5768881,-1.0373979,-0.8839353,-0.030043691,0.06976623,-0.11019559,-0.39341578,-0.35050187,0.05993296,-3.0756407,0.6225162,-0.0004571607,-0.11149522,-0.013953137,-0.00032673936,0.031582758,-0.006995219,0.0076281084,0.47162238,-1.4004961,1.9267529,-2.0931118,-1.5732745,2.4454908,-0.059386484,0.22441219,-0.27685493,0.07294103,-0.025552116,-0.06676462,-0.40222588,0.36391866,-9.385271,0.9701675,47.667187,-0.4660123,-1.7652023,-3.6633854,-0.28114927,-0.41646177,-0.15323925,25.0625,25.5625,24.9375,27.125,27.5625,27.9375
0.2320543,-1.6225039,-0.807727,-1.0995628,-0.044095665,0.059423827,-0.11618463,-0.39363158,-0.35053617,0.05993884,-3.0755672,0.62248254,-0.00046255696,-0.11170793,-0.015115514,-0.0019430958,0.032444384,-0.0063042874,0.0061072265,0.47152725,-1.4000502,1.9261802,-2.0929334,-1.573335,2.4453845,-0.056819092,0.22860447,-0.27722234,0.068900615,-0.02663893,-0.06266946,-0.3256114,0.30645782,-9.481039,0.842603,47.690468,-0.6797755,-1.8366452,-3.7107475,-0.22470711,-0.42178315,-0.18745239,25.0625,25.5625,24.9375,27.125,27.5625,27.9375
0.23405363,-1.877168,-1.7540793,-1.2772872,-0.043071102,0.05816068,-0.101362884,-0.39385945,-0.35056397,0.05991674,-3.0754948,0.62250644,-0.0005039442,-0.11390245,-0.0151968375,-0.0012859359,0.031835277,-0.0027110307,0.0043914453,0.4713949,-1.399557,1.9256295,-2.0928142,-1.5733718,2.4452767,-0.05788866,0.22974524,-0.27966234,0.066722,-0.027743364,-0.062015776,-0.34476504,0.3256114,-9.461885,0.9567419,47.689575,-0.61912906,-1.9644322,-3.6944454,-0.19394049,-0.40838563,-0.19368184,25.0625,25.5625,24.9375,27.125,27.5625,27.9375
0.23605339,-1.5030233,-1.5477061,-1.332664,-0.06827387,0.06336681,-0.11557954,-0.39410272,-0.35058007,0.059924245,-3.075414,0.62251025,-0.00048135765,-0.11673723,-0.015758382,-8.94453e-05,0.030447785,0.0013622844,-0.00030440427,0.4712506,-1.3991005,1.925043,-2.0926468,-1.5734433,2.4451456,-0.0589953,0.23146631,-0.28415975,0.065243095,-0.028365009,-0.05842069,-0.2681506,0.3256114,-9.653421,0.8672237,47.684196,-0.6223072,-1.9538484,-3.666878,-0.14392048,-0.41246516,-0.23440278,25.0625,25.5625,24.9375,27.125,27.5625,27.9375
0.23805346,-1.21887,-2.074286,-1.4694855,-0.05827872,0.06113699,-0.105909616,-0.39431903,-0.35060954,0.05989476,-3.0753145,0.622451,-0.00051622506,-0.118273295,-0.015953973,-0.00035044752,0.031773333,0.0026745351,-0.00081246096,0.47115472,-1.3985946,1.9244913,-2.0925157,-1.5735162,2.445026,-0.058849107,0.23463982,-0.2872129,0.06455673,-0.030154485,-0.05775485,-0.19153613,0.34476504,-9.615114,0.90750587,47.647476,-0.5579775,-1.9788525,-3.5506892,-0.12100311,-0.40041918,-0.28228778,25.0625,25.5625,24.9375,27.125,27.5625,27.9375
0.2400535,-1.3986181,-1.9347317,-1.377684,-0.058650687,0.048033904,-0.107970744,-0.39454073,-0.35063964,0.05988887,-3.075245,0.62243307,-0.0005070456,-0.11836053,-0.01685409,-0.0004172784,0.033269174,0.0030160334,0.0032923473,0.47104764,-1.398137,1.9239415,-2.0923836,-1.5735773,2.444917,-0.056363057,0.23668736,-0.28973314,0.06539811,-0.031653985,-0.059365004,-0.21068975,0.38307226,-9.710882,0.98135734,47.672558,-0.7791916,-2.140671,-3.7011049,-0.07975529,-0.35274082,-0.28213656,25.0625,25.5625,24.9375,27.125,27.5625,27.9375
0.2420534,-1.1823654,-1.8071855,-1.4444567,-0.06445425,0.044333633,-0.107561596,-0.39479473,-0.35067025,0.059885684,-3.0751698,0.62239707,-0.00045826746,-0.12065392,-0.01703618,-5.888202e-05,0.03403058,0.0038075086,0.004705483,0.4709272,-1.397632,1.9233302,-2.0922515,-1.5736612,2.4447842,-0.057372943,0.24031472,-0.2952273,0.06689298,-0.03270981,-0.06178021,-0.17238252,0.40222588,-9.653421,0.9455522,47.661808,-0.7330198,-2.1922793,-3.6053815,-0.089592256,-0.34318757,-0.24551594,25.0625,25.5625,24.9375,27.125,27.5625,27.9375
0.24405332,-0.8633836,-1.8978995,-1.7641052,-0.044100992,0.04152364,-0.10316841,-0.3950348,-0.35068855,0.05987056,-3.0750935,0.6224218,-0.00044683358,-0.12278307,-0.017545957,0.0007817636,0.033401847,0.0071828533,0.0016203846,0.47078308,-1.397151,1.9227794,-2.0921443,-1.5737218,2.4446657,-0.057709076,0.24184467,-0.2987426,0.06558873,-0.033687558,-0.059024084,0.05746084,0.5363012,-9.634268,0.8403672,47.67166,-0.71408474,-2.1658585,-3.3982477,-0.042912453,-0.33474183,-0.29658845,25.0625,25.5625,24.9375,27.125,27.5625,27.9375
0.2460537,-1.0566384,-2.0594552,-1.7739146,-0.041302618,0.021572454,-0.10519722,-0.39530185,-0.35072878,0.059907414,-3.075067,0.6223557,-0.00028586737,-0.12257443,-0.017746154,-2.69498e-05,0.03515863,0.005395558,0.00365848,0.47067556,-1.3967055,1.9221457,-2.0920122,-1.5738176,2.4445207,-0.05664592,0.24432594,-0.30019164,0.066936694,-0.034443144,-0.05999712,-0.038307227,0.49799395,-9.787497,0.8403672,47.666286,-0.84017456,-2.1393356,-3.5858898,1.0480639e-05,-0.31848663,-0.30126792,25.0625,25.5625,24.9375,27.125,27.5625,27.9375
0.24805422,-0.9292354,-2.423467,-1.6529506,-0.061598793,0.036426034,-0.108483285,-0.3955496,-0.35075533,0.05989447,-3.0749915,0.62234026,-0.00032031554,-0.12198847,-0.01719422,-0.00042726283,0.036870144,0.0017898036,0.0038569656,0.4705313,-1.3961886,1.9215363,-2.0918548,-1.5738658,2.444377,-0.057097502,0.24530496,-0.30151263,0.07125834,-0.034334164,-0.060645565,-0.11492168,0.49799395,-9.749189,0.80456203,47.660015,-0.80912423,-2.1500793,-3.665102,-0.038016427,-0.29658636,-0.32552648,25.0625,25.5625,24.9375,27.125,27.5625,27.9375
0.25005418,-0.67690223,-2.2679853,-1.6517348,-0.07030188,0.03459754,-0.111236736,-0.3957658,-0.35080063,0.05986176,-3.0748994,0.6223391,-0.00038192817,-0.12209911,-0.017437106,-0.0013124151,0.03713766,0.0009965071,0.0035325333,0.47044754,-1.3956592,1.9209632,-2.0917242,-1.5739135,2.4443047,-0.05680512,0.2473968,-0.30184713,0.07032533,-0.034220744,-0.060025938,-0.076614454,0.53630114,-9.710882,0.9791215,47.677036,-0.87466395,-2.1034567,-3.826999,0.010796369,-0.3013319,-0.3310968,25.0625,25.5625,24.9375,27.125,27.5625,27.9375
0.25205326,-0.525746,-2.2623234,-1.4494753,-0.073513605,0.041372195,-0.10967231,-0.39602357,-0.35083523,0.059869744,-3.0748324,0.62228703,-0.00029122454,-0.12293715,-0.017032035,0.00048596726,0.037630282,0.0037495345,0.0030445124,0.4703394,-1.3951677,1.9203409,-2.0915916,-1.5740103,2.444173,-0.057134166,0.24494565,-0.30364817,0.07234406,-0.035908155,-0.05985966,-0.019153614,0.47884032,-9.730036,0.9567419,47.678825,-0.900604,-2.0299253,-3.7873635,0.0062463917,-0.26120272,-0.3641203,25.0625,25.5625,24.9375,27.125,27.5625,27.9375
0.2540533,-0.7161299,-1.9793334,-1.5250705,-0.060092572,0.03542663,-0.11410528,-0.396265,-0.35087478,0.05985747,-3.0747824,0.62221676,-0.00026789086,-0.124304734,-0.01720967,0.0011537456,0.038389303,0.0034844577,0.0041343574,0.4702312,-1.3946625,1.9197539,-2.0914824,-1.5740703,2.444028,-0.057634223,0.24708083,-0.30852938,0.07565962,-0.03647539,-0.06144434,0.095768064,0.38307226,-9.710882,0.9298854,47.696735,-0.8755968,-1.897554,-3.8112936,0.0045228507,-0.24391377,-0.36705744,25.0625,25.5625,24.9375,27.125,27.5625,27.9375
0.25605416,0.22241226,-0.72702986,-1.2869793,-0.04596925,0.04656391,-0.12484982,-0.39651614,-0.35091493,0.05987003,-3.0747113,0.62220126,-0.00023291753,-0.12473193,-0.017231312,0.00067194947,0.039580423,0.0006667362,0.0053719035,0.4701231,-1.3941692,1.9191078,-2.0913022,-1.5741423,2.4439197,-0.058058348,0.25014755,-0.31187522,0.078975596,-0.0362686,-0.063104704,0.076614454,0.30645782,-9.672575,0.88960326,47.67614,-0.89212334,-1.8001595,-3.6772194,-0.0075708423,-0.21730468,-0.37400812,25.0625,25.5625,24.9375,27.125,27.5625,27.9375
0.25805345,-0.19847624,-0.67779046,-1.6109465,-0.007973485,0.0175539,-0.10193313,-0.3968016,-0.35096318,0.059898518,-3.0747151,0.62212294,-0.00011022976,-0.124806695,-0.017080162,0.0005354216,0.040847678,-0.0022408187,0.007689534,0.46999085,-1.393676,1.9184383,-2.09118,-1.574202,2.4437385,-0.058444656,0.25200757,-0.31480306,0.08319099,-0.036084972,-0.06581068,-0.019153614,0.2873042,-9.557653,0.900793,47.63852,-0.8594222,-1.9774163,-3.6877205,-0.021822944,-0.20452043,-0.37436906,25.0625,25.5625,24.9375,27.125,27.5625,27.9375
0.26005363,0.1822865,-0.054923583,-1.304099,-0.015786003,0.01987177,-0.118879884,-0.3970558,-0.35096407,0.059885878,-3.0745811,0.62213105,-9.698301e-05,-0.1257331,-0.017593903,0.0011870691,0.041249383,-0.0036533414,0.010440349,0.46983504,-1.3931707,1.917838,-2.0910113,-1.5743102,2.4436054,-0.05848351,0.25427428,-0.3200511,0.087589964,-0.03582117,-0.06859712,0.019153614,0.19153613,-9.576807,0.8940802,47.666286,-0.86816275,-1.909101,-3.52804,-0.064925194,-0.20153695,-0.33945844,25.0625,25.5625,24.9375,27.125,27.5625,27.9375
0.26205337,-0.2734282,-0.47962955,-1.4099445,-0.007839935,0.005658532,-0.10407536,-0.39729127,-0.35104987,0.05988866,-3.0745866,0.6219761,-0.00015048147,-0.12559183,-0.017167337,-8.695516e-05,0.044281695,-0.009932643,0.013204517,0.4697748,-1.3926286,1.9171556,-2.0908291,-1.5743102,2.443448,-0.059142366,0.25898492,-0.3242375,0.09402249,-0.03569114,-0.07201782,0.11492168,0.11492168,-9.500193,0.8806493,47.639416,-0.95996666,-2.076312,-3.4008348,-0.14830697,-0.18673263,-0.32116163,25.0625,25.5625,24.9375,27.125,27.5625,27.9375
0.26405334,0.09353426,-0.33054757,-1.409639,-0.0064468794,0.004788784,-0.108511515,-0.3975674,-0.35105076,0.05990077,-3.0744476,0.62196505,-3.3431195e-05,-0.12670715,-0.016544936,-0.00026615016,0.045306224,-0.011121038,0.015047286,0.4696302,-1.3921356,1.9165105,-2.0906494,-1.5744666,2.443315,-0.06090171,0.26109695,-0.3268687,0.09603659,-0.036085073,-0.07561629,0.05746084,0.095768064,-9.595961,0.93436235,47.67166,-0.780692,-2.1177738,-3.5104966,-0.15499437,-0.15797079,-0.27078223,25.0625,25.5625,24.9375,27.125,27.5625,27.9375
0.26605353,-0.56985676,-0.8318338,-1.1329055,-0.017600177,0.012386388,-0.10416802,-0.39779943,-0.3510991,0.059908584,-3.0743978,0.6219127,-9.342944e-05,-0.12320344,-0.016519727,-0.002184083,0.049785722,-0.019706052,0.021266373,0.4695233,-1.3916426,1.9158658,-2.0904315,-1.5744904,2.4431822,-0.057727247,0.26319927,-0.32674843,0.103480056,-0.036195617,-0.078659,-0.05746084,0.15322891,-9.557653,0.94331104,47.689575,-0.980358,-2.0878274,-3.5595255,-0.25551534,-0.13418134,-0.22947815,25.0625,25.5625,24.9375,27.125,27.5625,27.9375
0.26805362,-0.8138712,-1.4003505,-1.1202453,-0.029419525,0.025669461,-0.10457496,-0.3980546,-0.35113844,0.059925247,-3.0743487,0.6217642,-0.00010041834,-0.12376772,-0.016514696,-0.0021881373,0.049363922,-0.019971278,0.025143405,0.46940306,-1.3911374,1.9151844,-2.090204,-1.57455,2.442976,-0.058479108,0.2640606,-0.32795006,0.103837535,-0.035724726,-0.08328795,-0.038307227,0.11492168,-9.423578,0.9186956,47.674347,-1.0314717,-2.116646,-3.6772752,-0.29184917,-0.1343523,-0.16919675,25.0625,25.5625,24.9375,27.125,27.5625,27.9375
0.27005354,-0.81521356,-1.5375861,-1.0133282,-0.048976604,0.036725324,-0.105827145,-0.39832833,-0.35117632,0.059936207,-3.0742662,0.6217091,-1.3936575e-05,-0.12579818,-0.016368384,-0.0007131348,0.047231935,-0.01740661,0.0226564,0.46929425,-1.3906093,1.9145025,-2.0900366,-1.5746578,2.442844,-0.060933426,0.26336923,-0.3306636,0.10397558,-0.034994125,-0.08325743,0.0,0.17238252,-9.404425,0.9365982,47.67614,-1.0326439,-1.9859073,-3.773079,-0.32752854,-0.118428744,-0.1520344,25.0625,25.5625,24.9375,27.125,27.5625,27.9375
0.27205357,-1.1703091,-1.9659516,-0.7811571,-0.054193653,0.035668157,-0.100569546,-0.39857775,-0.35120603,0.059933867,-3.0741963,0.62159634,-4.707252e-05,-0.12757757,-0.018359449,-0.00026188034,0.04412083,-0.013787659,0.026590727,0.4691626,-1.3900919,1.9138554,-2.0898345,-1.5747174,2.4426513,-0.05969773,0.26582137,-0.33380398,0.1000049,-0.03389119,-0.085956834,-0.076614454,0.19153613,-9.32781,0.900793,47.67614,-0.92964137,-1.931879,-3.5218258,-0.30022028,-0.10678537,-0.10917746,25.0625,25.5625,24.9375,27.125,27.5625,27.9375
0.27405444,-1.163972,-1.8590909,-1.0182714,-0.02971446,0.030811021,-0.09572594,-0.39883354,-0.35125795,0.059948333,-3.0741518,0.6214142,3.0298593e-06,-0.13020226,-0.0205942,0.0019660115,0.03975157,-0.006035984,0.02564358,0.4690792,-1.3895756,1.913174,-2.0896451,-1.5748013,2.4424603,-0.058335688,0.26550534,-0.33755538,0.09518102,-0.033514798,-0.08364674,-0.076614454,0.21068975,-9.308656,0.9030289,47.651955,-1.1525109,-1.8246279,-3.6130314,-0.26933724,-0.10677785,-0.08056341,25.0625,25.5625,24.9375,27.125,27.5625,27.9375
0.2760535,-1.1537728,-1.3823389,-1.0249392,-0.030052306,0.034275588,-0.10774023,-0.3990853,-0.35130656,0.059954464,-3.0740871,0.6213634,-2.6423217e-05,-0.1338684,-0.022224886,0.003871292,0.03433997,0.0008420757,0.022726594,0.46897054,-1.3890467,1.9124907,-2.089431,-1.5748485,2.4423287,-0.059762154,0.2663842,-0.3419192,0.090077214,-0.031820145,-0.082160026,-0.095768064,0.22984336,-9.308657,0.8918391,47.64479,-1.1082797,-1.7079451,-3.5473447,-0.20445484,-0.11915145,-0.07593909,25.0625,25.5625,24.9375,27.125,27.5625,27.9375
0.27805394,-0.75689363,-1.1440328,-1.2112424,-0.02931274,0.037211902,-0.10688313,-0.39935794,-0.3513495,0.05994651,-3.074039,0.6213157,-5.4009255e-05,-0.13668051,-0.023538684,0.0056624557,0.02976715,0.006772791,0.01939211,0.4688263,-1.3884822,1.9118084,-2.0892646,-1.5748838,2.4421613,-0.060774993,0.26627553,-0.34510702,0.08601414,-0.030435216,-0.07984204,-0.21068975,0.3256114,-9.346964,0.96569055,47.682407,-1.0907493,-1.6227597,-3.4405653,-0.15367918,-0.12789086,-0.0815335,25.0625,25.5625,24.9375,27.125,27.5625,27.9375
0.28005418,-0.7948999,-1.3957359,-1.2574085,-0.043491624,0.04960805,-0.108869806,-0.39962038,-0.35140345,0.059975952,-3.0740192,0.62121594,-1.350327e-05,-0.13717763,-0.024003804,0.0049353614,0.029244041,0.006758873,0.016834516,0.46871832,-1.387989,1.911116,-2.089062,-1.574932,2.441994,-0.06065245,0.2684836,-0.34576455,0.084242396,-0.029959891,-0.07716352,-0.4213795,0.40222588,-9.461885,0.9186956,47.658226,-1.0657228,-1.4899652,-3.539674,-0.09952626,-0.14649378,-0.0994176,25.0625,25.5625,24.9375,27.125,27.5625,27.9375
0.2820534,-1.469256,-2.0046022,-1.3711417,-0.05978895,0.068635024,-0.10644965,-0.39991087,-0.35145408,0.059978474,-3.0739508,0.62116486,7.279401e-05,-0.13746347,-0.024176009,0.0026274226,0.030729894,0.0029113002,0.01392571,0.46861026,-1.3874109,1.9103984,-2.088918,-1.5750283,2.4418633,-0.060812533,0.27438042,-0.34758404,0.08426891,-0.029543608,-0.074415304,-0.36391866,0.49799395,-9.519346,1.0037369,47.699425,-1.1233978,-1.6854166,-3.6945684,-0.069382235,-0.12769881,-0.12897608,25.0625,25.5625,24.9375,27.125,27.5625,27.9375
0.28405377,-1.7292353,-2.5014656,-1.2389259,-0.084419854,0.092728145,-0.11795521,-0.40017673,-0.35149395,0.059991065,-3.0738862,0.62111294,0.00010517586,-0.13808878,-0.02413677,0.0021957022,0.031132843,0.0012940096,0.010782177,0.46849015,-1.3868927,1.909717,-2.0887258,-1.5751003,2.4417195,-0.061607223,0.27677494,-0.3498929,0.08580854,-0.029169876,-0.07206655,-0.4405331,0.4405331,-9.519346,0.92093146,47.690468,-1.1563432,-1.8660722,-3.6172295,-0.069219165,-0.14397123,-0.16382109,25.0625,25.5625,24.9375,27.125,27.5625,27.9375
0.28605396,-2.5662363,-3.0881436,-1.3429872,-0.08387529,0.09285511,-0.09809691,-0.40042362,-0.35153913,0.059975125,-3.0738251,0.62110174,6.885265e-06,-0.13811533,-0.024097927,0.0018277342,0.031290628,-0.000275976,0.008150085,0.46835795,-1.3863401,1.9090599,-2.088534,-1.5751117,2.4415886,-0.06199443,0.2779564,-0.35087448,0.087084174,-0.028601335,-0.06982181,-0.5554548,0.4405331,-9.634268,0.90750587,47.694054,-1.119667,-1.8771726,-3.7259665,-0.072043404,-0.14690423,-0.19077978,25.0625,25.5625,24.9375,27.125,27.5625,27.9375
0.288054,-2.3297465,-2.8659503,-1.2344192,-0.075810954,0.09380834,-0.0983792,-0.40073738,-0.35158485,0.06000382,-3.073782,0.62109345,0.00012758063,-0.13905482,-0.023963934,0.0013028865,0.03138888,-0.0010295882,0.00530157,0.4682136,-1.3857871,1.908306,-2.0883667,-1.5751957,2.441445,-0.06314054,0.2803519,-0.35266197,0.087189965,-0.028346453,-0.06812082,-0.51714754,0.49799395,-9.595961,0.9791215,47.701214,-1.1167287,-1.7253602,-3.8386874,-0.04264327,-0.16960081,-0.2422361,25.0625,25.5625,24.9375,27.125,27.5625,27.9375
0.29005408,-1.9492979,-2.3920853,-1.165259,-0.059193876,0.08309587,-0.10548944,-0.4010327,-0.35166138,0.060020495,-3.073782,0.6211125,0.00016102611,-0.14039168,-0.024332598,0.0019012432,0.031068755,-0.0008057307,0.0036660475,0.4680935,-1.3852097,1.9075526,-2.0882103,-1.5752076,2.4413373,-0.06372802,0.28214362,-0.35671896,0.089111075,-0.02816307,-0.067072794,-0.4213795,0.4213795,-9.557653,0.9164598,47.694946,-1.0978626,-1.7200016,-3.7700305,-0.028759968,-0.16998774,-0.25878304,25.0625,25.5625,24.9375,27.125,27.5625,27.9375
0.2920534,-1.3709373,-1.9044024,-1.1072994,-0.030148135,0.053117078,-0.106557526,-0.40133005,-0.3517109,0.060012937,-3.073713,0.6210219,0.00025958687,-0.14218979,-0.024871426,0.002180586,0.030401058,0.00016254174,0.0019800314,0.46798524,-1.3846079,1.906834,-2.0880902,-1.5753154,2.441182,-0.06441043,0.28487867,-0.36076877,0.089254476,-0.028010845,-0.06606811,-0.38307226,0.3256114,-9.5385,0.9298854,47.678825,-1.1358771,-1.7714361,-3.659124,0.007027017,-0.1753734,-0.29590592,25.0625,25.5625,24.9375,27.125,27.5625,27.9375
0.2940535,-0.21087725,-0.9308508,-1.0590491,-0.00852144,0.038751833,-0.110973865,-0.40159798,-0.3517556,0.060018774,-3.0736628,0.6209136,0.00026727628,-0.14341827,-0.024768267,0.0021616633,0.031237222,-0.0009743759,0.0030523038,0.46786478,-1.3840669,1.9061397,-2.0878975,-1.5753754,2.4410007,-0.0654484,0.28764024,-0.36469194,0.091791764,-0.028258687,-0.06817462,-0.34476504,0.28730422,-9.346964,1.0104496,47.684196,-1.0734321,-1.7835863,-3.5930629,0.011824115,-0.17099494,-0.31393182,25.0625,25.5625,24.9375,27.125,27.5625,27.9375
0.29605365,-0.23321341,-0.6273169,-1.275125,0.0069522336,0.015099043,-0.10247173,-0.40190518,-0.35179272,0.060033657,-3.0735805,0.6210709,0.0003166963,-0.14198646,-0.02414975,0.002002668,0.034013413,-0.0060408525,0.0006029393,0.46769702,-1.383502,1.9053987,-2.0877159,-1.5754355,2.4409423,-0.06507307,0.28790414,-0.36641407,0.099029444,-0.028432596,-0.06534926,-0.40222588,0.22984336,-9.270349,0.9410752,47.645687,-1.1084526,-1.8011131,-3.654129,-0.062236812,-0.17922397,-0.35268337,25.0625,25.5625,24.9375,27.125,27.5625,27.9375
0.29805368,-0.29151276,-0.13182339,-1.118592,-0.009845397,0.008899478,-0.103784405,-0.40220433,-0.3518614,0.06005928,-3.0735877,0.6209585,0.00037358105,-0.14271219,-0.022502802,0.00074298424,0.037025597,-0.01148232,-0.0031921868,0.46757582,-1.3829366,1.9046324,-2.0875347,-1.5754718,2.4407504,-0.06833384,0.29189587,-0.36962,0.1044565,-0.02866263,-0.064813286,-0.2681506,0.22984336,-9.251195,0.9835985,47.67614,-0.95121515,-1.6690574,-3.6281207,-0.090071425,-0.18116437,-0.39519888,25.0625,25.5625,24.9375,27.125,27.5625,27.9375
0.30005378,-0.3179273,-0.5568832,-0.66334236,-0.025601272,0.028984796,-0.11232281,-0.40250844,-0.35191545,0.06006745,-3.0734942,0.6210317,0.0003370294,-0.14216134,-0.023146544,0.0014846004,0.038411982,-0.013946557,0.0008872253,0.46743244,-1.3823112,1.9038185,-2.0872805,-1.5755194,2.4406652,-0.0665848,0.29263514,-0.37373823,0.110642314,-0.028800877,-0.06714038,-0.15322891,0.057460837,-9.251195,0.97240865,47.68599,-1.0146174,-1.7684362,-3.5533218,-0.16883892,-0.18338974,-0.4287973,25.0625,25.5625,24.9375,27.125,27.5625,27.9375
0.30205378,-1.1780193,-1.1730745,-0.7187716,-0.009728174,0.025227906,-0.0981825,-0.4027855,-0.3519463,0.06005537,-3.0733788,0.62104535,0.0002957728,-0.14217995,-0.02261668,0.0012160247,0.039090585,-0.016724976,-0.00044084672,0.4672881,-1.3817225,1.9031023,-2.0870645,-1.5755914,2.4405448,-0.06784401,0.2937043,-0.37527627,0.11388663,-0.028160984,-0.06707216,-0.19153614,0.05746084,-9.193734,0.9164598,47.667187,-1.0113138,-1.762126,-3.563374,-0.21373963,-0.17540804,-0.441174,25.0625,25.5625,24.9375,27.125,27.5625,27.9375
0.3040536,-1.1467717,-1.0526323,-0.62857735,-0.0041221417,0.04602602,-0.09778167,-0.4030684,-0.35199502,0.060034886,-3.0732975,0.6209525,0.00021814137,-0.143559,-0.02092662,0.0015672048,0.040047403,-0.01806618,-0.0027128449,0.46715462,-1.3810856,1.9023479,-2.086848,-1.5756396,2.4403644,-0.07171892,0.29407015,-0.37744668,0.11730585,-0.028425043,-0.06867076,-0.24899697,0.0,-9.021352,0.9612189,47.667187,-0.91990894,-1.4684832,-3.5923586,-0.25374246,-0.21527338,-0.46581832,25.0625,25.5625,24.9375,27.125,27.5625,27.9375
0.30605382,-1.4814312,-0.37689418,-0.60286665,0.003925108,0.041801587,-0.10657279,-0.40334326,-0.35201564,0.060034394,-3.0731788,0.62096226,0.00013825035,-0.14552443,-0.022578362,0.0010790973,0.039268058,-0.015091386,0.0026336783,0.46698746,-1.3805195,1.9016184,-2.0865743,-1.5756997,2.4402192,-0.070089996,0.29875514,-0.38111097,0.113253266,-0.029113417,-0.07237935,-0.15322891,-0.05746084,-9.002198,0.88289046,47.689575,-0.79519427,-1.6960862,-3.5382767,-0.2594114,-0.21796349,-0.46775502,25.0625,25.5625,24.9375,27.125,27.5625,27.9375
0.30805406,-0.91160303,-0.1654191,-0.5656552,0.001068403,0.051551584,-0.116259865,-0.40365776,-0.3520835,0.06005818,-3.0731573,0.6209361,0.00023365379,-0.14702222,-0.022863233,0.0007885497,0.038743757,-0.014434823,0.0056038527,0.4668671,-1.3799301,1.9008297,-2.086407,-1.5757598,2.4400856,-0.07092747,0.30151525,-0.38362998,0.112162374,-0.028964724,-0.07618758,-0.076614454,-0.095768064,-9.059659,0.93436235,47.677036,-0.921106,-1.8356745,-3.510836,-0.25871298,-0.20970204,-0.43220025,25.0625,25.5625,24.9375,27.125,27.5625,27.9375
0.31005386,-0.70447946,-0.08656587,-0.17278104,-0.014063957,0.06129974,-0.12224106,-0.40392295,-0.35212347,0.060032334,-3.0730596,0.6208565,0.00012835737,-0.15059438,-0.023092551,0.0010280533,0.035904493,-0.009350119,0.007429864,0.46673417,-1.3793166,1.900112,-2.0861819,-1.5758075,2.4399161,-0.07369857,0.3041063,-0.38606542,0.1061568,-0.028767789,-0.08078076,-0.34476504,-0.019153614,-9.040505,0.8672237,47.677036,-0.77139056,-1.8958292,-3.5490694,-0.18884255,-0.22614726,-0.4072891,25.0625,25.5625,24.9375,27.125,27.5625,27.9375
0.31205377,-1.0167714,-0.81430256,-0.868747,0.0055397386,0.043819066,-0.10318776,-0.4042191,-0.35217056,0.06004106,-3.0729976,0.62076384,0.00014850452,-0.15275502,-0.023784216,0.0008847039,0.034344003,-0.0064434274,0.011755976,0.46660185,-1.3787271,1.8993462,-2.0859673,-1.5758795,2.4397345,-0.07434602,0.30697262,-0.38843694,0.10232866,-0.02872188,-0.08575218,-0.19153613,0.11492168,-9.059659,0.9835985,47.696735,-0.6763598,-1.9173906,-3.646676,-0.11308858,-0.24362226,-0.36972815,25.0625,25.5625,24.9375,27.125,27.5625,27.9375
0.31405368,-1.2802509,-1.2996011,-0.70124584,-0.017080812,0.04718046,-0.10767463,-0.40452626,-0.35222048,0.060039453,-3.0729375,0.6206329,0.00012792203,-0.1553023,-0.024310756,0.0024238925,0.032614727,-0.0012817885,0.015541883,0.46645772,-1.3780905,1.8985451,-2.0857408,-1.57594,2.4395168,-0.07506721,0.30711052,-0.3917899,0.10012612,-0.029537678,-0.09025196,-0.17238252,0.21068975,-9.212888,1.0238806,47.67614,-0.7145505,-1.856261,-3.4989,-0.08638253,-0.25804788,-0.31687477,25.0625,25.5625,24.9375,27.125,27.5625,27.9375
0.31605387,-1.5164889,-1.89799,-0.53676695,-0.05336051,0.063430294,-0.10089586,-0.40484333,-0.35226145,0.060043205,-3.072869,0.62065387,0.00015136976,-0.15586898,-0.024210576,0.001982299,0.033998184,-0.0011140765,0.019869966,0.46628985,-1.3774775,1.8977674,-2.0855496,-1.5760006,2.4393713,-0.07481096,0.30895138,-0.39311597,0.10005668,-0.030873474,-0.09431531,-0.4596867,0.30645782,-9.059659,0.9455522,47.66271,-0.72092617,-1.6572515,-3.501659,-0.04354114,-0.2483042,-0.2643623,25.0625,25.5625,24.9375,27.125,27.5625,27.9375
0.31805402,-2.3745003,-2.5904272,-0.7288161,-0.06839458,0.067925826,-0.10071961,-0.4051249,-0.3523167,0.060020376,-3.072784,0.62049943,4.1388652e-05,-0.15668297,-0.024197336,0.0023103312,0.03448899,-0.0012623871,0.022212807,0.46616971,-1.3768157,1.8969783,-2.0852973,-1.5760487,2.4391663,-0.07522032,0.3101335,-0.39588076,0.1019712,-0.031272106,-0.09706085,-0.63206923,0.45968673,-9.040505,1.0171678,47.704796,-0.67723787,-1.7317625,-3.6402898,-0.04423053,-0.25328165,-0.19742277,25.0625,25.5625,24.9375,27.125,27.5625,27.9375
0.32005402,-2.3168612,-2.928577,-0.83672124,-0.0679519,0.07832506,-0.09826218,-0.40544656,-0.3523442,0.060020372,-3.072697,0.62044245,5.619953e-05,-0.1570104,-0.0244187,0.002891686,0.034296826,-0.0013498021,0.022215793,0.46598968,-1.3761915,1.8961896,-2.0850813,-1.5761327,2.4389625,-0.07515953,0.31023854,-0.39793992,0.103903174,-0.031068949,-0.09700241,-0.5363012,0.4213795,-9.2703495,0.95226496,47.67793,-0.7618388,-1.612525,-3.7672114,-0.041978538,-0.2709462,-0.18719754,25.0625,25.5625,24.9375,27.125,27.5625,27.9375
0.32205418,-2.3675082,-3.100617,-1.0047147,-0.057120025,0.07386215,-0.091147855,-0.40576777,-0.3524096,0.060015813,-3.072666,0.6203765,5.6334433e-05,-0.15820874,-0.024748841,0.003042986,0.034244616,-0.00017523493,0.023872744,0.46584544,-1.3755304,1.8953751,-2.084902,-1.5761689,2.4387815,-0.075237595,0.31198758,-0.4004812,0.10360721,-0.031568497,-0.09873294,-0.68953013,0.51714754,-9.193734,0.98135734,47.682407,-0.7271582,-1.5648804,-3.690432,-0.023431638,-0.26634362,-0.12858175,25.0625,25.5625,24.9375,27.125,27.5625,27.9375
0.32405335,-1.7885913,-2.4053745,-0.98851556,-0.060234226,0.06976489,-0.10433913,-0.4060912,-0.35247067,0.060029086,-3.0726159,0.62029105,0.00010123653,-0.15766396,-0.025214043,0.0011650494,0.035179537,-0.0037361362,0.019730601,0.46571398,-1.3748925,1.8945392,-2.0846865,-1.5762404,2.4386036,-0.0743761,0.3160096,-0.40124092,0.10396031,-0.030788142,-0.09373267,-0.63206923,0.51714754,-9.174581,1.0283576,47.704796,-0.9238298,-1.6123859,-3.887619,-0.0051665786,-0.29227808,-0.15214765,25.0625,25.5625,24.9375,27.125,27.5625,27.9375
0.32605353,-1.4470698,-1.9780251,-1.107131,-0.050222643,0.053847164,-0.08822102,-0.4064287,-0.3525169,0.060018074,-3.0725706,0.6202256,0.0001627969,-0.15955275,-0.025174601,0.0015837746,0.034440085,-0.0045132176,0.016260074,0.46554515,-1.3742307,1.8937486,-2.084554,-1.576312,2.4384003,-0.07661217,0.3186201,-0.4060715,0.10653449,-0.02978145,-0.09250225,-0.40222588,0.40222588,-9.270349,0.89631605,47.687782,-0.6933588,-1.6891716,-3.7323956,0.019379664,-0.31365758,-0.17699666,25.0625,25.5625,24.9375,27.125,27.5625,27.9375
0.3280538,-1.3938572,-1.4482492,-0.829713,-0.04987602,0.026703166,-0.10100618,-0.4067206,-0.35254255,0.059990425,-3.0724509,0.620202,3.744237e-05,-0.15836646,-0.026280804,0.0009693962,0.037001062,-0.008287399,0.012279678,0.46536645,-1.3735816,1.8929833,-2.0843003,-1.5763606,2.438223,-0.073251784,0.32172137,-0.40967983,0.11159776,-0.030356418,-0.08515285,-0.34476504,0.34476504,-9.097966,1.005978,47.674347,-0.89353764,-1.7690024,-3.7202864,-0.020850902,-0.32135588,-0.23283228,25.0625,25.5625,24.9375,27.125,27.5625,27.9375
0.33005384,-0.12810378,-1.1451548,-0.9930738,-0.021109762,0.026358198,-0.10142575,-0.40703487,-0.35256222,0.059958287,-3.0722592,0.62020093,-8.066121e-06,-0.15833887,-0.025653182,0.0004155604,0.040591497,-0.013396553,0.009320554,0.46521026,-1.3728828,1.8921689,-2.0840461,-1.5764927,2.4380915,-0.07365243,0.32516488,-0.41437912,0.119032964,-0.031270135,-0.08258343,-0.19153614,0.30645782,-9.040505,0.9231726,47.68062,-0.9327909,-1.9908099,-3.5403967,-0.058742717,-0.3203509,-0.26717234,25.0625,25.5625,24.9375,27.125,27.5625,27.9375
0.3320549,-0.2995579,-0.26345235,-0.82237095,-0.0074974475,-0.012136845,-0.09916255,-0.4073643,-0.35265335,0.059992626,-3.0723128,0.620061,6.80521e-05,-0.16068287,-0.02436082,0.000570615,0.042066235,-0.014436487,0.0050236573,0.465089,-1.3722694,1.8913201,-2.0838654,-1.5765051,2.4378762,-0.07727555,0.3280907,-0.41916645,0.12248787,-0.03212039,-0.08190461,-0.038307227,0.28730422,-9.021352,0.99031126,47.705692,-0.71876454,-1.9272386,-3.4360204,-0.1350083,-0.31882507,-0.30124313,25.0625,25.5625,24.9375,27.125,27.5625,27.9375
0.3340541,0.14677808,-0.2433128,-0.99442476,0.011304058,-0.019657366,-0.097688355,-0.40766832,-0.35268617,0.059947673,-3.0721526,0.6200234,-5.3901647e-05,-0.15807432,-0.024982607,-0.00047216663,0.045024805,-0.021150636,0.008860463,0.46493417,-1.3715479,1.8905071,-2.0836117,-1.5765885,2.4377193,-0.074104026,0.3300424,-0.42092404,0.129605,-0.031763095,-0.08256708,0.0,0.21068975,-8.983045,0.88960326,47.677036,-0.90577054,-2.0212822,-3.4687157,-0.1865493,-0.3295996,-0.3028147,25.0625,25.5625,24.9375,27.125,27.5625,27.9375
0.33605334,0.14508681,-0.13503712,-1.0484627,-0.0016856139,-0.009473485,-0.104786515,-0.408001,-0.35275215,0.059971213,-3.0720892,0.6200687,-4.2791336e-05,-0.15736967,-0.023641746,-0.0020104025,0.047139518,-0.02495216,0.007117674,0.46478963,-1.3708991,1.8896216,-2.0833485,-1.5766367,2.4376118,-0.07558504,0.33133996,-0.419523,0.13124648,-0.031949304,-0.082304224,-0.019153614,0.19153613,-8.963891,1.0015011,47.691364,-0.8780023,-1.9819415,-3.6684637,-0.21686643,-0.34541726,-0.31476384,25.0625,25.5625,24.9375,27.125,27.5625,27.9375
0.3380533,0.06658911,-0.35025024,-0.99196553,-0.0067420914,0.0019049108,-0.1047986,-0.40831956,-0.35278818,0.05995116,-3.0719655,0.620005,-0.00013181433,-0.15838379,-0.0234504,-0.002012952,0.04779036,-0.024790257,0.0057740477,0.46462134,-1.370202,1.8887748,-2.0830724,-1.5767092,2.4374204,-0.07627949,0.3329557,-0.42183653,0.13208652,-0.032621466,-0.08164621,0.17238252,0.15322891,-9.097966,0.98807013,47.705692,-0.8125148,-1.9849496,-3.8027792,-0.27885956,-0.3659678,-0.3464699,25.0625,25.5625,24.9375,27.125,27.5625,27.9375
0.3400542,-0.5878362,-1.3901242,-1.1164118,-0.018757554,0.017653339,-0.09454801,-0.40862694,-0.352816,0.059914824,-3.0718222,0.6199546,-0.00028450828,-0.16074155,-0.023977576,-0.0007125533,0.047009338,-0.02011136,0.0058119246,0.46444145,-1.369493,1.8879484,-2.0827863,-1.5767697,2.4372282,-0.07643019,0.3336933,-0.42553362,0.13050658,-0.034053367,-0.08181892,0.095768064,0.076614454,-9.174581,1.0686398,47.677036,-0.8047769,-1.8878484,-3.7892654,-0.24009067,-0.3649735,-0.36610106,25.0625,25.5625,24.9375,27.125,27.5625,27.9375
0.34205326,-1.2983767,-1.5430326,-1.35252,-0.036405586,0.027763708,-0.09585422,-0.40896553,-0.35286543,0.059931763,-3.0717008,0.6199679,-0.00021581799,-0.16504078,-0.025200803,0.00063979503,0.0439613,-0.011296247,0.0050149593,0.46430904,-1.3688315,1.8870624,-2.082525,-1.5768903,2.4371204,-0.07717727,0.33588386,-0.42982167,0.12334812,-0.03530959,-0.081757575,0.05746084,0.15322891,-9.346964,0.97464454,47.67614,-0.7941525,-1.9234047,-3.652903,-0.23392807,-0.36248973,-0.38416255,25.0625,25.5625,24.9375,27.125,27.5625,27.9375
0.34405348,-1.1855532,-1.9054004,-1.512944,-0.048215665,0.062283892,-0.10512224,-0.40925846,-0.35291764,0.059907407,-3.0716166,0.6198116,-0.00041784876,-0.16739659,-0.026592646,0.0015954154,0.042372428,-0.0064994334,0.010512501,0.46415344,-1.368134,1.8862132,-2.0822031,-1.5769023,2.4368787,-0.07625725,0.3378907,-0.43395668,0.12044408,-0.03609437,-0.086322434,0.076614454,0.19153613,-9.500193,1.048496,47.690468,-0.84764874,-1.9137278,-3.5620892,-0.17210484,-0.35640094,-0.35666218,25.0625,25.5625,24.9375,27.125,27.5625,27.9375
0.34605393,-1.5377473,-1.868287,-1.3889958,-0.07016889,0.07110496,-0.102593385,-0.40960145,-0.3529442,0.05989794,-3.0714667,0.61983657,-0.00037221893,-0.16954146,-0.027239732,0.0007647712,0.041825913,-0.0030348967,0.011148517,0.46398562,-1.3674481,1.8853654,-2.0819771,-1.5770344,2.4367466,-0.07622692,0.34168667,-0.4355641,0.11489581,-0.037185512,-0.086917415,-0.05746084,0.19153613,-9.672575,0.9567419,47.711063,-0.9297308,-2.089487,-3.5890903,-0.10310902,-0.36388522,-0.36318427,25.0625,25.5625,24.9375,27.125,27.5625,27.9375
0.34805405,-1.4855126,-2.3348582,-1.8338736,-0.053955525,0.07051545,-0.09875371,-0.40994045,-0.3530338,0.059930883,-3.0714552,0.6197339,-0.00031593107,-0.16981086,-0.0269179,-0.00022507783,0.043729007,-0.003186038,0.017375007,0.46387756,-1.3667867,1.8844441,-2.0817268,-1.5770835,2.4365764,-0.07589357,0.34371436,-0.43572077,0.11397209,-0.038854755,-0.09279993,-0.038307227,0.30645782,-9.749189,0.9768804,47.693153,-0.9407153,-2.057242,-3.80472,-0.069249675,-0.34852266,-0.32833624,25.0625,25.5625,24.9375,27.125,27.5625,27.9375
0.35005397,-1.0322114,-1.7939299,-2.2795854,-0.06449962,0.0722828,-0.10597516,-0.41025096,-0.35304546,0.059896544,-3.0712948,0.6196407,-0.0003995597,-0.16933513,-0.026392624,-0.0023644695,0.04626964,-0.0066303085,0.020857591,0.4636976,-1.3661015,1.8836445,-2.081463,-1.5771912,2.4363596,-0.07581489,0.34731603,-0.43542695,0.11425768,-0.039621595,-0.09619306,-0.15322891,0.5554548,-9.940725,0.99031126,47.672558,-1.0062125,-2.135273,-4.00665,-0.04145674,-0.32181698,-0.26793984,25.0625,25.5625,24.9375,27.125,27.5625,27.9375
0.3520541,-1.7319168,-2.7878869,-2.0404272,-0.070883624,0.05387367,-0.09874901,-0.41062698,-0.3531098,0.05990926,-3.0712595,0.6195914,-0.0003083931,-0.16939984,-0.026324708,-0.0032747178,0.048494525,-0.0074451505,0.025785895,0.46353015,-1.3653914,1.8827232,-2.0812714,-1.5772647,2.4361665,-0.07486655,0.3496967,-0.43650445,0.11464489,-0.041272834,-0.1001624,-0.11492168,0.38307226,-9.998186,0.9097417,47.705692,-1.0026419,-2.1970475,-4.157003,-0.036291633,-0.31670538,-0.22057466,25.0625,25.5625,24.9375,27.125,27.5625,27.9375
0.35405424,-1.0097673,-2.5480936,-2.0520763,-0.081535645,0.05447499,-0.09678704,-0.4109408,-0.35317898,0.05990774,-3.0711722,0.61939764,-0.00028765845,-0.17210868,-0.026294203,-0.0014597719,0.048137162,-0.0043571,0.028960193,0.46344548,-1.3647063,1.8818506,-2.0810187,-1.5773724,2.4359727,-0.076483645,0.35043833,-0.44217756,0.11661252,-0.0423764,-0.10494214,-0.05746084,0.4405331,-9.883265,1.0194036,47.684196,-1.0260601,-2.3355327,-4.022024,-0.012198485,-0.29710788,-0.15259768,25.0625,25.5625,24.9375,27.125,27.5625,27.9375
0.35605335,-1.1900222,-2.3085368,-1.8932644,-0.066958785,0.031408112,-0.0955398,-0.41129863,-0.35323134,0.05990367,-3.0711172,0.61934566,-0.00026752113,-0.1725047,-0.026308382,0.000118411495,0.050582923,-0.0035290157,0.032371033,0.463266,-1.363998,1.8809661,-2.0808141,-1.5774335,2.4357684,-0.07510802,0.3498313,-0.44641435,0.12179079,-0.04495025,-0.1069578,-0.2681506,0.51714754,-9.710882,0.92093146,47.705692,-0.99023604,-2.0043626,-3.9211752,-0.043655574,-0.25531828,-0.067795716,25.0625,25.5625,24.9375,27.125,27.5625,27.9375
0.35805342,-1.2064291,-1.4864012,-2.114151,-0.049433578,0.019547751,-0.09047136,-0.41164643,-0.3532895,0.0599169,-3.0710258,0.6191726,-0.0002464222,-0.17196053,-0.026027177,0.0007460534,0.05274754,-0.0066322964,0.032161124,0.4631342,-1.3632901,1.8800205,-2.0805118,-1.5775417,2.435541,-0.07469672,0.34999216,-0.449808,0.12875617,-0.045498483,-0.10632963,-0.19153613,0.4213795,-9.787497,1.0126908,47.704796,-1.2120191,-1.884855,-3.8622646,-0.097621605,-0.23923446,-0.06014719,25.0625,25.5625,24.875,27.125,27.5625,27.9375
0.3600534,-0.3059587,-0.8781255,-2.3076673,-0.02841316,0.027433153,-0.10231894,-0.41200393,-0.35333946,0.05991863,-3.0709403,0.6191371,-0.00022250354,-0.17203666,-0.02437899,0.00040333075,0.05459114,-0.011986422,0.026742399,0.46296513,-1.3625805,1.8791121,-2.08027,-1.5776252,2.4353614,-0.07792484,0.35126987,-0.45231116,0.13559163,-0.04474375,-0.10414222,-0.076614454,0.4213795,-9.883265,0.9365982,47.670765,-1.0231688,-1.8275638,-3.8673956,-0.19066837,-0.23054788,-0.05573277,25.0625,25.5625,24.875,27.125,27.5625,27.9375
0.36205366,-0.73557514,-1.182975,-1.9804908,-0.027589481,0.02788216,-0.0962626,-0.41231233,-0.3533682,0.05989086,-3.0707881,0.61897147,-0.00034822623,-0.17051041,-0.024601845,-0.001491338,0.058188092,-0.018140504,0.025394036,0.46280998,-1.36187,1.878251,-2.0799453,-1.5777215,2.4351232,-0.07587425,0.35552508,-0.45443314,0.14057995,-0.04521184,-0.100731485,-0.11492168,0.3256114,-9.825804,0.9321212,47.67166,-1.1095068,-1.9022995,-3.8989968,-0.25323424,-0.2218273,-0.07489872,25.0625,25.5625,24.875,27.125,27.5625,27.9375
0.36405385,-1.2484632,-1.5051161,-1.8949654,-0.037415255,0.045821447,-0.090893984,-0.41268295,-0.35344625,0.0599339,-3.0707889,0.6190126,-0.00027464877,-0.17059934,-0.023256874,-0.0029048272,0.06158836,-0.022261247,0.019644449,0.4626414,-1.3612088,1.8773054,-2.0797045,-1.5777458,2.4349806,-0.077405505,0.35869172,-0.45603776,0.14424738,-0.04638924,-0.09650608,-0.30645782,0.24899697,-9.749189,1.0216395,47.66987,-1.1370225,-2.0119712,-3.9622939,-0.3197729,-0.19511086,-0.12168877,25.0625,25.5625,24.875,27.125,27.5625,27.9375
0.36605385,-1.4897133,-1.0828369,-1.8792408,-0.03778654,0.05983228,-0.10321409,-0.41302633,-0.35346687,0.059927616,-3.0706272,0.6188645,-0.00028901725,-0.17407663,-0.023790464,-0.002408546,0.060935922,-0.016316218,0.015538514,0.46247306,-1.3604991,1.8763965,-2.0793836,-1.5778908,2.4347415,-0.078079455,0.36181936,-0.46009886,0.1395802,-0.048477456,-0.09305144,-0.1340753,0.05746084,-9.80665,1.0037369,47.687782,-1.0288482,-2.227902,-3.9692507,-0.29301754,-0.15988648,-0.15225568,25.0625,25.5625,24.875,27.125,27.5625,27.9375
0.36805394,-1.267672,-1.1142664,-1.513882,-0.03806296,0.07503049,-0.09862961,-0.41338006,-0.3535362,0.05993095,-3.0705383,0.61882854,-0.00027167567,-0.17816542,-0.025569249,-0.0011522962,0.05666515,-0.00983482,0.012050398,0.46234077,-1.3597668,1.875451,-2.0791218,-1.5779742,2.434599,-0.07901005,0.36508593,-0.4660014,0.13451156,-0.047566026,-0.0904958,-0.076614454,-0.15322891,-9.710882,1.0395473,47.711063,-1.057189,-2.1362095,-3.7802343,-0.26984555,-0.13834277,-0.18207836,25.0625,25.5625,24.875,27.125,27.5625,27.9375
0.37005404,-1.8652503,-1.3023024,-1.5221395,-0.031464376,0.05850324,-0.090119846,-0.41376254,-0.35359403,0.059953053,-3.0704687,0.61877763,-0.00019161115,-0.18212356,-0.027547667,0.0007457789,0.050508365,-0.0013244587,0.007220598,0.46217245,-1.3590477,1.8744782,-2.0788615,-1.57807,2.4344084,-0.079960644,0.36598238,-0.47003996,0.12729667,-0.045859374,-0.086627245,-0.17238252,-0.13407528,-9.576807,0.9545008,47.67793,-1.025639,-2.1763978,-3.5855439,-0.17225587,-0.16417176,-0.2541774,25.0625,25.5625,24.875,27.125,27.5625,27.9375
