Tylouw/Master_Thesis_Code/training_data/batch_1/small_rod_t0.1/sample_2_session_1.csv
timestamp[s],tcp_force_x[N],tcp_force_y[N],tcp_force_z[N],tcp_force_rx[Nm?],tcp_force_ry[Nm?],tcp_force_rz[Nm?],tcp_pose_x[m],tcp_pose_y[m],tcp_pose_z[m],tcp_pose_rx[rot_vec_x],tcp_pose_ry[rot_vec_y],tcp_pose_rz[rot_vec_z],tcp_velo_x[m/s],tcp_velo_y[m/s],tcp_velo_z[m/s],tcp_velo_rx[rot_vec_x/s],tcp_velo_ry[rot_vec_y/s],tcp_velo_rz[rot_vec_z/s],q1[rad],q2[rad],q3[rad],q4[rad],q5[rad],q6[rad],qd1[rad/s],qd2[rad/s],qd3[rad/s],qd4[rad/s],qd5[rad/s],qd6[rad/s],tool_acc_x,tool_acc_y,tool_acc_z,current_of_whole_robot[A],voltage_of_whole_robot[V],current_J1[A],current_J2[A],current_J3[A],current_J4[A],current_J5[A],current_J6[A],temp_J1[C],temp_J2[C],temp_J3[C],temp_J4[C],temp_J5[C],temp_J6[C]
9.879877e-07,-0.36733484,-1.0208594,0.39363453,-0.013951985,0.022274138,0.0039621536,-0.38107052,-0.3485362,0.059985656,-3.078534,0.62488043,-0.00011992486,0.0016120513,0.0007659947,-0.0018721896,0.0016725813,-0.0036537533,7.570749e-05,0.47781014,-1.4259456,1.9576911,-2.1008327,-1.5707697,2.452764,-1.9974284e-15,0.00084182445,0.0033619402,-0.00019084374,0.00020164382,-7.757934e-05,0.0,0.19153613,-8.7532015,0.66132545,47.71465,0.004944071,-2.7543797,-2.55386,-0.46886635,0.18457244,0.038701557,25.0,25.4375,24.875,27.0625,27.3125,27.6875
0.002057228,0.45819187,-0.10974118,0.68004495,-0.026810534,0.041566983,-0.01965021,-0.3810504,-0.34853023,0.059974175,-3.0785189,0.6248965,-0.0001732168,-0.0010623125,-0.0006263806,-0.0024966637,-0.0016669638,0.0027529341,7.693769e-05,0.47781014,-1.4259564,1.9577278,-2.100825,-1.5707573,2.452776,-2.6798051e-17,0.004043371,0.0035580639,-0.01081333,0.00019710345,-7.626452e-05,0.05746084,0.21068975,-8.772355,0.7777002,47.703903,-0.030830707,-2.7687712,-2.3983898,-0.43213254,0.17380854,0.02468831,25.0,25.4375,24.875,27.0625,27.3125,27.6875
0.004058127,-0.26326025,-0.446594,0.44317013,-0.021411855,0.029180203,-0.0048943297,-0.38106674,-0.34852308,0.05996606,-3.0785084,0.6248945,-0.00013359827,-0.0018530878,-0.0010362158,-0.002271375,-0.0027453545,0.004835242,7.635499e-05,0.4777981,-1.4259324,1.9577273,-2.1008613,-1.5707816,2.452764,-3.5953005e-19,0.0043386966,0.0032338328,-0.01312939,0.00019123557,-7.499351e-05,0.095768064,0.11492168,-8.810662,0.7642693,47.668976,0.013135096,-3.0986826,-2.6067696,-0.31091806,0.16228996,0.046442334,25.0,25.4375,24.875,27.0625,27.3125,27.6875
0.006055431,0.78352433,0.2374648,0.33498794,-0.023313101,0.0376102,-0.017901907,-0.38105547,-0.34855062,0.059959907,-3.0785491,0.62490386,-0.00014151674,-0.0010962936,-0.00063956965,-0.001437949,-0.001757519,0.002959056,7.442446e-05,0.47783422,-1.4259211,1.9577388,-2.1009066,-1.5707458,2.4528008,-4.8235543e-21,0.0026284044,0.0021630588,-0.008227995,0.00018560838,-7.376422e-05,0.038307227,0.13407528,-8.695741,0.72622824,47.67614,0.039029054,-3.0040374,-2.582619,-0.34447283,0.16327828,0.033202805,25.0,25.4375,24.875,27.0625,27.3125,27.6875
0.008054138,1.0681165,0.8046126,-0.036697924,-0.00017059651,0.01752271,-0.011410178,-0.38105378,-0.34853202,0.05994268,-3.0785036,0.6248552,-0.0002186638,-0.0003845829,-0.00026624827,-0.0004909158,-0.0010430093,0.0016093455,7.2410076e-05,0.47781014,-1.4258859,1.9577268,-2.1008575,-1.5707573,2.452752,-6.471414e-23,0.000537314,0.0013803206,-0.0038270273,0.0001802964,-7.25746e-05,0.038307227,0.15322891,-8.925584,0.7486078,47.694946,0.019996125,-2.9305906,-2.5330122,-0.38378495,0.15326867,0.04050149,25.0,25.4375,24.875,27.0625,27.3125,27.6875
0.010053715,1.0309757,0.700627,-0.4731825,0.011138962,0.009784189,-0.01318181,-0.3810601,-0.3485173,0.059935052,-3.0784798,0.6249269,-0.0002056688,-6.981844e-05,-0.00010034452,-0.00021533608,-0.000552198,0.0006805248,7.1022994e-05,0.47778618,-1.425886,1.9577497,-2.1008809,-1.5707697,2.452776,-8.682228e-25,1.4681533e-05,0.0008726927,-0.0017462516,0.00017528022,-7.142267e-05,-0.019153614,0.11492168,-9.097966,0.72622824,47.661808,-0.20503008,-2.153536,-3.2257586,-0.41707116,0.16826867,-0.0055299997,25.0,25.4375,24.875,27.0625,27.3125,27.6875
0.0120549,-0.025590573,-0.36637145,-0.82417685,-0.0014868854,0.0015032328,-0.0043160142,-0.38104796,-0.3485264,0.05992658,-3.078489,0.6248907,-0.00026153796,0.0001489369,4.1397125e-05,-0.0044556605,0.0034910755,-0.007122959,2.9537852e-05,0.47779807,-1.4258705,1.9577488,-2.100869,-1.5707458,2.452764,-5.320845e-05,0.010010509,-0.00097482785,-0.0011057791,0.00017053487,-8.0746795e-05,0.15322891,0.05746084,-9.251195,0.7396539,47.698532,-0.3448711,-2.3073907,-3.4024036,-0.42431256,0.17093763,-0.04744912,25.0,25.4375,24.875,27.0625,27.3125,27.6875
0.014053789,0.00034823478,-1.1900717,-0.99344563,-0.030040596,0.038249496,-0.009323409,-0.38104758,-0.34851485,0.05990344,-3.0784082,0.6248759,-0.00030215975,-0.004858221,-0.0007163969,-0.0036985048,0.0023205418,-0.004897614,-0.0030258016,0.4778089,-1.4258083,1.9577225,-2.1008332,-1.5707935,2.452776,-0.0033457025,0.017103186,-0.01085024,-0.0008374706,0.00016604048,-0.0003118403,0.076614454,0.13407528,-9.385271,0.7486078,47.694946,-0.31731552,-2.8291507,-3.0930996,-0.42098504,0.17373052,-0.070892334,25.0,25.4375,24.875,27.0625,27.3125,27.6875
0.016053785,-0.5472276,-1.3666265,-1.0155838,-0.065531224,0.058300924,-0.014058575,-0.3810576,-0.3485324,0.05991207,-3.0784636,0.6249215,-0.00035899197,-0.005991607,0.00038786192,-0.0035681352,0.002274495,-0.004850707,0.0023820207,0.477784,-1.4257963,1.9576863,-2.1008208,-1.5707215,2.4527724,-0.0063678264,0.0171011,-0.011215056,-0.00053445174,0.00018184324,-0.008741692,-0.11492168,0.34476504,-9.595961,0.7172743,47.677036,-0.20134124,-2.6664448,-3.3172317,-0.4140116,0.17857423,-0.03787699,25.0,25.4375,24.875,27.0625,27.3125,27.6875
0.018053532,-1.1337284,-1.7447255,-1.2017614,-0.07865953,0.07683719,-0.021496829,-0.3810355,-0.34850335,0.059889827,-3.0783837,0.62482667,-0.0004276529,-0.0058831363,0.00021357535,-0.0032754606,0.0023434742,-0.004984358,0.0070430264,0.47778407,-1.4257845,1.9577101,-2.1007612,-1.5707697,2.4527235,-0.005956859,0.016896948,-0.011883462,0.00048736893,0.00018005948,-0.012991644,-0.17238252,0.4213795,-9.653421,0.784413,47.686886,-0.27640522,-2.345286,-3.5270047,-0.43408513,0.18569967,0.0072063743,25.0,25.4375,24.875,27.0625,27.3125,27.6875
0.02005427,-1.2506559,-2.0771039,-1.1637481,-0.079986945,0.08610614,-0.029766334,-0.38101903,-0.34850615,0.05982903,-3.078356,0.62470615,-0.0005579626,-0.006344614,-0.00019019647,-0.00367539,0.0029332773,-0.006129803,0.00689496,0.4777962,-1.4256756,1.957733,-2.1007965,-1.5707573,2.452664,-0.005668325,0.019551354,-0.014215977,0.0014540792,0.00017928581,-0.0125536565,-0.26815057,0.59376204,-9.80665,0.7396539,47.689575,-0.3597909,-2.3746524,-3.5603557,-0.4026723,0.1675102,-0.01580482,25.0,25.4375,24.875,27.0625,27.3125,27.6875
0.022054903,-1.5694202,-1.9783733,-1.387635,-0.06658066,0.07821412,-0.026975598,-0.38110003,-0.34850562,0.059872944,-3.078378,0.6248845,-0.00038675804,-0.0075583397,-0.00058724557,-0.0033360114,0.002593703,-0.005532025,0.005657823,0.47773603,-1.4256631,1.9576238,-2.1008203,-1.5707816,2.4527123,-0.0061012963,0.02134587,-0.017138619,0.0018949965,0.0002022056,-0.01174784,-0.5554548,0.7086837,-9.691729,0.8023209,47.698532,-0.44590926,-2.3472366,-3.5221133,-0.4376275,0.17127609,-0.031225994,25.0,25.4375,24.875,27.0625,27.3125,27.6875
0.024053976,-1.2973659,-1.8962533,-1.5198125,-0.06331798,0.07795776,-0.04374856,-0.38107875,-0.34852958,0.059858207,-3.0784247,0.62474144,-0.00050374836,-0.009447958,-0.00034514387,-0.002510101,0.0014853913,-0.003530258,0.0033790967,0.47775924,-1.425627,1.957611,-2.1007965,-1.5707215,2.4526403,-0.008319377,0.021728378,-0.019361354,0.0014485007,0.0002598308,-0.011686047,-0.45968673,0.57460845,-9.883265,0.7486078,47.694946,-0.49027404,-2.3229637,-3.4838142,-0.42377788,0.18802217,-0.050604887,25.0,25.4375,24.875,27.0625,27.3125,27.6875
0.026054073,-1.1562573,-1.6440861,-1.337514,-0.07456631,0.07774897,-0.059565745,-0.38110384,-0.3485272,0.05984072,-3.0783958,0.624754,-0.00049432326,-0.010031292,-0.0010055604,-0.0021920681,-0.0003319685,-0.0032849202,0.0041999714,0.47774723,-1.425555,1.9575742,-2.1008203,-1.5707453,2.4526398,-0.008658198,0.022404645,-0.02079168,0.0011432125,0.0017563514,-0.012847839,-0.38307226,0.51714754,-9.940725,0.7418897,47.695843,-0.4828478,-2.3245566,-3.5650754,-0.41420656,0.18073428,-0.06253333,25.0,25.4375,24.875,27.0625,27.3125,27.6875
0.028054845,-1.2127706,-1.4296999,-1.1040167,-0.07399294,0.07548519,-0.074648164,-0.38112012,-0.3485197,0.05983767,-3.0783978,0.6247556,-0.0005226784,-0.01177286,-0.0010348085,-0.0018773817,-0.0015055413,-0.0026325334,0.0028077383,0.47771046,-1.4255303,1.9575504,-2.1008084,-1.5707325,2.4526038,-0.010696945,0.02416441,-0.023472238,0.0009425698,0.0024917747,-0.013494178,-0.51714754,0.40222588,-9.787497,0.7418897,47.694054,-0.5216116,-2.298014,-3.516265,-0.42209777,0.1753354,-0.07834919,25.0,25.4375,24.875,27.0625,27.3125,27.6875
0.030054534,-1.4708825,-1.1603777,-1.2417762,-0.050271057,0.07136713,-0.083215326,-0.38115215,-0.3485406,0.059837822,-3.0784004,0.6247169,-0.0005627385,-0.0130229285,-0.0012370823,-0.0016845264,-0.0019184509,-0.0019598769,0.0031891624,0.47771013,-1.425434,1.9574293,-2.1007607,-1.5707206,2.452579,-0.011528321,0.02584636,-0.025800943,0.0008019639,0.0025428857,-0.014705673,-0.61291564,0.36391866,-9.710882,0.7709874,47.71286,-0.5625899,-2.2946765,-3.4647465,-0.4087997,0.17085156,-0.08988359,25.0,25.4375,24.875,27.0625,27.3125,27.6875
0.032054342,-1.011917,-0.79095274,-1.1538064,-0.0294275,0.08655519,-0.10609769,-0.38118222,-0.3485495,0.05984304,-3.078411,0.6247769,-0.00051951123,-0.013854364,-0.0014552812,-0.0016790187,-0.0020033992,-0.0017413708,0.0035424158,0.47769806,-1.4253974,1.9573811,-2.1007845,-1.5707206,2.452603,-0.011891679,0.027432607,-0.027623862,0.0008055841,0.002514092,-0.015420968,-0.53630114,0.19153614,-9.691729,0.75755644,47.703007,-0.58788025,-2.318481,-3.4988723,-0.39585727,0.1591547,-0.08516295,25.0,25.4375,24.875,27.0625,27.3125,27.6875
0.034054086,-0.7290002,0.20561452,-0.96703076,-0.021837486,0.08507702,-0.12799513,-0.38122043,-0.3485399,0.059824705,-3.0783854,0.6247719,-0.0005099362,-0.015652597,-0.0012616819,-0.0011458559,-0.0026596477,-0.00044585197,0.0026286782,0.47766137,-1.4253132,1.9573325,-2.1008084,-1.5707449,2.4525666,-0.013886914,0.028614532,-0.030173104,0.00072033674,0.0024948723,-0.01650097,-0.3256114,0.038307227,-9.691729,0.73069996,47.688675,-0.56359833,-2.2660828,-3.478616,-0.36781383,0.16649076,-0.07069236,25.0,25.4375,24.875,27.0625,27.3125,27.6875
0.03605462,-1.0914865,0.0022360426,-0.97300893,0.008926708,0.059063796,-0.13499717,-0.3812505,-0.34855774,0.05983247,-3.0784156,0.6247976,-0.00050366664,-0.017356863,-0.002120488,-0.00023478575,-0.0037791221,0.001602928,0.0015799593,0.47764942,-1.4252647,1.9572595,-2.1008089,-1.5707206,2.4525669,-0.013967245,0.03023604,-0.034099158,0.00069117075,0.0025396398,-0.015530368,-0.30645782,-0.038307227,-9.500193,0.7486078,47.67614,-0.6389065,-2.254395,-3.3613818,-0.38752583,0.18392064,-0.072922975,25.0,25.4375,24.875,27.0625,27.3125,27.6875
0.038054176,-0.6211993,-0.05237919,-0.9665938,0.018304558,0.057458613,-0.14058961,-0.38127157,-0.34856358,0.059825547,-3.0784488,0.6247284,-0.0005271578,-0.018700251,-0.001993656,-4.3212367e-05,-0.0045864386,0.0019080353,-0.0015971443,0.4776248,-1.4252163,1.9572228,-2.1008208,-1.5706967,2.4524949,-0.015807813,0.031558566,-0.036041223,0.0006671198,0.003112888,-0.014193776,-0.34476504,-0.038307227,-9.481039,0.779936,47.709274,-0.50658786,-2.3235965,-3.4318695,-0.36436582,0.1577475,-0.09394908,25.0,25.4375,24.875,27.0625,27.3125,27.6875
0.040054344,-0.45383346,0.07558927,-0.8924823,0.0026829334,0.056784254,-0.13862582,-0.38132563,-0.34856737,0.05982137,-3.0784407,0.6247659,-0.00050000456,-0.019570138,-0.0030995656,0.0006849749,-0.006381572,0.00304367,-0.0018791233,0.47758886,-1.4251202,1.9571255,-2.1008327,-1.5707082,2.4524834,-0.015338977,0.032494795,-0.03876518,0.0006173177,0.0041798996,-0.013443493,-0.19153613,0.019153614,-9.500193,0.73741806,47.696735,-0.5889441,-2.23636,-3.376857,-0.34720582,0.1478216,-0.13579027,25.0,25.4375,24.875,27.0625,27.3125,27.6875
0.04205432,-0.20901227,-0.58945286,-0.9700932,0.0016605275,0.06202825,-0.12250387,-0.38138184,-0.34857386,0.05984519,-3.0784864,0.6247756,-0.00043918702,-0.020469481,-0.0029848984,0.00068597496,-0.006410105,0.0033035246,-0.0026861248,0.4775406,-1.4250839,1.9570297,-2.1008327,-1.5706962,2.4524355,-0.016309764,0.033700135,-0.040121857,0.0005254561,0.0040836795,-0.013605956,-0.19153614,0.095768064,-9.519346,0.7732232,47.709274,-0.61640847,-2.2064035,-3.3401039,-0.3310467,0.12986347,-0.1422173,25.0,25.4375,24.875,27.0625,27.3125,27.6875
0.044054054,-0.29208267,-0.61825633,-0.8234189,-0.006216916,0.062769,-0.12792377,-0.3814413,-0.3485781,0.059869595,-3.078474,0.6248115,-0.0003597098,-0.021859866,-0.0032478152,0.0017153458,-0.006866171,0.0049264086,-0.002917828,0.47751632,-1.4250238,1.9568971,-2.1007965,-1.570732,2.4524353,-0.01690275,0.03420706,-0.043282423,0.0015289729,0.0037388927,-0.013964978,-0.28730422,0.076614454,-9.500193,0.7597976,47.704796,-0.56982553,-2.1393468,-3.3344274,-0.32248104,0.1676985,-0.13207543,25.0,25.4375,24.875,27.0625,27.3125,27.6875
0.046054035,-0.80685663,-1.0164247,-1.1013404,-0.0008913493,0.051081013,-0.12253675,-0.38144833,-0.34857664,0.059841,-3.0784433,0.6248247,-0.00047216727,-0.022024285,-0.002616716,0.0010009288,-0.0048256447,0.002252263,-0.0031422828,0.477492,-1.4249394,1.9568604,-2.1007712,-1.5707086,2.452423,-0.017798794,0.036474865,-0.044829614,0.004123603,0.0031569973,-0.0146350935,-0.17238252,0.15322891,-9.500193,0.73741806,47.69763,-0.54955816,-2.1130927,-3.3365796,-0.3458684,0.16317447,-0.14219823,25.0,25.4375,24.875,27.0625,27.3125,27.6875
0.048055522,-0.48390737,-0.9746201,-0.88944054,-0.010253924,0.054059833,-0.1230267,-0.38150978,-0.34859917,0.059851456,-3.0785165,0.6248778,-0.00043280638,-0.022612933,-0.0024971126,0.00014725665,-0.003892182,0.0005447724,-0.003462631,0.47744384,-1.4248663,1.9567641,-2.1008193,-1.5706605,2.4523988,-0.01852401,0.03951746,-0.046476647,0.0046745297,0.0031113364,-0.015038452,-0.05746084,0.19153613,-9.519346,0.82022345,47.704796,-0.53644246,-2.2095504,-3.400868,-0.34604427,0.16899785,-0.14012378,25.0,25.4375,24.875,27.0625,27.3125,27.6875
0.05005397,-0.8579451,-1.4323596,-1.12975,-0.018674478,0.046456043,-0.104992405,-0.3815491,-0.34857526,0.05983747,-3.0784512,0.6248643,-0.00044417792,-0.023510093,-0.0031759532,0.00087526115,-0.0050677536,0.0021566332,-0.002561182,0.47739595,-1.4247823,1.9566921,-2.1007836,-1.5707082,2.4523509,-0.018338503,0.039913457,-0.048521996,0.0043503693,0.0034087978,-0.015753966,-0.038307227,0.38307226,-9.5385,0.7418897,47.696735,-0.58094805,-2.1696868,-3.3877923,-0.35187194,0.15023708,-0.16613549,25.0,25.4375,24.875,27.0625,27.3125,27.6875
0.052054834,-0.8266662,-1.8270702,-1.1285316,-0.0337768,0.049081985,-0.11058182,-0.3815822,-0.3485982,0.059850402,-3.0785024,0.6248937,-0.00051412603,-0.024967052,-0.0034671647,0.0018492711,-0.00627708,0.004698991,-0.002626948,0.4773596,-1.4247224,1.9565834,-2.1007354,-1.5706366,2.4523263,-0.019100135,0.039923105,-0.050589316,0.0035958728,0.003308547,-0.016448451,-0.019153614,0.38307226,-9.5385,0.73069996,47.686886,-0.56499666,-2.0184333,-3.43392,-0.32713926,0.15350077,-0.17550492,25.0,25.4375,24.875,27.0625,27.3125,27.6875
0.05405359,-0.5764017,-1.9568259,-1.0658214,-0.05030593,0.053206306,-0.11904143,-0.38166815,-0.34858704,0.059868913,-3.078482,0.624986,-0.00036775446,-0.025714196,-0.0033002717,0.0013440419,-0.0056510726,0.003845082,-0.003187642,0.47729924,-1.4246498,1.9564637,-2.1007597,-1.5706967,2.4523263,-0.019976342,0.04221049,-0.052110143,0.0038751583,0.0031436232,-0.016762357,-0.05746084,0.4213795,-9.576807,0.73741806,47.651955,-0.5967991,-2.0552647,-3.4128733,-0.31800073,0.15629286,-0.1882053,25.0,25.4375,24.875,27.0625,27.3125,27.6875
0.056053437,-0.76405895,-2.238129,-0.9814667,-0.04282788,0.03705275,-0.1091887,-0.3817094,-0.3486218,0.059882283,-3.07855,0.62486565,-0.00037532934,-0.027027821,-0.003826794,0.0019931367,-0.0057171006,0.0046181837,-0.002805583,0.47729927,-1.4245653,1.9563311,-2.100735,-1.5706605,2.4522426,-0.020058993,0.044015422,-0.055957705,0.0052024317,0.0028421192,-0.017224494,-0.095768064,0.53630114,-9.595961,0.7597976,47.675243,-0.5910501,-2.0463188,-3.3594933,-0.33388394,0.15985703,-0.19355345,25.0,25.4375,24.875,27.0625,27.3125,27.6875
0.058053643,-0.23519015,-1.4116521,-0.998392,-0.056074213,0.03914372,-0.120264776,-0.38176826,-0.34860095,0.059869926,-3.078502,0.6249518,-0.00031402076,-0.02738544,-0.0035232457,0.0008344059,-0.004184157,0.0022357276,-0.0029150015,0.47723907,-1.4244803,1.9562706,-2.1007707,-1.5707086,2.4522424,-0.020752454,0.047334086,-0.05728994,0.0060366476,0.0025742406,-0.017806996,-0.11492168,0.4405331,-9.576807,0.79560274,47.705692,-0.53971505,-2.1533353,-3.2334685,-0.32863355,0.16698217,-0.22039118,25.0,25.4375,24.875,27.0625,27.3125,27.6875
0.060054224,-0.12316976,-1.5530918,-1.0504079,-0.04349872,0.044936914,-0.10607394,-0.3818431,-0.34863704,0.059918653,-3.0785859,0.62498766,-0.00026079846,-0.027884128,-0.0033334098,0.0004938267,-0.0038479716,0.0016105423,-0.0029099465,0.47720274,-1.42442,1.9560794,-2.1007226,-1.5706605,2.4522178,-0.021538533,0.048733965,-0.058149725,0.006207261,0.0025627038,-0.018597282,-0.095768064,0.47884035,-9.557653,0.7777002,47.690468,-0.5590235,-2.1856246,-3.4918852,-0.32185167,0.17203082,-0.22282457,25.0,25.4375,24.875,27.0625,27.3125,27.6875
0.06205458,-0.2613204,-1.5869356,-0.88967675,-0.040838335,0.044386756,-0.110820755,-0.38188848,-0.34863365,0.059896223,-3.0785654,0.6249824,-0.00030264613,-0.029674632,-0.0040491316,0.0023722944,-0.00594174,0.005429433,-0.0025271084,0.4771547,-1.4243006,1.9559945,-2.100723,-1.5706605,2.4521692,-0.021980606,0.047851674,-0.061387856,0.00597349,0.0026605371,-0.019420935,-0.076614454,0.53630114,-9.404425,0.77545905,47.703007,-0.5794108,-1.9798684,-3.3544302,-0.33210123,0.16726923,-0.25299653,25.0,25.4375,24.875,27.0625,27.3125,27.6875
0.06405418,-0.803454,-1.7843151,-0.7125057,-0.030934757,0.032981426,-0.10590466,-0.3819406,-0.34865832,0.059904855,-3.0785897,0.6249872,-0.00028500854,-0.031887166,-0.005179198,0.002823657,-0.0069214455,0.006706196,-0.00173554,0.47714257,-1.4242033,1.955861,-2.100711,-1.5706486,2.452157,-0.022194203,0.051722396,-0.066840105,0.005970152,0.0029330223,-0.020423168,0.019153614,0.4213795,-9.385271,0.7463667,47.73077,-0.5895981,-2.1065023,-3.1352053,-0.30506784,0.17611304,-0.25995836,25.0,25.4375,24.875,27.0625,27.3125,27.6875
0.0660537,-0.38730738,-1.4673989,-0.55649143,-0.04086453,0.047356717,-0.11202198,-0.38201106,-0.34867436,0.05992382,-3.078642,0.6250159,-0.00026520673,-0.030717025,-0.0044949576,0.00087720406,-0.0053122076,0.0025072212,-0.0001678388,0.4770824,-1.4241188,1.9557184,-2.1006987,-1.5706123,2.4521081,-0.022650933,0.053731155,-0.064779855,0.00636928,0.0034379812,-0.022449125,-0.05746084,0.34476504,-9.251195,0.76874626,47.690468,-0.62277526,-2.1131346,-3.3007283,-0.30218333,0.16411053,-0.24169877,25.0,25.4375,24.875,27.0625,27.3125,27.6875
0.06805409,-0.4079267,-1.2875218,-0.43520117,-0.036647197,0.04096912,-0.12108636,-0.3820773,-0.34868416,0.05992016,-3.0786412,0.62497646,-0.00025277957,-0.032306504,-0.0051733456,0.0016975955,-0.0062951446,0.0038204286,0.0008751211,0.47704625,-1.4239866,1.955573,-2.1006863,-1.5706242,2.4520476,-0.023081362,0.05537764,-0.06868641,0.0070103053,0.0037011327,-0.023920879,0.0,0.30645782,-9.270349,0.79560274,47.701214,-0.6264,-2.0558972,-3.2506356,-0.31699905,0.1632502,-0.25560132,25.0,25.4375,24.875,27.0625,27.3125,27.6875
0.0700543,-0.44528487,-1.0239698,-0.39485106,-0.02690099,0.039839644,-0.11028159,-0.38214287,-0.34870225,0.059932742,-3.0786831,0.62500393,-0.0001925305,-0.03350471,-0.0053932266,0.002067878,-0.006537932,0.0044352016,0.0015639836,0.47701004,-1.4239022,1.9554533,-2.1007102,-1.5706123,2.4520233,-0.023747817,0.05687267,-0.07136219,0.007534107,0.0036314218,-0.025274398,-0.038307227,0.38307226,-9.212888,0.7777002,47.698532,-0.6015945,-2.0541954,-3.168875,-0.29018334,0.16572878,-0.26644015,25.0,25.4375,24.875,27.0625,27.3125,27.6875
0.07202217,-0.3257946,-0.46267056,-0.34800962,-0.02698505,0.034197718,-0.1094095,-0.38220772,-0.34869537,0.059929524,-3.078677,0.62500274,-0.00020553288,-0.034835886,-0.005819317,0.0025927941,-0.007148246,0.0058333515,0.0012279256,0.47693792,-1.4237939,1.9553317,-2.1006863,-1.5706123,2.4519513,-0.024145665,0.058210164,-0.07405679,0.0073695714,0.003525832,-0.025334472,-0.076614454,0.34476504,-9.155427,0.8023209,47.709274,-0.6144983,-2.0170078,-3.16781,-0.29490104,0.17927323,-0.2817064,25.0,25.4375,24.875,27.0625,27.3125,27.6875
0.074055456,0.19575173,-0.515182,-0.35490775,-0.016985001,0.0521066,-0.11618951,-0.3822872,-0.34872082,0.059938688,-3.0787044,0.6249879,-0.00018955169,-0.03583786,-0.0062780026,0.0027489336,-0.0075100204,0.0063516167,0.002209831,0.47690192,-1.4236495,1.9551405,-2.1006625,-1.5706004,2.4519026,-0.024302462,0.060005654,-0.07646891,0.0073598516,0.0036048335,-0.026471747,-0.038307227,0.2873042,-9.002198,0.7463667,47.68062,-0.7298374,-2.0479484,-3.1198778,-0.2722896,0.16748887,-0.29560462,25.0,25.4375,24.875,27.0625,27.3125,27.6875
0.076054394,-0.29266483,-0.8683312,-0.34958822,-0.0066361474,0.047388013,-0.10956008,-0.38235736,-0.3487416,0.05995083,-3.0787547,0.6249777,-0.0001293476,-0.036493033,-0.0069968314,0.002726944,-0.008120903,0.005916969,0.0037964259,0.47686592,-1.4235531,1.9550079,-2.1006858,-1.570588,2.451854,-0.024106873,0.062148206,-0.078976914,0.007828869,0.0043445216,-0.027862204,-0.11492168,0.22984336,-9.136273,0.7083204,47.65912,-0.6770836,-2.0199118,-3.1465528,-0.28738886,0.16304375,-0.29283416,25.0,25.4375,24.875,27.0625,27.3125,27.6875
0.078055434,-0.9211638,-1.3146725,-0.39078292,-0.00057829637,0.03521798,-0.10303074,-0.38241395,-0.3487638,0.059943832,-3.0787678,0.6249801,-0.00019327037,-0.03700016,-0.0070762415,0.0028450382,-0.008147309,0.005206616,0.0049136607,0.47682983,-1.4234089,1.954851,-2.10065,-1.5705522,2.4518178,-0.024655044,0.06325831,-0.080833964,0.009194794,0.004692639,-0.029527446,-0.15322891,0.21068975,-9.11712,0.800085,47.689575,-0.7426219,-2.0109453,-3.030322,-0.27143568,0.13977794,-0.27578768,25.0,25.4375,24.875,27.0625,27.3125,27.6875
0.08005481,-0.98082775,-0.83504003,-0.4266807,-0.010215383,0.03952307,-0.104844786,-0.3825278,-0.34875125,0.059951708,-3.0787342,0.62503004,-0.00011967751,-0.037518132,-0.0069356407,0.0014304763,-0.006869447,0.0024017422,0.0055570644,0.47673345,-1.4232514,1.9546479,-2.1006262,-1.5705999,2.451757,-0.025471529,0.06749253,-0.082582556,0.009786207,0.004843274,-0.03098606,-0.11492168,0.22984336,-9.078813,0.71951014,47.691364,-0.74095166,-2.0501068,-3.0798047,-0.2961371,0.14696026,-0.27952754,25.0,25.4375,24.875,27.0625,27.3125,27.6875
0.08205419,-0.6989956,-0.67446375,-0.57909536,-0.019622406,0.04943165,-0.11317568,-0.3825882,-0.34876212,0.059972357,-3.078753,0.62497586,-0.00010429981,-0.03847167,-0.0070806043,0.002365579,-0.007523535,0.0037025337,0.0058356863,0.47669727,-1.4231675,1.954491,-2.1005657,-1.5706004,2.4516847,-0.026076378,0.0672648,-0.08465579,0.010631509,0.0048255594,-0.03186862,-0.21068975,0.24899697,-9.212888,0.88289046,47.728977,-0.7566798,-2.194204,-3.0932186,-0.29547957,0.15209858,-0.2987703,25.0,25.4375,24.875,27.0625,27.3125,27.6875
0.084054306,-0.73033315,-0.9153145,-0.6001356,-0.013994144,0.05137893,-0.108741336,-0.38264194,-0.34880546,0.05996792,3.0787945,-0.62496537,0.00015217235,-0.03876062,-0.0073252474,0.0026337157,-0.007549307,0.0032803584,0.0058795526,0.47668526,-1.423023,1.954336,-2.1005652,-1.5705398,2.4516609,-0.026045455,0.06794453,-0.086372904,0.012033396,0.00504209,-0.03188118,-0.21068975,0.24899697,-9.193734,0.7978386,47.71465,-0.7623931,-1.9466779,-3.0533495,-0.30514318,0.14824964,-0.3431219,25.0,25.4375,24.875,27.0625,27.3125,27.6875
0.08605402,-0.8599398,-1.1647379,-0.4276333,-0.010993431,0.051945016,-0.10880901,-0.3827295,-0.34879252,0.059953477,-3.0787816,0.62494254,-0.00018586025,-0.03909348,-0.007437945,0.0017082845,-0.0069457013,0.0019262468,0.0067154854,0.47658926,-1.4228541,1.9541677,-2.100529,-1.5705518,2.4515524,-0.026196526,0.07070823,-0.08736036,0.011737151,0.0051234616,-0.032867536,-0.17238252,0.22984336,-9.270349,0.779936,47.67345,-0.84686315,-2.044032,-3.1358116,-0.28870586,0.13170254,-0.3347214,25.0,25.4375,24.875,27.0625,27.3125,27.6875
0.08805487,-1.1308436,-0.96692526,-0.5099662,-0.0213648,0.05085784,-0.10807835,-0.3828046,-0.34881115,0.059960373,-3.0787892,0.62490535,-0.00018660046,-0.04001591,-0.007654652,0.0010318984,-0.0069653634,0.0005383303,0.0065293713,0.47655296,-1.4227087,1.9539751,-2.1004813,-1.5705518,2.451492,-0.027078727,0.074038275,-0.08967769,0.011946565,0.0057731774,-0.03356303,-0.21068975,0.24899697,-9.346964,0.83589023,47.689575,-0.8386282,-2.168633,-3.106604,-0.30865112,0.13201131,-0.34386715,25.0,25.4375,24.875,27.0625,27.3125,27.6875
0.09005456,-0.85557574,-1.2047186,-0.6206647,-0.018658089,0.060007434,-0.10760115,-0.38288525,-0.34884366,0.059972607,3.0787756,-0.6248827,0.00017720129,-0.040267725,-0.007596564,0.0009116152,-0.006284136,0.00019720645,0.008223015,0.47650504,-1.4225763,1.9537958,-2.1004813,-1.5705036,2.4514318,-0.027116124,0.074969225,-0.09061881,0.012576045,0.005325352,-0.03529264,-0.19153613,0.24899697,-9.32781,0.73069996,47.684196,-0.8436736,-1.9952793,-3.2280009,-0.3227538,0.12750787,-0.32551536,25.0,25.4375,24.875,27.0625,27.3125,27.6875
0.092054285,-0.58437467,-0.5070075,-0.6310995,-0.036026273,0.064353414,-0.116395526,-0.38296133,-0.34883797,0.05995711,3.0788107,-0.6249087,0.00022412404,-0.041679557,-0.007845156,0.0011858487,-0.0063832207,0.0014090242,0.008814324,0.47643283,-1.4224075,1.9536275,-2.1004336,-1.570516,2.4513714,-0.027659634,0.07679451,-0.09327858,0.012290014,0.0048496476,-0.036425322,-0.19153613,0.28730422,-9.385271,0.7665104,47.687782,-0.9107324,-2.1091137,-3.1204014,-0.31645864,0.14011861,-0.34091437,25.0,25.4375,24.875,27.0625,27.3125,27.6875
0.094054975,-0.5618567,-0.8561944,-0.613915,-0.028137473,0.060829442,-0.10758865,-0.38306555,-0.34886736,0.059979673,3.078777,-0.62486297,0.00011303624,-0.04102004,-0.007242456,-0.0007566085,-0.00436483,-0.0019714762,0.007876294,0.47639662,-1.4222625,1.9534129,-2.1004455,-1.5705279,2.451311,-0.027960125,0.07959768,-0.09202806,0.012166593,0.0046117655,-0.03578721,-0.17238252,0.28730422,-9.346964,0.7732232,47.67345,-0.94166994,-2.1287026,-3.3132024,-0.30640942,0.12836863,-0.3665085,25.0,25.4375,24.875,27.0625,27.3125,27.6875
0.09605417,-0.4233296,-1.1567119,-0.8567196,-0.018422421,0.056494053,-0.10540497,-0.38315034,-0.3488839,0.05996511,3.0787718,-0.6248236,0.00017857333,-0.04368275,-0.008407584,0.00052841107,-0.0058864616,0.0011527082,0.0069684866,0.47632462,-1.4220693,1.9532198,-2.1004212,-1.5704921,2.4512153,-0.028276302,0.0821733,-0.097877085,0.011967782,0.004517634,-0.035192225,-0.1340753,0.24899697,-9.32781,0.81351066,47.707485,-0.98596555,-2.209042,-3.1551104,-0.30628473,0.14013855,-0.40364987,25.0,25.4375,24.875,27.0625,27.3125,27.6875
0.098055616,-0.20584626,-0.5889029,-0.7849663,-0.030686038,0.051873017,-0.11563866,-0.38323835,-0.34889638,0.059963416,3.078803,-0.62477094,0.00013011077,-0.04314595,-0.007943587,-0.00037648468,-0.00527188,-0.0006148194,0.008500692,0.4762885,-1.421901,1.9530286,-2.1004097,-1.5705274,2.4511425,-0.028770568,0.0827549,-0.09645336,0.011813176,0.004784997,-0.037219666,-0.05746084,0.2681506,-9.442732,0.8112748,47.684196,-1.0036173,-2.109883,-3.4092705,-0.31748176,0.1321744,-0.4029522,25.0,25.4375,24.875,27.0625,27.3125,27.6875
0.10005441,-0.18270807,-1.335574,-0.8276581,-0.019501664,0.04871528,-0.104845375,-0.38331586,-0.34889302,0.059945114,3.0788028,-0.6248095,0.00026498575,-0.04440322,-0.008262673,-4.1043768e-05,-0.006016542,0.00035118134,0.009967072,0.47618023,-1.4217203,1.9528474,-2.1003377,-1.5704798,2.4510584,-0.029486557,0.084176846,-0.098797105,0.011536926,0.0049956106,-0.0394013,-0.05746084,0.24899697,-9.481039,0.7597976,47.675243,-0.9863825,-2.093769,-3.3232002,-0.2937252,0.14010593,-0.39943755,25.0,25.4375,24.875,27.0625,27.3125,27.6875
0.10205483,0.04613055,-0.9828624,-0.68213314,-0.03718268,0.04951882,-0.113449045,-0.38340902,-0.3489258,0.059969693,3.0788002,-0.6247297,0.0001701979,-0.04511461,-0.008446978,-0.00018494537,-0.0063373297,0.0005510203,0.012059433,0.476168,-1.4215757,1.9526204,-2.100314,-1.5705036,2.4509969,-0.029932449,0.08560587,-0.09998486,0.010969717,0.0051874467,-0.041938655,-0.038307227,0.2681506,-9.385271,0.7642693,47.704796,-0.9860275,-2.088302,-3.4054637,-0.30775046,0.121719636,-0.37366802,25.0,25.4375,24.875,27.0625,27.3125,27.6875
0.1040544,-0.15418784,-1.3578514,-0.80289316,-0.030701952,0.041078556,-0.10685719,-0.3834981,-0.34893566,0.059952796,3.0788138,-0.62473154,0.00022644334,-0.045507148,-0.008536766,-0.00036314855,-0.0059500095,0.00040140652,0.01400983,0.476096,-1.421371,1.9524168,-2.1002786,-1.5704921,2.4509244,-0.029943688,0.08685975,-0.10105938,0.011102968,0.004908287,-0.043899376,-0.05746084,0.30645782,-9.289502,0.842603,47.66808,-1.001236,-2.0700903,-3.4697766,-0.31037992,0.13054007,-0.35330242,25.0,25.4375,24.875,27.0625,27.3125,27.6875
0.10605397,-0.3762622,-1.3520776,-0.8849004,-0.029469803,0.040244732,-0.10750213,-0.38360643,-0.34893095,0.05995925,3.0787945,-0.62470955,0.00018323741,-0.047254153,-0.009077102,0.00017532536,-0.0071144034,0.0021199072,0.012623232,0.47598773,-1.4212261,1.9522365,-2.100279,-1.5704917,2.450805,-0.030734582,0.08867317,-0.10421104,0.010379826,0.005149281,-0.043301903,-0.019153614,0.3256114,-9.385271,0.78888994,47.65464,-1.0680695,-2.081801,-3.5420454,-0.29670706,0.13892129,-0.40293515,25.0,25.4375,24.875,27.0625,27.3125,27.6875
0.10805488,0.20712332,-0.9907654,-0.88000536,-0.03888769,0.048820265,-0.11636193,-0.3837037,-0.34898093,0.0599653,3.0787692,-0.62458664,0.00017769243,-0.046877086,-0.00875961,-0.0009424914,-0.006459643,-4.929153e-05,0.0146873845,0.47596356,-1.4210215,1.9519857,-2.1002667,-1.5704559,2.4507074,-0.031211104,0.090207025,-0.103404775,0.010268389,0.0055642105,-0.0458432,0.095768064,0.28730422,-9.481039,0.9455522,47.689575,-1.0550102,-1.9936223,-3.5516715,-0.28465426,0.13489911,-0.39453155,25.0,25.4375,24.875,27.0625,27.3125,27.6875
0.11005483,-0.03384531,-1.0373695,-0.85183716,-0.03723441,0.04206526,-0.110774085,-0.38378868,-0.34899577,0.059973672,3.078752,-0.6245815,0.00017511335,-0.048665218,-0.009619683,2.4658673e-05,-0.0076427753,0.0021621273,0.017038798,0.47590372,-1.420877,1.9517931,-2.100231,-1.5704435,2.4506466,-0.03134104,0.091803685,-0.10743658,0.010197033,0.005594585,-0.04832229,0.019153614,0.2681506,-9.481039,0.8023209,47.657326,-1.1216003,-1.9115167,-3.628346,-0.27396482,0.13762292,-0.3605709,25.0,25.4375,24.875,27.0625,27.3125,27.6875
0.11205449,0.08130099,-0.99076205,-0.7797543,-0.038708515,0.036591075,-0.10984488,-0.38388708,-0.34900147,0.059970167,3.078773,-0.6245274,0.00016411114,-0.049557634,-0.009535151,0.00031260142,-0.007999834,0.0025327834,0.018529713,0.4758313,-1.4206965,1.951589,-2.1002066,-1.5704559,2.450538,-0.032392625,0.09248439,-0.108971134,0.010557538,0.0057400404,-0.05086425,0.0,0.34476504,-9.442732,0.7933669,47.661808,-1.2029052,-2.0795414,-3.4687505,-0.29069352,0.12637733,-0.34070867,25.0,25.4375,24.875,27.0625,27.3125,27.6875
0.11405449,-0.027774213,-0.9708067,-0.8575121,-0.03425465,0.035243742,-0.107513055,-0.38397953,-0.34903508,0.059956655,3.0787673,-0.62441075,0.0001998316,-0.051588617,-0.009587011,0.0017870675,-0.009705026,0.0053992486,0.018930232,0.4757824,-1.4204804,1.9513725,-2.1002066,-1.5704197,2.450417,-0.034281213,0.09209555,-0.11191307,0.010561056,0.0059368447,-0.0531523,-0.019153614,0.3256114,-9.404425,0.8717007,47.675243,-1.0490758,-1.8636749,-3.5408254,-0.28208005,0.14594229,-0.30118817,25.0,25.4375,24.875,27.0625,27.3125,27.6875
0.11605484,0.10222697,-0.78485405,-0.9707433,-0.037887666,0.04382785,-0.115207076,-0.38409525,-0.34904146,0.059964795,3.0788043,-0.6243389,0.00015281753,-0.052223504,-0.010087632,0.00032432162,-0.008334448,0.0031344513,0.02154157,0.47571078,-1.4202863,1.9511207,-2.1001585,-1.5704559,2.4502962,-0.033847567,0.0973645,-0.11464585,0.010665448,0.0057511684,-0.05532754,-0.15322891,0.24899697,-9.5385,0.73741806,47.694946,-1.1644824,-2.0498176,-3.4811072,-0.2672251,0.15541218,-0.27612808,25.0,25.4375,24.875,27.0625,27.3125,27.6875
0.11805507,-0.40485948,-1.3718679,-1.1200174,-0.030625043,0.044487953,-0.10911852,-0.38421202,-0.34908807,0.059989113,3.078731,-0.6241865,0.00013617949,-0.052800797,-0.011079253,0.0018265641,-0.009951181,0.005973048,0.025510754,0.4756392,-1.4201069,1.950857,-2.1001465,-1.5703834,2.4501388,-0.032695614,0.09599245,-0.11651668,0.0106491,0.0058892164,-0.05814388,-0.15322891,0.30645782,-9.519346,0.76874626,47.698532,-1.2261889,-1.7930963,-3.517249,-0.2770803,0.14453644,-0.24029337,25.0,25.4375,24.875,27.0625,27.3125,27.6875
0.12005405,-0.46555316,-1.2476839,-1.1170996,-0.043458283,0.05613723,-0.11691653,-0.3843312,-0.3490935,0.060014326,3.0787084,-0.62420076,3.9290455e-05,-0.053890795,-0.011200408,0.0019669114,-0.010391425,0.005824229,0.026678083,0.4755548,-1.419962,1.9506282,-2.1001227,-1.5704073,2.4500663,-0.033764277,0.097696766,-0.11895123,0.01130802,0.006349645,-0.06037882,-0.095768064,0.30645782,-9.576807,0.7553206,47.677036,-1.2906839,-1.7971148,-3.4416838,-0.2814262,0.14771129,-0.21549174,25.0,25.4375,24.875,27.0625,27.3125,27.6875
0.122054316,-0.52737004,-1.1794612,-1.1255182,-0.04901257,0.06012526,-0.11708143,-0.38442224,-0.3491356,0.059994504,3.07874,-0.62403476,9.7572265e-05,-0.055062708,-0.010593691,0.001525946,-0.010286924,0.0044120695,0.025200382,0.4755299,-1.4197088,1.9503778,-2.100098,-1.570383,2.449934,-0.036259662,0.09994739,-0.120737195,0.012146567,0.006899993,-0.06139641,-0.11492168,0.34476504,-9.634268,0.8224646,47.695843,-1.1766872,-1.8287311,-3.5103621,-0.28456062,0.12080334,-0.19131413,25.0,25.4375,24.875,27.0625,27.3125,27.6875
0.1240539,-0.2799103,-1.3053954,-0.98148483,-0.04880952,0.070046365,-0.11909222,-0.38453823,-0.3491502,0.06001178,3.078699,-0.62402505,7.649311e-05,-0.056157578,-0.011219141,0.0022553755,-0.011282153,0.00582427,0.026549924,0.47543392,-1.4195405,1.9501375,-2.1000626,-1.5703591,2.4498372,-0.03629257,0.10076042,-0.12337549,0.012262371,0.007136289,-0.06277756,-0.11492168,0.30645782,-9.615114,0.83813137,47.690468,-1.2250291,-1.7563547,-3.4620194,-0.26132494,0.11740935,-0.16025265,25.0,25.4375,24.875,27.0625,27.3125,27.6875
0.12605418,-0.50598305,-1.5272026,-1.070393,-0.040722907,0.06625069,-0.11671944,-0.38465527,-0.3491451,0.060005583,3.0787225,-0.62399346,8.0065016e-05,-0.057961844,-0.011007382,0.0019641146,-0.01111586,0.005571621,0.023641473,0.4753253,-1.4193352,1.9499081,-2.1000264,-1.570371,2.449706,-0.038278833,0.10401415,-0.12649679,0.012430671,0.0070979334,-0.06185343,-0.2681506,0.34476504,-9.672575,0.78888994,47.692257,-1.2023395,-1.780184,-3.4230266,-0.29268348,0.12031339,-0.12781501,25.0,25.4375,24.875,27.0625,27.3125,27.6875
0.1280551,-0.72881126,-0.88969004,-0.9667668,-0.047171384,0.06404743,-0.11475791,-0.38475052,-0.34917864,0.05999027,3.0787442,-0.6238423,9.423969e-05,-0.058776256,-0.011227636,0.0017800197,-0.010907928,0.00598125,0.023829993,0.47528943,-1.4191066,1.9496812,-2.1000264,-1.5703591,2.4495733,-0.0383818,0.10585745,-0.12809533,0.011919306,0.006721252,-0.062143307,-0.2681506,0.3256114,-9.730036,0.85155696,47.677036,-1.2087508,-1.7680061,-3.4112883,-0.28109065,0.11893944,-0.12017527,25.0,25.4375,24.875,27.0625,27.3125,27.6875
0.13005449,-0.63477606,-0.825748,-1.086738,-0.03752237,0.07275102,-0.117471896,-0.3848832,-0.3492224,0.06002265,3.0787036,-0.6236812,1.5984799e-05,-0.061132938,-0.013033347,0.002980435,-0.0130238645,0.008583411,0.024075592,0.4752295,-1.4189129,1.9493798,-2.1000025,-1.5703348,2.449418,-0.037773076,0.108972155,-0.13440335,0.011830035,0.0074040443,-0.06177692,-0.28730422,0.24899697,-9.672575,0.779936,47.67345,-1.290646,-1.9890809,-3.2260938,-0.26914188,0.11819938,-0.09590967,25.0,25.4375,24.875,27.0625,27.3125,27.6875
0.13205427,-0.9292021,-1.2461276,-1.1947294,-0.019550234,0.071218744,-0.10876822,-0.3849972,-0.3492419,0.060023036,3.0786657,-0.6236756,9.161136e-05,-0.061489552,-0.012539232,0.0019151018,-0.012282342,0.007065151,0.019006953,0.47512105,-1.4186963,1.9491171,-2.099943,-1.5702752,2.449311,-0.0389757,0.11115936,-0.13438351,0.011315389,0.0074378774,-0.057910673,-0.30645782,0.28730422,-9.557653,0.800085,47.666286,-1.2753516,-1.8241901,-3.407724,-0.26106432,0.11841768,-0.12519114,25.0,25.4375,24.875,27.0625,27.3125,27.6875
0.13405493,-0.5904524,-1.0758977,-0.93054986,-0.022391375,0.082258284,-0.117618494,-0.38513997,-0.34927493,0.06004127,3.0786324,-0.6235742,-9.178217e-06,-0.063287854,-0.012245581,0.0018233698,-0.01236555,0.007052577,0.01585868,0.47504833,-1.418479,1.948829,-2.0999553,-1.5702747,2.4491794,-0.04117334,0.11381065,-0.13728718,0.011540894,0.0075172707,-0.056957774,-0.4213795,0.2681506,-9.519346,0.79560274,47.66987,-1.275075,-2.0155675,-3.2172956,-0.23963258,0.09662523,-0.1530181,25.0,25.4375,24.875,27.0625,27.3125,27.6875
0.13605484,-1.2371049,-1.2922165,-0.92704105,-0.029357217,0.06681101,-0.10848632,-0.38526914,-0.349292,0.060052786,3.078622,-0.623572,-8.9572924e-05,-0.064483486,-0.012419735,0.0019492427,-0.012403314,0.0071662036,0.015732411,0.47497597,-1.418274,1.9485649,-2.0999424,-1.570299,2.4491072,-0.041929655,0.11585025,-0.1400793,0.012174571,0.007498033,-0.057585932,-0.40222588,0.28730422,-9.442732,0.8314132,47.694054,-1.1747298,-1.9917785,-3.227756,-0.23275906,0.112603426,-0.13804725,25.0,25.4375,24.875,27.0,27.3125,27.6875
0.1380548,-0.5936381,-0.8981589,-0.7175342,-0.042176366,0.087336265,-0.11089979,-0.38537323,-0.3493274,0.060048822,3.0785978,-0.62349147,-1.4464074e-05,-0.06524884,-0.012732261,0.001868199,-0.012739471,0.0067983507,0.012555493,0.4749041,-1.4180453,1.9483007,-2.0998948,-1.5702385,2.4489882,-0.042359613,0.117720276,-0.1421494,0.012549414,0.007960858,-0.054838423,-0.4405331,0.30645782,-9.385271,0.8314132,47.704796,-1.2862737,-1.8741295,-3.2367702,-0.23210096,0.0828644,-0.1405022,25.0,25.4375,24.875,27.0,27.3125,27.6875
0.14005455,-1.4837358,-1.2535393,-0.7566928,-0.03630311,0.069956325,-0.11139953,-0.38552803,-0.3493462,0.06006811,3.078561,-0.62348586,-8.615123e-05,-0.06644678,-0.01288229,0.0022075342,-0.012877352,0.0074075554,0.009135537,0.4747957,-1.4178166,1.9479889,-2.0998704,-1.5702385,2.4488811,-0.043064084,0.11920017,-0.14476767,0.013083395,0.007804049,-0.052120946,-0.61291564,0.30645782,-9.404425,0.81351066,47.690468,-1.2703559,-1.7713084,-3.1896553,-0.24454245,0.102408424,-0.19264844,25.0,25.4375,24.875,27.0,27.3125,27.6875
0.14205454,-1.3185271,-1.4038088,-0.48985374,-0.037151236,0.082376644,-0.11171326,-0.38567537,-0.34939495,0.060091328,3.0785186,-0.6233619,-0.00021550542,-0.067163356,-0.012446637,0.0010461269,-0.011588295,0.005730812,0.007869444,0.47474733,-1.417587,1.947678,-2.0998948,-1.570239,2.448761,-0.044228233,0.12250249,-0.14591406,0.013009752,0.0074274056,-0.052016776,-0.47884035,0.3256114,-9.346964,0.8090337,47.69763,-1.2647495,-1.7744024,-3.344017,-0.21379894,0.09461978,-0.20934978,25.0,25.4375,24.875,27.0,27.3125,27.6875
0.14405441,-1.4340534,-1.3335131,-0.5312122,-0.030724166,0.07826519,-0.110682175,-0.38582322,-0.3494231,0.060113095,3.078466,-0.6233322,-0.00023692178,-0.068045504,-0.012148223,0.00087656325,-0.011029898,0.005745568,0.0065046037,0.4746389,-1.4173585,1.9473552,-2.099847,-1.5702032,2.4486408,-0.04521169,0.12398257,-0.1472816,0.013143676,0.0069246683,-0.051633764,-0.4213795,0.30645782,-9.3661175,0.8291774,47.690468,-1.2519883,-1.8643045,-3.2806478,-0.21330112,0.09823587,-0.25201738,25.0,25.4375,24.875,27.0,27.3125,27.6875
0.14605467,-1.5703692,-1.4431812,-0.45448285,-0.011525205,0.068759225,-0.105511926,-0.38596016,-0.34944192,0.06011363,3.078472,-0.6233149,-0.00026125528,-0.068838105,-0.012035608,0.00019161988,-0.010885049,0.004746987,0.0050633173,0.4745546,-1.4171054,1.9470552,-2.0998108,-1.5702151,2.4485452,-0.046323016,0.1265056,-0.14858322,0.012875382,0.007249902,-0.05130302,-0.45968673,0.22984336,-9.289502,0.86945957,47.711063,-1.2776788,-1.8349884,-3.3359652,-0.18286698,0.091535,-0.2696834,25.0,25.4375,24.875,27.0,27.3125,27.6875
0.1480546,-0.7807781,-0.36949334,-0.13855985,-0.021031877,0.07401931,-0.115971014,-0.38609695,-0.34946686,0.060118902,3.0784216,-0.62332386,-0.00029316448,-0.06922205,-0.011718384,-0.0010995711,-0.009354564,0.002668688,0.004722361,0.47445837,-1.4168763,1.9467801,-2.0998104,-1.5701913,2.448461,-0.04694712,0.12987514,-0.14957137,0.013045531,0.0068395776,-0.05158456,-0.40222588,0.1340753,-9.078813,0.842603,47.70211,-1.260883,-1.7809292,-3.3983614,-0.17910238,0.09329684,-0.26258415,25.0,25.4375,24.875,27.0,27.3125,27.6875
0.15005468,-0.6505946,-0.30625403,-0.13610032,0.0022335341,0.06077686,-0.110268004,-0.3862502,-0.34950268,0.060122363,3.078393,-0.6232605,-0.0003411035,-0.071425654,-0.012059097,0.0014900253,-0.011882153,0.007921212,0.003636176,0.47437394,-1.4166007,1.9464558,-2.0998108,-1.5701793,2.448341,-0.04822893,0.12741747,-0.15261784,0.012724463,0.006684687,-0.051778655,-0.3256114,0.11492168,-9.002198,0.779936,47.690468,-1.2268491,-1.8181002,-3.4186053,-0.17501527,0.12462885,-0.29222828,25.0,25.4375,24.875,27.0,27.3125,27.6875
0.1520543,0.016069697,-0.17192338,-0.03660295,0.009657696,0.05808677,-0.118278466,-0.38641167,-0.3495291,0.060155623,3.0783343,-0.6232481,-0.00042791548,-0.07183229,-0.011570329,-0.0010038035,-0.009632403,0.0035378302,0.0032095206,0.47426558,-1.416382,1.9461206,-2.099775,-1.5701674,2.4482324,-0.049439892,0.1334075,-0.15387848,0.012923822,0.006688878,-0.052560966,-0.24899697,0.038307227,-8.848969,0.86945957,47.68062,-1.2393928,-1.8938168,-3.4322772,-0.13952266,0.11507547,-0.2958872,25.0,25.4375,24.875,27.0,27.3125,27.6875
0.15405501,-0.36379343,-0.041956197,0.042953115,0.013689927,0.031683795,-0.106576666,-0.38656172,-0.349543,0.060132183,3.0783129,-0.62330145,-0.00041554743,-0.07358785,-0.012217467,0.0007956017,-0.012336441,0.0067963144,0.003237933,0.47414523,-1.4160824,1.9458326,-2.099787,-1.570155,2.4481483,-0.050455566,0.1324569,-0.15689026,0.012751254,0.007601608,-0.053604495,-0.19153614,0.0,-8.791509,0.80679786,47.67345,-1.1821814,-1.7152268,-3.3908744,-0.111748144,0.102140315,-0.33935654,25.0,25.4375,24.875,27.0,27.3125,27.6875
0.15605554,0.49481097,0.21267422,0.022413535,0.016047714,0.041430786,-0.114143446,-0.38669923,-0.34955707,0.060116503,3.0783117,-0.6233002,-0.0003870846,-0.07435205,-0.012081485,0.00044195272,-0.0114206,0.0058031874,0.003230385,0.474037,-1.4158053,1.9455446,-2.0997627,-1.5701431,2.4480395,-0.051132683,0.13480458,-0.15907705,0.01389521,0.0072390107,-0.054272745,-0.19153613,-0.076614454,-8.829816,0.8291774,47.664497,-1.2234925,-1.7940841,-3.3621902,-0.09857172,0.0860562,-0.35353887,25.0,25.4375,24.875,27.0,27.3125,27.6875
0.15805456,-0.34882978,0.096986316,-0.026553364,0.01319441,0.019096222,-0.11142402,-0.38687223,-0.34960225,0.060148966,3.0782282,-0.6232281,-0.00045336602,-0.07649983,-0.011269522,0.0003645818,-0.010637906,0.0052581406,-0.00014682012,0.473928,-1.4155518,1.9451736,-2.0997384,-1.570095,2.4478962,-0.05420142,0.13784768,-0.16276984,0.015392013,0.0067927237,-0.053961385,-0.17238252,0.05746084,-8.868123,0.8560339,47.691364,-1.0882341,-1.8289697,-3.42486,-0.106421396,0.11048253,-0.3928793,25.0,25.4375,24.875,27.0,27.3125,27.6875
0.16005437,-0.1448826,-0.17029743,-0.089210466,0.0030617993,0.030589929,-0.11131782,-0.38703543,-0.34960783,0.060149323,3.0782392,-0.6232865,-0.0005289547,-0.07519121,-0.011038267,-0.0011193703,-0.00870466,0.0017697344,0.0009884324,0.4738202,-1.4152752,1.9448494,-2.099714,-1.5701431,2.4478238,-0.053312443,0.13953696,-0.16162556,0.016543427,0.006671785,-0.054208,-0.1340753,0.1340753,-8.868123,0.784413,47.703007,-1.0776758,-1.7416581,-3.4391227,-0.09388323,0.107431926,-0.4081466,25.0,25.4375,24.875,27.0,27.3125,27.6875
0.16205399,-0.810637,-1.1828482,-0.3145299,0.005287073,0.027439909,-0.095720075,-0.38716075,-0.3496113,0.060136586,3.0782695,-0.6232534,-0.000482585,-0.0767055,-0.011844602,-0.0008956214,-0.009602884,0.002155984,0.0011821272,0.4737122,-1.4150221,1.9445738,-2.099654,-1.5701431,2.4476914,-0.053639203,0.14245349,-0.16558988,0.016836513,0.00728596,-0.054726884,-0.11492168,0.15322891,-8.887277,0.8560339,47.70032,-1.1975964,-1.6876119,-3.3952355,-0.10070121,0.095789365,-0.44025004,25.0,25.4375,24.875,27.0,27.3125,27.6875
0.16405459,-0.34442765,-0.98386484,-0.4302016,-0.012704633,0.046595648,-0.103345886,-0.38730627,-0.34965155,0.060139146,3.0782382,-0.62322795,-0.00046136059,-0.078634135,-0.011992803,0.0014398107,-0.01174602,0.005709557,0.00085692905,0.47362763,-1.4147345,1.9442261,-2.0996058,-1.5701073,2.4475951,-0.055285037,0.14047126,-0.16894996,0.018041175,0.0075700507,-0.05604663,-0.05746084,0.22984336,-9.078813,0.74413085,47.687782,-1.0775269,-1.7631496,-3.3176932,-0.086178556,0.10121855,-0.45748144,25.0,25.4375,24.875,27.0,27.3125,27.6875
0.16605462,-0.33923304,-1.2852734,-0.67040575,-0.021109816,0.05262517,-0.109862566,-0.38746443,-0.34968227,0.06013532,3.0781922,-0.6232373,-0.00042282807,-0.08008352,-0.011110721,0.00014915326,-0.010213333,0.002213183,-4.6366793e-05,0.47350663,-1.414432,1.9438785,-2.0995686,-1.5700587,2.447486,-0.05827404,0.1453788,-0.17217813,0.020176467,0.007801679,-0.05813058,-0.095768064,0.28730422,-9.155427,0.85155696,47.684196,-1.0253527,-1.8136091,-3.2238064,-0.08901816,0.10184817,-0.47532558,25.0,25.4375,24.875,27.0,27.3125,27.6875
0.16805467,-0.60621965,-1.5012312,-0.6615735,-0.038149595,0.051693242,-0.113978654,-0.38761652,-0.3496748,0.060123697,3.0782309,-0.6232439,-0.0003759031,-0.0798392,-0.011566405,0.00027900946,-0.009491129,0.0015947244,0.0030565055,0.47336316,-1.4141438,1.9435543,-2.0994847,-1.5700711,2.447342,-0.05698404,0.14607406,-0.17370512,0.021890674,0.0074409945,-0.059943117,-0.24899697,0.4213795,-9.270349,0.84708,47.70032,-1.023937,-1.7179512,-3.4464412,-0.11016924,0.11774938,-0.48666674,25.0,25.4375,24.875,27.0,27.3125,27.6875
0.17005435,-1.1578507,-2.287683,-0.95334107,-0.040327057,0.04866691,-0.09998237,-0.3877608,-0.34970406,0.06011476,3.0782678,-0.6231132,-0.00038305437,-0.08001579,-0.011182089,-0.0006593369,-0.008381889,-0.0007033417,0.00740164,0.4732909,-1.4138428,1.94322,-2.0994484,-1.5700825,2.4471836,-0.057838425,0.14844967,-0.17458102,0.022944527,0.007505827,-0.06514219,-0.34476504,0.51714754,-9.3661175,0.8157518,47.682407,-1.1097395,-1.748916,-3.4158397,-0.12449976,0.11370684,-0.4730388,25.0,25.4375,24.875,27.0,27.3125,27.6875
0.17205487,-0.94793,-2.419214,-1.2452245,-0.050317086,0.06665254,-0.107313104,-0.38792294,-0.34971845,0.06011836,3.0782328,-0.62318414,-0.0003316755,-0.081840366,-0.010742687,-0.00080786017,-0.008566838,-0.00072199793,0.0062158653,0.47314596,-1.4135534,1.9428595,-2.0993645,-1.5700468,2.4470875,-0.060339183,0.15096526,-0.17718357,0.022967456,0.007673944,-0.06645585,-0.24899697,0.57460845,-9.442732,0.92764956,47.682407,-1.0158294,-1.7548974,-3.3331451,-0.13262872,0.10871286,-0.4613849,25.0,25.4375,24.875,27.0,27.3125,27.6875
0.17405447,-1.2336802,-2.36919,-1.2237272,-0.07065222,0.074161656,-0.11002648,-0.38808712,-0.3497326,0.060096845,3.0782506,-0.62312675,-0.00028698953,-0.08263693,-0.011041809,-0.00044505903,-0.009249903,-0.0002627664,0.009992215,0.47301385,-1.4132168,1.9425129,-2.0993283,-1.5700344,2.4469175,-0.06075384,0.1517972,-0.1791016,0.023336506,0.008071134,-0.07064649,-0.22984336,0.5363012,-9.595961,0.78888994,47.66539,-0.9578935,-1.7842296,-3.352745,-0.12405262,0.099829875,-0.43922144,25.0,25.4375,24.875,27.0,27.3125,27.6875
0.17605491,-1.4008101,-2.6331985,-1.2063972,-0.06514661,0.074027404,-0.10371416,-0.38826582,-0.3497712,0.060116667,3.0781834,-0.6231086,-0.00027196543,-0.084071614,-0.01098135,0.00013717268,-0.009875434,0.0015726138,0.016983368,0.47288135,-1.4129165,1.9421057,-2.0992572,-1.5699748,2.4467824,-0.061943695,0.1523149,-0.18093231,0.022742378,0.007795855,-0.078826055,-0.30645782,0.5746084,-9.576807,0.84708,47.67793,-0.8842243,-1.7484105,-3.4050598,-0.11097483,0.11766684,-0.35967964,25.0,25.4375,24.875,27.0,27.3125,27.6875
0.17805491,-0.8569467,-1.8177181,-1.2594628,-0.053938862,0.08515866,-0.10981821,-0.3884246,-0.34978732,0.06010589,3.0782118,-0.6230559,-0.00026646015,-0.08498977,-0.011400242,-0.0009270646,-0.009749184,0.00016393205,0.018159457,0.47277337,-1.4126025,1.9417576,-2.0992095,-1.5699867,2.446638,-0.062343173,0.15650155,-0.18324584,0.022179985,0.008319291,-0.080400355,-0.36391866,0.47884035,-9.519346,0.85826975,47.709274,-0.9243585,-1.8295591,-3.3791564,-0.12539208,0.11117758,-0.32310554,25.0,25.4375,24.875,27.0,27.3125,27.6875
0.18005455,-1.1639915,-1.4836091,-1.3882297,-0.023551844,0.06894575,-0.106834464,-0.3886032,-0.34981734,0.06010454,3.0781753,-0.62295014,-0.0002851865,-0.08532153,-0.010917016,-0.002713411,-0.008501527,-0.0027017691,0.021898061,0.472641,-1.412289,1.9413995,-2.0992095,-1.5699505,2.4464445,-0.063583806,0.16037877,-0.18359444,0.021777645,0.00851932,-0.085378624,-0.2681506,0.4405331,-9.653421,0.7665104,47.689575,-0.8645661,-1.88939,-3.4596457,-0.10418674,0.10046297,-0.28436714,25.0,25.4375,24.875,27.0,27.3125,27.6875
0.18205425,-0.659336,-0.81320876,-1.1898571,-0.024737205,0.076468766,-0.10672987,-0.3887872,-0.3498368,0.060099497,3.0781753,-0.62290984,-0.00029975173,-0.08758519,-0.011585923,-0.0017101488,-0.010250765,4.371386e-05,0.02370892,0.47250852,-1.4119523,1.9410146,-2.0991738,-1.5699505,2.4462872,-0.06460812,0.16196868,-0.18757227,0.020926844,0.0088202385,-0.08821173,-0.21068975,0.22984336,-9.576807,0.85155696,47.67166,-0.9286463,-1.9546006,-3.566382,-0.07884306,0.109742165,-0.2143293,25.0,25.4375,24.875,27.0,27.3125,27.6875
0.18405502,-0.40425673,-0.40579253,-1.102509,-0.016417872,0.0685451,-0.11009313,-0.38896593,-0.34984478,0.060083807,3.0782025,-0.62287617,-0.0003199597,-0.08760502,-0.011191656,-0.0035058605,-0.008893566,-0.0027530296,0.024478259,0.47237635,-1.4116149,1.9406561,-2.09915,-1.5699748,2.4461308,-0.06532251,0.165483,-0.18746442,0.02041253,0.008884765,-0.08969505,-0.28730422,0.15322891,-9.442732,0.88960326,47.674347,-0.8853177,-2.052391,-3.54737,-0.08142507,0.0982836,-0.1657956,25.0,25.4375,24.875,27.0,27.3125,27.6875
0.18605405,-0.3034265,-0.39239722,-0.99912333,-0.0064961114,0.06063119,-0.10749873,-0.38913363,-0.34987345,0.060094226,3.078185,-0.6227004,-0.00029847166,-0.08880912,-0.011220081,-0.0034740116,-0.009711879,-0.0032181218,0.023285165,0.47224385,-1.4113257,1.9402851,-2.0990899,-1.5699261,2.445891,-0.06692288,0.16735548,-0.18987331,0.020993384,0.009823658,-0.090101525,-0.24899697,0.076614454,-9.481039,0.84484416,47.689575,-0.8210518,-2.063188,-3.5696313,-0.05133932,0.10637304,-0.13513628,25.0,25.4375,24.875,27.0,27.3125,27.6875
0.18805495,-0.24016736,-0.57617205,-1.0353775,-0.0019803082,0.059057035,-0.12094654,-0.38931698,-0.34991908,0.060102217,3.078129,-0.62265086,-0.00033557677,-0.089126244,-0.010360003,-0.0042865733,-0.0078085307,-0.0044250023,0.020690791,0.4721356,-1.4110007,1.9398893,-2.099078,-1.5698909,2.445759,-0.06794996,0.16896284,-0.19004236,0.021502895,0.00868229,-0.088532835,-0.21068975,0.038307227,-9.5385,0.8851263,47.664497,-0.806978,-2.0651448,-3.632173,-0.048220176,0.10064728,-0.14058137,25.0,25.4375,24.875,27.0,27.3125,27.6875
0.19005485,-0.5823946,-0.20249657,-0.9469477,-0.0060775937,0.05022375,-0.108938165,-0.38951987,-0.34994125,0.060104404,3.0781007,-0.62260914,-0.0004049286,-0.08997836,-0.010160834,-0.0050908783,-0.0066275,-0.006168403,0.01666204,0.47199115,-1.4106632,1.939495,-2.099078,-1.5698909,2.4455924,-0.068857744,0.17237416,-0.1924457,0.02258465,0.008422418,-0.085409865,-0.22984336,-0.038307227,-9.442732,0.7911258,47.6636,-0.69545805,-2.1859758,-3.624937,-0.036862448,0.107104465,-0.14504446,25.0,25.4375,24.875,27.0,27.3125,27.6875
0.19205447,-0.1666748,-0.5614853,-0.97577745,0.0019926047,0.062414534,-0.106356785,-0.38969928,-0.34996274,0.060095876,3.0781202,-0.62250036,-0.00037703072,-0.0917889,-0.010911714,-0.004185508,-0.008145508,-0.0047848104,0.011240096,0.4718589,-1.4103146,1.9390982,-2.0990174,-1.5698785,2.44539,-0.06958468,0.17413734,-0.19673955,0.023189044,0.009132065,-0.08071328,-0.2681506,0.1340753,-9.232041,0.8314132,47.686886,-0.7383183,-2.0907495,-3.5874033,-0.034174997,0.11260682,-0.17601846,25.0,25.4375,24.875,27.0,27.3125,27.6875
0.19405419,-0.7549784,-0.7642397,-0.8407657,0.0058787065,0.052022636,-0.10012746,-0.38991657,-0.34997132,0.060115416,3.0780792,-0.62255085,-0.00043630035,-0.09474773,-0.010980726,-0.002038191,-0.009846547,-0.00011218441,0.007574486,0.47167817,-1.4099904,1.9386657,-2.0989573,-1.5698789,2.4452462,-0.07168124,0.17373522,-0.20121025,0.023129301,0.008516652,-0.07914154,-0.38307226,0.15322891,-9.174581,0.80456203,47.661808,-0.70027626,-1.9844856,-3.428533,-0.034806892,0.11752428,-0.21117428,25.0,25.4375,24.875,27.0,27.3125,27.6875
0.19605397,-0.71920496,-0.46556455,-0.8095269,-0.0010577973,0.059817705,-0.101812236,-0.39007783,-0.3500107,0.06009667,3.0780978,-0.6224223,-0.0003274083,-0.09533562,-0.0120309135,-0.0019679698,-0.0102411825,0.00048168414,0.0031365245,0.47157085,-1.4096173,1.9382585,-2.0988734,-1.5698308,2.4450564,-0.07037184,0.17577982,-0.20374286,0.02290891,0.008583704,-0.073393226,-0.38307226,0.21068975,-9.32781,0.84484416,47.694946,-0.6549258,-2.0293446,-3.365067,-0.0031568615,0.13305995,-0.26402986,25.0,25.4375,24.875,27.0,27.3125,27.6875
0.19805452,-0.803795,-1.0647076,-0.8950055,-0.006313372,0.06457195,-0.0979234,-0.39027697,-0.35002184,0.060095705,3.0780709,-0.6224356,-0.00034186617,-0.09549753,-0.012850422,-0.0013306119,-0.011172487,0.00052080915,0.0033841762,0.47140294,-1.4092808,1.9378637,-2.0988371,-1.5698184,2.4449005,-0.06954725,0.17606233,-0.2059004,0.024325158,0.009396175,-0.07281585,-0.40222588,0.3256114,-9.308657,0.8560339,47.709274,-0.8033855,-1.959838,-3.3900886,0.008674156,0.11172572,-0.30215114,25.0,25.4375,24.875,27.0,27.3125,27.6875
0.20005502,-0.64939,-1.3317918,-0.6881236,-0.029459044,0.08291179,-0.11392551,-0.39046317,-0.35003698,0.060066637,3.078087,-0.62241817,-0.0002553422,-0.0965389,-0.0120823635,-0.0012546525,-0.01044124,-0.00029976465,0.0047505777,0.47124642,-1.408884,1.9374579,-2.098777,-1.5697945,2.4447312,-0.07160557,0.17722495,-0.20792416,0.026256632,0.009117369,-0.07624023,-0.40222588,0.40222588,-9.385271,0.900793,47.677036,-0.7876663,-1.8500903,-3.3811736,-0.019795759,0.119873956,-0.28599268,25.0,25.4375,24.875,27.0,27.3125,27.6875
0.20205472,-1.5640196,-1.6656891,-0.81100816,-0.042085048,0.061063375,-0.09891071,-0.3906535,-0.35005695,0.060082987,3.0780456,-0.62250745,-0.00026898197,-0.09635175,-0.012170308,-0.0026209166,-0.008638264,-0.003042799,0.0028253337,0.47110248,-1.4085703,1.9370388,-2.0986927,-1.5697826,2.4446485,-0.071005605,0.18074013,-0.20914564,0.02722695,0.0087553095,-0.07371377,-0.34476504,0.38307226,-9.423578,0.8560339,47.694946,-0.6239388,-2.0311987,-3.3804128,-0.03410905,0.12563193,-0.31253397,25.0,25.4375,24.875,27.0,27.3125,27.6875
0.20405409,-1.31402,-2.2059703,-0.8161582,-0.04445943,0.067698985,-0.097403064,-0.39084226,-0.350106,0.060085494,3.0780234,-0.6223656,-0.00027469706,-0.09626601,-0.013277563,-0.0026179978,-0.008604777,-0.0028173092,0.0054088533,0.47099537,-1.4082099,1.9366082,-2.0986564,-1.5697464,2.4444559,-0.06885911,0.18217002,-0.21089926,0.027369523,0.008622672,-0.07414955,-0.4405331,0.45968673,-9.404425,0.83365434,47.67614,-0.88604075,-1.833855,-3.4878187,-0.016520232,0.1375278,-0.34606302,25.0,25.4375,24.875,27.0,27.3125,27.6875
0.20605491,-1.4169252,-2.514471,-0.92691815,-0.043098766,0.06349955,-0.09696793,-0.3910577,-0.35011172,0.060081456,3.078023,-0.6224221,-0.00031304208,-0.09747534,-0.0135322865,-0.0014726708,-0.009938538,-0.0010074715,0.0052402206,0.47082716,-1.4078377,1.9361762,-2.0986087,-1.5697707,2.4443233,-0.069678016,0.18177766,-0.21323663,0.027880298,0.008988173,-0.07479911,-0.24899697,0.51714754,-9.404425,0.77545905,47.689575,-0.9399104,-1.8601446,-3.478895,-0.0113495225,0.122697845,-0.35544103,25.0,25.4375,24.875,27.0,27.3125,27.6875
0.20805578,-1.0056388,-2.013685,-0.9874706,-0.040585466,0.06017149,-0.098202884,-0.39125165,-0.35013348,0.06007405,3.078025,-0.6224037,-0.00028407917,-0.09844283,-0.014266898,-0.00064845383,-0.01040982,0.00077316794,0.005617587,0.4706833,-1.407465,1.9357456,-2.0985372,-1.5697588,2.4441679,-0.068959035,0.18248683,-0.21607576,0.028212937,0.0085944515,-0.07445618,-0.1340753,0.40222588,-9.346964,0.8493211,47.66808,-0.91473925,-1.7939144,-3.395361,-0.022377783,0.14006191,-0.37762988,25.0,25.4375,24.875,27.0,27.3125,27.6875
0.21005487,-0.35758314,-1.5210785,-0.7526723,-0.03400146,0.048470557,-0.10358159,-0.3914788,-0.3501852,0.060078174,3.077946,-0.6223478,-0.0003358802,-0.09959759,-0.01408427,-0.0009786545,-0.010190322,0.0011545046,0.0055443323,0.47053912,-1.4070678,1.9352793,-2.0985491,-1.5697106,2.443999,-0.07002766,0.18449828,-0.21754125,0.027433796,0.008228701,-0.07544973,0.019153614,0.4405331,-9.270349,0.8314132,47.66271,-0.9436066,-1.8018652,-3.3488355,-0.004646326,0.16736047,-0.39578414,25.0,25.4375,24.875,27.0,27.3125,27.6875
0.21205445,0.1524342,-1.2747483,-0.75312537,-0.028513702,0.04047638,-0.10825234,-0.39166853,-0.3501829,0.06005591,3.07802,-0.6222847,-0.0003359895,-0.10071827,-0.015449391,-0.00122706,-0.011804349,0.0014261948,0.008289159,0.47039518,-1.4066944,1.9348844,-2.09849,-1.5697583,2.4438066,-0.06942877,0.18793114,-0.22073752,0.026218293,0.009534598,-0.07759455,0.05746084,0.47884035,-9.174581,0.8873621,47.704796,-0.9948648,-1.7435296,-3.4942865,0.021224538,0.17911804,-0.3993244,25.0,25.4375,24.875,27.0,27.3125,27.6875
0.214054,0.44635448,-1.3076961,-1.1129647,-0.021045616,0.022722999,-0.10085375,-0.39189225,-0.35023248,0.060077257,3.0779295,-0.62232107,-0.00037512154,-0.10179342,-0.015017981,-0.0010480728,-0.011301279,0.0020254694,0.01052026,0.47025084,-1.4063218,1.9343933,-2.0984418,-1.5697106,2.4436967,-0.07063826,0.18882155,-0.22233537,0.026630454,0.008822031,-0.08103352,0.15322891,0.4405331,-9.174581,0.842603,47.66271,-0.9762941,-1.8763311,-3.4804416,0.048280906,0.16324276,-0.3929065,25.0,25.4375,24.875,27.0,27.3125,27.6875
0.21605474,0.25494987,-1.0082349,-0.9412756,-0.030778352,0.00066855946,-0.10674286,-0.3920701,-0.3502679,0.060044143,3.0779517,-0.62218916,-0.00029154978,-0.102421634,-0.01468723,-0.0015156971,-0.010092623,0.00025056914,0.013733177,0.47013053,-1.4059126,1.9339865,-2.0984051,-1.5696748,2.4434915,-0.07156299,0.19124901,-0.22460775,0.028614312,0.008549976,-0.08517044,0.19153613,0.34476504,-9.289502,0.8784135,47.66091,-0.9602027,-1.8994595,-3.5213475,0.03391863,0.17859432,-0.36784953,25.0,25.4375,24.875,27.0,27.3125,27.6875
0.21805473,0.56794494,-1.7948526,-0.8939184,-0.022853404,0.010156304,-0.09939653,-0.39229694,-0.35028365,0.060058914,3.0779185,-0.6222562,-0.00035668808,-0.10274703,-0.014617674,-0.0023793424,-0.009506857,-0.0025887163,0.017922217,0.46996215,-1.4055511,1.9335202,-2.0983446,-1.5696863,2.4433694,-0.07241215,0.19426821,-0.22660787,0.03039457,0.009323116,-0.09020762,0.11492168,0.38307226,-9.212888,0.8784135,47.689575,-0.92059994,-2.010185,-3.424849,0.01738454,0.16654521,-0.31062657,25.0,25.4375,24.875,27.0,27.3125,27.6875
0.22005464,0.6243563,-1.3656375,-0.9177613,-0.02758213,0.0077664666,-0.10201426,-0.39253542,-0.3503209,0.060067724,3.0778975,-0.6221326,-0.00041527994,-0.10331127,-0.015023976,-0.002680108,-0.00872576,-0.003655556,0.022881992,0.4698065,-1.4051418,1.9330176,-2.0983083,-1.5696748,2.4431396,-0.07201671,0.19700038,-0.2294996,0.031866793,0.009117228,-0.09477,0.3256114,0.38307226,-9.155427,0.8314132,47.689575,-0.9485298,-2.0461736,-3.4297438,0.010261492,0.16098818,-0.28619462,25.0,25.4375,24.875,27.0,27.3125,27.6875
0.22205447,0.124155276,-1.3537942,-0.8544113,-0.019535381,0.0044719917,-0.09843293,-0.39270893,-0.350358,0.06004108,3.0779314,-0.622043,-0.00026139762,-0.10453671,-0.013735484,-0.0030013055,-0.0076349135,-0.004841153,0.024480626,0.46968535,-1.4047207,1.9325627,-2.0981882,-1.5696267,2.4429584,-0.07504142,0.19850779,-0.2309338,0.03335663,0.008678004,-0.09939345,0.38307226,0.3256114,-9.232041,0.87617236,47.67614,-0.900169,-1.9827375,-3.3901725,-0.0067888903,0.18930821,-0.20058766,25.0,25.4375,24.875,27.0,27.3125,27.6875
0.22405493,0.38196373,-1.2225788,-0.7241422,-0.018326866,0.013829008,-0.095588036,-0.39291328,-0.3503827,0.06004164,3.0779176,-0.6219416,-0.00026362773,-0.10416679,-0.014791334,-0.0041747503,-0.0067763184,-0.007826341,0.028646125,0.46952996,-1.4043591,1.9321312,-2.09814,-1.5696019,2.4427416,-0.07318573,0.20261152,-0.2334126,0.03478652,0.009265362,-0.10170191,0.22984336,0.30645782,-9.251195,0.8314132,47.67614,-0.88017005,-2.0981984,-3.409398,-0.010189386,0.18828356,-0.15718272,25.0,25.4375,24.875,27.0,27.3125,27.6875
0.22605477,0.5759383,-0.6950669,-0.84140307,-0.01974035,0.019226309,-0.10672942,-0.39314884,-0.35041198,0.06004051,3.0779462,-0.62182975,-0.0003115125,-0.10459211,-0.015327131,-0.003937756,-0.007537535,-0.00846867,0.030099517,0.4693861,-1.4039261,1.9316176,-2.0980794,-1.5696262,2.4425247,-0.07318976,0.20377506,-0.23569034,0.036126196,0.010235954,-0.103158705,0.21068975,0.30645782,-9.174581,0.9030289,47.677036,-1.0311773,-2.0168054,-3.4851165,-0.028594378,0.17443438,-0.093766175,25.0,25.4375,24.875,27.0,27.3125,27.6875
0.22805436,0.23268954,-0.9303991,-0.56050885,-0.016746972,0.019425098,-0.10070987,-0.39332515,-0.35043663,0.05999938,3.0779908,-0.62172693,-0.0001421344,-0.106149614,-0.014107064,-0.0037000745,-0.0069600088,-0.008749624,0.02499988,0.46924093,-1.4034933,1.931187,-2.0979826,-1.569578,2.4423099,-0.07640674,0.20462531,-0.23768038,0.037783753,0.009834732,-0.10127625,0.095768064,0.36391866,-9.232041,0.88960326,47.658226,-0.91012084,-2.171237,-3.3820238,-0.035893552,0.19065878,-0.10912493,25.0,25.4375,24.875,27.0,27.3125,27.6875
0.2300541,0.16853358,-0.756075,-0.7857227,-0.02242803,0.025144946,-0.10295451,-0.3935501,-0.35048136,0.06000172,3.0779858,-0.62166655,-0.00014195062,-0.1055196,-0.016156128,-0.0034021656,-0.0076580076,-0.009587946,0.026307264,0.46911037,-1.4030606,1.9306601,-2.0978987,-1.5695657,2.4421425,-0.07284423,0.20631182,-0.24083133,0.03967697,0.0108320685,-0.09902029,0.019153614,0.36391866,-9.232041,0.81351066,47.682407,-1.0664761,-2.130354,-3.4579298,-0.082460254,0.19132978,-0.10175523,25.0,25.4375,24.875,27.0,27.3125,27.6875
0.23205471,-0.41184768,-1.3868189,-0.8462379,-0.007042144,0.027650526,-0.09831923,-0.39374316,-0.35051712,0.059997056,3.0779846,-0.6215719,-8.955687e-05,-0.10676815,-0.016222637,-0.0022356345,-0.008160317,-0.008114227,0.022054546,0.46897787,-1.4026762,1.9302052,-2.0978143,-1.5695299,2.4419513,-0.073645584,0.20617591,-0.24375148,0.041193448,0.010605838,-0.095568046,0.05746084,0.2681506,-9.212888,0.8247004,47.71017,-1.1388329,-2.0579855,-3.3806548,-0.094370335,0.19100985,-0.13307115,25.0,25.4375,24.875,27.0,27.3125,27.6875
0.23405424,-0.55295724,-1.1558689,-0.9325119,-0.018549649,0.044153795,-0.09622778,-0.3939465,-0.3505653,0.059986938,3.077983,-0.62143916,-5.127694e-05,-0.10778975,-0.01599799,-0.001171805,-0.008592579,-0.0071414486,0.017929904,0.46885765,-1.4022561,1.9297265,-2.0977538,-1.5694937,2.4417486,-0.07485883,0.20559725,-0.24598305,0.042942245,0.010547646,-0.092656165,-0.19153613,0.2681506,-9.251195,0.83365434,47.693153,-1.1333177,-2.010504,-3.435056,-0.12687972,0.18457678,-0.17159358,25.0,25.4375,24.875,27.0,27.3125,27.6875
0.23605406,-0.70723367,-0.88263434,-1.0013458,-0.03323407,0.062334396,-0.101760365,-0.39416933,-0.35059223,0.05997612,3.0780187,-0.6213898,-2.9299483e-05,-0.10778821,-0.016263202,-0.0014623748,-0.00862641,-0.008773097,0.014862015,0.4687136,-1.401811,1.929212,-2.0976574,-1.5695056,2.4415696,-0.07482219,0.2070432,-0.24740966,0.04435749,0.011309319,-0.08955185,-0.21068975,0.2681506,-9.3661175,0.8784135,47.688675,-1.1816716,-2.013383,-3.4906068,-0.17483117,0.18927456,-0.21753477,25.0,25.4375,24.875,27.0,27.3125,27.6875
0.23805483,-1.307211,-1.896166,-1.207093,-0.020706175,0.06689723,-0.09451984,-0.39438784,-0.35060874,0.05996931,3.0779738,-0.6214204,4.9148006e-05,-0.108250074,-0.016664425,-0.0024550438,-0.007938091,-0.011350702,0.011793765,0.46850964,-1.4014133,1.9287461,-2.0975735,-1.5694455,2.4413905,-0.07481241,0.21108367,-0.250242,0.045762148,0.011851138,-0.086472765,-0.17238252,0.21068975,-9.481039,0.91421866,47.682407,-1.2273227,-1.953357,-3.5895584,-0.21632415,0.18777551,-0.2696156,25.0,25.4375,24.875,27.0,27.3125,27.6875
0.24005477,-1.2840893,-2.0555065,-1.0794189,-0.021080773,0.08182154,-0.09416754,-0.39459628,-0.3506459,0.059952416,3.0780215,-0.6214119,0.00013964638,-0.10996738,-0.016278975,-0.0017829218,-0.007524489,-0.009523478,0.0081406385,0.4683893,-1.4009447,1.9282068,-2.0974295,-1.569446,2.4412591,-0.076192275,0.2119183,-0.25293252,0.046177495,0.010643208,-0.08419853,-0.4405331,0.17238252,-9.442732,0.84708,47.667187,-1.1824191,-1.9280094,-3.5032415,-0.2609893,0.1903289,-0.31086868,25.0,25.4375,24.875,27.0,27.3125,27.6875
0.24205416,-1.920278,-0.8527475,-1.1365168,-0.021021081,0.0692224,-0.09387073,-0.39480907,-0.35067534,0.059936147,3.0780003,-0.6213682,0.00020488285,-0.11085987,-0.016356505,-0.0016408038,-0.008190401,-0.008878158,0.008871033,0.4682208,-1.400524,1.9277409,-2.09737,-1.5693978,2.4410663,-0.076977424,0.2127911,-0.25426126,0.045763828,0.010941489,-0.08571381,-0.4213795,0.19153613,-9.481039,0.90527004,47.691364,-1.2380631,-1.9116594,-3.4853625,-0.27623236,0.18913706,-0.34198266,25.0,25.4375,24.875,27.0,27.3125,27.6875
0.24405439,-1.0040504,-0.19830549,-1.3873279,-0.0036725306,0.07667493,-0.101369,-0.3950319,-0.35070384,0.059918806,3.0780206,-0.62133604,0.00026411828,-0.111804046,-0.01699655,-0.0027144796,-0.008347923,-0.010083275,0.0057483236,0.46806487,-1.4000661,1.927226,-2.0972745,-1.5693859,2.440888,-0.077065915,0.21713363,-0.2567712,0.044932224,0.011612017,-0.08267873,-0.38307226,0.19153613,-9.615114,0.8784135,47.655537,-1.2017971,-1.8272669,-3.5640707,-0.2929687,0.19724168,-0.37300566,25.0,25.4375,24.875,27.0,27.3125,27.6875
0.24605481,-1.0652459,-0.5263104,-1.221055,-0.0010841279,0.06987351,-0.096876115,-0.39525282,-0.3507539,0.05992259,3.0779746,-0.6213456,0.00027295254,-0.11310791,-0.016961955,-0.0025226912,-0.008932738,-0.009071327,0.003858826,0.46793267,-1.3996456,1.9267114,-2.097203,-1.5693492,2.4407678,-0.0782632,0.21833849,-0.25856557,0.044358347,0.011672846,-0.081985414,-0.47884035,0.15322891,-9.557653,0.9298854,47.681515,-1.2629113,-2.0165322,-3.5957088,-0.29526764,0.20364043,-0.44872016,25.0,25.4375,24.875,27.0,27.3125,27.6875
0.24805473,-1.0086373,-0.85420346,-1.1541228,-0.01585349,0.07480368,-0.10309461,-0.3954871,-0.35078955,0.059915345,3.077963,-0.6213039,0.00032720726,-0.11376109,-0.016450329,-0.0029980526,-0.008308768,-0.0091091525,0.005390871,0.46776414,-1.3991883,1.9261736,-2.0971072,-1.5693134,2.440575,-0.079323865,0.21955624,-0.2588584,0.043759044,0.011130978,-0.08457775,-0.53630114,0.095768064,-9.557653,0.8672237,47.668976,-1.1685266,-1.991909,-3.6389441,-0.30846238,0.19629535,-0.45595497,25.0,25.4375,24.875,27.0,27.3125,27.6875
0.25005448,-1.6934301,-1.0829421,-1.2815121,-0.012224548,0.065007485,-0.09218058,-0.3956921,-0.3507951,0.059896294,3.0780222,-0.62125915,0.00036493907,-0.11603925,-0.016079426,-0.002846244,-0.008879559,-0.007687175,0.0027165445,0.46760735,-1.3987792,1.9257187,-2.0970118,-1.5693377,2.440383,-0.081837796,0.22177835,-0.26166373,0.042815767,0.010986217,-0.08441624,-0.45968673,0.1340753,-9.576807,0.9567419,47.67614,-1.1325502,-2.08017,-3.6579676,-0.33666992,0.20876405,-0.5065873,25.0,25.4375,24.875,27.0,27.3125,27.6875
0.25205493,-1.2380733,-1.0287468,-1.3644727,-0.020949144,0.08005909,-0.10058362,-0.39593807,-0.35083455,0.059895564,3.077972,-0.621284,0.00040069406,-0.117610626,-0.017374504,-0.0029251156,-0.009445644,-0.006028352,0.0069820303,0.46742764,-1.3983214,1.9251679,-2.0969284,-1.5692896,2.4402254,-0.08074219,0.22548762,-0.26555037,0.041268624,0.010734709,-0.08758352,-0.40222588,0.19153613,-9.576807,0.9791215,47.701214,-1.1327584,-2.021988,-3.7867522,-0.33663052,0.2215774,-0.5117434,25.0,25.4375,24.875,27.0,27.3125,27.6875
0.2540543,-1.3430593,-1.4571155,-1.0289216,-0.0284463,0.08950388,-0.09692614,-0.39617106,-0.3508721,0.059889104,3.077979,-0.6211868,0.00043903157,-0.12063349,-0.018455112,-0.0018426932,-0.011600428,-0.0021231256,0.0116435,0.46727154,-1.3978642,1.9246281,-2.096834,-1.5692657,2.440008,-0.08156403,0.22820033,-0.27085352,0.03941283,0.010886357,-0.09306425,-0.30645782,0.22984336,-9.595961,0.91421866,47.689575,-1.1497611,-2.10129,-3.636565,-0.3452909,0.22308928,-0.48737222,25.0,25.4375,24.875,27.0,27.3125,27.6875
0.2560539,-1.0911427,-1.1320478,-1.2638057,-0.03384234,0.0948345,-0.104556285,-0.39642057,-0.35090134,0.05987932,3.077984,-0.62112796,0.00042772532,-0.124186315,-0.017231045,-0.0006899415,-0.013673151,0.0014814119,0.012659795,0.46710163,-1.3973955,1.9240903,-2.0967743,-1.5692657,2.439801,-0.08690243,0.22845705,-0.27347505,0.03763595,0.011110278,-0.09941779,-0.38307226,0.24899697,-9.576807,0.8627467,47.689575,-0.91668916,-2.1212769,-3.480452,-0.32164556,0.23004666,-0.44982958,25.0,25.4375,24.875,27.0,27.3125,27.6875
0.2580557,-1.0722744,-1.4444326,-1.3017898,-0.032779813,0.09076906,-0.09821749,-0.39666036,-0.3509404,0.059876304,3.0779438,-0.6211134,0.00043736803,-0.12496509,-0.018999493,-0.00034715925,-0.01493384,0.0036708794,0.021764543,0.46693465,-1.3969504,1.9235643,-2.0967147,-1.5692295,2.4396303,-0.0845273,0.23048408,-0.27633467,0.035960704,0.011248812,-0.10614569,-0.36391866,0.28730422,-9.576807,0.87617236,47.679718,-1.0714445,-2.1798425,-3.483181,-0.31567207,0.22992228,-0.3959691,25.0,25.4375,24.875,27.0,27.3125,27.6875
0.26005453,-0.641603,-1.2618754,-1.1351256,-0.044868123,0.10000505,-0.106046006,-0.39689255,-0.3509742,0.059868753,3.0779562,-0.62097967,0.0005020094,-0.12854692,-0.018732129,0.0015194248,-0.016537828,0.00853538,0.024753576,0.46676558,-1.396494,1.9230245,-2.0966074,-1.5691937,2.4393764,-0.0875956,0.23096994,-0.2810714,0.0351632,0.010483671,-0.11220071,-0.30645782,0.34476504,-9.730036,0.8537928,47.68599,-0.93531656,-2.035813,-3.4744325,-0.30193055,0.24579272,-0.32222286,25.0,25.4375,24.875,27.0,27.3125,27.6875
0.26205418,-1.450517,-1.7431121,-1.3529795,-0.035974335,0.075305164,-0.09170855,-0.39714417,-0.35100678,0.059854414,3.0779686,-0.6208659,0.0005441302,-0.12978917,-0.01844984,0.0021826522,-0.017513875,0.009805952,0.026865182,0.46658495,-1.3960013,1.9224628,-2.0965235,-1.5691699,2.4391234,-0.08929131,0.23084265,-0.2825495,0.03520412,0.010784482,-0.11600805,-0.51714754,0.40222588,-9.595961,0.90527004,47.684196,-0.8476025,-2.031583,-3.374079,-0.3163592,0.25970578,-0.26137614,25.0,25.4375,24.875,27.0,27.3125,27.6875
0.2640546,-1.6796939,-1.7936611,-1.4975389,-0.052736223,0.07340509,-0.10014397,-0.3973972,-0.35104024,0.059845336,3.07794,-0.6208397,0.00054172584,-0.13015953,-0.017962579,0.0014455533,-0.017549304,0.00951436,0.028177718,0.46640453,-1.3955327,1.9219254,-2.0964763,-1.5691456,2.4389305,-0.09048991,0.23178741,-0.28173146,0.033694,0.010952836,-0.118519336,-0.5554548,0.40222588,-9.710882,0.92093146,47.684196,-0.7930586,-1.9397894,-3.6110513,-0.29701447,0.259747,-0.22661465,25.0,25.4375,24.875,27.0,27.3125,27.6875
0.26605433,-1.4210763,-2.162512,-1.4157385,-0.05512775,0.09301967,-0.0940867,-0.39769933,-0.35108027,0.059882153,3.077888,-0.62071383,0.000422668,-0.13105927,-0.017821677,0.0015060422,-0.018286802,0.011290388,0.026979493,0.4662003,-1.3950763,1.9212922,-2.0964057,-1.5691336,2.4386547,-0.091349535,0.23194858,-0.2816658,0.031553,0.01082405,-0.11817947,-0.5554548,0.40222588,-9.710882,0.8672237,47.672558,-0.7635241,-1.8863273,-3.754849,-0.26739702,0.24981622,-0.1623896,25.0,25.4375,24.875,27.0,27.3125,27.6875
0.2680542,-1.5985498,-1.7345836,-1.2784165,-0.056887668,0.093267374,-0.0987907,-0.39793932,-0.35112515,0.059862994,3.0778754,-0.62059784,0.000446602,-0.13194367,-0.018033257,0.0013519127,-0.019358676,0.011305382,0.023784101,0.46604392,-1.3945951,1.9207653,-2.0963695,-1.5690974,2.4384277,-0.09228314,0.23347768,-0.28306365,0.030925838,0.011772324,-0.11591747,-0.53630114,0.3256114,-9.576807,0.9545008,47.668976,-0.79620934,-1.8556883,-3.7730246,-0.24590357,0.25717005,-0.19146404,25.0,25.4375,24.875,27.0,27.3125,27.6875
0.27005497,-0.8576392,-1.1942053,-1.2157996,-0.04697499,0.10599243,-0.097514294,-0.39822224,-0.35113803,0.05986726,3.0778828,-0.6205646,0.00035921685,-0.13367021,-0.018870108,0.0014087617,-0.01995964,0.011824238,0.016574444,0.4658399,-1.3941251,1.9201921,-2.0963094,-1.5691332,2.4382024,-0.09244488,0.23707037,-0.2875241,0.031046636,0.012069105,-0.10886695,-0.5363012,0.28730422,-9.615114,0.8717007,47.668976,-0.75141066,-1.8910644,-3.777744,-0.23929617,0.2372814,-0.22962411,25.0,25.4375,24.875,27.0,27.3125,27.6875
0.27205467,-0.8257732,-0.61313236,-1.3127671,-0.020244988,0.084422596,-0.10418538,-0.39850205,-0.35120684,0.059879255,3.077759,-0.6205792,0.00033822906,-0.13447762,-0.01994581,0.0017608913,-0.021502797,0.013497535,0.012858602,0.4656604,-1.3936322,1.9195803,-2.0962741,-1.5690492,2.438048,-0.09159222,0.23820236,-0.2894361,0.0296404,0.01269715,-0.104296826,-0.2681506,0.22984336,-9.672575,0.9030289,47.65464,-0.8396704,-1.9583428,-3.744753,-0.21124724,0.25827008,-0.29802376,25.0,25.4375,24.875,27.0,27.3125,27.6875
0.27405456,-1.0706484,-0.68088424,-1.4788644,-0.0008223784,0.0537127,-0.08808745,-0.3987734,-0.35124692,0.05988952,3.0777342,-0.6205183,0.00026816476,-0.13645372,-0.020043261,0.0019225383,-0.022419212,0.014632333,0.010416909,0.46549153,-1.3931633,1.9189948,-2.0962145,-1.5690492,2.4378445,-0.09326842,0.2405883,-0.29253742,0.02893032,0.013007049,-0.10352918,-0.34476504,0.28730422,-9.5385,0.9298854,47.6636,-0.6673471,-1.8085039,-3.6645777,-0.15640579,0.25791895,-0.33692735,25.0,25.4375,24.875,27.0,27.3125,27.6875
0.27605468,-0.18933448,-0.8912519,-1.6080309,0.00081747345,0.052114613,-0.09234466,-0.3990628,-0.3512651,0.059881706,3.077728,-0.6204943,0.00021816349,-0.1366024,-0.021085082,0.00072725053,-0.020425383,0.012508145,0.013458906,0.46527648,-1.3926569,1.9184088,-2.0961664,-1.5690612,2.4376156,-0.09097765,0.24564913,-0.29616824,0.030299269,0.012182488,-0.104277775,-0.19153613,0.2873042,-9.5385,0.8873621,47.658226,-0.8827502,-2.108325,-3.6701021,-0.14723772,0.273673,-0.34955347,25.0,25.4375,24.875,27.0,27.3125,27.6875
0.27805457,0.07030326,-1.3434054,-1.6611773,-0.010012224,0.035079475,-0.09370373,-0.3993296,-0.35131535,0.059893403,3.077682,-0.62046796,0.00021081584,-0.13996254,-0.02056525,0.0020541023,-0.021858938,0.014780502,0.0093016215,0.46510708,-1.392176,1.917797,-2.09607,-1.5690254,2.4374359,-0.09490034,0.2472737,-0.3014176,0.03125473,0.012442077,-0.104040734,0.019153614,0.2681506,-9.595961,0.8314132,47.705692,-0.82861686,-2.06592,-3.5182855,-0.1263499,0.27815464,-0.3675238,25.0,25.4375,24.875,27.0,27.3125,27.6875
0.28005406,0.07129828,-1.4390126,-1.3397666,-0.039683808,0.025448425,-0.09091345,-0.3996284,-0.35135832,0.05990499,3.0776145,-0.620414,0.000121082936,-0.14009736,-0.022146849,0.0022856968,-0.02178826,0.015615854,0.011751508,0.4649044,-1.391683,1.9171876,-2.0960457,-1.5690011,2.4372084,-0.091907084,0.24922349,-0.30441946,0.031597737,0.012012154,-0.10349485,-0.019153614,0.38307226,-9.481039,0.7665104,47.691364,-0.8622987,-2.122231,-3.3215818,-0.0866716,0.30091387,-0.39457685,25.0,25.4375,24.875,27.0,27.3125,27.6875
0.28205466,-0.14694186,-1.4687481,-1.3901553,-0.03997365,0.016919052,-0.0864337,-0.39991972,-0.35140827,0.05992356,3.0775838,-0.6203102,2.1892216e-05,-0.14078397,-0.02204416,0.0016247127,-0.021428367,0.013895998,0.013066865,0.46473587,-1.39119,1.9165539,-2.0959857,-1.5690011,2.4369793,-0.092887215,0.2519573,-0.30646187,0.032609463,0.012474399,-0.10578857,0.019153614,0.34476504,-9.519346,0.9388393,47.7245,-0.86108595,-2.0846705,-3.4304729,-0.081556246,0.29682076,-0.41139695,25.0,25.4375,24.875,27.0,27.3125,27.6875
0.2840539,0.15248902,-1.4891772,-1.5791267,-0.039187137,0.024207164,-0.09827661,-0.40019,-0.35145363,0.0599174,3.0775497,-0.62030345,4.5400277e-05,-0.14085594,-0.021393856,0.0022524474,-0.021062871,0.013160028,0.013316327,0.46455544,-1.3906736,1.915943,-2.0959008,-1.5689653,2.4367993,-0.0939944,0.2508073,-0.30730635,0.035434186,0.012488758,-0.1071456,0.095768064,0.3256114,-9.691729,0.8918391,47.711063,-0.83265287,-1.9919119,-3.4519348,-0.08347227,0.30927968,-0.40593368,25.0,25.4375,24.875,27.0,27.3125,27.6875
0.28605452,-0.17588271,-1.9462368,-1.4063119,-0.047858484,0.03696378,-0.09411376,-0.40046945,-0.3515057,0.059939444,3.077489,-0.6201518,2.2381884e-05,-0.1400601,-0.020631902,0.0008846951,-0.019906506,0.009120044,0.019109929,0.46436322,-1.3902045,1.9153236,-2.0958169,-1.5689048,2.4365203,-0.09502859,0.25231493,-0.3064823,0.037250824,0.013290627,-0.11397329,0.076614454,0.38307226,-9.557653,0.8627467,47.677036,-0.8561275,-1.9785808,-3.6213813,-0.080402866,0.3052877,-0.38200653,25.0,25.4375,24.875,27.0,27.3125,27.6875
0.28805572,-0.28867057,-1.9881978,-1.3341328,-0.044197083,0.034553796,-0.09346309,-0.40075836,-0.35152,0.059922308,3.0774903,-0.62014943,2.6178734e-05,-0.14011873,-0.021327712,0.000502533,-0.020003395,0.008368899,0.024727918,0.46413565,-1.3896753,1.9147252,-2.0957448,-1.5689048,2.4362915,-0.094044566,0.254214,-0.30803233,0.037540015,0.013720629,-0.11860673,0.21068975,0.36391866,-9.519346,0.96569055,47.660015,-0.91376793,-1.9221914,-3.6519325,-0.07301539,0.31462193,-0.31710976,25.0,25.4375,24.875,27.0,27.3125,27.6875
0.2900546,0.05231998,-1.6383733,-1.072757,-0.04472454,0.041997958,-0.08855853,-0.40105534,-0.3515717,0.059954595,3.0774274,-0.6200559,-4.128241e-05,-0.14223191,-0.02233082,0.0026612577,-0.022336928,0.012497456,0.02995972,0.46394354,-1.389195,1.9140662,-2.095649,-1.568869,2.4360492,-0.094209135,0.25378585,-0.31261793,0.037833344,0.013971482,-0.12400044,0.21068975,0.34476504,-9.423578,0.8717007,47.701214,-0.90350175,-1.8081903,-3.6209784,-0.05755196,0.30611014,-0.25512582,25.0,25.4375,24.875,27.0,27.3125,27.6875
0.29205453,0.03674353,-0.99296963,-0.9475345,-0.025783287,0.028067099,-0.08971263,-0.40132704,-0.3516431,0.05996501,3.0773704,-0.61988693,-9.446723e-05,-0.14326374,-0.023140945,0.0034843367,-0.023967208,0.01363231,0.035751313,0.4637995,-1.3887024,1.9134558,-2.0956128,-1.5688204,2.4358072,-0.09422903,0.25451043,-0.3155672,0.03832928,0.014938554,-0.12980975,0.019153614,0.28730422,-9.193734,0.9634547,47.691364,-0.9484867,-1.8204464,-3.577695,-0.03443481,0.30789638,-0.17317942,25.0,25.4375,24.875,27.0,27.3125,27.6875
0.29405424,0.6253457,-0.3370528,-1.1088881,-0.0031695492,0.022322066,-0.099910274,-0.40165508,-0.3516878,0.059989333,3.0773003,-0.61981434,-0.00022839895,-0.14498974,-0.024131663,0.0052533257,-0.026233988,0.0168348,0.03718823,0.4635836,-1.3881861,1.9127859,-2.095577,-1.5688084,2.4355552,-0.09429041,0.25433147,-0.31956846,0.038637005,0.015548723,-0.13130489,0.11492168,0.22984336,-9.32781,0.79560274,47.686886,-0.99793345,-1.6419048,-3.4494314,-0.014735298,0.3109675,-0.112785935,25.0,25.4375,24.875,27.0,27.3125,27.6875
0.29605478,0.7283893,-0.07268807,-1.3561543,0.010987041,0.020496817,-0.09597345,-0.40191102,-0.35172576,0.05996143,3.0773287,-0.6196091,-0.0001597193,-0.14580223,-0.024492819,0.0050991527,-0.0261409,0.016282195,0.0357772,0.46340367,-1.3876565,1.9122103,-2.095504,-1.5687722,2.4352438,-0.09438425,0.25669724,-0.32234132,0.039584693,0.015707672,-0.12998699,0.095768064,0.15322891,-9.385271,0.8247004,47.67166,-1.1176667,-1.638325,-3.376383,-0.0044226125,0.3096763,-0.101893656,25.0,25.4375,24.875,27.0,27.3125,27.6875
0.29805475,0.28897405,-0.38335574,-1.1784736,0.0082568405,0.018078897,-0.09023151,-0.4022027,-0.35177052,0.059986193,3.0772722,-0.61958015,-0.00021867173,-0.14533132,-0.025061665,0.0032171402,-0.024408685,0.011943993,0.033393614,0.4632121,-1.3871746,1.9115657,-2.0954082,-1.5687479,2.4350417,-0.09314556,0.26171193,-0.3244721,0.041353744,0.01610342,-0.12636238,-0.11492168,0.24899697,-9.251195,0.83813137,47.66987,-0.9731058,-1.8177812,-3.5151224,0.01085356,0.30543262,-0.105300926,25.0,25.4375,24.875,27.0,27.3125,27.6875
0.30005428,-0.16716425,-1.0012351,-1.3197336,-0.014637812,0.04225604,-0.0895051,-0.402469,-0.35183832,0.05998117,3.0772657,-0.6194666,-0.00015238982,-0.1453633,-0.024591023,0.0016789901,-0.022300694,0.00823145,0.026505522,0.46306783,-1.3866209,1.9108957,-2.095276,-1.5687002,2.4348276,-0.09375646,0.2654788,-0.32600102,0.04337592,0.015867688,-0.12008482,-0.11492168,0.3256114,-9.404425,0.8090337,47.682407,-1.1627663,-1.9404173,-3.5236764,6.1662286e-05,0.31070492,-0.17949796,25.0,25.4375,24.875,27.0,27.3125,27.6875
0.30205548,-0.513535,-1.6043674,-1.3172705,-0.0466693,0.06809279,-0.090526335,-0.4027745,-0.3518777,0.06000167,3.07725,-0.6193517,-0.0001957393,-0.14672633,-0.023584206,0.0014748708,-0.021622129,0.0063911285,0.02016262,0.4628628,-1.3861035,1.9102129,-2.0951555,-1.5686878,2.4345531,-0.096709356,0.2676365,-0.32878873,0.045952957,0.016085217,-0.116693154,-0.076614454,0.40222588,-9.461885,0.9298854,47.72271,-0.937499,-1.8677819,-3.5012736,-0.0086045675,0.2972824,-0.19712603,25.0,25.4375,24.875,27.0,27.3125,27.6875
0.30405456,-1.1359533,-2.683863,-1.2705609,-0.061071176,0.07453325,-0.08122237,-0.40306598,-0.35192353,0.060011256,3.0771759,-0.61935663,-0.00021760832,-0.14556243,-0.0237007,0.00081690785,-0.01982619,0.0042619654,0.01689618,0.4626595,-1.3855985,1.9095801,-2.0950825,-1.5686406,2.4343626,-0.09499033,0.26835394,-0.32869425,0.047849126,0.015433612,-0.111707464,-0.15322891,0.47884032,-9.519346,0.92764956,47.66091,-1.1649778,-1.9328392,-3.6169386,-0.030108495,0.30742902,-0.28496003,25.0,25.4375,24.875,27.0,27.3125,27.6875
0.30605447,-0.4311019,-2.4596648,-1.2111089,-0.06867292,0.091435015,-0.09799711,-0.4033667,-0.35196084,0.06000382,3.0771935,-0.6192651,-0.00018412089,-0.1457798,-0.023107795,0.00096152874,-0.019274246,0.0022196553,0.014754037,0.46245512,-1.3850219,1.9088877,-2.09495,-1.5686277,2.4340992,-0.096361466,0.26878828,-0.33045295,0.05124919,0.01585417,-0.11093653,-0.21068975,0.51714754,-9.423578,0.95002913,47.661808,-1.0753614,-1.7827861,-3.6679633,-0.043654516,0.3239162,-0.29899406,25.0,25.4375,24.875,27.0,27.3125,27.6875
0.3080544,-0.817143,-2.252652,-0.86550933,-0.056174275,0.07052478,-0.08600334,-0.4036853,-0.35204047,0.060041938,3.0770967,-0.61919004,-0.00028080557,-0.14648232,-0.022864284,0.00035274163,-0.018716762,0.000834888,0.010797842,0.46228674,-1.3844925,1.9081582,-2.0948656,-1.56858,2.4338965,-0.09736737,0.2712099,-0.33224723,0.052111376,0.015979908,-0.10798366,-0.24899697,0.38307226,-9.404425,0.9298854,47.653748,-1.1171426,-1.8094487,-3.7398283,-0.084258415,0.32402337,-0.37282717,25.0,25.4375,24.875,27.0,27.3125,27.6875
0.3100544,-0.66838527,-1.1679217,-1.0547942,-0.039322652,0.046778154,-0.08746557,-0.40397972,-0.35209692,0.060043104,3.0770254,-0.6191759,-0.00033231554,-0.14854448,-0.02364946,0.0012474196,-0.020602496,0.0036599732,0.00825464,0.46210667,-1.3839633,1.907524,-2.0948308,-1.5685438,2.433717,-0.09796178,0.27269885,-0.33589134,0.050898265,0.016402915,-0.10603201,-0.19153613,0.38307226,-9.3661175,0.9030289,47.65912,-1.1012349,-1.8278283,-3.6031785,-0.05197972,0.30759376,-0.42895997,25.0,25.4375,24.875,27.0,27.3125,27.6875
0.31205523,0.21285138,-0.028790357,-0.82137233,-0.025047066,0.041678593,-0.09672622,-0.4042651,-0.35214403,0.060041737,3.0770187,-0.6190789,-0.0003215282,-0.14970517,-0.023620108,0.0020496752,-0.020722186,0.004151843,0.0073712496,0.46192622,-1.3834231,1.9068655,-2.0947225,-1.56852,2.4334772,-0.09884746,0.27334705,-0.3390845,0.05295566,0.016291913,-0.106033325,-0.22984336,0.3256114,-9.232041,0.97464454,47.701214,-1.091359,-1.7503034,-3.5385113,-0.07587894,0.32171005,-0.46701002,25.0,25.4375,24.875,27.0,27.3125,27.6875
0.31405428,0.7869861,0.091207065,-0.68338656,0.0015272539,0.049868308,-0.09635086,-0.40457508,-0.35217324,0.06004189,3.076983,-0.61908937,-0.00029324798,-0.15026124,-0.023368474,0.0014963868,-0.018944837,0.000812216,0.009090563,0.46168622,-1.3828694,1.9061841,-2.0946004,-1.5684837,2.4332485,-0.09958801,0.2768104,-0.3430277,0.05723098,0.016198093,-0.1084918,-0.36391866,0.3256114,-9.155427,0.9298854,47.674347,-1.1514883,-1.6852307,-3.4683106,-0.09686324,0.31878752,-0.48799992,25.0,25.4375,24.875,27.0,27.3125,27.6875
0.31605473,0.0947062,0.12744628,-0.9678315,0.01720818,0.042245597,-0.100604266,-0.40485674,-0.3522612,0.0600396,3.0769475,-0.6189654,-0.0002885885,-0.15127692,-0.022034744,0.0015034282,-0.018935557,-0.00058739394,0.011163732,0.46156475,-1.3822924,1.9054893,-2.0945165,-1.568436,2.4330544,-0.10306628,0.27716407,-0.3440508,0.059175245,0.016831126,-0.1140425,-0.15322891,0.24899697,-9.193734,0.87617236,47.68062,-1.0097115,-1.728317,-3.437634,-0.13894255,0.32055286,-0.47779584,25.0,25.4375,24.875,27.0,27.3125,27.6875
0.31805483,-0.68934214,0.01669426,-0.72377706,-0.003388256,0.055626456,-0.09854272,-0.4051881,-0.3522902,0.06007646,3.0768955,-0.6189466,-0.00033495054,-0.15103091,-0.023544474,0.0022083097,-0.019548912,0.00037024787,0.023928273,0.46131393,-1.3817755,1.9047598,-2.09436,-1.5684117,2.4327989,-0.10022611,0.27744603,-0.34631494,0.060056247,0.016979828,-0.123965345,-0.19153613,0.24899697,-9.212888,0.93436235,47.703007,-1.0557857,-1.7300117,-3.540245,-0.14989817,0.3114906,-0.39526147,25.0,25.4375,24.875,27.0,27.3125,27.6875
0.32005444,-1.1091264,-0.8952232,-0.3607423,-0.03635784,0.092107184,-0.099346705,-0.4054744,-0.35235026,0.060051218,3.0768871,-0.6188654,-0.0002270691,-0.15257967,-0.02255285,0.0026615735,-0.01939786,-0.0011367745,0.02755257,0.46113276,-1.3811632,1.9040664,-2.0942395,-1.5683511,2.4325683,-0.10350348,0.27875796,-0.34989873,0.06376994,0.017526416,-0.13086653,-0.4213795,0.17238252,-9.136273,0.9186956,47.655537,-1.1224287,-1.4747546,-3.4939113,-0.2140365,0.30887347,-0.33430713,25.0,25.4375,24.875,27.0,27.3125,27.6875
0.3220542,-1.1710907,-0.59053767,-0.2355928,-0.038567778,0.1136932,-0.09834652,-0.40578026,-0.3523771,0.06006194,3.0768912,-0.618747,-0.00017311955,-0.15262567,-0.023090135,0.0011024548,-0.017741885,-0.004170366,0.035429895,0.46089342,-1.3806205,1.9033598,-2.0940597,-1.5683154,2.4322548,-0.10242787,0.28359282,-0.35249108,0.065006755,0.017402826,-0.13766727,-0.49799395,0.114921674,-9.040505,0.9388393,47.684196,-0.9608458,-1.610392,-3.468022,-0.2535887,0.31812185,-0.22838873,25.0,25.4375,24.875,27.0,27.3125,27.6875
0.3240549,-1.2197878,0.11755503,-0.3975887,-0.010397115,0.10529526,-0.09880296,-0.4060928,-0.35241178,0.06003781,3.076914,-0.6186343,-0.00014010488,-0.15274864,-0.02261592,-0.000711264,-0.01644471,-0.007946097,0.037827883,0.4606769,-1.3800066,1.9026669,-2.0939634,-1.5683035,2.4319654,-0.10356226,0.28754735,-0.3534252,0.065957345,0.017924955,-0.14119917,-0.49799395,-0.019153614,-9.155427,0.9164598,47.674347,-1.0472678,-1.8069556,-3.517617,-0.26844913,0.3048597,-0.16855529,25.0,25.4375,24.875,27.0,27.3125,27.6875
0.3260546,-1.1414301,0.30156577,-0.21146536,-0.008773868,0.10848127,-0.08779627,-0.40637395,-0.35247895,0.060035016,3.0768855,-0.6185134,-0.00011955444,-0.15403801,-0.023305079,-0.0009906249,-0.017082803,-0.0071050916,0.03769818,0.4605208,-1.3794531,1.901997,-2.093868,-1.5682553,2.4317377,-0.10350927,0.2904357,-0.35606256,0.064678036,0.018116614,-0.14101471,-0.40222588,0.05746084,-8.963891,0.947788,47.661808,-1.0320897,-1.8086143,-3.5548391,-0.29800916,0.29860786,-0.14498594,25.0,25.4375,24.875,27.0,27.3125,27.6875
0.32805428,-0.6914019,-0.011375105,-0.6571708,0.025838435,0.092158295,-0.08411958,-0.40670928,-0.35254225,0.06005839,3.0768235,-0.6183688,-0.00014544385,-0.1560636,-0.023480361,-0.0007501987,-0.017120438,-0.004351184,0.03269773,0.46030468,-1.3788753,1.9012331,-2.0937493,-1.5681957,2.4314394,-0.104077175,0.2925968,-0.35891372,0.06288996,0.016917082,-0.13658038,-0.38307226,0.019153614,-9.059659,0.8985519,47.687782,-1.0789211,-1.9329351,-3.4881768,-0.2959414,0.29946202,-0.17369327,25.0,25.4375,24.875,27.0,27.3125,27.6875
0.3300551,-0.4491543,0.29162458,-0.2333147,0.0062992,0.079444095,-0.08870963,-0.4070312,-0.35256746,0.06004475,3.076831,-0.6183172,-0.000118278265,-0.15738699,-0.023683006,-0.00046354835,-0.018193552,-0.0023733103,0.025105676,0.46006456,-1.378275,1.9005264,-2.09363,-1.5681838,2.4311664,-0.10477759,0.29345968,-0.36036965,0.061222628,0.016978307,-0.12968838,-0.51714754,0.1340753,-9.021352,0.82022345,47.666286,-1.0426795,-1.9608314,-3.5724578,-0.29272512,0.30341607,-0.24560627,25.0,25.4375,24.875,27.0,27.3125,27.6875
0.33205488,-0.7585786,-0.46362722,-0.23175894,-0.012732188,0.069387704,-0.085098356,-0.40734175,-0.35258332,0.06002385,3.0769103,-0.6182586,-7.457193e-05,-0.15953352,-0.023860697,-0.00010896023,-0.019186614,9.28151e-05,0.019605443,0.45984802,-1.3776612,1.8998088,-2.0934632,-1.5682195,2.4309037,-0.10605123,0.29540506,-0.3632567,0.059503198,0.016748037,-0.1254617,-0.5746084,0.21068975,-8.868123,0.8605109,47.691364,-0.9844583,-1.7872782,-3.6078362,-0.28620625,0.31138766,-0.29249012,25.0,25.4375,24.875,27.0,27.3125,27.6875
0.33405486,-0.18970026,-0.7944248,-0.5665725,-0.027465086,0.07207655,-0.08947308,-0.40765136,-0.35265768,0.060011983,3.0768087,-0.61825883,2.7529604e-06,-0.16132396,-0.0239379,0.00093554053,-0.020381408,0.0035281207,0.016872564,0.4596436,-1.3770492,1.8990916,-2.0933797,-1.5681118,2.4307125,-0.10704414,0.29524675,-0.36528888,0.058099248,0.016287941,-0.12372113,-0.38307226,0.17238252,-8.963891,0.900793,47.690468,-0.9684155,-1.777124,-3.5477533,-0.26734167,0.3157813,-0.30885392,25.0,25.4375,24.875,27.0,27.3125,27.6875
0.33605453,-0.6066394,-1.602977,-0.49019018,-0.043949317,0.060154065,-0.08403086,-0.4079541,-0.35268503,0.05999085,3.0768588,-0.6182493,6.997117e-05,-0.16366455,-0.023935175,0.0014174152,-0.021457894,0.005799273,0.015199453,0.45943907,-1.3764356,1.898374,-2.0932124,-1.5681237,2.430496,-0.10889809,0.29715267,-0.36854944,0.05694363,0.016230762,-0.12390171,-0.34476504,0.2681506,-9.097966,0.8112748,47.661808,-0.8926667,-1.7366543,-3.5022798,-0.27904907,0.3378138,-0.3518257,25.0,25.4375,24.875,27.0,27.3125,27.6875
0.3380542,-0.59099495,-1.755398,-0.503801,-0.061553225,0.07643533,-0.08320067,-0.40829188,-0.3527189,0.060003124,3.0768173,-0.61820453,6.1822204e-05,-0.16576418,-0.023801181,0.0021722522,-0.022375697,0.008740708,0.010259813,0.45918673,-1.3758591,1.8976325,-2.0930812,-1.5680884,2.4302213,-0.11047932,0.29791433,-0.37102094,0.05561165,0.015742442,-0.12054217,-0.6512229,0.36391866,-9.174581,0.8873621,47.674347,-0.8859446,-1.6036248,-3.4675963,-0.25618047,0.34311652,-0.41583177,25.0,25.4375,24.875,27.0,27.3125,27.6875
0.34005496,-0.83668435,-1.7475152,-0.66756225,-0.06683986,0.08757031,-0.08437172,-0.40863872,-0.35275668,0.059992284,3.0768092,-0.61812216,4.8033176e-05,-0.16591206,-0.025484262,0.0019120097,-0.02393071,0.009520804,0.016598681,0.45894757,-1.3752217,1.8968791,-2.0929863,-1.5680755,2.429932,-0.108243875,0.29996237,-0.37261873,0.05378567,0.01679807,-0.12464404,-0.4022259,0.47884035,-9.270349,0.92093146,47.67793,-0.935202,-1.7133012,-3.5455058,-0.22823693,0.34982133,-0.41307253,25.0,25.4375,24.875,27.0,27.3125,27.6875
0.34205493,-0.61757076,-1.6859492,-0.547948,-0.05767211,0.10156636,-0.091518305,-0.40896964,-0.35282603,0.060004182,3.0767477,-0.6180519,2.3745937e-05,-0.16826907,-0.025046395,0.0019426047,-0.025332108,0.011100629,0.01638061,0.45875445,-1.3746202,1.8961138,-2.0928795,-1.5680274,2.4297032,-0.11122722,0.30199873,-0.37485415,0.051962502,0.017362194,-0.12740712,-0.24899697,0.40222588,-9.32781,0.9567419,47.71465,-0.93246436,-1.8272274,-3.604628,-0.20712769,0.34138453,-0.41377485,25.0,25.4375,24.875,27.0,27.3125,27.6875
0.3440546,-0.8921964,-1.6733924,-0.55939263,-0.042422198,0.08123561,-0.082799435,-0.409308,-0.3528632,0.05998123,3.0767503,-0.61795056,5.1706502e-05,-0.16802204,-0.026402455,0.00052958186,-0.025418408,0.009575477,0.02591083,0.45851517,-1.3739705,1.8953723,-2.0927837,-1.5680035,2.4294007,-0.109039284,0.3059427,-0.37623823,0.050756585,0.018128265,-0.13474825,-0.21068975,0.49799395,-9.289502,0.9612189,47.677036,-0.95541734,-1.782671,-3.5902092,-0.1698631,0.3346671,-0.3369971,25.0,25.4375,24.875,27.0,27.3125,27.6875
0.34605485,-0.08886156,-1.0144385,-0.5916045,-0.04763056,0.088179894,-0.09216964,-0.40964738,-0.35291085,0.059959188,3.0766888,-0.6179336,0.00011171239,-0.1687931,-0.026158337,-0.00066203513,-0.025710829,0.008700228,0.032848798,0.45826283,-1.3733207,1.8946313,-2.0927007,-1.5679306,2.4291458,-0.11038714,0.3086393,-0.37653098,0.049043667,0.01879608,-0.14303337,-0.21068975,0.47884035,-9.270349,0.9365982,47.694054,-0.92314744,-1.9146168,-3.8226886,-0.13726729,0.33554602,-0.24443164,25.0,25.4375,24.875,27.0,27.3125,27.6875
0.34805453,-0.08565445,-1.2954834,-0.7132192,-0.040908664,0.071319416,-0.082074426,-0.4099808,-0.35298142,0.05996633,3.0766542,-0.6177304,8.505493e-05,-0.17092955,-0.027170546,0.00024244536,-0.026720688,0.011302717,0.039585736,0.458071,-1.3727077,1.8938645,-2.0926049,-1.5678834,2.4288318,-0.11020381,0.3110484,-0.38160276,0.048955634,0.018565373,-0.14958419,-0.019153614,0.4213795,-9.289502,0.9164598,47.668976,-0.9153375,-1.92838,-3.667731,-0.102135085,0.3262274,-0.17193791,25.0,25.4375,24.875,27.0,27.3125,27.6875
0.3500546,0.9143541,-0.8942535,-0.7301151,-0.04408006,0.075397216,-0.09619628,-0.41032627,-0.35300127,0.059955835,3.0766578,-0.6176935,5.0257146e-05,-0.17211308,-0.027780417,-0.00040062368,-0.02710664,0.010542415,0.038812134,0.45781875,-1.3720936,1.8931359,-2.0925095,-1.5678948,2.4285564,-0.110449284,0.31490278,-0.38489273,0.048901882,0.019247467,-0.1490538,-0.05746084,0.38307226,-9.32781,0.98807013,47.670765,-0.95613575,-2.0432513,-3.6742446,-0.08292505,0.3120851,-0.13710743,25.0,25.4375,24.875,27.0,27.3125,27.6875
0.3520543,1.0348777,-0.9508263,-0.8876087,-0.043764394,0.05515232,-0.093125656,-0.41068187,-0.35306457,0.059943818,3.076624,-0.61757195,2.9628185e-05,-0.17263503,-0.028382313,-0.0001728016,-0.027493456,0.009710338,0.037749905,0.45760292,-1.3714205,1.8923458,-2.092437,-1.5678586,2.4282694,-0.11017429,0.31657428,-0.38806874,0.050985347,0.019968262,-0.14771439,-0.11492168,0.4405331,-9.270349,0.9321212,47.705692,-1.0268162,-2.0195343,-3.5244424,-0.059449438,0.32558772,-0.10641052,25.0,25.4375,24.875,27.0,27.3125,27.6875
0.35405505,0.92854446,-1.1310352,-0.77117187,-0.048933875,0.046437796,-0.084006764,-0.41103402,-0.35312393,0.05993719,3.0766344,-0.61740315,1.5911051e-05,-0.17454915,-0.02823339,0.000547192,-0.027542695,0.011107528,0.031403515,0.45739862,-1.3707474,1.8915318,-2.0923164,-1.5678467,2.4279587,-0.1115565,0.31805956,-0.39191598,0.05206598,0.019385738,-0.14274909,-0.095768064,0.40222588,-9.308657,0.9298854,47.68599,-1.0540378,-2.0476382,-3.483796,-0.052798606,0.33309266,-0.15801717,25.0,25.4375,24.875,27.0,27.3125,27.6875
0.35605505,1.0218544,-0.9059635,-0.97747904,-0.03574384,0.049785398,-0.086538985,-0.41138887,-0.35318744,0.059925284,3.0765352,-0.6173674,5.345852e-05,-0.17515859,-0.030223064,0.0013416916,-0.029519008,0.012839995,0.027872264,0.4571473,-1.370086,1.8907546,-2.0922449,-1.5677503,2.427698,-0.10914695,0.3194166,-0.3954757,0.05183932,0.020384487,-0.13680555,0.038307227,0.3256114,-9.385271,0.9030289,47.683304,-1.0277054,-2.0041256,-3.4434245,-0.011603958,0.31057286,-0.20740281,25.0,25.4375,24.875,27.0,27.3125,27.6875
0.358055,1.0529972,-0.5501701,-1.0939231,-0.03969886,0.051690582,-0.08934337,-0.41173935,-0.35322183,0.05992591,3.0764997,-0.6173815,5.2891817e-05,-0.1745102,-0.02899161,0.0008217582,-0.030113215,0.010037114,0.020741692,0.4568947,-1.3694623,1.8899797,-2.0921128,-1.567726,2.427459,-0.111651026,0.31817186,-0.39328608,0.053136073,0.022160333,-0.13217883,0.038307227,0.30645782,-9.5385,0.8985519,47.692257,-1.1107737,-1.9974236,-3.6627445,-0.019791441,0.31636778,-0.27626437,25.0,25.4375,24.875,27.0,27.3125,27.6875
0.36005569,0.42107943,-1.2708441,-1.1601582,-0.036003724,0.054841634,-0.08777912,-0.41207963,-0.35327974,0.05991995,3.076476,-0.6173392,5.4864104e-05,-0.17261837,-0.028501911,-0.0015659488,-0.027415728,0.002766473,0.018347705,0.45669082,-1.3688128,1.889191,-2.0919912,-1.5677012,2.427232,-0.11125424,0.3214991,-0.39294744,0.057181943,0.022956103,-0.12938741,0.095768064,0.34476504,-9.557653,0.9321212,47.661808,-1.0101405,-1.879708,-3.9485543,-0.0065331804,0.26876575,-0.3214324,25.0,25.4375,24.875,27.0,27.3125,27.6875
0.3620549,0.50793487,-1.320245,-1.2739763,-0.029437227,0.058233995,-0.08752906,-0.41242683,-0.35334334,0.059915937,3.076429,-0.6171787,8.2095925e-05,-0.17452332,-0.028163532,-0.00058313564,-0.02748411,0.0045451126,0.013204311,0.4564622,-1.3681631,1.8884004,-2.0918834,-1.5676297,2.4269094,-0.112847835,0.32220972,-0.3964958,0.05839946,0.022227844,-0.1258366,0.17238252,0.28730422,-9.576807,0.9567419,47.640312,-0.97949624,-2.0215058,-3.8410795,-0.027046917,0.26597494,-0.40006685,25.0,25.4375,24.875,27.0,27.3125,27.6875
0.36405447,0.64153284,-0.6325966,-1.4005976,-0.035009034,0.06042721,-0.0947775,-0.41278258,-0.35340944,0.059924718,3.076364,-0.6171668,7.256886e-05,-0.17651038,-0.028331717,-0.001251584,-0.027781311,0.0046195835,0.00938208,0.4562457,-1.3675133,1.887575,-2.0917523,-1.567582,2.4266942,-0.11423694,0.32647383,-0.40005645,0.057500783,0.022455173,-0.12340068,0.019153614,0.38307226,-9.691729,0.97464454,47.64389,-0.8609924,-2.1349792,-3.7703013,0.0074646445,0.2450908,-0.46605247,25.0,25.4375,24.875,27.0,27.3125,27.6875
0.3660552,0.5215741,-1.1215596,-1.5269976,-0.03853219,0.06233725,-0.094370924,-0.4131151,-0.35345015,0.05990577,3.0763416,-0.61716413,0.00015431688,-0.1781993,-0.02815831,-0.0013802394,-0.027529769,0.0033233673,0.007219679,0.45600513,-1.3668636,1.8868092,-2.0916078,-1.5675334,2.426455,-0.11602277,0.32990468,-0.4046062,0.059903424,0.022795243,-0.12302286,0.0,0.38307226,-9.768343,0.947788,47.655537,-0.8501785,-2.1188629,-3.680172,0.003152596,0.23789844,-0.5230001,25.0,25.4375,24.875,27.0,27.3125,27.6875
0.3680551,0.36365888,-1.5614552,-1.6062579,-0.04499452,0.05667215,-0.09079057,-0.41351095,-0.35352576,0.059926204,3.0762882,-0.617071,1.2516474e-05,-0.17866255,-0.02820902,-0.0013154859,-0.026769985,0.001736681,0.013856677,0.45580095,-1.3661785,1.8859247,-2.0915225,-1.5675334,2.4262,-0.11621118,0.33169934,-0.4078383,0.06312662,0.022845592,-0.12984496,0.11492168,0.34476504,-9.825804,0.9947882,47.658226,-0.88817245,-2.264286,-3.556004,0.008928023,0.24553147,-0.48800638,25.0,25.4375,24.875,27.0,27.3125,27.6875
0.37005505,-0.30700547,-1.5749319,-1.458921,-0.057271834,0.04398327,-0.09367602,-0.41385278,-0.3535684,0.059900995,3.076288,-0.616911,0.00010426455,-0.1785512,-0.028464396,-0.0017395034,-0.025879567,-0.0005470514,0.024453947,0.4555494,-1.365505,1.8851465,-2.09139,-1.5674733,2.4258487,-0.11567993,0.33378616,-0.41021046,0.06590035,0.023075914,-0.13991098,-0.038307227,0.36391866,-9.710882,0.9567419,47.674347,-0.9028892,-2.2464287,-3.6983056,-0.022744482,0.23454258,-0.44577748,25.0,25.4375,24.875,27.0,27.3125,27.6875
0.37205482,-0.3694899,-1.6988069,-1.6359779,-0.035698943,0.047203284,-0.08127525,-0.4141924,-0.35363394,0.05988808,3.0762115,-0.6169091,0.00022986555,-0.17680897,-0.028097697,-0.0035478864,-0.023830388,-0.006367614,0.034287903,0.4553096,-1.3648312,1.8843344,-2.0912335,-1.5673655,2.4256177,-0.115162276,0.33594826,-0.40969864,0.06940468,0.023826592,-0.14922772,-0.2681506,0.4405331,-9.710882,0.9545008,47.661808,-1.0184908,-2.2802157,-3.8024855,-0.054389793,0.20793962,-0.32575464,25.0,25.4375,24.875,27.0,27.3125,27.6875
0.3740551,0.07139408,-0.8597674,-1.4368606,-0.050247326,0.07532464,-0.0950298,-0.4145611,-0.3536834,0.059909157,3.0761929,-0.6166894,0.00016860111,-0.17590885,-0.028268214,-0.0025365914,-0.023854872,-0.007080057,0.042329513,0.45506975,-1.3642077,1.88351,-2.0911,-1.5673412,2.4252434,-0.11419822,0.33376485,-0.41036874,0.0729197,0.024197001,-0.15630421,-0.1340753,0.36391866,-9.749189,0.947788,47.64837,-0.9428804,-2.1418853,-3.9488173,-0.10624492,0.18767785,-0.22907963,25.0,25.4375,24.875,27.0,27.3125,27.6875
