Tylouw/Master_Thesis_Code/training_data/batch_1/small_rod_t0.1/sample_67_session_2.csv
timestamp[s],tcp_force_x[N],tcp_force_y[N],tcp_force_z[N],tcp_force_rx[Nm?],tcp_force_ry[Nm?],tcp_force_rz[Nm?],tcp_pose_x[m],tcp_pose_y[m],tcp_pose_z[m],tcp_pose_rx[rot_vec_x],tcp_pose_ry[rot_vec_y],tcp_pose_rz[rot_vec_z],tcp_velo_x[m/s],tcp_velo_y[m/s],tcp_velo_z[m/s],tcp_velo_rx[rot_vec_x/s],tcp_velo_ry[rot_vec_y/s],tcp_velo_rz[rot_vec_z/s],q1[rad],q2[rad],q3[rad],q4[rad],q5[rad],q6[rad],qd1[rad/s],qd2[rad/s],qd3[rad/s],qd4[rad/s],qd5[rad/s],qd6[rad/s],tool_acc_x,tool_acc_y,tool_acc_z,current_of_whole_robot[A],voltage_of_whole_robot[V],current_J1[A],current_J2[A],current_J3[A],current_J4[A],current_J5[A],current_J6[A],temp_J1[C],temp_J2[C],temp_J3[C],temp_J4[C],temp_J5[C],temp_J6[C]
8.219795e-07,-0.9251887,-0.87868714,0.12854642,-0.027762024,0.010318534,0.00020395027,-0.3810548,-0.3485434,0.059983768,-3.078566,0.6248489,-0.0001302838,0.0023657745,0.0012169511,-0.0027534496,0.0030532524,-0.0062123197,-3.967872e-06,0.47782204,-1.4259692,1.9577278,-2.1008565,-1.5707458,2.452752,-7.497172e-05,0.0017273236,0.00406686,0.0011258058,0.0001567549,-7.327778e-05,0.019153614,0.11492168,-8.772355,0.679228,47.690468,0.042788222,-2.8425624,-2.4817684,-0.4676229,0.1123556,0.04570995,26.0625,26.875,26.0,29.0625,30.0625,30.4375
0.002054512,-0.79487073,-0.8380993,0.1296904,-0.027877264,0.012657016,0.0011752964,-0.3810565,-0.34854242,0.059956126,-3.0785353,0.62480396,-0.00014708535,-0.00019712045,-0.00011784983,-0.0031698074,-0.00080801314,0.0011989865,-1.9294082e-06,0.4778342,-1.4259087,1.9577283,-2.1008847,-1.5707697,2.4527402,-7.394512e-05,0.0037277448,0.005399178,-0.01056377,0.00015341504,-7.2296774e-05,0.038307227,0.095768064,-8.714894,0.73069996,47.677036,0.12675683,-2.8605242,-2.4888449,-0.41612563,0.1094437,0.05310725,26.0625,26.875,26.0,29.0625,30.0625,30.4375
0.004054315,-0.34696454,-0.6036863,0.30938092,-0.02434406,0.02155898,-0.0045602736,-0.38107622,-0.34853476,0.059970785,-3.0785418,0.624882,-7.504998e-05,-0.0019107732,-0.001017438,-0.0022099805,-0.003346142,0.0060360692,-5.635206e-07,0.4778101,-1.4259326,1.9577278,-2.1009095,-1.5707816,2.452764,-7.29463e-05,0.0035500438,0.004379306,-0.014828743,0.00017104173,-7.134158e-05,0.095768064,0.11492168,-8.63828,0.7553206,47.694946,0.038541947,-3.0667272,-2.6759572,-0.29653794,0.11642814,0.034442134,26.0625,26.875,26.0,29.0625,30.0625,30.4375
0.006053633,0.06615505,-0.16792671,-0.17989434,-0.008745908,0.007215166,-0.004045123,-0.38109347,-0.3485303,0.059969977,-3.078534,0.6249188,-7.563191e-05,-0.0010528961,-0.00056950643,-0.0012751837,-0.0020747904,0.0036111332,-1.2221877e-06,0.47778615,-1.4259094,1.9577025,-2.100907,-1.5707816,2.452764,-7.197403e-05,0.0018205426,0.002849035,-0.008830977,0.00016777054,-7.041138e-05,0.05746084,0.21068975,-8.599973,0.7665104,47.73077,0.1484519,-2.9836593,-2.5754683,-0.32034782,0.09018265,0.03394766,26.0625,26.875,26.0,29.0625,30.0625,30.4375
0.008053652,0.2881994,0.5920624,-0.4142085,0.016325478,-0.015633382,-0.0064862543,-0.3810817,-0.34853306,0.059961867,-3.0785263,0.6249364,-0.00014418841,-0.00039380998,-0.00022444762,-0.00078360655,-0.0010032564,0.0015709217,-1.653029e-06,0.47778615,-1.4258977,1.957702,-2.1008818,-1.5707573,2.452776,-7.102732e-05,0.0008998334,0.00180277,-0.0045595253,0.00016193549,-6.95051e-05,0.076614454,0.21068975,-8.714894,0.784413,47.709274,0.046870165,-2.9067268,-2.5410268,-0.35675758,0.09678778,0.043637056,26.0625,26.875,26.0,29.0625,30.0625,30.4375
0.010053856,0.09928393,0.30375823,-0.8469875,0.018318454,-0.01471004,-0.0044569387,-0.38105652,-0.34854013,0.059938945,-3.0785193,0.6248974,-0.0001724464,-0.0005741999,-0.00031238055,0.00014755527,-0.0011801543,0.0019280501,-9.134495e-06,0.47782204,-1.425886,1.9577492,-2.1009176,-1.5707573,2.4527884,-7.779979e-05,-9.433747e-05,0.00033933707,-0.0025003804,0.00015632277,-6.8621805e-05,0.038307227,0.19153613,-9.021352,0.7665104,47.71286,-0.15139885,-2.229206,-3.1295774,-0.4039129,0.09682457,0.01642248,26.0625,26.875,26.0,29.0625,30.0625,30.4375
0.012053829,-0.7250744,-0.8086893,-1.1246414,-0.01692409,-0.0063778097,0.0011287885,-0.38104856,-0.34851363,0.059919737,-3.0784435,0.62490046,-0.0002551073,0.00045314728,0.00022580629,-0.0036506925,0.0029250116,-0.006038189,-2.331001e-05,0.47779807,-1.4258597,1.9577492,-2.1008565,-1.5707816,2.452776,-0.00010190774,0.007469658,4.5526394e-06,-0.00076790876,0.00017728575,-7.7581644e-05,0.076614454,0.15322891,-9.193734,0.7911258,47.690468,-0.33241624,-2.1407087,-3.293621,-0.41798148,0.123364836,0.009398373,26.0625,26.875,26.0,29.0625,30.0625,30.4375
0.014053599,-1.3131988,-2.1114984,-1.3152972,-0.050481685,0.025814159,0.0017378571,-0.38103965,-0.34853035,0.0599086,-3.0784688,0.624832,-0.00029435699,-0.00456779,0.00027183254,-0.0044977246,0.0032579473,-0.0067736595,-0.0047374247,0.47782022,-1.425832,1.9577459,-2.1008685,-1.5707573,2.452752,-0.0048557757,0.017349781,-0.009394257,-0.00044313996,0.00020050202,-0.00011112304,-0.019153614,0.24899697,-9.3661175,0.7150385,47.661808,-0.2565765,-2.8761585,-3.041138,-0.4067693,0.11007624,0.0011447795,26.0625,26.875,26.0,29.0625,30.0625,30.4375
0.016053757,-2.2031467,-3.0714648,-1.5816615,-0.06996395,0.04512818,0.0009958863,-0.38107303,-0.34852266,0.059912823,-3.0784447,0.6248664,-0.0002960236,-0.0061644875,0.00075272785,-0.0034929013,0.0020663198,-0.0049896454,-0.007166206,0.47778368,-1.4257845,1.9576739,-2.1008327,-1.5707697,2.4527402,-0.0073404475,0.016703859,-0.010977127,-0.00034736597,0.00043489505,-0.00016677284,-0.19153614,0.40222588,-9.634268,0.73069996,47.690468,-0.17076638,-2.6681252,-3.1799412,-0.42929542,0.14206903,-0.030127585,26.0625,26.875,26.0,29.0625,30.0625,30.4375
0.018053355,-1.8595222,-3.0297348,-1.6880002,-0.08620743,0.07535547,-0.005786695,-0.38106728,-0.3485223,0.059904076,-3.0784116,0.62487465,-0.0003275992,-0.0056512943,0.0005693303,-0.003384658,0.0017097843,-0.0052443184,-0.0008825638,0.47779578,-1.4257609,1.9576615,-2.1008089,-1.5707811,2.4527617,-0.006820458,0.015939746,-0.010412974,-8.782395e-05,0.000868095,-0.005931717,-0.36391866,0.49799395,-9.749189,0.779936,47.70211,-0.2010577,-2.466332,-3.437192,-0.42692477,0.1540032,-0.0022538232,26.0625,26.875,26.0,29.0625,30.0625,30.4375
0.020053959,-2.3682132,-2.657354,-1.7632918,-0.08506242,0.065957986,-0.0022160446,-0.3810196,-0.34853083,0.05985322,-3.0784109,0.6248155,-0.0005330033,-0.006056394,-0.0006950407,-0.0035466577,-0.00024340917,-0.0063668704,0.0025720187,0.47780794,-1.425712,1.9577221,-2.1008089,-1.5707086,2.4527369,-0.0064087473,0.018388808,-0.012853522,-5.734276e-06,0.0031115059,-0.008977554,-0.4213795,0.5554548,-9.940725,0.7463667,47.693153,-0.33300114,-2.347206,-3.5383704,-0.4415018,0.12327537,0.037742577,26.0625,26.875,26.0,29.0625,30.0625,30.4375
0.022053976,-2.0643082,-2.066207,-1.756906,-0.07737219,0.063906826,-0.0124173565,-0.38107324,-0.34852114,0.059860196,-3.078375,0.6248865,-0.00045710575,-0.0073536867,-0.0013604092,-0.0032147313,-0.0029608859,-0.0066647083,-1.4969703e-06,0.47777137,-1.4256516,1.9576372,-2.1008089,-1.5707554,2.4527493,-0.008081582,0.020088512,-0.01555303,-3.7440722e-07,0.0056563215,-0.00808018,-0.47884035,0.49799395,-9.921572,0.7530795,47.687782,-0.4313853,-2.3710976,-3.4870183,-0.443266,0.106992744,0.025364153,26.0625,26.875,26.0,29.0625,30.0625,30.4375
0.024053799,-2.1713815,-2.1405773,-1.943044,-0.057771713,0.05483342,-0.01243262,-0.38109058,-0.34850037,0.059857335,-3.078358,0.6249421,-0.0004968477,-0.008241331,-0.0012366285,-0.0030836742,-0.003206393,-0.006317066,-0.0017493267,0.47771093,-1.4256393,1.9576243,-2.100785,-1.5707439,2.4527256,-0.009159181,0.020959297,-0.016845431,-2.4446114e-08,0.005711624,-0.0074094,-0.47884035,0.45968673,-9.959879,0.76874626,47.71465,-0.43289554,-2.412694,-3.5407436,-0.4587301,0.113639235,0.0028468282,26.0625,26.875,26.0,29.0625,30.0625,30.4375
0.026054144,-2.0301545,-1.7710522,-1.7258106,-0.06565458,0.06299386,-0.023556363,-0.38111413,-0.3485164,0.059838075,-3.07841,0.6249146,-0.0005293961,-0.009890591,-0.0011532553,-0.0026004445,-0.0038434037,-0.005203978,-0.0030868372,0.47768635,-1.4255669,1.9575995,-2.100845,-1.5706958,2.4526772,-0.010865728,0.022211593,-0.019378807,-1.5961565e-09,0.0057599638,-0.007776985,-0.5554548,0.36391866,-9.787497,0.7396539,47.703903,-0.5048755,-2.4480436,-3.493057,-0.4495925,0.108656794,-0.015592441,26.0625,26.875,26.0,29.0625,30.0625,30.4375
0.0280541,-2.4360962,-1.943632,-1.6451662,-0.05621346,0.0536985,-0.025322475,-0.38111424,-0.3485256,0.059825614,-3.0783792,0.62487,-0.0005768265,-0.011029416,-0.0013828966,-0.0024264336,-0.0047746277,-0.004997688,-0.0037748653,0.47770995,-1.4255065,1.9575509,-2.1008089,-1.5707072,2.452677,-0.011985738,0.023747118,-0.021528581,-1.04217635e-10,0.0064869295,-0.0082093915,-0.47884035,0.3256114,-9.825804,0.7418897,47.704796,-0.47823343,-2.3855243,-3.4528542,-0.45010173,0.10722211,-0.007484489,26.0625,26.875,26.0,29.0625,30.0625,30.4375
0.030053891,-1.8460152,-1.3093696,-1.4699371,-0.056717485,0.069141544,-0.042104803,-0.38119265,-0.3485436,0.05984735,-3.0784292,0.6249767,-0.0004708028,-0.012687888,-0.0019600429,-0.0015937492,-0.0067646536,-0.0037038357,-0.0046413434,0.47766158,-1.4254344,1.9574298,-2.1008565,-1.5706953,2.452689,-0.013251006,0.024906397,-0.02475559,-6.804666e-12,0.007652992,-0.008607998,-0.51714754,0.21068975,-9.787497,0.7418897,47.69763,-0.474149,-2.3313835,-3.4341102,-0.45198447,0.08315359,-0.018581316,26.0625,26.875,26.0,29.0625,30.0625,30.4375
0.032053757,-1.6019597,-0.93369097,-1.3738934,-0.03667572,0.06899019,-0.052233618,-0.38119367,-0.34855062,0.059851214,-3.0784533,0.6250015,-0.0005070694,-0.0133227315,-0.0019656203,-0.0017188669,-0.0074322536,-0.0041928776,-0.0056435047,0.47764924,-1.4254339,1.9574178,-2.100845,-1.5706586,2.452689,-0.014358949,0.026056351,-0.025780693,-4.4429608e-13,0.0084684305,-0.0087146545,-0.47884035,0.076614454,-9.730036,0.7396539,47.664497,-0.52973425,-2.3264375,-3.4179964,-0.46388596,0.06426649,-0.025200468,26.0625,26.875,26.0,29.0625,30.0625,30.4375
0.03405364,-1.9873892,-0.82781225,-1.6047925,-0.009666208,0.05134716,-0.046662122,-0.3812235,-0.34855253,0.059850715,-3.0784461,0.6250007,-0.0005212532,-0.014346402,-0.0018407749,-0.001531274,-0.0076377844,-0.003662402,-0.006824817,0.47762492,-1.4253738,1.9573449,-2.1008208,-1.5706586,2.452665,-0.015485552,0.027018592,-0.027308077,-2.9009357e-14,0.008403746,-0.008658997,-0.34476504,-0.076614454,-9.710882,0.73069996,47.64837,-0.59256953,-2.3268259,-3.4988837,-0.45483714,0.055224594,-0.0207842,26.0625,26.875,26.0,29.0625,30.0625,30.4375
0.03605474,-2.001019,-0.35390526,-1.3229284,0.01181043,0.03466079,-0.056351222,-0.3812424,-0.34857512,0.059827477,-3.0784807,0.6249314,-0.00057100714,-0.016352281,-0.0022149947,-0.00059232285,-0.008001511,-0.0011914998,-0.006798903,0.47762465,-1.4252775,1.9572963,-2.1008565,-1.5706233,2.4526172,-0.01614351,0.028515836,-0.031163624,-1.894104e-15,0.007582227,-0.009339186,-0.34476504,-0.11492168,-9.691729,0.7396539,47.694946,-0.50800824,-2.2999904,-3.457765,-0.46678358,0.054431822,-0.029643724,26.0625,26.875,26.0,29.0625,30.0625,30.4375
0.038053926,-1.3019077,-0.33447176,-1.4890392,0.017695233,0.04707539,-0.073517226,-0.38128185,-0.34855714,0.059817445,-3.078451,0.6250979,-0.0006231657,-0.017409174,-0.0024449213,-0.00033411497,-0.0077579604,-0.0001656734,-0.006322246,0.4775406,-1.4252169,1.9572476,-2.100845,-1.5705994,2.4526408,-0.016260654,0.029970119,-0.033413652,-1.2367146e-16,0.006889309,-0.009930431,-0.34476507,-0.05746084,-9.576807,0.70608455,47.67614,-0.5524073,-2.2576396,-3.311002,-0.4372335,0.07055737,-0.04754778,26.0625,26.875,26.0,29.0625,30.0625,30.4375
0.040053748,-1.5662782,-0.12458885,-1.5233727,0.005896625,0.031563774,-0.081126586,-0.38132474,-0.3485682,0.059833083,-3.078493,0.62502974,-0.0005395352,-0.018228613,-0.0024275288,-0.00037456516,-0.007661336,-1.8701969e-06,-0.0066991835,0.47752833,-1.4251804,1.9571756,-2.1008685,-1.5706114,2.4525807,-0.016942503,0.031338617,-0.034882665,-8.074862e-18,0.006725539,-0.010233667,-0.38307226,-0.019153614,-9.5385,0.784413,47.705692,-0.537798,-2.347486,-3.3480916,-0.44496614,0.07723847,-0.057593398,26.0625,26.875,26.0,29.0625,30.0625,30.4375
0.04205339,-1.2555689,-0.40399152,-1.3522989,-0.010928733,0.049402922,-0.08820673,-0.38135022,-0.34858096,0.059815302,-3.0785034,0.62509024,-0.0005878641,-0.019475162,-0.0023239334,5.882452e-05,-0.008023133,0.0010501688,-0.0077075427,0.4775038,-1.4250965,1.957126,-2.1008928,-1.5705751,2.4525926,-0.01817057,0.032096945,-0.036740478,-5.272308e-19,0.006559268,-0.01045207,-0.24899697,-0.038307227,-9.519346,0.779936,47.704796,-0.55170685,-2.245628,-3.3475366,-0.43973726,0.08043027,-0.072689034,26.0625,26.875,26.0,29.0625,30.0625,30.4375
0.04405425,-1.655811,-1.2290657,-1.1496133,-0.018186579,0.036034554,-0.09522991,-0.3813877,-0.34857348,0.05982492,-3.0784638,0.62506306,-0.00058238045,-0.020462118,-0.0023499683,0.00020429475,-0.007938484,0.0016732244,-0.007953557,0.47747964,-1.4250361,1.9570187,-2.1008208,-1.5706118,2.4525566,-0.018798772,0.033370283,-0.038527187,-3.4424404e-20,0.0061935824,-0.0108326115,-0.15322891,0.076614454,-9.461885,0.7933669,47.694054,-0.50674814,-2.270467,-3.3136744,-0.4527629,0.07059133,-0.076168016,26.0625,26.875,26.0,29.0625,30.0625,30.4375
0.046053626,-0.95745534,-0.97592574,-1.2243906,-0.03256195,0.048817217,-0.10926393,-0.38145652,-0.34857762,0.05984551,-3.0784972,0.6252232,-0.0005178992,-0.021943547,-0.0028627831,0.0013537504,-0.008995259,0.004129445,-0.007809922,0.47740752,-1.424988,1.9569224,-2.100845,-1.5705875,2.4525802,-0.019126346,0.033638343,-0.041460972,-2.2476674e-21,0.0059982645,-0.011301487,-0.11492168,0.19153613,-9.481039,0.75755644,47.69763,-0.5214796,-2.2011433,-3.3473163,-0.44108373,0.08456146,-0.088185474,26.0625,26.875,26.0,29.0625,30.0625,30.4375
0.04805426,-0.9872995,-1.003402,-1.4269278,-0.035252035,0.036230717,-0.11991741,-0.38149852,-0.34858775,0.059837673,-3.07853,0.6251926,-0.0005270398,-0.022869224,-0.0025464033,0.0011483112,-0.00867531,0.0040113744,-0.008921283,0.4773712,-1.4249038,1.9568495,-2.1008685,-1.5705637,2.4525206,-0.020391537,0.0351584,-0.042727817,-1.4675664e-22,0.0057659573,-0.011453938,-0.15322891,0.21068975,-9.576807,0.8023209,47.71823,-0.497047,-2.174718,-3.348503,-0.46172512,0.09094542,-0.0897011,26.0625,26.875,26.0,29.0625,30.0625,30.4375
0.050053846,-0.6536044,-1.3824831,-1.4480962,-0.04284248,0.036400776,-0.12378753,-0.38153756,-0.3485814,0.059844527,-3.078484,0.6252406,-0.0005071943,-0.023619791,-0.002844463,0.0005142262,-0.0088112075,0.00278355,-0.008798537,0.47734696,-1.424843,1.9567536,-2.1008208,-1.5705994,2.4525323,-0.020997662,0.03815448,-0.044698503,-9.582161e-24,0.0064462577,-0.0121827,-0.076614454,0.28730422,-9.576807,0.779936,47.70211,-0.52204245,-2.1784313,-3.3543139,-0.44003582,0.08723742,-0.09228349,26.0625,26.875,26.0,29.0625,30.0625,30.4375
0.052053675,-1.2100351,-2.0262792,-1.4388276,-0.046398535,0.020720523,-0.12553382,-0.3815912,-0.3486041,0.059867788,-3.078567,0.62525654,-0.0004935211,-0.024435759,-0.0029980105,0.0008694749,-0.009425019,0.003473392,-0.00918577,0.47729868,-1.4247947,1.9566454,-2.1008208,-1.5705394,2.4524834,-0.02162208,0.038734324,-0.046172827,-6.256466e-25,0.006672354,-0.012419082,-0.038307227,0.30645782,-9.557653,0.7530795,47.660015,-0.5616853,-2.1744816,-3.386912,-0.45716733,0.09553693,-0.104543716,26.0625,26.875,26.0,29.0625,30.0625,30.4375
0.05405353,-1.4178338,-2.812914,-1.5716419,-0.046028234,0.014633546,-0.1302133,-0.3816872,-0.34858477,0.059884325,-3.0785434,0.62540585,-0.0003307947,-0.02579951,-0.003253799,0.0022653453,-0.010780651,0.0062243524,-0.0101462705,0.47721455,-1.4247229,1.9565367,-2.1008685,-1.5705994,2.4524956,-0.022380302,0.037840344,-0.048345067,-4.0850253e-26,0.006610052,-0.012215185,-0.15322891,0.4405331,-9.5385,0.7665104,47.65912,-0.4852388,-2.0389585,-3.3792868,-0.4373706,0.10300567,-0.10652597,26.0625,26.875,26.0,29.0625,30.0625,30.4375
0.056053787,-1.4479345,-2.4461467,-1.5312359,-0.06756174,0.020205898,-0.14360191,-0.38169137,-0.3486152,0.059863925,-3.0785868,0.6253777,-0.00050029904,-0.026322901,-0.0032597517,0.0009977862,-0.010088849,0.0039278385,-0.011469871,0.47720218,-1.4246261,1.9564646,-2.1008327,-1.5705031,2.45246,-0.023138179,0.041642778,-0.049790192,-2.6672292e-27,0.0070467764,-0.011649326,-0.095768064,0.51714754,-9.576807,0.7351769,47.70032,-0.50586617,-2.0625746,-3.4048433,-0.43824583,0.0999151,-0.11278565,26.0625,26.875,26.0,29.0625,30.0625,30.4375
0.058053743,-0.8946503,-2.2919123,-1.5414017,-0.072548345,0.029325064,-0.15993634,-0.3817683,-0.34859526,0.059864625,-3.0785327,0.6254441,-0.00039952187,-0.02804654,-0.0040623625,0.0020892387,-0.011948697,0.0060906466,-0.0129849585,0.47714204,-1.4245298,1.9563559,-2.100845,-1.5705746,2.4524484,-0.023723701,0.042609144,-0.053348765,-0.00018596937,0.0076986235,-0.010718775,-0.019153614,0.57460845,-9.615114,0.83589023,47.695843,-0.4701019,-2.1202073,-3.3104591,-0.44292545,0.108345,-0.12599045,26.0625,26.875,26.0,29.0625,30.0625,30.4375
0.060053714,-0.76143956,-2.5547516,-1.3947016,-0.053921096,0.0318197,-0.16023965,-0.3818207,-0.34863335,0.059877623,-3.078614,0.62542194,-0.00037434226,-0.029006744,-0.004252136,0.0011322177,-0.011281313,0.0046020336,-0.013531225,0.4771299,-1.4244446,1.9562343,-2.1008685,-1.5705265,2.4524121,-0.024328886,0.04666777,-0.055800647,-0.00016357137,0.0077849207,-0.010775518,-0.1340753,0.5554548,-9.519346,0.77545905,47.698532,-0.47811335,-2.1478596,-3.2281895,-0.46053076,0.105400085,-0.1452093,26.0625,26.875,26.0,29.0625,30.0625,30.4375
0.06205349,-1.4876071,-2.4261787,-1.3647586,-0.046563927,0.011886036,-0.16015522,-0.38188428,-0.34862778,0.059889678,-3.0786045,0.6255934,-0.00038577258,-0.0287347,-0.004129653,0.00082391273,-0.011439565,0.0037274049,-0.013036496,0.47704577,-1.4243727,1.9561166,-2.1008327,-1.5705026,2.4524362,-0.024641639,0.04673177,-0.055175275,-0.00014959995,0.008329174,-0.011584164,-0.15322891,0.4405331,-9.442732,0.76874626,47.703903,-0.53463054,-2.2534666,-3.4700508,-0.44059932,0.10618648,-0.1501686,26.0625,26.875,26.0,29.0625,30.0625,30.4375
0.06405425,-1.2407751,-2.0018768,-1.0285313,-0.047513567,0.015800009,-0.16065508,-0.38191688,-0.34863555,0.05988866,-3.078626,0.6255015,-0.00041069812,-0.030432446,-0.004967358,0.0024560974,-0.013511534,0.0068136696,-0.013128001,0.47702166,-1.4243009,1.9560317,-2.1008089,-1.5704907,2.452352,-0.024989199,0.04652203,-0.058671243,-0.00013808966,0.008745351,-0.01183931,-0.076614454,0.40222588,-9.404425,0.779936,47.688675,-0.5706132,-1.9813807,-3.3264494,-0.43565154,0.10054636,-0.12970418,26.0625,26.875,26.0,29.0625,30.0625,30.4375
0.06605343,-0.32592934,-1.2945487,-0.9589782,-0.049970813,0.034934226,-0.17170107,-0.3820063,-0.34865916,0.05989371,3.0786436,-0.62562084,0.00035657594,-0.032345958,-0.0061517823,0.0027325111,-0.015395165,0.0071563446,-0.013394587,0.47694942,-1.4241798,1.9558982,-2.1008804,-1.5704421,2.452352,-0.025625344,0.05020994,-0.06351125,-0.00015936323,0.010252811,-0.012207591,-0.076614454,0.34476504,-9.461885,0.7597976,47.7254,-0.5654633,-2.1295693,-3.0619807,-0.43939757,0.07144797,-0.13738966,26.0625,26.875,26.0,29.0625,30.0625,30.4375
0.06805359,-1.3031958,-1.4967623,-0.98688024,-0.036119334,0.014560418,-0.13827714,-0.38208088,-0.34865996,0.05991637,3.078654,-0.62564147,0.0002645507,-0.032187376,-0.0056275753,0.0013558601,-0.0140658915,0.004695676,-0.013868937,0.47691315,-1.4240952,1.9557418,-2.100845,-1.5704902,2.4523275,-0.026373476,0.05255397,-0.06304095,-0.0001774073,0.010203272,-0.01248079,-0.15322891,0.3256114,-9.2703495,0.75755644,47.66808,-0.56254774,-2.198679,-3.173198,-0.42808932,0.095438845,-0.15856802,26.0625,26.875,26.0,29.0625,30.0625,30.4375
0.07005445,-1.226761,-1.5414875,-0.9702869,-0.029500885,0.021616023,-0.14560324,-0.38212422,-0.3486752,0.059915047,3.0785916,-0.62566775,0.00033725228,-0.033200335,-0.006221789,0.0018566358,-0.014948441,0.005705662,-0.013577203,0.47685313,-1.424011,1.9556459,-2.1008327,-1.5704178,2.4522917,-0.026453452,0.053694323,-0.065492444,-0.00016821806,0.01051912,-0.012851614,-0.11492168,0.30645782,-9.193734,0.7463667,47.679718,-0.60266376,-2.1362715,-3.2853012,-0.44246656,0.089813314,-0.15271682,26.0625,26.875,26.0,29.0625,30.0625,30.4375
0.07205406,-1.1683679,-1.3167112,-0.6665456,-0.02855492,0.02909754,-0.14680621,-0.38222635,-0.34871036,0.059943777,3.078527,-0.62565446,0.0001797134,-0.034478884,-0.006838568,0.0023128504,-0.0161645,0.006503324,-0.0137833785,0.476829,-1.4238907,1.9554538,-2.1008804,-1.5704297,2.4522676,-0.026992904,0.0553173,-0.068394415,-0.00015846378,0.011229031,-0.013182987,-0.076614454,0.2681506,-9.11712,0.7418897,47.674347,-0.612955,-2.0916986,-3.1610289,-0.42274714,0.06670138,-0.16353181,26.0625,26.875,26.0,29.0625,30.0625,30.4375
0.07405402,-1.3740978,-0.9649804,-0.5984666,-0.02846576,0.029134532,-0.14100035,-0.3822615,-0.34871233,0.059918262,3.0785043,-0.62576526,0.00030050342,-0.03554011,-0.0068621947,0.0025680065,-0.01623762,0.0073012407,-0.013880236,0.4767687,-1.4237704,1.9553694,-2.1008565,-1.5703815,2.4522793,-0.027727267,0.05642571,-0.070251524,-0.00014968263,0.010923805,-0.013819607,-0.17238252,0.21068975,-9.11712,0.7911258,47.70211,-0.62027943,-2.1210399,-3.0828447,-0.4093085,0.07700975,-0.17746225,26.0625,26.875,26.0,29.0625,30.0625,30.4375
0.076054424,-1.4550464,-1.0377991,-0.7091917,-0.012096769,0.030449295,-0.1393083,-0.38233495,-0.3487235,0.059935845,3.0784712,-0.6258161,0.00025737993,-0.036447592,-0.007420501,0.0025216958,-0.016787887,0.007248152,-0.013887807,0.47672075,-1.4236737,1.9552134,-2.1008327,-1.5703815,2.4522674,-0.027898313,0.058640875,-0.07268117,-0.00014181828,0.011433018,-0.013981907,-0.15322891,0.24899697,-9.097966,0.779936,47.72271,-0.6630968,-2.103285,-3.1044657,-0.42065826,0.0793456,-0.1864365,26.0625,26.875,26.0,29.0625,30.0625,30.4375
0.07805425,-1.2996879,-0.92312974,-0.61714053,-0.012507175,0.032322302,-0.14264159,-0.3824252,-0.34874305,0.05994272,3.078425,-0.6257865,0.00024933502,-0.037078362,-0.007839169,0.00257516,-0.01728971,0.0073472257,-0.013223953,0.47664866,-1.4235297,1.9550332,-2.1008327,-1.5703453,2.4521828,-0.027986627,0.060007107,-0.07437202,-0.00013538182,0.011831349,-0.014733205,-0.1340753,0.095768064,-9.155427,0.7083204,47.703903,-0.76170206,-2.099543,-3.055781,-0.41253203,0.056555945,-0.19193114,26.0625,26.875,26.0,29.0625,30.0625,30.4375
0.08005401,-0.9891726,-0.9732432,-0.6457096,-0.017387813,0.045499135,-0.14768003,-0.38249043,-0.34876314,0.059941556,3.0783598,-0.6258881,0.00025606045,-0.03781568,-0.008253981,0.002596108,-0.017689195,0.00729871,-0.0125251375,0.4766006,-1.4234092,1.9549011,-2.100845,-1.570309,2.4522064,-0.02816731,0.061694164,-0.07639801,6.339286e-05,0.012205738,-0.015611733,-0.19153613,0.13407528,-9.193734,0.7351769,47.681515,-0.76365244,-2.1065655,-3.1196914,-0.4050734,0.060898427,-0.21758965,26.0625,26.875,26.0,29.0625,30.0625,30.4375
0.08205365,-1.3837401,-1.1710665,-0.7721108,-0.019661939,0.041420393,-0.13927965,-0.3825471,-0.3487698,0.0599239,3.0783584,-0.6258882,0.0002835513,-0.03884819,-0.008471126,0.0021709679,-0.017696949,0.0066640703,-0.01273694,0.4765523,-1.4232764,1.9547924,-2.1008565,-1.5702971,2.4521585,-0.02891961,0.06456835,-0.078719206,7.0658e-05,0.012499278,-0.016151218,-0.24899697,0.17238252,-9.251195,0.80679786,47.687782,-0.78349113,-2.0546963,-3.062788,-0.40989232,0.060357474,-0.21188666,26.0625,26.875,26.0,29.0625,30.0625,30.4375
0.084053546,-1.8788004,-1.7618784,-0.9456374,-0.017817892,0.030762834,-0.13622077,-0.38265416,-0.3487868,0.05994061,3.0782852,-0.6259685,0.00023558001,-0.039593954,-0.008471915,0.002046604,-0.01703496,0.0069090673,-0.012274477,0.4764683,-1.4231316,1.9545888,-2.1008565,-1.5702733,2.452134,-0.0291398,0.06616366,-0.08027723,0.00012350784,0.011797588,-0.016831161,-0.34476504,0.30645782,-9.251195,0.7284641,47.677036,-0.8730346,-2.2606018,-3.0600815,-0.39616925,0.06670883,-0.22047487,26.0625,26.875,26.0,29.0625,30.0625,30.4375
0.08605405,-1.7122468,-1.6525342,-0.98875964,-0.024527557,0.039954886,-0.14113599,-0.38273826,-0.34880096,0.059950173,3.07825,-0.62594265,0.00018881817,-0.040465806,-0.008660223,0.0029602419,-0.018125566,0.008558998,-0.012206312,0.47640812,-1.4230118,1.9544328,-2.1008685,-1.5702614,2.4520621,-0.029736366,0.06555383,-0.08168614,0.00017628385,0.012008922,-0.017495034,-0.34476504,0.2681506,-9.346964,0.7665104,47.704796,-0.79628706,-2.001905,-3.0311017,-0.39186737,0.052144676,-0.22520304,26.0625,26.875,26.0,29.0,30.0625,30.4375
0.08805414,-1.9721477,-1.5717089,-1.0155082,-0.030789016,0.035044048,-0.13754897,-0.38278615,-0.34882307,0.059939213,3.078213,-0.6260115,0.0002662088,-0.04102606,-0.008895551,0.0023872573,-0.017792424,0.007640702,-0.0113839945,0.4763719,-1.422879,1.9543008,-2.100845,-1.5702132,2.4520736,-0.02990993,0.06812506,-0.08333378,0.00022274775,0.012130765,-0.018490173,-0.36391866,0.2681506,-9.442732,0.83589023,47.70032,-0.83071804,-2.0436578,-3.0870652,-0.40178537,0.053696,-0.22435069,26.0625,26.875,26.0,29.0,30.0625,30.4375
0.09005408,-1.7196589,-1.9178357,-1.1663071,-0.026922086,0.04348836,-0.13035306,-0.38286868,-0.3488587,0.059949897,3.0781655,-0.62596315,0.00024705133,-0.04122629,-0.008704454,0.00067613134,-0.016016683,0.0045363647,-0.01145343,0.47633588,-1.4227331,1.9541095,-2.1008446,-1.5701774,2.4520135,-0.030327799,0.072474204,-0.08449061,0.0006052468,0.011975911,-0.01883669,-0.24899697,0.30645782,-9.346964,0.7642693,47.70211,-0.8986459,-2.2399468,-3.1409395,-0.38470817,0.04235651,-0.22490913,26.0625,26.875,26.0,29.0,30.0625,30.4375
0.092053905,-1.859566,-1.7038428,-1.1204364,-0.0346881,0.038237743,-0.13518246,-0.3829629,-0.34886262,0.059963886,3.0781329,-0.6260143,0.0001756243,-0.04231253,-0.0089457845,0.0019555674,-0.017173752,0.0069432156,-0.011579209,0.4762637,-1.4226137,1.9539412,-2.1008446,-1.5701894,2.4519775,-0.030838717,0.07148115,-0.086320855,0.00076016044,0.011898992,-0.019220442,-0.17238252,0.30645782,-9.404425,0.784413,47.67345,-0.9311292,-2.0601873,-3.0886736,-0.39590073,0.04337628,-0.22919506,26.0625,26.875,26.0,29.0,30.0625,30.4375
0.09405371,-1.7992432,-1.5647819,-1.2692928,-0.03855475,0.031056482,-0.13149866,-0.3830514,-0.34886518,0.05995688,3.0780911,-0.62610155,0.00015932239,-0.04340393,-0.008723571,0.001446666,-0.01601097,0.006674358,-0.011689738,0.4761793,-1.4224682,1.9537963,-2.100868,-1.5701779,2.451953,-0.031636316,0.074246205,-0.088334195,0.000785259,0.010986284,-0.019904686,-0.19153613,0.2681506,-9.404425,0.75084364,47.67166,-0.92871344,-2.1122437,-3.205213,-0.37860215,0.031268377,-0.24746716,26.0625,26.875,26.0,29.0,30.0625,30.4375
0.0960539,-1.043397,-1.8694142,-1.1407309,-0.029666346,0.042518362,-0.13257504,-0.38314232,-0.34890103,0.059954293,3.0780592,-0.6260941,0.00015725133,-0.043406192,-0.008567559,0.0002679593,-0.014924455,0.004709817,-0.011081795,0.47614333,-1.4222753,1.9535817,-2.100868,-1.5701536,2.4519165,-0.031865757,0.07684142,-0.08860376,0.00070514815,0.0109214075,-0.020741226,-0.19153613,0.24899697,-9.442732,0.7239871,47.728977,-0.9222605,-2.2236104,-3.1211157,-0.39428037,0.049632773,-0.24315761,26.0625,26.875,26.0,29.0,30.0625,30.4375
0.09805447,-1.4550563,-1.4444355,-1.0777166,-0.039281115,0.031006414,-0.13083936,-0.3832338,-0.3489074,0.059967097,3.078002,-0.62619764,0.00017842221,-0.04339403,-0.008472725,-0.0006772129,-0.014091728,0.0030870237,-0.010393497,0.4760473,-1.4221426,1.95339,-2.1008208,-1.5701178,2.4518924,-0.032014247,0.07895326,-0.08886244,0.00067817606,0.010925827,-0.021577448,-0.17238252,0.30645782,-9.3661175,0.8672237,47.711964,-1.009397,-2.1732056,-3.3085957,-0.36745733,0.04296656,-0.24922156,26.0625,26.875,26.0,29.0,30.0625,30.4375
0.10005436,-1.0843747,-1.6515678,-1.1011038,-0.030948533,0.031778242,-0.13682921,-0.38333505,-0.34893468,0.059973,3.0779314,-0.626221,0.00011337003,-0.046684667,-0.009458474,0.001599673,-0.015900189,0.008217872,-0.010224083,0.47598696,-1.421986,1.9532083,-2.1008685,-1.570094,2.4518557,-0.032793228,0.08004853,-0.09532001,0.0006557123,0.010170673,-0.022520822,-0.11492168,0.3256114,-9.32781,0.7463667,47.67614,-1.0416906,-2.2429347,-3.0844836,-0.37488514,0.047173727,-0.24716231,26.0625,26.875,26.0,29.0,30.0625,30.4375
0.10205424,-1.030104,-1.3517281,-1.4158461,-0.036358524,0.02697339,-0.12946202,-0.38338193,-0.3489385,0.059957914,3.0779414,-0.6262235,0.00022453962,-0.04564717,-0.008974385,0.00032819947,-0.015214775,0.005430135,-0.0102783395,0.47592705,-1.4218534,1.9530777,-2.1008089,-1.5700577,2.451796,-0.03312514,0.0807026,-0.093172394,0.00064514,0.010842825,-0.022800904,-0.05746084,0.30645782,-9.404425,0.7978386,47.690468,-1.0409893,-2.141602,-3.356038,-0.35798484,0.06077987,-0.26429373,26.0625,26.875,26.0,29.0,30.0625,30.4375
0.104053885,-1.3340386,-1.6381068,-1.159612,-0.028579574,0.018007712,-0.13206255,-0.3835142,-0.34895715,0.059960783,3.0778959,-0.62625253,0.0001798619,-0.04678144,-0.009029581,0.0003565956,-0.015387163,0.0056695268,-0.010436404,0.47583073,-1.4216367,1.9528259,-2.1008203,-1.5700458,2.4517238,-0.03408144,0.08247238,-0.09529057,0.0007034178,0.0108844,-0.023597406,-0.095768064,0.28730422,-9.423578,0.7284641,47.666286,-1.1100003,-2.1856244,-3.3090796,-0.3526665,0.04784244,-0.26492298,26.0625,26.875,26.0,29.0,30.0625,30.4375
0.106053725,-1.1287969,-1.6426286,-1.085762,-0.027781293,0.015830196,-0.13517784,-0.38364166,-0.34900016,0.060006406,3.0777793,-0.6262486,-1.2439531e-05,-0.04794816,-0.008267635,0.00013430814,-0.014902624,0.0055074864,-0.011949892,0.47578174,-1.4215162,1.9525975,-2.10088,-1.5700334,2.4516873,-0.03626143,0.08383409,-0.09636682,0.0007864522,0.010530616,-0.024261022,-0.11492168,0.2681506,-9.3661175,0.75084364,47.71823,-0.9463111,-2.1051679,-3.4055262,-0.36018038,0.06103774,-0.26256278,26.0625,26.875,26.0,29.0,30.0625,30.4375
0.10805371,-0.87969464,-1.270101,-0.9880833,-0.032674327,0.016364958,-0.1357858,-0.38372564,-0.3490035,0.059977204,3.0777864,-0.62632656,3.393232e-05,-0.04811837,-0.008872379,-2.0682166e-06,-0.015603475,0.0046952036,-0.0116753075,0.47571006,-1.4213116,1.9524301,-2.10088,-1.570033,2.4516635,-0.035978507,0.08525732,-0.09779135,0.0011860381,0.011523431,-0.024253288,-0.038307227,0.21068975,-9.442732,0.8157518,47.71286,-1.0767577,-2.0471652,-3.4149277,-0.35286188,0.05675929,-0.27142483,26.0625,26.875,26.0,29.0,30.0625,30.4375
0.11005361,-1.0085891,-1.3159518,-0.9937494,-0.026682664,0.014605557,-0.13648885,-0.38381818,-0.3490437,0.059984043,3.0777256,-0.6262743,7.60618e-05,-0.0486311,-0.009262892,0.0002379442,-0.015672816,0.005246989,-0.010830806,0.47565025,-1.4211311,1.9522027,-2.100856,-1.5699619,2.4515789,-0.035621468,0.08613456,-0.09940669,0.0014052978,0.011330871,-0.024739431,-0.038307227,0.17238252,-9.308656,0.779936,47.686886,-1.1615989,-2.0339603,-3.507019,-0.34655923,0.055074364,-0.28132534,26.0625,26.875,26.0,29.0,30.0625,30.4375
0.1120534,-1.1011032,-1.2004912,-1.1182979,-0.030271294,0.016741982,-0.13753124,-0.38393384,-0.3490138,0.059986215,3.0777519,-0.62637717,1.7514207e-05,-0.04951443,-0.008985322,0.00027773043,-0.016347365,0.0051823594,-0.012288286,0.4755296,-1.4209746,1.9520105,-2.1008203,-1.5700215,2.4515193,-0.03731381,0.08687908,-0.10035002,0.001350522,0.011959543,-0.024974365,0.0,0.22984336,-9.3661175,0.8403672,47.69763,-1.2247565,-1.9739306,-3.4412775,-0.3376914,0.04855795,-0.2839424,26.0625,26.875,26.0,29.0,30.0625,30.4375
0.11405378,-0.6985706,-1.1403258,-1.0949367,-0.033104632,0.027473545,-0.13928674,-0.38401902,-0.34905246,0.05998652,3.0776882,-0.6263455,3.5099645e-05,-0.050455023,-0.008531473,-0.0011811919,-0.015000215,0.0027210498,-0.013642045,0.4754809,-1.420805,1.9518183,-2.1008322,-1.5699614,2.451459,-0.0389248,0.091276705,-0.10210209,0.0015124631,0.011886686,-0.025229614,0.038307227,0.24899697,-9.385271,0.6948948,47.699425,-1.0855776,-2.089902,-3.6327055,-0.33761093,0.06717393,-0.28766352,26.0625,26.875,26.0,29.0,30.0625,30.4375
0.11605417,-1.2860947,-1.8199875,-1.2155714,-0.023041872,0.01946607,-0.12388549,-0.38411716,-0.3490759,0.059986033,3.0776339,-0.626392,4.0888128e-05,-0.05224152,-0.009374306,0.0015523921,-0.018257145,0.007553956,-0.013583015,0.47540888,-1.4206257,1.9516143,-2.1008322,-1.5699252,2.451423,-0.03949414,0.088552125,-0.10526073,0.0016077585,0.012565432,-0.025857264,-0.095768064,0.22984336,-9.346964,0.84708,47.716442,-1.1379842,-1.9921728,-3.4290874,-0.3364578,0.059618652,-0.30457145,26.0625,26.875,26.0,29.0,30.0625,30.4375
0.118053995,-1.3545866,-1.5098357,-1.1069787,-0.025145007,0.019609148,-0.13091932,-0.38422146,-0.3490999,0.05997095,3.0776103,-0.62646455,5.5114855e-05,-0.053760905,-0.008784372,0.0010775637,-0.018020714,0.0064753024,-0.015232527,0.47534788,-1.4203966,1.9513863,-2.1008317,-1.5699133,2.4514103,-0.042100944,0.091371685,-0.107545346,0.0021408235,0.012846518,-0.026813421,-0.15322891,0.17238252,-9.442732,0.80679786,47.69763,-1.0938286,-1.9108055,-3.4345245,-0.32089657,0.05986184,-0.3093859,26.0625,26.875,26.0,29.0,30.0625,30.4375
0.12005381,-1.4949752,-1.7104217,-1.2502807,-0.015254751,0.024861291,-0.12775424,-0.38433725,-0.34913698,0.06001234,3.077515,-0.6264452,-1.3671429e-05,-0.054339956,-0.00946085,0.0014856805,-0.01805074,0.0071368795,-0.014538883,0.47527617,-1.4202639,1.9511346,-2.100808,-1.5698651,2.4513388,-0.041240234,0.092553735,-0.109991275,0.0028058258,0.01257019,-0.026643658,-0.22984336,0.24899697,-9.461885,0.7777002,47.72629,-1.1239032,-1.9726707,-3.4044423,-0.32336757,0.06655279,-0.31965318,26.0625,26.875,26.0,29.0,30.0625,30.4375
0.12205357,-1.602266,-1.4009393,-1.3635647,-0.027254032,0.04005509,-0.12930362,-0.384445,-0.34914944,0.060005363,3.0774484,-0.6265461,1.9984149e-05,-0.054738328,-0.009826051,0.0015758167,-0.018607633,0.006804307,-0.014922748,0.4751682,-1.4200714,1.95093,-2.1008074,-1.569817,2.4513023,-0.041359313,0.093563795,-0.11149071,0.0033362606,0.013217237,-0.026378518,-0.21068975,0.2681506,-9.423578,0.77545905,47.658226,-1.2353246,-1.8232987,-3.4645529,-0.33076638,0.05612129,-0.33780974,26.0625,26.875,26.0,29.0,30.0625,30.4375
0.124054216,-1.8969029,-1.5320768,-1.3522059,-0.033985756,0.04610301,-0.13209857,-0.3845485,-0.34915516,0.059989203,3.077459,-0.626568,4.901946e-05,-0.05629713,-0.009400646,0.0019983817,-0.01825528,0.0076762317,-0.017013894,0.47508374,-1.4198549,1.9507135,-2.1007836,-1.5698174,2.4512303,-0.043062117,0.094762735,-0.11401022,0.0040460634,0.012501629,-0.025988622,-0.3256114,0.24899697,-9.442732,0.8112748,47.690468,-1.1752472,-1.7737654,-3.3846517,-0.32484546,0.06604958,-0.3571136,26.0625,26.875,26.0,29.0,30.0625,30.4375
0.1260535,-1.7429779,-1.614074,-1.4898641,-0.040198926,0.06124368,-0.13165677,-0.38467202,-0.34917122,0.060019746,3.0773938,-0.6266327,-5.0068982e-05,-0.057430707,-0.008859528,0.0016826274,-0.018441228,0.007029676,-0.01825399,0.47499892,-1.41971,1.9504751,-2.1007712,-1.5698174,2.4511943,-0.045338467,0.09644615,-0.11523654,0.0040791337,0.012964212,-0.027023396,-0.3256114,0.22984336,-9.5385,0.7933669,47.68599,-1.1392024,-1.8671309,-3.4900494,-0.3343444,0.07751782,-0.36519754,26.0625,26.875,26.0,29.0,30.0625,30.4375
0.12805425,-2.3343792,-1.9104116,-1.4719687,-0.040369067,0.050912444,-0.13164274,-0.38476908,-0.34918487,0.060010437,3.0773528,-0.62668055,1.1942108e-05,-0.058368135,-0.009358898,0.0017929623,-0.018478982,0.007452432,-0.016253078,0.474903,-1.4195173,1.95027,-2.1007473,-1.5697693,2.4511335,-0.045191817,0.09843729,-0.11783731,0.0043002567,0.012801699,-0.028876172,-0.30645782,0.24899697,-9.634268,0.75755644,47.707485,-1.137011,-1.7847724,-3.4610796,-0.33958074,0.08334851,-0.36025104,26.0625,26.875,26.0,29.0,30.0625,30.4375
0.13005377,-2.1201189,-2.047386,-1.693945,-0.036924493,0.05690356,-0.12746413,-0.3848934,-0.34920797,0.059996728,3.0773072,-0.62669075,2.088243e-05,-0.059397336,-0.009694461,0.001826004,-0.019657675,0.0071842712,-0.01676503,0.47480658,-1.4192762,1.9500307,-2.1007712,-1.569733,2.4510493,-0.046275135,0.10023279,-0.12000854,0.0043741837,0.013970566,-0.029446885,-0.40222588,0.28730422,-9.653421,0.7620334,47.66091,-1.170912,-1.7962995,-3.4399014,-0.34214818,0.094094664,-0.3486358,26.0625,26.875,26.0,29.0,30.0625,30.4375
0.13205431,-2.0127447,-1.8337255,-1.4455347,-0.034469273,0.056486655,-0.12694144,-0.38502103,-0.3492309,0.060016908,3.0772614,-0.6267196,-2.3658586e-05,-0.06076211,-0.009709429,0.0012138018,-0.019283673,0.0065607424,-0.016999511,0.47472224,-1.419083,1.9497551,-2.1007354,-1.5697206,2.450989,-0.047446392,0.10375924,-0.12262944,0.004196754,0.013920213,-0.030381141,-0.51714754,0.2681506,-9.595961,0.82022345,47.642998,-1.1632702,-1.7823815,-3.4245749,-0.34921455,0.090870924,-0.36319023,26.0625,26.875,26.0,29.0,30.0625,30.4375
0.13405414,-2.14864,-1.7261074,-1.3998629,-0.029086057,0.049819794,-0.12446195,-0.38513488,-0.34925514,0.060009226,3.0772085,-0.6267652,-1.6604265e-05,-0.062420957,-0.010012443,0.0016338904,-0.02017729,0.007982514,-0.016014667,0.4746378,-1.418866,1.9495267,-2.1007473,-1.5696849,2.45094,-0.048499748,0.105461955,-0.12543038,0.003625636,0.014061393,-0.032417424,-0.38307226,0.2681506,-9.519346,0.8605109,47.668976,-1.1130571,-2.0535936,-3.4328136,-0.32613546,0.09067471,-0.36307716,26.0625,26.875,26.0,29.0,30.0625,30.4375
0.1360544,-1.5500143,-1.1154034,-1.4026222,-0.030048665,0.06311262,-0.13263108,-0.3852561,-0.34929723,0.060028646,3.0771465,-0.6266953,-6.926375e-05,-0.06416916,-0.010613931,0.0018322071,-0.021187076,0.008752027,-0.016633611,0.47457758,-1.4186734,1.9492615,-2.1007478,-1.5696481,2.450844,-0.049366526,0.10828189,-0.12905523,0.0032849761,0.014602876,-0.032662343,-0.36391866,0.28730422,-9.557653,0.7732232,47.72092,-1.177521,-1.7943544,-3.1482096,-0.3252799,0.09080529,-0.3575211,26.0625,26.875,26.0,29.0,30.0625,30.4375
0.13805427,-1.7877792,-1.4178957,-1.260993,-0.022502314,0.052571476,-0.12555295,-0.3853987,-0.34929806,0.060048558,3.0770435,-0.6268865,-0.00013142252,-0.066100374,-0.011088411,0.0026709184,-0.022172758,0.010689966,-0.018044714,0.4744333,-1.4185041,1.9490222,-2.1007478,-1.5696243,2.4508324,-0.050256476,0.109911464,-0.13285206,0.0032804897,0.014590497,-0.032138087,-0.49799395,0.30645782,-9.481039,0.8224646,47.66091,-1.1335816,-2.047667,-3.2013254,-0.3225034,0.09740926,-0.37825346,26.0625,26.875,26.0,29.0,30.0625,30.4375
0.14005429,-1.8530389,-1.4583441,-1.2590281,-0.024916975,0.057500884,-0.13137545,-0.38554668,-0.34931552,0.060059384,3.077017,-0.62688017,-0.0002142399,-0.06661363,-0.010457299,0.0016649152,-0.020434706,0.008824168,-0.017706016,0.4743369,-1.418275,1.9487346,-2.1007473,-1.5696367,2.4507356,-0.05137249,0.11266017,-0.13390638,0.00404475,0.013901154,-0.03359086,-0.45968673,0.24899697,-9.500193,0.7866488,47.687782,-1.1447783,-1.814692,-3.2128873,-0.33843046,0.107688755,-0.36835763,26.0625,26.875,26.0,29.0,30.0625,30.4375
0.14205435,-1.7947371,-1.6030649,-1.3217527,-0.03401991,0.050134003,-0.12219525,-0.38567388,-0.34932405,0.060038242,3.0769727,-0.6270241,-0.00012124244,-0.06759408,-0.010591171,0.0012482363,-0.02052689,0.0078040697,-0.016418403,0.4742046,-1.4180098,1.9484705,-2.1007116,-1.5695885,2.4506989,-0.052358113,0.115440115,-0.13627765,0.0045053614,0.014448034,-0.035863467,-0.40222588,0.36391866,-9.32781,0.81351066,47.68062,-1.1346194,-1.9566798,-3.2072005,-0.32113796,0.12772447,-0.3476709,26.0625,26.875,26.0,29.0,30.0625,30.4375
0.14405406,-1.6946232,-1.94893,-1.0893044,-0.035845183,0.053728577,-0.13529429,-0.3858163,-0.34936553,0.060065832,3.0768847,-0.626987,-0.0002424357,-0.06789433,-0.010437271,0.00064186443,-0.020622209,0.0062352642,-0.016325163,0.4741322,-1.4178172,1.9481949,-2.1007473,-1.5695642,2.4506147,-0.05340157,0.11712286,-0.1369125,0.00480991,0.015255049,-0.036998328,-0.36391866,0.36391866,-9.3661175,0.7642693,47.691364,-1.0757519,-1.8297642,-3.2515273,-0.3289106,0.118291214,-0.32726938,26.0625,26.875,26.0,29.0,30.0625,30.4375
0.14605391,-1.8661649,-2.0265849,-0.9027999,-0.047434427,0.049545553,-0.12924801,-0.38594532,-0.34937984,0.06005606,3.0768623,-0.6270395,-0.00020266378,-0.068586335,-0.010618841,0.00021478761,-0.021151766,0.005321249,-0.016056253,0.47402397,-1.4175643,1.9479188,-2.1007116,-1.5695399,2.4505422,-0.054259658,0.119269595,-0.13841163,0.0047343867,0.016142322,-0.038124893,-0.34476504,0.3256114,-9.289502,0.784413,47.69763,-1.1538013,-1.9245489,-3.1742852,-0.31997868,0.12726873,-0.3087086,26.0625,26.875,26.0,29.0,30.0625,30.4375
0.1480539,-1.5869112,-1.5308244,-0.7359071,-0.05392593,0.05014616,-0.13313097,-0.38610902,-0.34938213,0.06007524,3.0767963,-0.6271029,-0.00030474103,-0.0717534,-0.0102762105,0.0014930017,-0.022096843,0.008609521,-0.01762966,0.47387898,-1.4173594,1.9476427,-2.1007235,-1.5695404,2.4504454,-0.057291325,0.12060737,-0.14282136,0.004455502,0.015479378,-0.039579228,-0.30645782,0.30645782,-9.270349,0.88289046,47.694946,-0.99092555,-1.8911345,-3.2203064,-0.3241869,0.12987569,-0.3055914,26.0625,26.875,26.0,29.0,30.0625,30.4375
0.15005413,-1.1179347,-1.0853866,-0.6638755,-0.048276145,0.053191546,-0.1404042,-0.38625127,-0.34942552,0.060091782,3.0767007,-0.62710065,-0.00027719585,-0.070597805,-0.010869214,0.00024771664,-0.021243071,0.0065177954,-0.014091336,0.47377175,-1.4171185,1.9473203,-2.1006873,-1.5694565,2.450349,-0.05529315,0.12243671,-0.14202076,0.004082518,0.0156803,-0.04111885,-0.30645782,0.2681506,-9.232041,0.8605109,47.694946,-1.125228,-1.8804302,-3.2968454,-0.3090237,0.16356258,-0.26699203,26.0625,26.875,26.0,29.0,30.0625,30.4375
0.15205386,-1.2686754,-1.1821845,-0.49486646,-0.03136315,0.052061167,-0.1366805,-0.38640937,-0.34946793,0.060104948,3.0766268,-0.627067,-0.0003695589,-0.07188998,-0.0102246385,0.0002858388,-0.0213136,0.0066408943,-0.015248107,0.4736868,-1.4168663,1.947009,-2.1007235,-1.5694321,2.4502528,-0.057586726,0.12349478,-0.14338952,0.0042551784,0.015690986,-0.042253442,-0.28730422,0.28730422,-9.174581,0.8224646,47.6421,-1.1254138,-1.7598345,-3.3183038,-0.3079036,0.15735877,-0.25281706,26.0625,26.875,26.0,29.0,30.0625,30.4375
0.15405393,-1.4725133,-1.0348885,-0.58113956,-0.0054303734,0.030426238,-0.1280257,-0.38654423,-0.34946254,0.060081087,3.0766418,-0.62714726,-0.00030741646,-0.072944224,-0.009693566,-0.000135885,-0.0218906,0.0056580217,-0.016234877,0.47355407,-1.4165891,1.9467343,-2.1006758,-1.5694317,2.4501684,-0.060073398,0.12517239,-0.14436653,0.0041665807,0.01665216,-0.04375371,-0.24899697,0.17238252,-9.040505,0.76874626,47.696735,-1.0408313,-1.9318061,-3.353019,-0.283314,0.15312251,-0.22695649,26.0625,26.875,26.0,29.0,30.0625,30.4375
0.156054,-1.4826275,-0.70654637,-0.4738685,-0.0004378391,0.018242722,-0.13317212,-0.38671306,-0.34951228,0.06012342,3.0765028,-0.6271565,-0.00044944152,-0.07417969,-0.009266683,-0.0012946636,-0.020895533,0.0039973324,-0.01715237,0.47345743,-1.4163837,1.9464101,-2.1007116,-1.569384,2.4500954,-0.061840747,0.12922835,-0.14637926,0.0040603187,0.016528519,-0.04459941,-0.21068975,0.15322891,-8.983045,0.90527004,47.746887,-0.90704226,-1.795855,-3.3630261,-0.29552174,0.16982114,-0.20089276,26.0625,26.875,26.0,29.0,30.0625,30.4375
0.158054,-0.9613194,-0.9491865,-0.12703359,-0.00019320835,0.01885817,-0.12139022,-0.38687053,-0.3495298,0.06011537,3.0764136,-0.62725216,-0.0004609342,-0.07422222,-0.010286414,0.00013702482,-0.022677446,0.006360688,-0.014749853,0.473314,-1.4161203,1.946134,-2.1007473,-1.5693358,2.4500232,-0.060373276,0.12723397,-0.14740999,0.0041735508,0.01704058,-0.045533616,-0.19153613,0.11492168,-8.963891,0.8940802,47.690468,-1.0614629,-1.7289455,-3.4158397,-0.28627807,0.17384893,-0.17862138,26.0625,26.875,26.0,29.0,30.0625,30.4375
0.16005372,-0.60619706,-0.5617598,-0.3851123,0.0012335915,0.022031069,-0.13284403,-0.38701394,-0.34953254,0.06009385,3.0763805,-0.6273049,-0.000380871,-0.07626812,-0.009712418,-0.0006608975,-0.022285406,0.00530428,-0.017396975,0.47315702,-1.4158423,1.9458584,-2.1007235,-1.5692872,2.4499035,-0.06329398,0.13144177,-0.15044814,0.004127736,0.017168017,-0.045805592,-0.11492168,0.076614454,-8.887277,0.77545905,47.71286,-0.94493854,-1.8376132,-3.396696,-0.282632,0.19312754,-0.15265846,26.0625,26.875,26.0,29.0,30.0625,30.4375
0.16205361,-0.841755,-0.28852123,-0.49796066,-0.004793249,0.0131743895,-0.13034058,-0.38717562,-0.34954277,0.060110632,3.0763466,-0.6273748,-0.00044984376,-0.07736185,-0.009444806,-0.0003091535,-0.022349361,0.00575739,-0.018758377,0.47303635,-1.415602,1.9455355,-2.1006873,-1.5693,2.449831,-0.06463034,0.13220449,-0.15230842,0.0047948444,0.017019894,-0.045778926,-0.076614454,0.095768064,-8.983045,0.77545905,47.661808,-0.8756139,-1.8156075,-3.4029455,-0.28171676,0.19708444,-0.12790175,26.0625,26.875,26.0,29.0,30.0625,30.4375
0.16405492,-0.88510656,-0.8656482,-0.62888855,-0.0053118286,0.013959285,-0.1327387,-0.38732767,-0.3495645,0.06010655,3.076322,-0.6273707,-0.00046489417,-0.07856944,-0.009815512,-0.00015516896,-0.023275407,0.0052689356,-0.020629326,0.4729281,-1.4153248,1.9452237,-2.1006753,-1.5692872,2.4497235,-0.065713145,0.1344045,-0.1554362,0.005733268,0.018063737,-0.04498881,-0.038307227,0.019153614,-9.021352,0.83589023,47.667187,-0.8718024,-1.8854842,-3.474949,-0.27373096,0.20094524,-0.12086021,26.0625,26.875,26.0,29.0,30.0625,30.4375
0.16605389,-1.054187,-1.1458608,-0.73545563,-0.009518628,0.019074827,-0.12788948,-0.38749436,-0.34956798,0.060114928,3.076233,-0.6275262,-0.00048484842,-0.0777123,-0.008958321,-0.0015278741,-0.02162668,0.0016182612,-0.022509834,0.47275987,-1.4150839,1.9449247,-2.1006625,-1.5692514,2.4496639,-0.066536784,0.13571706,-0.1541701,0.007158109,0.018267192,-0.043931857,-0.095768064,0.038307227,-9.040505,0.82694155,47.67614,-0.8744238,-1.8470843,-3.4281988,-0.29871863,0.2221295,-0.10001926,26.0625,26.875,26.0,29.0,30.0625,30.4375
0.1680539,-1.2433354,-1.1988823,-1.0064805,-0.0104684215,0.026263427,-0.1270327,-0.38764912,-0.34959885,0.060120814,3.076149,-0.62754714,-0.00045582798,-0.07947308,-0.009391352,-0.0012684271,-0.022228006,0.0021374545,-0.023091525,0.4726275,-1.4148188,1.9446009,-2.1006382,-1.5691794,2.4495554,-0.06752472,0.1385143,-0.15810323,0.0075631314,0.018562276,-0.044335283,-0.15322891,0.19153613,-9.11712,0.8605109,47.68599,-0.8054108,-2.0099723,-3.3615046,-0.30302906,0.21947718,-0.09503245,26.0625,26.875,26.0,29.0,30.0625,30.4375
0.17005359,-1.341746,-1.1565014,-0.98974043,-0.01215544,0.037032884,-0.1250806,-0.38781098,-0.3496316,0.060122,3.0760808,-0.6275727,-0.00045318386,-0.081059694,-0.0097676115,-0.00060157786,-0.023538925,0.0029753312,-0.024754839,0.47250706,-1.4145303,1.9442638,-2.1006267,-1.5691308,2.4494598,-0.06876619,0.13996845,-0.16146046,0.008124461,0.019344673,-0.04391102,-0.24899697,0.21068975,-9.251195,0.7709874,47.653748,-0.818372,-1.704019,-3.3662138,-0.30656013,0.22622581,-0.0813511,26.0625,26.875,26.0,29.0,30.0625,30.4375
0.17205346,-1.5222496,-1.3358251,-1.1249173,-0.027807377,0.049662754,-0.1316437,-0.3879525,-0.34963143,0.060094878,3.076066,-0.6276673,-0.0003839,-0.08272489,-0.010189364,0.0005099895,-0.024590211,0.0048661567,-0.028140401,0.472363,-1.4142417,1.9439882,-2.1006024,-1.5691069,2.4493768,-0.069538005,0.1407136,-0.16504551,0.008801936,0.019410618,-0.041296355,-0.2681506,0.28730422,-9.442732,0.8157518,47.67166,-0.8192481,-1.8013504,-3.3748755,-0.30306485,0.23553824,-0.10361527,26.0625,26.875,26.0,29.0,30.0625,30.4375
0.1740534,-1.5445887,-1.7456524,-1.2874129,-0.046257153,0.053025126,-0.12680168,-0.3880864,-0.3496358,0.060066707,3.0760443,-0.62781775,-0.00024460637,-0.0820445,-0.008994276,-0.0014006192,-0.022231458,0.0004643138,-0.030538106,0.47221833,-1.4139404,1.9436892,-2.10053,-1.5690588,2.449329,-0.07093125,0.14311945,-0.16380769,0.010154912,0.0193157,-0.04029389,-0.4213795,0.30645782,-9.519346,0.7978386,47.687782,-0.72955745,-1.7912477,-3.4543118,-0.328195,0.23920992,-0.109422445,26.0625,26.875,26.0,29.0,30.0625,30.4375
0.17605345,-1.7680999,-1.9550977,-1.3966832,-0.061598223,0.060325753,-0.14262603,-0.38826656,-0.349669,0.060092665,3.075956,-0.6278192,-0.00035094054,-0.08328718,-0.009078849,-0.0011623065,-0.023055425,0.00062813394,-0.032410704,0.47209793,-1.4136878,1.9433421,-2.1005418,-1.5690345,2.449221,-0.07229044,0.14460823,-0.16617922,0.010517197,0.019975483,-0.03977715,-0.49799395,0.38307226,-9.442732,0.79560274,47.716442,-0.6972584,-1.8266371,-3.4033034,-0.34469754,0.2681993,-0.10490396,26.0625,26.875,26.0,29.0,30.0625,30.4375
0.17805415,-2.099848,-2.776617,-1.5485283,-0.06176042,0.06579966,-0.121975854,-0.38842767,-0.3496827,0.060085822,3.0758862,-0.62795895,-0.0002483858,-0.08447861,-0.009551697,-0.00083474943,-0.023942474,0.0012024498,-0.03337607,0.4719299,-1.413387,1.942995,-2.1004698,-1.5689625,2.4491491,-0.072828256,0.14627975,-0.16892816,0.010683468,0.02049907,-0.039348625,-0.40222588,0.4213795,-9.672575,0.9030289,47.719128,-0.6777301,-1.816918,-3.4337554,-0.37150413,0.26945496,-0.11670969,26.0625,26.875,26.0,29.0,30.0625,30.4375
0.18005395,-2.0924451,-2.612737,-1.732986,-0.072717845,0.064551815,-0.12820338,-0.38860458,-0.3496825,0.060084134,3.075835,-0.6281219,-0.00025194246,-0.08542802,-0.010146013,-0.0005093077,-0.025076427,0.00210118,-0.03369188,0.47176182,-1.4130982,1.9426583,-2.1004345,-1.5689505,2.4490895,-0.0729789,0.1474884,-0.17099725,0.010229526,0.02109743,-0.039181992,-0.45968673,0.45968673,-9.825804,0.88960326,47.704796,-0.7117635,-1.7187169,-3.4050026,-0.35914332,0.27513158,-0.10571028,26.0625,26.875,26.0,29.0,30.0625,30.4375
0.18205371,-2.5059998,-3.0853543,-1.6828206,-0.06410384,0.06647072,-0.124964625,-0.38877392,-0.34972528,0.060066313,3.0757875,-0.6280951,-0.0002301947,-0.08725015,-0.009690403,-0.001183846,-0.025817176,0.0013355925,-0.039108947,0.47165263,-1.4127488,1.9422992,-2.1004465,-1.5689019,2.4489698,-0.0760299,0.15072446,-0.17303982,0.009377995,0.02209732,-0.036813848,-0.36391866,0.40222588,-9.787497,0.83589023,47.678825,-0.5604623,-1.7134979,-3.407845,-0.36012465,0.26930085,-0.13258514,26.0625,26.875,26.0,29.0,30.0625,30.4375
0.18405335,-2.0225277,-2.2651162,-1.6875486,-0.05574205,0.07053597,-0.12202064,-0.38897324,-0.34973916,0.060076494,3.07567,-0.6283394,-0.00026782625,-0.08773295,-0.011546562,-0.00021983543,-0.02797599,0.0040228176,-0.038614165,0.47147366,-1.4124483,1.9419273,-2.100435,-1.5688657,2.4489586,-0.073593274,0.1510297,-0.17530674,0.007964457,0.02279323,-0.034869302,-0.51714754,0.4405331,-9.768343,0.8605109,47.682407,-0.74478173,-1.7308037,-3.4122787,-0.3748364,0.2672331,-0.16920045,26.0625,26.875,26.0,29.0,30.0625,30.4375
0.18605337,-1.4723549,-1.6509267,-1.6471545,-0.035543296,0.07988562,-0.1386283,-0.38913313,-0.3497568,0.060077272,3.0756013,-0.6283828,-0.00026079832,-0.08824104,-0.01150568,-0.0016893984,-0.02751356,0.0018639971,-0.038481463,0.4713294,-1.4121828,1.9416169,-2.100423,-1.5688175,2.4488504,-0.07444831,0.15482986,-0.17619592,0.0071916333,0.023362875,-0.035855122,-0.40222588,0.36391866,-9.768343,0.800085,47.688675,-0.76302135,-1.9833924,-3.4466758,-0.34922367,0.28250182,-0.17853267,26.0625,26.875,26.0,29.0,30.0625,30.4375
0.18805422,-1.8233956,-1.2958895,-1.7069603,-0.023035524,0.05654995,-0.13701077,-0.38931507,-0.3497721,0.06006334,3.0755622,-0.62849116,-0.00026210235,-0.089279816,-0.010667065,-0.0028989436,-0.027133226,-7.3921256e-05,-0.04096898,0.4711843,-1.4118456,1.9412574,-2.1004117,-1.5688056,2.4487782,-0.07716234,0.15785205,-0.17686948,0.006744714,0.023903985,-0.036080517,-0.28730422,0.22984336,-9.749189,0.89631605,47.686886,-0.5690321,-1.9485345,-3.51027,-0.33692136,0.2917506,-0.17663842,26.0625,26.875,26.0,29.0,30.0625,30.4375
0.19005361,-1.4322512,-0.99751407,-1.364805,-0.03140249,0.044798497,-0.13834023,-0.38950682,-0.34981802,0.060085546,3.0753999,-0.6286093,-0.00028332788,-0.08920641,-0.0130188735,-0.0028489395,-0.028146448,0.0008919579,-0.037045743,0.47103,-1.4115562,1.9408735,-2.1004121,-1.5687088,2.4487185,-0.073206715,0.16036537,-0.17969097,0.0057378737,0.024365338,-0.036043923,-0.1340753,0.17238252,-9.710882,0.7866488,47.67345,-0.85600865,-2.042461,-3.402166,-0.3321371,0.28532583,-0.20737055,26.0625,26.875,26.0,29.0,30.0625,30.4375
0.19205424,-0.95797735,-1.3709757,-1.2856119,-0.027693255,0.04461804,-0.13218018,-0.38970846,-0.34981877,0.060076945,3.075348,-0.62879044,-0.0003106302,-0.090984955,-0.013294793,-0.002516661,-0.02882211,0.0022397214,-0.038121145,0.47084948,-1.4112192,1.9405016,-2.1003997,-1.5687088,2.448658,-0.07426261,0.16247834,-0.18282658,0.005257374,0.024351366,-0.0360221,-0.17238252,0.19153613,-9.557653,0.83813137,47.651955,-0.8373131,-2.0500114,-3.402758,-0.3192947,0.28449622,-0.20779574,26.0625,26.875,26.0,29.0,30.0625,30.4375
0.19405377,-0.70492154,-1.2732309,-1.3859916,-0.03029058,0.03594203,-0.13190964,-0.38989565,-0.34985268,0.06008281,3.0752814,-0.6288343,-0.00033017242,-0.0913065,-0.013232218,-0.0028141607,-0.02870174,0.0020804845,-0.03798717,0.4707175,-1.4108944,1.9401082,-2.100376,-1.568673,2.4485621,-0.074595,0.16342688,-0.18320824,0.0048926105,0.024319049,-0.03648712,0.0,0.15322891,-9.557653,0.8560339,47.689575,-0.81318337,-2.0994222,-3.502221,-0.32904625,0.29935923,-0.22633398,26.0625,26.875,26.0,29.0,30.0625,30.4375
0.19605413,-0.3715452,-1.1337237,-1.0564708,-0.03768436,0.023445101,-0.13801755,-0.39008266,-0.34989515,0.06006912,3.0751798,-0.6289094,-0.00034347517,-0.09280475,-0.013791743,-0.0025285424,-0.029278228,0.002838494,-0.03829538,0.47058517,-1.410545,1.9397472,-2.1004236,-1.5686129,2.44849,-0.07502057,0.16584477,-0.18674435,0.0050789136,0.024486275,-0.036601085,0.05746084,0.1340753,-9.500193,0.8403672,47.709274,-0.87107056,-2.2098608,-3.5120807,-0.31448823,0.3168455,-0.23340285,26.0625,26.875,26.0,29.0,30.0625,30.4375
0.1980537,-0.61226577,-1.5708615,-0.9098858,-0.027154697,0.0028661764,-0.124895476,-0.39026874,-0.3499107,0.06007633,3.0751052,-0.6290672,-0.00036300585,-0.09360689,-0.014642214,-0.002559081,-0.029832456,0.002742836,-0.037670467,0.47042942,-1.410244,1.9393753,-2.1003883,-1.5685886,2.4484425,-0.07454234,0.16831958,-0.18963449,0.0053314,0.025022002,-0.036745068,0.038307227,0.24899697,-9.308656,0.7777002,47.70211,-0.92554057,-2.1500094,-3.5967016,-0.28870386,0.32035112,-0.25262114,26.0625,26.875,26.0,29.0,30.0625,30.4375
0.20005411,-0.2305337,-1.2184781,-0.6372253,-0.027003273,-0.0039077564,-0.13095696,-0.3904813,-0.34995434,0.060094085,3.0749674,-0.6291531,-0.00038182104,-0.09520747,-0.014851907,-0.0015463808,-0.030957196,0.005019911,-0.037705988,0.47026113,-1.4099079,1.9389442,-2.100376,-1.5685047,2.4483457,-0.0755369,0.1685771,-0.19225056,0.005159927,0.024994407,-0.037700895,0.076614454,0.24899697,-9.136273,0.89631605,47.72002,-0.89538807,-2.0285335,-3.3818283,-0.294679,0.32400262,-0.27424073,26.0625,26.875,26.0,29.0,30.0625,30.4375
0.20205368,-0.015387916,-1.3293127,-0.7119139,-0.020479793,-0.009340885,-0.13074854,-0.39064538,-0.3499717,0.06005478,3.0749483,-0.629226,-0.00032848236,-0.09687167,-0.015100921,-0.00094438525,-0.031636972,0.0064582555,-0.038339175,0.4701288,-1.4095471,1.93862,-2.1003883,-1.5684808,2.4482615,-0.07651854,0.17006423,-0.19542049,0.0052576903,0.024944413,-0.03804842,0.17238253,0.26815057,-9.078813,0.90750587,47.690468,-0.897241,-1.9710047,-3.27211,-0.28116864,0.3447333,-0.29179096,26.0625,26.875,26.0,29.0,30.0625,30.4375
0.20405416,0.26409504,-1.4208565,-0.69316566,-0.024793012,0.0013188343,-0.13716099,-0.3908689,-0.35000342,0.060105167,3.0748107,-0.62935114,-0.0004518725,-0.097915724,-0.015434808,-0.0003237444,-0.03305424,0.007195769,-0.038591508,0.4699605,-1.4092705,1.9381775,-2.100352,-1.5684446,2.4481893,-0.07740762,0.17062017,-0.19758783,0.005573347,0.025879713,-0.038680397,0.095768064,0.38307226,-9.174581,0.86498255,47.690468,-0.8802873,-1.920652,-3.285684,-0.2805311,0.34840828,-0.2948133,26.0625,26.875,26.0,29.0,30.0625,30.4375
0.20605406,-0.57199687,-1.5876136,-0.6775909,-0.038454194,-0.009911402,-0.13135323,-0.39106017,-0.35001194,0.06008889,3.0747614,-0.6294552,-0.00041369096,-0.0980766,-0.015928354,-0.00024635723,-0.03311979,0.0062246383,-0.037351895,0.46978056,-1.4089217,1.937806,-2.1003273,-1.5684084,2.4480808,-0.07695173,0.17193069,-0.19971223,0.0072295386,0.0263824,-0.03946306,0.038307227,0.49799395,-9.174581,0.80679786,47.686886,-0.9685446,-1.8298697,-3.3569708,-0.2694885,0.34923467,-0.30866957,26.0625,26.875,26.0,29.0,30.0625,30.4375
0.20805381,-1.3248526,-2.2798164,-0.89325905,-0.051713523,-0.011553192,-0.11898076,-0.39124694,-0.35006243,0.060083043,3.0746605,-0.6295128,-0.00037143487,-0.099191196,-0.014963682,-0.0012548706,-0.032693464,0.0033189803,-0.040565353,0.46964756,-1.4085602,1.9373988,-2.1003149,-1.568324,2.4479969,-0.0801935,0.17506948,-0.20140459,0.008570641,0.027320748,-0.039488945,0.019153614,0.5554548,-9.11712,0.92093146,47.70659,-0.80681646,-1.9497905,-3.3245661,-0.29473567,0.35872623,-0.33113062,26.0625,26.875,26.0,29.0,30.0625,30.4375
0.21005401,-0.83877313,-2.1022673,-0.96657866,-0.07187517,0.020849181,-0.13124362,-0.39143217,-0.3500688,0.06006204,3.074632,-0.6296589,-0.0003679225,-0.09815014,-0.016425582,-0.00143289,-0.03269037,0.0021944684,-0.037451718,0.4694926,-1.4082118,1.9370412,-2.100303,-1.568324,2.447937,-0.07697038,0.17623278,-0.20265043,0.009659613,0.027828952,-0.03937875,0.095768064,0.63206923,-9.289502,0.8314132,47.703903,-0.95982146,-1.8335294,-3.4200501,-0.30228168,0.3473134,-0.34161875,26.0625,26.875,26.0,29.0,30.0625,30.4375
0.2120544,-1.2588521,-2.5400503,-0.9661626,-0.072787344,0.022928992,-0.12936878,-0.39164346,-0.35012707,0.06007318,3.0744836,-0.629705,-0.00036166536,-0.09887262,-0.016102016,-0.001020652,-0.03336742,0.0026411542,-0.038869694,0.4693363,-1.4078513,1.9365991,-2.100303,-1.5682157,2.4478288,-0.07838504,0.17595904,-0.20340408,0.009989601,0.028235653,-0.039372765,-0.038307227,0.61291564,-9.308657,0.85826975,47.69763,-1.1341646,-1.8779614,-3.4651268,-0.29829562,0.3619843,-0.3734238,26.0625,26.875,26.0,29.0,30.0625,30.4375
0.21405406,-1.2854522,-2.8183537,-0.88713026,-0.06924741,0.037837204,-0.120867275,-0.39184946,-0.35016954,0.060093116,3.074386,-0.6298203,-0.00041189932,-0.10053613,-0.015599776,-0.00057871366,-0.034823388,0.0029320668,-0.041693535,0.4692031,-1.4075147,1.9361562,-2.1002667,-1.5681795,2.4477804,-0.08144598,0.1766943,-0.20538908,0.010323064,0.029404791,-0.039606072,-0.038307227,0.63206923,-9.289503,0.82022345,47.67614,-0.8201413,-1.7943397,-3.4094315,-0.31279063,0.34860045,-0.39101237,26.0625,26.875,26.0,29.0,30.0625,30.4375
0.21605387,-1.642291,-2.3176832,-1.0433995,-0.055668395,0.03230523,-0.12828736,-0.3920451,-0.35021138,0.060067374,3.0742788,-0.6299114,-0.00027751393,-0.10035312,-0.017592391,-0.0005765689,-0.036318228,0.003132524,-0.03810692,0.4690243,-1.4071058,1.9357365,-2.1002429,-1.5680588,2.4476724,-0.078522086,0.1786496,-0.20758119,0.0097126635,0.03064565,-0.040266924,-0.05746084,0.61291564,-9.270349,0.87393653,47.716442,-1.1594983,-1.7258607,-3.3843048,-0.31676102,0.3447255,-0.4090768,26.0625,26.875,26.0,29.0,30.0625,30.4375
0.21805385,-0.580129,-1.4200429,-0.8693773,-0.0485507,0.055839468,-0.14169738,-0.39226314,-0.35024476,0.06009417,3.0741925,-0.6299896,-0.00038074673,-0.10151712,-0.01772867,-0.00064661657,-0.037189405,0.0034665165,-0.038482,0.46887988,-1.4067808,1.935294,-2.1002195,-1.5680465,2.4475882,-0.079668105,0.18039039,-0.20933318,0.00903694,0.03127487,-0.041033357,-0.076614454,0.4405331,-9.385271,0.91421866,47.70032,-1.1315247,-1.7899652,-3.4105477,-0.2827858,0.32479528,-0.4236871,26.0625,26.875,26.0,29.0,30.0625,30.4375
0.22005372,-1.2495418,-1.347939,-1.3113914,-0.019051464,0.032491468,-0.1276225,-0.3924338,-0.35027984,0.060053937,3.074133,-0.63007253,-0.00025119632,-0.102769285,-0.017523546,-0.0005447832,-0.036981285,0.004245256,-0.038313877,0.46873546,-1.406384,1.9349235,-2.100207,-1.567963,2.4475033,-0.08075189,0.18180619,-0.21125375,0.008954312,0.03073719,-0.042286005,-0.095768064,0.30645782,-9.32781,0.8179876,47.705692,-1.0963583,-1.9103602,-3.412867,-0.28421634,0.33858618,-0.4385845,26.0625,26.875,26.0,29.0,30.0625,30.4375
0.2220535,-1.1190835,-1.4463792,-1.2668672,-0.0073903445,0.03001008,-0.12854424,-0.3926551,-0.3503343,0.060061216,3.073984,-0.6301754,-0.00028392003,-0.10371375,-0.01803053,-0.0014188733,-0.037211467,0.0030341544,-0.037468296,0.46857932,-1.4060104,1.9344801,-2.1002314,-1.5678786,2.4474308,-0.0811284,0.18569048,-0.21372296,0.0085248975,0.031493265,-0.043502837,-0.019153614,0.21068975,-9.385271,0.83813137,47.683304,-1.1196905,-1.982697,-3.475545,-0.30043197,0.353796,-0.44710353,26.0625,26.875,26.0,29.0,30.0625,30.4375
0.22405411,-1.0038177,-1.0859592,-1.0161953,-0.027676305,0.033653546,-0.12670827,-0.39287278,-0.35034698,0.060054407,3.0739496,-0.6302642,-0.00028164205,-0.1045811,-0.018748328,-0.001801339,-0.039144855,0.0018960546,-0.037148234,0.46839902,-1.4056249,1.934038,-2.1001832,-1.5678657,2.4473107,-0.08201001,0.18838058,-0.2159613,0.008217284,0.033733424,-0.044700723,-0.095768064,0.22984336,-9.3661175,0.8851263,47.661808,-1.1481416,-1.8988645,-3.4794135,-0.25743684,0.31850162,-0.45304456,26.0625,26.875,26.0,29.0,30.0625,30.4375
0.22605425,-1.4494249,-1.4423326,-1.0638387,-0.021510305,0.02105883,-0.1233258,-0.39305592,-0.350388,0.060039163,3.0738387,-0.6303732,-0.00014854425,-0.105621114,-0.018885424,-0.0022359025,-0.039239507,0.0011078441,-0.034005515,0.4682308,-1.4052519,1.9336299,-2.1001356,-1.5677456,2.4472249,-0.08292438,0.19118981,-0.21835014,0.008478817,0.034181513,-0.048756506,-0.19153613,0.11492168,-9.346964,0.8940802,47.688675,-1.1808723,-2.0456998,-3.3901188,-0.26567703,0.28750575,-0.4401181,26.0625,26.875,26.0,29.0,30.0625,30.4375
0.22805473,-0.92551446,-0.84312683,-1.0927804,-0.03190165,0.03646918,-0.13559322,-0.39327845,-0.35044792,0.06003815,3.0737395,-0.6304477,-0.00015650918,-0.10584958,-0.019338,-0.0023755329,-0.04022004,-0.0005414652,-0.033030912,0.46809873,-1.4048306,1.9331411,-2.1001232,-1.567685,2.4471524,-0.08331211,0.19272096,-0.2201838,0.009816441,0.03580832,-0.050114635,-0.1340753,0.05746084,-9.32781,0.9097417,47.691364,-1.1869755,-2.066246,-3.4971776,-0.251831,0.2786038,-0.41150054,26.0625,26.875,26.0,29.0,30.0625,30.4375
0.23005463,-1.0956649,-1.2094272,-0.9434473,-0.018985141,0.035863295,-0.13060437,-0.39352125,-0.35047662,0.06004366,3.0736082,-0.63059354,-0.00019953647,-0.10786349,-0.020073123,-0.00097598473,-0.042433012,0.0021755213,-0.033000603,0.46789438,-1.4044461,1.9326857,-2.100135,-1.5676249,2.4470563,-0.08422145,0.19332512,-0.22411719,0.009733151,0.036559455,-0.051048778,-0.34476504,0.095768064,-9.3661175,0.8493211,47.703903,-1.1557143,-2.0029955,-3.3935583,-0.27294755,0.25180966,-0.42607394,26.0625,26.875,26.0,29.0,30.0625,30.4375
0.23205407,-1.1470202,-0.30934384,-1.0526295,-0.023051446,0.041231733,-0.14125614,-0.39370912,-0.35051975,0.06000124,3.07352,-0.6306687,-3.708214e-05,-0.10824084,-0.019867165,-0.0015074963,-0.041911595,0.0015501924,-0.029826356,0.4677263,-1.4040135,1.932278,-2.1001232,-1.5675052,2.4469466,-0.08474533,0.19481893,-0.22469549,0.009635514,0.036385413,-0.054748166,-0.30645782,0.095768064,-9.346964,0.90750587,47.705692,-1.1220498,-1.9882563,-3.452052,-0.24343488,0.27012974,-0.38912606,26.0625,26.875,26.0,29.0,30.0625,30.4375
0.23405369,-1.6056143,-0.37328875,-0.97517776,-0.012314537,0.046700858,-0.12983233,-0.39390907,-0.35055804,0.05999631,3.0734398,-0.63070863,8.589652e-06,-0.10931397,-0.018598264,-0.0027486626,-0.04154279,-0.0010622805,-0.028005106,0.46756896,-1.40364,1.9318479,-2.1000874,-1.5674323,2.4468248,-0.088407695,0.19759327,-0.2252149,0.009903176,0.0372514,-0.060229678,-0.36391866,0.095768064,-9.346964,0.900793,47.703007,-1.0574548,-2.106818,-3.5483909,-0.24222049,0.22689006,-0.33742663,26.0625,26.875,26.0,29.0,30.0625,30.4375
0.23605357,-1.6484622,-0.5028402,-1.0361615,-0.016645472,0.066183195,-0.127586,-0.39414728,-0.35058564,0.060001317,3.0733745,-0.63075083,-3.7018126e-05,-0.10992934,-0.020552712,-0.0024159974,-0.043640222,-0.0007278716,-0.024471987,0.46738964,-1.4032428,1.9313701,-2.1000636,-1.5674075,2.4466805,-0.086564034,0.20009832,-0.2289464,0.009893505,0.038976047,-0.06191316,-0.38307226,0.15322891,-9.308657,0.8806493,47.719128,-1.1642445,-2.0659323,-3.5731335,-0.23018065,0.1813819,-0.28517425,26.0625,26.875,26.0,29.0,30.0625,30.4375
0.2380542,-1.5628126,-0.7457187,-1.0316478,-0.026031844,0.06842276,-0.13422559,-0.3943343,-0.35063457,0.059976924,3.0732572,-0.6308609,8.284255e-05,-0.11123777,-0.020028966,-0.0021685527,-0.044188898,-0.0015757597,-0.02646091,0.4672329,-1.4028459,1.930962,-2.1000502,-1.5672878,2.4466078,-0.08913509,0.20133328,-0.23141587,0.01165025,0.03985082,-0.06249354,-0.38307226,0.11492168,-9.308657,0.82022345,47.719128,-1.1581616,-2.0661898,-3.5201774,-0.25997582,0.1597652,-0.27626705,26.0625,26.875,26.0,29.0,30.0625,30.4375
0.24005379,-1.693236,-1.324073,-1.0794019,-0.025367796,0.070209,-0.13563874,-0.39456964,-0.35065877,0.05997142,3.073193,-0.6309055,0.0001293067,-0.1129448,-0.019722702,-0.0023585302,-0.044044003,-0.0013038632,-0.025118351,0.46702802,-1.4024245,1.9304718,-2.099991,-1.5672277,2.4464393,-0.09095172,0.20394187,-0.23406646,0.011538462,0.039605584,-0.06565123,-0.4405331,0.095768064,-9.3661175,0.8403672,47.703903,-0.90767837,-2.0596294,-3.5015998,-0.2583046,0.1441114,-0.23141849,26.0625,26.875,26.0,29.0,30.0625,30.4375
0.24205357,-1.5109361,-0.890036,-1.2592391,-0.046639062,0.07651233,-0.13569802,-0.3948061,-0.35071737,0.0599936,3.0730476,-0.6309504,0.000107321655,-0.114198685,-0.019937735,-0.0019122506,-0.044802353,0.0006136076,-0.024633735,0.46686003,-1.4020399,1.9299692,-2.0999668,-1.5671324,2.4463184,-0.091498435,0.20466541,-0.23574492,0.010457086,0.0394256,-0.06667827,-0.5746084,0.24899697,-9.519346,0.8403672,47.674347,-1.056201,-1.9785392,-3.4973123,-0.25755695,0.13005626,-0.1877054,26.0625,26.875,26.0,29.0,30.0625,30.4375
0.24405435,-2.2023256,-2.0096755,-1.7558335,-0.022926498,0.06680181,-0.11871604,-0.39500275,-0.35074446,0.05994189,3.0730116,-0.6309838,0.00026663384,-0.1156995,-0.01882168,-0.0013509984,-0.04530463,0.0014623614,-0.028027512,0.46667898,-1.4015838,1.9295515,-2.099943,-1.5670475,2.446163,-0.0947473,0.20423089,-0.23670113,0.0108759785,0.039490324,-0.06653567,-0.5554548,0.24899697,-9.595961,0.8090337,47.678825,-0.9487591,-1.9664509,-3.4875507,-0.2515003,0.120523684,-0.17258626,26.0625,26.875,26.0,29.0,30.0625,30.4375
0.24605574,-2.5464506,-1.8631226,-1.5753652,-0.037503522,0.06496624,-0.12509105,-0.39525703,-0.35079113,0.059954114,3.0728614,-0.6310488,0.00024440786,-0.11674625,-0.018428616,-0.0015812604,-0.04501967,0.0013446275,-0.029884657,0.4664744,-1.4011748,1.9290484,-2.099943,-1.5669516,2.4460187,-0.09615051,0.20588008,-0.23818852,0.0109610865,0.0392951,-0.06607758,-0.47884035,0.17238252,-9.653421,0.9388393,47.694946,-0.7940861,-1.9650228,-3.5674775,-0.26721108,0.10098666,-0.13376066,26.0625,26.875,26.0,29.0,30.0625,30.4375
0.24805394,-2.317122,-1.5394685,-1.3628792,-0.03952261,0.068156004,-0.13127361,-0.39549065,-0.35082352,0.05995647,3.0727837,-0.63113004,0.00024777144,-0.119067244,-0.018722095,-0.00013170233,-0.0464177,0.004734375,-0.032098256,0.46629393,-1.4007663,1.9285573,-2.0998952,-1.566904,2.4458992,-0.097434655,0.20633423,-0.24203472,0.01070461,0.03901452,-0.065145485,-0.45968673,0.19153613,-9.519346,0.90750587,47.707485,-0.7736603,-1.9568634,-3.4496093,-0.2626266,0.07854351,-0.12685455,26.0625,26.875,26.0,29.0,30.0625,30.4375
0.25005367,-2.3615248,-1.4355085,-1.6041565,-0.032951254,0.064575896,-0.12268484,-0.39574462,-0.35084325,0.05995431,3.0726793,-0.631262,0.00024943336,-0.11972152,-0.018586906,-0.00061879633,-0.046227776,0.004736387,-0.03436581,0.4660659,-1.4003451,1.9280671,-2.0998719,-1.5668443,2.4457674,-0.09805106,0.20794249,-0.24267656,0.009828958,0.0388445,-0.06349233,-0.49799395,0.17238252,-9.500193,0.9030289,47.687782,-0.7223533,-1.9848099,-3.4750414,-0.24659798,0.074354105,-0.11732831,26.0625,26.875,26.0,29.0,30.0625,30.4375
0.25205368,-1.7917706,-1.0546706,-1.4736423,-0.020870026,0.07366543,-0.13042866,-0.39597467,-0.35090077,0.059950203,3.0725646,-0.63127834,0.00024683325,-0.12116589,-0.018838877,-0.0009545097,-0.045651533,0.005318411,-0.03667087,0.4659097,-1.3999232,1.9275883,-2.0998838,-1.5667604,2.4456365,-0.098317355,0.21116216,-0.24561937,0.009297362,0.038062897,-0.061450318,-0.36391866,0.21068975,-9.5385,0.842603,47.68599,-0.8235446,-2.0883822,-3.5550027,-0.24373594,0.06365116,-0.09985451,26.0625,26.875,26.0,29.0,30.0625,30.4375
0.25405532,-2.0475173,-1.178397,-1.6121122,-0.013872849,0.05927227,-0.117721066,-0.39622283,-0.35090896,0.05993351,3.0725033,-0.63143873,0.00028372643,-0.122253105,-0.01971501,-0.00022279382,-0.0462638,0.0074756723,-0.038679138,0.46568215,-1.3994787,1.9270982,-2.099836,-1.5667247,2.4455173,-0.09738658,0.2121854,-0.24848163,0.00893489,0.037631325,-0.05851067,-0.30645782,0.2681506,-9.634268,0.8291774,47.675243,-0.9771539,-2.1133876,-3.5299513,-0.21388537,0.043923877,-0.12473135,26.0625,26.875,26.0,29.0,30.0625,30.4375
0.25605473,-2.0608904,-1.5336426,-1.6067216,-0.025932973,0.05965504,-0.12022938,-0.3964501,-0.35095015,0.059919145,3.0723693,-0.63158685,0.00038774667,-0.123300865,-0.018675873,-0.0008505207,-0.04495528,0.0065218154,-0.044480868,0.46547726,-1.3990458,1.9266189,-2.0998003,-1.5666045,2.4454224,-0.09956483,0.21416198,-0.24956691,0.009486172,0.036884766,-0.054887343,-0.30645782,0.28730422,-9.691729,0.9567419,47.694946,-0.74270654,-2.0450912,-3.5417418,-0.21797949,0.035535123,-0.16379862,26.0625,26.875,26.0,29.0,30.0625,30.4375
0.25805396,-1.3062859,-1.9815942,-1.4527754,-0.027180543,0.06181271,-0.11889152,-0.3967098,-0.35098878,0.05993139,3.072247,-0.63167584,0.00030509447,-0.12328938,-0.019157944,-0.0017923034,-0.042746373,0.0057941433,-0.043930106,0.46528605,-1.3986363,1.9261168,-2.0998118,-1.5665578,2.445303,-0.09758851,0.21730927,-0.25120768,0.009630938,0.035240285,-0.053459488,-0.21068975,0.2681506,-9.595961,0.94331104,47.705692,-0.9102858,-2.0416758,-3.6939273,-0.22509885,0.05148665,-0.19821039,26.0625,26.875,26.0,29.0,30.0625,30.4375
0.26005423,-1.1702836,-1.7442346,-1.3307749,-0.040087845,0.04701479,-0.123141445,-0.39697108,-0.35101599,0.05991287,3.072153,-0.6318508,0.00028451692,-0.1264292,-0.017642427,-0.00152737,-0.04142394,0.00763484,-0.04974117,0.46508062,-1.3981664,1.9256142,-2.0998242,-1.566522,2.4452193,-0.10162785,0.21976753,-0.25479645,0.009718651,0.033227123,-0.051687624,-0.1340753,0.22984336,-9.461885,0.8851263,47.686886,-0.7585356,-2.1901298,-3.6692386,-0.21417868,0.063911654,-0.20944238,26.0625,26.875,26.0,29.0,30.0625,30.4375
0.2620549,-0.5388054,-1.7376977,-1.2149003,-0.035356693,0.033637017,-0.12268996,-0.39722973,-0.35107404,0.059927188,3.0720122,-0.6319179,0.0002489982,-0.12791972,-0.018955262,-0.0003993452,-0.04082232,0.011238106,-0.050577644,0.4649016,-1.3977336,1.9250745,-2.0998118,-1.566439,2.4451008,-0.09919625,0.22149962,-0.25947276,0.009716192,0.031062832,-0.048417903,-0.038307227,0.2873042,-9.481039,0.86945957,47.677036,-0.89499813,-2.2837853,-3.5356445,-0.19303934,0.09941158,-0.2555647,26.0625,26.875,26.0,29.0,30.0625,30.4375
0.264054,-0.7692271,-1.294952,-1.4057841,-0.030651834,0.0077578444,-0.1214269,-0.39749154,-0.35109007,0.05991792,3.0718992,-0.6321246,0.00026509815,-0.12984417,-0.019090915,0.00015738387,-0.041125234,0.01313309,-0.050329115,0.46466127,-1.397289,1.9245719,-2.099788,-1.566379,2.4450045,-0.10019013,0.22330451,-0.2628911,0.009517777,0.030488888,-0.049658682,-0.038307227,0.28730422,-9.385271,0.83589023,47.65912,-0.907144,-2.1584232,-3.4894462,-0.18206275,0.09657973,-0.25788072,26.0625,26.875,26.0,29.0,30.0625,30.4375
0.2660548,-0.47635892,-1.0383382,-1.2747217,-0.035311233,0.02054712,-0.12951386,-0.39773402,-0.35112557,0.05989794,3.0717874,-0.6322732,0.00032045404,-0.1305543,-0.01882105,-0.00039573765,-0.04058028,0.012091183,-0.05003041,0.46445692,-1.3968315,1.9240812,-2.099776,-1.566295,2.4449077,-0.10118724,0.22548574,-0.2643887,0.010026001,0.03047757,-0.050953213,-0.038307227,0.30645782,-9.385271,0.92093146,47.698532,-0.8283287,-2.2538362,-3.4267492,-0.16401835,0.09947117,-0.26732373,26.0625,26.875,26.0,29.0,30.0625,30.4375
0.2680542,-0.6597846,-1.1992321,-1.3232288,-0.03469576,0.021979626,-0.12918195,-0.39800572,-0.35117278,0.059933797,3.0717041,-0.63235027,0.00019014264,-0.13208042,-0.019063998,0.0007378901,-0.040658414,0.014289322,-0.048106913,0.46430078,-1.3964111,1.9234952,-2.099716,-1.5662955,2.4448109,-0.101446725,0.22601558,-0.26790252,0.011027234,0.029574824,-0.053133428,0.0,0.34476504,-9.308656,0.9030289,47.68062,-0.86055464,-2.2265673,-3.4257882,-0.17291278,0.12738854,-0.26077238,26.0625,26.875,26.0,29.0,30.0625,30.4375
0.27005512,-0.963664,-1.4788243,-1.0926079,-0.03913338,0.030313293,-0.12552993,-0.39826754,-0.35120624,0.059919022,3.071561,-0.63251364,0.00025222742,-0.13371977,-0.019742051,0.0019219363,-0.041663103,0.016525393,-0.05047627,0.46406093,-1.3959428,1.9229797,-2.0997036,-1.5661873,2.444692,-0.10153403,0.22690281,-0.27187437,0.011665705,0.029466882,-0.050848998,0.0,0.5363012,-9.346964,0.8851263,47.705692,-0.94631994,-2.026092,-3.357592,-0.16614562,0.15124524,-0.2763288,26.0625,26.875,26.0,29.0,30.0625,30.4375
0.27205437,-1.2139258,-2.0665197,-1.3575717,-0.04411568,0.038837157,-0.12939839,-0.3985242,-0.35125574,0.059910566,3.0714455,-0.63264185,0.0002924816,-0.13416553,-0.020091439,0.0028209405,-0.042264577,0.01772747,-0.049932256,0.463869,-1.3954624,1.9224299,-2.0996678,-1.5661033,2.4445953,-0.10122863,0.22627161,-0.27349067,0.012580147,0.02947442,-0.051086426,-0.095768064,0.5554548,-9.346964,0.82694155,47.685097,-0.9678196,-1.9847254,-3.323352,-0.16883284,0.15192589,-0.31108427,26.0625,26.875,26.0,29.0,30.0625,30.4375
0.27405456,-1.5668048,-2.5022862,-1.4979476,-0.045250524,0.036706645,-0.12170068,-0.3988012,-0.3512934,0.05990241,3.0713546,-0.63273805,0.00021618383,-0.13396825,-0.01936733,0.002161467,-0.04109947,0.016448312,-0.04982139,0.4636768,-1.3949817,1.9218925,-2.0996916,-1.5660795,2.4444754,-0.101933114,0.22675441,-0.27276367,0.013047952,0.029020611,-0.051900912,0.0,0.51714754,-9.442732,0.86498255,47.678825,-0.98011816,-1.8849328,-3.4311686,-0.1718137,0.16162975,-0.31118587,26.0625,26.875,26.0,29.0,30.0625,30.4375
0.2760539,-1.3030303,-2.4282346,-1.4731771,-0.05365085,0.041923784,-0.1290536,-0.3990621,-0.35131836,0.059904527,3.071267,-0.6328714,0.00022192932,-0.13336408,-0.019965097,0.001985342,-0.04101492,0.015757592,-0.0478807,0.46346146,-1.394537,1.9213542,-2.099631,-1.5660313,2.444355,-0.10042474,0.22719681,-0.2731,0.013607509,0.029264597,-0.052331906,0.0,0.40222588,-9.5385,0.8851263,47.694946,-1.152644,-1.81409,-3.535561,-0.15882033,0.17527938,-0.32098567,26.0625,26.875,26.0,29.0,30.0625,30.4375
0.27805403,-0.77695256,-1.7521601,-1.2672013,-0.06631779,0.043157663,-0.12330438,-0.3993419,-0.3513561,0.059913535,3.0711377,-0.63301826,0.00018230459,-0.13433869,-0.01908997,0.00079823623,-0.04006232,0.013597429,-0.050501738,0.46324453,-1.3940789,1.9207929,-2.0996072,-1.5659713,2.444247,-0.10277293,0.230386,-0.2743129,0.013997295,0.02938607,-0.052055784,-0.076614454,0.36391866,-9.5385,0.9858343,47.70211,-0.94505227,-1.9334526,-3.6620321,-0.15001152,0.18905891,-0.33952898,26.0625,26.875,26.0,29.0,30.0625,30.4375
0.28005436,-0.78762937,-1.8630875,-1.48268,-0.037728556,0.03191448,-0.11954674,-0.39958748,-0.35139826,0.059900187,3.071048,-0.63315135,0.00021475399,-0.13481688,-0.020418316,0.0009907366,-0.0408715,0.014605519,-0.048445318,0.4630653,-1.3936101,1.920267,-2.099571,-1.5659112,2.4441628,-0.10097063,0.2321415,-0.27677786,0.01345207,0.029660407,-0.052307572,-0.05746084,0.2681506,-9.519346,0.8806493,47.687782,-1.2317138,-1.8933467,-3.6754208,-0.15783998,0.20346259,-0.35544628,26.0625,26.875,26.0,29.0,30.0625,30.4375
0.2820544,-1.265383,-1.189773,-1.4722226,-0.020402152,0.013709236,-0.11709971,-0.39986038,-0.35143173,0.05987659,3.0709317,-0.633301,0.00020054866,-0.1376403,-0.019386334,0.0007203541,-0.040994156,0.015092947,-0.051234435,0.46284765,-1.3931167,1.919752,-2.0996077,-1.5658516,2.4440541,-0.10505949,0.23545323,-0.28001997,0.012907862,0.029558705,-0.053604126,0.038307227,0.28730422,-9.519346,0.8918391,47.677036,-0.9444773,-1.9912441,-3.631557,-0.14173083,0.21628751,-0.350473,26.0625,26.875,26.0,29.0,30.0625,30.4375
0.28405383,-0.8689137,-0.74317175,-1.566151,-0.0074803596,0.013088546,-0.12606885,-0.40018454,-0.35148543,0.05991162,3.0707512,-0.6334722,7.151909e-05,-0.13835593,-0.02025652,-6.626321e-05,-0.04015765,0.014634212,-0.04842047,0.46262038,-1.392635,1.9191059,-2.0995953,-1.5657915,2.4439578,-0.10372636,0.23950692,-0.28302193,0.01265922,0.029028634,-0.05508008,0.15322891,0.28730422,-9.500193,0.88289046,47.658226,-1.1248038,-2.0940864,-3.5330982,-0.11332225,0.23729295,-0.35944217,26.0625,26.875,26.0,29.0,30.0625,30.4375
0.286054,-0.46490556,-0.8177421,-1.6731474,-0.01211628,0.021464212,-0.12519506,-0.40045977,-0.35151732,0.059911806,3.0706983,-0.6335376,2.7043947e-05,-0.13832901,-0.019846799,-0.0009449046,-0.03999805,0.012035836,-0.047616106,0.46242803,-1.392154,1.9185313,-2.0995471,-1.5657791,2.4438136,-0.10496826,0.24116693,-0.28330985,0.0136964135,0.030063001,-0.057122648,0.038307227,0.34476504,-9.615114,0.88960326,47.68062,-1.0928515,-2.2234292,-3.526618,-0.11684168,0.26404506,-0.3439684,26.0625,26.875,26.0,29.0,30.0625,30.4375
0.28805423,-1.3411702,-2.0987582,-1.4178554,-0.02987575,0.02118825,-0.1153896,-0.40071505,-0.35156238,0.05989522,3.070595,-0.6336296,0.000108146916,-0.14117381,-0.020566655,0.00031233364,-0.04214546,0.014307864,-0.046939835,0.46222335,-1.3916607,1.9179806,-2.0994995,-1.5656828,2.44368,-0.10667052,0.24356084,-0.2891979,0.01421963,0.030975739,-0.05949622,-0.19153613,0.3256114,-9.519346,0.9298854,47.683304,-1.0574832,-2.1165476,-3.4885657,-0.11426129,0.2606393,-0.34064555,26.0625,26.875,26.0,29.0,30.0625,30.4375
0.29005447,-1.0375094,-1.5605377,-1.3309784,-0.055773027,0.028758591,-0.12516816,-0.4009744,-0.3516164,0.05991155,3.0704672,-0.6336983,0.00013015134,-0.14272885,-0.02072085,0.0009669286,-0.042216323,0.01519472,-0.045663565,0.46203116,-1.3912158,1.917406,-2.099427,-1.5655869,2.4435477,-0.107455805,0.24518573,-0.2930038,0.015598623,0.03065619,-0.061555408,-0.038307227,0.34476504,-9.557653,0.84708,47.699425,-1.0270004,-2.1399653,-3.3465638,-0.10526635,0.27923834,-0.32538688,26.0625,26.875,26.0,29.0,30.0625,30.4375
0.2920547,-1.4786654,-2.0507867,-1.6504674,-0.05148723,0.020843863,-0.12009116,-0.40127885,-0.35165325,0.059931956,3.0703392,-0.63386047,8.690528e-06,-0.14293726,-0.021180121,0.001388575,-0.04340661,0.014933577,-0.042790033,0.46181515,-1.3907472,1.9168075,-2.0994146,-1.5655626,2.4434502,-0.10748806,0.24532528,-0.29446316,0.016640553,0.031863198,-0.06445437,-0.17238252,0.34476504,-9.691729,0.85826975,47.705692,-1.0864036,-2.089742,-3.3892517,-0.112857416,0.29351065,-0.28346997,26.0625,26.875,26.0,29.0,30.0625,30.4375
0.29405448,-1.3495425,-2.0222743,-1.2759464,-0.062071495,0.043983378,-0.11956797,-0.40155706,-0.35169947,0.05991211,3.070278,-0.63390356,3.1014955e-05,-0.14251418,-0.020847686,0.00086000125,-0.043287013,0.01310867,-0.040571373,0.46162304,-1.3902067,1.9162105,-2.0993779,-1.565514,2.4432933,-0.10805207,0.24563783,-0.2939524,0.017525524,0.032590784,-0.06723522,-0.36391866,0.40222588,-9.557653,0.83365434,47.694054,-1.0905375,-2.0881457,-3.3801177,-0.11675807,0.2965713,-0.2533938,26.0625,26.875,26.0,29.0,30.0625,30.4375
0.29605445,-1.6416626,-1.5186447,-1.6947246,-0.04746194,0.052455973,-0.12666747,-0.40183726,-0.351758,0.059936706,3.0700912,-0.6340172,1.7941664e-05,-0.14351828,-0.019736012,0.00036343595,-0.043113526,0.0120726125,-0.041232467,0.4614059,-1.3897622,1.9156255,-2.099342,-1.5653938,2.443172,-0.11094291,0.24686001,-0.29441467,0.017796434,0.032919224,-0.0694607,-0.26815057,0.36391866,-9.634268,0.9365982,47.709274,-0.8532046,-1.9673746,-3.6186304,-0.12429841,0.2958488,-0.22975305,26.0625,26.875,26.0,29.0,30.0625,30.4375
0.29805398,-1.7585764,-1.6604927,-1.2867955,-0.046044137,0.07311788,-0.12224837,-0.40213078,-0.35179102,0.059946913,3.0699854,-0.6341262,-2.1972675e-05,-0.14403962,-0.020821502,0.0014634711,-0.04512639,0.014286747,-0.03609035,0.46117842,-1.3892815,1.9150275,-2.0992944,-1.5653456,2.4430268,-0.10992989,0.24618545,-0.2961177,0.01732539,0.033760637,-0.07358493,-0.30645782,0.3256114,-9.595961,0.85826975,47.717335,-1.0646135,-1.8764564,-3.7089682,-0.11963718,0.31798863,-0.16045858,26.0625,26.875,26.0,29.0,30.0625,30.4375
0.30005583,-2.055409,-1.3759679,-0.92468005,-0.044533323,0.082407184,-0.12205807,-0.40242052,-0.35183182,0.059935723,3.069848,-0.6342716,1.377759e-05,-0.14587867,-0.021068221,0.0015841896,-0.046553385,0.014781479,-0.03861102,0.46093774,-1.3887641,1.9144405,-2.099271,-1.5652493,2.4428952,-0.11164104,0.24869518,-0.29937673,0.017003926,0.034818567,-0.07276941,-0.38307226,0.17238252,-9.423578,0.9030289,47.719128,-0.8684504,-1.8707674,-3.7024393,-0.114236474,0.32306325,-0.14521243,26.0625,26.875,26.0,29.0,30.0625,30.4375
0.30205375,-1.995943,-0.65566105,-1.1817877,-0.011820282,0.06828564,-0.118008025,-0.40274838,-0.3518774,0.059978817,3.0696893,-0.634352,-0.00016998682,-0.14645599,-0.021982558,0.0024642963,-0.049446627,0.016417349,-0.037637625,0.46070996,-1.388308,1.9138073,-2.099271,-1.5652126,2.442739,-0.11161636,0.24802406,-0.3004484,0.016004087,0.036702946,-0.07370625,-0.4213795,0.114921674,-9.461885,0.8493211,47.691364,-1.0320069,-1.7478173,-3.6265702,-0.08237928,0.31375784,-0.11422624,26.0625,26.875,26.0,29.0,30.0625,30.4375
0.304054,-1.0567646,0.2657748,-0.90952414,-0.007396156,0.084180415,-0.137777,-0.40301105,-0.3519358,0.05995664,3.0695539,-0.6343805,-5.6937475e-05,-0.14839429,-0.022567729,0.0029370517,-0.050226696,0.017589899,-0.037414085,0.4604937,-1.3877906,1.9132446,-2.0992467,-1.5650686,2.4425585,-0.112284236,0.25073156,-0.3049049,0.016379053,0.036885165,-0.07459449,-0.45968673,0.038307227,-9.442732,0.93436235,47.681515,-0.99913114,-1.7164788,-3.665501,-0.05924552,0.31414586,-0.06299598,26.0625,26.875,26.0,29.0,30.0625,30.4375
0.30605456,-0.9932752,0.5723706,-1.1114285,0.006945294,0.06808701,-0.13350436,-0.4033126,-0.35197693,0.059964985,3.069463,-0.6344786,-0.00013334543,-0.14936186,-0.022758858,0.0018314789,-0.04955414,0.015307575,-0.041688886,0.46028945,-1.3872837,1.9126219,-2.099211,-1.5650448,2.4424279,-0.11293089,0.25530154,-0.3080997,0.01733484,0.037288923,-0.07096044,-0.36391866,0.076614454,-9.270349,0.97240865,47.70032,-1.0128171,-1.9715436,-3.421962,-0.07053855,0.32901517,-0.08276448,26.0625,26.875,26.0,29.0,30.0625,30.4375
0.30805436,-1.3162515,-0.18026045,-1.1309612,0.016888065,0.05279613,-0.12239828,-0.403628,-0.3520171,0.059967887,3.0693405,-0.634588,-0.00017543793,-0.15029395,-0.022978965,0.0015988429,-0.049104866,0.014633111,-0.043449834,0.4600492,-1.3867549,1.9119881,-2.0991867,-1.5649847,2.4422724,-0.11316762,0.2579805,-0.31110498,0.018470004,0.037189078,-0.069432326,-0.49799395,0.1340753,-9.270349,0.99031126,47.687782,-1.0721819,-2.0710678,-3.5179446,-0.051736258,0.32737255,-0.08012144,26.0625,26.875,26.0,29.0,30.0625,30.4375
0.31005433,-1.6744348,-0.63010424,-1.1976532,-0.006544899,0.055700537,-0.120025784,-0.4039449,-0.3520621,0.059998814,3.0691752,-0.63474625,-0.00025094388,-0.15176272,-0.022660587,0.0022465258,-0.04975615,0.015215789,-0.047278207,0.4598088,-1.3862745,1.911342,-2.099138,-1.5649127,2.442153,-0.11506043,0.2586751,-0.31376508,0.019625966,0.037518308,-0.06749055,-0.5554548,0.24899697,-9.3661175,0.9186956,47.703903,-0.98377454,-1.9955237,-3.4140668,-0.06246069,0.3491587,-0.08741276,26.0625,26.875,26.0,29.0,30.0625,30.4375
0.31205422,-1.5188098,-1.0121154,-1.2837569,-0.04502392,0.071107596,-0.13143347,-0.4042594,-0.35208592,0.059995238,3.0690658,-0.6349556,-0.00028741674,-0.15264963,-0.022213629,0.0019674886,-0.04900485,0.014027582,-0.05142303,0.4595565,-1.3857453,1.9107193,-2.0991018,-1.5648764,2.4420462,-0.116374135,0.26070502,-0.31601802,0.021243261,0.03737008,-0.06465699,-0.36391866,0.34476504,-9.3661175,0.89631605,47.687782,-0.9450977,-1.8270576,-3.4522617,-0.06711177,0.36199546,-0.10621676,26.0625,26.875,26.0,29.0,30.0625,30.4375
0.31405404,-1.6961004,-2.2888918,-1.046971,-0.061857197,0.073861636,-0.12256814,-0.40456802,-0.35213113,0.060004,3.0689578,-0.63504845,-0.00024672656,-0.15220533,-0.022070909,0.0015476929,-0.04892202,0.012109536,-0.0537798,0.4593163,-1.3852044,1.9100384,-2.098994,-1.564792,2.4418786,-0.11659881,0.2611537,-0.31601748,0.022549134,0.038149167,-0.062521465,-0.47884035,0.38307226,-9.385271,0.9164598,47.691364,-0.8269191,-1.9159753,-3.4567676,-0.07803522,0.36421505,-0.12977296,26.0625,26.875,26.0,29.0,30.0625,30.4375
0.3160541,-1.48969,-2.244005,-1.0335729,-0.07875974,0.07171106,-0.12470347,-0.404875,-0.35217625,0.06000078,3.0687797,-0.6352823,-0.00022590144,-0.15365963,-0.021134587,0.0014233083,-0.049098503,0.011822854,-0.058289908,0.45906308,-1.3846755,1.9094175,-2.0989692,-1.5646843,2.441795,-0.11951048,0.2624547,-0.31746703,0.022882354,0.03843654,-0.06091906,-0.5746084,0.40222588,-9.442732,0.9186956,47.705692,-0.73981714,-1.8382409,-3.5812817,-0.08609478,0.38072082,-0.14137772,26.0625,26.875,26.0,29.0,30.0625,30.4375
0.31805393,-1.6394985,-2.0293188,-1.1144295,-0.071359,0.059800282,-0.11855974,-0.40519515,-0.3522388,0.06002403,3.0686114,-0.63536066,-0.00027833832,-0.15345852,-0.022550646,0.0011405227,-0.04976871,0.011815616,-0.057999402,0.45883605,-1.3841586,1.908748,-2.098934,-1.564588,2.4416397,-0.11714597,0.26428518,-0.3189532,0.02224747,0.03903991,-0.058837768,-0.45968673,0.30645782,-9.385271,0.8851263,47.71017,-0.94128466,-1.7969382,-3.6205273,-0.09094453,0.3674406,-0.18269616,26.0625,26.875,26.0,29.0,30.0625,30.4375
0.32005355,-1.795912,-1.898563,-1.2490563,-0.0412132,0.044110086,-0.11564423,-0.40550888,-0.35227555,0.06003727,3.0684805,-0.6355647,-0.00035871533,-0.15468737,-0.022836974,0.0008486128,-0.05141749,0.0119927265,-0.06047271,0.45860776,-1.3836532,1.9081143,-2.0988986,-1.5645517,2.4415565,-0.118454054,0.2663966,-0.3205775,0.020870445,0.04044004,-0.057662982,-0.21068975,0.3256114,-9.385271,0.8806493,47.690468,-0.80185163,-1.7760773,-3.6955562,-0.04611496,0.38074762,-0.20898864,26.0625,26.875,26.0,29.0,30.0625,30.4375
0.3220532,-1.2359887,-1.4028106,-1.0254269,-0.03293985,0.031959604,-0.12631334,-0.40582404,-0.3523237,0.06005882,3.06832,-0.635722,-0.00039163578,-0.15643767,-0.023915788,0.0014498082,-0.053895254,0.0134134,-0.061533548,0.45836753,-1.3831475,1.9074558,-2.0988386,-1.5644664,2.441436,-0.11895728,0.26855177,-0.32444453,0.020217298,0.04203385,-0.057094023,-0.21068975,0.30645782,-9.346964,0.91198283,47.66271,-0.91629136,-1.8072305,-3.5098896,-0.035795204,0.38163996,-0.23825747,26.0625,26.875,26.0,29.0,30.0625,30.4375
0.32405484,-1.1730753,-1.5908166,-1.0092993,-0.0149767455,0.015319909,-0.11571745,-0.40613663,-0.35237214,0.06002055,3.068172,-0.6359405,-0.0003156343,-0.15809907,-0.025429929,0.0030903514,-0.057989705,0.016040213,-0.06222094,0.45811564,-1.3825353,1.9068211,-2.098839,-1.5643576,2.4413404,-0.11919926,0.26868746,-0.32838297,0.019858114,0.044542845,-0.056636963,-0.17238252,0.22984336,-9.270349,0.9030289,47.664497,-0.9456011,-1.9535978,-3.5196242,-0.026229303,0.3551582,-0.26604086,26.0625,26.875,26.0,29.0,30.0625,30.4375
0.3260538,-0.10287478,-0.73939455,-1.1446092,-0.012992747,0.018001841,-0.12498463,-0.40647602,-0.3524203,0.06002799,3.068011,-0.6360803,-0.00038966123,-0.15941837,-0.02607517,0.002805949,-0.059288073,0.014975365,-0.06383033,0.45786327,-1.3819821,1.9061517,-2.0988386,-1.5642852,2.4411972,-0.12009833,0.2721533,-0.33209977,0.02049516,0.046184305,-0.05591352,-0.11492168,0.28730422,-9.3661175,0.9321212,47.71286,-0.9620817,-1.7493792,-3.4164176,-0.0029568085,0.33891714,-0.29466695,26.0625,26.875,26.0,29.0,30.0625,30.4375
0.3280537,-0.36136043,-1.5421213,-1.1582086,-0.01502935,0.009451139,-0.12723024,-0.4067904,-0.35246608,0.060031787,3.0678804,-0.63626134,-0.00041621426,-0.15905786,-0.026985286,0.0027916497,-0.061255936,0.013484842,-0.061603475,0.45763552,-1.3814409,1.9054931,-2.09879,-1.5642241,2.4411001,-0.1196185,0.2727476,-0.33309335,0.021378456,0.04863028,-0.05764779,0.019153614,0.30645782,-9.346964,1.0015011,47.695843,-0.94699144,-1.738086,-3.4216301,-0.006863437,0.31218976,-0.2957042,26.0625,26.875,26.0,29.0,30.0625,30.4375
0.33008957,-1.1732514,-1.7578231,-1.0267409,-0.05022022,-0.0007815647,-0.12025025,-0.40710333,-0.35251796,0.060028933,3.0677114,-0.63643724,-0.0003711926,-0.15991436,-0.027070403,0.0030397193,-0.062479623,0.013206701,-0.06362848,0.4573833,-1.3808882,1.9048365,-2.0987422,-1.5641044,2.4409804,-0.120828554,0.27363825,-0.33500668,0.022119697,0.049857117,-0.056824755,0.038307227,0.34476504,-9.270349,0.9858343,47.704796,-1.0723042,-1.7321572,-3.400888,-0.0074258177,0.2896025,-0.31447354,26.0625,26.875,26.0,29.0,30.0625,30.4375
0.33206004,-0.67259246,-2.154568,-1.1332773,-0.06240605,0.02612359,-0.11637796,-0.40743446,-0.35256556,0.060048558,3.0675225,-0.63666624,-0.00034000824,-0.15869586,-0.028212663,0.0014321733,-0.062361162,0.008702811,-0.063349225,0.45710763,-1.3803464,1.9041303,-2.0986464,-1.5639833,2.4408731,-0.1188584,0.2772814,-0.33615693,0.023722969,0.05174516,-0.055122253,0.019153614,0.36391866,-9.232041,0.91198283,47.687782,-1.040105,-1.8327198,-3.4494987,-0.012948567,0.27879703,-0.37231678,26.0625,26.875,26.0,29.0,30.0625,30.4375
0.334059,-1.2833695,-2.4473546,-1.1224104,-0.04956728,0.020993765,-0.12292952,-0.40776625,-0.35263142,0.060063362,3.06734,-0.63681996,-0.00039006103,-0.16037251,-0.02746701,0.00078920746,-0.06348561,0.006058006,-0.06684337,0.45687848,-1.379793,1.9034375,-2.098622,-1.563887,2.4407647,-0.12279129,0.28052354,-0.33899996,0.025213504,0.05393507,-0.055544823,0.0,0.4213795,-9.289502,0.8851263,47.692257,-1.0568976,-1.8492496,-3.4554071,-0.022099903,0.2288599,-0.39813134,26.0625,26.875,26.0,29.0,30.0625,30.4375
0.33605763,-1.076147,-1.9907329,-1.1762787,-0.043570507,0.031188337,-0.12142057,-0.408038,-0.35265714,0.05999623,3.0672925,-0.6369802,-0.00020259141,-0.16059639,-0.027972588,0.0006654012,-0.06296343,0.0063778358,-0.06328136,0.456639,-1.3791797,1.902851,-2.098562,-1.5638026,2.4406316,-0.12161967,0.28187683,-0.34051856,0.025358494,0.053338718,-0.05794205,0.076614454,0.36391866,-9.308656,0.9925471,47.707485,-1.0226929,-1.9524591,-3.5087423,-0.025846269,0.20219436,-0.41529238,26.0625,26.875,26.0,29.0,30.0625,30.4375
0.33805817,-0.43716386,-1.3978286,-1.1866794,-0.03530426,0.038120203,-0.12997554,-0.40841618,-0.35275632,0.06007824,3.0669782,-0.63714415,-0.00038431463,-0.16173765,-0.02782693,-0.00039426732,-0.06327738,0.0044819596,-0.06578147,0.45639837,-1.3786743,1.9020623,-2.0985382,-1.5636581,2.4405358,-0.12338812,0.28563637,-0.34266737,0.025323138,0.054469995,-0.057190616,0.095768064,0.49799395,-9.308657,0.99031126,47.692257,-0.9750391,-1.9399614,-3.6101995,-0.0060199127,0.19114336,-0.4167579,26.0625,26.875,26.0,29.0,30.0625,30.4375
0.34005767,-1.4069518,-1.778828,-0.78484815,-0.046679918,0.01651824,-0.12016742,-0.4087115,-0.3528031,0.060033277,3.0668304,-0.63742036,-0.00022472606,-0.16323195,-0.028087704,0.00048045217,-0.06558406,0.0062007243,-0.06632428,0.45614597,-1.378061,1.9014281,-2.0984905,-1.563526,2.4404757,-0.12488988,0.28575978,-0.34483677,0.024833476,0.055789772,-0.058144875,0.019153614,0.63206923,-9.078813,0.9298854,47.690468,-0.87439436,-2.0214,-3.452456,-0.001992403,0.17032307,-0.47120285,26.0625,26.875,26.0,29.0,30.0625,30.4375
0.34205607,-0.49236783,-1.9636292,-0.8039346,-0.045373075,0.03177847,-0.13201067,-0.40904787,-0.35285702,0.060032785,3.0666907,-0.63750446,-0.0002196811,-0.16468504,-0.028346354,0.0014343867,-0.06684996,0.007890918,-0.06396649,0.45589352,-1.3774723,1.9007214,-2.0984423,-1.5634297,2.4402947,-0.12578951,0.2861758,-0.34774494,0.025292723,0.05620863,-0.061395984,0.05746084,0.57460845,-9.040505,0.87617236,47.681515,-0.81941885,-1.923014,-3.5460422,0.031017035,0.11189829,-0.47195965,26.0625,26.875,26.0,29.0,30.0625,30.4375
0.34405494,-0.5955213,-1.6846607,-1.1779569,-0.038655657,0.009902592,-0.12762925,-0.40937516,-0.35288924,0.060020547,3.0665474,-0.6376821,-0.000157652,-0.16514282,-0.027064119,0.00066434976,-0.062458698,0.0072864946,-0.06097505,0.45560566,-1.3768957,1.9000524,-2.0983813,-1.5633234,2.4401371,-0.1259639,0.2881509,-0.34890336,0.027010748,0.052563667,-0.06457621,0.038307227,0.5554548,-9.002198,0.90527004,47.67345,-0.8645649,-1.8437531,-3.542232,0.021195369,0.13863982,-0.44836718,26.0625,26.875,26.0,29.0,30.0625,30.4375
0.34605542,-0.9340369,-2.2748375,-0.9038976,-0.025859512,0.005410227,-0.12134209,-0.40973556,-0.35295478,0.060035057,3.066369,-0.6378141,-0.0002098656,-0.16630071,-0.027454328,0.0014764471,-0.062146712,0.00861166,-0.056978602,0.45535377,-1.3762944,1.899299,-2.098345,-1.5632275,2.439992,-0.12560621,0.28925166,-0.35256407,0.02856765,0.051734053,-0.068211846,-0.038307227,0.4405331,-9.059659,1.0283576,47.68599,-0.94557357,-1.8528264,-3.5905752,-0.009298741,0.14036486,-0.42080033,26.0625,26.875,26.0,29.0,30.0625,30.4375
0.3480551,-1.388904,-1.756651,-1.1139654,-0.0337858,0.0075632753,-0.1180787,-0.4100237,-0.35301846,0.06000419,3.066245,-0.6379385,-6.682703e-05,-0.16776717,-0.028325675,0.0028864085,-0.0631545,0.011450276,-0.052753925,0.4551378,-1.3756933,1.8986405,-2.0982735,-1.5630959,2.4398704,-0.12502372,0.28960928,-0.35648492,0.02918746,0.051412564,-0.07185532,-0.17238252,0.4405331,-9.002198,1.0529729,47.67166,-0.9858841,-1.6887339,-3.4271364,0.00087468483,0.11705229,-0.3822242,26.0625,26.875,26.0,29.0,30.0625,30.4375
0.3500566,-1.3749783,-1.4092052,-0.95553464,-0.0141717885,0.033175867,-0.1203923,-0.41037488,-0.35307276,0.06001495,3.0661237,-0.6380452,-0.00010975295,-0.16925049,-0.027100904,0.002643369,-0.06117724,0.011297554,-0.051493756,0.45489737,-1.3750923,1.8978866,-2.0982006,-1.5630363,2.4397132,-0.12718697,0.29155004,-0.3587104,0.030527424,0.049737252,-0.075281955,-0.22984336,0.4213795,-9.059659,0.9925471,47.690468,-1.0437474,-1.7359691,-3.415451,0.004909696,0.11861718,-0.3467242,26.0625,26.875,26.0,29.0,30.0625,30.4375
0.35205427,-1.1744742,-0.734047,-0.8818421,-0.0101560345,0.06275868,-0.12276006,-0.41070208,-0.35313773,0.060003176,3.0659611,-0.6381594,-7.793183e-05,-0.16810732,-0.027941206,0.0015318462,-0.05842977,0.009332113,-0.04437305,0.45465857,-1.3744911,1.8971947,-2.0981762,-1.5629166,2.4395678,-0.12367376,0.2942316,-0.3598937,0.032056514,0.048168812,-0.078893445,-0.19153613,0.34476504,-9.136273,0.9679317,47.672558,-1.1183909,-1.9208834,-3.5349653,-0.027038358,0.13127726,-0.3064686,26.0625,26.875,26.0,29.0,30.0625,30.4375
0.35405374,-1.9645385,-0.52871025,-0.6305433,-0.0073657394,0.061930366,-0.12517689,-0.41104555,-0.35319743,0.06001742,3.0658057,-0.63828033,-6.0579136e-05,-0.16979876,-0.025812171,0.00038086984,-0.055745903,0.0071018958,-0.04511262,0.45440504,-1.3739011,1.8964404,-2.09808,-1.5628093,2.439411,-0.12772575,0.2975337,-0.36179194,0.033886783,0.04677071,-0.082208805,-0.038307227,0.22984336,-9.040505,0.8806493,47.674347,-0.90167326,-1.9220669,-3.5278182,-0.03930293,0.14686498,-0.2636582,26.0625,26.875,26.0,29.0,30.0625,30.4375
0.3560536,-1.5747805,-0.49007004,-0.70847356,-0.001854405,0.063015066,-0.124716885,-0.41137972,-0.35325363,0.059979435,3.0656912,-0.63835,1.7603217e-05,-0.1703788,-0.025583647,-3.6182082e-05,-0.053796563,0.006721604,-0.043174654,0.4541533,-1.3732393,1.8957351,-2.0980556,-1.5627016,2.4392183,-0.12748782,0.29967985,-0.3638524,0.035038263,0.045203745,-0.08391502,-0.21068975,0.19153613,-9.136273,0.9321212,47.68062,-1.0701704,-2.02619,-3.5166717,-0.06849568,0.14612515,-0.20612141,26.0625,26.875,26.0,29.0,30.0625,30.4375
0.35805354,-1.5827986,-0.29708377,-0.89845103,-0.0017484251,0.055015147,-0.1269507,-0.41174352,-0.353292,0.060007017,3.0655332,-0.6385644,-5.6440807e-05,-0.17125012,-0.024416354,-0.0010110949,-0.051147334,0.0058150073,-0.044193245,0.45387688,-1.3726743,1.8949822,-2.0979717,-1.5626429,2.4390974,-0.12884097,0.30218676,-0.36491582,0.03559867,0.04323816,-0.0842542,-0.34476504,0.13407528,-9.097966,0.9567419,47.670765,-0.9467797,-2.043953,-3.5935688,-0.083752126,0.17507719,-0.17040074,26.0625,26.875,26.0,29.0,30.0625,30.4375
0.36005494,-1.3812816,-0.37587124,-1.0584828,-0.0051057907,0.05365956,-0.12860903,-0.41206458,-0.35333064,0.05998695,3.0654845,-0.6385735,3.2408936e-06,-0.17185798,-0.023449806,-0.0022660235,-0.04847781,0.0034455478,-0.044329625,0.4536365,-1.3720607,1.894276,-2.0978754,-1.5625833,2.4388695,-0.13002974,0.30551097,-0.36659428,0.037281755,0.041890133,-0.08531281,-0.17238253,0.095768064,-9.270349,0.9164598,47.666286,-0.98929393,-2.0872567,-3.6622555,-0.09975872,0.20482048,-0.14939165,26.0625,26.875,26.0,29.0,30.0625,30.4375
0.36205366,-1.5702589,-0.72379786,-0.844029,-0.011318767,0.03759355,-0.118839145,-0.41237742,-0.35337073,0.059944753,3.0653598,-0.6387784,0.00017835788,-0.1731444,-0.02435005,-0.0010504723,-0.04829374,0.0055070054,-0.046139784,0.45336103,-1.3714234,1.8935946,-2.097791,-1.5624512,2.4387388,-0.12874682,0.30666235,-0.37131688,0.039081767,0.040799383,-0.082225196,-0.21068975,0.095768064,-9.232041,0.9388393,47.661808,-1.0472836,-2.081296,-3.5308871,-0.11787446,0.22265059,-0.1231623,26.0625,26.875,26.0,29.0,30.0625,30.4375
0.36405402,-1.7981032,-0.9337866,-1.0465193,-0.011900616,0.040240213,-0.11924964,-0.41275615,-0.35342836,0.05997407,3.0652213,-0.6389436,6.5244974e-05,-0.17517263,-0.02385152,9.42015e-05,-0.048745975,0.007843782,-0.051854666,0.45312002,-1.3708113,1.8927807,-2.097707,-1.5624155,2.43862,-0.13074826,0.30676204,-0.37433854,0.039689135,0.040169984,-0.07850924,-0.45968673,0.076614454,-9.155427,0.9298854,47.661808,-0.7818604,-2.075155,-3.5177433,-0.15305945,0.23992573,-0.16792938,26.0625,26.875,26.0,29.0,30.0625,30.4375
0.36605382,-1.5931894,-0.4764915,-1.1682968,0.0015614062,0.048223753,-0.117230594,-0.41307187,-0.35347298,0.059922684,3.065149,-0.63904357,0.00017824362,-0.1765034,-0.023553573,7.171481e-05,-0.04819295,0.008058383,-0.053958997,0.4528801,-1.37015,1.8920988,-2.0976589,-1.5623316,2.4384525,-0.13185802,0.3087403,-0.3770097,0.040441286,0.03957291,-0.07751791,-0.36391866,0.17238252,-9.270349,0.99031126,47.698532,-1.1068256,-1.9874375,-3.4564314,-0.18664564,0.293123,-0.18569468,26.0625,26.875,26.0,29.0,30.0625,30.4375
0.36805326,-1.9025817,-0.54446054,-1.3966663,0.009240349,0.05024225,-0.11855924,-0.41342595,-0.3535171,0.059930775,3.0650058,-0.63920724,0.00023870227,-0.17744261,-0.025036551,0.0017215967,-0.050211143,0.010437036,-0.059242107,0.45259264,-1.3695371,1.8913206,-2.0975268,-1.5622233,2.4382868,-0.13039894,0.3085747,-0.3809535,0.041488722,0.04030904,-0.07076952,-0.36391866,0.15322891,-9.32781,0.9791215,47.691364,-1.0134729,-1.9063588,-3.3481946,-0.22287449,0.28184783,-0.21018052,26.0625,26.875,26.0,29.0,30.0625,30.4375
0.37005487,-1.8884454,-0.5532426,-1.5465404,-0.0069724773,0.053387914,-0.11600588,-0.41378534,-0.35354844,0.059925452,3.064911,-0.63934165,0.00022925642,-0.17698011,-0.024798527,0.0010843173,-0.050523482,0.008286242,-0.062278166,0.45231628,-1.3689122,1.8905686,-2.0974429,-1.5621752,2.4381075,-0.13100643,0.30906576,-0.38044614,0.042277686,0.041528877,-0.06833367,-0.38307226,0.19153613,-9.423578,0.9231726,47.70211,-1.0901399,-2.0512686,-3.4286575,-0.24421555,0.27611908,-0.2755007,26.0625,26.875,26.0,29.0,30.0625,30.4375
0.37205386,-1.7198019,-1.8066896,-1.7339076,-0.014437059,0.06860813,-0.116508484,-0.41411975,-0.35361737,0.059920534,3.0647614,-0.63950205,0.00027731527,-0.17643419,-0.024331259,-0.0009929405,-0.04872069,0.0042077196,-0.063003175,0.4520882,-1.3682867,1.8898152,-2.097359,-1.5620669,2.438,-0.13130607,0.31256002,-0.3802697,0.043076005,0.041697983,-0.06790571,-0.38307226,0.21068975,-9.519346,0.9634547,47.65912,-1.0774595,-1.9919198,-3.700869,-0.27805668,0.29345456,-0.26861244,26.0625,26.875,26.0,29.0,30.0625,30.4375
0.3740541,-1.9681703,-2.009369,-1.7856336,-0.049540926,0.06891231,-0.11958525,-0.41449314,-0.3536814,0.05993045,3.0645757,-0.63965446,0.00028020653,-0.17606257,-0.024171125,-0.00257944,-0.047808457,0.00089449616,-0.06341971,0.4518122,-1.3676487,1.8890156,-2.0972865,-1.5619467,2.4378445,-0.13149394,0.31550106,-0.38052702,0.04378674,0.04233624,-0.067670114,-0.36391866,0.30645782,-9.595961,1.0082139,47.666286,-1.1004835,-2.032782,-3.8526027,-0.30175298,0.3060451,-0.2909385,26.0625,26.875,26.0,29.0,30.0625,30.4375
0.37605417,-1.9325411,-2.3203685,-1.8294139,-0.068897076,0.06477866,-0.11404469,-0.41483727,-0.35368904,0.059907768,3.0645218,-0.63993,0.0003485878,-0.17727928,-0.024489032,-0.002905366,-0.047522362,0.00061112986,-0.06370806,0.4515241,-1.3670114,1.8882731,-2.097143,-1.5619229,2.437736,-0.13172127,0.31868067,-0.38391104,0.04438489,0.04219958,-0.067610145,-0.30645782,0.2681506,-9.595961,1.0507371,47.690468,-1.1202259,-2.0538416,-3.818202,-0.3679011,0.32067454,-0.3070253,26.0625,26.875,26.0,29.0,30.0625,30.4375
