Tylouw/Master_Thesis_Code/training_data/batch_1/small_rod_t0.1/sample_100_session_3.csv
timestamp[s],tcp_force_x[N],tcp_force_y[N],tcp_force_z[N],tcp_force_rx[Nm?],tcp_force_ry[Nm?],tcp_force_rz[Nm?],tcp_pose_x[m],tcp_pose_y[m],tcp_pose_z[m],tcp_pose_rx[rot_vec_x],tcp_pose_ry[rot_vec_y],tcp_pose_rz[rot_vec_z],tcp_velo_x[m/s],tcp_velo_y[m/s],tcp_velo_z[m/s],tcp_velo_rx[rot_vec_x/s],tcp_velo_ry[rot_vec_y/s],tcp_velo_rz[rot_vec_z/s],q1[rad],q2[rad],q3[rad],q4[rad],q5[rad],q6[rad],qd1[rad/s],qd2[rad/s],qd3[rad/s],qd4[rad/s],qd5[rad/s],qd6[rad/s],tool_acc_x,tool_acc_y,tool_acc_z,current_of_whole_robot[A],voltage_of_whole_robot[V],current_J1[A],current_J2[A],current_J3[A],current_J4[A],current_J5[A],current_J6[A],temp_J1[C],temp_J2[C],temp_J3[C],temp_J4[C],temp_J5[C],temp_J6[C]
6.099872e-07,-0.16913114,-0.62236863,1.1531334,0.0020640618,0.0063329125,-0.018475587,-0.38106433,-0.34852618,0.059983503,-3.0785427,0.62484425,-0.000116992764,0.00057440175,0.0002833363,-0.00087413384,0.000106259766,-0.000487831,5.673512e-05,0.47779807,-1.42597,1.9577268,-2.1008465,-1.5707697,2.4527283,-5.6265686e-05,-1.2270204e-05,0.0024584676,-0.0019646322,0.00013069589,-0.00011407401,0.05746084,0.1340753,-8.7532015,0.7150385,47.70838,0.009244965,-2.7516794,-2.3135123,-0.43514296,0.08105679,0.0782338,26.75,27.625,26.75,30.1875,31.5625,32.125
0.00205266,-0.37461603,-0.2287474,1.0830272,-0.0005291315,0.0028952956,-0.017516667,-0.38105398,-0.34852323,0.05995715,-3.0784926,0.62485296,-0.00017934437,-0.0003770913,-0.00021322658,-0.0036081364,-0.00064992596,0.0009437466,5.690991e-05,0.4778101,-1.4259202,1.9577283,-2.100837,-1.5707816,2.452752,-5.557088e-05,0.004917984,0.005202259,-0.011257658,0.0001283995,-0.000112294896,0.0,0.095768064,-8.6574335,0.7396539,47.68599,0.030870046,-2.809111,-2.5245137,-0.3971396,0.10554301,0.056697823,26.75,27.625,26.75,30.1875,31.5625,32.125
0.004055115,-0.06453028,-0.2501919,1.2692857,0.0006842272,0.003482049,-0.021125004,-0.3810655,-0.3485468,0.059970643,-3.0785599,0.6248667,-0.0001664246,-0.0014359636,-0.0007670169,-0.0029800015,-0.0021019722,0.0037217892,5.6763143e-05,0.4778101,-1.4259202,1.957703,-2.1008613,-1.5707334,2.452752,-5.489302e-05,0.0049008643,0.0042877924,-0.013460708,0.00013334381,-0.00011057028,0.1340753,0.11492168,-8.619126,0.7486078,47.691364,-0.053994697,-3.238139,-2.6889315,-0.32410666,0.076818824,0.057063542,26.75,27.625,26.75,30.1875,31.5625,32.125
0.006052225,0.09448506,0.12697603,1.0934309,0.018342698,-0.010623494,-0.01856726,-0.38107508,-0.3485028,0.05994574,-3.0784843,0.62496644,-0.00012174769,-0.001070005,-0.0005749397,-0.0016553687,-0.0017289008,0.0030241061,5.531525e-05,0.47776207,-1.4259211,1.957774,-2.1009195,-1.5707935,2.452776,-5.4231466e-05,0.0027504996,0.0026752406,-0.008906674,0.00013006096,-0.00010889804,0.17238252,0.13407528,-8.63828,0.7709874,47.711964,0.023305442,-3.061636,-2.6257133,-0.32144338,0.08680804,0.06351018,26.75,27.625,26.75,30.1875,31.5625,32.125
0.008052245,0.81406474,1.1526043,0.59413594,0.039512992,-0.02149066,-0.02342749,-0.38103572,-0.34852454,0.059916828,-3.0784972,0.6249115,-0.00026897521,-0.0011013293,-0.00058967044,0.000107157466,-0.0020010031,0.0035675573,5.4157696e-05,0.47779807,-1.4258859,1.9577969,-2.1009057,-1.5707334,2.452776,-5.3585696e-05,0.00020177361,0.00064916216,-0.004939558,0.00012644373,-0.00010727547,0.095768064,0.095768064,-8.810662,0.8023209,47.72271,0.0048045386,-2.9229732,-2.5192509,-0.34547853,0.09267728,0.069323674,26.75,27.625,26.75,30.1875,31.5625,32.125
0.010052397,0.4513184,0.5905478,0.095611386,0.053138938,-0.029079186,-0.018102022,-0.38103575,-0.3485226,0.059923686,-3.0784788,0.62486935,-0.0002604371,-0.0008094071,-0.00043673257,0.00025213262,-0.0014347611,0.0024887526,5.307044e-05,0.4778101,-1.425886,1.9577731,-2.1008694,-1.5707573,2.452764,-5.29551e-05,2.7070507e-06,9.63416e-05,-0.0029692973,0.00012298996,-0.00010570056,0.1340753,0.095768064,-8.983045,0.779936,47.72002,-0.11438489,-2.142541,-3.293209,-0.35075474,0.056894913,0.018771144,26.75,27.625,26.75,30.1875,31.5625,32.125
0.012052427,-0.0876852,-0.20445184,-0.16150302,0.019477297,-0.017542468,-0.014777766,-0.3810298,-0.34850606,0.05990273,-3.0784366,0.6248801,-0.0003366828,-0.0023918115,-0.0012521256,-0.0026385987,0.0015180766,-0.00318401,4.4916527e-05,0.47778615,-1.4258579,1.9577836,-2.1008456,-1.5707573,2.452752,-6.15874e-05,0.011346116,-0.0066298917,-0.0011911369,9.8929835e-05,-0.00010129429,0.15322891,0.19153613,-9.232041,0.7284641,47.690468,-0.23195036,-2.2403023,-3.5366096,-0.34875005,0.04962479,0.0011803352,26.75,27.625,26.75,30.1875,31.5625,32.125
0.014052457,-1.0879779,-0.9290702,-0.14637339,-0.014967927,-0.008819609,-0.0069308965,-0.38103786,-0.3485144,0.059901446,-3.0784488,0.6248623,-0.00034939684,-0.0033745419,-0.0017055322,-0.004011135,0.0042188503,-0.008358249,0.0017434403,0.47778612,-1.4258316,1.9577559,-2.1008432,-1.5707458,2.4527395,-0.00015691468,0.018851748,-0.013151804,0.0036616195,7.621284e-05,-0.0018915867,-0.019153614,0.2681506,-9.3661175,0.7642693,47.711063,-0.2806856,-2.8569565,-3.2006927,-0.36399698,0.03384708,-0.03651303,26.75,27.625,26.75,30.1875,31.5625,32.125
0.016052406,-0.9913221,-1.7827351,-0.39721218,-0.037346557,0.03639225,-0.01931307,-0.38102573,-0.34850344,0.05987174,-3.0783732,0.6248827,-0.00045673503,-0.0042261183,-0.00031756505,-0.003896729,0.0051016733,-0.009697408,0.004243835,0.47778526,-1.4257717,1.9577445,-2.1007946,-1.5707573,2.452761,-0.0033040121,0.018965881,-0.014094972,0.0060854843,-9.144994e-05,-0.007538749,-0.17238252,0.4213795,-9.595961,0.76874626,47.71286,-0.37752217,-2.599237,-3.4416208,-0.40353698,0.030245218,-0.018974062,26.75,27.625,26.75,30.1875,31.5625,32.125
0.018052625,-1.7855562,-2.188016,-0.58999544,-0.061005138,0.047761317,-0.025917316,-0.38105246,-0.34850794,0.059876256,-3.0783737,0.6248637,-0.00040276587,-0.00577782,4.322568e-05,-0.0033059313,0.0047382084,-0.00854281,0.005785589,0.47778425,-1.4257357,1.9576958,-2.1008065,-1.5707816,2.452748,-0.005243829,0.019593101,-0.016233595,0.006404416,-0.00030493658,-0.011018791,-0.15322891,0.49799395,-9.710882,0.784413,47.71465,-0.10569142,-2.3860645,-3.4508703,-0.3883491,0.018152805,0.020334732,26.75,27.625,26.75,30.1875,31.5625,32.125
0.02005256,-1.9404627,-2.3480754,-0.68223983,-0.06927825,0.059048418,-0.029755576,-0.38103664,-0.34851077,0.059861448,-3.0783813,0.6247491,-0.00055303576,-0.0063241995,-0.0006684489,-0.003340172,0.004590933,-0.008108516,0.007548442,0.4777726,-1.4256989,1.9576715,-2.100735,-1.5707334,2.452664,-0.0044371528,0.021389749,-0.018121028,0.0060424893,-0.0003803135,-0.011973479,-0.4213795,0.6703765,-9.864111,0.7486078,47.703007,-0.14297709,-2.4063067,-3.5700526,-0.38922447,0.0031371233,0.025383731,26.75,27.625,26.75,30.1875,31.5625,32.125
0.022052543,-2.2802963,-2.2177253,-0.5831626,-0.07718698,0.063284345,-0.038289238,-0.3810333,-0.34849602,0.059830558,-3.0783024,0.62477016,-0.0006049062,-0.0065739336,-0.0014242941,-0.0032298986,0.004653746,-0.008121966,0.00938413,0.477773,-1.4256386,1.9576706,-2.1007226,-1.5707697,2.4526875,-0.0032911834,0.022854744,-0.02019039,0.0066873236,-0.0004341648,-0.012661911,-0.6703765,0.7469909,-9.883265,0.7665104,47.686886,-0.33235854,-2.3522873,-3.534358,-0.36595625,-0.0033498625,0.017795848,26.75,27.625,26.75,30.1875,31.5625,32.125
0.024052085,-1.729255,-1.878511,-0.80013347,-0.06731971,0.078122035,-0.059746075,-0.3810542,-0.34851813,0.05983525,-3.0783193,0.62473494,-0.00061637355,-0.00731521,-0.0019514497,-0.0026141952,0.004694443,-0.0075825127,0.0102063175,0.47778517,-1.4255785,1.9575857,-2.1006982,-1.5707577,2.4526756,-0.002854902,0.023892894,-0.023104852,0.008104444,-0.0007214871,-0.013045861,-0.51714754,0.7469909,-9.883265,0.7642693,47.695843,-0.43075264,-2.2831745,-3.5534043,-0.35474512,-0.00966363,0.0032677096,26.75,27.625,26.75,30.1875,31.5625,32.125
0.02605207,-1.8140918,-2.2536473,-0.89754224,-0.036907945,0.05559111,-0.0662749,-0.3810812,-0.34851184,0.0598219,-3.0782962,0.62480706,-0.00063265103,-0.00819822,-0.0017005032,-0.0025363995,0.00536974,-0.00809658,0.0098979,0.4777489,-1.425518,1.9575499,-2.1007097,-1.5707577,2.4526873,-0.0038815506,0.025401045,-0.025344212,0.009603843,-0.0010871395,-0.01376224,-0.4405331,0.63206923,-10.01734,0.8224646,47.657326,-0.4342603,-2.2777452,-3.6102133,-0.37146997,-0.04376269,-0.005659446,26.75,27.625,26.75,30.1875,31.5625,32.125
0.028052116,-0.9137438,-1.7400188,-0.6442056,-0.02888699,0.05299483,-0.08344928,-0.3810675,-0.34852454,0.05981175,-3.0782979,0.624655,-0.0006886042,-0.010487087,-0.0017701476,-0.0014343574,0.004690219,-0.0053646844,0.008524103,0.47778413,-1.4254818,1.9575237,-2.100674,-1.5707577,2.4526274,-0.005448926,0.026445555,-0.029034156,0.009513263,-0.0017484496,-0.013952295,-0.4405331,0.45968673,-9.787497,0.779936,47.71465,-0.3516311,-2.271104,-3.4992247,-0.3727749,-0.058577314,-0.02902319,26.75,27.625,26.75,30.1875,31.5625,32.125
0.0300521,-0.8917801,-1.1620389,-0.58619845,-0.012932715,0.039380986,-0.09464748,-0.3811473,-0.34852976,0.059840433,-3.0783112,0.62475395,-0.0005620557,-0.012012399,-0.0013103829,-0.0016462576,0.0062658503,-0.004023531,0.008169461,0.47773588,-1.425421,1.9573916,-2.1006858,-1.570783,2.4526393,-0.006364496,0.028679347,-0.030912481,0.008698045,-0.0037697377,-0.014507705,-0.45968673,0.30645782,-9.80665,0.784413,47.707485,-0.40337932,-2.2836843,-3.568073,-0.32583022,-0.065044865,-0.040071733,26.75,27.625,26.75,30.1875,31.5625,32.125
0.032052137,-1.5187864,-0.5660823,-0.5259802,0.0062296945,0.024678001,-0.105678864,-0.38117635,-0.34853134,0.059832796,-3.0783193,0.62471664,-0.00056148786,-0.013052359,-0.0014253489,-0.0015182494,0.0068448745,-0.0033704988,0.008061706,0.47771177,-1.4253606,1.957343,-2.1006982,-1.570783,2.452591,-0.0065912115,0.030402,-0.03323684,0.008988898,-0.004588727,-0.0146235805,-0.36391866,0.13407528,-9.672575,0.7284641,47.689575,-0.41173652,-2.277217,-3.600861,-0.3316456,-0.06304224,-0.04877531,26.75,27.625,26.75,30.1875,31.5625,32.125
0.034052335,-0.6485662,0.044961665,-0.27340662,0.014282159,0.04452976,-0.13695623,-0.38119224,-0.34851718,0.059785943,-3.0782423,0.6246636,-0.0006696943,-0.015146115,-0.0018778634,-0.0004086902,0.0057796594,-0.002022074,0.007246464,0.47768733,-1.4252281,1.9572934,-2.1006734,-1.5708069,2.4525433,-0.007931895,0.032120675,-0.038058277,0.010402743,-0.004271874,-0.015146806,-0.24899697,0.076614454,-9.557653,0.7396539,47.66987,-0.41206136,-2.298275,-3.5012255,-0.31873986,-0.06987958,-0.049305115,26.75,27.625,26.75,30.1875,31.5625,32.125
0.036052205,-0.79649293,0.25181472,-0.19646238,0.032291494,0.03377513,-0.14480641,-0.38123325,-0.3485476,0.059829604,-3.078303,0.62457997,-0.00055638346,-0.01587158,-0.0022603676,-0.0004671549,0.005696326,-0.002763485,0.0061898287,0.47771117,-1.4252155,1.9571737,-2.1006496,-1.5708188,2.4525073,-0.00819394,0.034275573,-0.040614363,0.0114226155,-0.0038582871,-0.014352012,-0.22984336,0.076614454,-9.500193,0.85155696,47.690468,-0.44337764,-2.2483902,-3.408481,-0.32958347,-0.0818737,-0.040148795,26.75,27.625,26.75,30.1875,31.5625,32.125
0.038052175,-0.8801213,-0.23068966,-0.23895828,0.044536192,0.018144358,-0.14144783,-0.38126943,-0.34853047,0.059815828,-3.0782366,0.6246634,-0.0005906968,-0.01723468,-0.0026361675,3.5752535e-05,0.004995423,-0.0017758089,0.0052373116,0.47766295,-1.4251311,1.9571007,-2.1006134,-1.5708431,2.4525197,-0.008892313,0.035751887,-0.043497097,0.011628635,-0.003696358,-0.014096391,-0.24899697,-0.019153614,-9.653421,0.83365434,47.66808,-0.4415877,-2.204908,-3.3911037,-0.30890036,-0.12058925,-0.068212226,26.75,27.625,26.75,30.1875,31.5625,32.125
0.04005221,-0.53534764,0.01283473,-0.3526525,0.034948133,0.024404144,-0.15796234,-0.3813081,-0.34857723,0.059842307,-3.0783162,0.6246026,-0.0005536483,-0.018808162,-0.002753859,0.0004448761,0.004812262,-0.00029576305,0.0035552792,0.47768664,-1.4250708,1.9569687,-2.1006014,-1.5708069,2.4524953,-0.009800621,0.03732047,-0.04615294,0.011319976,-0.0042191343,-0.013320151,-0.13407528,0.038307227,-9.5385,0.82022345,47.681515,-0.41854668,-2.276268,-3.4187002,-0.31863493,-0.10958478,-0.07306971,26.75,27.625,26.75,30.1875,31.5625,32.125
0.042052127,-1.0476382,-0.1421318,-0.14716183,0.021378212,0.0068394057,-0.16149703,-0.38134104,-0.3485735,0.059834972,-3.0783105,0.6246592,-0.0006309975,-0.02028044,-0.0027959587,0.0012046833,0.0050258064,0.0014168764,0.0028502417,0.47762656,-1.4249984,1.9568948,-2.1005652,-1.5707716,2.4524713,-0.010448212,0.03822714,-0.049057886,0.01189924,-0.0052015334,-0.013258984,-0.038307227,0.05746084,-9.481039,0.7486078,47.691364,-0.4301864,-2.1608162,-3.3010876,-0.31981492,-0.13285413,-0.07889786,26.75,27.625,26.75,30.1875,31.5625,32.125
0.04405214,-0.526929,-0.84040767,-0.24625835,0.022739232,0.023849312,-0.1664529,-0.38137636,-0.34856752,0.059835877,-3.0782657,0.62461233,-0.0006144452,-0.021076761,-0.0027526878,0.0011863181,0.0067596114,0.0015290161,0.0028981105,0.4776145,-1.4249259,1.9567989,-2.1005166,-1.5708197,2.4524357,-0.010226962,0.040225293,-0.05157444,0.013120154,-0.006795706,-0.013080709,-0.095768064,0.05746084,-9.442732,0.75084364,47.690468,-0.4428074,-2.1244884,-3.424953,-0.29019672,-0.12683618,-0.10506146,26.75,27.625,26.75,30.1875,31.5625,32.125
0.046052024,-0.58908314,-0.4104962,-0.20678693,-0.00033539132,0.029746085,-0.18481396,-0.3814402,-0.34856883,0.059845295,-3.0782487,0.62472373,-0.00057227403,-0.022379907,-0.0021511551,0.00039868365,0.008936216,0.0007536505,0.0025974135,0.47756606,-1.4248409,1.9566778,-2.1005046,-1.5708326,2.452459,-0.011473712,0.04378363,-0.0539524,0.0136338435,-0.008376745,-0.014021912,-0.076614454,0.17238252,-9.481039,0.83365434,47.71286,-0.4576979,-2.2206092,-3.3459692,-0.31791008,-0.108088806,-0.118323445,26.75,27.625,26.75,30.1875,31.5625,32.125
0.048052046,-0.86783767,-1.1296471,-0.42107508,0.00598075,0.026034748,-0.1799743,-0.38146314,-0.3485697,0.059830565,-3.0782008,0.62461776,-0.0005832144,-0.023684299,-0.0017552357,0.001531618,0.009855837,0.0030684099,0.0024510112,0.47757787,-1.4247451,1.9565939,-2.1004684,-1.5708812,2.452411,-0.012159901,0.043307513,-0.05626635,0.0147969555,-0.010260729,-0.014556351,-0.11492168,0.30645782,-9.481039,0.76874626,47.68599,-0.4206553,-2.164379,-3.4230137,-0.32644695,-0.13347182,-0.12516294,26.75,27.625,26.75,30.1875,31.5625,32.125
0.0500519,-0.6910058,-1.4918193,-0.37073162,-0.006858934,0.038245957,-0.1950942,-0.38151786,-0.34858662,0.059838153,-3.0782344,0.624586,-0.000591875,-0.024478704,-0.0016698929,0.001847202,0.0103864,0.0038936422,0.002803997,0.4775418,-1.4246492,1.9564618,-2.1004446,-1.5708574,2.4523509,-0.01248983,0.043976806,-0.057852995,0.015228156,-0.011113998,-0.015236739,-0.13407528,0.4405331,-9.576807,0.7978386,47.707485,-0.507904,-1.9487121,-3.3975997,-0.3240381,-0.106324285,-0.1469754,26.75,27.625,26.75,30.1875,31.5625,32.125
0.05205193,-1.3244704,-1.667388,-0.33713883,-0.027943963,0.02512512,-0.18341172,-0.38155445,-0.34860337,0.059854798,-3.0782416,0.6245687,-0.00052425865,-0.026577787,-0.0018043071,0.0022285038,0.011099782,0.0054229167,0.0023954979,0.4775534,-1.4246001,1.956365,-2.1004326,-1.5708817,2.4523509,-0.013320949,0.04685686,-0.062085953,0.01555528,-0.012458515,-0.015654381,-0.22984336,0.45968673,-9.634268,0.7396539,47.678825,-0.5223876,-2.074515,-3.4492545,-0.32249328,-0.07932758,-0.15045133,26.75,27.625,26.75,30.1875,31.5625,32.125
0.0540522,-0.6196263,-1.7146785,-0.39174938,-0.036415204,0.04375093,-0.17994308,-0.3816131,-0.34859136,0.059861407,-3.0781903,0.6246148,-0.0005450178,-0.027116993,-0.0016778028,0.0012237771,0.012225638,0.0038479317,0.0029273229,0.47749326,-1.4245034,1.9562205,-2.1003487,-1.5709056,2.452326,-0.0138605125,0.050027773,-0.063431844,0.015646053,-0.0127386665,-0.016723562,-0.22984336,0.49799395,-9.615114,0.784413,47.711964,-0.49927127,-2.1233861,-3.2840824,-0.32334876,-0.08566269,-0.15820044,26.75,27.625,26.75,30.1875,31.5625,32.125
0.0560521,-0.9775263,-2.1118562,-0.36638275,-0.030945966,0.035030786,-0.1635458,-0.38165727,-0.34860098,0.05984793,-3.0781617,0.6245706,-0.00052668893,-0.027649926,-0.0016269671,0.00048817968,0.012860671,0.0019073153,0.0030534202,0.47749296,-1.4243826,1.9561132,-2.1003482,-1.5709418,2.452302,-0.014655524,0.0528965,-0.0652482,0.016606968,-0.012413433,-0.017644033,-0.2681506,0.61291564,-9.634268,0.800085,47.716442,-0.5179925,-2.1881773,-3.5040205,-0.332444,-0.09851526,-0.16758937,26.75,27.625,26.75,30.1875,31.5625,32.125
0.058052003,-1.1144314,-1.9234697,-0.12971497,-0.034043156,0.030453417,-0.16176838,-0.38173214,-0.34861532,0.059893537,-3.0782058,0.62454134,-0.00042454444,-0.029506017,-0.0024863274,0.0027323053,0.01069518,0.0060126446,0.0036891252,0.4774569,-1.424335,1.955944,-2.1003006,-1.5709537,2.4522421,-0.014860436,0.051719796,-0.06913105,0.017024152,-0.012383373,-0.018483957,-0.2681506,0.5363012,-9.5385,0.83589023,47.690468,-0.5058901,-2.0496333,-3.4388251,-0.31545836,-0.088922955,-0.18030441,26.75,27.625,26.75,30.1875,31.5625,32.125
0.06005201,-1.0246685,-1.5295666,-0.08199645,-0.034093317,0.037914068,-0.16945103,-0.38176763,-0.34862465,0.059878115,-3.0781672,0.62455136,-0.00052465295,-0.031169917,-0.0031921295,0.0026641884,0.010514361,0.0063813417,0.0045832987,0.47743282,-1.424202,1.9558109,-2.1002285,-1.5709418,2.4522293,-0.01513267,0.05542978,-0.07320585,0.016978014,-0.012403214,-0.019646801,-0.30645782,0.53630114,-9.5385,0.75755644,47.687782,-0.49605268,-2.0365388,-3.2528718,-0.31847483,-0.12660387,-0.18787006,26.75,27.625,26.75,30.1875,31.5625,32.125
0.062051963,-1.03441,-1.4332607,-0.10420315,-0.019736173,0.038639545,-0.1668633,-0.38186124,-0.34863985,0.059897494,-3.0781796,0.62457156,-0.00040247472,-0.03132111,-0.0030189757,0.0016171961,0.012749175,0.005590757,0.0059636123,0.47739705,-1.4240813,1.9556316,-2.1002405,-1.5709785,2.4522047,-0.0145237325,0.058080442,-0.07376106,0.016616046,-0.014026025,-0.020414881,-0.30645782,0.5554548,-9.423578,0.78217715,47.68062,-0.5483831,-2.098312,-3.4847498,-0.3019973,-0.10013273,-0.20363086,26.75,27.625,26.75,30.1875,31.5625,32.125
0.0640523,-0.8960689,-1.3286512,0.018798862,-0.020346232,0.05106158,-0.1684484,-0.3819171,-0.34865755,0.059906647,-3.0782046,0.6244803,-0.0003595397,-0.03350585,-0.0036025054,0.002714554,0.012229976,0.0085242065,0.0062436652,0.47738484,-1.423985,1.9554981,-2.1002285,-1.5709909,2.4521325,-0.014923806,0.05972732,-0.07812517,0.016491815,-0.014922265,-0.021091038,-0.17238252,0.4405331,-9.385271,0.800085,47.67614,-0.505193,-2.1107082,-3.2642303,-0.2995423,-0.09868452,-0.20753343,26.75,27.625,26.75,30.1875,31.5625,32.125
0.066052824,-1.2238002,-1.4179118,0.14789395,-0.007243032,0.036458027,-0.16513604,-0.38198054,-0.34867498,0.059909232,-3.0782118,0.62442327,-0.0003077305,-0.034568302,-0.0035423823,0.0027729217,0.013334478,0.009010452,0.0077663083,0.47737283,-1.4238645,1.9553546,-2.1002285,-1.5710152,2.452084,-0.015226496,0.06160904,-0.08055511,0.017118571,-0.016131047,-0.022912852,-0.22984336,0.4213795,-9.289502,0.75755644,47.677036,-0.5899825,-2.0509267,-3.2791317,-0.28222632,-0.08564292,-0.21284798,26.75,27.625,26.75,30.1875,31.5625,32.125
0.06805213,-1.1604629,-1.2127501,0.18510221,-0.007008041,0.02861828,-0.16105188,-0.38205996,-0.348683,0.059919864,-3.0781746,0.62443453,-0.00028599665,-0.03567062,-0.0043263244,0.0030085,0.012325909,0.009605943,0.008769722,0.4773368,-1.42372,1.955149,-2.1001565,-1.571051,2.45206,-0.015249314,0.06365051,-0.08338496,0.016910579,-0.015516153,-0.023938416,-0.21068975,0.38307226,-9.232041,0.80679786,47.689575,-0.5545442,-2.0481393,-3.2385907,-0.24962008,-0.08550051,-0.23397502,26.75,27.625,26.75,30.1875,31.5625,32.125
0.07005201,-0.5330799,-1.3298811,0.20295787,0.0012203723,0.028169326,-0.15995182,-0.3821407,-0.34870952,0.059952922,-3.0782077,0.62440157,-0.00017662895,-0.036602702,-0.0049742116,0.003233798,0.0114347,0.009465289,0.00962406,0.4773247,-1.4236236,1.9549578,-2.1001322,-1.5710748,2.4520233,-0.015511666,0.06558065,-0.08625731,0.017563911,-0.014663475,-0.025056297,-0.17238252,0.30645782,-9.193734,0.7777002,47.67166,-0.57014316,-2.073785,-3.2269418,-0.24554574,-0.074995026,-0.2400904,26.75,27.625,26.75,30.1875,31.5625,32.125
0.072052,-0.49609613,-0.7978788,0.3498898,0.0051652314,0.014076775,-0.16069688,-0.38219288,-0.34869194,0.059921145,-3.0781558,0.62439054,-0.00025186513,-0.037575033,-0.0056083724,0.0031960397,0.011108554,0.009081943,0.010302746,0.47725266,-1.4234791,1.9548601,-2.1001084,-1.5710863,2.451951,-0.015577684,0.06824409,-0.08936635,0.018196847,-0.014204905,-0.02579908,-0.28730422,0.22984336,-9.174581,0.77545905,47.683304,-0.54216105,-2.044283,-3.0947835,-0.23176746,-0.086243555,-0.2489365,26.75,27.625,26.75,30.1875,31.5625,32.125
0.07405608,-0.56897044,-0.30276033,0.39073092,0.00784547,0.014362602,-0.16053618,-0.3823014,-0.34873465,0.059958104,-3.0782106,0.6244204,-0.00013573066,-0.03907121,-0.0057812445,0.0042168805,0.01084484,0.0109900795,0.010940517,0.47722846,-1.4233352,1.9546083,-2.1000955,-1.5710868,2.4519386,-0.016228838,0.06876379,-0.09247676,0.018972877,-0.014850137,-0.027086617,-0.15322891,0.24899697,-9.040505,0.8314132,47.685097,-0.57213306,-1.9090493,-3.146581,-0.21361737,-0.08827236,-0.24803251,26.75,27.625,26.75,30.1875,31.5625,32.125
0.07605212,-0.41166273,-0.26290515,0.3361503,0.0048199454,0.016664175,-0.16200149,-0.38237765,-0.3487302,0.059969887,-3.0781686,0.6242947,-5.5241686e-05,-0.038885772,-0.005876015,0.0017873733,0.013582911,0.0058932756,0.01260763,0.47720453,-1.4232128,1.9544281,-2.100036,-1.5711707,2.4518418,-0.0158302,0.07510245,-0.09450742,0.020446872,-0.014942908,-0.02835317,-0.19153613,0.28730422,-9.097966,0.8179876,47.674347,-0.59803873,-2.1765018,-3.1100333,-0.20138788,-0.09337184,-0.26249346,26.75,27.625,26.75,30.1875,31.5625,32.125
0.07805231,-0.7791806,-0.38062093,0.2532939,0.011360939,0.014394791,-0.15581544,-0.38245964,-0.34875473,0.059967652,-3.0781677,0.624256,-4.1929907e-05,-0.040301424,-0.0060321754,0.0042783106,0.011825009,0.009637411,0.012890602,0.47718027,-1.4230337,1.954223,-2.100011,-1.5711831,2.4517937,-0.016748887,0.07212986,-0.09715289,0.02193087,-0.01510384,-0.029553998,-0.15322891,0.2681506,-9.078813,0.7777002,47.652847,-0.61881876,-1.9343963,-3.0758703,-0.1964762,-0.080056176,-0.26140156,26.75,27.625,26.75,30.1875,31.5625,32.125
0.08005234,-1.0782487,-0.5916587,0.2528271,0.012583818,0.0113604,-0.1576652,-0.38252112,-0.34875983,0.05995935,-3.0781264,0.6242656,-0.0001177964,-0.040593978,-0.006510979,0.00355428,0.012196397,0.007710283,0.014183045,0.47713244,-1.4228766,1.9540433,-2.0999267,-1.5711831,2.4517572,-0.01652327,0.07526771,-0.09929578,0.022815034,-0.014553604,-0.03061964,-0.15322891,0.22984336,-9.251195,0.8291774,47.677036,-0.6151106,-1.977307,-3.127467,-0.1938647,-0.09782584,-0.26669264,26.75,27.625,26.75,30.1875,31.5625,32.125
0.082051896,-0.66620207,-0.6604516,0.15639304,-0.001074904,0.022455892,-0.15397486,-0.38261858,-0.3487881,0.059974354,-3.0781586,0.6241948,-2.5190464e-05,-0.04029704,-0.005966681,0.0010907248,0.015001858,0.0026516523,0.014936762,0.47710806,-1.4227183,1.9538282,-2.0999267,-1.5712069,2.4516847,-0.017104989,0.08049886,-0.09992256,0.023991425,-0.014720329,-0.031954683,-0.095768064,0.28730422,-9.289502,0.7597976,47.675243,-0.6090885,-2.185455,-3.1471894,-0.18595576,-0.09177554,-0.25834018,26.75,27.625,26.75,30.1875,31.5625,32.125
0.08405193,-0.5442245,-0.69834185,0.23014818,-0.008657776,0.026918385,-0.17108531,-0.38268766,-0.34877282,0.059950966,-3.0780673,0.62419546,-8.043323e-05,-0.04275596,-0.0068855663,0.0036859005,0.012933498,0.0075507783,0.015173948,0.477048,-1.4225385,1.9536599,-2.0998547,-1.5712546,2.4516368,-0.0174613,0.079671405,-0.105073005,0.024666224,-0.015145199,-0.032543804,-0.05746084,0.2681506,-9.251195,0.77545905,47.691364,-0.5575186,-2.0117607,-3.0808415,-0.18152043,-0.07954202,-0.2691277,26.75,27.625,26.75,30.1875,31.5625,32.125
0.086051896,-0.6029227,-1.1557393,0.028152058,0.002493084,0.02331775,-0.15456295,-0.38276935,-0.34881303,0.05998807,-3.0781317,0.62407225,-3.580303e-05,-0.041218262,-0.006199125,0.0012345073,0.015489597,0.0024855223,0.016237985,0.47703615,-1.4224176,1.9534205,-2.0997827,-1.5712427,2.45154,-0.017298644,0.08249015,-0.10284418,0.025291476,-0.015082963,-0.03344682,-0.17238252,0.24899697,-9.289502,0.842603,47.73077,-0.61840266,-2.039899,-3.2907104,-0.1716294,-0.10602282,-0.2961836,26.75,27.625,26.75,30.1875,31.5625,32.125
0.088054314,-0.5883441,-0.53878576,0.25740266,-0.011088595,0.019718029,-0.16751647,-0.3828483,-0.348796,0.059955917,-3.078027,0.6240322,-4.1074836e-05,-0.04394275,-0.0070866905,0.0022807969,0.01417643,0.0049267444,0.0151784355,0.47698778,-1.4222125,1.9532512,-2.0997465,-1.5713271,2.4514802,-0.018253036,0.08543209,-0.10862873,0.02535889,-0.015052037,-0.03333734,-0.19153613,0.24899697,-9.232041,0.84708,47.690468,-0.63471156,-2.0765924,-3.183384,-0.15467486,-0.0957675,-0.30877873,26.75,27.625,26.75,30.1875,31.5625,32.125
0.09005247,-0.45552877,-0.68041134,0.1209753,-0.010853978,0.027680427,-0.16598026,-0.38295108,-0.3488316,0.059989195,-3.078076,0.62396437,5.490634e-05,-0.04312986,-0.0065395706,0.00033660006,0.016366698,0.001311221,0.016673042,0.4769637,-1.422067,1.9530009,-2.0997107,-1.571339,2.4514077,-0.018287254,0.08824035,-0.10746348,0.025602076,-0.015333537,-0.034866843,-0.15322891,0.28730422,-9.346964,0.7911258,47.67614,-0.6288932,-2.1611876,-3.356761,-0.13362452,-0.08042221,-0.31516573,26.75,27.625,26.75,30.1875,31.5625,32.125
0.09205226,-0.42295182,-0.786073,0.015107358,-0.008198883,0.033872813,-0.16364294,-0.38302872,-0.3488386,0.059967082,-3.07803,0.6238968,2.9539018e-05,-0.043970197,-0.00660595,0.0008903956,0.016468838,0.0019749943,0.01784886,0.4769276,-1.4218628,1.9528097,-2.0996745,-1.5713748,2.4513354,-0.01867951,0.08879044,-0.109614454,0.02665862,-0.015734069,-0.036432423,-0.17238252,0.28730422,-9.346964,0.76874626,47.66539,-0.5706194,-2.024198,-3.3713012,-0.10432431,-0.1152662,-0.3212252,26.75,27.625,26.75,30.1875,31.5625,32.125
0.094052464,-0.7301967,-1.0019686,-0.09225801,-0.0034706546,0.02347233,-0.15584977,-0.38313594,-0.34885636,0.059979983,-3.0780113,0.62383497,8.925789e-05,-0.044003084,-0.006549363,0.00040964765,0.017004196,3.2847907e-05,0.016970212,0.47689137,-1.4216701,1.952546,-2.099614,-1.5714229,2.4512632,-0.019074738,0.0904409,-0.110749416,0.028110892,-0.015316861,-0.03594951,-0.17238252,0.2681506,-9.32781,0.79560274,47.7245,-0.6315807,-2.0323362,-3.43099,-0.09392827,-0.12410014,-0.34520346,26.75,27.625,26.75,30.1875,31.5625,32.125
0.09605232,-0.6259666,-1.0638046,0.15975559,-0.0042310753,0.023862613,-0.1575248,-0.3832278,-0.34886158,0.05999303,-3.0779927,0.6237925,9.711554e-05,-0.043815125,-0.0062482203,-0.0003148575,0.019103656,-0.002327741,0.016620778,0.47683164,-1.4215132,1.9523176,-2.0995295,-1.5714473,2.4511795,-0.018923907,0.0925254,-0.11199615,0.030335482,-0.016096897,-0.035446938,-0.19153613,0.2681506,-9.385271,0.8537928,47.675243,-0.6659908,-2.0489974,-3.5045478,-0.08531548,-0.10252547,-0.36285925,26.75,27.625,26.75,30.1875,31.5625,32.125
0.098051675,-0.7572392,-1.1276306,-0.16294841,0.0010790395,0.0140697025,-0.15054123,-0.3833091,-0.34889716,0.059996113,-3.0779939,0.623753,8.2000515e-05,-0.04551632,-0.00700334,0.0004766494,0.018153993,-0.0012527088,0.017999507,0.47681937,-1.4213203,1.9520763,-2.0994694,-1.5714468,2.4511425,-0.01937088,0.094625115,-0.11643919,0.03128489,-0.015755594,-0.037270844,-0.095768064,0.22984336,-9.3661175,0.8851263,47.692257,-0.6543897,-2.0264816,-3.431381,-0.093523845,-0.10626789,-0.3546011,26.75,27.625,26.75,30.1875,31.5625,32.125
0.100052744,-1.0604119,-1.3512143,-0.2218857,0.008436574,0.004246847,-0.15208681,-0.38340184,-0.348905,0.0599919,-3.0779805,0.6236725,0.00011475026,-0.04517628,-0.006274632,-0.00045078984,0.019835578,-0.0029190122,0.019511364,0.47677118,-1.42114,1.9518741,-2.0994456,-1.571483,2.451046,-0.01987036,0.09558064,-0.115512714,0.031653885,-0.016483882,-0.039281044,-0.019153614,0.2681506,-9.32781,0.7911258,47.66987,-0.64955795,-1.9345307,-3.6800418,-0.060649723,-0.11364704,-0.35516346,26.75,27.625,26.75,30.1875,31.5625,32.125
0.102051675,-0.46056575,-1.1200223,-0.2158079,-0.0072389096,0.02016345,-0.16334982,-0.38349286,-0.34891662,0.059990335,-3.0779405,0.6236235,7.8077464e-05,-0.04692536,-0.0074220076,0.0009964741,0.01808092,-0.0011559479,0.022309894,0.47672328,-1.4209352,1.9516214,-2.0993488,-1.5715069,2.4509728,-0.019919619,0.09687148,-0.12064765,0.033119373,-0.015745915,-0.042127173,-0.05746084,0.24899697,-9.346964,0.7642693,47.677036,-0.66524637,-1.8933074,-3.5252259,-0.070790745,-0.12017311,-0.33504754,26.75,27.625,26.75,30.1875,31.5625,32.125
0.10405174,-0.8288019,-1.1927996,-0.22315913,7.4559684e-05,0.014759013,-0.15479162,-0.38359246,-0.34892356,0.059978526,-3.077885,0.62355363,6.512395e-05,-0.04744898,-0.007468579,-0.00073138165,0.020412266,-0.0042658527,0.024342705,0.4766752,-1.420705,1.9513687,-2.0992768,-1.5715555,2.4508884,-0.019893233,0.102379866,-0.12323036,0.034024317,-0.0163979,-0.044129465,-0.019153614,0.2873042,-9.3661175,0.784413,47.689575,-0.6398579,-1.9993358,-3.541613,-0.052494872,-0.10959357,-0.32154265,26.75,27.625,26.75,30.1875,31.5625,32.125
0.10605203,-0.82761,-0.90192026,-0.21525422,0.000876678,0.012102629,-0.15503863,-0.3836879,-0.34894434,0.060004078,-3.077877,0.6234376,0.000154755,-0.049357753,-0.008030604,0.002192119,0.018199585,0.0006061521,0.022518467,0.47666296,-1.4205499,1.9511164,-2.0992048,-1.5716156,2.450805,-0.020470936,0.09962079,-0.1270431,0.0352514,-0.01667081,-0.042881574,-0.11492168,0.3256114,-9.404425,0.82022345,47.699425,-0.66981184,-1.8895389,-3.4990296,-0.05881235,-0.1358758,-0.3433796,26.75,27.625,26.75,30.1875,31.5625,32.125
0.10805515,-0.46753,-0.7213921,-0.16367292,-0.0049843523,0.027004065,-0.1659173,-0.38377073,-0.34895366,0.059986506,-3.0778477,0.6233519,6.438407e-05,-0.04930992,-0.008305776,0.0003174311,0.01990233,-0.0032255985,0.025518851,0.47660315,-1.420332,1.950888,-2.0991209,-1.5716156,2.4506955,-0.020088574,0.104745574,-0.12884293,0.03610788,-0.016433436,-0.045497406,-0.1340753,0.2681506,-9.500193,0.8851263,47.703903,-0.67537785,-1.9503591,-3.5403416,-0.04689142,-0.12386857,-0.35132387,26.75,27.625,26.75,30.1875,31.5625,32.125
0.11005203,-0.6892062,-0.8316333,-0.3519311,-0.013820039,0.023815857,-0.15823957,-0.3838874,-0.34898284,0.060009874,-3.0778713,0.62329745,0.00011724633,-0.050482642,-0.008511739,0.0019430706,0.019771151,-0.000785604,0.028536348,0.47655508,-1.42014,1.950601,-2.0990598,-1.5716275,2.4506106,-0.02014189,0.10382757,-0.13192533,0.037879217,-0.01743996,-0.04856557,-0.076614454,0.3256114,-9.557653,0.79560274,47.689575,-0.7458268,-1.8375727,-3.5220773,-0.041528672,-0.13251847,-0.35218832,26.75,27.625,26.75,30.1875,31.5625,32.125
0.112052105,-0.6756991,-1.5988021,-0.5199433,-0.008930428,0.025629198,-0.15227698,-0.38398296,-0.34899032,0.060001183,-3.0778153,0.62314993,0.00010077628,-0.05073441,-0.008243651,0.0014944406,0.020881608,-0.0032220962,0.030077422,0.4765189,-1.419911,1.9503368,-2.0989635,-1.5716871,2.4504898,-0.020924691,0.10593973,-0.13392031,0.04043,-0.01731267,-0.050887883,-0.17238252,0.2681506,-9.557653,0.8291774,47.66808,-0.7152716,-1.7668891,-3.5188756,-0.054078937,-0.15435122,-0.33148247,26.75,27.625,26.75,30.1875,31.5625,32.125
0.114051715,-0.6264383,-1.2093747,-0.27664578,-0.02739579,0.0321843,-0.16014193,-0.3840736,-0.34900132,0.0599767,-3.0777643,0.62304157,2.2294927e-05,-0.0524344,-0.008823125,0.0019360656,0.020827597,-0.0011521268,0.032252774,0.47647092,-1.4196581,1.9500841,-2.09888,-1.5717119,2.4503808,-0.020862237,0.10817902,-0.13736959,0.039774753,-0.018229704,-0.052995067,-0.095768064,0.36391866,-9.615114,0.7597976,47.687782,-0.7650924,-1.8231218,-3.5043511,-0.05995997,-0.1407574,-0.29285264,26.75,27.625,26.75,30.1875,31.5625,32.125
0.116051674,-0.72832936,-1.3708869,-0.47190621,-0.033601385,0.033559892,-0.16084099,-0.38420236,-0.34901685,0.060020983,-3.0777795,0.622966,0.00014159246,-0.053821098,-0.0094967615,0.0022989158,0.020659653,0.00019253565,0.03504995,0.47641107,-1.4195012,1.9497842,-2.0987961,-1.57176,2.450272,-0.020628521,0.11040667,-0.14073241,0.039633155,-0.018704254,-0.055556525,-0.11492168,0.4213795,-9.691729,0.82694155,47.63673,-0.7641703,-1.7416316,-3.4775684,-0.027258722,-0.14830993,-0.2568961,26.75,27.625,26.75,30.1875,31.5625,32.125
0.11805164,-0.8299108,-1.2481153,-0.38488024,-0.029626505,0.030159023,-0.15962,-0.38431343,-0.3490478,0.060014114,-3.0777338,0.6228975,0.000115405914,-0.055477157,-0.010199605,0.0029221468,0.019911958,0.00061527337,0.037218906,0.47638673,-1.419224,1.9494604,-2.0986998,-1.5717958,2.450211,-0.021197356,0.112931244,-0.14539947,0.041049775,-0.018245794,-0.058292095,-0.17238252,0.36391866,-9.519346,0.90750587,47.690468,-0.7633984,-1.7791297,-3.458385,-0.031588003,-0.152248,-0.21099952,26.75,27.625,26.75,30.1875,31.5625,32.125
0.12005614,-0.37851098,-1.2267556,-0.4848954,-0.014901385,0.0316501,-0.16635153,-0.3843892,-0.3490715,0.059992947,-3.0777383,0.622589,6.4230364e-05,-0.055855665,-0.010113724,0.0011573044,0.022026274,-0.0024429206,0.039378528,0.47637463,-1.4189943,1.949232,-2.0986402,-1.5718201,2.450006,-0.021382224,0.117918365,-0.14722691,0.041574676,-0.018730884,-0.06063278,-0.11492168,0.34476504,-9.615114,0.842603,47.694054,-0.77535486,-1.7714846,-3.3118641,-0.010811891,-0.15851046,-0.18144979,26.75,27.625,26.75,30.1875,31.5625,32.125
0.12205198,-0.70620096,-1.0078382,-0.6258358,-0.013176076,0.020249305,-0.14978829,-0.384556,-0.34908688,0.060038406,-3.0777338,0.6225866,0.00026342945,-0.057036165,-0.010675571,0.0025251054,0.021406392,-0.00068218133,0.0409537,0.47630277,-1.4187901,1.9488829,-2.098591,-1.5719041,2.4499335,-0.021293007,0.11796649,-0.15080783,0.04325113,-0.018987432,-0.062118534,-0.1340753,0.34476504,-9.557653,0.79560274,47.681515,-0.8839255,-1.880389,-3.2021747,-0.020694047,-0.14821592,-0.13177969,26.75,27.625,26.75,30.1875,31.5625,32.125
0.1240524,-1.0041497,-0.87287873,-0.6275936,-0.018488288,0.017188877,-0.15803619,-0.38464466,-0.3491195,0.06003791,-3.077717,0.6224283,0.00016924986,-0.05708639,-0.010742313,-4.2197214e-05,0.02424686,-0.0050730244,0.042704795,0.4762789,-1.4185472,1.948573,-2.0984476,-1.5719041,2.4498131,-0.020883182,0.12455334,-0.15261875,0.04367941,-0.019507822,-0.06345533,-0.15322891,0.36391866,-9.557653,0.8291774,47.670765,-0.8648747,-2.02006,-3.3372722,-0.008739253,-0.1591562,-0.09182821,26.75,27.625,26.75,30.1875,31.5625,32.125
0.12605222,-0.7164518,-1.4775766,-0.5450364,-0.016133064,0.028653184,-0.15566728,-0.3847673,-0.34913635,0.060054123,-3.077696,0.6222901,0.0002559778,-0.058685668,-0.011196843,0.0013611454,0.02322685,-0.0019894638,0.041368823,0.47624278,-1.4183313,1.9482721,-2.0983756,-1.5719765,2.4496937,-0.021207245,0.12434939,-0.15561032,0.043664858,-0.020020284,-0.062441085,-0.1340753,0.5363012,-9.615114,0.842603,47.70032,-0.8530653,-1.9933555,-3.3521018,0.0064239404,-0.1813903,-0.10941473,26.75,27.625,26.75,30.1875,31.5625,32.125
0.12805219,-1.0350394,-1.8142879,-0.38394287,-0.030258924,0.032194484,-0.15330738,-0.38489404,-0.34917504,0.06006304,-3.0777373,0.622125,0.0002678605,-0.058778454,-0.010952501,0.0009155612,0.024487127,-0.00484616,0.040945645,0.47619444,-1.4180783,1.9479479,-2.098315,-1.5719761,2.4495373,-0.02183886,0.12647295,-0.15777434,0.046820045,-0.019828347,-0.06264944,-0.22984336,0.5363012,-9.557653,0.7911258,47.67345,-0.8595917,-1.9586222,-3.217518,0.00023887609,-0.17454463,-0.08891229,26.75,27.625,26.75,30.1875,31.5625,32.125
0.13005294,-0.9130469,-2.0128503,-0.34667587,-0.034873616,0.038402475,-0.16065092,-0.38501617,-0.34920505,0.060089935,-3.0777307,0.6220462,0.00031432306,-0.059553526,-0.0115985675,0.0016597247,0.024283705,-0.0050935163,0.040849093,0.47615868,-1.4178616,1.9476131,-2.0982063,-1.5720123,2.4494534,-0.021588901,0.12781249,-0.16163595,0.04946519,-0.019536072,-0.06230223,-0.22984336,0.47884035,-9.5385,0.8985519,47.71286,-0.964753,-1.8890374,-3.3984685,-0.011289684,-0.1900346,-0.06194048,26.75,27.625,26.75,30.1875,31.5625,32.125
0.13205196,-0.8584076,-1.916828,-0.076249704,-0.04063831,0.036609698,-0.15092607,-0.38514355,-0.34920862,0.060089372,-3.0776873,0.62190413,0.00032518205,-0.058615766,-0.011259842,0.0002952981,0.0266218,-0.009258092,0.0379305,0.47608683,-1.4176086,1.9473022,-2.0981095,-1.5720724,2.4492986,-0.021210732,0.13027693,-0.1619781,0.052116223,-0.019700713,-0.05900431,-0.22984336,0.45968673,-9.519346,0.7530795,47.66987,-1.0950958,-1.8929279,-3.4621658,-0.030100422,-0.20814043,-0.114314094,26.75,27.625,26.75,30.1875,31.5625,32.125
0.13405201,-0.70628285,-1.274384,0.21162488,-0.027753275,0.028104011,-0.15501645,-0.3852613,-0.34923854,0.06008199,-3.0776396,0.6217982,0.00031235733,-0.059017878,-0.011140478,0.00014053832,0.027798217,-0.010658714,0.03643355,0.4760627,-1.4173195,1.9469656,-2.0980132,-1.5721205,2.4492147,-0.021522017,0.13207032,-0.1642243,0.054353043,-0.020106371,-0.057815805,-0.24899697,0.36391866,-9.3661175,0.83813137,47.684196,-0.9802608,-1.7168278,-3.4155965,-0.061619215,-0.21202016,-0.11527029,26.75,27.625,26.75,30.1875,31.5625,32.125
0.13605216,-0.35115287,-0.7550868,0.16064815,-3.1081807e-05,0.021572683,-0.15796614,-0.3854009,-0.3492952,0.06011915,-3.0777085,0.6216204,0.00043492287,-0.059761316,-0.010904698,-0.0005730361,0.02920325,-0.01250749,0.036065273,0.47605038,-1.4170903,1.9466065,-2.0979645,-1.5721449,2.4490829,-0.022356,0.13526535,-0.16663009,0.05585004,-0.020505665,-0.058280855,-0.095768064,0.28730422,-9.232041,0.86498255,47.684196,-1.1059228,-1.8240635,-3.4158306,-0.06786784,-0.19756551,-0.10997237,26.75,27.625,26.75,30.1875,31.5625,32.125
0.13805206,-0.57074815,-0.46203429,0.4304964,0.014224487,0.00782948,-0.15311596,-0.38553655,-0.3493122,0.06011419,-3.0776415,0.6215125,0.00044341144,-0.059755318,-0.010640324,-0.002281037,0.031372532,-0.016575456,0.03182181,0.47600234,-1.4167886,1.946247,-2.0978563,-1.5722169,2.4489763,-0.022767942,0.13972096,-0.16829534,0.057670686,-0.020569721,-0.054447033,-0.019153614,0.24899697,-9.059659,0.8918391,47.698532,-1.0924047,-1.8077314,-3.5076578,-0.0915264,-0.20893118,-0.12397168,26.75,27.625,26.75,30.1875,31.5625,32.125
0.14005183,-0.42973495,-0.054486826,0.61268497,0.035306547,-0.0013977776,-0.15791619,-0.3856511,-0.3493309,0.06012454,-3.0776381,0.62141645,0.00039879422,-0.060778942,-0.011150249,-0.00012282835,0.030056918,-0.014084918,0.029391792,0.47593033,-1.4165611,1.9459347,-2.0977356,-1.5722169,2.448845,-0.022807244,0.13780694,-0.1716002,0.060075335,-0.020544749,-0.05205483,-0.019153614,0.21068975,-8.963891,0.8605109,47.691364,-1.0705004,-1.8875233,-3.4493403,-0.09319634,-0.24985904,-0.167424,26.75,27.625,26.75,30.125,31.5625,32.125
0.14205176,-0.42920876,0.17856412,0.51848996,0.04994592,-0.022659484,-0.15758525,-0.38579667,-0.34935984,0.060115244,-3.0776086,0.6212763,0.00046514912,-0.060865253,-0.011061632,-0.0014094582,0.03200753,-0.01777245,0.029049339,0.47589406,-1.416247,1.945587,-2.0976994,-1.5722884,2.4487252,-0.023006113,0.14187995,-0.17393136,0.06250091,-0.020589625,-0.051909823,-0.05746084,0.1340753,-8.829816,0.83813137,47.661808,-1.1014535,-1.8171537,-3.3954458,-0.13406916,-0.24556045,-0.18277748,26.75,27.625,26.75,30.125,31.5625,32.125
0.14405207,-0.011508421,0.43947044,0.88076365,0.04756616,-0.01567823,-0.15448079,-0.3858979,-0.34935418,0.060103174,-3.0774667,0.62118936,0.00037007564,-0.062349673,-0.010731549,-0.00055069185,0.03270249,-0.017386533,0.027538745,0.47584563,-1.4159708,1.9452509,-2.0974944,-1.5723728,2.4486408,-0.024418594,0.14289723,-0.17771383,0.06523917,-0.021394907,-0.051805228,-0.076614454,0.13407528,-8.6574335,0.85155696,47.693153,-1.0782511,-1.7279965,-3.4847832,-0.17094186,-0.26109678,-0.20389824,26.75,27.625,26.75,30.125,31.5625,32.125
0.14605252,0.2012512,0.4852034,0.83733916,0.042465236,-0.0034990371,-0.15912093,-0.38603294,-0.34938556,0.060122147,-3.0774672,0.62113214,0.00037830975,-0.062252525,-0.01020787,-0.0013402507,0.034438923,-0.019694043,0.026691563,0.47578534,-1.4157178,1.9448923,-2.0973861,-1.5723852,2.448545,-0.024928298,0.14469057,-0.17839807,0.066977136,-0.021880632,-0.051466197,-0.076614454,0.1340753,-8.7532015,0.83813137,47.691364,-1.0938663,-1.6988637,-3.4401932,-0.20466614,-0.2659375,-0.23276725,26.75,27.625,26.75,30.125,31.5625,32.125
0.14805257,-0.6659191,-0.117275946,0.77701,0.0379887,-0.008580894,-0.15552892,-0.38616392,-0.34941575,0.060136456,-3.0774267,0.6210271,0.00037932073,-0.06371444,-0.010914748,-0.0007573476,0.03468994,-0.019147271,0.027189841,0.47574964,-1.4154407,1.9445084,-2.097242,-1.5724334,2.4484491,-0.02469872,0.1473296,-0.1832045,0.06877151,-0.02236385,-0.05173047,0.0,0.1340753,-8.7532015,0.8873621,47.69763,-1.1581255,-1.7882822,-3.4064877,-0.24977309,-0.26495233,-0.24288768,26.75,27.625,26.75,30.125,31.5625,32.125
0.15005244,-0.5323098,-0.1876884,0.6925764,0.018616684,0.013587457,-0.16555083,-0.38627988,-0.34943557,0.060121253,-3.0773597,0.6208776,0.00028088308,-0.0651677,-0.011150695,-0.00027957332,0.03458229,-0.018562827,0.027058821,0.4757014,-1.4151278,1.944148,-2.0970862,-1.5724691,2.4483163,-0.025481738,0.14920186,-0.18673475,0.06985723,-0.022548947,-0.05237782,-0.076614454,0.19153613,-8.810662,0.8672237,47.694946,-1.1211236,-1.6907494,-3.2771587,-0.26232216,-0.27882352,-0.2842697,26.75,27.625,26.75,30.125,31.5625,32.125
0.15205182,-0.23236567,-0.64914083,0.4854585,0.010340662,0.03499936,-0.1619439,-0.38640192,-0.34945187,0.060117513,-3.077284,0.62084234,0.00021136805,-0.065908775,-0.012231646,-0.0009862153,0.034617197,-0.019319087,0.028653545,0.47564176,-1.4148378,1.9437879,-2.0969307,-1.5725054,2.4482446,-0.024437197,0.15331279,-0.18980663,0.06950114,-0.022248277,-0.05292481,-0.076614454,0.2681506,-8.887277,0.8291774,47.693153,-1.227541,-1.8739505,-3.213173,-0.28497428,-0.30577332,-0.2994712,26.75,27.625,26.75,30.125,31.5625,32.125
0.15405187,-1.2940291,-1.2283297,0.053674825,0.002493266,0.022651754,-0.14683612,-0.38652945,-0.34948003,0.060131855,-3.0772378,0.62065893,0.00016989296,-0.067388825,-0.012304872,-0.00045045797,0.034003075,-0.017202262,0.028289443,0.4756054,-1.4145498,1.9433807,-2.09674,-1.572553,2.4480999,-0.025369108,0.1540326,-0.1916621,0.06847092,-0.022683747,-0.05348867,-0.15322891,0.2681506,-9.097966,0.81351066,47.675243,-1.2239401,-1.5597076,-3.2405567,-0.32269928,-0.30609116,-0.32588327,26.75,27.625,26.75,30.125,31.5625,32.125
0.1560525,-1.1694993,-1.7807304,-0.0606606,-0.022231486,0.044002958,-0.1591134,-0.38664198,-0.34949052,0.060106885,-3.0771432,0.6206015,5.7611214e-05,-0.06966942,-0.012064039,-9.5361014e-05,0.033966947,-0.014167721,0.027522828,0.4755448,-1.4142367,1.943045,-2.0965965,-1.5725902,2.4480157,-0.026977405,0.1557001,-0.19396035,0.06638734,-0.024060339,-0.054321837,-0.28730422,0.38307226,-9.270349,0.7732232,47.682407,-1.1433909,-1.6193213,-3.3277836,-0.30006772,-0.29389438,-0.34190005,26.75,27.625,26.75,30.125,31.5625,32.125
0.15805249,-1.2919484,-2.2106857,-0.07627888,-0.04854201,0.062093668,-0.15323296,-0.38678572,-0.34952947,0.060112298,-3.0771143,0.6204991,1.9414021e-05,-0.07080534,-0.012849766,-0.00011661971,0.0333479,-0.013118845,0.027955413,0.47549704,-1.4139115,1.9426259,-2.0964534,-1.5726136,2.447908,-0.026655152,0.1580868,-0.19645262,0.065274194,-0.024002288,-0.05442949,-0.38307226,0.57460845,-9.3661175,0.8560339,47.664497,-1.1768332,-1.7151489,-3.4231687,-0.33199894,-0.32471573,-0.35630438,26.75,27.625,26.75,30.125,31.5625,32.125
0.16005246,-1.5673537,-2.128337,-0.29292604,-0.07432933,0.0652392,-0.16445333,-0.3869268,-0.34953308,0.060089372,-3.077016,0.62034374,1.1516149e-05,-0.073442705,-0.013672879,-3.0126528e-05,0.031411007,-0.0085554635,0.027434105,0.4754367,-1.4135743,1.9422663,-2.0963476,-1.5727104,2.4477634,-0.027346956,0.16081798,-0.19858524,0.059726205,-0.024392884,-0.054594446,-0.4405331,0.6895301,-9.461885,0.9321212,47.66539,-1.1938725,-1.6584593,-3.3669114,-0.2785132,-0.3368261,-0.38385093,26.75,27.625,26.75,30.125,31.5625,32.125
0.16205257,-1.5297544,-2.992127,-0.50641465,-0.06706936,0.08460062,-0.15583292,-0.3870847,-0.34957224,0.060111757,-3.0769746,0.62027776,5.5273587e-05,-0.07586416,-0.013716072,0.00045760052,0.030347986,-0.0052801347,0.026012927,0.47540003,-1.4132615,1.9418229,-2.096205,-1.5727705,2.4476912,-0.029101275,0.1624333,-0.20101838,0.05714259,-0.024960095,-0.054923747,-0.53630114,0.6895301,-9.615114,0.8291774,47.68062,-1.1464868,-1.6707909,-3.4105682,-0.24191523,-0.33088663,-0.42868984,26.75,27.625,26.75,30.125,31.5625,32.125
0.16405256,-2.3809924,-2.6017582,-0.52179503,-0.059652813,0.057134315,-0.14892723,-0.38721013,-0.34960347,0.060097534,-3.0769458,0.620156,-5.0336366e-05,-0.07587685,-0.013891894,0.0002578518,0.030039096,-0.0057604974,0.027505288,0.4753401,-1.4129372,1.9414519,-2.0960734,-1.57277,2.447559,-0.029100126,0.16303618,-0.20129561,0.057096303,-0.024474753,-0.056414284,-0.5554548,0.63206923,-9.691729,0.83589023,47.689575,-1.1613661,-1.6212285,-3.476372,-0.21834782,-0.35677385,-0.43402797,26.75,27.625,26.75,30.125,31.5625,32.125
0.16605249,-1.667223,-2.2541058,-0.6708146,-0.040827233,0.06839419,-0.15649071,-0.38737893,-0.34962618,0.06010311,-3.0768888,0.6201039,2.8872442e-05,-0.07791341,-0.014954634,-4.3184125e-05,0.028752517,-0.003977159,0.029181672,0.47527993,-1.412611,1.9410447,-2.0959904,-1.5728539,2.447474,-0.029269535,0.16709457,-0.20468767,0.054244168,-0.024165224,-0.058258396,-0.63206923,0.57460845,-9.634268,0.93436235,47.687782,-1.1954873,-1.7586284,-3.5931334,-0.19987142,-0.37754458,-0.4580923,26.75,27.625,26.75,30.125,31.5625,32.125
0.16805263,-1.2686784,-1.4951332,-0.82520044,-0.037504386,0.06195105,-0.15506575,-0.3875453,-0.34965643,0.060099017,-3.0768585,0.61990416,4.148858e-05,-0.07925638,-0.0153129455,-0.001366161,0.029201977,-0.0033872619,0.031282756,0.47521994,-1.4122493,1.9406132,-2.0958836,-1.572914,2.4472935,-0.029405372,0.17149113,-0.20602028,0.05085384,-0.024852691,-0.060490396,-0.47884035,0.47884035,-9.710882,0.8493211,47.691364,-1.2332304,-1.8147486,-3.6699524,-0.121733196,-0.37471458,-0.4653688,26.75,27.625,26.75,30.125,31.5625,32.125
0.17005162,-1.4555978,-1.1604104,-0.6132804,-0.022118958,0.047170673,-0.1505538,-0.38771507,-0.3496923,0.06009883,-3.0768282,0.6198562,8.4774954e-05,-0.07986445,-0.014458552,-0.002244154,0.031004855,-0.0052295583,0.03494603,0.47515944,-1.4119003,1.940195,-2.0958116,-1.5729626,2.4472072,-0.030949488,0.17389078,-0.20708877,0.051971946,-0.025623303,-0.06569464,-0.40222588,0.36391866,-9.691729,0.90750587,47.650166,-1.2000784,-1.8434559,-3.7059345,-0.09626475,-0.38054842,-0.43311262,26.75,27.625,26.75,30.125,31.5625,32.125
0.1720519,-1.311778,-1.0924116,-0.5778419,-0.012801406,0.034213133,-0.15344243,-0.38788316,-0.34972712,0.060085904,-3.076823,0.6197202,4.958714e-05,-0.08118947,-0.014294072,-0.002991955,0.032264568,-0.006066453,0.035279583,0.47507507,-1.4115264,1.9397744,-2.0957277,-1.5729746,2.447039,-0.03194341,0.17770152,-0.20990948,0.052299112,-0.026372556,-0.06701693,-0.34476504,0.2681506,-9.710882,0.8717007,47.678825,-1.1119661,-2.005951,-3.8356786,-0.07654874,-0.41086197,-0.44986534,26.75,27.625,26.75,30.125,31.5625,32.125
0.17405197,-1.0773464,-0.97990364,-0.3678938,-0.009090698,0.03864406,-0.16051407,-0.38803813,-0.34976208,0.06008482,-3.0767975,0.6195781,6.568774e-05,-0.08352633,-0.014038003,-0.0024311226,0.032808993,-0.0044793817,0.038270045,0.47502652,-1.4111896,1.9393667,-2.0956318,-1.5730232,2.4469051,-0.033714857,0.18004508,-0.21409902,0.05297135,-0.027601602,-0.07177198,-0.30645782,0.11492168,-9.634268,0.87393653,47.682407,-1.0893579,-2.0100703,-3.770257,-0.053228147,-0.40843436,-0.41784257,26.75,27.625,26.75,30.125,31.5625,32.125
0.17605194,-0.7563932,-0.80138445,-0.33865827,0.008410547,0.03785604,-0.15470472,-0.38820153,-0.34978372,0.060069133,-3.0767443,0.61940867,4.764456e-05,-0.08460065,-0.014375337,-0.0021095523,0.033201072,-0.004207941,0.045868836,0.47495452,-1.4108164,1.9389476,-2.0955236,-1.5730838,2.4467344,-0.033759944,0.1819727,-0.21741316,0.054272577,-0.02809911,-0.07941098,-0.19153613,0.17238252,-9.500193,0.9925471,47.692257,-1.0979459,-2.0164225,-3.6069818,-0.020594982,-0.4103006,-0.34978268,26.75,27.625,26.75,30.125,31.5625,32.125
0.17805183,-0.78851324,-0.42518544,-0.47434878,0.02488732,0.02630853,-0.1640694,-0.38840875,-0.349837,0.060099274,-3.076769,0.6193358,0.00015438811,-0.08640987,-0.0149579765,-0.0007900922,0.032670442,-0.0021865556,0.047038175,0.47488245,-1.4104557,1.9384435,-2.0954397,-1.5731195,2.446614,-0.034062594,0.18308765,-0.22212394,0.055821326,-0.028557442,-0.0808811,-0.11492168,0.1340753,-9.423578,0.8717007,47.678825,-1.077057,-2.0929027,-3.4787598,-0.003027155,-0.42855608,-0.32032698,26.75,27.625,26.75,30.125,31.5625,32.125
0.18005182,-1.2404369,-0.34347254,-0.39520687,0.03347624,0.014576346,-0.15250297,-0.3885957,-0.3498442,0.06010554,-3.076689,0.6191629,0.00026370003,-0.087195,-0.014373409,-0.0014848644,0.03503376,-0.0037912074,0.051127147,0.47481,-1.4101063,1.9380015,-2.095331,-1.5732521,2.4464443,-0.034896288,0.18609723,-0.22448145,0.05765629,-0.029938348,-0.08579756,-0.15322891,0.19153613,-9.461885,0.89631605,47.677036,-1.0616333,-2.092346,-3.4371178,-0.0035875351,-0.42823637,-0.2636603,26.75,27.625,26.75,30.125,31.5625,32.125
0.18205163,-0.46842545,-0.414003,-0.22627051,0.03245704,0.03365964,-0.16172147,-0.38875356,-0.34987372,0.060087737,-3.0766509,0.61895984,0.00014031616,-0.08815343,-0.014250419,-0.0013380307,0.036912948,-0.0037820414,0.05394753,0.47472614,-1.4097093,1.9375457,-2.0951626,-1.5732645,2.4462388,-0.03487416,0.18812087,-0.22767463,0.059672017,-0.03163278,-0.08858536,-0.17238252,0.17238252,-9.385271,0.86945957,47.689575,-1.0831562,-2.0222945,-3.4346375,0.018271282,-0.40616888,-0.20181881,26.75,27.625,26.75,30.125,31.5625,32.125
0.18405192,-0.55771065,-0.5035739,-0.12079977,0.008761502,0.041362163,-0.16006595,-0.38894683,-0.34992918,0.06010018,-3.0766666,0.61873215,0.00029227659,-0.08874164,-0.013639991,-0.0015766168,0.039056204,-0.00525678,0.05445458,0.47470194,-1.4093362,1.9370779,-2.0951254,-1.5733489,2.4460707,-0.035675902,0.19002816,-0.23000859,0.062382784,-0.032861706,-0.08989098,-0.24899697,0.24899697,-9.32781,0.8806493,47.703007,-1.1196594,-2.0314326,-3.400136,0.022135235,-0.41237414,-0.17520368,26.75,27.625,26.75,30.125,31.5625,32.125
0.18605193,-0.62737185,-0.61479133,-0.03065625,-0.011607283,0.043625157,-0.1663948,-0.38910192,-0.34993017,0.060095556,-3.0765722,0.6186172,0.00018494339,-0.08803945,-0.012541435,-0.001530245,0.041648045,-0.009505661,0.053548694,0.47459352,-1.408988,1.9366368,-2.0949075,-1.573397,2.4459028,-0.03670563,0.19008581,-0.23173772,0.0690112,-0.033227812,-0.09000985,-0.24899697,0.2681506,-9.32781,0.89631605,47.69763,-1.080815,-1.8947386,-3.3560562,-0.003504938,-0.41801798,-0.14105836,26.75,27.625,26.75,30.125,31.5625,32.125
0.1880519,-0.5644887,-1.1454394,0.020962343,-0.010587714,0.05241733,-0.16114044,-0.3893024,-0.34996885,0.060092628,-3.0765474,0.6183616,0.0002471157,-0.08892556,-0.012459991,-0.002679058,0.04412889,-0.011876273,0.05193996,0.47453332,-1.4085661,1.9361342,-2.0948112,-1.5734814,2.4456866,-0.036910128,0.19497919,-0.23526646,0.07088745,-0.03435481,-0.08859914,-0.30645782,0.24899697,-9.32781,0.89631605,47.68599,-1.0546591,-1.917724,-3.4013515,-0.032832816,-0.40020508,-0.11489471,26.75,27.625,26.75,30.125,31.5625,32.125
0.19005224,-1.24331,-1.027062,-0.0931248,-0.008831415,0.026609335,-0.15495583,-0.38949043,-0.3499892,0.060102716,-3.0764816,0.6182928,0.0002450148,-0.08898367,-0.011436484,-0.0024746712,0.04801171,-0.013538895,0.048892446,0.4744374,-1.4081937,1.9356426,-2.0946424,-1.5735425,2.4455564,-0.03700926,0.1956647,-0.23772238,0.075920515,-0.037044,-0.08563908,-0.21068975,0.19153613,-9.346964,0.88289046,47.688675,-1.1118109,-1.8396326,-3.4642363,-0.05373826,-0.37189662,-0.12378916,26.75,27.625,26.75,30.125,31.5625,32.125
0.19205227,-0.56058586,-0.5517014,0.025404153,0.0054423437,0.03471086,-0.16542518,-0.38968903,-0.35000664,0.06009763,-3.07642,0.6180714,0.00034122722,-0.08877036,-0.010012887,-0.0020833719,0.051524274,-0.016772483,0.04307108,0.474365,-1.4077969,1.9351758,-2.0945556,-1.5736631,2.445354,-0.038243826,0.19557105,-0.24015978,0.08293954,-0.038674835,-0.08104592,-0.21068975,0.095768064,-9.270349,0.8224646,47.65912,-1.0907313,-1.8394102,-3.5034997,-0.1353572,-0.37033403,-0.17053175,26.75,27.625,26.75,30.125,31.5625,32.125
0.1940528,-0.39877233,-0.070819065,0.056005463,0.030895451,0.026928315,-0.15324816,-0.38984743,-0.35004792,0.0600766,-3.0763376,0.61788154,0.00019755465,-0.09001189,-0.009950741,-0.0014361702,0.05206477,-0.015555737,0.0408833,0.47431678,-1.4073523,1.9346608,-2.09434,-1.5736994,2.445198,-0.038786266,0.19642903,-0.24295497,0.08404538,-0.039724775,-0.07938993,-0.21068975,0.19153613,-9.232041,0.86498255,47.657326,-1.0637501,-1.8303293,-3.482715,-0.16338429,-0.3302822,-0.18118262,26.75,27.625,26.75,30.125,31.5625,32.125
0.19605179,-0.02243775,0.07485461,0.06979343,0.039697286,0.027293531,-0.16421513,-0.39002755,-0.3500667,0.060086176,-3.0762691,0.6177737,0.00020385909,-0.09013691,-0.009378675,-0.0016694131,0.054442506,-0.016814563,0.03589347,0.4742327,-1.4069916,1.9341835,-2.0941718,-1.5737718,2.4450557,-0.038895804,0.1976413,-0.24444836,0.08654417,-0.041258622,-0.074501365,-0.21068975,0.19153613,-9.078813,0.85826975,47.668976,-1.03806,-1.7856364,-3.5480857,-0.20402925,-0.31739533,-0.25684464,26.75,27.625,26.75,30.125,31.5625,32.125
0.19805169,-0.1758418,0.07756248,0.15006708,0.03063499,0.021969933,-0.16054901,-0.39021948,-0.35008055,0.06008643,-3.0761976,0.6176428,0.0002222696,-0.091351524,-0.009632947,-0.0026881616,0.055049818,-0.019953685,0.034694094,0.4741364,-1.4066054,1.9337033,-2.0940273,-1.5738553,2.4448872,-0.040087078,0.20295255,-0.24882032,0.08866172,-0.040377848,-0.07449221,-0.19153613,0.076614454,-9.002198,0.9321212,47.666286,-1.0598388,-1.7858988,-3.4193869,-0.2532484,-0.32602614,-0.28036505,26.75,27.625,26.75,30.125,31.5625,32.125
0.2000518,-0.98425233,-0.4980744,0.05979402,0.022954643,0.011612524,-0.14788634,-0.3903924,-0.35008666,0.060070544,-3.0760536,0.6175164,0.0001368226,-0.091740094,-0.009384261,-0.0031574047,0.05715059,-0.020536203,0.03743518,0.47405234,-1.4061843,1.9332007,-2.0937998,-1.5739521,2.444743,-0.039811175,0.20496576,-0.2503769,0.089669675,-0.04200281,-0.07694432,-0.15322891,0.05746084,-9.059659,0.86945957,47.693153,-1.0687054,-1.8459847,-3.5676463,-0.26115695,-0.30048138,-0.26001272,26.75,27.625,26.75,30.125,31.5625,32.125
0.20205167,-0.7097909,-1.0886407,0.115892835,0.011149148,0.02650214,-0.15745291,-0.39058238,-0.35008568,0.060060248,-3.0759206,0.6173937,0.0001331953,-0.09465883,-0.008887334,-0.0015813054,0.05719866,-0.016531885,0.033547156,0.47395566,-1.4057757,1.9327105,-2.09362,-1.5740727,2.444587,-0.042084783,0.2053948,-0.2545968,0.08991878,-0.043889362,-0.07531623,-0.095768064,0.17238252,-9.155427,0.88960326,47.684196,-1.027009,-1.7904702,-3.3979754,-0.2915312,-0.24370438,-0.3046047,26.75,27.625,26.75,30.125,31.5625,32.125
0.20405169,-0.57156754,-1.0968629,0.22950256,0.00034376705,0.039174482,-0.15353134,-0.39075115,-0.3501071,0.06003845,-3.0758245,0.6172971,3.020112e-05,-0.0959629,-0.008813162,-0.0021982777,0.058286306,-0.015791228,0.033926364,0.4738715,-1.405354,1.9322313,-2.0934408,-1.5741214,2.4444551,-0.042519294,0.20838143,-0.256423,0.088590436,-0.045217052,-0.076117665,-0.1340753,0.17238252,-9.155427,0.84708,47.68599,-0.94614947,-1.9123693,-3.386478,-0.30415174,-0.21930973,-0.30439737,26.75,27.625,26.75,30.125,31.5625,32.125
0.20605163,-0.71324164,-1.0726564,-0.00015313119,0.0013434754,0.035710864,-0.15880688,-0.3909653,-0.3501289,0.06003788,-3.0757272,0.617102,9.629245e-05,-0.09670646,-0.010212161,-0.0027235816,0.057524834,-0.014432325,0.03558299,0.47380024,-1.4049089,1.931682,-2.0932863,-1.5742534,2.444275,-0.040742155,0.21145731,-0.258231,0.08575305,-0.045176376,-0.07599349,-0.11492168,0.17238252,-9.174581,0.8918391,47.682407,-1.0375662,-1.8739829,-3.495329,-0.2783575,-0.20614383,-0.33719167,26.75,27.625,26.75,30.125,31.5625,32.125
0.2080517,-1.0489402,-1.2589732,0.21746023,-0.0048538055,0.033484906,-0.1588197,-0.39115518,-0.35014117,0.06003632,-3.0756166,0.61702234,6.088407e-05,-0.099049926,-0.0106259,-0.0014962018,0.055220917,-0.009406189,0.034113318,0.47370365,-1.4045005,1.9311665,-2.0930846,-1.5743374,2.444143,-0.041932948,0.21127643,-0.2601175,0.082288116,-0.045441307,-0.075707994,-0.22984336,0.28730422,-9.212888,0.87393653,47.690468,-1.0791092,-1.8919933,-3.4544644,-0.26507312,-0.17360453,-0.37568393,26.75,27.625,26.75,30.125,31.5625,32.125
0.2100517,-0.6503626,-1.4040986,-0.14024755,-0.016309492,0.04238133,-0.15231654,-0.3913613,-0.35018012,0.06003597,-3.075566,0.61683726,6.9659385e-05,-0.10143734,-0.011557007,-0.00128377,0.05323873,-0.0059301346,0.03519909,0.47363144,-1.4040554,1.9306163,-2.0929306,-1.5744094,2.443962,-0.042527217,0.21402512,-0.26300335,0.07841224,-0.04528915,-0.07738435,-0.11492168,0.2681506,-9.289503,0.900793,47.692257,-0.98425215,-1.9869777,-3.5214665,-0.20625485,-0.16817802,-0.36550242,26.75,27.625,26.75,30.125,31.5625,32.125
0.21205257,-0.8696259,-1.7028936,-0.27606136,-0.014228476,0.029409394,-0.1642659,-0.3915633,-0.3501968,0.060038015,-3.0754797,0.6166836,0.00011190236,-0.10373889,-0.011699421,-0.0013903235,0.052532304,-0.0037918082,0.036232997,0.47354698,-1.403646,1.9301018,-2.092775,-1.5745171,2.443793,-0.044086244,0.2169807,-0.2657029,0.07591032,-0.045661435,-0.07997149,-0.22984336,0.30645782,-9.3661175,0.8314132,47.65912,-0.9767004,-1.9802775,-3.5185962,-0.1788809,-0.13959791,-0.37758648,26.75,27.625,26.75,30.125,31.5625,32.125
0.21405262,-1.0210308,-2.305689,-0.3116741,-0.033238266,0.04178276,-0.15624009,-0.39175418,-0.35021386,0.060019195,-3.075373,0.6165828,4.5965848e-05,-0.10567562,-0.012167537,-0.0014641968,0.052117024,-0.0019767662,0.03923898,0.47345066,-1.4032001,1.9295868,-2.0925958,-1.5745896,2.4436479,-0.044668622,0.22003265,-0.2687509,0.07407922,-0.04615287,-0.08355069,-0.36391866,0.47884035,-9.385271,0.92093146,47.68599,-0.91343325,-1.9742162,-3.5348697,-0.14400768,-0.11240487,-0.35121775,26.75,27.625,26.75,30.125,31.5625,32.125
0.21605273,-1.215533,-2.3423645,-0.49698105,-0.054286014,0.04448495,-0.14926332,-0.39196655,-0.35024172,0.06002295,-3.0752852,0.61634874,0.00011259744,-0.10582271,-0.013517447,-0.0014474401,0.050425053,-0.0016626917,0.04524288,0.47339135,-1.4027555,1.9290246,-2.0924294,-1.5747207,2.443454,-0.043267325,0.2213878,-0.27023822,0.07312322,-0.044815693,-0.0881565,-0.47884035,0.5554548,-9.442732,0.9254084,47.690468,-0.98583424,-1.9603863,-3.5936327,-0.092974916,-0.09983645,-0.3341096,26.75,27.625,26.75,30.125,31.5625,32.125
0.21805187,-1.2789955,-2.3084087,-0.5349382,-0.06393844,0.057292078,-0.1615112,-0.3921724,-0.35025558,0.05997547,-3.0751727,0.61622745,5.5072767e-05,-0.106219344,-0.013552188,-0.00087977404,0.050043367,-0.0031194596,0.048513826,0.47328308,-1.4022503,1.9285215,-2.0923197,-1.5748042,2.4432847,-0.044151947,0.22182319,-0.272892,0.07643136,-0.043836113,-0.09231126,-0.2873042,0.4405331,-9.615114,0.98807013,47.661808,-1.0208968,-1.9814425,-3.5643334,-0.10501483,-0.0995066,-0.2688466,26.75,27.625,26.75,30.125,31.5625,32.125
0.22005196,-1.8241754,-2.8179226,-0.3573755,-0.043034554,0.03951033,-0.14931513,-0.3924035,-0.3503063,0.05999554,-3.07519,0.6159966,8.5689804e-05,-0.108679205,-0.014343596,-0.0002709729,0.046630573,-0.0010412002,0.05336466,0.4731862,-1.4018055,1.927924,-2.0921652,-1.57484,2.4430418,-0.04625306,0.22396539,-0.27640077,0.07434863,-0.04178319,-0.09927094,-0.28730422,0.45968673,-9.615114,0.8627467,47.678825,-0.8881294,-1.9397427,-3.571115,-0.06657793,-0.08941929,-0.2160111,26.75,27.625,26.75,30.125,31.5625,32.125
0.22205201,-1.011119,-1.5899415,-0.34362212,-0.03049687,0.042072758,-0.15950586,-0.3926279,-0.35031042,0.059998527,-3.0750818,0.6158389,0.00020236729,-0.10932083,-0.014915019,-0.0011739418,0.04562338,-0.003251072,0.054150354,0.47308996,-1.4013838,1.9273976,-2.0920336,-1.5749949,2.4428613,-0.047000732,0.22753732,-0.27860656,0.07445788,-0.039894085,-0.10081093,-0.36391866,0.38307226,-9.634268,0.8717007,47.670765,-0.8849877,-1.9535179,-3.634613,-0.008983034,-0.09288895,-0.16453442,26.75,27.625,26.75,30.125,31.5625,32.125
0.22405246,-0.7580786,-0.76491827,-0.58368146,-0.0073148124,0.032214887,-0.16029514,-0.39282957,-0.35034633,0.05996086,-3.0750134,0.61564904,8.426383e-05,-0.10913292,-0.015576849,-0.001053021,0.045034654,-0.005596951,0.058503993,0.47299412,-1.4008671,1.9268473,-2.0918767,-1.5750312,2.442656,-0.04663846,0.22879028,-0.2811478,0.07753573,-0.038328048,-0.1048045,-0.3256114,0.38307226,-9.557653,0.9298854,47.66987,-0.93598807,-1.926292,-3.6225991,-0.037685946,-0.119398385,-0.112228006,26.75,27.625,26.75,30.125,31.5625,32.125
0.22605237,-0.39347535,-0.5832896,-0.47596928,0.0074061556,0.041945867,-0.1623538,-0.39303333,-0.35038397,0.059947863,-3.074959,0.6154095,6.1828876e-05,-0.11066757,-0.01624794,-0.0009811579,0.042615693,-0.004420278,0.055405773,0.47292164,-1.4003981,1.9262966,-2.0917218,-1.5751022,2.4424412,-0.04783602,0.2307063,-0.28318772,0.07550279,-0.036722615,-0.10290773,-0.28730422,0.24899697,-9.5385,0.9567419,47.72002,-0.87600744,-1.8982263,-3.7605596,0.027236696,-0.13738059,-0.07202165,26.75,27.625,26.75,30.125,31.5625,32.125
0.22805206,-0.26765475,-0.56838316,-0.6689569,0.013129457,0.041628636,-0.1644035,-0.39327046,-0.35042048,0.059952125,-3.0749156,0.61524624,0.0001220858,-0.11102989,-0.016174939,-0.0019774467,0.04364548,-0.0077478783,0.052803025,0.47282547,-1.3999277,1.9257096,-2.0915892,-1.5751861,2.442249,-0.048632924,0.23432596,-0.28576395,0.07788486,-0.036121666,-0.101103134,-0.1340753,0.22984336,-9.576807,0.88960326,47.683304,-0.8528784,-2.014189,-3.7608914,0.038056284,-0.14120905,-0.07890701,26.75,27.625,26.75,30.125,31.5625,32.125
0.23005247,-0.8322772,-0.7249075,-0.55946594,0.011760987,0.0317547,-0.14653222,-0.3935105,-0.35044023,0.059946448,-3.074815,0.61517054,0.00013589846,-0.112159975,-0.016441602,-0.0007756867,0.04377894,-0.007875069,0.04936903,0.4727052,-1.3994353,1.9251112,-2.09142,-1.575282,2.4420948,-0.04909912,0.23520446,-0.29055685,0.081973426,-0.03618256,-0.098131284,-0.24899697,0.17238252,-9.519346,0.9186956,47.657326,-0.8188431,-2.0551734,-3.6570282,0.04107463,-0.14968628,-0.10874453,26.75,27.625,26.75,30.125,31.5625,32.125
0.23205249,-0.20261653,-0.31008777,-0.100112155,0.0010970361,0.04309796,-0.15692507,-0.3937302,-0.35048524,0.059955742,-3.074816,0.6149413,0.00013537284,-0.11289564,-0.01674077,-0.0004558145,0.044473227,-0.010404849,0.04555287,0.47260907,-1.3989902,1.9245361,-2.091263,-1.5753177,2.4418557,-0.049543288,0.23786452,-0.29560113,0.08693311,-0.035641745,-0.09475926,-0.17238252,0.076614454,-9.442732,0.8403672,47.653748,-0.7851812,-2.090176,-3.5553331,0.009659605,-0.16687636,-0.12965292,26.75,27.625,26.75,30.125,31.5625,32.125
0.23405263,-0.19166349,0.092511795,-0.53562856,0.017465573,0.016775656,-0.16097634,-0.3939729,-0.35050792,0.05994306,-3.0747576,0.6148157,0.00015244681,-0.11222936,-0.015789986,-0.0014397735,0.047068622,-0.015532844,0.040962927,0.47247678,-1.3984967,1.923963,-2.0911415,-1.5753902,2.4416528,-0.050579034,0.23989387,-0.29697362,0.092028946,-0.035605222,-0.091203764,-0.076614454,0.038307227,-9.481039,0.90527004,47.66271,-0.7586553,-2.0782697,-3.4904013,-0.041091517,-0.17945236,-0.16984084,26.75,27.625,26.75,30.125,31.5625,32.125
0.23605254,0.20558219,-0.13788742,-0.44212398,0.028677749,0.0127532,-0.1561656,-0.39416668,-0.35054085,0.05991688,-3.0746183,0.6146539,8.863979e-05,-0.11207523,-0.015582649,-0.0012640271,0.049647164,-0.020284114,0.037859898,0.47242868,-1.3979919,1.9233879,-2.090935,-1.575498,2.441522,-0.05069443,0.24224845,-0.30205926,0.100167796,-0.03573429,-0.08820937,-0.13407528,0.11492168,-9.423578,0.9567419,47.698532,-0.74583477,-2.1556127,-3.4067588,-0.08853627,-0.17498824,-0.20312749,26.75,27.625,26.75,30.125,31.5625,32.125
0.2380525,-0.083727665,0.09130109,-0.23343441,0.025516538,-0.0058599412,-0.15399396,-0.39438906,-0.35057297,0.05992217,-3.0745642,0.61450857,1.6398371e-05,-0.11278389,-0.015198219,-0.002373935,0.052170478,-0.023052543,0.03526012,0.47230855,-1.397522,1.9227766,-2.0907075,-1.5755347,2.4413183,-0.05132537,0.2465318,-0.30516955,0.10261398,-0.03672787,-0.08623064,-0.19153613,0.095768064,-9.346964,0.9701675,47.693153,-0.7250676,-2.1611295,-3.283245,-0.12929803,-0.17038359,-0.2527077,26.75,27.625,26.75,30.125,31.5625,32.125
0.24005559,0.19675069,0.057169992,-0.57107264,0.04007817,-0.0060846885,-0.16205111,-0.3946258,-0.3505816,0.059916157,-3.074435,0.6144244,-6.0096703e-05,-0.11216281,-0.014536403,-0.0028710084,0.05416934,-0.028140629,0.033083122,0.47216436,-1.3970166,1.9221438,-2.0904534,-1.5756181,2.4411385,-0.052209985,0.24818522,-0.30743396,0.10865765,-0.036196962,-0.084936365,-0.15322891,0.15322891,-9.423578,0.9365982,47.688675,-0.6705199,-2.152675,-3.5008788,-0.20214663,-0.18315913,-0.31760436,26.75,27.625,26.75,30.125,31.5625,32.125
0.24205251,-0.60577077,-0.31281498,-0.5224651,0.027140053,-0.0064651174,-0.15106276,-0.39484236,-0.35061142,0.05989973,-3.074324,0.6143442,-0.000128212,-0.11227546,-0.0140952505,-0.0033191557,0.05536905,-0.029935684,0.03325354,0.47206798,-1.3965117,1.9215463,-2.0902498,-1.5756902,2.4410067,-0.05286916,0.24955282,-0.30853721,0.11052496,-0.036464904,-0.0857603,-0.095768064,0.17238252,-9.461885,0.9545008,47.678825,-0.69745636,-2.1771913,-3.4911203,-0.2642179,-0.18193941,-0.3236262,26.75,27.625,26.75,30.125,31.5625,32.125
0.24405172,-0.5793182,-0.8050117,-0.07740466,-0.0070598205,0.028092705,-0.16359843,-0.39505967,-0.35064414,0.05988554,-3.074222,0.6141312,-0.00019921518,-0.11233412,-0.013310524,-0.0037285509,0.056967508,-0.03067248,0.029555706,0.4719839,-1.3959949,1.9209241,-2.0900214,-1.5757746,2.440803,-0.05355818,0.2499904,-0.30840784,0.111350276,-0.037553687,-0.082741134,-0.076614454,0.15322891,-9.423578,0.8403672,47.666286,-0.5526906,-2.1481028,-3.6980872,-0.28547463,-0.19201398,-0.40488112,26.75,27.625,26.75,30.125,31.5625,32.125
0.24605489,-0.796049,-1.8988537,-0.24502379,-0.027519006,0.05254002,-0.15870857,-0.39528224,-0.35065964,0.05989908,-3.0740983,0.6139698,-0.00020210491,-0.11401781,-0.014412066,-0.0023638585,0.054552134,-0.026589945,0.031302147,0.47188795,-1.3955388,1.9203018,-2.089759,-1.5758947,2.4406226,-0.053274415,0.24991906,-0.31109178,0.10934921,-0.03728792,-0.08420062,-0.15322891,0.21068975,-9.346964,0.94331104,47.694946,-0.568099,-2.025411,-3.7489386,-0.300282,-0.20049873,-0.4414266,26.75,27.625,26.75,30.125,31.5625,32.125
0.24805187,-1.4799372,-2.0190182,-0.42121464,-0.044441506,0.060405936,-0.15513068,-0.3954997,-0.35069495,0.059887297,-3.0739958,0.6139095,-0.00027861443,-0.1174204,-0.017043246,0.00066286104,0.04918147,-0.018043227,0.03177664,0.47179237,-1.3950344,1.9196914,-2.0895455,-1.5759538,2.440503,-0.052245434,0.24971028,-0.31699115,0.10539482,-0.036421597,-0.08364442,-0.22984336,0.21068975,-9.461885,1.0574499,47.71286,-0.60251576,-1.8208714,-3.7363327,-0.2899423,-0.21260849,-0.46009058,26.75,27.625,26.75,30.125,31.5625,32.125
0.25005195,-1.6709386,-2.380816,-0.6557551,-0.0367852,0.066404864,-0.14788273,-0.39575282,-0.35074916,0.059886906,-3.073958,0.613729,-0.00033522604,-0.12123938,-0.017743802,0.0019860445,0.045492265,-0.01103016,0.032070868,0.47168338,-1.3944813,1.9189976,-2.0893323,-1.5759901,2.4402864,-0.054421723,0.25084564,-0.32013574,0.099460244,-0.0363639,-0.086110644,-0.24899697,0.36391866,-9.519346,1.0082139,47.667187,-0.49910724,-1.756675,-3.630762,-0.24669078,-0.23023498,-0.50582486,26.75,27.625,26.75,30.125,31.5625,32.125
0.25205192,-1.2741424,-1.5850493,-0.7086486,-0.05264606,0.07966849,-0.1543657,-0.39600354,-0.35073158,0.059870657,-3.0737665,0.61372226,-0.00031858854,-0.12318211,-0.01954102,0.002892098,0.043155715,-0.0055592256,0.03863917,0.47152802,-1.3939759,1.9183987,-2.0891302,-1.5761465,2.440152,-0.052687522,0.25223786,-0.3229148,0.094868064,-0.03682052,-0.09093645,-0.28730422,0.45968673,-9.595961,0.84708,47.666286,-0.5307642,-1.8418653,-3.7170281,-0.17703614,-0.25976858,-0.49002737,26.75,27.625,26.75,30.125,31.5625,32.125
0.25405195,-1.6128856,-2.2146094,-0.7758526,-0.043882824,0.06775995,-0.16081181,-0.39626727,-0.35079178,0.059881575,-3.0737991,0.6134556,-0.00027227975,-0.12589508,-0.021038856,0.0037985365,0.041054998,-0.0009005752,0.04509058,0.47142026,-1.3934591,1.9177397,-2.0889995,-1.5761827,2.4398737,-0.05227006,0.25491762,-0.3275189,0.091648534,-0.037111457,-0.096966624,-0.2681506,0.49799395,-9.787497,0.8985519,47.670765,-0.6948062,-1.803688,-3.5632098,-0.11048594,-0.28084943,-0.4624806,26.75,27.625,26.75,30.125,31.5625,32.125
0.256052,-1.3872434,-2.2810514,-0.81041723,-0.04328841,0.06449699,-0.15484555,-0.3964859,-0.35082948,0.059876315,-3.0737035,0.61329764,-0.0003409468,-0.12740624,-0.021365589,0.0027994132,0.04145858,-0.00093589094,0.050819933,0.47133628,-1.3929532,1.917106,-2.0887606,-1.5762547,2.4397037,-0.052760456,0.2593383,-0.33016914,0.09004957,-0.037506122,-0.10317826,-0.3256114,0.51714754,-9.768343,0.97464454,47.67345,-0.63513356,-1.8297343,-3.5642977,-0.065403566,-0.24903163,-0.41617852,26.75,27.625,26.75,30.125,31.5625,32.125
0.25805175,-1.1335692,-1.6432513,-1.3142098,-0.03908068,0.046568405,-0.15346198,-0.39676696,-0.3508966,0.059905734,-3.0737197,0.61312413,-0.00023194797,-0.12896675,-0.021488728,0.0018801742,0.04106893,-0.002773455,0.05584123,0.4712397,-1.392435,1.9163998,-2.0886166,-1.5763139,2.439497,-0.054610223,0.26388183,-0.3335813,0.090326,-0.036360815,-0.11005632,-0.2681506,0.59376204,-9.921572,1.0149267,47.688675,-0.60259604,-2.002919,-3.5577753,-0.0469116,-0.2903304,-0.339317,26.75,27.625,26.75,30.125,31.5625,32.125
0.26005214,-1.3247855,-2.1757467,-1.3383634,-0.037038986,0.025657434,-0.16051722,-0.39703855,-0.35091802,0.059896484,-3.0736406,0.61293036,-0.00022180905,-0.12665966,-0.02132157,-0.0008796345,0.044496935,-0.008263234,0.063394666,0.47109622,-1.3918813,1.9157323,-2.0884368,-1.5764107,2.439243,-0.0524192,0.26703703,-0.3313283,0.09132121,-0.036952194,-0.11541381,-0.21068975,0.6512229,-10.093954,0.9701675,47.711964,-0.62805355,-2.1410298,-3.6553593,-0.023572713,-0.30994612,-0.28146762,26.75,27.625,26.75,30.125,31.5625,32.125
0.2620526,-1.067655,-2.6915174,-0.94328165,-0.06933258,0.048481032,-0.15600352,-0.39727822,-0.35097116,0.059894595,-3.0735912,0.61274374,-0.00024256133,-0.12744668,-0.02196397,0.00039486313,0.045082826,-0.005857611,0.067529514,0.47101298,-1.3913522,1.9150733,-2.0882447,-1.5764707,2.43905,-0.050926734,0.26688793,-0.3345068,0.09275195,-0.038591668,-0.118042864,-0.2873042,0.53630114,-9.864111,0.9186956,47.645687,-0.8339337,-2.180409,-3.8367734,0.01943252,-0.31952366,-0.21845883,26.75,27.625,26.75,30.125,31.5625,32.125
0.26405266,-1.154323,-2.6515923,-0.7854707,-0.048368357,0.038545,-0.15679885,-0.39757583,-0.35101208,0.059927426,-3.0735748,0.6125462,-0.00011158714,-0.12784688,-0.02103994,-0.0002429994,0.048104685,-0.009233945,0.069874495,0.47088048,-1.3908359,1.9143552,-2.0880754,-1.5765675,2.4387965,-0.052085668,0.2697197,-0.33750108,0.09726169,-0.039765123,-0.12153997,-0.076614454,0.47884035,-9.825804,0.90527004,47.66271,-0.70103836,-2.029643,-3.822702,-0.0054990435,-0.32809526,-0.17080997,26.75,27.625,26.75,30.125,31.5625,32.125
0.26605254,-0.6542035,-1.990168,-0.71246326,-0.026974034,0.022688737,-0.14666931,-0.39781567,-0.35104915,0.05990752,-3.0735059,0.61224693,-0.00015424527,-0.12921812,-0.021523813,0.00069737737,0.04788593,-0.008147751,0.06526835,0.47078452,-1.3902824,1.9137086,-2.0878837,-1.5766515,2.4385228,-0.052232992,0.27097812,-0.34167808,0.09912704,-0.04006089,-0.11707388,-0.095768064,0.36391866,-9.710882,1.0037369,47.68599,-0.74336135,-2.0306287,-3.7356138,0.009047134,-0.3204395,-0.17740715,26.75,27.625,26.75,30.125,31.5625,32.125
0.26805243,0.30611715,-0.3088039,-0.2087917,-0.011499076,0.0010273454,-0.15738633,-0.39810216,-0.35108772,0.0599039,-3.0734534,0.61206365,-6.0395843e-05,-0.12871844,-0.021751042,0.001269635,0.050158795,-0.012277087,0.0636388,0.4706649,-1.389718,1.9130272,-2.0877602,-1.5767592,2.4382958,-0.051257525,0.2725059,-0.34677234,0.10740382,-0.040197466,-0.11446664,0.038307227,0.21068975,-9.404425,0.95002913,47.67345,-0.8064512,-1.9579531,-3.6394525,-0.0566321,-0.33390188,-0.17776681,26.75,27.625,26.75,30.125,31.5625,32.125
0.2700516,0.8613035,0.2207842,-0.4333496,0.04702633,-0.035138946,-0.15069258,-0.39836463,-0.3511655,0.059946008,-3.0734746,0.61182183,3.6338297e-05,-0.13019356,-0.021948364,0.0025046458,0.050987694,-0.011364956,0.056560904,0.4706048,-1.3892245,1.9123086,-2.087568,-1.5768198,2.4380822,-0.051476743,0.27368414,-0.35188335,0.11093667,-0.041317977,-0.10760035,0.15322891,0.19153614,-9.270349,0.98135734,47.652847,-0.82414126,-1.8745205,-3.4386666,-0.07846362,-0.33911142,-0.26556194,26.75,27.625,26.75,30.125,31.5625,32.125
0.27205172,1.1025952,0.8102239,-0.5320957,0.08123643,-0.064551204,-0.1445331,-0.39865986,-0.3512184,0.059954315,-3.073434,0.61169946,5.7962545e-05,-0.12947427,-0.0212125,0.002175023,0.05389293,-0.014824465,0.05435568,0.47047275,-1.3886355,1.9115547,-2.0873754,-1.5768803,2.4378793,-0.051418573,0.2745311,-0.35340542,0.11601852,-0.042327285,-0.10532955,0.11492168,0.17238252,-9.289502,0.9388393,47.67166,-0.80609596,-1.939753,-3.3704863,-0.11972059,-0.34896237,-0.30892777,26.75,27.625,26.75,30.125,31.5625,32.125
0.2740517,1.4585481,1.1803637,-0.34472784,0.067929365,-0.049924217,-0.17113462,-0.3989022,-0.35126585,0.059972484,-3.0733442,0.6114499,2.6790463e-05,-0.12988496,-0.020995246,0.0027473676,0.056249276,-0.015279048,0.054210994,0.47040096,-1.3881072,1.9108251,-2.0870745,-1.5769771,2.4376636,-0.050920185,0.27537084,-0.35669437,0.11993903,-0.044229735,-0.104669325,0.21068975,0.0,-9.251195,0.92764956,47.651955,-0.9154589,-1.7749646,-3.527761,-0.16825417,-0.34878486,-0.3341297,26.75,27.625,26.75,30.125,31.5625,32.125
0.27605188,0.5507778,0.17778927,-0.21146525,0.044024557,-0.029607844,-0.15842311,-0.3991679,-0.35128593,0.059963595,-3.0732005,0.6113433,-2.4478784e-05,-0.12963943,-0.019726977,0.0016073091,0.060714,-0.020275008,0.05323129,0.4702688,-1.3875294,1.910107,-2.086809,-1.5770859,2.4374838,-0.05175618,0.27856398,-0.35929292,0.12581155,-0.045955546,-0.10450828,0.2681506,-0.05746084,-9.385271,0.97240865,47.68599,-0.8930733,-1.7590611,-3.4919548,-0.22455457,-0.33989507,-0.37088227,26.75,27.625,26.75,30.125,31.5625,32.125
0.27805373,-0.49804604,-0.4194309,-0.21154967,0.01243728,-0.0016160308,-0.15763651,-0.39941615,-0.35134682,0.059968896,-3.0731432,0.61112034,-0.00010522901,-0.13048543,-0.01925863,-0.00065557275,0.06355661,-0.022137577,0.0524644,0.4701846,-1.3869631,1.9093674,-2.0865343,-1.577134,2.437268,-0.052196346,0.28410795,-0.36046094,0.124383666,-0.0476645,-0.10416433,0.114921674,-0.038307227,-9.308656,0.97464454,47.681515,-0.86511594,-1.9884951,-3.5231903,-0.252743,-0.32228655,-0.3844536,26.75,27.625,26.75,30.125,31.5625,32.125
0.28005183,-0.7705019,-0.92349756,0.001070651,-0.021461366,0.0531731,-0.16819453,-0.39968193,-0.35136947,0.060001004,-3.0730515,0.6109857,-3.5576053e-05,-0.13244158,-0.019614596,-0.00015676899,0.06372178,-0.01919144,0.05175347,0.47006458,-1.3864819,1.9086722,-2.086284,-1.5772547,2.437076,-0.05231477,0.28607234,-0.36374536,0.12314334,-0.04916276,-0.10355855,-0.019153614,0.05746084,-9.308656,0.97464454,47.688675,-0.86207974,-2.0286665,-3.522441,-0.27433038,-0.31814227,-0.418186,26.75,27.625,26.75,30.125,31.5625,32.125
0.28205186,-1.7771918,-1.3587286,-0.16493899,-0.01764467,0.054819055,-0.15711397,-0.39995617,-0.35141748,0.060001418,-3.0729556,0.6107143,-2.8822535e-05,-0.13393232,-0.0199375,2.0989051e-05,0.062550865,-0.014662364,0.05542493,0.46998057,-1.3858806,1.9079078,-2.086034,-1.5773748,2.4368353,-0.052364815,0.28632116,-0.36343494,0.117978424,-0.05021381,-0.10726873,0.095768064,0.095768064,-9.32781,0.9231726,47.674347,-0.95594513,-2.0613933,-3.7176828,-0.2191821,-0.31532568,-0.39316648,26.75,27.625,26.75,30.125,31.5625,32.125
0.28405175,-1.1644619,-1.03042,0.112258434,-0.018783078,0.07473943,-0.1613865,-0.40020043,-0.35146448,0.059991173,-3.0728776,0.6105216,-0.00010439459,-0.1379884,-0.020997468,0.001962988,0.06130749,-0.0051233848,0.059273075,0.46988457,-1.3853163,1.9072136,-2.0857966,-1.5774363,2.4366293,-0.05201206,0.2875529,-0.36820748,0.11242844,-0.053482015,-0.110733904,0.0,0.17238252,-9.251195,0.92093146,47.684196,-0.8873731,-1.8880045,-3.5315495,-0.1579119,-0.27553165,-0.40253994,26.75,27.625,26.75,30.125,31.5625,32.125
0.28605223,-0.893532,-0.622604,-0.06452248,-0.005694182,0.047311734,-0.161861,-0.40046808,-0.35151514,0.05998808,-3.0728214,0.6102756,-0.00010122076,-0.14063384,-0.021734862,0.0027214992,0.060396146,0.00069626165,0.06656156,0.46978867,-1.384739,1.9064955,-2.0855944,-1.5775207,2.4363873,-0.051836822,0.28916302,-0.37096924,0.107922435,-0.055369217,-0.117829524,0.0,0.28730422,-9.251195,0.97240865,47.687782,-1.0215589,-1.7616919,-3.5445824,-0.08038384,-0.22890422,-0.31831637,26.75,27.625,26.75,30.125,31.5625,32.125
0.28805175,-0.68363947,-1.0375073,-0.3588835,0.00050052203,0.03527611,-0.16094096,-0.40076536,-0.3515361,0.059989396,-3.0726843,0.61005276,-3.434095e-05,-0.14221859,-0.021534692,0.002616537,0.06046173,0.0015736091,0.07033861,0.4696683,-1.3841379,1.9057311,-2.0853555,-1.577689,2.4361458,-0.05320485,0.29126272,-0.37320355,0.107244,-0.055871837,-0.122966275,-0.26815057,0.36391866,-9.251196,0.9835985,47.684196,-0.9086605,-1.7840924,-3.5994189,-0.045989547,-0.24259469,-0.27151754,26.75,27.625,26.75,30.125,31.5625,32.125
0.2900519,-0.46957353,-1.4371777,-0.47865745,-0.011890591,0.034678027,-0.16030262,-0.40104744,-0.3515879,0.059991796,-3.072618,0.6097831,3.3038585e-05,-0.14253294,-0.021753507,0.0025832502,0.06301307,0.0023163084,0.07921633,0.46958494,-1.3835486,1.9049882,-2.0851638,-1.5778102,2.4359028,-0.051388193,0.29286155,-0.3753775,0.1082516,-0.058531675,-0.13000613,-0.40222588,0.5554548,-9.461885,0.9612189,47.681515,-1.0514766,-1.7217355,-3.6558452,-0.019245364,-0.21267822,-0.1932226,26.75,27.625,26.75,30.125,31.5625,32.125
0.29205203,-0.9189754,-1.7442045,-0.31143257,-0.04894002,0.041503143,-0.16275874,-0.40132177,-0.35160315,0.060004752,-3.072511,0.6095102,4.9491064e-05,-0.14336656,-0.020870585,0.0030171268,0.066465124,0.003689195,0.08198743,0.46945307,-1.3830078,1.9042591,-2.0848873,-1.5779432,2.4356146,-0.051245384,0.29326916,-0.37739363,0.110167585,-0.062261127,-0.1326025,-0.40222588,0.59376204,-9.461885,0.9545008,47.677036,-1.134644,-1.8092093,-3.5997515,-0.01096585,-0.13869992,-0.13724269,26.75,27.625,26.75,30.125,31.5625,32.125
0.29405195,-2.058155,-2.5531702,-0.22936352,-0.06362321,0.048117347,-0.14121781,-0.40158695,-0.3516628,0.059999704,-3.0724232,0.6091464,6.543207e-05,-0.14370807,-0.02114947,0.00261198,0.06611719,0.001188284,0.081130475,0.4694048,-1.3823951,1.9034942,-2.084647,-1.5780748,2.4353507,-0.05192418,0.29566032,-0.3799545,0.112386115,-0.06083191,-0.13242856,-0.4213795,0.53630114,-9.519346,0.9388393,47.692257,-1.0817832,-1.6820207,-3.6616817,0.0024126573,-0.10623842,-0.08794677,26.75,27.625,26.75,30.125,31.5625,32.125
0.29605192,-2.0733635,-2.4520068,-0.29279998,-0.06503764,0.05582729,-0.14914583,-0.401917,-0.35169482,0.06001712,-3.072324,0.6090146,0.000179543,-0.14475825,-0.020360073,0.0023732053,0.066875555,-0.0010915878,0.075245656,0.46925983,-1.3817809,1.9026812,-2.0844305,-1.5782188,2.4351366,-0.05436859,0.29786524,-0.3828633,0.115463465,-0.060463145,-0.12898889,-0.5554548,0.53630114,-9.442732,1.0261165,47.688675,-0.96802604,-1.719631,-3.737512,-0.011513928,-0.10990699,-0.10526548,26.75,27.625,26.75,30.125,31.5625,32.125
0.29805213,-1.8057637,-1.5993674,-0.06431801,-0.06283907,0.071377054,-0.15901391,-0.4021906,-0.35175607,0.060016323,-3.0722744,0.60873544,0.00018055107,-0.14361091,-0.021683631,0.0031009095,0.067199476,-0.0031413154,0.07318493,0.46917695,-1.381181,1.9019259,-2.084213,-1.5783023,2.434886,-0.051451307,0.29800102,-0.38595352,0.1204126,-0.059802096,-0.124011464,-0.59376204,0.40222588,-9.3661175,1.0037369,47.689575,-1.1368495,-1.5293837,-3.708396,-0.04600449,-0.096306674,-0.15140386,26.75,27.625,26.75,30.125,31.5625,32.125
0.30005676,-0.89935255,-0.5591192,0.13742298,-0.030698996,0.067276664,-0.15850297,-0.4025048,-0.3517987,0.060033854,-3.072202,0.6085113,0.00027958376,-0.14252223,-0.021298211,0.0014654899,0.06955805,-0.011972689,0.06866879,0.46905673,-1.3805788,1.9011258,-2.083995,-1.5784339,2.4346354,-0.052300382,0.30247366,-0.38945916,0.12838747,-0.05788784,-0.12035628,-0.47884032,0.3256114,-9.308657,0.91198283,47.687782,-1.2088577,-1.6722106,-3.7008433,-0.10556999,-0.09467631,-0.18410891,26.75,27.625,26.75,30.125,31.5625,32.125
0.3020526,-0.075544536,0.098541595,0.1420974,0.02355764,0.03232661,-0.15505354,-0.4027633,-0.35184175,0.05999376,-3.0720952,0.6082633,0.0001490634,-0.14326854,-0.021626642,0.00066796766,0.06862286,-0.014804772,0.060912736,0.46894816,-1.3799284,1.9003948,-2.0837557,-1.5785049,2.434386,-0.05366887,0.3060205,-0.39235574,0.12986845,-0.055761926,-0.113974124,-0.34476504,0.30645782,-9.136273,1.0238806,47.685097,-1.1836227,-1.7473564,-3.6724184,-0.14784324,-0.09236853,-0.26236114,26.75,27.625,26.75,30.125,31.5625,32.125
0.30405277,0.5295274,1.1560857,0.29228297,0.037322365,0.0032284146,-0.16335796,-0.4030634,-0.35189545,0.060012978,-3.0720267,0.6080754,0.00023917368,-0.14296278,-0.021694623,-0.00017272067,0.06937178,-0.020838957,0.060289413,0.46885183,-1.3793393,1.8996056,-2.0835378,-1.5786241,2.4341815,-0.0545179,0.30957004,-0.39613107,0.13578755,-0.05370552,-0.11421328,-0.4213795,0.11492168,-9.174581,0.9545008,47.658226,-1.115336,-1.8487493,-3.6309476,-0.19874397,-0.11284804,-0.28988048,26.75,27.625,26.75,30.125,31.5625,32.125
0.3060518,0.6119234,1.2714554,0.2747237,0.048011962,-0.01829056,-0.15706235,-0.40335318,-0.35194302,0.060018785,-3.0719352,0.60792446,0.00020865528,-0.1442932,-0.02256851,2.6338974e-05,0.06844415,-0.021288238,0.05595808,0.46873194,-1.3787255,1.8988045,-2.0832627,-1.578708,2.4339795,-0.054769192,0.3126306,-0.40072602,0.1373169,-0.052672565,-0.11013448,-0.24899697,0.076614454,-8.925584,1.1201116,47.71286,-1.1279438,-2.0513084,-3.5411325,-0.22745906,-0.12981844,-0.36606818,26.75,27.625,26.75,30.125,31.5625,32.125
0.30805188,0.14368409,0.5582075,0.34444565,0.04180285,-0.02355728,-0.14554498,-0.40367556,-0.35197487,0.06000834,-3.0717664,0.6076596,0.0002545364,-0.14587736,-0.023538668,0.0007023128,0.06605163,-0.01907116,0.053458557,0.4686237,-1.3780283,1.897942,-2.0829875,-1.5788993,2.433728,-0.05512921,0.31386814,-0.40361682,0.13589846,-0.05155319,-0.107996866,-0.15322891,0.038307227,-8.887277,0.99031126,47.651955,-1.178733,-1.8977327,-3.5211315,-0.24406534,-0.15123773,-0.4194712,26.75,27.625,26.75,30.125,31.5625,32.125
0.3100522,-0.71832573,-0.31072783,0.6756381,0.005198541,-0.0029042107,-0.1475373,-0.40394413,-0.35202456,0.06001365,-3.0716817,0.6075462,0.0001602631,-0.14790174,-0.02462425,0.0017353477,0.06342731,-0.016179401,0.05248945,0.46850365,-1.3774393,1.8971652,-2.0826886,-1.578947,2.4335485,-0.05560744,0.31518835,-0.4074227,0.13460821,-0.05054334,-0.107506745,-0.28730422,0.019153614,-8.868123,1.0641627,47.64837,-1.1508191,-1.8477323,-3.4272928,-0.22863145,-0.16269004,-0.47533798,26.75,27.625,26.75,30.125,31.5625,32.125
0.31205228,-1.2756783,-0.9605301,0.86124253,-0.025029026,0.030147443,-0.14265345,-0.40425348,-0.35207993,0.06000473,-3.0715747,0.60734993,0.00014219541,-0.15068084,-0.025759706,0.0022221194,0.059675984,-0.011014587,0.05382156,0.46839535,-1.3767542,1.8963155,-2.0824277,-1.5790547,2.4333317,-0.05662902,0.3170283,-0.40957102,0.12857445,-0.049576722,-0.10986221,-0.114921674,0.019153614,-8.925584,0.9254084,47.64837,-1.0818162,-1.8557751,-3.4657097,-0.14865887,-0.16856349,-0.5110218,26.75,27.625,26.75,30.125,31.5625,32.125
0.3140525,-0.9975381,-0.9041453,0.5651665,-0.031350765,0.049433786,-0.15326343,-0.40456092,-0.35214293,0.06002239,-3.071514,0.6071225,0.00014144128,-0.15320033,-0.026991393,0.0033561029,0.055878468,-0.006283416,0.05851259,0.46828702,-1.3761173,1.8954562,-2.082142,-1.5791386,2.4330895,-0.05739634,0.31794262,-0.41255587,0.12464428,-0.0483856,-0.11532606,-0.076614454,0.11492168,-8.887277,0.9254084,47.619713,-1.1139846,-1.8211231,-3.4856029,-0.11124897,-0.19391039,-0.4903099,26.75,27.625,26.75,30.125,31.5625,32.125
0.3160525,-0.6755562,-0.73309356,0.53541166,-0.03453318,0.0631039,-0.1625304,-0.40484866,-0.35219872,0.060002692,-3.0714345,0.60683155,0.00010911432,-0.15425274,-0.027322132,0.003243733,0.05398015,-0.005060123,0.067769535,0.46819073,-1.375456,1.8946661,-2.0819156,-1.579234,2.432822,-0.058346126,0.3189213,-0.41310468,0.12215964,-0.047332145,-0.12553716,-0.095768064,0.17238252,-9.021352,1.0261165,47.693153,-1.028275,-1.6757,-3.5756464,-0.06017463,-0.21216634,-0.41389108,26.75,27.625,26.75,30.125,31.5625,32.125
0.3180525,-0.8528017,-1.0520556,0.48531786,-0.014276317,0.040283363,-0.1557473,-0.40517974,-0.35224134,0.06002705,-3.071378,0.6066818,0.00017700487,-0.15538499,-0.027785538,0.0026184137,0.05417511,-0.0058805416,0.0735507,0.46803465,-1.3748425,1.8938287,-2.0816753,-1.5793298,2.43258,-0.058552355,0.32266998,-0.41636398,0.12241914,-0.047188666,-0.13152394,-0.076614454,0.21068975,-9.059659,1.0082139,47.66091,-1.0278461,-1.7441144,-3.5789132,-0.008446673,-0.2383775,-0.35711822,26.75,27.625,26.75,30.125,31.5625,32.125
0.32005247,0.3406411,-0.23870762,0.2554122,0.0010351543,0.028758734,-0.16006005,-0.40544283,-0.3522693,0.059957497,-3.071182,0.6063493,5.4618093e-05,-0.15670377,-0.028174184,0.002774207,0.053303424,-0.0050906613,0.08118406,0.46795037,-1.3741208,1.8930749,-2.0814245,-1.5794863,2.4323137,-0.059188448,0.3244625,-0.4189809,0.12204728,-0.046861265,-0.1397858,-0.19153613,0.30645782,-9.097966,0.9365982,47.655537,-1.0385578,-1.7670138,-3.5834417,0.015914943,-0.2601773,-0.24339706,26.75,27.625,26.75,30.125,31.5625,32.125
0.32205263,0.11254444,-0.42604268,0.2454093,-0.001068482,0.011112645,-0.15325308,-0.40577182,-0.3523307,0.05996454,-3.0711458,0.6061282,4.2017225e-05,-0.15799835,-0.028167777,0.0025439784,0.053613193,-0.005810128,0.08411639,0.46780598,-1.3734475,1.8922023,-2.0811722,-1.5795459,2.4320362,-0.06025252,0.32731482,-0.42231524,0.12326113,-0.046856824,-0.14377892,-0.28730422,0.30645782,-9.155427,0.98807013,47.65106,-0.99875605,-1.8359444,-3.557911,0.028447757,-0.28836378,-0.18378365,26.75,27.625,26.75,30.125,31.5625,32.125
0.3240525,-0.068904564,-0.48307163,0.054734968,-0.01182063,0.007630025,-0.15262038,-0.40604234,-0.3523917,0.059949987,-3.0710664,0.60574657,-2.487085e-05,-0.15756851,-0.028312208,0.0021202264,0.055352148,-0.010302915,0.08444398,0.46773428,-1.3727977,1.8914012,-2.0808952,-1.5796417,2.4317365,-0.05986864,0.32998723,-0.426012,0.12906176,-0.046397727,-0.14371994,-0.17238252,0.30645782,-9.11712,0.9567419,47.652847,-0.99877834,-1.8903509,-3.520435,0.03662512,-0.29353908,-0.14685403,26.75,27.625,26.75,30.125,31.5625,32.125
0.32605162,-0.10242954,-0.82206196,-0.22582722,0.0018966745,0.011909386,-0.15203798,-0.40636197,-0.3524492,0.059962075,-3.071046,0.60549706,-7.6456236e-05,-0.15664935,-0.025794582,0.0005557523,0.060403634,-0.019065367,0.07717583,0.4675771,-1.3721486,1.890539,-2.0806162,-1.5796779,2.4314263,-0.062966414,0.33266607,-0.42789286,0.13838995,-0.046925277,-0.13954191,-0.36391866,0.45968673,-9.251195,0.9947882,47.68599,-0.9022378,-1.9269375,-3.5266523,-0.05970659,-0.3259334,-0.15493241,26.75,27.625,26.75,30.125,31.5625,32.125
0.32805252,-0.24342833,-0.77238053,-0.080640785,-0.02594966,0.03200333,-0.14841117,-0.4066551,-0.3524832,0.059939068,-3.0708666,0.6051936,-0.00018756847,-0.15262127,-0.024687633,-0.0025495007,0.06703383,-0.03077123,0.07294745,0.46746984,-1.3714387,1.8896664,-2.0802543,-1.579822,2.431153,-0.06092588,0.33602098,-0.42706823,0.1476829,-0.04753263,-0.1332593,-0.3256114,0.4405331,-9.423578,1.044019,47.64479,-0.9310893,-1.9773623,-3.8307998,-0.17621882,-0.3491,-0.21202263,26.75,27.625,26.75,30.125,31.5625,32.125
0.33005255,-0.5092078,-1.3571556,0.0030525257,-0.033852763,0.058141015,-0.15105583,-0.40697098,-0.3525444,0.059968535,-3.0708158,0.6050315,-0.000204015,-0.15228815,-0.023893014,-0.003035809,0.06890725,-0.035242524,0.06732853,0.46733725,-1.3708131,1.8887843,-2.079941,-1.579882,2.430926,-0.062150605,0.33765313,-0.42930585,0.15314929,-0.047166012,-0.12886518,-0.34476504,0.34476504,-9.346964,1.0798295,47.668976,-0.9230773,-1.9977603,-3.8954031,-0.24403112,-0.37272713,-0.28489786,26.75,27.625,26.75,30.125,31.5625,32.125
0.3320525,-1.0445168,-1.2999924,-0.37722853,-0.031164968,0.05432531,-0.14725277,-0.40727934,-0.35256103,0.059916597,-3.0706043,0.6047978,-0.00037961063,-0.1545914,-0.022791095,-0.0021556318,0.0705126,-0.033840295,0.06212867,0.46718055,-1.3700444,1.8879098,-2.079593,-1.5800151,2.4306512,-0.06465436,0.33888102,-0.43354574,0.15564127,-0.049254928,-0.12613775,-0.4405331,0.40222588,-9.404425,0.9567419,47.661808,-0.93836856,-1.9027176,-3.8709488,-0.31983042,-0.38014698,-0.33437416,26.75,27.625,26.75,30.125,31.5625,32.125
0.33405295,-0.8239393,-1.0724429,-0.35255143,-0.03428071,0.068718,-0.15355326,-0.40759203,-0.35261175,0.05993627,-3.070516,0.60464525,-0.0004051141,-0.15839894,-0.023704182,0.0004190827,0.06724081,-0.025240945,0.06151439,0.46704805,-1.369408,1.8870348,-2.0792716,-1.580099,2.4304352,-0.065702885,0.33828267,-0.43797162,0.15149693,-0.050246786,-0.12655751,-0.3256114,0.34476504,-9.5385,1.0753525,47.67793,-0.73672414,-1.8781825,-3.7647715,-0.29357874,-0.39922947,-0.35104418,26.75,27.625,26.75,30.125,31.5625,32.125
0.33605278,-0.6798784,-0.6325586,-0.23773293,-0.054637812,0.076864645,-0.15765613,-0.40790993,-0.35267138,0.059919804,-3.0704086,0.6044113,-0.00044167697,-0.16180898,-0.026784468,0.0008364363,0.062457442,-0.018358557,0.06055836,0.4669408,-1.368686,1.8861507,-2.0789998,-1.5802063,2.430196,-0.06404415,0.3429125,-0.44290602,0.14350459,-0.0491025,-0.123945065,-0.28730422,0.30645782,-9.576807,0.9925471,47.694946,-0.90352815,-1.8924316,-3.594614,-0.23414484,-0.44166327,-0.41536123,26.75,27.625,26.75,30.125,31.5625,32.125
0.3380518,-0.5033949,-1.1669718,-0.47534728,-0.043402575,0.09269327,-0.16048445,-0.40824375,-0.35272482,0.059927117,-3.070347,0.60414857,-0.00045387805,-0.1661134,-0.02667659,0.0017042509,0.06120026,-0.009996599,0.061699692,0.46679607,-1.3680006,1.8852528,-2.0787146,-1.5802921,2.4298954,-0.06619097,0.34469163,-0.44561934,0.13636701,-0.051806733,-0.12720343,-0.22984336,0.28730422,-9.730036,0.9925471,47.677036,-0.8277532,-2.0096073,-3.55524,-0.15644218,-0.43157452,-0.4154565,26.75,27.625,26.75,30.125,31.5625,32.125
0.34005183,-1.3479767,-0.677772,-0.5910954,-0.046387095,0.07466207,-0.15163423,-0.40859863,-0.3527707,0.059913922,-3.0702384,0.6040272,-0.00047541683,-0.16804387,-0.025218794,0.00031723475,0.0647113,-0.008075022,0.064053886,0.4666275,-1.3672544,1.8843335,-2.0784523,-1.5803894,2.4296656,-0.067738034,0.34810835,-0.44603345,0.13318472,-0.055863596,-0.13106193,-0.24899697,0.21068975,-9.80665,1.0261165,47.66987,-0.66461843,-2.0166223,-3.7080522,-0.0711729,-0.42202288,-0.4124785,26.75,27.625,26.75,30.125,31.5625,32.125
0.34205186,-1.5767343,-0.98111194,-0.74739534,-0.03158568,0.085790955,-0.15090036,-0.408907,-0.35283998,0.059918158,-3.0702126,0.6036915,-0.0004475381,-0.16967988,-0.024569705,-0.0014891087,0.06777758,-0.006775555,0.07123276,0.46653152,-1.3666044,1.8834971,-2.0782263,-1.5804743,2.4293633,-0.06808374,0.35277987,-0.44685283,0.1294744,-0.059265662,-0.13855198,-0.2681506,0.11492168,-9.864111,1.0149267,47.67166,-0.6161583,-2.0873473,-3.9048958,-0.0237148,-0.39536613,-0.32800978,26.75,27.625,26.75,30.125,31.5625,32.125
0.34405318,-1.990754,-1.2675917,-0.66758454,-0.025862522,0.0864631,-0.148917,-0.4092536,-0.35289863,0.05990722,-3.0701096,0.6034538,-0.0004737259,-0.1693105,-0.023870472,-0.0024110319,0.07059301,-0.010275449,0.07904673,0.46639928,-1.365847,1.8825525,-2.0779374,-1.580583,2.4290962,-0.068243906,0.35492513,-0.44835663,0.13312776,-0.06028451,-0.14651114,-0.22984336,0.15322891,-9.921572,0.9567419,47.653748,-0.67959905,-2.274994,-3.9944377,-0.01401718,-0.40298063,-0.22847939,26.75,27.625,26.75,30.125,31.5625,32.125
0.34605214,-0.86925614,-0.41125038,-0.5478496,-0.020930119,0.09997021,-0.15119866,-0.40960267,-0.3529267,0.05991109,-3.07,0.6031784,-0.00040437997,-0.17251961,-0.023735063,-0.00013604897,0.071700916,-0.0036361115,0.08523289,0.46624318,-1.3651624,1.881667,-2.0776746,-1.5807403,2.4287825,-0.06864313,0.35484132,-0.45358843,0.13292807,-0.064339496,-0.15305313,-0.3256114,0.019153614,-9.710882,1.0507371,47.678825,-0.60842896,-2.2573776,-3.9657502,0.02008696,-0.37401694,-0.14188102,26.75,27.625,26.75,30.125,31.5625,32.125
0.3480524,-0.85840625,0.62419,-0.59271103,0.01715833,0.06103685,-0.1495498,-0.40993375,-0.3529715,0.059894405,-3.0698977,0.6028696,-0.00036562135,-0.17437893,-0.023597784,-0.000101197606,0.07480295,-0.0032555952,0.08424964,0.46612322,-1.3644522,1.8808049,-2.0774457,-1.5808848,2.428483,-0.06857631,0.3588254,-0.45924544,0.13564779,-0.06729498,-0.15196763,-0.36391866,0.11492168,-9.710882,1.0104496,47.687782,-0.6236068,-2.2337556,-3.77805,0.04270679,-0.3292622,-0.0987407,26.75,27.625,26.75,30.125,31.5625,32.125
0.3500521,-0.38828665,0.65681756,-0.58433735,0.05052129,0.035611767,-0.14834534,-0.41031516,-0.35303506,0.059930135,-3.069852,0.6026107,-0.00019464754,-0.17377116,-0.022347279,0.0010078559,0.07907855,-0.0043284716,0.0826294,0.4659923,-1.3637565,1.8798369,-2.0772035,-1.5810298,2.4281964,-0.06804734,0.35690036,-0.46114817,0.14235944,-0.07060369,-0.14978899,-0.49799395,0.15322891,-9.672575,0.97240865,47.70032,-0.6749724,-2.131021,-3.7395895,0.024699006,-0.28002754,-0.08219162,26.75,27.625,26.75,30.125,31.5625,32.125
0.35205254,-0.13551342,0.8640032,-0.6690771,0.04069355,0.027020795,-0.14368129,-0.4106831,-0.35310483,0.059961025,-3.069802,0.60225934,-6.8563226e-05,-0.17220396,-0.021014733,0.001116749,0.08411208,-0.009731375,0.07729684,0.46588364,-1.3630474,1.8788556,-2.076925,-1.5811747,2.4278748,-0.067644596,0.35669783,-0.46350208,0.15204279,-0.07261451,-0.14403383,-0.5363012,0.15322891,-9.615114,0.9992599,47.6636,-0.75902355,-1.9233443,-3.7707682,-0.042130187,-0.24581034,-0.15001622,26.75,27.625,26.75,30.125,31.5625,32.125
0.35405263,0.5928355,0.87770647,-0.6403621,0.030322034,0.029749315,-0.15405929,-0.41100198,-0.35311174,0.059920326,-3.0695512,0.6020361,-0.00016586481,-0.16971928,-0.019585475,-0.0011945899,0.09203126,-0.019323133,0.07298664,0.46574023,-1.3622888,1.8779596,-2.0765626,-1.5813679,2.427625,-0.06617319,0.36080718,-0.46561983,0.16221209,-0.075354,-0.13820854,-0.3256114,0.019153614,-9.595961,0.9791215,47.661808,-0.7700114,-1.9519416,-3.816687,-0.1471237,-0.20630851,-0.22530034,26.75,27.625,26.75,30.125,31.5625,32.125
0.3560517,-0.083903015,-0.017386526,-0.5865081,0.027353348,0.022688031,-0.14684732,-0.41134146,-0.3531616,0.059926916,-3.0694377,0.601766,-0.0001963891,-0.16944812,-0.017677125,-0.001691164,0.09534674,-0.024383528,0.06654081,0.46560723,-1.3615687,1.8770036,-2.0762131,-1.581488,2.4273381,-0.06868566,0.3618164,-0.4674276,0.16903971,-0.076022625,-0.13425995,-0.30645782,-0.038307227,-9.5385,1.099968,47.683304,-0.7963067,-1.9419042,-3.853914,-0.24071297,-0.1693855,-0.27725315,26.75,27.625,26.75,30.125,31.5625,32.125
0.3580518,-0.47187638,0.19663724,-0.1839146,-0.0077082287,0.03288336,-0.14095668,-0.41169348,-0.3531927,0.059950296,-3.0692954,0.60164106,-0.00019499997,-0.17138246,-0.018562391,-0.0024632013,0.097982645,-0.023062762,0.06441252,0.46543983,-1.3608817,1.8760442,-2.0758426,-1.581621,2.4271116,-0.06693779,0.3678141,-0.47296286,0.1686035,-0.07897463,-0.13034387,-0.19153613,-0.21068975,-9.5385,1.1223475,47.687782,-0.6844921,-2.1225002,-3.8628936,-0.29114637,-0.109042495,-0.34253758,26.75,27.625,26.75,30.125,31.5625,32.125
0.36005196,0.096054435,0.23500359,-0.2687349,-0.0006390196,0.04765926,-0.16068535,-0.4120585,-0.3532307,0.05997219,-3.06915,0.60141885,-8.9939174e-05,-0.17481838,-0.021601388,-0.00040687385,0.09078373,-0.016369838,0.06080378,0.4653087,-1.3601737,1.8750738,-2.0755212,-1.5818118,2.4268608,-0.06675527,0.36950788,-0.47882593,0.16355562,-0.0755523,-0.1265805,0.2681506,-0.22984336,-9.557653,1.0126908,47.695843,-0.8488854,-2.089937,-3.6708994,-0.2683218,-0.12832928,-0.42440307,26.75,27.625,26.75,30.125,31.5625,32.125
0.36205482,-0.39834607,-0.65938205,-0.25903365,-0.02520676,0.055361014,-0.14672995,-0.4123829,-0.3532648,0.059953753,-3.0689836,0.60111696,-0.00017944725,-0.17855567,-0.023159297,-0.00022565205,0.08530675,-0.009817248,0.057638217,0.46517646,-1.3594294,1.8741406,-2.0751536,-1.5819548,2.4265618,-0.06841197,0.3726177,-0.48123914,0.15452796,-0.07363987,-0.12507679,-0.19153613,-0.095768064,-9.481039,0.9612189,47.681515,-0.79267573,-2.2017949,-3.5489192,-0.15619636,-0.10748665,-0.496971,26.75,27.625,26.75,30.125,31.5625,32.125
0.3640519,-0.5298511,-1.1234988,-0.46913418,-0.04141885,0.041688904,-0.15366754,-0.41274396,-0.3533235,0.059963495,-3.0688617,0.60093665,-0.00013063157,-0.1816532,-0.024522582,0.0015917034,0.08038319,-0.0015141328,0.060586125,0.46505526,-1.3586863,1.8731574,-2.074845,-1.5820988,2.4263442,-0.06904267,0.3718243,-0.48312825,0.14751159,-0.07302973,-0.12865695,-0.019153614,0.17238253,-9.595961,1.0104496,47.682407,-0.637395,-2.0559847,-3.6027184,-0.06854297,-0.09394935,-0.5094788,26.75,27.625,26.75,30.125,31.5625,32.125
0.36605242,-0.09696026,-1.598348,-0.7103923,-0.05848029,0.039107528,-0.15330637,-0.41311836,-0.35336816,0.059979297,-3.0687418,0.6007141,-3.8019803e-05,-0.18111032,-0.02725507,0.0019084801,0.0753111,-0.0019770178,0.06845558,0.4649129,-1.3579553,1.8721765,-2.0745456,-1.5822653,2.4260786,-0.06673892,0.37249205,-0.48469377,0.14643575,-0.06835616,-0.13426867,0.17238252,0.22984336,-9.634268,1.0462601,47.666286,-0.8753698,-1.9868121,-3.7644072,-0.016833033,-0.12585972,-0.4719438,26.75,27.625,26.75,30.125,31.5625,32.125
0.3680526,0.3251584,-1.8951557,-0.5104947,-0.068560004,0.018221999,-0.15918873,-0.41345355,-0.35340104,0.059964303,-3.0686219,0.60045177,-8.05451e-05,-0.18217278,-0.027121695,0.0032171477,0.07392203,-0.0013287207,0.07935856,0.46475556,-1.3572358,1.8712786,-2.0742452,-1.582385,2.4257731,-0.068280965,0.3715495,-0.48725793,0.1485659,-0.06754065,-0.14671558,-0.11492168,0.40222588,-9.672575,1.0865422,47.677036,-0.857422,-1.8037045,-3.8178034,0.0005254131,-0.12967798,-0.3838263,26.75,27.625,26.75,30.125,31.5625,32.125
0.37005186,0.15090224,-2.0614238,-0.623235,-0.051393304,-0.0027118665,-0.1542677,-0.41382623,-0.3534733,0.059976205,-3.0685477,0.6000878,-1.1034789e-05,-0.18274096,-0.027926695,0.0033542523,0.07290733,-0.0027570282,0.08753339,0.4646476,-1.3564671,1.8702601,-2.0739453,-1.5825285,2.4254475,-0.06822049,0.3736266,-0.4908181,0.15074201,-0.066081375,-0.15484239,-0.05746084,0.4213795,-9.691729,1.0462601,47.705692,-0.8037621,-1.7483304,-3.9083927,-0.0057110256,-0.12909974,-0.29464695,26.75,27.625,26.75,30.125,31.5625,32.125
0.3720519,0.9142158,-1.6724707,-0.9899252,-0.030897485,-0.006164808,-0.15407969,-0.4142058,-0.35350695,0.060006488,-3.0684612,0.5998918,9.766907e-05,-0.18018247,-0.027339919,0.0011989039,0.07616512,-0.013236432,0.093853176,0.46446848,-1.3557833,1.8693036,-2.073655,-1.5826715,2.4251573,-0.06799696,0.37702817,-0.49214756,0.15938567,-0.06434726,-0.16095689,-0.05746084,0.49799395,-9.768343,1.0462601,47.694054,-0.7992904,-1.7776923,-3.8692641,-0.07295851,-0.15740044,-0.19682564,26.75,27.625,26.75,30.125,31.5625,32.125
0.37405196,0.9017722,-1.1791892,-0.54924786,-0.03819259,-0.00035079732,-0.16006033,-0.4145619,-0.35355616,0.060016926,-3.0683587,0.599545,0.00011734663,-0.17871599,-0.02622203,-0.0010835606,0.079890005,-0.023885777,0.093468994,0.46433607,-1.3550507,1.8683223,-2.0733163,-1.582815,2.4248216,-0.06942667,0.38193724,-0.49515623,0.1686261,-0.062923834,-0.16201162,-0.038307227,0.40222588,-9.672575,1.0529729,47.67345,-0.79729503,-1.9409585,-3.896995,-0.16077083,-0.17348278,-0.15940452,26.75,27.625,26.75,30.125,31.5625,32.125
0.376052,0.08588351,-1.0419902,-0.2143985,-0.045046106,0.001144055,-0.15595353,-0.41490808,-0.35362795,0.06002954,-3.068285,0.5991673,9.112058e-05,-0.17778091,-0.027026614,-0.001416731,0.08090399,-0.029988201,0.089842774,0.46422842,-1.3543056,1.8673152,-2.072955,-1.5829228,2.4244876,-0.068335526,0.38503265,-0.50012016,0.17643198,-0.06106913,-0.15730661,-0.11492168,0.5554548,-9.442732,1.0395473,47.696735,-0.8054459,-1.9489324,-3.804671,-0.25877717,-0.18431693,-0.1587857,26.75,27.625,26.75,30.125,31.5625,32.125
