Tylouw/Master_Thesis_Code/training_data/batch_1/small_rod_t0.1/sample_88_session_3.csv
timestamp[s],tcp_force_x[N],tcp_force_y[N],tcp_force_z[N],tcp_force_rx[Nm?],tcp_force_ry[Nm?],tcp_force_rz[Nm?],tcp_pose_x[m],tcp_pose_y[m],tcp_pose_z[m],tcp_pose_rx[rot_vec_x],tcp_pose_ry[rot_vec_y],tcp_pose_rz[rot_vec_z],tcp_velo_x[m/s],tcp_velo_y[m/s],tcp_velo_z[m/s],tcp_velo_rx[rot_vec_x/s],tcp_velo_ry[rot_vec_y/s],tcp_velo_rz[rot_vec_z/s],q1[rad],q2[rad],q3[rad],q4[rad],q5[rad],q6[rad],qd1[rad/s],qd2[rad/s],qd3[rad/s],qd4[rad/s],qd5[rad/s],qd6[rad/s],tool_acc_x,tool_acc_y,tool_acc_z,current_of_whole_robot[A],voltage_of_whole_robot[V],current_J1[A],current_J2[A],current_J3[A],current_J4[A],current_J5[A],current_J6[A],temp_J1[C],temp_J2[C],temp_J3[C],temp_J4[C],temp_J5[C],temp_J6[C]
7.5800926e-07,-0.21858224,-0.60385406,1.0480596,0.008724387,0.013491847,-0.00074634585,-0.38106018,-0.3485395,0.0599654,-3.0785408,0.62486285,-0.00017358211,0.0023889756,0.0012590946,-0.0021384708,0.0023805692,-0.0049500903,-4.582573e-05,0.47781008,-1.425922,1.9577159,-2.1008565,-1.5707458,2.452752,-0.00013853614,-3.3900358e-06,0.004712759,0.00078036747,0.00017418583,-9.555201e-05,0.095768064,0.076614454,-8.714894,0.7486078,47.693153,-0.034046914,-2.7491875,-2.5791779,-0.44202566,0.08114866,0.06354238,26.5625,27.5,26.625,29.9375,31.3125,31.8125
0.002052762,0.014677855,0.09817518,1.1367365,-0.0026676646,0.01854769,-0.012836389,-0.3810673,-0.34852973,0.05994395,-3.0785232,0.6248786,-0.00020100329,-0.00042823792,-0.00020947571,-0.0032362822,-0.0008790424,0.001299292,-4.0672607e-05,0.47778612,-1.4258844,1.9577283,-2.1008842,-1.5707458,2.4527402,-0.00013555567,0.0042662746,0.004995799,-0.010820706,0.00016896953,-9.485435e-05,0.019153614,0.19153613,-8.599973,0.7463667,47.704796,-0.06376207,-2.8466492,-2.514005,-0.40252668,0.08074011,0.059631284,26.5625,27.5,26.625,29.9375,31.3125,31.8125
0.004051888,0.1840088,-0.1757534,1.0936035,0.010141303,0.01645218,-0.010868755,-0.38106397,-0.34854147,0.059951443,-3.078535,0.6248999,-0.0001699802,-0.0012971626,-0.0006619835,-0.0028214995,-0.001955202,0.00337585,-3.856456e-05,0.47781008,-1.4258964,1.9577278,-2.100897,-1.5707458,2.452776,-0.00013270004,0.0045165904,0.0041623097,-0.012576373,0.00016385684,-9.3279814e-05,0.019153614,0.15322891,-8.6574335,0.78888994,47.71823,-0.045615226,-3.1823826,-2.6494684,-0.30446064,0.07558738,0.049046237,26.5625,27.5,26.625,29.9375,31.3125,31.8125
0.00605228,0.36756074,0.1545788,0.918607,0.026337411,0.0004955409,-0.010364662,-0.38105085,-0.34853718,0.059948344,-3.0785112,0.62485677,-0.00020344123,-0.0010743152,-0.0005450554,-0.0012182816,-0.0018215635,0.003142466,-3.775883e-05,0.47782204,-1.4258974,1.9577273,-2.100859,-1.5707573,2.452764,-0.0001299628,0.002057211,0.0022440546,-0.007930019,0.00015903202,-9.169992e-05,-0.038307227,0.095768064,-8.63828,0.7396539,47.691364,-0.06080709,-3.0201683,-2.6113071,-0.32685992,0.0724038,0.05825767,26.5625,27.5,26.625,29.9375,31.3125,31.8125
0.008052467,0.4086122,0.8770922,0.62711304,0.046320174,-0.022675738,-0.011668623,-0.3810745,-0.34853825,0.059946112,-3.078554,0.624789,-0.00011771528,-0.00053127843,-0.0002612117,4.2639247e-05,-0.0014777856,0.0025052654,-3.7419948e-05,0.4778101,-1.425886,1.9577383,-2.1009414,-1.5707697,2.4527044,-0.000127336,-0.000486716,0.0013044944,-0.0037225871,0.00015448211,-9.016899e-05,-0.019153614,0.095768064,-8.772355,0.7530795,47.70032,-0.06474714,-2.9514732,-2.5269566,-0.35310572,0.07600017,0.05364153,26.5625,27.5,26.625,29.9375,31.3125,31.8125
0.010052504,1.1689065,1.0417744,0.33893782,0.034594443,0.00085815386,-0.02520932,-0.38107824,-0.34852865,0.05994758,-3.078523,0.6249551,-0.00017186647,-0.0001535781,-5.7699304e-05,0.00013466655,-0.0008205563,0.0012539311,-4.8351023e-05,0.47777408,-1.4258863,1.9577268,-2.1009047,-1.5707458,2.452776,-0.00013654464,-0.0007246808,0.0008966883,-0.0016633808,0.00015018527,-8.868801e-05,0.019153614,0.095768064,-9.155427,0.7530795,47.67614,-0.4120906,-2.2582417,-3.06948,-0.4202988,0.09157496,0.0028865742,26.5625,27.5,26.625,29.9375,31.3125,31.8125
0.012052468,0.08572086,0.15751012,-0.071613535,6.659832e-05,-0.0018255987,-0.013206865,-0.3810246,-0.3485079,0.059902955,-3.0784295,0.62482107,-0.0003122791,3.669999e-05,2.4544708e-05,-0.0034605204,0.0026843022,-0.0055987122,9.3970324e-05,0.4778101,-1.4258597,1.957785,-2.1008456,-1.5707816,2.4527402,-0.00013645118,0.00793575,-0.00096045487,-0.00077000476,0.00018688494,-0.00022886936,0.05746084,0.11492168,-9.270349,0.73741806,47.69763,-0.55469865,-2.206478,-3.1165195,-0.45599037,0.109206654,-0.056872677,26.5625,27.5,26.625,29.9375,31.3125,31.8125
0.014052549,-0.54522836,-1.0190234,-0.1263503,-0.027218847,0.017675573,-0.014481185,-0.38104695,-0.3485092,0.059898056,-3.0784268,0.6248385,-0.00034080853,-0.0045694266,0.001369334,-0.0047146278,0.0033411428,-0.0072410395,0.00043519516,0.4777839,-1.4258083,1.957735,-2.1008332,-1.5707697,2.4527252,-0.006898618,0.016190354,-0.0075165057,-0.000709899,0.00034167958,-0.007327942,-0.038307227,0.26815057,-9.5385,0.7418897,47.729877,-0.3542189,-3.009482,-2.9909306,-0.47020644,0.1357345,-0.06842682,26.5625,27.5,26.625,29.9375,31.3125,31.8125
0.016052509,-1.135883,-1.9693267,-0.17112836,-0.056537613,0.035428084,-0.025860066,-0.381027,-0.3485344,0.05988875,-3.078476,0.6248079,-0.00041407958,-0.005272171,0.00054987206,-0.0034762826,-0.0024024285,-0.0063448586,0.0062653027,0.47780687,-1.4257972,1.9577464,-2.100846,-1.5707077,2.4527228,-0.0091342935,0.0141290035,-0.0077302177,-0.0018892009,0.005023447,-0.015402592,-0.15322891,0.3256114,-9.615114,0.7351769,47.690468,-0.23296528,-2.7047324,-3.1465118,-0.48768216,0.12447584,0.027928406,26.5625,27.5,26.625,29.9375,31.3125,31.8125
0.018052254,-0.94510114,-1.7594105,-0.44962248,-0.07303291,0.05898577,-0.032788698,-0.3810321,-0.34851342,0.059875324,-3.0784254,0.6247574,-0.00041296016,-0.00466109,-0.00047375297,-0.003644026,-0.004941926,-0.0074402974,0.008430164,0.4777952,-1.4257731,1.9577469,-2.1008337,-1.5707544,2.452686,-0.008540576,0.01424936,-0.007316875,-0.0026287953,0.0077801174,-0.016979294,-0.28730422,0.38307226,-9.672575,0.71951014,47.66271,-0.4718144,-2.4901233,-3.4010453,-0.47890693,0.09307064,0.023857657,26.5625,27.5,26.625,29.9375,31.3125,31.8125
0.020052154,-1.3257979,-1.4018505,-0.61859506,-0.0657407,0.05980307,-0.05342858,-0.38102907,-0.34850663,0.05984925,-3.0784156,0.62481344,-0.00055905624,-0.0056925775,-0.0010347372,-0.003280852,-0.0058954637,-0.0065996335,0.008560467,0.47774717,-1.4257247,1.9577459,-2.1008098,-1.5706948,2.4526742,-0.008793905,0.015588664,-0.009624274,-0.0028459602,0.008233284,-0.017362967,-0.34476504,0.4405331,-9.749189,0.7642693,47.67614,-0.5648148,-2.3742914,-3.4824338,-0.50124156,0.088451974,-0.008087883,26.5625,27.5,26.625,29.9375,31.3125,31.8125
0.022052137,-1.3069414,-0.90100044,-0.58543885,-0.033802122,0.059362806,-0.066180035,-0.38106462,-0.3485179,0.05986644,-3.0784764,0.62484616,-0.00052275544,-0.007107591,-0.0009139878,-0.0035892825,-0.0063952585,-0.0071818796,0.007102562,0.4777104,-1.4257119,1.9576973,-2.1008337,-1.5706581,2.45265,-0.01077916,0.018199887,-0.011880265,-0.0029155742,0.008940469,-0.017889634,-0.4213795,0.4213795,-9.787497,0.75084364,47.68062,-0.73312044,-2.5080833,-3.543475,-0.50958025,0.10207403,-0.018854728,26.5625,27.5,26.625,29.9375,31.3125,31.8125
0.024052504,-1.6450267,-0.6420399,-0.6395652,-0.01957899,0.044760678,-0.08504735,-0.38108933,-0.34851015,0.059843652,-3.0784583,0.6248626,-0.00055124116,-0.009209129,-0.0010602056,-0.0031009195,-0.007998804,-0.005726005,0.0054526837,0.47767374,-1.4256395,1.9576725,-2.100858,-1.5706581,2.452626,-0.012949903,0.019984428,-0.014836114,-0.0037767752,0.009686099,-0.018410226,-0.3256114,0.36391866,-9.902418,0.81351066,47.72719,-0.5838329,-2.513505,-3.4236662,-0.5281872,0.10996945,-0.029470801,26.5625,27.5,26.625,29.9375,31.3125,31.8125
0.026051402,-1.1895685,-1.1330833,-0.658297,-0.016701669,0.055782165,-0.09282507,-0.38108045,-0.34851676,0.05982601,-3.078469,0.62474996,-0.0006067227,-0.010320197,-0.0019153014,-0.0025434943,-0.011334136,-0.0042764717,0.0046504037,0.4776853,-1.4256036,1.957672,-2.1008584,-1.5706452,2.452566,-0.013945803,0.020352941,-0.01608908,-0.0057211504,0.011973806,-0.018607689,-0.4213795,0.3256114,-9.844957,0.7665104,47.704796,-0.65905225,-2.4085505,-3.4398763,-0.53096515,0.06799923,-0.027024355,26.5625,27.5,26.625,29.9375,31.3125,31.8125
0.028052704,-1.3181741,-1.3059705,-0.6888739,-0.03133101,0.06304873,-0.11915761,-0.381092,-0.3485355,0.05981804,-3.0784667,0.62478924,-0.000685452,-0.012452567,-0.0019247402,-0.001612838,-0.012920508,-0.0013644819,0.0019319262,0.47768462,-1.4255316,1.9576,-2.1008232,-1.5706095,2.45259,-0.015942845,0.020791525,-0.01838641,-0.007177276,0.012035344,-0.017885286,-0.49799395,0.28730422,-9.883265,0.7597976,47.70211,-0.6863109,-2.437307,-3.4255056,-0.51932627,0.07715151,-0.03244608,26.5625,27.5,26.625,29.9375,31.3125,31.8125
0.030004028,-1.3444278,-1.0753223,-0.44966218,-0.036847427,0.06782755,-0.12403053,-0.38112295,-0.34853134,0.059823163,-3.0784929,0.62473845,-0.00065536716,-0.0131677,-0.0021923708,-0.0016407388,-0.013755303,-0.001139855,0.00020555822,0.47764856,-1.4255072,1.9575633,-2.1008356,-1.5706095,2.452519,-0.016541356,0.021972463,-0.01952733,-0.0078023984,0.012670782,-0.016757524,-0.53630114,0.1340753,-9.844957,0.7732232,47.67345,-0.6059552,-2.422169,-3.4135895,-0.5273995,0.07630535,-0.044414744,26.5625,27.5,26.625,29.9375,31.3125,31.8125
0.032051858,-1.4609351,-0.7070636,-0.31455374,-0.025348278,0.0655646,-0.14482887,-0.38117397,-0.34854862,0.059824776,-3.0785244,0.6248219,-0.0005937769,-0.014293846,-0.0023786959,-0.0014266429,-0.014168424,-0.00046653207,-0.0006627489,0.47762427,-1.4254348,1.9574908,-2.1008956,-1.5705975,2.4525428,-0.017286263,0.023396077,-0.021612264,-0.007928636,0.012724582,-0.016632166,-0.49799395,0.19153613,-9.768343,0.74413085,47.678825,-0.648402,-2.369017,-3.4255772,-0.5342155,0.08560772,-0.06132333,26.5625,27.5,26.625,29.9375,31.3125,31.8125
0.03405247,-1.4490116,-0.027284704,-0.19625303,0.0024714018,0.05032945,-0.14732449,-0.38121703,-0.34853956,0.059821837,-3.0785613,0.62484837,-0.0005753548,-0.015367422,-0.00324847,-0.00090586,-0.015929198,0.00071377883,-0.0011339956,0.47755215,-1.4253981,1.9574665,-2.1009433,-1.5705727,2.4524825,-0.01739206,0.024576876,-0.024001207,-0.008580394,0.013740441,-0.016266694,-0.51714754,0.05746084,-9.672575,0.779936,47.746887,-0.73929036,-2.4527438,-3.2960176,-0.5332486,0.07027782,-0.08694545,26.5625,27.5,26.625,29.9375,31.3125,31.8125
0.036052555,-0.89972675,0.18056408,-0.33765325,0.032955293,0.04418285,-0.16697046,-0.38123363,-0.34858128,0.0598339,-3.0786395,0.62482613,-0.00061614736,-0.016684514,-0.0037537555,-0.00039840495,-0.0181977,0.0027016746,-0.0021311052,0.47756383,-1.4253505,1.9573821,-2.100932,-1.5705003,2.4524703,-0.018422905,0.025054831,-0.025239863,-0.010630787,0.014834387,-0.016301045,-0.4213795,-0.038307227,-9.691729,0.7418897,47.719128,-0.7247893,-2.3396401,-3.4441814,-0.512424,0.07703313,-0.10803298,26.5625,27.5,26.625,29.9375,31.3125,31.8125
0.03805231,-1.1051108,0.46513954,-0.2927657,0.049004193,0.03033685,-0.17673239,-0.38125595,-0.34856337,0.05979551,-3.078601,0.6249154,-0.0006866262,-0.018151268,-0.0038852424,-0.00016472334,-0.019690076,0.0039174245,-0.003274437,0.47750324,-1.4252659,1.9573816,-2.1009686,-1.5704879,2.4524703,-0.020038553,0.026235288,-0.026808763,-0.012009559,0.015594227,-0.016774293,-0.2681506,-0.076614454,-9.615114,0.68818194,47.7254,-0.7301091,-2.3335712,-3.38583,-0.505674,0.07897484,-0.1272505,26.5625,27.5,26.625,29.9375,31.3125,31.8125
0.04005223,-1.0141203,0.5245925,-0.16686313,0.04049653,0.029528376,-0.18754667,-0.38129508,-0.34855425,0.059807252,-3.0786412,0.624885,-0.00065193576,-0.019803962,-0.0044540768,0.0007918136,-0.02114327,0.005849101,-0.003410382,0.4774431,-1.4252539,1.9573439,-2.100981,-1.5704759,2.4523861,-0.02081222,0.02717531,-0.030047506,-0.012094486,0.015991244,-0.017410379,-0.21068975,-0.095768064,-9.576807,0.7597976,47.70211,-0.70131654,-2.3403907,-3.3508549,-0.503883,0.06273983,-0.15455928,26.5625,27.5,26.625,29.9375,31.3125,31.8125
0.042052116,-0.7357037,-0.14542994,-0.18451764,0.03085553,0.032779846,-0.2035164,-0.38138112,-0.34856972,0.059836358,-3.0786982,0.62495404,-0.0005482322,-0.020523904,-0.0045939772,0.0009850329,-0.021471893,0.006359128,-0.00271098,0.47738287,-1.4251816,1.9572004,-2.1010048,-1.5704635,2.4523618,-0.021261357,0.027985036,-0.031399217,-0.012155358,0.016047904,-0.018556682,-0.21068975,0.038307227,-9.500193,0.7597976,47.67345,-0.67495745,-2.2922034,-3.2712634,-0.49999958,0.070032746,-0.14805667,26.5625,27.5,26.625,29.9375,31.3125,31.8125
0.044052187,-0.6025228,-0.327132,-0.20919172,0.011578937,0.03350711,-0.19558316,-0.38138932,-0.3485576,0.059809722,-3.0786843,0.624951,-0.0006032059,-0.021150228,-0.0041832547,0.0009854026,-0.020510605,0.006236204,-0.0025858846,0.47734657,-1.4251332,1.9572114,-2.1010282,-1.5704526,2.4523253,-0.022051156,0.028876938,-0.032619826,-0.011271996,0.015249501,-0.019470107,-0.17238252,0.095768064,-9.576807,0.6926589,47.694946,-0.6898643,-2.2773058,-3.379809,-0.5127306,0.049179703,-0.17341956,26.5625,27.5,26.625,29.9375,31.3125,31.8125
0.04605264,-0.11671207,-0.20721059,-0.19869038,-0.007617361,0.04130884,-0.19158922,-0.38145742,-0.34859687,0.059855804,-3.078806,0.62491894,-0.00050488114,-0.02234854,-0.0040258113,0.0012912619,-0.020841284,0.006855484,-0.003213356,0.4773221,-1.4250973,1.9570678,-2.1010401,-1.5704044,2.4522655,-0.023440514,0.029839257,-0.03445422,-0.0111004645,0.01525766,-0.020229144,-0.095768064,0.11492168,-9.615114,0.7463667,47.709274,-0.67332035,-2.2530656,-3.278672,-0.5151859,0.049505666,-0.18878007,26.5625,27.5,26.625,29.9375,31.3125,31.8125
0.048052467,-0.56145096,-0.9206529,-0.34414083,-0.00026104145,0.02045298,-0.17577094,-0.3814938,-0.3485993,0.059843242,3.0787694,-0.62496895,0.00055285444,-0.02357639,-0.003605646,0.0017346825,-0.02059878,0.008509108,-0.00288415,0.47726178,-1.4250252,1.9570197,-2.1010635,-1.5703567,2.452241,-0.02468328,0.030077783,-0.03565183,-0.011492996,0.0142797055,-0.021798726,-0.05746084,0.11492168,-9.557653,0.800085,47.719128,-0.64979196,-2.2006483,-3.3272777,-0.5026636,0.060805954,-0.19567025,26.5625,27.5,26.625,29.9375,31.3125,31.8125
0.05005185,-0.46704563,-0.9485153,-0.32779086,-0.0076760566,0.016097771,-0.17333838,-0.38152084,-0.34858862,0.05982715,3.0787964,-0.6249928,0.0005840931,-0.02499384,-0.0037630766,0.0021686186,-0.02102931,0.009968005,-0.0023561583,0.47722548,-1.424953,1.9569715,-2.1010525,-1.5703686,2.4522161,-0.025521329,0.031317044,-0.03796442,-0.011911669,0.013985551,-0.023163313,-0.05746084,0.24899697,-9.5385,0.784413,47.683304,-0.66906536,-2.1745632,-3.3025148,-0.51477784,0.058821753,-0.21216546,26.5625,27.5,26.625,29.9375,31.3125,31.8125
0.052051783,-0.6455334,-1.4495604,-0.5158575,-0.00093049346,0.010261566,-0.16090132,-0.38161668,-0.34858218,0.05984021,3.078756,-0.62506104,0.00047340372,-0.025710914,-0.003584224,0.0011912863,-0.020084208,0.009024153,-0.001907505,0.47714117,-1.4248562,1.9568394,-2.1010883,-1.570393,2.4521797,-0.026231756,0.034323778,-0.039005477,-0.012602528,0.013578577,-0.024319584,-0.019153614,0.28730422,-9.481039,0.7016076,47.684196,-0.69398063,-2.1922765,-3.3128793,-0.51487046,0.060804516,-0.22555143,26.5625,27.5,26.625,29.9375,31.3125,31.8125
0.054051723,-0.4157552,-1.2115009,-0.46725005,-0.01371401,0.018608287,-0.17198184,-0.38164127,-0.3485899,0.059831094,3.0787213,-0.6250341,0.00054846937,-0.026461435,-0.0037569616,0.0011508308,-0.020802442,0.008755734,-0.001195375,0.47709283,-1.4247957,1.9567913,-2.1010883,-1.5703324,2.4521189,-0.027108334,0.03569873,-0.04048625,-0.012588272,0.014336878,-0.025908794,-0.076614454,0.34476504,-9.634268,0.7620334,47.70211,-0.65988505,-2.2290485,-3.3566113,-0.53127676,0.06481972,-0.24216563,26.5625,27.5,26.625,29.9375,31.3125,31.8125
0.05605222,-0.25951797,-1.2987168,-0.23980762,-0.024088247,0.022143602,-0.17393515,-0.38167673,-0.34862334,0.059843022,3.0786567,-0.6249243,0.0005317931,-0.027869074,-0.0040765796,0.0025336365,-0.022318952,0.0119479,-0.00015772162,0.4770807,-1.424748,1.9567178,-2.1011245,-1.5702728,2.4520464,-0.02775766,0.03473085,-0.042393107,-0.013242903,0.014214157,-0.027593754,-0.038307227,0.47884032,-9.557653,0.78217715,47.696735,-0.6730752,-2.1413972,-3.358045,-0.52068347,0.05231374,-0.2497224,26.5625,27.5,26.625,29.9375,31.3125,31.8125
0.05805206,-0.4072949,-1.3437208,-0.14988835,-0.033686757,0.022794187,-0.17197746,-0.38173595,-0.3486002,0.059840452,3.0786262,-0.6250328,0.0005175567,-0.02865223,-0.004432417,0.0028371403,-0.02352949,0.012382378,0.0011548755,0.47698456,-1.4246881,1.9566582,-2.101137,-1.5702723,2.4520218,-0.028410366,0.035483286,-0.04390501,-0.0134263225,0.01508847,-0.029559398,-0.05746084,0.51714754,-9.481039,0.7642693,47.71017,-0.7079079,-2.0293994,-3.296485,-0.5144378,0.06362884,-0.255596,26.5625,27.5,26.625,29.9375,31.3125,31.8125
0.060051892,-0.16690135,-1.2980366,-0.1993138,-0.03634339,0.02859392,-0.17012854,-0.38183424,-0.34863496,0.059907764,3.0784833,-0.6250232,0.00036215532,-0.02985518,-0.0045958194,0.0022101884,-0.023565706,0.011942449,0.0017000024,0.47692424,-1.4246631,1.9564785,-2.1011484,-1.5702242,2.4519737,-0.029376283,0.038732946,-0.045999505,-0.014205209,0.01532252,-0.031066556,-0.05746084,0.4213795,-9.5385,0.7665104,47.698532,-0.72348785,-2.0793734,-3.2677674,-0.51959926,0.07025367,-0.25459346,26.5625,27.5,26.625,29.9375,31.3125,31.8125
0.062051773,-0.16753145,-1.0351652,-0.1787129,-0.03021284,0.027607674,-0.17109822,-0.38186073,-0.34865505,0.059868865,3.0784817,-0.6249648,0.00042742566,-0.030459182,-0.0046607503,0.0023821015,-0.024405772,0.011803384,0.0022179263,0.47691184,-1.424531,1.9564303,-2.1012084,-1.5701879,2.451925,-0.03034089,0.039313216,-0.04712325,-0.01392481,0.016130412,-0.032550067,-0.05746084,0.36391866,-9.500193,0.8179876,47.701214,-0.72257614,-2.0931458,-3.3376663,-0.5061,0.05242957,-0.27176982,26.5625,27.5,26.625,29.9375,31.3125,31.8125
0.06405177,-0.17824838,-0.8541175,-0.037109107,-0.023800205,0.028284447,-0.16494791,-0.3819148,-0.34864023,0.05985751,3.0784726,-0.6249229,0.00042424258,-0.03211758,-0.0054576965,0.00220825,-0.024930794,0.012635998,0.0035980234,0.47682786,-1.4244579,1.9563812,-2.1012447,-1.570176,2.451816,-0.030501842,0.042946443,-0.05062016,-0.015039706,0.01620685,-0.034088485,-0.05746084,0.36391866,-9.404425,0.8112748,47.71823,-0.76467144,-2.192766,-3.183578,-0.52743524,0.057631798,-0.2848607,26.5625,27.5,26.625,29.9375,31.3125,31.8125
0.06605181,-0.4050912,-0.93365586,0.10979108,-0.009757465,0.025891181,-0.16257167,-0.3819992,-0.34867707,0.059891224,3.0783708,-0.62494045,0.00032907582,-0.032366287,-0.0056432355,0.0016541342,-0.025748085,0.011568952,0.0044922857,0.4767915,-1.4243735,1.9562134,-2.101269,-1.5701393,2.4518037,-0.031185895,0.04446483,-0.05094607,-0.015661068,0.017425217,-0.0356662,-0.076614454,0.38307226,-9.404425,0.68146914,47.672558,-0.81820023,-2.3017771,-3.191201,-0.5000006,0.054461975,-0.28101316,26.5625,27.5,26.625,29.9375,31.3125,31.8125
0.06805191,-0.5606874,-0.81810194,-0.028002532,-0.0009125056,0.023705889,-0.1668608,-0.38206625,-0.34869772,0.05991719,3.0782635,-0.624918,0.00029717636,-0.033206344,-0.005797682,0.00274648,-0.027781788,0.013435037,0.0052594068,0.47671923,-1.4243262,1.9561056,-2.1012933,-1.5700668,2.451731,-0.03229586,0.04301832,-0.051701646,-0.016048806,0.018378336,-0.037542813,-0.095768064,0.30645782,-9.404425,0.78217715,47.707485,-0.7324345,-2.1597247,-3.3030424,-0.47455508,0.048525028,-0.2858264,26.5625,27.5,26.625,29.9375,31.3125,31.8125
0.07005181,-0.31386268,-0.47698975,0.1558182,0.0029812953,0.038861852,-0.16947557,-0.38215256,-0.3486909,0.05992106,3.07824,-0.6248938,0.00021345164,-0.034139954,-0.00638847,0.002488703,-0.027767247,0.012975615,0.0064791203,0.47663516,-1.4242291,1.9559969,-2.1013405,-1.5700787,2.451635,-0.032228675,0.046022218,-0.054618888,-0.015719574,0.018575246,-0.038692635,-0.076614454,0.19153613,-9.32781,0.80456203,47.687782,-0.8345792,-2.1484191,-3.2497609,-0.4775088,0.056048676,-0.29290313,26.5625,27.5,26.625,29.9375,31.3125,31.8125
0.072051875,-0.79657346,-0.6776771,0.1360917,0.009435319,0.021410389,-0.15783893,-0.3821959,-0.34871703,0.05990975,3.0781717,-0.62482107,0.0002660018,-0.03581407,-0.007337201,0.0030335996,-0.029108433,0.0141587155,0.007235007,0.47658706,-1.4241326,1.9559234,-2.1013887,-1.5699948,2.45155,-0.032500915,0.048480816,-0.058651533,-0.015809624,0.019217744,-0.03971865,-0.095768064,0.24899697,-9.270349,0.8112748,47.684196,-0.8449373,-2.1793244,-3.0093641,-0.47398746,0.04909628,-0.30046457,26.5625,27.5,26.625,29.9375,31.3125,31.8125
0.074051835,-0.5831545,-0.23080154,0.34758845,0.0076285545,0.02824032,-0.17093366,-0.38226637,-0.3487398,0.059904676,3.0781412,-0.6247189,0.00025959217,-0.035345152,-0.0069440566,0.0020926662,-0.028483735,0.012084068,0.0074840905,0.4765389,-1.4240004,1.9557923,-2.1014245,-1.5699586,2.451442,-0.03301997,0.04947142,-0.057675436,-0.015644843,0.019619634,-0.040486977,-0.11492168,0.2681506,-9.212888,0.83589023,47.704796,-0.907297,-2.2101202,-3.0951643,-0.47165015,0.050303884,-0.3112617,26.5625,27.5,26.625,29.9375,31.3125,31.8125
0.07605271,-0.6724534,-0.40521964,0.19560044,0.012546612,0.029314514,-0.16358192,-0.38234475,-0.34875974,0.05992688,3.0780773,-0.6246661,0.00020679372,-0.035763055,-0.0070274835,0.001870653,-0.028415281,0.011946876,0.009938052,0.4764788,-1.4239162,1.9556483,-2.1014369,-1.5699228,2.4513571,-0.03325244,0.050677404,-0.05849479,-0.015873704,0.019624798,-0.043171365,-0.15322891,0.22984336,-9.251195,0.7329411,47.653748,-0.9819293,-2.1984444,-3.249651,-0.45025754,0.04192483,-0.31665942,26.5625,27.5,26.625,29.9375,31.3125,31.8125
0.07805169,-0.6406043,-0.27320507,0.23693447,0.0069108,0.031566933,-0.16322659,-0.38241434,-0.3487666,0.059932686,3.0780497,-0.62464017,0.0001754875,-0.037310775,-0.0074678273,0.002358478,-0.029241858,0.012671493,0.010020178,0.4764187,-1.4238198,1.9555277,-2.1014483,-1.5699104,2.4512844,-0.034149628,0.05264372,-0.061967697,-0.0153891565,0.020024026,-0.044148456,-0.15322891,0.1340753,-9.32781,0.7351769,47.650166,-0.97683895,-2.2238748,-3.0370069,-0.46319354,0.049071483,-0.31438467,26.5625,27.5,26.625,29.9375,31.3125,31.8125
0.08005172,-0.07556087,0.17063908,0.54408485,0.002182127,0.041795354,-0.17938067,-0.3824901,-0.3487848,0.059948534,3.0779283,-0.6246938,0.00014497577,-0.0377646,-0.0074268742,0.0022720457,-0.029062917,0.012602422,0.008326133,0.4763345,-1.4237475,1.9554199,-2.101496,-1.5698384,2.4512491,-0.034550153,0.05356478,-0.06284693,-0.015283208,0.019900113,-0.0428526,-0.26815057,0.17238252,-9.212888,0.7642693,47.666286,-1.0675558,-2.1147163,-3.107652,-0.45008114,0.050564036,-0.3628799,26.5625,27.5,26.625,29.9375,31.3125,31.8125
0.08205208,-0.6887974,-0.4233111,0.3746992,0.017988635,0.0363809,-0.163638,-0.38253677,-0.3487951,0.05992882,3.077937,-0.62461793,0.00022339971,-0.038968265,-0.0077208625,0.0023574203,-0.029705187,0.013483996,0.010148819,0.47628617,-1.4236151,1.9553112,-2.101485,-1.5698022,2.4511523,-0.035236605,0.055261295,-0.06479933,-0.016101295,0.020061474,-0.045361206,-0.24899697,0.1340753,-9.136273,0.7777002,47.687782,-1.0745194,-2.1185255,-3.053011,-0.44897217,0.06539986,-0.36581284,26.5625,27.5,26.625,29.9375,31.3125,31.8125
0.08405188,-0.2880331,-0.028268851,0.40283617,0.008956591,0.04300444,-0.16879621,-0.3826698,-0.34881192,0.05996007,3.0778306,-0.62459445,7.1496725e-05,-0.039528016,-0.007930616,0.0023054322,-0.0301032,0.01325434,0.012255849,0.476178,-1.423495,1.955119,-2.1015565,-1.5697783,2.4510431,-0.035667453,0.056518644,-0.06614503,-0.01598759,0.020528655,-0.04789578,-0.17238252,0.15322891,-9.308656,0.8314132,47.698532,-1.0791099,-2.1846793,-3.0666685,-0.43807036,0.06753988,-0.37589478,26.5625,27.5,26.625,29.9375,31.3125,31.8125
0.086052254,-0.3458593,-0.2875099,0.23471346,0.0068628956,0.03744419,-0.16466062,-0.38271213,-0.34880468,0.05992939,3.0778623,-0.62457895,0.00015790616,-0.04025203,-0.008322082,0.0025977625,-0.0308041,0.013872032,0.01703298,0.47611803,-1.423363,1.9550356,-2.1015446,-1.5697659,2.4509695,-0.03585228,0.057383236,-0.06778835,-0.016074324,0.020866096,-0.05285834,-0.21068975,0.19153613,-9.251195,0.7284641,47.686886,-1.1623415,-2.143092,-3.0079174,-0.44056502,0.07253741,-0.35251412,26.5625,27.5,26.625,29.9375,31.3125,31.8125
0.088052414,-0.90912807,-0.27144784,0.23987985,-0.0010099299,0.023768777,-0.16080005,-0.38281766,-0.3488448,0.059950743,3.0777538,-0.62442356,6.966554e-05,-0.041096255,-0.008086168,0.0015626503,-0.029643385,0.012078222,0.015631862,0.4760457,-1.4232416,1.9548672,-2.1016276,-1.5696944,2.450814,-0.0369047,0.061048273,-0.06969991,-0.015695767,0.02066176,-0.052505333,-0.30645782,0.24899697,-9.308657,0.800085,47.703007,-1.1580281,-2.1790235,-3.0743093,-0.43589383,0.0969646,-0.35135204,26.5625,27.5,26.625,29.9375,31.3125,31.8125
0.09005253,-0.2845322,-0.48380354,0.19031301,-0.0017651103,0.037205096,-0.1715248,-0.38291094,-0.3488459,0.05997111,3.0777237,-0.624377,-3.8753155e-06,-0.041951854,-0.008371178,0.00195622,-0.030594978,0.012919541,0.017305726,0.47596142,-1.4231453,1.9547108,-2.101628,-1.5696939,2.4507046,-0.037474845,0.061639532,-0.071220264,-0.015948346,0.02112512,-0.054747548,-0.22984336,0.3256114,-9.385271,0.67475104,47.7254,-1.2469933,-2.2976124,-3.0448275,-0.4238061,0.10166021,-0.37171867,26.5625,27.5,26.625,29.9375,31.3125,31.8125
0.09205257,-0.9496258,-1.0560429,0.09277527,0.00032759545,0.023523964,-0.1564876,-0.38295478,-0.34885922,0.059950527,3.0777328,-0.6242613,8.943903e-05,-0.04273113,-0.0086439885,0.0028849149,-0.031451628,0.014396321,0.020681553,0.4759134,-1.4230126,1.9546036,-2.1016161,-1.5696458,2.4505832,-0.037755176,0.061161023,-0.07290891,-0.01547946,0.02120915,-0.058403913,-0.17238252,0.24899697,-9.289503,0.75755644,47.723602,-1.2739618,-2.0674694,-3.0831654,-0.4464994,0.11000638,-0.3446624,26.5625,27.5,26.625,29.9375,31.3125,31.8125
0.094052546,-0.578494,-0.63596237,-0.021265285,-0.013167635,0.03129838,-0.16833273,-0.38305113,-0.3488831,0.059954852,3.0776467,-0.62418616,4.5802622e-05,-0.04400108,-0.007785143,0.0020544715,-0.031235803,0.013063516,0.021161554,0.47582847,-1.4228805,1.9544591,-2.1016877,-1.5695862,2.4504623,-0.040709693,0.06371795,-0.07386904,-0.01578536,0.021634929,-0.061836034,-0.1340753,0.19153613,-9.385271,0.7642693,47.719128,-1.2390337,-2.1506448,-3.0284889,-0.43558377,0.115472205,-0.33821708,26.5625,27.5,26.625,29.9375,31.3125,31.8125
0.09605188,-0.5397188,-0.5769885,-0.021061178,-0.024536971,0.031755533,-0.16649257,-0.38316262,-0.34889337,0.059975162,3.0775871,-0.62407595,-1.8346602e-05,-0.044460792,-0.008199798,0.00080439774,-0.03118007,0.010575441,0.02392744,0.47572032,-1.4227589,1.9542793,-2.1017115,-1.5695494,2.450293,-0.041093495,0.0678276,-0.07570837,-0.015814368,0.02273143,-0.06498306,-0.22984336,0.28730422,-9.385271,0.7777002,47.68599,-1.2353148,-2.2649388,-3.0239568,-0.4449371,0.12926224,-0.28676096,26.5625,27.5,26.625,29.9375,31.3125,31.8125
0.0980525,-0.8024295,-0.67954266,-0.20962906,-0.026233789,0.026901986,-0.17078045,-0.38323197,-0.34888425,0.059945904,3.0775938,-0.6240561,4.821641e-05,-0.04467016,-0.009011559,0.0022545601,-0.0336748,0.012862929,0.02768133,0.47562456,-1.4226036,1.9541715,-2.1017244,-1.5695251,2.450184,-0.040591616,0.06548861,-0.07630107,-0.016055543,0.023902707,-0.06823667,-0.19153613,0.30645782,-9.461885,0.784413,47.696735,-1.2402624,-2.1493344,-3.0417185,-0.4358253,0.143325,-0.26180223,26.5625,27.5,26.625,29.9375,31.3125,31.8125
0.10005212,-0.5786456,-0.8152926,-0.2871466,-0.017489323,0.024607856,-0.16009589,-0.3833306,-0.34891176,0.05997226,3.0775146,-0.62396204,-1.9891313e-05,-0.045859568,-0.0083744265,0.0012065779,-0.032454517,0.011375177,0.029096931,0.47555175,-1.4224942,1.9539918,-2.1017482,-1.5694774,2.4500628,-0.042546038,0.06903268,-0.07796569,-0.016043356,0.023506872,-0.07160287,-0.076614454,0.28730422,-9.404425,0.84708,47.68599,-1.3665674,-2.2018874,-3.0753717,-0.44637388,0.1497771,-0.21730351,26.5625,27.5,26.625,29.9375,31.3125,31.8125
0.10205279,-0.2991191,-0.8147601,-0.29584378,-0.012821106,0.031475004,-0.16349776,-0.3834488,-0.34891397,0.059992258,3.0774488,-0.6238516,-0.00012750532,-0.04657253,-0.007822477,0.00058564777,-0.03220614,0.010454157,0.030572247,0.4754313,-1.4223856,1.9538358,-2.1018083,-1.5694531,2.4498818,-0.044299673,0.07069666,-0.078385025,-0.016347868,0.023720028,-0.07482889,-0.095768064,0.28730422,-9.461885,0.81351066,47.647476,-1.2980703,-2.1691022,-3.1798692,-0.44854563,0.1688117,-0.16703689,26.5625,27.5,26.625,29.9375,31.3125,31.8125
0.10405244,0.09777364,-0.80270827,-0.17676595,-0.012712683,0.04192868,-0.17202027,-0.38352653,-0.3489372,0.059969485,3.077414,-0.62376744,-1.4670647e-05,-0.049513664,-0.0081008775,0.0015931405,-0.034105513,0.0131926555,0.02996096,0.47534636,-1.4221927,1.9536675,-2.1018088,-1.5693687,2.4497488,-0.046769384,0.07275411,-0.08284439,-0.017240977,0.024145972,-0.07668541,-0.038307227,0.3256114,-9.519346,0.7933669,47.703903,-1.2447835,-2.2512589,-3.0703683,-0.4252261,0.18900508,-0.10859838,26.5625,27.5,26.625,29.9375,31.3125,31.8125
0.1060522,-0.45117375,-0.72319317,-0.19801219,-0.0041383244,0.022738207,-0.15640914,-0.38362795,-0.34896845,0.059965294,3.0773342,-0.6236568,-2.8904164e-05,-0.048580494,-0.007219679,-0.00028435845,-0.03344815,0.009246165,0.028166478,0.47526196,-1.422024,1.9535006,-2.1018803,-1.5692967,2.4496055,-0.048256975,0.07424734,-0.080200024,-0.017565953,0.025379507,-0.07637838,-0.19153613,0.22984336,-9.3661175,0.7866488,47.690468,-1.2184486,-2.2456782,-3.2359092,-0.44248164,0.2084391,-0.09331244,26.5625,27.5,26.625,29.9375,31.3125,31.8125
0.10805187,-0.54099995,-0.5490877,-0.14502019,-0.003851779,0.02550242,-0.1609421,-0.38371977,-0.34898034,0.05997492,3.077307,-0.6234758,-0.00011887854,-0.048759867,-0.008558469,0.000117235126,-0.03515707,0.009880835,0.031047745,0.47519037,-1.4219157,1.9533685,-2.1019404,-1.5692838,2.4494245,-0.04683447,0.075061195,-0.08196094,-0.01796482,0.026613783,-0.077834345,-0.19153613,0.22984336,-9.346964,0.8023209,47.696735,-1.316967,-2.2160068,-3.310754,-0.43462688,0.2165087,-0.056517012,26.5625,27.5,26.625,29.9375,31.3125,31.8125
0.11005243,-0.327729,-0.39033604,-0.080303706,-0.0026030235,0.033679523,-0.16846891,-0.3838095,-0.34900975,0.059976783,3.0772316,-0.62340575,-7.9458136e-05,-0.05019451,-0.0086230375,0.00085523224,-0.036689192,0.010885714,0.025667993,0.4751058,-1.4217594,1.9531883,-2.1019518,-1.5691999,2.4493058,-0.04860191,0.075520314,-0.084226884,-0.017751979,0.027512671,-0.07422022,-0.076614454,0.17238252,-9.3661175,0.7553206,47.67614,-1.3435602,-2.1912887,-3.0999107,-0.42576408,0.20635802,-0.085044265,26.5625,27.5,26.625,29.9375,31.3125,31.8125
0.112052016,-0.27159587,-0.08947396,-0.1421346,-0.007144834,0.03221895,-0.16992033,-0.38391396,-0.34902003,0.059985362,3.0771904,-0.6233421,-6.0473667e-05,-0.05084424,-0.0072661317,-0.00020501515,-0.036010236,0.0086357035,0.020814521,0.4749967,-1.4216028,1.9529842,-2.101928,-1.5691513,2.4491622,-0.05186132,0.07717139,-0.08374644,-0.01756931,0.027942022,-0.07262566,-0.17238252,0.15322891,-9.3661175,0.85826975,47.677036,-1.1636652,-2.1476088,-3.3600264,-0.4312329,0.21976133,-0.1072768,26.5625,27.5,26.625,29.9375,31.3125,31.8125
0.114052534,-0.13732009,-0.32844865,-0.06934556,0.004283175,0.04103958,-0.16176051,-0.3840318,-0.34901774,0.05996729,3.0771675,-0.6232215,-0.000120591,-0.051873192,-0.007906476,0.00029550196,-0.037398025,0.009736496,0.020343361,0.47487676,-1.4214221,1.9528407,-2.1020238,-1.5691394,2.44897,-0.052123435,0.07815748,-0.085934244,-0.017979834,0.028674154,-0.07241384,-0.21068975,0.19153613,-9.423578,0.76874626,47.694946,-1.2693385,-2.1399722,-3.2552514,-0.43662494,0.24217588,-0.108040184,26.5625,27.5,26.625,29.9375,31.3125,31.8125
0.116052456,-0.7309314,-0.25430483,-0.22788364,0.0050554858,0.03346359,-0.15563267,-0.38413468,-0.3490403,0.059984237,3.0770552,-0.6231832,-0.00014023081,-0.052443996,-0.0075017903,1.7573253e-05,-0.037401382,0.009007131,0.014123665,0.47476813,-1.4213015,1.9526724,-2.1020596,-1.5690554,2.4488518,-0.05356234,0.079172425,-0.08651493,-0.017766384,0.029012104,-0.06763031,-0.22984336,0.076614454,-9.404425,0.81351066,47.72002,-1.249128,-2.0835886,-3.3171947,-0.44815594,0.26291826,-0.17895544,26.5625,27.5,26.625,29.9375,31.3125,31.8125
0.11805214,-0.675844,-0.17025842,-0.12069183,0.008986188,0.039601974,-0.16070472,-0.38423207,-0.34905604,0.05997374,3.076985,-0.6232082,-8.2823986e-05,-0.05302696,-0.007805182,0.00016848712,-0.038752906,0.009059612,0.012498973,0.47465983,-1.4211214,1.9524931,-2.102072,-1.568983,2.4487681,-0.05430122,0.07981353,-0.08753988,-0.018044569,0.030189637,-0.066743664,-0.30645782,0.0,-9.404425,0.8157518,47.703903,-1.1849453,-2.065357,-3.3975425,-0.45663965,0.25365207,-0.21186027,26.5625,27.5,26.625,29.9375,31.3125,31.8125
0.12005264,-0.81170714,-0.26078954,-0.064116344,0.010742429,0.04162485,-0.1583509,-0.384341,-0.34909117,0.059995774,3.0768902,-0.623055,-0.00014141569,-0.05347801,-0.007714834,-6.296884e-05,-0.0399707,0.008244584,0.010268378,0.47457534,-1.4209889,1.9523023,-2.1021197,-1.5689105,2.4486,-0.055800192,0.08055768,-0.08779479,-0.01836449,0.03165215,-0.06600856,-0.2681506,0.1340753,-9.32781,0.74413085,47.66987,-1.2731171,-2.012004,-3.5153754,-0.44105724,0.2598786,-0.22894695,26.5625,27.5,26.625,29.9375,31.3125,31.8125
0.12205228,-0.49634308,-0.1440982,-0.005692615,0.011845405,0.043834485,-0.16135569,-0.38446778,-0.3491114,0.060015537,3.0768273,-0.6229662,-0.00023426044,-0.054762345,-0.008449393,-0.00048464394,-0.041042265,0.0069613545,0.009252643,0.47447908,-1.4208314,1.9520854,-2.102156,-1.5688857,2.4484565,-0.05665152,0.08446091,-0.091384,-0.018027788,0.033193167,-0.06583867,-0.30645782,0.1340753,-9.385271,0.7777002,47.67614,-1.267456,-2.0221171,-3.2873507,-0.4544807,0.26310956,-0.25914627,26.5625,27.5,26.625,29.9375,31.3125,31.8125
0.124051824,-0.7193148,-0.06978901,0.03456081,0.0053596124,0.031209214,-0.16890888,-0.3845899,-0.34913716,0.060017277,3.0767343,-0.6229087,-0.00022365396,-0.054849505,-0.0078058024,-5.6704288e-05,-0.041979793,0.007360154,0.0077300873,0.4743586,-1.4206399,1.9518703,-2.1021912,-1.5688018,2.448312,-0.05827188,0.08250996,-0.09011833,-0.018118164,0.03385454,-0.065935396,-0.24899697,0.095768064,-9.404425,0.78217715,47.707485,-1.2334119,-1.9779587,-3.5651999,-0.46823514,0.2741294,-0.27216744,26.5625,27.5,26.625,29.9375,31.3125,31.8125
0.12605207,-0.27768,0.36584404,0.0479329,-0.0079986015,0.045289725,-0.17479028,-0.38468936,-0.3491444,0.060018186,3.0766323,-0.62292707,-0.00020125568,-0.05776073,-0.008647444,0.0021379576,-0.04446642,0.011924425,0.0070682364,0.47422615,-1.4205077,1.9517254,-2.1022274,-1.5687178,2.448204,-0.059501372,0.08282276,-0.09545248,-0.018282266,0.033978168,-0.06649868,-0.40222588,0.095768064,-9.385271,0.83813137,47.693153,-1.2540152,-1.895437,-3.3943908,-0.47645777,0.27513367,-0.30544463,26.5625,27.5,26.625,29.9375,31.3125,31.8125
0.12805259,-0.86761177,-0.5443122,-0.04364483,0.011072501,0.032296967,-0.15502098,-0.38480774,-0.34916452,0.06002367,3.0765803,-0.6228587,-0.00023515765,-0.057314362,-0.008073499,-0.00021865245,-0.04299397,0.0073950863,0.0063363626,0.47412974,-1.420326,1.9515103,-2.1022513,-1.5686811,2.4480717,-0.060584333,0.08681721,-0.09463666,-0.018386919,0.034744963,-0.06684742,-0.34476504,0.19153613,-9.404425,0.79560274,47.67166,-1.2531407,-2.0216722,-3.50843,-0.47316098,0.2875796,-0.322923,26.5625,27.5,26.625,29.9375,31.3125,31.8125
0.13005252,-1.1442212,-0.39665717,-0.22939108,0.0010085179,0.028234562,-0.16106622,-0.38492408,-0.34917185,0.060022436,3.0765219,-0.622752,-0.00023629525,-0.059471644,-0.00849869,0.001783274,-0.046383243,0.010926172,0.004533681,0.47399718,-1.4201584,1.9513296,-2.1022875,-1.5686206,2.44788,-0.06268283,0.08553462,-0.097656734,-0.018768895,0.03614871,-0.06713977,-0.36391866,0.22984336,-9.481039,0.84708,47.704796,-1.2341038,-1.848412,-3.4111092,-0.48576134,0.31334442,-0.3313183,26.5625,27.5,26.625,29.9375,31.3125,31.8125
0.13205174,-0.33573803,-0.25216928,-0.2956698,-0.0035425297,0.050473776,-0.16652231,-0.38503247,-0.34916812,0.060010374,3.0764577,-0.6228356,-0.00017473323,-0.06054246,-0.008535981,0.0016687721,-0.04713007,0.0100861415,0.0031132929,0.4738524,-1.4199773,1.9511498,-2.102287,-1.56856,2.4477956,-0.0642475,0.08757987,-0.09988572,-0.018172672,0.037197728,-0.06728251,-0.40222588,0.22984336,-9.481039,0.7597976,47.696735,-1.1033438,-1.854069,-3.4143572,-0.5112084,0.31840974,-0.39511704,26.5625,27.5,26.625,29.9375,31.3125,31.8125
0.13405229,-0.7865342,-0.5645701,-0.34792447,-0.004246202,0.046171963,-0.16238211,-0.38514614,-0.34918752,0.060009547,3.0763552,-0.62277544,-0.00015367412,-0.060357004,-0.009156889,0.0013795111,-0.047225296,0.009461619,0.004332877,0.47372094,-1.419809,1.95097,-2.1023352,-1.5684642,2.4476397,-0.06319675,0.088821836,-0.1006735,-0.018104184,0.037574124,-0.06744848,-0.2681506,0.19153613,-9.500193,0.8157518,47.7451,-1.3080983,-1.7940071,-3.4582407,-0.52205896,0.31704235,-0.40851396,26.5625,27.5,26.625,29.9375,31.3125,31.8125
0.13605314,-0.94814956,-0.779444,-0.34535506,-0.01234352,0.054528248,-0.15888575,-0.38529348,-0.34919274,0.06000541,3.0762746,-0.6227963,-0.00017803132,-0.062159423,-0.009144877,0.0016436158,-0.048768964,0.010036898,0.0034488135,0.47356424,-1.4195921,1.9507421,-2.102383,-1.5684155,2.4475064,-0.06555147,0.09058319,-0.10320811,-0.018538522,0.038690507,-0.068914905,-0.30645782,0.2681506,-9.442732,0.77545905,47.703903,-1.2621808,-1.7622612,-3.4404185,-0.53569907,0.32780153,-0.46329996,26.5625,27.5,26.625,29.9375,31.3125,31.8125
0.13805203,-0.78669655,-0.77980816,-0.5096193,-0.020198405,0.061373062,-0.16500007,-0.38541317,-0.34921908,0.060026087,3.0761561,-0.622793,-0.0002245863,-0.063742556,-0.008219955,0.0011865441,-0.049680356,0.008892827,0.0014409559,0.4734548,-1.4194474,1.9505376,-2.1024191,-1.568343,2.44741,-0.06947238,0.09252823,-0.10435768,-0.018722614,0.04003422,-0.070822686,-0.28730422,0.2681506,-9.595961,0.81351066,47.713753,-1.0249393,-1.779772,-3.3800297,-0.5434128,0.33133706,-0.4940886,26.5625,27.5,26.625,29.9375,31.3125,31.8125
0.14005254,-0.9235452,-0.8301664,-0.41095048,-0.024079,0.05570268,-0.16793591,-0.38554865,-0.3492411,0.060036395,3.07607,-0.62271154,-0.00024018793,-0.06373212,-0.009561808,0.0010693929,-0.049983554,0.009199927,0.010247563,0.47332367,-1.4192544,1.9502987,-2.1024435,-1.568271,2.4472392,-0.067155,0.094453394,-0.10620226,-0.019189661,0.040181402,-0.07730782,-0.2681506,0.28730422,-9.653421,0.82022345,47.684196,-1.1767471,-1.7959578,-3.4077368,-0.54748845,0.3318231,-0.48016554,26.5625,27.5,26.625,29.9375,31.3125,31.8125
0.14205208,-1.1780936,-1.3323134,-0.48792854,-0.018379284,0.04281925,-0.1556897,-0.3856488,-0.3492439,0.059988543,3.0760558,-0.6226134,-0.00012360248,-0.065722264,-0.009096561,0.0003108136,-0.050602578,0.008155179,0.009855333,0.47319046,-1.4190131,1.9501423,-2.1024911,-1.5681986,2.4470465,-0.07042977,0.09824611,-0.1086911,-0.019831473,0.04120874,-0.080189414,-0.34476504,0.3256114,-9.634268,0.8090337,47.690468,-1.1181098,-1.7066103,-3.374261,-0.53849685,0.34096763,-0.46721655,26.5625,27.5,26.625,29.9375,31.3125,31.8125
0.14405262,-0.97330976,-1.0926945,-0.37604913,-0.016853519,0.037524976,-0.16496298,-0.38580537,-0.34927115,0.060033232,3.0759068,-0.6225225,-0.00020332506,-0.066861145,-0.009525459,0.00029917483,-0.052760154,0.007693655,0.014285502,0.47303382,-1.4188669,1.9498786,-2.1025155,-1.5681022,2.4468522,-0.07206134,0.10011165,-0.110716715,-0.020221889,0.04336364,-0.08624253,-0.28730422,0.3256114,-9.576807,0.78217715,47.716442,-1.075155,-1.9312682,-3.433971,-0.57472587,0.34833917,-0.43711668,26.5625,27.5,26.625,29.9375,31.3125,31.8125
0.14605173,-1.0739635,-1.0186117,-0.2228874,-0.021457208,0.033128437,-0.15810013,-0.38593546,-0.34928295,0.060016304,3.0758185,-0.6225206,-0.00019124664,-0.06797451,-0.009407778,-0.00083749497,-0.05274859,0.0058488683,0.020459197,0.47288942,-1.4186507,1.9496859,-2.102587,-1.5680298,2.446718,-0.07380091,0.104074486,-0.11258892,-0.020634966,0.044214703,-0.09415157,-0.28730422,0.3256114,-9.615114,0.77545905,47.691364,-1.0586952,-1.8899503,-3.3492134,-0.584712,0.34088266,-0.35529336,26.5625,27.5,26.625,29.9375,31.3125,31.8125
0.14805213,-0.5677002,-1.0534105,-0.032348577,-0.018760247,0.046745468,-0.16672024,-0.38609838,-0.34930664,0.060051672,3.0756865,-0.62237525,-0.00026137845,-0.07113928,-0.010573156,0.0016476276,-0.055510327,0.011864228,0.024775278,0.4727212,-1.4184824,1.9494208,-2.1026237,-1.5679339,2.446476,-0.07440722,0.10420984,-0.118157215,-0.021784455,0.043949045,-0.099065475,-0.30645782,0.36391866,-9.3661175,0.78217715,47.716442,-0.9926899,-2.0712059,-3.1772017,-0.5797979,0.34007972,-0.31259206,26.5625,27.5,26.625,29.9375,31.3125,31.8125
0.15005185,-0.49301243,-0.8216871,-0.06322678,-0.017232625,0.050780755,-0.16381338,-0.3862492,-0.34931996,0.060069907,3.075575,-0.62236863,-0.0002644538,-0.07114708,-0.010761236,0.000254022,-0.0572639,0.009016845,0.028315717,0.47255275,-1.4182892,1.9491581,-2.1026242,-1.567849,2.4463177,-0.075899415,0.10678508,-0.117634855,-0.023125567,0.04682962,-0.10409199,-0.34476504,0.3256114,-9.500193,0.8537928,47.696735,-1.0292784,-1.8928356,-3.2501745,-0.56617534,0.33718383,-0.2327075,26.5625,27.5,26.625,29.9375,31.3125,31.8125
0.15205236,-1.1166866,-1.141791,-0.123437926,-0.0060933344,0.039365992,-0.15907444,-0.3863761,-0.34933656,0.06004887,3.075492,-0.62219745,-0.00021718699,-0.07326414,-0.012008487,0.0015201004,-0.061336413,0.011113431,0.030213043,0.47239625,-1.4180728,1.9489774,-2.102708,-1.5677398,2.446065,-0.07731039,0.10796324,-0.12169678,-0.023943363,0.04950995,-0.10739313,-0.21068975,0.34476504,-9.461885,0.7866488,47.691364,-0.95996845,-1.9533992,-3.0302703,-0.5854611,0.31873715,-0.17373274,26.5625,27.5,26.625,29.9375,31.3125,31.8125
0.1540518,-0.7920835,-0.9540583,-0.07065735,-0.01911372,0.04579179,-0.16480882,-0.38652253,-0.34940162,0.060071863,3.0753489,-0.62201434,-0.00025796064,-0.07356188,-0.012629609,0.001728744,-0.06485838,0.009363937,0.029794343,0.47229978,-1.4178565,1.9486908,-2.1027682,-1.5676183,2.4458725,-0.07899326,0.10838321,-0.12281023,-0.023286907,0.053462226,-0.108646005,-0.21068975,0.2681506,-9.289502,0.7418897,47.731667,-0.93078446,-1.8370802,-3.1062093,-0.6026911,0.26998946,-0.1212282,26.5625,27.5,26.625,29.9375,31.3125,31.8125
0.15605237,-0.6425772,-0.7933875,0.3766101,-0.027407473,0.04197112,-0.16251065,-0.38668594,-0.34939775,0.060080692,3.0752318,-0.6220308,-0.00023743686,-0.074964054,-0.012241905,0.001735265,-0.06464864,0.009781761,0.026732564,0.47208303,-1.4176517,1.9484385,-2.1027796,-1.5675229,2.445681,-0.080664605,0.11007238,-0.124785714,-0.023258314,0.05309207,-0.10725174,-0.38307226,0.2681506,-9.193734,0.78217715,47.694946,-0.84007776,-1.882913,-3.0150695,-0.6127667,0.2621589,-0.13161238,26.5625,27.5,26.625,29.9375,31.3125,31.8125
0.15805209,-0.82612664,-0.99884695,0.09475194,-0.017359374,0.026127635,-0.14826754,-0.38679585,-0.34944394,0.060069647,3.0751402,-0.62178445,-0.00020494907,-0.07512157,-0.012340146,0.000438468,-0.06546507,0.007546861,0.021670604,0.47198674,-1.4174464,1.9482478,-2.102864,-1.5674018,2.4454427,-0.08172561,0.11276014,-0.12464886,-0.02446467,0.054833036,-0.10324438,-0.45968673,0.2681506,-9.251195,0.8112748,47.689575,-0.8481704,-1.8748723,-3.1786075,-0.59728,0.24687654,-0.13950726,26.5625,27.5,26.625,29.9375,31.3125,31.8125
0.16005161,-0.42906106,-0.8828214,0.20782365,-0.01638395,0.037079215,-0.15937555,-0.38698035,-0.34945846,0.060069486,3.0750253,-0.62170315,-0.00021484267,-0.07589792,-0.01352174,0.0010294373,-0.06885523,0.007369807,0.01921455,0.47178262,-1.4171821,1.9479588,-2.102924,-1.567305,2.4452026,-0.08229023,0.11372899,-0.12715988,-0.024301916,0.057939094,-0.10134287,-0.45968673,0.30645782,-9.385271,0.78888994,47.674347,-0.818577,-1.9056518,-3.0752716,-0.6151263,0.21319334,-0.1767973,26.5625,27.5,26.625,29.9375,31.3125,31.8125
0.16205177,-0.71812683,-0.74610126,0.27711603,-0.0111180395,0.034843083,-0.15582286,-0.38713533,-0.34947717,0.060083408,3.0748677,-0.62173504,-0.00017163354,-0.07736747,-0.013115188,0.0010643699,-0.070816696,0.006354197,0.009162374,0.47158945,-1.4169774,1.9476951,-2.1029356,-1.5671719,2.4450495,-0.08570845,0.1151389,-0.12895735,-0.02390694,0.060140148,-0.09470073,-0.38307226,0.30645782,-9.232041,0.80456203,47.681515,-0.7353526,-1.8693726,-3.183556,-0.63325655,0.18091008,-0.251217,26.5625,27.5,26.625,29.9375,31.3125,31.8125
0.16405213,-0.9766553,-0.65296906,0.42807317,-0.0022113041,0.029170733,-0.15585792,-0.38732898,-0.3495349,0.060111705,3.0747037,-0.62156445,-0.00028175552,-0.07586994,-0.01406969,-0.0011842559,-0.06994323,0.001291909,0.012049072,0.47144616,-1.4167234,1.9473614,-2.1030314,-1.5670637,2.444821,-0.08361418,0.11952202,-0.12901793,-0.023306616,0.061686784,-0.09547968,-0.45968673,0.19153613,-9.11712,0.84708,47.683304,-0.89929,-2.0368652,-3.2574806,-0.6494688,0.13883765,-0.29328695,26.5625,27.5,26.625,29.9375,31.3125,31.8125
0.16605172,-0.12377589,0.36922103,0.46592855,0.004677674,0.054493967,-0.16279404,-0.38749716,-0.3495756,0.06014282,3.0744953,-0.6215239,-0.00030743008,-0.07754479,-0.013715124,0.00089005334,-0.07249318,0.0050575365,0.008626964,0.4712654,-1.4165324,1.9470853,-2.103091,-1.5669078,2.4446416,-0.086072885,0.11644757,-0.13015884,-0.023583742,0.06226262,-0.09450638,-0.21068975,0.19153613,-9.040505,0.8112748,47.677036,-0.83411884,-1.744823,-3.2353191,-0.65830606,0.094122246,-0.2988967,26.5625,27.5,26.625,29.9375,31.3125,31.8125
0.16805209,-0.2902747,0.41626737,0.56927454,0.025193324,0.04773164,-0.16534886,-0.38763204,-0.34960732,0.06010823,3.0744007,-0.62148345,-0.00020324542,-0.077408634,-0.01446886,-0.00071315095,-0.07192308,0.0026565497,0.010090592,0.4711219,-1.4162426,1.9468454,-2.1031516,-1.5667876,2.444485,-0.084957875,0.12070063,-0.13124439,-0.024333533,0.06284774,-0.09485213,-0.076614454,0.11492168,-9.021352,0.800085,47.68062,-0.7208648,-2.0698915,-3.2518392,-0.6622867,0.06682181,-0.315109,26.5625,27.5,26.625,29.9375,31.3125,31.8125
0.17005265,0.21892805,0.891304,0.68463933,0.018354617,0.051484473,-0.17008375,-0.38778067,-0.34961188,0.060096614,3.0742834,-0.62147826,-0.00012927965,-0.077905744,-0.01500222,-0.000712011,-0.071661904,0.0039132205,0.010777045,0.47091818,-1.4160141,1.946618,-2.1031873,-1.5666674,2.444293,-0.08390519,0.12193343,-0.1324565,-0.025329916,0.062049083,-0.09448431,-0.038307227,0.0,-9.021352,0.78217715,47.65643,-0.9949881,-1.7951394,-3.3302693,-0.6650444,0.061573215,-0.33639956,26.5625,27.5,26.625,29.9375,31.3125,31.8125
0.17205219,-0.41318402,0.6424389,0.5099902,0.027975507,0.02508859,-0.1586742,-0.3879467,-0.34963134,0.060099803,3.0741522,-0.6214329,-0.00010039657,-0.07914678,-0.014560542,-0.0007321433,-0.070670776,0.0050818697,0.010097906,0.47072574,-1.4157734,1.9463428,-2.1032236,-1.5665482,2.4440892,-0.084853485,0.12331904,-0.13391457,-0.025820015,0.060645867,-0.09475083,-0.11492168,0.038307227,-8.887277,0.8314132,47.691364,-0.89474607,-1.9413991,-3.3448477,-0.67598087,0.047538012,-0.37652308,26.5625,27.5,26.625,29.9375,31.3125,31.8125
0.17405285,0.290615,1.0131127,0.6038365,0.030223243,0.030767493,-0.1704059,-0.38811275,-0.34966946,0.060124394,3.074019,-0.6212692,-0.00018210955,-0.07983276,-0.013703731,-0.0015558231,-0.06769565,0.0048948135,0.0115747955,0.47058162,-1.4155685,1.9460682,-2.1032956,-1.5664529,2.44386,-0.08530486,0.12560892,-0.13470474,-0.025768917,0.058102638,-0.09667503,-0.019153614,0.019153614,-9.040505,0.75755644,47.66987,-1.0520201,-1.8343258,-3.3576498,-0.6884857,0.042098664,-0.40063524,26.5625,27.5,26.625,29.9375,31.3125,31.8125
0.17605214,-0.11299931,0.5363444,0.1856489,0.04278541,0.0075866804,-0.16343741,-0.38827276,-0.34968108,0.060101397,3.0739245,-0.6211704,-4.3044765e-05,-0.08097627,-0.013416805,-0.001475741,-0.065675855,0.006601409,0.015346602,0.47036567,-1.4152794,1.9457916,-2.1033075,-1.5663098,2.4435945,-0.08514704,0.1271532,-0.13666695,-0.025905462,0.055544116,-0.10029317,0.1340753,0.076614454,-9.11712,0.79560274,47.647476,-1.022495,-1.9885856,-3.328203,-0.6816833,0.07265261,-0.37453043,26.5625,27.5,26.625,29.9375,31.3125,31.8125
0.1780518,0.078285605,0.3490108,0.09754952,0.023691107,0.0064755753,-0.15919358,-0.38844442,-0.34971744,0.06011986,3.0737777,-0.6211569,-0.00012338582,-0.082300395,-0.012673534,-0.0007937294,-0.06398278,0.008886183,0.020144949,0.47022152,-1.4150513,1.9455041,-2.103379,-1.5662268,2.443461,-0.08599281,0.12715201,-0.13835484,-0.025435684,0.05303549,-0.10593489,0.095768064,0.15322891,-9.11712,0.779936,47.684196,-1.0960435,-1.8343421,-3.3351977,-0.715859,0.098501295,-0.3295899,26.5625,27.5,26.625,29.9375,31.3125,31.8125
0.1800521,-0.08714416,-0.39790645,0.15852727,0.019531416,0.0074444045,-0.1635085,-0.38859066,-0.34973806,0.0600874,3.0737398,-0.6209737,-2.9518462e-05,-0.08420132,-0.011851418,-0.0012713666,-0.061593,0.009678575,0.024108788,0.47006494,-1.41475,1.9452399,-2.1034143,-1.566132,2.4431949,-0.0875264,0.13041863,-0.14102556,-0.025603421,0.05056506,-0.11143609,0.076614454,0.21068975,-9.174581,0.8403672,47.698532,-0.9885104,-2.1421494,-3.3807163,-0.7323364,0.1195866,-0.28415745,26.5625,27.5,26.625,29.9375,31.3125,31.8125
0.1820518,-0.08783878,-0.37625095,0.027743928,-0.0022286687,0.018919524,-0.17456108,-0.38875967,-0.34974808,0.060081195,3.0736618,-0.6208569,-4.7219688e-05,-0.08398626,-0.010415754,-0.0028087841,-0.057880014,0.007734936,0.031214299,0.4698846,-1.414497,1.9449772,-2.1034744,-1.5660609,2.4429517,-0.08828269,0.1323188,-0.13983248,-0.025220739,0.048181035,-0.11930023,0.15322891,0.2681506,-9.251195,0.8157518,47.655537,-1.1002824,-1.7787935,-3.409472,-0.732466,0.16664885,-0.21493924,26.5625,27.5,26.625,29.9375,31.3125,31.8125
0.18405247,-0.72152084,-1.021728,-0.058771823,-0.0150537705,0.014796115,-0.15682846,-0.38889843,-0.34974253,0.06004618,3.0736108,-0.62082714,0.00011582737,-0.08672046,-0.010401289,-0.0012682062,-0.059526116,0.011022776,0.031983156,0.46967995,-1.4142207,1.9447368,-2.103463,-1.5659522,2.442735,-0.090710066,0.13282228,-0.14394547,-0.025250185,0.048164424,-0.12249692,0.17238252,0.38307226,-9.3661175,0.8537928,47.683304,-1.0833968,-1.9029384,-3.2969468,-0.77468216,0.18437997,-0.15680005,26.5625,27.5,26.625,29.9375,31.3125,31.8125
0.18605244,-0.25264642,-0.979696,-0.22198506,-0.033105396,0.03086075,-0.16166432,-0.38909116,-0.34975842,0.060065757,3.0735068,-0.62068754,3.9953306e-05,-0.086822756,-0.011099111,-0.001712667,-0.058914095,0.010714877,0.03618707,0.4694885,-1.4139795,1.944426,-2.1035106,-1.5658807,2.4424698,-0.08927302,0.13503906,-0.1454894,-0.02533901,0.04778604,-0.12525812,0.076614454,0.4213795,-9.385271,0.800085,47.690468,-1.0521407,-1.8366575,-3.3426476,-0.79027265,0.2026743,-0.091606125,26.5625,27.5,26.625,29.9375,31.3125,31.8125
0.18805192,-0.40930718,-1.4232969,-0.40439466,-0.031626537,0.031025998,-0.16033123,-0.38926518,-0.3497972,0.060072623,3.0733457,-0.62057763,4.4803866e-05,-0.08849182,-0.010576799,-0.0011457592,-0.05736991,0.013693012,0.034328848,0.4693084,-1.4137272,1.944137,-2.1035826,-1.5657376,2.442242,-0.08989733,0.13572945,-0.1474595,-0.025986584,0.04507143,-0.12402451,-0.1340753,0.59376204,-9.481039,0.7933669,47.69763,-1.1459385,-1.8376905,-3.373076,-0.8067623,0.25279084,-0.07196875,26.5625,27.5,26.625,29.9375,31.3125,31.8125
0.19005251,-0.84378284,-1.8917675,-0.4128943,-0.030689886,0.03331809,-0.15104698,-0.38944256,-0.34982088,0.06006233,3.0732992,-0.620379,3.057242e-05,-0.089959264,-0.010699581,-0.0011562562,-0.059390903,0.013773139,0.029103845,0.46915147,-1.413426,1.9438251,-2.1036308,-1.5656766,2.441967,-0.09207739,0.13749933,-0.14928737,-0.026920682,0.046833098,-0.12097142,-0.15322891,0.6512229,-9.557653,0.84708,47.683304,-0.977281,-1.9334261,-3.2540212,-0.8174116,0.28095177,-0.09872919,26.5625,27.5,26.625,29.9375,31.3125,31.8125
0.19205202,-0.51374286,-1.6504116,-0.58107454,-0.051177777,0.047407404,-0.16067128,-0.3896135,-0.34984192,0.060046673,3.0732498,-0.6202358,3.0555366e-05,-0.0908083,-0.012492001,-0.00019507963,-0.061655443,0.016028484,0.027327135,0.4689963,-1.4131256,1.9435261,-2.103679,-1.5656165,2.4417288,-0.09026678,0.13846524,-0.15241858,-0.027797807,0.047822453,-0.11737775,-0.15322891,0.7278373,-9.672575,0.86945957,47.687782,-1.2647734,-1.8130553,-3.384203,-0.8369305,0.2955809,-0.1378935,26.5625,27.5,26.625,29.9375,31.3125,31.8125
0.19405253,-0.86715424,-1.9929445,-0.6989147,-0.0604626,0.05197318,-0.16166425,-0.389771,-0.34987238,0.0600611,3.073079,-0.6202423,6.7332956e-05,-0.09173744,-0.012257592,-0.00012868243,-0.06359279,0.016341394,0.020802738,0.46881548,-1.4129094,1.9432505,-2.1037037,-1.5654715,2.441574,-0.09247362,0.13863835,-0.15249583,-0.029050577,0.049406372,-0.113051936,-0.1340753,0.68953013,-9.730036,0.86498255,47.677036,-1.2082853,-1.7256901,-3.4024138,-0.8443042,0.3011703,-0.19644234,26.5625,27.5,26.625,29.9375,31.3125,31.8125
0.19605207,-1.44363,-2.5390525,-1.0541087,-0.05348454,0.04153456,-0.14809784,-0.38995898,-0.34989372,0.060051687,3.0729887,-0.62009126,7.271586e-05,-0.09346074,-0.012586114,-0.00033408141,-0.06392504,0.017320922,0.016526727,0.46862316,-1.4126078,1.9429387,-2.1037633,-1.5653762,2.4412992,-0.09328358,0.14173833,-0.15533996,-0.030327782,0.049253255,-0.1095809,-0.3256114,0.6703765,-9.844957,0.88960326,47.705692,-1.1725181,-1.8451645,-3.378593,-0.84455746,0.32789272,-0.24267538,26.5625,27.5,26.625,29.9375,31.3125,31.8125
0.19805257,-1.1216917,-1.9756624,-0.9592019,-0.05764016,0.05340393,-0.15785822,-0.39016774,-0.3499216,0.06006125,3.0728514,-0.620025,-6.749572e-06,-0.09455425,-0.0126864305,-0.0013858735,-0.063952915,0.016718578,0.014071403,0.46843094,-1.4123186,1.9426035,-2.1038477,-1.5652918,2.4410834,-0.09421947,0.14533563,-0.15673798,-0.031992685,0.04955952,-0.10805286,-0.24899697,0.51714754,-9.749189,0.81351066,47.668976,-1.2950866,-1.7955871,-3.3708649,-0.8335731,0.35302752,-0.30333662,26.5625,27.5,26.625,29.9375,31.3125,31.8125
0.20005195,-1.1583188,-1.5401558,-0.60055673,-0.04217082,0.04954306,-0.16356438,-0.3903497,-0.34994903,0.060057037,3.0727184,-0.6199798,2.1248825e-05,-0.09593609,-0.013980124,-0.00070557476,-0.067943625,0.0184325,0.010712866,0.46823877,-1.4120302,1.9422926,-2.1038969,-1.5651711,2.4408803,-0.09490051,0.14630798,-0.15894698,-0.0340888,0.052342113,-0.1053625,-0.2681506,0.4405331,-9.80665,0.8784135,47.691364,-1.239267,-1.8826252,-3.3246744,-0.81384504,0.3539052,-0.3592496,26.5625,27.5,26.625,29.9375,31.3125,31.8125
0.20205244,-0.47050127,-0.75563323,-0.6687044,-0.030298159,0.053041585,-0.1581071,-0.39056066,-0.34997416,0.060059436,3.0726364,-0.619867,-8.969283e-05,-0.097161256,-0.014786625,-0.001536387,-0.07004204,0.018177608,0.009938362,0.46807045,-1.4117163,1.941945,-2.1039813,-1.5651344,2.4406524,-0.09579577,0.14987138,-0.16058753,-0.036724858,0.054341014,-0.10546957,-0.3256114,0.28730422,-9.749189,0.8493211,47.682407,-1.2551035,-2.0231836,-3.3377566,-0.81045794,0.36110115,-0.43439674,26.5625,27.5,26.625,29.9375,31.3125,31.8125
0.20405199,-0.86304843,-0.4648182,-0.52630174,-0.010558117,0.04477242,-0.16100007,-0.39077094,-0.3500462,0.06008833,3.072367,-0.6197926,-0.00012627301,-0.09862194,-0.014938492,-0.0016391627,-0.07210542,0.019011961,0.0069831195,0.467878,-1.4114395,1.9415859,-2.1040895,-1.5649298,2.4404483,-0.09771145,0.15147059,-0.16172959,-0.03883659,0.055823375,-0.10441413,-0.3256114,0.24899697,-9.730036,0.7777002,47.734352,-1.2389027,-2.0959911,-3.3104057,-0.7897365,0.35982227,-0.4551447,26.5625,27.5,26.625,29.9375,31.3125,31.8125
0.20605256,-0.62153554,-0.34803164,-0.45772427,0.0022862386,0.057275873,-0.16717924,-0.39091474,-0.35006526,0.060050644,3.072276,-0.6197528,1.6092241e-05,-0.098771185,-0.015679816,-0.0019791324,-0.073608115,0.018742627,0.009478644,0.46769804,-1.411139,1.9413341,-2.1041262,-1.5647973,2.4402552,-0.097431205,0.15276662,-0.16219963,-0.040068164,0.05729997,-0.10662507,-0.28730422,0.21068975,-9.519346,0.9030289,47.67614,-1.2915053,-2.079335,-3.4579234,-0.7574135,0.3621386,-0.49820018,26.5625,27.5,26.625,29.9375,31.3125,31.8125
0.20805208,-1.1946429,0.07091228,-0.23188305,-0.009880461,0.058003236,-0.16457355,-0.3911792,-0.35009596,0.060077436,3.072096,-0.61971384,-0.00016534123,-0.102220096,-0.016269399,-0.0009551739,-0.07754016,0.022806086,0.012566841,0.46746895,-1.4108139,1.9409264,-2.1042473,-1.5647243,2.4400253,-0.10049266,0.15476148,-0.1660562,-0.043554872,0.05902515,-0.11275503,-0.40222588,0.095768064,-9.5385,0.9030289,47.695843,-1.1174092,-2.089289,-3.3138866,-0.7227566,0.3665294,-0.49602342,26.5625,27.5,26.625,29.9375,31.3125,31.8125
0.21005227,-1.2528744,0.18335405,0.004997459,-0.005379253,0.062195797,-0.1598224,-0.39134714,-0.3501278,0.060066376,3.071984,-0.61955035,-0.00020516322,-0.10187371,-0.01708907,-0.00093814865,-0.07930801,0.02268432,0.021633869,0.4673133,-1.4105496,1.9406747,-2.104367,-1.564628,2.4397821,-0.09976667,0.15472895,-0.1659112,-0.044290986,0.060718365,-0.12108435,-0.3256114,0.095768064,-9.461885,0.88289046,47.689575,-1.2614889,-2.1178813,-3.4566054,-0.69929206,0.35570726,-0.44178152,26.5625,27.5,26.625,29.9375,31.3125,31.8125
0.21205181,-1.8843925,-0.3271028,0.10044566,0.01212346,0.05621086,-0.15256062,-0.39155084,-0.3501727,0.06007392,3.0718048,-0.61943465,-0.00014458473,-0.10354091,-0.015324137,-0.0021852837,-0.0791545,0.01865493,0.024857247,0.46709514,-1.4102358,1.9403042,-2.1044018,-1.5644478,2.4395149,-0.10539453,0.15831977,-0.16769196,-0.04235061,0.06246364,-0.12992337,-0.47884035,0.05746084,-9.385271,0.9030289,47.6636,-0.97374344,-2.1666856,-3.435852,-0.6949866,0.36053193,-0.3573475,26.5625,27.5,26.625,29.9375,31.3125,31.8125
0.21404804,-0.8959312,0.4664297,0.12635233,0.0022111882,0.06607969,-0.17050889,-0.39181247,-0.35019353,0.06007641,3.0716271,-0.6194114,-0.00028491174,-0.10307914,-0.016923733,-0.0020075087,-0.08226075,0.019193584,0.034360774,0.46684384,-1.4098876,1.9399332,-2.1045587,-1.5643624,2.4392724,-0.10374427,0.15822083,-0.16759479,-0.044161297,0.06506804,-0.1377561,-0.38307226,0.019153614,-9.308656,0.9097417,47.69763,-1.1934625,-2.0445065,-3.4503949,-0.65517676,0.3447852,-0.2882212,26.5625,27.5,26.625,29.9375,31.3125,31.8125
0.21605751,-0.72786194,0.09390716,0.21294644,0.020051306,0.05555248,-0.162939,-0.39200932,-0.35023618,0.060068697,3.071517,-0.6191578,-0.00023385808,-0.105365366,-0.016781308,-0.0018766661,-0.085407354,0.019835142,0.034873597,0.46665066,-1.4095508,1.9395736,-2.1046069,-1.5642174,2.438935,-0.107589394,0.16010311,-0.1696995,-0.0458763,0.06762396,-0.14209865,-0.36391866,0.0,-9.270349,0.8717007,47.690468,-0.9824015,-1.9678133,-3.4085717,-0.6187434,0.3230778,-0.22525534,26.5625,27.5,26.625,29.9375,31.3125,31.8125
0.2181129,-0.41341394,-0.029113758,0.5123347,0.0114710005,0.045440815,-0.16475442,-0.39222345,-0.35026786,0.060071446,3.0713634,-0.6190296,-0.00030813707,-0.10817968,-0.0180569,-3.5409553e-07,-0.09117239,0.023969049,0.034500737,0.46644586,-1.4092505,1.9392489,-2.104727,-1.5641083,2.4386702,-0.10989199,0.16015966,-0.17346208,-0.04842543,0.070942305,-0.14400376,-0.34476504,0.095768064,-9.136273,0.8112748,47.67614,-0.93380034,-2.013392,-3.3687253,-0.5984394,0.30877578,-0.1540174,26.5625,27.5,26.625,29.9375,31.3125,31.8125
0.22009873,-0.44002262,0.15309677,0.48317483,0.009068439,0.022611838,-0.16113801,-0.39241943,-0.35031435,0.060067005,3.071172,-0.6188381,-0.0002687564,-0.10880208,-0.019096812,0.00037330226,-0.09481917,0.022560827,0.032404993,0.46622956,-1.4089499,1.9389375,-2.1048348,-1.5639147,2.438359,-0.11103614,0.16137673,-0.17593625,-0.047527295,0.074854754,-0.14302708,-0.4213795,0.095768064,-9.078813,0.9321212,47.67345,-0.91989946,-1.8559464,-3.320856,-0.53668666,0.24835005,-0.1704363,26.5625,27.5,26.625,29.9375,31.3125,31.8125
0.22209954,-0.58092177,-0.15019013,0.39841104,0.009687614,0.01502274,-0.1555309,-0.3926565,-0.35034838,0.060083054,3.0710075,-0.61873096,-0.00032754967,-0.10874022,-0.019746188,-0.00058059394,-0.09507832,0.018321851,0.024255618,0.4660015,-1.4086243,1.9385418,-2.1049054,-1.563794,2.4380856,-0.11110944,0.16518734,-0.17882434,-0.04480817,0.076979704,-0.13493012,-0.51714754,0.076614454,-9.078813,0.8291774,47.69763,-0.86312443,-1.9189274,-3.2755346,-0.53766155,0.19994673,-0.23973517,26.5625,27.5,26.625,29.9375,31.3125,31.8125
0.22410125,-0.17024706,-0.07510497,0.2694045,0.012484066,0.039113697,-0.15924452,-0.39287636,-0.35039967,0.060095534,3.070777,-0.61858934,-0.00034834034,-0.10924287,-0.020510152,0.0014982553,-0.097784884,0.021356104,0.020924833,0.46577364,-1.408325,1.9381961,-2.105025,-1.5636019,2.4377992,-0.1108057,0.16210268,-0.18011451,-0.04434604,0.0780481,-0.13127841,-0.51714754,0.24899697,-9.136273,0.7933669,47.74241,-0.9703846,-1.8838203,-3.257927,-0.5253158,0.18554634,-0.30150193,26.5625,27.5,26.625,29.9375,31.3125,31.8125
0.22605795,-0.91391796,0.04511723,0.10046017,0.0036479863,0.040590595,-0.15811451,-0.39312005,-0.3504385,0.06011716,3.07056,-0.6186033,-0.00039931058,-0.11023879,-0.020691687,0.001177142,-0.100739166,0.018622184,0.01686325,0.46553272,-1.4080002,1.9377888,-2.1050966,-1.5634564,2.4375954,-0.113757834,0.16441607,-0.18230656,-0.043335047,0.081941456,-0.1301385,-0.34476504,0.24899697,-9.270349,0.8314132,47.681515,-0.9272258,-1.9175293,-3.2295983,-0.5251984,0.13444847,-0.32177293,26.5625,27.5,26.625,29.9375,31.3125,31.8125
0.2280527,-1.1565907,-0.9503735,-0.05256724,9.130291e-05,0.057366922,-0.1562906,-0.39331037,-0.35047722,0.060084388,3.0704246,-0.6184217,-0.0002831601,-0.10972111,-0.021269849,0.0010996887,-0.098664306,0.017914925,0.018700108,0.46531752,-1.4076393,1.937466,-2.105179,-1.5632771,2.4372842,-0.111236975,0.1657207,-0.18419689,-0.041144736,0.08042038,-0.12945741,-0.2681506,0.4213795,-9.251195,0.8560339,47.716442,-1.0502346,-1.7658427,-3.3141828,-0.52480876,0.11237512,-0.37006825,26.5625,27.5,26.625,29.9375,31.3125,31.8125
0.23005262,-0.9206184,-1.0840112,-0.21111132,-0.018753463,0.06357088,-0.16030014,-0.39352888,-0.35048917,0.060062405,3.0703082,-0.618457,-0.00022469733,-0.11081182,-0.019151837,0.00054111745,-0.096979,0.016016563,0.013505444,0.4650761,-1.4072664,1.9370936,-2.1052148,-1.5631694,2.4370801,-0.115421504,0.16665226,-0.18448336,-0.039309073,0.07978203,-0.12844765,-0.38307226,0.30645782,-9.270349,0.9567419,47.716442,-0.9126282,-1.813488,-3.3009963,-0.5253949,0.101157695,-0.41325927,26.5625,27.5,26.625,29.9375,31.3125,31.8125
0.23205173,-0.43310705,-0.8848392,-0.252922,-0.026678117,0.06252421,-0.16711825,-0.39374822,-0.35054937,0.06006891,3.070097,-0.61835235,-0.00022553295,-0.110238425,-0.019345485,-0.00025980087,-0.093514085,0.014917565,0.019534418,0.46487314,-1.4069293,1.9367117,-2.1053097,-1.5629901,2.4368393,-0.11286481,0.16898249,-0.18577299,-0.03773873,0.07722935,-0.13192077,-0.19153613,0.3256114,-9.404425,0.8851263,47.704796,-1.0430022,-1.791718,-3.22247,-0.549474,0.113891944,-0.37475502,26.5625,27.5,26.625,29.9375,31.3125,31.8125
0.23405267,-0.4944425,-0.6066059,-0.3667786,-0.024453558,0.04054892,-0.15900783,-0.39398912,-0.35057598,0.060085393,3.069908,-0.61823213,-0.00025370903,-0.1118188,-0.01758439,-0.0020354933,-0.08870729,0.013116321,0.024729118,0.4646083,-1.4066151,1.9363283,-2.1053817,-1.5628356,2.4365242,-0.11508057,0.17414264,-0.18797748,-0.03681897,0.07381652,-0.13933606,-0.076614454,0.34476504,-9.500193,0.83589023,47.739727,-1.0211529,-1.960813,-3.2599263,-0.547045,0.13963038,-0.38869363,26.5625,27.5,26.625,29.9375,31.3125,31.8125
0.2360526,-0.38881916,-0.6214105,-0.23362832,-0.012452943,0.03924881,-0.15549986,-0.394226,-0.35063347,0.060080923,3.069762,-0.61798865,-0.0003044249,-0.113371305,-0.016348658,-0.0016600379,-0.08610277,0.015565286,0.029693987,0.46441612,-1.4062308,1.935922,-2.1055014,-1.5627044,2.436199,-0.11639151,0.17452344,-0.1893578,-0.0367477,0.07045821,-0.14561836,0.0,0.34476504,-9.346964,0.89631605,47.681515,-1.0147789,-1.863629,-3.433052,-0.5447548,0.16923165,-0.3125774,26.5625,27.5,26.625,29.9375,31.3125,31.8125
0.23805195,-0.45629102,-0.15942433,-0.14881702,-0.00027139083,0.035804052,-0.17230257,-0.39446473,-0.35064998,0.060066447,3.0695837,-0.6179847,-0.0002342027,-0.115864836,-0.016546227,-0.00015487091,-0.0854492,0.020146038,0.038083706,0.464128,-1.405858,1.9355382,-2.1055615,-1.5625376,2.4359317,-0.116512805,0.1754744,-0.19392927,-0.036807664,0.06789412,-0.15413605,0.0,0.38307226,-9.270349,0.83589023,47.704796,-0.9713554,-1.9575827,-3.373828,-0.536533,0.22476393,-0.20693804,26.5625,27.5,26.625,29.9375,31.3125,31.8125
0.24005187,-0.62746215,0.05655782,-0.0021303792,0.014486954,0.025893658,-0.15752935,-0.39470136,-0.35068724,0.060088813,3.0694447,-0.6177805,-0.00034746804,-0.115692444,-0.015818708,-0.0017046576,-0.08326474,0.017768469,0.043310683,0.46392372,-1.4055446,1.9351443,-2.105645,-1.5624422,2.4356182,-0.11702897,0.17806874,-0.19349487,-0.036653947,0.06708081,-0.1598729,0.076614454,0.4405331,-9.308656,0.92093146,47.677036,-1.0824653,-1.9822505,-3.3812203,-0.5321781,0.2438612,-0.123153,26.5625,27.5,26.625,29.9375,31.3125,31.8125
0.24205206,0.03907094,0.6162967,0.007636047,0.0055231475,0.038600586,-0.16294011,-0.39488846,-0.35071906,0.060034297,3.069357,-0.6175898,-0.00017076064,-0.116044156,-0.015066707,-0.0025492788,-0.08060305,0.016315589,0.043457683,0.46370766,-1.4051358,1.9348091,-2.105704,-1.5622743,2.4352942,-0.11748394,0.18038821,-0.19465657,-0.035269044,0.06536375,-0.16048461,0.05746084,0.28730422,-9.193734,0.90750587,47.66271,-1.0192466,-2.0830393,-3.3887374,-0.54501176,0.26489186,-0.082345024,26.5625,27.5,26.625,29.9375,31.3125,31.8125
0.24405225,0.01650793,-0.021673929,-0.28275663,0.018483462,0.028661221,-0.15669514,-0.39515504,-0.35074866,0.060060754,3.0691917,-0.617423,-0.0002894877,-0.11646498,-0.015440584,-0.0024790126,-0.08000397,0.016633106,0.04035762,0.46345606,-1.4047986,1.9343785,-2.105788,-1.5621666,2.4349601,-0.1166734,0.18170837,-0.1965178,-0.03474128,0.0646974,-0.15656531,0.05746084,0.21068975,-9.193734,0.8023209,47.72002,-1.1635342,-2.1203856,-3.403183,-0.5519797,0.30424044,-0.10458226,26.5625,27.5,26.625,29.9375,31.3125,31.8125
0.24605225,0.651998,0.066926606,-0.16772263,-0.0042564254,0.027679019,-0.16067483,-0.39540017,-0.3507877,0.060046475,3.0690625,-0.6173026,-0.00031785233,-0.11727736,-0.015569983,-0.0024651967,-0.08009503,0.016378107,0.03476574,0.4632398,-1.4043903,1.9339603,-2.1058834,-1.5620583,2.4346857,-0.117185086,0.18333077,-0.19864821,-0.03405932,0.0648817,-0.15147631,0.095768064,0.30645782,-9.155427,0.83813137,47.672558,-1.0350727,-2.0347,-3.367305,-0.5396849,0.32571304,-0.15157309,26.5625,27.5,26.625,29.9375,31.3125,31.8125
0.24805202,0.29584885,-0.29856324,-0.16807124,-0.012315204,0.005142925,-0.16336654,-0.39561915,-0.35080555,0.06003592,3.0689337,-0.6171854,-0.0002550878,-0.11867808,-0.015319113,-0.0017924192,-0.08121582,0.017047789,0.025230244,0.4629872,-1.4040418,1.9335893,-2.1059191,-1.5619148,2.4343767,-0.119185,0.1837055,-0.20080976,-0.03340258,0.06555077,-0.14393222,0.05746084,0.24899697,-9.251195,0.779936,47.695843,-1.2334664,-2.1035533,-3.3322735,-0.5623286,0.3530898,-0.22055756,26.5625,27.5,26.625,29.9375,31.3125,31.8125
0.25005206,0.30691776,-0.3812079,-0.17385522,-0.015110434,-0.0037422078,-0.15352271,-0.39586243,-0.35084367,0.06002294,3.068768,-0.61717033,-0.00021706356,-0.11839499,-0.016477026,-0.0026794658,-0.083339,0.013849521,0.022871526,0.46274742,-1.4036324,1.9331588,-2.1059787,-1.5617689,2.4341493,-0.11892685,0.18658723,-0.20229997,-0.03287895,0.06888157,-0.14129046,0.038307227,0.2681506,-9.270349,0.85826975,47.698532,-1.1536428,-2.173422,-3.3270564,-0.57538116,0.32450822,-0.2800259,26.5625,27.5,26.625,29.9375,31.3125,31.8125
0.25205204,0.080182716,-0.28022203,-0.19730867,-0.019119594,-0.008258413,-0.14967988,-0.39609006,-0.35086623,0.060013857,3.0686605,-0.61701673,-0.00021907153,-0.12033591,-0.016396482,-0.0019859408,-0.08370124,0.0153487595,0.017500635,0.46251884,-1.4032712,1.9327749,-2.1060383,-1.5616616,2.4338388,-0.12045203,0.18807016,-0.20576258,-0.032405086,0.06852562,-0.13743952,0.019153614,0.22984336,-9.289502,0.9612189,47.690468,-1.1763339,-2.229337,-3.4203076,-0.5756643,0.3679242,-0.37513247,26.5625,27.5,26.625,29.9375,31.3125,31.8125
0.25405204,0.45757836,-0.21079247,-0.11684881,-0.01753176,0.011269836,-0.1558011,-0.39635146,-0.3508984,0.060015686,3.0684776,-0.61694247,-0.00024345277,-0.121055275,-0.015971825,-0.0023177303,-0.08446602,0.014161351,0.012943494,0.4622541,-1.4028866,1.9323448,-2.1061223,-1.5615171,2.4335518,-0.12249261,0.189289,-0.20653968,-0.03211475,0.06975142,-0.13490672,0.019153614,0.28730422,-9.232041,0.86498255,47.692257,-1.0900887,-2.230547,-3.4077673,-0.588164,0.39358765,-0.43577272,26.5625,27.5,26.625,29.9375,31.3125,31.8125
0.25605217,-0.063966535,-0.92596614,-0.26863074,0.0052375775,0.0054441253,-0.14874512,-0.3965443,-0.35092172,0.059968516,3.0683498,-0.6169171,-0.00010539879,-0.12075767,-0.01632559,-0.003356234,-0.0872774,0.010429201,0.011632976,0.4620256,-1.4025016,1.9320225,-2.1061938,-1.5613593,2.433324,-0.12418619,0.19108655,-0.20632632,-0.032012798,0.07394765,-0.13526475,-0.076614454,0.22984336,-9.346964,0.8560339,47.71017,-1.068124,-2.1289432,-3.4547951,-0.6085014,0.36386,-0.48716003,26.5625,27.5,26.625,29.9375,31.3125,31.8125
0.2580518,-0.27738202,-0.5640528,-0.54798454,-0.0046430742,0.014739927,-0.14640184,-0.3968084,-0.35096204,0.059965942,3.0681853,-0.6168216,-0.000102760685,-0.12136958,-0.016735576,-0.0021405646,-0.08907509,0.012361945,0.016477045,0.46177348,-1.4020816,1.9315556,-2.1062539,-1.5612153,2.433034,-0.12440737,0.18965189,-0.20751998,-0.031832796,0.07475786,-0.14031783,0.0,0.28730422,-9.3661175,0.8314132,47.698532,-1.1180425,-2.005555,-3.4422793,-0.6248744,0.35628062,-0.4954423,26.5625,27.5,26.625,29.9375,31.3125,31.8125
0.2600519,-0.84022534,-0.86533844,-0.4447925,-0.0067760693,0.025074186,-0.1472805,-0.39704078,-0.35101157,0.05998163,3.068027,-0.6166103,-0.000101022946,-0.12234705,-0.016649712,-0.002176387,-0.09083447,0.011095984,0.024903433,0.4615569,-1.4017333,1.9311246,-2.1062891,-1.5610579,2.432706,-0.12673645,0.19109985,-0.20935658,-0.03096096,0.077003404,-0.15105115,-0.1340753,0.2681506,-9.404425,0.93436235,47.66271,-1.1700821,-2.0441036,-3.3836641,-0.63484657,0.36502212,-0.41496235,26.5625,27.5,26.625,29.9375,31.3125,31.8125
0.262052,-0.58987296,-0.3589656,-0.2888843,-0.020178532,0.04506375,-0.15689938,-0.39728928,-0.35104784,0.0599796,3.067826,-0.61654246,-3.4992034e-05,-0.122730576,-0.018063087,-0.0021230406,-0.09411357,0.009409677,0.037386827,0.46128064,-1.4013475,1.9306935,-2.1063373,-1.5608648,2.4324138,-0.12690243,0.19322716,-0.2121911,-0.030042969,0.080810666,-0.16366981,-0.21068975,0.22984336,-9.442732,0.8851263,47.705692,-1.0130643,-2.0679169,-3.425231,-0.6520016,0.3274008,-0.31375426,26.5625,27.5,26.625,29.9375,31.3125,31.8125
0.26405206,-0.93551356,-0.5651103,-0.4599748,-0.0120766135,0.051837485,-0.15357593,-0.39752042,-0.3510649,0.05996169,3.0677404,-0.6163506,-5.4032475e-06,-0.12445065,-0.017704224,-0.0017265426,-0.09744965,0.008611848,0.039738856,0.4610393,-1.4009632,1.9302992,-2.1063845,-1.5607556,2.4320638,-0.13108736,0.19409195,-0.2142538,-0.029525265,0.08422166,-0.17018078,-0.51714754,0.15322891,-9.461885,0.84708,47.696735,-1.042711,-2.018684,-3.3590522,-0.68867195,0.29545337,-0.2030575,26.5625,27.5,26.625,29.9375,31.3125,31.8125
0.266052,-0.8643962,-0.12350649,-0.6154345,-0.016027953,0.06835526,-0.15489216,-0.3977516,-0.35111994,0.059941586,3.06755,-0.6161936,0.00013920598,-0.12441035,-0.020343008,-0.0011164565,-0.102152966,0.008576276,0.04452064,0.4607881,-1.4005421,1.9298681,-2.1064327,-1.5605258,2.4317393,-0.12903748,0.19526772,-0.21692024,-0.030022068,0.08848689,-0.1728803,-0.6512228,0.22984336,-9.5385,0.8672237,47.67614,-1.0207992,-1.9837248,-3.432119,-0.7159367,0.25530773,-0.14674678,26.5625,27.5,26.625,29.9375,31.3125,31.8125
0.268052,-1.6370405,-0.7779007,-0.68374944,-0.002825102,0.06799501,-0.14181876,-0.39801538,-0.35117754,0.059939843,3.0673363,-0.61599797,0.00013036684,-0.124222435,-0.02173166,-0.0013973637,-0.10626076,0.0072971047,0.041320484,0.46053612,-1.4001337,1.9294266,-2.1065533,-1.5603322,2.4313931,-0.12902793,0.19622973,-0.21708657,-0.031490915,0.09274575,-0.1696295,-0.6703765,0.22984336,-9.634268,0.8291774,47.701214,-1.0766594,-1.8806729,-3.4567688,-0.7157836,0.2135646,-0.14844728,26.5625,27.5,26.625,29.9375,31.3125,31.8125
0.2700522,-1.7366326,-0.5198064,-0.50005853,-0.023613105,0.075230554,-0.13900183,-0.39822173,-0.35118765,0.059902363,3.0672262,-0.61586523,0.00031675835,-0.12505817,-0.022300046,-0.0013401075,-0.10916605,0.0061282697,0.032904275,0.46025962,-1.3997486,1.9290675,-2.1065648,-1.5601515,2.431048,-0.13060576,0.19770598,-0.21901281,-0.03131143,0.09582233,-0.16277146,-0.6895301,0.21068975,-9.634268,0.8851263,47.674347,-1.028135,-2.0454845,-3.494216,-0.7221033,0.11898781,-0.22031811,26.5625,27.5,26.625,29.9375,31.3125,31.8125
0.2720523,-1.3897953,-0.7095795,-0.35318616,-0.016525332,0.083911724,-0.14477453,-0.39850155,-0.3512562,0.05993182,3.0669436,-0.61578786,0.0003375157,-0.12573485,-0.02292675,-0.0013118184,-0.11011722,0.0054037347,0.02821726,0.4599837,-1.3993521,1.928552,-2.106612,-1.5599111,2.4307609,-0.13071744,0.19968697,-0.22162542,-0.03044114,0.09699747,-0.1581715,-0.59376204,0.22984336,-9.481039,0.89631605,47.691364,-1.1472331,-2.0727212,-3.3325691,-0.75553,0.077793986,-0.30235505,26.5625,27.5,26.625,29.9375,31.3125,31.8125
0.27405247,-0.9064604,0.013256241,-0.27667356,-0.013928628,0.0862407,-0.14878052,-0.3987813,-0.35128683,0.059926048,3.0667548,-0.6156934,0.00032353637,-0.1268527,-0.022914642,-0.0015932887,-0.112676404,0.0038605619,0.024356293,0.4596947,-1.3989307,1.9280981,-2.1067083,-1.5597543,2.4304378,-0.13347894,0.20154548,-0.2231858,-0.030462293,0.099998854,-0.15703885,-0.51714754,0.21068975,-9.385271,0.87617236,47.703903,-0.966937,-2.1363976,-3.3974571,-0.78249,0.056300826,-0.34615868,26.5625,27.5,26.625,29.9375,31.3125,31.8125
0.27605164,-0.72353023,0.35538268,-0.623766,0.0061259605,0.06682386,-0.15346913,-0.3990399,-0.35134137,0.059921395,3.0665293,-0.6155527,0.00036427166,-0.12956212,-0.021431388,-0.001619932,-0.10992382,0.007733814,0.019523254,0.45942992,-1.3985213,1.927656,-2.1068046,-1.5595402,2.4301147,-0.13565437,0.2034607,-0.22488426,-0.032884143,0.09581708,-0.1543962,-0.30645782,0.22984336,-9.576807,0.8717007,47.688675,-0.9682627,-2.1472316,-3.572294,-0.78251857,0.023796849,-0.4000575,26.5625,27.5,26.625,29.9375,31.3125,31.8125
0.27805173,-0.26998374,0.43563932,-0.30355912,-0.003552237,0.07781571,-0.159764,-0.39928406,-0.35134777,0.059902404,3.0664325,-0.6154752,0.00044466945,-0.13266313,-0.02112785,-0.00070643926,-0.110146806,0.011442911,0.01924137,0.4591533,-1.3981122,1.9272236,-2.106805,-1.55942,2.4298024,-0.13785943,0.20543796,-0.22907627,-0.034021277,0.09439638,-0.15632522,-0.30645782,0.22984336,-9.519346,0.8605109,47.70032,-0.9600146,-2.2628179,-3.5635543,-0.7789509,0.04012756,-0.40603468,26.5625,27.5,26.625,29.9375,31.3125,31.8125
0.28005186,-0.758988,0.2085864,-0.34507608,-0.012714229,0.07292657,-0.14931089,-0.39953807,-0.3514162,0.059899308,3.0661829,-0.6153206,0.00049289776,-0.13326405,-0.020769551,-0.0013754707,-0.104447745,0.013685666,0.028717807,0.4589021,-1.3977032,1.926781,-2.1069129,-1.559182,2.4294875,-0.13509044,0.20826198,-0.23087522,-0.034372233,0.08838246,-0.1630619,-0.36391866,0.2681506,-9.404425,0.9388393,47.704796,-1.0072811,-2.2157516,-3.5334082,-0.79341483,0.07806356,-0.39404893,26.5625,27.5,26.625,29.9375,31.3125,31.8125
0.28205195,-1.0022684,0.00209495,-0.55230004,-0.006143119,0.08076514,-0.14982311,-0.39980778,-0.35145164,0.059887193,3.0660124,-0.61524177,0.0005453838,-0.13537659,-0.018888058,-0.0016414117,-0.101213776,0.016302044,0.036734827,0.45862514,-1.3972584,1.9263028,-2.1069615,-1.5590156,2.4291837,-0.13758126,0.20969349,-0.23174936,-0.03565507,0.08443889,-0.17359157,-0.22984336,0.28730422,-9.5385,0.8806493,47.677036,-0.82608426,-2.2208235,-3.5055213,-0.80302024,0.120330244,-0.32183608,26.5625,27.5,26.625,29.9375,31.3125,31.8125
0.28405195,-0.91191125,-0.3938409,-0.2025765,0.0052924897,0.08974412,-0.14578626,-0.4001281,-0.35148078,0.05991601,3.0657997,-0.6150187,0.00042365337,-0.13672453,-0.018027488,-0.001827475,-0.09760962,0.01794658,0.04665378,0.45830137,-1.3968614,1.9258007,-2.1070683,-1.5588611,2.4287488,-0.13768837,0.2118377,-0.23402053,-0.03522165,0.080618955,-0.18362843,-0.19153613,0.24899697,-9.557653,0.8851263,47.689575,-1.0220788,-2.3329902,-3.4609246,-0.81758374,0.16243389,-0.21328612,26.5625,27.5,26.625,29.9375,31.3125,31.8125
0.28605214,-0.105749406,-0.1706067,0.10603702,-0.0009121837,0.09527953,-0.15837362,-0.40039194,-0.35151646,0.059884407,3.065656,-0.6148916,0.00048034854,-0.13794623,-0.017413022,-0.0017953368,-0.09461121,0.01941418,0.049230613,0.45803764,-1.3963921,1.9253458,-2.1071522,-1.5587062,2.4284246,-0.13761573,0.21361804,-0.23645703,-0.034464054,0.07732756,-0.18615113,-0.22984336,0.28730422,-9.423578,0.8985519,47.71554,-0.9536447,-2.2086911,-3.4453678,-0.837548,0.21814077,-0.13688987,26.5625,27.5,26.625,29.9375,31.3125,31.8125
0.28805226,-0.32221764,-0.13207056,-0.059570037,0.009134483,0.07062716,-0.14901145,-0.40065828,-0.35154608,0.05988449,3.0654924,-0.6147059,0.00047306807,-0.13978547,-0.017687337,0.00010369295,-0.09519906,0.02526371,0.04600683,0.45776156,-1.3959966,1.9249023,-2.1072247,-1.5585512,2.428054,-0.13729931,0.21198659,-0.23852414,-0.036257837,0.07526804,-0.1826166,-0.19153613,0.24899697,-9.32781,0.8985519,47.7245,-1.0157194,-2.1230783,-3.4299583,-0.83948165,0.29365534,-0.11441805,26.5625,27.5,26.625,29.9375,31.3125,31.8125
0.29005244,0.23945561,0.25614688,-0.0560925,0.007264036,0.057074815,-0.15519899,-0.40096042,-0.35157833,0.05989929,3.0653293,-0.6145414,0.00041645998,-0.14124253,-0.018077094,0.0008295451,-0.09573002,0.0292276,0.03917245,0.45747378,-1.395564,1.9243764,-2.1072738,-1.5584191,2.4276853,-0.13691586,0.21218641,-0.23985933,-0.038951382,0.07396331,-0.17539702,-0.24899697,0.22984336,-9.3661175,0.87393653,47.66091,-1.1088147,-2.2215416,-3.3584285,-0.81991786,0.31126565,-0.1826748,26.5625,27.5,26.625,29.9375,31.3125,31.8125
0.29205227,0.148016,-0.16951275,0.10465155,-0.012111857,0.044342052,-0.15491281,-0.4012457,-0.3515841,0.05987083,3.065214,-0.6144822,0.0003743305,-0.14383796,-0.018480698,0.0026155398,-0.09823469,0.033195157,0.031361014,0.45718512,-1.3951076,1.9239339,-2.1073816,-1.5583352,2.427375,-0.13860708,0.21215825,-0.24377476,-0.039714985,0.07442894,-0.16926432,-0.19153613,0.2681506,-9.308657,0.84708,47.666286,-1.0568638,-1.9314356,-3.3474379,-0.7983631,0.35686672,-0.2590439,26.5625,27.5,26.625,29.9375,31.3125,31.8125
0.29405227,-0.34704524,-0.36928055,-0.13123073,-0.024921026,0.020929025,-0.14572915,-0.40152845,-0.35162115,0.0598758,3.0649781,-0.6144364,0.00037576395,-0.14536649,-0.018505216,0.0031118405,-0.09973636,0.03423647,0.024158617,0.45688492,-1.394699,1.9234666,-2.1074655,-1.5581425,2.4270775,-0.14028896,0.21309958,-0.2459704,-0.04007551,0.07530594,-0.1637253,-0.22984336,0.36391866,-9.270349,0.88289046,47.7254,-1.1896979,-1.9186368,-3.3663416,-0.80379415,0.3974508,-0.33734077,26.5625,27.5,26.625,29.9375,31.3125,31.8125
0.29605198,0.07771693,-0.5985383,-0.3800694,-0.022828957,0.03645408,-0.15444307,-0.40182588,-0.35165754,0.05987534,3.0648298,-0.61423403,0.00033405464,-0.14754498,-0.02023714,0.0039332686,-0.1030577,0.036058113,0.019075502,0.45660898,-1.3942418,1.9229516,-2.107538,-1.55801,2.4266949,-0.1403688,0.21614675,-0.25123817,-0.040983647,0.077464625,-0.15869209,-0.21068975,0.36391866,-9.32781,0.8985519,47.682407,-1.1321931,-1.8393598,-3.2325938,-0.8115531,0.40928346,-0.44020692,26.5625,27.5,26.625,29.9375,31.3125,31.8125
0.29805264,0.23841895,-0.6397327,-0.6639815,-0.021638306,0.042112935,-0.15929149,-0.40207958,-0.35170037,0.059862215,3.064645,-0.61415964,0.00042720174,-0.1478692,-0.020218147,0.003607481,-0.10551683,0.034337025,0.015131498,0.456344,-1.3938087,1.9224852,-2.1075737,-1.5578169,2.4264078,-0.14242138,0.21683411,-0.25131917,-0.04111324,0.0804433,-0.15677154,-0.114921674,0.34476504,-9.519346,0.9388393,47.661808,-1.0666926,-1.8368577,-3.1965132,-0.80782986,0.40088123,-0.5157056,26.5625,27.5,26.625,29.9375,31.3125,31.8125
0.30005258,-0.1536098,-0.84803647,-0.7200657,-0.036357835,0.033444118,-0.16112651,-0.40239224,-0.35175395,0.059881605,3.0643823,-0.6140437,0.0003156601,-0.14773461,-0.019617397,0.0017155346,-0.10635078,0.030748103,0.018411556,0.4560552,-1.3933874,1.9219841,-2.1077178,-1.5576361,2.4260817,-0.14473094,0.21940693,-0.24982642,-0.042208888,0.08288495,-0.16232462,0.019153614,0.3256114,-9.653421,0.9254084,47.66091,-0.89829487,-1.9767683,-3.4033017,-0.79710114,0.42529315,-0.52777946,26.5625,27.5,26.625,29.9375,31.3125,31.8125
0.30205247,-0.09188015,-1.1088418,-0.68495715,-0.051879283,0.03692442,-0.16058862,-0.4026762,-0.35177404,0.059846323,3.0642428,-0.61396736,0.00037658212,-0.14802283,-0.020585664,0.00029404528,-0.109806634,0.027593175,0.030999644,0.45575494,-1.3928938,1.9215049,-2.1077898,-1.5574902,2.4257522,-0.14607583,0.2231715,-0.25075123,-0.043521993,0.0875396,-0.17621522,0.05746084,0.4405331,-9.710882,0.90527004,47.67345,-0.89754975,-2.0406437,-3.4673657,-0.7776831,0.39471453,-0.4290204,26.5625,27.5,26.625,29.9375,31.3125,31.8125
0.30405247,0.072595134,-1.708997,-1.1177359,-0.033405375,0.016298074,-0.15727812,-0.40300292,-0.35182515,0.059883732,3.0639791,-0.613772,0.00025986665,-0.14831927,-0.021244664,-0.00077358645,-0.1113205,0.026092853,0.042293794,0.45544294,-1.3924841,1.9209679,-2.1078985,-1.5572976,2.4253533,-0.14640187,0.22614866,-0.25155798,-0.044802636,0.0897351,-0.18779759,0.114921674,0.4213795,-9.80665,0.88960326,47.709274,-0.9720361,-2.2783241,-3.5860014,-0.78400874,0.38902643,-0.31177235,26.5625,27.5,26.625,29.9375,31.3125,31.8125
0.30605254,0.72831154,-1.305318,-0.8661385,-0.065579936,0.023211405,-0.16279425,-0.40329835,-0.35185286,0.059867263,3.063802,-0.61363477,0.000284676,-0.14840478,-0.023752108,-0.00076397427,-0.11848924,0.024209013,0.049500354,0.45513088,-1.3920152,1.9204777,-2.1079824,-1.5571264,2.424979,-0.14659916,0.22791825,-0.253361,-0.04609595,0.0971122,-0.19512838,0.11492168,0.47884035,-9.749189,0.9365982,47.69763,-0.9027947,-2.1562002,-3.616012,-0.7575468,0.33659458,-0.20763329,26.5625,27.5,26.625,29.9375,31.3125,31.8125
0.30805305,0.025904875,-2.0271363,-0.6614055,-0.074423805,-0.004032376,-0.15292054,-0.403577,-0.35190478,0.05985918,3.063609,-0.61336416,0.00031070618,-0.14934227,-0.024327703,-0.0018654738,-0.12178525,0.022595942,0.047698315,0.4548542,-1.3915697,1.919999,-2.1080792,-1.5569214,2.4245586,-0.14858378,0.23112641,-0.25409812,-0.048510935,0.100821786,-0.19526547,-0.05746084,0.5554548,-9.691729,0.900793,47.686886,-1.0283364,-2.2867064,-3.5196967,-0.7225902,0.2920257,-0.15614136,26.5625,27.5,26.625,29.9375,31.3125,31.8125
0.3100519,0.7000062,-1.2607738,-1.010818,-0.060156845,-0.0035446696,-0.15941402,-0.40389195,-0.35196412,0.059887916,3.0633636,-0.6131812,0.00023699181,-0.14920788,-0.027634649,-0.0006915162,-0.12723407,0.023761729,0.04444462,0.4545672,-1.391137,1.9194487,-2.108163,-1.5567282,2.42419,-0.14531498,0.23155111,-0.2570563,-0.04945878,0.105188504,-0.18868186,-0.038307227,0.61291564,-9.768343,0.9231726,47.72629,-1.0670527,-2.1533864,-3.640654,-0.683558,0.24569905,-0.21699855,26.5625,27.5,26.625,29.9375,31.3125,31.8125
0.31205195,-0.19424671,-1.8204055,-0.7432847,-0.054311886,-0.015778553,-0.15306441,-0.40421575,-0.3520258,0.059889585,3.0630744,-0.61314416,0.0002278434,-0.15127043,-0.028090427,0.0010832264,-0.1320508,0.02634232,0.034876913,0.45425433,-1.3906447,1.9188985,-2.1082828,-1.5564989,2.4238927,-0.14810136,0.23038419,-0.2595694,-0.050243784,0.10836209,-0.18185176,-0.019153614,0.6895301,-9.749189,0.86945957,47.688675,-0.9450669,-2.182261,-3.6628962,-0.66278005,0.19042617,-0.31154782,26.5625,27.5,26.625,29.9375,31.3125,31.8125
0.31405184,0.35778463,-1.9817165,-0.58949894,-0.051365487,0.02651455,-0.16096771,-0.4045293,-0.35208458,0.059908494,3.0628295,-0.61290133,0.00018822993,-0.15324725,-0.028691003,0.002231124,-0.13491613,0.02863496,0.031691913,0.45395386,-1.3902005,1.9183596,-2.1083786,-1.5562829,2.4234731,-0.14958246,0.23104115,-0.26283053,-0.05091587,0.109963514,-0.1801115,-0.11492168,0.68953013,-9.691729,0.84708,47.70032,-0.96903163,-2.028123,-3.608842,-0.6276585,0.13580233,-0.36810938,26.5625,27.5,26.625,29.9375,31.3125,31.8125
0.3160518,-0.5346077,-1.5157437,-0.87498176,-0.03320073,0.02696931,-0.15608652,-0.40480214,-0.35215005,0.05989854,3.0625923,-0.61269933,0.0002733309,-0.15568294,-0.028591935,0.0033360925,-0.13520817,0.031879406,0.029266946,0.45367754,-1.3897437,1.917869,-2.1084626,-1.5560311,2.423102,-0.1509657,0.23214544,-0.26664644,-0.051184088,0.10882819,-0.17906684,0.019153614,0.47884035,-9.653421,0.8784135,47.66539,-0.92406994,-2.0028796,-3.46254,-0.5974246,0.13603196,-0.37544164,26.5625,27.5,26.625,29.9375,31.3125,31.8125
0.31805217,-1.2585413,-1.1708239,-0.35799202,-0.02803961,0.042146895,-0.15955684,-0.40511844,-0.35222608,0.059922528,3.0623262,-0.61254305,0.00019308816,-0.15798229,-0.028638417,0.0048493664,-0.13394043,0.037791904,0.033109844,0.45341358,-1.3892869,1.9173063,-2.1085708,-1.5558285,2.422776,-0.15040092,0.23224406,-0.26996243,-0.052599285,0.105186224,-0.18235745,-0.17238252,0.4213795,-9.615114,0.89631605,47.670765,-0.9160899,-1.9321494,-3.2522533,-0.5626489,0.15178384,-0.39360178,26.5625,27.5,26.625,29.9375,31.3125,31.8125
0.32005197,-0.91331667,-0.25463817,-0.19293603,-0.013255064,0.077439345,-0.16521174,-0.4054756,-0.35227662,0.059932325,3.0619981,-0.6124701,0.00014523219,-0.1588855,-0.027208054,0.004454186,-0.13133724,0.0372488,0.039642867,0.45304084,-1.3887942,1.9167451,-2.1087253,-1.5555772,2.4224017,-0.15223993,0.23361602,-0.27116424,-0.050923202,0.103255086,-0.19072776,-0.17238253,0.4405331,-9.500193,0.87393653,47.68599,-0.7732977,-1.8429418,-3.34174,-0.5417973,0.13984808,-0.3419878,26.5625,27.5,26.625,29.9375,31.3125,31.8125
0.32205203,-1.0195512,0.3799578,-0.2329555,0.023960019,0.08544742,-0.17341444,-0.40577325,-0.352332,0.059940923,3.0618217,-0.61217767,6.197365e-05,-0.16033351,-0.024052223,0.004255482,-0.12486425,0.039385337,0.04836781,0.4527883,-1.3883499,1.916231,-2.108833,-1.5554236,2.42199,-0.15467314,0.23355602,-0.2710492,-0.04981708,0.09668866,-0.20193769,-0.11492168,0.3256114,-9.5385,0.9321212,47.681515,-0.99653685,-1.8163369,-3.3026745,-0.5503411,0.20981307,-0.20498514,26.5625,27.5,26.625,29.9375,31.3125,31.8125
0.32405204,-1.4426095,0.9886694,-0.048945446,0.028204368,0.092234455,-0.17159253,-0.4060989,-0.35239866,0.05995792,3.061546,-0.6119596,3.300201e-05,-0.15892977,-0.02505248,0.002881894,-0.123476245,0.036627725,0.05771371,0.4524774,-1.3878804,1.9156693,-2.1089404,-1.5551828,2.4215796,-0.15164602,0.2362588,-0.27140203,-0.048904203,0.09678968,-0.2082384,-0.22984336,0.19153613,-9.519346,0.8851263,47.71017,-1.0217643,-1.7595774,-3.551866,-0.52790236,0.23207255,-0.111964114,26.5625,27.5,26.625,29.9375,31.3125,31.8125
0.32605204,-1.207604,1.0232055,0.23347141,0.032503683,0.093385436,-0.17426325,-0.40641508,-0.3524571,0.059961867,3.0613093,-0.61175984,2.25093e-05,-0.16043606,-0.02384353,0.0008538688,-0.119428545,0.035430316,0.052659456,0.452177,-1.3873982,1.915119,-2.1090372,-1.5549682,2.421186,-0.15290499,0.24180534,-0.27325717,-0.04972461,0.09368103,-0.20445882,-0.19153613,0.095768064,-9.461885,0.85155696,47.689575,-1.0813766,-1.9312327,-3.5580273,-0.49330452,0.2730797,-0.09842952,26.5625,27.5,26.625,29.9375,31.3125,31.8125
0.32805207,-1.1748904,0.9054255,0.273532,0.040802147,0.07029196,-0.16471885,-0.4067561,-0.35248137,0.05996605,3.0611084,-0.6116437,-6.642566e-05,-0.16017722,-0.023685616,-0.00035835907,-0.11759903,0.031445123,0.04542026,0.45184118,-1.3869162,1.9145697,-2.109143,-1.5548247,2.4208047,-0.15282679,0.24515298,-0.27523088,-0.046770774,0.0937525,-0.19712318,-0.28730422,-0.05746084,-9.481039,0.9612189,47.694946,-1.0981275,-2.1047134,-3.6205919,-0.47838718,0.2876389,-0.17456967,26.5625,27.5,26.625,29.9375,31.3125,31.8125
0.33005205,-0.8748383,1.0057281,0.43845078,0.043790247,0.04458813,-0.16598484,-0.40709436,-0.35256103,0.059994813,3.060847,-0.61138123,-0.00017681652,-0.16037834,-0.024253434,0.0012358512,-0.11820679,0.03159723,0.037819162,0.45156547,-1.3864362,1.9139708,-2.1092618,-1.5546197,2.4204001,-0.15212455,0.24400993,-0.27848637,-0.04284395,0.094201006,-0.18879178,-0.47884035,-0.076614454,-9.32781,0.97240865,47.666286,-1.1600461,-2.1547098,-3.4842806,-0.5220233,0.31455186,-0.2526505,26.5625,27.5,26.625,29.9375,31.3125,31.8125
0.33205205,0.029984266,1.0579323,0.34772557,0.05856362,0.020540794,-0.17637491,-0.4074188,-0.35259196,0.060004365,3.0606256,-0.61129844,-0.0002320118,-0.16165228,-0.024228804,0.0007938058,-0.11795283,0.03134291,0.03136211,0.4512411,-1.3859782,1.9134325,-2.1093457,-1.5544523,2.420054,-0.15298358,0.24692656,-0.2809746,-0.04296168,0.09406439,-0.1831783,-0.3256114,-0.05746084,-9.251195,0.86498255,47.658226,-1.2394197,-2.1391444,-3.4899163,-0.49443227,0.32484645,-0.34925863,26.5625,27.5,26.625,29.9375,31.3125,31.8125
0.33405223,-0.13886413,0.9590404,0.35182506,0.044316784,0.003518812,-0.16891861,-0.40774477,-0.35265774,0.060017895,3.0603888,-0.6110979,-0.00026992723,-0.16343337,-0.024769919,0.0027714544,-0.1203313,0.034314375,0.025144178,0.45095268,-1.3854865,1.9128455,-2.1094291,-1.5542477,2.419672,-0.1538927,0.24601024,-0.2846413,-0.042116206,0.09489205,-0.17784229,-0.24899697,-0.019153614,-9.11712,0.82694155,47.68599,-1.1969101,-2.0056796,-3.3538642,-0.4877394,0.35177356,-0.45242295,26.5625,27.5,26.625,29.9375,31.3125,31.8125
0.33605242,-0.34684148,-0.07751044,0.17507163,0.03436149,-0.0046334434,-0.16523275,-0.4080411,-0.35268176,0.059983544,3.0602274,-0.6110435,-0.0001901174,-0.16500227,-0.024444705,0.0035656176,-0.121334955,0.0339254,0.02387493,0.45064002,-1.3849698,1.912331,-2.1094878,-1.5540794,2.419347,-0.15630594,0.24700867,-0.28832904,-0.039439946,0.096013494,-0.17896806,-0.30645782,0.21068975,-9.059659,0.9701675,47.64121,-1.1984402,-1.9237404,-3.2800648,-0.5083642,0.37434244,-0.50705993,26.5625,27.5,26.625,29.9375,31.3125,31.8125
0.3380525,-0.417093,-0.25260952,-0.06108327,0.005738685,0.008588989,-0.17545658,-0.40840423,-0.3527481,0.06004016,3.0599525,-0.6108237,-0.0003418884,-0.16304973,-0.025685072,0.0026788206,-0.12310398,0.028884906,0.034862604,0.45032898,-1.3845129,1.9116844,-2.1095588,-1.5538858,2.4189358,-0.15482134,0.24823344,-0.28847337,-0.03654392,0.10000215,-0.18840356,-0.17238252,0.3256114,-9.136273,0.91421866,47.67793,-1.3961217,-1.826638,-3.2820926,-0.54749155,0.36925945,-0.4574268,26.5625,27.5,26.625,29.9375,31.3125,31.8125
0.3400525,-1.007576,-1.1277121,-0.1314102,-0.020302039,0.005887313,-0.17107055,-0.40870458,-0.3527633,0.06001634,3.059816,-0.6106531,-0.00028823485,-0.1623591,-0.027618393,0.0028595456,-0.12741856,0.025836917,0.04914467,0.4500049,-1.3840201,1.9111708,-2.109606,-1.553728,2.4185233,-0.15411624,0.24937227,-0.29080242,-0.034214426,0.105428725,-0.2019137,-0.15322891,0.36391866,-9.32781,0.9701675,47.683304,-1.3038226,-1.8726876,-3.28378,-0.57582575,0.29880995,-0.3400796,26.5625,27.5,26.625,29.9375,31.3125,31.8125
0.34205246,-1.1082276,-2.3195002,-0.17069694,-0.052380648,-0.0013389107,-0.16117106,-0.40903917,-0.35284758,0.060049884,3.0595353,-0.61039746,-0.00028095575,-0.16142517,-0.028214177,0.002140786,-0.13038133,0.021544674,0.057593025,0.44970465,-1.3835272,1.9105262,-2.1096413,-1.5534624,2.4181008,-0.15506354,0.25035134,-0.2907804,-0.03240938,0.11015229,-0.21123768,-0.19153613,0.40222588,-9.308656,0.92093146,47.67614,-1.3753228,-1.7981379,-3.31751,-0.60617006,0.27923965,-0.22296686,26.5625,27.5,26.625,29.9375,31.3125,31.8125
0.34405243,-0.6322002,-2.5364065,-0.17104036,-0.070569105,-0.0039743553,-0.16651982,-0.4093759,-0.3529017,0.060070843,3.059275,-0.61018777,-0.00033601894,-0.16193232,-0.029556952,0.002563206,-0.1361103,0.019432219,0.05690595,0.44938004,-1.3830583,1.9099516,-2.1097367,-1.5532435,2.4176803,-0.15681437,0.25129667,-0.2930395,-0.03160566,0.11630776,-0.21220605,-0.19153613,0.47884035,-9.251195,0.8940802,47.71554,-1.2943852,-1.8503025,-3.473493,-0.638288,0.1996882,-0.16083741,26.5625,27.5,26.625,29.9375,31.3125,31.8125
0.3460524,-0.34340227,-2.0473475,-0.25682443,-0.06228607,-0.01959367,-0.16653052,-0.40967405,-0.35294938,0.060019486,3.0591493,-0.60993904,-0.0001413959,-0.16233996,-0.028802747,0.0012116695,-0.13797909,0.015404426,0.047148485,0.44907862,-1.3824581,1.9093655,-2.109749,-1.5530275,2.4172397,-0.16038054,0.25356486,-0.29280913,-0.031329285,0.11967984,-0.2059738,-0.28730422,0.51714754,-9.346964,0.8940802,47.699425,-1.1658547,-1.6669292,-3.5150895,-0.6668863,0.13573971,-0.20850089,26.5625,27.5,26.625,29.9375,31.3125,31.8125
0.34805238,-0.1571243,-1.4525479,-0.15775982,-0.053404544,-0.00938881,-0.17893977,-0.41001645,-0.35300747,0.060035747,3.0588539,-0.60985863,-0.0001565246,-0.16268422,-0.029193068,-0.00010028696,-0.13923167,0.012758518,0.04006312,0.4487429,-1.3819636,1.9087685,-2.109833,-1.5527862,2.4168937,-0.16120291,0.25702578,-0.29384106,-0.031949807,0.12192982,-0.19966008,-0.095768064,0.63206923,-9.461885,0.9298854,47.703007,-1.3334138,-1.7822258,-3.5956326,-0.6861838,0.07967472,-0.28896478,26.5625,27.5,26.625,29.9375,31.3125,31.8125
0.35005233,-0.33279184,-1.0404859,0.27764308,-0.039592907,0.011912627,-0.1768949,-0.41037214,-0.3530627,0.060052615,3.058552,-0.60966116,-0.00014578187,-0.16431683,-0.029134512,0.0009302534,-0.14078459,0.015646119,0.036179624,0.44837034,-1.3814591,1.9081587,-2.109917,-1.5525106,2.4164383,-0.16256487,0.25660363,-0.29547894,-0.033112198,0.12210055,-0.19711383,-0.17238252,0.61291564,-9.251196,0.99702406,47.686886,-1.158491,-1.6547518,-3.6695766,-0.6944173,0.080856755,-0.3389721,26.5625,27.5,26.625,29.9375,31.3125,31.8125
0.3520523,-1.0654932,-0.8968396,0.5021333,-0.003530625,0.0380673,-0.16634884,-0.41066012,-0.35312665,0.06002259,3.0583277,-0.60944194,1.5333195e-05,-0.1672321,-0.028245866,0.0016654708,-0.13971297,0.019357678,0.03516393,0.44806948,-1.3809301,1.9076198,-2.109977,-1.552235,2.4160302,-0.16478314,0.2582272,-0.29898003,-0.033992983,0.11957006,-0.1983396,-0.19153614,0.61291564,-9.078813,1.0305934,47.67614,-1.0753814,-1.7147785,-3.4965672,-0.6899079,0.060796335,-0.3957985,26.5625,27.5,26.625,29.9375,31.3125,31.8125
0.35405222,-1.3846486,0.21394974,0.43117437,0.027945222,0.064149745,-0.17785002,-0.41103238,-0.3531977,0.06005888,3.0580487,-0.60928464,-0.00010078101,-0.16998114,-0.027006248,0.00159091,-0.1355289,0.022508655,0.038184304,0.44775692,-1.3804125,1.9069494,-2.110061,-1.5520333,2.4156573,-0.1658968,0.26162145,-0.30290288,-0.034319866,0.11455485,-0.20250992,0.05746084,0.4213795,-9.136273,0.8985519,47.690468,-0.94941163,-1.7664976,-3.4081397,-0.6841343,0.08428164,-0.35741663,26.5625,27.5,26.625,29.9375,31.3125,31.8125
0.35605222,-1.4623859,1.0286349,0.67193335,0.044834398,0.08402551,-0.18134882,-0.4113798,-0.35326895,0.06006454,3.0577548,-0.6090609,-8.857481e-05,-0.17186826,-0.025095398,0.0006641095,-0.12959747,0.023862818,0.04836149,0.44742087,-1.3798828,1.90634,-2.1101682,-1.5517591,2.415221,-0.16701506,0.26519614,-0.30533418,-0.03378804,0.10884369,-0.2138614,-0.019153614,0.4405331,-9.059659,0.779936,47.6636,-1.0114727,-1.8819484,-3.352139,-0.71325356,0.15784085,-0.2607907,26.5625,27.5,26.625,29.9375,31.3125,31.8125
0.35805234,-1.5933332,1.0743666,0.6811613,0.047457576,0.08735105,-0.18088894,-0.41171038,-0.35329303,0.060036615,3.057624,-0.6087795,-4.696338e-05,-0.17337567,-0.024324603,0.00013293725,-0.12685226,0.02474108,0.05682576,0.44708452,-1.3793293,1.9057654,-2.1102283,-1.5515922,2.414726,-0.1677407,0.26817134,-0.3078565,-0.033587918,0.106159344,-0.22307989,0.0,0.38307226,-8.925584,0.8537928,47.677036,-1.0086461,-1.8269086,-3.3417158,-0.73495924,0.20471221,-0.12860563,26.5625,27.5,26.625,29.9375,31.3125,31.8125
0.36005247,-1.6726352,0.68685305,0.39214158,0.03934995,0.065561205,-0.16761646,-0.4120547,-0.3533502,0.06003546,3.0574381,-0.60852844,-1.4575575e-05,-0.17466216,-0.02198666,-0.00030445514,-0.121184364,0.026723843,0.056356493,0.44677237,-1.3787637,1.9051079,-2.1102521,-1.5513905,2.4142818,-0.16897711,0.26902094,-0.30812117,-0.033396665,0.1002523,-0.2239139,-0.22984336,0.34476504,-9.078813,0.8560339,47.651955,-0.9533708,-2.1937432,-3.3979704,-0.74624664,0.2665739,-0.06977477,26.5625,27.5,26.625,29.9375,31.3125,31.8125
0.36205244,-1.4062552,-0.5446281,0.5455472,0.01207572,0.055145197,-0.16895299,-0.41240886,-0.353383,0.06003954,3.057227,-0.6083361,-6.381815e-05,-0.17606238,-0.021826971,-0.00036809337,-0.121966556,0.026359336,0.04783967,0.44642338,-1.3782474,1.9045104,-2.110336,-1.5512093,2.4138412,-0.17071506,0.2711049,-0.31061918,-0.033052515,0.101074316,-0.21710594,-0.4022259,0.30645782,-9.002198,0.83365434,47.677036,-0.8553062,-1.9308908,-3.38382,-0.7503687,0.3251689,-0.091374904,26.5625,27.5,26.625,29.9375,31.3125,31.8125
0.36405236,-1.2149746,-1.0117335,0.5244519,-0.023541978,0.040464535,-0.1662203,-0.4127637,-0.35341883,0.060028024,3.0570588,-0.6081696,-5.0866067e-05,-0.17733544,-0.022083057,-0.0004321816,-0.12028459,0.02772988,0.03918222,0.44608822,-1.3776693,1.9038633,-2.1103718,-1.5510424,2.4134247,-0.16976327,0.27379045,-0.31377664,-0.033202607,0.09886464,-0.20751254,-0.53630114,0.2681506,-8.925584,0.8627467,47.71465,-1.1202112,-2.0010304,-3.329586,-0.79466116,0.3626839,-0.19903567,26.5625,27.5,26.625,29.9375,31.3125,31.8125
0.36605245,-0.74796224,-0.66579795,0.42747825,-0.031345572,0.022548022,-0.17212674,-0.41312137,-0.35346568,0.060019195,3.0568643,-0.6079965,-0.00012009577,-0.17697483,-0.022385238,-0.0003800551,-0.12232069,0.027604546,0.031419296,0.44577625,-1.3771055,1.9032434,-2.1104796,-1.5508856,2.413031,-0.1698812,0.27278557,-0.31254637,-0.034289163,0.100699216,-0.19982626,-0.45968673,0.3256114,-8.963891,0.85155696,47.693153,-1.0660021,-1.9267712,-3.4471693,-0.79653466,0.38948923,-0.30289444,26.5625,27.5,26.625,29.9375,31.3125,31.8125
0.36805245,-0.103852816,-0.7447642,0.1789325,-0.018526467,0.021278383,-0.16882092,-0.41346776,-0.35350496,0.060001183,3.0566392,-0.60785645,-5.152199e-05,-0.17777462,-0.023994751,-0.00028557968,-0.12602967,0.027231572,0.024423683,0.44541624,-1.3765404,1.9026326,-2.1105402,-1.5506562,2.4126139,-0.16969717,0.27503103,-0.315293,-0.03512585,0.104139514,-0.19258678,-0.38307226,0.24899697,-9.097966,0.9254084,47.67614,-1.0978874,-1.9535931,-3.4485593,-0.8065809,0.39263874,-0.42447346,26.5625,27.5,26.625,29.9375,31.3125,31.8125
0.3700523,-0.10536638,-0.41779605,0.18027857,-0.013306749,0.009640201,-0.17210643,-0.41382387,-0.35356724,0.06001795,3.0563633,-0.60769916,-5.9401384e-05,-0.17900965,-0.026032113,0.0010058942,-0.13280587,0.02792837,0.025516622,0.44508016,-1.3760116,1.901986,-2.1106002,-1.550414,2.412217,-0.17065063,0.27552003,-0.31867072,-0.03568431,0.11003783,-0.19453411,-0.2681506,0.24899697,-9.155427,0.9567419,47.677036,-1.1942105,-1.9187769,-3.41862,-0.808289,0.37626386,-0.4622408,26.5625,27.5,26.625,29.9375,31.3125,31.8125
0.37205228,-0.75613153,-0.5361916,0.2775972,-0.015201023,-0.00014818522,-0.16941118,-0.41416994,-0.35362783,0.059986696,3.0561485,-0.6075109,1.3181286e-05,-0.177672,-0.029901315,0.00093561114,-0.13968809,0.026877282,0.04038558,0.44475716,-1.3753985,1.9013532,-2.1106846,-1.5501837,2.4118052,-0.16695774,0.2767805,-0.31953767,-0.037807677,0.11691304,-0.2056075,-0.15322891,0.30645782,-9.174581,0.96569055,47.68599,-1.353622,-1.7522078,-3.4333453,-0.8043034,0.3191834,-0.39744905,26.5625,27.5,26.625,29.9375,31.3125,31.8125
0.37405232,-0.2656814,-0.88375944,0.0821319,-0.008661692,0.019437764,-0.17138053,-0.4145502,-0.35367715,0.059999254,3.0559154,-0.60733813,-3.8820865e-05,-0.17783138,-0.032013185,-0.00012068338,-0.14524499,0.023869688,0.052456476,0.44440925,-1.3748329,1.9006714,-2.1107447,-1.5499891,2.411381,-0.16729815,0.28067407,-0.3214869,-0.03911425,0.12347293,-0.21791008,-0.076614454,0.30645782,-9.097966,0.85155696,47.699425,-1.4623926,-1.8125608,-3.4284134,-0.7802547,0.24850035,-0.28763223,26.5625,27.5,26.625,29.9375,31.3125,31.8125
