Tylouw/Master_Thesis_Code/training_data/batch_1/small_rod_t0.1/sample_52_session_2.csv
timestamp[s],tcp_force_x[N],tcp_force_y[N],tcp_force_z[N],tcp_force_rx[Nm?],tcp_force_ry[Nm?],tcp_force_rz[Nm?],tcp_pose_x[m],tcp_pose_y[m],tcp_pose_z[m],tcp_pose_rx[rot_vec_x],tcp_pose_ry[rot_vec_y],tcp_pose_rz[rot_vec_z],tcp_velo_x[m/s],tcp_velo_y[m/s],tcp_velo_z[m/s],tcp_velo_rx[rot_vec_x/s],tcp_velo_ry[rot_vec_y/s],tcp_velo_rz[rot_vec_z/s],q1[rad],q2[rad],q3[rad],q4[rad],q5[rad],q6[rad],qd1[rad/s],qd2[rad/s],qd3[rad/s],qd4[rad/s],qd5[rad/s],qd6[rad/s],tool_acc_x,tool_acc_y,tool_acc_z,current_of_whole_robot[A],voltage_of_whole_robot[V],current_J1[A],current_J2[A],current_J3[A],current_J4[A],current_J5[A],current_J6[A],temp_J1[C],temp_J2[C],temp_J3[C],temp_J4[C],temp_J5[C],temp_J6[C]
6.8498775e-07,-0.31478533,-0.123589486,1.4114861,-0.009531892,0.0028963939,0.011013313,-0.38106298,-0.3485211,0.05996475,-3.0785031,0.6249524,-0.00012110027,0.0013362772,0.0006883307,-0.0013389684,0.0011186752,-0.0024753078,5.6649187e-05,0.47779807,-1.425946,1.9577502,-2.1008809,-1.5707816,2.4528008,-8.359488e-05,-1.2382795e-05,0.0031766219,-0.00045231456,0.00015057273,-0.00014202003,0.05746084,0.17238252,-8.676587,0.76874626,47.71286,0.11348403,-2.736134,-2.3810072,-0.45326602,0.15211095,0.046817373,25.875,26.625,25.875,28.75,29.5625,30.0
0.002052195,-0.24781246,0.19016342,1.2890605,-0.011799177,0.0017918124,-0.00037087797,-0.3810709,-0.34852937,0.059966855,-3.0785365,0.62497777,-0.00016820239,-0.00092795916,-0.0004920652,-0.0031199637,-0.0012215371,0.0020005417,5.751726e-05,0.4777741,-1.4259322,1.9577278,-2.1008728,-1.5707334,2.4527884,-8.250011e-05,0.004933876,0.004093347,-0.011365988,0.0001474883,-0.00013927287,0.019153614,0.21068975,-8.676587,0.69937176,47.704796,0.034456313,-2.8773854,-2.4294713,-0.3845191,0.16014461,0.039909683,25.875,26.625,25.875,28.75,29.5625,30.0
0.0040529,0.11292761,-0.21417566,1.1926519,0.004824153,0.005061363,-0.0007512021,-0.3810619,-0.34852734,0.05995142,-3.0785124,0.6248379,-0.00014792076,-0.0018223278,-0.00095746876,-0.0024441602,-0.0024705294,0.004406691,5.6852652e-05,0.4778101,-1.4259083,1.9577388,-2.1008852,-1.5707816,2.4527402,-8.143377e-05,0.0046935007,0.003176633,-0.012919908,0.00014452748,-0.00013680327,0.095768064,0.21068975,-8.6574335,0.7530795,47.66091,0.12384789,-3.1335673,-2.6196141,-0.3064196,0.1521126,0.046373505,25.875,26.625,25.875,28.75,29.5625,30.0
0.006052181,-0.07517789,0.06683853,1.0992161,0.015490961,-0.0149518605,0.008225243,-0.38108867,-0.34853888,0.059974696,-3.0785758,0.62487006,-4.451857e-05,-0.0013297139,-0.00069982396,-0.0012491166,-0.0018854856,0.0033001269,6.847946e-05,0.47779807,-1.425933,1.9577268,-2.1009429,-1.5707697,2.4527402,-8.047858e-05,0.0026655428,0.0016673222,-0.008130961,0.00014168354,-0.00014797715,0.038307227,0.19153613,-8.63828,0.7933669,47.704796,0.08787638,-3.015224,-2.5773213,-0.32222286,0.15486059,0.034244098,25.875,26.625,25.875,28.75,29.5625,30.0
0.008052269,0.32218376,0.49568957,0.64158845,0.043052036,-0.028107412,0.0034846733,-0.3810486,-0.348518,0.0599259,-3.0784879,0.6248522,-0.00021906823,-0.00062052155,-0.0003586388,-7.351562e-05,-0.0013349929,0.0022617946,0.00011715448,0.4777981,-1.425886,1.9577736,-2.1008937,-1.5707697,2.4527402,-2.7170705e-05,0.00012799283,0.0008390213,-0.0035899102,0.0001389492,-0.00014425676,0.019153614,0.24899697,-8.791509,0.7105615,47.69763,0.09146999,-2.8749223,-2.50149,-0.3730333,0.15999117,0.035260804,25.875,26.625,25.875,28.75,29.5625,30.0
0.010052361,0.33709717,0.88181704,0.13420491,0.02784417,-0.030408213,0.0014060928,-0.38103133,-0.3485023,0.059912022,-3.0784433,0.6248814,-0.00029242347,-0.00027127322,-0.0001699669,-7.5311014e-05,-0.0007391903,0.0011334242,0.00010501988,0.47778618,-1.425886,1.9577969,-2.100857,-1.5707697,2.452752,-3.465974e-05,1.7171873e-06,0.00061745994,-0.0019660732,0.00013199598,-0.00013984072,0.05746084,0.15322891,-8.963891,0.7083204,47.63225,-0.13900965,-2.176115,-3.206736,-0.41118026,0.16935834,0.009769449,25.875,26.625,25.875,28.75,29.5625,30.0
0.012052595,-0.09536088,-0.34826344,-0.08375917,0.008211536,-0.013730549,0.0037455985,-0.38105795,-0.3485274,0.05992809,-3.0784965,0.62485397,-0.00023304687,-0.0018540274,-0.0009866218,-0.0011697442,0.0002464289,-0.0007812615,0.00010813331,0.47779807,-1.4258603,1.9577364,-2.1008809,-1.5707573,2.4527402,-5.0933577e-05,0.00656078,-0.0045242626,-0.0012299395,0.00012779643,-0.00015571815,0.17238252,0.095768064,-9.251195,0.6635613,47.68062,-0.27346763,-2.0004172,-3.36717,-0.39552152,0.16970216,-0.00780326,25.875,26.625,25.875,28.75,29.5625,30.0
0.014052681,-0.5273056,-0.954477,-0.21431504,-0.02017531,0.007738452,0.0009560266,-0.38103437,-0.34850132,0.05988966,-3.0784013,0.62483585,-0.00033084486,-0.0043210257,-0.00018943129,-0.0050655585,0.0036842928,-0.0074355723,-0.0030427184,0.47779703,-1.4258196,1.9577698,-2.1008456,-1.5707935,2.45274,-0.0037588398,0.018845545,-0.00971115,-0.0008380207,0.00012423849,-0.0007082836,-0.019153614,0.22984336,-9.404425,0.779936,47.672558,-0.35532367,-2.8869133,-3.181829,-0.42957655,0.17651445,-0.04096686,25.875,26.625,25.875,28.75,29.5625,30.0
0.016052622,-1.2582213,-1.6753227,-0.2391691,-0.04077771,0.024838094,0.0025877615,-0.3810398,-0.3485079,0.059876557,-3.0784,0.6248144,-0.00037164113,-0.0053981,0.00045917978,-0.0042492393,0.002997129,-0.006134982,0.0011467369,0.47779596,-1.4257721,1.9577454,-2.100845,-1.5707816,2.4527256,-0.0059139174,0.017744279,-0.010393086,-0.0005269076,0.000132772,-0.007052731,-0.15322891,0.30645782,-9.404425,0.7396539,47.678825,-0.121026665,-2.7056172,-3.305513,-0.40124357,0.17310104,-0.005324193,25.875,26.625,25.875,28.75,29.5625,30.0
0.018052207,-1.1039019,-1.6357267,-0.3231521,-0.060813006,0.04996679,-0.002292879,-0.3810254,-0.3485048,0.05986123,-3.07838,0.62477016,-0.00045643168,-0.0058526266,0.0003839072,-0.0032401553,0.0023594021,-0.0049631447,0.004323399,0.477796,-1.4257486,1.9577454,-2.1008089,-1.5707697,2.4527006,-0.0062169237,0.01653781,-0.011560947,0.0005129766,0.00015792849,-0.010532268,-0.19153613,0.40222588,-9.634268,0.73069996,47.690468,-0.22442263,-2.3708627,-3.5419228,-0.41985005,0.1899372,0.030953126,25.875,26.625,25.875,28.75,29.5625,30.0
0.020052304,-2.2120256,-1.7620485,-0.49644393,-0.052365478,0.029890556,-0.00033063718,-0.38104042,-0.3484904,0.059846044,-3.0783238,0.62483543,-0.0004786759,-0.0067241713,1.7308132e-05,-0.0034759373,0.0024450463,-0.0058302293,0.004502021,0.47777194,-1.4256997,1.9577216,-2.1007965,-1.5707935,2.4527245,-0.0065807346,0.019269748,-0.014328624,0.0013565728,0.0004757296,-0.011073686,-0.3256114,0.47884035,-9.787497,0.7597976,47.691364,-0.35915932,-2.397301,-3.5199113,-0.42254984,0.19196567,0.030949485,25.875,26.625,25.875,28.75,29.5625,30.0
0.02205221,-1.5288349,-1.2547277,-0.5137071,-0.05988469,0.052746538,-0.021832801,-0.3810526,-0.34850752,0.05984241,-3.0783577,0.62482333,-0.0005395547,-0.007497839,-0.0004904539,-0.0032016083,0.0017814606,-0.0056224964,0.0050917133,0.47775975,-1.4256513,1.957672,-2.1007845,-1.5707453,2.4527004,-0.0067133256,0.020607673,-0.016577272,0.0017763623,0.00096502976,-0.011795705,-0.36391866,0.57460845,-9.825804,0.7396539,47.703007,-0.40506917,-2.3986506,-3.5242174,-0.44955915,0.19290903,0.034094065,25.875,26.625,25.875,28.75,29.5625,30.0
0.024051864,-1.4804362,-1.4892238,-0.6278074,-0.052083105,0.05651965,-0.032507293,-0.38103947,-0.3485094,0.05982132,-3.0783584,0.6248047,-0.0006076357,-0.008943976,-0.0007253339,-0.00261281,-0.0007245342,-0.004964382,0.002934075,0.47775912,-1.4256271,1.9576954,-2.1007965,-1.5707206,2.452688,-0.0088816015,0.02124935,-0.018565105,0.0013791703,0.0028822192,-0.011809152,-0.45968673,0.4405331,-9.768343,0.7620334,47.67614,-0.43353567,-2.362318,-3.474691,-0.41981295,0.17515236,0.026340581,25.875,26.625,25.875,28.75,29.5625,30.0
0.026051871,-1.0675722,-1.2080092,-0.4579241,-0.058871906,0.066251636,-0.052168004,-0.38110372,-0.3485048,0.0598286,-3.078357,0.6248817,-0.0005525707,-0.010293714,-0.0012973562,-0.002075741,-0.0018133107,-0.0036792792,0.0027452207,0.4776989,-1.4255549,1.957599,-2.1008084,-1.570732,2.452676,-0.009353873,0.022662682,-0.021342179,0.0010997731,0.003251709,-0.012091535,-0.49799395,0.49799395,-9.902418,0.7239871,47.689575,-0.43650836,-2.356442,-3.533329,-0.4281895,0.17030135,0.009885302,25.875,26.625,25.875,28.75,29.5625,30.0
0.028051812,-1.5234411,-1.2480444,-0.53031564,-0.049079712,0.059660465,-0.06336742,-0.38109374,-0.34849247,0.059801262,-3.0783124,0.6248352,-0.00065442943,-0.011465384,-0.0010229783,-0.002092679,-0.0015911756,-0.003212594,0.0010416915,0.47768646,-1.4255064,1.9575981,-2.1007721,-1.5707325,2.4526403,-0.010656788,0.024121357,-0.022924738,0.0009129326,0.0028352684,-0.011689248,-0.57460845,0.38307226,-9.844957,0.7463667,47.653748,-0.46555424,-2.3308625,-3.5636232,-0.4164256,0.17784244,0.014333125,25.875,26.625,25.875,28.75,29.5625,30.0
0.030051664,-1.8167385,-0.7426422,-0.33914864,-0.031463023,0.049103484,-0.06522038,-0.3811526,-0.3485028,0.059823655,-3.0783494,0.62492,-0.00055161305,-0.012886414,-0.0012728885,-0.0015199276,-0.0019857213,-0.0016394289,-0.00026448548,0.47765034,-1.42547,1.9575137,-2.1008084,-1.5707325,2.4526525,-0.011281786,0.025295027,-0.025542818,0.00078044535,0.0024578283,-0.01100553,-0.63206923,0.30645782,-9.768343,0.7284641,47.681515,-0.47000185,-2.2900984,-3.5348928,-0.4120531,0.17220953,-0.012999517,25.875,26.625,25.875,28.75,29.5625,30.0
0.032051653,-1.8095967,-0.5240314,-0.7982959,-0.0020463471,0.044674598,-0.072110415,-0.381161,-0.34854013,0.059822224,-3.0784032,0.6247591,-0.0006007596,-0.014319539,-0.0010110894,-0.0016475569,-0.0019544263,-0.0015277296,-0.0019228038,0.4776856,-1.4253974,1.9574288,-2.100785,-1.5706967,2.4525805,-0.013020726,0.02742052,-0.027653709,0.00068163255,0.0023737636,-0.011084589,-0.45968673,0.114921674,-9.768343,0.7396539,47.719128,-0.5031583,-2.3204882,-3.505251,-0.41352367,0.18442136,-0.025266832,25.875,26.625,25.875,28.75,29.5625,30.0
0.034051843,-0.7203875,0.20575704,-0.22456478,0.009600568,0.059502695,-0.096946195,-0.3812061,-0.34852573,0.059813082,-3.0783706,0.62480974,-0.0005235165,-0.015199314,-0.0013007784,-0.0012858511,-0.0029827128,-0.00094518997,-0.0021226252,0.47764948,-1.4253373,1.9573921,-2.1008327,-1.5707449,2.4525802,-0.013735977,0.028169991,-0.029319525,0.0006050831,0.0030153908,-0.011600283,-0.38307226,0.0,-9.691729,0.6859408,47.668976,-0.58124894,-2.2618527,-3.5377214,-0.40139714,0.16215992,-0.04497733,25.875,26.625,25.875,28.75,29.5625,30.0
0.03605168,-0.7882612,0.74634516,-0.19913957,0.019019034,0.038402714,-0.10581195,-0.38124773,-0.3485538,0.05982633,-3.0784209,0.62485874,-0.0005009536,-0.017033752,-0.0018091671,-0.0005398203,-0.0047912393,0.00033423753,-0.002722591,0.47763696,-1.425277,1.9572958,-2.100845,-1.5707082,2.452592,-0.015186344,0.029715082,-0.03277445,0.0005440201,0.00402596,-0.01245053,-0.4405331,-0.11492168,-9.615114,0.74413085,47.67614,-0.50784916,-2.3188882,-3.5029316,-0.39136326,0.18184304,-0.039781764,25.875,26.625,25.875,28.75,29.5625,30.0
0.038052686,-0.7172765,0.39829874,-0.21832667,0.030591944,0.026629824,-0.111169316,-0.38128084,-0.3485398,0.059806403,-3.0783715,0.62486815,-0.0005630953,-0.018224603,-0.0025536576,-0.00026259472,-0.0059425095,0.0008213636,-0.0024188582,0.4775888,-1.4251803,1.9572228,-2.1008089,-1.5707196,2.452556,-0.015478811,0.031776134,-0.035750337,0.00049416634,0.0048170364,-0.013046744,-0.30645782,-0.095768064,-9.595961,0.679228,47.684196,-0.48713362,-2.3422492,-3.4403446,-0.38266623,0.16629314,-0.043429144,25.875,26.625,25.875,28.75,29.5625,30.0
0.040052507,-1.2568365,0.08617215,-0.15701312,0.02982379,0.008722217,-0.11463327,-0.38134483,-0.34856397,0.059839383,-3.0784473,0.62488383,-0.00044257127,-0.018850578,-0.0030562996,4.53902e-05,-0.007178532,0.0011261556,-0.0024946507,0.47756475,-1.4251442,1.9571146,-2.100845,-1.5707077,2.452532,-0.015783373,0.032525156,-0.0372999,0.00045269093,0.0057726516,-0.013275919,-0.24899697,-0.076614454,-9.615114,0.7597976,47.68062,-0.53425854,-2.316739,-3.3742929,-0.37813205,0.15342872,-0.06445689,25.875,26.625,25.8125,28.75,29.5625,30.0
0.04205226,-1.0878748,-0.06774463,-0.25131807,0.016640836,0.018001307,-0.12558614,-0.38134924,-0.34857026,0.059825767,-3.0784512,0.62486464,-0.00056344416,-0.02008449,-0.00331064,0.000637411,-0.00780778,0.0024364023,-0.0031061203,0.47754055,-1.4250839,1.9570659,-2.100797,-1.5706595,2.4524953,-0.016440867,0.03337773,-0.039634027,0.00048232672,0.0057236487,-0.01332089,-0.21068975,-0.19153613,-9.615114,0.74413085,47.678825,-0.54857886,-2.2705412,-3.4038453,-0.3656927,0.14107162,-0.05830647,25.875,26.625,25.8125,28.75,29.5625,30.0
0.044052664,-0.61684716,-0.017314147,-0.07405062,0.00013484625,0.030550744,-0.13870235,-0.38139555,-0.3485738,0.059840437,-3.078473,0.62490886,-0.00050513947,-0.021813702,-0.0032417085,0.0014679475,-0.008201479,0.0044515524,-0.0053570047,0.477504,-1.4250478,1.9569939,-2.1008089,-1.5706595,2.4524837,-0.017783463,0.03405919,-0.042317968,0.0005165089,0.0051427833,-0.012409756,-0.21068975,0.0,-9.653421,0.779936,47.69763,-0.51581603,-2.1871877,-3.3846874,-0.36761853,0.1421359,-0.07435403,25.875,26.625,25.8125,28.75,29.5625,30.0
0.046052646,-1.1474537,-0.63587505,-0.11994965,0.0062717386,0.017908022,-0.13740835,-0.38146046,-0.34856972,0.059841156,-3.0784402,0.6249598,-0.0004279499,-0.022755165,-0.0033229645,0.0016241263,-0.008169,0.0050869426,-0.0060275486,0.4774679,-1.4249516,1.9568852,-2.1008208,-1.5707077,2.4524837,-0.018296959,0.03529907,-0.044087958,0.00049799995,0.0048187496,-0.012250882,-0.15322891,0.038307227,-9.576807,0.71279734,47.679718,-0.4916699,-2.123603,-3.3330297,-0.35496214,0.15267506,-0.079700544,25.875,26.625,25.8125,28.75,29.5625,30.0
0.048052624,-0.93768746,-0.8659383,-0.23355965,-0.00024879817,0.016538395,-0.14597237,-0.38150266,-0.34856227,0.059844047,-3.0784223,0.62505317,-0.0004559904,-0.022867009,-0.0033064617,0.00059960264,-0.006603806,0.0023219727,-0.0070038172,0.4774078,-1.4248906,1.9568008,-2.100784,-1.5706958,2.4524841,-0.018351309,0.038651656,-0.04595762,0.0021910293,0.0046996274,-0.011327665,-0.038307227,0.17238252,-9.653421,0.77545905,47.652847,-0.47325277,-2.1599483,-3.398138,-0.3612321,0.16217747,-0.10281049,25.875,26.625,25.8125,28.75,29.5625,30.0
0.05005219,-0.5898724,-0.72726953,-0.15495451,-0.016679978,0.013399631,-0.14283413,-0.38155502,-0.3485867,0.05984728,-3.078484,0.6250853,-0.00044698466,-0.023605581,-0.0030876254,0.00061812653,-0.006308893,0.0016238407,-0.0076526515,0.4773715,-1.4248061,1.956705,-2.1008193,-1.5706476,2.45246,-0.019458285,0.03995729,-0.047782157,0.003466002,0.0047579734,-0.011784832,-0.095768064,0.22984336,-9.615114,0.7418897,47.690468,-0.4950335,-2.252113,-3.3575304,-0.3738173,0.15216997,-0.11192182,25.875,26.625,25.8125,28.75,29.5625,30.0
0.05205197,-0.7671838,-1.1238906,-0.21894321,-0.033344503,0.009564654,-0.14251302,-0.38157842,-0.34858298,0.059849877,-3.0784764,0.62506396,-0.0004997479,-0.024906913,-0.0035999073,0.002350913,-0.008036194,0.004902738,-0.007275716,0.47733545,-1.4247588,1.9566315,-2.1007597,-1.5706357,2.4524117,-0.019762866,0.038524784,-0.050126072,0.0035366914,0.0047804117,-0.012465619,-0.15322891,0.34476504,-9.595961,0.7418897,47.71465,-0.57097614,-2.0849183,-3.3952713,-0.36407802,0.16088831,-0.10899235,25.875,26.625,25.8125,28.75,29.5625,30.0
0.054052185,-0.5111963,-1.504923,-0.38257444,-0.042113416,0.023673723,-0.14489019,-0.38165525,-0.34859806,0.05987161,-3.0784957,0.6251457,-0.00040119974,-0.025644686,-0.0037231909,0.0018111364,-0.0076559745,0.004505504,-0.007533391,0.4772992,-1.4246742,1.956488,-2.1007717,-1.5706481,2.452424,-0.02012016,0.040980518,-0.05159133,0.003074313,0.004622083,-0.012563398,-0.21068975,0.4405331,-9.595961,0.7933669,47.694946,-0.5496726,-1.9893408,-3.378172,-0.36228245,0.14044149,-0.12925942,25.875,26.625,25.8125,28.75,29.5625,30.0
0.05605201,-0.6689443,-1.4064006,-0.17253163,-0.05628801,0.022771008,-0.14264174,-0.38170823,-0.34859174,0.059872832,-3.0784843,0.62516224,-0.0004171231,-0.026905049,-0.0035717173,0.0014616236,-0.0072315442,0.0047302316,-0.008034431,0.47723895,-1.4245893,1.9563802,-2.100736,-1.5706481,2.4523757,-0.021235887,0.04339776,-0.053418905,0.0024820028,0.004136607,-0.013175835,-0.1340753,0.51714754,-9.576807,0.77545905,47.698532,-0.53424424,-2.079845,-3.443582,-0.3541354,0.16168684,-0.13776171,25.875,26.625,25.8125,28.75,29.5625,30.0
0.058051933,-1.2108501,-1.8380991,-0.012159702,-0.047374096,0.012776899,-0.1348121,-0.38178375,-0.34861937,0.059881125,-3.0785625,0.62517846,-0.00032195184,-0.029280681,-0.004543162,0.002221381,-0.0083724195,0.0066273427,-0.007893836,0.47720268,-1.4244926,1.9562701,-2.1008198,-1.5706242,2.4523396,-0.021788543,0.046566553,-0.05876722,0.0024523153,0.0042684698,-0.013865726,-0.076614454,0.49799395,-9.557653,0.784413,47.689575,-0.5634076,-2.116026,-3.2191482,-0.33707356,0.16965653,-0.14679068,25.875,26.625,25.8125,28.75,29.5625,30.0
0.060051896,-0.8271893,-1.3634316,0.074521765,-0.03781311,0.010651293,-0.13426577,-0.38180926,-0.34861916,0.05987837,-3.0785472,0.62517434,-0.00035306392,-0.028181033,-0.0038784773,0.0004602805,-0.006353032,0.0028690712,-0.0073928568,0.47717872,-1.4244319,1.956199,-2.100784,-1.5706242,2.452315,-0.021911267,0.048473027,-0.057072442,0.0031172982,0.004205607,-0.014490114,-0.019153614,0.5363012,-9.519346,0.7709874,47.67614,-0.5551409,-2.2307696,-3.3904557,-0.3299815,0.17065059,-0.14718638,25.875,26.625,25.8125,28.75,29.5625,30.0
0.062051963,-0.79819024,-1.2181847,0.0724108,-0.021673545,0.002808904,-0.123325974,-0.3818502,-0.34860906,0.05985923,-3.078494,0.62524056,-0.0003993723,-0.029674213,-0.0044644964,0.0023476782,-0.008065541,0.006076804,-0.007904152,0.4771306,-1.4243245,1.9561146,-2.1007597,-1.5706362,2.452315,-0.022273233,0.047311958,-0.06021865,0.0037885366,0.004248165,-0.01433981,-0.038307227,0.51714754,-9.519346,0.7329411,47.690468,-0.5252248,-2.0734758,-3.3640828,-0.31972426,0.15256663,-0.1683618,25.875,26.625,25.8125,28.75,29.5625,30.0
0.06405203,-0.41146815,-0.7257119,0.35661072,-0.022340138,0.001261635,-0.13589497,-0.3819593,-0.34865183,0.059902236,-3.0786068,0.625245,-0.00027414583,-0.03175323,-0.00546229,0.0029817356,-0.009833327,0.007166687,-0.008129097,0.47708222,-1.4242158,1.9558977,-2.1007836,-1.5705999,2.4522552,-0.023105187,0.050261725,-0.0650626,0.0038996462,0.0053101247,-0.01494519,-0.038307227,0.4405331,-9.442732,0.8224646,47.70032,-0.4979701,-2.0857434,-3.319314,-0.3341438,0.15905139,-0.17507571,25.875,26.625,25.8125,28.75,29.5625,30.0
0.06605214,-0.47148222,-0.21371172,0.45563647,-0.033335064,-0.0006281813,-0.1304771,-0.3820293,-0.3486457,0.05991828,-3.0785847,0.62529767,-0.00023676641,-0.03250766,-0.0056070914,0.0022733288,-0.009617839,0.0062747602,-0.008354208,0.4770221,-1.4241309,1.9557532,-2.1007354,-1.5706238,2.452231,-0.02367967,0.053136025,-0.06663454,0.0034877681,0.005524627,-0.015293544,-0.076614454,0.4405331,-9.346964,0.74413085,47.703007,-0.54192775,-2.1344433,-3.133194,-0.31367612,0.16641924,-0.17993459,25.875,26.625,25.8125,28.75,29.5625,30.0
0.06805203,-1.0964202,-0.80504364,0.3736297,-0.022209786,-0.0025505086,-0.12539585,-0.3820864,-0.34866378,0.05993657,-3.07864,0.6253079,-0.00018731292,-0.032876384,-0.0057105063,0.0020350423,-0.009809003,0.005947855,-0.007628636,0.476986,-1.4240706,1.9556454,-2.1007478,-1.5705999,2.4521942,-0.024039298,0.054276127,-0.067341015,0.0032562036,0.0058435956,-0.016378358,-0.076614454,0.3256114,-9.232041,0.7530795,47.690468,-0.573097,-2.1088204,-3.2829683,-0.3073677,0.15159605,-0.1889607,25.875,26.625,25.8125,28.75,29.5625,30.0
0.07005176,-0.6829405,-0.87770194,0.49760833,-0.016134309,0.016813993,-0.12930049,-0.38211638,-0.34868348,0.059897024,-3.078648,0.6252713,-0.00030739553,-0.03432074,-0.0062694275,0.0026971349,-0.010122982,0.0074059223,-0.0067836177,0.4769619,-1.4239143,1.9555601,-2.1007597,-1.5705518,2.4521463,-0.024120303,0.055927806,-0.07084173,0.003668186,0.0054456354,-0.017302142,-0.076614454,0.24899697,-9.212888,0.7933669,47.65106,-0.5997218,-2.107119,-3.1362495,-0.3101678,0.16376084,-0.20038298,25.875,26.625,25.8125,28.75,29.5625,30.0
0.07205268,-0.9297636,-0.5606171,0.5961903,-0.004626429,0.010019237,-0.12679026,-0.3821992,-0.3486864,0.05991373,-3.0786197,0.6253803,-0.00023030842,-0.034655277,-0.0063220025,0.0025771381,-0.009859222,0.0060140924,-0.006681412,0.4769138,-1.4238061,1.9553927,-2.100735,-1.5705875,2.45217,-0.024593469,0.057436142,-0.072678156,0.005352064,0.005851174,-0.01787718,-0.076614454,0.17238252,-9.136273,0.7530795,47.71286,-0.6203565,-2.131219,-3.138287,-0.30026346,0.16072805,-0.2015096,25.875,26.625,25.8125,28.75,29.5625,30.0
0.07405169,-0.44705087,-0.21124066,0.5417226,0.0036842457,0.013055205,-0.12543905,-0.38231432,-0.34872583,0.059952892,3.0787065,-0.6254349,0.00013415157,-0.03551062,-0.0069934926,0.0027438514,-0.010237517,0.006161021,-0.0051255384,0.47685394,-1.4236735,1.9551519,-2.100735,-1.5705513,2.4521332,-0.02435551,0.059452638,-0.075475514,0.0058288677,0.006117337,-0.019193262,-0.095768064,0.24899697,-9.078813,0.78217715,47.731667,-0.5846341,-2.0768394,-3.0818472,-0.29421842,0.15028457,-0.21311258,25.875,26.625,25.8125,28.75,29.5625,30.0
0.07605264,-0.4487801,0.050198685,0.604178,0.0081940135,0.015036818,-0.12748578,-0.38235104,-0.34872887,0.059934482,-3.0787053,0.62537766,-0.00019003286,-0.03625334,-0.007364622,0.002758973,-0.011195207,0.0058986656,-0.0051461426,0.47681767,-1.4235651,1.9550675,-2.100723,-1.5705394,2.4520614,-0.025006332,0.06093633,-0.077223375,0.005883566,0.0070845955,-0.019824136,-0.1340753,0.22984336,-9.078813,0.71279734,47.71286,-0.7053429,-2.0938644,-3.0500422,-0.29042128,0.14559752,-0.21730849,25.875,26.625,25.8125,28.75,29.5625,30.0
0.07805248,-0.46846056,-0.09034983,0.430337,0.01289226,0.014206114,-0.13375473,-0.38242924,-0.34875315,0.0599524,3.0786498,-0.62544274,0.00018031409,-0.03727711,-0.0075421454,0.002867164,-0.011430661,0.0062207156,-0.0047043627,0.47675738,-1.4234568,1.9549001,-2.100711,-1.5704912,2.4520488,-0.025666567,0.06254232,-0.07933556,0.0059968834,0.007143208,-0.020924633,-0.05746084,0.17238252,-9.136273,0.73069996,47.678825,-0.64044523,-2.0883093,-3.0235236,-0.2829479,0.13468763,-0.21431787,25.875,26.625,25.8125,28.75,29.5625,30.0
0.08005239,-0.9966169,-0.34538096,0.4523861,0.009839485,0.009963456,-0.12448234,-0.3825058,-0.3487727,0.059964146,3.0786166,-0.62541634,0.000107408676,-0.037965696,-0.0075623975,0.0030860112,-0.010846038,0.0060067857,-0.0038652106,0.47672138,-1.4233488,1.9547552,-2.100734,-1.5704912,2.4520006,-0.025987158,0.06379124,-0.081604525,0.0074772043,0.0067220964,-0.022082305,-0.19153613,0.21068975,-9.193734,0.8112748,47.668976,-0.7210502,-2.0250838,-3.0449634,-0.29350656,0.14188102,-0.22065017,25.875,26.625,25.8125,28.75,29.5625,30.0
0.0820517,-0.8075479,-0.16692524,0.54909635,-0.0017322941,0.029361874,-0.13481918,-0.38256317,-0.34878862,0.059935514,3.078628,-0.62545687,0.00023527423,-0.03806607,-0.007635846,0.0012571162,-0.008761338,0.0022315013,-0.0031852096,0.4766734,-1.4231547,1.9545878,-2.1006854,-1.5704554,2.4519765,-0.025867108,0.06894902,-0.0835902,0.008617706,0.006599115,-0.022641014,-0.30645782,0.30645782,-9.11712,0.7284641,47.683304,-0.7590983,-2.2712433,-3.0985456,-0.2971557,0.14320669,-0.23346165,25.875,26.625,25.8125,28.75,29.5625,30.0
0.08405207,-0.9845654,-0.3992196,0.317485,0.00023306666,0.03187548,-0.12217737,-0.3826694,-0.34880805,0.059969123,3.0785902,-0.6254675,0.00010819986,-0.038984824,-0.0081208795,0.0033091283,-0.010954492,0.005055669,-0.00279813,0.47662535,-1.4230355,1.9543723,-2.100674,-1.5704793,2.45194,-0.026266692,0.066422276,-0.085638605,0.009674775,0.0072524054,-0.023427673,-0.30645782,0.2681506,-9.193734,0.7172743,47.687782,-0.7937436,-2.052253,-3.0836034,-0.2994911,0.14322096,-0.23944482,25.875,26.625,25.8125,28.75,29.5625,30.0
0.08605195,-1.2508817,-0.40343976,0.28937912,-0.007072832,0.029720476,-0.12902912,-0.38273862,-0.34881437,0.059965592,3.0785608,-0.6254222,0.00015700227,-0.03959035,-0.00824046,0.0025595827,-0.010738107,0.003990606,-0.0022392718,0.47654116,-1.4229145,1.9542392,-2.1006615,-1.5704306,2.4518313,-0.026795141,0.06913478,-0.086952716,0.00932293,0.0075458395,-0.024514275,-0.30645782,0.22984336,-9.308656,0.7239871,47.67345,-0.82076204,-2.0181994,-3.0597267,-0.30318332,0.13486052,-0.2326251,25.875,26.625,25.8125,28.75,29.5625,30.0
0.08805186,-1.0504111,-0.90544367,0.15163533,-0.0061517456,0.039632503,-0.12546337,-0.3827904,-0.34879848,0.05992616,3.0786319,-0.62551343,0.00026804607,-0.03981773,-0.008175075,0.0007781928,-0.009004174,0.0007152413,-0.0015072409,0.47648096,-1.4227327,1.9541081,-2.100602,-1.570455,2.4518192,-0.027089624,0.07386438,-0.0883966,0.009743211,0.007502865,-0.025540192,-0.2873042,0.21068975,-9.442732,0.7978386,47.687782,-0.8567139,-2.1511292,-3.1314151,-0.3086113,0.10957368,-0.24634713,25.875,26.625,25.8125,28.75,29.5625,30.0
0.09005166,-1.2596446,-0.9250631,0.13264431,-0.01065236,0.030152656,-0.12426025,-0.38291198,-0.34884575,0.059975065,3.0785415,-0.6254177,8.935514e-05,-0.04033235,-0.008003456,0.0016794455,-0.009176365,0.00224963,-0.0014424602,0.47644496,-1.4226131,1.9538678,-2.1006372,-1.570443,2.451735,-0.02750311,0.07257364,-0.08911725,0.010314788,0.006956111,-0.026016494,-0.2681506,0.30645782,-9.442732,0.78217715,47.70032,-0.8598807,-2.0417976,-3.1158724,-0.3110236,0.13877642,-0.24779576,25.875,26.625,25.8125,28.75,29.5625,30.0
0.09205161,-1.1753601,-0.6056248,0.050651092,-0.019009264,0.030436158,-0.1238669,-0.38295195,-0.34884575,0.059952185,3.078558,-0.6254983,0.00024317659,-0.041915677,-0.008596193,0.0016387651,-0.009927929,0.0026482937,-0.0013148738,0.47638458,-1.4224677,1.9537348,-2.1005533,-1.5704068,2.4517229,-0.028213112,0.075679794,-0.09248525,0.009877515,0.0074307504,-0.026853235,-0.21068975,0.28730422,-9.3661175,0.7597976,47.717335,-0.9322225,-2.1505783,-3.177503,-0.32207778,0.13461673,-0.26240718,25.875,26.625,25.8125,28.75,29.5625,30.0
0.09405264,-0.9169822,-0.9742241,-0.040081125,-0.011752638,0.025163993,-0.11832297,-0.38304347,-0.3488643,0.059946176,3.078574,-0.6254432,0.00019345165,-0.040960364,-0.007997693,-0.0004004039,-0.007813042,-0.0014699652,-0.000783849,0.47634855,-1.4222867,1.9535445,-2.1005657,-1.5704306,2.4516506,-0.028397858,0.07847602,-0.09115034,0.01037566,0.007444514,-0.027569214,-0.19153613,0.30645782,-9.308657,0.7172743,47.650166,-0.9172585,-2.186536,-3.2524416,-0.31771994,0.12404223,-0.2589898,25.875,26.625,25.8125,28.75,29.5625,30.0
0.096052445,-0.8594027,-1.1121056,-0.0040995674,-0.008569629,0.023377193,-0.121485375,-0.3831305,-0.34887734,0.05995401,3.0785341,-0.62551254,0.0002038234,-0.04231796,-0.008311916,-5.204763e-07,-0.00826423,-0.000298971,-0.0009468798,0.47627637,-1.4221419,1.9533528,-2.1005294,-1.5704073,2.4516268,-0.02898952,0.08001479,-0.09380334,0.010244153,0.0073030456,-0.027995992,-0.19153613,0.36391866,-9.3661175,0.7866488,47.690468,-0.9482572,-2.2095826,-3.3660173,-0.3204089,0.13252959,-0.2733088,25.875,26.625,25.8125,28.75,29.5625,30.0
0.09805243,-0.57588136,-0.5558075,0.06607728,-0.019768447,0.023200214,-0.12772867,-0.38320976,-0.34889138,0.059952,3.0785344,-0.6255113,0.0002043955,-0.0434795,-0.008230604,0.00011132971,-0.00806299,0.0004227032,-0.0013731412,0.47622818,-1.4219854,1.953173,-2.100506,-1.5704073,2.451578,-0.029862272,0.08146777,-0.09571094,0.010151979,0.0067891884,-0.028440557,-0.114921674,0.24899697,-9.442732,0.7665104,47.703903,-0.9501802,-2.2195487,-3.1885967,-0.32489586,0.1298086,-0.27382895,25.875,26.625,25.8125,28.75,29.5625,30.0
0.10005229,-0.5696949,-0.8657497,0.051186472,-0.011752947,0.019237928,-0.121145725,-0.3833168,-0.34891942,0.05995746,3.0784771,-0.62549996,0.00018243019,-0.044227615,-0.008260407,6.4026295e-05,-0.008409248,0.0008067203,-0.0019038387,0.47615588,-1.421805,1.952957,-2.100518,-1.570371,2.451506,-0.030570157,0.08251056,-0.09667806,0.00957741,0.006919141,-0.028616885,-0.05746084,0.24899697,-9.423578,0.82022345,47.672558,-0.9622236,-2.1468713,-3.4293692,-0.3274135,0.12959847,-0.29160267,25.875,26.625,25.8125,28.75,29.5625,30.0
0.102052115,-0.20121758,-0.8604036,0.15288231,-0.019009834,0.023304211,-0.12573358,-0.38341737,-0.34891793,0.059956696,3.0785155,-0.6254885,0.00016284894,-0.044703197,-0.008552316,-0.00022992991,-0.008546462,8.073024e-05,-0.0010588762,0.4760838,-1.4216241,1.952741,-2.1004703,-1.5704068,2.451422,-0.030772988,0.084380776,-0.098216616,0.0098261805,0.0073710764,-0.029664436,-0.05746084,0.3256114,-9.442732,0.779936,47.690468,-0.9588785,-2.1629376,-3.287469,-0.3254353,0.12941554,-0.30729073,25.875,26.625,25.8125,28.75,29.5625,30.0
0.10405183,-0.70690835,-0.9592497,-0.019805264,-0.0112526035,0.005185381,-0.11682321,-0.3834829,-0.34894237,0.059934553,3.078505,-0.6254283,0.00024088289,-0.045854118,-0.008637791,-4.9361133e-05,-0.0090175625,0.0010122734,-0.0005203371,0.47603557,-1.4214435,1.9525851,-2.1004703,-1.5703586,2.4513376,-0.031663187,0.08559786,-0.09990619,0.00925702,0.0073574116,-0.03109223,-0.076614454,0.30645782,-9.404425,0.75755644,47.672558,-1.0158405,-2.1259618,-3.4457066,-0.30091962,0.12872186,-0.29457837,25.875,26.625,25.8125,28.75,29.5625,30.0
0.10605201,-0.1627681,-0.5534407,0.17098194,-0.02026627,0.009917822,-0.12549615,-0.38360688,-0.34895054,0.05996442,3.0784647,-0.6254959,0.00013123514,-0.045646463,-0.008599837,-0.0008655953,-0.008677836,-0.000995584,-0.00076969934,0.4759514,-1.4212986,1.9523457,-2.1004465,-1.5703825,2.4513009,-0.031928785,0.08725349,-0.10004269,0.009675897,0.007978703,-0.03110859,-0.019153614,0.28730422,-9.308656,0.78217715,47.668976,-1.0714291,-2.0688796,-3.49752,-0.30249533,0.12937841,-0.30409825,25.875,26.625,25.8125,28.75,29.5625,30.0
0.108052045,-0.2349706,-0.6550848,0.06679701,-0.016462114,0.005578127,-0.1188551,-0.38371095,-0.3489791,0.059969775,3.0783882,-0.62559664,0.00017590585,-0.047583275,-0.009775163,0.0008080991,-0.0107454555,0.0020261824,-0.0015673111,0.4758674,-1.4211063,1.9521054,-2.1004107,-1.5703224,2.4512894,-0.031901084,0.08793923,-0.10475444,0.010069367,0.0084236115,-0.030281464,0.019153614,0.26815057,-9.346964,0.8291774,47.67614,-1.0889909,-2.0690837,-3.4285917,-0.30739933,0.13067977,-0.33774254,25.875,26.625,25.8125,28.75,29.5625,30.0
0.110052034,-0.20940295,-0.5644367,0.03234481,-0.012539185,-0.0017201945,-0.118769936,-0.38382304,-0.3490117,0.059992008,3.0783346,-0.6255093,9.968825e-05,-0.04739572,-0.0085330205,-0.00034094325,-0.009521109,-0.00035047374,-0.0026912002,0.47580665,-1.4209498,1.951878,-2.1004217,-1.5702986,2.4511812,-0.03392103,0.08876367,-0.10313995,0.010305444,0.00843095,-0.031177586,0.095768064,0.22984336,-9.442732,0.7709874,47.684196,-1.0357358,-2.041018,-3.6119058,-0.32371694,0.12672713,-0.35711852,25.875,26.625,25.8125,28.75,29.5625,30.0
0.11205197,-0.21719286,-0.6276981,0.075353004,-0.013194129,0.0032321732,-0.11708178,-0.3838918,-0.3490158,0.05997397,3.0783772,-0.6255356,0.00016278337,-0.0495423,-0.009207965,-0.0008207423,-0.009431948,-0.00041625768,-0.0010793398,0.47575837,-1.4207678,1.9516972,-2.100362,-1.5703105,2.451144,-0.03465184,0.09406422,-0.10806342,0.010028646,0.008369113,-0.03351739,0.038307227,0.2681506,-9.423578,0.75084364,47.696735,-1.0133423,-2.1376681,-3.4431543,-0.30944133,0.13127606,-0.36225945,25.875,26.625,25.8125,28.75,29.5625,30.0
0.1140525,-0.6204037,-0.85314333,0.076130114,-0.010427869,0.0016005643,-0.11819595,-0.38398847,-0.349052,0.05997575,3.0783384,-0.62543046,0.00013835546,-0.050341938,-0.0096507855,0.00080625585,-0.011269225,0.0026188,-0.00026861596,0.47571048,-1.4205885,1.9514936,-2.1003869,-1.5702747,2.4510355,-0.0347457,0.09188533,-0.10926394,0.0098696165,0.008611437,-0.034421645,0.095768064,0.28730422,-9.442732,0.8179876,47.66808,-1.0780236,-1.9670653,-3.5386982,-0.3037756,0.13536516,-0.35911196,25.875,26.625,25.8125,28.75,29.5625,30.0
0.11605231,-0.5981075,-0.23000783,0.0850562,-0.022024041,0.009887918,-0.13367432,-0.38411024,-0.34907252,0.059990942,3.0782967,-0.6254781,0.00010902724,-0.051044326,-0.010798656,0.0006699391,-0.0118219005,0.00230126,0.002421721,0.47562695,-1.4203953,1.9512295,-2.1003501,-1.5702623,2.450987,-0.033753876,0.09487988,-0.11244639,0.010086201,0.009243933,-0.036118705,-0.019153614,0.2681506,-9.404425,0.7911258,47.668976,-1.1899965,-1.8870621,-3.4396334,-0.27265072,0.11203877,-0.3591863,25.875,26.625,25.8125,28.75,29.5625,30.0
0.1180522,-0.90511686,-0.5188581,-0.08441622,-0.010807628,0.010790072,-0.11543834,-0.38420582,-0.3490786,0.059986543,3.0782986,-0.62545973,0.00013622336,-0.052250367,-0.010304973,0.001954082,-0.012519333,0.0038744682,0.0019679267,0.47554222,-1.4202156,1.9510254,-2.1003134,-1.5702504,2.4508908,-0.03565421,0.093522556,-0.11414591,0.011427229,0.0091435965,-0.0375649,-0.038307227,0.2681506,-9.461885,0.8493211,47.69763,-1.1643836,-1.9828675,-3.4415517,-0.3068541,0.115841836,-0.34752584,25.875,26.625,25.8125,28.75,29.5625,30.0
0.120052144,-0.7798356,-0.73219836,-0.09957821,-0.017171724,0.020597696,-0.12540078,-0.38429162,-0.34909585,0.059970427,3.0783136,-0.6254636,0.00016773785,-0.05317351,-0.010318788,0.0014695626,-0.012071535,0.002945456,0.00070482533,0.4754939,-1.4200103,1.9508218,-2.1002896,-1.5702504,2.450843,-0.036482375,0.09630057,-0.11634181,0.011876273,0.009166466,-0.037128832,-0.05746084,0.24899697,-9.5385,0.7418897,47.65464,-1.0914367,-1.8721416,-3.4673762,-0.32842636,0.123603955,-0.35526383,25.875,26.625,25.8125,28.75,29.5625,30.0
0.12205214,-0.8072586,-0.82495505,-0.31628615,-0.023654724,0.020363715,-0.121888295,-0.3843945,-0.34911725,0.059972316,3.0783024,-0.6254608,0.00020679442,-0.054097697,-0.01063441,0.0014959582,-0.0129379155,0.0032268374,0.0007009997,0.4754216,-1.4198058,1.9505695,-2.10023,-1.5702261,2.4507706,-0.037169408,0.097796485,-0.11803026,0.011421614,0.009803512,-0.037811887,-0.15322891,0.3256114,-9.557653,0.7709874,47.704796,-1.1486284,-1.8090798,-3.517543,-0.32707617,0.1080733,-0.35968387,25.875,26.625,25.8125,28.75,29.5625,30.0
0.12405215,-0.9231312,-0.8355487,-0.10932962,-0.039706383,0.03281846,-0.12831719,-0.38450915,-0.3491331,0.05997804,3.0782788,-0.625455,0.0001906571,-0.056402538,-0.010340379,0.002014877,-0.014022738,0.004800477,0.00087004754,0.47533676,-1.4196128,1.9503301,-2.1002066,-1.5702142,2.4506853,-0.039940238,0.099397205,-0.120930925,0.010827536,0.01004238,-0.0407501,-0.24899697,0.28730422,-9.710882,0.784413,47.678825,-1.0628396,-1.7847116,-3.4953446,-0.31829017,0.11942752,-0.34087276,25.875,26.625,25.8125,28.75,29.5625,30.0
0.12605213,-0.8770457,-1.0877819,-0.32471585,-0.037265263,0.04546449,-0.13146783,-0.38461637,-0.34917226,0.05998093,3.078231,-0.6253864,0.00019306444,-0.057337932,-0.0110225985,0.0019297245,-0.013743916,0.0059009707,0.0037546176,0.47527686,-1.4194078,1.9500889,-2.100207,-1.5701665,2.4505887,-0.039088726,0.1017568,-0.12325918,0.009951489,0.009286372,-0.0427802,-0.22984336,0.34476504,-9.710882,0.800085,47.684196,-1.1762844,-1.8291044,-3.455937,-0.31179836,0.12345417,-0.31884253,25.875,26.625,25.8125,28.75,29.5625,30.0
0.12805195,-1.9305327,-1.4502859,-0.37044385,-0.021852292,0.026204808,-0.112383775,-0.38471863,-0.34919384,0.05997331,3.0782242,-0.6253644,0.00023475135,-0.057719875,-0.011808897,0.0019035874,-0.014584775,0.00525884,0.0056236293,0.4752052,-1.419191,1.9498495,-2.1001709,-1.5701417,2.4505043,-0.03870487,0.10353453,-0.125377,0.010476531,0.0103250025,-0.04426564,-0.24899697,0.34476504,-9.730036,0.8314132,47.674347,-1.2450033,-1.8384972,-3.479929,-0.3213238,0.11270501,-0.31441906,25.875,26.625,25.8125,28.75,29.5625,30.0
0.13005204,-1.2582635,-0.83370847,-0.30751562,-0.027525587,0.043809354,-0.11998565,-0.38485688,-0.34919766,0.06000336,3.0781863,-0.6254327,9.885744e-05,-0.05892712,-0.011359613,0.00027276008,-0.013224229,0.0029118485,0.005665954,0.47510868,-1.4190332,1.9495972,-2.1001585,-1.5701779,2.4504554,-0.040500063,0.10856651,-0.12735783,0.010135515,0.010188901,-0.046100352,-0.40222588,0.24899697,-9.691729,0.8112748,47.679718,-1.2512136,-1.8884008,-3.4622254,-0.30689713,0.09041282,-0.30300137,25.875,26.625,25.8125,28.75,29.5625,30.0
0.13205175,-1.5159051,-0.7095942,-0.31743184,-0.013184401,0.03174786,-0.11594655,-0.38494763,-0.34924763,0.05998673,3.078159,-0.6252741,0.0001964011,-0.0620283,-0.011401372,0.0022267587,-0.015017044,0.0076189335,0.0050721006,0.4750597,-1.4187931,1.9493574,-2.100147,-1.570094,2.450311,-0.042882707,0.10851365,-0.13162899,0.009461063,0.00961975,-0.047886424,-0.36391866,0.3256114,-9.672575,0.78888994,47.69763,-1.1186768,-1.900974,-3.200354,-0.30624136,0.11511235,-0.25571415,25.875,26.625,25.8125,28.75,29.5625,30.0
0.13405168,-1.604742,-0.59531623,-0.41508538,-0.0143708745,0.030142115,-0.121758655,-0.38509902,-0.34927607,0.06002577,3.0780692,-0.625332,7.801986e-05,-0.06364335,-0.012233089,0.0012796457,-0.01490404,0.006535668,0.0066170855,0.4749636,-1.4186107,1.9490565,-2.100135,-1.5700821,2.4502625,-0.043123417,0.11421377,-0.13593188,0.009079929,0.010011531,-0.04966849,-0.38307226,0.34476504,-9.595961,0.7709874,47.67345,-1.1757581,-2.040532,-3.3547535,-0.304345,0.091352,-0.24007872,25.875,26.625,25.8125,28.75,29.5625,30.0
0.13605247,-1.1373571,-0.59150314,-0.26943955,-0.022529772,0.045567714,-0.12303424,-0.38525587,-0.3493142,0.060043942,3.078017,-0.6252418,-2.6101236e-05,-0.06386372,-0.012271448,0.0019673842,-0.015465657,0.0077627497,0.008517964,0.47487977,-1.4183711,1.9487456,-2.100159,-1.5700701,2.4501293,-0.04319777,0.1129909,-0.1361444,0.009169998,0.009956357,-0.05164289,-0.38307226,0.3256114,-9.595961,0.800085,47.67166,-1.2028263,-1.9080126,-3.331819,-0.2856406,0.106971845,-0.21199962,25.875,26.625,25.8125,28.75,29.5625,30.0
0.13805223,-1.2593876,-0.64070815,-0.0029977711,-0.02880188,0.054769177,-0.12422331,-0.3853779,-0.34932476,0.060056582,3.077995,-0.6252188,-1.5088728e-05,-0.06524637,-0.01219,0.001582272,-0.0155722285,0.0071953316,0.008475054,0.47477105,-1.4181777,1.9484814,-2.1000988,-1.5700458,2.450009,-0.04481187,0.11587734,-0.1386024,0.009199506,0.010308093,-0.053212725,-0.49799395,0.3256114,-9.595961,0.7553206,47.693153,-1.2007003,-1.979303,-3.2902217,-0.27412486,0.10188684,-0.18078667,25.875,26.625,25.8125,28.75,29.5625,30.0
0.14005211,-1.976519,-1.1423401,-0.037266105,-0.019753005,0.044131342,-0.11918764,-0.3855166,-0.34934682,0.060054436,3.0779824,-0.6251581,-3.064086e-05,-0.06574292,-0.012127917,0.0014738127,-0.015310297,0.0066558286,0.009314557,0.4746751,-1.4179251,1.9481939,-2.100087,-1.5700334,2.449877,-0.045363106,0.117099054,-0.13994944,0.009926855,0.010323659,-0.054602593,-0.61291564,0.30645782,-9.5385,0.8291774,47.692257,-1.2030449,-1.8378594,-3.2499917,-0.28687683,0.09587105,-0.1442822,25.875,26.625,25.8125,28.75,29.5625,30.0
0.14205198,-2.4026945,-1.3389521,0.091569655,-0.018867522,0.04199262,-0.116638914,-0.3856498,-0.34937862,0.060087696,3.077942,-0.6251311,-9.039555e-05,-0.06693766,-0.011889668,0.001307092,-0.014601026,0.006520869,0.007974876,0.47460246,-1.4177322,1.947883,-2.1000268,-1.5700225,2.4497929,-0.04648903,0.11931929,-0.14225838,0.010463058,0.009754671,-0.054386392,-0.53630114,0.28730422,-9.423578,0.75755644,47.679718,-1.1548375,-1.7880986,-3.1282058,-0.27719104,0.092598565,-0.12577918,25.875,26.625,25.8125,28.75,29.5625,30.0
0.14405215,-1.9756824,-0.781533,0.21092632,-0.024642775,0.044496376,-0.12073672,-0.38578713,-0.34938172,0.06006908,3.077945,-0.62515163,-7.505979e-05,-0.06906586,-0.012521679,0.0014397614,-0.015243786,0.0076151574,0.0053408365,0.47448236,-1.4174669,1.9476184,-2.1000154,-1.5700225,2.4496853,-0.0473316,0.122922786,-0.14660805,0.0099421,0.009815729,-0.052592386,-0.4405331,0.30645782,-9.3661175,0.85826975,47.661808,-1.1674175,-1.8673456,-3.2956095,-0.27734536,0.109841555,-0.11592193,25.875,26.625,25.8125,28.75,29.5625,30.0
0.14605229,-1.2147486,-0.30257103,0.43438733,-0.027171908,0.051709857,-0.12748392,-0.38594133,-0.34942466,0.06009728,3.0778465,-0.6251119,-0.00015599105,-0.0687792,-0.0121201,0.0003926111,-0.015030958,0.005438125,0.004517488,0.47438604,-1.41725,1.947308,-2.1000273,-1.5699738,2.4495769,-0.04827768,0.12420526,-0.14567149,0.009757584,0.010629377,-0.052715037,-0.4213795,0.24899697,-9.193734,0.8291774,47.64658,-1.2065146,-1.8866813,-3.3579793,-0.2644316,0.092581645,-0.110928066,25.875,26.625,25.8125,28.75,29.5625,30.0
0.14805214,-1.4742362,-0.49024308,0.41540438,-0.01103413,0.0331655,-0.11764549,-0.38605577,-0.34945396,0.06007865,3.077852,-0.6250753,-0.00012841012,-0.06997322,-0.011813991,0.00046210818,-0.0148945395,0.006213083,0.0035724302,0.4743255,-1.4169853,1.9470438,-2.1000154,-1.5699619,2.449493,-0.049580593,0.12537308,-0.14712544,0.009419912,0.010150393,-0.05307175,-0.36391866,0.19153613,-9.155427,0.8179876,47.674347,-1.125063,-1.9125388,-3.3503737,-0.24667773,0.09096132,-0.08212498,25.875,26.625,25.8125,28.75,29.5625,30.0
0.15005213,-0.32575163,0.17388442,0.65402526,-0.006373195,0.0467863,-0.13033248,-0.38623384,-0.3494817,0.060108855,3.077736,-0.62505436,-0.00023882085,-0.07080334,-0.011475593,-0.0012154417,-0.013115295,0.004101933,-0.0007702437,0.4741813,-1.4167674,1.9467329,-2.1000512,-1.5699142,2.4493506,-0.050505392,0.13007978,-0.1486048,0.008887111,0.009532985,-0.049650636,-0.30645782,0.19153613,-9.078813,0.7978386,47.677036,-1.1456621,-1.9383985,-3.400439,-0.22985911,0.09683265,-0.1122704,25.875,26.625,25.8125,28.75,29.5625,30.0
0.15205185,-0.59687763,0.23541658,0.76039773,0.010237577,0.022215484,-0.12987216,-0.38637197,-0.34951213,0.0601048,3.0777311,-0.6250343,-0.00025442214,-0.072415434,-0.011905661,0.0012981406,-0.015836645,0.0083874045,-0.0028730982,0.4741089,-1.4164925,1.946421,-2.1000273,-1.5699142,2.4492664,-0.05148727,0.12719515,-0.15114371,0.009253712,0.009993484,-0.04852923,-0.3256114,0.15322891,-9.11712,0.784413,47.67614,-1.0999227,-1.7472118,-3.3397954,-0.22283617,0.10310058,-0.11126008,25.875,26.625,25.8125,28.75,29.5625,30.0
0.15405263,-0.42082095,0.39369956,0.80977076,0.019660903,0.011858194,-0.1288939,-0.3865347,-0.34951675,0.06011145,3.0776958,-0.62514365,-0.0003078779,-0.07375791,-0.011075776,0.0008953031,-0.014470464,0.008107792,-0.0059158867,0.47397634,-1.4162394,1.9461097,-2.1000035,-1.5699261,2.4492068,-0.053442944,0.12941684,-0.15290095,0.009665625,0.0089054005,-0.04744,-0.17238252,0.038307227,-9.021352,0.779936,47.684196,-1.1139468,-1.8062179,-3.4349952,-0.19381538,0.11331625,-0.12944077,25.875,26.625,25.8125,28.75,29.5625,30.0
0.15605238,-0.8760253,0.28503108,0.89972186,0.036939863,-0.0062193437,-0.117367074,-0.38668162,-0.3495664,0.06013692,3.0776103,-0.62506956,-0.00035048547,-0.07524323,-0.010643095,0.00044177513,-0.013847333,0.0075519467,-0.0072681285,0.47389165,-1.41601,1.9457854,-2.0999916,-1.5698665,2.449087,-0.055339824,0.1323397,-0.15531307,0.009938979,0.0086055845,-0.04798222,-0.095768064,-0.076614454,-8.848969,0.73069996,47.684196,-0.9147941,-1.861122,-3.299458,-0.18476713,0.12734154,-0.13653304,25.875,26.625,25.8125,28.75,29.5625,30.0
0.15805225,-0.48513743,0.13629541,0.7910553,0.04230223,-0.0015066728,-0.119102426,-0.38685697,-0.34958267,0.060146753,3.0775435,-0.62517166,-0.00043616712,-0.07519031,-0.011870117,0.0005157459,-0.014205869,0.007012994,-0.008402329,0.47376034,-1.4157455,1.9454616,-2.100003,-1.5698661,2.449028,-0.05345799,0.13409467,-0.15775956,0.010943385,0.009169742,-0.044964664,-0.095768064,-0.11492168,-8.868123,0.84708,47.653748,-1.1305224,-1.725085,-3.4397826,-0.17960481,0.1265095,-0.13930093,25.875,26.625,25.8125,28.75,29.5625,30.0
0.16005222,-0.68847495,0.39729315,0.81455487,0.024701651,-0.0054475158,-0.12017893,-0.38701126,-0.34960255,0.060143363,3.0775182,-0.62520623,-0.0004101536,-0.07710379,-0.011577346,0.0008789708,-0.014153826,0.007541449,-0.012522845,0.47363955,-1.4154562,1.9451259,-2.0999548,-1.5698422,2.4489322,-0.05549547,0.13618863,-0.16124798,0.01189298,0.008876475,-0.042879738,-0.038307227,0.05746084,-8.848969,0.78888994,47.666286,-1.0692352,-1.8281469,-3.3190036,-0.17624572,0.13595216,-0.1908373,25.875,26.625,25.8125,28.75,29.5625,30.0
0.16205217,-0.52105397,-0.25241512,0.54498565,0.02935094,0.0004114633,-0.11765088,-0.38715646,-0.34960255,0.060118854,3.0775533,-0.62521446,-0.00042940327,-0.07778495,-0.010440112,0.000100403246,-0.013051098,0.00552784,-0.014314274,0.47353065,-1.4151675,1.9448498,-2.0999544,-1.5698785,2.4488242,-0.058052678,0.13794485,-0.16177186,0.012955816,0.008816255,-0.04364535,-0.095768064,0.095768064,-8.868123,0.74413085,47.68599,-1.0175745,-1.8233246,-3.536787,-0.17624575,0.12217873,-0.2132416,25.875,26.625,25.8125,28.75,29.5625,30.0
0.16405217,-0.52243423,-0.35406315,0.46956348,0.010499388,0.002770466,-0.12525024,-0.3872952,-0.34962967,0.060119115,3.0774758,-0.62531435,-0.0003274345,-0.07860612,-0.010458729,-0.001295704,-0.012104927,0.0024638565,-0.015179544,0.47339827,-1.4149011,1.9445266,-2.099882,-1.5697945,2.448764,-0.059091058,0.14286044,-0.16449505,0.013924814,0.0093682995,-0.04381706,-0.11492168,0.19153613,-8.887277,0.8291774,47.67345,-0.8832244,-1.9083729,-3.374086,-0.17566574,0.13931796,-0.21532172,25.875,26.625,25.8125,28.75,29.5625,30.0
0.16605203,-0.97176886,-0.99128705,0.32766363,0.005812204,0.0021216474,-0.11724893,-0.38744906,-0.3496599,0.06012362,3.0774965,-0.62522143,-0.0003820337,-0.07925518,-0.0115245115,0.0008999307,-0.01370855,0.006039341,-0.014010624,0.47332686,-1.4146141,1.944178,-2.0998461,-1.5698184,2.4486322,-0.05764289,0.1405241,-0.16708528,0.014938168,0.009163867,-0.04353686,-0.095768064,0.24899697,-9.155427,0.8247004,47.719128,-1.0791922,-1.6929452,-3.36277,-0.17625716,0.1540722,-0.20780098,25.875,26.625,25.8125,28.75,29.5625,30.0
0.16805182,-1.0317972,-0.99306196,0.15853676,-0.008799102,0.008789176,-0.12201957,-0.38759944,-0.34966847,0.060123246,3.0774405,-0.62532604,-0.00035692737,-0.08103647,-0.010814714,0.00063261326,-0.013152395,0.005119181,-0.016898757,0.47318205,-1.4143608,1.943879,-2.0998094,-1.5697821,2.44856,-0.06042656,0.14341773,-0.17011389,0.016148822,0.009086354,-0.04343066,-0.21068975,0.3256114,-9.251195,0.78888994,47.698532,-0.96892846,-1.839508,-3.1985455,-0.17817327,0.1374249,-0.24428058,25.875,26.625,25.8125,28.75,29.5625,30.0
0.17005165,-1.5808512,-1.5581928,-0.2932693,-0.018527398,0.009552198,-0.114073254,-0.38775498,-0.3496785,0.06010527,3.077467,-0.62540853,-0.00033241167,-0.0819536,-0.010733483,0.00028713158,-0.012987749,0.0041431305,-0.017555194,0.47307363,-1.4140354,1.9435319,-2.0997488,-1.569806,2.4485,-0.06156076,0.1457619,-0.17223173,0.016865676,0.009381464,-0.04390778,-0.30645782,0.40222588,-9.442732,0.8224646,47.694946,-0.9019259,-1.7560631,-3.4516354,-0.19504635,0.15130399,-0.25655338,25.875,26.625,25.8125,28.75,29.5625,30.0
0.17205265,-0.6348464,-1.6590247,-0.2520362,-0.0458968,0.052835338,-0.1256929,-0.3879146,-0.34969187,0.06010492,3.0774355,-0.6254594,-0.00028156932,-0.08218339,-0.010390894,-0.0004759353,-0.012559204,0.0024776845,-0.01831701,0.4729293,-1.4137468,1.9431843,-2.0996773,-1.5697702,2.4483914,-0.062578276,0.1475092,-0.17261349,0.017179808,0.009759503,-0.044163495,-0.21068975,0.51714754,-9.481039,0.75084364,47.705692,-0.9341892,-1.8337657,-3.4486122,-0.19660059,0.14019081,-0.2828583,25.875,26.625,25.8125,28.75,29.5625,30.0
0.17405164,-2.4480436,-2.7383823,-0.36534178,-0.04184495,0.027924836,-0.103299595,-0.3880949,-0.34974313,0.060119253,3.0773716,-0.62540823,-0.00033314034,-0.08329983,-0.010550737,-0.0003698616,-0.0122958785,0.0028502373,-0.017854445,0.47283295,-1.4134337,1.9427885,-2.0996659,-1.5697345,2.4482715,-0.063014515,0.14943916,-0.1752294,0.017658865,0.009355613,-0.045060046,-0.34476507,0.5746084,-9.557653,0.7978386,47.716442,-0.9425199,-1.8416164,-3.389125,-0.2098211,0.16049926,-0.29200268,25.875,26.625,25.8125,28.75,29.5625,30.0
0.17605244,-1.5348582,-2.2438507,-0.52600205,-0.054789506,0.06030053,-0.12210983,-0.38826844,-0.34975755,0.06012393,3.0773535,-0.6254623,-0.00034431226,-0.08464281,-0.010871063,0.00014242658,-0.013775354,0.0039034737,-0.018344054,0.4727006,-1.413133,1.942418,-2.0996058,-1.569734,2.4481754,-0.06416441,0.1504335,-0.17751001,0.017332666,0.010189793,-0.04571943,-0.47884035,0.61291564,-9.691729,0.7418897,47.686886,-0.9062005,-1.696993,-3.345903,-0.1997774,0.17809305,-0.3065254,25.875,26.625,25.8125,28.75,29.5625,30.0
0.17805229,-2.029777,-1.8362833,-0.49702767,-0.05825497,0.051746096,-0.116254605,-0.38840717,-0.3497559,0.060096033,3.0773563,-0.62550056,-0.00026146512,-0.08545588,-0.010747167,-0.00043938516,-0.013957073,0.0031532443,-0.019305114,0.47255632,-1.4128444,1.9421409,-2.0995696,-1.5697097,2.4480548,-0.06540403,0.15259804,-0.1786088,0.016853295,0.010689046,-0.045997884,-0.36391866,0.45968673,-9.634268,0.79560274,47.668976,-0.8636991,-1.6370026,-3.432913,-0.18550187,0.1689601,-0.32159665,25.875,26.625,25.8125,28.75,29.5625,30.0
0.18005224,-1.5083872,-1.8412812,-0.5147593,-0.03334327,0.051006794,-0.119074814,-0.388586,-0.3497859,0.060087934,3.0773032,-0.62562495,-0.00022354382,-0.087064646,-0.011168244,0.00013294435,-0.014969002,0.0050132843,-0.019965492,0.47242406,-1.412495,1.9417461,-2.0995224,-1.5696739,2.448007,-0.066109106,0.15396413,-0.18137556,0.016140167,0.010737235,-0.046041094,-0.4213795,0.34476504,-9.576807,0.76874626,47.691364,-0.7626546,-1.8125136,-3.391576,-0.17317718,0.16918403,-0.35006404,25.875,26.625,25.8125,28.75,29.5625,30.0
0.18205217,-0.9288344,-0.9820754,-0.6707382,-0.01820769,0.04889873,-0.1223015,-0.38874632,-0.34981093,0.060061652,3.0772605,-0.625616,-0.00018567075,-0.08745499,-0.011045429,-0.0020458135,-0.014332874,0.0017778832,-0.021016411,0.4722917,-1.4121692,1.9414362,-2.0995467,-1.5696253,2.4478748,-0.06722101,0.15887597,-0.18181968,0.014843542,0.011640563,-0.046101354,-0.30645782,0.34476504,-9.653421,0.71279734,47.713753,-0.77669775,-1.9163308,-3.4969428,-0.16437331,0.16583912,-0.37206256,25.875,26.625,25.8125,28.75,29.5625,30.0
0.18405208,-1.2887453,-0.57889134,-0.47544548,-0.009643269,0.031301606,-0.12170221,-0.38896275,-0.34985134,0.060101938,3.0771554,-0.62570965,-0.00031983815,-0.089893475,-0.011314836,-0.0012233849,-0.015425048,0.0040751193,-0.021848667,0.4721593,-1.4118685,1.9409922,-2.0995228,-1.5696133,2.4478145,-0.068856746,0.16086952,-0.18594304,0.014433974,0.011565976,-0.046901185,-0.30645782,0.22984336,-9.710882,0.7777002,47.685097,-0.703244,-1.9216104,-3.5579,-0.14340143,0.15079443,-0.39795065,25.875,26.625,25.8125,28.75,29.5625,30.0
0.18605214,-0.801709,-0.35350317,-0.3615621,-0.0018446795,0.038170226,-0.12643948,-0.38912633,-0.3498671,0.060094286,3.0771372,-0.6257639,-0.00033202386,-0.08981019,-0.010954518,-0.0030495448,-0.013968248,0.0010302227,-0.022223575,0.472039,-1.4115669,1.9406565,-2.099499,-1.5696133,2.4477305,-0.06943514,0.16445215,-0.18589908,0.014183058,0.011654476,-0.04710411,-0.22984336,0.15322891,-9.519346,0.70608455,47.693153,-0.75343263,-2.0262666,-3.5618358,-0.14401108,0.17546704,-0.418964,25.875,26.625,25.8125,28.75,29.5625,30.0
0.18805194,-0.94322056,-0.4129796,-0.3559986,0.021211319,0.03030767,-0.11923812,-0.38933957,-0.34989172,0.060113464,3.0770266,-0.6258573,-0.00038589013,-0.091233276,-0.011258771,-0.0027009558,-0.014886339,0.0017396922,-0.023208443,0.47185868,-1.4112539,1.9402493,-2.0994875,-1.5695652,2.4476228,-0.07044818,0.16616149,-0.18872938,0.01425744,0.012149016,-0.04712999,-0.19153613,0.095768064,-9.481039,0.7642693,47.688675,-0.6976024,-2.0340602,-3.5113235,-0.10091759,0.18053584,-0.44332188,25.875,26.625,25.8125,28.75,29.5625,30.0
0.1900519,-1.1948195,-0.09328306,-0.27903637,0.018887466,0.01952444,-0.11905466,-0.38953868,-0.3499094,0.060105193,3.0769737,-0.6259604,-0.0004157752,-0.091693036,-0.010395342,-0.003169419,-0.013885278,0.0008768026,-0.022894273,0.47170225,-1.4109054,1.939866,-2.099487,-1.5695533,2.4475377,-0.07201477,0.16703486,-0.18882789,0.01471251,0.011655344,-0.04901023,-0.19153613,0.076614454,-9.461885,0.80679786,47.69763,-0.7449845,-2.056217,-3.5709453,-0.1009794,0.18516707,-0.4612208,25.875,26.625,25.8125,28.75,29.5625,30.0
0.19205174,-0.9343747,0.26589033,-0.15889347,0.012133667,0.022175264,-0.1208922,-0.38971364,-0.34993732,0.06010352,3.0769253,-0.62602675,-0.00039043505,-0.09223584,-0.010729183,-0.0036381935,-0.014037722,-0.00038942645,-0.021904984,0.4715701,-1.4105798,1.939483,-2.0994384,-1.569517,2.4474533,-0.07233054,0.16952625,-0.19081102,0.015265287,0.0123662725,-0.050314255,-0.19153614,0.05746084,-9.3661175,0.7620334,47.687782,-0.5852792,-2.1997461,-3.6780627,-0.10230129,0.16485901,-0.4729994,25.875,26.625,25.8125,28.75,29.5625,30.0
0.19405264,-0.7719352,-0.071632996,0.12952499,0.020772161,0.025918115,-0.12101692,-0.3899105,-0.34996364,0.060111314,3.0769005,-0.6259613,-0.00046256644,-0.09367462,-0.012075361,-0.0030584976,-0.014510713,0.0015044246,-0.017884878,0.4714387,-1.4102545,1.9390873,-2.099427,-1.569517,2.4472845,-0.070935026,0.1722117,-0.19525231,0.015125282,0.011924664,-0.05293561,-0.17238252,0.11492168,-9.32781,0.85155696,47.682407,-0.8384607,-2.0711625,-3.5144415,-0.07274285,0.1910488,-0.4865064,25.875,26.625,25.8125,28.75,29.5625,30.0
0.1960525,-0.67669225,-0.4044614,-0.044697896,0.030495025,0.030139344,-0.11596899,-0.3901258,-0.34998012,0.060111225,3.076826,-0.6261161,-0.00048364716,-0.09573921,-0.012611585,-0.0014142421,-0.01620129,0.0042150253,-0.014409253,0.47125825,-1.4098943,1.9386662,-2.0994027,-1.5694932,2.4472103,-0.07197392,0.17250337,-0.19959469,0.01600098,0.01220218,-0.057447944,-0.22984336,0.15322891,-9.193734,0.8403672,47.66091,-0.7462104,-1.9520953,-3.4229534,-0.045369655,0.20055771,-0.4459058,25.875,26.625,25.8125,28.75,29.5625,30.0
0.19805242,-0.79821235,-0.3076061,-0.17075846,0.02625584,0.012017597,-0.12282476,-0.39029437,-0.3500112,0.060097367,3.076811,-0.6260945,-0.00042957193,-0.096395046,-0.012577466,-0.0014147103,-0.015946215,0.0029996473,-0.0146868285,0.471138,-1.4095454,1.9382838,-2.099354,-1.5694574,2.4470787,-0.07279035,0.17418365,-0.20203966,0.017967455,0.012526936,-0.057986088,-0.17238252,0.21068975,-9.155427,0.81351066,47.705692,-0.5662906,-2.033809,-3.2829127,-0.04778429,0.188071,-0.43936735,25.875,26.625,25.8125,28.75,29.5625,30.0
0.20005213,-0.9110852,-0.7745406,-0.19694969,0.015350282,0.0100434795,-0.11441262,-0.39049324,-0.35003185,0.06010894,3.0767787,-0.62617975,-0.0004569258,-0.09556746,-0.013739599,-0.001114519,-0.014949864,0.0027598604,-0.0076082293,0.4709951,-1.409209,1.9378523,-2.0992815,-1.5694574,2.4469934,-0.06946468,0.17469835,-0.20381537,0.019903388,0.011756125,-0.061738167,-0.2873042,0.21068975,-9.289502,0.80456203,47.684196,-0.8646838,-1.9244856,-3.3798354,-0.074294955,0.21641544,-0.42202297,25.875,26.625,25.8125,28.75,29.5625,30.0
0.20205201,-0.98288363,-1.3392701,-0.18582764,-0.009003859,0.022119893,-0.11451358,-0.39068016,-0.3500587,0.060124636,3.0767236,-0.626164,-0.00047711688,-0.09687517,-0.013627013,-0.0005983611,-0.0148654375,0.0033260928,-0.0023695221,0.47085083,-1.4089085,1.9374584,-2.0992339,-1.5694212,2.4468465,-0.07058425,0.17586708,-0.2066726,0.021138508,0.01143343,-0.068094686,-0.2873042,0.34476504,-9.193734,0.82022345,47.707485,-0.8566601,-1.9036145,-3.3841228,-0.06916699,0.23053536,-0.37376666,25.875,26.625,25.8125,28.75,29.5625,30.0
0.20405184,-0.63941216,-1.5935088,-0.22032629,-0.027941925,0.034795325,-0.13180044,-0.3908607,-0.3500691,0.060081266,3.0767696,-0.6261341,-0.00039946445,-0.0963351,-0.01353905,-0.0020797236,-0.012946258,0.00033674922,0.00079169206,0.47070685,-1.4084985,1.937075,-2.0991971,-1.5694216,2.4466782,-0.06998336,0.17881946,-0.20698461,0.022038884,0.011080438,-0.07065537,-0.19153613,0.4405331,-9.308656,0.88289046,47.690468,-0.8929949,-1.9530611,-3.409369,-0.06949399,0.23165458,-0.30083612,25.875,26.625,25.8125,28.75,29.5625,30.0
0.20605268,-1.3170903,-2.0793326,-0.32020316,-0.045980927,0.025301814,-0.110344924,-0.39106196,-0.3501167,0.060092855,3.0767329,-0.6260286,-0.00042037165,-0.09684825,-0.013192788,-0.002849502,-0.012277936,-0.0012895945,0.0019468517,0.47058654,-1.4081377,1.9366206,-2.0991495,-1.5693859,2.446497,-0.07109973,0.18112592,-0.2080827,0.022589372,0.011228037,-0.07292577,-0.076614454,0.53630114,-9.423578,0.83365434,47.692257,-0.91252905,-1.8936006,-3.4002252,-0.07922615,0.2549082,-0.28807902,25.875,26.625,25.8125,28.75,29.5625,30.0
0.20805258,-0.71413547,-2.3333783,-0.11518224,-0.050278693,0.030751495,-0.119676694,-0.39125133,-0.3501271,0.060092654,3.0767105,-0.62607896,-0.00038020054,-0.09810827,-0.014085849,-0.0011270698,-0.014295665,0.0018787162,0.005647084,0.47041878,-1.4078016,1.9362134,-2.0990655,-1.5693611,2.4463637,-0.07084258,0.18017012,-0.21098906,0.022719685,0.011588884,-0.076368004,-0.038307227,0.51714754,-9.423578,0.8537928,47.677036,-0.9134559,-1.8668699,-3.4684312,-0.09484194,0.25363803,-0.23334065,25.875,26.625,25.8125,28.75,29.5625,30.0
0.21005248,-0.8941012,-1.8299382,-0.14943351,-0.046790563,0.0045170938,-0.11952776,-0.39147267,-0.3501693,0.060087223,3.0766432,-0.6260649,-0.0004837563,-0.099746,-0.014369877,-0.0005594641,-0.015390089,0.003298522,0.005660196,0.47028637,-1.4074172,1.9357947,-2.0991256,-1.5693492,2.4462314,-0.07197575,0.18154076,-0.21387818,0.022479383,0.011924173,-0.07751178,0.019153614,0.5746084,-9.385271,0.8314132,47.687782,-0.9540109,-1.8042831,-3.437932,-0.062902816,0.27547175,-0.19825062,25.875,26.625,25.8125,28.75,29.5625,30.0
0.21205235,-0.18842898,-1.6734414,-0.15109459,-0.022602633,0.0047749104,-0.12058331,-0.39168882,-0.3501841,0.060087893,3.0766401,-0.6260834,-0.00047962242,-0.10030783,-0.0146215465,-0.00082144025,-0.016386613,0.0024498175,0.0053963927,0.47011805,-1.407032,1.9353284,-2.0990417,-1.5693487,2.4460752,-0.07279441,0.1831376,-0.21520056,0.022508357,0.013196456,-0.07806602,-0.038307227,0.5554548,-9.289502,0.82022345,47.703903,-0.8971596,-1.7749026,-3.2877867,-0.067028016,0.26468354,-0.1701977,25.875,26.625,25.8125,28.75,29.5625,30.0
0.21405219,0.044221368,-1.1278849,-0.003764523,-0.009937555,-0.012362978,-0.11664727,-0.39188617,-0.35021788,0.060067397,3.0765913,-0.6260934,-0.00041725757,-0.10159888,-0.014969795,-0.0019975347,-0.016317476,0.0010865855,0.0038427545,0.46996182,-1.4066342,1.9349092,-2.0990179,-1.5692886,2.4459317,-0.07363917,0.18793443,-0.21796349,0.021725086,0.013744602,-0.077355206,0.038307227,0.45968673,-9.289502,0.89631605,47.675243,-0.9214904,-1.7940209,-3.3716338,-0.047474734,0.26644346,-0.13835734,25.875,26.625,25.8125,28.75,29.5625,30.0
0.21605203,-0.15097304,-1.285654,-0.17375322,0.003245548,-0.026495894,-0.110117905,-0.3920866,-0.35025403,0.060076885,3.076569,-0.6260308,-0.00042166663,-0.10238953,-0.015827069,-0.00094826624,-0.018240623,0.0031578303,0.0024948423,0.46983,-1.4062741,1.9344543,-2.0989463,-1.5692643,2.4457638,-0.07328667,0.18749966,-0.21981418,0.021291677,0.014517041,-0.07565379,0.05746084,0.45968673,-9.270349,0.84708,47.645687,-0.90785205,-1.7318597,-3.5382283,-0.029515784,0.2616593,-0.13201019,25.875,26.625,25.8125,28.75,29.5625,30.0
0.21805193,0.122382656,-0.72872615,-0.13463055,-0.015455976,-0.013972292,-0.122358575,-0.39226922,-0.35028642,0.06006022,3.0765429,-0.62597126,-0.00034324505,-0.10416527,-0.014898009,-0.0016443407,-0.017740516,0.0024159034,-0.002998422,0.4696848,-1.4059004,1.9340485,-2.0988986,-1.5692042,2.445585,-0.07637712,0.19050173,-0.22172664,0.021093708,0.01439923,-0.07324997,0.095768064,0.4213795,-9.32781,0.8985519,47.675243,-0.91653955,-1.8823133,-3.5247989,-0.018705994,0.2822153,-0.13611919,25.875,26.625,25.8125,28.75,29.5625,30.0
0.22005187,0.015646676,-0.85207975,-0.0097054215,-0.030920332,-0.0054695727,-0.124204114,-0.39250815,-0.35031816,0.060070567,3.0764809,-0.6260739,-0.00048094412,-0.104388386,-0.01642272,-0.0014260836,-0.018518232,0.0024375764,-0.0043963883,0.4695417,-1.4055151,1.9335812,-2.09891,-1.569228,2.4455142,-0.0742845,0.19254088,-0.22480561,0.021755278,0.015080812,-0.06975653,0.11492168,0.34476504,-9.270349,0.8157518,47.655537,-0.8567309,-1.9479828,-3.4194574,-0.00014533626,0.2787146,-0.14687425,25.875,26.625,25.8125,28.75,29.5625,30.0
0.22205181,-0.17459868,-1.3817728,-0.24182892,-0.017666386,-9.691521e-05,-0.11454187,-0.3927063,-0.35034582,0.06006045,3.076496,-0.62598205,-0.0004263961,-0.10483773,-0.016421407,-0.00205749,-0.01753177,0.0008830073,-0.0077317734,0.4693976,-1.4051185,1.9331254,-2.0988257,-1.5692042,2.445311,-0.0745201,0.19518216,-0.22676301,0.022904184,0.014897763,-0.06665616,0.095768064,0.30645782,-9.308656,0.842603,47.678825,-1.0223975,-2.0521636,-3.4651966,-0.0063508796,0.28200552,-0.19708763,25.875,26.625,25.8125,28.75,29.5625,30.0
0.22405228,-0.97221667,-1.6633838,-0.15823896,0.00048320065,-0.018585106,-0.105014764,-0.39291945,-0.35039362,0.060057376,3.0764089,-0.6261019,-0.00039276417,-0.107234575,-0.01562511,-0.0016327731,-0.018508125,0.0009928119,-0.013451176,0.4692521,-1.4047092,1.9326471,-2.098778,-1.5691437,2.4452517,-0.078516185,0.19700713,-0.23015498,0.023932438,0.015713986,-0.064930975,0.05746084,0.3256114,-9.212888,0.8224646,47.694054,-0.8995489,-1.9500754,-3.3671927,-0.02810961,0.26651683,-0.20978692,25.875,26.625,25.8125,28.75,29.5625,30.0
0.22605237,-0.5400123,-0.8464404,-0.0017808989,-0.003621187,-0.0054452727,-0.12074608,-0.3931351,-0.35044432,0.060063466,3.0763354,-0.6260482,-0.0004032216,-0.10614748,-0.017569136,-0.0030933756,-0.017673722,-0.0011889437,-0.013734349,0.46910983,-1.4043233,1.9321803,-2.0987537,-1.5690836,2.4450855,-0.07424112,0.20123653,-0.23172662,0.023596207,0.015949676,-0.060370546,0.019153614,0.2681506,-9.155427,0.8403672,47.698532,-1.1113738,-2.0169067,-3.3799171,-0.024297912,0.29419237,-0.26809013,25.875,26.625,25.8125,28.75,29.5625,30.0
0.22805215,-0.8404356,-0.47142056,-0.13682435,0.0050706337,-0.0160401,-0.118809536,-0.3933362,-0.3504732,0.060036194,3.076325,-0.6261231,-0.00033076215,-0.10663825,-0.017300159,-0.0035911407,-0.017667899,-0.0028144105,-0.014356514,0.46896526,-1.4038903,1.9317263,-2.0986936,-1.5690593,2.4449892,-0.07555929,0.20298684,-0.2329078,0.02448201,0.016678272,-0.061066642,-0.019153614,0.2681506,-9.2703495,0.80679786,47.70211,-1.1529537,-2.022007,-3.4437113,-0.0075951274,0.28549337,-0.28153983,25.875,26.625,25.8125,28.75,29.5625,30.0
0.23005207,-0.47438976,-0.43189174,0.1022952,0.006918387,0.0018679721,-0.12125891,-0.39353335,-0.35048345,0.060000114,3.0763202,-0.6261963,-0.0002203491,-0.10841394,-0.017348893,-0.002328797,-0.018653078,-0.00080843887,-0.012321964,0.46878475,-1.4034697,1.9313067,-2.098633,-1.569024,2.4448552,-0.07697717,0.20315629,-0.23628639,0.025467465,0.01664807,-0.06451888,-0.05746084,0.21068975,-9.289502,0.8851263,47.674347,-1.1175097,-2.1774457,-3.5308912,0.012079872,0.30028528,-0.25916496,25.875,26.625,25.8125,28.75,29.5625,30.0
0.23205173,-0.91903585,-0.64178365,0.047272082,0.0069536082,0.0026106094,-0.116601616,-0.39372265,-0.35053164,0.05999363,3.0763004,-0.62611616,-0.00019719763,-0.1089122,-0.017768687,-0.0024082991,-0.018198058,-0.0010197717,-0.013492096,0.46867707,-1.4030848,1.9308637,-2.0985854,-1.5689877,2.4447002,-0.07643978,0.20499831,-0.23849072,0.026226373,0.016333472,-0.06281018,-0.076614454,0.2681506,-9.308656,0.8717007,47.745995,-1.1232328,-2.0905182,-3.4448037,-0.007830312,0.29396057,-0.2888948,25.875,26.625,25.8125,28.75,29.5625,30.0
0.23405176,-0.82219183,-0.55519676,-0.03398838,0.00090677233,0.019090908,-0.12361671,-0.3939674,-0.3505734,0.059991285,3.07624,-0.626199,-0.00018810971,-0.11004654,-0.018159213,-0.0014202788,-0.019798307,0.00029044092,-0.014364492,0.4685089,-1.4026283,1.9303254,-2.0985253,-1.5689515,2.4445918,-0.07723041,0.2049868,-0.2409463,0.026803786,0.017168082,-0.06272721,-0.095768064,0.17238252,-9.346964,0.8627467,47.684196,-1.2295859,-2.1151142,-3.408905,0.0013999124,0.30726132,-0.3202834,25.875,26.625,25.8125,28.75,29.5625,30.0
0.23605165,-1.6815358,-0.8582489,-0.22556594,-0.0020217793,0.016222503,-0.11020318,-0.39416558,-0.35059813,0.05995899,3.0762343,-0.6262368,-9.113537e-05,-0.11120512,-0.018530283,-0.00042222932,-0.021234453,0.002070531,-0.014000907,0.46835253,-1.4021962,1.9298834,-2.0984657,-1.5689152,2.44446,-0.07785504,0.2048389,-0.24316175,0.026935488,0.017641205,-0.06371553,-0.2873042,0.24899697,-9.346964,0.86945957,47.67614,-1.1162496,-2.025436,-3.464697,0.01823698,0.27427018,-0.32157767,25.875,26.625,25.8125,28.75,29.5625,30.0
0.23805268,-1.7432965,-0.5935606,-0.57071066,-0.014416168,0.035016805,-0.110350624,-0.39439958,-0.3506431,0.059978914,3.0761564,-0.6262394,-8.645682e-05,-0.111704856,-0.01844385,-0.00071753556,-0.021075541,0.00073956937,-0.014844884,0.46818432,-1.4017987,1.9293569,-2.0983813,-1.5688547,2.4443035,-0.07867802,0.20657033,-0.24485508,0.028162044,0.018103857,-0.06369307,-0.36391866,0.28730422,-9.461885,0.8112748,47.709274,-1.1901548,-2.0196285,-3.4923406,0.0019936566,0.28734833,-0.33610106,25.875,26.625,25.8125,28.75,29.5625,30.0
0.24005182,-1.318488,-1.078738,-0.5848508,-0.005342994,0.055738278,-0.118995205,-0.39462674,-0.35068235,0.0599694,3.0761082,-0.6262686,-7.60716e-05,-0.11096711,-0.017598664,-0.002942857,-0.018454785,-0.0044634556,-0.015887478,0.4680281,-1.4013655,1.9288667,-2.0983446,-1.5688189,2.444172,-0.079446875,0.21024565,-0.24457018,0.030032272,0.018119523,-0.06341899,-0.34476504,0.24899697,-9.615114,0.9030289,47.693153,-1.1681601,-2.0612817,-3.6180146,-0.018910535,0.30131298,-0.36125427,25.875,26.625,25.8125,28.75,29.5625,30.0
0.24205182,-2.2048106,-1.1195894,-0.32349917,-0.012931566,0.04637746,-0.107581414,-0.3948278,-0.35070625,0.059947133,3.0761147,-0.6263071,-1.8042001e-05,-0.112908915,-0.01777158,-0.0018183825,-0.019176347,-0.0027571125,-0.015997035,0.4678838,-1.4009448,1.9284118,-2.0982726,-1.5688075,2.444051,-0.08072835,0.2112941,-0.24872258,0.031293932,0.017987804,-0.06458994,-0.61291564,0.17238252,-9.576807,0.7866488,47.66987,-1.1860425,-1.9655031,-3.592918,-0.030953802,0.29212233,-0.38487747,25.875,26.625,25.8125,28.75,29.5625,30.0
0.24405171,-2.1312902,-1.2641666,-0.43351275,0.007097128,0.0504873,-0.11101678,-0.39506528,-0.35075787,0.059958532,3.0760396,-0.62634844,-5.2366828e-05,-0.11397542,-0.018467225,-0.00072468206,-0.02050884,-0.00084508554,-0.014052818,0.46773964,-1.400524,1.9278854,-2.0982244,-1.5687708,2.4439425,-0.08060493,0.21134843,-0.25144178,0.03165866,0.01831738,-0.066408716,-0.57460845,0.17238252,-9.557653,0.86945957,47.694946,-1.170021,-1.8611051,-3.5410104,-0.03852626,0.28551263,-0.37005025,25.875,26.625,25.8125,28.75,29.5625,30.0
0.24605261,-1.4686761,-0.2091273,-0.575159,0.015538814,0.060072057,-0.12552513,-0.39531186,-0.35079068,0.05996652,3.0760212,-0.6263639,-5.014301e-05,-0.11518378,-0.016980033,-0.002625932,-0.018861875,-0.004219505,-0.0152487,0.46757045,-1.4000785,1.9273242,-2.0981166,-1.5687588,2.4437857,-0.08423633,0.21572557,-0.25236416,0.031966884,0.018372474,-0.06884324,-0.59376204,0.13407528,-9.557653,0.8918391,47.69763,-1.0511166,-1.9687091,-3.5902789,-0.03960263,0.2951032,-0.3738045,25.875,26.625,25.8125,28.75,29.5625,30.0
0.24805222,-1.7127105,-0.39056808,-0.560935,0.023535509,0.053174373,-0.1177605,-0.39552626,-0.35083425,0.059944764,3.0759578,-0.62638664,4.9671697e-05,-0.11473894,-0.017781055,-0.0027503087,-0.018730797,-0.004999961,-0.010560349,0.46740302,-1.3996336,1.926845,-2.098068,-1.5686749,2.4436407,-0.08253107,0.21672279,-0.2535502,0.03292554,0.018611047,-0.07182626,-0.38307226,0.1340753,-9.557653,0.8985519,47.67345,-1.1578401,-1.9288795,-3.6194,-0.06784739,0.29678428,-0.34602344,25.875,26.625,25.8125,28.75,29.5625,30.0
0.25005215,-1.4928998,-0.7350688,-0.43227863,0.01171296,0.056584414,-0.11239338,-0.39572096,-0.35086778,0.05992384,3.0759556,-0.6262877,0.00012936011,-0.116630755,-0.017291237,-0.0024110891,-0.019241894,-0.004439771,-0.00924142,0.46725833,-1.3992244,1.9264024,-2.0980084,-1.5686268,2.4434347,-0.08512989,0.21828263,-0.25633955,0.033438165,0.018814657,-0.07574327,-0.49799395,0.095768064,-9.519346,0.91198283,47.694946,-1.1885672,-2.0191848,-3.6446438,-0.09240075,0.29600078,-0.31298462,25.875,26.625,25.8125,28.75,29.5625,30.0
0.252052,-1.1604457,-0.7134316,-0.17035274,0.0022454888,0.061584093,-0.12118214,-0.39599767,-0.3508725,0.05993104,3.0759103,-0.6264506,7.541258e-05,-0.11796987,-0.016712312,-0.0025694207,-0.018328706,-0.0046472764,-0.007103553,0.46702966,-1.3987795,1.9258512,-2.097936,-1.5686396,2.4433138,-0.08678391,0.2203627,-0.25869668,0.034325417,0.018099029,-0.07953355,-0.5746084,0.076614454,-9.519346,0.8023209,47.71465,-0.85933876,-2.050683,-3.6248784,-0.08486508,0.3076163,-0.26673123,25.875,26.625,25.8125,28.75,29.5625,30.0
0.2540521,-1.3970559,-0.7240452,-0.4480257,-0.0005158272,0.0356467,-0.11461783,-0.396236,-0.3509172,0.05991373,3.0758781,-0.6264028,8.713502e-05,-0.119175166,-0.016862452,-0.0033475338,-0.017054433,-0.0061920737,-0.0040621934,0.46687368,-1.3983092,1.9253372,-2.0979116,-1.5686034,2.4431324,-0.08724113,0.22479856,-0.26249695,0.035657488,0.017658832,-0.08302985,-0.36391866,0.22984336,-9.461885,0.89631605,47.668976,-1.030259,-2.0764956,-3.7291102,-0.09658761,0.3075836,-0.22569738,25.875,26.625,25.8125,28.75,29.5625,30.0
0.25605196,-1.6744101,-0.8245798,-0.23936567,-0.004334192,0.028787479,-0.112409696,-0.39646995,-0.35094747,0.059914224,3.075856,-0.6264172,0.00011200573,-0.12175047,-0.016173536,-0.0028372454,-0.017614031,-0.005543541,-0.0043094284,0.46670446,-1.3978761,1.9248093,-2.0978158,-1.5685796,2.4429753,-0.09077446,0.22694325,-0.26648316,0.03667922,0.01786581,-0.08631421,-0.30645782,0.22984336,-9.442732,0.8112748,47.65464,-0.8829226,-2.1462488,-3.570001,-0.13141045,0.31705156,-0.16882724,25.875,26.625,25.8125,28.75,29.5625,30.0
0.25805187,-1.248104,-1.4859083,-0.6796548,0.020851962,0.023590198,-0.10986278,-0.39671814,-0.35096908,0.059904024,3.0758066,-0.62652296,0.00015134498,-0.1240832,-0.016160112,-0.0011912793,-0.018766856,-0.0027173236,-0.005819291,0.4664998,-1.3974197,1.9242839,-2.0977437,-1.5685433,2.4428432,-0.09261643,0.2270621,-0.27071244,0.037755452,0.017618436,-0.08664488,-0.40222588,0.24899697,-9.442732,0.8851263,47.66271,-0.77792275,-2.1322172,-3.6159768,-0.15149705,0.3261761,-0.14091885,25.875,26.625,25.8125,28.75,29.5625,30.0
0.26005164,-1.2205034,-0.6005298,-0.5266696,0.0007129544,0.013493753,-0.11653552,-0.39698657,-0.35101512,0.05991163,3.075758,-0.6264336,0.000116093936,-0.124866545,-0.016499031,-0.0013933679,-0.019260071,-0.0034632757,-0.002955771,0.4663197,-1.3969506,1.9237083,-2.097695,-1.5685066,2.4426138,-0.09313004,0.22925799,-0.2730478,0.038350426,0.018402135,-0.09001984,-0.34476504,0.22984336,-9.519346,0.9030289,47.67345,-0.71931565,-2.1860244,-3.4609072,-0.17360844,0.3285625,-0.082589164,25.875,26.625,25.8125,28.75,29.5625,30.0
0.2620525,-1.6120225,-1.3106946,-0.4164731,0.0020543358,0.013461976,-0.10572122,-0.39722803,-0.3510738,0.059921768,3.0756814,-0.626343,0.00011409281,-0.126042,-0.016778352,-0.00087545207,-0.019892959,-0.0027452183,-0.0067104725,0.46616358,-1.3965179,1.9231695,-2.0976474,-1.5684351,2.4424112,-0.09375489,0.23041631,-0.27582914,0.03904912,0.018641172,-0.08688778,-0.34476504,0.30645782,-9.519346,0.8493211,47.705692,-0.723182,-2.1848433,-3.3625522,-0.18727072,0.3314402,-0.08791747,25.875,26.625,25.8125,28.75,29.5625,30.0
0.26405248,-1.5976988,-1.2721192,-0.3626085,-0.0062109567,0.025569148,-0.10528259,-0.39746928,-0.35108078,0.059895314,3.0756855,-0.6264205,0.0002159524,-0.12769884,-0.017757958,0.0011558706,-0.021715354,0.0006807548,-0.008218308,0.46594763,-1.3960373,1.922644,-2.0975392,-1.5684108,2.4422433,-0.09347128,0.22984627,-0.2801158,0.040028304,0.018716032,-0.085096076,-0.40222588,0.36391866,-9.385271,0.7665104,47.674347,-0.73216856,-2.061906,-3.429132,-0.21697116,0.30921286,-0.09952776,25.875,26.625,25.8125,28.75,29.5625,30.0
0.26605245,-1.6873379,-1.4638109,-0.4061606,-0.0051332805,0.04019965,-0.10986488,-0.39771944,-0.35110828,0.059889585,3.075679,-0.62647915,0.00025891536,-0.12715149,-0.01771247,0.0009805459,-0.021557834,-0.0007836615,-0.010667585,0.4657676,-1.3955572,1.922069,-2.097419,-1.5683988,2.442101,-0.0933136,0.2297834,-0.28006124,0.0414125,0.019231852,-0.08248999,-0.36391866,0.38307226,-9.500193,0.9186956,47.65106,-0.7770481,-2.1130514,-3.3807135,-0.24792627,0.32539302,-0.09671185,25.875,26.625,25.8125,28.75,29.5625,30.0
0.26805225,-1.697167,-1.4718041,-0.4078391,-0.017644852,0.04989792,-0.11179165,-0.39798412,-0.35114658,0.05987822,3.0756083,-0.6265239,0.00029376528,-0.12802026,-0.016970707,0.0008771233,-0.021802725,-0.0014309265,-0.016208278,0.46556294,-1.3950644,1.9215082,-2.0973709,-1.5683383,2.4419336,-0.09559682,0.23045373,-0.28084674,0.04199575,0.019739091,-0.079231955,-0.28730422,0.38307226,-9.557653,0.87393653,47.658226,-0.77529466,-1.8276379,-3.5402966,-0.27950493,0.32757905,-0.12871732,25.875,26.625,25.8125,28.75,29.5625,30.0
0.27005213,-1.4100778,-1.3950658,-0.2716911,-0.0150911305,0.04715398,-0.10966871,-0.39824215,-0.35117587,0.059884354,3.0755537,-0.6265892,0.0002755472,-0.12724529,-0.017991446,0.0005048672,-0.021395514,-0.001951864,-0.016201254,0.4653719,-1.3946195,1.9209579,-2.0972993,-1.5683144,2.4417906,-0.09297555,0.2315383,-0.2813856,0.04209844,0.019608,-0.0766169,-0.28730422,0.3256114,-9.519346,0.8940802,47.684196,-0.81412536,-1.789246,-3.6868014,-0.2830377,0.3360052,-0.15820251,25.875,26.625,25.8125,28.75,29.5625,30.0
0.27205208,-1.1767358,-1.2645435,-0.2267722,-0.008233683,0.037279353,-0.10351467,-0.39852598,-0.35122347,0.059901707,3.0754535,-0.6266668,0.0002651661,-0.12833387,-0.01740704,-0.0010285317,-0.020421706,-0.004154641,-0.021067832,0.46516728,-1.3941377,1.9203361,-2.0972154,-1.5682544,2.4416475,-0.0949267,0.23580283,-0.28290778,0.041762937,0.019722588,-0.07369921,-0.095768064,0.28730422,-9.423578,0.8493211,47.694946,-0.8723229,-1.880772,-3.6659484,-0.31044948,0.3209359,-0.20243035,25.875,26.625,25.8125,28.75,29.5625,30.0
0.27405196,-0.3236565,-0.8866055,-0.46381807,0.002543468,0.024150487,-0.113041095,-0.39877737,-0.3512442,0.059892006,3.07543,-0.6267013,0.00026484253,-0.13057682,-0.018318856,0.00039733053,-0.022459747,0.00039780553,-0.0229768,0.46497506,-1.3936807,1.9198102,-2.0971563,-1.5682424,2.4414802,-0.09507832,0.23630244,-0.2863806,0.03975453,0.019489441,-0.0719401,-0.038307227,0.30645782,-9.5385,0.842603,47.670765,-0.73451006,-1.923254,-3.627534,-0.32050347,0.34134758,-0.23538667,25.875,26.625,25.8125,28.75,29.5625,30.0
0.27605206,-1.128603,-1.0556946,-0.5609208,0.020192668,-0.021526111,-0.10121554,-0.39902684,-0.3512709,0.059887566,3.0754056,-0.6268111,0.00029204582,-0.13213865,-0.019206366,0.00047909273,-0.023288365,0.002389086,-0.0237358,0.46479535,-1.3932116,1.919247,-2.0970495,-1.568231,2.4413724,-0.09472168,0.23892926,-0.28932717,0.03792516,0.01932593,-0.07082306,0.019153614,0.30645782,-9.615114,0.8851263,47.694946,-0.88798475,-1.8963583,-3.5915883,-0.31913882,0.34196836,-0.25588253,25.875,26.625,25.8125,28.75,29.5625,30.0
0.27805215,-0.12625511,-0.42852813,-0.6294963,0.002736613,-0.006691187,-0.1110392,-0.39929086,-0.35130772,0.05986946,3.0753198,-0.6269291,0.00041927802,-0.13390663,-0.01953002,-0.0006049885,-0.02391157,0.0017677487,-0.025984315,0.46456677,-1.3926934,1.91866,-2.096954,-1.5681342,2.4412286,-0.09613254,0.24375245,-0.29225218,0.036309518,0.020150857,-0.0699838,-0.095768064,0.30645782,-9.519346,0.900793,47.67345,-0.8251214,-2.0555725,-3.630107,-0.30460104,0.36516136,-0.30151904,25.875,26.625,25.8125,28.75,29.5625,30.0
0.28005219,-0.4811403,-1.1959684,-0.85783756,0.00011012418,-0.01196818,-0.10910519,-0.3995749,-0.3513527,0.05988517,3.0752845,-0.6269385,0.0002967288,-0.13535772,-0.020363528,-0.00046221784,-0.02557222,0.0023595833,-0.0246241,0.46441075,-1.3922124,1.9180502,-2.0969064,-1.5681576,2.4410834,-0.096640654,0.24629255,-0.2955388,0.035784967,0.021372965,-0.07184855,0.05746084,0.15322891,-9.5385,0.88289046,47.674347,-0.85271734,-2.1061223,-3.4953866,-0.3005324,0.35849816,-0.3109769,25.875,26.625,25.8125,28.75,29.5625,30.0
0.28205255,-0.7107886,-2.1052895,-0.74345237,-0.012240178,-0.0049430276,-0.10455988,-0.399839,-0.35137606,0.059861347,3.0752308,-0.6270065,0.00037215275,-0.13792183,-0.021445133,0.0012625137,-0.027262542,0.0064908513,-0.027269045,0.46418265,-1.3917072,1.917499,-2.0968463,-1.568098,2.4409049,-0.09668565,0.24753611,-0.3009812,0.035536807,0.021019997,-0.069246694,0.15322891,0.30645782,-9.576807,0.86945957,47.681515,-0.80681807,-2.170626,-3.4232607,-0.31039903,0.3636022,-0.34316134,25.875,26.625,25.8125,28.75,29.5625,30.0
0.28405255,-0.8998693,-2.002322,-0.5386481,-0.028559672,0.0005757712,-0.1122264,-0.4001055,-0.35142246,0.059874382,3.0751727,-0.6270517,0.00034000352,-0.13830735,-0.021588434,0.00039916913,-0.02658513,0.005391792,-0.028413571,0.46401477,-1.3912382,1.9169005,-2.0967624,-1.5680736,2.440773,-0.09661666,0.25024495,-0.30226812,0.035403516,0.020906925,-0.068031535,0.05746084,0.30645782,-9.557653,0.8403672,47.67166,-0.8485172,-2.1221366,-3.3696265,-0.3154698,0.36031914,-0.41905245,25.875,26.625,25.8125,28.75,29.5625,30.0
0.28605244,-0.430066,-1.698097,-0.87279475,-0.031040981,0.0012319497,-0.11750165,-0.4003973,-0.351483,0.059903324,3.075056,-0.62714136,0.00027115297,-0.13820735,-0.02157236,0.00032224687,-0.027085634,0.005784471,-0.02616886,0.4638348,-1.3907578,1.9162554,-2.0966914,-1.568026,2.4406643,-0.096640095,0.24978215,-0.30144882,0.03448405,0.021192031,-0.070298225,0.076614454,0.5363012,-9.615114,0.900793,47.677036,-0.866682,-2.0538008,-3.3826208,-0.30356297,0.35945088,-0.43159276,25.875,26.625,25.8125,28.75,29.5625,30.0
0.28805372,-0.90305775,-2.405532,-0.8464823,-0.040559657,0.006932012,-0.101001576,-0.40068316,-0.351527,0.059900206,3.0749836,-0.62724066,0.00029472867,-0.13845441,-0.0220054,0.00017465733,-0.027845299,0.005761151,-0.026001113,0.4636309,-1.3902289,1.9156231,-2.0966074,-1.5679773,2.440532,-0.09644176,0.25071764,-0.30222318,0.03400933,0.021883884,-0.070266716,0.05746084,0.49799395,-9.672575,0.8806493,47.698532,-0.907655,-2.1336837,-3.6851006,-0.2981463,0.38881576,-0.43843636,25.875,26.625,25.8125,28.75,29.5625,30.0
0.29005176,-0.8901932,-2.309259,-0.7593799,-0.04903004,0.0045589902,-0.10845553,-0.40095732,-0.3515535,0.05988635,3.0749347,-0.6273056,0.00031740032,-0.1387461,-0.022583356,-5.1706615e-05,-0.02850105,0.005237846,-0.024421593,0.46341524,-1.3897243,1.915049,-2.0965478,-1.5679415,2.4403634,-0.096115634,0.25230342,-0.30370334,0.034086507,0.022708131,-0.07151897,0.076614454,0.5554548,-9.615114,0.900793,47.661808,-1.063469,-1.9540752,-3.7619119,-0.31135473,0.3603958,-0.48006856,25.875,26.625,25.8125,28.75,29.5625,30.0
0.29205176,-0.85977757,-2.709846,-0.6218281,-0.04523755,0.0061101587,-0.108878724,-0.40123516,-0.3516319,0.05990585,3.0748272,-0.62730086,0.00026130636,-0.14051265,-0.023656845,0.0013515846,-0.031691525,0.0090195155,-0.021103883,0.4632708,-1.3892312,1.9144152,-2.0965006,-1.567881,2.4402301,-0.09644246,0.2521227,-0.30634293,0.032111667,0.02387838,-0.07515977,0.05746084,0.45968673,-9.557653,0.83589023,47.666286,-0.9202199,-1.8706222,-3.7511072,-0.28453663,0.33987707,-0.46988004,25.875,26.625,25.8125,28.75,29.5625,30.0
0.29405257,-0.50625,-1.753826,-0.31716788,-0.046145383,0.014450356,-0.117658176,-0.40152538,-0.35166404,0.059924256,3.074731,-0.6273926,0.00023485515,-0.14213714,-0.025283495,0.0022700117,-0.034754127,0.012719826,-0.01583043,0.46304327,-1.3887626,1.9138044,-2.0964181,-1.5678324,2.4400725,-0.095621526,0.2532325,-0.3091677,0.029165938,0.024971211,-0.07960882,0.019153614,0.4213795,-9.442732,0.9186956,47.65464,-1.1319789,-1.8896918,-3.7073827,-0.23994184,0.32591805,-0.4561005,25.875,26.625,25.8125,28.75,29.5625,30.0
0.29605255,-0.5594205,-0.85651684,-0.60377663,-0.008580667,0.0017048212,-0.11610979,-0.4018011,-0.35173523,0.059908714,3.074641,-0.6273931,0.00027543344,-0.14554957,-0.024890408,0.0040032514,-0.037859242,0.01643253,-0.0149462195,0.46287352,-1.3882098,1.9131826,-2.0963829,-1.567748,2.439915,-0.09987837,0.25331175,-0.31315058,0.028383113,0.02609912,-0.084746934,0.019153614,0.34476504,-9.500193,0.8918391,47.691364,-0.86676884,-1.7054152,-3.6152098,-0.20263821,0.3193537,-0.42545754,25.875,26.625,25.8125,28.75,29.5625,30.0
0.29805258,-0.48851076,-0.15957268,-0.4764834,0.012702865,-0.0031043857,-0.11247395,-0.40214327,-0.35179368,0.05995045,3.0744965,-0.6273964,0.00012046533,-0.14611185,-0.027087936,0.004143721,-0.040301755,0.016177356,-0.00806667,0.46264648,-1.3877045,1.9124883,-2.096358,-1.5676988,2.439709,-0.09790685,0.25642887,-0.31727865,0.028548699,0.028422143,-0.08964703,0.095768064,0.2681506,-9.500193,1.0194036,47.677036,-1.0971265,-1.7522041,-3.5055838,-0.19896728,0.28912842,-0.37528425,25.875,26.625,25.8125,28.75,29.5625,30.0
0.30005243,-0.48771045,-0.08384483,-0.7541133,0.020596793,-0.0005001428,-0.10950444,-0.40239587,-0.35186222,0.059932407,3.0744226,-0.62734026,0.00022925768,-0.14767626,-0.027213922,0.0037671789,-0.04086545,0.016612858,-0.0042050215,0.462478,-1.3871742,1.9118899,-2.0962865,-1.5675911,2.439515,-0.09915571,0.25929496,-0.31966877,0.027460732,0.028741062,-0.09475619,-0.038307227,0.28730422,-9.404425,0.96569055,47.66987,-1.030065,-2.0700822,-3.5116115,-0.16972598,0.25923687,-0.32599002,25.875,26.625,25.8125,28.75,29.5625,30.0
0.3020524,-0.7220703,-0.3562112,-0.6543566,0.013865502,0.021553606,-0.11729214,-0.40270564,-0.35192648,0.059961103,3.0743241,-0.6273175,0.000119622775,-0.1479094,-0.026730888,0.0017860682,-0.03858449,0.012712011,-0.0014694209,0.46229792,-1.386669,1.9112195,-2.0962384,-1.5675553,2.439334,-0.09991711,0.26411593,-0.32124707,0.028747479,0.028464068,-0.09824918,-0.15322891,0.34476504,-9.481039,0.8493211,47.704796,-0.9994726,-2.0960371,-3.504402,-0.13566014,0.24839355,-0.27237502,25.875,26.625,25.8125,28.75,29.5625,30.0
0.30405226,-1.2814288,-0.49267894,-0.57856876,-0.019940868,0.039708905,-0.12537561,-0.4029727,-0.35195345,0.059957784,3.0743284,-0.6272602,0.00013682453,-0.14755714,-0.025775626,0.0009376785,-0.036221873,0.009156085,0.00030686977,0.46210554,-1.386176,1.910622,-2.0961292,-1.5675434,2.4391055,-0.10084494,0.26572242,-0.32213908,0.032286514,0.0279522,-0.10095402,-0.1340753,0.30645782,-9.634268,0.8560339,47.681515,-1.0064688,-2.018139,-3.5454357,-0.15167567,0.23851028,-0.20359486,25.875,26.625,25.8125,28.75,29.5625,30.0
0.30605188,-1.6599624,-1.9508384,-0.43355274,-0.028924597,0.054254875,-0.11143499,-0.40329215,-0.35200617,0.059980243,3.074216,-0.6272922,5.346426e-05,-0.14841251,-0.026111122,0.0012989914,-0.036213618,0.009154735,0.0018742513,0.46188977,-1.385659,1.9099516,-2.096081,-1.5674952,2.4389246,-0.100898355,0.26722297,-0.32521507,0.033883072,0.02796219,-0.1025709,-0.21068975,0.40222588,-9.500193,0.84708,47.677036,-1.0308852,-1.8913168,-3.6049595,-0.15728635,0.22764346,-0.18597126,25.875,26.625,25.8125,28.75,29.5625,30.0
0.30805182,-2.0458672,-1.7165155,-0.36358848,-0.05127254,0.054177273,-0.108323365,-0.4035722,-0.3520742,0.059979327,3.0741155,-0.6272925,0.00013365541,-0.14925143,-0.026087267,0.0018582471,-0.037576914,0.010255384,-0.0009285507,0.46169713,-1.3851182,1.9092954,-2.0959857,-1.567387,2.4387453,-0.102016725,0.26685643,-0.32611075,0.033561,0.02869219,-0.10088518,-0.51714754,0.2873042,-9.5385,0.91198283,47.647476,-1.0509503,-1.9133246,-3.573344,-0.1515587,0.20063664,-0.14027466,25.875,26.625,25.8125,28.75,29.5625,30.0
0.31005165,-1.7887871,-1.7411783,-0.43587235,-0.038781997,0.05656998,-0.10833302,-0.40388978,-0.35213453,0.059982777,3.0740485,-0.62722427,6.8974885e-05,-0.15108544,-0.024973944,0.001610218,-0.03772355,0.010118459,-0.007994187,0.46150398,-1.3845533,1.908614,-2.09595,-1.5673507,2.4385185,-0.105529234,0.26861632,-0.3277407,0.033485167,0.02888469,-0.09732892,-0.59376204,0.24899697,-9.461885,0.8672237,47.650166,-0.9564358,-1.8253307,-3.6522412,-0.1329858,0.2034525,-0.18615699,25.875,26.625,25.8125,28.75,29.5625,30.0
0.31205258,-1.6042522,-1.0383437,-0.21148098,-0.02807609,0.044110175,-0.11098148,-0.40421075,-0.35217476,0.059994,3.0739644,-0.6273024,-3.2780372e-05,-0.15053426,-0.02586704,0.0007463599,-0.036977246,0.008291276,-0.009280358,0.46128875,-1.3840237,1.907956,-2.0959132,-1.5673388,2.4383633,-0.103493445,0.27118918,-0.32911485,0.034250714,0.029034069,-0.09400358,-0.45968673,0.24899697,-9.500193,0.90750587,47.67166,-0.96973145,-1.893876,-3.6466935,-0.11223592,0.1758337,-0.18579268,25.875,26.625,25.8125,28.75,29.5625,30.0
0.31405243,-0.8982354,0.008171301,0.116888486,-0.015131357,0.03877676,-0.11785402,-0.40452042,-0.3522386,0.060006905,3.073835,-0.6273379,-2.7256963e-05,-0.15424553,-0.025848167,0.0031681259,-0.03983787,0.013267776,-0.018296855,0.46107173,-1.3834835,1.9072737,-2.0958416,-1.567243,2.4381855,-0.10681224,0.2710362,-0.33452928,0.034083147,0.029365921,-0.08830152,-0.45968673,0.15322891,-9.3661175,0.8873621,47.63852,-0.9551623,-1.8692243,-3.57668,-0.10544683,0.15583894,-0.27002856,25.875,26.625,25.8125,28.75,29.5625,30.0
0.31605253,-1.2466909,0.28110906,-0.008183359,0.031042395,0.009633812,-0.111032225,-0.4048419,-0.3522937,0.06001758,3.0737178,-0.6273329,-7.300257e-05,-0.15543216,-0.027743382,0.0039730803,-0.041738737,0.01595473,-0.017925799,0.46084434,-1.3829424,1.9066032,-2.095806,-1.5671705,2.4379704,-0.104763925,0.27285907,-0.3383546,0.0328391,0.029872514,-0.086619206,-0.5554548,0.1340753,-9.289502,0.9030289,47.647476,-1.013657,-1.7897615,-3.4909894,-0.066495284,0.12969334,-0.28026447,25.875,26.625,25.8125,28.75,29.5625,30.0
0.3180524,-1.0294281,0.4840345,-0.08433803,0.053162485,0.0181803,-0.11682338,-0.4051487,-0.35236317,0.060023926,3.0735984,-0.6273274,-6.416397e-05,-0.15601835,-0.027240466,0.0032082894,-0.04095481,0.014367017,-0.01963987,0.46063995,-1.382389,1.9059223,-2.0957463,-1.5670747,2.4377782,-0.10602751,0.27508685,-0.33955544,0.033595774,0.029886378,-0.086166315,-0.40222588,0.095768064,-9.270349,0.8851263,47.65106,-0.96932876,-1.8353962,-3.4103417,-0.026402384,0.11760059,-0.30933592,25.875,26.625,25.8125,28.75,29.5625,30.0
0.32005227,-1.301157,0.17439677,-0.023428563,0.044079795,0.028981846,-0.117841564,-0.40546548,-0.35240474,0.060040507,3.0735192,-0.6274067,-0.00012536449,-0.15614447,-0.027467523,0.002781453,-0.039788283,0.012726469,-0.01940777,0.46042415,-1.3818594,1.9052404,-2.0956619,-1.5670508,2.4376225,-0.10543797,0.27737615,-0.3418876,0.03563516,0.029581359,-0.08580657,-0.38307226,0.095768064,-9.270349,0.9298854,47.66091,-1.0322331,-1.8112268,-3.5022535,-0.011700701,0.10044964,-0.3375665,25.875,26.625,25.8125,28.75,29.5625,30.0
0.3220521,-1.7985566,-0.51472986,0.012623576,0.013006554,0.044689056,-0.114180036,-0.4057521,-0.35245365,0.06001064,3.0735192,-0.627369,-1.6230239e-05,-0.15713337,-0.02720651,0.005066555,-0.0403037,0.015448191,-0.020493582,0.4602319,-1.3812484,1.904559,-2.0955408,-1.5670027,2.437407,-0.106161095,0.2744151,-0.34437895,0.0384315,0.028835436,-0.08544661,-0.57460845,0.019153614,-9.270349,0.87393653,47.667187,-1.0220897,-1.6153771,-3.5893908,-0.042231675,0.078280166,-0.35442823,25.875,26.625,25.8125,28.75,29.5625,30.0
0.324052,-1.8727998,-1.0758809,0.25976694,-0.007136533,0.0650076,-0.11882752,-0.40611276,-0.35251546,0.060063623,3.0733361,-0.62748474,-0.0001777985,-0.15848407,-0.026760597,0.0036035834,-0.03766535,0.0123517895,-0.02197489,0.45999175,-1.3807296,1.9038147,-2.0954921,-1.5669435,2.4372633,-0.10734831,0.28032824,-0.3487149,0.040814754,0.027863758,-0.085146934,-0.49799395,0.076614454,-9.193734,0.8940802,47.6636,-1.0208554,-1.6916385,-3.3970094,-0.04558538,0.08329738,-0.37440833,25.875,26.625,25.8125,28.75,29.5625,30.0
0.32605183,-1.7634649,-0.5833903,-0.040251236,-0.005339085,0.05208033,-0.11742506,-0.4064234,-0.35255763,0.06005974,3.0732632,-0.62760514,-0.0001786353,-0.15816313,-0.025681997,0.0015130413,-0.035334166,0.007886239,-0.024388554,0.4597752,-1.3801638,1.9031357,-2.0954077,-1.5669073,2.4371316,-0.108748265,0.28372967,-0.34845027,0.042190798,0.027765254,-0.08413268,-0.40222588,0.15322891,-9.155427,0.98807013,47.661808,-0.9219687,-1.7732489,-3.529521,-0.05152445,0.0743414,-0.38608223,25.875,26.625,25.8125,28.75,29.5625,30.0
0.32805204,-1.221937,-0.6639512,0.052006025,0.008984178,0.05479914,-0.11612788,-0.40672514,-0.35260534,0.06004046,3.0732028,-0.62764794,-6.591031e-05,-0.15944989,-0.025172992,0.0011758928,-0.03421796,0.0076585375,-0.020605775,0.45954663,-1.3795626,1.9024414,-2.0952885,-1.5668238,2.4369378,-0.11005256,0.28614965,-0.350877,0.042933248,0.026880784,-0.089221105,-0.4405331,0.15322891,-9.155427,0.93436235,47.66091,-0.8584713,-1.9127682,-3.5673463,-0.049281202,0.07288328,-0.3731653,25.875,26.625,25.8125,28.75,29.5625,30.0
0.33005202,-1.4424051,-0.27547684,0.26803723,0.016068576,0.033630073,-0.11345166,-0.40707752,-0.35265413,0.060046818,3.0730855,-0.6277577,-0.00015972262,-0.16063079,-0.025238872,0.00017810764,-0.033336088,0.006803437,-0.020529415,0.45930657,-1.3789724,1.9017233,-2.0952642,-1.5667881,2.436782,-0.11056596,0.2902271,-0.35353538,0.042685274,0.02647931,-0.089807466,-0.36391866,0.21068975,-9.078813,0.97464454,47.647476,-0.83459973,-1.94432,-3.5955853,-0.0069958013,0.058459133,-0.38605452,25.875,26.625,25.8125,28.75,29.5625,30.0
0.33205193,-0.8487162,0.025214748,0.35951266,0.013653274,0.03349269,-0.117969394,-0.4073823,-0.35270393,0.060029197,3.073054,-0.62772876,-0.0001089625,-0.1628034,-0.024387984,0.0010610988,-0.03397523,0.009119937,-0.017322004,0.45910144,-1.3783717,1.9010304,-2.0951684,-1.5667399,2.436563,-0.11349176,0.29028988,-0.35573384,0.04249696,0.026043776,-0.09594111,-0.2681506,0.21068975,-9.059659,0.8537928,47.67614,-0.66405576,-2.0537572,-3.533677,-0.0036163165,0.048716284,-0.36902016,25.875,26.625,25.8125,28.75,29.5625,30.0
0.33405182,-1.3415713,-0.4972458,0.4378771,0.013891021,0.020353742,-0.114274554,-0.40770835,-0.3527488,0.0600304,3.072963,-0.6278016,-0.00010582164,-0.16221595,-0.025665494,0.0011343635,-0.033184182,0.00887887,-0.01007616,0.45886287,-1.377795,1.9003257,-2.095084,-1.5666803,2.436382,-0.11030744,0.29152727,-0.35786,0.043982875,0.025462832,-0.1000021,-0.2681506,0.28730422,-9.002198,0.9097417,47.67166,-0.91775024,-1.8174491,-3.5342593,0.009663215,0.04583171,-0.28428137,25.875,26.625,25.8125,28.75,29.5625,30.0
0.33605248,-0.94859654,-0.47225663,0.3637228,0.013030047,0.015572094,-0.10597637,-0.40803096,-0.3527885,0.06002481,3.0729258,-0.62777436,-9.880867e-05,-0.16325666,-0.023982445,0.0012757631,-0.031041363,0.0072512478,-0.008646362,0.45863366,-1.377206,1.8996185,-2.0949872,-1.566645,2.436141,-0.11322336,0.29226908,-0.36012802,0.047948748,0.024287637,-0.10434921,-0.19153613,0.34476504,-8.887277,0.88289046,47.70032,-0.7486898,-1.8446052,-3.595823,-0.013731019,0.07623356,-0.23485526,25.875,26.625,25.8125,28.75,29.5625,30.0
0.33805227,-0.6026139,-0.28686136,0.49230322,-0.006157754,0.018449206,-0.112833984,-0.408389,-0.35285807,0.060047362,3.072804,-0.62782145,-0.0001965144,-0.1643189,-0.024531808,0.0018177096,-0.030195434,0.008783478,-0.0023701198,0.45841807,-1.3766053,1.8988417,-2.094927,-1.5665973,2.435971,-0.11217863,0.2938941,-0.36366338,0.048896525,0.022879368,-0.10957955,-0.19153613,0.36391866,-8.983045,0.9298854,47.690468,-0.91525364,-1.8066803,-3.4983668,-0.028420161,0.075157255,-0.15638354,25.875,26.625,25.8125,28.75,29.5625,30.0
0.34005266,-0.69555646,-0.79541713,0.07288793,-0.012103141,0.00816929,-0.112197645,-0.4086915,-0.3528954,0.060038608,3.0727963,-0.62776077,-0.00014363887,-0.16475494,-0.024620647,0.0025458084,-0.029530399,0.008485101,0.00024203342,0.4582022,-1.3760287,1.8981475,-2.094794,-1.5665616,2.4357185,-0.11199613,0.29427522,-0.3666554,0.052090023,0.022426732,-0.1120099,-0.095768064,0.34476504,-8.983045,0.95002913,47.695843,-0.9144136,-1.6972775,-3.474185,-0.035029817,0.073837996,-0.105801836,25.875,26.625,25.8125,28.75,29.5625,30.0
0.34205264,-0.701073,-0.98186725,0.18679865,-0.010162175,0.010685707,-0.111204624,-0.4090361,-0.35292393,0.060016192,3.0727692,-0.627852,-0.00012700877,-0.16474874,-0.024433352,0.002427102,-0.028609572,0.0064646592,-0.0010880606,0.45795015,-1.3753793,1.897406,-2.0946977,-1.5665492,2.4355273,-0.11221846,0.29540837,-0.36860228,0.0551255,0.022497823,-0.11090186,-0.1340753,0.4213795,-9.040505,0.8851263,47.687782,-0.9009927,-1.6895483,-3.5192056,-0.085496485,0.07262225,-0.08752621,25.875,26.625,25.8125,28.75,29.5625,30.0
0.3440525,0.18109772,-0.67114294,0.34765714,-0.010912934,0.023586957,-0.11308969,-0.4093549,-0.3529655,0.059990726,3.0727136,-0.62791777,5.5467062e-06,-0.1634979,-0.023581235,0.00037216968,-0.02473147,-0.000528229,-0.0034470335,0.4576983,-1.3747416,1.8966764,-2.0945637,-1.5664653,2.435324,-0.112244606,0.29926035,-0.36994147,0.06060622,0.022110974,-0.10857048,-0.019153614,0.34476504,-9.021352,0.9634547,47.668976,-0.9699192,-1.8126585,-3.504198,-0.14786178,0.089280054,-0.07348521,25.875,26.625,25.8125,28.75,29.5625,30.0
0.3460524,-0.28142643,-0.30168062,0.21828668,-0.0024030842,-0.005983062,-0.10958784,-0.40968993,-0.3530254,0.060021874,3.072634,-0.627883,-7.4402284e-05,-0.16454937,-0.024193484,0.00047051566,-0.024503762,0.0007530513,-0.005989107,0.45749444,-1.3741881,1.895924,-2.0944564,-1.56643,2.4351091,-0.111483715,0.30134615,-0.37270895,0.060236167,0.021334624,-0.10526591,0.05746084,0.3256114,-9.078813,0.9321212,47.651955,-1.01142,-1.8232077,-3.4842877,-0.1631546,0.10277165,-0.08571522,25.875,26.625,25.8125,28.75,29.5625,30.0
0.3480524,-0.1539075,-0.39568016,0.48298165,-0.0021002393,-0.0020501907,-0.1097382,-0.41003212,-0.3530654,0.0600042,3.072622,-0.6278656,-7.309124e-05,-0.16618942,-0.02267795,-0.00036833677,-0.02334096,-0.00067983015,-0.01430842,0.45726517,-1.3735386,1.8951706,-2.09436,-1.566418,2.434871,-0.115070336,0.3040496,-0.37437215,0.06098252,0.020909294,-0.10053324,-0.05746084,0.3256114,-9.097966,0.88289046,47.657326,-0.8923981,-1.8701828,-3.55555,-0.16980325,0.108683735,-0.11637831,25.875,26.625,25.8125,28.75,29.5625,30.0
0.35005233,-0.072462566,0.10759227,0.41434604,-0.002619209,0.00037127276,-0.1193261,-0.4103676,-0.35311723,0.059996378,3.0725138,-0.6279389,2.102112e-05,-0.16455421,-0.02391634,-0.0020038178,-0.021730427,-0.004672081,-0.013690533,0.4570025,-1.3729126,1.8944172,-2.0942404,-1.5663098,2.4346683,-0.111623056,0.3075255,-0.375388,0.062818676,0.021221295,-0.09770273,0.076614454,0.2681506,-9.021352,0.9388393,47.639416,-1.0664831,-1.9677119,-3.6180444,-0.21378672,0.10300382,-0.16823131,25.875,26.625,25.8125,28.75,29.5625,30.0
0.3520522,-0.06042676,-0.3421636,0.3257273,0.01436109,0.0013464161,-0.11144923,-0.41067266,-0.35314557,0.05996325,3.0725217,-0.62807953,0.00012561117,-0.16699666,-0.022997368,-0.001331872,-0.02222448,-0.0034846708,-0.022279171,0.45678526,-1.3722761,1.8936995,-2.094084,-1.5662979,2.4345381,-0.115069956,0.30874944,-0.37874076,0.06364751,0.021112204,-0.0925617,0.1340753,0.22984336,-9.059659,0.90750587,47.693153,-0.86110765,-1.9830344,-3.5925927,-0.24963619,0.115654714,-0.213043,25.875,26.625,25.8125,28.75,29.5625,30.0
0.35405204,-0.4338111,-0.4497743,0.29739007,0.0014558195,-0.004632568,-0.10225182,-0.41098878,-0.3531948,0.05994754,3.0724816,-0.62807137,0.00022862131,-0.16859014,-0.023825897,-0.0011445349,-0.022501508,-0.0025374452,-0.023725992,0.45655748,-1.3716499,1.8929576,-2.0939405,-1.5662259,2.4343107,-0.114758216,0.31188005,-0.38313878,0.063947,0.020927383,-0.09080231,-0.05746084,0.30645782,-9.078813,0.90527004,47.66808,-0.98039687,-2.1040444,-3.5007415,-0.2681345,0.12233662,-0.27339336,25.875,26.625,25.8125,28.75,29.5625,30.0
0.35605195,-0.2132939,-0.593151,0.27368456,-0.011671891,0.0087282425,-0.10355988,-0.41138354,-0.35326058,0.05998982,3.0723603,-0.62818056,6.524202e-05,-0.17073321,-0.023839459,-0.00012529283,-0.02380481,5.767713e-06,-0.025354171,0.456329,-1.3710251,1.8920959,-2.0938447,-1.566214,2.4341667,-0.11642941,0.31262892,-0.386452,0.06366011,0.020983309,-0.09084133,0.0,0.24899697,-9.040505,0.8717007,47.658226,-0.9123986,-2.072978,-3.4371653,-0.29238665,0.12298638,-0.27604368,25.875,26.625,25.8125,28.75,29.5625,30.0
0.35805193,0.011437962,-0.19442542,0.036536753,-0.01131929,0.013731986,-0.11989982,-0.41170132,-0.3532813,0.059973005,3.0723681,-0.6282424,0.00013878978,-0.17305812,-0.024298439,0.0016972763,-0.026205132,0.0040064985,-0.029474737,0.45608845,-1.3704126,1.8913664,-2.0936773,-1.5662016,2.433964,-0.11770058,0.3122388,-0.39017165,0.06311299,0.021354984,-0.08799123,0.05746084,0.24899697,-9.174581,0.9030289,47.635834,-0.890674,-2.054658,-3.4154582,-0.3058826,0.14880754,-0.33203626,25.875,26.625,25.8125,28.75,29.5625,30.0
0.36005202,-0.37225106,-0.7520134,-0.35847986,-0.011926714,0.013007014,-0.10722253,-0.412019,-0.35332087,0.05994295,3.0722802,-0.62845504,0.0002673597,-0.17365217,-0.023913253,0.0009926223,-0.025886495,0.0035973703,-0.03165058,0.45583627,-1.3697758,1.8906487,-2.0935576,-1.5661176,2.4338562,-0.11864913,0.31387034,-0.3905293,0.062354475,0.02124259,-0.086764984,-0.05746084,0.3256114,-9.32781,0.88960326,47.655537,-0.8249891,-1.9157339,-3.3371494,-0.30449528,0.1548176,-0.37328905,25.875,26.625,25.8125,28.75,29.5625,30.0
0.36205193,-1.124277,-1.3977488,-0.5007877,-0.017806869,0.010081953,-0.100746736,-0.41233572,-0.35335663,0.059907027,3.0723054,-0.6284602,0.00041253827,-0.17307784,-0.023690803,-0.0011449611,-0.024582712,0.0009341341,-0.032113746,0.4556084,-1.3691013,1.8898853,-2.0933788,-1.5660819,2.4336286,-0.118410565,0.31691587,-0.38918674,0.060936537,0.021236386,-0.08606555,-0.1340753,0.3256114,-9.442732,0.92093146,47.695843,-0.832621,-1.9120804,-3.7209303,-0.32740492,0.15919231,-0.41866267,25.875,26.625,25.8125,28.75,29.5625,30.0
0.36405185,-1.2209115,-1.6944971,-0.54366016,-0.03337019,0.03572641,-0.10606335,-0.41270292,-0.35343125,0.05991299,3.0722163,-0.6285356,0.00036019142,-0.1734939,-0.02422121,-0.0014969831,-0.025569217,0.0020104032,-0.030505724,0.45540458,-1.3684287,1.889048,-2.093284,-1.5660461,2.4334838,-0.117975056,0.31795093,-0.3892857,0.058611535,0.02165548,-0.08723595,-0.21068975,0.4405331,-9.595961,0.9791215,47.66539,-0.9148853,-2.0465832,-3.8491802,-0.3241226,0.17218342,-0.46370977,25.875,26.625,25.8125,28.75,29.5625,30.0
0.3660518,-1.5640738,-1.6694739,-0.70494515,-0.04583902,0.05462961,-0.11018801,-0.41304025,-0.35346305,0.059914213,3.072163,-0.62861866,0.00038411477,-0.17542571,-0.02535796,-0.0011018477,-0.027470075,0.0047284025,-0.026717711,0.45515263,-1.3678274,1.888295,-2.0931408,-1.5660094,2.433291,-0.11783528,0.32042247,-0.39280042,0.05640198,0.022171205,-0.09088165,-0.22984336,0.49799395,-9.615114,0.9679317,47.67614,-1.0013316,-2.0103993,-3.8453474,-0.30806172,0.17429757,-0.46721628,25.875,26.625,25.8125,28.75,29.5625,30.0
0.36805162,-1.8038039,-1.8367294,-1.0024244,-0.046648834,0.06800311,-0.10673665,-0.4133938,-0.35352233,0.059895985,3.0720978,-0.62862086,0.00044142365,-0.17740569,-0.025810134,-0.0014380337,-0.028775675,0.0062191286,-0.022329265,0.45491236,-1.3671417,1.8874935,-2.093034,-1.5659374,2.433061,-0.118905455,0.32365888,-0.39556837,0.05405705,0.022700319,-0.09633797,-0.24899697,0.59376204,-9.749189,0.9097417,47.64121,-1.0635222,-2.1347454,-3.8081312,-0.29014364,0.17851077,-0.4376679,25.875,26.625,25.8125,28.75,29.5625,30.0
0.37005252,-1.4559432,-1.4510356,-1.0442246,-0.05796973,0.074159175,-0.10898354,-0.41375908,-0.35358176,0.059905782,3.0720246,-0.6286574,0.00040453434,-0.1790648,-0.027991004,-0.0014692264,-0.030255293,0.00876095,-0.011856353,0.4546851,-1.3664917,1.8866676,-2.0929153,-1.5659016,2.4328663,-0.11658323,0.32795212,-0.40024725,0.051556643,0.022934403,-0.10448494,-0.28730422,0.63206923,-9.902418,0.94331104,47.64389,-1.0547413,-2.2004633,-3.7004008,-0.25577644,0.18773606,-0.38063926,25.875,26.625,25.8125,28.75,29.5625,30.0
0.37205252,-1.4181201,-2.2380683,-1.0927305,-0.061320655,0.07638068,-0.10941119,-0.41411597,-0.3536314,0.05989623,3.0719807,-0.6286665,0.00038537604,-0.1830805,-0.027155204,4.43395e-05,-0.031991303,0.013461619,-0.01221625,0.45445564,-1.3658307,1.8858775,-2.09282,-1.5658773,2.4326487,-0.12091462,0.32891312,-0.40469182,0.050083738,0.022439443,-0.108455315,-0.2681506,0.59376204,-9.921572,0.8806493,47.65912,-1.0031092,-2.3232913,-3.6263762,-0.23408656,0.20204622,-0.33940405,25.875,26.625,25.8125,28.75,29.5625,30.0
0.3740524,-1.3996905,-1.7089226,-1.0696256,-0.063866034,0.0536563,-0.11345685,-0.41448638,-0.35369727,0.059922326,3.0718641,-0.6286935,0.00028832603,-0.1827114,-0.027371764,-0.00080358464,-0.03089817,0.013551872,-0.0024517425,0.45422837,-1.3652176,1.8850664,-2.0927365,-1.5658296,2.4324539,-0.11948754,0.33009273,-0.40405288,0.048718773,0.021463564,-0.116792865,-0.24899697,0.47884035,-9.940725,0.91421866,47.66539,-1.0014313,-2.280083,-3.7239256,-0.20788172,0.21825032,-0.22726524,25.875,26.625,25.8125,28.75,29.5625,30.0
