Tylouw/Master_Thesis_Code/training_data/batch_1/small_rod_t0.1/sample_23_session_1.csv
timestamp[s],tcp_force_x[N],tcp_force_y[N],tcp_force_z[N],tcp_force_rx[Nm?],tcp_force_ry[Nm?],tcp_force_rz[Nm?],tcp_pose_x[m],tcp_pose_y[m],tcp_pose_z[m],tcp_pose_rx[rot_vec_x],tcp_pose_ry[rot_vec_y],tcp_pose_rz[rot_vec_z],tcp_velo_x[m/s],tcp_velo_y[m/s],tcp_velo_z[m/s],tcp_velo_rx[rot_vec_x/s],tcp_velo_ry[rot_vec_y/s],tcp_velo_rz[rot_vec_z/s],q1[rad],q2[rad],q3[rad],q4[rad],q5[rad],q6[rad],qd1[rad/s],qd2[rad/s],qd3[rad/s],qd4[rad/s],qd5[rad/s],qd6[rad/s],tool_acc_x,tool_acc_y,tool_acc_z,current_of_whole_robot[A],voltage_of_whole_robot[V],current_J1[A],current_J2[A],current_J3[A],current_J4[A],current_J5[A],current_J6[A],temp_J1[C],temp_J2[C],temp_J3[C],temp_J4[C],temp_J5[C],temp_J6[C]
7.089984e-07,-0.29123572,-0.062361177,1.3155358,-0.012427411,0.0015189247,-0.019415466,-0.38106138,-0.34853142,0.05997921,-3.0785267,0.62484074,-0.00014920376,0.002584201,0.0013177921,-0.0022917688,0.00257437,-0.0052519967,6.9719514e-05,0.47781014,-1.425946,1.9577035,-2.1008208,-1.5707697,2.4527402,-4.0937695e-05,-8.219158e-06,0.005066583,0.0007886972,0.00014169315,-0.00011362414,0.038307227,0.1340753,-8.6574335,0.75084364,47.72629,0.058752548,-2.7390652,-2.4844713,-0.4639556,0.1526207,0.061336633,25.375,25.875,25.125,27.625,28.25,28.5625
0.002054966,0.07974932,-0.1662878,1.1884817,-0.0076152957,0.011322352,-0.021798937,-0.38106993,-0.34854043,0.059975114,-3.0785632,0.6248673,-0.000100205005,-0.0005844205,-0.0003339747,-0.0035823504,-0.0011435401,0.0018700637,7.641681e-05,0.47781014,-1.4259442,1.9577283,-2.1008976,-1.5707573,2.452752,-3.933927e-05,0.004803227,0.0055708713,-0.012561105,0.00013857696,-0.00011551892,-0.019153614,0.15322891,-8.714894,0.74413085,47.694946,0.074033916,-2.821207,-2.5461662,-0.3927685,0.1444897,0.056049556,25.375,25.875,25.125,27.625,28.25,28.5625
0.004055159,0.18214132,-0.08698403,1.166223,-0.007011908,0.01099965,-0.022292946,-0.38107622,-0.3485411,0.059968807,-3.078554,0.62492293,-0.0001250993,-0.0013969358,-0.0007566876,-0.0029981695,-0.0020988805,0.0037113156,7.623568e-05,0.4777981,-1.4259202,1.9577154,-2.1008976,-1.5707458,2.452776,-3.8488684e-05,0.0048492146,0.0043995306,-0.013510082,0.00013559434,-0.00011369394,0.038307227,0.095768064,-8.676587,0.8314132,47.704796,0.086060435,-3.1495128,-2.6737282,-0.31356314,0.15793453,0.05049794,25.375,25.875,25.125,27.625,28.25,28.5625
0.006054277,0.037406337,0.325657,1.1613659,0.019164028,-0.012286709,-0.017587546,-0.381063,-0.34852552,0.0599537,-3.0785172,0.62489635,-0.00014602653,-0.00071387604,-0.00040327365,-0.001902941,-0.0011412686,0.001868295,7.4426694e-05,0.4777981,-1.425921,1.9577502,-2.1008952,-1.5707697,2.452764,-3.7682777e-05,0.0029635492,0.0027739925,-0.00792194,0.00014206303,-0.00011169536,0.019153614,0.05746084,-8.523358,0.7777002,47.704796,0.096123874,-3.0527668,-2.611454,-0.3333398,0.16954143,0.0527456,25.375,25.875,25.125,27.625,28.25,28.5625
0.008055011,1.0148388,1.3539659,0.72770965,0.03881733,-0.012665679,-0.03139358,-0.38107297,-0.34855288,0.059982836,-3.0785828,0.6248904,-8.262809e-05,-0.00032783044,-0.00020397274,-0.00054345414,-0.0010798568,0.0017509593,7.257663e-05,0.47782207,-1.4259459,1.9577144,-2.1009057,-1.5707458,2.452776,-3.691006e-05,0.00033800068,0.0018132941,-0.0042032734,0.00014794015,-0.000109750596,0.038307227,0.17238252,-8.791509,0.7351769,47.689575,0.10066719,-2.8984027,-2.564567,-0.36706096,0.155235,0.03748256,25.375,25.875,25.125,27.625,28.25,28.5625
0.010055665,0.76337576,1.3039057,0.22381034,0.03223593,-0.016342284,-0.026547238,-0.38104385,-0.34851554,0.05993559,-3.0784838,0.6248705,-0.00021944722,-0.00039119387,-0.00023656125,4.471849e-05,-0.00086413475,0.0013441549,7.166303e-05,0.4777981,-1.42591,1.9577731,-2.100869,-1.5707697,2.452752,-3.616847e-05,4.5347106e-06,0.0003311524,-0.0019272126,0.00014552465,-0.000107871405,0.019153614,0.1340753,-9.078813,0.7239871,47.711964,-0.06022446,-2.148947,-3.263596,-0.38488397,0.134669,0.024444591,25.375,25.875,25.125,27.625,28.25,28.5625
0.012055072,0.30665913,0.01499014,0.1620377,-0.00093465426,0.0061777704,-0.02353532,-0.38105398,-0.34852535,0.059934404,-3.0784764,0.62490726,-0.00025031503,-0.0007759055,-0.00042432066,-0.0039738864,0.0029978964,-0.0061198026,5.601853e-05,0.47779807,-1.42587,1.9577249,-2.1008456,-1.5707573,2.452776,-6.460565e-05,0.011003052,-0.0032430834,-0.0009475656,0.00014267825,-0.00011730172,0.19153613,0.11492168,-9.251195,0.7486078,47.67614,-0.13572007,-2.2418945,-3.4162846,-0.3764748,0.13482253,0.015395753,25.375,25.875,25.125,27.625,28.25,28.5625
0.01405466,-0.6687868,-0.9484878,0.08094457,-0.025422255,0.014890352,-0.01856124,-0.38106373,-0.34851515,0.059910208,-3.0784345,0.6248413,-0.00020585085,-0.0040269834,-0.001873222,-0.0036892386,0.0029205033,-0.0059979167,-0.00031801214,0.47780997,-1.4258196,1.9577335,-2.1008923,-1.5708174,2.452752,-0.0005038842,0.018204512,-0.012547405,0.0010114439,0.0001399082,-0.00017709183,-0.038307227,0.2681506,-9.3661175,0.6948948,47.6421,-0.29020426,-2.7967453,-3.170692,-0.3868658,0.12165889,-0.00033689942,25.375,25.875,25.125,27.625,28.25,28.5625
0.01605403,-1.1640856,-1.3739319,-0.31067303,-0.05047983,0.04043138,-0.018646989,-0.3810728,-0.34851828,0.059913214,-3.078451,0.6249231,-0.00032174675,-0.005038179,-0.0003893996,-0.003623835,0.003659628,-0.007379891,-0.002375565,0.47776058,-1.4257957,1.9576854,-2.1008313,-1.5707458,2.4527516,-0.0040653097,0.018457418,-0.013501466,0.0032795446,0.00012122813,-0.0016808681,-0.30645782,0.40222588,-9.557653,0.80679786,47.7451,-0.10834238,-2.5230856,-3.297702,-0.3871817,0.12643972,-0.007840086,25.375,25.875,25.125,27.625,28.25,28.5625
0.018054519,-1.0426728,-1.5960368,-0.507914,-0.063694656,0.06273688,-0.031587206,-0.3810326,-0.34852198,0.059892,-3.0784316,0.6248023,-0.0004361426,-0.0051616477,5.572234e-05,-0.0037899758,0.0042130575,-0.008440223,-0.000291105,0.47779638,-1.4257835,1.9577092,-2.1007836,-1.5707334,2.4527144,-0.0049696616,0.01889391,-0.013877004,0.0044142855,0.00011791459,-0.004669653,-0.24899697,0.51714754,-9.691729,0.7597976,47.677036,-0.08395225,-2.3511584,-3.5192373,-0.38729733,0.1082955,0.009906225,25.375,25.875,25.125,27.625,28.25,28.5625
0.020054538,-1.803752,-2.068826,-0.49785239,-0.054942988,0.04889775,-0.015318058,-0.3810512,-0.34851152,0.05987154,-3.0784016,0.6249106,-0.0004517167,-0.006062891,-0.0006293954,-0.0037776455,0.0042283735,-0.008479167,0.00176792,0.4777605,-1.4257346,1.9577082,-2.1008189,-1.5707334,2.45275,-0.0045865714,0.021457149,-0.016953787,0.0049692392,0.00011568112,-0.006343735,-0.38307226,0.59376204,-9.787497,0.7732232,47.71823,-0.20890436,-2.3892674,-3.4956937,-0.37973487,0.089982934,0.013580019,25.375,25.875,25.125,27.625,28.25,28.5625
0.022054596,-2.0108912,-1.9611474,-0.6703945,-0.05211714,0.045230173,-0.02104598,-0.3810916,-0.34852394,0.059889585,-3.0784025,0.6248527,-0.000413006,-0.006662316,-0.0011719592,-0.0036683506,0.0040204357,-0.008026462,0.0024300597,0.47776064,-1.4256742,1.9575871,-2.1007707,-1.5707573,2.452714,-0.0041600093,0.022862945,-0.018792823,0.004904766,8.805197e-05,-0.006578094,-0.63206923,0.6703765,-9.844957,0.73741806,47.690468,-0.28652015,-2.357345,-3.5609288,-0.37087077,0.07785733,0.015518852,25.375,25.875,25.125,27.625,28.25,28.5625
0.024054509,-1.3868499,-1.4011121,-0.75819457,-0.061487664,0.061491057,-0.03172486,-0.3810721,-0.348516,0.05984364,-3.078346,0.6247832,-0.0005168069,-0.008051248,-0.0015843917,-0.002983763,0.0032622889,-0.006519141,0.0023244752,0.4777725,-1.4256021,1.95761,-2.1007707,-1.5707697,2.4526896,-0.0046970355,0.02395665,-0.021614486,0.004945526,6.149598e-05,-0.007007902,-0.45968673,0.6895301,-9.749189,0.77545905,47.682407,-0.34665,-2.2850008,-3.447435,-0.37009037,0.07771533,-0.003847598,25.375,25.875,25.125,27.625,28.25,28.5625
0.026054986,-1.1838075,-1.2518996,-0.6411116,-0.06321873,0.05864013,-0.037851445,-0.38108364,-0.34851694,0.059831154,-3.078331,0.62479997,-0.00059883174,-0.009255011,-0.0012826412,-0.0024783688,0.0030222344,-0.005996116,0.0012722826,0.477748,-1.425542,1.9575619,-2.100735,-1.5707458,2.4526775,-0.006328214,0.024527667,-0.023616616,0.005801997,3.0994703e-05,-0.0075858994,-0.4213795,0.5554548,-9.80665,0.7732232,47.682407,-0.3588066,-2.2712932,-3.6077156,-0.3723077,0.059686944,0.0026269956,25.375,25.875,25.125,27.625,28.25,28.5625
0.028054843,-0.8896982,-1.0489951,-0.53353107,-0.055099577,0.053904902,-0.045685373,-0.3811186,-0.34851512,0.059830878,-3.0783117,0.62483406,-0.0005335616,-0.01094296,-0.0015840514,-0.0016538643,0.0022755913,-0.004505786,0.0014718318,0.4777356,-1.4254936,1.9575127,-2.1007588,-1.5707816,2.452689,-0.0073369704,0.025783045,-0.027049974,0.006312833,2.0237326e-06,-0.008792317,-0.5554548,0.4213795,-9.691729,0.7642693,47.705692,-0.4388287,-2.282267,-3.5231562,-0.3539033,0.056754753,0.024508275,25.375,25.875,25.125,27.625,28.25,28.5625
0.030053813,-0.44603163,-0.73228586,-0.4489584,-0.029830715,0.062902175,-0.06087424,-0.381158,-0.3485153,0.059835248,-3.0783005,0.62488973,-0.00053364626,-0.011932251,-0.0017945537,-0.0017077018,0.002130187,-0.0042317025,0.0011298016,0.4776994,-1.425433,1.9574283,-2.100735,-1.5707816,2.452689,-0.007877583,0.027647916,-0.029004412,0.00609212,1.3213527e-07,-0.008989571,-0.5554548,0.40222588,-9.691729,0.7351769,47.670765,-0.37067664,-2.2544944,-3.5604844,-0.35135728,0.042102985,0.013225038,25.375,25.875,25.125,27.625,28.25,28.5625
0.03205475,-1.2320262,-0.14549926,-0.3257946,-0.005710564,0.041510187,-0.059382074,-0.381173,-0.34854072,0.059834667,-3.078339,0.6248221,-0.0005163672,-0.013223503,-0.0018802482,-0.0015263319,0.0018663048,-0.0037312214,-0.00031718487,0.4777229,-1.4253845,1.9573797,-2.1007588,-1.5707697,2.4526653,-0.0089219315,0.029373866,-0.031415425,0.0062115835,8.627489e-09,-0.008585468,-0.40222588,0.22984336,-9.672575,0.75755644,47.690468,-0.30354798,-2.2257924,-3.5755565,-0.32419175,0.030743804,-0.0046388595,25.375,25.875,25.125,27.625,28.25,28.5625
0.034054805,-0.618478,0.48757797,-0.20852245,0.007352616,0.040411044,-0.08202908,-0.3812039,-0.34854996,0.059824936,-3.0783288,0.6248395,-0.00052926864,-0.015072974,-0.0024700717,-0.00046415863,0.0009449991,-0.0019679538,-0.0008673322,0.4777107,-1.4253001,1.9573058,-2.1007588,-1.5707697,2.4526653,-0.009586216,0.030840473,-0.03570836,0.0070484485,5.633134e-10,-0.008697378,-0.3256114,0.019153614,-9.634268,0.7933669,47.67614,-0.41543776,-2.2447066,-3.468507,-0.31783798,0.023655746,-0.013418297,25.375,25.875,25.125,27.625,28.25,28.5625
0.036054324,-0.868903,0.51990783,-0.20410638,0.023116611,0.02211631,-0.07940515,-0.38125,-0.34854892,0.059833232,-3.0783393,0.6248802,-0.0005536593,-0.016028445,-0.0025747262,-0.000573803,0.0011183579,-0.0023114195,-0.001316316,0.4776506,-1.4252396,1.9572095,-2.1007226,-1.5707458,2.4526293,-0.010283749,0.03296357,-0.038008194,0.0076100742,3.6780343e-11,-0.008944546,-0.21068975,0.0,-9.615114,0.82022345,47.699425,-0.38875586,-2.2409272,-3.4318576,-0.29647425,0.018321443,-0.011079277,25.375,25.875,25.125,27.625,28.25,28.5625
0.03805447,-0.41027597,0.5768496,-0.046191826,0.019867554,0.031160116,-0.09583734,-0.38129565,-0.34855685,0.0598311,-3.078324,0.6248587,-0.0005309565,-0.017660508,-0.0024762065,5.4221917e-05,0.0014074304,-0.0010335803,-0.0025154355,0.47763816,-1.4251432,1.9571017,-2.1007102,-1.5707701,2.4526055,-0.011417371,0.03431064,-0.041167665,0.008423412,-0.00084905635,-0.008875677,-0.11492168,0.0,-9.595961,0.77545905,47.69763,-0.39044988,-2.1569974,-3.4395819,-0.28913292,0.008298054,-0.028486975,25.375,25.875,25.125,27.625,28.25,28.5625
0.04005422,-0.58868545,0.4110297,-0.23932114,0.019310659,0.021963457,-0.099948324,-0.3813312,-0.34855074,0.05983031,-3.0782888,0.62494737,-0.00053450087,-0.017952235,-0.0024025294,-0.00020667413,0.002416522,-0.0022334505,-0.0025863727,0.47760212,-1.4250827,1.9570287,-2.1006854,-1.5707821,2.4526293,-0.011593731,0.035977807,-0.042818967,0.0099380845,-0.0011940047,-0.00897959,-0.038307227,-0.11492168,-9.576807,0.78217715,47.71286,-0.50158066,-2.1775894,-3.3910184,-0.29770166,0.008873699,-0.043940883,25.375,25.875,25.125,27.625,28.25,28.5625
0.042054135,-0.3035773,0.40971,-0.21446657,0.005564414,0.02364435,-0.10692667,-0.38136217,-0.34858447,0.059846163,-3.078342,0.6248429,-0.0005035463,-0.019276539,-0.0022076035,0.0005197184,0.0024518718,-0.0021778385,-0.0034821176,0.47762564,-1.4250224,1.956921,-2.100673,-1.5707701,2.452581,-0.013127906,0.036949355,-0.046109196,0.012223865,-0.0012527393,-0.00961659,-0.1340753,0.076614454,-9.500193,0.7418897,47.691364,-0.4443003,-2.2071056,-3.3716998,-0.3076161,-0.03694784,-0.04479588,25.375,25.875,25.125,27.625,28.25,28.5625
0.04405431,-0.2614371,-0.35630637,-0.17929043,0.016014691,0.023348799,-0.113033935,-0.38142052,-0.34858552,0.059858248,-3.0783474,0.6249794,-0.00047188473,-0.020142183,-0.0023342846,0.00061431597,0.0025341166,-0.001929136,-0.003759925,0.4775654,-1.4249622,1.9568247,-2.100673,-1.5707577,2.4526052,-0.0135774845,0.03839929,-0.04805176,0.012534132,-0.0014434841,-0.009786885,-0.17238252,0.076614454,-9.500193,0.7418897,47.693153,-0.44815168,-2.0695648,-3.3558202,-0.30065542,-0.027167331,-0.043252643,25.375,25.875,25.125,27.625,28.25,28.5625
0.04605394,-0.57960844,-0.28856933,-0.38447124,0.0012874296,0.020580014,-0.109015994,-0.38142514,-0.3485814,0.05984431,-3.078294,0.62491006,-0.0005099558,-0.020674504,-0.0022696776,-0.0003766958,0.0038579206,-0.004073765,-0.0036369832,0.47757727,-1.4249008,1.9567755,-2.1006248,-1.570794,2.4525807,-0.0140623,0.041964684,-0.05007684,0.01350719,-0.0016364586,-0.010392773,-0.095768064,0.095768064,-9.5385,0.7620334,47.6421,-0.5197242,-2.2514791,-3.400754,-0.30653214,-0.042214707,-0.046970345,25.375,25.875,25.125,27.625,28.25,28.5625
0.04805462,-0.931125,-0.7631392,-0.20926993,0.0032184198,0.01670839,-0.12543052,-0.3814731,-0.34857246,0.05983525,-3.0782256,0.6249157,-0.0005469691,-0.022476217,-0.00214555,0.00039082012,0.0038602003,-0.0017868789,-0.0044520693,0.47754082,-1.4247808,1.956643,-2.1005523,-1.5708307,2.4525566,-0.015258908,0.042819336,-0.05276678,0.01331581,-0.0026968264,-0.010770449,-0.1340753,0.17238252,-9.519346,0.75084364,47.690468,-0.4139862,-2.1790338,-3.3927107,-0.31657735,-0.039985165,-0.059123088,25.375,25.875,25.125,27.625,28.25,28.5625
0.05005427,-0.9611057,-1.0023389,-0.21299434,-0.015382807,0.024083534,-0.13595414,-0.3815223,-0.34857967,0.059846345,-3.0782516,0.6249605,-0.00054023764,-0.023493705,-0.0020625493,0.0013338656,0.0038301896,-0.00026426386,-0.005257482,0.47749257,-1.4247209,1.9565467,-2.1005409,-1.5708069,2.452533,-0.01590566,0.042514093,-0.054797348,0.014288138,-0.0033718294,-0.010609677,-0.1340753,0.2681506,-9.595961,0.8023209,47.692257,-0.37886176,-1.9903569,-3.3869734,-0.33100384,-0.052943334,-0.08418327,25.375,25.875,25.125,27.625,28.25,28.5625
0.05205412,-0.8104289,-1.3608272,-0.1306441,-0.028520983,0.029541085,-0.13892548,-0.38155544,-0.3485769,0.05983833,-3.0782037,0.6250079,-0.0006146148,-0.023982733,-0.0023942362,0.0007880464,0.004308041,-0.0011876038,-0.004684125,0.47745663,-1.4246243,1.9564384,-2.1004689,-1.5708064,2.4525328,-0.015765358,0.045146678,-0.056606095,0.014503776,-0.003376346,-0.011041243,-0.19153613,0.40222588,-9.615114,0.79560274,47.672558,-0.48173475,-2.0528324,-3.4260745,-0.3270902,-0.052660123,-0.08639276,25.375,25.875,25.125,27.625,28.25,28.5625
0.05405424,-1.1889354,-1.5280069,-0.22978616,-0.03977512,0.018999148,-0.14313713,-0.3816385,-0.34860152,0.059872113,-3.0782776,0.62504095,-0.00052033464,-0.0264162,-0.003276452,0.0022886768,0.0027228575,0.002015952,-0.0047085797,0.47740835,-1.4245518,1.9562811,-2.1004803,-1.570783,2.4524958,-0.016396537,0.046567313,-0.061677188,0.014580765,-0.003450538,-0.011645388,-0.17238252,0.40222588,-9.634268,0.79560274,47.692257,-0.44789314,-2.0565798,-3.3319817,-0.33863136,-0.07019645,-0.09204672,25.375,25.875,25.125,27.625,28.25,28.5625
0.05605404,-1.0997235,-1.6355438,-0.4065786,-0.044776034,0.027270673,-0.15371849,-0.38167188,-0.34860563,0.059853774,-3.0782325,0.6250697,-0.0005954229,-0.02531993,-0.0029111179,-0.00047788856,0.005688655,-0.0026193652,-0.0038048872,0.47738466,-1.4244305,1.9561738,-2.100433,-1.570783,2.4524958,-0.015706178,0.05102031,-0.06037919,0.014311234,-0.003953697,-0.011857354,-0.15322891,0.4405331,-9.615114,0.79560274,47.691364,-0.5148736,-2.1755345,-3.499208,-0.34599483,-0.07954469,-0.10468122,25.375,25.875,25.125,27.625,28.25,28.5625
0.05805525,-1.0833461,-1.6448989,-0.13662077,-0.043048754,0.033304207,-0.15949896,-0.38171172,-0.348597,0.059857454,-3.0782146,0.6250283,-0.0005851573,-0.027482249,-0.0031942634,0.0010361535,0.0045288834,0.001096954,-0.004499132,0.47734827,-1.4243706,1.9560889,-2.1003969,-1.5708073,2.452436,-0.016753936,0.05101982,-0.06373316,0.013833959,-0.004639804,-0.0122076,-0.21068975,0.57460845,-9.481039,0.7553206,47.67345,-0.47876334,-2.1623373,-3.469791,-0.3278165,-0.08648029,-0.09508938,25.375,25.875,25.125,27.625,28.25,28.5625
0.060054556,-0.99683553,-1.2660936,0.073726095,-0.03940506,0.035626385,-0.16100909,-0.38179305,-0.3486172,0.05987869,-3.0782142,0.6250284,-0.0004354724,-0.030496052,-0.003976292,0.003103725,0.0036095534,0.0068817995,-0.005046708,0.4773482,-1.4242626,1.9559201,-2.1004097,-1.5708679,2.4524362,-0.016945142,0.051709674,-0.06903574,0.01289222,-0.006493439,-0.011844843,-0.21068975,0.51714754,-9.442732,0.8247004,47.683304,-0.43212205,-1.9849999,-3.3673701,-0.32482272,-0.061206628,-0.07967824,25.375,25.875,25.125,27.625,28.25,28.5625
0.062054668,-0.8225084,-1.3091283,-0.021871068,-0.023246698,0.036721893,-0.17076011,-0.38183975,-0.34862295,0.0598691,-3.078213,0.6250476,-0.00048924284,-0.030740006,-0.0033671558,0.0014411245,0.0065020043,0.004650615,-0.0060763345,0.47730002,-1.4241534,1.9558119,-2.100386,-1.5708445,2.4524002,-0.01724785,0.05554697,-0.06963947,0.012974991,-0.008038431,-0.0111136865,-0.17238252,0.47884035,-9.404425,0.77545905,47.661808,-0.48836786,-2.042472,-3.2849512,-0.31190377,-0.05045084,-0.10759117,25.375,25.875,25.125,27.625,28.25,28.5625
0.06405467,-0.8796796,-1.358535,-0.029319886,-0.015565379,0.035064865,-0.1663747,-0.38190508,-0.34865004,0.059902888,-3.0782456,0.62507343,-0.00041627404,-0.032275006,-0.0032894197,0.0016874891,0.007672254,0.006079163,-0.0064725047,0.47728798,-1.4240808,1.9556435,-2.1003497,-1.570845,2.4524002,-0.017698457,0.057577137,-0.07255984,0.013139956,-0.009739408,-0.011163442,-0.11492168,0.40222588,-9.423578,0.7284641,47.68599,-0.47899023,-2.1397624,-3.4618814,-0.32564545,-0.028905937,-0.11729829,25.375,25.875,25.125,27.625,28.25,28.5625
0.06605445,-0.7880622,-1.1230215,0.29033384,-0.018221408,0.032338925,-0.15279832,-0.38198897,-0.34865338,0.05990234,-3.078225,0.6251456,-0.00033688988,-0.033838842,-0.003520028,0.0022972068,0.008522629,0.00840907,-0.0063681197,0.47724015,-1.4239485,1.955499,-2.100373,-1.5708817,2.4524002,-0.01754058,0.05913161,-0.075718105,0.013070584,-0.011571424,-0.011104858,-0.1340753,0.40222588,-9.442732,0.75084364,47.684196,-0.46550202,-2.0463428,-3.1896515,-0.2855813,-0.02774062,-0.12039286,25.375,25.875,25.125,27.625,28.25,28.5625
0.06805455,-0.7857993,-0.8697895,0.21510977,-0.019613283,0.022829717,-0.14809914,-0.38206196,-0.34863958,0.059897076,-3.0781667,0.6250955,-0.00034641888,-0.0351163,-0.0032974568,0.0024859756,0.009415938,0.009086439,-0.0064308695,0.4771797,-1.4238043,1.9553303,-2.1003015,-1.5709304,2.452316,-0.018391194,0.060785104,-0.078186944,0.013697053,-0.012680664,-0.011888584,-0.1340753,0.36391866,-9.404425,0.7553206,47.682407,-0.48056144,-2.0371506,-3.216199,-0.30441424,-0.0007249196,-0.12282087,25.375,25.875,25.125,27.625,28.25,28.5625
0.07005459,-0.16249247,-0.55178314,0.42227077,-0.022550447,0.038733892,-0.16407804,-0.38215086,-0.34867483,0.059924904,-3.0781999,0.62525636,-0.00028480342,-0.035936598,-0.0043910677,0.0025985106,0.007703929,0.00885601,-0.0067080045,0.47714376,-1.4236838,1.9551262,-2.100289,-1.5709051,2.4523764,-0.01825562,0.06303471,-0.08101845,0.013691479,-0.01105897,-0.011478173,-0.15322891,0.36391866,-9.308657,0.8224646,47.675243,-0.56703717,-2.04975,-3.138877,-0.288478,-0.017271714,-0.1491825,25.375,25.875,25.125,27.625,28.25,28.5625
0.07205442,-0.18901707,-0.677479,0.53581846,-0.019589756,0.030480541,-0.15186648,-0.3821854,-0.34869727,0.05991755,-3.0781977,0.6251985,-0.00034150443,-0.036615502,-0.00561951,0.0029667679,0.0053599323,0.008411932,-0.0068223854,0.47714382,-1.4235632,1.9549946,-2.1002414,-1.5708932,2.4523406,-0.018181631,0.06473738,-0.083930664,0.014210926,-0.008778218,-0.011292313,-0.095768064,0.30645782,-9.11712,0.7597976,47.693153,-0.5359161,-2.0707119,-3.1981177,-0.27743527,-0.028572438,-0.1662125,25.375,25.875,25.125,27.625,28.25,28.5625
0.07405447,-0.8508575,-0.71770966,0.38039976,-0.0069367844,0.005125587,-0.14143334,-0.38227683,-0.34869814,0.059919126,-3.0781791,0.62523264,-0.00027795922,-0.037730597,-0.006152561,0.0029146012,0.0039956025,0.007810632,-0.007347012,0.47708347,-1.4234185,1.9548258,-2.1002414,-1.570928,2.4523041,-0.019221492,0.067146726,-0.08661133,0.014383435,-0.0072951647,-0.011808996,-0.114921674,0.22984336,-9.193734,0.7709874,47.678825,-0.5082996,-2.0373907,-3.1059918,-0.25665176,-0.057784162,-0.16493274,25.375,25.875,25.125,27.625,28.25,28.5625
0.07605415,-0.10195798,-0.27241784,0.48694578,-0.007837801,0.01731483,-0.16112523,-0.38238293,-0.34873313,0.059961718,-3.0782232,0.62531775,-0.00016139903,-0.038470298,-0.0067245015,0.0028689299,0.0040591382,0.0073070205,-0.006793451,0.47704753,-1.4232982,1.9545854,-2.100217,-1.570928,2.4523158,-0.018996017,0.069561206,-0.08948326,0.015316458,-0.0071232207,-0.012136481,-0.095768064,0.24899697,-9.193734,0.7418897,47.70032,-0.54584867,-2.0026393,-3.0938034,-0.25395975,-0.07928948,-0.17314416,25.375,25.875,25.125,27.625,28.25,28.5625
0.07805405,-0.14456393,-0.026511246,0.44972807,-0.0038042981,0.01966166,-0.15737756,-0.38242835,-0.3487454,0.059937328,-3.078208,0.6252954,-0.000260769,-0.03913255,-0.0071706274,0.002666685,0.0040041087,0.007051065,-0.0058390284,0.47701156,-1.423141,1.9544533,-2.1001809,-1.5709037,2.452268,-0.018917404,0.071692325,-0.0914824,0.015385792,-0.0069619464,-0.013010865,-0.1340753,0.2681506,-9.251195,0.7866488,47.67345,-0.56802255,-2.177454,-3.0732427,-0.2357088,-0.06871815,-0.16591506,25.375,25.875,25.125,27.625,28.25,28.5625
0.08005399,-0.81179667,-0.12291503,0.39993945,0.003913321,0.015157295,-0.15015411,-0.3825349,-0.34876937,0.059961207,-3.0782344,0.6252425,-0.000110074376,-0.040130675,-0.0067003304,0.0032179651,0.0048554456,0.0077835526,-0.006799992,0.4769872,-1.4229969,1.9542369,-2.1001928,-1.5709523,2.4522073,-0.019958466,0.07199256,-0.09340346,0.016749896,-0.008054377,-0.013088821,-0.11492168,0.2681506,-9.212888,0.7642693,47.684196,-0.5691666,-1.9858267,-3.156559,-0.24154088,-0.0956558,-0.17607707,25.375,25.875,25.125,27.625,28.25,28.5625
0.08205436,-0.6316786,-0.33271423,0.33122605,0.005414093,0.022777112,-0.14520779,-0.38259554,-0.34878263,0.05997517,-3.0781941,0.6253113,-0.00012891513,-0.040941652,-0.006128601,0.0025805293,0.007713129,0.0071335197,-0.006311979,0.47696307,-1.4228759,1.9540447,-2.100096,-1.5709652,2.4522314,-0.020264473,0.07482074,-0.095435455,0.017850637,-0.0102971,-0.0138772195,-0.17238252,0.21068975,-9.270349,0.79560274,47.64479,-0.5553988,-2.0051556,-3.1493435,-0.23476642,-0.08992033,-0.18122688,25.375,25.875,25.125,27.625,28.25,28.5625
0.08405415,-0.35935658,-0.55810934,0.4139899,0.0013336053,0.03811646,-0.15484892,-0.38268885,-0.34878856,0.059966993,-3.0781636,0.62536156,-0.00010778188,-0.04105756,-0.0061661033,0.0018154675,0.008891678,0.005247133,-0.005696648,0.47690314,-1.4226946,1.9538535,-2.100084,-1.5709895,2.4522069,-0.020181093,0.077376895,-0.09687021,0.018945651,-0.010478886,-0.014407932,-0.19153613,0.24899697,-9.212888,0.800085,47.652847,-0.60097086,-2.1756063,-3.1491656,-0.2277841,-0.0647163,-0.17712179,25.375,25.875,25.125,27.625,28.25,28.5625
0.08605489,-0.64142495,-0.6124709,0.2719534,-0.0029297832,0.033811633,-0.14632487,-0.38275984,-0.348796,0.059956983,-3.0781229,0.6253534,-0.00012764905,-0.04285719,-0.0059307027,0.0024592427,0.01071193,0.0069666593,-0.00542208,0.4768669,-1.4225259,1.9536728,-2.100036,-1.5710143,2.4521708,-0.02069,0.07925386,-0.10081091,0.020324925,-0.012891493,-0.015184468,-0.076614454,0.24899697,-9.212888,0.86945957,47.684196,-0.55651927,-2.03064,-3.1309624,-0.23958564,-0.038460836,-0.19655849,25.375,25.875,25.125,27.625,28.25,28.5625
0.08805448,-0.64655584,-0.4479154,0.3092371,-0.005663835,0.035303283,-0.15011391,-0.38284308,-0.34880775,0.059964042,-3.0781078,0.62540793,-0.00010489016,-0.042400833,-0.0049921027,0.0008236396,0.013738157,0.0042280816,-0.0055898814,0.47681892,-1.4223808,1.9534825,-2.0999997,-1.5710267,2.452159,-0.021002578,0.08165468,-0.09995841,0.020897979,-0.014320015,-0.01532683,-0.15322891,0.21068975,-9.308656,0.7665104,47.65464,-0.61934304,-2.0753515,-3.2485075,-0.2359862,-0.020057807,-0.22509682,25.375,25.875,25.125,27.625,28.25,28.5625
0.09005421,-0.53540856,0.08433472,0.4147823,-0.017101418,0.035977844,-0.15634538,-0.38292015,-0.34883866,0.05996368,-3.0781214,0.625352,-0.00013145608,-0.044052195,-0.005893606,0.0013623122,0.012789545,0.005644863,-0.0043517584,0.47679484,-1.4221997,1.9532655,-2.099952,-1.5710148,2.4520984,-0.021041004,0.08407447,-0.1039387,0.020763015,-0.014137099,-0.0166012,-0.13407528,0.19153613,-9.251195,0.779936,47.655537,-0.6646999,-2.1443858,-3.3443046,-0.21541727,-0.03478934,-0.21480605,25.375,25.875,25.125,27.625,28.25,28.5625
0.092054114,-0.82367736,-0.5717161,0.22456527,-0.00052933063,0.029524747,-0.14425702,-0.38302246,-0.34882525,0.059969585,-3.0780518,0.6254145,-6.310382e-05,-0.04355645,-0.005969914,-3.5069927e-05,0.012555045,0.0024874932,-0.0042779497,0.47672275,-1.4220426,1.9530615,-2.0999038,-1.5710858,2.4520743,-0.021515079,0.08641049,-0.10338364,0.020561181,-0.0124795055,-0.017152123,-0.24899697,0.19153613,-9.270349,0.77545905,47.66271,-0.5910226,-2.1948068,-3.3310702,-0.20008636,-0.038889762,-0.22206765,25.375,25.875,25.125,27.625,28.25,28.5625
0.09405426,-0.50282156,-0.3571317,0.12838441,-0.0053270846,0.032646332,-0.15290476,-0.38307905,-0.3488479,0.05994743,-3.0780265,0.6253514,-0.00013667118,-0.044417262,-0.006520349,0.00042253788,0.011634854,0.0028893296,-0.0044109407,0.47671062,-1.4218502,1.9528812,-2.0998561,-1.5710858,2.4520261,-0.02173644,0.08752301,-0.10584693,0.021130199,-0.011851408,-0.017239725,-0.22984336,0.17238252,-9.289502,0.7732232,47.688675,-0.6335018,-2.072525,-3.3687372,-0.18882485,-0.04914701,-0.22698194,25.375,25.875,25.125,27.625,28.25,28.5625
0.096054666,-1.063736,-0.9958718,0.14831509,2.2873854e-05,0.017847547,-0.13983756,-0.3831691,-0.34886083,0.059955038,-3.078003,0.62542325,-0.00015462704,-0.044623725,-0.0062100873,-0.00028625608,0.012824074,0.0015120407,-0.0042416696,0.4766505,-1.4216813,1.9526542,-2.0997837,-1.5710858,2.452014,-0.022193462,0.089414254,-0.10653224,0.02169422,-0.012277088,-0.017864503,-0.21068975,0.24899697,-9.32781,0.8090337,47.657326,-0.6642021,-2.1270523,-3.4541879,-0.18128619,-0.044397116,-0.21632066,25.375,25.875,25.125,27.625,28.25,28.5625
0.098054744,-0.9316142,-0.9585898,0.05292647,0.0006927725,0.026380368,-0.14005893,-0.38328347,-0.34888437,0.059971634,-3.0780215,0.62546504,-4.335681e-05,-0.045482118,-0.006418534,-8.8527064e-05,0.013328467,0.0023231138,-0.0031640988,0.47660255,-1.4215127,1.9524263,-2.099796,-1.5711101,2.45199,-0.022073293,0.090783656,-0.108615234,0.021920038,-0.013100695,-0.018820034,-0.1340753,0.21068975,-9.404425,0.70608455,47.698532,-0.6833181,-2.0982625,-3.5208123,-0.17146458,-0.031174954,-0.21720323,25.375,25.875,25.125,27.625,28.25,28.5625
0.10005481,-1.1265355,-0.75429213,0.004300975,0.0020661093,0.022620643,-0.13952512,-0.38337088,-0.34890977,0.059963442,-3.0779903,0.62540025,-3.870481e-05,-0.047082797,-0.006787192,0.0005191852,0.0133608775,0.003961869,-0.0027879458,0.4765904,-1.4212959,1.952186,-2.0997474,-1.5711464,2.4519415,-0.022379356,0.0925479,-0.11210466,0.02220562,-0.01388899,-0.01949848,-0.1340753,0.24899697,-9.404425,0.82022345,47.704796,-0.6921839,-2.0181594,-3.598983,-0.16045289,-0.036794446,-0.2233549,25.375,25.875,25.125,27.625,28.25,28.5625
0.10205488,-0.8969767,-0.39253125,0.09209987,-0.008724108,0.026831474,-0.14282884,-0.38346365,-0.3488955,0.059960105,-3.0779297,0.62542605,4.2009747e-06,-0.04648246,-0.006568579,-0.00019615809,0.013270562,0.0016616132,-0.0032680712,0.47651824,-1.4211396,1.9520067,-2.0997117,-1.571206,2.4518933,-0.022941737,0.09307733,-0.11122307,0.022790838,-0.012750859,-0.019583272,-0.15322891,0.30645782,-9.461885,0.81351066,47.685097,-0.6567936,-2.0170984,-3.5830283,-0.14889692,-0.03371709,-0.23326315,25.375,25.875,25.125,27.625,28.25,28.5625
0.10405471,-0.31431594,-0.7015597,0.09218111,-0.020435978,0.03263158,-0.14705047,-0.38355213,-0.34891188,0.05996294,-3.0779176,0.62546104,-3.625187e-05,-0.048729204,-0.0073898197,0.0014458502,0.011783293,0.0050263093,-0.002965491,0.47645804,-1.4209591,1.9517773,-2.0996397,-1.571194,2.4518566,-0.023395173,0.09388528,-0.11597651,0.023064146,-0.012983133,-0.020336142,-0.095768064,0.3256114,-9.385271,0.80679786,47.634937,-0.7020712,-1.9482863,-3.6050255,-0.1573154,-0.029832376,-0.24999909,25.375,25.875,25.125,27.625,28.1875,28.5625
0.10605429,-0.49770343,-1.0319669,-0.06580616,-0.021440728,0.013681461,-0.14231487,-0.38366914,-0.34895027,0.05997969,-3.0779233,0.6254431,2.707453e-05,-0.049153477,-0.007406712,-0.0006360379,0.013558359,0.0015505394,-0.0025813442,0.47643396,-1.4207408,1.9514784,-2.0995915,-1.5712184,2.4518209,-0.023759902,0.09955323,-0.117721975,0.023043128,-0.012970015,-0.02108374,-0.076614454,0.28730422,-9.481039,0.83589023,47.68599,-0.7556307,-2.0909286,-3.551416,-0.12885234,-0.026881998,-0.2497599,25.375,25.875,25.125,27.625,28.1875,28.5625
0.10805416,-0.4427587,-0.99935204,-0.24185577,-0.025355011,0.0011768403,-0.14252399,-0.38378745,-0.34896478,0.059994206,-3.0779195,0.6254806,0.00012287086,-0.05066333,-0.007938193,0.002088572,0.011887721,0.0061998535,-0.0022250302,0.4763739,-1.4205618,1.9512376,-2.0995796,-1.5712541,2.4517848,-0.023773532,0.09666836,-0.12093132,0.024240196,-0.013620929,-0.021452239,-0.038307227,0.34476504,-9.500193,0.83365434,47.645687,-0.7393602,-1.8341477,-3.5146189,-0.09661381,-0.034778867,-0.25097418,25.375,25.875,25.125,27.625,28.1875,28.5625
0.11005425,-0.7690185,-1.5570679,-0.35656744,-0.009628333,-0.0100694,-0.12883809,-0.38385367,-0.34897652,0.059979536,-3.0778902,0.6254737,3.346237e-05,-0.050700426,-0.007981497,0.0004925418,0.013939179,0.0021859074,-0.0016181319,0.47632602,-1.4203799,1.9510463,-2.099507,-1.5712422,2.4517365,-0.023737097,0.10145616,-0.1232465,0.026274549,-0.013605501,-0.02202039,-0.05746084,0.34476504,-9.595961,0.81351066,47.68599,-0.81346214,-1.9910388,-3.4795113,-0.11659339,-0.024092073,-0.26566145,25.375,25.875,25.125,27.625,28.1875,28.5625
0.11205405,-0.3248767,-1.1607198,-0.5192648,-0.011382585,0.010046324,-0.13939619,-0.38394976,-0.3489753,0.059970498,-3.0777786,0.62547004,2.918218e-05,-0.05224451,-0.008671663,0.0026484465,0.012179537,0.006027079,-0.0012895666,0.47628996,-1.4201522,1.9507817,-2.0993989,-1.5713266,2.4517126,-0.02379355,0.0999053,-0.12656255,0.02691917,-0.013810435,-0.022402806,0.0,0.34476504,-9.557653,0.77545905,47.640312,-0.791296,-1.7412008,-3.5051937,-0.09019582,-0.023264218,-0.26734614,25.375,25.875,25.125,27.625,28.1875,28.5625
0.11405403,-0.31618872,-0.6995385,-0.2390096,-0.022762159,0.024242504,-0.14144485,-0.384062,-0.34899488,0.059975937,-3.077796,0.62555003,3.121936e-05,-0.052384477,-0.0083092395,0.0013827654,0.013625478,0.002984729,-0.001881413,0.47620568,-1.4199588,1.9505423,-2.0993745,-1.5713023,2.4516761,-0.024623917,0.10314602,-0.12768477,0.028166212,-0.013700071,-0.022641055,-0.05746084,0.38307226,-9.519346,0.8157518,47.687782,-0.791649,-1.8233229,-3.519795,-0.095521,-0.019838594,-0.27125126,25.375,25.875,25.125,27.625,28.1875,28.5625
0.11605442,-0.84163177,-1.6866093,-0.44035858,-0.009240747,0.021667754,-0.13446991,-0.3841891,-0.34902486,0.059999853,-3.0777993,0.62558895,0.00011239032,-0.053737707,-0.009076914,0.0024324965,0.012255573,0.003941473,-0.0017521317,0.47615755,-1.4197543,1.9502424,-2.0993264,-1.5713266,2.451652,-0.024998877,0.10422354,-0.1316575,0.0295788,-0.012925745,-0.023145638,-0.038307227,0.45968673,-9.691729,0.82022345,47.68062,-0.8452548,-1.7820772,-3.499423,-0.08844706,-0.019461583,-0.27122834,25.375,25.875,25.125,27.625,28.1875,28.5625
0.1180544,-0.4229764,-1.0580049,-0.46997374,-0.035588566,0.035488322,-0.14822762,-0.38429907,-0.34903714,0.060005434,-3.077787,0.6255658,0.00010724459,-0.054156497,-0.009437936,0.0018245105,0.012724949,0.0024504813,-0.0009158448,0.47608557,-1.4195491,1.9499782,-2.0992544,-1.571338,2.4515674,-0.024904275,0.10709536,-0.13375162,0.03033874,-0.012663189,-0.023886373,-0.095768064,0.4405331,-9.557653,0.82022345,47.672558,-0.87307084,-1.8482378,-3.462396,-0.08384809,-0.021012172,-0.27291596,25.375,25.875,25.125,27.625,28.1875,28.5625
0.12005409,-0.6790447,-1.3282872,-0.42602533,-0.02927775,0.025585162,-0.1404073,-0.38438687,-0.3490518,0.059974726,-3.077713,0.6255515,7.886246e-05,-0.055312373,-0.010280809,0.0021973788,0.011557142,0.0025905527,-0.001649465,0.47606155,-1.419296,1.9497503,-2.0992181,-1.5713857,2.451544,-0.025093734,0.10925697,-0.13726251,0.03102381,-0.011696669,-0.023341514,-0.11492168,0.38307226,-9.595961,0.82022345,47.664497,-0.9015277,-1.8153348,-3.4218357,-0.07350284,-0.036922313,-0.2801766,25.375,25.875,25.125,27.625,28.1875,28.5625
0.12205476,-0.1680465,-0.69876534,-0.48689723,-0.038382698,0.02491125,-0.1513545,-0.38454264,-0.34908304,0.060025852,-3.0777285,0.62561136,0.00019113821,-0.0578359,-0.011529981,0.0035145052,0.010125744,0.0054624015,-0.0013271782,0.47598946,-1.4190912,1.949377,-2.0991223,-1.5714101,2.4515076,-0.025151243,0.11183636,-0.14330336,0.031275276,-0.011751475,-0.02371877,-0.076614454,0.3256114,-9.672575,0.7777002,47.64389,-0.95095634,-1.8273956,-3.2603116,-0.08161952,-0.028742425,-0.28339872,25.375,25.875,25.125,27.625,28.1875,28.5625
0.12405448,-0.040931217,-0.7108326,-0.26510823,-0.027120301,0.024947437,-0.14450964,-0.38462415,-0.3491081,0.060023867,-3.0777073,0.62549144,0.00022123457,-0.057324983,-0.011401617,0.0019614326,0.011288336,0.0018310141,-0.00041906454,0.47598937,-1.4188977,1.949149,-2.0990746,-1.5714573,2.4514356,-0.02531535,0.11483456,-0.14341007,0.03213991,-0.011119949,-0.02479176,-0.13407528,0.36391866,-9.576807,0.82694155,47.68062,-0.9874741,-1.9964464,-3.2625196,-0.06139639,-0.033728197,-0.30468178,25.375,25.875,25.125,27.625,28.1875,28.5625
0.12605415,-0.3228471,-0.71937513,-0.26960388,-0.020371186,0.021979839,-0.13962017,-0.3847346,-0.34914958,0.060020078,-3.0777047,0.6254706,0.00017689592,-0.05816686,-0.011922909,0.0013319884,0.01197657,0.00029928444,0.00041444515,0.47595352,-1.4186323,1.9488367,-2.0990016,-1.5714453,2.4513872,-0.025213331,0.11879077,-0.1467863,0.033235762,-0.011035799,-0.025521113,-0.11492168,0.40222588,-9.557653,0.784413,47.683304,-1.0013467,-1.9236156,-3.2278771,-0.057692494,-0.06223595,-0.30445293,25.375,25.875,25.125,27.625,28.1875,28.5625
0.12805507,-0.5207873,-0.96446633,-0.29251447,-0.013755971,0.025642864,-0.13820566,-0.38486555,-0.34917217,0.060048364,-3.0777128,0.6255303,0.000245364,-0.05911302,-0.0119694015,0.0018838639,0.012096895,0.0012140019,0.00013486615,0.4758813,-1.4184397,1.9485377,-2.0989416,-1.5714577,2.4513514,-0.025643764,0.11939708,-0.14894223,0.034028135,-0.011563906,-0.025670491,-0.095768064,0.36391866,-9.557653,0.8023209,47.693153,-1.0457348,-1.96612,-3.2930229,-0.058454208,-0.03726528,-0.31470788,25.375,25.875,25.125,27.625,28.1875,28.5625
0.13005465,-0.81205136,-1.347632,-0.32535285,-0.016167322,0.03369715,-0.13891174,-0.3849869,-0.34919927,0.060041197,-3.0776906,0.62550646,0.00025085223,-0.060448408,-0.011994885,0.0012770583,0.011662716,0.0007410682,-0.0022509547,0.47583285,-1.4181741,1.9482387,-2.0988944,-1.5714811,2.451291,-0.02719732,0.12245563,-0.15089273,0.03313901,-0.010967755,-0.024837699,-0.1340753,0.45968673,-9.461885,0.8314132,47.683304,-1.0396299,-1.9611669,-3.254561,-0.027746502,-0.044340216,-0.3325738,25.375,25.875,25.125,27.625,28.1875,28.5625
0.13205424,-1.0967714,-1.2902919,0.015976058,-0.04049459,0.042022865,-0.13972673,-0.38511133,-0.34920278,0.06005977,-3.077652,0.6255175,0.00027224352,-0.061377943,-0.011664698,0.0010311614,0.013348976,0.00045585635,-0.002431449,0.47574863,-1.4179708,1.9479383,-2.0987856,-1.5715178,2.4512188,-0.027733035,0.12467936,-0.15314323,0.034194503,-0.012339429,-0.025188876,-0.17238252,0.4213795,-9.461885,0.8717007,47.703007,-1.0100958,-1.9633572,-3.200779,-0.024652194,-0.035615854,-0.34302187,25.375,25.875,25.125,27.625,28.1875,28.5625
0.13405453,-1.2505275,-1.738503,-0.00505789,-0.04038454,0.046490524,-0.14138284,-0.38522908,-0.3492727,0.060079485,-3.0777118,0.62543297,0.00029233273,-0.06253281,-0.012635562,0.0023090595,0.01203149,0.0017196209,-0.0005867362,0.47574872,-1.4177184,1.9475902,-2.098726,-1.571494,2.4511588,-0.027448116,0.12532668,-0.15722007,0.035894286,-0.011751756,-0.02674854,-0.2681506,0.40222588,-9.461885,0.8314132,47.64658,-1.1104498,-1.9060752,-3.3158174,-0.008847298,-0.05679154,-0.33790028,25.375,25.875,25.125,27.625,28.1875,28.5625
0.13605483,-1.0805138,-1.7544653,0.14902477,-0.0329392,0.046808004,-0.14009392,-0.38535926,-0.34929314,0.060089644,-3.0776935,0.62544775,0.0003515199,-0.06236997,-0.012443436,0.0010444185,0.013223267,-0.0006968118,-4.3454063e-05,0.47568855,-1.4174876,1.9472913,-2.0986779,-1.5715297,2.4511104,-0.027656827,0.12793207,-0.15741228,0.036172543,-0.011704437,-0.027500464,-0.30645782,0.36391866,-9.346964,0.8918391,47.733456,-1.1173637,-1.8925135,-3.3087611,-0.016667226,-0.0538143,-0.34120774,25.375,25.875,25.125,27.625,28.1875,28.5625
0.13805425,-0.75936306,-1.1056792,0.28349462,-0.01983591,0.041840713,-0.13787189,-0.3855089,-0.3493126,0.06009122,-3.077661,0.62542033,0.00039776732,-0.062715985,-0.012565836,0.0010169017,0.0141355805,-0.000728286,0.0004971309,0.47561684,-1.4172006,1.9469446,-2.0986178,-1.5715779,2.451026,-0.027227305,0.12913561,-0.15893924,0.03694237,-0.012503162,-0.02760927,-0.19153613,0.3256114,-9.270349,0.784413,47.689575,-1.218272,-1.8551702,-3.385858,-0.006595535,-0.051772866,-0.33902672,25.375,25.875,25.125,27.625,28.1875,28.5625
0.14005433,-0.24165252,-0.0568809,0.5713173,-0.016666753,0.035316955,-0.14285176,-0.3856232,-0.34933564,0.060084723,-3.0776284,0.62541455,0.00039150045,-0.063902214,-0.012476856,0.0010997575,0.013243133,-0.0010237542,-0.0005033198,0.47556818,-1.4169478,1.9466556,-2.0985577,-1.5716017,2.450978,-0.029053992,0.13061316,-0.16094087,0.0373151,-0.011579329,-0.02843593,-0.19153613,0.30645782,-9.193734,0.8560339,47.694946,-1.2240236,-1.7240802,-3.479373,-0.008536968,-0.07294221,-0.3424839,25.375,25.875,25.125,27.625,28.1875,28.5625
0.14205444,-0.39853624,-0.07986777,0.79853135,0.0022788704,0.021476716,-0.14457138,-0.38577455,-0.34936455,0.060104944,-3.0776258,0.6255088,0.00048128606,-0.06476074,-0.0122412285,-0.0008840933,0.015033006,-0.003398581,0.0008193586,0.47549593,-1.4167039,1.9463214,-2.098522,-1.5716256,2.4509652,-0.029912783,0.13602094,-0.1624243,0.036319673,-0.01208887,-0.030615376,-0.19153613,0.21068975,-9.021352,0.8314132,47.66271,-1.1518239,-1.928323,-3.420091,0.034918748,-0.080177516,-0.3368944,25.375,25.875,25.125,27.625,28.1875,28.5625
0.14405423,0.045087516,0.76081926,0.89579195,0.006602184,0.021650994,-0.14983504,-0.38590163,-0.34940317,0.060106233,-3.077638,0.6254151,0.00046669648,-0.066206545,-0.012871106,0.00022043729,0.013490063,-0.0012489381,0.0001477499,0.47544774,-1.416428,1.9459852,-2.0984504,-1.5716256,2.4508572,-0.030354995,0.13638356,-0.16539568,0.03630924,-0.011708209,-0.03038514,-0.17238252,0.15322891,-8.848969,0.83589023,47.683304,-1.1683813,-1.7907157,-3.5299692,0.071274325,-0.09009531,-0.3496225,25.375,25.875,25.125,27.625,28.1875,28.5625
0.14605387,-0.31974253,0.5146823,0.98086643,0.024649708,0.012785564,-0.1308426,-0.38606882,-0.3494305,0.060136423,-3.0776422,0.62553245,0.0005500761,-0.06702776,-0.0119568985,0.0004396968,0.014929004,-0.0026146735,-0.0018079705,0.475351,-1.4161772,1.9456142,-2.098389,-1.571638,2.4508333,-0.032277834,0.1373028,-0.16773076,0.03959889,-0.012358958,-0.030351132,-0.17238252,0.15322891,-8.887277,0.85826975,47.701214,-1.1158378,-1.6637459,-3.4288223,0.062706634,-0.09522538,-0.35115418,25.375,25.875,25.125,27.625,28.1875,28.5625
0.1480548,-0.68505824,0.4633984,0.81939095,0.039331898,0.004126777,-0.13446845,-0.38620564,-0.34946314,0.06015302,-3.0776362,0.6255498,0.0005739289,-0.0670668,-0.01184626,-0.00024624704,0.01643645,-0.0055372836,-0.000708316,0.47529107,-1.4159238,1.9452661,-2.0983045,-1.5716499,2.4507852,-0.032493435,0.13998136,-0.16990766,0.042383287,-0.012360925,-0.031665605,-0.19153613,0.095768064,-8.848969,0.842603,47.687782,-1.0973992,-1.7310939,-3.5302958,0.05520334,-0.08493422,-0.35257703,25.375,25.875,25.125,27.625,28.1875,28.5625
0.15005477,-0.508629,0.29985687,0.8442635,0.041733306,0.01354037,-0.13746901,-0.38631874,-0.34949932,0.060146306,-3.0776327,0.6254309,0.0005804432,-0.067061245,-0.011689927,-0.00057612953,0.01826039,-0.007471434,0.0015910408,0.47526708,-1.4156588,1.9449657,-2.0982554,-1.5716742,2.4506876,-0.032281097,0.14176765,-0.17185982,0.045102984,-0.013097158,-0.03375043,-0.17238252,0.076614454,-8.925584,0.8224646,47.698532,-1.1378524,-1.6835458,-3.4359636,0.042442724,-0.09338279,-0.31960458,25.375,25.875,25.125,27.625,28.1875,28.5625
0.15205462,-0.0954462,0.26335025,0.8426758,0.028275046,0.029749583,-0.13941187,-0.38643616,-0.34950817,0.060128234,-3.0775304,0.62546766,0.0004273753,-0.06791188,-0.011693882,-0.00029638284,0.019477198,-0.008764059,0.0020867474,0.47518295,-1.4153459,1.9446062,-2.0980747,-1.5716861,2.4506397,-0.032715052,0.14391688,-0.17580444,0.048603848,-0.013594488,-0.034675818,-0.19153613,0.095768064,-8.90643,0.91421866,47.672558,-1.2242734,-1.7195421,-3.3292215,-0.0113405585,-0.100996755,-0.31311876,25.375,25.875,25.125,27.625,28.1875,28.5625
0.15405452,-0.6328507,-0.40754238,0.6700465,0.03518568,0.019709153,-0.13373812,-0.38658258,-0.34953249,0.060139593,-3.0774958,0.62534535,0.00052323885,-0.06968878,-0.011751383,0.00079653226,0.019020466,-0.008620046,0.0014379765,0.47514632,-1.4150692,1.9442457,-2.0980017,-1.5717705,2.4505315,-0.034438595,0.14531587,-0.18064964,0.0517072,-0.01325829,-0.035749473,-0.21068975,0.13407528,-8.887277,0.81351066,47.67166,-1.1582155,-1.6980219,-3.3281357,-0.028256262,-0.11792049,-0.28041857,25.375,25.875,25.125,27.625,28.1875,28.5625
0.15605462,-0.87908596,-0.13346654,0.48127967,0.016908983,0.013405599,-0.1388501,-0.38671744,-0.3495451,0.06012969,-3.0774593,0.62537605,0.00043420948,-0.071257435,-0.011119024,0.0010518926,0.020799326,-0.009217052,0.00067301607,0.4750377,-1.4147778,1.9439086,-2.0978935,-1.5717586,2.4504468,-0.03611679,0.14768192,-0.18467471,0.054713525,-0.01457343,-0.03665751,-0.21068975,0.15322891,-9.002198,0.82022345,47.68599,-1.1277447,-1.7735409,-3.2331257,-0.06052454,-0.11110426,-0.2743894,25.375,25.875,25.125,27.625,28.1875,28.5625
0.15805455,-0.8977745,-0.71014285,0.13632046,0.01495933,0.020088734,-0.13652606,-0.38686946,-0.34957218,0.060140282,-3.0774138,0.625366,0.000461915,-0.070618294,-0.010530662,-0.0011174057,0.024019118,-0.015215766,0.0011054464,0.47497755,-1.4144781,1.9435147,-2.0977838,-1.5718068,2.4503865,-0.036480576,0.15245692,-0.18602341,0.058091264,-0.01469069,-0.037452534,-0.38307226,0.2681506,-9.059659,0.86498255,47.672558,-1.0609307,-1.6778702,-3.374012,-0.106198564,-0.10225248,-0.25162265,25.375,25.875,25.125,27.625,28.1875,28.5625
0.16005442,-0.919536,-1.0963534,0.20332937,-0.0012405532,0.035057306,-0.13669102,-0.38698936,-0.34958923,0.060133766,-3.0773387,0.62534875,0.00033957988,-0.07040644,-0.010440802,-0.000716778,0.024652274,-0.016307754,0.002971397,0.4749058,-1.4141779,1.9431432,-2.0976036,-1.5718187,2.4503138,-0.036385547,0.15219377,-0.18731406,0.060902398,-0.0147578195,-0.039221715,-0.3256114,0.3256114,-9.11712,0.8605109,47.694946,-1.1083369,-1.6857219,-3.363552,-0.17465706,-0.093750075,-0.24610318,25.375,25.875,25.125,27.625,28.1875,28.5625
0.16205435,-0.989809,-0.773555,0.22260423,-0.025313541,0.04246035,-0.14211759,-0.38713464,-0.34958774,0.06011537,-3.077237,0.62534696,0.0002929046,-0.07106985,-0.0101601,-0.0011157175,0.025172304,-0.018539142,0.0025968247,0.47480923,-1.4138526,1.9427837,-2.0974834,-1.5718788,2.4502294,-0.037818726,0.15456799,-0.18968314,0.06311248,-0.014206892,-0.040279258,-0.36391866,0.34476504,-9.32781,0.86945957,47.67614,-1.1108285,-1.6817157,-3.3116167,-0.21771234,-0.115266666,-0.22303209,25.375,25.875,25.125,27.625,28.1875,28.5625
0.16405441,-1.050815,-1.2357607,0.008353589,-0.03147167,0.052453946,-0.14551866,-0.38727295,-0.34961396,0.06012143,-3.0771945,0.6253183,0.00022898595,-0.07182718,-0.009847869,-0.0016533044,0.026728958,-0.020038532,0.003102121,0.47473684,-1.4135516,1.9423879,-2.0973275,-1.5718907,2.4501448,-0.038586985,0.15736236,-0.19209027,0.06476988,-0.014912959,-0.041549098,-0.45968673,0.40222588,-9.32781,0.8247004,47.686886,-1.0860441,-1.6738998,-3.3229313,-0.26903832,-0.12974434,-0.21451063,25.375,25.875,25.125,27.625,28.1875,28.5625
0.16605446,-0.7130068,-1.228362,0.11862048,-0.041656595,0.064112544,-0.14285667,-0.38741133,-0.34966707,0.060132343,-3.0772092,0.62530196,0.00018909221,-0.072791904,-0.01020983,-0.0012227733,0.026141206,-0.019238101,0.0036031262,0.47468886,-1.4132508,1.9419922,-2.0972197,-1.5718669,2.450085,-0.038907673,0.15836857,-0.19433399,0.06502555,-0.01476298,-0.042369843,-0.34476504,0.40222588,-9.308656,0.8090337,47.67614,-1.0762928,-1.7085657,-3.372619,-0.3169347,-0.1301451,-0.17746204,25.375,25.875,25.125,27.625,28.1875,28.5625
0.16805415,-0.836197,-1.1919737,0.04857356,-0.035652157,0.055285897,-0.14709288,-0.3875573,-0.34966138,0.060107972,-3.0770836,0.6253337,0.00014077505,-0.07443889,-0.009917683,-0.00083095336,0.025786823,-0.017033385,0.0022969702,0.47459236,-1.4129143,1.9416331,-2.0971,-1.5719393,2.4500246,-0.0404448,0.15907699,-0.19577593,0.06363391,-0.015468758,-0.042596735,-0.34476504,0.40222588,-9.442732,0.8179876,47.66987,-1.1058109,-1.4929492,-3.3650374,-0.3400324,-0.13731371,-0.16169044,25.375,25.875,25.125,27.625,28.1875,28.5625
0.17005402,-0.68575907,-1.0218894,0.012201319,-0.03211994,0.053295054,-0.14850023,-0.38772777,-0.34966454,0.060108814,-3.077007,0.62526035,0.00017294021,-0.07485942,-0.010087545,-0.0021670088,0.025991373,-0.01821397,0.002735514,0.47449622,-1.4125866,1.9412268,-2.0969813,-1.5720228,2.4498928,-0.040728793,0.16233125,-0.19612066,0.061860736,-0.015121172,-0.043318618,-0.36391866,0.38307226,-9.557653,0.84708,47.69763,-1.1008435,-1.7527792,-3.5152256,-0.34716722,-0.11729749,-0.11348212,25.375,25.875,25.125,27.625,28.1875,28.5625
0.1720548,-1.1597677,-0.69144356,-0.11010186,-0.036438916,0.036675993,-0.13599622,-0.38786548,-0.34970596,0.060101714,-3.076985,0.625159,5.912974e-05,-0.07624798,-0.0104113305,-0.0034610014,0.026121253,-0.0186072,0.0017568871,0.47443599,-1.4122388,1.9408072,-2.0968268,-1.5720109,2.4497724,-0.04143678,0.16700797,-0.19808628,0.059558604,-0.015071652,-0.043044884,-0.2681506,0.2873042,-9.500193,0.9231726,47.678825,-1.0689158,-1.7935295,-3.5112596,-0.35197228,-0.12898603,-0.09379846,25.375,25.875,25.125,27.625,28.1875,28.5625
0.1740537,-0.9834396,-0.83384115,-0.120300636,-0.027315129,0.032709237,-0.14134648,-0.38803136,-0.34973058,0.060100663,-3.0769274,0.6252252,6.375595e-05,-0.0783361,-0.010900266,-0.0032482955,0.024903022,-0.016150365,0.0003198208,0.47435156,-1.4119018,1.9403995,-2.0967314,-1.5720471,2.4497368,-0.042417232,0.16937885,-0.20081666,0.057174154,-0.015124524,-0.042585783,-0.28730422,0.28730422,-9.481039,0.9097417,47.65912,-1.0421851,-1.7745615,-3.4935286,-0.32719725,-0.16308023,-0.086030215,25.375,25.875,25.125,27.625,28.1875,28.5625
0.17605549,-0.6548393,-0.98609793,-0.1706498,-0.021828895,0.039626308,-0.14001156,-0.38818124,-0.34976014,0.06009531,-3.0768898,0.6252186,-1.1562702e-05,-0.07991426,-0.0112134805,-0.004195087,0.024549516,-0.01484928,-0.0023488356,0.47426742,-1.4115641,1.9399928,-2.0966012,-1.5720476,2.4496536,-0.04308962,0.1729783,-0.2020159,0.05345769,-0.01541793,-0.04058615,-0.17238252,0.36391866,-9.5385,0.8985519,47.698532,-1.0125356,-1.9389763,-3.5921493,-0.31426615,-0.15812281,-0.081175305,25.375,25.875,25.125,27.625,28.1875,28.5625
0.17805465,-1.1118792,-1.0641013,-0.18334089,-0.016502809,0.031933557,-0.13521127,-0.38835257,-0.34977865,0.060087156,-3.076872,0.6251756,-5.5736796e-06,-0.08097956,-0.011589142,-0.004296322,0.02388122,-0.014184795,-0.0021478885,0.47415918,-1.4112272,1.9396094,-2.0965416,-1.572071,2.449521,-0.043548882,0.17487499,-0.20379758,0.05244182,-0.015136922,-0.04124569,-0.19153613,0.21068975,-9.500193,0.779936,47.68599,-1.013635,-1.9679706,-3.5948455,-0.2885015,-0.16390383,-0.09336737,25.375,25.875,25.125,27.625,28.1875,28.5625
0.18005434,-0.47073662,-0.8363184,0.005324011,-0.017837776,0.040562827,-0.14908661,-0.3885295,-0.34982535,0.060114753,-3.0768578,0.62521076,9.844988e-05,-0.08384198,-0.01243716,-0.0032085145,0.021475898,-0.009177482,-0.0036189416,0.47411102,-1.4109144,1.9391669,-2.0964592,-1.5721186,2.449497,-0.044531286,0.17635776,-0.20722394,0.04883092,-0.015297408,-0.040754978,-0.1340753,0.21068975,-9.423578,0.86498255,47.66987,-1.0201579,-1.930583,-3.6076636,-0.27110898,-0.16363353,-0.06963502,25.375,25.875,25.125,27.625,28.1875,28.5625
0.18205437,-0.5885402,-0.873047,-0.13616182,-0.007408422,0.037499867,-0.13714467,-0.3887005,-0.34984735,0.06009945,-3.0768158,0.6252624,6.8145644e-05,-0.08747441,-0.013531297,-0.0014065537,0.018962359,-0.0031070726,-0.00710739,0.47400263,-1.4105536,1.9387692,-2.096388,-1.5721315,2.4494264,-0.045519244,0.17808995,-0.21277902,0.046109017,-0.01585066,-0.038249277,-0.17238252,0.28730422,-9.423578,0.80679786,47.66987,-1.0136263,-2.0316687,-3.5139961,-0.22182953,-0.16467246,-0.084475406,25.375,25.875,25.125,27.625,28.1875,28.5625
0.18405394,-0.64260775,-0.86590064,-0.10395082,-0.012015357,0.039840307,-0.14189501,-0.38888463,-0.34986332,0.06010473,-3.07676,0.6252709,8.1970305e-05,-0.089578874,-0.013534759,-0.0012333551,0.018706433,-0.0014658876,-0.009861717,0.47389403,-1.410204,1.9383267,-2.096269,-1.5721792,2.4493306,-0.047049597,0.1805767,-0.21588522,0.045151714,-0.016381672,-0.03702159,-0.17238252,0.4213795,-9.404425,0.842603,47.655537,-0.9228232,-2.0318701,-3.4653282,-0.18035889,-0.16841081,-0.103845716,25.375,25.875,25.125,27.625,28.1875,28.5625
0.18605399,-0.37774915,-0.6023441,0.07923248,-0.016643673,0.040179726,-0.14148554,-0.3890764,-0.3498886,0.060101222,-3.07669,0.62529266,0.00013538184,-0.08970199,-0.014482673,-0.0013123913,0.019767402,-0.0015506278,-0.007482643,0.4738108,-1.4098192,1.9378713,-2.0961845,-1.5722517,2.4492702,-0.04488529,0.18279445,-0.21855946,0.0461667,-0.017292148,-0.03723241,-0.2873042,0.40222588,-9.385271,0.8672237,47.684196,-0.9947177,-1.9695079,-3.3899913,-0.17685072,-0.17004159,-0.08525963,25.375,25.875,25.125,27.625,28.1875,28.5625
0.18805407,-0.5162914,-0.7684986,-0.013623917,-0.030586885,0.044623878,-0.14730857,-0.38924086,-0.34993196,0.060079645,-3.0766764,0.6253102,2.3000079e-05,-0.090580784,-0.014816852,-0.0015765625,0.019116288,-0.0024143418,-0.009308784,0.47371447,-1.4094223,1.9374403,-2.0960886,-1.5722154,2.4491868,-0.04568548,0.18518361,-0.22087705,0.046564538,-0.016324867,-0.03620677,-0.28730422,0.4213795,-9.481039,0.9231726,47.694946,-1.0633991,-1.9465387,-3.4486241,-0.15628971,-0.18993345,-0.09276204,25.375,25.875,25.125,27.625,28.1875,28.5625
0.190054,-1.4325063,-1.424226,-0.134645,-0.037504714,0.034048375,-0.13728781,-0.38940316,-0.34994897,0.060071915,-3.0765796,0.6252517,8.285239e-05,-0.09256753,-0.015120029,-0.0005000151,0.01724053,0.0010048171,-0.010500551,0.4736662,-1.4090738,1.937034,-2.0959938,-1.5723232,2.4491148,-0.04699313,0.18530506,-0.22313373,0.044796217,-0.01622629,-0.03632109,-0.28730422,0.51714754,-9.461885,0.83589023,47.67345,-1.0098065,-1.8687389,-3.5272236,-0.13294548,-0.20694754,-0.08817029,25.375,25.875,25.125,27.625,28.1875,28.5625
0.19205461,-1.4617714,-1.9832644,-0.07070093,-0.047633905,0.043099754,-0.12832543,-0.38959134,-0.3499659,0.06006575,-3.0765347,0.62530184,4.538822e-05,-0.09361178,-0.014415678,-0.0014822495,0.018586278,-0.0011324295,-0.013630717,0.4735333,-1.4087005,1.936592,-2.0958855,-1.5723356,2.4490192,-0.04899322,0.1887376,-0.22517987,0.04592582,-0.01645202,-0.035188563,-0.28730422,0.49799395,-9.461885,0.86498255,47.640312,-1.0113674,-1.8170652,-3.5244856,-0.100021616,-0.21594413,-0.08796311,25.375,25.875,25.125,27.625,28.1875,28.5625
0.19405457,-0.8649414,-1.3849406,0.06427115,-0.058955077,0.053178854,-0.14002848,-0.38982427,-0.35001585,0.06010487,-3.0765445,0.62542,0.00016792412,-0.0941626,-0.014435784,-0.00038241482,0.018523462,-0.00034602595,-0.016354473,0.47342524,-1.4083283,1.9360532,-2.0958006,-1.5723594,2.448984,-0.04922539,0.18792675,-0.2273217,0.0481528,-0.016749231,-0.032697145,-0.40222588,0.45968673,-9.442732,0.8023209,47.66271,-0.8852788,-1.8195155,-3.5623848,-0.101372086,-0.1944432,-0.13839918,25.375,25.875,25.125,27.625,28.1875,28.5625
0.1960546,-1.0401998,-1.089836,0.06369624,-0.039193146,0.047544975,-0.14436953,-0.38998696,-0.3500434,0.060071927,-3.076486,0.6253491,8.6656655e-05,-0.09507137,-0.015441999,-0.0001741239,0.018445805,0.0003524833,-0.016067784,0.47334176,-1.407919,1.9356335,-2.0957053,-1.5723838,2.448864,-0.048089802,0.19034769,-0.23074898,0.048502337,-0.017007569,-0.031844333,-0.2681506,0.38307226,-9.346964,0.88289046,47.67166,-1.0548757,-1.8474977,-3.5278354,-0.096838385,-0.19714808,-0.17261034,25.375,25.875,25.125,27.625,28.1875,28.5625
0.19805458,-0.563102,-0.6489931,0.065261945,-0.015440017,0.046752155,-0.14540267,-0.39018077,-0.350082,0.060070276,-3.0764394,0.62547445,0.00013331618,-0.09690015,-0.015397202,0.00010345952,0.017429605,0.0007828395,-0.017506741,0.473257,-1.4075339,1.9351782,-2.0956452,-1.5724195,2.4488637,-0.05023706,0.1923562,-0.23382492,0.048717197,-0.016306695,-0.0325532,-0.28730422,0.30645782,-9.308656,0.8224646,47.66987,-0.97848165,-1.7566811,-3.496349,-0.04613594,-0.22439572,-0.17233771,25.375,25.875,25.125,27.625,28.1875,28.5625
0.20005427,-0.5455934,-0.39161816,0.12574466,0.009987188,0.03839479,-0.13881557,-0.3903972,-0.35012922,0.06008182,-3.0764618,0.62551826,0.00016094778,-0.09769663,-0.014721043,-0.00019638587,0.018216047,0.00031624004,-0.01924099,0.47313643,-1.4071369,1.934676,-2.0955732,-1.5724076,2.448768,-0.051787764,0.19358782,-0.23474076,0.049175736,-0.016794648,-0.03236846,-0.24899697,0.22984336,-9.308657,0.9768804,47.70211,-0.8449249,-1.7602978,-3.5685532,-0.037770525,-0.2559236,-0.2011612,25.375,25.875,25.125,27.625,28.1875,28.5625
0.20205414,-0.6131021,0.26019543,0.15070157,0.005133093,0.02882824,-0.1362,-0.39056313,-0.35014018,0.060052667,-3.0763526,0.62553275,4.46316e-05,-0.09816129,-0.015140845,-0.00040911153,0.018162888,-0.00073602766,-0.01862974,0.47302845,-1.4067281,1.934234,-2.0954173,-1.5724434,2.4486833,-0.05177037,0.19568573,-0.23700128,0.050244987,-0.016276056,-0.03296071,-0.24899697,0.15322891,-9.289503,0.8672237,47.684196,-0.831241,-1.7429776,-3.55194,-0.015034174,-0.2711017,-0.20272094,25.375,25.875,25.125,27.625,28.1875,28.5625
0.20405401,-0.58766496,0.17559813,0.27896202,0.008599867,0.025236208,-0.14325817,-0.39078748,-0.3501901,0.060075287,-3.076352,0.62553287,0.00016175077,-0.099939,-0.015202439,0.00012941065,0.01851279,-3.0887026e-05,-0.019354051,0.47294402,-1.4063311,1.9337062,-2.0953443,-1.5724915,2.4485993,-0.052822463,0.19791035,-0.24122405,0.051773608,-0.016913671,-0.03328573,-0.22984336,0.17238252,-9.212888,0.8023209,47.682407,-0.9005561,-1.8689809,-3.4661689,0.008321833,-0.26604825,-0.2105053,25.375,25.875,25.125,27.625,28.1875,28.5625
0.20605405,-0.6528621,0.3160212,0.2015263,0.0075211716,0.023075491,-0.14302544,-0.39100593,-0.3502184,0.060068194,-3.0763166,0.62567955,0.0002097623,-0.100048736,-0.014722945,-0.0009041243,0.020375405,-0.0027744882,-0.019803824,0.47281188,-1.4059216,1.9332398,-2.095308,-1.5725158,2.4485636,-0.053457454,0.20066065,-0.24254982,0.053638108,-0.0173218,-0.033469565,-0.19153613,0.038307227,-9.3661175,0.84484416,47.686886,-0.85657847,-1.7890313,-3.5470433,0.008138218,-0.28000152,-0.205775,25.375,25.875,25.125,27.625,28.1875,28.5625
0.2080547,-0.593479,0.32139155,0.49146137,-0.0014744238,0.033149555,-0.14381509,-0.39119872,-0.35025412,0.06008174,-3.0762649,0.6257255,0.00018587933,-0.10160223,-0.015043103,-0.00071775715,0.020997453,-0.0029775521,-0.019654369,0.4727157,-1.4055362,1.9327244,-2.0951402,-1.5725397,2.448503,-0.053961765,0.2038538,-0.2471752,0.055532437,-0.017792124,-0.03411916,-0.21068975,-0.076614454,-9.32781,0.8672237,47.679718,-0.86697274,-1.9445341,-3.4875925,0.030847773,-0.29084948,-0.21963492,25.375,25.875,25.125,27.625,28.1875,28.5625
0.21005479,-0.40163553,0.4591276,0.297703,0.0057023726,0.030512204,-0.14619479,-0.39141178,-0.3502551,0.060066383,-3.0761516,0.6258366,0.00019108583,-0.10124665,-0.014155595,-0.0017415724,0.024175577,-0.0070727095,-0.019501068,0.4725716,-1.4051148,1.9322461,-2.0950305,-1.5726122,2.4484432,-0.054535702,0.20635016,-0.24875645,0.059707433,-0.01875629,-0.03484238,-0.17238252,-0.05746084,-9.174581,0.87617236,47.71823,-0.854064,-1.9777777,-3.435526,0.015296525,-0.28573748,-0.2268531,25.375,25.875,25.125,27.625,28.1875,28.5625
0.21205442,-0.60511124,0.12467998,0.42221144,0.022156768,0.021523874,-0.13892785,-0.39159003,-0.3502925,0.06005322,-3.0760794,0.62582123,0.00013358658,-0.10127203,-0.013962934,-0.002149494,0.024668837,-0.010023312,-0.020197093,0.47249916,-1.4046938,1.9317554,-2.094886,-1.5726479,2.4483707,-0.0554408,0.20809117,-0.2505922,0.06264772,-0.017854014,-0.035052244,-0.24899697,0.0,-9.11712,0.8157518,47.688675,-0.73525774,-2.006917,-3.478416,-0.014122369,-0.3098368,-0.26786393,25.375,25.875,25.125,27.625,28.1875,28.5625
0.21405444,-0.48242638,0.06986515,0.27795944,0.021179877,0.0151841,-0.14231302,-0.39182526,-0.35031804,0.06005825,-3.0760393,0.62587065,0.00016428533,-0.10222699,-0.013924909,-0.002669772,0.026042495,-0.011831539,-0.020591114,0.47235507,-1.4042599,1.9312161,-2.0947778,-1.5726842,2.448263,-0.056059852,0.21165624,-0.2541216,0.064844556,-0.018260473,-0.035274353,-0.22984336,0.11492168,-9.155427,0.89631605,47.719128,-0.7496034,-2.0180955,-3.4829183,-0.018296184,-0.31107014,-0.26549307,25.375,25.875,25.125,27.625,28.1875,28.5625
0.21605438,-0.090660445,0.078327455,0.123501584,0.015604298,0.018058231,-0.1437573,-0.39200684,-0.35032743,0.060036033,-3.0759244,0.625924,0.00011410144,-0.10222948,-0.012750762,-0.0026895744,0.02885419,-0.014611575,-0.021498725,0.47224662,-1.4038514,1.9307626,-2.0946443,-1.5727447,2.4482028,-0.05728902,0.21232504,-0.2560693,0.06987806,-0.019498475,-0.03559046,-0.15322891,0.19153613,-9.193734,0.87393653,47.668976,-0.7309513,-2.0291567,-3.4613476,-0.028371708,-0.31170094,-0.29692823,25.375,25.875,25.125,27.625,28.1875,28.5625
0.21805415,-0.31040162,0.1687171,0.35995767,0.004969767,0.0056050033,-0.14072101,-0.39222175,-0.35034668,0.06002836,-3.0758412,0.62607974,7.3448566e-05,-0.10172795,-0.01196952,-0.0029723528,0.031450693,-0.019332366,-0.021909459,0.4721024,-1.4034188,1.9302477,-2.0945103,-1.572769,2.4481668,-0.05805429,0.21381994,-0.2587245,0.07641983,-0.019660944,-0.035943214,-0.19153613,0.19153613,-9.212888,0.9097417,47.666286,-0.6925416,-2.0685487,-3.498531,-0.14532529,-0.32169586,-0.30440646,25.375,25.875,25.125,27.625,28.1875,28.5625
0.220054,-0.23353714,-0.12413125,0.069338635,0.003860435,0.012253189,-0.13640442,-0.39240935,-0.35038888,0.06002892,-3.0757656,0.6260436,1.3994089e-06,-0.10314941,-0.012338014,-0.002529668,0.03130073,-0.018538183,-0.021930497,0.47203022,-1.4029856,1.9296974,-2.0943067,-1.5728048,2.4480822,-0.058501303,0.215773,-0.26227093,0.077234976,-0.019900445,-0.0363651,-0.3256114,0.2681506,-9.174581,0.9030289,47.690468,-0.7033751,-1.9957283,-3.431676,-0.16267347,-0.33996603,-0.32647872,25.375,25.875,25.125,27.625,28.1875,28.5625
0.222054,-1.1521363,-0.90787065,-0.11022242,0.006192084,0.00396549,-0.12615669,-0.39261955,-0.35039514,0.05998619,-3.0756433,0.6260179,-6.62841e-05,-0.102842405,-0.011854088,-0.0034834016,0.033269018,-0.022384156,-0.021922585,0.47189805,-1.4024924,1.9291948,-2.0941856,-1.5728768,2.4479501,-0.059021953,0.21823245,-0.26381943,0.08063811,-0.019909918,-0.03689104,-0.24899697,0.30645782,-9.251195,0.83589023,47.678825,-0.64650345,-1.9611185,-3.503967,-0.21678472,-0.3342637,-0.34217948,25.375,25.875,25.125,27.625,28.1875,28.5625
0.22405528,-1.1682528,-0.8380338,0.19121929,-0.023446145,0.023220893,-0.1290641,-0.39284497,-0.3504381,0.06002851,-3.075607,0.62618256,-4.36264e-05,-0.103765815,-0.0124456305,-0.0024051424,0.032587834,-0.022017144,-0.021400155,0.47177818,-1.402108,1.9286078,-2.093993,-1.5728887,2.447938,-0.05904645,0.21885046,-0.26765892,0.08321755,-0.019477144,-0.037438292,-0.22984336,0.28730422,-9.32781,0.90527004,47.687782,-0.640877,-1.8419421,-3.4897141,-0.26631826,-0.35675737,-0.34577054,25.375,25.875,25.125,27.625,28.1875,28.5625
0.2260549,-0.79125357,-1.0305865,0.3108067,-0.024847344,0.0428871,-0.13948813,-0.3930233,-0.3504451,0.05998743,-3.0754855,0.6261963,-0.00021657498,-0.10524514,-0.011685275,-0.002148433,0.03227965,-0.021556688,-0.023956772,0.47164515,-1.4016508,1.9281296,-2.0938132,-1.5729121,2.4478295,-0.061690155,0.21952824,-0.26919204,0.08351892,-0.019425184,-0.03752191,-0.19153613,0.17238252,-9.32781,0.9030289,47.67614,-0.60181636,-1.9030399,-3.4143696,-0.3123737,-0.35912248,-0.35441178,25.375,25.875,25.125,27.625,28.1875,28.5625
0.22805485,-0.7133305,-0.5405413,0.13902661,-0.012547246,0.047409084,-0.14094219,-0.3932418,-0.35046697,0.059974153,-3.0753763,0.62626845,-0.0002486739,-0.105787076,-0.013107695,-0.002010979,0.03199392,-0.019679355,-0.021563722,0.47152588,-1.4011819,1.9275798,-2.0936587,-1.5729727,2.4477696,-0.05925826,0.22144379,-0.27150983,0.08211674,-0.020038448,-0.037478108,-0.21068975,0.24899697,-9.32781,0.88289046,47.67345,-0.47204515,-1.8409503,-3.522901,-0.33015275,-0.36784333,-0.37579894,25.375,25.875,25.125,27.625,28.1875,28.5625
0.23005491,-1.0922238,-0.23937766,0.0043543726,-3.149889e-05,0.03805275,-0.13365497,-0.39344373,-0.3504978,0.059957076,-3.0753016,0.6263286,-0.0003417259,-0.107744835,-0.014250853,-0.0009748688,0.030033633,-0.015605762,-0.020566372,0.47140616,-1.4007251,1.9270524,-2.0935037,-1.5729846,2.4476974,-0.05889296,0.222511,-0.2746575,0.07967388,-0.020162838,-0.03810627,-0.21068975,0.2873042,-9.308657,0.8784135,47.68062,-0.6906285,-1.8586235,-3.5024018,-0.32934597,-0.38741088,-0.39512,25.3125,25.875,25.125,27.625,28.1875,28.5625
0.23205474,-0.9725727,-0.45917186,-0.2956594,0.00095136656,0.044157017,-0.13692261,-0.39367163,-0.3505165,0.05995545,-3.0752382,0.626392,-0.00038081,-0.1086608,-0.014082563,-0.0014176996,0.030035092,-0.014072219,-0.020770382,0.47125006,-1.4002802,1.9265035,-2.0933497,-1.5730089,2.4475894,-0.059500948,0.2236869,-0.27449322,0.07696566,-0.020873439,-0.038506318,-0.095768064,0.30645782,-9.308656,0.900793,47.666286,-0.6144613,-1.7844986,-3.5725007,-0.3230759,-0.3966496,-0.4226999,25.3125,25.875,25.125,27.625,28.1875,28.5625
0.23405428,-0.84908,-0.8654877,-0.16966301,-0.008734667,0.035087105,-0.1460152,-0.39389122,-0.3505344,0.059945904,-3.075096,0.62643886,-0.00036717794,-0.110988334,-0.013907861,-0.0014954931,0.029786939,-0.011471916,-0.020956893,0.47115338,-1.399811,1.9259413,-2.0931823,-1.5731171,2.4475408,-0.061223067,0.22618058,-0.2766972,0.07424002,-0.021852659,-0.040035155,-0.05746084,0.34476504,-9.461885,0.8918391,47.689575,-0.54501545,-1.8760312,-3.7063046,-0.30989286,-0.40024757,-0.43447733,25.3125,25.875,25.125,27.625,28.1875,28.5625
0.23605455,-0.9249881,-1.4779466,-0.24977474,-0.028920226,0.03255378,-0.14025706,-0.39413327,-0.3505723,0.05993776,-3.0750542,0.6265613,-0.00037132477,-0.112142,-0.016107623,-0.0012920157,0.029199725,-0.007727818,-0.01582388,0.4710107,-1.3993297,1.9253782,-2.0930884,-1.5731295,2.4474802,-0.057605334,0.22925322,-0.28010103,0.07096549,-0.023050766,-0.04154341,-0.11492168,0.34476504,-9.442732,0.9186956,47.684196,-0.7513921,-1.9323535,-3.6728156,-0.25813133,-0.39912865,-0.4386534,25.3125,25.875,25.125,27.625,28.1875,28.5625
0.23805475,-0.9198598,-1.6958692,-0.25419503,-0.046439376,0.03254667,-0.13729313,-0.39431733,-0.3505756,0.059904378,-3.074901,0.62658715,-0.00050661067,-0.11441257,-0.01652519,-0.001270617,0.028353456,-0.005095723,-0.016004845,0.47089028,-1.3988721,1.9248756,-2.0928857,-1.5731901,2.447396,-0.05856968,0.23213921,-0.28299192,0.06823533,-0.023514269,-0.042319436,-0.17238252,0.36391866,-9.442732,0.8403672,47.690468,-0.76014304,-1.902639,-3.5224407,-0.2276203,-0.38834298,-0.4474458,25.3125,25.875,25.125,27.625,28.1875,28.5625
0.24005441,-0.73787475,-1.5946105,-0.46471745,-0.040789474,0.023839384,-0.13634749,-0.3945442,-0.3506079,0.05990622,-3.0748587,0.6265171,-0.0004666086,-0.11704919,-0.017168732,-0.0006386095,0.027739404,-0.001507182,-0.013157584,0.47078222,-1.398427,1.9243258,-2.0927665,-1.5732507,2.4472501,-0.0590548,0.23488961,-0.28729823,0.06630496,-0.024619233,-0.04564474,0.019153614,0.47884035,-9.672575,0.90750587,47.686886,-0.7265129,-1.9593289,-3.5949037,-0.18148547,-0.3971135,-0.44753766,25.3125,25.875,25.125,27.625,28.1875,28.5625
0.24205424,-0.05683173,-1.5873326,-0.30953318,-0.05274439,0.0327198,-0.14252172,-0.3948058,-0.35063845,0.059908237,-3.07476,0.626591,-0.0003897765,-0.11827672,-0.018266093,-0.0010556378,0.027416669,-0.00023360204,-0.009948798,0.4706626,-1.3979212,1.9237021,-2.0926359,-1.5733465,2.4471898,-0.05799205,0.23840086,-0.29009715,0.06429932,-0.024927428,-0.04778743,-0.019153614,0.51714754,-9.634268,0.8985519,47.672558,-0.84418017,-1.9970713,-3.5651722,-0.15765996,-0.39065465,-0.4168229,25.3125,25.875,25.125,27.625,28.1875,28.5625
0.24405415,-0.9158597,-2.1373262,-0.4350081,-0.038445823,0.007839762,-0.12987682,-0.39501742,-0.35069865,0.059905868,-3.0747373,0.6265861,-0.00043874703,-0.12070802,-0.018954255,-0.00013286623,0.026288692,0.0031259616,-0.010263565,0.47057846,-1.3974519,1.9231275,-2.0924919,-1.5733465,2.447106,-0.058581304,0.2403833,-0.2943377,0.06305082,-0.02546105,-0.048056696,-0.11492168,0.61291564,-9.576807,0.9030289,47.670765,-0.85514057,-2.1351078,-3.6797092,-0.11335051,-0.38957578,-0.40928757,25.3125,25.875,25.125,27.625,28.1875,28.5625
0.24605395,-0.5845071,-1.9801263,-0.8079208,-0.02441694,0.0056861644,-0.13472857,-0.39526585,-0.3507308,0.059901066,-3.0746562,0.62658644,-0.00041677523,-0.12225222,-0.0197191,0.0008410196,0.025939785,0.0040492755,-0.006846345,0.47045842,-1.3969468,1.9225167,-2.0923479,-1.5734185,2.446997,-0.05849524,0.24231671,-0.29941314,0.065196574,-0.02558604,-0.051384408,0.05746084,0.63206923,-9.749189,0.8672237,47.689575,-0.8351403,-2.1323576,-3.5276194,-0.092821606,-0.37403443,-0.38532096,25.3125,25.875,25.125,27.625,28.1875,28.5625
0.24805479,0.15757376,-1.7665228,-0.7909985,-0.036610533,0.020253252,-0.14032544,-0.3954992,-0.35079074,0.05988992,-3.0746427,0.6265614,-0.00042484002,-0.121695876,-0.019577155,-0.0001491172,0.026651531,0.0020111154,-0.0031877942,0.4703625,-1.3964419,1.9219311,-2.092252,-1.5734309,2.4468875,-0.058378007,0.24358077,-0.29880062,0.06544556,-0.02530553,-0.05492686,-0.019153614,0.6895301,-9.864111,0.8493211,47.67614,-0.9190442,-2.083364,-3.586431,-0.0898253,-0.36834434,-0.34833398,25.3125,25.875,25.125,27.625,28.1875,28.5625
0.25005454,-0.587303,-1.7692116,-0.6162116,-0.07106399,0.017525354,-0.13791364,-0.39572653,-0.35080236,0.059864968,-3.07453,0.6265351,-0.0005041038,-0.12184992,-0.018978419,-0.00067722186,0.028161315,0.0016135693,0.0005855593,0.47021848,-1.3959371,1.921358,-2.0920722,-1.5734915,2.446742,-0.05875209,0.2444118,-0.29869753,0.06553568,-0.02648961,-0.05906681,-0.019153614,0.78529817,-9.749189,0.9097417,47.683304,-0.86708397,-2.0502386,-3.7307563,-0.050837584,-0.38716233,-0.30501878,25.3125,25.875,25.125,27.625,28.1875,28.5625
0.25205433,-0.254417,-2.3260272,-0.58569765,-0.07422394,0.042044416,-0.14305417,-0.3959763,-0.35083982,0.05987952,-3.074451,0.6265772,-0.00040034574,-0.1220528,-0.018053059,-0.00050720596,0.030709038,0.00043524618,-0.0011986331,0.47012222,-1.395469,1.9207481,-2.0919392,-1.5735878,2.4466827,-0.059397716,0.24474984,-0.30038193,0.06908821,-0.028220162,-0.057921257,-0.05746084,0.5554548,-9.80665,0.8985519,47.66987,-0.92300296,-1.9820752,-3.7886088,-0.0435581,-0.36869326,-0.2846606,25.3125,25.875,25.125,27.625,28.1875,28.5625
0.25405404,-0.8733273,-2.5710819,-0.67416924,-0.046383746,0.031439785,-0.12545036,-0.39623985,-0.3508761,0.05986366,-3.0744145,0.62654716,-0.00042510696,-0.12383373,-0.018621687,0.0008826463,0.030391766,0.0025848034,0.0016173495,0.4699661,-1.3949276,1.9201244,-2.091819,-1.5736121,2.446513,-0.059480987,0.24574885,-0.30524927,0.07088477,-0.028929288,-0.06081474,-0.076614454,0.51714754,-9.672575,0.9567419,47.668976,-0.8743365,-1.873341,-3.787374,-0.05240504,-0.35453147,-0.2510431,25.3125,25.875,25.125,27.625,28.1875,28.5625
0.25605473,-0.864064,-1.4307386,-0.6344059,-0.028537374,0.02265989,-0.1288731,-0.3965071,-0.3509332,0.059885524,-3.0744176,0.6265275,-0.00030893247,-0.12564817,-0.019381346,0.002203721,0.028647931,0.006479433,0.0037329833,0.46985823,-1.3944473,1.9194916,-2.0917242,-1.5736603,2.4463928,-0.059577413,0.24581426,-0.30811623,0.06941246,-0.02915101,-0.06302635,-0.038307227,0.40222588,-9.730036,0.9365982,47.655537,-0.95973736,-1.8229569,-3.7493863,-0.02583768,-0.3383308,-0.2078178,25.3125,25.875,25.125,27.625,28.1875,28.5625
0.25805444,-0.50703675,-0.6035204,-0.6616767,-0.0011686744,0.022837525,-0.13332944,-0.3967547,-0.35097322,0.059880245,-3.0743566,0.62647563,-0.00033091617,-0.1277782,-0.01957062,0.0032935569,0.028426768,0.00847242,0.0026003271,0.46973783,-1.3939265,1.9188565,-2.0915554,-1.5737079,2.4462483,-0.060631752,0.24732538,-0.31277272,0.070677124,-0.029867252,-0.06294165,0.076614454,0.24899697,-9.615114,0.9298854,47.66091,-0.9711294,-1.9303889,-3.653398,0.01650777,-0.3243931,-0.17124346,25.3125,25.875,25.125,27.625,28.1875,28.5625
0.2600546,-0.51865214,-0.2872022,-0.5943349,0.024688559,0.010799235,-0.12941411,-0.3970202,-0.3510158,0.059903275,-3.0743222,0.62646884,-0.00019067108,-0.12896591,-0.019313537,0.0023998062,0.029910918,0.005977231,0.0011873427,0.46962944,-1.3934603,1.9182342,-2.0914476,-1.5737923,2.4461405,-0.06195603,0.2517604,-0.31652573,0.07288442,-0.030061869,-0.06285179,-0.019153614,0.22984336,-9.615114,0.95002913,47.6636,-0.81117857,-1.9888678,-3.662264,0.025597736,-0.3194216,-0.15386288,25.3125,25.875,25.125,27.625,28.1875,28.5625
0.26205474,-0.16988891,0.21311998,-0.5566302,0.019110367,0.015748886,-0.13949437,-0.39725313,-0.35107574,0.059874848,-3.0742824,0.6264203,-0.00025904214,-0.1286821,-0.021001298,0.0019844945,0.031156933,0.0035448212,0.0034032844,0.4695345,-1.3929065,1.9176234,-2.0913265,-1.5738047,2.4460208,-0.05872079,0.25586557,-0.32127827,0.076264516,-0.030077033,-0.06182852,-0.05746084,0.1340753,-9.557653,0.91198283,47.689575,-1.0373718,-1.9379089,-3.4517374,0.009545995,-0.31794578,-0.13297713,25.3125,25.875,25.125,27.625,28.1875,28.5625
0.2640546,0.0038486484,0.7589477,-0.54995483,0.025441889,0.01527439,-0.1370851,-0.397497,-0.35112077,0.059885647,-3.0742257,0.62639016,-0.00026468738,-0.12825413,-0.020179588,0.000563275,0.033774745,-0.0027212822,0.0010418803,0.46942616,-1.3924127,1.9169768,-2.0911329,-1.573852,2.4459014,-0.06003779,0.25953078,-0.32368782,0.08177682,-0.029570358,-0.06078439,-0.05746084,-0.019153614,-9.634268,0.87393653,47.687782,-1.053771,-2.1587918,-3.415488,-0.008852824,-0.32921737,-0.12459615,25.3125,25.875,25.125,27.625,28.1875,28.5625
0.2660549,-0.38350722,0.6334857,-0.5109548,0.031359486,0.0019268139,-0.14276293,-0.39778593,-0.351181,0.059913088,-3.074212,0.6263691,-0.00018034287,-0.1279625,-0.018289067,-0.00064898335,0.03796848,-0.008251601,-0.0027720206,0.46930528,-1.3918834,1.9162587,-2.0909755,-1.5739006,2.4457695,-0.062225435,0.26193333,-0.3251989,0.08771783,-0.030794838,-0.059153926,-0.11492168,0.038307227,-9.576807,0.90527004,47.67614,-1.0101156,-2.1348765,-3.414627,-0.07987292,-0.3106875,-0.118227944,25.3125,25.875,25.125,27.625,28.1875,28.5625
0.2680543,-0.73388165,-0.0070866025,-0.3197923,0.017752212,0.016445616,-0.13414665,-0.3980129,-0.3511992,0.059889797,-3.074083,0.62643784,-0.00025332966,-0.12609813,-0.017804211,-0.0011416894,0.04202484,-0.012228098,-0.0027723256,0.46917397,-1.3913746,1.9156746,-2.0907938,-1.5739611,2.4456983,-0.06022091,0.26214525,-0.32572496,0.09341867,-0.032606717,-0.057138767,-0.21068975,0.076614454,-9.519346,0.84484416,47.655537,-1.0356799,-2.2716384,-3.5737143,-0.15000498,-0.27782294,-0.10679211,25.3125,25.875,25.125,27.625,28.1875,28.5625
0.2700543,-0.21033485,0.027569223,-0.24537756,0.003585602,0.037516087,-0.14520589,-0.39831942,-0.35122895,0.059939563,-3.0740252,0.626408,-7.790638e-05,-0.12597369,-0.017271059,-0.0013573433,0.04445103,-0.01382954,-0.005074007,0.4690301,-1.390886,1.914945,-2.0906017,-1.5740813,2.4455438,-0.060067866,0.26314664,-0.32719177,0.09641154,-0.034037996,-0.05467938,-0.1340753,0.05746084,-9.500193,0.9030289,47.674347,-1.2126787,-2.075241,-3.7251902,-0.16625813,-0.26764446,-0.13778062,25.3125,25.875,25.125,27.625,28.1875,28.5625
0.27205426,-0.6853813,-0.35127345,0.10997725,-0.0074497177,0.035322256,-0.14005293,-0.39856774,-0.35127535,0.05994936,-3.0739675,0.6263776,-8.212639e-05,-0.12554026,-0.015889665,-0.0014625025,0.04724489,-0.018010879,-0.009688098,0.46892154,-1.3903812,1.914287,-2.0904076,-1.5741299,2.445424,-0.0616545,0.26350245,-0.32892457,0.10278757,-0.034626856,-0.051648248,-0.1340753,0.038307227,-9.32781,0.87617236,47.64479,-1.1065447,-2.0696435,-3.6942244,-0.26986024,-0.25129145,-0.17257479,25.3125,25.875,25.125,27.625,28.1875,28.5625
0.27405426,-0.4250586,-0.44332278,0.14682831,0.012433405,0.027247787,-0.13099395,-0.39880967,-0.35131192,0.059939504,-3.0738745,0.6264554,-0.00011352327,-0.12810913,-0.016622126,0.00033006878,0.04543938,-0.013798628,-0.012264138,0.46880135,-1.3898647,1.9136657,-2.0902402,-1.5741781,2.445365,-0.06240621,0.26404515,-0.33369672,0.102444485,-0.03493303,-0.0498185,-0.095768064,0.05746084,-9.193734,0.90750587,47.65912,-1.136489,-1.9811254,-3.6669207,-0.30234456,-0.22873852,-0.20895779,25.3125,25.875,25.125,27.625,28.1875,28.5625
0.27605414,-0.017870156,0.5552836,0.099992596,0.0102369785,0.019073388,-0.13583691,-0.39908308,-0.3513359,0.059945263,-3.0737605,0.6264114,-8.346241e-05,-0.13033813,-0.017834412,0.0020030912,0.042910237,-0.0090895025,-0.01309268,0.46866933,-1.3893244,1.91297,-2.0900252,-1.5742859,2.4452207,-0.062284146,0.2643584,-0.33761555,0.10069949,-0.034820866,-0.048864663,-0.038307227,-0.019153614,-9.193734,0.9254084,47.66987,-1.0871264,-1.7332635,-3.532981,-0.30405018,-0.20482466,-0.20957138,25.3125,25.875,25.125,27.625,28.1875,28.5625
0.27805427,-0.35340863,0.37311175,0.31722397,0.01141004,0.007944977,-0.14249118,-0.39930648,-0.35136822,0.0599074,-3.0736182,0.62638336,-0.00019175811,-0.13325945,-0.019360337,0.0031657633,0.039667998,-0.003960217,-0.015865607,0.46857324,-1.3887588,1.9123467,-2.0898235,-1.5743579,2.445126,-0.062521875,0.2664351,-0.34200707,0.096974224,-0.03426473,-0.04632463,-0.19153613,0.05746084,-9.174581,0.8717007,47.66091,-1.1569589,-1.7403646,-3.3849282,-0.2907072,-0.1824173,-0.2371795,25.3125,25.875,25.125,27.625,28.1875,28.5625
0.28005394,-0.52915186,-0.36527252,-0.2415819,0.019268595,0.016930182,-0.13061082,-0.39960328,-0.35140985,0.059950992,-3.0735583,0.62646675,-9.653599e-05,-0.13524893,-0.019734278,0.0039269677,0.03746681,0.0006716857,-0.017118605,0.46842885,-1.3882542,1.9116062,-2.0896094,-1.5744299,2.445042,-0.06346988,0.2664307,-0.3429041,0.0927424,-0.034404907,-0.046019133,-0.3256114,0.076614454,-9.270349,0.9768804,47.660015,-1.1079684,-1.5873247,-3.435058,-0.2459459,-0.16567975,-0.26338723,25.3125,25.875,25.125,27.625,28.1875,28.5625
0.28205472,-0.79131013,-0.57313573,-0.2211093,-0.02213249,0.04531878,-0.14177704,-0.39988333,-0.3514291,0.05996338,-3.0734622,0.62654245,-7.4669515e-05,-0.13747656,-0.02050397,0.00425384,0.035680987,0.004019798,-0.016484525,0.46826068,-1.387737,1.9109248,-2.0894072,-1.5745019,2.444934,-0.06406667,0.26867947,-0.3456792,0.08946116,-0.03434446,-0.047247373,-0.22984336,0.28730422,-9.423578,0.90750587,47.66987,-1.1042213,-1.6109121,-3.4943862,-0.22015703,-0.16108468,-0.2582227,25.3125,25.875,25.125,27.625,28.1875,28.5625
0.28405482,-1.5601841,-1.9035927,-0.24665147,-0.0537549,0.07377086,-0.13697952,-0.4001506,-0.35148957,0.059980903,-3.0734162,0.62658817,-5.9398863e-05,-0.13944156,-0.021046782,0.0035341748,0.034637786,0.004484768,-0.015500506,0.46815228,-1.387207,1.9102186,-2.0892165,-1.5745376,2.4448605,-0.065239824,0.2730126,-0.3487875,0.087334454,-0.033643834,-0.04940534,-0.30645782,0.38307226,-9.634268,0.9097417,47.657326,-1.1529613,-1.8494625,-3.5617306,-0.18129764,-0.15331855,-0.26547927,25.3125,25.875,25.125,27.625,28.1875,28.5625
0.28605402,-2.270888,-2.8566155,-0.23642911,-0.07090168,0.08066377,-0.12357826,-0.40043554,-0.35152575,0.060007583,-3.0733461,0.62657404,6.908276e-05,-0.1394219,-0.020858776,0.0012844463,0.035513747,0.0013694415,-0.016315794,0.46803212,-1.3867017,1.9095258,-2.089049,-1.5746459,2.444741,-0.06587645,0.27722543,-0.34842092,0.08591971,-0.033022575,-0.049229812,-0.45968673,0.51714754,-9.595961,0.9388393,47.684196,-1.0421683,-1.8292167,-3.59369,-0.15466201,-0.14097367,-0.2548749,25.3125,25.875,25.125,27.625,28.1875,28.5625
0.28805554,-1.7789203,-2.6252506,-0.27851692,-0.073725365,0.096410595,-0.13805373,-0.4007127,-0.3515717,0.05998749,-3.073232,0.62662774,4.282024e-05,-0.14033793,-0.02130218,0.0005718014,0.03428404,0.0010710425,-0.019116199,0.467912,-1.3860879,1.9088091,-2.0888703,-1.5747164,2.4446697,-0.066623114,0.27989239,-0.34972352,0.08426355,-0.031796258,-0.04717845,-0.5746084,0.61291564,-9.595961,0.92093146,47.672558,-1.0951414,-1.7789882,-3.777625,-0.11827633,-0.12573816,-0.29885265,25.3125,25.875,25.125,27.625,28.1875,28.5625
0.29005438,-1.6187342,-1.8457114,-0.082027934,-0.074544914,0.08268865,-0.13966812,-0.4009977,-0.35160163,0.059981644,-3.0731611,0.6267078,5.5106695e-05,-0.14164056,-0.021544091,0.0011410443,0.032818,0.0029838851,-0.01849182,0.46774346,-1.385535,1.9081391,-2.0887268,-1.5747646,2.4445608,-0.067542955,0.28026074,-0.35134518,0.08313313,-0.03136499,-0.048723333,-0.4405331,0.6512228,-9.653421,0.9298854,47.674347,-1.0073806,-1.8087058,-3.8354945,-0.09909459,-0.12723169,-0.3180323,25.3125,25.875,25.125,27.625,28.1875,28.5625
0.29205444,-1.3925904,-1.846469,-0.08088541,-0.044400316,0.059739012,-0.13709818,-0.4012769,-0.3516634,0.059994325,-3.0731277,0.6266812,9.75533e-05,-0.14377648,-0.022125132,0.002180888,0.030505873,0.005577878,-0.019360479,0.46763512,-1.3849822,1.9074215,-2.0885599,-1.5748128,2.4444406,-0.06890321,0.28128254,-0.3548701,0.08226763,-0.030483147,-0.049217593,-0.22984336,0.5554548,-9.481039,1.0037369,47.66987,-1.0527306,-1.7227063,-3.722011,-0.047375515,-0.13108146,-0.31832182,25.3125,25.875,25.125,27.625,28.1875,28.5625
0.29405466,-1.283336,-1.6894714,-0.18017732,-0.015183327,0.023402415,-0.12598906,-0.40160125,-0.35171437,0.060017176,-3.0730767,0.62682456,0.00026181818,-0.14617975,-0.023327194,0.0033084622,0.027854277,0.008063997,-0.020036247,0.46749085,-1.3844169,1.906679,-2.0884516,-1.5748962,2.444393,-0.06963408,0.28346822,-0.3600744,0.08185882,-0.029246807,-0.049278278,-0.40222588,0.53630114,-9.3661175,0.900793,47.655537,-0.88567096,-1.7189631,-3.5998719,-0.022783162,-0.13415907,-0.33779013,25.3125,25.875,25.125,27.625,28.1875,28.5625
0.2960547,-1.1001709,-1.0649928,-0.07807814,-0.014133198,0.00798072,-0.12636241,-0.40188026,-0.35175297,0.060008984,-3.0730045,0.6268463,0.00021554576,-0.14593434,-0.023610046,0.0023349419,0.028182378,0.0049240435,-0.020207338,0.4673349,-1.3838391,1.9059733,-2.08826,-1.5749315,2.4442604,-0.069559544,0.28617412,-0.3615962,0.0836166,-0.028127642,-0.04903551,-0.47884035,0.4213795,-9.3661175,0.9634547,47.661808,-1.0702224,-1.730988,-3.5996819,0.035129167,-0.14920415,-0.3517453,25.3125,25.875,25.125,27.625,28.1875,28.5625
0.29805413,-0.22234678,-0.61074483,-0.23499785,-0.016293457,0.01853569,-0.14040585,-0.40219328,-0.3518177,0.06002585,-3.0729878,0.6268435,0.00029938365,-0.14690079,-0.023408847,0.0022458776,0.02868141,0.0026756502,-0.021310544,0.46720243,-1.3832502,1.9052075,-2.088115,-1.5749797,2.4441288,-0.07103181,0.28878552,-0.3653983,0.087029904,-0.027561631,-0.049406845,-0.3256114,0.36391866,-9.346964,0.9388393,47.687782,-0.93887675,-1.65341,-3.5745301,0.014044422,-0.13140692,-0.36537337,25.3125,25.875,25.125,27.625,28.1875,28.5625
0.30005422,-0.14401978,-0.4791946,-0.0847668,-0.02027739,0.015014827,-0.13678232,-0.40249532,-0.35185823,0.06003666,-3.0729103,0.6269811,0.00035010237,-0.14849922,-0.022623401,0.002400172,0.029193394,0.001040317,-0.02287077,0.46704525,-1.3826846,1.9044775,-2.0879462,-1.5750393,2.444068,-0.073872074,0.29104137,-0.36931333,0.09036614,-0.027289197,-0.050686795,-0.28730422,0.2681506,-9.404425,0.98135734,47.657326,-0.719921,-1.8329333,-3.5467205,0.020536594,-0.14054716,-0.36685216,25.3125,25.875,25.125,27.625,28.1875,28.5625
0.30205435,-0.31267184,-0.24682876,0.259912,-0.019784983,0.012987968,-0.13655445,-0.4028098,-0.3518975,0.06005835,-3.0728285,0.62703794,0.0004203615,-0.14567083,-0.02228658,0.0012859941,0.032784857,-0.007661147,-0.020050418,0.46689013,-1.3821075,1.9037002,-2.0877388,-1.5751227,2.4439595,-0.07235438,0.29247877,-0.3707268,0.09971224,-0.026567364,-0.051993195,-0.22984336,0.1340753,-9.346964,0.9455522,47.66987,-0.9040812,-1.7121813,-3.4969125,-0.06350706,-0.12404409,-0.36820513,25.3125,25.875,25.125,27.625,28.1875,28.5625
0.30405405,-0.3802391,-0.09219344,0.4221608,0.0077769402,0.013058695,-0.13197203,-0.40309617,-0.35194558,0.06005135,-3.0727627,0.62710136,0.00040414918,-0.14673376,-0.021293446,0.0015886383,0.03338605,-0.009919973,-0.020944262,0.46674496,-1.381519,1.9029831,-2.0875704,-1.5751585,2.443863,-0.07520916,0.29365042,-0.37392807,0.10401358,-0.026096316,-0.053954642,-0.22984336,0.19153613,-9.155427,0.88960326,47.690468,-0.81245124,-1.6911545,-3.604337,-0.09064345,-0.15550208,-0.3604122,25.3125,25.875,25.125,27.625,28.1875,28.5625
0.30605477,-0.47657725,0.40018916,0.32924932,0.044779338,0.002598934,-0.12711899,-0.40339983,-0.35200778,0.06006543,-3.072723,0.62709147,0.0004705586,-0.14728016,-0.020778075,0.0019582955,0.034142897,-0.012079447,-0.02000659,0.4666244,-1.3809301,1.9022173,-2.0874016,-1.5752186,2.4437418,-0.076678626,0.2945958,-0.3770397,0.10843073,-0.025807418,-0.056362785,-0.076614454,0.11492168,-9.059659,0.98135734,47.67614,-0.7047101,-1.6019523,-3.6368747,-0.13431811,-0.16562624,-0.34472305,25.3125,25.875,25.125,27.625,28.1875,28.5625
0.30805495,0.25145698,1.4497865,0.21497498,0.0525201,0.004805594,-0.14711772,-0.40370443,-0.35206476,0.06006618,-3.0726771,0.6270808,0.0003714,-0.14774513,-0.0209085,0.00092303264,0.0354163,-0.01572922,-0.018667538,0.46645632,-1.3802918,1.9014038,-2.0871484,-1.5752181,2.4435735,-0.07708121,0.29896173,-0.3807218,0.11156567,-0.025318673,-0.058103282,-0.019153614,-0.11492168,-9.212888,0.9410752,47.655537,-0.6333189,-1.7546287,-3.5571423,-0.17527574,-0.1863612,-0.32569265,25.3125,25.875,25.125,27.625,28.1875,28.5625
0.3100543,0.35126925,1.1102985,0.8089065,0.053844158,0.011961025,-0.13799414,-0.4039756,-0.35210854,0.060043328,-3.0725553,0.6270729,0.00034223704,-0.14763758,-0.020465108,-0.00055165513,0.037358478,-0.02005435,-0.017078616,0.4663481,-1.379678,1.9006866,-2.0869558,-1.575303,2.4434767,-0.07780794,0.3026335,-0.3825111,0.114400834,-0.025122322,-0.060417045,-0.05746084,-0.1340753,-9.002198,0.9164598,47.674347,-0.6530569,-1.8562983,-3.5207567,-0.20071527,-0.18971398,-0.30966038,25.3125,25.875,25.125,27.625,28.1875,28.5625
0.31205404,-0.2852808,0.9921158,0.971487,0.032375023,0.007738397,-0.13779038,-0.4042775,-0.35213768,0.060049977,-3.0724568,0.6270877,0.0003334885,-0.14887923,-0.02059536,-0.0012468414,0.03751751,-0.019558202,-0.014375433,0.46617988,-1.3790889,1.8999208,-2.0867174,-1.5753745,2.443331,-0.07833505,0.30560866,-0.38423985,0.11276068,-0.025515672,-0.06364295,-0.22984336,-0.22984336,-8.983045,0.8873621,47.65464,-0.583743,-1.907645,-3.4919853,-0.23183842,-0.17776644,-0.27810946,25.3125,25.875,25.125,27.625,28.1875,28.5625
0.31405494,0.2405236,0.94044685,0.75036585,0.023830999,0.03640881,-0.15238594,-0.40455818,-0.35216913,0.060021482,-3.072308,0.62718964,0.00017176842,-0.1512196,-0.021906324,0.00013147276,0.036048815,-0.015812557,-0.012671881,0.46601212,-1.378439,1.8991545,-2.0864427,-1.5754107,2.4432468,-0.07778474,0.30748117,-0.38967702,0.11230886,-0.025919564,-0.06478803,-0.095768064,-0.076614454,-8.963891,0.947788,47.667187,-0.5729916,-1.937459,-3.474846,-0.22247028,-0.21567437,-0.24594682,25.3125,25.875,25.125,27.625,28.1875,28.5625
0.3160547,-0.7504448,0.025297899,0.7446989,0.0017499368,0.04354122,-0.14350691,-0.4048649,-0.35220325,0.060027827,-3.0722227,0.62712884,0.00018916445,-0.15306744,-0.022778537,0.00071291806,0.034004755,-0.01133126,-0.007877368,0.4658563,-1.3778386,1.8983783,-2.0862167,-1.5754946,2.4430647,-0.07766831,0.3083086,-0.39119074,0.10804233,-0.026144547,-0.06946299,-0.17238252,0.15322891,-8.925584,0.9701675,47.69763,-0.71058,-1.813723,-3.3992257,-0.209512,-0.20800635,-0.19352809,25.3125,25.875,25.125,27.625,28.1875,28.5625
0.31805426,-0.7351347,-0.6030934,0.72147614,-0.027895201,0.06517444,-0.14589934,-0.4051667,-0.35225838,0.060020976,-3.0721684,0.62717557,9.744991e-05,-0.15503588,-0.024263738,0.0022561348,0.031340536,-0.0051662712,-0.007434878,0.4656887,-1.3772017,1.8975881,-2.0859911,-1.5754946,2.4429338,-0.076485164,0.3080564,-0.39370307,0.10410294,-0.026553674,-0.068717375,-0.36391866,0.21068975,-8.868123,0.8851263,47.67345,-0.7769736,-1.7832012,-3.4934907,-0.17442359,-0.20011969,-0.13768749,25.3125,25.875,25.125,27.625,28.1875,28.5625
0.32005423,-1.1625156,-1.6188331,0.46086377,-0.038783655,0.06834864,-0.14070645,-0.40546918,-0.352308,0.060032457,-3.0720909,0.62715846,0.000117900076,-0.15711045,-0.023857275,0.0023085708,0.030523654,-0.0027029836,-0.009270033,0.465556,-1.3766011,1.896799,-2.0857642,-1.5755666,2.442801,-0.07865713,0.30945334,-0.39505756,0.1014842,-0.026945073,-0.06905053,-0.49799395,0.38307226,-9.097966,0.9858343,47.67614,-0.664025,-1.7561727,-3.5749373,-0.12250293,-0.18726027,-0.12996794,25.3125,25.875,25.125,27.625,28.1875,28.5625
0.32205403,-1.175349,-2.220378,0.12254652,-0.044694196,0.06784622,-0.13710055,-0.4057909,-0.3523403,0.060020257,-3.0720098,0.6271571,0.0001380228,-0.15719621,-0.025845774,0.0028001075,0.029306754,6.609674e-05,-0.0035331824,0.46537745,-1.375964,1.8960336,-2.0855973,-1.5756391,2.4426327,-0.07512119,0.31015584,-0.39672622,0.09940989,-0.027122667,-0.07124898,-0.28730422,0.5363012,-9.212888,0.95897776,47.65912,-0.82623327,-1.6117853,-3.6668477,-0.08274302,-0.22141223,-0.10166032,25.3125,25.875,25.125,27.625,28.1875,28.5625
0.32405454,-1.3663112,-2.0672255,0.022544704,-0.048637494,0.047866978,-0.12702246,-0.4060901,-0.35239425,0.060015384,-3.071932,0.6271613,7.535462e-05,-0.1576553,-0.025514726,0.002098172,0.03086768,-0.0010375633,-0.0066788727,0.46523306,-1.3753263,1.895234,-2.085358,-1.5756754,2.4425015,-0.075446635,0.312438,-0.398217,0.10031623,-0.028020326,-0.068421364,-0.30645782,0.7086837,-9.308656,0.9768804,47.67614,-0.8724872,-1.589092,-3.6587858,-0.056882102,-0.20219618,-0.09577713,25.3125,25.875,25.125,27.625,28.1875,28.5625
0.32605407,-0.787305,-1.9414095,0.2554995,-0.05235949,0.043056358,-0.13722187,-0.40640363,-0.3524398,0.059993025,-3.0718193,0.62714076,8.762778e-05,-0.15961473,-0.023833128,0.0014226799,0.032684766,-0.0010639251,-0.012572976,0.46509972,-1.3746519,1.8944439,-2.0851777,-1.5757722,2.4423707,-0.07893636,0.3148684,-0.39973822,0.10025366,-0.029633082,-0.06600591,-0.45968673,0.6512228,-9.232041,0.96569055,47.684196,-0.654215,-1.5981898,-3.805542,-0.0245497,-0.19032416,-0.10345338,25.3125,25.875,25.125,27.625,28.1875,28.5625
0.3280541,-0.3604776,-1.6394982,0.037968297,-0.036115218,0.024032729,-0.13043536,-0.40670866,-0.35248202,0.05998495,-3.0717149,0.6271924,5.1165134e-05,-0.15974765,-0.025958037,0.0011888982,0.03190734,-0.0012859659,-0.011043749,0.46494508,-1.3740151,1.8936547,-2.0849507,-1.5758318,2.4422624,-0.075820245,0.3182329,-0.4034301,0.10042788,-0.028847365,-0.06441957,-0.2681506,0.7469909,-9.270349,0.9791215,47.661808,-0.85351884,-1.7706691,-3.7098846,-0.013772828,-0.18715328,-0.11621858,25.3125,25.875,25.125,27.625,28.1875,28.5625
0.33005482,-0.21293196,-1.8461944,0.09617589,-0.03855046,0.02369576,-0.12955125,-0.40701857,-0.35252538,0.059959095,-3.0716197,0.6272321,2.757087e-05,-0.16202562,-0.026347117,0.0011094512,0.030500913,-0.0010136765,-0.01452945,0.46478838,-1.3733526,1.8928884,-2.0847828,-1.5758914,2.4421434,-0.0777345,0.32199526,-0.40788057,0.10023805,-0.027722614,-0.062850595,-0.2873042,0.63206923,-9.270349,0.95897776,47.675243,-0.79573447,-1.7895693,-3.751443,0.012972239,-0.21533334,-0.116875626,25.3125,25.875,25.125,27.625,28.1875,28.5625
0.332054,-0.6501313,-2.0728023,-0.043314334,-0.02084871,0.01081274,-0.12490898,-0.40738496,-0.35259202,0.059993535,-3.0716155,0.62732863,0.00014327375,-0.16317174,-0.026786666,0.0019251182,0.029761652,-0.000878024,-0.017457085,0.46460813,-1.3727164,1.8920153,-2.084614,-1.5759271,2.4420245,-0.07824562,0.32318804,-0.4118737,0.102589265,-0.027114512,-0.060438126,-0.21068975,0.51714754,-9.212888,0.9254084,47.64927,-0.82026255,-1.836242,-3.640216,0.025982045,-0.22444102,-0.13679066,25.3125,25.875,25.125,27.625,28.1875,28.5625
0.3340541,-0.39579052,-1.4553245,-0.101848274,-0.015075678,0.0029473386,-0.1269874,-0.407694,-0.3526334,0.059975274,-3.0714724,0.6273935,9.9192315e-05,-0.16289797,-0.026750155,0.0010870356,0.032735493,-0.005055637,-0.018512692,0.46446446,-1.3720423,1.8912009,-2.0843732,-1.5760115,2.4419405,-0.077503726,0.32676074,-0.4155797,0.10779341,-0.027898733,-0.058632433,-0.15322891,0.34476504,-9.289502,0.9410752,47.653748,-0.7851449,-1.9260359,-3.5145493,0.00790563,-0.22544998,-0.1549564,25.3125,25.875,25.125,27.625,28.1875,28.5625
0.33605492,0.20396605,-0.5468024,0.14040168,-0.008886739,0.01240913,-0.13050379,-0.4080301,-0.35269848,0.059983123,-3.0714228,0.6274033,9.210591e-05,-0.16208258,-0.02579117,-0.00053589814,0.03563155,-0.011489945,-0.021408264,0.46430805,-1.3713689,1.8903297,-2.0841439,-1.5760473,2.4417973,-0.07853703,0.33000752,-0.41715726,0.11317678,-0.027595008,-0.05677075,-0.19153613,0.4405331,-9.251195,0.98135734,47.65464,-0.8231678,-2.024948,-3.6190963,-0.025606979,-0.24498612,-0.17806222,25.3125,25.875,25.125,27.625,28.1875,28.5625
0.33805463,0.41111258,-0.23788218,-0.20638525,0.004359724,0.009900762,-0.13771357,-0.40836743,-0.35274866,0.05997379,-3.0713418,0.6274433,9.7177595e-05,-0.15917462,-0.024695609,-0.0021201635,0.039281797,-0.019884584,-0.022252435,0.4641404,-1.3706841,1.8894919,-2.0839498,-1.5761074,2.4416656,-0.07812939,0.3306625,-0.4162297,0.12073192,-0.027083095,-0.055522036,-0.019153614,0.38307226,-9.232041,0.9186956,47.666286,-0.85154605,-1.9326704,-3.7467546,-0.12040874,-0.2569695,-0.20713486,25.3125,25.875,25.125,27.625,28.1875,28.5625
0.34005436,0.058627963,-0.07432773,-0.20993698,0.011009916,-0.009108502,-0.13362597,-0.40866917,-0.3527804,0.059935264,-3.0711904,0.6274877,-3.2075004e-05,-0.15890168,-0.024477024,-0.001971491,0.04106792,-0.022735922,-0.023187896,0.4639723,-1.3699868,1.8886918,-2.0836966,-1.576168,2.4415457,-0.07797908,0.33168012,-0.4191714,0.12600465,-0.027408209,-0.054429922,0.095768064,0.28730422,-9.385271,1.0149267,47.683304,-0.8983761,-1.9991596,-3.827251,-0.15267865,-0.27476442,-0.24501026,25.3125,25.875,25.125,27.625,28.1875,28.5625
0.34205422,0.29752395,-0.15104145,-0.07024825,-0.0014515662,-0.003250763,-0.13013314,-0.40898895,-0.35283133,0.05994013,-3.0710678,0.6275778,-5.856769e-05,-0.15990509,-0.024594575,-0.000901953,0.04190274,-0.022791078,-0.024215693,0.4638284,-1.3693258,1.8878306,-2.0834205,-1.5762395,2.4414747,-0.07810462,0.33258575,-0.42381385,0.13016436,-0.028136386,-0.05352016,0.05746084,0.19153613,-9.3661175,0.97240865,47.682407,-0.89198565,-1.9333689,-3.7841582,-0.22589791,-0.26305398,-0.25928196,25.3125,25.875,25.125,27.625,28.1875,28.5625
0.34405428,0.30012923,-0.22847068,-0.14625217,0.0043105064,-0.0038032134,-0.14281625,-0.4093146,-0.3528979,0.059939895,-3.071007,0.6275443,-0.00010520498,-0.1612048,-0.025004525,-0.001990614,0.042853035,-0.024843266,-0.024402801,0.46368423,-1.3686393,1.8869556,-2.0831683,-1.5762752,2.441318,-0.07846818,0.33797464,-0.42826927,0.13148448,-0.028085073,-0.05369315,-0.019153614,0.19153613,-9.346964,0.9567419,47.66091,-0.8966539,-1.9854323,-3.6420755,-0.27878875,-0.2735623,-0.28168902,25.3125,25.875,25.125,27.625,28.1875,28.5625
0.3460546,0.29112,-0.014555224,-0.5103262,0.00071324524,0.008823536,-0.13540468,-0.40964174,-0.3529384,0.05993912,-3.0708492,0.6277014,-0.00017285657,-0.16356926,-0.027234823,0.00025627328,0.03898661,-0.018049598,-0.023375642,0.4635169,-1.3679546,1.8860706,-2.0828583,-1.5763472,2.44127,-0.07684512,0.3378261,-0.4326953,0.1282471,-0.027691482,-0.053095117,0.076614454,0.095768064,-9.461885,0.900793,47.68599,-0.9646014,-2.0414953,-3.489575,-0.27240655,-0.29534343,-0.29771802,25.3125,25.875,25.125,27.625,28.1875,28.5625
0.3480548,-0.43578994,-0.5423972,-0.37997738,-0.010981214,0.014886365,-0.13234897,-0.40993902,-0.35299686,0.059913043,-3.0707405,0.62775654,-0.00027699405,-0.16657165,-0.026736675,-0.00016121041,0.03774141,-0.0154183395,-0.026287265,0.46338353,-1.3672689,1.8852576,-2.0826204,-1.576383,2.441186,-0.08012945,0.3409644,-0.4348282,0.12432416,-0.027779758,-0.053463124,0.076614454,0.17238252,-9.461885,0.92093146,47.65912,-0.89843833,-2.0066748,-3.5141063,-0.27222013,-0.32430336,-0.32123995,25.3125,25.875,25.125,27.625,28.1875,28.5625
0.3500547,-0.9120658,-0.8214312,-0.5442873,-0.018789459,0.029739192,-0.1328436,-0.41029072,-0.35304004,0.05993258,-3.070661,0.62779355,-0.00026932685,-0.16681878,-0.028654933,-0.0020181732,0.03781772,-0.013735367,-0.021011168,0.4631931,-1.3666068,1.8843607,-2.0823467,-1.5764436,2.4410295,-0.07644861,0.34571713,-0.43515822,0.11841566,-0.028630065,-0.055051237,0.0,0.21068975,-9.500193,0.9388393,47.672558,-1.0653999,-2.1583,-3.6896665,-0.16703494,-0.32800746,-0.3375433,25.3125,25.875,25.125,27.625,28.1875,28.5625
0.35205445,-1.1244056,-1.1403035,-0.43236956,-0.03962566,0.05489955,-0.13791999,-0.41064402,-0.35311258,0.059949286,-3.0706098,0.6279004,-0.00023996043,-0.16910937,-0.028515728,-0.0021443448,0.03656725,-0.009878173,-0.02532853,0.46303642,-1.3659215,1.8834528,-2.0821216,-1.5764798,2.4409468,-0.078170314,0.34730121,-0.43589497,0.113569714,-0.029239696,-0.052451264,-0.15322891,0.19153613,-9.615114,0.98135734,47.653748,-1.0579509,-2.2483306,-3.7953205,-0.13000779,-0.33562008,-0.37935343,25.3125,25.875,25.125,27.625,28.1875,28.5625
0.3540558,-0.8262012,-1.7302613,-0.6060324,-0.04849878,0.07454774,-0.14296281,-0.41094363,-0.35317022,0.059915774,-3.0704942,0.6278563,-0.00033513695,-0.17155515,-0.027832007,-0.0013386795,0.035603274,-0.006816544,-0.028028097,0.4629154,-1.3652128,1.8826278,-2.0818827,-1.5765404,2.440814,-0.0810186,0.34766468,-0.4380876,0.11222358,-0.029762628,-0.052592665,-0.076614454,0.24899697,-9.730036,0.95897776,47.657326,-0.8461239,-2.24551,-3.944656,-0.06672239,-0.34967023,-0.4123106,25.3125,25.875,25.125,27.625,28.1875,28.5625
0.35605526,-1.2738531,-1.56466,-0.58735585,-0.047560565,0.036598854,-0.13533473,-0.41129422,-0.3532098,0.059915062,-3.070401,0.6279688,-0.0003571257,-0.17223322,-0.029316636,-0.0010189438,0.03568578,-0.005615095,-0.024900507,0.46271247,-1.3645273,1.8817552,-2.0816429,-1.576588,2.440694,-0.078577645,0.35005543,-0.44199878,0.11269577,-0.0303909,-0.053272463,-0.038307227,0.21068975,-9.710882,1.0104496,47.672558,-1.0472146,-2.1890483,-3.9691749,-0.064112134,-0.36532316,-0.44203007,25.3125,25.875,25.125,27.625,28.1875,28.5625
0.35805452,-0.54507995,-1.0402486,-0.4943659,-0.037091304,0.02439913,-0.13373312,-0.4116389,-0.35327515,0.059906226,-3.0702932,0.6279454,-0.00027497488,-0.17495784,-0.029300313,0.0014156465,0.03375503,0.000110468995,-0.024659526,0.4626038,-1.3638071,1.8808702,-2.0814517,-1.5767092,2.4405856,-0.08031894,0.34829175,-0.44548872,0.11194569,-0.031241199,-0.055248052,-0.40222588,0.38307226,-9.634268,0.9231726,47.67345,-0.9844603,-1.9910326,-3.7373683,-0.04719173,-0.35120386,-0.43965095,25.3125,25.875,25.125,27.625,28.1875,28.5625
0.36005428,-0.2541766,-0.81504107,-1.073766,-0.0033351902,0.0095218355,-0.13241948,-0.41198248,-0.3533217,0.059917748,-3.070195,0.6280975,-0.00032198356,-0.17637467,-0.029360605,0.0020105343,0.033531465,0.0017890156,-0.026746511,0.4624115,-1.3631341,1.8799733,-2.0811641,-1.5767444,2.4405017,-0.08097411,0.34920612,-0.44819072,0.11213433,-0.03179476,-0.05381002,-0.38307226,0.4405331,-9.615114,1.0171678,47.690468,-1.0384742,-1.9216259,-3.7858272,0.007553915,-0.36268437,-0.48482966,25.3125,25.875,25.125,27.625,28.1875,28.5625
0.3620543,-0.61095023,-0.6613849,-1.2888284,0.003842651,0.0014786569,-0.13325468,-0.4123483,-0.35340157,0.05993173,-3.0701451,0.6280844,-0.00024731844,-0.17555523,-0.028698666,0.0012700157,0.036484055,-0.0024451201,-0.023885071,0.46227956,-1.3624129,1.8790282,-2.0809467,-1.5768164,2.4403687,-0.08083697,0.35083875,-0.44982195,0.11721787,-0.032555763,-0.056529716,-0.15322891,0.4405331,-9.921572,0.98135734,47.66808,-1.0150273,-1.8274877,-3.793281,0.008921489,-0.37070277,-0.4936919,25.3125,25.875,25.125,27.625,28.1875,28.5625
0.3640542,-0.9099468,-1.0937564,-1.13458,-0.026350133,0.02579275,-0.12309581,-0.41269258,-0.35345337,0.059953608,-3.070059,0.6281402,-0.00024501115,-0.17476144,-0.027639674,0.00039824628,0.040607102,-0.008413558,-0.021228202,0.4621115,-1.3617512,1.8781198,-2.0806568,-1.576877,2.4402473,-0.08121925,0.35336304,-0.4527592,0.12478804,-0.033594932,-0.059560318,-0.4213795,0.34476504,-9.921572,0.9791215,47.696735,-0.99609035,-1.9697316,-3.862379,-0.05265204,-0.36276376,-0.48085445,25.3125,25.875,25.125,27.625,28.1875,28.5625
0.3660554,-1.6289175,-1.5691394,-0.8998052,-0.030597426,0.05764058,-0.12602545,-0.41302428,-0.35350564,0.05993351,-3.0699258,0.62820655,-0.00033074067,-0.17310901,-0.02590725,-0.0017360002,0.046146724,-0.017220045,-0.018960394,0.46195513,-1.3610175,1.8772229,-2.0803788,-1.5769376,2.4401505,-0.08201671,0.35682994,-0.45412993,0.13302056,-0.034639213,-0.06261496,-0.47884035,0.2873042,-9.825804,1.0283576,47.674347,-0.95132685,-2.0688803,-4.026693,-0.15661612,-0.37221873,-0.46926764,25.3125,25.875,25.125,27.625,28.1875,28.5625
0.3680544,-1.6438329,-0.92637724,-1.0024213,-0.019167481,0.0673091,-0.13125,-0.4133899,-0.35357326,0.059951883,-3.0698488,0.62816894,-0.00028809294,-0.17327836,-0.025010979,-0.00255321,0.049104754,-0.021838795,-0.016691463,0.4618108,-1.360297,1.876254,-2.0801013,-1.577022,2.4399934,-0.083208084,0.36005387,-0.45764557,0.13873568,-0.035248626,-0.06606944,-0.2681506,0.24899697,-9.940725,0.97464454,47.68062,-0.97436714,-2.0957098,-4.0339127,-0.23904279,-0.36931837,-0.44073796,25.3125,25.875,25.125,27.625,28.1875,28.5625
0.37005553,-1.840596,-0.6880385,-0.55291015,-0.013350578,0.06763378,-0.13219978,-0.41373417,-0.3536123,0.059928395,-3.0697334,0.6282566,-0.0003926504,-0.17509376,-0.025469001,-0.0027213318,0.050068006,-0.022112338,-0.012885326,0.4616068,-1.3595638,1.8753675,-2.0798376,-1.5770582,2.4398599,-0.083380386,0.36446592,-0.46320143,0.14052193,-0.036034,-0.07003678,-0.28730422,0.22984336,-9.80665,0.9768804,47.660015,-0.9627134,-2.1708043,-3.8044505,-0.2921148,-0.3731771,-0.40741277,25.3125,25.875,25.125,27.625,28.1875,28.5625
0.3720543,-1.2372019,-0.23819998,-0.407969,0.007644708,0.05293647,-0.14171298,-0.414114,-0.35367218,0.059975974,-3.0697005,0.62821037,-0.00026888747,-0.17866503,-0.024832182,-0.00089510385,0.04835955,-0.017120454,-0.012924939,0.46143746,-1.3589046,1.8744081,-2.0795748,-1.5771421,2.4396665,-0.08692614,0.3644289,-0.4672659,0.13936149,-0.03676132,-0.07353847,-0.3256114,0.17238252,-9.576807,0.9791215,47.65106,-0.81827396,-2.0535488,-3.7195196,-0.31834748,-0.35466498,-0.37989688,25.3125,25.875,25.125,27.625,28.1875,28.5625
