Tylouw/Master_Thesis_Code/training_data/batch_1/small_rod_t0.1/sample_90_session_3.csv
timestamp[s],tcp_force_x[N],tcp_force_y[N],tcp_force_z[N],tcp_force_rx[Nm?],tcp_force_ry[Nm?],tcp_force_rz[Nm?],tcp_pose_x[m],tcp_pose_y[m],tcp_pose_z[m],tcp_pose_rx[rot_vec_x],tcp_pose_ry[rot_vec_y],tcp_pose_rz[rot_vec_z],tcp_velo_x[m/s],tcp_velo_y[m/s],tcp_velo_z[m/s],tcp_velo_rx[rot_vec_x/s],tcp_velo_ry[rot_vec_y/s],tcp_velo_rz[rot_vec_z/s],q1[rad],q2[rad],q3[rad],q4[rad],q5[rad],q6[rad],qd1[rad/s],qd2[rad/s],qd3[rad/s],qd4[rad/s],qd5[rad/s],qd6[rad/s],tool_acc_x,tool_acc_y,tool_acc_z,current_of_whole_robot[A],voltage_of_whole_robot[V],current_J1[A],current_J2[A],current_J3[A],current_J4[A],current_J5[A],current_J6[A],temp_J1[C],temp_J2[C],temp_J3[C],temp_J4[C],temp_J5[C],temp_J6[C]
8.469797e-07,-0.022948911,0.52044183,1.3039579,-0.022696747,0.007613679,-0.039672714,-0.3810697,-0.3485335,0.05996661,-3.0785358,0.624881,-0.0001475772,0.0023857483,0.0012411115,-0.002445439,0.002785179,-0.0056602773,2.0345018e-05,0.47779807,-1.4259217,1.9577154,-2.1008685,-1.5707573,2.452752,-8.8880886e-05,0.0009064142,0.0043058833,0.0010942597,0.00014122849,-0.00011172136,0.095768064,0.19153613,-8.772355,0.7486078,47.73077,-0.06854664,-2.734273,-2.3955507,-0.4711911,0.117171034,0.06680236,26.625,27.5625,26.6875,30.0,31.3125,31.875
0.002054446,0.1365842,0.31027177,1.0762397,-0.015455463,0.013965655,-0.035808668,-0.3810751,-0.34853858,0.059977733,-3.0785468,0.624864,-0.00010207511,-0.0005538633,-0.00029027238,-0.0029527587,-0.0014251156,0.002418208,2.1315851e-05,0.4778101,-1.4259326,1.9577035,-2.1008728,-1.5707697,2.452752,-8.7644425e-05,0.0035156803,0.0054100244,-0.011728941,0.00013813173,-0.0001090147,0.05746084,0.17238253,-8.695741,0.7463667,47.72629,-0.049354598,-2.8277853,-2.4684536,-0.38623425,0.09992881,0.06268265,26.625,27.5625,26.6875,30.0,31.3125,31.875
0.0040539578,-0.14013946,0.047207583,1.0496311,-0.0057771453,0.005930721,-0.03041899,-0.38107798,-0.34855333,0.059961528,-3.0785637,0.6248866,-0.0001516922,-0.0014972015,-0.0007813147,-0.002418306,-0.0026755661,0.004825822,2.0769774e-05,0.4778101,-1.4258847,1.9576916,-2.1008976,-1.5707334,2.452764,-8.644197e-05,0.003577433,0.0045553874,-0.013649022,0.00013516821,-0.000106436084,0.019153614,0.05746084,-8.7532015,0.7777002,47.7451,-0.05818972,-3.0933437,-2.6558976,-0.29579788,0.098582655,0.050895147,26.625,27.5625,26.6875,30.0,31.3125,31.875
0.006053749,0.26902407,0.57282823,0.9821958,0.011120391,-0.011337246,-0.028271124,-0.381058,-0.34851852,0.059934657,-3.0784822,0.6248701,-0.00019305656,-0.0009488463,-0.0004950944,-0.0013773909,-0.0016103394,0.0027939824,1.9181267e-05,0.47779807,-1.4258852,1.9577502,-2.1008828,-1.5707816,2.452752,-8.527184e-05,0.0022178404,0.0024053142,-0.007845228,0.00013232879,-0.0001039766,0.038307227,0.21068975,-8.7532015,0.7418897,47.74062,-0.06877999,-3.058988,-2.5611792,-0.317984,0.09191662,0.06220764,26.625,27.5625,26.6875,30.0,31.3125,31.875
0.00805405,0.52546215,1.4809238,0.6663681,0.032816123,-0.035640907,-0.028955065,-0.3810637,-0.34854135,0.05995222,-3.0785384,0.62488145,-0.00017072557,-0.00049388455,-0.00025752003,-0.0006983561,-0.0009173859,0.0014751395,1.7615674e-05,0.4778101,-1.4258977,1.9577268,-2.1008942,-1.5707458,2.452764,-8.413324e-05,0.0010866027,0.0012933314,-0.004112205,0.00012960662,-0.000101628415,-0.038307227,0.24899697,-8.829816,0.73741806,47.719128,-0.0022113118,-2.9889107,-2.512798,-0.36110172,0.08739203,0.046961088,26.625,27.5625,26.6875,30.0,31.3125,31.875
0.010053444,0.5476556,1.113782,0.28936833,0.03392276,-0.029072145,-0.032573644,-0.38106093,-0.34852442,0.059948627,-3.0784903,0.62491,-0.00019180925,-0.0003051626,-0.00015443638,-0.00046088247,-0.00057048525,0.00081655127,1.8324723e-05,0.47779807,-1.4258978,1.9577268,-2.1008575,-1.5707697,2.452776,-9.0835056e-05,0.0007411782,0.000779302,-0.0025083944,0.00012699382,-0.00010915645,0.019153614,0.15322891,-9.097966,0.7172743,47.729877,-0.44289958,-2.4067922,-3.0730872,-0.41083646,0.12187523,0.016323622,26.625,27.5625,26.6875,30.0,31.3125,31.875
0.0120536,0.6526538,0.40045962,-0.060033932,-0.0077360757,-0.0026274312,-0.041162424,-0.38103575,-0.3485449,0.059914634,-3.0785108,0.6247608,-0.00030141207,-0.00043783526,-0.00022859588,-0.0023656804,0.0013388062,-0.0029059898,5.426005e-05,0.4778342,-1.4258366,1.9577373,-2.100869,-1.5707334,2.4527164,-9.48741e-05,0.0059623895,-0.0009833019,-0.0017834705,0.00014121408,-0.00014758877,0.13407528,0.13407528,-9.346964,0.83589023,47.71823,-0.5363991,-2.166829,-3.2146997,-0.4454948,0.13144633,-0.06595929,26.625,27.5625,26.6875,30.0,31.3125,31.875
0.014053725,-0.08924538,-0.35178912,-0.18551241,-0.053202335,0.022967296,-0.04206331,-0.3810589,-0.34851986,0.059902985,-3.0784545,0.624902,-0.0002943978,-0.005179306,0.0012683844,-0.004180551,0.0026457098,-0.005564308,-0.0011636621,0.47778377,-1.4258088,1.957735,-2.1008809,-1.5707573,2.4527612,-0.0071822684,0.015653279,-0.007930138,-0.0015670636,0.00018622243,-0.0060121375,0.0,0.21068975,-9.461885,0.69937176,47.71554,-0.35516092,-2.9210758,-2.9860737,-0.45853776,0.15297768,-0.06533882,26.625,27.5625,26.6875,30.0,31.3125,31.875
0.016054032,-1.115145,-1.5032338,-0.46935484,-0.07538293,0.03377778,-0.039233003,-0.38103354,-0.34851068,0.05987809,-3.0784059,0.6248513,-0.00043759387,-0.0056632184,0.001408263,-0.0038433012,-8.4514395e-05,-0.006460509,0.0048980904,0.47778282,-1.4257731,1.957735,-2.1008093,-1.5707449,2.4527347,-0.009719728,0.015005787,-0.008025521,-0.0012952187,0.0030184996,-0.014616991,-0.15322891,0.3256114,-9.576807,0.7105615,47.672558,-0.13680685,-2.7152214,-3.174977,-0.46807507,0.13920796,0.010302598,26.625,27.5625,26.6875,30.0,31.3125,31.875
0.018054357,-1.874687,-2.0147474,-0.50252694,-0.079675,0.042847574,-0.045498848,-0.38106006,-0.34851637,0.05990504,-3.078437,0.62479794,-0.0003418041,-0.005003439,2.2433656e-05,-0.0033984885,-0.002795017,-0.0069832047,0.009706565,0.47778326,-1.4257853,1.9576873,-2.1008093,-1.5707678,2.452698,-0.008364586,0.014487979,-0.008498006,-0.0010976318,0.0056647174,-0.018075017,-0.4405331,0.34476504,-9.634268,0.7105615,47.705692,-0.36197752,-2.5387316,-3.4438694,-0.47955585,0.1163574,0.028768511,26.625,27.5625,26.6875,30.0,31.3125,31.875
0.020053219,-1.7328506,-1.2200387,-0.53536433,-0.07404257,0.06496644,-0.061883386,-0.38104984,-0.34850425,0.059858855,-3.0784101,0.6247731,-0.0004948222,-0.005569587,-0.0007322401,-0.0034340362,-0.004039394,-0.0075513157,0.010350299,0.47774726,-1.4257128,1.9577101,-2.1008093,-1.570731,2.4526498,-0.008432612,0.016336419,-0.010555577,-0.00096031756,0.0070246044,-0.018788708,-0.47884035,0.51714754,-9.787497,0.8627467,47.752266,-0.50055224,-2.3974185,-3.4913921,-0.5033342,0.13502704,0.0093256505,26.625,27.5625,26.6875,30.0,31.3125,31.875
0.022054287,-1.6193187,-0.6553747,-0.7157848,-0.048252445,0.06477426,-0.08699629,-0.3810636,-0.34850463,0.059848648,-3.0784142,0.62475514,-0.0004951508,-0.0067179888,-0.00091146823,-0.0032001138,-0.005017148,-0.0074317753,0.009285645,0.47773486,-1.4256762,1.9576973,-2.1008332,-1.5707306,2.4526258,-0.009703904,0.017751358,-0.012755345,-0.0007340653,0.007833559,-0.018995658,-0.4405331,0.47884035,-9.844957,0.78888994,47.703007,-0.5863556,-2.3968365,-3.493692,-0.52477705,0.11343324,-0.0035202422,26.625,27.5625,26.6875,30.0,31.3125,31.875
0.024054144,-1.3037602,-0.4851711,-0.66724473,-0.038897302,0.060548462,-0.107741944,-0.38108498,-0.3485394,0.05984726,-3.078493,0.62477326,-0.0005493423,-0.009089047,-0.0012801251,-0.002813547,-0.0072750403,-0.0055402736,0.0065388437,0.477722,-1.4256155,1.9576367,-2.1008575,-1.5706462,2.452614,-0.011975748,0.019985098,-0.015737623,-0.0027057251,0.008958715,-0.01852046,-0.45968673,0.45968673,-9.787497,0.81351066,47.71286,-0.6049291,-2.4390945,-3.4002542,-0.51612717,0.11863284,-0.028172791,26.625,27.5625,26.6875,30.0,31.3125,31.875
0.026053917,-1.5846865,-0.81908286,-0.69486046,-0.040214747,0.050458193,-0.11633097,-0.38111505,-0.34851518,0.05985229,-3.0784361,0.6248197,-0.00046117321,-0.010672032,-0.0019443023,-0.0023016129,-0.01046107,-0.0027983198,0.005192516,0.47769758,-1.4256035,1.9576119,-2.100859,-1.5707177,2.452626,-0.013273284,0.020420572,-0.016617794,-0.0061675515,0.010517911,-0.018473363,-0.51714754,0.4405331,-9.864111,0.75755644,47.705692,-0.60099494,-2.4013925,-3.5295725,-0.4975111,0.095369965,-0.01384246,26.625,27.5625,26.6875,30.0,31.3125,31.875
0.028053664,-1.7141356,-1.2408746,-0.59271073,-0.046301574,0.05159967,-0.12271421,-0.38110775,-0.34852627,0.05981797,-3.0784528,0.6247861,-0.0005930184,-0.012157982,-0.002230112,-0.0014996979,-0.012422935,-0.0015091274,0.002740327,0.47768497,-1.4255315,1.957611,-2.1008708,-1.5706576,2.4525902,-0.014884281,0.020899331,-0.018954113,-0.006359667,0.011661414,-0.017633792,-0.61291564,0.24899697,-9.80665,0.7777002,47.69763,-0.6181904,-2.3920908,-3.4095502,-0.48868927,0.07833527,-0.036191832,26.625,27.5625,26.6875,30.0,31.3125,31.875
0.03005429,-1.0227051,-0.7137102,-0.46222553,-0.04845753,0.06821971,-0.15259044,-0.38117927,-0.34853414,0.059851218,-3.07852,0.624839,-0.00047463196,-0.0129857315,-0.0021836513,-0.0014487855,-0.0120785665,-0.0014580336,0.0010221403,0.47762492,-1.4255071,1.9575151,-2.1009061,-1.5706457,2.4525547,-0.015516869,0.022276986,-0.020766107,-0.0058102435,0.011332063,-0.016545301,-0.7086837,0.19153613,-9.864111,0.80456203,47.73077,-0.6472554,-2.3995574,-3.4884515,-0.49190095,0.0796248,-0.05527812,26.625,27.5625,26.6875,30.0,31.3125,31.875
0.032053478,-0.94750655,0.22851883,-0.4109829,-0.031414937,0.06611338,-0.16569726,-0.38118926,-0.3485434,0.059829228,-3.0785189,0.6247429,-0.00054434163,-0.014542562,-0.002067567,-0.0011049177,-0.012391003,-0.0008224868,-0.0009474931,0.47762436,-1.4254227,1.9574665,-2.1008947,-1.5706338,2.4524944,-0.017151779,0.023850404,-0.023436328,-0.0054211966,0.01131192,-0.01620956,-0.59376204,0.11492168,-9.80665,0.81351066,47.661808,-0.6252068,-2.373815,-3.3892689,-0.5096635,0.08902551,-0.066353284,26.625,27.5625,26.6875,30.0,31.3125,31.875
0.034053907,-1.0209969,0.6630002,-0.200967,-0.0011776942,0.055182416,-0.17942265,-0.38119724,-0.3485495,0.0598283,-3.0785537,0.6248078,-0.00060430187,-0.014875685,-0.0027568236,-0.0011383481,-0.013376863,-0.00048972043,-0.0005306226,0.47758842,-1.4254103,1.9574546,-2.1008952,-1.5705732,2.4524944,-0.016701665,0.02493232,-0.024394639,-0.006294703,0.012030638,-0.016176883,-0.47884035,0.0,-9.787497,0.7709874,47.703007,-0.6369304,-2.3175097,-3.3873367,-0.5101834,0.09432784,-0.07780971,26.625,27.5625,26.6875,30.0,31.3125,31.875
0.036055233,-0.93969965,1.0323414,-0.14360203,0.01762779,0.043115236,-0.18017954,-0.38124162,-0.3485741,0.059820905,-3.0786107,0.6248391,-0.00063444115,-0.01637372,-0.00310723,-0.0006752949,-0.0149989575,0.0015994173,-0.0014403301,0.477552,-1.4253142,1.9573702,-2.100931,-1.5705131,2.4524703,-0.017770465,0.025772827,-0.025993947,-0.0081371395,0.012503916,-0.016335292,-0.2873042,0.019153614,-9.615114,0.7105615,47.70659,-0.7094623,-2.3076608,-3.3634324,-0.49628007,0.07168646,-0.10394277,26.625,27.5625,26.6875,30.0,31.3125,31.875
0.038054224,-0.5246588,0.6857376,-0.15708193,0.031756815,0.04889561,-0.1787695,-0.38126597,-0.34856433,0.05980635,-3.0785933,0.62483644,-0.0006091634,-0.018048255,-0.0036244867,0.00018505912,-0.017124195,0.0035319603,-0.0023236785,0.4775276,-1.4252661,1.9573568,-2.1009672,-1.570537,2.4524465,-0.019044308,0.026498664,-0.028605025,-0.008948657,0.013495818,-0.016726078,-0.2681506,-0.15322891,-9.595961,0.77545905,47.703903,-0.6297102,-2.2737808,-3.421111,-0.49706966,0.078217536,-0.1141292,26.625,27.5625,26.6875,30.0,31.3125,31.875
0.04005341,-0.6448439,0.5155651,-0.31330106,0.026103074,0.04013173,-0.17667645,-0.38132948,-0.34858534,0.05983474,-3.0786831,0.62485456,-0.00058023207,-0.01947462,-0.0037201517,0.0004241708,-0.017190559,0.0046664514,-0.0025521952,0.4774674,-1.4252175,1.9572366,-2.1009676,-1.5704774,2.4523861,-0.019887464,0.02820928,-0.03102904,-0.00926978,0.013029098,-0.01733733,-0.17238252,-0.15322891,-9.481039,0.8403672,47.752266,-0.65798527,-2.3328109,-3.323338,-0.49061954,0.08716461,-0.12513393,26.625,27.5625,26.6875,30.0,31.3125,31.875
0.042053327,-0.33847156,0.36972916,-0.19337037,0.008754517,0.04223809,-0.16784751,-0.38136008,-0.34857193,0.059820816,-3.078671,0.6248909,-0.00062213786,-0.020121856,-0.003727271,0.00064715184,-0.01774529,0.0045072576,-0.0023967144,0.4774069,-1.4251575,1.9571999,-2.1009672,-1.5704645,2.45235,-0.020837676,0.028842662,-0.032405905,-0.008640674,0.013593315,-0.018443722,-0.11492168,-0.095768064,-9.557653,0.8291774,47.73614,-0.63659424,-2.29461,-3.332388,-0.482279,0.087492794,-0.13351679,26.625,27.5625,26.6875,30.0,31.3125,31.875
0.044054046,-0.095147446,0.19227903,-0.13828568,-0.00023201432,0.035895858,-0.16527362,-0.38140488,-0.34859288,0.05983724,-3.0787005,0.6248774,-0.00050938426,-0.021197334,-0.0034990404,0.0008832414,-0.017187478,0.004862823,-0.002500684,0.47741872,-1.4251093,1.9571155,-2.1010034,-1.5704893,2.4523497,-0.0218081,0.030079573,-0.03455028,-0.0077908286,0.012932742,-0.019306904,-0.11492168,-0.038307227,-9.557653,0.7418897,47.704796,-0.65689373,-2.2595048,-3.306231,-0.50640136,0.09022145,-0.1493538,26.625,27.5625,26.6875,30.0,31.3125,31.875
0.046054114,-0.098606594,-0.29578456,-0.092299886,-0.007044178,0.03197775,-0.15891796,-0.38143963,-0.34859484,0.059836265,-3.07873,0.6248835,-0.00057250896,-0.022020122,-0.0036355127,0.0008654448,-0.017853053,0.0049906312,-0.0026583972,0.47735843,-1.425049,1.9570435,-2.1009796,-1.5704406,2.4522893,-0.022667415,0.03134367,-0.035869867,-0.008154737,0.01346178,-0.020008687,-0.11492168,0.095768064,-9.519346,0.7418897,47.71823,-0.64618707,-2.270739,-3.344419,-0.5083514,0.07628766,-0.16581205,26.625,27.5625,26.6875,30.0,31.3125,31.875
0.048054144,0.21738663,-0.62269527,-0.18025444,-0.014655375,0.034699578,-0.16737804,-0.38147527,-0.34859493,0.059840504,-3.0787666,0.6248712,-0.00056736596,-0.022951264,-0.0038067836,0.0014995221,-0.018805584,0.006425965,-0.0021931804,0.47731015,-1.4250128,1.9569954,-2.100991,-1.5704168,2.4522288,-0.023340147,0.031316295,-0.037209984,-0.008499071,0.013645513,-0.02114591,-0.11492168,0.17238252,-9.576807,0.7665104,47.711964,-0.6526693,-2.1544094,-3.2886047,-0.49948716,0.090782195,-0.18171398,26.625,27.5625,26.6875,30.0,31.3125,31.875
0.050053872,-0.35923895,-1.0742916,-0.2953248,-0.012072023,0.013376193,-0.15438479,-0.3815536,-0.34859508,0.059867594,-3.0787747,0.625027,-0.0004922784,-0.023919139,-0.0040093614,0.0015625956,-0.019454338,0.0066231987,-0.0018663252,0.47723797,-1.4249524,1.9568619,-2.1009796,-1.5704168,2.4522529,-0.024183907,0.03279943,-0.039011307,-0.0086546205,0.014128992,-0.02231535,-0.11492168,0.24899697,-9.461885,0.80679786,47.713753,-0.6545468,-2.1518342,-3.3456173,-0.5090108,0.09036147,-0.18876502,26.625,27.5625,26.6875,30.0,31.3125,31.875
0.052053574,0.20145819,-0.70902133,-0.26450762,-0.02916001,0.022488168,-0.16094951,-0.38161308,-0.3485896,0.05985134,3.0787878,-0.62499064,0.00047679403,-0.024856703,-0.0037929611,0.0010280198,-0.01859221,0.005889349,-0.0015479306,0.47716546,-1.4248557,1.9568022,-2.1010392,-1.5704049,2.452156,-0.02515151,0.0354189,-0.04083948,-0.008394977,0.013698129,-0.023599021,-0.11492168,0.38307226,-9.461885,0.8112748,47.71554,-0.585263,-2.2305014,-3.347918,-0.51982254,0.06724279,-0.21121731,26.625,27.5625,26.6875,30.0,31.3125,31.875
0.054054074,-0.0507636,-0.77179563,-0.37296113,-0.032303512,0.021875221,-0.16551249,-0.3816565,-0.34859622,0.05986912,3.0787413,-0.62505704,0.00044361115,-0.025932364,-0.0036856234,0.0014209051,-0.018762972,0.0073109893,-0.00048655985,0.4771293,-1.4248196,1.9567178,-2.1010277,-1.570393,2.4521673,-0.026005479,0.035865996,-0.04213672,-0.0088831,0.013194031,-0.0255122,-0.076614454,0.3256114,-9.595961,0.75755644,47.703903,-0.6119321,-2.2052565,-3.3439636,-0.52909684,0.08666487,-0.20905566,26.625,27.5625,26.6875,30.0,31.3125,31.875
0.05605404,-0.05391615,-1.2911544,-0.36522016,-0.037164222,0.026181113,-0.15546028,-0.38170063,-0.34861627,0.05986697,3.0787077,-0.6249539,0.00046056334,-0.027498662,-0.004016093,0.002741905,-0.020538004,0.010167683,0.00031441796,0.47709283,-1.4247361,1.956633,-2.1010516,-1.5703448,2.4520707,-0.02702977,0.035291024,-0.044380043,-0.009416359,0.013453887,-0.027336428,0.0,0.38307226,-9.576807,0.7777002,47.690468,-0.6272254,-2.065968,-3.3514807,-0.50885403,0.08825596,-0.21761844,26.625,27.5625,26.6875,30.0,31.3125,31.875
0.05805389,-0.41311947,-1.3368063,-0.24966829,-0.04170158,0.020005692,-0.15742275,-0.38174748,-0.34862038,0.05987913,3.0786827,-0.62496644,0.00041830895,-0.02823863,-0.004064907,0.0021589277,-0.020017257,0.009631646,0.0018623548,0.4770568,-1.4246873,1.9565495,-2.1010516,-1.5703448,2.4520457,-0.027482111,0.037813872,-0.045850825,-0.0097513255,0.013234814,-0.029334687,0.0,0.51714754,-9.576807,0.74413085,47.694946,-0.65849423,-2.0581863,-3.284472,-0.5014187,0.089717835,-0.22651988,26.625,27.5625,26.6875,30.0,31.3125,31.875
0.060053993,-0.56633174,-1.5267485,-0.15156233,-0.044102866,0.015813163,-0.1526001,-0.38179478,-0.34863105,0.059873,3.0786588,-0.6249431,0.00045480696,-0.028706344,-0.004076147,0.001663235,-0.020151738,0.008568298,0.0022688634,0.4770085,-1.4245906,1.9564532,-2.1010516,-1.5703086,2.4519858,-0.0282841,0.039651018,-0.0468209,-0.009735629,0.01384112,-0.030543398,-0.038307227,0.47884035,-9.519346,0.8784135,47.695843,-0.6813106,-2.1621218,-3.3981519,-0.5170958,0.08293652,-0.24164486,26.625,27.5625,26.6875,30.0,31.3125,31.875
0.06205378,-0.6688898,-1.2080406,-0.3374059,-0.041074183,0.011348176,-0.15365112,-0.38183996,-0.3486294,0.059851248,3.0786517,-0.62488264,0.0004777499,-0.030463815,-0.0046877996,0.0022433659,-0.021331578,0.0099723,0.0029526784,0.47694826,-1.4244945,1.9564041,-2.1010993,-1.5702847,2.4518888,-0.029074281,0.041662987,-0.050393898,-0.009962955,0.014237376,-0.03201587,0.0,0.4405331,-9.481039,0.8179876,47.734352,-0.6581347,-2.0401163,-3.2858634,-0.512089,0.08588499,-0.26248008,26.625,27.5625,26.6875,30.0,31.3125,31.875
0.0640541,-0.7401557,-0.8010979,-0.32554415,-0.037544888,0.0051306067,-0.15183844,-0.38192996,-0.34864205,0.059874214,3.07855,-0.624977,0.00041200078,-0.031536765,-0.0053227604,0.001977634,-0.022373697,0.0099163605,0.004156222,0.47686407,-1.4244094,1.9562601,-2.1011236,-1.5702485,2.4518764,-0.029545544,0.044344798,-0.05265487,-0.010812908,0.015186232,-0.033689216,-0.038307227,0.36391866,-9.385271,0.7933669,47.704796,-0.6699474,-2.2132692,-3.1660938,-0.5202727,0.08197029,-0.2721286,26.625,27.5625,26.6875,30.0,31.3125,31.875
0.066054136,-0.22147112,-0.48792046,-0.0410079,-0.028464997,0.019826341,-0.15660027,-0.38198903,-0.3486638,0.05989189,3.0785263,-0.6248561,0.00035092284,-0.031434808,-0.0053900024,0.0015586952,-0.022752343,0.009487867,0.0055518774,0.47684008,-1.4243374,1.9561404,-2.101136,-1.5702361,2.45178,-0.029674338,0.044837087,-0.052060977,-0.011692779,0.015721053,-0.03521359,-0.17238252,0.38307226,-9.3661175,0.77545905,47.72719,-0.7049924,-2.2142642,-3.3434918,-0.5254145,0.053576987,-0.2822336,26.625,27.5625,26.6875,30.0,31.3125,31.875
0.068053745,-0.6461408,-0.59089065,0.14504027,-0.019284582,0.0185036,-0.14930949,-0.382064,-0.3486729,0.059900705,3.0784488,-0.62485904,0.00032536592,-0.03300152,-0.0060453415,0.0025719004,-0.02461018,0.011638124,0.006580365,0.47675574,-1.4242535,1.9560326,-2.1011722,-1.5701879,2.4517074,-0.030376732,0.045426726,-0.054943886,-0.012161196,0.0163815,-0.036942832,-0.15322891,0.28730422,-9.232041,0.7642693,47.693153,-0.75795966,-2.1213918,-3.2487893,-0.50584555,0.06636261,-0.29044974,26.625,27.5625,26.6875,30.0,31.3125,31.875
0.07005421,-0.6802237,-0.10808776,0.14016014,-0.01041282,0.02605891,-0.15985996,-0.382117,-0.34869775,0.05990551,3.0784194,-0.624737,0.00034298087,-0.03510026,-0.006916404,0.0030414783,-0.025745591,0.013323362,0.0071872873,0.47671965,-1.4241564,1.955911,-2.1011722,-1.5701398,2.451599,-0.030909939,0.048447784,-0.059316058,-0.0128263505,0.016607862,-0.038080078,-0.095768064,0.22984336,-9.308656,0.78217715,47.682407,-0.73752236,-2.157759,-3.1181602,-0.50422513,0.0712581,-0.29150856,26.625,27.5625,26.6875,30.0,31.3125,31.875
0.07205419,-0.6680725,0.14258404,0.24293032,-0.009591008,0.03274067,-0.15241389,-0.38219213,-0.3487252,0.05992764,3.0783358,-0.62471855,0.00023613201,-0.035104502,-0.0068405676,0.0023047298,-0.024933303,0.012054941,0.008576619,0.47668353,-1.424084,1.9557914,-2.1012318,-1.5701159,2.451562,-0.030954976,0.050189182,-0.059641365,-0.012739997,0.016472818,-0.03951209,-0.17238252,0.17238252,-9.270349,0.81351066,47.698532,-0.7566064,-2.2427318,-3.0790477,-0.48952276,0.0653481,-0.294782,26.625,27.5625,26.6875,30.0,31.3125,31.875
0.07405394,-0.3356588,0.49798802,0.35124162,-0.021031948,0.042814344,-0.16109551,-0.38227424,-0.34870717,0.059927795,3.078317,-0.6247346,0.0002084422,-0.03471952,-0.006887452,0.0016017527,-0.025190879,0.010290236,0.008369825,0.47657546,-1.423988,1.9556841,-2.1012437,-1.5701154,2.4514663,-0.03118321,0.051170684,-0.05915557,-0.012759351,0.017515548,-0.039534546,-0.17238252,0.11492168,-9.270349,0.7732232,47.69763,-0.87473464,-2.17245,-3.2058759,-0.48352414,0.06251293,-0.311677,26.625,27.5625,26.6875,30.0,31.3125,31.875
0.076054156,-0.82238954,0.05945155,0.4782338,-0.008438665,0.03166808,-0.15513395,-0.38235632,-0.3487557,0.059948243,3.0781996,-0.6246901,0.00014677162,-0.036629774,-0.0074377907,0.0023820254,-0.025825758,0.012471447,0.010652309,0.47653943,-1.4238794,1.9555272,-2.1013038,-1.5700439,2.4514174,-0.031675886,0.05299419,-0.06296872,-0.012992497,0.01707634,-0.042305082,-0.11492168,0.21068975,-9.212888,0.7709874,47.67166,-0.93300945,-2.1505988,-3.1765358,-0.4782498,0.059940003,-0.32591754,26.625,27.5625,26.6875,30.0,31.3125,31.875
0.078053854,-0.4409118,0.08570101,0.36297762,-0.0068013025,0.03671771,-0.16226676,-0.38243872,-0.34875366,0.059960075,3.0782053,-0.62463176,0.000106821564,-0.03713861,-0.0076776296,0.0024226527,-0.026497643,0.012358131,0.011880168,0.47646725,-1.4237714,1.9553713,-2.1012795,-1.5700554,2.4513083,-0.032132074,0.053918764,-0.06412793,-0.012965997,0.017726177,-0.043988746,-0.21068975,0.17238252,-9.232041,0.7530795,47.65106,-0.9452486,-2.132978,-3.084865,-0.4817214,0.05186188,-0.3078956,26.625,27.5625,26.6875,30.0,31.3125,31.875
0.08005362,-1.0655831,-0.33692387,0.17622918,0.008753867,0.01716773,-0.14328434,-0.38248327,-0.34877113,0.05993567,3.078142,-0.6246012,0.00021431294,-0.038381837,-0.008078148,0.0024865814,-0.027147407,0.012860735,0.010196321,0.47639495,-1.4236509,1.9552978,-2.1013162,-1.5699595,2.4512248,-0.032782067,0.05603138,-0.06660554,-0.0133420145,0.018067751,-0.04295383,-0.2681506,0.095768064,-9.251195,0.80679786,47.677036,-0.98589885,-2.149531,-3.0981152,-0.48400152,0.054321263,-0.33465952,26.625,27.5625,26.6875,30.0,31.3125,31.875
0.08205405,-0.8810237,0.08955404,0.37401646,0.0008155818,0.018826501,-0.15612769,-0.38255727,-0.34878707,0.059939664,3.0781143,-0.62457573,0.00018354441,-0.039183214,-0.008292621,0.0026516558,-0.027367782,0.013507112,0.011517485,0.47634694,-1.4235307,1.9551543,-2.1013281,-1.5699471,2.4511645,-0.033066973,0.057116143,-0.068186544,-0.0135184,0.017966658,-0.044558175,-0.21068975,0.17238252,-9.174581,0.84708,47.704796,-1.0250653,-2.1505518,-3.0548515,-0.47492492,0.045994215,-0.35933974,26.625,27.5625,26.6875,30.0,31.3125,31.875
0.08405338,-0.66800445,0.027074123,0.304555,8.8780514e-05,0.032216586,-0.15474586,-0.3826464,-0.3488013,0.059960045,3.078056,-0.62446606,9.0146015e-05,-0.04005876,-0.008367626,0.0024476924,-0.027709104,0.01341148,0.012924017,0.47627464,-1.4234462,1.9550222,-2.1013763,-1.5699233,2.4510312,-0.03395784,0.05885617,-0.06962565,-0.013888137,0.01831701,-0.04685315,-0.24899697,0.19153613,-9.155427,0.7911258,47.711063,-1.0677278,-2.1278489,-3.111763,-0.46790573,0.06379238,-0.36579877,26.625,27.5625,26.6875,30.0,31.3125,31.875
0.08605401,-0.7155675,0.110454276,0.16060124,-0.0070922608,0.035084754,-0.15991428,-0.38274062,-0.34880233,0.05995162,3.0780103,-0.62451285,0.000110843255,-0.041018017,-0.0084825205,0.0027189967,-0.027599426,0.013915524,0.016879395,0.47616637,-1.42329,1.9548658,-2.1013882,-1.5698875,2.450958,-0.034413137,0.060124606,-0.071825586,-0.013346289,0.017990367,-0.051262118,-0.28730422,0.19153613,-9.270349,0.7396539,47.703903,-1.0746734,-2.0776443,-3.06874,-0.46735394,0.07478311,-0.34309226,26.625,27.5625,26.6875,30.0,31.3125,31.875
0.088053994,-0.8278972,-0.43984663,0.05696588,-0.0046438677,0.035435017,-0.149075,-0.38282573,-0.34882164,0.059962332,3.077982,-0.62444866,9.3161165e-05,-0.04143446,-0.008576257,0.001335685,-0.026537249,0.011498022,0.017407406,0.47610644,-1.4231564,1.954686,-2.1013763,-1.5698632,2.4508617,-0.03472946,0.064246334,-0.07340217,-0.013253601,0.018154815,-0.052104592,-0.22984336,0.17238252,-9.385271,0.72622824,47.657326,-1.1160467,-2.3115587,-3.0470695,-0.47787434,0.07399857,-0.342749,26.625,27.5625,26.6875,30.0,31.3125,31.875
0.09005387,-0.8680369,-0.4092851,-0.110376,-0.017555479,0.03290351,-0.15296625,-0.38288724,-0.34883752,0.059950687,3.077973,-0.62433136,6.1105595e-05,-0.042358525,-0.008828509,0.0032729213,-0.028350638,0.014531568,0.017710466,0.4760702,-1.4230374,1.9545902,-2.1014354,-1.5698513,2.4507535,-0.035268176,0.06159554,-0.074959934,-0.012571198,0.018377682,-0.052945722,-0.19153613,0.22984336,-9.289502,0.84708,47.690468,-1.1863327,-2.0005372,-3.0482693,-0.46947503,0.08319316,-0.37063462,26.625,27.5625,26.6875,30.0,31.3125,31.875
0.09205359,-0.22699463,-0.43054342,-0.14361855,-0.025322212,0.042028118,-0.15884814,-0.38297215,-0.34884232,0.05995338,3.0779245,-0.62426203,9.143572e-05,-0.04316579,-0.008607259,0.0025274276,-0.027592264,0.013357081,0.020548467,0.47596186,-1.4229163,1.9544457,-2.1014354,-1.5697917,2.450608,-0.03630561,0.06440909,-0.07650858,-0.012435853,0.01824499,-0.056819443,-0.095768064,0.24899697,-9.3661175,0.84484416,47.677036,-1.1572309,-2.112692,-3.0726018,-0.47115147,0.092600495,-0.3565989,26.625,27.5625,26.6875,30.0,31.3125,31.875
0.09405437,-0.28264427,-0.27240244,-0.06279748,-0.036380805,0.03813477,-0.15466598,-0.38305965,-0.34888065,0.05997973,3.0778506,-0.6241873,1.2228676e-05,-0.04329997,-0.008559022,0.0011243548,-0.026474558,0.010584476,0.023683492,0.47592583,-1.4228069,1.954266,-2.1014593,-1.5697554,2.4505348,-0.036691424,0.06804444,-0.077551216,-0.0120472815,0.018529037,-0.060337793,-0.22984336,0.2681506,-9.442732,0.7172743,47.72002,-1.2345552,-2.1966028,-3.088276,-0.48878515,0.10623609,-0.33150673,26.625,27.5625,26.6875,30.0,31.3125,31.875
0.09605363,-0.4528834,-0.56767416,-0.068880506,-0.03686957,0.029027361,-0.1569346,-0.38315728,-0.34888962,0.05996938,3.0777845,-0.62411505,4.013067e-05,-0.04460782,-0.008146972,0.0018013095,-0.027693737,0.011547182,0.02483215,0.47580492,-1.4226509,1.9541224,-2.1015074,-1.569683,2.4503772,-0.03902767,0.06779886,-0.07885764,-0.011901983,0.01917656,-0.06382198,-0.22984336,0.30645782,-9.404425,0.7463667,47.703007,-1.2341189,-2.2319582,-3.1073046,-0.48106286,0.11532907,-0.2913403,26.625,27.5625,26.6875,30.0,31.3125,31.875
0.098053776,-1.0252917,-1.0634835,-0.21023186,-0.02433017,0.009831267,-0.1421037,-0.383249,-0.34889883,0.059986357,3.0777912,-0.62398106,-2.836868e-05,-0.045990847,-0.00820475,0.0016366197,-0.028340466,0.011805845,0.026455682,0.47574455,-1.4225299,1.9539427,-2.101495,-1.5696949,2.4502325,-0.040482398,0.07002556,-0.080862716,-0.012648181,0.019633638,-0.066898204,-0.19153613,0.24899697,-9.442732,0.7866488,47.72002,-1.1510098,-2.171315,-3.1246495,-0.4647702,0.11738898,-0.26008824,26.625,27.5625,26.6875,30.0,31.3125,31.875
0.10005373,-0.45034257,-0.7499666,-0.086755805,-0.02513647,0.025822222,-0.15131037,-0.38332045,-0.34891036,0.05995829,3.077779,-0.62384224,4.5715835e-05,-0.046157088,-0.008367562,0.0008522761,-0.028016487,0.010643331,0.029607516,0.47566035,-1.4223611,1.953822,-2.1015313,-1.5696348,2.4500632,-0.040494885,0.072203875,-0.08149003,-0.013009459,0.019879287,-0.07006225,-0.11492168,0.2681506,-9.3661175,0.85155696,47.703007,-1.1460874,-2.2025425,-3.2064188,-0.46653378,0.14581293,-0.2269132,26.625,27.5625,26.6875,30.0,31.3125,31.875
0.102053754,-0.5924301,-0.6609169,-0.05509727,-0.026962427,0.024592726,-0.15143566,-0.3834324,-0.3489415,0.0600025,3.0776968,-0.6237649,-4.919272e-05,-0.04697049,-0.009654422,0.0012274265,-0.029944649,0.0117603345,0.033459608,0.4755889,-1.4222523,1.9535941,-2.1015193,-1.5695981,2.449954,-0.03972875,0.073733784,-0.0838644,-0.014038127,0.02108627,-0.073145226,-0.095768064,0.2681506,-9.423578,0.8224646,47.65643,-1.3583708,-2.2361887,-2.996684,-0.47416195,0.16883606,-0.18564835,26.625,27.5625,26.6875,30.0,31.3125,31.875
0.10405344,-0.97847134,-0.6397187,-0.03930821,-0.014680003,0.011777337,-0.14701453,-0.3835234,-0.34897146,0.059982818,3.07763,-0.6236174,-2.1698537e-05,-0.047156822,-0.008121421,-0.0005235646,-0.028752865,0.008102185,0.0325839,0.47550365,-1.4220715,1.9534515,-2.1016033,-1.5695137,2.4497852,-0.043008417,0.07605341,-0.08257452,-0.0138413515,0.021712108,-0.07554894,-0.019153614,0.24899697,-9.423578,0.78888994,47.689575,-1.2440344,-2.2337666,-3.2405145,-0.44145176,0.1482707,-0.14136125,26.625,27.5625,26.6875,30.0,31.3125,31.875
0.106053784,-0.035741843,-0.5123346,-0.31335276,-0.007517975,0.02872374,-0.15247916,-0.38360193,-0.3489714,0.059959218,3.077644,-0.6235828,-7.6166557e-06,-0.04965944,-0.009107096,0.0015590547,-0.031660378,0.012334453,0.031199982,0.47543135,-1.4219033,1.9533185,-2.101627,-1.5695137,2.4496896,-0.04395967,0.07598895,-0.0871671,-0.014279234,0.022349281,-0.07511457,0.0,0.19153613,-9.500193,0.7709874,47.691364,-1.2278192,-2.2001472,-3.1829271,-0.43621662,0.1542373,-0.11848259,26.625,27.5625,26.6875,30.0,31.3125,31.875
0.10805343,-0.08144743,-0.4359328,-0.12630573,-0.009635752,0.020573959,-0.1531893,-0.3837176,-0.34899837,0.059973653,3.077577,-0.6234148,-5.078726e-05,-0.0498879,-0.0073574344,0.00021975605,-0.030089948,0.009987489,0.02984042,0.47533426,-1.4217467,1.9531149,-2.1016634,-1.5694541,2.4494963,-0.047051873,0.077124886,-0.08539715,-0.014369832,0.022040986,-0.07684592,-0.095768064,0.19153613,-9.385271,0.7709874,47.647476,-1.1419932,-2.1948557,-3.230777,-0.4387321,0.18150212,-0.08456613,26.625,27.5625,26.6875,30.0,31.3125,31.875
0.11005337,-0.48804405,-0.22471221,-0.051797662,-0.009637457,0.012095954,-0.15105312,-0.38381854,-0.34900784,0.05997296,3.077557,-0.6233936,-6.7021225e-05,-0.050439116,-0.008464439,0.00036849338,-0.031008802,0.010525748,0.027730765,0.47525066,-1.421578,1.9529237,-2.1016638,-1.5694422,2.449402,-0.04594775,0.07891389,-0.08770701,-0.014751038,0.02260633,-0.07363044,-0.095768064,0.21068975,-9.346964,0.91421866,47.716442,-1.2153728,-2.1547687,-3.3072097,-0.41760263,0.17707542,-0.08337066,26.625,27.5625,26.6875,30.0,31.3125,31.875
0.112054154,-0.15886365,-0.19116779,-0.060929097,-0.0089337295,0.029887144,-0.14812975,-0.38390043,-0.34904057,0.059972364,3.0775044,-0.6231723,-4.0408522e-05,-0.05086547,-0.008493963,0.0004395249,-0.0310225,0.010254882,0.025296004,0.4751785,-1.4214334,1.9527677,-2.101699,-1.5693573,2.4491985,-0.046362147,0.07969501,-0.08892565,-0.014074049,0.022744367,-0.07160852,-0.19153613,0.17238252,-9.385271,0.8403672,47.684196,-1.3029206,-2.186652,-3.2484417,-0.42762458,0.19395803,-0.11082198,26.625,27.5625,26.6875,30.0,31.3125,31.875
0.11405369,-0.74379504,0.23300865,-0.09018698,-0.013239282,0.018903656,-0.16047116,-0.38402197,-0.34904635,0.059981752,3.0774696,-0.62307,-0.00011618927,-0.05235847,-0.007842952,0.0004996969,-0.031996664,0.01027546,0.02306504,0.4750695,-1.421277,1.9525756,-2.1017349,-1.5693454,2.4490302,-0.04942217,0.080701694,-0.09017375,-0.014295231,0.023606611,-0.07243548,-0.19153613,0.19153613,-9.423578,0.83813137,47.698532,-1.2118168,-2.101193,-3.3057542,-0.43624616,0.2006881,-0.09873389,26.625,27.5625,26.6875,30.0,31.3125,31.875
0.11605349,-0.41364765,0.0973973,-0.0021692691,-0.007669508,0.025763884,-0.1560841,-0.38414094,-0.34905347,0.05999898,3.0774176,-0.6230243,-0.00023311333,-0.053024255,-0.0075863227,0.00043521216,-0.032433055,0.010012204,0.017118545,0.474973,-1.4211446,1.9523958,-2.101783,-1.5693454,2.448912,-0.05079813,0.08143658,-0.090874076,-0.014300582,0.024117267,-0.06786239,-0.076614454,0.05746084,-9.32781,0.8314132,47.694946,-1.1515138,-2.0671215,-3.405427,-0.4260372,0.21535043,-0.13452533,26.625,27.5625,26.6875,30.0,31.3125,31.875
0.118053354,-1.0849164,-0.0075042592,0.018186891,-0.006087577,0.018470217,-0.14844374,-0.38422662,-0.3490585,0.059982087,3.077358,-0.6230128,-0.0001098079,-0.054589946,-0.008630962,0.0016720473,-0.034593865,0.012530927,0.015310411,0.47484103,-1.4209764,1.9522394,-2.1017716,-1.569249,2.4487803,-0.050855666,0.08204728,-0.09431737,-0.014691388,0.0248786,-0.06611074,-0.2873042,0.095768064,-9.308657,0.81351066,47.719128,-1.2235243,-1.9133551,-3.4636517,-0.42204252,0.23673886,-0.18441099,26.625,27.5625,26.6875,30.0,31.3125,31.875
0.1200541,-0.91256183,-0.0032731981,0.046848793,-0.0026020303,0.030458743,-0.14823914,-0.38436222,-0.34910047,0.059998598,3.077224,-0.622986,-0.00019570992,-0.053689145,-0.007463214,-0.0012142134,-0.032035865,0.0066906963,0.013205624,0.47474453,-1.4207947,1.9520129,-2.101855,-1.569177,2.4486842,-0.0523428,0.08609189,-0.09248104,-0.014203839,0.025288444,-0.06549037,-0.40222588,0.095768064,-9.423578,0.82694155,47.72002,-1.1494346,-2.0322833,-3.436129,-0.4246649,0.2385113,-0.20419419,26.625,27.5625,26.6875,30.0,31.3125,31.875
0.122054555,-0.6713868,0.09416012,-0.17532608,-0.0014128457,0.04482026,-0.15396334,-0.38446537,-0.3491259,0.060026973,3.077139,-0.62289304,-0.0002130046,-0.0551648,-0.008005415,0.00084232254,-0.03491901,0.0099101225,0.01191896,0.47464818,-1.4206754,1.9518088,-2.1018426,-1.5691046,2.4485407,-0.053420443,0.08412322,-0.0949961,-0.013898394,0.026383203,-0.06527878,-0.34476504,0.05746084,-9.442732,0.86498255,47.664497,-1.20855,-1.9678931,-3.5963707,-0.4237687,0.23462558,-0.22169098,26.625,27.5625,26.6875,30.0,31.3125,31.875
0.12405314,-1.5679225,-0.47124815,-0.07762837,0.006787476,0.025453432,-0.14508198,-0.38459697,-0.34913045,0.060024925,3.0770998,-0.622846,-0.0002742086,-0.056407247,-0.008249183,0.0009954812,-0.035794005,0.009617233,0.010783557,0.47452772,-1.4204826,1.9516038,-2.1018903,-1.5690922,2.448396,-0.054694388,0.08613146,-0.09780994,-0.0132311685,0.027297905,-0.065414235,-0.30645782,0.05746084,-9.500193,0.80679786,47.68599,-1.1781127,-1.8832378,-3.4016805,-0.42979318,0.24937823,-0.2573725,26.625,27.5625,26.6875,30.0,31.3125,31.875
0.12605406,-1.326846,0.0666212,-0.17115304,-0.0033776076,0.029570268,-0.15132606,-0.3846822,-0.34913528,0.060001004,3.0771024,-0.6227903,-0.00013949274,-0.057064503,-0.008270205,0.00031960642,-0.03585297,0.008386093,0.010342169,0.47441933,-1.4202774,1.9514126,-2.1018426,-1.5690321,2.4482524,-0.05563609,0.08863926,-0.09912887,-0.013346315,0.027908986,-0.065915264,-0.3256114,0.095768064,-9.481039,0.7418897,47.640312,-1.2340214,-1.990554,-3.494265,-0.43780056,0.2647792,-0.28468257,26.625,27.5625,26.6875,30.0,31.3125,31.875
0.12805414,-0.7343266,0.10944535,-0.28665397,-0.012780193,0.043155026,-0.15581495,-0.3847891,-0.349167,0.060010064,3.0769937,-0.6226904,-0.0001747664,-0.058945823,-0.008779967,0.002208787,-0.038115364,0.011817481,0.009780841,0.4743231,-1.4201336,1.9512438,-2.1019142,-1.5689477,2.4481077,-0.056721512,0.087695025,-0.10239644,-0.013212875,0.028357044,-0.06643528,-0.28730422,0.076614454,-9.5385,0.8023209,47.668976,-1.1838394,-1.7903588,-3.3434792,-0.42057657,0.2907725,-0.31225002,26.625,27.5625,26.6875,30.0,31.3125,31.875
0.13005348,-1.1386094,-0.27095446,-0.3460707,-0.009840089,0.033313673,-0.15009476,-0.38492155,-0.34918073,0.060013194,3.076941,-0.62266093,-0.00019590827,-0.059306342,-0.00870882,0.0014860833,-0.038344223,0.010169816,0.009157226,0.47420278,-1.4199287,1.9510049,-2.1019266,-1.5689114,2.4479759,-0.057773337,0.08973456,-0.103105225,-0.013179187,0.029318644,-0.06686151,-0.28730422,0.15322891,-9.557653,0.92093146,47.72629,-1.2210295,-1.8284713,-3.4347763,-0.44063354,0.28970107,-0.3417158,26.625,27.5625,26.6875,30.0,31.3125,31.875
0.13205414,-1.26262,-0.6134501,-0.30175275,-0.01889679,0.032741956,-0.15010327,-0.38505387,-0.3491832,0.06001381,3.0768855,-0.62268806,-0.00022998979,-0.060738865,-0.009186106,0.0022853962,-0.039963443,0.011395801,0.008329963,0.47407046,-1.4197363,1.9507884,-2.10195,-1.5688871,2.4478676,-0.058780935,0.090615064,-0.10599194,-0.013000307,0.03020075,-0.06703889,-0.34476504,0.30645782,-9.634268,0.87393653,47.72719,-1.2254251,-1.8054438,-3.4197054,-0.45743123,0.2803344,-0.3796776,26.625,27.5625,26.6875,30.0,31.3125,31.875
0.13405414,-0.99562365,-0.8550673,-0.41102716,-0.02667552,0.040511932,-0.15586911,-0.3851834,-0.34919256,0.060028717,3.076823,-0.6226197,-0.00025400164,-0.062035926,-0.008369589,0.0016530447,-0.04023492,0.010114638,0.0052904454,0.47393724,-1.4195672,1.9505609,-2.10195,-1.5688385,2.4476998,-0.061919924,0.09280266,-0.10703888,-0.013120438,0.031032326,-0.06713563,-0.40222588,0.30645782,-9.500193,0.8560339,47.694946,-1.1341106,-1.847883,-3.3693027,-0.45520875,0.2916446,-0.43098485,26.625,27.5625,26.6875,30.0,31.3125,31.875
0.13605416,-0.94000804,-0.6697074,-0.41605935,-0.035156474,0.046616957,-0.15559255,-0.38528293,-0.34922227,0.060011674,3.0767226,-0.622579,-0.00019142842,-0.062458985,-0.008927213,0.0012327852,-0.04051261,0.009299545,0.006356146,0.47382927,-1.4193743,1.9503926,-2.10201,-1.5687307,2.4475791,-0.061699376,0.09513438,-0.10876582,-0.013116681,0.031654328,-0.06797841,-0.34476504,0.30645782,-9.595961,0.8314132,47.694946,-1.0739888,-1.8303972,-3.445362,-0.46117938,0.3079043,-0.45639008,26.625,27.5625,26.6875,30.0,31.3125,31.875
0.1380539,-1.2411162,-0.9727562,-0.36321464,-0.029231433,0.042022057,-0.14836775,-0.38540304,-0.34926122,0.060028702,3.0766532,-0.6224671,-0.00024681998,-0.06347459,-0.009559579,0.0016023198,-0.041673478,0.010070514,0.008026628,0.47375736,-1.4191935,1.9501523,-2.1020343,-1.5686826,2.4474463,-0.06192898,0.09649567,-0.11113492,-0.013317802,0.03234094,-0.0698743,-0.34476504,0.28730422,-9.615114,0.800085,47.687782,-1.3102753,-1.8370352,-3.3889942,-0.47891486,0.30557573,-0.4772892,26.625,27.5625,26.6875,30.0,31.3125,31.875
0.14005372,-1.3100457,-0.62692195,-0.42609358,-0.030260468,0.042696714,-0.1548837,-0.38555607,-0.3492691,0.060052402,3.0765707,-0.6224301,-0.00029844258,-0.064736634,-0.009236881,-0.00052463176,-0.041154396,0.00664926,0.009700944,0.47360054,-1.4190114,1.9498895,-2.1020343,-1.5686344,2.447277,-0.064336285,0.10255853,-0.11304856,-0.014173048,0.033450745,-0.07395093,-0.22984336,0.22984336,-9.749189,0.88960326,47.701214,-1.2335129,-1.8923221,-3.3965874,-0.46834546,0.3224701,-0.5093858,26.625,27.5625,26.6875,30.0,31.3125,31.875
0.14205395,-0.938533,-0.4534459,-0.2825812,-0.029252812,0.047095843,-0.15266477,-0.38565657,-0.34926993,0.06002745,3.0765235,-0.62236136,-0.00020230282,-0.0671098,-0.0091465665,0.0012153797,-0.044034284,0.009717507,0.011501049,0.47345555,-1.4188195,1.9497322,-2.1020582,-1.5685495,2.4470952,-0.067385025,0.10161756,-0.11590037,-0.0144071905,0.034619704,-0.07879851,-0.15322891,0.24899697,-9.615114,0.84708,47.6636,-1.0088617,-1.7761085,-3.2909389,-0.4794569,0.33913743,-0.4499188,26.625,27.5625,26.6875,30.0,31.3125,31.875
0.14405389,-1.0176815,-0.4910317,-0.2033372,-0.022443099,0.03413904,-0.15397519,-0.3858211,-0.34930497,0.060060773,3.0764074,-0.6222954,-0.00032852532,-0.06835142,-0.0109155085,-0.00022104381,-0.043900263,0.0081195,0.016724702,0.4733361,-1.4186249,1.9494442,-2.1021068,-1.5685009,2.4469495,-0.06575838,0.108982444,-0.120876655,-0.015299008,0.035237703,-0.08238662,-0.2681506,0.28730422,-9.557653,0.779936,47.677036,-1.1180325,-2.0304205,-3.2894309,-0.4838603,0.3275982,-0.4653554,26.625,27.5625,26.6875,30.0,31.3125,31.875
0.14605331,-1.1814928,-0.7517028,-0.10152285,-0.01666229,0.0302049,-0.14173245,-0.38596132,-0.34931698,0.060067736,3.076326,-0.6222364,-0.0003581943,-0.06959766,-0.010021077,0.0007313011,-0.045411885,0.010065607,0.023317637,0.47319105,-1.4184334,1.9492172,-2.102143,-1.5684413,2.446778,-0.06875233,0.10702544,-0.12067485,-0.015935764,0.03572457,-0.09197112,-0.22984336,0.3256114,-9.461885,0.8247004,47.68062,-1.099253,-1.963911,-3.2483854,-0.48511243,0.3339031,-0.38779384,26.625,27.5625,26.6875,30.0,31.3125,31.875
0.14805405,-0.6240908,-0.52596414,-0.17930602,-0.029312702,0.04175664,-0.16258979,-0.38611144,-0.3493522,0.060073424,3.0761957,-0.6221899,-0.00035399944,-0.07164652,-0.010627033,0.001188309,-0.04682954,0.01117377,0.025544409,0.47304678,-1.4182042,1.9489526,-2.1021907,-1.568333,2.4466214,-0.07000527,0.10972026,-0.12477772,-0.016139744,0.036491558,-0.09544501,-0.24899697,0.28730422,-9.423578,0.86498255,47.71286,-0.9857372,-1.8955753,-3.0656674,-0.47551215,0.34424978,-0.3252244,26.625,27.5625,26.6875,30.0,31.3125,31.875
0.15005425,-0.96409,-0.52768415,-0.10148004,-0.031612232,0.029159347,-0.14679073,-0.3862429,-0.34934893,0.060060177,3.0761676,-0.62210363,-0.00032075273,-0.07214694,-0.010383397,0.0006891201,-0.047250476,0.010007035,0.030500276,0.47289023,-1.4179875,1.948737,-2.1022031,-1.5682849,2.4464147,-0.07145281,0.11116674,-0.12530743,-0.016187582,0.037415963,-0.101847015,-0.2681506,0.2681506,-9.442732,0.85826975,47.7254,-0.9955794,-2.0027628,-3.2052245,-0.48155117,0.356648,-0.25968784,26.625,27.5625,26.6875,30.0,31.3125,31.875
0.1520539,-0.8654247,-1.014343,0.1548522,-0.032663673,0.040491328,-0.14687839,-0.38641596,-0.34936723,0.060087573,3.0760727,-0.6220058,-0.00042011813,-0.07349959,-0.010748939,0.0014318577,-0.048004333,0.011516849,0.03355956,0.472734,-1.4177829,1.9484481,-2.102238,-1.5682367,2.4462097,-0.07199789,0.11208199,-0.12812023,-0.015958108,0.03741909,-0.10544556,-0.38307226,0.34476504,-9.289502,0.8918391,47.71823,-1.0127774,-1.905576,-3.0700507,-0.48830414,0.35709882,-0.18888818,26.625,27.5625,26.6875,30.0,31.3125,31.875
0.15405416,-0.9825012,-0.82399756,0.26497218,-0.026776418,0.04757833,-0.15162802,-0.3865676,-0.34940097,0.060101546,3.0759592,-0.62182784,-0.00040318002,-0.073688366,-0.010667295,0.0005677704,-0.04888274,0.009436399,0.034504052,0.47257766,-1.4175662,1.9481734,-2.1022627,-1.5681156,2.4459567,-0.073399626,0.11391542,-0.12820503,-0.016235948,0.039166506,-0.10778693,-0.45968673,0.38307226,-9.270349,0.8157518,47.705692,-0.9564918,-1.9184871,-3.137233,-0.50937295,0.35925233,-0.14977318,26.625,27.5625,26.6875,30.0,31.3125,31.875
0.15605505,-1.5509335,-0.44488597,0.28465337,-0.024947131,0.03342826,-0.14801586,-0.38668656,-0.34941795,0.06006958,3.0759354,-0.62168926,-0.0002903208,-0.07468604,-0.011339591,0.0009660775,-0.051468182,0.009309448,0.033389945,0.4724451,-1.4173015,1.9479455,-2.1022747,-1.5680312,2.4457407,-0.074604146,0.115044,-0.1304431,-0.016183982,0.04152335,-0.10787518,-0.4213795,0.3256114,-9.251195,0.7016076,47.691364,-0.91797674,-1.8888443,-3.0033412,-0.48890108,0.35644192,-0.11436468,26.625,27.5625,26.6875,30.0,31.3125,31.875
0.15805437,-0.5967024,-0.25887424,0.5448965,-0.023927055,0.05292785,-0.15582679,-0.3868764,-0.34944004,0.060098138,3.0758166,-0.621572,-0.00047449346,-0.07652358,-0.011247192,0.0011056289,-0.051611815,0.010355802,0.028913267,0.4722886,-1.4170965,1.9476699,-2.1023824,-1.5679954,2.4455264,-0.07617285,0.11730845,-0.13328151,-0.016603163,0.041185103,-0.10495843,-0.36391866,0.22984336,-9.155427,0.8314132,47.674347,-0.9333409,-1.9173274,-3.2550454,-0.48415327,0.34234825,-0.13272433,26.625,27.5625,26.6875,30.0,31.3125,31.875
0.16005433,-0.42406946,-0.04661518,0.6442987,-0.025972538,0.05102719,-0.14828588,-0.38706344,-0.34948492,0.06011802,3.0756905,-0.62145233,-0.0005527378,-0.07697793,-0.0104729,0.00014059032,-0.051315818,0.008698625,0.022796663,0.47214398,-1.4168319,1.9473346,-2.1024425,-1.5679115,2.4453232,-0.0782262,0.11898352,-0.1329338,-0.01701346,0.04168275,-0.10088917,-0.3256114,0.22984336,-9.059659,0.81351066,47.73256,-0.87290883,-1.818025,-3.180203,-0.5060728,0.35498065,-0.17380121,26.625,27.5625,26.6875,30.0,31.3125,31.875
0.16205439,-0.23394558,0.10098283,0.5615131,-0.0077678487,0.03429431,-0.15919909,-0.38721666,-0.34949943,0.060140777,3.0755959,-0.6213591,-0.0005568718,-0.07802572,-0.011110612,0.00061525335,-0.053980928,0.009310481,0.016959367,0.47197565,-1.4166392,1.947059,-2.1024306,-1.5678262,2.445109,-0.07935217,0.119700894,-0.13468558,-0.017740848,0.043772586,-0.09617131,-0.36391866,0.17238252,-9.11712,0.82694155,47.694946,-0.8117373,-1.9644864,-3.1932187,-0.49593246,0.33861458,-0.2025139,26.625,27.5625,26.6875,30.0,31.3125,31.875
0.16405438,-0.29234722,0.39170817,0.4758432,-0.003367884,0.022878785,-0.15999784,-0.3873549,-0.34952167,0.06013713,3.0755055,-0.62126535,-0.0004943045,-0.077598706,-0.011754223,-0.0012251349,-0.055331092,0.005674671,0.013186011,0.4718195,-1.41641,1.9468073,-2.1024435,-1.5677174,2.4449058,-0.07962539,0.12330557,-0.13434406,-0.019065378,0.046624396,-0.09266549,-0.2681506,0.095768064,-9.11712,0.8224646,47.69763,-0.7921358,-1.8501811,-3.2572265,-0.48213708,0.3226694,-0.27486467,26.625,27.5625,26.6875,30.0,31.3125,31.875
0.16601397,-0.34443235,0.43029284,0.54397297,0.0015593793,0.008924844,-0.15452898,-0.38751492,-0.3495498,0.060122635,3.0753453,-0.621309,-0.00045085567,-0.07939117,-0.011952447,0.00051441963,-0.05974933,0.007412557,0.0126772225,0.4716385,-1.4161462,1.9465569,-2.1025274,-1.5675844,2.4447725,-0.0828828,0.12175705,-0.13661115,-0.01878769,0.04978601,-0.095406,-0.22984336,-0.076614454,-9.11712,0.800085,47.637623,-0.69825995,-1.8071501,-3.260419,-0.4797424,0.283111,-0.2609846,26.625,27.5625,26.6875,30.0,31.3125,31.875
0.16805536,-0.5058419,0.6716518,0.6861913,0.0053975596,-0.0013666964,-0.15293944,-0.38768306,-0.3495632,0.060128726,3.0752497,-0.6212512,-0.0005068002,-0.07862162,-0.012645065,-0.0006528158,-0.058105238,0.0051350314,0.01253424,0.47147122,-1.4159169,1.9462932,-2.102586,-1.5675243,2.4445815,-0.08064814,0.12470772,-0.13753882,-0.018026615,0.049363118,-0.09302364,-0.21068975,-0.038307227,-9.059659,0.7933669,47.68062,-0.83735573,-1.8721577,-3.3204126,-0.4844641,0.2647401,-0.3214776,26.625,27.5625,26.6875,30.0,31.3125,31.875
0.17005453,-0.12299414,0.79816985,0.82699156,0.016361857,0.021264281,-0.1552745,-0.38782886,-0.349591,0.060120825,3.075155,-0.62115544,-0.00039277668,-0.07929612,-0.012937357,-0.0008863356,-0.05939728,0.003949828,0.012141427,0.47130293,-1.4156522,1.9460047,-2.1025746,-1.5673918,2.4443655,-0.081788674,0.12654941,-0.13922027,-0.017700592,0.051058006,-0.09376743,-0.21068975,0.076614454,-8.810662,0.8493211,47.690468,-0.8283603,-1.8679208,-3.337551,-0.48464507,0.25347602,-0.33182004,26.625,27.5,26.6875,30.0,31.3125,31.875
0.17205513,-0.6047457,0.54824495,0.5010009,0.037490983,0.010407595,-0.15480542,-0.387998,-0.34961522,0.060112864,3.0750716,-0.6210635,-0.00040614328,-0.08004574,-0.012728772,-0.001385162,-0.061218526,0.0012833598,0.009140016,0.4711457,-1.4153751,1.9457182,-2.1026337,-1.5673188,2.4441617,-0.08461518,0.1285053,-0.14057218,-0.01675134,0.053901087,-0.0935841,-0.05746084,0.05746084,-9.002198,0.8672237,47.691364,-0.6324848,-1.9731377,-3.333302,-0.50844026,0.22765322,-0.36570767,26.625,27.5,26.6875,30.0,31.3125,31.875
0.17405419,-0.671385,0.4207063,0.2432128,0.023841597,0.0073367045,-0.15065381,-0.38816062,-0.34964556,0.060126133,3.0749278,-0.6209914,-0.0003793876,-0.07898539,-0.014745752,-0.0017682528,-0.06219975,4.8026963e-05,0.0138786705,0.47096723,-1.4151461,1.9454306,-2.102658,-1.5671867,2.4439566,-0.080984004,0.13039507,-0.14191993,-0.016617194,0.055349626,-0.09468405,0.019153614,-0.076614454,-9.212888,0.9030289,47.703903,-0.9676558,-1.9222664,-3.3030057,-0.5293568,0.17578238,-0.38781506,26.625,27.5,26.6875,30.0,31.3125,31.875
0.1760558,0.20708573,0.34487924,0.544022,-0.010309623,0.03211258,-0.15861532,-0.38833266,-0.34968033,0.060133263,3.0748024,-0.6209654,-0.00038746683,-0.080385834,-0.01515965,-0.0023631365,-0.062375207,-0.0012552046,0.015298746,0.4708109,-1.4148804,1.9451174,-2.1026938,-1.5670899,2.4438002,-0.0819624,0.1346326,-0.14558443,-0.016084794,0.056110192,-0.09707447,-0.13407528,0.19153613,-9.078813,0.8314132,47.704796,-0.96084243,-2.0521498,-3.328899,-0.5401914,0.14956269,-0.3762384,26.625,27.5,26.6875,30.0,31.3125,31.875
0.17805475,0.025648253,-0.15963054,0.038154915,-0.020978658,0.02402171,-0.15612568,-0.38846722,-0.34969768,0.060108565,3.0747483,-0.6208357,-0.00024125747,-0.080576204,-0.015230131,-0.00107077,-0.063478716,0.0013766504,0.020173471,0.47064298,-1.4146051,1.9448546,-2.1026819,-1.5669702,2.4435582,-0.08184086,0.13182223,-0.14525235,-0.01641341,0.05591708,-0.10183008,-0.019153614,0.28730422,-9.155427,0.83365434,47.690468,-1.0167989,-1.8386093,-3.4907432,-0.55268544,0.13919505,-0.37576738,26.625,27.5,26.6875,30.0,31.3125,31.875
0.18005563,-0.13670717,-0.83343834,-0.027758691,-0.030528128,0.020931682,-0.14974365,-0.38860667,-0.34971344,0.0600785,3.0747063,-0.620728,-0.00018302571,-0.08169044,-0.01511583,-0.0014541616,-0.06295053,0.00077232724,0.025386024,0.47049856,-1.4143279,1.9446152,-2.102729,-1.5668982,2.443352,-0.08289518,0.134515,-0.1476224,-0.015918521,0.055740956,-0.108095445,0.076614454,0.2681506,-9.289502,0.8023209,47.679718,-0.992511,-1.9284961,-3.3958,-0.5689862,0.123724476,-0.31854653,26.625,27.5,26.6875,30.0,31.3125,31.875
0.18205512,0.052018136,-0.7748544,-0.1314618,-0.04179168,0.017544972,-0.15542087,-0.3887795,-0.34975204,0.060094483,3.074557,-0.6206352,-0.00014625333,-0.08346185,-0.015340902,-0.0006975879,-0.06286375,0.0026065588,0.0315779,0.4703185,-1.4140753,1.9442915,-2.1027415,-1.5667547,2.443133,-0.08347935,0.13614005,-0.15137696,-0.0153296795,0.054861438,-0.11486666,0.095768064,0.45968673,-9.3661175,0.83365434,47.69763,-1.0264096,-1.8934882,-3.366425,-0.5779612,0.11701481,-0.27604455,26.625,27.5,26.6875,30.0,31.3125,31.875
0.18405479,-0.31107172,-1.3391446,-0.40236476,-0.036921352,0.008850592,-0.14870182,-0.38894764,-0.34974647,0.06006625,3.074554,-0.62045956,-9.9623976e-05,-0.084856376,-0.01541533,-0.0006296732,-0.06311789,0.0029356962,0.035392202,0.47012612,-1.4137741,1.9440149,-2.1027653,-1.5667065,2.4428315,-0.08461471,0.1382779,-0.15407096,-0.015146857,0.054955076,-0.11981479,0.038307227,0.57460845,-9.404425,0.86945957,47.723602,-1.0448147,-1.9589776,-3.2651973,-0.6108066,0.09825411,-0.18677089,26.625,27.5,26.6875,30.0,31.3125,31.875
0.18605438,-0.61378217,-1.4713722,-0.535688,-0.03928833,0.01461491,-0.14902781,-0.38910976,-0.34977937,0.06005973,3.0744314,-0.6203551,-1.6038759e-05,-0.084424876,-0.014263918,-0.0025257412,-0.060737647,0.00035504706,0.040037066,0.46994582,-1.4134971,1.9437169,-2.1027896,-1.566563,2.4426017,-0.08561206,0.14039972,-0.15206829,-0.015839083,0.054033402,-0.12545691,-0.019153614,0.7469909,-9.519346,0.8314132,47.69763,-1.0566496,-1.9112978,-3.429618,-0.61123204,0.09330736,-0.12722816,26.625,27.5,26.6875,30.0,31.3125,31.875
0.18805502,-0.6459388,-1.7218443,-0.49639973,-0.04983986,0.032679424,-0.1523706,-0.38930023,-0.34981588,0.060087413,3.0743077,-0.6202153,-7.10218e-05,-0.08636772,-0.014575269,-0.0014289722,-0.060444746,0.0042383196,0.039009094,0.46977776,-1.4132445,1.9433688,-2.1028135,-1.5664681,2.4423623,-0.08546685,0.14120163,-0.15532711,-0.016688671,0.05202094,-0.12427944,0.0,0.6895301,-9.576807,0.784413,47.703903,-1.0616391,-1.7840884,-3.30798,-0.62267125,0.09936138,-0.10448676,26.625,27.5,26.6875,30.0,31.3125,31.875
0.1900539,-0.8847528,-1.9795033,-0.6148028,-0.05899648,0.039022975,-0.1487462,-0.3894558,-0.34985915,0.060066428,3.0742507,-0.61995655,-1.0988709e-05,-0.08873528,-0.013296828,-0.00060577743,-0.05989267,0.0063636093,0.033790123,0.46964473,-1.4129323,1.9430684,-2.1028612,-1.5663604,2.442075,-0.088866875,0.14152542,-0.15771669,-0.016250284,0.050565,-0.122460485,-0.15322891,0.7469909,-9.653421,0.8918391,47.689575,-0.93791115,-1.8452334,-3.3553843,-0.6497432,0.113296665,-0.0920102,26.625,27.5,26.6875,30.0,31.3125,31.875
0.19205476,-1.0107822,-2.0379357,-0.71292746,-0.058018282,0.038094334,-0.14364429,-0.3896372,-0.3498714,0.060076583,3.0741494,-0.6199355,2.633908e-05,-0.088950366,-0.0142352665,-0.0016809959,-0.057981595,0.0054452913,0.032085426,0.46944168,-1.4126662,1.9427336,-2.1028373,-1.5662645,2.441872,-0.086522125,0.1459025,-0.16032787,-0.016323585,0.049268454,-0.118409485,-0.17238252,0.7278373,-9.634268,0.87393653,47.72271,-1.1613934,-1.978359,-3.3207202,-0.68298423,0.13507512,-0.10821958,26.625,27.5,26.6875,30.0,31.3125,31.875
0.19405468,-0.89470804,-1.5460292,-0.74072456,-0.053250708,0.033061367,-0.14943768,-0.38980538,-0.349907,0.060054332,3.0740669,-0.619808,8.70843e-05,-0.0912481,-0.012902154,-0.0011692498,-0.057413902,0.0077504143,0.02425375,0.4692844,-1.4123422,1.9424223,-2.102885,-1.5661572,2.4416456,-0.08988,0.1463524,-0.16190374,-0.016990611,0.047708135,-0.11393628,-0.038307227,0.63206923,-9.691729,0.8672237,47.733456,-1.1056795,-1.7816256,-3.2663555,-0.67539555,0.15125966,-0.16707098,26.625,27.5,26.6875,30.0,31.3125,31.875
0.19605535,-0.51210946,-0.8674815,-0.7373999,-0.041222207,0.03690654,-0.14787358,-0.38999817,-0.34994516,0.060059674,3.0739498,-0.6197076,6.16585e-05,-0.09166588,-0.0135759,-0.0016899002,-0.05594753,0.008959284,0.022480685,0.46911716,-1.412041,1.9420747,-2.1029341,-1.5660619,2.4414308,-0.087822884,0.14885002,-0.16328996,-0.018509174,0.0458498,-0.110104285,-0.038307227,0.57460845,-9.672575,0.7978386,47.675243,-1.1044784,-2.034084,-3.2991114,-0.67834103,0.17747447,-0.20351276,26.625,27.5,26.6875,30.0,31.3125,31.875
0.19805443,-0.7069757,-0.69611394,-0.5448589,-0.019730523,0.024140146,-0.15329303,-0.39018494,-0.3499575,0.060051963,3.0738654,-0.61969185,7.356499e-05,-0.09291445,-0.013838909,-0.0021330484,-0.0557675,0.009107378,0.018643461,0.46892506,-1.4117395,1.9417504,-2.102958,-1.5659899,2.4412398,-0.088272616,0.15193129,-0.16570948,-0.01921977,0.04561463,-0.10671352,-0.1340753,0.30645782,-9.634268,0.8717007,47.687782,-1.2301236,-2.1056118,-3.263652,-0.6960523,0.2001276,-0.28332442,26.625,27.5,26.6875,30.0,31.3125,31.875
0.20005469,-0.6588344,-0.06304771,-0.4985633,-0.018439813,0.030371498,-0.15243909,-0.39037886,-0.3500206,0.060065642,3.0737329,-0.6194721,4.6156833e-06,-0.093642,-0.01353989,-0.0030276498,-0.056482673,0.008018453,0.017765738,0.4687924,-1.4114385,1.9413918,-2.103042,-1.5658811,2.440987,-0.09013196,0.15402122,-0.16581145,-0.020541234,0.04676446,-0.10768569,-0.095768064,0.2681506,-9.519346,0.89631605,47.71286,-1.1098719,-2.1602454,-3.3852806,-0.69431055,0.20547114,-0.31083745,26.625,27.5,26.6875,30.0,31.3125,31.875
0.2020545,-0.9282501,-0.1832785,-0.6026777,-0.0038057468,0.027501784,-0.14269619,-0.39057258,-0.35003582,0.060077433,3.0736237,-0.6194325,-4.4751214e-05,-0.0952983,-0.013190468,-0.0028651562,-0.054388907,0.010434631,0.013959667,0.4686003,-1.4111735,1.941068,-2.1030781,-1.5658106,2.4407845,-0.0902733,0.15593733,-0.16828783,-0.021181285,0.043800686,-0.10402212,-0.15322891,0.15322891,-9.5385,0.96569055,47.719128,-1.186882,-2.1461678,-3.4809117,-0.67547774,0.2477088,-0.38126177,26.625,27.5,26.6875,30.0,31.3125,31.875
0.20405477,-0.71397203,0.5364086,-0.036035214,-0.009144032,0.037626848,-0.15817465,-0.39077997,-0.3500517,0.0600671,3.0735142,-0.61942834,-7.590371e-05,-0.09548423,-0.012913446,-0.0033604077,-0.054141518,0.009888729,0.015088054,0.468396,-1.410849,1.9407343,-2.1031506,-1.5657381,2.4405918,-0.09089133,0.15682766,-0.16813493,-0.02160078,0.043847963,-0.10576494,-0.17238252,0.19153613,-9.557653,0.8672237,47.694946,-1.2379192,-2.1650336,-3.4172795,-0.6887083,0.26988742,-0.41467375,26.625,27.5,26.6875,30.0,31.3125,31.875
0.20605496,-0.8879427,0.18276623,0.018377118,-0.005778917,0.038435385,-0.15508735,-0.3909664,-0.35008717,0.060060866,3.0733652,-0.6194374,3.1969183e-05,-0.096851535,-0.012964349,-0.003160285,-0.054865565,0.010141564,0.012574795,0.46819165,-1.4105239,1.9403738,-2.1031501,-1.5655822,2.4404123,-0.09230218,0.15854396,-0.17067866,-0.021307744,0.04438119,-0.10465845,-0.19153613,0.19153613,-9.481039,0.9030289,47.690468,-1.2386788,-2.177533,-3.3571665,-0.7079756,0.27485117,-0.48328894,26.625,27.5,26.6875,30.0,31.3125,31.875
0.20805487,-0.8673782,0.20891735,0.03628633,0.0037745982,0.028583907,-0.15110612,-0.39119557,-0.35015684,0.060123302,3.0731697,-0.6192026,-0.00019724487,-0.09720659,-0.0131746465,-0.004144707,-0.055186227,0.007937164,0.01509023,0.4680475,-1.4102827,1.9399785,-2.1032574,-1.5654858,2.440147,-0.09303258,0.16155025,-0.17195766,-0.021183982,0.045705233,-0.10788829,-0.22984336,0.095768064,-9.423578,0.82022345,47.666286,-1.2704288,-2.237192,-3.4672718,-0.72698617,0.29398274,-0.50547457,26.625,27.5,26.6875,30.0,31.3125,31.875
0.21005437,-0.14905438,0.54270494,0.024175351,-0.0018172694,0.044602633,-0.15848352,-0.39134416,-0.3501631,0.06006147,3.0731723,-0.61916035,-2.5437685e-05,-0.09896025,-0.013766843,-0.0028452429,-0.05743045,0.010814225,0.021108229,0.4678792,-1.4099106,1.93969,-2.103258,-1.5654134,2.439952,-0.093969025,0.16155575,-0.17482091,-0.021856911,0.046428073,-0.11484344,-0.2681506,-0.019153614,-9.308657,0.9030289,47.72002,-1.3201375,-2.0636294,-3.3720179,-0.710817,0.30058712,-0.481677,26.625,27.5,26.6875,30.0,31.3125,31.875
0.21205471,-0.4577664,0.62584037,0.64105713,-0.0059365886,0.04086863,-0.16137934,-0.3915738,-0.3501966,0.06008275,3.0730534,-0.6190163,-0.00013314579,-0.1008205,-0.014041183,-0.0022723284,-0.057584852,0.013095113,0.02889795,0.46768713,-1.4095975,1.9392942,-2.103318,-1.5653418,2.4396853,-0.094540454,0.16335455,-0.17812228,-0.022395303,0.045588154,-0.12319885,-0.2873042,0.0,-9.232042,0.9634547,47.705692,-1.2753596,-2.1111703,-3.459828,-0.6998816,0.32303387,-0.41781592,26.625,27.5,26.6875,30.0,31.3125,31.875
0.21405388,-1.172841,0.30996346,0.3109394,0.012629066,0.037389997,-0.15194009,-0.39175937,-0.35020494,0.0600482,3.0730155,-0.6189091,-3.603476e-05,-0.10239431,-0.013710699,-0.0014884158,-0.05913683,0.014470503,0.03507215,0.4674821,-1.4092373,1.93896,-2.1033304,-1.5652574,2.4394183,-0.096972354,0.1632858,-0.17986532,-0.0224475,0.046392582,-0.1318029,-0.49799395,-0.019153614,-9.136273,0.8873621,47.711063,-1.1379774,-1.9701965,-3.3997073,-0.73508674,0.34960097,-0.34165472,26.625,27.5,26.6875,30.0,31.3125,31.875
0.21605498,-1.2557061,0.743799,0.2199514,0.018919704,0.04553253,-0.1517777,-0.39195734,-0.350247,0.060060997,3.0728805,-0.61872375,-6.679582e-05,-0.10314336,-0.015039804,-0.0007017055,-0.06198509,0.015163124,0.04181883,0.4673022,-1.4089489,1.9386119,-2.1033895,-1.5651368,2.43914,-0.09669339,0.16406254,-0.18260695,-0.02233247,0.048668824,-0.13825747,-0.47884035,0.019153614,-9.059659,0.88960326,47.668976,-1.3082411,-1.9414105,-3.2779949,-0.72462064,0.34535605,-0.25145516,26.625,27.5,26.6875,30.0,31.3125,31.875
0.2180545,-1.11853,0.5128379,0.18708374,0.019998815,0.06746545,-0.1533515,-0.39218313,-0.35028213,0.060061295,3.0727768,-0.61860555,-0.00010116903,-0.10529447,-0.013599123,-0.0018870895,-0.062323805,0.012355576,0.042005453,0.46710834,-1.4085871,1.9382046,-2.1034377,-1.5650519,2.438886,-0.102091864,0.16812119,-0.18475787,-0.021839352,0.05027788,-0.143832,-0.45968673,0.114921674,-9.097966,0.84484416,47.701214,-0.9737215,-1.9069936,-3.2255316,-0.7331594,0.36952704,-0.20031726,26.625,27.5,26.6875,30.0,31.3125,31.875
0.2200542,-1.4195921,0.3847263,0.072740376,0.001467115,0.06673649,-0.15508652,-0.39238122,-0.3503081,0.06006245,3.072668,-0.6184301,-4.8573882e-05,-0.10554658,-0.014965388,0.00021532607,-0.06493103,0.015848212,0.04215647,0.46689305,-1.408276,1.9378456,-2.1034496,-1.5649198,2.438575,-0.1003296,0.1653278,-0.18638489,-0.021693487,0.051040374,-0.14221534,-0.57460845,0.22984336,-9.193734,0.8672237,47.704796,-1.1500069,-1.8530636,-3.2405581,-0.75353944,0.35468838,-0.17244405,26.625,27.5,26.6875,30.0,31.3125,31.875
0.22205408,-1.5633719,-0.41554767,0.067067415,-0.008455164,0.07427521,-0.15290932,-0.3925841,-0.35031343,0.060054157,3.0726066,-0.6182661,-5.088037e-05,-0.10760741,-0.013998507,0.00038586135,-0.06610244,0.015595961,0.03593231,0.46667555,-1.407963,1.9375113,-2.1034853,-1.5648474,2.4382632,-0.10452745,0.1667537,-0.18856694,-0.021233676,0.052204527,-0.14018147,-0.61291564,0.24899697,-9.289502,0.92093146,47.691364,-0.9982821,-1.905323,-3.3095038,-0.76965505,0.37433475,-0.16282754,26.625,27.5,26.6875,30.0,31.3125,31.875
0.22405416,-1.8467684,-0.5077573,-0.020489097,-0.036000427,0.0748367,-0.14623311,-0.39278847,-0.3503535,0.060049176,3.0725017,-0.61813486,-3.4532568e-05,-0.10793684,-0.013479363,-0.00047462128,-0.06595976,0.013661727,0.027388839,0.46649525,-1.4076138,1.9371275,-2.103521,-1.5647396,2.4380145,-0.10612296,0.16852094,-0.18874055,-0.02105474,0.052932296,-0.13322726,-0.7086837,0.2681506,-9.32781,0.8672237,47.701214,-0.9747868,-1.8824441,-3.34132,-0.7984655,0.37940934,-0.23882021,26.625,27.5,26.6875,30.0,31.3125,31.875
0.22605458,-1.8966854,-1.2161199,-0.43500614,-0.025648665,0.05965498,-0.1425173,-0.39301535,-0.35037598,0.060038283,3.072408,-0.61804044,-4.024066e-05,-0.10897594,-0.013597811,-6.9435446e-05,-0.067059815,0.014416311,0.023242082,0.4662788,-1.4072412,1.9367326,-2.1035688,-1.5646547,2.4377513,-0.10716621,0.16915287,-0.19041625,-0.021177707,0.053575363,-0.13011722,-0.6512228,0.24899697,-9.442732,0.8560339,47.713753,-0.9143722,-1.8172035,-3.2572074,-0.7943833,0.3986165,-0.3109004,26.625,27.5,26.6875,30.0,31.3125,31.875
0.22805463,-1.5467021,-1.1433928,-0.11960553,-0.031574387,0.062787235,-0.1396645,-0.39324766,-0.35040903,0.060048673,3.0722322,-0.6179291,-6.229886e-05,-0.10987542,-0.013908326,-0.00060854165,-0.068474196,0.013654865,0.021266194,0.4660383,-1.4069161,1.9363502,-2.1036413,-1.5645102,2.437464,-0.10836686,0.17157461,-0.19180474,-0.02214528,0.05519915,-0.12932862,-0.63206923,0.21068975,-9.3661175,0.8627467,47.684196,-0.9075352,-1.8256787,-3.2293415,-0.82015526,0.39109725,-0.34061217,26.625,27.5,26.6875,30.0,31.3125,31.875
0.23005462,-1.3856465,-0.56004,-0.15410218,-0.03447314,0.053967465,-0.14941587,-0.39346647,-0.35041866,0.060019013,3.0721867,-0.6179198,-1.8103844e-06,-0.11037935,-0.014711878,-0.0019580896,-0.06964675,0.0116031105,0.020324176,0.46582228,-1.4065061,1.9359435,-2.1036417,-1.5644497,2.4372482,-0.10858084,0.17574468,-0.19330718,-0.023498375,0.057167225,-0.12859267,-0.6703765,0.28730422,-9.308656,0.99031126,47.71286,-0.9156699,-1.9858682,-3.4473372,-0.8138045,0.38682824,-0.36063337,26.625,27.5,26.6875,30.0,31.3125,31.875
0.23205444,-1.2993821,-0.28222373,-0.3108681,-0.01753995,0.042485867,-0.14130975,-0.393693,-0.35044652,0.06001466,3.0720074,-0.6178438,1.5908554e-05,-0.11266848,-0.016216645,-0.0011917201,-0.07364344,0.013099034,0.02006505,0.46557,-1.4061692,1.9355835,-2.1037261,-1.5642923,2.4369717,-0.10973909,0.1785648,-0.19808458,-0.024642376,0.060082607,-0.12947293,-0.49799395,0.34476504,-9.385271,0.9992599,47.709274,-0.890574,-1.9078858,-3.3976903,-0.8079541,0.38247907,-0.39625174,26.625,27.5,26.6875,30.0,31.3125,31.875
0.23405415,-0.53875965,-0.11173412,-0.13043503,-0.020361375,0.046861902,-0.15780398,-0.39392465,-0.35048023,0.0600189,3.0718818,-0.61774,3.7711216e-06,-0.11239329,-0.01818166,-0.00048394856,-0.07802444,0.013845753,0.022895217,0.46535453,-1.4058088,1.9351653,-2.103762,-1.5641836,2.4367077,-0.108259626,0.17799309,-0.19875214,-0.0260138,0.063686505,-0.13080493,-0.3256114,0.21068975,-9.461885,0.9097417,47.705692,-0.9464037,-1.9705657,-3.4446898,-0.79185814,0.35155797,-0.39985892,26.625,27.5,26.6875,30.0,31.3125,31.875
0.23605442,-0.4714886,-0.6982454,-0.27673662,-0.018404698,0.019461507,-0.14976896,-0.39413348,-0.35051116,0.05999786,3.0717876,-0.6176388,2.5816305e-05,-0.11295343,-0.018029716,-0.0018273373,-0.07973242,0.01098735,0.029180821,0.4651618,-1.4054357,1.9347953,-2.103822,-1.5640863,2.436464,-0.110768646,0.18096727,-0.19898371,-0.026895575,0.06655411,-0.13958529,-0.1340753,0.28730422,-9.3661175,0.87617236,47.661808,-1.0143166,-2.085559,-3.4459944,-0.78869283,0.31329197,-0.35413894,26.625,27.5,26.6875,30.0,31.3125,31.875
0.23805447,0.052369785,-0.47225338,-0.41932502,-0.033796765,0.0053260797,-0.14979365,-0.3943755,-0.35055804,0.05999736,3.071608,-0.6175217,5.68522e-05,-0.11294123,-0.019831287,-0.002194877,-0.08317236,0.009604186,0.036169033,0.46492204,-1.4050504,1.9343647,-2.1038826,-1.563917,2.4361744,-0.10989231,0.18329494,-0.2006817,-0.027764197,0.0703008,-0.14567533,-0.019153614,0.2681506,-9.500193,0.8717007,47.670765,-0.938666,-2.1478434,-3.4624271,-0.78178585,0.29415748,-0.27178597,26.625,27.5,26.6875,30.0,31.3125,31.875
0.24005431,0.65997857,-0.56796217,-0.38098317,-0.05011477,0.0013020878,-0.1553811,-0.3945932,-0.35058975,0.05998034,3.0714662,-0.61739165,9.1887014e-05,-0.11427805,-0.019846546,-0.0021236942,-0.08394016,0.010235391,0.044042047,0.46469355,-1.4046894,1.9340051,-2.1039665,-1.563773,2.435883,-0.11125769,0.18493448,-0.20269378,-0.028201094,0.0707703,-0.15490559,-0.019153614,0.24899697,-9.461885,0.8851263,47.701214,-0.98495096,-2.0780475,-3.4029484,-0.7810044,0.24391899,-0.19436534,26.625,27.5,26.6875,30.0,31.3125,31.875
0.24205421,0.15672073,-1.0287069,-0.23164515,-0.043827742,-0.012998641,-0.15250686,-0.39482838,-0.35062674,0.05998091,3.0713797,-0.6171812,8.259356e-05,-0.11510234,-0.020100255,-0.0030847054,-0.08428275,0.008803727,0.047688976,0.46448925,-1.404304,1.9335631,-2.1039908,-1.5636767,2.4355586,-0.11208343,0.18843,-0.20450088,-0.028705997,0.07175888,-0.15936771,0.076614454,0.3256114,-9.385271,0.89631605,47.689575,-0.9398588,-2.136336,-3.4077551,-0.7740642,0.24493855,-0.11453119,26.625,27.5,26.6875,30.0,31.3125,31.875
0.24405469,0.49784476,-0.67765397,-0.3013699,-0.036297265,-0.009062112,-0.15638192,-0.39507768,-0.35067675,0.05999237,3.0711913,-0.6170273,8.247096e-05,-0.11614612,-0.021068305,-0.0027526605,-0.08804841,0.008607197,0.045937154,0.46424884,-1.4039314,1.9331197,-2.1040509,-1.563507,2.4352465,-0.11342058,0.189735,-0.2066596,-0.029334115,0.07523719,-0.15892868,0.1340753,0.4405331,-9.3661175,0.8403672,47.698532,-0.9370177,-2.0803454,-3.43326,-0.7632388,0.19861168,-0.07055676,26.625,27.5,26.6875,30.0,31.3125,31.875
0.24605468,0.2144888,-0.5253146,-0.16500142,-0.035377022,-0.007858606,-0.14596377,-0.3953241,-0.3507113,0.059985545,3.0710478,-0.6169238,9.069252e-05,-0.11805676,-0.02156485,-0.0014549367,-0.08893568,0.012099915,0.041415676,0.46400893,-1.4035348,1.9326895,-2.104111,-1.5633763,2.4349606,-0.11364387,0.19017947,-0.21006183,-0.0298865,0.0744608,-0.15462522,0.19153613,0.4213795,-9.423578,0.8537928,47.675243,-0.96772707,-2.2376046,-3.447772,-0.72170717,0.14805025,-0.09416732,26.625,27.5,26.6875,30.0,31.3125,31.875
0.24805513,0.10024787,-0.786886,-0.0940743,-0.028522722,0.004100183,-0.15046714,-0.39557064,-0.3507732,0.059992723,3.0708497,-0.616789,7.642792e-05,-0.11876128,-0.021918776,-0.0018185911,-0.089590736,0.012332101,0.036488056,0.46379274,-1.4031496,1.9322466,-2.1041949,-1.5632075,2.434686,-0.113854766,0.19199407,-0.21110025,-0.031158127,0.074943155,-0.14989522,0.17238252,0.49799395,-9.308657,0.800085,47.678825,-0.9971496,-2.2103367,-3.4302197,-0.7307261,0.16769086,-0.14934093,26.625,27.5,26.6875,30.0,31.3125,31.875
0.250055,-0.269421,-0.9117079,-0.3478285,-0.016959984,0.0029771822,-0.15158086,-0.39578635,-0.3508103,0.059971366,3.0707393,-0.6165785,0.00013855212,-0.1194738,-0.021900583,-0.0020217202,-0.08900704,0.013675048,0.028824007,0.46357688,-1.4027648,1.9318632,-2.1042554,-1.5630645,2.4343529,-0.113693014,0.19309227,-0.21162723,-0.032687142,0.0737902,-0.14206943,0.095768064,0.45968673,-9.232041,0.83813137,47.691364,-1.0274644,-2.2552552,-3.4291062,-0.71068627,0.15130126,-0.23810592,26.625,27.5,26.6875,30.0,31.3125,31.875
0.25205415,-0.20016132,-0.20103031,-0.3114078,-0.028490586,0.017643247,-0.15165687,-0.39603072,-0.3508431,0.059968043,3.0705779,-0.61649066,0.000119529,-0.12168135,-0.020049822,-0.0019776633,-0.08637774,0.015250896,0.023047047,0.46333578,-1.4023917,1.9314574,-2.104339,-1.5629328,2.434078,-0.11683492,0.19444643,-0.21342878,-0.032446977,0.07074378,-0.13943878,0.076614454,0.49799395,-9.423578,0.94331104,47.695843,-1.0078048,-2.278958,-3.491334,-0.6802673,0.1554504,-0.27718493,26.625,27.5,26.6875,30.0,31.3125,31.875
0.25405443,-0.8403571,-0.7874772,-0.37705225,-0.021900203,0.015834497,-0.13748926,-0.3962721,-0.350855,0.05995542,3.0704448,-0.61651987,0.00020052865,-0.12090095,-0.02079499,-0.0019655342,-0.08302768,0.015756011,0.023806473,0.46306154,-1.4019957,1.9310268,-2.1043384,-1.5628022,2.4338393,-0.11270113,0.19544794,-0.2151047,-0.030705053,0.06752019,-0.13607611,0.11492168,0.4405331,-9.404425,0.8784135,47.703903,-1.2380688,-2.098787,-3.5124304,-0.67420703,0.16676113,-0.36993763,26.625,27.5,26.6875,30.0,31.3125,31.875
0.25605482,-0.5325833,-0.12220608,-0.49428707,-0.025988998,0.029427225,-0.14158517,-0.3964933,-0.3509177,0.05993493,3.0702717,-0.6163538,0.00027978187,-0.12439764,-0.018631008,-0.00053478364,-0.081900954,0.01929321,0.01653424,0.46285558,-1.4015871,1.9306191,-2.1044223,-1.562611,2.433552,-0.11781753,0.1952602,-0.21841538,-0.029836442,0.06493615,-0.13392559,0.076614454,0.4213795,-9.308657,0.8851263,47.683304,-1.0100616,-2.0498486,-3.4699993,-0.6962471,0.23519889,-0.45571524,26.625,27.5,26.6875,30.0,31.3125,31.875
0.2580551,-0.7099082,-0.08366545,-0.56481606,-0.013588202,0.031987756,-0.14263935,-0.39674708,-0.35097915,0.059939746,3.0701125,-0.6162232,0.00021850591,-0.12538877,-0.019563472,-0.00024707458,-0.08151055,0.021986725,0.019724296,0.4626643,-1.401178,1.9301528,-2.1045063,-1.5624913,2.4333,-0.11599764,0.19698392,-0.22078975,-0.031376604,0.063413404,-0.13529277,-0.05746084,0.47884035,-9.557653,0.8851263,47.694946,-1.1270893,-2.1201653,-3.3694801,-0.679832,0.25503194,-0.48743966,26.625,27.5,26.6875,30.0,31.3125,31.875
0.26005447,-0.4591599,-0.117955804,-0.4454598,-0.015228434,0.05233647,-0.15162084,-0.3970025,-0.3509999,0.0599218,3.0700176,-0.61610305,0.00019328085,-0.1272358,-0.019157639,0.0006172695,-0.08115862,0.025212293,0.025078468,0.46242407,-1.4007574,1.9297217,-2.1045783,-1.5624083,2.4329972,-0.117146485,0.19720167,-0.22291817,-0.032109275,0.06171838,-0.14179836,-0.095768064,0.36391866,-9.5385,0.8851263,47.70211,-1.1360676,-2.0668058,-3.366786,-0.6365406,0.2637257,-0.4780556,26.625,27.5,26.6875,30.0,31.3125,31.875
0.26205453,-0.98804444,-0.2068401,-0.50281274,-0.026708752,0.05158794,-0.14544223,-0.3972125,-0.35103783,0.05991675,3.0698953,-0.61593896,0.00028296158,-0.12801966,-0.01828926,0.000114486946,-0.07958986,0.024554417,0.033922225,0.46220753,-1.4003966,1.9293145,-2.1045783,-1.5622524,2.432694,-0.1186064,0.19887766,-0.22397318,-0.031315833,0.060691297,-0.15210454,-0.15322891,0.30645782,-9.557653,0.900793,47.66091,-1.1218674,-2.0228267,-3.4274464,-0.62808156,0.31659186,-0.39653414,26.625,27.5,26.6875,30.0,31.3125,31.875
0.2640545,-1.1147325,-0.51109916,-0.52090466,-0.020866621,0.053361032,-0.14228292,-0.39749613,-0.3510727,0.059920806,3.0697773,-0.6157155,0.00017346394,-0.12884727,-0.01810306,-0.0011771074,-0.07885701,0.023135262,0.04503684,0.46196702,-1.3999748,1.9288372,-2.1046736,-1.5621685,2.4323294,-0.11959932,0.20262824,-0.22531505,-0.03199754,0.060778137,-0.16420236,-0.17238252,0.2681506,-9.710882,0.900793,47.683304,-1.0632358,-2.1099095,-3.4802942,-0.62297934,0.32861024,-0.27876848,26.625,27.5,26.6875,30.0,31.3125,31.875
0.2660544,-1.1489743,0.009733901,-0.40119714,-0.030297292,0.055107344,-0.14482026,-0.39774036,-0.3511298,0.05992095,3.069615,-0.61550635,0.00022727334,-0.13006875,-0.01849159,-0.0006039103,-0.0797281,0.024198301,0.05068506,0.461739,-1.3995662,1.9283708,-2.1047099,-1.5619882,2.4319918,-0.12011824,0.20376723,-0.22809862,-0.031597115,0.06114767,-0.17036147,-0.17238252,0.2681506,-9.557653,0.9254084,47.67345,-1.1297572,-2.1512465,-3.5237293,-0.6015902,0.33461547,-0.20681551,26.625,27.5,26.6875,30.0,31.3125,31.875
0.26805496,-0.7691089,0.0021771747,-0.41093585,-0.019104125,0.050513383,-0.14614983,-0.3980367,-0.3511861,0.059954844,3.069442,-0.6152605,6.273117e-05,-0.13182336,-0.017561043,4.5319204e-05,-0.08082461,0.0246466,0.04896831,0.46150985,-1.3991696,1.9278549,-2.1048048,-1.56188,2.4316318,-0.12368639,0.20390752,-0.2300056,-0.030674519,0.061989814,-0.17219529,-0.28730422,0.22984336,-9.519346,0.87393653,47.694946,-1.1085098,-2.1430378,-3.457447,-0.58889806,0.366471,-0.15673418,26.625,27.5,26.6875,30.0,31.3125,31.875
0.27005515,-0.6375028,0.5369181,-0.42330718,-0.009650236,0.040659256,-0.14885758,-0.39826962,-0.3511956,0.05990236,3.0693572,-0.61516744,0.0001646492,-0.13106838,-0.019372817,-0.0007778468,-0.08303847,0.021969724,0.046868846,0.46124652,-1.3987243,1.927473,-2.1048768,-1.5617589,2.4313214,-0.12176272,0.20660883,-0.2313555,-0.030624522,0.065150216,-0.16815393,-0.47884035,0.076614454,-9.615114,0.9545008,47.7254,-1.1174934,-2.1224477,-3.4620953,-0.5835395,0.3474059,-0.15619275,26.625,27.5,26.6875,30.0,31.3125,31.875
0.27205426,-0.53375626,0.5240772,-0.48005897,-0.006330923,0.05353926,-0.1428494,-0.39854428,-0.35124123,0.059922412,3.0691442,-0.61507267,0.00013115724,-0.13314715,-0.017358307,-0.002149623,-0.081062414,0.020812374,0.03537482,0.4609808,-1.3983387,1.9269933,-2.1049368,-1.5615915,2.4310243,-0.12616393,0.21020159,-0.23232998,-0.03134161,0.06388314,-0.1610571,-0.57460845,0.15322891,-9.672575,0.97464454,47.69763,-0.898895,-2.140875,-3.547943,-0.56548464,0.3553456,-0.22184463,26.625,27.5,26.6875,30.0,31.3125,31.875
0.27405438,-1.4264005,-0.06683849,-0.29716593,-0.015878266,0.05681021,-0.13809557,-0.39880043,-0.35128027,0.059910916,3.069029,-0.6148571,0.00015356352,-0.13336833,-0.019144656,-0.0015554584,-0.08252787,0.021765951,0.03309098,0.46074194,-1.3979062,1.9265274,-2.104985,-1.561459,2.4306657,-0.123687394,0.21145906,-0.23524809,-0.031197213,0.064758465,-0.15628538,-0.57460845,0.15322891,-9.442732,0.88960326,47.684196,-1.1011627,-2.1323721,-3.5977168,-0.5581544,0.37704167,-0.29809508,26.625,27.5,26.6875,30.0,31.3125,31.875
0.27605546,-1.4546329,-0.25747982,-0.2490043,-0.018724043,0.075648986,-0.13888195,-0.39906988,-0.3512916,0.059885375,3.068915,-0.6148149,0.00015686598,-0.13422836,-0.020229427,-0.00059470336,-0.08620391,0.021307085,0.031126084,0.4604657,-1.3974613,1.9260839,-2.105056,-1.5613617,2.4303782,-0.124644004,0.21198805,-0.23843937,-0.029746735,0.06827105,-0.15525188,-0.49799395,0.24899697,-9.500193,0.8851263,47.65643,-1.1006527,-2.2443337,-3.5789406,-0.5573351,0.36947668,-0.32534987,26.625,27.5,26.6875,30.0,31.3125,31.875
0.27805462,-1.2760421,0.06281986,-0.10550178,-0.019517448,0.07220843,-0.14942,-0.39932498,-0.35133812,0.059889458,3.0687692,-0.6146518,0.00010863477,-0.13495347,-0.020207983,-0.0010255207,-0.08624074,0.01976235,0.028959097,0.460249,-1.3970642,1.925629,-2.1051276,-1.5612415,2.4300787,-0.12567231,0.21439984,-0.24060021,-0.028610144,0.06901226,-0.15409938,-0.61291564,0.095768064,-9.442732,0.9097417,47.68599,-1.0434117,-2.240399,-3.5716364,-0.5567598,0.3478914,-0.38428792,26.625,27.5,26.6875,30.0,31.3125,31.875
0.28005466,-0.906162,0.43544766,-0.06263852,-0.018263234,0.07410589,-0.14781667,-0.3996046,-0.35137844,0.059877917,3.06858,-0.61461055,8.286022e-05,-0.13656227,-0.021042982,0.00053567084,-0.08815785,0.022853475,0.031225856,0.45998544,-1.3966197,1.9251627,-2.1052353,-1.5610975,2.4298143,-0.12573738,0.21428311,-0.24409278,-0.028560532,0.06940203,-0.15641923,-0.78529817,0.17238252,-9.346964,0.8403672,47.734352,-1.1255827,-2.1844943,-3.477829,-0.5294318,0.37867272,-0.37570375,26.625,27.5,26.6875,30.0,31.3125,31.875
0.2820556,-0.56809264,0.8065118,0.12382953,-0.0141341,0.070885964,-0.1545509,-0.3998936,-0.35143423,0.05989482,3.068417,-0.61438155,6.858273e-05,-0.13857485,-0.02161795,0.0012882217,-0.091904715,0.023305714,0.035570007,0.45973244,-1.3961748,1.9246119,-2.1052592,-1.5609401,2.4294395,-0.1283962,0.21587987,-0.24773346,-0.02848613,0.07263886,-0.163393,-0.4405331,0.17238252,-9.32781,0.8851263,47.71017,-1.0276327,-2.2107694,-3.38246,-0.530982,0.36903548,-0.3545065,26.625,27.5,26.6875,30.0,31.3125,31.875
0.28405482,-0.5986317,0.5625224,0.01261859,-0.008227525,0.0554881,-0.15081893,-0.40015122,-0.3514587,0.05989117,3.068288,-0.61419624,7.5641656e-05,-0.13899773,-0.021963399,0.001274293,-0.09488258,0.021656659,0.04402809,0.45946777,-1.395778,1.924169,-2.1053064,-1.5608071,2.429076,-0.13025193,0.21667397,-0.24880396,-0.027922602,0.07614747,-0.1736794,-0.51714754,0.15322891,-9.461885,0.8672237,47.71823,-0.9632487,-2.1207638,-3.37642,-0.51526415,0.31250346,-0.25485337,26.625,27.5,26.6875,30.0,31.3125,31.875
0.2860547,-0.42242613,0.65828127,0.09256041,-0.01998289,0.052854657,-0.14452983,-0.4004546,-0.35152346,0.059912905,3.0680602,-0.6140478,2.482558e-05,-0.13999252,-0.022509295,0.0022036459,-0.09791629,0.02185285,0.05167534,0.45920345,-1.3953335,1.9236187,-2.1053784,-1.5606259,2.4287488,-0.13175699,0.21671908,-0.25125188,-0.026906991,0.07889462,-0.18280147,-0.4213795,0.1340753,-9.308657,0.8672237,47.681515,-0.9982636,-2.033486,-3.3305182,-0.5018286,0.30847025,-0.16330425,26.625,27.5,26.6875,30.0,31.3125,31.875
0.28805488,-0.29435042,0.07655046,-0.07493841,-0.019085195,0.0484777,-0.14295855,-0.4007453,-0.3515823,0.059918214,3.0678823,-0.61375993,1.7378637e-05,-0.14033306,-0.024399381,0.0041556684,-0.10230166,0.023402844,0.055403724,0.45894006,-1.3948778,1.9230922,-2.1054494,-1.5604447,2.4283288,-0.13071236,0.21518035,-0.25422108,-0.025662422,0.08219936,-0.1854529,-0.38307226,0.24899697,-9.308657,0.842603,47.70211,-0.9879471,-1.8546795,-3.2684252,-0.5152948,0.26560545,-0.107848346,26.625,27.5,26.6875,30.0,31.3125,31.875
0.29005483,-0.2695032,-0.09690029,-0.3272687,-0.019123029,0.053586997,-0.13505383,-0.40100095,-0.35159355,0.059897047,3.0677786,-0.6136853,8.790147e-05,-0.14184433,-0.024429558,0.0045254994,-0.105639786,0.021656284,0.048010763,0.4586624,-1.3944447,1.9226378,-2.105461,-1.5603236,2.428018,-0.13420506,0.21668997,-0.25724414,-0.024070142,0.08595628,-0.18152447,-0.4213795,0.2681506,-9.346964,0.85155696,47.71465,-0.8596922,-1.9055555,-3.3102684,-0.5367103,0.20870778,-0.10081209,26.625,27.5,26.6875,30.0,31.3125,31.875
0.29205513,-0.91852236,-0.4677239,-0.3394413,-0.016442368,0.037283503,-0.13217229,-0.40130046,-0.35164678,0.059923023,3.0675514,-0.6135263,6.2509454e-05,-0.14038512,-0.025308551,0.003753983,-0.10673558,0.01836372,0.042349264,0.45837504,-1.3940238,1.9220995,-2.1055086,-1.560131,2.4276612,-0.13280924,0.21749423,-0.25674555,-0.022929281,0.08839137,-0.17443727,-0.3256114,0.2681506,-9.500193,0.9858343,47.716442,-0.98928463,-1.8617072,-3.3626895,-0.5426667,0.15021153,-0.15535323,26.625,27.5,26.6875,30.0,31.3125,31.875
0.29405403,-0.22536367,-0.3373188,-0.3471144,-0.032536644,0.056435157,-0.1386187,-0.40155652,-0.35168898,0.059898775,3.0673914,-0.61340094,0.00021356285,-0.14015628,-0.025176134,0.0022520025,-0.10577248,0.014884183,0.03557846,0.45809904,-1.3935547,1.9216102,-2.10552,-1.5599269,2.4273276,-0.1331227,0.22072537,-0.25742263,-0.021948636,0.08903772,-0.16797227,-0.19153613,0.30645782,-9.481039,0.9567419,47.705692,-1.0365735,-1.947561,-3.4473572,-0.5485317,0.11805533,-0.24775246,26.625,27.5,26.6875,30.0,31.3125,31.875
0.29605475,-0.8561625,-0.8543826,-0.36287117,-0.03369717,0.036013264,-0.13243274,-0.40185684,-0.35173297,0.059904616,3.067172,-0.6133394,0.00018178047,-0.14002107,-0.024967803,0.00012225649,-0.10601182,0.009867151,0.028683811,0.4578105,-1.3931087,1.9210962,-2.105604,-1.5597581,2.4270296,-0.13475709,0.22496928,-0.25771415,-0.021519134,0.091469415,-0.16268143,-0.11492168,0.36391866,-9.404425,0.8672237,47.67614,-0.9481736,-1.9779134,-3.5818784,-0.5534737,0.0763134,-0.34560603,26.625,27.5,26.6875,30.0,31.3125,31.875
0.29805458,0.4832839,0.099224925,-0.35876444,-0.038765438,0.041230507,-0.14436789,-0.40216368,-0.35176238,0.059920277,3.0670023,-0.61330515,0.00013098889,-0.14123261,-0.02461094,-0.0005347921,-0.102285095,0.010817774,0.024736386,0.45752278,-1.3926631,1.9205459,-2.1056278,-1.5596393,2.426743,-0.13391052,0.22848043,-0.26044905,-0.021495465,0.087696865,-0.15790036,0.17238252,0.3256114,-9.557653,0.83589023,47.684196,-0.9887477,-2.161019,-3.5859842,-0.56751645,0.07083389,-0.4243636,26.625,27.5,26.6875,30.0,31.3125,31.875
0.300055,0.5691771,0.16679572,-0.42276394,-0.029328587,0.016452165,-0.14826123,-0.402438,-0.35181752,0.05991089,3.0668385,-0.6131015,0.00018070175,-0.14355129,-0.023281664,-0.0006863522,-0.10089732,0.011808929,0.020492343,0.4572696,-1.3921942,1.920031,-2.105676,-1.5594596,2.426384,-0.13703229,0.23080339,-0.26289922,-0.021600768,0.08602759,-0.15678076,0.22984336,0.30645782,-9.634268,0.8224646,47.66808,-0.91895366,-2.1974418,-3.548542,-0.56663483,0.10284859,-0.5017986,26.625,27.5,26.6875,30.0,31.3125,31.875
0.30205497,0.46584007,-0.14084846,-0.0038179457,-0.03578758,0.00075498916,-0.14797436,-0.40274918,-0.35187942,0.05991796,3.066584,-0.6130032,0.00014845628,-0.14385419,-0.023500163,-0.00042164628,-0.097221605,0.015428176,0.029548422,0.456983,-1.3917252,1.9194926,-2.1057837,-1.5592579,2.4260695,-0.13375112,0.2313467,-0.26405314,-0.022476003,0.08122101,-0.16257595,0.15322891,0.38307226,-9.442732,0.9768804,47.66091,-1.0806863,-2.1267774,-3.510783,-0.566029,0.11160569,-0.49107486,26.625,27.5,26.6875,30.0,31.3125,31.875
0.3040551,0.90556204,-0.092985146,-0.2660046,-0.02349937,0.013387703,-0.15621115,-0.40303254,-0.3519162,0.0599316,3.0664375,-0.6128119,0.00017353878,-0.14601973,-0.021820448,-0.00015464814,-0.094097406,0.018314118,0.040329546,0.45670608,-1.3912928,1.9189538,-2.1057718,-1.5591024,2.4256923,-0.13591559,0.2323525,-0.26591575,-0.02261914,0.07728417,-0.17554376,0.22984336,0.45968673,-9.385271,0.9097417,47.690468,-0.9627397,-2.122544,-3.5192516,-0.55002356,0.18091652,-0.39784342,26.625,27.5,26.6875,30.0,31.3125,31.875
0.30605423,0.49152339,0.10831846,-0.47687048,-0.03497469,0.013367333,-0.15406822,-0.4033291,-0.35195783,0.05992838,3.066286,-0.6126413,0.00013499692,-0.14769371,-0.020956323,0.00031871197,-0.09173003,0.020343639,0.05020717,0.456442,-1.3908237,1.9184293,-2.1058433,-1.5589718,2.4253416,-0.13689902,0.23351046,-0.2686976,-0.021592205,0.07439482,-0.18641719,0.2681506,0.5554548,-9.442732,0.88960326,47.691364,-0.96546185,-2.094506,-3.5549953,-0.5751759,0.21721762,-0.29369244,26.625,27.5,26.6875,30.0,31.3125,31.875
0.30805466,-0.33627775,-1.3084886,-0.27478352,-0.05061132,0.026696943,-0.13918166,-0.40361047,-0.35197952,0.05992258,3.066145,-0.6124944,0.00018836516,-0.15054487,-0.020222079,0.0017672633,-0.09091529,0.023825172,0.055057596,0.45614117,-1.390379,1.9179252,-2.1058552,-1.5588163,2.4249675,-0.13910437,0.234337,-0.27332607,-0.020413794,0.072216384,-0.19348359,0.3256114,0.53630114,-9.461885,0.91198283,47.66808,-0.90266544,-2.067559,-3.4006443,-0.5827036,0.23744231,-0.18416291,26.625,27.5,26.6875,30.0,31.3125,31.875
0.3100547,-0.5034922,-1.0698398,-0.17079371,-0.0504637,0.022469752,-0.14759274,-0.40394756,-0.35204747,0.059947878,3.0659778,-0.6122101,7.218372e-05,-0.15280636,-0.019397708,0.002955449,-0.0899315,0.02742559,0.05317527,0.45588854,-1.3898741,1.917291,-2.1059148,-1.5586857,2.4245594,-0.14079557,0.23434217,-0.27615613,-0.020338338,0.06979218,-0.19329724,0.11492168,0.61291564,-9.461885,0.9701675,47.703903,-0.853204,-2.089229,-3.234295,-0.58916676,0.3110073,-0.14036947,26.625,27.5,26.6875,30.0,31.3125,31.875
0.31205463,-0.03438717,-0.5078956,-0.25370207,-0.04777172,0.031319223,-0.1482965,-0.40422928,-0.35205963,0.059926618,3.0658972,-0.6120636,0.0001270374,-0.15337536,-0.019472705,0.0027860252,-0.08987433,0.027159708,0.04647544,0.4556007,-1.3893936,1.9167765,-2.1059148,-1.558577,2.4241905,-0.14102983,0.23577563,-0.27760988,-0.020091673,0.06982085,-0.18682814,-0.038307227,0.6512228,-9.481039,0.97464454,47.7245,-0.92581147,-1.9497294,-3.277577,-0.5994585,0.3476165,-0.18561347,26.625,27.5,26.6875,30.0,31.3125,31.875
0.31405446,-0.25250694,-0.6471158,-0.24054818,-0.03725508,0.031549424,-0.14958328,-0.40453172,-0.35212135,0.059940606,3.0656805,-0.6119063,8.8295135e-05,-0.1530499,-0.019746073,0.0021305857,-0.08973828,0.02621104,0.040844228,0.45533678,-1.3889368,1.9162272,-2.1059868,-1.5583972,2.423857,-0.14031084,0.23693666,-0.277473,-0.020505112,0.070103325,-0.18046427,-0.05746084,0.57460845,-9.519346,0.95897776,47.70032,-0.9511985,-1.9372227,-3.3167236,-0.62431526,0.35946178,-0.29056022,26.625,27.5,26.6875,30.0,31.3125,31.875
0.31605494,-0.49097928,-0.2177783,-0.25577605,-0.030364094,0.033234753,-0.15915842,-0.40488166,-0.3521618,0.059970956,3.0654874,-0.61174953,-2.54142e-05,-0.15287167,-0.020860752,0.0024706463,-0.09151051,0.026916953,0.040485214,0.45502543,-1.3884563,1.9156069,-2.1060345,-1.5582646,2.4234734,-0.13888721,0.23685893,-0.27806002,-0.021234946,0.07141828,-0.17865822,-0.038307227,0.38307226,-9.576807,0.9365982,47.67614,-1.0626955,-1.841172,-3.5061626,-0.6096172,0.39421272,-0.3303854,26.625,27.5,26.6875,30.0,31.3125,31.875
0.3180541,-0.8654224,-0.4604011,-0.07873222,-0.025173074,0.044344176,-0.14525041,-0.4051592,-0.35223448,0.05998986,3.0653045,-0.61150163,-6.074038e-05,-0.15334365,-0.021220272,0.0020542569,-0.09312462,0.025532698,0.038183916,0.4548091,-1.388023,1.915068,-2.1060822,-1.5580958,2.4231262,-0.13984142,0.23867084,-0.27930212,-0.021249667,0.073501654,-0.17728294,-0.17238252,0.30645782,-9.385271,0.9298854,47.68599,-1.0098873,-1.6967374,-3.52854,-0.6097071,0.40611959,-0.36363325,26.625,27.5,26.6875,30.0,31.3125,31.875
0.32005426,-1.1026325,-0.24784487,0.09423645,-0.009380204,0.03361044,-0.15011863,-0.40548655,-0.35225168,0.05997309,3.0651655,-0.61145073,-5.4285832e-05,-0.1546561,-0.021444406,0.00064829766,-0.0937921,0.02319653,0.039600074,0.45448482,-1.3874929,1.914493,-2.106119,-1.5579752,2.4227886,-0.1414622,0.24378282,-0.28212374,-0.021656716,0.07518439,-0.18029897,0.0,0.24899697,-9.423578,1.0015011,47.677036,-1.2341185,-1.8975182,-3.6368988,-0.6114509,0.39856267,-0.3883848,26.625,27.5,26.6875,30.0,31.3125,31.875
0.3220542,-0.5274305,0.622391,0.1662348,-0.006888427,0.030422347,-0.15073952,-0.40577152,-0.3523173,0.059969887,3.064962,-0.6111931,-1.40961365e-05,-0.15513067,-0.022177288,-0.0003476483,-0.095158696,0.021578042,0.047640648,0.4542207,-1.3870237,1.9139675,-2.1061904,-1.5577587,2.4223902,-0.1417399,0.24713822,-0.2837068,-0.022415638,0.07723857,-0.18859112,-0.05746084,0.15322891,-9.3661175,0.97464454,47.693153,-1.0815288,-2.0089889,-3.4857063,-0.61392015,0.40187362,-0.32209006,26.625,27.5,26.6875,30.0,31.3125,31.875
0.32405448,-0.012913524,0.7528391,0.18702856,0.0036575685,0.016288783,-0.15985122,-0.40611547,-0.35237417,0.059998926,3.0647655,-0.6109724,-0.00016065902,-0.15696327,-0.02265221,0.0002349735,-0.09771304,0.02311545,0.057402134,0.4539441,-1.3865421,1.9133567,-2.1062748,-1.5576261,2.4220018,-0.14342816,0.2485957,-0.28661436,-0.023278274,0.07902414,-0.20000994,-0.076614454,0.15322891,-9.346964,0.92093146,47.695843,-1.0204718,-2.0836804,-3.5113926,-0.59634304,0.4117581,-0.19375321,26.625,27.5,26.6875,30.0,31.3125,31.875
0.32605454,-0.32179898,0.42917508,0.0530083,0.008149255,-0.0078072287,-0.15637721,-0.4064219,-0.35241446,0.059996292,3.0646312,-0.61075014,-0.00011995574,-0.15857829,-0.023777576,0.00096896244,-0.101421386,0.023695342,0.06267666,0.45365554,-1.3860373,1.9127706,-2.1062748,-1.5574688,2.421592,-0.14467819,0.25035727,-0.29042903,-0.0232432,0.08219565,-0.20650028,-0.05746084,0.17238252,-9.32781,0.98135734,47.687782,-1.0144211,-1.9787524,-3.4065523,-0.5858627,0.39554492,-0.10037267,26.625,27.5,26.6875,30.0,31.3125,31.875
0.32805476,0.19385359,0.5522285,0.07243898,-0.014626819,-0.0022562065,-0.15627761,-0.40674427,-0.35245827,0.059999146,3.0644846,-0.61049086,-0.00015265841,-0.1589465,-0.024728995,0.0019215513,-0.103388995,0.024135113,0.060305204,0.45336786,-1.3855329,1.9121832,-2.106322,-1.5573243,2.4211617,-0.14417927,0.25021175,-0.29279473,-0.021980371,0.08378559,-0.20360486,-0.17238252,0.24899697,-9.270349,0.94331104,47.692257,-1.0990644,-1.9658041,-3.3302307,-0.6086538,0.38352865,-0.08298674,26.625,27.5,26.6875,30.0,31.3125,31.875
0.33005485,0.17381905,-0.3494781,-0.06000319,-0.024340946,0.009628896,-0.15960014,-0.40704829,-0.3525262,0.060006645,3.0642948,-0.6102276,-8.165985e-05,-0.1582386,-0.02621546,0.0016210781,-0.109275684,0.019306364,0.051788554,0.4530913,-1.3850281,1.9115742,-2.1063216,-1.5571054,2.4207454,-0.14545383,0.25124428,-0.29373282,-0.020369185,0.09115746,-0.19628759,-0.4213795,0.38307226,-9.308657,1.0216395,47.719128,-0.95399725,-1.9831392,-3.3948073,-0.6383389,0.33161676,-0.13522547,26.625,27.5,26.6875,30.0,31.3125,31.875
0.33205512,-0.74843806,-1.3962581,0.019658385,-0.057113957,0.025631897,-0.15040079,-0.40736368,-0.35255596,0.060011145,3.0640917,-0.6102089,-9.978091e-05,-0.15953912,-0.025868155,0.0014809935,-0.11082743,0.017401211,0.040714253,0.45277852,-1.384559,1.9110245,-2.1063693,-1.556949,2.420448,-0.14834937,0.2533062,-0.29624784,-0.018943788,0.09334324,-0.18807578,-0.51714754,0.45968673,-9.346964,0.9567419,47.707485,-1.0813428,-1.8928134,-3.356983,-0.6461481,0.2865593,-0.22187847,26.625,27.5,26.6875,30.0,31.3125,31.875
0.33405432,-1.092916,-1.350216,-0.013718742,-0.074842654,0.041779187,-0.14902528,-0.4076657,-0.3526047,0.06000205,3.0639231,-0.61000246,1.715479e-06,-0.15786722,-0.02815282,0.0011616541,-0.11412171,0.013728756,0.037607767,0.45247945,-1.3840424,1.9104384,-2.1063683,-1.5567435,2.420042,-0.14566675,0.25447482,-0.29738006,-0.017149363,0.09788353,-0.18223828,-0.5746084,0.47884035,-9.442732,0.9791215,47.68062,-1.1357939,-1.8952001,-3.492375,-0.679412,0.22981647,-0.3148184,26.625,27.5,26.6875,30.0,31.3125,31.875
0.33605453,-1.1914566,-1.3288125,-0.16275136,-0.06744531,0.05561582,-0.162159,-0.40799582,-0.35268432,0.06002536,3.0636663,-0.60985583,-1.9764377e-05,-0.15880775,-0.028907118,0.0018188247,-0.11740746,0.013798299,0.030687463,0.4522032,-1.3835374,1.9098042,-2.106416,-1.5565265,2.4197083,-0.14680363,0.2549839,-0.29956713,-0.016996533,0.10079093,-0.17640969,-0.47884035,0.4213795,-9.385271,0.99031126,47.661808,-1.1810436,-1.8642552,-3.4560204,-0.7111148,0.19102478,-0.43469685,26.625,27.5,26.6875,30.0,31.3125,31.875
0.33805472,-1.3419294,-0.91396606,-0.04364801,-0.050995134,0.05662399,-0.16421258,-0.40829864,-0.35273626,0.0600039,3.0634708,-0.6096995,7.603937e-05,-0.15899888,-0.029226644,0.0016879262,-0.11949565,0.014233693,0.030609813,0.4519028,-1.3830085,1.909243,-2.106465,-1.55631,2.4193358,-0.14732395,0.25494832,-0.29887745,-0.018886166,0.10251444,-0.17682911,-0.5554548,0.45968673,-9.385271,0.91198283,47.67166,-1.2071981,-1.9461414,-3.6084514,-0.7160341,0.13325681,-0.49683517,26.625,27.5,26.6875,30.0,31.3125,31.875
0.34005526,-1.4757754,-0.23961146,0.031612273,-0.02312903,0.060014084,-0.17102398,-0.40862644,-0.3528018,0.060016684,3.0632234,-0.6095655,0.00013502191,-0.15998459,-0.029234165,0.0005151859,-0.118424706,0.014476168,0.039169468,0.45159093,-1.382491,1.9086093,-2.106477,-1.5560707,2.418973,-0.14738564,0.25854555,-0.30013686,-0.020770974,0.10157528,-0.18544768,-0.2873042,0.38307226,-9.289502,1.0261165,47.65912,-1.2296,-1.843777,-3.6568053,-0.7037545,0.11915319,-0.47016472,26.625,27.5,26.6875,30.0,31.3125,31.875
0.34205425,-1.645401,-0.0027648853,0.15416579,0.003037136,0.055704862,-0.16323477,-0.4089631,-0.3528581,0.060014986,3.063004,-0.6093584,0.00012700999,-0.16143359,-0.0283152,-0.00016052995,-0.11587647,0.015627496,0.051180467,0.4512786,-1.3819618,1.9080108,-2.1065614,-1.5558676,2.4185603,-0.14839248,0.26118937,-0.30168816,-0.021515932,0.09896846,-0.1984776,-0.22984336,0.34476504,-9.32781,1.0283576,47.67614,-1.2198199,-1.9027886,-3.6519768,-0.69526696,0.10934801,-0.35991448,26.625,27.5,26.6875,30.0,31.3125,31.875
0.34405428,-1.7060505,0.5370551,0.8307178,-0.0033793433,0.057285883,-0.16474064,-0.40930092,-0.35293838,0.060020708,3.062805,-0.609062,9.338953e-05,-0.1646135,-0.028233655,0.0026082478,-0.11597558,0.022948043,0.060849603,0.45101428,-1.3814096,1.9073652,-2.1066334,-1.5556763,2.418137,-0.1492052,0.25989076,-0.30648637,-0.021818155,0.09602387,-0.20897357,-0.30645782,0.36391866,-9.174581,0.96569055,47.678825,-1.1842595,-1.7251893,-3.596239,-0.68314874,0.14579444,-0.21671037,26.625,27.5,26.6875,30.0,31.3125,31.875
0.3460546,-1.4919243,1.1509258,0.7446074,0.010586067,0.055387538,-0.1664193,-0.4096353,-0.35298553,0.060034342,3.0625992,-0.6087887,8.190623e-05,-0.1680238,-0.025929188,0.0030952552,-0.11157017,0.02724703,0.059841372,0.45068944,-1.380917,1.9067663,-2.1066816,-1.5554742,2.4176686,-0.15226966,0.26171544,-0.30982918,-0.02212447,0.09025677,-0.21107294,-0.21068975,0.24899697,-9.040505,0.91421866,47.67614,-1.2005849,-1.7000396,-3.368751,-0.70309377,0.19174577,-0.15518543,26.625,27.5,26.6875,30.0,31.3125,31.875
0.3480547,-1.6725601,0.8091211,0.28367162,0.03884885,0.03283461,-0.15308456,-0.40997037,-0.35304177,0.06003668,3.0624144,-0.60863745,7.031609e-05,-0.16921557,-0.02641376,0.0027549537,-0.10719253,0.02883346,0.056512043,0.45040244,-1.3803747,1.9061307,-2.1067169,-1.5553082,2.4173117,-0.14937314,0.26597756,-0.31445223,-0.021303678,0.08559295,-0.20488052,-0.19153613,0.28730422,-9.155427,0.9388393,47.684196,-1.3016639,-1.7570949,-3.3204594,-0.7202382,0.24192452,-0.20885666,26.625,27.5,26.6875,30.0,31.3125,31.875
0.35005417,-1.1570588,0.6452864,0.629828,0.016750341,0.045523223,-0.16505101,-0.41030705,-0.35307157,0.060009547,3.062296,-0.608444,8.7091896e-05,-0.16943696,-0.025512917,0.0004945036,-0.10492469,0.024944982,0.048387658,0.45009,-1.379797,1.9055222,-2.106765,-1.5551761,2.416894,-0.15069082,0.27048042,-0.31489012,-0.02093173,0.08520183,-0.19806996,-0.22984336,0.2681506,-9.155427,1.0507371,47.70032,-1.1651143,-1.9040775,-3.2331614,-0.71249753,0.26164687,-0.2987107,26.625,27.5,26.6875,30.0,31.3125,31.875
0.35205507,-0.70639193,0.54520553,0.58043534,-0.009127307,0.04383476,-0.16588439,-0.41065606,-0.3531255,0.06003106,3.0621336,-0.60819954,2.3762823e-05,-0.17066343,-0.025093252,0.00061214867,-0.10308137,0.026734903,0.04643439,0.44980198,-1.3792677,1.9048523,-2.1067765,-1.5550326,2.4164748,-0.15076466,0.27181903,-0.3168431,-0.021095453,0.08278642,-0.1962025,-0.19153613,0.3256114,-9.040505,0.95897776,47.68062,-1.3216966,-1.989162,-3.4437199,-0.71236354,0.33495897,-0.36415914,26.625,27.5,26.6875,30.0,31.3125,31.875
0.3540542,-0.72688615,0.07109054,0.55403477,-0.02298496,0.026747247,-0.16245444,-0.41097954,-0.35316595,0.060010362,3.0619557,-0.6081049,8.534438e-05,-0.17148434,-0.02478779,2.018204e-05,-0.10319681,0.025234163,0.04470679,0.44948965,-1.3787138,1.9042548,-2.1068127,-1.5548524,2.416127,-0.15228821,0.27415782,-0.31856126,-0.020359976,0.08357492,-0.1959837,-0.11492168,0.30645782,-9.136273,0.94331104,47.687782,-1.3088374,-2.1151156,-3.3640907,-0.739575,0.35476136,-0.41414535,26.625,27.5,26.6875,30.0,31.3125,31.875
0.35605472,-0.95804435,-0.3464293,0.6375727,-0.04058687,0.0050869505,-0.1671036,-0.41133866,-0.35321116,0.06002093,3.0618107,-0.60784286,-4.1586296e-05,-0.1729246,-0.024095312,9.277783e-05,-0.103867486,0.025006866,0.045568116,0.44920078,-1.3781736,1.9036096,-2.1068838,-1.5547441,2.4156938,-0.15499035,0.27540085,-0.32046708,-0.019684805,0.08437191,-0.19952492,0.038307227,0.40222588,-9.174581,0.92764956,47.670765,-1.3189404,-1.9946272,-3.4176617,-0.76012623,0.35348248,-0.38203266,26.625,27.5,26.6875,30.0,31.3125,31.875
0.358055,-0.67910343,-0.77702445,0.24535353,-0.036467835,-0.022226164,-0.16705738,-0.41166824,-0.35327032,0.06000618,3.0616262,-0.60760504,1.04756255e-05,-0.172704,-0.024871305,-0.00010004846,-0.10459853,0.025067588,0.057394154,0.44890118,-1.3776081,1.9029874,-2.106932,-1.5545396,2.4152699,-0.1537927,0.27620074,-0.32100326,-0.020085705,0.085172296,-0.21013898,0.019153614,0.47884035,-9.136273,0.93436235,47.664497,-1.2952199,-2.0105999,-3.486997,-0.76304317,0.39968878,-0.2851764,26.625,27.5,26.6875,30.0,31.3125,31.875
0.36005503,0.2850214,-0.37098613,0.4212793,-0.048732568,-0.01440443,-0.16933148,-0.41205403,-0.35328943,0.06000015,3.0614572,-0.6074878,1.599097e-05,-0.17380375,-0.024425073,-0.00028377725,-0.10619508,0.025242746,0.065659516,0.44851625,-1.3770077,1.902295,-2.1069443,-1.5543832,2.4148343,-0.15621115,0.2770681,-0.32150796,-0.021064607,0.0867105,-0.22080024,-0.038307227,0.49799395,-9.136273,1.0104496,47.67345,-1.1058934,-1.8800541,-3.491486,-0.7494512,0.39084578,-0.14945391,26.625,27.5,26.6875,30.0,31.3125,31.875
0.36205488,-0.4895325,-1.0939827,0.46233237,-0.04361808,-0.01932911,-0.15305185,-0.4124216,-0.35336438,0.0600333,3.0612335,-0.6071716,-0.000105403065,-0.1760047,-0.025493573,0.0010722255,-0.11000291,0.02756242,0.067079544,0.44822773,-1.3764788,1.9016126,-2.1070163,-1.5542024,2.414378,-0.15757357,0.27818212,-0.32588163,-0.021445034,0.08923039,-0.2235355,-0.1340753,0.57460845,-9.11712,1.0283576,47.70211,-1.1581681,-1.8977292,-3.4873338,-0.76565135,0.39643365,-0.0809977,26.625,27.5,26.6875,30.0,31.3125,31.875
0.36405423,-0.37281388,-0.7507562,0.3085529,-0.03902327,-0.0021451472,-0.1642081,-0.41276073,-0.3533935,0.06001871,3.0610774,-0.6070471,-4.2801028e-05,-0.17659202,-0.026018003,0.0015400235,-0.11313088,0.02670677,0.06002302,0.44789165,-1.3759141,1.9009784,-2.1070158,-1.5540332,2.4139848,-0.15891896,0.27847728,-0.32755846,-0.020686999,0.09238602,-0.21778235,-0.11492168,0.40222588,-9.136273,1.0216395,47.68062,-1.1048496,-1.7766852,-3.4818487,-0.771323,0.4222378,-0.10038651,26.625,27.5,26.6875,30.0,31.3125,31.875
0.3660544,-0.33036456,-0.4693463,0.25210968,-0.03455763,0.005518052,-0.15462436,-0.41307503,-0.3534541,0.059987944,3.0609276,-0.6067517,2.7501172e-05,-0.17657717,-0.027282096,0.00092936825,-0.11719454,0.023326015,0.051185273,0.4476154,-1.3753369,1.90038,-2.107076,-1.5538396,2.4135435,-0.15969172,0.2808479,-0.32916555,-0.020250231,0.09744531,-0.20965157,-0.21068975,0.4405331,-9.212888,0.95226496,47.668976,-1.1560653,-1.7682216,-3.4628046,-0.784974,0.34964353,-0.1740721,26.625,27.5,26.6875,30.0,31.3125,31.875
0.3680545,-0.75631326,-0.5504228,0.5192372,-0.042069025,0.0060967994,-0.15455441,-0.41344076,-0.35350442,0.059968818,3.0607212,-0.60655934,2.567384e-05,-0.1772726,-0.028810637,0.00034168747,-0.12252588,0.019625705,0.042054653,0.44727874,-1.374735,1.8997339,-2.1071708,-1.553645,2.413114,-0.16136938,0.28441885,-0.3322414,-0.019793916,0.1038042,-0.20211078,-0.34476504,0.45968673,-9.193734,0.92093146,47.68062,-1.1115977,-1.9035687,-3.4690895,-0.79866624,0.29489982,-0.2800842,26.625,27.5,26.6875,30.0,31.3125,31.875
0.37005472,-0.5262599,-0.38028058,-0.12936135,-0.02746134,-0.001212171,-0.16230829,-0.41380945,-0.35358006,0.059998557,3.060444,-0.60641104,2.1443606e-05,-0.17740388,-0.030254358,0.0004984397,-0.12822653,0.017867928,0.031853203,0.44695434,-1.374182,1.8990167,-2.1071837,-1.5534033,2.412734,-0.16239786,0.2849936,-0.33317664,-0.020411994,0.10964016,-0.19285104,-0.17238252,0.36391866,-9.212888,1.099968,47.688675,-1.0901614,-1.9114754,-3.403648,-0.8039917,0.2567859,-0.41110134,26.625,27.5,26.6875,30.0,31.3125,31.875
0.37205425,-0.037777748,-0.28296265,-0.08775586,-0.035610728,0.010452748,-0.1602051,-0.41415867,-0.35362363,0.059964046,3.0602412,-0.60628986,0.00011491086,-0.17871122,-0.031608794,0.0005026198,-0.13152263,0.017327052,0.031957094,0.44660643,-1.3735689,1.8983835,-2.1072433,-1.5531858,2.4123373,-0.16295668,0.2881279,-0.33695984,-0.02062029,0.112886176,-0.1934668,-0.24899697,0.3256114,-9.251195,0.98807013,47.705692,-1.0328878,-1.9172401,-3.387478,-0.7935105,0.15650694,-0.47420835,26.625,27.5,26.6875,30.0,31.3125,31.875
0.37405413,-0.9099776,-0.45879602,0.15131782,-0.034961257,0.014001849,-0.16509092,-0.41449535,-0.35371813,0.0599566,3.060039,-0.60599244,0.00020024317,-0.17890456,-0.033054218,-0.00023983214,-0.13491575,0.015320174,0.041654896,0.44634208,-1.3729551,1.8976773,-2.1072552,-1.552945,2.4119136,-0.1629786,0.2910894,-0.33875087,-0.021212002,0.11697436,-0.20312946,-0.34476504,0.28730422,-9.251195,0.9612189,47.67614,-1.00407,-2.0805535,-3.4395115,-0.8007791,0.10393881,-0.46383125,26.625,27.5,26.6875,30.0,31.3125,31.875
0.37605503,-1.3641374,-0.36000517,-0.044592913,-0.023506273,0.0373968,-0.14969441,-0.4148591,-0.35376787,0.05995331,3.0597694,-0.60585344,0.00030217913,-0.1800121,-0.03176238,-0.0008299035,-0.13457912,0.014484176,0.050558694,0.44595727,-1.372378,1.8970083,-2.107279,-1.5526685,2.4114778,-0.16604184,0.2925131,-0.3393193,-0.020852013,0.117240414,-0.21508415,-0.28730422,0.3256114,-9.232041,0.8985519,47.661808,-0.9940866,-2.0727625,-3.559147,-0.79415774,0.053571716,-0.32735595,26.625,27.5,26.6875,30.0,31.3125,31.875
0.37805498,-1.3966855,0.17645293,-0.057544675,-0.009128503,0.07265275,-0.16511852,-0.41522342,-0.35384974,0.059952866,3.059542,-0.60555094,0.0002974492,-0.18067236,-0.03195163,-0.0014341883,-0.13314396,0.014307721,0.060454924,0.44565746,-1.3717763,1.896314,-2.1073515,-1.552441,2.411019,-0.16542053,0.2954502,-0.34171352,-0.020359734,0.11619847,-0.22435513,-0.11492168,0.3256114,-9.385271,0.93436235,47.655537,-1.0417926,-2.197985,-3.524808,-0.8103943,0.015359189,-0.19969593,26.625,27.5,26.6875,30.0,31.3125,31.875
