Tylouw/Master_Thesis_Code/training_data/batch_1/small_rod_t0.1/sample_99_session_3.csv
timestamp[s],tcp_force_x[N],tcp_force_y[N],tcp_force_z[N],tcp_force_rx[Nm?],tcp_force_ry[Nm?],tcp_force_rz[Nm?],tcp_pose_x[m],tcp_pose_y[m],tcp_pose_z[m],tcp_pose_rx[rot_vec_x],tcp_pose_ry[rot_vec_y],tcp_pose_rz[rot_vec_z],tcp_velo_x[m/s],tcp_velo_y[m/s],tcp_velo_z[m/s],tcp_velo_rx[rot_vec_x/s],tcp_velo_ry[rot_vec_y/s],tcp_velo_rz[rot_vec_z/s],q1[rad],q2[rad],q3[rad],q4[rad],q5[rad],q6[rad],qd1[rad/s],qd2[rad/s],qd3[rad/s],qd4[rad/s],qd5[rad/s],qd6[rad/s],tool_acc_x,tool_acc_y,tool_acc_z,current_of_whole_robot[A],voltage_of_whole_robot[V],current_J1[A],current_J2[A],current_J3[A],current_J4[A],current_J5[A],current_J6[A],temp_J1[C],temp_J2[C],temp_J3[C],temp_J4[C],temp_J5[C],temp_J6[C]
9.369978e-07,-0.8852635,-0.42249298,0.8775733,-0.004120189,-0.0050415015,-0.0014938094,-0.38105196,-0.34853107,0.05995303,-3.0785103,0.62485653,-0.0002055288,0.002284166,0.0011460722,-0.0021380808,0.00232777,-0.0048752953,6.6856555e-05,0.47781014,-1.42591,1.9577278,-2.100845,-1.5707573,2.452752,-4.250136e-05,0.00028941547,0.0043928484,0.00071672857,0.00018583582,-0.00011200502,0.05746084,0.15322891,-8.810662,0.68818194,47.74868,0.047710072,-2.718625,-2.5288734,-0.4244172,0.17557935,0.024026606,26.75,27.625,26.75,30.125,31.5625,32.125
0.002053051,-0.9817755,-0.19404933,1.0196987,0.000522182,-0.011885043,0.0014932594,-0.38106886,-0.34851283,0.05995484,-3.0785081,0.624914,-0.00018741892,-0.0006665028,-0.00039082044,-0.0028595577,-0.0012588671,0.0020032185,6.8159985e-05,0.4777621,-1.4259205,1.9577392,-2.1008608,-1.5707573,2.4527402,-4.1842766e-05,0.003988728,0.004444711,-0.010791863,0.00018151771,-0.00010976651,0.076614454,0.095768064,-8.676587,0.7396539,47.703007,0.035650324,-2.8567061,-2.4782364,-0.39273673,0.15717517,0.027287766,26.75,27.625,26.75,30.125,31.5625,32.125
0.004051946,-1.1884849,0.054575257,1.0876348,-0.0013961105,-0.01953593,0.006973231,-0.38105795,-0.3485342,0.05994332,-3.0785196,0.62482023,-0.00020180836,-0.0019429032,-0.0010547141,-0.0022571604,-0.002789136,0.0049493746,6.7849265e-05,0.47781014,-1.4258845,1.9577273,-2.1008732,-1.5707573,2.4527283,-4.1204163e-05,0.004430978,0.0031183637,-0.01322764,0.0001770772,-0.00010758224,0.17238252,0.22984336,-8.734048,0.7486078,47.696735,0.062278554,-3.1851134,-2.6929808,-0.30843353,0.16645509,0.02513656,26.75,27.625,26.75,30.125,31.5625,32.125
0.006052169,-1.1351597,0.32711038,0.8480091,0.015122022,-0.037090622,0.004826992,-0.381069,-0.34851992,0.05994107,-3.078492,0.62485296,-0.00015120562,-0.0012388028,-0.00070815673,-0.0014104288,-0.0019309291,0.0031899442,6.561708e-05,0.4777981,-1.4258851,1.9577383,-2.1008956,-1.5707935,2.4527402,-4.0584844e-05,0.0027614685,0.0020082726,-0.008491216,0.00023260307,-0.00010548087,0.11492168,0.19153613,-8.772355,0.6971306,47.68599,0.06867646,-3.1133032,-2.5827475,-0.32670826,0.180303,0.024976373,26.75,27.625,26.75,30.125,31.5625,32.125
0.00805224,-0.28495008,1.1257464,0.4534147,0.031129723,-0.042210042,0.00011742427,-0.38106474,-0.34852841,0.059943523,-3.0785205,0.62493527,-0.00018426628,-0.00058130006,-0.00036401392,-0.00019591184,-0.0015111539,0.0024042667,6.327949e-05,0.47778618,-1.4258981,1.9577497,-2.1009057,-1.5707458,2.452776,-3.9983835e-05,9.033178e-05,0.0013069026,-0.004227968,0.00022945889,-0.000103460035,0.0,0.17238252,-8.848969,0.7418897,47.684196,0.062302362,-2.9172812,-2.5617852,-0.3525975,0.16779824,0.024722625,26.75,27.625,26.75,30.125,31.5625,32.125
0.010052136,-0.22020516,0.66535676,-0.029332686,0.03464086,-0.039737396,0.0055678543,-0.38106433,-0.3485195,0.059934113,-3.0784943,0.62485343,-0.00020628846,-1.5416366e-05,-6.578157e-05,-0.00022027064,-0.0004858804,0.00045885652,6.159809e-05,0.47778618,-1.4258741,1.9577383,-2.1008809,-1.5707697,2.4527283,-3.940039e-05,1.211916e-06,0.0008362509,-0.0014691647,0.00021886638,-0.00010151503,0.019153614,0.095768064,-9.155427,0.7217513,47.668976,-0.22261927,-2.297534,-3.1644053,-0.40598887,0.18555483,-0.016039971,26.75,27.625,26.75,30.125,31.5625,32.125
0.012052341,-0.4424679,-0.0319107,-0.118579715,-0.0005675081,-0.02300366,-0.002454342,-0.38104385,-0.34853774,0.059908755,-3.0784848,0.62483233,-0.00029238724,0.00046130372,0.00019366789,-0.0048955088,0.004037424,-0.008335648,4.0647697e-05,0.47782204,-1.4258225,1.9577373,-2.1008804,-1.5707458,2.452752,-8.332437e-05,0.010581064,-0.00073865755,-0.0005846813,0.00024491063,-0.00012224616,0.05746084,0.1340753,-9.212888,0.73741806,47.696735,-0.33793038,-2.4776664,-3.267634,-0.4355001,0.20415805,-0.04604157,26.75,27.625,26.75,30.125,31.5625,32.125
0.014052316,-1.5088528,-1.1912882,-0.28991666,-0.027477372,-0.0059347376,0.004893837,-0.38107097,-0.34850836,0.059907075,-3.0784404,0.62492204,-0.00028246193,-0.005072692,1.0008627e-05,-0.0031451995,0.001822666,-0.004234866,-0.0045378595,0.47776017,-1.4258089,1.957723,-2.1008685,-1.5707697,2.4527519,-0.004924227,0.015135991,-0.00992342,-0.0006150527,0.00030567203,-0.00037938365,0.019153614,0.19153613,-9.500193,0.76874626,47.67614,-0.32790387,-2.8345895,-3.0434322,-0.4303208,0.21413894,-0.07836145,26.75,27.625,26.75,30.125,31.5625,32.125
0.016052237,-1.680758,-1.7366097,-0.5266171,-0.05791698,0.022408694,-0.0016149234,-0.38105997,-0.34852043,0.059902463,-3.0784485,0.62482333,-0.00033777478,-0.005724599,0.0010484734,-0.0033644151,0.0014008806,-0.005092267,0.0022460397,0.4777834,-1.4257851,1.9576982,-2.1008327,-1.5707568,2.4527125,-0.007871751,0.015103295,-0.00940269,-0.00053996075,0.0010719419,-0.010112538,-0.17238252,0.38307226,-9.749189,0.81351066,47.703007,-0.1832987,-2.7058172,-3.150461,-0.45528024,0.22025591,-0.01311878,26.75,27.625,26.75,30.125,31.5625,32.125
0.018052109,-1.9386145,-1.8548822,-0.5269804,-0.06601237,0.036617015,-0.019664094,-0.38103336,-0.34850225,0.059867237,-3.0784013,0.62485045,-0.00047905042,-0.004845239,2.7494578e-05,-0.0035276285,-0.0008152798,-0.006988624,0.00669453,0.47775963,-1.4257611,1.9577459,-2.1008089,-1.570732,2.4527116,-0.007087752,0.01525071,-0.009287337,-0.00014822077,0.003910136,-0.0137828365,-0.28730422,0.34476504,-9.749189,0.7530795,47.688675,-0.32246396,-2.4919643,-3.4994407,-0.4659583,0.18290561,0.030931154,26.75,27.625,26.75,30.125,31.5625,32.125
0.020052034,-2.0747116,-1.6217301,-0.53254867,-0.06338763,0.044547763,-0.021485219,-0.38106656,-0.34851515,0.059886623,-3.0784254,0.62483597,-0.00040899593,-0.005657173,-0.000932316,-0.0034809748,-0.0025979218,-0.0076917517,0.007278765,0.4777595,-1.4257363,1.9576734,-2.1008089,-1.5707439,2.4526994,-0.007370467,0.017538806,-0.012069655,0.00014354235,0.00581143,-0.014651542,-0.36391866,0.49799395,-9.730036,0.65684843,47.705692,-0.4788,-2.4186106,-3.4503472,-0.4797236,0.17193195,0.018678945,26.75,27.625,26.75,30.125,31.5625,32.125
0.022052312,-2.110728,-1.4062093,-0.675737,-0.041066684,0.043500442,-0.040511716,-0.3810631,-0.34849745,0.059850287,-3.0783758,0.6248639,-0.00052373356,-0.007126287,-0.0012111965,-0.002935187,-0.0035111085,-0.0064543243,0.0067509753,0.47772318,-1.4256759,1.9576849,-2.100797,-1.5707315,2.4526868,-0.008388176,0.018790107,-0.014715738,1.9058183e-05,0.00604579,-0.015140859,-0.51714754,0.51714754,-9.844957,0.779936,47.705692,-0.49002072,-2.3918867,-3.4702926,-0.48562297,0.19639416,0.016734222,26.75,27.625,26.75,30.125,31.5625,32.125
0.024051845,-1.6753688,-0.49776822,-0.64683807,-0.043121044,0.048629913,-0.065174125,-0.38110927,-0.34852308,0.059866823,-3.0784385,0.6248788,-0.00045974602,-0.008977299,-0.0007929734,-0.002593163,-0.0040951874,-0.0056376364,0.003954544,0.47771013,-1.4256275,1.9576,-2.1008327,-1.5707072,2.452675,-0.010935637,0.020199632,-0.017101271,1.244363e-06,0.0061849914,-0.014890291,-0.5746084,0.4405331,-9.940725,0.7418897,47.698532,-0.44851327,-2.4607685,-3.4277248,-0.5023221,0.18781681,0.016631968,26.75,27.625,26.75,30.125,31.5625,32.125
0.026051918,-2.059028,-0.92001307,-0.6615081,-0.040414594,0.039317638,-0.0723155,-0.38107634,-0.3485171,0.059830558,-3.0784073,0.6247776,-0.00058962026,-0.00962409,-0.0009323601,-0.0025981076,-0.0053895805,-0.0061721005,0.0017808299,0.4777219,-1.4255913,1.9576362,-2.1008089,-1.5706948,2.4526277,-0.012192928,0.021164635,-0.018190462,8.124802e-08,0.007576974,-0.013976586,-0.6512229,0.4213795,-9.864111,0.8291774,47.70032,-0.5368079,-2.3840883,-3.5356681,-0.5036604,0.18300048,-0.018683383,26.75,27.625,26.75,30.125,31.5625,32.125
0.028051952,-2.4734097,-1.6164213,-0.73772746,-0.036829915,0.036313113,-0.077990375,-0.38110614,-0.34851676,0.059820637,-3.0784,0.62479603,-0.0006277704,-0.011376481,-0.0019034062,-0.0018011677,-0.008496752,-0.0032235165,0.0006900089,0.47768563,-1.4255192,1.9575742,-2.100798,-1.5706824,2.4526038,-0.012993646,0.02193135,-0.020263616,-0.0027450544,0.008969786,-0.013687784,-0.59376204,0.3256114,-9.80665,0.800085,47.684196,-0.52654874,-2.3365498,-3.4980977,-0.5010181,0.1738612,-0.041332103,26.75,27.625,26.75,30.125,31.5625,32.125
0.030051768,-2.2595608,-1.5016515,-0.5788141,-0.03859759,0.048809662,-0.08770456,-0.38114536,-0.3485322,0.05982564,-3.0784667,0.62479067,-0.00056387734,-0.013186017,-0.0019853679,-0.0009934264,-0.010342655,-0.0012817908,-0.0007923531,0.47766095,-1.4254831,1.957538,-2.10087,-1.5706581,2.4525673,-0.015003118,0.022403073,-0.022453487,-0.003602042,0.009710527,-0.014214362,-0.59376204,0.2681506,-9.80665,0.7620334,47.705692,-0.5471681,-2.4118357,-3.439764,-0.4874779,0.1494861,-0.06636907,26.75,27.625,26.75,30.125,31.5625,32.125
0.032051902,-1.9443649,-0.6876179,-0.4460225,-0.026668916,0.047048755,-0.10328542,-0.38118228,-0.34853578,0.059833072,-3.0784628,0.6247896,-0.00051131763,-0.014558239,-0.0023926473,-0.0005536707,-0.01075915,-0.00038458084,-0.00028699156,0.47764888,-1.4254345,1.9574655,-2.1008694,-1.5706824,2.4525552,-0.015517973,0.024187464,-0.025573116,-0.0032551961,0.009661935,-0.015232471,-0.45968673,0.21068975,-9.749189,0.800085,47.69763,-0.59450233,-2.3738506,-3.3749046,-0.47781658,0.16158128,-0.054431163,26.75,27.625,26.75,30.125,31.5625,32.125
0.034052424,-2.2121656,-0.6867609,-0.39732134,0.01736491,0.016036984,-0.10872522,-0.38121307,-0.34855595,0.05982413,-3.078489,0.624853,-0.0005589046,-0.015040213,-0.0024577072,-0.00074534107,-0.011277903,-0.0012466966,-0.0009626018,0.47762457,-1.4253502,1.9573926,-2.1008813,-1.5706338,2.452567,-0.016403427,0.025483422,-0.0266941,-0.0029051316,0.01051734,-0.015443284,-0.36391866,0.076614454,-9.672575,0.7463667,47.690468,-0.48654443,-2.3880386,-3.441783,-0.5017599,0.15435767,-0.04256591,26.75,27.625,26.75,30.125,31.5625,32.125
0.03605259,-1.4266363,0.4827066,-0.4481048,0.039293468,0.029660515,-0.13248676,-0.3812546,-0.3485635,0.059828434,-3.0785336,0.62488174,-0.00055114995,-0.01586434,-0.002786163,-0.0005701913,-0.011291269,-0.00056447723,-0.0014303226,0.47757655,-1.4253018,1.957333,-2.1009052,-1.5705985,2.4525313,-0.016382737,0.02684083,-0.028637532,-0.0029289788,0.010212358,-0.014952721,-0.38307226,-0.11492168,-9.672575,0.77545905,47.698532,-0.6671562,-2.3091908,-3.4918065,-0.49777073,0.14266224,-0.062746,26.75,27.625,26.75,30.125,31.5625,32.125
0.03805255,-1.2498202,1.1738628,-0.12063144,0.039722573,0.03229061,-0.14899065,-0.38127717,-0.34855226,0.059814714,-3.0785427,0.6249226,-0.00063976715,-0.017972872,-0.0035999105,0.0003781106,-0.013490577,0.0024395292,-0.0035514482,0.47750413,-1.4252535,1.9573067,-2.1008942,-1.5705498,2.4524832,-0.017251235,0.028141562,-0.031898264,-0.0046483437,0.010774602,-0.013699338,-0.19153613,-0.15322891,-9.557653,0.800085,47.692257,-0.6304465,-2.3031507,-3.3659573,-0.49713045,0.14927483,-0.06963323,26.75,27.625,26.75,30.125,31.5625,32.125
0.04005267,-1.7915585,0.3402156,-0.26216212,0.047538295,0.021932207,-0.13925208,-0.38131604,-0.3485855,0.059848234,-3.0786138,0.62493825,-0.000589144,-0.019476565,-0.0035241991,0.0005505548,-0.014286398,0.0037917602,-0.005603021,0.4775036,-1.4252291,1.9571995,-2.1008823,-1.5705136,2.4524834,-0.018828012,0.029391758,-0.033424098,-0.0059392494,0.010854881,-0.0132227065,-0.19153613,-0.076614454,-9.557653,0.7172743,47.69763,-0.58359396,-2.3145304,-3.28235,-0.45905054,0.15468372,-0.08176772,26.75,27.625,26.75,30.125,31.5625,32.125
0.04205228,-1.6067681,-0.112425074,-0.25996637,0.028237578,0.017784625,-0.15624931,-0.3813524,-0.3485639,0.059820537,-3.0785527,0.625022,-0.00058172044,-0.020338465,-0.00344136,0.00068103336,-0.014040836,0.0043044104,-0.006653793,0.47745544,-1.4251449,1.9571751,-2.1009185,-1.5705503,2.4524953,-0.019474426,0.030426076,-0.03493583,-0.005802635,0.01039861,-0.012816843,-0.15322891,-0.019153614,-9.5385,0.7463667,47.690468,-0.5425819,-2.255578,-3.3469944,-0.46138793,0.14569244,-0.093282655,26.75,27.625,26.75,30.125,31.5625,32.125
0.04405212,-1.705197,-0.8261934,-0.21760747,0.011910558,0.0082586035,-0.15119457,-0.38140282,-0.34857434,0.059839338,-3.0785873,0.62497187,-0.0005654664,-0.020961298,-0.0035490205,0.00096135546,-0.013498027,0.004153936,-0.0064035803,0.47741956,-1.4250846,1.957055,-2.1008818,-1.5705384,2.4524238,-0.019588243,0.03157391,-0.037236873,-0.004264303,0.009984737,-0.013178823,-0.19153613,-0.019153614,-9.557653,0.7732232,47.67166,-0.59446144,-2.286417,-3.3157945,-0.48450205,0.14626215,-0.092738494,26.75,27.625,26.75,30.125,31.5625,32.125
0.046052217,-0.7684584,-0.19892782,-0.18950833,-0.010629757,0.009383132,-0.17508967,-0.38145772,-0.34858683,0.059849873,-3.0786302,0.6249995,-0.000504419,-0.022044932,-0.0031418758,0.0015620134,-0.013358543,0.0049690083,-0.0069744773,0.4773829,-1.4250245,1.9569706,-2.1009176,-1.570526,2.452399,-0.020986278,0.031702753,-0.038974095,-0.0033133714,0.009485668,-0.014003749,-0.11492168,0.038307227,-9.557653,0.7486078,47.674347,-0.5402022,-2.2278826,-3.354114,-0.50116384,0.15674539,-0.12499419,26.75,27.625,26.75,30.125,31.5625,32.125
0.048052292,-0.7965776,-0.8104854,-0.52676785,0.000811982,-0.0028145781,-0.18560332,-0.38147184,-0.3486,0.059827585,-3.078656,0.6250823,-0.00060270034,-0.022867328,-0.0034853844,0.0021629585,-0.014451314,0.0055731204,-0.0077424743,0.47734672,-1.4249526,1.9569448,-2.1009414,-1.5704545,2.4524112,-0.021582954,0.032092582,-0.040909253,-0.002807862,0.010175874,-0.0138329845,-0.17238252,0.11492168,-9.519346,0.77545905,47.661808,-0.6031983,-2.095911,-3.2606323,-0.5052576,0.16111006,-0.16550183,26.75,27.625,26.75,30.125,31.5625,32.125
0.05005188,-0.7170587,-0.94773114,-0.5022423,-0.0059975893,0.0012533496,-0.18688,-0.38153678,-0.34860682,0.059869017,-3.0786996,0.6250916,-0.00051751675,-0.023708496,-0.003676803,0.0015357602,-0.014499223,0.0046590366,-0.0077879857,0.47729847,-1.4249278,1.9568137,-2.1009052,-1.570454,2.4523633,-0.022316253,0.0349748,-0.04269258,-0.003117906,0.010635112,-0.014519457,-0.038307227,0.28730422,-9.519346,0.6971306,47.690468,-0.62889147,-2.131053,-3.3618393,-0.50143754,0.17394893,-0.1690498,26.75,27.625,26.75,30.125,31.5625,32.125
0.052051976,-0.81543887,-0.7490267,-0.2962126,-0.02651833,0.002783102,-0.19545172,-0.38159683,-0.34860006,0.059860073,-3.0786834,0.62516475,-0.0004918102,-0.02451109,-0.003972325,0.0008916614,-0.015215451,0.0041152695,-0.0074839615,0.4772383,-1.424831,1.9567293,-2.1009295,-1.5704654,2.4523509,-0.023102248,0.037520897,-0.04384578,-0.0043593585,0.011516249,-0.01560968,-0.076614454,0.38307226,-9.576807,0.8157518,47.689575,-0.51466054,-2.215994,-3.3293576,-0.5014161,0.16069318,-0.16862822,26.75,27.625,26.75,30.125,31.5625,32.125
0.0540524,-0.8272051,-1.7255656,-0.33044606,-0.02962785,0.014793629,-0.18995579,-0.38164368,-0.34859914,0.059851028,-3.0786908,0.6252241,-0.00051474286,-0.026049457,-0.0041822293,0.0023261544,-0.016586697,0.0072765565,-0.007811794,0.47717786,-1.4247473,1.9566573,-2.100942,-1.5704416,2.4523265,-0.023990933,0.03661377,-0.046008687,-0.004725226,0.011277409,-0.016169095,-0.05746084,0.45968673,-9.653421,0.7553206,47.701214,-0.5584528,-2.1254334,-3.3585672,-0.49697065,0.16160884,-0.1712471,26.75,27.625,26.75,30.125,31.5625,32.125
0.056052417,-1.1515003,-1.6363443,-0.45849204,-0.049199525,0.0112614175,-0.18966982,-0.3816999,-0.34861684,0.059871607,3.0787442,-0.62521595,0.00045070748,-0.026819447,-0.0042866208,0.002645789,-0.017290106,0.007327099,-0.00763349,0.47714156,-1.4246994,1.956561,-2.1009657,-1.5704173,2.4522784,-0.024903217,0.0373234,-0.047685236,-0.0041274177,0.011878252,-0.017259052,-0.019153614,0.4213795,-9.634268,0.81351066,47.705692,-0.568742,-2.020388,-3.332265,-0.49644762,0.1674852,-0.18246444,26.75,27.625,26.75,30.125,31.5625,32.125
0.05805257,-1.31075,-2.0608437,-0.5568511,-0.04025919,-0.003769309,-0.16269718,-0.3817352,-0.34861243,0.05984771,-3.0787296,0.6252517,-0.00052193203,-0.027201204,-0.004010541,0.0014229445,-0.016193548,0.004948183,-0.007532674,0.47709325,-1.4245903,1.9564885,-2.1009538,-1.5704054,2.4522543,-0.025820492,0.040614463,-0.048735905,-0.0037504402,0.011994733,-0.018276956,0.019153614,0.47884035,-9.595961,0.7597976,47.690468,-0.5690017,-2.1005127,-3.3788643,-0.51937556,0.15920945,-0.18733656,26.75,27.625,26.75,30.125,31.5625,32.125
0.060052693,-0.8786727,-1.5257578,-0.39470357,-0.0398587,0.0002878932,-0.16793784,-0.3818121,-0.34863904,0.05988455,3.0787196,-0.6251709,0.00041851908,-0.028797064,-0.005022674,0.0026689756,-0.018458454,0.0070539336,-0.006450924,0.47706914,-1.4245182,1.9563192,-2.100942,-1.5704049,2.452181,-0.026166778,0.041336577,-0.05241951,-0.0037027786,0.013033602,-0.019703738,-0.019153614,0.47884035,-9.500193,0.7038487,47.70032,-0.57831365,-2.0984492,-3.3177757,-0.5112436,0.16825485,-0.18546882,26.75,27.625,26.75,30.125,31.5625,32.125
0.06205189,-0.7929684,-1.2766293,-0.27479303,-0.038049556,-0.0056435266,-0.17294244,-0.38186312,-0.34864932,0.059892397,3.0786421,-0.6252513,0.00042258925,-0.029904824,-0.0052111098,0.0016161115,-0.018013224,0.00579144,-0.006637207,0.47700894,-1.4244571,1.9562343,-2.1009538,-1.5703567,2.4521809,-0.026968759,0.045571934,-0.05470652,-0.004323908,0.013212856,-0.020317322,-0.095768064,0.47884035,-9.423578,0.7620334,47.68599,-0.57257134,-2.1509056,-3.174707,-0.51130927,0.14638077,-0.20836219,26.75,27.625,26.75,30.125,31.5625,32.125
0.06405239,-1.1041026,-1.4053662,-0.052925494,-0.023153381,-0.012744729,-0.16425426,-0.38191864,-0.34866434,0.059892155,3.0785966,-0.6252619,0.00043101638,-0.03006294,-0.005169639,0.0013696701,-0.01853522,0.006217665,-0.006440972,0.47696078,-1.424361,1.956128,-2.1009662,-1.5703205,2.452145,-0.027356226,0.045681283,-0.053929348,-0.005828151,0.013480156,-0.02090124,-0.11492168,0.4213795,-9.423578,0.800085,47.694946,-0.60102016,-2.217834,-3.4484432,-0.5068785,0.13503249,-0.22194996,26.75,27.625,26.75,30.125,31.5625,32.125
0.066051975,-1.0176196,-0.5672072,0.022517737,-0.035724096,0.0026823038,-0.17945437,-0.3820107,-0.3486692,0.05991211,3.078531,-0.6252671,0.0003381913,-0.032014824,-0.0058469297,0.0029153267,-0.02057582,0.0098354155,-0.00601578,0.47687665,-1.4242774,1.9559954,-2.101003,-1.5703086,2.4520726,-0.0280414,0.04555365,-0.05713048,-0.0066489805,0.013626664,-0.022008933,-0.095768064,0.40222588,-9.385271,0.78888994,47.703903,-0.6471879,-2.0671346,-3.2220926,-0.49789804,0.13195314,-0.22086777,26.75,27.625,26.75,30.125,31.5625,32.125
0.06805197,-1.4330444,-0.9220684,0.117631726,-0.015176755,0.006691477,-0.15849791,-0.38206917,-0.34868136,0.05992052,3.0784836,-0.6252559,0.00030330633,-0.033498283,-0.006676418,0.0029193752,-0.020869592,0.010204467,-0.004317905,0.47682872,-1.4242042,1.9558982,-2.1010268,-1.5702847,2.4520237,-0.027989645,0.049013197,-0.06110149,-0.0065988395,0.01371179,-0.023652,-0.11492168,0.30645782,-9.385271,0.78217715,47.67614,-0.67571205,-2.1721706,-3.1740766,-0.48882914,0.13524137,-0.235253,26.75,27.625,26.75,30.125,31.5625,32.125
0.070051916,-1.1259491,-0.49341738,0.1992647,-0.0048847357,0.013066559,-0.17029051,-0.38209665,-0.34869078,0.05989821,3.0784922,-0.625315,0.00040280237,-0.03310814,-0.006316462,0.0016332129,-0.019524535,0.0077517796,-0.003451337,0.47680455,-1.4240837,1.9558033,-2.1009905,-1.5702609,2.4520354,-0.02822234,0.051103894,-0.060603373,-0.006389687,0.013642869,-0.024751984,-0.15322891,0.22984336,-9.385271,0.72622824,47.687782,-0.72314936,-2.1983724,-3.1339536,-0.50011337,0.1112487,-0.23828332,26.75,27.625,26.75,30.125,31.5625,32.125
0.07205201,-1.692342,-0.05346068,0.28372255,-0.007579634,0.003626296,-0.16272806,-0.38219807,-0.34870932,0.05991549,3.0783937,-0.62539136,0.00033612293,-0.034062255,-0.0062158797,0.0019484346,-0.019446352,0.008190984,-0.0036192406,0.4767203,-1.4239637,1.955635,-2.1010263,-1.5702246,2.4520113,-0.029096035,0.051990435,-0.06248689,-0.0057437527,0.013372726,-0.0254553,-0.17238252,0.22984336,-9.289502,0.79560274,47.682407,-0.73523587,-2.1510584,-3.3100364,-0.5025752,0.12659322,-0.2533915,26.75,27.625,26.75,30.125,31.5625,32.125
0.07405272,-1.0835862,-0.027592098,0.5090338,-0.00044364302,0.0152653,-0.16840233,-0.3822539,-0.34873345,0.059929438,3.0783608,-0.6252686,0.0002858448,-0.035614394,-0.0068730665,0.0025932454,-0.020350993,0.009737251,-0.0030780602,0.47669613,-1.4238912,1.9555258,-2.1010501,-1.5702008,2.4519148,-0.029414998,0.05370462,-0.06589844,-0.005834407,0.013461466,-0.026312767,-0.2681506,0.17238252,-9.251195,0.79560274,47.70211,-0.7399709,-2.140419,-3.1394339,-0.5005346,0.114576876,-0.26701164,26.75,27.625,26.75,30.125,31.5625,32.125
0.076051705,-1.2188488,-0.28134775,0.28510505,0.014132385,0.012954886,-0.16060312,-0.3823317,-0.34874886,0.05993176,3.0783126,-0.6253345,0.00027989357,-0.03633706,-0.007248899,0.002628009,-0.02065857,0.010425316,-0.0014191058,0.4766362,-1.4237591,1.9553698,-2.1010506,-1.570177,2.4519022,-0.029377848,0.055015456,-0.0673392,-0.0064546736,0.013416448,-0.02793315,-0.28730422,0.19153613,-9.174581,0.80679786,47.672558,-0.83765393,-2.1153831,-3.1438522,-0.49672937,0.119424775,-0.27663568,26.75,27.625,26.75,30.125,31.5625,32.125
0.07805167,-1.2093369,0.105837904,0.36744696,0.0047112782,0.016863637,-0.16783644,-0.38240108,-0.34877726,0.059935607,3.0782588,-0.62520784,0.0003088104,-0.03743197,-0.007538251,0.0025475072,-0.021298338,0.010713807,-0.0007658006,0.47657585,-1.4236385,1.9552258,-2.101062,-1.570105,2.4517696,-0.030147497,0.056992542,-0.069285914,-0.0070329057,0.013849364,-0.029354827,-0.24899697,0.21068975,-9.097966,0.78217715,47.694946,-0.7980217,-2.0957274,-3.080081,-0.47836983,0.11112945,-0.27442864,26.75,27.625,26.75,30.125,31.5625,32.125
0.08005265,-1.4474428,-0.21285428,0.36864647,0.008988243,0.014330274,-0.1611477,-0.38246605,-0.34878835,0.059943754,3.0782003,-0.6252923,0.0002604783,-0.03847223,-0.007669997,0.0028915587,-0.020824438,0.011522086,0.00024516662,0.47652784,-1.4235542,1.9551166,-2.1010864,-1.570093,2.4517817,-0.030352362,0.058353536,-0.07177306,-0.006403073,0.013056205,-0.030567646,-0.22984336,0.19153613,-9.136273,0.7239871,47.681515,-0.8665254,-2.1489353,-3.0825095,-0.4763746,0.11230247,-0.25876695,26.75,27.625,26.75,30.125,31.5625,32.125
0.08205219,-1.9725813,-0.6778833,0.21420546,0.01710434,0.004510808,-0.15502264,-0.38256645,-0.34880435,0.059975814,3.0781407,-0.6253182,0.00018801833,-0.03892043,-0.0077274437,0.0025809929,-0.020951284,0.010391708,0.00023203412,0.47645557,-1.4234458,1.954914,-2.1010616,-1.5700806,2.4517334,-0.031064473,0.06002498,-0.07311769,-0.0057841777,0.0136896195,-0.03126568,-0.21068975,0.19153613,-9.174581,0.81351066,47.66539,-0.9417629,-2.0922923,-3.0718226,-0.48861337,0.10980371,-0.2758025,26.75,27.625,26.75,30.125,31.5625,32.125
0.08405255,-1.5876552,-0.3990371,0.25033128,0.004977833,0.014049436,-0.16401626,-0.38263798,-0.34881192,0.05997124,3.0781307,-0.62523955,0.0001689614,-0.03976134,-0.007950282,0.0029005024,-0.021153335,0.010814808,0.0004533939,0.47639534,-1.4233258,1.9547929,-2.101086,-1.5700687,2.4516253,-0.03142622,0.06109317,-0.07519791,-0.005239207,0.013674017,-0.03184734,-0.28730422,0.22984336,-9.174581,0.75084364,47.675243,-0.9250629,-2.0139158,-3.0580177,-0.49232817,0.122823775,-0.2712145,26.75,27.625,26.75,30.125,31.5625,32.125
0.08605247,-1.8311133,-0.5561536,0.13488008,0.0046991017,0.01475609,-0.15717064,-0.3827115,-0.34882694,0.059973158,3.07807,-0.62528336,0.00018977532,-0.040311214,-0.008109724,0.0012853387,-0.020122986,0.008047903,0.0007811056,0.47632328,-1.423204,1.9546493,-2.101086,-1.570021,2.4515884,-0.031871125,0.065972425,-0.07707179,-0.005311547,0.014025141,-0.03261836,-0.22984336,0.19153613,-9.251195,0.8112748,47.661808,-0.95899403,-2.2708943,-3.0682578,-0.5031219,0.1144249,-0.3040704,26.75,27.625,26.75,30.125,31.5625,32.125
0.0880525,-1.8766726,-0.8562222,0.013016912,-0.0012230994,0.01709897,-0.15829007,-0.38277122,-0.3488465,0.059946846,3.0780947,-0.6251736,0.00025641627,-0.04155676,-0.008299331,0.0033629132,-0.021833435,0.012294532,0.000292323,0.47628707,-1.4230248,1.9545048,-2.101086,-1.5699967,2.4514806,-0.032393765,0.06310478,-0.078491576,-0.005579419,0.013594,-0.032651916,-0.2681506,0.22984336,-9.308657,0.8112748,47.683304,-0.9736986,-2.0230975,-3.0728936,-0.50739455,0.11966269,-0.31049258,26.75,27.625,26.75,30.125,31.5625,32.125
0.09005254,-1.8975801,-0.8973515,-0.06255528,-0.017457085,0.016086986,-0.1495223,-0.38288066,-0.3488467,0.059961855,3.07802,-0.62527317,0.00018287379,-0.04213651,-0.008468079,0.0026659365,-0.021516474,0.010817668,0.0014090879,0.4761789,-1.4229035,1.9543375,-2.1011097,-1.5699848,2.4514441,-0.03287339,0.066006266,-0.08030498,-0.0052082115,0.013991325,-0.034246527,-0.24899697,0.24899697,-9.32781,0.7418897,47.672558,-1.0186309,-2.119475,-3.0256333,-0.5100729,0.10657871,-0.32671112,26.75,27.625,26.75,30.125,31.5625,32.125
0.09205266,-2.17654,-1.1539079,-0.12725973,-0.012076338,0.0004771741,-0.1525102,-0.3829397,-0.3488547,0.059948143,3.0780222,-0.6252534,0.00020991689,-0.042572103,-0.008250605,0.0011281555,-0.019648807,0.008498584,0.00267329,0.4761309,-1.4227701,1.9542164,-2.1011097,-1.5699729,2.4513836,-0.03326766,0.07018936,-0.08158574,-0.0051890374,0.013392675,-0.03590322,-0.22984336,0.2681506,-9.3661175,0.8179876,47.703903,-1.0558063,-2.169701,-3.1139522,-0.51037735,0.12978351,-0.3307746,26.75,27.625,26.75,30.125,31.5625,32.125
0.09405216,-1.7207675,-0.826054,-0.15352117,-0.021632824,0.009902206,-0.1541967,-0.38301986,-0.34886882,0.059959605,3.0779903,-0.6251891,0.00021550458,-0.04384576,-0.008586177,0.0025648447,-0.021411367,0.011251296,0.0017541975,0.47605866,-1.4226505,1.954048,-2.101086,-1.5699366,2.4512753,-0.034028985,0.06903981,-0.08352184,-0.0053566876,0.013695205,-0.035744663,-0.19153613,0.34476504,-9.404425,0.8314132,47.68599,-1.071533,-2.149095,-3.1081517,-0.510535,0.13575414,-0.33308113,26.75,27.625,26.75,30.125,31.5625,32.125
0.096052356,-1.8279444,-0.7512961,-0.07157225,-0.026639635,0.004804861,-0.15431297,-0.38313353,-0.34890443,0.059978344,3.0778966,-0.6251709,0.00014930913,-0.0439516,-0.008179658,0.0011064142,-0.020190865,0.009084873,0.0004382182,0.47598627,-1.422493,1.9538335,-2.1011217,-1.569889,2.4512036,-0.034777906,0.07193593,-0.0833854,-0.0059017558,0.013606574,-0.035175778,-0.19153613,0.34476504,-9.461885,0.7620334,47.705692,-1.1198828,-2.1503015,-3.1544282,-0.5085711,0.14893764,-0.35100996,26.75,27.625,26.75,30.125,31.5625,32.125
0.09805268,-1.7203431,-1.3602525,-0.2513272,-0.012460555,-0.0008641572,-0.1491571,-0.3832348,-0.34892094,0.059979837,3.0778563,-0.62520045,0.00011606502,-0.04587185,-0.009215024,0.0018552284,-0.021963147,0.010766106,0.001772322,0.47591424,-1.4223244,1.9536403,-2.1011345,-1.5698766,2.4511552,-0.035214394,0.07427506,-0.08770499,-0.00622786,0.014405026,-0.036944088,-0.11492168,0.34476504,-9.404425,0.784413,47.67345,-1.2043301,-2.188156,-3.0393486,-0.5163123,0.14868948,-0.3718931,26.75,27.625,26.75,30.125,31.5625,32.125
0.10005176,-1.5556974,-1.0047823,-0.15125853,-0.018737514,-0.0019388464,-0.15806799,-0.38330257,-0.34891477,0.059971895,3.0778227,-0.6252324,0.00015510802,-0.045788445,-0.008025353,0.00023994461,-0.02060438,0.008234324,0.0015568145,0.4758175,-1.4222155,1.953534,-2.1011345,-1.5698403,2.4510827,-0.03720753,0.076080434,-0.085926935,-0.0069340467,0.014361778,-0.038722195,-0.15322891,0.30645782,-9.385271,0.70608455,47.689575,-1.1260445,-2.1921492,-3.2026744,-0.50783056,0.14574747,-0.36349523,26.75,27.625,26.75,30.125,31.5625,32.125
0.1020519,-1.5464271,-0.80086845,-0.28270125,-0.0116938995,-0.007519684,-0.16215971,-0.38339537,-0.34893152,0.05994589,3.0778582,-0.6251029,0.00014503956,-0.047157668,-0.008498161,0.0006828247,-0.022181526,0.008837259,0.002812773,0.4757692,-1.4219987,1.9533538,-2.1011703,-1.5698518,2.4509492,-0.038344417,0.07757744,-0.08865979,-0.0069585424,0.015483617,-0.04111459,-0.076614454,0.24899697,-9.500193,0.78888994,47.674347,-1.0940702,-2.2835248,-3.3023896,-0.48069644,0.16276649,-0.35589102,26.75,27.625,26.75,30.125,31.5625,32.125
0.10405209,-1.1991783,-0.75550586,-0.18350372,-0.007819628,-0.009267745,-0.15474844,-0.3835318,-0.3489717,0.059994742,3.0776682,-0.6252174,3.640505e-05,-0.047740486,-0.0085205,0.0006540323,-0.02222662,0.008899136,0.004641579,0.47566092,-1.4218786,1.953113,-2.101206,-1.5697683,2.4509366,-0.038833782,0.0785868,-0.08975804,-0.006938288,0.015502903,-0.043429688,0.0,0.22984336,-9.481039,0.7597976,47.68062,-1.1167972,-2.1189494,-3.1247654,-0.4935937,0.16796918,-0.34205142,26.75,27.625,26.75,30.125,31.5625,32.125
0.1060525,-1.1687434,-0.8149514,-0.15986112,-0.0011774471,-0.0073605897,-0.15751633,-0.3836148,-0.3489922,0.05998533,3.0776505,-0.6251559,0.00010125449,-0.04764082,-0.009429016,0.00024126346,-0.022967763,0.008181264,0.0050451476,0.47558942,-1.4216976,1.9529222,-2.1011827,-1.5697197,2.450829,-0.037758734,0.08032044,-0.09069786,-0.007434179,0.01648758,-0.042758442,-0.076614454,0.21068975,-9.481039,0.7709874,47.64479,-1.2093052,-2.1998198,-3.3219442,-0.49916175,0.16925785,-0.3545336,26.75,27.625,26.75,30.125,31.5625,32.125
0.10805252,-0.85741574,-0.78520286,-0.13295934,-0.0025741444,0.0035532026,-0.15879323,-0.38367793,-0.34898853,0.059956383,3.0776954,-0.6251071,0.000108780034,-0.049197633,-0.008551433,0.00038265393,-0.023462795,0.008504356,0.0040220087,0.47554034,-1.4215412,1.9528149,-2.1012065,-1.5697435,2.450744,-0.04092267,0.08105405,-0.091851115,-0.007527806,0.016778158,-0.044899233,-0.019153614,0.22984336,-9.404425,0.7933669,47.67614,-1.1835651,-2.181665,-3.2899847,-0.4899212,0.15966998,-0.37621883,26.75,27.625,26.75,30.125,31.5625,32.125
0.11005262,-1.1617326,-0.66437936,-0.2927214,-0.0037873369,-0.0063700187,-0.14812256,-0.38381305,-0.34899697,0.059981357,3.0776017,-0.6251253,2.6993732e-05,-0.049736336,-0.00835272,0.00039156055,-0.023367114,0.0085029695,0.0061396286,0.47540805,-1.4213967,1.952598,-2.10123,-1.5697078,2.450635,-0.041698348,0.08169312,-0.09266279,-0.0073034163,0.016701229,-0.047790438,0.019153614,0.21068975,-9.423578,0.7217513,47.684196,-1.162612,-2.1193728,-3.343917,-0.5012111,0.1831359,-0.34511513,26.75,27.625,26.75,30.125,31.5625,32.125
0.11205277,-0.50135076,0.14160043,0.026278527,-0.020624554,0.009800117,-0.17299384,-0.38388705,-0.3490384,0.059973884,3.077552,-0.6250389,0.00010996596,-0.05108571,-0.007671119,0.00012784528,-0.023353258,0.008155168,0.0059120166,0.47535908,-1.4212161,1.9524058,-2.1012185,-1.5696238,2.4505384,-0.04422778,0.08340945,-0.09403141,-0.007328954,0.016847562,-0.050091457,-0.038307227,0.17238252,-9.404425,0.77545905,47.678825,-1.0862676,-2.135612,-3.4207582,-0.49055445,0.18680844,-0.32658702,26.75,27.625,26.75,30.125,31.5625,32.125
0.11405233,-1.3514318,-0.54582983,-0.123874895,-0.010644262,-0.008321679,-0.15351848,-0.38401026,-0.3490439,0.05999284,3.0775104,-0.6250283,-2.0949572e-06,-0.05268935,-0.008744815,0.0012609739,-0.025275102,0.010678332,0.007978723,0.47526318,-1.4210716,1.9522027,-2.1012423,-1.5696353,2.4504414,-0.04413705,0.08436161,-0.0976026,-0.00783185,0.017400423,-0.05206444,-0.076614454,0.17238252,-9.3661175,0.78217715,47.693153,-1.1332185,-2.0741942,-3.4365547,-0.47266507,0.19498381,-0.28814173,26.75,27.625,26.75,30.125,31.5625,32.125
0.11605255,-1.5493155,-0.8049427,-0.14863692,0.002484063,-0.0037057484,-0.1461308,-0.38413388,-0.34906057,0.059997313,3.0774684,-0.6249412,-2.3368802e-05,-0.051532384,-0.00907855,0.0003406171,-0.025772896,0.008555211,0.010861983,0.4751555,-1.4208794,1.9519752,-2.1012542,-1.5695986,2.4502847,-0.04338591,0.08481509,-0.095927455,-0.008299465,0.018823367,-0.054197364,-0.05746084,0.19153613,-9.404425,0.7597976,47.692257,-1.2149403,-1.9603479,-3.4809067,-0.4766212,0.21109638,-0.26437962,26.75,27.625,26.75,30.125,31.5625,32.125
0.11805268,-1.4678748,-0.2636591,-0.23370926,-0.012308503,-9.5955846e-05,-0.15550663,-0.38423783,-0.3490707,0.059999585,3.0774274,-0.624952,-6.814164e-05,-0.053098246,-0.008845816,-0.00021104944,-0.025428925,0.0071606906,0.011145184,0.4750707,-1.4207217,1.951795,-2.1012776,-1.5695871,2.450212,-0.045434833,0.08854304,-0.099151015,-0.0074030044,0.019156633,-0.05652684,-0.076614454,0.24899697,-9.423578,0.84708,47.686886,-1.2267879,-2.1505175,-3.5380824,-0.49561268,0.2038497,-0.21453102,26.75,27.625,26.75,30.125,31.5625,32.125
0.12005165,-1.5882354,-0.7710659,-0.11310489,-0.0015778405,0.0007918808,-0.15390104,-0.38434982,-0.34912512,0.060023353,3.0773256,-0.62481606,-0.000103639075,-0.05495769,-0.008109889,0.0013598672,-0.026729632,0.00980806,0.0103862565,0.4750097,-1.4205543,1.9515547,-2.101302,-1.5695027,2.4500792,-0.04839157,0.08682427,-0.10090065,-0.006875153,0.019108718,-0.058722325,-0.15322891,0.24899697,-9.3661175,0.74413085,47.681515,-1.0767736,-1.8861063,-3.4557724,-0.4853623,0.21411157,-0.18459982,26.75,27.625,26.75,30.125,31.5625,32.125
0.12205191,-1.4363792,-0.21654473,-0.19540973,-0.0074308505,0.01027071,-0.15956302,-0.38443345,-0.34912315,0.059996746,3.0773225,-0.6248143,-4.8528185e-05,-0.055837795,-0.008877531,0.000979686,-0.027073285,0.009219189,0.012665354,0.47491384,-1.420373,1.9514107,-2.1013138,-1.5694784,2.4499826,-0.04819435,0.090060174,-0.1037482,-0.006893375,0.019679911,-0.0608031,-0.24899697,0.21068975,-9.32781,0.8023209,47.675243,-1.1584036,-1.9739684,-3.43207,-0.48901072,0.20590046,-0.15650283,26.75,27.625,26.75,30.125,31.5625,32.125
0.12405225,-1.3288426,-0.46569756,-0.13649547,-0.0021767162,0.025243316,-0.1607586,-0.38453525,-0.34915864,0.06001618,3.077244,-0.62472034,-2.5469864e-05,-0.057305794,-0.009041509,0.0023764807,-0.028419124,0.012114791,0.013157634,0.4748294,-1.4202174,1.9511827,-2.10129,-1.569395,2.4498496,-0.049147848,0.08915453,-0.10587629,-0.007041214,0.019554194,-0.062246982,-0.3256114,0.28730422,-9.423578,0.7553206,47.666286,-1.1910385,-1.8603798,-3.380834,-0.48223168,0.23104438,-0.122112826,26.75,27.625,26.75,30.125,31.5625,32.125
0.12605217,-1.7156459,-0.5416365,-0.1708604,-0.01085288,0.029993035,-0.15665792,-0.3846553,-0.34915793,0.060021993,3.0772476,-0.6246449,-0.00010599439,-0.058030356,-0.009042131,0.0016704638,-0.02808423,0.010808144,0.012011845,0.47473323,-1.4200479,1.9509782,-2.101302,-1.5694183,2.449706,-0.049986403,0.09198531,-0.10755779,-0.0068762647,0.019855246,-0.06193775,-0.34476504,0.24899697,-9.576807,0.800085,47.689575,-1.2245886,-1.8525953,-3.4244275,-0.5050181,0.2408747,-0.09557238,26.75,27.625,26.75,30.125,31.5625,32.125
0.12805209,-2.3012702,-0.9506011,-0.39668283,-0.011464716,0.030859182,-0.15048271,-0.38475418,-0.34916735,0.05999991,3.0772078,-0.6246765,1.1368519e-05,-0.05925162,-0.009120301,0.0019144168,-0.028850896,0.011063571,0.01032264,0.4746128,-1.4198313,1.950775,-2.1012776,-1.5693463,2.4496105,-0.051307425,0.093398206,-0.109812245,-0.0066078864,0.020416168,-0.061569344,-0.36391866,0.2681506,-9.634268,0.8493211,47.66987,-1.1803191,-1.7923954,-3.412573,-0.50314796,0.2413832,-0.10766966,26.75,27.625,26.75,30.125,31.5625,32.125
0.130052,-2.037597,-1.1224172,-0.44147456,-0.021149393,0.045223624,-0.14984798,-0.38488537,-0.349181,0.060000844,3.0771892,-0.62457573,-6.124444e-05,-0.059875406,-0.009263621,0.0018366573,-0.029692182,0.011036392,0.010024847,0.47451654,-1.419627,1.9505471,-2.1013138,-1.5693458,2.4494538,-0.05209608,0.09441187,-0.11070189,-0.007092244,0.021180296,-0.062058657,-0.51714754,0.28730422,-9.576807,0.80456203,47.681515,-1.2344588,-1.711565,-3.4668431,-0.495552,0.25286758,-0.08564062,26.75,27.625,26.75,30.125,31.5625,32.125
0.132028,-2.5210726,-1.3021728,-0.5311059,-0.018799193,0.032295544,-0.14552128,-0.38502815,-0.3492131,0.060021702,3.0770645,-0.62461114,-0.00010523951,-0.06102247,-0.009434815,0.0019298407,-0.030140428,0.011029639,0.0050971443,0.4743962,-1.419434,1.9502839,-2.1013377,-1.5692738,2.4493716,-0.053075224,0.096288405,-0.11316734,-0.0067017805,0.021581749,-0.058106847,-0.34476504,0.2681506,-9.691729,0.8090337,47.689575,-1.2140025,-1.8409952,-3.4711199,-0.4975446,0.25754204,-0.103482306,26.75,27.625,26.75,30.125,31.5625,32.125
0.13405292,-1.9046824,-1.34547,-0.45324582,-0.00989329,0.03927869,-0.15227473,-0.385137,-0.34923038,0.06002865,3.0770426,-0.6245496,-0.00011084069,-0.06228317,-0.009379402,0.0015058009,-0.030187594,0.01044868,0.0025921883,0.47431177,-1.4192528,1.950055,-2.1013138,-1.56925,2.4492517,-0.054503493,0.09909186,-0.11541332,-0.0067633074,0.021886144,-0.05702822,-0.3256114,0.24899697,-9.653421,0.78888994,47.672558,-1.1503452,-1.7503749,-3.3791418,-0.52644455,0.27485466,-0.11215864,26.75,27.625,26.75,30.125,31.5625,32.125
0.13605233,-2.0123591,-0.9745593,-0.39258793,-0.008798935,0.029039273,-0.15219487,-0.38524836,-0.3492485,0.060024414,3.0769467,-0.6245304,-5.8402573e-05,-0.06353406,-0.009752759,0.0012686731,-0.030770082,0.010402179,0.0016196356,0.4741795,-1.4190718,1.9498628,-2.1013377,-1.5691532,2.4491196,-0.05530903,0.101833366,-0.11792645,-0.0072100386,0.022423962,-0.056858875,-0.47884035,0.22984336,-9.615114,0.784413,47.67614,-1.1600335,-1.8247216,-3.3912234,-0.5052825,0.26889032,-0.12241471,26.75,27.625,26.75,30.125,31.5625,32.125
0.13805228,-1.755617,-0.76510626,-0.24841921,-0.010373176,0.029386928,-0.15306057,-0.3854151,-0.34927773,0.06007334,3.0768383,-0.62452865,-0.00023636117,-0.06473956,-0.009910666,0.0012859674,-0.031560387,0.01147433,-0.000796683,0.47407117,-1.418903,1.9495634,-2.101362,-1.5691413,2.4490242,-0.056241456,0.103277065,-0.119321674,-0.0085730385,0.022640785,-0.055370413,-0.47884035,0.24899697,-9.5385,0.8605109,47.690468,-1.2123024,-1.8642204,-3.3842454,-0.49312592,0.28189525,-0.1284994,26.75,27.625,26.75,30.125,31.5625,32.125
0.14005247,-2.0007303,-0.9746969,-0.3048072,-0.0019696094,0.022044126,-0.15345228,-0.3855406,-0.34928244,0.06004538,3.0767877,-0.6245414,-0.00017696625,-0.06800375,-0.0097371545,0.001029525,-0.032058783,0.012164116,-0.007866384,0.47392607,-1.4186611,1.9493583,-2.1013987,-1.5690812,2.4488935,-0.05957432,0.10830154,-0.12432201,-0.009437913,0.02275506,-0.051630244,-0.4213795,0.21068975,-9.500193,0.7284641,47.688675,-1.1080024,-1.8208005,-3.1519756,-0.48111126,0.29612434,-0.17146307,26.75,27.625,26.75,30.125,31.5625,32.125
0.1420524,-1.8093852,-0.5378471,-0.34189093,-0.015906103,0.027640779,-0.15093921,-0.3856481,-0.34931463,0.060038712,3.0767663,-0.6244593,-0.00012964148,-0.068742655,-0.010590082,0.0014959483,-0.033216167,0.013053889,-0.007396361,0.47385404,-1.4184326,1.9491061,-2.1013749,-1.5690335,2.4487731,-0.059120566,0.10935352,-0.12659128,-0.009538598,0.023375593,-0.051645346,-0.47884035,0.2681506,-9.442732,0.78217715,47.675243,-1.1246779,-2.0235639,-3.266264,-0.47357565,0.29705268,-0.18089992,26.75,27.625,26.75,30.125,31.5625,32.125
0.14405176,-1.6411097,-0.74538165,0.02146111,-0.022746285,0.033796534,-0.15601195,-0.38578948,-0.3493512,0.060060784,3.0766637,-0.6244378,-0.00021173478,-0.06893413,-0.011022566,0.0006568873,-0.033233173,0.011259779,-0.007354262,0.47375822,-1.4182394,1.9488424,-2.1014106,-1.5689849,2.448677,-0.05904602,0.11217548,-0.12796095,-0.009400457,0.024214603,-0.05160938,-0.49799395,0.3256114,-9.289502,0.83365434,47.689575,-1.2836809,-1.9438401,-3.1763031,-0.4745237,0.312878,-0.19641718,26.75,27.625,26.75,30.125,31.5625,32.125
0.14605203,-1.527529,-0.7504584,0.062498353,-0.02819322,0.03387499,-0.15608816,-0.38596663,-0.34936285,0.060102493,3.0765343,-0.62456685,-0.00034794328,-0.07064012,-0.011282908,0.0010240686,-0.034852434,0.011772473,-0.009867906,0.4736016,-1.4180588,1.948543,-2.1014225,-1.5689605,2.4486177,-0.060884126,0.11405181,-0.13094458,-0.009488394,0.025424745,-0.05092879,-0.4405331,0.28730422,-9.423578,0.8224646,47.689575,-1.2015488,-2.0052555,-3.1932402,-0.46216273,0.29314753,-0.22104648,26.75,27.625,26.75,30.125,31.5625,32.125
0.14805223,-1.4875784,-1.2332162,-0.0105740605,-0.019913187,0.03531392,-0.15746923,-0.38611475,-0.34939075,0.06010793,3.0764554,-0.62455153,-0.00041352288,-0.072489545,-0.010307387,0.0014113756,-0.035507604,0.012401848,-0.012991408,0.47349247,-1.4178301,1.9482793,-2.1014702,-1.5689243,2.4485092,-0.06445464,0.114628255,-0.13255125,-0.009312724,0.025725601,-0.051372863,-0.4213795,0.38307226,-9.461885,0.784413,47.67345,-1.0720758,-1.8770236,-3.1075,-0.4671777,0.30817512,-0.24838965,26.75,27.625,26.75,30.125,31.5625,32.125
0.150052,-1.8917415,-1.1151885,0.0044413274,-0.03097747,0.018476123,-0.15194616,-0.38623217,-0.3494051,0.060091592,3.0763865,-0.62455523,-0.00030350633,-0.07305103,-0.011813105,0.001879726,-0.03656077,0.013568812,-0.01064941,0.473349,-1.4176012,1.9480513,-2.1014583,-1.5688285,2.448377,-0.06253575,0.116302624,-0.13551213,-0.009537027,0.026127994,-0.051794544,-0.34476504,0.36391866,-9.385271,0.71951014,47.687782,-1.1502442,-1.913816,-3.1125474,-0.47475654,0.33619973,-0.27629828,26.75,27.625,26.75,30.125,31.5625,32.125
0.15205196,-2.03021,-1.6370888,0.09869634,-0.015075777,0.011839884,-0.14113201,-0.38640428,-0.3494275,0.06010001,3.0762985,-0.6245963,-0.00039406595,-0.07302791,-0.010668296,0.00037975825,-0.03594498,0.010625949,-0.012736219,0.47321612,-1.4173486,1.9477533,-2.1015065,-1.5688041,2.448281,-0.0650186,0.117988564,-0.13397852,-0.009853889,0.026933007,-0.052188408,-0.40222588,0.38307226,-9.232041,0.78217715,47.690468,-1.1118207,-1.8900707,-3.259025,-0.44149363,0.32670912,-0.29133397,26.75,27.625,26.75,30.125,31.5625,32.125
0.1540524,-1.4283723,-1.1479537,0.17300433,-0.018419933,0.02497246,-0.15851285,-0.38656703,-0.3494495,0.060109425,3.0762382,-0.6245648,-0.00043043756,-0.07466696,-0.010507855,0.00044389899,-0.03680049,0.010626066,-0.014197448,0.47308344,-1.4170955,1.9474415,-2.1015065,-1.5687679,2.4481366,-0.06724918,0.120049305,-0.13654223,-0.009736664,0.027697114,-0.052954428,-0.2681506,0.3256114,-9.289503,0.79560274,47.695843,-0.9788581,-1.93437,-3.0956292,-0.45257694,0.3363185,-0.3202066,26.75,27.625,26.75,30.125,31.5625,32.125
0.15605247,-1.6847163,-0.9211322,0.5385065,-0.008730072,0.00597169,-0.1504999,-0.38671213,-0.34949565,0.06012549,3.0760887,-0.62457246,-0.00044210648,-0.07600675,-0.010585169,0.0007239913,-0.037844993,0.011593792,-0.015275025,0.47296318,-1.4168792,1.9471649,-2.1015427,-1.5686597,2.4480402,-0.068612866,0.121195674,-0.13836777,-0.0103869075,0.028189456,-0.05323654,-0.17238252,0.24899697,-9.097966,0.7418897,47.705692,-1.044018,-1.783181,-3.221854,-0.44614083,0.33460638,-0.32799992,26.75,27.625,26.75,30.125,31.5625,32.125
0.15805246,-0.70967716,-0.12504254,0.5961618,-0.0034380713,0.023418928,-0.16419415,-0.3868917,-0.34950143,0.060146056,3.075982,-0.6246661,-0.0005497283,-0.07681592,-0.010966634,0.00066442776,-0.039107427,0.011947714,-0.0154730845,0.47279483,-1.4166623,1.9468774,-2.101579,-1.5686358,2.4479442,-0.06925575,0.12252458,-0.13953981,-0.011430337,0.029158503,-0.05367691,-0.22984336,0.19153613,-9.078813,0.82022345,47.668976,-0.94851536,-2.0058608,-3.2126455,-0.40618956,0.33128738,-0.350909,26.75,27.625,26.75,30.125,31.5625,32.125
0.16005237,-1.1544384,0.19486256,0.69519573,0.009753957,0.0066668987,-0.15816614,-0.38705403,-0.34951863,0.060123205,3.0758884,-0.6247438,-0.0005463611,-0.0777297,-0.011016683,-0.00029855536,-0.039250087,0.010284667,-0.016942037,0.4726386,-1.416373,1.9466137,-2.1016505,-1.5685753,2.4478486,-0.070528366,0.12602447,-0.141328,-0.011722014,0.030044531,-0.05347732,-0.1340753,0.1340753,-9.040505,0.7172743,47.677036,-0.9498648,-1.7719078,-3.2755818,-0.38969326,0.35440445,-0.3783067,26.75,27.625,26.75,30.125,31.5625,32.125
0.1620524,-1.420312,0.17279832,0.7321513,0.026751487,-0.0025945778,-0.15457587,-0.3871971,-0.3495524,0.06013707,3.0757782,-0.6247595,-0.0005083896,-0.07860528,-0.010962873,0.000528213,-0.04062357,0.0113646425,-0.017470341,0.47250593,-1.416145,1.9463147,-2.1016262,-1.5684785,2.4477398,-0.07185434,0.12530708,-0.1424773,-0.011433837,0.030781925,-0.054272804,-0.1340753,-0.019153614,-8.848969,0.8157518,47.67345,-0.8738594,-1.8299209,-3.323711,-0.39653572,0.35146517,-0.40937865,26.75,27.625,26.75,30.125,31.5625,32.125
0.16405252,-0.9624254,0.8510242,0.7845098,0.027462043,-0.0007728308,-0.15961398,-0.38734397,-0.34956366,0.06011679,3.0757012,-0.6248019,-0.00051901984,-0.07935352,-0.010741486,-0.00010761539,-0.040262964,0.010166183,-0.018185515,0.47236174,-1.4158919,1.9460868,-2.1016982,-1.5684308,2.447632,-0.07303424,0.12771846,-0.14387892,-0.011205038,0.031011237,-0.054735005,-0.11492168,-0.076614454,-8.90643,0.7642693,47.677036,-0.9170518,-1.8822701,-3.3410428,-0.38509226,0.34623212,-0.43261844,26.75,27.625,26.75,30.125,31.5625,32.125
0.16605246,-1.3956631,0.049386416,0.61327815,0.04769468,-0.018749906,-0.14748272,-0.3875328,-0.34957835,0.060140803,3.0756,-0.62489563,-0.0005854377,-0.0804467,-0.010633239,-0.0003964601,-0.040383115,0.009192331,-0.01772523,0.47219303,-1.4156389,1.9457387,-2.1016862,-1.5683945,2.447535,-0.074530154,0.13013981,-0.14619367,-0.010489406,0.031571392,-0.05668691,-0.11492168,-0.05746084,-8.925584,0.82022345,47.675243,-0.8198035,-1.9246364,-3.303546,-0.3799219,0.35030413,-0.44030532,26.75,27.625,26.75,30.125,31.5625,32.125
0.16805243,-0.804961,0.21040578,0.54690343,0.035351343,-0.006238097,-0.16224475,-0.38767353,-0.34959093,0.060120888,3.0755618,-0.6248876,-0.000509294,-0.08139629,-0.010353514,-0.00051059434,-0.040640157,0.008481485,-0.017854137,0.47204858,-1.415362,1.9454631,-2.1016738,-1.568334,2.4473906,-0.076203704,0.13165787,-0.14786662,-0.009808723,0.032128,-0.05823073,-0.19153613,0.05746084,-8.983045,0.83589023,47.653748,-0.7880048,-1.926642,-3.3525372,-0.37830025,0.33686125,-0.47463983,26.75,27.625,26.75,30.125,31.5625,32.125
0.17005226,-1.0962285,-0.22877793,0.3748478,0.03248812,-0.0010856133,-0.15785456,-0.3878144,-0.34962305,0.060114738,3.0754457,-0.6249,-0.0004875546,-0.082623295,-0.010455804,-0.0003250534,-0.04056407,0.0086134365,-0.014038,0.47191623,-1.4151212,1.9452113,-2.1017215,-1.5682386,2.447281,-0.07702328,0.13362116,-0.1507759,-0.008924327,0.032013476,-0.06286323,-0.095768064,0.076614454,-8.983045,0.8493211,47.67614,-0.7340768,-1.8948537,-3.2860146,-0.3822217,0.35315686,-0.46129248,26.75,27.625,26.75,30.125,31.5625,32.125
0.17205232,-1.4010984,-0.09080253,0.40826967,0.005630726,0.0027659545,-0.1545098,-0.3879891,-0.34961098,0.060098954,3.075422,-0.62498933,-0.0004959993,-0.08126909,-0.009616933,-0.0035159602,-0.03713488,0.0019009393,-0.011543867,0.47173634,-1.4148307,1.9449133,-2.101721,-1.5682381,2.44716,-0.077241145,0.13853696,-0.14950556,-0.007560463,0.03202647,-0.065575175,-0.1340753,0.05746084,-9.136273,0.8560339,47.678825,-0.78531647,-2.147947,-3.442935,-0.38961858,0.3612749,-0.4371336,26.75,27.625,26.75,30.125,31.5625,32.125
0.17405264,-1.7665988,-0.87165254,0.05896555,0.00540487,0.009713714,-0.14640875,-0.38814902,-0.3496527,0.06011478,3.0753145,-0.6249096,-0.0004913493,-0.08336117,-0.009766675,-0.00074840133,-0.04067027,0.0055343043,-0.011120115,0.4716032,-1.4145801,1.944589,-2.1017206,-1.5681418,2.446991,-0.07979404,0.13566439,-0.15285374,-0.006170105,0.033535536,-0.068547316,-0.13407528,0.19153613,-9.251195,0.86945957,47.67345,-0.6539426,-1.7512827,-3.3652892,-0.39649135,0.3579846,-0.44705996,26.75,27.625,26.75,30.125,31.5625,32.125
0.17605168,-1.754772,-1.1404428,-0.23860145,-0.0019839602,0.02774616,-0.14358403,-0.38831395,-0.34968695,0.06012131,3.0752184,-0.62490284,-0.00046604194,-0.08369859,-0.011453406,-0.00029706137,-0.04205751,0.005488216,-0.002752655,0.47146004,-1.4143031,1.9442528,-2.1017082,-1.5680574,2.446856,-0.07790209,0.13764082,-0.15642059,-0.005146044,0.034809258,-0.07501834,-0.28730422,0.21068975,-9.346964,0.83813137,47.666286,-0.84889054,-1.9937994,-3.316039,-0.4298721,0.34227163,-0.39248955,26.75,27.625,26.75,30.125,31.5625,32.125
0.17805278,-1.9008783,-1.4358766,-0.36206922,-0.0007318494,0.032459073,-0.14444606,-0.38846782,-0.34969458,0.060103483,3.075179,-0.62487435,-0.0004316359,-0.0853265,-0.011336793,-0.00023107529,-0.04238839,0.0053581623,-0.00018618435,0.4713034,-1.4140258,1.9439772,-2.10172,-1.5680093,2.4466867,-0.07976999,0.1400382,-0.15952152,-0.004457442,0.035173297,-0.079450384,-0.3256114,0.34476507,-9.461885,0.84708,47.661808,-0.797627,-1.8846328,-3.3272038,-0.42613578,0.35500687,-0.295984,26.75,27.625,26.75,30.125,31.5625,32.125
0.18005161,-1.7747473,-1.9357916,-0.6321914,-0.01156577,0.045428827,-0.1484953,-0.388642,-0.34972802,0.060091536,3.0750868,-0.62483424,-0.0003522296,-0.08423361,-0.010886029,-0.0019723973,-0.04077495,0.0018179085,0.0027584753,0.4711353,-1.4137007,1.9436306,-2.10172,-1.567901,2.4465055,-0.07964769,0.1419787,-0.1579082,-0.0041027297,0.035359476,-0.082272485,-0.36391866,0.4213795,-9.615114,0.7732232,47.666286,-0.7085215,-1.9244912,-3.4763322,-0.44011435,0.36906156,-0.28423542,26.75,27.625,26.75,30.125,31.5625,32.125
0.18205212,-1.8810986,-2.1242597,-0.52277935,-0.03505818,0.03888457,-0.14980172,-0.38877666,-0.34973738,0.06006517,3.0750206,-0.624895,-0.00021198434,-0.08418141,-0.0123856645,-0.002216887,-0.042459443,0.0006943165,0.008144543,0.470968,-1.4134238,1.9433664,-2.1016958,-1.5678042,2.4463847,-0.078212924,0.14424062,-0.16000809,-0.004010088,0.03737591,-0.086221956,-0.40222588,0.5746084,-9.749189,0.8090337,47.640312,-0.9695281,-1.9812402,-3.3367121,-0.4565194,0.3386688,-0.22737512,26.75,27.625,26.75,30.125,31.5625,32.125
0.18405263,-2.0634513,-2.3377466,-0.6722089,-0.059792727,0.029691324,-0.14501704,-0.38899046,-0.34976888,0.06011742,3.0748813,-0.62490314,-0.00035565635,-0.08579085,-0.012882852,-0.0013270684,-0.044468764,0.0024143849,0.009125774,0.47079957,-1.4131833,1.9429706,-2.1016958,-1.567756,2.4462395,-0.07939204,0.14497197,-0.1628245,-0.0043564094,0.03840178,-0.088373974,-0.38307226,0.51714754,-9.653421,0.80456203,47.71286,-0.92977774,-1.8531089,-3.369433,-0.45447004,0.32420117,-0.17683852,26.75,27.625,26.75,30.125,31.5625,32.125
0.18605252,-1.6269903,-2.2797222,-0.7717772,-0.06337891,0.0319113,-0.14746442,-0.38916704,-0.34977695,0.060096823,3.0748143,-0.62483114,-0.000328841,-0.08674606,-0.014318551,-0.00014372816,-0.04787054,0.0042159357,0.010131243,0.47060767,-1.412883,1.9426831,-2.1017444,-1.5676831,2.4460113,-0.07909516,0.14500815,-0.1654765,-0.004880877,0.0406192,-0.08907741,-0.2873042,0.5554548,-9.710882,0.78217715,47.681515,-1.0139935,-1.7574704,-3.3080416,-0.463942,0.31371844,-0.14950185,26.75,27.625,26.75,30.125,31.5625,32.125
0.18805261,-1.2931457,-2.0911782,-0.6408959,-0.056807775,0.015963212,-0.15419012,-0.38933763,-0.34980687,0.06010174,3.0747867,-0.6246331,-0.0003384673,-0.087748975,-0.015136272,-0.00047385998,-0.049206767,0.004261311,0.009323823,0.4704756,-1.4125937,1.942336,-2.1017325,-1.5676349,2.4457593,-0.079265244,0.14775914,-0.16764855,-0.00610246,0.041787867,-0.088435255,-0.11492168,0.49799395,-9.80665,0.78888994,47.695843,-0.95712423,-1.9692907,-3.3643935,-0.4459622,0.27826607,-0.13135512,26.75,27.625,26.75,30.125,31.5625,32.125
0.19005232,-1.0691941,-1.9576533,-0.7775451,-0.030543474,-0.0032992188,-0.14837423,-0.3895024,-0.3498352,0.060076147,3.0746787,-0.6247085,-0.00024507276,-0.08860149,-0.015268755,-0.0019471386,-0.04820118,0.0028224937,0.0067155426,0.4703078,-1.4122678,1.9420246,-2.1017568,-1.5675272,2.4456525,-0.079591446,0.15232533,-0.16933881,-0.0072296695,0.0415363,-0.08615148,-0.038307227,0.47884035,-9.653421,0.7105615,47.704796,-1.0224272,-1.9160409,-3.384179,-0.4549345,0.28004307,-0.12696743,26.75,27.625,26.75,30.125,31.5625,32.125
0.19205232,-0.8901192,-1.1144913,-0.7143691,-0.017020155,-0.013122766,-0.1508875,-0.38968736,-0.34986472,0.06006941,3.0745802,-0.6246718,-0.000236572,-0.08997913,-0.015535584,-0.0017860504,-0.049814932,0.003466598,0.0014245575,0.47013906,-1.411955,1.941688,-2.101793,-1.5674428,2.4454737,-0.081038766,0.1538701,-0.1713276,-0.008093002,0.042675633,-0.08230266,-0.019153614,0.47884035,-9.5385,0.7329411,47.691364,-1.0105067,-1.977792,-3.368939,-0.43048608,0.28368378,-0.14690134,26.75,27.625,26.75,30.125,31.5625,32.125
0.1940524,-0.8576327,-1.3220022,-0.60950494,-0.0028230078,-0.023781192,-0.14466904,-0.38989326,-0.34988996,0.060083468,3.074485,-0.6246734,-0.00026376385,-0.09036305,-0.016078396,-0.0027718109,-0.051760457,0.0012777242,-0.0028646751,0.46995875,-1.411642,1.9412926,-2.1017816,-1.5673813,2.4453068,-0.08211659,0.15670678,-0.17217681,-0.009017513,0.04539892,-0.079083696,0.17238252,0.4213795,-9.595961,0.8179876,47.66987,-0.99638534,-2.1589065,-3.423159,-0.42782065,0.23512283,-0.18392499,26.75,27.625,26.75,30.125,31.5625,32.125
0.19605248,-0.3481398,-0.6860218,-0.42803878,-0.03084149,-0.019872988,-0.15431009,-0.39008713,-0.3499356,0.060084734,3.0743423,-0.62466496,-0.00029995496,-0.09161086,-0.017416116,-0.002259811,-0.053978898,0.002230095,-0.0060684364,0.46980292,-1.4113289,1.9409455,-2.1018536,-1.567285,2.4451642,-0.08181813,0.15880665,-0.17570394,-0.009446375,0.04693923,-0.0755725,0.1340753,0.30645782,-9.481039,0.85826975,47.690468,-0.98336756,-2.1613002,-3.3304334,-0.41480035,0.18586941,-0.20061415,26.75,27.625,26.75,30.125,31.5625,32.125
0.19805287,-0.57220465,-0.9755465,-0.4051875,-0.026481465,-0.03397611,-0.15133877,-0.39028153,-0.34997132,0.0600994,3.0742083,-0.6246792,-0.00028007894,-0.09323362,-0.01620246,-0.002450808,-0.05426414,0.0018128199,-0.013060233,0.46962172,-1.411028,1.9405626,-2.1018412,-1.5671767,2.4450092,-0.08563225,0.16001475,-0.17671205,-0.009399212,0.047380902,-0.07239035,0.15322891,0.24899697,-9.442732,0.83813137,47.686886,-0.9085839,-2.111186,-3.462132,-0.40606698,0.18461564,-0.2773001,26.75,27.625,26.75,30.125,31.5625,32.125
0.20005192,-0.042595472,-0.5071222,-0.3641806,-0.028602237,-0.020618482,-0.15931977,-0.39046744,-0.3500068,0.060085732,3.0741384,-0.6246032,-0.00029261663,-0.09161651,-0.017436376,-0.0049091186,-0.052667893,-0.0031124554,-0.0073670447,0.46947855,-1.4106901,1.940215,-2.1018894,-1.5671166,2.4448278,-0.08248909,0.16510281,-0.17713834,-0.008929239,0.04820142,-0.07493561,0.15322891,0.24899697,-9.404425,0.7665104,47.679718,-1.0316348,-2.2069364,-3.420182,-0.41842467,0.15660468,-0.28656965,26.75,27.625,26.75,30.125,31.5625,32.125
0.20205207,-0.5577724,-1.1176299,-0.21905859,-0.00972091,-0.02364952,-0.15706624,-0.39064535,-0.35007238,0.060102124,3.0739603,-0.62460536,-0.00024228173,-0.09268951,-0.016881218,-0.0034344676,-0.053631134,-8.0269005e-05,-0.009232923,0.4693343,-1.4103906,1.9398326,-2.1018894,-1.5669607,2.4447079,-0.084048204,0.16248237,-0.17747603,-0.009091669,0.04769618,-0.07462609,0.11492168,0.30645782,-9.423578,0.79560274,47.65912,-1.0784566,-2.016648,-3.5054388,-0.41398874,0.13726826,-0.26829314,26.75,27.625,26.75,30.125,31.5625,32.125
0.2040522,-0.20793554,-0.4351381,0.047588117,-0.0129590565,-0.010061581,-0.16072121,-0.39084235,-0.35008082,0.06007931,3.0738764,-0.62468517,-0.00025147406,-0.09322962,-0.016770026,-0.0039457427,-0.053802017,-0.0015393002,-0.011042024,0.4691416,-1.4100536,1.9395093,-2.1019485,-1.5669125,2.444576,-0.085190944,0.1644386,-0.17874186,-0.008550564,0.048512667,-0.073955506,0.095768064,0.28730422,-9.289502,0.81351066,47.687782,-0.8454025,-2.0612824,-3.5573063,-0.4110167,0.10937069,-0.32238594,26.75,27.625,26.75,30.125,31.5625,32.125
0.20605223,-0.8838774,-0.9653293,-0.013212442,0.010998983,-0.00840946,-0.14972326,-0.39100835,-0.35012764,0.06009108,3.073751,-0.62463886,-0.00020868372,-0.09458268,-0.018031597,-0.002877768,-0.05491032,0.00080508535,-0.009156178,0.46899813,-1.4097769,1.9391607,-2.101937,-1.5667924,2.4444199,-0.084093116,0.16577391,-0.18278337,-0.008417377,0.04844344,-0.07473879,0.095768064,0.3256114,-9.270349,0.83813137,47.687782,-1.1805927,-2.1234899,-3.4500961,-0.40417153,0.07763303,-0.3294441,26.75,27.625,26.75,30.125,31.5625,32.125
0.20805243,-1.1277307,-0.56775695,0.23296979,0.0090207355,-0.0026024075,-0.14826916,-0.39120546,-0.35016903,0.060073443,3.0736334,-0.6246339,-0.00013591856,-0.097079314,-0.01833214,-0.0017566247,-0.056435425,0.0036167814,-0.011140727,0.46881765,-1.4094043,1.9387764,-2.101961,-1.5666727,2.4442515,-0.085794285,0.16713487,-0.18685286,-0.008889944,0.04852994,-0.07445152,-0.038307227,0.3256114,-9.136273,0.8023209,47.683304,-1.1218597,-2.0773916,-3.3652587,-0.39197874,0.06998256,-0.36443847,26.75,27.625,26.75,30.125,31.5625,32.125
0.21005245,-0.8723212,0.006930363,0.0032241244,-0.0015039467,0.010405344,-0.16349277,-0.39139128,-0.3502074,0.060071982,3.0735033,-0.6247032,-8.830819e-05,-0.09859806,-0.018794507,-0.00012033915,-0.057216354,0.006690522,-0.010776731,0.4686497,-1.40908,1.9384054,-2.101961,-1.5665649,2.4441438,-0.085842915,0.16665056,-0.19025242,-0.0080807,0.047842417,-0.07486195,-0.095768064,0.3256114,-9.193734,0.8247004,47.670765,-1.1803586,-1.9935758,-3.2959576,-0.3982902,0.065834485,-0.36470363,26.75,27.625,26.75,30.125,31.5625,32.125
0.21205238,-1.3911986,-0.5224229,-0.040843945,-0.0024189204,0.016751716,-0.14639395,-0.39160627,-0.35025153,0.060083203,3.0733938,-0.6245835,-0.00013640709,-0.09895679,-0.018128248,-0.00067995494,-0.0550705,0.005698911,-0.009617484,0.46848148,-1.4087433,1.9379991,-2.1019962,-1.5664815,2.4439151,-0.08634554,0.16832365,-0.19123682,-0.0068891156,0.046394918,-0.076521315,-0.24899697,0.2681506,-9.270349,0.8493211,47.691364,-1.1876798,-1.9428842,-3.2910018,-0.41395777,0.04857783,-0.3666914,26.75,27.625,26.75,30.125,31.5625,32.125
0.21405257,-1.6630327,-0.6535114,0.20433871,-0.02225822,0.03235685,-0.15225242,-0.3917849,-0.35027263,0.060074907,3.073332,-0.62464625,-5.1508763e-05,-0.10008596,-0.017348105,-0.0003039363,-0.052820824,0.0070302566,-0.00786541,0.46831334,-1.408407,1.9376158,-2.101936,-1.5664104,2.4437943,-0.08700795,0.16897076,-0.19316056,-0.005751985,0.043797143,-0.07894081,-0.3256114,0.4213795,-9.251195,0.84708,47.677036,-1.2849084,-2.0215683,-3.3027482,-0.42702395,0.06284713,-0.37404695,26.75,27.625,26.75,30.125,31.5625,32.125
0.21605253,-1.9057784,-1.2532881,-0.00897736,-0.012912098,0.05069649,-0.15050982,-0.39199662,-0.35032117,0.06007643,3.0731864,-0.62459475,-5.140237e-05,-0.101571605,-0.016947748,-0.00040106356,-0.05146154,0.007787719,-0.004960644,0.46813294,-1.4080573,1.9372195,-2.1019838,-1.5662907,2.4436007,-0.087992385,0.17126195,-0.19569317,-0.0055332324,0.042263683,-0.082827754,-0.36391866,0.36391866,-9.289502,0.83589023,47.67793,-1.1773082,-2.013445,-3.264526,-0.4379441,0.07382846,-0.35896122,26.75,27.625,26.75,30.125,31.5625,32.125
0.21805179,-1.9566909,-0.7191247,0.012067215,-0.025881182,0.060767204,-0.16207255,-0.39217868,-0.35035977,0.060060184,3.0731032,-0.62459415,2.9440487e-05,-0.10345737,-0.01682151,0.0007493492,-0.05103495,0.010956039,-0.0010851797,0.46797678,-1.4076967,1.9368371,-2.1019719,-1.5661949,2.443455,-0.08869308,0.17160873,-0.19881523,-0.0053516435,0.040468886,-0.08740594,-0.38307226,0.30645782,-9.232041,0.95226496,47.692257,-1.1964828,-1.8722138,-3.2839136,-0.4427411,0.08940346,-0.31892926,26.75,27.625,26.75,30.125,31.5625,32.125
0.22005166,-2.7847266,-1.4409491,0.08439117,0.00065865007,0.04505354,-0.14601204,-0.39237797,-0.35039097,0.060050555,3.0730388,-0.62452173,5.5712142e-05,-0.104191214,-0.016196951,0.0005536004,-0.050054632,0.010986907,0.0016152634,0.46780828,-1.4073362,1.9364423,-2.1019719,-1.5661238,2.4432497,-0.08982634,0.17257576,-0.19961013,-0.0050756317,0.03960087,-0.09123983,-0.5554548,0.28730422,-9.385271,0.80679786,47.66271,-1.1842555,-1.803024,-3.3953528,-0.44527274,0.10365414,-0.27322185,26.75,27.625,26.75,30.125,31.5625,32.125
0.22205248,-2.6398237,-0.18184115,0.22365408,-0.012560448,0.051825665,-0.15511474,-0.39259338,-0.3504259,0.060052104,3.072966,-0.62442595,2.7883445e-05,-0.10547858,-0.0145853255,-0.00033704645,-0.048049822,0.010692312,0.006128321,0.46763936,-1.4069754,1.9360241,-2.1019838,-1.5660642,2.4430306,-0.09269937,0.17446207,-0.19969214,-0.0056612208,0.037980836,-0.098626554,-0.61291564,0.21068975,-9.346964,0.8672237,47.67614,-1.2441725,-1.8180118,-3.3219736,-0.45230108,0.11702662,-0.19738606,26.75,27.625,26.75,30.125,31.5625,32.125
0.22405249,-1.8349721,-0.0690003,-0.118736275,0.017951105,0.072749585,-0.15672873,-0.39281514,-0.35044798,0.06004445,3.0728254,-0.62451106,6.0904786e-05,-0.10659383,-0.015125854,-0.001507425,-0.046650305,0.010139753,0.0075685135,0.46741173,-1.4066136,1.9356288,-2.102008,-1.5659565,2.4428744,-0.09203779,0.17948778,-0.20270741,-0.0065211505,0.036987446,-0.09940306,-0.63206923,0.19153613,-9.385271,0.89631605,47.67166,-1.2278554,-1.8085121,-3.365157,-0.43076447,0.13636589,-0.14419435,26.75,27.625,26.75,30.125,31.5625,32.125
0.2260524,-2.7553003,0.057152014,-0.04111009,0.029180964,0.043393366,-0.13893943,-0.3930326,-0.35048422,0.06005844,3.0727444,-0.62437767,2.9807884e-06,-0.10780976,-0.015325426,-0.0006584921,-0.04853825,0.012242679,0.010618479,0.46724328,-1.4062773,1.9352106,-2.10202,-1.5658964,2.4426334,-0.09318754,0.17906374,-0.20396514,-0.0075378283,0.03775079,-0.10359717,-0.53630114,0.15322891,-9.32781,0.8493211,47.66091,-1.3068389,-1.8467022,-3.407857,-0.42783296,0.1439597,-0.10262588,26.75,27.625,26.75,30.125,31.5625,32.125
0.22805275,-2.3825269,0.3636947,-0.034291897,0.025927747,0.042936165,-0.14614376,-0.39325333,-0.3505168,0.06005092,3.0726364,-0.6243589,-7.4345917e-07,-0.10925096,-0.014373478,-0.0012407907,-0.048068684,0.011099602,0.0049772705,0.4670501,-1.4059039,1.9348038,-2.1020558,-1.565812,2.4424427,-0.09612455,0.18150029,-0.20562682,-0.0070779454,0.03784675,-0.10088924,-0.63206923,-0.038307227,-9.404425,0.87393653,47.677036,-1.0240455,-1.9428401,-3.4013724,-0.45096147,0.15115155,-0.076598555,26.75,27.625,26.75,30.125,31.5625,32.125
0.23005162,-2.0672336,0.06854686,-0.043473642,0.024610743,0.04923201,-0.14711972,-0.39347777,-0.3505363,0.060037345,3.0725906,-0.6243104,-5.0746152e-05,-0.1104081,-0.013566028,-0.0020056046,-0.045131873,0.011227583,0.0025748955,0.4668701,-1.4055185,1.9343966,-2.102092,-1.5657891,2.4422386,-0.09679055,0.18440852,-0.2073334,-0.007061455,0.03516771,-0.09915609,-0.5554548,0.019153614,-9.308657,0.79560274,47.667187,-1.1260803,-2.058991,-3.4411988,-0.4296252,0.17636698,-0.08753148,26.75,27.625,26.75,30.125,31.5625,32.125
0.23205261,-1.9168925,-0.0044846996,-0.27122742,0.020881247,0.051795512,-0.14828013,-0.39367062,-0.3505761,0.06001821,3.0724957,-0.6242949,0.00012167417,-0.11213711,-0.012327628,-0.0022772024,-0.044017103,0.011199133,-0.0036265403,0.466677,-1.4051217,1.933967,-2.102032,-1.5656456,2.442048,-0.099789344,0.18629655,-0.209059,-0.006688212,0.034172796,-0.09595593,-0.5363012,0.038307227,-9.423578,0.8537928,47.711063,-1.0300192,-2.0045612,-3.4047823,-0.41460967,0.22949299,-0.10368861,26.75,27.625,26.75,30.125,31.5625,32.125
0.23405257,-1.6563435,0.013175658,-0.12587267,0.015582484,0.048011728,-0.15758985,-0.39390704,-0.35056987,0.0600015,3.0724385,-0.624343,6.1135564e-05,-0.11346911,-0.0123029975,-0.0022783075,-0.045473985,0.010620711,-0.009178642,0.4664483,-1.4047486,1.9335836,-2.1020796,-1.5656332,2.441857,-0.1019222,0.18814193,-0.21131389,-0.0064310404,0.035728857,-0.09252973,-0.47884035,0.038307227,-9.481039,0.8672237,47.704796,-0.86606467,-2.143332,-3.3188076,-0.45525315,0.23011765,-0.12954423,26.75,27.625,26.75,30.125,31.5625,32.125
0.23605245,-1.9296057,-0.4315977,-0.21894664,0.012247887,0.026398357,-0.14246714,-0.39413843,-0.35061052,0.060008567,3.0723329,-0.6242841,1.4563137e-05,-0.11449653,-0.012701004,-0.002382778,-0.04586217,0.010841091,-0.012873732,0.46626827,-1.4043758,1.9331411,-2.102104,-1.5655612,2.4416542,-0.102213964,0.19034359,-0.21363048,-0.00669253,0.035971303,-0.08912115,-0.51714754,0.019153614,-9.423578,0.8493211,47.704796,-0.8771845,-1.9828024,-3.3824463,-0.44371784,0.23996243,-0.185732,26.75,27.625,26.75,30.125,31.5625,32.125
0.23805262,-1.8868017,-0.53979456,-0.2836285,0.011244631,0.022432948,-0.14635928,-0.3943958,-0.35063243,0.06001951,3.0722008,-0.6243932,-4.4339526e-05,-0.11597175,-0.012896617,-0.0017666621,-0.047523778,0.011641946,-0.017193304,0.46603966,-1.4039909,1.9326729,-2.1021159,-1.5655001,2.4415112,-0.103802115,0.19129978,-0.21624652,-0.0064992444,0.037094787,-0.086382195,-0.51714754,0.038307227,-9.385271,0.87393653,47.664497,-0.9024557,-2.1070032,-3.3479614,-0.41936997,0.2608311,-0.22245449,26.75,27.625,26.75,30.125,31.5625,32.125
0.24005254,-1.2679462,-0.26560673,-0.10611685,0.005420464,0.03817362,-0.15603323,-0.39458513,-0.35065147,0.059994917,3.0721507,-0.62440205,4.2547254e-05,-0.116453975,-0.013255395,-0.0020932392,-0.04751923,0.011205478,-0.01885905,0.46585968,-1.403618,1.9322909,-2.102092,-1.5654286,2.4413433,-0.10365086,0.19325729,-0.21784988,-0.0064586364,0.037280347,-0.08456439,-0.57460845,0.1340753,-9.385271,0.7777002,47.686886,-0.9689679,-2.0882628,-3.3207421,-0.4439808,0.28542295,-0.25051892,26.75,27.625,26.75,30.125,31.5625,32.125
0.24205162,-2.1231337,-0.80019426,-0.21591373,0.018000571,0.026922872,-0.14387627,-0.3948386,-0.35067815,0.05998466,3.0720434,-0.6244384,5.539858e-07,-0.11662848,-0.012971734,-0.002744285,-0.047120176,0.00995747,-0.021347415,0.46564376,-1.403197,1.931837,-2.1021397,-1.5653685,2.4411643,-0.104345925,0.19467416,-0.2181215,-0.006306614,0.037489954,-0.082767405,-0.45968673,0.15322891,-9.385271,0.84708,47.677036,-0.980755,-2.153429,-3.453356,-0.45005122,0.30922502,-0.29596865,26.75,27.625,26.75,30.125,31.5625,32.125
0.24405254,-1.5764621,-0.60287386,-0.19571961,0.0041614072,0.03736837,-0.14765726,-0.395077,-0.35070413,0.059990738,3.071939,-0.624453,-4.354257e-05,-0.11757228,-0.014296307,-0.0018071621,-0.048976228,0.011431101,-0.018957237,0.46543986,-1.4028244,1.9313935,-2.1021516,-1.565308,2.4409833,-0.10342251,0.19564892,-0.22150995,-0.006025952,0.0384996,-0.08422686,-0.30645782,0.22984336,-9.3661175,0.8717007,47.67166,-0.8700701,-2.095739,-3.511653,-0.4480015,0.31399912,-0.32975185,26.75,27.625,26.75,30.125,31.5625,32.125
0.24605154,-2.0402346,-1.3433101,-0.39988205,0.003401242,0.020366337,-0.14535736,-0.3953009,-0.35071787,0.059968065,3.0718338,-0.624567,1.19966635e-05,-0.11796908,-0.015001332,-0.002573541,-0.050116293,0.00959678,-0.022304436,0.46521208,-1.4024267,1.9309863,-2.102163,-1.5652231,2.4408405,-0.10362131,0.19865756,-0.22330357,-0.0061208764,0.0403329,-0.08107136,-0.24899697,0.3256114,-9.346964,0.8314132,47.687782,-1.0824395,-2.190564,-3.5060267,-0.44132927,0.31742582,-0.3869527,26.75,27.625,26.75,30.125,31.5625,32.125
0.24805263,-1.3790245,-1.1569164,-0.28589147,-0.014297925,0.016870167,-0.14826961,-0.3955467,-0.35073492,0.059968125,3.0717146,-0.62467706,3.6739704e-05,-0.11930805,-0.01507025,-0.002053579,-0.05176669,0.01018245,-0.022953477,0.46497124,-1.4020302,1.9305204,-2.1021392,-1.5651387,2.440684,-0.10536614,0.19942641,-0.22548313,-0.0059554954,0.041556925,-0.08216101,-0.19153613,0.40222588,-9.404425,0.9030289,47.704796,-0.85867774,-1.9842358,-3.4716516,-0.45412984,0.3299998,-0.43296006,26.75,27.625,26.75,30.125,31.5625,32.125
0.25005156,-1.171529,-1.3105043,-0.6543387,-0.017265758,-0.0058983415,-0.14519624,-0.3957916,-0.3507663,0.05995504,3.0716379,-0.6246793,1.0514192e-05,-0.12044484,-0.015477576,-0.00070767064,-0.053255443,0.012700149,-0.023022346,0.46477935,-1.401598,1.9300536,-2.102163,-1.5650905,2.4405038,-0.105703875,0.1985371,-0.22761455,-0.0058399416,0.041766997,-0.082426295,-0.05746084,0.4405331,-9.481039,0.85155696,47.695843,-1.0406475,-2.0561292,-3.4808247,-0.46846908,0.35005158,-0.46941784,26.75,27.625,26.75,30.125,31.5625,32.125
0.2520527,-1.0336207,-1.6084884,-0.7961359,-0.029926613,-0.011963314,-0.14491233,-0.39602718,-0.3508029,0.059964754,3.0714912,-0.62476414,1.3115595e-06,-0.12131883,-0.015302921,-0.0011936388,-0.053569637,0.011482506,-0.022826461,0.46457478,-1.4012249,1.9295982,-2.102163,-1.5649947,2.4403715,-0.107228346,0.20077895,-0.2292638,-0.005461565,0.042612292,-0.08413994,-0.1340753,0.4213795,-9.557653,0.88960326,47.687782,-0.98944306,-2.069305,-3.4349308,-0.45380026,0.38833016,-0.48885983,26.75,27.625,26.75,30.125,31.5625,32.125
0.25405172,-1.0460848,-1.8079826,-0.5872205,-0.032277536,-0.00089803746,-0.1441132,-0.39628065,-0.35082838,0.05996238,3.071355,-0.6248296,7.859814e-06,-0.12242226,-0.015516432,-0.0008410418,-0.05535275,0.011772977,-0.020238105,0.4643343,-1.4008163,1.9291319,-2.1021755,-1.5648974,2.4401898,-0.108675174,0.2016608,-0.2311543,-0.0054748612,0.04410467,-0.08816695,-0.095768064,0.4213795,-9.519346,0.8403672,47.67345,-0.95600164,-1.982954,-3.4707708,-0.47143334,0.381364,-0.4989677,26.75,27.625,26.75,30.125,31.5625,32.125
0.25605157,-1.1006992,-1.5870943,-0.6213927,-0.03395523,0.0042249365,-0.14404461,-0.39652818,-0.35086012,0.059957385,3.0712483,-0.6248417,1.8190898e-05,-0.1237424,-0.016709957,-0.0002999124,-0.057477683,0.012578527,-0.014420092,0.46411833,-1.400395,1.9286536,-2.1021755,-1.564813,2.4399955,-0.10865654,0.20375992,-0.23490043,-0.0054541742,0.04567522,-0.093957335,0.15322891,0.38307226,-9.500193,0.9164598,47.683304,-0.9636955,-2.042023,-3.5160966,-0.47007298,0.39269716,-0.4670323,26.75,27.625,26.75,30.125,31.5625,32.125
0.25805193,-1.4640523,-1.467626,-0.55676645,-0.026953876,-0.0106484685,-0.14733435,-0.3967791,-0.35088652,0.059936915,3.0711565,-0.62481904,4.380732e-05,-0.12413162,-0.017259276,-0.0013065882,-0.057917442,0.010788115,-0.008201613,0.46389025,-1.3999492,1.9281873,-2.1021993,-1.5647286,2.4397655,-0.10872618,0.20712699,-0.23654613,-0.0057198587,0.046906933,-0.10023869,0.1340753,0.38307226,-9.519346,0.8672237,47.664497,-0.9956765,-2.128472,-3.4562268,-0.46366298,0.3805185,-0.41196185,26.75,27.625,26.75,30.125,31.5625,32.125
0.26005185,-1.0892216,-1.7163712,-0.6784879,-0.0109341685,-0.015398318,-0.13511993,-0.39703146,-0.35092217,0.059932623,3.0710092,-0.6248227,3.159721e-05,-0.12453435,-0.017619554,-0.0015868915,-0.059378408,0.010251795,-0.0019892077,0.4636621,-1.3995404,1.9277328,-2.1022475,-1.5646204,2.439559,-0.10936279,0.20835058,-0.23725514,-0.006350935,0.048500173,-0.10707802,0.05746084,0.4213795,-9.423578,0.9254084,47.681515,-0.97259676,-2.093217,-3.4901738,-0.47471026,0.40330407,-0.34975868,26.75,27.625,26.75,30.125,31.5625,32.125
0.26205182,-1.4183073,-1.3175238,-0.9287055,-0.0024942744,-0.03530065,-0.13510722,-0.39728472,-0.3509725,0.05995098,3.0708728,-0.62473166,4.272052e-06,-0.12504575,-0.019357149,-0.0007078653,-0.061970875,0.012162683,0.005285872,0.46345872,-1.3991442,1.9272302,-2.1022475,-1.5645117,2.4393167,-0.10763903,0.20879994,-0.23963615,-0.007237321,0.05000296,-0.112618364,0.1340753,0.45968673,-9.385271,0.98807013,47.666286,-1.0840627,-2.1138232,-3.5107584,-0.45123708,0.38924402,-0.28718457,26.75,27.625,26.75,30.125,31.5625,32.125
0.26405197,-0.96233284,-1.5010127,-1.0284829,-0.011279378,-0.03686387,-0.13642381,-0.397524,-0.35100412,0.059935976,3.070817,-0.624701,3.5703408e-05,-0.12599313,-0.019237306,-0.0012312828,-0.06322352,0.010340482,0.0063219313,0.46326584,-1.3986989,1.9267405,-2.1022236,-1.5644516,2.4391122,-0.10982919,0.2111572,-0.24138102,-0.006749996,0.05196047,-0.115836225,0.1340753,0.4405331,-9.5385,0.83365434,47.684196,-0.8788226,-2.1539197,-3.5767407,-0.46345723,0.37041962,-0.23263738,26.75,27.625,26.75,30.125,31.5625,32.125
0.26605192,-0.72358894,-1.7501383,-0.6165916,-0.047840785,-0.033232357,-0.14172585,-0.39774013,-0.35104635,0.059897643,3.0707023,-0.624578,0.00016091134,-0.12509184,-0.020047888,-0.0032671872,-0.06299675,0.0058849007,0.01054487,0.46305043,-1.398265,1.9263338,-2.1022713,-1.5642942,2.438835,-0.10868683,0.21546178,-0.24192873,-0.0063767065,0.053772748,-0.11890914,0.15322891,0.45968673,-9.557653,0.9231726,47.703903,-1.1561509,-2.214046,-3.6032457,-0.46868965,0.36560106,-0.19122241,26.75,27.625,26.75,30.125,31.5625,32.125
0.2680518,-0.24878165,-1.8664637,-0.48337072,-0.05744201,-0.025737692,-0.14523679,-0.3980013,-0.3510734,0.059897073,3.070623,-0.62460256,0.00010855684,-0.12677547,-0.020397136,-0.0027871388,-0.065806344,0.0060060266,0.005294946,0.4628456,-1.3978322,1.9258307,-2.1022713,-1.5642575,2.438656,-0.11100814,0.21697855,-0.24487332,-0.006324116,0.05622703,-0.11596688,0.11492168,0.36391866,-9.423578,0.86498255,47.705692,-0.9672827,-2.194719,-3.686944,-0.45943052,0.34056944,-0.17190358,26.75,27.625,26.75,30.125,31.5625,32.125
0.2700516,-0.28621745,-1.2848519,-0.58535707,-0.050272226,-0.03511892,-0.15050162,-0.39825776,-0.35110578,0.059887838,3.070484,-0.6245743,0.00016253284,-0.12789406,-0.02179412,-0.001682148,-0.069678396,0.006549199,0.0036076156,0.46259347,-1.3973994,1.9253505,-2.1022828,-1.5641245,2.4384046,-0.111485876,0.2176945,-0.24843287,-0.005684711,0.059452903,-0.11474128,0.15322891,0.4213795,-9.423578,0.82694155,47.694054,-1.1097332,-2.2743597,-3.5741215,-0.47276562,0.32398272,-0.1818041,26.75,27.625,26.75,30.125,31.5625,32.125
0.27205175,-0.23441778,-1.2275954,-0.42597485,-0.035979703,-0.02984637,-0.14341056,-0.39852178,-0.35116154,0.059900533,3.0702956,-0.62457865,0.00022338939,-0.12913615,-0.022621667,-0.0011238413,-0.07304976,0.006191609,-0.0055640936,0.4623531,-1.3969666,1.9248122,-2.102259,-1.5639557,2.4381917,-0.11301207,0.21904768,-0.25144622,-0.0052375686,0.062603645,-0.10707816,0.1340753,0.36391866,-9.442732,0.86945957,47.694946,-1.0692723,-2.201604,-3.423738,-0.4817109,0.2762509,-0.24964184,26.75,27.625,26.75,30.125,31.5625,32.125
0.27405214,-0.41195008,-1.002784,-0.65427333,-0.022654912,-0.02180065,-0.1394744,-0.39876413,-0.35121655,0.05988666,3.0701666,-0.6245157,0.00025326267,-0.13064753,-0.023857791,3.6996911e-07,-0.07693226,0.007584553,-0.0103438,0.46216062,-1.396522,1.9243339,-2.1022947,-1.5638345,2.4379768,-0.11387814,0.21977225,-0.2548434,-0.0055550565,0.06544417,-0.10314826,-0.05746084,0.4213795,-9.404425,0.83589023,47.685097,-1.032767,-2.170748,-3.495838,-0.4750479,0.23161045,-0.2973539,26.75,27.625,26.75,30.125,31.5625,32.125
0.27605206,-0.646373,-0.4844994,-0.46974745,-0.021552352,0.004264512,-0.15691756,-0.39906308,-0.35126367,0.059900675,3.070001,-0.6245761,0.00019817262,-0.13198131,-0.024625126,0.00077578565,-0.07892031,0.009281889,-0.01148696,0.46192065,-1.3960533,1.9237584,-2.102307,-1.5637378,2.4377966,-0.114242196,0.22063102,-0.25757015,-0.006076033,0.06647822,-0.102356374,-0.1340753,0.40222588,-9.423578,0.8403672,47.661808,-1.1021457,-2.151672,-3.4405637,-0.47317052,0.19996956,-0.32990777,26.75,27.625,26.75,30.125,31.5625,32.125
0.2780521,-1.9678028,-1.1204023,-0.2727334,-0.01848091,0.012550947,-0.14069045,-0.39928287,-0.35132185,0.059881967,3.06983,-0.6245608,0.0003148637,-0.13366571,-0.02561024,0.002839465,-0.082531475,0.012234957,-0.01278196,0.4617164,-1.3956329,1.9233164,-2.102331,-1.5635575,2.4376051,-0.11511228,0.21954444,-0.2611593,-0.005630903,0.06840007,-0.10192007,-0.11492168,0.40222588,-9.3661175,0.8403672,47.705692,-1.0470753,-2.1338096,-3.3431878,-0.45272183,0.16859254,-0.35026234,26.75,27.625,26.75,30.125,31.5625,32.125
0.2800522,-2.0361235,-0.9876536,-0.4458469,-0.020813568,0.028898953,-0.1503795,-0.3995295,-0.35136092,0.059865765,3.0696886,-0.6245528,0.00046255832,-0.13510504,-0.024954138,0.0032316898,-0.08479268,0.011478368,-0.01687037,0.46146303,-1.3951766,1.9228128,-2.1022942,-1.5633887,2.4373653,-0.11888925,0.21990381,-0.26275814,-0.0046972074,0.0707717,-0.10159848,-0.32561144,0.34476504,-9.346964,0.7933669,47.684196,-1.0279465,-2.0210302,-3.2080584,-0.48791915,0.10000922,-0.3779046,26.75,27.625,26.75,30.125,31.5625,32.125
0.28205207,-2.3440132,-1.2244993,-0.81641865,0.0033326675,0.034657206,-0.14097035,-0.3997965,-0.35141155,0.059863474,3.0695276,-0.62457454,0.0004875831,-0.13467933,-0.025160855,0.0027064388,-0.08124249,0.0116152195,-0.014473479,0.46123624,-1.3947198,1.9222878,-2.1023066,-1.563258,2.4371734,-0.11601887,0.22160934,-0.26386648,-0.0037991316,0.06754768,-0.10113176,-0.47884035,0.34476504,-9.404425,0.8627467,47.674347,-1.1091778,-1.9133518,-3.3150153,-0.49935198,0.113081336,-0.4020707,26.75,27.625,26.75,30.125,31.5625,32.125
0.2840521,-3.3957791,-1.1492739,-0.5225972,0.00044467623,0.033786077,-0.13289675,-0.4000736,-0.3514675,0.05988763,3.0693176,-0.6245511,0.00046144426,-0.13628204,-0.023030728,0.0018964484,-0.080068745,0.010425468,-0.015913013,0.46099427,-1.394311,1.9217614,-2.1023304,-1.5631021,2.4369445,-0.12069364,0.22322999,-0.2640415,-0.003598634,0.06706911,-0.10435967,-0.57460845,0.19153614,-9.500193,0.9298854,47.684196,-0.9258978,-1.8128443,-3.4923124,-0.49336308,0.09645499,-0.40570003,26.75,27.625,26.75,30.125,31.5625,32.125
0.286052,-2.5709178,0.0005903319,-0.58910525,0.0016062607,0.06815598,-0.14829941,-0.40033773,-0.35152525,0.059874736,3.0691602,-0.6245737,0.0005553145,-0.13538155,-0.023260267,0.00092070136,-0.07720191,0.009808809,-0.012382361,0.46076748,-1.3938181,1.9212126,-2.102318,-1.5629472,2.4367526,-0.11797144,0.22477588,-0.2637482,-0.0035646753,0.06479529,-0.10517495,-0.6703765,0.11492168,-9.5385,0.8717007,47.691364,-1.0766103,-1.8272123,-3.6499724,-0.50197935,0.07639598,-0.40822768,26.75,27.625,26.75,30.125,31.5625,32.125
0.2880521,-3.2357821,-0.24480672,-0.7358819,0.02698633,0.06848674,-0.1450812,-0.40062648,-0.35157704,0.05987932,3.0690145,-0.62450004,0.0005115798,-0.1371202,-0.022490378,0.00068898784,-0.0743265,0.011790523,-0.0060269292,0.46053922,-1.3933485,1.9206618,-2.1023543,-1.5628399,2.4364977,-0.118560605,0.22725393,-0.2661098,-0.004085298,0.061393972,-0.11212566,-0.5554548,0.095768064,-9.557653,0.9768804,47.703903,-1.0538039,-1.9193896,-3.726929,-0.52511835,0.08024664,-0.37791708,26.75,27.625,26.75,30.125,31.5625,32.125
0.2900524,-2.8963664,0.3760774,-0.43450847,0.023663318,0.08836485,-0.14379394,-0.4008904,-0.35161278,0.059871428,3.0688374,-0.62457705,0.000587977,-0.13966799,-0.022087047,0.00035151173,-0.07220018,0.013786215,-0.0023964979,0.46027488,-1.3929027,1.9201592,-2.1023548,-1.5626849,2.4363048,-0.11961697,0.23144682,-0.27013844,-0.0050117103,0.058636308,-0.116818935,-0.68953013,0.019153614,-9.481039,0.79560274,47.71554,-1.1070224,-2.044363,-3.648126,-0.5033417,0.11833443,-0.29439545,26.75,27.625,26.75,30.125,31.5625,32.125
0.29205227,-2.756469,0.3567415,-0.7649794,0.054876108,0.07539152,-0.14385237,-0.40117544,-0.35166076,0.05988034,3.068711,-0.6245074,0.00052228005,-0.14040108,-0.021428207,-0.000689227,-0.06936658,0.013657759,0.00321323,0.460059,-1.3924451,1.9196094,-2.1023786,-1.5626019,2.4360623,-0.119755626,0.23430452,-0.2711313,-0.0054254746,0.05620799,-0.12257103,-0.59376204,0.0,-9.557653,0.8672237,47.679718,-1.1024834,-2.186677,-3.610663,-0.47394836,0.12328519,-0.24631327,26.75,27.625,26.75,30.125,31.5625,32.125
0.29405284,-2.401941,-0.015977537,-0.69913924,0.051705305,0.06853644,-0.14651558,-0.4014707,-0.35170728,0.059888043,3.0685365,-0.624469,0.0005263977,-0.14271572,-0.020177824,-0.0003833673,-0.06696177,0.015815435,0.0066755866,0.45979425,-1.391976,1.9190463,-2.1023905,-1.5624589,2.4357967,-0.12187505,0.23609786,-0.27413762,-0.004989218,0.05314748,-0.12815997,-0.47884035,0.076614454,-9.557653,0.87617236,47.66271,-1.0612712,-2.1880312,-3.5494456,-0.48783255,0.1483742,-0.17103279,26.75,27.625,26.75,30.125,31.5625,32.125
0.29605177,-2.3489974,-0.023643037,-0.62871933,0.021332823,0.056980114,-0.14241315,-0.40175453,-0.35173014,0.059880942,3.0684817,-0.624419,0.0004882711,-0.1438402,-0.019375449,-0.0008668187,-0.0647891,0.015840443,0.0068800338,0.45956594,-1.3914948,1.918496,-2.1023781,-1.5624231,2.4355447,-0.12290658,0.23834047,-0.2758956,-0.0044983877,0.05121109,-0.1294012,-0.61291564,0.095768064,-9.481039,0.88960326,47.68062,-0.9969103,-2.1878934,-3.5620947,-0.49651694,0.17957184,-0.11133603,26.75,27.625,26.75,30.125,31.5625,32.125
0.29805216,-1.3992165,-0.41053995,-0.85944897,0.0023280052,0.055367216,-0.1496744,-0.40204865,-0.35173178,0.059874356,3.0683959,-0.62445974,0.00048377673,-0.14643826,-0.019543765,0.001287197,-0.06446026,0.021226251,0.004915461,0.45927787,-1.3910265,1.9179572,-2.1023543,-1.5623645,2.4352937,-0.123040244,0.23809166,-0.2806986,-0.0041114218,0.048526462,-0.12757865,-0.3256114,0.095768064,-9.615114,0.8806493,47.701214,-0.95611274,-2.2540405,-3.4265926,-0.4964732,0.24858081,-0.09801642,26.75,27.625,26.75,30.125,31.5625,32.125
0.30005196,-1.7295059,-0.9302263,-0.71794623,-0.014458824,0.040575825,-0.14263074,-0.4023547,-0.35182238,0.059904397,3.068168,-0.6244145,0.0004121546,-0.14873053,-0.019352423,0.0020805388,-0.06443192,0.023237292,-0.00040923743,0.45907316,-1.3905455,1.9173344,-2.10239,-1.562209,2.435091,-0.12465007,0.23982859,-0.28475782,-0.0035776969,0.04761136,-0.123858005,-0.57460845,0.15322891,-9.653421,0.7396539,47.681515,-0.87739456,-2.062256,-3.2722034,-0.5121114,0.27403677,-0.12760466,26.75,27.625,26.75,30.125,31.5625,32.125
0.30205244,-1.7735124,-0.9742575,-0.8669709,-0.011972439,0.038765244,-0.13359678,-0.40264454,-0.3518363,0.059895407,3.068082,-0.62437934,0.00038144804,-0.14915392,-0.019483114,0.0014853696,-0.06484118,0.022001367,-0.0065933545,0.45880935,-1.3900764,1.916808,-2.102402,-1.5621485,2.4348168,-0.12522465,0.2418576,-0.28587988,-0.0035889372,0.048509248,-0.11824008,-0.61291564,0.19153613,-9.500193,0.8112748,47.686886,-1.0837643,-2.1348448,-3.3053236,-0.5029556,0.29675153,-0.17940944,26.75,27.625,26.75,30.125,31.5625,32.125
0.30405235,-1.4437873,-0.7562175,-1.1147063,-0.0053863353,0.045778267,-0.14740138,-0.40295032,-0.35187978,0.05991733,3.0679073,-0.62436265,0.00033635896,-0.14856897,-0.019955741,0.0016180023,-0.06634329,0.022083234,-0.008999706,0.45854566,-1.3896202,1.9162239,-2.102402,-1.5620278,2.434566,-0.12459482,0.2407683,-0.28482443,-0.0042974795,0.049828775,-0.11519196,-0.36391866,0.2681506,-9.749189,0.8784135,47.690468,-0.9613297,-2.0210223,-3.3614254,-0.5120435,0.3236434,-0.20331272,26.75,27.625,26.75,30.125,31.5625,32.125
0.3060519,-2.1000087,-1.2295884,-0.8306003,-0.014615961,0.039661024,-0.13765198,-0.40323988,-0.3519129,0.059898205,3.0678036,-0.6243447,0.00037009982,-0.14902966,-0.020035189,0.001249648,-0.067504466,0.020724943,-0.015530291,0.45829308,-1.3891037,1.9156617,-2.102402,-1.561931,2.4343162,-0.12574373,0.24223328,-0.28586861,-0.004043244,0.051451966,-0.1097993,-0.51714754,0.28730422,-9.730036,0.91421866,47.719128,-1.0649558,-1.8880799,-3.6022356,-0.5083506,0.31751138,-0.29071864,26.75,27.625,26.75,30.125,31.5625,32.125
0.3080519,-1.6329588,-1.2930796,-0.5978632,-0.026047999,0.050446033,-0.1403802,-0.40356693,-0.35194784,0.05992482,3.0675898,-0.6245301,0.00029765777,-0.14968732,-0.020249361,0.0016278505,-0.06926023,0.020492226,-0.016661208,0.45800465,-1.3886349,1.9150518,-2.1024015,-1.5618228,2.4341722,-0.12686051,0.24259616,-0.28737515,-0.00344688,0.053156964,-0.10976895,-0.36391866,0.24899697,-9.461885,0.8627467,47.691364,-1.0504674,-1.9462565,-3.643354,-0.5106404,0.30731547,-0.30534607,26.75,27.625,26.75,30.125,31.5625,32.125
0.31005213,-1.6776398,-1.1626078,-0.5335007,-0.018349646,0.023094459,-0.13182999,-0.40391058,-0.35199833,0.05996816,3.067354,-0.6245968,0.00013487997,-0.15082924,-0.021788236,0.0031672015,-0.07285332,0.022477001,-0.019864444,0.45772892,-1.3881783,1.9144291,-2.1024492,-1.561714,2.4339697,-0.12650205,0.24253006,-0.29091406,-0.003224298,0.05550832,-0.10618204,-0.13407528,0.22984336,-9.519346,0.83365434,47.678825,-1.0159907,-1.7114446,-3.6413107,-0.52140987,0.3226389,-0.39173478,26.75,27.625,26.75,30.125,31.5625,32.125
0.3120521,-0.990253,-0.930289,-0.65676665,-0.0019571222,0.007924005,-0.13772817,-0.404223,-0.35202923,0.059952375,3.0672584,-0.6246151,0.000104684426,-0.15141734,-0.021558544,0.0022183475,-0.07119333,0.02186972,-0.021973742,0.45747706,-1.3876368,1.9138321,-2.102462,-1.5616544,2.4337423,-0.12650844,0.24534494,-0.2921213,-0.0035480373,0.054289676,-0.10408133,-0.019153614,0.2681506,-9.423578,0.90750587,47.692257,-1.0544978,-1.7888294,-3.494506,-0.52313113,0.35598958,-0.42871627,26.75,27.625,26.75,30.125,31.5625,32.125
0.31405166,-0.86505014,-0.9848022,-0.57343245,0.019508634,-0.019957807,-0.13379583,-0.40451825,-0.3520728,0.059959438,3.067085,-0.62465686,8.537944e-05,-0.1544338,-0.021692801,0.002710594,-0.07351159,0.024242526,-0.025055144,0.45722392,-1.3871673,1.913268,-2.1024745,-1.5615338,2.4335384,-0.12937786,0.2480528,-0.29607558,-0.00543361,0.055331722,-0.10385588,0.076614454,0.21068975,-9.346964,0.91198283,47.66091,-0.93958056,-1.9499222,-3.5042818,-0.4840939,0.35853982,-0.46938664,26.75,27.625,26.75,30.125,31.5625,32.125
0.3160524,-0.038204864,-0.2678415,-0.4539549,0.005823457,-0.021961642,-0.14377391,-0.40482745,-0.35211468,0.05995427,3.066897,-0.62473005,8.1432576e-05,-0.15544432,-0.023602687,0.0024124149,-0.07605233,0.02404306,-0.021619357,0.45694846,-1.3866619,1.9126948,-2.1025107,-1.5614008,2.4333339,-0.12830174,0.25200754,-0.29990435,-0.0064594885,0.057731405,-0.10619449,0.05746084,0.22984336,-9.32781,0.9567419,47.658226,-1.1492978,-2.0534182,-3.3848343,-0.47246897,0.36313742,-0.5131432,26.75,27.625,26.75,30.125,31.5625,32.125
0.31805187,-0.18487267,-0.66796726,-0.46210232,0.00077186216,-0.025008872,-0.14531542,-0.40511468,-0.3521542,0.059940457,3.0667589,-0.6247547,0.00012385249,-0.15581499,-0.023712017,0.0020299286,-0.07740809,0.022415247,-0.017126229,0.45669594,-1.3861567,1.9121326,-2.1025102,-1.5612806,2.4331152,-0.12954351,0.25346583,-0.30097938,-0.00590562,0.059725907,-0.11191496,0.019153614,0.28730422,-9.270349,0.85826975,47.684196,-0.9913931,-1.9795797,-3.2382674,-0.47518778,0.3679864,-0.4907614,26.75,27.625,26.75,30.125,31.5625,32.125
0.3200518,-0.35711747,-1.0252256,-0.65971816,-0.018083552,-0.014203193,-0.14263111,-0.4054538,-0.35217652,0.05997529,3.06662,-0.6247583,7.2328527e-07,-0.15746102,-0.023104489,0.0024473805,-0.07657055,0.023161745,-0.009132514,0.4564076,-1.3856883,1.9114975,-2.102486,-1.561221,2.432848,-0.13123177,0.2549399,-0.30410784,-0.004432832,0.05874406,-0.12159401,0.17238252,0.5363012,-9.308656,0.77545905,47.65464,-1.0208824,-1.9043438,-3.4065804,-0.46427777,0.36672145,-0.42776367,26.75,27.625,26.75,30.125,31.5625,32.125
0.32205236,-1.0603801,-2.1862009,-0.6776418,-0.03725946,-0.001340993,-0.13802876,-0.40578493,-0.35223758,0.059994347,3.0664465,-0.6247389,-4.296836e-05,-0.15802139,-0.023227809,0.0025112825,-0.0782951,0.021330845,-0.005044001,0.45615485,-1.3851588,1.910829,-2.1024735,-1.5610999,2.4326065,-0.13286383,0.2561234,-0.3061686,-0.002596025,0.061170135,-0.12729277,0.24899697,0.6512228,-9.346964,0.8672237,47.661808,-0.9036219,-1.9097974,-3.4240584,-0.48591563,0.37315226,-0.37716213,26.75,27.625,26.75,30.125,31.5625,32.125
0.3240524,-1.0913173,-2.7167492,-0.56091976,-0.062273692,0.010153795,-0.13694333,-0.40609127,-0.3522766,0.05998281,3.0662866,-0.6247401,-2.1369455e-05,-0.15887533,-0.023180775,0.002144645,-0.08020765,0.019039303,0.00064741034,0.45587802,-1.3846419,1.9102529,-2.1024969,-1.5609668,2.4323518,-0.13527954,0.25822458,-0.3081952,-0.0013527058,0.06398088,-0.13537787,0.17238252,0.80445176,-9.442732,0.96569055,47.66808,-0.82885265,-1.9134438,-3.44321,-0.50796133,0.37181675,-0.24457468,26.75,27.625,26.75,30.125,31.5625,32.125
0.32605174,-1.0465535,-2.6970985,-0.59190947,-0.06718608,-0.0032002209,-0.13846774,-0.40640095,-0.3523402,0.060008485,3.0660868,-0.6246375,-6.022984e-05,-0.15817975,-0.023770025,0.0011356941,-0.08176652,0.015887022,0.004448407,0.45562616,-1.3841727,1.9096459,-2.1025088,-1.56081,2.4320626,-0.1353055,0.25995457,-0.30811948,-0.00094907935,0.06683151,-0.13917823,0.05746084,0.80445176,-9.519346,0.91198283,47.666286,-0.84346056,-1.8858546,-3.3984795,-0.4987005,0.32784018,-0.20358944,26.75,27.625,26.75,30.125,31.5625,32.125
0.3280526,-0.85839057,-2.52576,-0.5079736,-0.05340127,-0.0153525565,-0.13709539,-0.40670246,-0.3523841,0.05997746,3.065992,-0.62457967,6.713846e-05,-0.15802053,-0.024978543,0.0009153074,-0.083709694,0.014451249,0.0056386082,0.45536238,-1.3835834,1.9090117,-2.1024606,-1.5606769,2.4317753,-0.13443382,0.26157495,-0.30976355,-0.00046002454,0.06922069,-0.13948178,0.019153614,0.6895301,-9.404425,0.8672237,47.698532,-0.87334865,-1.8905058,-3.510409,-0.52135825,0.296771,-0.16115752,26.75,27.625,26.75,30.125,31.5625,32.125
0.33005202,-0.38284796,-1.4429823,-0.35726333,-0.04698514,-0.025960613,-0.13717826,-0.40705884,-0.35245222,0.06004151,3.065723,-0.6245232,-0.00012052239,-0.15721728,-0.026036197,0.00026101124,-0.08652158,0.011912629,0.0028524154,0.45508644,-1.383138,1.9083537,-2.1025088,-1.5605315,2.4315004,-0.13405213,0.26256403,-0.30944848,-0.00072651263,0.07288698,-0.13627249,-0.05746084,0.6895301,-9.346964,0.77545905,47.658226,-0.9325939,-1.9735138,-3.5070405,-0.52714473,0.27726308,-0.15695557,26.75,27.625,26.75,30.125,31.5625,32.125
0.3320518,-0.06736705,-0.67463595,-0.12897821,-0.03529127,-0.022482134,-0.13675268,-0.40737125,-0.35249606,0.06001875,3.065589,-0.624519,-8.141822e-05,-0.1598422,-0.027426338,0.002011971,-0.09196684,0.01526968,-0.005411167,0.45482168,-1.3825738,1.9077438,-2.1025217,-1.5604109,2.431251,-0.1358359,0.26313442,-0.3138065,-0.0023903958,0.076259375,-0.12976429,-0.11492168,0.47884035,-9.2703495,0.900793,47.66987,-0.9074713,-1.9703372,-3.5688925,-0.50490355,0.22211587,-0.21634096,26.75,27.625,26.75,30.125,31.5625,32.125
0.33405206,-0.14762548,-0.62948567,-0.20188746,-0.007719368,-0.01814896,-0.14812642,-0.40768525,-0.35255563,0.060006436,3.0653632,-0.62454855,3.503416e-05,-0.16057129,-0.03009003,0.0024767884,-0.095762484,0.01662955,-0.008339479,0.454523,-1.3820208,1.9071211,-2.1025221,-1.5601939,2.431001,-0.1334422,0.26553398,-0.3173928,-0.004107389,0.07904289,-0.1244167,-0.019153614,0.40222588,-9.155427,0.88960326,47.691364,-1.191657,-1.7974808,-3.4361124,-0.47785386,0.16282734,-0.27718937,26.75,27.625,26.75,30.125,31.5625,32.125
0.33605203,-0.3490611,-0.39111483,-0.11443901,-0.01665093,-0.002112688,-0.14897902,-0.4080143,-0.35263166,0.060026266,3.065129,-0.6245197,-1.0267332e-05,-0.16221355,-0.030081434,0.0029381432,-0.098154135,0.016748969,-0.013266017,0.4542699,-1.3815037,1.9064754,-2.102558,-1.5600246,2.4307613,-0.13600373,0.26670793,-0.31997782,-0.0038452544,0.08114971,-0.122023724,0.019153614,0.34476504,-9.136273,0.9097417,47.65464,-0.9296833,-1.7677393,-3.3853433,-0.44681656,0.122456595,-0.34712714,26.75,27.625,26.75,30.125,31.5625,32.125
0.3380525,-1.1193616,-0.5665582,0.083914965,-0.0019528832,-0.003108987,-0.14037694,-0.40835288,-0.3526965,0.06005114,3.064921,-0.62453395,-5.1258037e-05,-0.1635549,-0.030229721,0.0037781547,-0.09945773,0.017228546,-0.014778731,0.45400548,-1.3809754,1.9057935,-2.1025455,-1.5598806,2.430534,-0.13733831,0.26743668,-0.32320035,-0.0023208654,0.082138345,-0.12182669,-0.15322891,0.34476504,-9.11712,0.9567419,47.67345,-0.9641495,-1.7369928,-3.3821507,-0.47348318,0.0868689,-0.3794198,26.75,27.625,26.75,30.125,31.5625,32.125
0.3400522,-1.3240368,-0.4742949,-0.1910931,0.00092307694,0.012059696,-0.13771155,-0.40866813,-0.35275403,0.0600338,3.064774,-0.6244657,2.5843212e-05,-0.1639959,-0.029661102,0.0021217675,-0.0979298,0.014096773,-0.018518569,0.4537411,-1.3803971,1.9051479,-2.1025326,-1.5597247,2.4302466,-0.13853693,0.27142376,-0.32447714,-0.001533748,0.082137495,-0.11928037,-0.076614454,0.45968673,-9.212888,0.8157518,47.677036,-0.94917184,-1.7412405,-3.3875551,-0.46240997,0.020749073,-0.43126565,26.75,27.625,26.75,30.125,31.5625,32.125
0.34205168,-1.5104815,-0.6649355,0.035923023,-0.016870039,0.03944516,-0.14216045,-0.40897685,-0.3528096,0.060016595,3.0645869,-0.6245381,0.00013764224,-0.16475812,-0.028775198,0.00063747074,-0.09341889,0.013169977,-0.014770578,0.45346522,-1.379831,1.9045137,-2.1025088,-1.5595464,2.430041,-0.13831457,0.2755785,-0.32632816,-0.00093135604,0.07853621,-0.12282738,-0.17238252,0.4405331,-9.251195,0.9321212,47.695843,-0.9358623,-1.9268687,-3.432433,-0.48023438,0.061444543,-0.43635327,26.75,27.625,26.75,30.125,31.5625,32.125
0.34405273,-1.6759503,-0.6958151,-0.022623762,-0.018858237,0.068119936,-0.13929318,-0.40933093,-0.35289258,0.060049515,3.0643435,-0.6245261,4.7563244e-05,-0.1676204,-0.027688822,0.0013984981,-0.0927521,0.015754174,-0.016734159,0.45321214,-1.37929,1.9038066,-2.1025326,-1.55939,2.4298134,-0.14137836,0.277081,-0.3300086,-0.0007269838,0.07684375,-0.123924084,-0.3256114,0.30645782,-9.136273,0.8403672,47.66808,-0.85053974,-2.0008268,-3.3135905,-0.47554383,0.049341157,-0.4113037,26.75,27.625,26.75,30.125,31.5625,32.125
0.346052,-1.6148092,-0.24812019,-0.030993741,0.0143524585,0.074679986,-0.1435512,-0.40964633,-0.35294884,0.060036834,3.0641606,-0.6245008,0.0001565266,-0.16638424,-0.027304692,-0.00021286316,-0.08743781,0.014912412,-0.007784118,0.4529254,-1.3787249,1.9031628,-2.1025083,-1.5592002,2.4295354,-0.13815053,0.27905756,-0.32889858,-0.0006033674,0.07250855,-0.12967515,-0.4405331,0.28730422,-9.193734,0.9388393,47.694054,-1.0449693,-2.1095095,-3.4902308,-0.46131828,0.02992205,-0.3665887,26.75,27.625,26.75,30.125,31.5625,32.125
0.34805208,-2.1769395,0.2502095,0.12914908,0.022877458,0.06730372,-0.13860299,-0.410012,-0.35298923,0.060030453,3.0639987,-0.6244223,0.00010390157,-0.16796839,-0.026012449,-0.00032091333,-0.084136315,0.016843894,-0.00044579964,0.45261317,-1.3781363,1.9024929,-2.1025565,-1.559081,2.4291961,-0.13922435,0.2805916,-0.33066288,-0.0005163921,0.06879835,-0.1381061,-0.40222588,0.24899697,-9.174581,0.97240865,47.660015,-0.9429685,-1.995806,-3.4757762,-0.47530347,0.096907645,-0.29271638,26.75,27.625,26.75,30.125,31.5625,32.125
0.35005242,-1.8769592,0.26511383,0.3478724,0.037054677,0.084398955,-0.15156274,-0.41031998,-0.353056,0.06002818,3.0638382,-0.6243849,0.00016304136,-0.16898966,-0.025604038,0.00024452145,-0.0823068,0.01942806,0.005683342,0.4523732,-1.3775828,1.9018358,-2.1025207,-1.5589265,2.4289544,-0.13896008,0.28070846,-0.33225203,-0.0004514397,0.06609394,-0.14398724,-0.4213795,0.24899697,-9.11712,0.8940802,47.681515,-1.1111042,-2.0159929,-3.4402845,-0.44979033,0.13292637,-0.21170197,26.75,27.625,26.75,30.125,31.5625,32.125
0.35205206,-1.7877126,0.3283585,0.3122278,0.03276413,0.077259295,-0.14012004,-0.410655,-0.3530909,0.060004175,3.063731,-0.62434,0.00020293257,-0.17083609,-0.025330001,0.0006361443,-0.08018591,0.022104926,0.009395664,0.45208535,-1.3769821,1.9011768,-2.1025083,-1.5588192,2.428653,-0.13894057,0.28270227,-0.33568788,-0.00040103606,0.06306433,-0.1476992,-0.5554548,0.28730422,-9.040505,0.9097417,47.675243,-1.1505476,-1.9193056,-3.5169926,-0.4557094,0.1673561,-0.13601959,26.75,27.625,26.75,30.125,31.5625,32.125
0.35405174,-2.2002113,0.16077809,0.3601215,0.013807081,0.06293951,-0.13545412,-0.41101068,-0.35314938,0.060019936,3.0635529,-0.6242826,9.5476964e-05,-0.1721574,-0.024893463,0.0010878944,-0.07834651,0.024491452,0.009964763,0.45182127,-1.3764292,1.9004954,-2.1025445,-1.5587124,2.4283774,-0.13898696,0.28350016,-0.33782023,-0.00036077725,0.060407322,-0.14832464,-0.61291564,0.19153613,-9.059659,0.88289046,47.639416,-1.198591,-1.836935,-3.5307856,-0.44870386,0.20154995,-0.15314521,26.75,27.625,26.75,30.125,31.5625,32.125
0.35605258,-1.7889887,0.2936757,0.12198501,-0.0021824162,0.05548306,-0.14102322,-0.41135004,-0.3531843,0.060009595,3.0634487,-0.6242833,9.902624e-05,-0.17365904,-0.024844073,0.0017171381,-0.07752559,0.026797423,0.004021478,0.45154524,-1.3758403,1.899813,-2.1025083,-1.5586289,2.428116,-0.13906485,0.2845222,-0.34062707,-0.00032787453,0.05862653,-0.14246829,-0.63206923,0.21068975,-9.078813,0.9545008,47.668976,-1.262957,-1.8042619,-3.543942,-0.44444382,0.25032404,-0.1496741,26.75,27.625,26.75,30.125,31.5625,32.125
0.3580519,-1.7382944,-0.4100408,0.21177724,0.005885667,0.04914213,-0.13105331,-0.41167313,-0.35322583,0.059972208,3.0633092,-0.62425673,0.00017584162,-0.17512517,-0.024757063,0.0016552293,-0.077496335,0.02718765,-0.002514444,0.45125693,-1.375239,1.8991913,-2.1025321,-1.5584849,2.42783,-0.14013465,0.28679505,-0.34335917,-0.0002357096,0.058396734,-0.13700004,-0.57460845,0.11492168,-9.155427,0.99031126,47.647476,-1.2294805,-1.9180303,-3.3964267,-0.44180655,0.2892612,-0.1901142,26.75,27.625,26.75,30.125,31.5625,32.125
0.36005163,-1.6466697,-0.44965938,0.07237543,0.010767198,0.034720868,-0.13316216,-0.41206104,-0.35327268,0.060007557,3.0631394,-0.62426186,2.0746218e-05,-0.17624706,-0.024500584,0.0011127706,-0.077022284,0.026690474,-0.008853367,0.45096856,-1.374673,1.8984379,-2.1025207,-1.5584129,2.4275682,-0.14119281,0.28942448,-0.34539917,-0.00020865924,0.058173545,-0.1317097,-0.59376204,0.1340753,-9.078813,0.9388393,47.647476,-1.2139373,-1.9467722,-3.329394,-0.42307255,0.32169977,-0.25119624,26.75,27.625,26.75,30.125,31.5625,32.125
0.36205193,-1.0550263,-0.069822945,-0.085590705,0.01345665,0.041127052,-0.14038466,-0.4124195,-0.35332102,0.05999389,3.0629437,-0.6243186,5.124555e-05,-0.17744394,-0.023529066,0.00059861003,-0.07754398,0.025476847,-0.015613309,0.4506555,-1.3740603,1.8977455,-2.1025321,-1.5582565,2.4273171,-0.14428335,0.29101574,-0.34631303,-3.158424e-05,0.059165172,-0.1280268,-0.47884035,0.19153613,-9.232041,0.9164598,47.682407,-1.1866434,-2.005118,-3.4086866,-0.41310284,0.34678948,-0.29698816,26.75,27.625,26.75,30.125,31.5625,32.125
0.36405286,-1.0158468,-0.5253269,0.05515165,0.009922173,0.042258225,-0.13933656,-0.4127376,-0.35337308,0.05995616,3.0628283,-0.624333,0.00013415802,-0.17703865,-0.025641007,-0.0001941,-0.078646995,0.023696577,-0.016828818,0.4504048,-1.3734348,1.8970865,-2.1025207,-1.5581359,2.4270911,-0.14125235,0.29469147,-0.34907833,0.000150748,0.060904026,-0.12376345,-0.40222588,0.21068975,-9.232041,0.947788,47.689575,-1.3129898,-1.9392767,-3.4773035,-0.41487902,0.37648237,-0.3696971,26.75,27.625,26.75,30.125,31.5625,32.125
0.36605233,-1.2830542,-0.65681815,-0.07408014,0.0018079678,0.029538622,-0.14271729,-0.41309962,-0.3534213,0.05995861,3.0626407,-0.62437123,0.000111896494,-0.17806809,-0.025599014,-0.0004265721,-0.07992657,0.022950018,-0.02147478,0.45010403,-1.3728456,1.8963822,-2.1025207,-1.5580033,2.4268398,-0.14291069,0.2964884,-0.35084206,0.00022411243,0.06237926,-0.12075617,-0.15322891,0.15322891,-9.212888,0.9545008,47.68062,-1.1871102,-2.1297219,-3.5189734,-0.42902806,0.36574405,-0.4357626,26.75,27.625,26.75,30.125,31.5625,32.125
0.36805215,-1.2927428,-0.8125176,-0.22004183,-0.0044310107,0.015037779,-0.13539112,-0.41347644,-0.35344556,0.059955083,3.0624783,-0.62450904,5.6788365e-05,-0.17897151,-0.0259408,-0.0005293794,-0.08089101,0.022770755,-0.022500481,0.44978002,-1.3722441,1.895676,-2.1025207,-1.5579189,2.4266243,-0.14348562,0.29836696,-0.35300186,0.00026839116,0.063347116,-0.12029036,-0.30645782,0.2681506,-9.270349,0.96569055,47.705692,-1.3306357,-2.1262875,-3.5259018,-0.3872108,0.3825596,-0.50510556,26.75,27.625,26.75,30.125,31.5625,32.125
0.37005222,-1.4371239,-1.2653639,-0.29878545,-0.016752684,0.0060714646,-0.13710955,-0.4138187,-0.35349092,0.059957318,3.0623205,-0.62447274,6.292542e-05,-0.17900993,-0.025812259,-0.0017995298,-0.08150344,0.019392302,-0.020418655,0.44949153,-1.3716788,1.8949941,-2.102496,-1.5577863,2.4263346,-0.14484668,0.30110005,-0.35369778,0.0010788923,0.06542766,-0.12371055,-0.24899697,0.4405331,-9.346964,0.8985519,47.681515,-1.2640839,-2.1456597,-3.5611944,-0.3892504,0.40396672,-0.53790206,26.75,27.625,26.75,30.125,31.5625,32.125
0.37205228,-0.6808504,-1.1488792,-0.23871498,-0.04093371,0.015088168,-0.1516885,-0.41416547,-0.35354576,0.059930187,3.0621655,-0.62449425,0.000100491394,-0.17975108,-0.025983125,-0.001613434,-0.0831341,0.019326705,-0.015785364,0.4492154,-1.3710419,1.8943018,-2.1025078,-1.5576533,2.426093,-0.14596553,0.3017963,-0.35515156,0.0012912385,0.06700184,-0.12944588,0.11492168,0.4213795,-9.308657,0.8940802,47.68599,-1.3388975,-2.131155,-3.7171726,-0.38529843,0.41438946,-0.50463945,26.75,27.625,26.75,30.125,31.5625,32.125
0.3740517,-0.06897766,-1.1790501,-0.4625914,-0.039157733,-0.00054690195,-0.1495077,-0.414524,-0.35360733,0.05991719,3.0619996,-0.62443215,0.00014249209,-0.18191671,-0.027524453,0.00075737876,-0.08827212,0.022704769,-0.004746404,0.44892678,-1.370405,1.8935717,-2.102496,-1.5574964,2.4257882,-0.1469743,0.3012931,-0.36013895,0.0016952641,0.07030029,-0.14146072,0.076614454,0.4405331,-9.3661175,0.90750587,47.64479,-1.1151315,-2.1621284,-3.5636039,-0.3850502,0.37740424,-0.40715858,26.75,27.625,26.75,30.125,31.5625,32.125
0.37605223,-0.5404283,-1.7631317,-0.4435595,-0.03459453,-0.016020743,-0.15104812,-0.4148775,-0.35366362,0.059898637,3.0618436,-0.6243788,0.00014435872,-0.18401411,-0.026361281,0.00070898473,-0.089806624,0.02237428,-0.0017602682,0.4486489,-1.3697805,1.892877,-2.1025202,-1.5573643,2.4254982,-0.15151535,0.3028227,-0.36202958,0.0018211824,0.071927555,-0.14896818,-0.15322891,0.53630114,-9.346964,0.95002913,47.655537,-0.9490214,-2.0026464,-3.5396712,-0.36114118,0.4013258,-0.30687523,26.75,27.625,26.75,30.125,31.5625,32.125
