Tylouw/Master_Thesis_Code/training_data/batch_1/small_rod_t0.1/sample_60_session_2.csv
timestamp[s],tcp_force_x[N],tcp_force_y[N],tcp_force_z[N],tcp_force_rx[Nm?],tcp_force_ry[Nm?],tcp_force_rz[Nm?],tcp_pose_x[m],tcp_pose_y[m],tcp_pose_z[m],tcp_pose_rx[rot_vec_x],tcp_pose_ry[rot_vec_y],tcp_pose_rz[rot_vec_z],tcp_velo_x[m/s],tcp_velo_y[m/s],tcp_velo_z[m/s],tcp_velo_rx[rot_vec_x/s],tcp_velo_ry[rot_vec_y/s],tcp_velo_rz[rot_vec_z/s],q1[rad],q2[rad],q3[rad],q4[rad],q5[rad],q6[rad],qd1[rad/s],qd2[rad/s],qd3[rad/s],qd4[rad/s],qd5[rad/s],qd6[rad/s],tool_acc_x,tool_acc_y,tool_acc_z,current_of_whole_robot[A],voltage_of_whole_robot[V],current_J1[A],current_J2[A],current_J3[A],current_J4[A],current_J5[A],current_J6[A],temp_J1[C],temp_J2[C],temp_J3[C],temp_J4[C],temp_J5[C],temp_J6[C]
1.1140073e-06,-0.5999716,-1.1032832,0.22964162,-0.021955345,0.012892492,0.0022135861,-0.38107303,-0.34852636,0.05999104,-3.07855,0.62486476,-6.543157e-05,0.0021347932,0.0010546113,-0.0021864627,0.0024132456,-0.004979626,7.884393e-05,0.4777981,-1.4259815,1.9577278,-2.1008685,-1.5707816,2.4527402,0.0,0.00082298275,0.0038664294,0.00084163935,0.00015701278,-8.110001e-05,0.15322891,0.19153613,-8.868123,0.7239871,47.698532,-0.038769282,-2.7864907,-2.535148,-0.4551155,0.12225461,0.029290602,26.0,26.75,25.875,28.9375,29.875,30.25
0.002054329,-0.43502155,-1.3943101,0.26142126,-0.0121928435,0.017811792,-0.0017719339,-0.3810694,-0.3485356,0.059980012,-3.0785537,0.6248653,-8.843497e-05,-0.00070283905,-0.0004226744,-0.0030835564,-0.0010678901,0.0016977907,8.039865e-05,0.47781014,-1.4259561,1.9577278,-2.1008847,-1.5707697,2.452752,0.0,0.0046010865,0.0042786254,-0.010878995,0.00015171844,-7.9900004e-05,0.1340753,0.13407528,-8.695741,0.7239871,47.683304,-0.057033017,-2.8634436,-2.4388688,-0.39072585,0.12920824,0.030648855,26.0,26.75,25.875,28.9375,29.875,30.25
0.004053984,-1.1596245,-1.3489387,0.1235242,-0.010150135,-0.0028596083,0.012544416,-0.38108048,-0.34854594,0.059963495,-3.078549,0.62490255,-0.00011425886,-0.0012914462,-0.00072732446,-0.0026971956,-0.0020814622,0.003656535,7.959513e-05,0.47781014,-1.4258965,1.957703,-2.1009085,-1.5707573,2.452776,0.0,0.004271145,0.0041749477,-0.012650811,0.00014676935,-7.8735044e-05,0.076614454,0.15322891,-8.619126,0.72622824,47.67614,-0.071680196,-3.130105,-2.647359,-0.30918592,0.116141796,0.021159906,26.0,26.75,25.875,28.9375,29.875,30.25
0.006053768,0.39871013,-0.15046503,0.25497848,-0.013898436,0.012663951,-0.008155745,-0.38107595,-0.34851918,0.05995408,-3.0785043,0.6248554,-9.685355e-05,-0.00062659814,-0.0003881964,-0.0014076107,-0.0015885487,0.0026762967,7.7551435e-05,0.4777981,-1.4259094,1.9577388,-2.1009066,-1.5708054,2.4527402,0.0,0.0016141982,0.0031739108,-0.0078957835,0.00016864314,-7.760352e-05,0.038307227,0.1340753,-8.6574335,0.7665104,47.651955,-0.035854075,-2.979782,-2.6145062,-0.33635896,0.117172144,0.02917918,26.0,26.75,25.875,28.9375,29.875,30.25
0.008053484,0.13127697,-0.09218994,-0.34418228,0.030779233,-0.024606716,0.00017458177,-0.38106182,-0.34853622,0.059934396,-3.0785,0.6249125,-0.00020364493,-8.332302e-05,-0.0001031819,-9.9317134e-05,-0.001234596,0.0020172175,7.5679796e-05,0.47781014,-1.4258624,1.9577273,-2.1008937,-1.5707573,2.4527884,0.0,-0.0009793125,0.002145373,-0.0035256867,0.00016521194,-7.6504046e-05,0.05746084,0.21068975,-8.848969,0.75755644,47.728977,-0.10805797,-2.8394854,-2.5914483,-0.3748033,0.13245972,0.036140986,26.0,26.75,25.875,28.9375,29.875,30.25
0.010054165,0.8292593,0.42715243,-0.6758507,0.027223587,-0.009490177,-0.007169323,-0.38104177,-0.34853247,0.05992731,-3.0785081,0.62483704,-0.00021708428,-0.00039235828,-0.00026276254,0.00028275652,-0.0010989519,0.00176546,8.143904e-05,0.47782207,-1.4258863,1.9577731,-2.1009047,-1.5707573,2.452752,0.0,-0.00054349337,0.0004161029,-0.0019462853,0.00016041657,-8.163e-05,0.019153614,0.17238252,-9.136273,0.6702794,47.699425,-0.29209527,-2.107254,-3.2873492,-0.3646176,0.09674515,0.017369576,26.0,26.75,25.875,28.9375,29.875,30.25
0.012054067,0.14590098,-0.6115786,-0.9192568,0.00387661,-0.002088859,-0.008056338,-0.3810427,-0.34853044,0.059906837,-3.078468,0.62492603,-0.0002877491,-0.0010829548,-0.00058440166,-0.0031846636,0.0022173794,-0.004642913,1.7524137e-05,0.4778101,-1.4258354,1.9577593,-2.1008933,-1.5707458,2.4528008,-7.215978e-05,0.009770263,-0.003630229,-0.0009980691,0.00015579541,-8.637902e-05,0.15322891,0.21068975,-9.308657,0.6948948,47.67793,-0.3603788,-1.9461341,-3.4330525,-0.34772032,0.09612885,0.00051972363,26.0,26.75,25.875,28.9375,29.875,30.25
0.014053905,-1.0337332,-1.4891617,-1.1331698,-0.02707002,0.008369701,0.006208702,-0.38103312,-0.34853417,0.05990537,-3.078458,0.6248092,-0.0003236517,-0.00515138,-0.0010510597,-0.0041827084,0.0032667138,-0.0066479947,-0.0029060068,0.47783303,-1.425819,1.957733,-2.1008446,-1.5707573,2.452752,-0.003001077,0.0198935,-0.013298601,0.0008101811,0.00012951877,-8.558868e-05,0.019153614,0.2681506,-9.385271,0.8023209,47.71823,-0.27905896,-2.865137,-3.1778626,-0.35744599,0.07715328,0.003026106,26.0,26.75,25.875,28.9375,29.875,30.25
0.016053487,-1.6365511,-2.531391,-1.0901572,-0.056446053,0.03872741,0.0037782285,-0.38105696,-0.34849676,0.059899203,-3.078394,0.6248746,-0.00035958723,-0.0051789475,4.129237e-05,-0.0038474887,0.0045486074,-0.009094245,-0.0048593157,0.47776026,-1.4257953,1.9577087,-2.100795,-1.5707816,2.4527283,-0.004963436,0.019446565,-0.014576126,0.00529642,0.00012296418,-9.49585e-05,-0.22984336,0.38307226,-9.5385,0.7866488,47.67793,-0.081825,-2.6538146,-3.3093286,-0.36429226,0.06436115,-0.0022332035,26.0,26.75,25.875,28.9375,29.875,30.25
0.018054144,-2.0436795,-2.896189,-1.4550588,-0.07706576,0.058681283,0.0027952872,-0.38103998,-0.34850377,0.059877113,-3.0783684,0.6248687,-0.00047138412,-0.004411136,1.5638145e-05,-0.0040541943,0.0055255443,-0.010915447,-0.0040872023,0.47777262,-1.4257473,1.9576963,-2.1007588,-1.5707573,2.4527402,-0.004190687,0.019676136,-0.01484448,0.0074017667,9.7206765e-05,-9.453116e-05,-0.24899697,0.57460845,-9.749189,0.800085,47.71823,-0.15171662,-2.331778,-3.4854155,-0.3979669,0.035055425,-0.0073551345,26.0,26.75,25.875,28.9375,29.875,30.25
0.020053871,-2.2630713,-3.335754,-1.5883508,-0.074726805,0.06451016,0.0067896214,-0.38104513,-0.34850463,0.059857827,-3.0783317,0.6248411,-0.0004914122,-0.0053359275,-0.0010866465,-0.0033235843,0.0048025753,-0.009480059,-0.0029484269,0.47778514,-1.425687,1.9576715,-2.1007583,-1.5707816,2.4527402,-0.0030733144,0.021035524,-0.018139502,0.0077303965,7.300976e-05,-0.0001140748,-0.40222588,0.6512228,-9.825804,0.6725152,47.703007,-0.30553174,-2.3174005,-3.554897,-0.3770694,0.020472556,-0.010062117,26.0,26.75,25.875,28.9375,29.875,30.25
0.022053687,-2.0367243,-2.8241844,-1.6156518,-0.08830878,0.07962777,-0.00015094773,-0.3810462,-0.34849602,0.059828915,-3.0782857,0.62485015,-0.0006058553,-0.006150815,-0.0014039078,-0.0031295149,0.0047138287,-0.008896598,-0.0016723936,0.477761,-1.4256145,1.9576467,-2.100722,-1.5707697,2.4527276,-0.0031383117,0.022344707,-0.020096585,0.007819843,-0.0001215723,-0.0014535254,-0.49799395,0.7086837,-9.825804,0.7597976,47.70032,-0.42158207,-2.2763057,-3.5196433,-0.37608916,0.009790769,-0.005609164,26.0,26.75,25.875,28.9375,29.875,30.25
0.024054281,-1.8067404,-2.7184029,-1.7396786,-0.07354775,0.07585462,-0.0070897266,-0.38107616,-0.34852272,0.059847746,-3.0783174,0.6248945,-0.0005594209,-0.007432527,-0.0014128332,-0.0027809606,0.004413336,-0.00807547,-0.0012436813,0.47777262,-1.4255782,1.9575623,-2.100722,-1.5707573,2.4527628,-0.004234779,0.023568373,-0.022319485,0.0079519255,-0.00023746803,-0.0029771836,-0.4213795,0.7469909,-9.844957,0.7217513,47.63404,-0.43886638,-2.3044221,-3.5521774,-0.35484338,0.0040973597,-0.0012453771,26.0,26.75,25.875,28.9375,29.875,30.25
0.026054217,-1.5661839,-2.4077675,-1.569622,-0.057272542,0.056198165,-0.0043161483,-0.3810768,-0.3485362,0.059847146,-3.0783172,0.62481755,-0.0005886213,-0.008865373,-0.0011906663,-0.002613836,0.0053703063,-0.007293591,-0.00058478344,0.47779626,-1.4255416,1.9575137,-2.1006858,-1.5707577,2.4527385,-0.005168753,0.02549179,-0.025012776,0.008471688,-0.0014522246,-0.0045659635,-0.40222588,0.6703765,-9.959879,0.7911258,47.664497,-0.44218087,-2.2791967,-3.554904,-0.36063543,-0.0046338933,-0.0028531277,26.0,26.75,25.875,28.9375,29.875,30.25
0.02805405,-1.2085187,-1.687042,-1.5984795,-0.052604932,0.05103275,-0.00876759,-0.3810986,-0.3485225,0.059817027,-3.0782707,0.62484735,-0.0006349143,-0.0101426495,-0.0011318406,-0.0025287303,0.0057098363,-0.0071571465,-0.0014331975,0.4777598,-1.4254571,1.9574889,-2.1006978,-1.5707701,2.4527266,-0.0062169475,0.027517991,-0.027670993,0.009139848,-0.0018213312,-0.004763362,-0.51714754,0.4405331,-9.864111,0.75084364,47.670765,-0.32839853,-2.246454,-3.5750406,-0.34571236,-0.02280844,0.02660476,26.0,26.75,25.875,28.9375,29.875,30.25
0.030053716,-1.424186,-1.4202635,-1.5379174,-0.028308121,0.03634234,-0.008613505,-0.38112488,-0.34854063,0.05981847,-3.078291,0.6248326,-0.00063243764,-0.010825302,-0.0012832527,-0.0027409072,0.006190297,-0.0076124044,-0.0021020707,0.47775987,-1.4253964,1.9574164,-2.1006978,-1.5707582,2.452715,-0.006438109,0.029569192,-0.029652972,0.009696745,-0.0020413087,-0.0043139937,-0.45968673,0.30645782,-9.864111,0.7396539,47.67614,-0.408324,-2.2676585,-3.5519166,-0.32806194,-0.063144594,0.0074352566,26.0,26.75,25.875,28.9375,29.875,30.25
0.032053426,-1.0482882,-0.5852787,-1.2761948,-0.021125413,0.052320775,-0.008259047,-0.38116255,-0.348567,0.059835117,-3.0783138,0.6248371,-0.0005874538,-0.012438136,-0.0018530671,-0.0020261111,0.0054545724,-0.0054340134,-0.0023253164,0.47777182,-1.425336,1.9573067,-2.1006854,-1.5707582,2.4527268,-0.0066880602,0.03095979,-0.032744657,0.009126394,-0.002397308,-0.004338143,-0.2873042,0.22984336,-9.768343,0.7665104,47.693153,-0.5081323,-2.2706072,-3.6136894,-0.31326348,-0.037527356,0.0041352552,26.0,26.75,25.875,28.9375,29.875,30.25
0.034053955,-1.1964039,-0.44948834,-1.1277342,-0.013930645,0.04671281,-0.023966553,-0.38123026,-0.3485415,0.059827115,-3.0782635,0.624981,-0.0005372086,-0.014759769,-0.0021496625,-0.0007124343,0.0047554485,-0.0032841775,-0.0034100767,0.47768727,-1.4252517,1.9572343,-2.1007092,-1.5707945,2.4527385,-0.008064464,0.03237592,-0.037651524,0.01038749,-0.0027731783,-0.0046265945,-0.17238252,0.05746084,-9.634268,0.71951014,47.71554,-0.45270425,-2.2642865,-3.4159312,-0.28555962,-0.05145552,-0.0055387244,26.0,26.75,25.875,28.9375,29.875,30.25
0.036053818,-0.71953106,-0.25912923,-1.0765558,0.0070681814,0.049522,-0.016534515,-0.38122165,-0.348548,0.05981687,-3.0782392,0.6249185,-0.000637706,-0.01548697,-0.0019943565,-0.00068574556,0.005706158,-0.0042582224,-0.0037819622,0.47769904,-1.425203,1.9571856,-2.1006367,-1.5707825,2.4527144,-0.008757077,0.034152728,-0.040215187,0.012477903,-0.0031708514,-0.004945115,-0.21068975,-0.019153614,-9.615114,0.71951014,47.66091,-0.47764385,-2.3064265,-3.4712377,-0.30839008,-0.0768355,0.011830718,26.0,26.75,25.875,28.9375,29.875,30.25
0.038054414,-0.81715095,-0.1617015,-1.173706,0.0079085,0.03255162,-0.026088648,-0.38125753,-0.34855318,0.05981291,-3.0782402,0.62491864,-0.0006365344,-0.016659461,-0.0024079278,-0.0004563199,0.005542389,-0.0034948497,-0.003978841,0.47767496,-1.4251306,1.9571122,-2.1006367,-1.5707825,2.4526904,-0.008970225,0.036050864,-0.042918667,0.012530721,-0.0033822057,-0.0049592867,-0.15322891,0.019153614,-9.5385,0.7396539,47.690468,-0.44240433,-2.2860513,-3.3804805,-0.30423895,-0.08985944,-0.0033354093,26.0,26.75,25.875,28.9375,29.875,30.25
0.040054187,-0.58191955,-0.440183,-1.0858291,0.0023983545,0.031127097,-0.028385652,-0.38129815,-0.34856734,0.059821263,-3.0782351,0.62497604,-0.0006229447,-0.01805078,-0.002662194,-0.00028548093,0.0054163183,-0.002545134,-0.0045606503,0.47766277,-1.425058,1.9570049,-2.1006129,-1.570783,2.4527147,-0.009591298,0.038083393,-0.045564376,0.012243678,-0.003713233,-0.0049961745,-0.076614454,0.019153614,-9.557653,0.7553206,47.701214,-0.48331454,-2.2937999,-3.475687,-0.30751348,-0.10718145,0.0007928498,26.0,26.75,25.875,28.9375,29.875,30.25
0.042053975,-0.75228655,-0.8524416,-1.2379586,-0.0031931854,0.026761975,-0.03211532,-0.38133705,-0.34857634,0.05982241,-3.078238,0.62495685,-0.00059574266,-0.019700672,-0.0027456046,0.0005973898,0.004861233,-0.00018492309,-0.0055665844,0.47765046,-1.4249859,1.95692,-2.1006129,-1.5707949,2.4526901,-0.010580487,0.038577117,-0.048071757,0.011908187,-0.0043114065,-0.0049768086,-0.095768064,0.076614454,-9.5385,0.73069996,47.6636,-0.4778004,-2.1683881,-3.420986,-0.28081363,-0.13360262,-0.008442033,26.0,26.75,25.875,28.9375,29.875,30.25
0.044054233,-0.83096313,-1.1978619,-1.1779674,-0.011866107,0.028977517,-0.037098657,-0.38141048,-0.34859228,0.05983966,-3.0782304,0.6250137,-0.000528079,-0.020457475,-0.0026890452,0.0003564115,0.006579374,-0.00073510077,-0.005715989,0.47762653,-1.4248773,1.9567512,-2.1005886,-1.5708193,2.4527028,-0.010552551,0.04105304,-0.05066741,0.01331076,-0.0055865026,-0.0047955588,-0.15322891,0.11492168,-9.576807,0.7777002,47.687782,-0.51136965,-2.2023404,-3.432508,-0.29709572,-0.12863174,-0.019946981,26.0,26.75,25.875,28.9375,29.875,30.25
0.046054114,-1.1493251,-1.910971,-1.3305329,-0.010800264,0.027131936,-0.033619918,-0.38142166,-0.34857526,0.05982662,-3.0781744,0.6250025,-0.00057705626,-0.02154345,-0.0021786874,-0.00031855944,0.008682008,-0.0018103545,-0.0065026837,0.47760206,-1.4248282,1.956714,-2.1005404,-1.570844,2.4526784,-0.01157136,0.04433831,-0.053122506,0.014406699,-0.006962913,-0.0050228573,-0.1340753,0.15322891,-9.576807,0.78888994,47.689575,-0.5233902,-2.240312,-3.3836818,-0.3133766,-0.13808142,-0.03706247,26.0,26.75,25.875,28.9375,29.875,30.25
0.04805412,-0.7705567,-1.3303007,-1.3764154,-0.030590711,0.044826627,-0.049108896,-0.38147542,-0.34860504,0.059852514,-3.0781927,0.6250837,-0.00057089527,-0.023092214,-0.0021923122,0.0016515447,0.0077873426,0.0015449394,-0.0074179075,0.47758967,-1.424745,1.9565462,-2.1004803,-1.5708202,2.4527144,-0.01248919,0.04258124,-0.055880543,0.01553349,-0.007713877,-0.005023169,-0.15322891,0.22984336,-9.519346,0.76874626,47.719128,-0.51101226,-2.1070592,-3.4201365,-0.32385623,-0.14073929,-0.029337265,26.0,26.75,25.875,28.9375,29.875,30.25
0.0500537,-0.9792195,-2.1636894,-1.5522503,-0.030310173,0.04133309,-0.0413925,-0.38150868,-0.34860888,0.059862703,-3.0781865,0.62500525,-0.00052034785,-0.023765698,-0.0017415757,0.0010720969,0.010759825,0.0015158037,-0.0072835456,0.47758982,-1.4246962,1.9564618,-2.100456,-1.5708574,2.4526665,-0.0122068,0.04507564,-0.057528704,0.016088821,-0.010342499,-0.0048685893,-0.11492168,0.38307226,-9.557653,0.7642693,47.674347,-0.5417199,-2.0389001,-3.4067028,-0.3225034,-0.13892472,-0.039971095,26.0,26.75,25.875,28.9375,29.875,30.25
0.052053694,-1.0533886,-2.1337812,-1.2781036,-0.04423342,0.044401567,-0.05593925,-0.38156447,-0.34860605,0.059865057,-3.0781593,0.62498105,-0.0005501281,-0.026457101,-0.0014122522,0.0019662485,0.012396731,0.0049443673,-0.008054267,0.4775415,-1.4245877,1.9563164,-2.1003845,-1.5708703,2.4526067,-0.013305449,0.047166266,-0.06197834,0.016165558,-0.013382024,-0.005187118,-0.038307227,0.40222588,-9.653421,0.6546126,47.65106,-0.57777417,-2.0808718,-3.4753795,-0.32585916,-0.08450095,-0.036607854,26.0,26.75,25.875,28.9375,29.875,30.25
0.054053605,-1.1738294,-2.0921803,-1.3910143,-0.059359975,0.0526678,-0.050086096,-0.38161275,-0.34859943,0.0598371,-3.0780852,0.6251003,-0.0006136817,-0.026793318,-0.0005188799,0.00019923168,0.01606018,0.0028768752,-0.008338044,0.47749335,-1.4244425,1.9562091,-2.1003602,-1.5708832,2.4526424,-0.013705829,0.051124346,-0.06247699,0.016233576,-0.015686998,-0.0052969647,-0.1340753,0.4405331,-9.595961,0.80456203,47.651955,-0.5867407,-2.101672,-3.353775,-0.33057112,-0.08880529,-0.04578796,26.0,26.75,25.875,28.9375,29.875,30.25
0.05605427,-0.92502,-2.316295,-1.1990476,-0.05778461,0.059604753,-0.06629819,-0.38166714,-0.3486029,0.059872877,-3.0780942,0.6251608,-0.00054332614,-0.027944677,-0.0004963685,0.0004887154,0.015852327,0.0031552985,-0.009724076,0.4774569,-1.424418,1.9560884,-2.100312,-1.5708951,2.4526427,-0.014842931,0.052434854,-0.06478306,0.016885584,-0.015633544,-0.0050476682,-0.24899697,0.51714754,-9.615114,0.75755644,47.64837,-0.5732959,-2.2452695,-3.5250592,-0.32132006,-0.07074848,-0.04864624,26.0,26.75,25.875,28.9375,29.875,30.25
0.058053795,-1.304271,-2.274669,-1.1068147,-0.06249237,0.04036349,-0.050599024,-0.38173312,-0.34861538,0.05988147,-3.0781083,0.62508583,-0.0004892419,-0.029488249,-0.0021588868,0.002504486,0.011410318,0.0057239793,-0.009316854,0.47743288,-1.4243104,1.9559435,-2.1003006,-1.570918,2.4525702,-0.015103787,0.05191972,-0.068869546,0.017153913,-0.012877135,-0.0057201055,-0.21068975,0.5746084,-9.500193,0.784413,47.711964,-0.5564304,-2.014041,-3.4274125,-0.32066888,-0.083289206,-0.047854245,26.0,26.75,25.875,28.9375,29.875,30.25
0.060053553,-1.2291696,-2.2095397,-1.2123034,-0.054089837,0.03423275,-0.062034834,-0.3817916,-0.34862855,0.059876934,-3.0780644,0.62511504,-0.0004442072,-0.031051427,-0.0032665683,0.0023267386,0.010285928,0.0055588996,-0.008812808,0.47743276,-1.4241773,1.955799,-2.1002882,-1.5709652,2.452594,-0.015273925,0.056033418,-0.07310827,0.016904505,-0.011812763,-0.0063937223,-0.2873042,0.53630114,-9.442732,0.7418897,47.684196,-0.46363097,-2.049922,-3.2505922,-0.32523614,-0.13379946,-0.05677032,26.0,26.75,25.875,28.9375,29.875,30.25
0.062054217,-1.4605799,-2.5943396,-1.1180636,-0.03642074,0.028660063,-0.065202296,-0.3818313,-0.34864706,0.05987547,-3.0780509,0.6251503,-0.0004865205,-0.030882878,-0.003672145,0.0012806406,0.010705029,0.003917764,-0.008286875,0.47742113,-1.4240686,1.9556674,-2.1002405,-1.5709532,2.4526062,-0.014644353,0.058603145,-0.073546804,0.016422106,-0.011433058,-0.0062898975,-0.24899697,0.5554548,-9.423578,0.7642693,47.66091,-0.5906559,-2.1329556,-3.4326448,-0.30717576,-0.1334939,-0.04568989,26.0,26.75,25.875,28.9375,29.875,30.25
0.06405424,-1.1017027,-1.8940884,-0.7858358,-0.042995863,0.042260565,-0.08257029,-0.38190448,-0.34865087,0.059871905,-3.0780249,0.6252798,-0.0004842382,-0.033372648,-0.003847925,0.002540801,0.011102872,0.007657191,-0.008759084,0.47736079,-1.4239364,1.955522,-2.1002285,-1.5709542,2.45263,-0.01527785,0.059982527,-0.07799338,0.01635751,-0.013514385,-0.0064442805,-0.22984336,0.47884035,-9.308656,0.7597976,47.66539,-0.58337456,-2.139274,-3.322115,-0.28011996,-0.11448823,-0.067791566,26.0,26.75,25.875,28.9375,29.875,30.25
0.06605378,-1.2104405,-1.8750784,-0.86765736,-0.02394648,0.05044527,-0.079373464,-0.3819651,-0.34867796,0.059902582,-3.0780454,0.62524545,-0.00042815812,-0.034739666,-0.003912146,0.002986287,0.012473658,0.009315299,-0.008319702,0.47736084,-1.4238517,1.9553417,-2.100169,-1.5709666,2.4526062,-0.01513826,0.06168072,-0.08107851,0.016908523,-0.015499075,-0.0067386664,-0.21068975,0.40222588,-9.32781,0.7866488,47.691364,-0.5940486,-2.0783873,-3.2224784,-0.25971872,-0.11234467,-0.062118012,26.0,26.75,25.875,28.9375,29.875,30.25
0.068053626,-1.0909214,-0.9727397,-0.6206921,-0.029053679,0.050751902,-0.08934058,-0.3820416,-0.34868196,0.05989968,-3.077988,0.6252522,-0.0003833728,-0.036053773,-0.0035285715,0.0027656776,0.0146300765,0.010185401,-0.008565873,0.47733673,-1.4236952,1.9551615,-2.1001327,-1.5710276,2.4525938,-0.015525728,0.06414315,-0.08341599,0.017009031,-0.017819129,-0.0068733147,-0.24899697,0.4405331,-9.289502,0.800085,47.711063,-0.5506531,-2.0817842,-3.2388928,-0.25711235,-0.10192274,-0.08296391,26.0,26.75,25.875,28.9375,29.875,30.25
0.070053466,-0.5788308,-1.2758646,-0.6712016,-0.018141655,0.058826976,-0.09259587,-0.38210854,-0.34869447,0.059904657,-3.0779955,0.62523466,-0.00031660052,-0.036859855,-0.004111672,0.0029140522,0.01374755,0.0098136775,-0.008316656,0.47731254,-1.4235868,1.9550289,-2.1001441,-1.5710515,2.4525578,-0.0158499,0.065964565,-0.08599584,0.017687902,-0.016868511,-0.0074478933,-0.11492168,0.38307226,-9.174581,0.7530795,47.707485,-0.6213978,-2.058374,-3.20613,-0.24993773,-0.07394026,-0.07846732,26.0,26.75,25.875,28.9375,29.875,30.25
0.07205408,-0.89842606,-1.3315576,-0.6327236,-0.012830253,0.022568868,-0.0933593,-0.382203,-0.34871054,0.059923355,-3.077972,0.62532544,-0.000238986,-0.03772852,-0.0052072504,0.0033124182,0.012152543,0.00951637,-0.008006163,0.47727656,-1.4234422,1.9548129,-2.100108,-1.5710868,2.4525816,-0.015708674,0.06800936,-0.0894663,0.018638384,-0.0153202,-0.0076190834,-0.1340753,0.30645782,-9.11712,0.8023209,47.71286,-0.58627546,-2.05358,-3.152112,-0.22721177,-0.089675374,-0.0776013,26.0,26.75,25.875,28.9375,29.875,30.25
0.07405345,-0.754519,-1.2407101,-0.50506884,-0.013284492,0.0018399473,-0.104332194,-0.38227752,-0.34871793,0.059927482,-3.0779521,0.6253795,-0.00022675896,-0.03870219,-0.0057311454,0.003296625,0.011711803,0.008845213,-0.009045262,0.47722852,-1.4233098,1.9546441,-2.1000721,-1.5710987,2.45257,-0.016125701,0.0705535,-0.09255777,0.0195764,-0.014624416,-0.0069967043,-0.1340753,0.28730422,-9.11712,0.7911258,47.71017,-0.62010425,-2.0044386,-3.1020937,-0.22452678,-0.12029855,-0.08811192,26.0,26.75,25.875,28.9375,29.875,30.25
0.07605464,-0.43192402,-0.899019,-0.5308174,-0.010505595,0.015714131,-0.11335576,-0.38235977,-0.34870937,0.059908893,-3.0778742,0.6253826,-0.00025505878,-0.039099053,-0.0057153753,0.0026586063,0.013417,0.0075674173,-0.008723329,0.47716853,-1.4231164,1.9544519,-2.1000116,-1.5711468,2.452522,-0.01591264,0.07330377,-0.094508395,0.020697081,-0.015554279,-0.007101542,-0.19153613,0.28730422,-9.059659,0.68146914,47.63673,-0.6903772,-2.21713,-3.087812,-0.19685319,-0.10652988,-0.109348685,26.0,26.75,25.875,28.9375,29.875,30.25
0.07805346,-0.49386874,-1.2815534,-0.5841287,-0.0023246983,0.022328325,-0.118021384,-0.3824515,-0.34875458,0.059960455,-3.0779536,0.62541795,-0.00012024323,-0.040307406,-0.005610302,0.0035997755,0.013327639,0.008781174,-0.008706269,0.47715625,-1.4230325,1.9542354,-2.0999992,-1.5711349,2.4525218,-0.01689872,0.07339626,-0.09707798,0.022056065,-0.016034393,-0.008104571,-0.15322891,0.17238252,-9.059659,0.7665104,47.704796,-0.63803005,-1.9634167,-3.0675378,-0.2153242,-0.072959945,-0.09300755,26.0,26.75,25.875,28.9375,29.875,30.25
0.08005424,-0.7923926,-1.1358173,-0.694784,-0.0020777374,0.021586718,-0.11578965,-0.3825379,-0.3487508,0.05995314,-3.0778704,0.62547743,-0.00010776015,-0.040670816,-0.0063419538,0.003383044,0.012847018,0.0074755303,-0.008105569,0.47710836,-1.4228513,1.9540313,-2.0999386,-1.5711945,2.4525218,-0.01659553,0.07574819,-0.09951396,0.023074104,-0.015011168,-0.008402197,-0.15322891,0.30645782,-9.078813,0.7486078,47.696735,-0.62110513,-2.055954,-3.1618767,-0.18345076,-0.09285898,-0.099204764,26.0,26.75,25.875,28.9375,29.875,30.25
0.08205386,-0.8793523,-0.89853275,-0.52592504,-0.015852932,0.0317312,-0.13278177,-0.38259935,-0.34878278,0.059968185,-3.0778773,0.6254399,-0.00011124979,-0.040467896,-0.0059200902,0.0016385112,0.0144539485,0.0033824865,-0.009541481,0.477108,-1.4227179,1.9538282,-2.0998666,-1.571194,2.4524972,-0.017450899,0.079463124,-0.1000546,0.02427238,-0.014557168,-0.007821939,-0.1340753,0.2681506,-9.193734,0.79560274,47.70032,-0.6434022,-2.2144935,-3.1962945,-0.19479045,-0.11383581,-0.11368991,26.0,26.75,25.875,28.9375,29.875,30.25
0.08405407,-1.1335043,-1.4717447,-0.7700819,-0.013975792,0.024811702,-0.12932992,-0.38269898,-0.348792,0.059983242,-3.0778778,0.62545896,-4.2855412e-05,-0.04245138,-0.0070544374,0.0030302478,0.012932186,0.005856529,-0.009268829,0.47704807,-1.4225733,1.9536232,-2.0998428,-1.5712184,2.4524493,-0.017396146,0.08099758,-0.10514875,0.024933575,-0.0143507775,-0.008038153,-0.15322891,0.30645782,-9.270349,0.82022345,47.666286,-0.64256924,-2.061997,-3.0827596,-0.171924,-0.09719276,-0.120267674,26.0,26.75,25.875,28.9375,29.875,30.25
0.08605362,-0.5747993,-1.2737039,-0.70104015,-0.02067431,0.034710355,-0.14152065,-0.38277096,-0.34879592,0.059956547,-3.0777829,0.6255158,-0.0001120444,-0.041111153,-0.006078796,0.00064634584,0.016128171,0.0013485206,-0.008911692,0.47701204,-1.4223561,1.9534196,-2.0997708,-1.5712546,2.452461,-0.017391661,0.0836545,-0.1028793,0.025481116,-0.015115049,-0.008388834,-0.095768064,0.28730422,-9.270349,0.7239871,47.647476,-0.6474446,-2.0510156,-3.2790046,-0.17732388,-0.105859146,-0.12475711,26.0,26.75,25.875,28.9375,29.875,30.25
0.088053636,-0.5111008,-1.8085638,-0.743525,-0.012612684,0.030317036,-0.14260393,-0.38284972,-0.34880123,0.05997352,-3.0777402,0.6256032,-9.91849e-06,-0.043885984,-0.00695136,0.001847074,0.014651603,0.0039705015,-0.009710355,0.4769877,-1.4222473,1.9532508,-2.099746,-1.5713147,2.4524968,-0.018462293,0.08631481,-0.10870789,0.025640756,-0.015019257,-0.008658255,-0.076614454,0.22984336,-9.346964,0.78888994,47.68062,-0.6028928,-2.1930468,-3.2393928,-0.16619843,-0.10440548,-0.13297887,26.0,26.75,25.875,28.9375,29.875,30.25
0.09005331,-1.201938,-1.7211493,-0.8607642,-0.015484049,0.009357178,-0.1385025,-0.38294527,-0.34881726,0.05996129,-3.0777097,0.62559706,-7.201598e-05,-0.04311663,-0.0064170407,0.00027507453,0.016824173,0.0010507363,-0.009489815,0.47692785,-1.422018,1.9530004,-2.0996745,-1.5713147,2.4524372,-0.018313233,0.08842905,-0.107646435,0.026057545,-0.015606508,-0.008728058,-0.095768064,0.34476504,-9.3661175,0.7239871,47.687782,-0.65945494,-2.095734,-3.4013274,-0.14858295,-0.09001216,-0.13562675,26.0,26.75,25.875,28.9375,29.875,30.25
0.09205428,-1.0639029,-1.9401374,-1.0625839,-0.011933194,0.013619689,-0.13992949,-0.38301426,-0.34882188,0.059946276,-3.0776253,0.62559897,-0.000112673624,-0.04391246,-0.0066853175,0.000550574,0.016535655,0.0011053974,-0.009271936,0.47690356,-1.4218255,1.9527954,-2.09959,-1.5713629,2.452425,-0.018714843,0.08966223,-0.10988956,0.026884397,-0.015379433,-0.0093458025,-0.11492168,0.3256114,-9.289502,0.76874626,47.682407,-0.57417226,-2.0859525,-3.3415334,-0.111374654,-0.12207885,-0.12920846,26.0,26.75,25.875,28.9375,29.875,30.25
0.09405343,-0.75860506,-1.4720148,-0.85025,-0.027022004,0.024563776,-0.15857652,-0.38311288,-0.34885314,0.059955414,-3.0776303,0.6255806,-2.0561507e-05,-0.044129916,-0.0062309494,0.00021215563,0.018034456,3.517633e-05,-0.010065967,0.4768914,-1.4216449,1.9525679,-2.0995896,-1.5713991,2.452401,-0.019173289,0.0908771,-0.11083106,0.028252626,-0.016218068,-0.00900878,-0.076614454,0.2681506,-9.385271,0.7665104,47.675243,-0.61316186,-2.0560715,-3.4780025,-0.1282416,-0.116051406,-0.14324038,26.0,26.75,25.875,28.9375,29.875,30.25
0.096054144,-0.78000396,-1.8283825,-1.0349091,-0.019512765,0.033834603,-0.1505158,-0.3832066,-0.34885734,0.059977755,-3.07757,0.6256831,2.4010991e-05,-0.043873996,-0.006365881,-0.00025020514,0.018771367,-0.0020268029,-0.00952271,0.47684363,-1.4215002,1.9523295,-2.0994937,-1.5714473,2.452425,-0.018882347,0.09245475,-0.11198767,0.029999308,-0.015925419,-0.009261219,-0.1340753,0.30645782,-9.404425,0.83813137,47.67345,-0.6651376,-1.9948212,-3.5314837,-0.10889426,-0.12320423,-0.1441239,26.0,26.75,25.875,28.9375,29.875,30.25
0.098054826,-1.3609166,-1.9698349,-1.0711467,-0.010214302,0.020344872,-0.14427105,-0.3833072,-0.34887567,0.05996819,-3.0775526,0.6256602,-1.9732466e-05,-0.04568975,-0.0068423776,0.00043809714,0.018824784,-0.000504151,-0.009548964,0.47678334,-1.4212712,1.9520758,-2.0994337,-1.5714473,2.4523528,-0.019214487,0.0946999,-0.116321206,0.030760912,-0.016680423,-0.009562589,-0.15322891,0.3256114,-9.461885,0.7978386,47.71823,-0.62525713,-2.0238411,-3.4448476,-0.10745551,-0.08733387,-0.1656109,26.0,26.75,25.875,28.9375,29.875,30.25
0.100053445,-0.6514494,-1.3317305,-0.8218481,-0.025835821,0.037160765,-0.15083548,-0.38337886,-0.34889308,0.059972152,-3.0775087,0.6256895,-3.2312983e-06,-0.04512186,-0.006250741,-0.0008291126,0.020149337,-0.0033883387,-0.009844519,0.4767712,-1.4211144,1.9518737,-2.099373,-1.571483,2.4523647,-0.019833792,0.096287556,-0.11540776,0.031428844,-0.016530655,-0.00988677,0.019153614,0.3256114,-9.385271,0.7038487,47.678825,-0.6602474,-1.9180152,-3.666356,-0.09288751,-0.12541293,-0.16216707,26.0,26.75,25.875,28.9375,29.875,30.25
0.10205407,-0.5962756,-1.7479646,-0.914624,-0.023764769,0.038098674,-0.14506969,-0.38347706,-0.3489284,0.05997118,-3.077508,0.6257469,-1.4334049e-05,-0.047271688,-0.007419264,0.0011407312,0.017887225,-0.00023680492,-0.009809129,0.47673517,-1.4208983,1.9516205,-2.0993373,-1.5714706,2.4523647,-0.020094953,0.09679208,-0.120727286,0.032402936,-0.01597681,-0.010182062,0.019153614,0.30645782,-9.404425,0.7418897,47.67345,-0.6943418,-1.9251158,-3.4804482,-0.053309437,-0.12239268,-0.16881843,26.0,26.75,25.875,28.9375,29.875,30.25
0.104054265,-0.6763067,-1.202208,-1.0541593,-0.02981327,0.029056955,-0.14306854,-0.38359547,-0.34892052,0.059966482,-3.0774279,0.62582594,1.3633046e-05,-0.04763894,-0.0077482793,-6.884798e-06,0.019298054,-0.0028595119,-0.008876735,0.4766513,-1.42068,1.9513677,-2.0992773,-1.5715312,2.4523406,-0.019807031,0.10111841,-0.12336984,0.033694502,-0.016031232,-0.010824298,-0.114921674,0.30645782,-9.423578,0.83589023,47.694946,-0.6781504,-2.1242347,-3.5576992,-0.06203015,-0.13396293,-0.18094373,26.0,26.75,25.875,28.9375,29.875,30.25
0.10605358,-0.4563917,-1.2485243,-1.2095587,-0.029470367,0.031079002,-0.14933628,-0.38368937,-0.34895167,0.05998214,-3.0774143,0.6257838,9.069191e-05,-0.049377766,-0.008277701,0.0024077033,0.017674426,0.0010533641,-0.008969207,0.47665113,-1.4205009,1.951116,-2.099229,-1.5715793,2.452316,-0.020232895,0.09934462,-0.12718154,0.03505879,-0.016388878,-0.011155995,-0.17238252,0.30645782,-9.442732,0.83589023,47.690468,-0.6870837,-1.8075867,-3.491658,-0.0639254,-0.13412264,-0.17999202,26.0,26.75,25.875,28.9375,29.875,30.25
0.10805339,-0.72106355,-1.4944994,-1.313622,-0.014936629,0.024035467,-0.13186915,-0.38374776,-0.3489704,0.059956785,-3.0773609,0.62579226,-6.7201516e-05,-0.049420603,-0.008163958,0.0004947292,0.02070088,-0.002436487,-0.009050895,0.47661534,-1.4202827,1.9508995,-2.0991209,-1.571556,2.4522924,-0.019766396,0.104506835,-0.12900312,0.036211707,-0.017479314,-0.01060205,-0.1340753,0.3256114,-9.461885,0.8023209,47.711964,-0.72902143,-2.0040402,-3.504437,-0.039045475,-0.14075541,-0.18873045,26.0,26.75,25.875,28.9375,29.875,30.25
0.11005404,-0.9254987,-1.959474,-1.3546385,-0.0103926845,0.024864709,-0.13005117,-0.38388288,-0.34897864,0.059994955,-3.077307,0.6258388,8.5183914e-05,-0.05039295,-0.0086325,0.0022585734,0.019299814,-0.0003006742,-0.009097059,0.47656718,-1.4201032,1.9505876,-2.0990365,-1.5716513,2.4522805,-0.019991135,0.10305838,-0.1317697,0.037883215,-0.017216425,-0.010781271,-0.1340753,0.38307226,-9.576807,0.7463667,47.655537,-0.70861876,-1.6887026,-3.579739,-0.05366093,-0.14948966,-0.19471185,26.0,26.75,25.875,28.9375,29.875,30.25
0.11205365,-0.5795971,-1.6237375,-1.1643957,-0.030106207,0.04553805,-0.13644664,-0.38395575,-0.34900507,0.059974276,-3.0772367,0.6258631,-9.308506e-06,-0.050877333,-0.008089212,0.0013267782,0.021503141,-0.0026972832,-0.009929858,0.47655484,-1.4198617,1.9503363,-2.0989397,-1.5716637,2.4522924,-0.020840118,0.10621766,-0.13372128,0.039818585,-0.01807571,-0.010792907,-0.11492168,0.40222588,-9.5385,0.76874626,47.71286,-0.73766613,-1.8198211,-3.5496466,-0.065760754,-0.14529283,-0.18990609,26.0,26.75,25.875,28.9375,29.875,30.25
0.11405414,-1.2897111,-1.9835924,-1.273483,-0.03235673,0.03626285,-0.12918828,-0.3840762,-0.34903425,0.06000832,-3.0772471,0.62582594,8.557185e-05,-0.052587293,-0.008933971,0.0021888723,0.020568445,-4.8192258e-05,-0.009981882,0.47651905,-1.4196811,1.9500355,-2.0988681,-1.5717,2.4522324,-0.020655232,0.1077125,-0.13724971,0.03907013,-0.018469315,-0.010553903,-0.095768064,0.38307226,-9.634268,0.7665104,47.65643,-0.78752893,-1.756058,-3.547977,-0.048080176,-0.14583269,-0.19442223,26.0,26.75,25.875,28.9375,29.875,30.25
0.11605367,-1.1528721,-2.0155058,-1.25053,-0.044241685,0.043661453,-0.13754584,-0.38417232,-0.34902602,0.059996076,-3.0771291,0.62591666,1.4883005e-05,-0.053974055,-0.009629004,0.0026886861,0.02009098,0.0013837288,-0.009879798,0.47644714,-1.4194522,1.9497713,-2.0987365,-1.5717481,2.4522324,-0.020534772,0.10962327,-0.14058787,0.039005175,-0.018710783,-0.010531267,-0.11492168,0.3256114,-9.672575,0.7486078,47.67345,-0.796253,-1.756668,-3.4827847,-0.009250164,-0.17269617,-0.19892657,26.0,26.75,25.875,28.9375,29.875,30.25
0.11805359,-0.57506573,-1.819646,-1.2543266,-0.047388203,0.05180412,-0.14683111,-0.38428047,-0.34907094,0.06000326,-3.077145,0.6258626,5.2816427e-05,-0.05549495,-0.010149862,0.0028182312,0.020220319,0.0010175242,-0.010571696,0.4764348,-1.4192227,1.9494838,-2.0987003,-1.57176,2.4521844,-0.021037316,0.113000736,-0.14512947,0.04055375,-0.0186637,-0.010340003,-0.076614454,0.34476504,-9.615114,0.800085,47.719128,-0.795058,-1.7880366,-3.5397277,-0.03663012,-0.15500423,-0.20808825,26.0,26.75,25.875,28.9375,29.875,30.25
0.12005408,-1.1583011,-1.994957,-1.345883,-0.033591304,0.02695696,-0.12852679,-0.38440704,-0.34906292,0.060009472,-3.077074,0.62592506,0.0001207353,-0.055861652,-0.010250378,0.0007254761,0.022185976,-0.0025069448,-0.010682439,0.47635078,-1.4190165,1.9492196,-2.0986402,-1.5718321,2.4521487,-0.021099724,0.11881602,-0.14707033,0.040711027,-0.018798936,-0.010289509,-0.11492168,0.3256114,-9.634268,0.78888994,47.67345,-0.7947031,-1.9002619,-3.381205,-0.02057817,-0.16790351,-0.22502142,26.0,26.75,25.875,28.9375,29.875,30.25
0.12205383,-0.9664119,-1.5014204,-1.2686296,-0.034609117,0.025118588,-0.14036739,-0.38452652,-0.3491003,0.06002965,-3.0770578,0.6259203,0.00011768002,-0.05702798,-0.010866505,0.002426966,0.021428723,-0.00031841837,-0.01005,0.476315,-1.4187765,1.948871,-2.0985196,-1.5718445,2.4521122,-0.020855762,0.11825042,-0.15078564,0.042699758,-0.01913378,-0.010675661,-0.19153613,0.34476504,-9.691729,0.80456203,47.68599,-0.8738306,-1.9123726,-3.1971478,-0.00863663,-0.1705744,-0.23945649,26.0,26.75,25.875,28.9375,29.875,30.25
0.12405403,-1.003082,-1.861272,-1.2874086,-0.024325205,0.023702422,-0.12816218,-0.38464937,-0.34913942,0.060047437,-3.0770543,0.62603503,0.00018392324,-0.057300728,-0.010761095,0.000361633,0.024411956,-0.0037113118,-0.009493872,0.476279,-1.4185582,1.948572,-2.0984838,-1.5718564,2.4521484,-0.02057787,0.12394019,-0.15276892,0.04337916,-0.02023229,-0.010950507,-0.15322891,0.40222588,-9.672575,0.7665104,47.689575,-0.913315,-2.0465884,-3.3093483,-0.0008647437,-0.16501755,-0.23258361,26.0,26.75,25.875,28.9375,29.875,30.25
0.12605388,-1.0471541,-2.3163245,-1.2797931,-0.022304546,0.032724313,-0.12563533,-0.38476953,-0.34913462,0.06004344,-3.076959,0.62607217,0.000196207,-0.058799632,-0.011155962,0.0015389848,0.023399893,-0.0010003129,-0.009360145,0.4762069,-1.418318,1.948284,-2.098388,-1.5719289,2.452112,-0.021015884,0.12393228,-0.15542795,0.04317108,-0.020583896,-0.011519163,-0.17238252,0.49799395,-9.557653,0.8247004,47.679718,-0.87944144,-1.9289939,-3.3214984,0.021776471,-0.1708732,-0.23625171,26.0,26.75,25.875,28.9375,29.875,30.25
0.12805352,-1.469419,-2.6013544,-1.2148503,-0.039083295,0.03272539,-0.12960537,-0.38487786,-0.34916678,0.06006133,-3.0769296,0.62602764,0.00023978416,-0.058639128,-0.011280245,0.0009109816,0.024250314,-0.004583023,-0.009121916,0.4761947,-1.4181008,1.9479722,-2.0982912,-1.5719761,2.452076,-0.021218797,0.12656009,-0.15778041,0.04646506,-0.019695422,-0.011961464,-0.19153613,0.45968673,-9.519346,0.8672237,47.737934,-0.97609615,-1.9836105,-3.313663,0.000115697796,-0.19752994,-0.2170762,26.0,26.75,25.875,28.9375,29.875,30.25
0.13005367,-1.0822973,-2.5566661,-1.146398,-0.05162627,0.04668806,-0.121844485,-0.38499364,-0.34919786,0.06005897,-3.076874,0.6260541,0.00020362373,-0.059324265,-0.011700585,0.0016564636,0.024604827,-0.004974493,-0.008926247,0.47615895,-1.4178241,1.9476355,-2.0981824,-1.5720004,2.452064,-0.021007925,0.12770545,-0.16153768,0.049586937,-0.019833088,-0.011943592,-0.2681506,0.49799395,-9.481039,0.77545905,47.695843,-1.0165985,-1.9918599,-3.4491653,-0.026113749,-0.1992343,-0.23833549,26.0,26.75,25.875,28.9375,29.875,30.25
0.13205437,-1.8140563,-2.874688,-0.7417735,-0.04758887,0.031693827,-0.11557,-0.3851335,-0.349246,0.060078207,-3.0768657,0.6260513,0.00030651427,-0.058712892,-0.011267308,0.0003901426,0.027024148,-0.008517775,-0.008601022,0.47614694,-1.4175591,1.9472765,-2.0981338,-1.572049,2.4520516,-0.020870633,0.13021035,-0.162069,0.051872257,-0.020354914,-0.012131011,-0.2681506,0.47884035,-9.423578,0.784413,47.692257,-0.994331,-1.8202348,-3.362492,-0.042295545,-0.19765827,-0.23987141,26.0,26.75,25.875,28.9375,29.875,30.25
0.13405384,-1.4014547,-2.056739,-0.7900998,-0.03789442,0.027003245,-0.12159287,-0.3852685,-0.34926206,0.06008807,-3.0768292,0.6260449,0.00032280677,-0.059425067,-0.011012147,0.00043488987,0.027637525,-0.009409614,-0.009609618,0.47607452,-1.4173062,1.9469417,-2.098037,-1.5720848,2.45198,-0.021872062,0.13160361,-0.16421397,0.053696387,-0.020493409,-0.012122336,-0.22984336,0.36391866,-9.385271,0.8247004,47.699425,-1.0028487,-1.9552697,-3.435361,-0.06290902,-0.21107474,-0.24798395,26.0,26.75,25.875,28.9375,29.875,30.25
0.1360542,-0.56731004,-1.494317,-0.52028364,-0.016330168,0.033427905,-0.12901352,-0.38536322,-0.34929144,0.060073577,-3.0767357,0.6261016,0.00025417775,-0.05996738,-0.010952081,-0.00021842931,0.028962344,-0.011344692,-0.009533477,0.47606248,-1.4170289,1.9466294,-2.0979173,-1.5721205,2.4520156,-0.022281976,0.13465208,-0.16664095,0.05540163,-0.020787187,-0.012604643,-0.15322891,0.30645782,-9.232041,0.7597976,47.703903,-1.069291,-1.7924025,-3.5194325,-0.07743959,-0.22160167,-0.24321666,26.0,26.75,25.875,28.9375,29.875,30.25
0.13805377,-0.48860034,-0.89744985,-0.29299715,-0.0045259246,0.026966453,-0.13314159,-0.3855153,-0.34931618,0.060099345,-3.0767136,0.62613577,0.0003156166,-0.059932977,-0.010665168,-0.0014679936,0.031402934,-0.01456054,-0.00944363,0.47599038,-1.4167755,1.9462575,-2.09782,-1.5721573,2.451968,-0.022296334,0.13819477,-0.168378,0.05757313,-0.021483185,-0.012706627,-0.11492168,0.21068975,-9.136273,0.86498255,47.717335,-1.0935411,-1.6841159,-3.4953914,-0.075555235,-0.21388975,-0.24482654,26.0,26.75,25.875,28.875,29.875,30.25
0.14005369,-0.27895027,0.12314924,-0.018530406,0.013187348,0.0065017887,-0.13375904,-0.3856353,-0.3493476,0.060094483,-3.0766819,0.6261091,0.00036148436,-0.061003562,-0.011232259,0.0007894667,0.029507589,-0.012138362,-0.009251721,0.47596624,-1.4165121,1.945958,-2.0977838,-1.5722045,2.4519315,-0.02263511,0.13608813,-0.17169209,0.05996843,-0.020911152,-0.013237939,-0.038307227,0.13407528,-8.829816,0.8247004,47.703007,-1.0959369,-1.727717,-3.484431,-0.109067164,-0.24702813,-0.24126987,26.0,26.75,25.875,28.875,29.875,30.25
0.14205348,-0.15108696,0.055950366,-0.09470226,0.035871517,-0.005633205,-0.12675035,-0.38580042,-0.34937245,0.06011814,-3.076645,0.6262161,0.00042166014,-0.061205555,-0.011147736,-0.00066095096,0.031075269,-0.016086686,-0.009571193,0.4758821,-1.4162338,1.9455622,-2.097687,-1.5722407,2.451919,-0.023221817,0.14052476,-0.1739832,0.062046584,-0.020498011,-0.013505238,0.019153614,0.095768064,-8.925584,0.8314132,47.661808,-1.1452329,-1.9401731,-3.4973826,-0.12248193,-0.27109045,-0.26800525,26.0,26.75,25.875,28.875,29.875,30.25
0.14405383,-0.21368107,-0.11794703,0.19182405,0.042946994,-0.013846652,-0.13042915,-0.38590464,-0.34938163,0.06010537,-3.0765269,0.6262685,0.0003354961,-0.06256041,-0.010733121,-0.00052358466,0.032814827,-0.016771404,-0.010400205,0.4758338,-1.415957,1.945238,-2.0975306,-1.5722889,2.4519188,-0.024386698,0.14303052,-0.1778323,0.064797774,-0.021735853,-0.013834029,-0.05746084,0.038307227,-8.791509,0.7866488,47.684196,-1.1660749,-1.7222891,-3.5568552,-0.14758849,-0.25646195,-0.2604229,26.0,26.75,25.875,28.875,29.875,30.25
0.146054,0.12410455,0.11578512,0.06773155,0.025498204,0.00018742422,-0.132587,-0.3860418,-0.34940764,0.060122393,-3.0764809,0.6262594,0.0003645601,-0.062229723,-0.009894395,-0.001373034,0.035308294,-0.019761933,-0.011220609,0.4757854,-1.4156922,1.9448675,-2.09741,-1.5723375,2.451871,-0.025009567,0.14465393,-0.17841764,0.0675619,-0.022578947,-0.013634033,-0.038307227,0.038307227,-8.695741,0.89631605,47.69763,-1.0851147,-1.7771208,-3.5169048,-0.19640315,-0.25290647,-0.25391746,26.0,26.75,25.875,28.875,29.875,30.25
0.14805353,-0.32367763,-0.5628576,-0.107909165,0.024313128,0.00873855,-0.1350534,-0.3861377,-0.34941286,0.060092866,-3.0763297,0.62628484,0.00020457189,-0.063404135,-0.010768076,-0.00069093803,0.035350773,-0.01956604,-0.010373296,0.47573772,-1.4153789,1.9445313,-2.0972178,-1.5723857,2.4518588,-0.024446838,0.14699754,-0.18323281,0.06987707,-0.022715766,-0.013912216,-0.038307227,0.11492168,-8.676587,0.8784135,47.763012,-1.1940637,-1.790644,-3.4222698,-0.24660006,-0.2844513,-0.26836324,26.0,26.75,25.875,28.875,29.875,30.25
0.15005419,-0.87315774,-1.2229406,-0.062173907,0.013074333,0.015995909,-0.12628643,-0.3862537,-0.34942633,0.060096845,-3.0762346,0.6262463,0.00018704757,-0.06481772,-0.011118201,1.8063043e-05,0.034937594,-0.018495167,-0.0105190035,0.47570166,-1.4151143,1.9441828,-2.0970619,-1.5724577,2.451811,-0.025028396,0.14834265,-0.18664005,0.07079588,-0.022846913,-0.014344442,-0.1340753,0.15322891,-8.829816,0.70608455,47.711063,-1.201234,-1.7352703,-3.3340774,-0.28773576,-0.3054176,-0.25800884,26.0,26.75,25.875,28.875,29.875,30.25
0.15205377,-1.2271783,-0.84073365,-0.21913946,-0.019128203,0.025803661,-0.12701055,-0.3863952,-0.34945074,0.060109977,-3.0761628,0.62624913,0.00019967346,-0.06589013,-0.012112402,-0.00037064115,0.03488933,-0.01843935,-0.009454236,0.47565386,-1.4148245,1.943787,-2.0969183,-1.5725178,2.4517746,-0.024250269,0.15208636,-0.1899897,0.070327595,-0.022840373,-0.014628026,-0.17238252,0.19153613,-9.002198,0.8023209,47.71286,-1.2130524,-1.85498,-3.2109127,-0.30563924,-0.29916584,-0.27333808,26.0,26.75,25.875,28.875,29.875,30.25
0.15405427,-1.2224312,-1.7598299,-0.7133346,-0.017698871,0.03611063,-0.1302201,-0.38651863,-0.3494729,0.060104843,-3.0760307,0.6262609,0.00019027607,-0.06716189,-0.012406301,-0.0011479539,0.03512263,-0.018380206,-0.009686719,0.47564164,-1.414511,1.9434031,-2.0967634,-1.5726136,2.451787,-0.02473147,0.15571535,-0.19209722,0.06885911,-0.023084817,-0.014872335,-0.24899697,0.3256114,-9.174581,0.82022345,47.688675,-1.2762864,-1.5823247,-3.2787223,-0.3204794,-0.31445754,-0.26561832,26.0,26.75,25.875,28.875,29.875,30.25
0.15605414,-1.8995109,-2.7195992,-0.7708926,-0.039962523,0.041884433,-0.117730536,-0.38665095,-0.34949595,0.060100462,-3.07596,0.62630457,0.000100361925,-0.06963351,-0.0121981725,0.00023149175,0.033756785,-0.013881883,-0.011568574,0.47556883,-1.4141991,1.9430193,-2.0966089,-1.5726255,2.4517508,-0.026785973,0.15524216,-0.19430529,0.06691682,-0.023943206,-0.015039258,-0.24899697,0.45968673,-9.251195,0.8806493,47.684196,-1.188903,-1.648433,-3.3824906,-0.30676755,-0.31706175,-0.2824775,26.0,26.75,25.875,28.875,29.875,30.25
0.1580539,-2.153209,-3.2611547,-1.0946054,-0.063178934,0.052812755,-0.11872711,-0.38677573,-0.34951782,0.060093064,-3.0758772,0.62630635,2.0126565e-06,-0.0707191,-0.012808794,-0.00018699931,0.033486463,-0.013715036,-0.011308548,0.4755089,-1.4138856,1.9426373,-2.096441,-1.5726498,2.4517028,-0.026787518,0.1583182,-0.19672194,0.06598248,-0.023790242,-0.0152972005,-0.49799395,0.61291564,-9.423578,0.90527004,47.719128,-1.2074686,-1.6543674,-3.3846188,-0.3381167,-0.340479,-0.26347396,26.0,26.75,25.875,28.875,29.875,30.25
0.16005369,-2.0630934,-3.4958112,-1.1655419,-0.0752528,0.06849422,-0.12236306,-0.38694778,-0.34955078,0.06010528,-3.0758402,0.6262984,7.78566e-05,-0.07338408,-0.013702199,0.00020864383,0.031290025,-0.008588044,-0.011700106,0.47544873,-1.4135605,1.9422168,-2.0963595,-1.5727104,2.4516428,-0.027363654,0.16045612,-0.19887707,0.060434744,-0.024203476,-0.015478588,-0.51714754,0.6895301,-9.615114,0.80456203,47.72719,-1.2512138,-1.7290318,-3.3745904,-0.28598574,-0.31993067,-0.2702353,26.0,26.75,25.875,28.875,29.875,30.25
0.16205427,-2.4685504,-3.8839893,-1.4612212,-0.08351889,0.06820357,-0.11196346,-0.38706756,-0.34956613,0.060091175,-3.075704,0.6263097,-1.8980637e-07,-0.07589918,-0.01390513,0.0006463735,0.030069398,-0.005202642,-0.013743076,0.47541222,-1.4132353,1.9418343,-2.0961812,-1.5727819,2.451631,-0.028981922,0.16241716,-0.2015292,0.057557877,-0.024682073,-0.015047441,-0.49799395,0.7086837,-9.691729,0.8112748,47.731667,-1.1952708,-1.6430789,-3.4190316,-0.2601313,-0.3458032,-0.28815538,26.0,26.75,25.875,28.875,29.875,30.25
0.1640542,-2.4996033,-3.4621317,-1.6399554,-0.074667744,0.06308487,-0.11307726,-0.38722146,-0.34959805,0.0600766,-3.075644,0.6264122,-7.7256154e-05,-0.07621251,-0.01375893,0.000624427,0.029820167,-0.0052713137,-0.014376056,0.47532785,-1.412875,1.9414281,-2.096073,-1.5727819,2.4516187,-0.029664963,0.16265917,-0.20180859,0.057539195,-0.024432303,-0.015096721,-0.5554548,0.57460845,-9.787497,0.7911258,47.681515,-1.153197,-1.6066546,-3.526434,-0.23383972,-0.35919952,-0.28633863,26.0,26.75,25.875,28.875,29.875,30.25
0.16605383,-2.1073287,-2.8441782,-1.7849694,-0.06276493,0.06714307,-0.119920686,-0.3873812,-0.34963176,0.060096137,-3.0756104,0.62642306,1.1569031e-05,-0.07830653,-0.015102218,0.0005861595,0.02833723,-0.002775602,-0.01370327,0.47528,-1.4125851,1.9410309,-2.0959904,-1.572842,2.4515822,-0.02929893,0.16651614,-0.20551881,0.054491453,-0.02427186,-0.015401786,-0.45968673,0.5746084,-9.710882,0.87393653,47.677036,-1.2100924,-1.7405479,-3.6723163,-0.21558326,-0.37895662,-0.31798446,26.0,26.75,25.875,28.875,29.875,30.25
0.16805355,-1.7639937,-2.2364511,-1.5664283,-0.053638265,0.069098204,-0.12782523,-0.38752845,-0.34966144,0.060058005,-3.0754962,0.6263989,-3.8275284e-05,-0.07959711,-0.015343066,-0.000926313,0.029206993,-0.0026667416,-0.013364888,0.47524402,-1.4121752,1.9406241,-2.0958955,-1.572914,2.4515462,-0.029502742,0.17127392,-0.20691809,0.051433984,-0.025108261,-0.015936995,-0.40222588,0.45968673,-9.710882,0.88960326,47.71823,-1.1992307,-1.8532445,-3.683381,-0.14216599,-0.38798147,-0.30405763,26.0,26.75,25.875,28.875,29.875,30.25
0.17005342,-1.2934514,-1.6894244,-1.440749,-0.03941045,0.05989965,-0.12879993,-0.38769805,-0.34969038,0.06008494,-3.0754504,0.6265056,3.61441e-05,-0.07984617,-0.014609795,-0.00201061,0.031141695,-0.0050192787,-0.014770831,0.4751715,-1.4118861,1.940205,-2.0957878,-1.5729626,2.4515464,-0.030587424,0.17380872,-0.20768039,0.052639045,-0.02575144,-0.015613692,-0.28730422,0.30645782,-9.80665,0.83589023,47.689575,-1.2085382,-1.8293285,-3.6940587,-0.10517509,-0.40351325,-0.29866764,26.0,26.75,25.875,28.875,29.875,30.25
0.17205402,-1.5812583,-1.8380347,-1.7853751,-0.016432779,0.030305246,-0.118911475,-0.38788635,-0.34972495,0.06008421,-3.0754073,0.62651527,0.00010533076,-0.08123765,-0.014567519,-0.002797029,0.032098934,-0.005863385,-0.015497571,0.47509927,-1.4115123,1.939762,-2.0957277,-1.5730227,2.451486,-0.031605262,0.1778379,-0.21061058,0.05272683,-0.026224451,-0.015901567,-0.3256114,0.2681506,-9.653421,0.87617236,47.69763,-1.2103646,-1.9951537,-3.7997677,-0.08082439,-0.40581268,-0.30000126,26.0,26.75,25.875,28.875,29.875,30.25
0.17405383,-1.2249488,-1.2453797,-1.3329116,-0.023547588,0.03490756,-0.11878618,-0.38803154,-0.34975502,0.06007115,-3.0753264,0.62653786,7.846217e-05,-0.08359149,-0.01450098,-0.0019611549,0.03203446,-0.0038668076,-0.017080821,0.47505063,-1.4111636,1.9393653,-2.0956194,-1.5730709,2.4514623,-0.03329265,0.17971104,-0.21486728,0.053306296,-0.027090332,-0.015999114,-0.3256114,0.19153613,-9.653421,0.8806493,47.674347,-1.0751853,-2.0034437,-3.7431571,-0.055201106,-0.41402447,-0.31953537,26.0,26.75,25.875,28.875,29.875,30.25
0.1760538,-1.1019868,-1.532254,-1.2739946,-0.00061155594,0.0287853,-0.11052944,-0.38821417,-0.34977317,0.060082946,-3.0752537,0.62661856,0.000118853,-0.08417552,-0.014680751,-0.0022505024,0.03324302,-0.0047973157,-0.016693922,0.47495478,-1.4108262,1.9389218,-2.0954988,-1.573131,2.4514265,-0.03306444,0.18224357,-0.21752252,0.054807685,-0.027744167,-0.016153907,-0.24899697,0.1340753,-9.519346,0.8023209,47.651955,-1.1039126,-1.9801049,-3.625212,-0.018697849,-0.43011785,-0.31252557,26.0,26.75,25.875,28.875,29.875,30.25
0.17805453,-1.2013829,-0.8968407,-1.1412843,0.006250249,0.01966161,-0.11141005,-0.38840926,-0.34983796,0.06010913,-3.075265,0.6266582,0.00021478083,-0.08631677,-0.015293676,-0.00064144767,0.032387946,-0.0023807816,-0.016755342,0.47490665,-1.4104657,1.9384297,-2.0954268,-1.5731553,2.451402,-0.033687502,0.18328129,-0.2228516,0.056557138,-0.028097205,-0.016713768,-0.24899697,0.11492168,-9.404425,0.84484416,47.694946,-1.1831503,-2.0120828,-3.479282,-0.009808397,-0.4358068,-0.3203315,26.0,26.75,25.875,28.875,29.875,30.25
0.1800534,-0.5828347,-0.6505461,-1.1115632,0.007921114,0.037386313,-0.12551945,-0.38857275,-0.34987307,0.0600911,-3.075169,0.62669665,0.00019576143,-0.087297656,-0.01479701,-0.0010867065,0.034393795,-0.0033617436,-0.017867053,0.47485828,-1.4100683,1.9379877,-2.0953186,-1.5732158,2.4513903,-0.03457596,0.18601254,-0.22542202,0.058188982,-0.029435894,-0.01648296,-0.095768064,0.17238252,-9.32781,0.8157518,47.674347,-1.1453522,-2.0355291,-3.5009513,-0.0011663688,-0.42518824,-0.3216084,26.0,26.75,25.875,28.875,29.875,30.25
0.1820541,-0.41531777,-0.99125993,-1.0181755,0.013734206,0.0490066,-0.12699006,-0.38875005,-0.3498928,0.060088925,-3.0750709,0.62669414,0.00021744167,-0.08825691,-0.014412194,-0.0014511762,0.036736295,-0.0043971576,-0.018330121,0.47478604,-1.4096947,1.9375314,-2.095186,-1.5733007,2.4513295,-0.035067406,0.18894777,-0.22852933,0.060355175,-0.031049926,-0.016502881,-0.095768064,0.22984336,-9.308657,0.8179876,47.690468,-1.0891361,-1.9623183,-3.423603,0.019080268,-0.42957836,-0.33926186,26.0,26.75,25.875,28.875,29.875,30.25
0.18405387,-1.0400858,-1.4845109,-0.96843207,-0.0012397507,0.044340387,-0.11964831,-0.38892135,-0.3499049,0.060097694,-3.0749533,0.626804,0.00018391611,-0.08847474,-0.013807611,-0.0013023609,0.039105278,-0.0053036683,-0.018200396,0.47469005,-1.4093463,1.9370655,-2.0949934,-1.5733608,2.4513175,-0.035215717,0.18962052,-0.23039968,0.063443355,-0.03274338,-0.016772289,-0.19153613,0.22984336,-9.32781,0.8560339,47.661808,-1.1422334,-1.9916314,-3.3857646,0.014198853,-0.42978752,-0.34374517,26.0,26.75,25.875,28.875,29.875,30.25
0.18605405,-1.0586009,-1.4530784,-0.7693663,-0.029383799,0.048654117,-0.122242354,-0.38909006,-0.34995338,0.060071394,-3.0749125,0.62679625,0.00013164795,-0.08786747,-0.012921673,-0.0016659216,0.041639563,-0.009729472,-0.01909037,0.47462973,-1.4089255,1.9366225,-2.0949194,-1.5733732,2.451258,-0.036055375,0.19071488,-0.23222591,0.06926884,-0.03296753,-0.016719561,-0.24899697,0.38307226,-9.32781,0.81351066,47.65643,-1.1028073,-1.8651109,-3.3952796,-0.027785854,-0.42187,-0.3396619,26.0,26.75,25.875,28.875,29.875,30.25
0.18805392,-1.1314744,-1.8227556,-0.7658768,-0.02592956,0.049360644,-0.12672707,-0.38932598,-0.3499745,0.06012136,-3.074836,0.6269336,0.0003064928,-0.08896695,-0.012908597,-0.0025219796,0.0431212,-0.01164967,-0.019337125,0.4745216,-1.4085758,1.9360718,-2.0947754,-1.573481,2.4512458,-0.036758922,0.19508651,-0.23572369,0.07077504,-0.03341517,-0.017174704,-0.3256114,0.2873042,-9.2703495,0.90750587,47.719128,-1.1823305,-1.8913267,-3.4945173,-0.03427399,-0.42630833,-0.34311104,26.0,26.75,25.875,28.875,29.875,30.25
0.19005358,-1.2281755,-2.0283294,-0.6501462,-0.011497721,0.042730942,-0.11740653,-0.3894692,-0.349999,0.06009578,-3.0747223,0.62690943,0.00023035817,-0.08918897,-0.012106075,-0.0018424445,0.04628073,-0.012837066,-0.019080598,0.4744735,-1.4081914,1.9356531,-2.0946305,-1.573542,2.4511976,-0.036899727,0.1952483,-0.23873499,0.07612881,-0.035681553,-0.017559713,-0.24899697,0.19153613,-9.232041,0.784413,47.685097,-1.1267833,-1.8217912,-3.4749842,-0.06442141,-0.41123492,-0.34293887,26.0,26.75,25.875,28.875,29.875,30.25
0.19205335,-0.85081834,-0.8115542,-0.5217256,-0.011926112,0.0339925,-0.13089561,-0.38966137,-0.3500267,0.06009581,-3.0745988,0.6269223,0.00029991567,-0.08934483,-0.010970574,-0.0011010008,0.04974391,-0.014670461,-0.019425105,0.4744252,-1.4077829,1.9351505,-2.0944965,-1.5736631,2.4511738,-0.037578937,0.19513273,-0.24180709,0.08253285,-0.03791956,-0.017884571,-0.24899697,0.30645782,-9.174581,0.80456203,47.68599,-1.0951084,-1.8292522,-3.5225182,-0.13802695,-0.38894463,-0.36002007,26.0,26.75,25.875,28.875,29.875,30.25
0.19405444,-0.96538955,-0.5290844,-0.41468358,0.012419439,0.022824055,-0.12650548,-0.38983068,-0.35004228,0.060074117,-3.0744596,0.62689304,0.00023135147,-0.09001995,-0.010053432,-0.0014196227,0.052050564,-0.015046947,-0.020198552,0.47435287,-1.4073619,1.9346722,-2.0943162,-1.5737475,2.4511015,-0.038569577,0.19643217,-0.2429234,0.08374027,-0.039804526,-0.018089583,-0.30645782,0.21068975,-9.155427,0.8224646,47.65912,-1.1291819,-1.7169893,-3.5229955,-0.16806525,-0.3504924,-0.34940937,26.0,26.75,25.875,28.875,29.875,30.25
0.19605413,-0.33348796,0.14394274,-0.35052386,0.011381795,0.03366524,-0.13524564,-0.3900299,-0.3500571,0.060079355,-3.0743544,0.62700605,0.0002534295,-0.090624236,-0.009605843,-0.001592141,0.053949345,-0.016504811,-0.020762146,0.47424453,-1.4069768,1.934182,-2.0941718,-1.57382,2.4510777,-0.03921404,0.198431,-0.2455348,0.0865149,-0.04083218,-0.018164009,-0.21068975,0.1340753,-9.078813,0.842603,47.65912,-1.0634146,-1.6596988,-3.5160718,-0.2062155,-0.3380149,-0.3466447,26.0,26.75,25.875,28.875,29.875,30.25
0.19805385,-0.6175516,-0.2118454,-0.40490034,0.007637188,0.02799995,-0.12643732,-0.39021406,-0.350089,0.060092174,-3.0742755,0.627143,0.00021227334,-0.09105729,-0.009916973,-0.002945201,0.05528808,-0.020346003,-0.020885376,0.4741485,-1.4066027,1.933679,-2.093991,-1.5738434,2.4510777,-0.03939086,0.20356376,-0.24898484,0.088854365,-0.04027633,-0.018215735,-0.15322891,0.22984336,-9.040505,0.9097417,47.677036,-1.0825511,-1.7953415,-3.5104835,-0.2425155,-0.3233863,-0.35759604,26.0,26.75,25.875,28.875,29.875,30.25
0.20005348,-0.7689008,-1.1384733,-0.33373815,0.009188566,0.026345504,-0.120722584,-0.3903912,-0.35008678,0.06007339,-3.0740767,0.6271382,0.0001893077,-0.09181635,-0.009838571,-0.0031805916,0.056028374,-0.021282349,-0.020867355,0.47407645,-1.4061816,1.9331883,-2.0937874,-1.5739878,2.4510288,-0.040038697,0.20572653,-0.2513279,0.090198874,-0.040516768,-0.018874176,-0.15322891,0.095768064,-9.021352,0.86498255,47.684196,-1.099014,-1.727036,-3.5149872,-0.26481372,-0.32179797,-0.36555374,26.0,26.75,25.875,28.875,29.875,30.25
0.20205413,-0.6108539,-1.1678877,-0.3525936,-0.02151737,0.04108451,-0.12655275,-0.3905702,-0.35013378,0.06006435,-3.0739954,0.62712115,0.00014786316,-0.09458376,-0.0096971,-0.0015444977,0.056862697,-0.016367093,-0.02045284,0.47402805,-1.405749,1.9326729,-2.093632,-1.574037,2.4509807,-0.040847395,0.20629382,-0.25576764,0.090082906,-0.043519415,-0.020080194,-0.1340753,0.1340753,-9.078813,0.8918391,47.677036,-1.0533575,-1.7888125,-3.4820678,-0.28556842,-0.292882,-0.34839547,26.0,26.75,25.875,28.875,29.875,30.25
0.20405386,-0.92860144,-1.2940454,-0.26060268,-0.029988952,0.040988944,-0.12279068,-0.39074475,-0.3501314,0.06003432,-3.0738096,0.6272165,3.7465743e-05,-0.09637761,-0.009149089,-0.0018078275,0.057273425,-0.015105566,-0.021580266,0.47391945,-1.4053161,1.9321941,-2.0934293,-1.5741209,2.450956,-0.04278586,0.20842884,-0.25738737,0.08862693,-0.04447732,-0.020879209,-0.095768064,0.22984336,-9.11712,0.9321212,47.666286,-0.9435072,-1.794893,-3.4180183,-0.31018338,-0.25688022,-0.34993744,26.0,26.75,25.875,28.875,29.875,30.25
0.20605338,-0.86705416,-1.3451548,-0.4099491,-0.029661408,0.04499484,-0.1190668,-0.3909734,-0.35014617,0.060052488,-3.0736868,0.6273247,8.308527e-05,-0.09727862,-0.01026941,-0.0023008147,0.057242334,-0.013106909,-0.020331088,0.47380006,-1.404894,1.9316205,-2.0932386,-1.5742172,2.4509206,-0.041029394,0.21136007,-0.25904197,0.0855555,-0.045376446,-0.020364782,-0.11492168,0.24899697,-9.232041,0.9186956,47.66987,-1.010598,-1.9636586,-3.5703554,-0.3114711,-0.23299068,-0.35840768,26.0,26.75,25.875,28.875,29.875,30.25
0.20805414,-0.9996222,-1.948529,-0.5034872,-0.022185335,0.04280665,-0.118425086,-0.39116538,-0.35016727,0.06005672,-3.0735674,0.62729895,0.00014327698,-0.09902961,-0.011247163,-0.001866248,0.055334814,-0.009494034,-0.020464744,0.47374013,-1.4044975,1.9311165,-2.0930846,-1.5743374,2.4508605,-0.040896844,0.21281482,-0.26098207,0.081951365,-0.045342304,-0.02009509,-0.15322891,0.2681506,-9.212888,0.90750587,47.698532,-1.1344055,-1.8027265,-3.4156387,-0.2477542,-0.18603775,-0.33976412,26.0,26.75,25.875,28.875,29.875,30.25
0.21005388,-1.190279,-1.7608941,-0.74877673,-0.027172804,0.03500916,-0.11374895,-0.39134917,-0.35017875,0.06003514,-3.073409,0.6273632,0.00010303741,-0.10253468,-0.011921336,-0.0005440299,0.052485596,-0.004056829,-0.022447417,0.47365522,-1.4040647,1.9306263,-2.0929182,-1.5744332,2.4508367,-0.042872377,0.21443242,-0.26515055,0.078358196,-0.04530933,-0.02008061,-0.19153613,0.28730422,-9.193734,0.84708,47.668976,-0.9852737,-1.8710155,-3.486618,-0.21919979,-0.17969729,-0.35418046,26.0,26.75,25.875,28.875,29.875,30.25
0.21205357,-0.7399347,-1.092854,-0.82167643,-0.047709014,0.037156172,-0.13460997,-0.39156848,-0.3502222,0.060035612,-3.0733404,0.6273858,0.0001276651,-0.10393501,-0.012323272,-0.0017156248,0.05270521,-0.0037239755,-0.022243705,0.47357148,-1.4036067,1.9300641,-2.092787,-1.5744933,2.4507763,-0.043170616,0.21879266,-0.2670169,0.075662695,-0.04567126,-0.02057796,-0.17238253,0.4405331,-9.385271,0.8605109,47.687782,-1.0532391,-1.9339962,-3.5225933,-0.16794428,-0.16801004,-0.35786796,26.0,26.75,25.875,28.875,29.875,30.25
0.21405357,-0.71095854,-2.2947376,-0.74497867,-0.056320626,0.048819184,-0.13197252,-0.39178064,-0.35022324,0.06003409,-3.073187,0.6274882,0.00014173891,-0.10582987,-0.012317813,-0.0013773679,0.051434837,-0.0018200477,-0.02252798,0.4734505,-1.4031854,1.9295386,-2.0926087,-1.574601,2.4507396,-0.04500562,0.22015113,-0.26909533,0.07409425,-0.04542649,-0.02212522,-0.34476504,0.51714754,-9.404425,0.9097417,47.716442,-0.9263716,-2.0174747,-3.5339346,-0.12402341,-0.14312589,-0.34346548,26.0,26.75,25.875,28.875,29.875,30.25
0.21605429,-1.6240425,-2.8889718,-1.1215608,-0.07314275,0.046745103,-0.12703085,-0.39196238,-0.35026813,0.060002666,-3.0730636,0.6274799,4.9994618e-05,-0.1062662,-0.013475067,-0.00095644797,0.05038964,-0.0007759462,-0.020388281,0.47340322,-1.4026926,1.9290003,-2.0924408,-1.5746611,2.4507036,-0.043634858,0.22115512,-0.2712682,0.073849194,-0.04498393,-0.02288971,-0.45968673,0.57460845,-9.385271,0.8672237,47.684196,-0.9765941,-1.9319506,-3.5774727,-0.0921164,-0.11428918,-0.31181324,26.0,26.75,25.875,28.875,29.875,30.25
0.21805437,-1.8418473,-3.150352,-1.14332,-0.0788498,0.048392072,-0.11192296,-0.39220363,-0.350289,0.060011525,-3.0729446,0.62760764,0.00010916428,-0.10566853,-0.013568389,-0.0014910867,0.050947532,-0.0043777917,-0.020618383,0.4732832,-1.4022354,1.9284137,-2.092284,-1.574757,2.4506793,-0.043624472,0.22275701,-0.2727538,0.07718242,-0.043836966,-0.022653136,-0.45968673,0.45968673,-9.5385,0.92093146,47.689575,-1.0733614,-2.0571618,-3.550297,-0.106425196,-0.11817583,-0.31113467,26.0,26.75,25.875,28.875,29.875,30.25
0.2200539,-1.7437303,-3.0563655,-1.1757227,-0.070719354,0.05440942,-0.12173914,-0.392384,-0.35031238,0.059997424,-3.0728133,0.6276199,9.8822115e-05,-0.10903326,-0.014341057,0.0001545198,0.04743305,-0.00023954186,-0.022907473,0.4732223,-1.4018146,1.9279221,-2.092129,-1.5748523,2.4506435,-0.046055675,0.22415335,-0.2778688,0.075605996,-0.042613547,-0.022794815,-0.34476507,0.40222588,-9.557653,0.8672237,47.66808,-0.9551264,-1.9734699,-3.597138,-0.052937075,-0.10447481,-0.32235014,26.0,26.75,25.875,28.875,29.875,30.25
0.22205396,-1.8333749,-2.142604,-1.1751249,-0.04956777,0.03472098,-0.1169566,-0.3926088,-0.35034734,0.059980236,-3.072728,0.62760174,0.0001030591,-0.10914401,-0.014793989,-0.0009933854,0.04658736,-0.0033600808,-0.022715505,0.47312602,-1.4013213,1.9273609,-2.0920088,-1.5749234,2.4505475,-0.046708193,0.22742945,-0.2792808,0.07611708,-0.04044685,-0.023646684,-0.36391866,0.30645782,-9.500193,0.87617236,47.653748,-0.9123504,-1.9337106,-3.6508503,-0.049575664,-0.11827623,-0.2961745,26.0,26.75,25.875,28.875,29.875,30.25
0.22405387,-1.5085657,-2.009712,-1.2832175,-0.012730383,0.031048892,-0.10859997,-0.39283285,-0.35038438,0.059978865,-3.0726268,0.627656,0.00013684585,-0.10980937,-0.015703993,-0.0006025246,0.045226634,-0.0042000175,-0.022197152,0.47304207,-1.400852,1.9267858,-2.0918648,-1.5750068,2.450511,-0.04669304,0.22917177,-0.28270832,0.07791672,-0.038860813,-0.024154713,-0.3256114,0.38307226,-9.5385,0.9030289,47.67345,-0.9468726,-1.9442097,-3.7241666,-0.036239497,-0.14330314,-0.29917884,26.0,26.75,25.875,28.875,29.875,30.25
0.22605419,-1.1301616,-0.8814778,-1.2641246,-0.016519437,0.032926958,-0.117165536,-0.39303213,-0.3503988,0.05995901,-3.0724905,0.62770414,7.191585e-05,-0.11088872,-0.015808016,-0.0010157997,0.044373818,-0.0040753866,-0.02323047,0.47293374,-1.4003952,1.9262594,-2.0916855,-1.5750788,2.450451,-0.04788344,0.23122095,-0.28395036,0.07660109,-0.038170006,-0.024310114,-0.24899697,0.30645782,-9.557653,0.8940802,47.668976,-0.88864696,-1.9309524,-3.7149992,0.023709873,-0.15151033,-0.28927925,26.0,26.75,25.875,28.875,29.875,30.25
0.22805393,-1.0317208,-0.9193476,-1.3420216,-0.0035494913,0.029536327,-0.120619036,-0.39327088,-0.35043377,0.05995453,-3.0723965,0.6277606,9.007923e-05,-0.11127604,-0.016040606,-0.001402414,0.044478387,-0.006573364,-0.022958146,0.47282553,-1.3999009,1.9256619,-2.091541,-1.5751504,2.4503906,-0.04844452,0.23381177,-0.28674674,0.079064846,-0.037132427,-0.025146084,-0.19153613,0.21068975,-9.5385,0.9701675,47.704796,-0.84873116,-2.0362134,-3.7208967,0.027569223,-0.14973849,-0.27902496,26.0,26.75,25.875,28.875,29.875,30.25
0.23005356,-0.99519473,-0.47513998,-1.1366554,-0.012064788,0.029261548,-0.12649314,-0.39350808,-0.35047972,0.059963018,-3.072304,0.6277979,0.00016604921,-0.11209816,-0.016546212,-0.00054612226,0.04437729,-0.00722696,-0.022545973,0.47275373,-1.3994205,1.9250506,-2.091396,-1.5752467,2.4503546,-0.04850894,0.23508552,-0.29110172,0.08267335,-0.036749836,-0.025622679,-0.17238252,0.076614454,-9.500193,0.8851263,47.666286,-0.8940253,-2.0572894,-3.6362147,0.039097317,-0.14556964,-0.24768913,26.0,26.75,25.875,28.875,29.875,30.25
0.2320542,-1.0343348,-1.0144058,-1.0520989,-0.0029986599,0.027017433,-0.11956894,-0.39372814,-0.35048848,0.059929904,-3.07215,0.6279384,7.176466e-05,-0.11250447,-0.016487414,-0.0007669787,0.04572765,-0.011083103,-0.02329592,0.47260922,-1.3989149,1.9244994,-2.0912268,-1.5753063,2.4503183,-0.04927912,0.23818891,-0.29553208,0.088039644,-0.03620111,-0.025639743,-0.19153613,0.076614454,-9.423578,0.8493211,47.692257,-0.7974321,-2.030865,-3.5987566,-0.010160809,-0.16602683,-0.22564423,26.0,26.75,25.875,28.875,29.875,30.25
0.23405418,-0.14537832,-0.42917714,-1.1680974,-0.0026466502,0.02871644,-0.1349775,-0.3939433,-0.3505317,0.059932485,-3.0720751,0.6279032,9.092441e-05,-0.111754656,-0.015562201,-0.0022812304,0.048968326,-0.017509082,-0.023670023,0.47253683,-1.3984573,1.9239248,-2.0910695,-1.5753778,2.4502342,-0.050213978,0.24161305,-0.29744023,0.09371327,-0.03615824,-0.026198898,-0.11492168,0.0,-9.557653,0.9186956,47.66271,-0.81056416,-2.0711195,-3.496314,-0.053341284,-0.16943681,-0.20999816,26.0,26.75,25.875,28.875,29.875,30.25
0.23605496,-0.5367037,-0.8225902,-1.0036892,0.008334132,0.009336189,-0.122038126,-0.3941953,-0.35055053,0.059942447,-3.071925,0.62806344,0.000103968385,-0.111568086,-0.01532896,-0.0020039808,0.05127199,-0.022404948,-0.023659432,0.47240478,-1.3979646,1.9232787,-2.0908506,-1.5754741,2.4502223,-0.050518792,0.24370228,-0.30249873,0.10208108,-0.035981324,-0.02651171,-0.1340753,0.0,-9.500193,0.94331104,47.65464,-0.77092516,-2.0751956,-3.4897122,-0.12641802,-0.15424898,-0.20189837,26.0,26.75,25.875,28.875,29.875,30.25
0.23805359,0.21324432,-0.46619886,-1.0235063,-0.0018312985,0.018045293,-0.13350683,-0.39439896,-0.35058978,0.059921063,-3.071811,0.62805706,-8.0718337e-07,-0.11253367,-0.015487987,-0.0022826937,0.052029032,-0.023681393,-0.02367508,0.4723207,-1.3974587,1.9226917,-2.090647,-1.5755218,2.4501495,-0.05100511,0.24676219,-0.30596608,0.10396355,-0.036086682,-0.02697589,-0.1340753,0.11492168,-9.346964,0.97464454,47.690468,-0.73413825,-2.1792142,-3.3020096,-0.15566374,-0.18980783,-0.18973783,26.0,26.75,25.875,28.875,29.875,30.25
0.24005425,-0.028694343,-0.6604468,-1.1620786,0.010446759,0.005159798,-0.11629939,-0.39461356,-0.35060042,0.05990184,-3.0716546,0.6281403,-6.037201e-05,-0.11167756,-0.014238588,-0.002980544,0.055136923,-0.029443245,-0.024788275,0.47220019,-1.3969778,1.922131,-2.0904524,-1.5756058,2.4501019,-0.052280247,0.24816081,-0.30764088,0.110777915,-0.036230706,-0.027133126,-0.1340753,0.21068975,-9.32781,0.9186956,47.679718,-0.7128806,-2.1624417,-3.4043074,-0.22808334,-0.19715872,-0.16749361,26.0,26.75,25.875,28.875,29.875,30.25
0.24205416,0.04009542,-1.005991,-1.152603,-0.001518163,0.0209615,-0.1264318,-0.3948337,-0.35065088,0.05991964,-3.0715442,0.6280779,-5.7120127e-05,-0.111805566,-0.013846136,-0.0039423653,0.056949306,-0.03147488,-0.025028102,0.47215217,-1.3964963,1.921472,-2.0902011,-1.5757025,2.4500299,-0.05260681,0.25063998,-0.30871612,0.11200546,-0.036925144,-0.027212853,-0.11492168,0.15322891,-9.423578,0.86498255,47.655537,-0.74443686,-2.2507007,-3.5308824,-0.29766002,-0.20946835,-0.16866642,26.0,26.75,25.875,28.875,29.875,30.25
0.24405415,-0.3787112,-1.5463437,-0.798192,-0.027929962,0.0432524,-0.12967099,-0.39507318,-0.35064918,0.059897795,-3.0713513,0.62819093,-0.00014449938,-0.11228807,-0.013501081,-0.003662205,0.057724163,-0.030622363,-0.025682224,0.471996,-1.3959677,1.9208511,-2.0899618,-1.5757989,2.44997,-0.052895065,0.25053835,-0.30944318,0.11242479,-0.03801443,-0.026835334,-0.095768064,0.19153613,-9.442732,0.8717007,47.65912,-0.6148237,-2.064889,-3.6894014,-0.3126853,-0.18557402,-0.15332896,26.0,26.75,25.875,28.875,29.875,30.25
0.24605384,-1.3412216,-1.9882457,-0.8790191,-0.04582535,0.044839855,-0.122501396,-0.39528462,-0.35069233,0.05988615,-3.0712383,0.6282242,-0.00023172438,-0.1140797,-0.01459101,-0.002400014,0.0550976,-0.026187444,-0.025303587,0.47191206,-1.3954638,1.9202408,-2.0897472,-1.5758466,2.449922,-0.052753985,0.25051,-0.31178254,0.10964157,-0.037711043,-0.02706938,-0.24899697,0.34476504,-9.385271,0.87617236,47.68062,-0.5644346,-1.9388146,-3.738998,-0.32118896,-0.1922844,-0.13636,26.0,26.75,25.875,28.875,29.875,30.25
0.24805355,-2.0456939,-2.38289,-0.9838498,-0.05613248,0.044758763,-0.1180581,-0.39551806,-0.3507244,0.05987837,-3.0711071,0.62829083,-0.00028116218,-0.11658222,-0.016841814,-0.00046787615,0.04992069,-0.019749692,-0.025098642,0.4718044,-1.3949468,1.9196066,-2.0895336,-1.5759181,2.4498737,-0.052083068,0.25060135,-0.31539991,0.105070725,-0.036049917,-0.026607629,-0.24899697,0.38307226,-9.423578,0.9567419,47.698532,-0.6657264,-1.8708498,-3.88955,-0.28270108,-0.23086292,-0.11399853,26.0,26.75,25.875,28.875,29.875,30.25
0.2500543,-1.8830539,-2.872205,-1.2410828,-0.05169418,0.06235533,-0.11904633,-0.39575097,-0.35074824,0.059882972,-3.0709794,0.6283811,-0.00031367262,-0.12104628,-0.017699284,0.0017708755,0.04517207,-0.011025679,-0.028699864,0.47168338,-1.3944663,1.9189838,-2.0893085,-1.5759901,2.4498262,-0.054678105,0.25072378,-0.3194098,0.09902737,-0.03580924,-0.025597535,-0.22984336,0.40222588,-9.481039,0.87393653,47.674347,-0.5862419,-1.6992598,-3.6679764,-0.23384143,-0.25320828,-0.10751614,26.0,26.75,25.875,28.875,29.875,30.25
0.252054,-1.5179855,-2.414552,-1.4140599,-0.0580553,0.06829517,-0.119483784,-0.39599702,-0.3507909,0.05988653,-3.070886,0.6284177,-0.00033137982,-0.12419966,-0.019590287,0.003754258,0.041669704,-0.0036523077,-0.028279603,0.47157583,-1.3939494,1.9183258,-2.0891063,-1.5760502,2.4497542,-0.05399571,0.2516174,-0.3241299,0.09469125,-0.03606281,-0.025329158,-0.28730422,0.4405331,-9.519346,0.9567419,47.70659,-0.555549,-1.8078408,-3.74994,-0.1743477,-0.25211373,-0.10917777,26.0,26.75,25.875,28.875,29.875,30.25
0.2540538,-1.442604,-2.7249477,-1.3782543,-0.051733684,0.066395186,-0.1169879,-0.3962545,-0.35083833,0.059901044,-3.070776,0.62848926,-0.00021611582,-0.12587875,-0.021724634,0.0038088025,0.040440537,-0.00075914414,-0.026345382,0.47150454,-1.393444,1.9176668,-2.0889518,-1.5761703,2.4497426,-0.051598564,0.25573218,-0.32854855,0.091857195,-0.036297634,-0.02486208,-0.24899697,0.45968673,-9.615114,1.0082139,47.67793,-0.7014948,-1.6826415,-3.5720282,-0.109824106,-0.2729479,-0.11454195,26.0,26.75,25.875,28.875,29.875,30.25
0.2560535,-1.7439623,-3.0396519,-1.7925779,-0.043407626,0.053441454,-0.11086465,-0.39650127,-0.3508556,0.05988999,-3.0706306,0.6285743,-0.00028385152,-0.12735575,-0.021325251,0.0025891773,0.042420257,-0.0012283152,-0.028284729,0.4713603,-1.3929136,1.9170202,-2.088724,-1.5762428,2.449671,-0.05256754,0.26018026,-0.33091775,0.09109959,-0.037856366,-0.023876466,-0.28730422,0.57460845,-9.615114,0.90527004,47.666286,-0.6240411,-1.8691342,-3.5566857,-0.078159794,-0.26767868,-0.09226914,26.0,26.75,25.875,28.875,29.875,30.25
0.2580542,-1.0920618,-2.5678022,-1.8330356,-0.032847364,0.04931583,-0.12610775,-0.39676252,-0.3509193,0.0599096,-3.0705907,0.62860477,-0.00020232084,-0.12844792,-0.021494815,0.0014186967,0.04244401,-0.003594429,-0.02934711,0.47127578,-1.3924075,1.9163507,-2.0885808,-1.5763024,2.4496112,-0.05386222,0.26474515,-0.3338157,0.091541916,-0.036810897,-0.024114324,-0.2681506,0.51714754,-9.787497,0.9164598,47.716442,-0.6227828,-1.9180889,-3.597014,-0.04535284,-0.29488137,-0.08067636,26.0,26.75,25.875,28.875,29.875,30.25
0.26005387,-1.4765787,-2.8500066,-1.7354776,-0.043456666,0.030863693,-0.11108744,-0.3970231,-0.35093528,0.059899554,-3.070427,0.6287604,-0.00021873789,-0.1268453,-0.021033766,-0.0007456575,0.044401996,-0.008436853,-0.029046448,0.471132,-1.3918663,1.9156941,-2.0883768,-1.5763983,2.4495866,-0.05346827,0.26701048,-0.33188123,0.0925371,-0.036356103,-0.024021521,-0.22984336,0.5363012,-9.998186,0.9365982,47.69763,-0.5901342,-2.1504424,-3.7901595,-0.025458593,-0.32919276,-0.080330536,26.0,26.75,25.875,28.875,29.875,30.25
0.2620536,-1.6934382,-3.631394,-1.5936593,-0.069760494,0.03761989,-0.10725451,-0.39730692,-0.35099006,0.05993056,-3.0703745,0.6288437,-0.00013747497,-0.12619053,-0.02172474,-0.0005087482,0.04661182,-0.0092139095,-0.026430175,0.47101304,-1.3913491,1.9149765,-2.0881956,-1.5764593,2.449527,-0.05061462,0.26790917,-0.33431962,0.09577372,-0.0379722,-0.023774274,-0.2681506,0.51714754,-9.825804,0.87617236,47.71823,-0.782668,-2.136248,-3.924057,-0.009100471,-0.33781958,-0.06949042,26.0,26.75,25.875,28.875,29.875,30.25
0.26405406,-1.1790699,-2.6609783,-1.3589088,-0.07731994,0.041134533,-0.11863047,-0.39755633,-0.35103154,0.05990836,-3.0702465,0.62891346,-0.00014752589,-0.12724337,-0.020848269,-0.00095584296,0.049079496,-0.010389517,-0.028839692,0.47091642,-1.3907841,1.9143299,-2.0880396,-1.5765437,2.4494913,-0.051971924,0.27047476,-0.33693835,0.09800089,-0.03963802,-0.022707773,-0.095768064,0.40222588,-9.825804,0.95002913,47.684196,-0.77869785,-2.014771,-3.848679,-0.013899578,-0.3269179,-0.07305358,26.0,26.75,25.875,28.875,29.875,30.25
0.26605374,-1.1371375,-2.726412,-1.2720375,-0.042445935,0.017806295,-0.10670672,-0.39781606,-0.35108143,0.05991514,-3.0701306,0.6289848,-0.00010528035,-0.12842833,-0.021118758,0.000112927795,0.049588103,-0.010766688,-0.030057551,0.4708325,-1.390243,1.9136366,-2.0878465,-1.5766395,2.4494677,-0.052332636,0.27188736,-0.34214553,0.102363095,-0.03992083,-0.021845577,0.0,0.40222588,-9.710882,0.89631605,47.687782,-0.7142861,-1.9691114,-3.8254619,-0.03410647,-0.33078346,-0.08241844,26.0,26.75,25.875,28.875,29.875,30.25
0.26805335,0.42128155,-0.93892604,-0.99434423,-0.027392855,0.013454077,-0.13051486,-0.3980798,-0.35114837,0.05993115,-3.0700872,0.6290516,-7.618606e-05,-0.12886052,-0.02179054,0.0011691299,0.05038316,-0.0118948845,-0.030079253,0.47073674,-1.3897142,1.9129413,-2.0876768,-1.5766753,2.4494197,-0.05138309,0.27309814,-0.34730005,0.10767498,-0.04011506,-0.020871483,0.038307227,0.3256114,-9.5385,0.9298854,47.698532,-0.80420816,-1.9531224,-3.6787238,-0.07479422,-0.33963537,-0.09848432,26.0,26.75,25.875,28.875,29.875,30.25
0.27005413,0.63953084,-0.2464157,-1.1925292,0.021190463,-0.031528894,-0.117898166,-0.39835197,-0.35120004,0.059942637,-3.0699737,0.62910384,-5.634683e-06,-0.12968186,-0.022195462,0.0024369755,0.051036686,-0.01249582,-0.030008337,0.4706529,-1.3891611,1.9122227,-2.0874836,-1.5767835,2.449384,-0.05116862,0.27401122,-0.3525617,0.11285202,-0.04042714,-0.020723386,0.1340753,0.21068975,-9.32781,0.8493211,47.684196,-0.8210213,-1.839818,-3.5435934,-0.10781038,-0.3622622,-0.097378686,26.0,26.75,25.875,28.875,29.875,30.25
0.27205417,1.0562599,0.53097457,-1.0520934,0.042836383,-0.050651357,-0.12279547,-0.3986161,-0.35124576,0.05994868,-3.0698814,0.62917894,-6.5096945e-05,-0.1294064,-0.021266581,0.0022424045,0.054119818,-0.015110134,-0.029443488,0.47052088,-1.3886082,1.9115056,-2.0872433,-1.5768203,2.4493115,-0.051489174,0.2748539,-0.35426208,0.117432095,-0.04199362,-0.021595644,0.076614454,0.22984336,-9.289502,0.82694155,47.682407,-0.8009806,-1.8194013,-3.5718586,-0.16589971,-0.36492,-0.08859709,26.0,26.75,25.875,28.875,29.875,30.25
0.27405393,0.92109877,0.5601044,-1.0128406,0.03450277,-0.038531855,-0.12760203,-0.39887226,-0.35126907,0.059936315,-3.069685,0.62919444,-7.746954e-05,-0.12990102,-0.021396035,0.002623345,0.05579334,-0.015545751,-0.029313128,0.4704251,-1.3880316,1.9107999,-2.08699,-1.5769647,2.449252,-0.050840877,0.27628374,-0.357639,0.12052708,-0.043291796,-0.021062989,0.15322891,0.15322891,-9.289502,0.92093146,47.690468,-0.94210565,-1.648016,-3.6071568,-0.1990794,-0.35853127,-0.07695667,26.0,26.75,25.875,28.875,29.875,30.25
0.27605352,0.2847009,-0.5462423,-0.94218266,0.012734798,-0.013072364,-0.12386413,-0.39912316,-0.3513112,0.059942715,-3.0695343,0.6292583,-0.00013335467,-0.12980671,-0.020232502,0.0006945792,0.060427338,-0.02008223,-0.030847877,0.47032884,-1.3874773,1.9100693,-2.086702,-1.5770491,2.449216,-0.051420815,0.2807438,-0.35937053,0.12395043,-0.045363802,-0.020088742,0.21068975,0.05746084,-9.346964,0.86945957,47.647476,-0.86293995,-1.768615,-3.4762516,-0.24914105,-0.34930867,-0.09265468,26.0,26.75,25.875,28.875,29.875,30.25
0.27805418,-1.0486711,-1.5698417,-0.93532693,-0.010981399,0.012813521,-0.114684194,-0.39937335,-0.35133904,0.059940834,-3.0693717,0.6293777,-0.0001905946,-0.13089775,-0.01991235,-0.0011136006,0.06329157,-0.021944711,-0.031641953,0.47020862,-1.3869345,1.9093765,-2.0864394,-1.5771335,2.4491923,-0.051807363,0.28636694,-0.36196938,0.12388622,-0.04708476,-0.019662697,0.0,-0.05746084,-9.385271,0.92764956,47.71823,-0.8991225,-2.0155582,-3.571041,-0.24523678,-0.341406,-0.109501004,26.0,26.75,25.875,28.875,29.875,30.25
0.28005445,-1.5871632,-2.0631368,-0.6154711,-0.04591985,0.058034405,-0.12050673,-0.39963245,-0.35139415,0.059939977,-3.0692558,0.6294476,-0.00023754225,-0.1328111,-0.020343,-0.00021370535,0.062211853,-0.017759372,-0.031388905,0.47011268,-1.3863581,1.908647,-2.086201,-1.5771941,2.4491558,-0.052105494,0.2867854,-0.36409706,0.12136939,-0.0480379,-0.020202389,0.05746084,0.019153614,-9.346964,0.89631605,47.711063,-0.8875472,-2.0554612,-3.5177503,-0.26526955,-0.3336041,-0.10719149,26.0,26.75,25.875,28.875,29.875,30.25
0.28205392,-1.9472936,-2.4962218,-0.63769174,-0.038675517,0.069343716,-0.119207375,-0.39994633,-0.35143957,0.059986018,-3.069145,0.62953913,-5.5931952e-05,-0.13515778,-0.02113008,0.0011515967,0.06004732,-0.011225212,-0.031585865,0.47000456,-1.3858169,1.9078573,-2.0859869,-1.5773386,2.44912,-0.05210258,0.28641012,-0.3658582,0.116697066,-0.0490851,-0.019996077,0.038307227,0.05746084,-9.461885,0.9030289,47.709274,-0.9111969,-2.085616,-3.601859,-0.23262854,-0.31650347,-0.10452062,26.0,26.75,25.875,28.875,29.875,30.25
0.28405362,-1.686878,-2.0598967,-0.7321076,-0.044306118,0.073485106,-0.12653805,-0.40021077,-0.35149267,0.059987042,-3.069016,0.62958884,-0.00010359894,-0.13895917,-0.022003248,0.002373941,0.059199534,-0.0032090808,-0.032341585,0.4699087,-1.3852284,1.9071034,-2.0857255,-1.577412,2.4490728,-0.05207911,0.28867972,-0.37025267,0.11130076,-0.05198238,-0.019189559,-0.1340753,0.21068975,-9.385271,0.91198283,47.66808,-0.9323303,-1.9076581,-3.554216,-0.14101961,-0.29109618,-0.11524087,26.0,26.75,25.875,28.875,29.875,30.25
0.28605413,-1.0374092,-0.9990105,-0.8195097,-0.035277296,0.04996629,-0.124894165,-0.40046793,-0.35153896,0.059980296,-3.0688756,0.629615,-6.492367e-05,-0.14078166,-0.022687405,0.0029473393,0.059147283,0.0014979938,-0.03143146,0.46983704,-1.3846632,1.9064106,-2.0855348,-1.5775322,2.4490366,-0.051144075,0.28993398,-0.3724408,0.10801598,-0.054082554,-0.019145517,-0.15322891,0.36391866,-9.308656,0.90527004,47.664497,-1.0441103,-1.7819058,-3.5671225,-0.073759735,-0.2764759,-0.13388108,26.0,26.75,25.875,28.875,29.875,30.25
0.2880538,-1.2366306,-1.5236473,-0.9589817,-0.00875039,0.016969174,-0.115195274,-0.4007563,-0.3515769,0.059984464,-3.068737,0.6296811,-3.6786692e-05,-0.14277698,-0.022300206,0.003153215,0.059104122,0.0026220132,-0.03393884,0.46971628,-1.3840742,1.9056562,-2.0853074,-1.5776409,2.448976,-0.05321093,0.29193035,-0.37540093,0.107954316,-0.054561302,-0.018697042,-0.24899697,0.45968673,-9.346964,0.9791215,47.70032,-0.96076113,-1.772781,-3.6356003,-0.031171866,-0.2726283,-0.14441234,26.0,26.75,25.875,28.875,29.875,30.25
0.2900542,-0.8239849,-1.7710471,-1.0841911,-0.022941016,0.0224631,-0.123224616,-0.40106055,-0.35161558,0.060011905,-3.0685878,0.6297443,0.000121189536,-0.14250208,-0.022007708,0.0029791808,0.06197394,0.0025658957,-0.032348197,0.46962073,-1.3835092,1.9048795,-2.0850914,-1.5778097,2.4489403,-0.051829528,0.29248723,-0.3761293,0.10947425,-0.05709671,-0.01888826,-0.45968673,0.57460845,-9.385271,0.91198283,47.682407,-0.9924354,-1.7363093,-3.7135305,-0.032036263,-0.23679927,-0.16223975,26.0,26.75,25.875,28.875,29.875,30.25
0.292054,-0.84479904,-2.22774,-1.0191377,-0.052178837,0.042693097,-0.12488515,-0.401338,-0.3516352,0.06000614,-3.0683985,0.6298367,0.00015506588,-0.1433625,-0.021944502,0.0027908515,0.06541904,0.0036163647,-0.030151166,0.46950135,-1.3829321,1.9041613,-2.0848634,-1.5779551,2.4489043,-0.05040856,0.2950564,-0.37908602,0.1104819,-0.06065755,-0.019632753,-0.4405331,0.5554548,-9.404425,0.91421866,47.683304,-1.2241148,-1.6954488,-3.6896162,-0.015759341,-0.17002952,-0.15568592,26.0,26.75,25.875,28.875,29.875,30.25
0.29405376,-1.971953,-2.9547088,-0.9333647,-0.07629592,0.04882287,-0.11982255,-0.40161777,-0.35170817,0.060027804,-3.0682826,0.62990814,0.0001975271,-0.1443934,-0.021466346,0.002793144,0.066676095,0.0022846654,-0.031627793,0.46944082,-1.3823426,1.9033598,-2.0846107,-1.578051,2.4489043,-0.051769204,0.29717097,-0.38239825,0.113433234,-0.0611783,-0.019509537,-0.38307226,0.4405331,-9.442732,0.97464454,47.670765,-1.0692781,-1.7356968,-3.7388248,-0.008372277,-0.12421425,-0.15921113,26.0,26.75,25.875,28.875,29.875,30.25
0.29605386,-1.8844402,-3.1812668,-0.87444687,-0.069355376,0.0730505,-0.12396729,-0.40188488,-0.35175824,0.060004495,-3.068136,0.6299154,0.00012367807,-0.14373673,-0.020724481,0.0023015186,0.06729125,-0.0027028406,-0.033419278,0.46934423,-1.3817054,1.9026068,-2.08437,-1.5781344,2.4488323,-0.05349079,0.29799628,-0.38355762,0.118480496,-0.059466697,-0.019444857,-0.45968673,0.38307226,-9.500193,0.9679317,47.67345,-1.0864961,-1.7384868,-3.7513828,-0.019291751,-0.13119285,-0.17038214,26.0,26.75,25.875,28.875,29.875,30.25
0.29805368,-1.5452025,-1.916352,-0.52237475,-0.07410169,0.08265742,-0.12977971,-0.40215716,-0.35179818,0.06000748,-3.067984,0.6299584,0.00014525614,-0.14351808,-0.021177894,0.0026259578,0.06807911,-0.0052119596,-0.032367602,0.4692485,-1.3811289,1.9018654,-2.0841286,-1.5782541,2.448784,-0.052738067,0.29930195,-0.38706252,0.12326218,-0.05903767,-0.019741686,-0.36391866,0.2873042,-9.3661175,0.9768804,47.672558,-1.0703536,-1.4778306,-3.7416463,-0.077016674,-0.11888563,-0.18642195,26.0,26.75,25.875,28.875,29.875,30.25
0.30005363,-1.462778,-1.2593966,-0.6148498,-0.029190293,0.051672652,-0.12849328,-0.4024864,-0.35184395,0.060011797,-3.067854,0.63008255,0.00020849658,-0.14200945,-0.022000464,0.0012489649,0.06988697,-0.012949696,-0.03044666,0.46910515,-1.3804781,1.9010404,-2.0839226,-1.5783614,2.4487362,-0.051117472,0.30380124,-0.39102414,0.13042395,-0.057151597,-0.020053,-0.3256114,0.15322891,-9.32781,0.95897776,47.693153,-1.2876015,-1.695138,-3.7096653,-0.14797117,-0.13722795,-0.17658836,26.0,26.75,25.875,28.875,29.875,30.25
0.30205366,-0.1426242,-0.6025341,-0.53122854,0.024110248,0.027787592,-0.12462963,-0.40278262,-0.35189337,0.060024258,-3.0676944,0.6301837,0.0002991744,-0.14249928,-0.021378633,9.972585e-05,0.070910014,-0.018032327,-0.032672968,0.4690202,-1.3798764,1.9002498,-2.0836942,-1.5785054,2.4487362,-0.0534322,0.30776116,-0.39418972,0.13461234,-0.055768944,-0.020148382,-0.21068975,0.11492168,-9.270349,1.0037369,47.703007,-1.1820585,-1.7495034,-3.6789398,-0.17421356,-0.12773979,-0.18094194,26.0,26.75,25.875,28.875,29.875,30.25
0.3040535,-0.29386532,0.31947643,-0.36497882,0.030890213,-0.013642218,-0.12634222,-0.4030823,-0.35194895,0.060019437,-3.0675678,0.6302704,0.00032392694,-0.14238645,-0.021563092,-0.00017103343,0.07046621,-0.021340935,-0.03358059,0.46891212,-1.3792391,1.8994612,-2.0834892,-1.5786003,2.4486997,-0.054141074,0.30940744,-0.3964571,0.1379711,-0.05388012,-0.019960394,-0.3256114,0.13407528,-9.059659,0.9567419,47.709274,-1.1519079,-1.88979,-3.6755385,-0.23272645,-0.13425763,-0.20453833,26.0,26.75,25.875,28.875,29.875,30.25
0.30605352,1.0012693,0.5017564,-0.32910866,0.034635898,-0.0055870907,-0.13949582,-0.40336636,-0.3519891,0.060026452,-3.0674062,0.630313,0.0002650008,-0.1444784,-0.022689834,5.955551e-05,0.06890719,-0.021230012,-0.034128297,0.4687917,-1.3786253,1.8986467,-2.0831664,-1.5786957,2.448628,-0.054805983,0.31355458,-0.40225583,0.13880527,-0.052559465,-0.020078588,-0.15322891,0.05746084,-9.021352,0.9768804,47.68599,-1.1634439,-1.8565052,-3.5483675,-0.24420807,-0.1500063,-0.2129099,26.0,26.75,25.875,28.875,29.875,30.25
0.30805427,0.3641695,-0.37501764,-0.071834914,0.019805172,-0.008461893,-0.13149552,-0.40363753,-0.35202804,0.06001802,-3.0672238,0.6303678,0.00023336215,-0.1464688,-0.02420509,0.0018452706,0.06543426,-0.016311124,-0.033077992,0.46869603,-1.3780127,1.8978795,-2.0828917,-1.5788158,2.4485915,-0.05442604,0.31326482,-0.40565264,0.1365187,-0.051707286,-0.020748138,-0.15322891,-0.038307227,-8.983045,1.0126908,47.71286,-1.1777892,-1.9194007,-3.517423,-0.21884072,-0.15410145,-0.19966328,26.0,26.75,25.875,28.875,29.875,30.25
0.31005412,-0.684493,-0.91785157,0.15486939,-0.023493605,0.016642401,-0.11806655,-0.40394485,-0.35208696,0.06003026,-3.0670571,0.63050437,0.00020194807,-0.14875925,-0.025359586,0.0024683606,0.06216424,-0.012365121,-0.033119004,0.46858764,-1.3773518,1.8969969,-2.0825698,-1.5789112,2.4485912,-0.055079956,0.31489813,-0.40831167,0.13253032,-0.050597843,-0.02136334,-0.22984336,0.038307227,-8.868123,0.91198283,47.693153,-1.1770108,-1.7733808,-3.4557652,-0.2147702,-0.16937843,-0.222617,26.0,26.75,25.875,28.875,29.875,30.25
0.31205386,-0.56398827,-1.386318,0.14262381,-0.049356844,0.05928666,-0.14004391,-0.4042607,-0.35211763,0.06002512,-3.0669005,0.63058585,0.00019838191,-0.15077895,-0.026098868,0.0028040537,0.059724934,-0.009965974,-0.033944026,0.4684313,-1.3767023,1.8961829,-2.082319,-1.579019,2.4485073,-0.056172,0.3168557,-0.41103363,0.13003644,-0.049526036,-0.021633321,-0.019153614,0.05746084,-8.868123,0.89631605,47.687782,-1.1659474,-1.713737,-3.4854,-0.14787422,-0.17608227,-0.23466866,26.0,26.75,25.875,28.875,29.875,30.25
0.31405354,-1.1982642,-2.1745899,-0.015569857,-0.04365462,0.05805743,-0.12416696,-0.40452316,-0.35215807,0.059981495,-3.0667028,0.63060033,2.8677096e-05,-0.153567,-0.027538735,0.004232559,0.05501761,-0.003705938,-0.03465663,0.46832317,-1.3760172,1.8954037,-2.082022,-1.5791024,2.4484353,-0.056919966,0.3171175,-0.41360345,0.12462131,-0.048178177,-0.02166852,-0.1340753,0.038307227,-8.983045,0.9567419,47.66091,-1.0650653,-1.6851748,-3.4741611,-0.08797634,-0.2183889,-0.22977987,26.0,26.75,25.875,28.875,29.875,30.25
0.3160534,-1.2085388,-2.0178294,0.03219699,-0.038567852,0.05914828,-0.12137847,-0.40484652,-0.35221437,0.060007777,-3.0665684,0.63072497,0.00017536648,-0.15392825,-0.027491072,0.003327706,0.05457408,-0.0044924477,-0.03538154,0.4682268,-1.3754042,1.8945688,-2.081807,-1.5792459,2.4484353,-0.057720296,0.31890973,-0.41353774,0.12325399,-0.047433637,-0.021750372,-0.3256114,0.24899697,-8.90643,0.9455522,47.67793,-1.1289649,-1.5955379,-3.6819706,-0.04405962,-0.22815764,-0.2475385,26.0,26.75,25.875,28.875,29.875,30.25
0.31805417,-1.0915941,-1.301112,-0.28526977,-0.033311494,0.03829913,-0.12596308,-0.4051089,-0.35228175,0.05995653,-3.0664182,0.6306717,-1.9976142e-05,-0.15543135,-0.028124114,0.002776825,0.054539595,-0.0047699115,-0.03520912,0.46814278,-1.3746816,1.8937663,-2.0815318,-1.5792936,2.4483387,-0.057981595,0.3230921,-0.41745207,0.123208925,-0.047296043,-0.022174288,-0.15322891,0.36391866,-9.021352,1.0283576,47.691364,-1.095411,-1.7322426,-3.6674924,0.0033452364,-0.24980113,-0.26026762,26.0,26.75,25.875,28.875,29.875,30.25
0.32005373,-0.3527201,-1.1806706,-0.47042227,-0.014417525,0.023119595,-0.1223257,-0.40544897,-0.3523383,0.059990406,-3.0662925,0.63089424,9.40261e-05,-0.15650202,-0.028435268,0.0029736054,0.053571075,-0.004594073,-0.035434905,0.46801051,-1.3740568,1.8928937,-2.0812924,-1.5794019,2.4483628,-0.058789376,0.32460096,-0.4199669,0.123604596,-0.046523258,-0.022762397,-0.17238252,0.38307226,-9.136273,0.9388393,47.687782,-1.0740627,-1.7898847,-3.6357574,0.003997041,-0.25643653,-0.25212842,26.0,26.75,25.875,28.875,29.875,30.25
0.32205412,-0.24681452,-1.2877293,-0.34196687,-0.017732648,0.010543753,-0.12483356,-0.4057518,-0.3523758,0.059964377,-3.066111,0.63097036,4.140006e-05,-0.15717462,-0.02825394,0.0019085576,0.055192437,-0.008052843,-0.03652999,0.46787813,-1.37337,1.8920807,-2.0810392,-1.5795101,2.448303,-0.059684195,0.32894346,-0.42359108,0.1266975,-0.0464165,-0.022555767,-0.28730422,0.3256114,-9.174581,0.9612189,47.68062,-1.0231601,-1.8111223,-3.6829798,0.012538821,-0.29114062,-0.25963342,26.0,26.75,25.875,28.875,29.875,30.25
0.32405385,-0.8254109,-1.9063067,-0.72105783,-0.014442134,-0.0021407811,-0.10993145,-0.40604725,-0.3524098,0.059949353,-3.0659325,0.6310081,-2.1697884e-05,-0.15721714,-0.027951982,0.0027082535,0.057143513,-0.011014662,-0.036908906,0.46774608,-1.3727096,1.8912653,-2.0807493,-1.5796179,2.448219,-0.059917506,0.32968926,-0.428118,0.13399646,-0.046821736,-0.022399634,-0.21068975,0.38307226,-9.040505,0.95897776,47.67345,-1.0615127,-1.9134302,-3.5404305,-0.011850241,-0.3126528,-0.27812096,26.0,26.75,25.875,28.875,29.875,30.25
0.32605344,-0.968414,-1.661811,-0.845939,-0.022183143,0.0010496682,-0.117817394,-0.4063633,-0.35245478,0.059969492,-3.0657363,0.6311192,2.0695795e-06,-0.15482746,-0.025896695,-0.00049267174,0.062806435,-0.023116024,-0.0382276,0.46763754,-1.3720596,1.8903712,-2.0804117,-1.5797619,2.448207,-0.06154876,0.3342867,-0.42850372,0.1431271,-0.04640941,-0.022711787,-0.36391866,0.4405331,-9.232041,0.9567419,47.675243,-0.9883739,-1.9074022,-3.6197863,-0.109410085,-0.34354937,-0.28465414,26.0,26.75,25.875,28.875,29.875,30.25
0.3280541,-0.60958076,-1.963436,-0.87773794,-0.030426446,0.036338598,-0.12751837,-0.40663922,-0.35253373,0.059939552,-3.065649,0.6311759,-0.00021012394,-0.15204975,-0.02431799,-0.0027983533,0.067452356,-0.032869946,-0.03846192,0.46751738,-1.3713623,1.8895468,-2.0801332,-1.5797375,2.4481344,-0.06193119,0.33635262,-0.42766827,0.15101962,-0.046151202,-0.022856288,-0.36391866,0.4405331,-9.346964,1.0641627,47.71017,-0.9468502,-1.937933,-3.8299012,-0.22046408,-0.36145943,-0.29372257,26.0,26.75,25.875,28.875,29.875,30.25
0.3300538,-1.4924495,-2.1985362,-0.79857385,-0.05222525,0.042875048,-0.12417292,-0.40693185,-0.3525777,0.059931863,-3.0654495,0.63128525,-0.00031466453,-0.15184896,-0.024695624,-0.002685195,0.06812652,-0.0350192,-0.037539214,0.46739772,-1.370689,1.8886851,-2.079785,-1.5798334,2.4481106,-0.061269723,0.3376298,-0.4304815,0.15476692,-0.04579491,-0.023112863,-0.2681506,0.36391866,-9.289502,0.9567419,47.691364,-1.0787481,-1.8603339,-3.9849877,-0.2817008,-0.3778072,-0.30453378,26.0,26.75,25.875,28.875,29.875,30.25
0.3320536,-1.3147626,-2.443568,-0.90057063,-0.039589904,0.055395316,-0.12224795,-0.4072641,-0.35263205,0.059935693,-3.0652804,0.6313441,-0.00031788278,-0.15501253,-0.025049435,-0.0009113862,0.06681928,-0.029335493,-0.038451016,0.4672773,-1.3699805,1.8877634,-2.0794752,-1.5799545,2.4480503,-0.062456,0.33821544,-0.43505818,0.15308936,-0.047213838,-0.023368498,-0.24899697,0.3256114,-9.385271,0.9254084,47.67345,-0.9741056,-1.8992331,-3.853567,-0.30659837,-0.40800548,-0.30499196,26.0,26.75,25.875,28.875,29.875,30.25
0.33405417,-1.851245,-2.0644271,-1.0125272,-0.037901048,0.047450636,-0.11531467,-0.407606,-0.35266984,0.05992852,-3.0650811,0.6315143,-0.00033788456,-0.16054325,-0.024583178,0.0009508483,0.0649057,-0.021141922,-0.0428386,0.4671198,-1.3692591,1.8868536,-2.0791771,-1.5800747,2.4480267,-0.06670678,0.34012514,-0.44083378,0.14877659,-0.04922809,-0.023205588,-0.30645782,0.30645782,-9.481039,1.0126908,47.67793,-0.78809214,-1.8108736,-3.7146277,-0.28689378,-0.42424926,-0.31762394,26.0,26.75,25.875,28.875,29.875,30.25
0.3360539,-1.6303742,-1.7232572,-1.0712926,-0.046252873,0.0544699,-0.12362873,-0.4079183,-0.3527316,0.059929658,-3.064969,0.6316217,-0.00042525821,-0.16314684,-0.027681952,0.0014086177,0.06148045,-0.014005758,-0.040091645,0.46697697,-1.3685845,1.88598,-2.0788805,-1.5801109,2.4479666,-0.06348447,0.34384578,-0.44483155,0.1411371,-0.049414333,-0.022721404,-0.22984336,0.24899697,-9.519346,1.005978,47.68599,-0.92018265,-1.8996415,-3.5844412,-0.20148984,-0.4147867,-0.32438397,26.0,26.75,25.875,28.875,29.875,30.25
0.3380537,-1.2872574,-1.523862,-1.1893183,-0.053124465,0.061257694,-0.1264954,-0.4082484,-0.35279173,0.05993551,-3.0648108,0.6317031,-0.00040007068,-0.16716945,-0.028321637,0.0024762864,0.058594607,-0.0055695837,-0.041510556,0.4668684,-1.3678875,1.8850716,-2.0785959,-1.5802315,2.4479308,-0.065025076,0.3452843,-0.44750577,0.13353615,-0.05066508,-0.022826426,-0.28730422,0.15322891,-9.615114,1.0462601,47.683304,-0.8451333,-1.9793198,-3.6595192,-0.10867287,-0.45056918,-0.3549705,26.0,26.75,25.875,28.875,29.875,30.25
0.34005433,-1.5035152,-1.8255488,-1.3701513,-0.03551254,0.060940906,-0.12110075,-0.40857077,-0.35283524,0.05991581,-3.0646546,0.63174593,-0.00044642913,-0.16824429,-0.026657145,0.00038419495,0.062060982,-0.0072133094,-0.043494653,0.46672362,-1.367178,1.884211,-2.0783327,-1.5803283,2.4478345,-0.06724265,0.34938723,-0.44762537,0.13257785,-0.05303262,-0.023031536,-0.4213795,0.17238252,-9.576807,0.9545008,47.691364,-0.79085827,-2.071093,-3.7976785,-0.060998105,-0.45116717,-0.35846996,26.0,26.75,25.875,28.875,29.875,30.25
0.34205404,-1.6160005,-1.3401526,-1.4178869,-0.03565217,0.06389166,-0.12474524,-0.4088606,-0.35288778,0.059888065,-3.0644763,0.6318213,-0.00055070873,-0.16823749,-0.02465538,-0.0019650708,0.06840722,-0.009961733,-0.043752547,0.46661535,-1.3664796,1.883376,-2.0780451,-1.5804137,2.447798,-0.06783218,0.35318822,-0.44724682,0.13371392,-0.057470415,-0.02331254,-0.4405331,0.19153613,-9.768343,0.94331104,47.664497,-0.6732936,-2.1701128,-3.9196548,0.0028148722,-0.4138034,-0.36412516,26.0,26.75,25.875,28.875,29.875,30.25
0.34405378,-1.4231608,-1.1779944,-1.2990892,-0.03538771,0.0786201,-0.123808324,-0.40925083,-0.35294163,0.059917737,-3.0643451,0.6319657,-0.00038882956,-0.16944167,-0.024315065,-0.0021579543,0.07003446,-0.009249607,-0.04446878,0.4664594,-1.36577,1.8824071,-2.0778058,-1.5805582,2.4477506,-0.06825481,0.35531363,-0.44963908,0.134074,-0.05925184,-0.023002228,-0.2681506,0.21068975,-9.864111,0.99702406,47.66271,-0.70279276,-2.3454523,-3.9908135,-0.0011199483,-0.40019542,-0.3885839,26.0,26.75,25.875,28.875,29.875,30.25
0.34605384,-2.2627156,-1.600426,-1.2204754,-0.022994863,0.062487576,-0.11283952,-0.40963092,-0.35299698,0.059945073,-3.0642219,0.6320727,-0.00022510538,-0.17214145,-0.024412865,-0.00091642386,0.071420416,-0.0061587524,-0.044572543,0.46631527,-1.365073,1.8814605,-2.0775774,-1.5807031,2.4476905,-0.06869042,0.3576824,-0.45589587,0.13581927,-0.061897002,-0.023307865,-0.38307226,0.15322891,-9.730036,0.97464454,47.658226,-0.66617244,-2.251603,-3.8750715,0.02377335,-0.39726973,-0.39961123,26.0,26.75,25.875,28.875,29.875,30.25
0.34805384,-1.3038195,-0.7062087,-1.3551568,0.007946634,0.06610612,-0.1254466,-0.40993115,-0.35305193,0.059909247,-3.0640383,0.63218564,-0.0003548938,-0.17301936,-0.023551604,-0.00034776426,0.07534591,-0.0065229638,-0.04431756,0.46619514,-1.3643396,1.8806003,-2.0772884,-1.5807766,2.4476664,-0.06876642,0.3589896,-0.460068,0.14077447,-0.06524845,-0.023595268,-0.40222588,0.17238252,-9.615114,1.0507371,47.71465,-0.61910033,-2.1573656,-3.844606,0.033926956,-0.36537468,-0.40665746,26.0,26.75,25.875,28.875,29.875,30.25
0.35005337,-1.3422997,-0.3798945,-1.5862951,0.027885528,0.043498967,-0.1215254,-0.41028816,-0.35308084,0.059924062,-3.0638092,0.63230723,-0.00023776475,-0.17188288,-0.022165809,0.00044862795,0.08008384,-0.010099916,-0.043377306,0.4660634,-1.3636435,1.8796667,-2.0769856,-1.5809816,2.4476423,-0.06844234,0.3576561,-0.46248937,0.14984429,-0.06786962,-0.024181947,-0.49799395,0.21068975,-9.710882,0.97240865,47.68062,-0.68163776,-2.0164056,-3.8132486,-0.02584285,-0.324966,-0.40542808,26.0,26.75,25.875,28.875,29.875,30.25
0.35205394,-0.97230464,-0.15078759,-1.5989522,0.030200386,0.033155054,-0.12652135,-0.41061252,-0.35314393,0.0599066,-3.0636497,0.6323662,-0.00031440114,-0.17007247,-0.020461377,-0.00014151409,0.08658732,-0.016317824,-0.041590318,0.4659437,-1.3628986,1.8787469,-2.0766833,-1.5810665,2.4475818,-0.06784417,0.3583001,-0.46424752,0.15942451,-0.070886254,-0.025332626,-0.4405331,0.19153613,-9.653421,0.9612189,47.687782,-0.7535769,-1.9306879,-3.9268281,-0.1352774,-0.2812326,-0.4071766,26.0,26.75,25.875,28.875,29.875,30.25
0.35405388,-1.0617381,-0.46882275,-1.5435014,0.030993478,0.019252898,-0.11687409,-0.41097376,-0.35316062,0.0599289,-3.0633945,0.63250154,-0.00024356306,-0.16886365,-0.0191016,-0.00084309245,0.0919804,-0.021920647,-0.041316096,0.4657876,-1.3622007,1.8777775,-2.0763094,-1.581271,2.4475455,-0.06760996,0.35988587,-0.4665386,0.16755027,-0.073185675,-0.025342243,-0.34476504,0.095768064,-9.730036,1.0126908,47.687782,-0.70142555,-1.9694345,-3.910151,-0.22856826,-0.25668475,-0.40475875,26.0,26.75,25.875,28.875,29.875,30.25
0.35605362,-1.043046,-0.5196186,-1.2476411,0.007486498,0.022236679,-0.11381438,-0.41130787,-0.35320964,0.059923775,-3.0632203,0.6325587,-0.00031974618,-0.17020126,-0.01846765,-0.0014086025,0.094937876,-0.022500746,-0.04138276,0.46564338,-1.3614676,1.8768328,-2.0759618,-1.5813679,2.4474614,-0.06827078,0.3633809,-0.4700693,0.16942222,-0.07558858,-0.025900807,-0.49799395,-0.019153614,-9.653421,1.0529729,47.670765,-0.83912873,-1.9516761,-4.013816,-0.29206178,-0.19798714,-0.42563093,26.0,26.75,25.875,28.875,29.875,30.25
0.35805422,-1.1480017,-1.283359,-1.3738054,-0.019943561,0.046172842,-0.12006629,-0.41163975,-0.35325408,0.059923347,-3.063025,0.6326115,-0.00031633725,-0.17310438,-0.018689815,-0.002076726,0.09545149,-0.02040016,-0.042010132,0.4655231,-1.3607575,1.8759106,-2.07564,-1.5815128,2.4474013,-0.069426216,0.36866078,-0.4745579,0.16697162,-0.07702112,-0.026403766,-0.22984335,-0.15322891,-9.653421,1.0104496,47.70659,-0.6691835,-2.1411088,-3.8373806,-0.29168403,-0.15975057,-0.42265266,26.0,26.75,25.875,28.875,29.875,30.25
0.36005408,-1.1478567,-1.7689531,-1.519849,-0.014896327,0.05268867,-0.119408794,-0.41201848,-0.3532802,0.059938285,-3.0627725,0.6327652,-0.00023627978,-0.17717634,-0.02239183,0.0003547427,0.08869895,-0.008351594,-0.038757194,0.4653679,-1.3600127,1.8749045,-2.0752847,-1.5817164,2.4473772,-0.0669032,0.36974514,-0.47943217,0.15693676,-0.07644626,-0.027130552,0.1340753,-0.13407528,-9.768343,0.9567419,47.72719,-0.8171294,-2.2063808,-3.7074018,-0.21561103,-0.12394172,-0.4114678,26.0,26.75,25.875,28.875,29.875,30.25
0.3620542,-1.4449755,-1.794098,-1.2602704,-0.043860443,0.06021552,-0.11833973,-0.4123703,-0.35333422,0.059962943,-3.062641,0.6328495,-0.00019275218,-0.17989613,-0.024514705,0.0006069625,0.08376188,-0.004028524,-0.037214458,0.46522403,-1.3593289,1.8739585,-2.0749757,-1.5818237,2.4473045,-0.06704303,0.37307835,-0.48294604,0.15099734,-0.074018225,-0.02883347,-0.1340753,0.05746084,-9.615114,0.9231726,47.68062,-0.8341101,-2.2496002,-3.7807026,-0.13721114,-0.14149095,-0.41518208,26.0,26.75,25.875,28.875,29.875,30.25
0.36405367,-1.1371043,-2.0968244,-1.2799982,-0.049424235,0.04772502,-0.1256941,-0.41273353,-0.35335803,0.05995164,-3.0623949,0.6329294,-0.00012869757,-0.18274637,-0.02414994,0.0018973689,0.080967434,0.0006866535,-0.039145283,0.46507883,-1.358574,1.8730115,-2.0746768,-1.5820278,2.4472435,-0.070222005,0.37251166,-0.48476902,0.14788757,-0.07366708,-0.030077448,-0.05746084,0.19153613,-9.634268,0.99702406,47.66987,-0.67041516,-2.0651662,-3.733818,-0.060081847,-0.11159854,-0.3961194,26.0,26.75,25.875,28.875,29.875,30.25
0.36605427,-0.89484465,-2.6238146,-1.6066813,-0.043524962,0.01940248,-0.12052764,-0.41309628,-0.35338798,0.059948243,-3.062164,0.63308716,-3.8106686e-05,-0.18119115,-0.026478123,0.0011090979,0.07895655,-0.0017318209,-0.03523262,0.4649362,-1.3578417,1.8720783,-2.0744011,-1.582218,2.4472315,-0.0666324,0.37440947,-0.48554006,0.14799036,-0.07079723,-0.0304256,0.11492168,0.28730422,-9.768343,0.9925471,47.64658,-0.8673869,-2.0434332,-3.8707361,-0.011949452,-0.11493762,-0.3766544,26.0,26.75,25.875,28.875,29.875,30.25
0.36805448,-0.25473034,-2.671818,-1.4538587,-0.059766125,0.0025756408,-0.11676653,-0.41346535,-0.3534819,0.059983328,-3.0620997,0.6331309,-2.3015343e-06,-0.18121088,-0.026736882,0.002567805,0.07655179,-0.00304365,-0.036825046,0.46481586,-1.3571113,1.8710498,-2.0740883,-1.5822772,2.4471478,-0.06780848,0.37260732,-0.4878974,0.1522288,-0.06805606,-0.030037597,-0.095768064,0.38307226,-9.672575,1.0462601,47.685097,-0.8554016,-1.7794243,-3.8898294,-0.028810501,-0.12474884,-0.3935908,26.0,26.75,25.875,28.875,29.875,30.25
0.3700541,0.027619729,-2.33609,-1.4482629,-0.052319255,-0.021139583,-0.11962225,-0.41382462,-0.3535181,0.059990913,-3.0618842,0.63312036,8.478297e-05,-0.18023284,-0.026409585,0.0018931604,0.078157164,-0.009362732,-0.03547252,0.46469557,-1.3563793,1.8700799,-2.0737627,-1.5824813,2.447051,-0.06829697,0.37474132,-0.49072674,0.15925165,-0.06667321,-0.03188734,-0.11492168,0.4213795,-9.634268,0.9947882,47.666286,-0.8073243,-1.7797055,-3.8882632,-0.061551508,-0.15050851,-0.3644165,26.0,26.75,25.875,28.875,29.875,30.25
0.37205574,0.51457876,-1.5992596,-1.5608435,-0.043118205,-0.022299781,-0.12138509,-0.41417164,-0.35355777,0.059980523,-3.0616846,0.6332485,4.294009e-05,-0.1790475,-0.026179712,4.7113146e-05,0.080231324,-0.018113201,-0.034431975,0.46453935,-1.355634,1.8691338,-2.0734365,-1.5826,2.447003,-0.06884529,0.3793477,-0.49395156,0.16658194,-0.06462291,-0.03348942,0.0,0.47884032,-9.768343,0.97464454,47.675243,-0.81316185,-1.8207769,-4.014294,-0.13329086,-0.1317844,-0.33608687,26.0,26.75,25.875,28.875,29.875,30.25
0.37405446,0.44342405,-1.7308176,-1.4344219,-0.033328224,-0.015166567,-0.12751742,-0.4145245,-0.35361868,0.05999801,-3.061547,0.6332739,5.200603e-05,-0.17797157,-0.026065808,-0.0010739926,0.08230305,-0.025827657,-0.033896334,0.4644075,-1.3549136,1.8681511,-2.0730994,-1.5827078,2.4469063,-0.069018364,0.38297784,-0.49779412,0.17459325,-0.06302576,-0.034209903,-0.019153614,0.51714754,-9.691729,0.9612189,47.64121,-0.8745777,-1.9927161,-3.9480684,-0.22244167,-0.1591228,-0.33104718,26.0,26.75,25.875,28.875,29.875,30.25
0.37605345,-0.2375912,-2.2840755,-0.9602157,-0.031934988,-0.006200831,-0.119175084,-0.41490427,-0.35369045,0.060014185,-3.061401,0.63339335,5.005558e-05,-0.17880826,-0.027062284,-0.0003440697,0.080959305,-0.027791912,-0.032380704,0.46426335,-1.3541335,1.8670963,-2.0727508,-1.5828027,2.4468575,-0.069214046,0.38520992,-0.5034319,0.1791131,-0.06097404,-0.035937857,-0.038307227,0.4405331,-9.500193,0.97240865,47.651955,-0.75438434,-2.0113552,-3.810023,-0.30283195,-0.1962345,-0.30522534,26.0,26.75,25.875,28.875,29.875,30.25
0.37805417,-0.5335309,-1.9605231,-0.66210824,-0.04865472,0.015799604,-0.121922396,-0.4152387,-0.3537332,0.06001796,-3.0611913,0.6334226,-1.8159068e-05,-0.18014969,-0.028567357,0.00035244942,0.07760874,-0.025181087,-0.031233609,0.46413147,-1.3534015,1.866115,-2.0723445,-1.5829343,2.4467733,-0.06883273,0.38621637,-0.505985,0.1767966,-0.059178956,-0.036713686,-0.05746084,0.4405331,-9.308657,1.0641627,47.695843,-0.81285095,-2.0228631,-3.826212,-0.29759744,-0.22728558,-0.26264998,26.0,26.75,25.875,28.875,29.875,30.25
