Tylouw/Master_Thesis_Code/training_data/batch_1/small_rod_t0.1/sample_19_session_1.csv
timestamp[s],tcp_force_x[N],tcp_force_y[N],tcp_force_z[N],tcp_force_rx[Nm?],tcp_force_ry[Nm?],tcp_force_rz[Nm?],tcp_pose_x[m],tcp_pose_y[m],tcp_pose_z[m],tcp_pose_rx[rot_vec_x],tcp_pose_ry[rot_vec_y],tcp_pose_rz[rot_vec_z],tcp_velo_x[m/s],tcp_velo_y[m/s],tcp_velo_z[m/s],tcp_velo_rx[rot_vec_x/s],tcp_velo_ry[rot_vec_y/s],tcp_velo_rz[rot_vec_z/s],q1[rad],q2[rad],q3[rad],q4[rad],q5[rad],q6[rad],qd1[rad/s],qd2[rad/s],qd3[rad/s],qd4[rad/s],qd5[rad/s],qd6[rad/s],tool_acc_x,tool_acc_y,tool_acc_z,current_of_whole_robot[A],voltage_of_whole_robot[V],current_J1[A],current_J2[A],current_J3[A],current_J4[A],current_J5[A],current_J6[A],temp_J1[C],temp_J2[C],temp_J3[C],temp_J4[C],temp_J5[C],temp_J6[C]
6.670016e-07,-0.9594416,-0.8386847,0.79175407,0.012284173,-0.008894235,-0.009766707,-0.38106456,-0.34853762,0.05996989,-3.078533,0.6248612,-0.00016050703,0.0020285274,0.0010540436,-0.0019335994,0.0018825354,-0.0039259037,4.7791913e-05,0.4778101,-1.425922,1.957703,-2.100845,-1.5707573,2.452752,-8.7478205e-05,-7.69929e-06,0.004447156,-8.811256e-05,0.0001429018,-0.00013774936,0.076614454,0.19153613,-8.734048,0.7038487,47.709274,0.04318562,-2.7227402,-2.4640005,-0.45322526,0.13928367,0.005628229,25.25,25.8125,25.0625,27.5,28.0625,28.4375
0.002052817,-0.61747676,-0.4731787,0.8764031,0.0047568013,-0.0063752457,-0.01102726,-0.38105893,-0.34852812,0.05996774,-3.0785286,0.6247838,-0.000107881126,-0.0003589336,-0.00019064106,-0.0034967216,-0.0007645789,0.0011401641,4.8934417e-05,0.47782204,-1.4259443,1.9577397,-2.1008732,-1.5707935,2.4527164,-8.6280146e-05,0.0045751003,0.0053445715,-0.011284278,0.00014012065,-0.00013516333,0.038307227,0.17238252,-8.714894,0.7530795,47.70211,0.082277566,-2.8423674,-2.5343666,-0.41221124,0.15920565,0.0049534724,25.25,25.8125,25.0625,27.5,28.0625,28.4375
0.004052664,-0.50808513,0.05853551,1.0224322,0.0015274471,-0.004989199,-0.009673941,-0.38106728,-0.34852073,0.05993548,-3.0785234,0.6248981,-0.00022432819,-0.0015802537,-0.0008264611,-0.0028044283,-0.0024208126,0.0043271133,4.8653248e-05,0.47776207,-1.4258844,1.9577507,-2.1008976,-1.5707334,2.4527283,-8.511463e-05,0.0046085278,0.0043151663,-0.013879901,0.00013744588,-0.00013267262,0.019153614,0.19153613,-8.63828,0.8314132,47.733456,0.14300461,-3.1096668,-2.6995516,-0.3035332,0.14615358,0.0053514647,25.25,25.8125,25.0625,27.5,28.0625,28.4375
0.006051929,-0.33830127,0.14273748,0.75252515,0.022891797,-0.019622454,-0.009658914,-0.38107508,-0.3485498,0.059965618,-3.0785596,0.62488574,-0.000100093814,-0.0010062379,-0.00052678346,-0.0016523879,-0.0016665073,0.0028939135,4.68526e-05,0.47782204,-1.425909,1.9577149,-2.1009195,-1.5707573,2.452776,-8.397999e-05,0.0026492488,0.002743428,-0.008729333,0.0001348712,-0.00013027215,0.095768064,0.24899697,-8.580819,0.7709874,47.70838,0.047827326,-2.9879355,-2.5899472,-0.3303849,0.15563893,0.013785542,25.25,25.8125,25.0625,27.5,28.0625,28.4375
0.008051906,0.22509332,0.6339106,0.12115605,0.05868534,-0.034507886,-0.009475174,-0.38105896,-0.34852123,0.059934296,-3.0785084,0.62491375,-0.00018699096,-0.00032152442,-0.00016913658,-0.00053095166,-0.0010098135,0.0016502924,4.482395e-05,0.47778615,-1.425898,1.9577736,-2.100918,-1.5707573,2.452764,-8.2875405e-05,0.00033191478,0.00174758,-0.0040098145,0.00013239111,-0.00012795694,0.038307227,0.19153613,-8.714894,0.7597976,47.7254,0.09623049,-2.945962,-2.5074315,-0.36782157,0.15887193,-0.0015798329,25.25,25.8125,25.0625,27.5,28.0625,28.4375
0.010052256,-0.023179468,0.5250158,-0.25335896,0.05439125,-0.04028459,-0.009431511,-0.3810491,-0.3485139,0.059927784,-3.0784855,0.6248517,-0.00019370901,-0.00045388745,-0.00023786355,5.2559386e-05,-0.0009295399,0.001503349,4.393851e-05,0.47779807,-1.4258981,1.9577855,-2.1009047,-1.5707816,2.4527402,-8.179934e-05,4.4530602e-06,0.0003585722,-0.00212594,0.00013000064,-0.00012572255,0.019153614,0.076614454,-9.097966,0.7172743,47.694946,-0.085325606,-2.1077392,-3.2389312,-0.3796784,0.13868077,-0.010072692,25.25,25.8125,25.0625,27.5,28.0625,28.4375
0.012013402,0.059740566,-0.2176608,-0.36180133,0.021452032,-0.011285044,-0.0091470415,-0.38106698,-0.34852323,0.05991702,-3.0784848,0.62488973,-0.00018082715,-0.0010792608,-0.00056147896,-0.003691582,0.0026455584,-0.0054100626,2.8640492e-05,0.47779807,-1.4258462,1.9577593,-2.100941,-1.5707816,2.452764,-9.193884e-05,0.010898269,-0.00372145,-0.0011566358,0.00012769508,-0.000116958254,0.17238252,0.11492168,-9.232041,0.73069996,47.719128,-0.19370231,-2.2636294,-3.4272926,-0.37319404,0.14828672,-0.039569527,25.25,25.8125,25.0625,27.5,28.0625,28.4375
0.014052405,-1.2396766,-1.2248902,-0.44024837,-0.012944354,-0.004311551,-0.0058669657,-0.38104767,-0.34853077,0.05991011,-3.0784879,0.62487143,-0.0003024609,-0.0040715015,-0.0020995734,-0.0036371439,0.002516888,-0.00519098,1.016865e-05,0.47779804,-1.4258319,1.957745,-2.1008804,-1.5707334,2.452752,-0.00013308703,0.018035853,-0.012236268,-3.3121447e-05,0.00012546977,-0.00013442487,0.0,0.21068975,-9.3661175,0.7777002,47.719128,-0.28508377,-2.8338196,-3.1694088,-0.35152084,0.12313777,-0.0493095,25.25,25.8125,25.0625,27.5,28.0625,28.4375
0.016052794,-1.5663861,-2.1564882,-0.5814869,-0.033722404,0.023591753,-0.0049548643,-0.3810506,-0.34852463,0.059889134,-3.0784316,0.6248804,-0.0004060064,-0.005460329,0.00023340197,-0.0036998552,0.0034973673,-0.0070713046,-0.0036536006,0.47778437,-1.4257601,1.9576973,-2.1008198,-1.5707334,2.4527512,-0.0055645043,0.018105505,-0.012758486,0.0025398186,0.00012332064,-0.0019023224,-0.2873042,0.45968673,-9.595961,0.7642693,47.72808,-0.07782525,-2.53641,-3.4145832,-0.36988324,0.118671,-0.057871748,25.25,25.8125,25.0625,27.5,28.0625,28.4375
0.018052505,-1.826622,-2.5696144,-0.8704866,-0.035011858,0.044776235,-0.008441956,-0.38104743,-0.3485184,0.05988288,-3.0784037,0.6248152,-0.0004534676,-0.005402868,0.0001938749,-0.003420895,0.004008545,-0.008054095,0.0008565146,0.47778428,-1.4257361,1.957673,-2.1007707,-1.5707458,2.452714,-0.0054402365,0.01835534,-0.014205036,0.004843659,0.00012124405,-0.006287864,-0.19153613,0.49799395,-9.787497,0.7620334,47.711964,-0.06831594,-2.3683457,-3.5060797,-0.39606977,0.107501194,-0.041300382,25.25,25.8125,25.0625,27.5,28.0625,28.4375
0.020052776,-2.2317274,-2.471475,-0.96598995,-0.040227294,0.04294158,-0.01187875,-0.38104105,-0.34850222,0.05985749,-3.0783548,0.62480384,-0.00046181216,-0.0058604353,-0.0005473805,-0.0036566786,0.004234416,-0.008497627,0.0035055948,0.47778463,-1.4257112,1.9577082,-2.100795,-1.5707816,2.4527135,-0.004547138,0.020847641,-0.016597439,0.005240941,0.00011923617,-0.008042322,-0.22984336,0.6703765,-9.844957,0.76874626,47.687782,-0.22938289,-2.3735132,-3.552588,-0.40153855,0.108895466,-0.029757775,25.25,25.8125,25.0625,27.5,28.0625,28.4375
0.022051895,-1.8539441,-1.8800402,-0.8157753,-0.050860487,0.05291502,-0.027127936,-0.3810537,-0.3485264,0.059852026,-3.0783958,0.6248318,-0.000493606,-0.0070834206,-0.0010111117,-0.0033823443,0.003515384,-0.0071190153,0.0031018567,0.47778457,-1.4256628,1.957671,-2.1008193,-1.5707334,2.4527256,-0.004854977,0.02234295,-0.018718883,0.0043126275,0.00011729366,-0.007944923,-0.53630114,0.7661445,-9.768343,0.7150385,47.698532,-0.31404385,-2.3771002,-3.476893,-0.38294727,0.099966764,-0.029525526,25.25,25.8125,25.0625,27.5,28.0625,28.4375
0.024052031,-2.082343,-1.9248168,-0.950754,-0.047650672,0.050230436,-0.026288664,-0.38106862,-0.34853196,0.059854876,-3.078378,0.62475157,-0.00049935014,-0.008714871,-0.0014403652,-0.0024294248,0.0023175443,-0.004801599,0.0022185983,0.47779608,-1.4256145,1.9575986,-2.1007712,-1.5707573,2.4526894,-0.005597464,0.022981891,-0.0215261,0.0038720747,0.00010830861,-0.00780253,-0.47884035,0.63206923,-9.921572,0.78888994,47.711063,-0.3436705,-2.2878458,-3.5076609,-0.37108302,0.10033426,-0.032305136,25.25,25.8125,25.0625,27.5,28.0625,28.4375
0.02605254,-1.8845501,-1.7826407,-0.9356986,-0.050346777,0.04406355,-0.033995584,-0.38110802,-0.34850964,0.059834026,-3.0783336,0.62476206,-0.00051933085,-0.009793508,-0.0011926,-0.002303394,0.0022925045,-0.0047429916,0.0015323864,0.47773567,-1.4255304,1.9575504,-2.1007712,-1.5707816,2.4526412,-0.007030763,0.024208616,-0.023331482,0.0043868856,9.9871606e-05,-0.008548604,-0.47884035,0.5746084,-9.902418,0.83589023,47.7254,-0.29090187,-2.2638888,-3.528454,-0.35769033,0.093048766,-0.038923327,25.25,25.8125,25.0625,27.5,28.0625,28.4375
0.028052488,-1.312812,-1.3603774,-0.7405352,-0.047804326,0.04795025,-0.0488183,-0.38113666,-0.3485197,0.059844352,-3.078337,0.62495506,-0.0004991952,-0.011119882,-0.0015054644,-0.0015021502,0.0016646652,-0.0035367936,0.0017798065,0.4777113,-1.4255061,1.9575018,-2.100783,-1.5707573,2.4527369,-0.0077013485,0.025081044,-0.026333313,0.0051565487,9.788097e-05,-0.009465103,-0.4405331,0.38307226,-9.921572,0.7642693,47.72629,-0.33280575,-2.2694848,-3.5471249,-0.36206475,0.08672956,-0.030209865,25.25,25.8125,25.0625,27.5,28.0625,28.4375
0.030052684,-1.9008904,-1.0470593,-0.8962834,-0.016124753,0.026844881,-0.046324823,-0.3811621,-0.3485105,0.059835203,-3.078304,0.62487125,-0.0005338421,-0.01192975,-0.0012725395,-0.0019497789,0.0023114097,-0.004696332,0.0009792804,0.4776871,-1.4254334,1.9574288,-2.100735,-1.5707816,2.4526646,-0.008837352,0.027436152,-0.0281839,0.0059789643,5.3771688e-05,-0.009799354,-0.4405331,0.24899697,-9.787497,0.7777002,47.70032,-0.42189032,-2.2818484,-3.4994106,-0.34169877,0.080702305,-0.040859062,25.25,25.8125,25.0625,27.5,28.0625,28.4375
0.03205255,-1.6375055,-0.37569225,-0.7291091,0.0097522875,0.031151013,-0.052161682,-0.38115287,-0.34855223,0.05981655,-3.0783408,0.62489855,-0.00063362485,-0.013351052,-0.0017640498,-0.0014791264,0.0015571658,-0.0032234162,0.0009333008,0.47772294,-1.425361,1.9573916,-2.1007469,-1.5707096,2.4527128,-0.009271788,0.02899555,-0.030934324,0.0055159135,3.9124658e-05,-0.010186058,-0.3256114,0.15322891,-9.825804,0.7597976,47.703903,-0.3649077,-2.3071423,-3.5671415,-0.33975333,0.06395273,-0.028665848,25.25,25.8125,25.0625,27.5,28.0625,28.4375
0.034051698,-1.313468,0.1968267,-0.46684662,0.02010845,0.029384334,-0.082609676,-0.38122517,-0.34855208,0.059835754,-3.078383,0.62481177,-0.00046805642,-0.015556314,-0.002531412,-0.0002642313,-3.9988903e-05,-0.000116554795,-0.00029704795,0.4776867,-1.4253126,1.9573063,-2.100807,-1.5707573,2.4526172,-0.009935886,0.030261224,-0.034997635,0.0048198816,1.9992316e-05,-0.009617377,-0.15322891,0.1340753,-9.595961,0.78888994,47.696735,-0.42547047,-2.250883,-3.475451,-0.3224433,0.06811172,-0.05129571,25.25,25.8125,25.0625,27.5,28.0625,28.4375
0.036052175,-1.0035062,0.06613832,-0.3945124,0.033677552,0.027802134,-0.090608336,-0.3812611,-0.34855038,0.05983097,-3.0783496,0.62486356,-0.00051209197,-0.016840285,-0.0024243447,-0.00022360022,-2.5529804e-05,-0.000120561584,-0.0021126478,0.47765034,-1.4252281,1.95721,-2.1007593,-1.5707573,2.4526174,-0.01130437,0.032200534,-0.037415605,0.0053088726,4.8105135e-06,-0.009168807,-0.21068975,0.019153614,-9.595961,0.779936,47.687782,-0.48923185,-2.2705984,-3.4092832,-0.29361975,0.03573123,-0.059627272,25.25,25.8125,25.0625,27.5,28.0625,28.4375
0.038052283,-1.0156834,-0.09463412,-0.43954423,0.040389914,0.01751765,-0.09571907,-0.38130036,-0.34855497,0.059841342,-3.0783527,0.6249026,-0.00043086562,-0.017590087,-0.0022802583,-0.00035593376,0.0005690553,-0.0012617571,-0.002489199,0.47763795,-1.4251915,1.9571499,-2.1007826,-1.5707816,2.452629,-0.012251692,0.03415411,-0.039712787,0.0069389674,3.1409215e-07,-0.009738428,-0.24899697,0.019153614,-9.519346,0.7933669,47.73077,-0.4065804,-2.2429209,-3.4390783,-0.29190424,0.02393185,-0.07572269,25.25,25.8125,25.0625,27.5,28.0625,28.4375
0.04005261,-0.6146597,0.29363722,-0.38194594,0.026158579,0.019003026,-0.10795026,-0.38131657,-0.34855613,0.059825327,-3.0783322,0.6249176,-0.0005537855,-0.018584194,-0.0023716944,-0.0001610767,0.00076451583,-0.0016473748,-0.0024013428,0.4776017,-1.4251071,1.9570764,-2.100722,-1.5707458,2.4526048,-0.013008917,0.03595598,-0.04254959,0.008406439,2.0507974e-08,-0.01058209,-0.19153613,-0.076614454,-9.576807,0.7777002,47.678825,-0.4036182,-2.234314,-3.3908792,-0.2916318,0.025672875,-0.073061526,25.25,25.8125,25.0625,27.5,28.0625,28.4375
0.042052694,-0.7351017,0.31976366,-0.42724153,0.02001088,0.01144267,-0.11726181,-0.38134933,-0.348562,0.059811655,-3.0783188,0.6249348,-0.00054430397,-0.019662201,-0.0020239507,0.00025598187,0.0012927257,-0.0015013589,-0.002974386,0.47758922,-1.4250228,1.9570168,-2.1007454,-1.5707573,2.4526048,-0.014274218,0.036857072,-0.044886008,0.009956603,-0.0005380943,-0.011272244,-0.05746084,-0.038307227,-9.595961,0.7933669,47.682407,-0.4769506,-2.2236788,-3.4094658,-0.28350124,0.0195004,-0.08121043,25.25,25.8125,25.0625,27.5,28.0625,28.4375
0.044051696,-1.5134308,-0.21489377,-0.50172925,0.024980558,-0.006785979,-0.114454545,-0.3814026,-0.3485802,0.05986007,-3.0783684,0.62488586,-0.0004951068,-0.02052473,-0.0020588033,0.0008794676,0.0025704263,-5.6957164e-05,-0.0017121631,0.47756544,-1.4249988,1.9568595,-2.100661,-1.5707468,2.4525442,-0.013838588,0.037489604,-0.047275223,0.011024286,-0.0023393373,-0.012094184,-0.095768064,0.05746084,-9.5385,0.78217715,47.716442,-0.5047558,-2.115434,-3.3717642,-0.28625137,0.019324705,-0.08275506,25.25,25.8125,25.0625,27.5,28.0625,28.4375
0.04605228,-1.0116326,-0.42667082,-0.5654491,0.020446949,0.010812199,-0.12642871,-0.3814503,-0.34858254,0.059845623,-3.0783272,0.6249171,-0.0005025682,-0.021616051,-0.0015540285,-0.00025429006,0.00404555,-0.0022687013,-0.0037431477,0.47754085,-1.4248776,1.9567517,-2.100649,-1.5707706,2.4525445,-0.0155528225,0.041596062,-0.049558725,0.011844393,-0.0026361162,-0.011775145,-0.19153613,0.11492168,-9.461885,0.8247004,47.704796,-0.42302766,-2.2307618,-3.4106612,-0.2916316,0.02208809,-0.10483614,25.25,25.8125,25.0625,27.5,28.0625,28.4375
0.04805236,-1.1514516,-0.95990676,-0.42104614,0.01643943,0.010857671,-0.12984957,-0.38150245,-0.348585,0.059851408,-3.0783288,0.62493664,-0.0004628349,-0.02212435,-0.0017793443,7.22057e-05,0.0039872774,-0.0026385193,-0.0038141988,0.4775047,-1.4248053,1.9566559,-2.1006486,-1.5707825,2.4525204,-0.015764104,0.042503558,-0.051689725,0.01336851,-0.002415423,-0.0119149685,-0.11492168,0.15322891,-9.500193,0.800085,47.719128,-0.45796555,-2.2423651,-3.3857214,-0.29388633,0.012173368,-0.10920684,25.25,25.8125,25.0625,27.5,28.0625,28.4375
0.050052103,-1.2034315,-1.3048273,-0.40516275,-0.0025192134,0.01209273,-0.14392748,-0.38153258,-0.34857187,0.059849568,-3.0782635,0.62498075,-0.0005119124,-0.02299399,-0.002116199,0.0012796276,0.0025499226,-0.0011172337,-0.003545065,0.47746858,-1.4247339,1.9565595,-2.1005647,-1.5708059,2.4525201,-0.016340166,0.041638028,-0.053649213,0.014179244,-0.0018415924,-0.01276052,-0.05746084,0.21068975,-9.519346,0.7172743,47.71017,-0.44942677,-2.0227356,-3.4253316,-0.33134001,0.014647241,-0.109090604,25.25,25.8125,25.0625,27.5,28.0625,28.4375
0.05205219,-0.9989544,-1.4847736,-0.5022939,-0.018748427,0.014482275,-0.15446737,-0.38155738,-0.34858432,0.059840135,-3.0782838,0.6249841,-0.0005617361,-0.023443643,-0.0023551055,0.00075733813,0.0027478216,-0.0022135098,-0.004052289,0.47744453,-1.4246612,1.956498,-2.1005642,-1.5707701,2.4524956,-0.016542636,0.04398416,-0.05519512,0.014442917,-0.0015163503,-0.012455324,-0.15322891,0.30645782,-9.595961,0.71279734,47.682407,-0.43948382,-2.0653164,-3.4383883,-0.33612645,-0.0017769488,-0.12036489,25.25,25.8125,25.0625,27.5,28.0625,28.4375
0.05405223,-1.6178011,-2.2229226,-0.7647844,-0.016554667,0.011102108,-0.15378365,-0.38162497,-0.34858623,0.059855316,-3.0782635,0.62498015,-0.00051302393,-0.025279466,-0.0034638564,0.0015898087,0.0017148146,-0.00020722642,-0.0040555787,0.47740853,-1.4245645,1.9563421,-2.100516,-1.5708059,2.4524598,-0.016259858,0.046365723,-0.059814483,0.01442372,-0.0015304873,-0.012166548,-0.1340753,0.45968673,-9.576807,0.7620334,47.705692,-0.4677355,-2.0927153,-3.4156218,-0.33247364,-0.0022176795,-0.12670612,25.25,25.8125,25.0625,27.5,28.0625,28.4375
0.056052577,-1.1914165,-1.8247259,-0.590185,-0.024889778,0.028316943,-0.16498756,-0.38168108,-0.34859487,0.059867118,-3.0782554,0.6250559,-0.00049843383,-0.025835106,-0.0030717112,6.626348e-05,0.0031367051,-0.0020609444,-0.005885185,0.4773723,-1.4244795,1.95621,-2.1004808,-1.5708064,2.452472,-0.017200291,0.050074596,-0.060375147,0.013576905,-0.0019442808,-0.011275516,-0.11492168,0.45968673,-9.442732,0.87617236,47.70211,-0.4294475,-2.1877456,-3.3284092,-0.32398254,-0.044305764,-0.14582206,25.25,25.8125,25.0625,27.5,28.0625,28.4375
0.058052592,-0.9021026,-1.4238244,-0.29779986,-0.03275968,0.0389671,-0.16524777,-0.38173962,-0.34861413,0.05987685,-3.0782647,0.6250768,-0.00044262942,-0.026969029,-0.0032432205,0.0006578961,0.0035650325,-0.00013229706,-0.005982913,0.47736034,-1.4243832,1.9560779,-2.1004808,-1.5708188,2.452472,-0.017116657,0.050830245,-0.06257929,0.013513645,-0.0032152554,-0.011090442,-0.17238252,0.5554548,-9.461885,0.7665104,47.686886,-0.48874277,-2.1881917,-3.4971762,-0.32594252,-0.015910476,-0.15073824,25.25,25.8125,25.0625,27.5,28.0625,28.4375
0.060052834,-1.6603725,-1.8906887,-0.19646515,-0.023250397,0.019224575,-0.14392863,-0.38179615,-0.34861392,0.05987066,-3.0782492,0.625094,-0.00049591414,-0.02935894,-0.0035122517,0.0023118726,0.0026444993,0.004258486,-0.006721265,0.4772999,-1.4242636,1.9559449,-2.1004336,-1.5708069,2.4524243,-0.018057803,0.050823726,-0.06620013,0.0128223635,-0.0044246465,-0.011288718,-0.076614454,0.5554548,-9.385271,0.84484416,47.688675,-0.4366936,-1.9825399,-3.3617601,-0.33081996,-0.010444889,-0.14707962,25.25,25.8125,25.0625,27.5,28.0625,28.4375
0.06205181,-1.2264827,-1.8469338,-0.35817873,-0.01103872,0.017757758,-0.14550017,-0.38187742,-0.34864518,0.059909414,-3.0783145,0.6250677,-0.00035227815,-0.031083418,-0.004391758,0.002370933,0.0020945226,0.005128935,-0.0060904683,0.47728798,-1.4241905,1.9557756,-2.1004455,-1.5708188,2.4523878,-0.018140031,0.054363392,-0.07026315,0.012319264,-0.004344976,-0.0119996825,-0.076614454,0.4405331,-9.346964,0.7732232,47.69763,-0.47698325,-2.0442429,-3.230695,-0.32398853,-0.028156042,-0.15389979,25.25,25.8125,25.0625,27.5,28.0625,28.4375
0.0640524,-1.2467854,-1.6026782,-0.22663909,-0.019322587,0.008797487,-0.13657106,-0.3819124,-0.34864312,0.05989574,-3.0782804,0.62504196,-0.00042771627,-0.030864596,-0.004501803,0.0011009036,0.0025317322,0.003147808,-0.005632868,0.47725198,-1.4240818,1.9556693,-2.1003864,-1.5708188,2.4523401,-0.018078268,0.05684014,-0.07002078,0.011558604,-0.0038253695,-0.01239588,-0.21068975,0.47884035,-9.385271,0.84484416,47.71823,-0.47709718,-2.1622727,-3.3551884,-0.2971004,-0.032413315,-0.15241018,25.25,25.8125,25.0625,27.5,28.0625,28.4375
0.06605168,-1.0504333,-1.8926464,-0.18664357,-0.015285223,0.007005337,-0.13453214,-0.38196483,-0.34864324,0.05987684,-3.0782406,0.62513,-0.00047007023,-0.032775257,-0.0050885812,0.0021220169,0.0012519652,0.0050970297,-0.0060672457,0.47720364,-1.4239496,1.9555587,-2.1003735,-1.5708188,2.4523518,-0.018949253,0.05822201,-0.074003,0.011838578,-0.0035923677,-0.012830685,-0.1340753,0.4405331,-9.346964,0.73741806,47.719128,-0.49662566,-2.0662858,-3.2655838,-0.30277976,-0.051054224,-0.16404887,25.25,25.8125,25.0625,27.5,28.0625,28.4375
0.06805186,-0.6761179,-0.8871975,0.0038000285,-0.025688982,0.016450489,-0.14239867,-0.38205048,-0.34867665,0.059904225,-3.0782826,0.6250992,-0.00037208194,-0.033465337,-0.0052532717,0.0020831495,0.0018832025,0.005411156,-0.0060197515,0.47719178,-1.4238292,1.955356,-2.1003616,-1.5708312,2.4523156,-0.018832244,0.059818335,-0.07578826,0.012040787,-0.004299764,-0.012758944,-0.15322891,0.4213795,-9.193734,0.7597976,47.703903,-0.45389038,-2.0827742,-3.270918,-0.30596483,-0.053482883,-0.17938276,25.25,25.8125,25.0625,27.5,28.0625,28.4375
0.070051916,-1.0049164,-0.9589898,0.033874057,-0.0021132864,0.013823823,-0.1464577,-0.38211226,-0.3486728,0.059904512,-3.0782456,0.6251496,-0.0003624745,-0.034934238,-0.005660384,0.0026158125,0.001853719,0.006850093,-0.006250845,0.47714362,-1.4237208,1.9552234,-2.1003258,-1.5708555,2.4523036,-0.01904642,0.061581556,-0.07907828,0.012277648,-0.004940891,-0.012738847,-0.15322891,0.4213795,-9.155427,0.7732232,47.668976,-0.5210011,-2.0236025,-3.2486904,-0.3029601,-0.03835021,-0.21474089,25.25,25.8125,25.0625,27.5,28.0625,28.4375
0.072051935,-0.86438936,-0.46291757,0.21931325,0.0010252381,0.02097716,-0.14099762,-0.3822195,-0.3487034,0.059930332,-3.078308,0.6252392,-0.00026927213,-0.036226597,-0.0057145464,0.0026116937,0.0022605588,0.0067309584,-0.006659737,0.47708338,-1.4235883,1.9550184,-2.1003492,-1.5708317,2.4522915,-0.019935967,0.06406138,-0.08209665,0.01310988,-0.0052508423,-0.013217671,-0.076614454,0.38307226,-9.174581,0.7396539,47.64927,-0.44256985,-2.0579693,-3.1967077,-0.29512542,-0.039832108,-0.20507446,25.25,25.8125,25.0625,27.5,28.0625,28.4375
0.0740519,-0.9348793,-0.78535366,0.22975959,0.021669839,0.015893277,-0.13959663,-0.38227227,-0.34871745,0.05993265,-3.078305,0.6251805,-0.0002984539,-0.03743969,-0.0061713248,0.0028215055,0.0023958266,0.008080964,-0.0058893394,0.47705948,-1.4234678,1.954862,-2.1002896,-1.5708317,2.4522314,-0.019758085,0.06599659,-0.084682964,0.012626281,-0.0059980294,-0.013806965,-0.095768064,0.34476504,-9.212888,0.842603,47.690468,-0.53578657,-1.992513,-3.132831,-0.27051488,-0.06126409,-0.21203226,25.25,25.8125,25.0625,27.5,28.0625,28.4375
0.076052256,-0.6660617,-0.09726569,0.2388128,0.008042435,0.015057265,-0.143943,-0.38235974,-0.34873623,0.059957504,-3.078307,0.62525713,-0.00017519556,-0.03855957,-0.0065793013,0.0036523524,0.0023022625,0.00966298,-0.005016987,0.47703555,-1.4233598,1.9546818,-2.100289,-1.5708679,2.4522552,-0.019643713,0.066705115,-0.087560125,0.013348072,-0.0066449605,-0.0145628005,-0.095768064,0.2681506,-9.136273,0.7933669,47.66271,-0.53900015,-1.9939611,-3.0848374,-0.27792376,-0.060267203,-0.21177909,25.25,25.8125,25.0625,27.5,28.0625,28.4375
0.07805224,-0.46350121,-0.41151872,0.26481867,0.011969945,0.016111868,-0.14164905,-0.38239977,-0.34874752,0.059914507,-3.0782633,0.6252094,-0.00030652445,-0.039631132,-0.0060929516,0.0017101611,0.0050922907,0.006646428,-0.005867477,0.47701108,-1.4231656,1.9545501,-2.1002538,-1.5708565,2.4522066,-0.020783033,0.072758935,-0.090168744,0.013867603,-0.0077443747,-0.014846732,-0.095768064,0.28730422,-9.232041,0.7777002,47.677036,-0.53715783,-2.2165668,-3.0744283,-0.2760377,-0.046002556,-0.22211733,25.25,25.8125,25.0625,27.5,28.0625,28.4375
0.08005236,-1.04744,-0.4415195,0.22199339,0.005719823,0.0037521105,-0.14577955,-0.38249803,-0.34875834,0.05993624,-3.078274,0.62517214,-0.00021097217,-0.0405856,-0.0062679294,0.0038721047,0.0041319756,0.010219954,-0.0049492726,0.47696304,-1.4230344,1.9543451,-2.100229,-1.5708927,2.4521341,-0.02083293,0.0698913,-0.09211283,0.015065464,-0.008532707,-0.015813475,-0.076614454,0.24899697,-9.232041,0.73069996,47.668976,-0.57150996,-1.9729185,-3.1062317,-0.26158738,-0.055557437,-0.21177264,25.25,25.8125,25.0625,27.5,28.0625,28.4375
0.08205209,-1.0660402,-0.7110623,0.06212429,0.0074758376,0.009637938,-0.13819124,-0.38257512,-0.34877127,0.059953213,-3.0782723,0.6252103,-0.00019857827,-0.040921792,-0.0062132594,0.0028789062,0.0053657615,0.008721871,-0.004529551,0.4769151,-1.4229133,1.9541544,-2.1001694,-1.5708932,2.4521103,-0.02096933,0.07282892,-0.09322322,0.0151364375,-0.008943093,-0.016367929,-0.11492168,0.2681506,-9.270349,0.7597976,47.68062,-0.57075644,-2.020592,-3.1019878,-0.2410838,-0.03763656,-0.22936562,25.25,25.8125,25.0625,27.5,28.0625,28.4375
0.08405206,-0.770675,-0.4620485,0.14705731,-0.003507427,0.025287146,-0.1437681,-0.38266465,-0.34877315,0.059943303,-3.0782228,0.6253344,-0.0002187596,-0.041156616,-0.006363095,0.0012893947,0.0067708325,0.00499795,-0.0039228327,0.4768429,-1.4227314,1.9539608,-2.1001327,-1.5709041,2.452122,-0.021212244,0.07770324,-0.095476575,0.016466148,-0.00848441,-0.017216595,-0.17238252,0.2681506,-9.193734,0.85826975,47.70211,-0.6116303,-2.2180374,-3.1360846,-0.2434538,-0.031183887,-0.22976422,25.25,25.8125,25.0625,27.5,28.0625,28.4375
0.08605248,-1.1101137,-0.97739995,-0.11131055,0.008434499,0.024007928,-0.13922901,-0.3827406,-0.34880593,0.059954826,-3.078241,0.62528044,-0.00020526933,-0.0418508,-0.0066167014,0.002372934,0.0055398755,0.006273211,-0.0042803027,0.47683087,-1.4225758,1.9537457,-2.1000845,-1.5709041,2.452074,-0.021725962,0.07677271,-0.09709255,0.01731268,-0.0079774475,-0.017373424,-0.11492168,0.24899697,-9.308656,0.83589023,47.709274,-0.6796888,-1.9449414,-3.1878645,-0.2545606,-0.036026638,-0.24033296,25.25,25.8125,25.0625,27.5,28.0625,28.4375
0.08805259,-1.3518234,-0.85140747,-0.13399965,0.013793623,0.020107409,-0.13489933,-0.38279796,-0.3488154,0.05993096,-3.078208,0.6252921,-0.00026520115,-0.041929774,-0.006680735,0.0012680426,0.0062176147,0.0039581456,-0.0035589468,0.4767947,-1.4224064,1.9536012,-2.1000607,-1.5709041,2.4520495,-0.021978863,0.07970804,-0.0980168,0.017667273,-0.0075194975,-0.018347345,-0.1340753,0.22984336,-9.308657,0.779936,47.688675,-0.6247722,-2.1042647,-3.1447906,-0.2333504,-0.067590296,-0.2559964,25.25,25.8125,25.0625,27.5,28.0625,28.4375
0.09005265,-1.4276824,-0.6862078,-0.1046345,0.0038578168,0.01493496,-0.13957548,-0.3829062,-0.34883794,0.05995818,-3.0782397,0.62539405,-0.00016717149,-0.04172126,-0.0063787205,-0.00013000729,0.0074942294,0.00082914205,-0.0028191211,0.47673452,-1.4222732,1.9533867,-2.1000602,-1.5709037,2.452049,-0.022511726,0.08259537,-0.098307535,0.0184347,-0.007215743,-0.01962077,-0.1340753,0.2681506,-9.346964,0.74413085,47.668976,-0.6562705,-2.127525,-3.3949432,-0.25142947,-0.0655377,-0.2528392,25.25,25.8125,25.0625,27.5,28.0625,28.4375
0.09205174,-0.8107273,-0.74491984,-0.1243445,-0.00025682905,0.027584823,-0.14474227,-0.3829992,-0.348848,0.059957724,-3.0782344,0.6253352,-0.00017000752,-0.04384865,-0.007403694,0.0009162838,0.0063255103,0.003404693,-0.002429865,0.47667456,-1.4220924,1.9531702,-2.1000125,-1.570916,2.4519532,-0.022547392,0.08475642,-0.10314973,0.018290924,-0.0073703704,-0.02004257,-0.19153613,0.21068975,-9.385271,0.7597976,47.670765,-0.68995965,-2.2232199,-3.1583176,-0.23504218,-0.06958063,-0.24862573,25.25,25.8125,25.0625,27.5,28.0625,28.4375
0.09405168,-0.90292484,-0.7857284,-0.19445854,0.004013749,0.018050455,-0.14435221,-0.38306808,-0.34886807,0.05995075,-3.0781937,0.62532675,-0.000190926,-0.043751083,-0.0069947788,0.00031041872,0.007441436,0.002112216,-0.0025885918,0.47666237,-1.421912,1.9529661,-2.0999525,-1.5709404,2.451941,-0.022921104,0.08578522,-0.10308534,0.01885896,-0.00776828,-0.020256544,-0.19153613,0.21068975,-9.308656,0.842603,47.67793,-0.6898148,-2.157862,-3.3831265,-0.21575269,-0.09204843,-0.25783125,25.25,25.8125,25.0625,27.5,28.0625,28.4375
0.096052155,-1.3785229,-1.1308533,-0.34789836,0.01470898,0.009114645,-0.13252637,-0.38316104,-0.34888253,0.05996084,-3.0782075,0.62536764,-0.00014946316,-0.044584297,-0.0068162275,0.00030790138,0.008299944,0.0023711727,-0.0025895382,0.47660226,-1.4217674,1.9527749,-2.09994,-1.5709404,2.4519048,-0.02342446,0.08717272,-0.10478674,0.019339217,-0.008652081,-0.020756627,-0.1340753,0.22984336,-9.3661175,0.85155696,47.68062,-0.7106022,-2.1604912,-3.365933,-0.1972143,-0.07651129,-0.25295514,25.25,25.8125,25.0625,27.5,28.0625,28.4375
0.098052554,-0.7781865,-0.5676634,-0.18932468,0.0018466768,0.020802444,-0.13725433,-0.3832533,-0.3488944,0.059963938,-3.07817,0.62541723,-0.00014217792,-0.045588113,-0.006554507,0.00038854175,0.009400809,0.0028469935,-0.0021173125,0.476554,-1.4215866,1.9525474,-2.09988,-1.5709647,2.4518924,-0.02402815,0.08862305,-0.106788665,0.019976078,-0.00985221,-0.02182911,-0.19153613,0.21068975,-9.3661175,0.83589023,47.71823,-0.71803004,-2.0509946,-3.496574,-0.19988208,-0.056136616,-0.26819593,25.25,25.8125,25.0625,27.5,28.0625,28.4375
0.100052685,-0.942513,-1.0152587,-0.21019983,0.014507075,0.016222242,-0.13516995,-0.38334477,-0.34891707,0.05994871,-3.078168,0.62533903,-0.00014560504,-0.045662317,-0.0061998735,-0.00038455994,0.011365763,0.00176521,-0.0012580194,0.47651818,-1.4213697,1.9523314,-2.099868,-1.5709776,2.4518082,-0.023909269,0.09051482,-0.10731931,0.020481192,-0.011102712,-0.02256661,-0.15322891,0.24899697,-9.423578,0.7732232,47.64837,-0.6982597,-2.0612497,-3.5402956,-0.19603318,-0.044541102,-0.2581398,25.25,25.8125,25.0625,27.5,28.0625,28.4375
0.10205174,-0.98192793,-0.70528686,-0.38899946,0.0046062106,0.018379714,-0.13141656,-0.38344738,-0.3489276,0.05996676,-3.0781312,0.6254277,-0.00012112392,-0.04756628,-0.006695362,0.0005566789,0.011224607,0.0043360717,-0.0013450604,0.476458,-1.4212011,1.9520782,-2.0997841,-1.5710019,2.4518082,-0.024087232,0.09208103,-0.11128723,0.020536253,-0.012165042,-0.022653362,-0.15322891,0.21068975,-9.346964,0.8157518,47.67614,-0.7502829,-1.999407,-3.4546165,-0.18134882,-0.03824511,-0.27529812,25.25,25.8125,25.0625,27.5,28.0625,28.4375
0.10405183,-1.1760832,-0.4339632,-0.29269138,-0.0075872135,0.009805232,-0.1386732,-0.3835256,-0.3489429,0.059958253,-3.0781453,0.62541103,-0.00016165077,-0.04702303,-0.006149193,-0.0005971573,0.0120989615,0.0018499147,-0.0010440364,0.47639766,-1.4210325,1.9518994,-2.0997603,-1.570978,2.4517357,-0.024783304,0.093267664,-0.11007123,0.020742044,-0.011799661,-0.023651473,-0.076614454,0.2681506,-9.442732,0.85826975,47.71286,-0.72469497,-1.9490798,-3.6499467,-0.16538458,-0.032083806,-0.28230998,25.25,25.8125,25.0625,27.5,28.0625,28.4375
0.10605262,-0.9378711,-0.9728513,-0.23448856,-0.0085001495,0.010262917,-0.13008401,-0.38365722,-0.34894004,0.059975922,-3.0781186,0.6253668,-2.0502852e-05,-0.0491873,-0.007335325,0.0005403717,0.010670138,0.0041916007,-0.0006516799,0.47632578,-1.4208517,1.9516467,-2.0997365,-1.571062,2.45164,-0.024783002,0.09560751,-0.11542491,0.021016045,-0.011613787,-0.024041506,-0.076614454,0.28730422,-9.461885,0.7620334,47.703903,-0.7639519,-1.9245465,-3.481425,-0.1490743,-0.024670096,-0.29077345,25.25,25.8125,25.0625,27.5,28.0625,28.4375
0.10805262,-0.950416,-1.2819425,-0.38265112,-0.007174243,0.0006983403,-0.13054961,-0.38374132,-0.34896824,0.05997835,-3.078089,0.62537956,-1.3725856e-05,-0.050204936,-0.007572203,0.0010899763,0.010230316,0.004859938,-0.00077807595,0.47631362,-1.4206591,1.9514068,-2.099676,-1.5710858,2.4516397,-0.025346255,0.09648284,-0.11787662,0.021795612,-0.011533359,-0.024477193,-0.095768064,0.30645782,-9.423578,0.7777002,47.73077,-0.7873199,-2.0507362,-3.5112777,-0.16231427,-0.032772396,-0.30534428,25.25,25.8125,25.0625,27.5,28.0625,28.4375
0.11005267,-0.75759435,-0.8864485,-0.3926455,-0.011101898,0.00068000803,-0.13634081,-0.3838357,-0.34898335,0.05997088,-3.078067,0.62541234,-4.3905755e-05,-0.05138562,-0.00804435,0.0016064422,0.009736689,0.0058157695,1.5387663e-05,0.4762535,-1.4204545,1.9511789,-2.0996282,-1.5710858,2.451603,-0.025582658,0.09788609,-0.12077711,0.022215938,-0.011539208,-0.025505235,-0.019153614,0.36391866,-9.461885,0.8247004,47.723602,-0.8087442,-1.8276188,-3.4428782,-0.1418986,-0.04382117,-0.30758318,25.25,25.8125,25.0625,27.5,28.0625,28.4375
0.112052664,-1.1383921,-1.1203353,-0.60711336,-0.005684444,-0.010487692,-0.12575008,-0.38396505,-0.34901014,0.06001995,-3.0781026,0.6254004,0.00010916889,-0.05230875,-0.008242576,0.0015799236,0.009633598,0.0059730955,-0.00076659874,0.47620544,-1.4203094,1.95089,-2.0995805,-1.571122,2.451543,-0.026081618,0.09965602,-0.12276049,0.022240931,-0.011521347,-0.025222126,-0.019153614,0.24899697,-9.5385,0.82022345,47.696735,-0.85154146,-2.0024254,-3.4901066,-0.11978002,-0.029683124,-0.31425592,25.25,25.8125,25.0625,27.5,28.0625,28.4375
0.114051625,-1.2365816,-1.2228812,-0.6405191,-0.0072109387,0.0026332529,-0.1348294,-0.38405895,-0.34901604,0.05997497,-3.0780556,0.62544775,5.478505e-06,-0.05327878,-0.00883762,0.0021615038,0.009150242,0.0066060782,-7.5320175e-05,0.47612143,-1.4200449,1.9506868,-2.0995677,-1.5711097,2.4514947,-0.025994174,0.10095039,-0.12582017,0.023220714,-0.011388259,-0.025823882,-0.076614454,0.3256114,-9.595961,0.81351066,47.691364,-0.84863734,-1.7650502,-3.5172548,-0.10124041,-0.028026387,-0.31215063,25.25,25.8125,25.0625,27.5,28.0625,28.4375
0.11605201,-0.9401046,-1.3559535,-0.5460634,-0.007474894,0.024636919,-0.13297886,-0.3841694,-0.34903762,0.059990603,-3.078022,0.62544066,-2.793512e-06,-0.05343856,-0.008897605,0.0018164389,0.010230376,0.004902229,0.00079491653,0.47607344,-1.419828,1.9503754,-2.0994475,-1.5711335,2.4514468,-0.025909962,0.1029507,-0.1277934,0.02520214,-0.0115680285,-0.026608406,0.0,0.40222588,-9.557653,0.842603,47.68599,-0.9188114,-1.7930028,-3.5224824,-0.10251102,-0.020549221,-0.31373847,25.25,25.8125,25.0625,27.5,28.0625,28.4375
0.11805192,-0.5917742,-1.0363748,-0.63047296,-0.026042506,0.031445395,-0.1361072,-0.3842685,-0.34906906,0.059984185,-3.0780098,0.62536055,3.2224554e-05,-0.05427394,-0.009208559,0.0021211072,0.010039256,0.004871496,0.0011457425,0.47606137,-1.4195994,1.9501227,-2.0994232,-1.5711697,2.4513865,-0.026237993,0.1043543,-0.13037248,0.026315222,-0.0113873705,-0.02728637,-0.095768064,0.40222588,-9.730036,0.8806493,47.71286,-0.98647887,-1.7651567,-3.5113301,-0.12602927,-0.02773501,-0.31355572,25.25,25.8125,25.0625,27.5,28.0625,28.4375
0.12005212,-1.1091411,-1.5595373,-0.7262043,-0.0250135,0.015282727,-0.12847911,-0.38436458,-0.34907377,0.059985343,-3.077997,0.62537676,4.2678792e-05,-0.055357084,-0.00976165,0.0021059008,0.009717106,0.004459178,0.00055458146,0.47598913,-1.4194304,1.9499182,-2.099387,-1.5711817,2.4513261,-0.026547605,0.10706354,-0.13363321,0.027082905,-0.010917284,-0.02700385,-0.13407528,0.45968673,-9.653421,0.8314132,47.69763,-0.9292607,-1.7750356,-3.44079,-0.10748355,-0.021829288,-0.32616675,25.25,25.8125,25.0625,27.5,28.0625,28.4375
0.122052185,-0.8298844,-1.4742274,-0.6314774,-0.028015643,0.012118504,-0.13681301,-0.38448834,-0.34908852,0.059999313,-3.0779593,0.6254653,6.459674e-05,-0.05631556,-0.0099204825,0.0021483258,0.010460151,0.004826619,-8.044461e-05,0.47591722,-1.4192135,1.9496187,-2.099303,-1.571206,2.4513144,-0.026595943,0.10901857,-0.13611434,0.027624795,-0.01175004,-0.026414191,-0.038307227,0.38307226,-9.634268,0.7933669,47.698532,-0.9752594,-1.8402188,-3.4178128,-0.10177049,-0.009587071,-0.34586328,25.25,25.8125,25.0625,27.5,28.0625,28.4375
0.12405215,-0.83780587,-1.2173704,-0.5406288,-0.024596548,0.009375233,-0.13800226,-0.3846025,-0.3491145,0.060003426,-3.077962,0.6253884,0.00012685788,-0.05806004,-0.0110496925,0.0014239657,0.010040736,0.0035768813,0.00020187837,0.47588116,-1.4189951,1.9493536,-2.0992792,-1.5712413,2.4512303,-0.026797304,0.11493154,-0.14130315,0.027814317,-0.010815054,-0.026896495,-0.15322891,0.40222588,-9.672575,0.8627467,47.691364,-1.0260993,-1.8869104,-3.2145944,-0.083698824,-0.022318719,-0.36561325,25.25,25.8125,25.0625,27.5,28.0625,28.4375
0.12605189,-0.7312095,-1.1564134,-0.58080244,-0.010773097,0.017438881,-0.13828006,-0.3847396,-0.34913358,0.060021844,-3.0779755,0.625391,0.00018260855,-0.060248926,-0.011324643,0.0034466325,0.008120316,0.007376434,-0.00019625034,0.4757967,-1.4187793,1.9490532,-2.099231,-1.5712532,2.451146,-0.028275179,0.113954395,-0.14489536,0.02812475,-0.010854886,-0.027975067,-0.11492168,0.3256114,-9.5385,0.8112748,47.698532,-1.0183423,-1.8562106,-3.2834039,-0.06841826,-0.03432495,-0.3683322,25.25,25.8125,25.0625,27.5,28.0625,28.4375
0.12805206,-1.1271739,-0.65696394,-0.548289,-0.009260013,0.017533194,-0.13191031,-0.38484746,-0.34916934,0.060026772,-3.0779643,0.625331,0.00022741743,-0.060268745,-0.011133443,0.0008833522,0.01022761,0.0023036336,5.7451038e-05,0.47578433,-1.4185487,1.9487666,-2.0991828,-1.5712894,2.4510977,-0.028917542,0.12006774,-0.1462344,0.02882167,-0.0104059605,-0.028870597,-0.076614454,0.30645782,-9.768343,0.8314132,47.71286,-0.99929136,-2.0821729,-3.3151875,-0.055152513,-0.020114977,-0.37874758,25.25,25.8125,25.0625,27.5,28.0625,28.4375
0.13005257,-0.9740471,-1.1672546,-0.39621994,-0.002932865,0.031367812,-0.13239631,-0.3849566,-0.34922788,0.060045063,-3.078033,0.6253449,0.00021103553,-0.061002437,-0.012017201,0.0019697386,0.008533616,0.0035988074,0.0010484387,0.47574854,-1.4183328,1.9484662,-2.0991342,-1.5712289,2.451062,-0.028604178,0.11995008,-0.14876962,0.029545018,-0.009496364,-0.02954919,-0.11492168,0.40222588,-9.615114,0.7933669,47.684196,-1.0350112,-1.933292,-3.2946258,-0.059175603,-0.043415938,-0.39107293,25.25,25.8125,25.0625,27.5,28.0625,28.4375
0.13205245,-1.5662507,-0.9472841,-0.105872825,-0.018572224,0.029503915,-0.13607293,-0.3851055,-0.3492287,0.06006958,-3.077998,0.6253547,0.0002983503,-0.06134626,-0.011805396,0.0015071803,0.010267539,0.0024422896,0.0028230655,0.47565258,-1.4181159,1.9481424,-2.0990503,-1.5712894,2.4509768,-0.028623449,0.12204608,-0.15046275,0.0309641,-0.010508534,-0.031340674,-0.2681506,0.4213795,-9.461885,0.7777002,47.67614,-1.1129766,-1.9669452,-3.3390555,-0.06664361,-0.03462906,-0.37170622,25.25,25.8125,25.0625,27.5,28.0625,28.4375
0.13405252,-1.5204183,-1.30292,-0.14238368,-0.015124703,0.03424639,-0.13203248,-0.38522068,-0.34923705,0.06005688,-3.0779386,0.6253407,0.0002985103,-0.061038166,-0.011608374,0.0007443545,0.011909916,0.00042013693,0.005026587,0.47559273,-1.417863,1.9478678,-2.0989902,-1.5713376,2.450916,-0.028333379,0.123783045,-0.15106314,0.032375727,-0.011042813,-0.033252515,-0.36391866,0.36391866,-9.442732,0.8493211,47.73077,-1.1315137,-1.9062757,-3.2871277,-0.050656587,-0.04041522,-0.35188168,25.25,25.8125,25.0625,27.5,28.0625,28.4375
0.136052,-1.5034125,-1.5197011,0.0597747,-0.015899504,0.036525484,-0.13145088,-0.38535607,-0.34927097,0.060074426,-3.0779355,0.62530303,0.00033666095,-0.0636341,-0.011958973,0.0018401666,0.010115823,0.0026249306,0.0025483721,0.4755439,-1.4176104,1.9475187,-2.0989063,-1.5713614,2.4508443,-0.030449215,0.1255277,-0.15559728,0.032380544,-0.010466685,-0.032888886,-0.30645782,0.36391866,-9.442732,0.8560339,47.694054,-1.1519943,-1.9166572,-3.243781,-0.051750347,-0.03769057,-0.35080928,25.25,25.8125,25.0625,27.5,28.0625,28.4375
0.13805184,-1.4824984,-1.0526948,0.15524955,-0.026574558,0.03214494,-0.13153307,-0.38548,-0.34932593,0.060100064,-3.0779805,0.62527376,0.0003814354,-0.06431044,-0.01184387,0.0014588569,0.011108075,0.00331935,0.0023311325,0.47552,-1.4173815,1.947184,-2.0988467,-1.57135,2.4507966,-0.030485768,0.12709989,-0.15632956,0.03138217,-0.011669153,-0.03270585,-0.22984336,0.36391866,-9.308657,0.86498255,47.684196,-1.130455,-1.866952,-3.3350577,-0.012028692,-0.022435369,-0.35514563,25.25,25.8125,25.0625,27.5,28.0625,28.4375
0.14005193,-1.0709759,-0.6993642,0.26291168,-0.011751257,0.029871555,-0.14167023,-0.38563132,-0.34931898,0.06009003,-3.0779176,0.62539387,0.00042435786,-0.06452587,-0.011755778,8.473902e-05,0.011618451,-2.3344493e-05,0.0036716845,0.4753996,-1.4171158,1.9468964,-2.0988224,-1.5713972,2.4507594,-0.031511273,0.13073917,-0.15758827,0.032198567,-0.0105948355,-0.035072792,-0.4405331,0.2681506,-9.289502,0.8112748,47.67345,-1.1567804,-1.7891178,-3.3788857,0.0018027637,-0.032531824,-0.3512855,25.25,25.8125,25.0625,27.5,28.0625,28.4375
0.14205195,-0.8037246,-0.45851025,0.58930916,0.0019653626,0.029708143,-0.13953976,-0.38575196,-0.34936073,0.06010391,-3.0779438,0.62530273,0.0004380483,-0.065966055,-0.01143142,8.950102e-05,0.011406474,-0.00051507866,0.0031073715,0.47536287,-1.4168752,1.9465722,-2.0987504,-1.5713972,2.4506626,-0.033653297,0.13276522,-0.16015434,0.0330757,-0.010185046,-0.036649995,-0.30645782,0.21068975,-9.155427,0.784413,47.683304,-1.1254373,-1.7066722,-3.4133573,0.011614833,-0.05701587,-0.3315797,25.25,25.8125,25.0625,27.5,28.0625,28.4375
0.1440519,-1.5284096,-0.04780255,0.732581,0.022279028,0.006429154,-0.13365312,-0.38590816,-0.34940782,0.060117316,-3.0779765,0.62528914,0.00049341307,-0.06659092,-0.011670625,0.00030076224,0.011393419,0.00047676655,0.0042637805,0.47530302,-1.4165864,1.9462017,-2.0987146,-1.5713972,2.4505904,-0.03349837,0.13346525,-0.16139795,0.03273168,-0.010629699,-0.037650492,-0.21068975,0.095768064,-9.021352,0.8940802,47.71286,-1.1463377,-1.8195369,-3.460102,0.027522378,-0.050392542,-0.31632954,25.25,25.8125,25.0625,27.5,28.0625,28.4375
0.14605233,-0.7052304,0.27022442,0.7510843,0.039323833,0.020036945,-0.134236,-0.38604075,-0.3494337,0.060129642,-3.0779872,0.6252515,0.0005587649,-0.06718888,-0.012053676,-0.0010940181,0.0126551865,-0.002517269,0.005798404,0.47524303,-1.4163564,1.9459013,-2.0986784,-1.5714215,2.4505057,-0.03351431,0.13865778,-0.16445825,0.03383536,-0.010385057,-0.03919978,-0.2681506,0.05746084,-8.868123,0.8940802,47.698532,-1.210927,-1.8758054,-3.4695044,0.059415415,-0.038278583,-0.31840724,25.25,25.8125,25.0625,27.5,28.0625,28.4375
0.14805228,-0.87941307,0.3875955,0.8703299,0.043851346,0.012446827,-0.13593443,-0.38618693,-0.34946406,0.060137365,-3.0779936,0.6252135,0.00058481656,-0.06831575,-0.012201949,0.0004464271,0.011458402,-0.0004600898,0.0063681663,0.47517055,-1.4160807,1.9455532,-2.0986183,-1.5714334,2.450409,-0.03434013,0.13739249,-0.16684617,0.035109032,-0.010264572,-0.04059504,-0.21068975,0.11492168,-8.810662,0.8493211,47.694946,-1.2386767,-1.6397197,-3.466761,0.048875146,-0.065340824,-0.3008724,25.25,25.8125,25.0625,27.5,28.0625,28.4375
0.15005243,-0.93687254,0.091329165,0.7442804,0.05067236,0.0041990876,-0.13358957,-0.3863199,-0.3494876,0.06013629,-3.0779688,0.6252087,0.00056404504,-0.07042781,-0.01226123,0.0011598094,0.011349206,0.0010988787,0.0063262517,0.4750982,-1.4158038,1.9452184,-2.0985343,-1.5714453,2.450337,-0.035744403,0.13938326,-0.17095143,0.035787232,-0.010889639,-0.041953985,-0.19153614,0.1340753,-8.829816,0.8537928,47.667187,-1.1473169,-1.780247,-3.511675,0.048548635,-0.058151938,-0.27181897,25.25,25.8125,25.0625,27.5,28.0625,28.4375
0.15205239,-0.45382574,0.21819276,0.7757023,0.029268142,0.007989483,-0.13283215,-0.38645875,-0.34950072,0.060134206,-3.0779424,0.6251457,0.0006079204,-0.07043777,-0.011000847,-0.00051782536,0.013265999,-0.0029700028,0.0047916765,0.47502542,-1.4155387,1.9449075,-2.0984862,-1.5714935,2.4502285,-0.03806149,0.14220814,-0.17073298,0.037234914,-0.0107300235,-0.04273673,-0.24899697,0.17238252,-8.810662,0.8605109,47.689575,-1.0327442,-1.7613335,-3.527647,0.07195796,-0.06392893,-0.25518188,25.25,25.8125,25.0625,27.5,28.0625,28.4375
0.15405262,-1.1523675,-0.34048036,0.7770877,0.021426734,-0.00082528824,-0.12903117,-0.38660103,-0.34953833,0.060135398,-3.0779085,0.62513816,0.00059937197,-0.071436726,-0.011130687,0.0001093513,0.014474161,-0.0035347496,0.0059728553,0.47497737,-1.4152256,1.9445227,-2.0983884,-1.5715178,2.4501803,-0.038201444,0.14403316,-0.17512746,0.04085942,-0.011549145,-0.04405452,-0.28730422,0.15322891,-8.90643,0.8179876,47.71554,-1.0945878,-1.8176472,-3.3827264,0.061538886,-0.050232176,-0.22521979,25.25,25.8125,25.0625,27.5,28.0625,28.4375
0.15605247,-1.5846288,-0.6836967,0.44073018,0.025586981,-0.008561288,-0.12343041,-0.38676405,-0.349546,0.060144994,-3.0778859,0.6251513,0.000619598,-0.07190827,-0.011336128,-0.0010534545,0.016643383,-0.007250132,0.0073546735,0.47485736,-1.4149479,1.9441622,-2.0983036,-1.5715417,2.4500716,-0.038096644,0.14915264,-0.17911673,0.044022616,-0.011782523,-0.045329023,-0.22984336,0.19153613,-8.868123,0.87393653,47.690468,-1.0934513,-1.7793659,-3.2713916,0.024030022,-0.05791265,-0.18135226,25.25,25.8125,25.0625,27.5,28.0625,28.4375
0.15805236,-1.4690124,-0.55004454,0.26305765,0.020983009,0.0007942224,-0.12748569,-0.3868965,-0.3495673,0.060145855,-3.0778446,0.62506574,0.00059564586,-0.07316551,-0.011452825,0.0016456792,0.014266165,-0.0042857355,0.006481316,0.474797,-1.4146607,1.9438027,-2.0981834,-1.5715774,2.4499633,-0.039503206,0.1456811,-0.18189748,0.046546094,-0.011026803,-0.045862734,-0.28730422,0.21068975,-9.059659,0.7709874,47.713753,-1.092833,-1.6616691,-3.2164388,-0.0028623603,-0.07081461,-0.15569387,25.25,25.8125,25.0625,27.5,28.0625,28.4375
0.16005246,-0.8546424,-0.4015062,0.21878397,0.0036343401,0.02513398,-0.14142577,-0.3870437,-0.34959555,0.060152587,-3.0778387,0.62504447,0.000575561,-0.0734308,-0.011061032,0.000316548,0.016866837,-0.0080717625,0.006411903,0.47471276,-1.4143708,1.9434317,-2.098086,-1.5715779,2.4498668,-0.04004084,0.14997762,-0.18449548,0.049404465,-0.011610156,-0.046328403,-0.24899697,0.2681506,-9.11712,0.87393653,47.694946,-1.0944154,-1.8508276,-3.2934742,-0.034907702,-0.05759596,-0.12237434,25.25,25.8125,25.0625,27.5,28.0625,28.4375
0.16205259,-1.3392898,-0.7724881,0.09400906,-0.009404343,0.026867472,-0.12396096,-0.38714138,-0.34958974,0.06011261,-3.0777173,0.62505907,0.00040551226,-0.07300916,-0.010706801,-0.0009259077,0.017980646,-0.012447034,0.0056271357,0.4746284,-1.4140697,1.9431437,-2.097942,-1.5716013,2.4498072,-0.04091088,0.15267861,-0.18540093,0.05200383,-0.010605853,-0.04641347,-0.24899697,0.3256114,-9.232041,0.7642693,47.695843,-1.0407684,-1.7095304,-3.3570724,-0.0758259,-0.06540336,-0.11374201,25.25,25.8125,25.0625,27.5,28.0625,28.4375
0.16405246,-1.2331833,-1.2172563,-0.10448049,-0.019165969,0.032887787,-0.13619097,-0.38729426,-0.3496166,0.060105346,-3.0776927,0.6249775,0.000355956,-0.073815815,-0.010592502,-0.0006757321,0.018175881,-0.013205372,0.0031991422,0.47454426,-1.4137329,1.942748,-2.0978334,-1.5716137,2.4496756,-0.04193302,0.15394226,-0.18793677,0.05403913,-0.0104370285,-0.045006458,-0.2681506,0.4405331,-9.289502,0.900793,47.70032,-1.1089301,-1.7424358,-3.2836514,-0.108437195,-0.07375605,-0.10853261,25.25,25.8125,25.0625,27.5,28.0625,28.4375
0.16605254,-1.9263409,-2.044052,-0.33915052,-0.021317134,0.022490717,-0.12190508,-0.38745496,-0.34965676,0.06011726,-3.0776803,0.6249758,0.0003906386,-0.07441801,-0.010318491,-0.0012769308,0.020551786,-0.014834096,0.0023928287,0.47448415,-1.4134194,1.9423407,-2.097749,-1.571638,2.4496162,-0.0420637,0.15702389,-0.19064912,0.056208167,-0.011807657,-0.04432691,-0.21068975,0.4213795,-9.3661175,0.85155696,47.684196,-1.0755771,-1.7619412,-3.3337007,-0.15129843,-0.054256536,-0.11838934,25.25,25.8125,25.0625,27.5,28.0625,28.4375
0.16805173,-1.6046706,-1.7039635,-0.17799157,-0.02262727,0.026114311,-0.12663595,-0.38760158,-0.34967375,0.06013148,-3.0776453,0.6249874,0.00035555553,-0.07508797,-0.010195432,-0.00114967,0.020189693,-0.015766053,0.0010740339,0.47438782,-1.4131428,1.9419569,-2.0976045,-1.5716494,2.4495318,-0.043343797,0.1580416,-0.19248794,0.057688657,-0.011064208,-0.04428856,-0.15322891,0.4213795,-9.346964,0.8179876,47.703903,-1.0079572,-1.7693347,-3.3162465,-0.20156865,-0.065391846,-0.11542552,25.25,25.8125,25.0625,27.5,28.0625,28.4375
0.17005183,-2.0325332,-1.6929764,-0.284435,-0.012211673,0.010220926,-0.116670676,-0.38775378,-0.34968454,0.060122933,-3.0775795,0.62497544,0.0003136742,-0.075438365,-0.0097767,-0.0023958804,0.022031493,-0.018284455,-0.0015028635,0.4742915,-1.4128178,1.9415749,-2.0974848,-1.5716857,2.4494367,-0.044060316,0.16145976,-0.19386417,0.058729455,-0.011557036,-0.042425547,-0.30645782,0.4405331,-9.423578,0.7933669,47.682407,-1.0144811,-1.6094106,-3.375587,-0.24060786,-0.070010155,-0.11372563,25.25,25.8125,25.0625,27.5,28.0625,28.4375
0.17205171,-1.3608183,-1.3836433,-0.38204685,-0.0023669417,0.01575865,-0.12440383,-0.38791543,-0.34971592,0.0601216,-3.0775547,0.62497175,0.0002928727,-0.0755873,-0.009811696,-0.0022714424,0.021028941,-0.018685915,-0.004226314,0.47420722,-1.4124811,1.9411682,-2.097389,-1.5716976,2.4493535,-0.04479816,0.16133802,-0.19412205,0.059005223,-0.01048382,-0.04044193,-0.22984336,0.34476504,-9.461885,0.8672237,47.675243,-1.0206667,-1.7732663,-3.5118213,-0.27198845,-0.07126202,-0.12998459,25.25,25.8125,25.0625,27.5,28.0625,28.4375
0.17405169,-0.9815659,-1.0596215,-0.5229905,0.0043093557,0.020124648,-0.13250673,-0.38806233,-0.3497419,0.060102385,-3.0775237,0.62494546,0.00018894569,-0.07623053,-0.009932632,-0.0037641837,0.021659918,-0.020896075,-0.00462644,0.47411096,-1.4121312,1.9407843,-2.0972812,-1.5716847,2.449245,-0.045427926,0.16571492,-0.19568524,0.058443684,-0.010046528,-0.04067031,-0.1340753,0.24899697,-9.5385,0.85826975,47.68062,-0.9894484,-1.8701653,-3.4193587,-0.28684545,-0.09787083,-0.1027762,25.25,25.8125,25.0625,27.5,28.0625,28.4375
0.17605183,-1.5483111,-1.4230994,-0.63749653,0.019036628,0.0011907013,-0.12424995,-0.3882151,-0.34974343,0.060083862,-3.077416,0.6250394,7.895284e-05,-0.07790477,-0.009819149,-0.00428983,0.022663552,-0.020664064,-0.0067337775,0.47399065,-1.4117818,1.9403886,-2.0971258,-1.5717095,2.4491973,-0.0464712,0.16934627,-0.1986245,0.058005955,-0.0110598225,-0.039600905,-0.21068975,0.22984336,-9.576807,0.89631605,47.70032,-1.0132272,-1.9224367,-3.4620733,-0.31864297,-0.09353469,-0.11740057,25.25,25.8125,25.0625,27.5,28.0625,28.4375
0.17805183,-1.290497,-1.1909726,-0.47002286,0.012957527,0.014128533,-0.12850952,-0.388398,-0.34977183,0.06009003,-3.0774136,0.62504,0.000102530714,-0.07920955,-0.009337219,-0.0050244327,0.022688106,-0.021169655,-0.0089648515,0.473882,-1.4114445,1.9399694,-2.0970542,-1.5717214,2.4490895,-0.048602063,0.17196251,-0.19979522,0.057019267,-0.010858413,-0.03950023,-0.095768064,0.24899697,-9.500193,0.8179876,47.696735,-0.8561354,-1.9631977,-3.595216,-0.32299295,-0.09682147,-0.1205553,25.25,25.8125,25.0625,27.5,28.0625,28.4375
0.1800519,-0.6344934,-0.49869263,-0.2022515,-0.0064273984,0.02992575,-0.1379491,-0.38856006,-0.34978184,0.060090482,-3.077352,0.62498826,0.000143194,-0.07966473,-0.010510214,-0.0051478385,0.022246338,-0.019841747,-0.008932741,0.47379857,-1.4111316,1.939586,-2.0969598,-1.5717934,2.448982,-0.046786502,0.17388311,-0.2013908,0.05531025,-0.011080548,-0.037714757,-0.11492168,0.17238252,-9.519346,0.8537928,47.68599,-0.96691126,-2.0396924,-3.562824,-0.33199984,-0.09022592,-0.1255767,25.25,25.8125,25.0625,27.5,28.0625,28.4375
0.18205203,-1.333181,-1.2354431,-0.1828728,0.015491418,0.01729186,-0.12673889,-0.38870555,-0.34981325,0.060064685,-3.0772896,0.62499636,-4.363051e-06,-0.08223487,-0.010956583,-0.005344346,0.022348177,-0.017728928,-0.01257624,0.47371426,-1.410746,1.9391674,-2.0968163,-1.571782,2.448911,-0.04762224,0.17823309,-0.20556949,0.05331195,-0.012152646,-0.03490032,-0.05746084,0.17238252,-9.442732,0.8314132,47.675243,-1.0984062,-1.9674201,-3.5647032,-0.32070446,-0.083905935,-0.17483671,25.25,25.8125,25.0625,27.5,28.0625,28.4375
0.1840525,-1.0121036,-0.36923686,-0.084049314,-0.000276748,0.02393119,-0.136402,-0.38888052,-0.34983817,0.060083717,-3.0772505,0.62508506,7.308572e-05,-0.08575602,-0.012124403,-0.0025631234,0.01839998,-0.010805213,-0.014198811,0.4736298,-1.4104458,1.9387587,-2.0967333,-1.5718297,2.448887,-0.04894928,0.17766204,-0.21082322,0.051170804,-0.011814479,-0.03460325,-0.1340753,0.15322891,-9.3661175,0.900793,47.704796,-0.9518844,-1.9655935,-3.5044446,-0.31728283,-0.09770564,-0.20349741,25.25,25.8125,25.0625,27.5,28.0625,28.4375
0.18605249,-1.147875,-0.43730235,-0.00939255,0.0029456413,0.009435997,-0.12619011,-0.38907826,-0.34986705,0.060086608,-3.077234,0.6251199,8.3907566e-05,-0.088151895,-0.012029699,-0.002494517,0.01769731,-0.008757066,-0.015282081,0.4735091,-1.4100727,1.9383024,-2.09665,-1.5718421,2.4487906,-0.051043604,0.18025284,-0.21358539,0.049197122,-0.012136767,-0.035611622,-0.1340753,0.34476504,-9.3661175,0.800085,47.70032,-0.8675677,-1.9625274,-3.4392278,-0.27970517,-0.108726114,-0.21815598,25.25,25.8125,25.0625,27.5,28.0625,28.4375
0.18805237,-1.0450022,-0.5877854,-0.12688018,0.0022031649,0.009037464,-0.12583947,-0.38922232,-0.3498985,0.06005823,-3.0771682,0.62504774,-1.2786075e-05,-0.08936583,-0.012728105,-0.0021326449,0.016698213,-0.007679087,-0.015264583,0.47344893,-1.4096874,1.9378952,-2.0965307,-1.5718659,2.448694,-0.05114114,0.18196803,-0.21638131,0.048859805,-0.011750476,-0.035724927,-0.21068975,0.4213795,-9.481039,0.8179876,47.691364,-0.8528173,-2.0339365,-3.4097981,-0.27432075,-0.10158919,-0.23402123,25.25,25.8125,25.0625,27.5,28.0625,28.4375
0.19005243,-1.346014,-1.062508,-0.16145381,-0.0117915,0.014860264,-0.1350806,-0.389427,-0.3499251,0.060076464,-3.0771472,0.6251767,2.5373944e-05,-0.09033044,-0.013979435,-0.0017111198,0.015537078,-0.0045027705,-0.01352429,0.4733178,-1.4093387,1.9374293,-2.0964358,-1.5718778,2.4486463,-0.04950529,0.18306026,-0.2180285,0.04605789,-0.012176175,-0.035827305,-0.24899697,0.30645782,-9.500193,0.83813137,47.66539,-1.0517014,-1.9444947,-3.5009038,-0.2502574,-0.105948225,-0.2414994,25.25,25.8125,25.0625,27.5,28.0625,28.4375
0.19205245,-1.5339439,-1.8836635,-0.27133805,-0.022634557,0.035642583,-0.1301186,-0.38960737,-0.3499517,0.060088236,-3.0771232,0.62521154,2.0306488e-05,-0.09250324,-0.013490339,-0.0012748811,0.014877924,-0.0023448444,-0.015788198,0.4732088,-1.409002,1.9369863,-2.0963166,-1.5718898,2.4485624,-0.052034285,0.18419144,-0.22009683,0.044773303,-0.012582335,-0.03609,-0.36391866,0.38307226,-9.5385,0.79560274,47.681515,-0.9510387,-1.871923,-3.4924154,-0.22626255,-0.1140461,-0.2512871,25.25,25.8125,25.0625,27.5,28.0625,28.4375
0.19405289,-2.0989869,-2.2325585,-0.32683912,-0.046389587,0.04650354,-0.12107225,-0.38978782,-0.34996116,0.060052432,-3.07702,0.625286,-4.4146032e-07,-0.093243346,-0.013254267,-0.002783865,0.015880512,-0.0047632176,-0.016068429,0.47310045,-1.408592,1.9365805,-2.0962565,-1.5719498,2.448514,-0.05321461,0.18845446,-0.22162251,0.044640146,-0.0123807425,-0.03698854,-0.4213795,0.4405331,-9.500193,0.8314132,47.682407,-0.89892375,-1.8617525,-3.5213666,-0.2160845,-0.12115762,-0.2619458,25.25,25.8125,25.0625,27.5,28.0625,28.4375
0.19605203,-2.235225,-2.2663696,-0.25813064,-0.05151512,0.05057386,-0.12393927,-0.38995883,-0.3499833,0.06004077,-3.0769663,0.62531275,-6.407642e-05,-0.09396908,-0.013388701,-0.0022417554,0.0161144,-0.0041914545,-0.015436839,0.47299245,-1.40822,1.93615,-2.0961368,-1.5719622,2.4484298,-0.053296465,0.18903022,-0.22388077,0.045919277,-0.012855676,-0.03769921,-0.38307226,0.4405331,-9.500193,0.97464454,47.694054,-0.90225196,-1.819102,-3.5722032,-0.212378,-0.12003034,-0.25978404,25.25,25.8125,25.0625,27.5,28.0625,28.4375
0.19805199,-2.1684341,-2.1744528,-0.1596418,-0.03687546,0.051435724,-0.12817544,-0.39017513,-0.35004935,0.060060773,-3.0770016,0.62531984,3.3044562e-05,-0.09586935,-0.013920549,-0.000884061,0.0140689565,-0.0011184447,-0.016350389,0.47292,-1.4078232,1.9356345,-2.0960891,-1.5719737,2.4483576,-0.05430924,0.18907313,-0.22695512,0.045280363,-0.012440849,-0.037799,-0.4405331,0.51714754,-9.481039,0.85826975,47.701214,-0.81402725,-1.831958,-3.6352704,-0.20293012,-0.12698987,-0.27337182,25.25,25.8125,25.0625,27.5,28.0625,28.4375
0.20005195,-2.100352,-1.5451125,-0.083188,-0.020059168,0.045064744,-0.12498025,-0.39036736,-0.3500444,0.060045857,-3.0769076,0.6253963,3.1040567e-05,-0.098035954,-0.014789443,-0.00015770957,0.012088675,0.0027848273,-0.016426302,0.47277606,-1.4074504,1.9352158,-2.0959942,-1.5720338,2.4482737,-0.0546797,0.19054772,-0.22967397,0.04214349,-0.0124716,-0.038091,-0.49799395,0.40222588,-9.442732,0.8112748,47.65643,-0.8476584,-1.8251193,-3.6345592,-0.14558548,-0.13599642,-0.29513672,25.25,25.8125,25.0625,27.5,28.0625,28.4375
0.2020519,-1.7503897,-1.142203,-0.19643196,0.0044884216,0.04337644,-0.12912777,-0.3905813,-0.35010594,0.060065344,-3.0769606,0.6254645,6.710148e-05,-0.09923274,-0.015252699,-1.10875335e-05,0.010757679,0.0034772232,-0.016446186,0.47266778,-1.4070655,1.9347123,-2.0959346,-1.571998,2.4482014,-0.055458374,0.19218445,-0.23180722,0.04141348,-0.01160697,-0.038851477,-0.40222588,0.45968673,-9.461885,0.83365434,47.66987,-0.849615,-1.813277,-3.5415995,-0.102978334,-0.15054569,-0.33542427,25.25,25.8125,25.0625,27.5,28.0625,28.4375
0.20405187,-1.5186872,-0.7175343,-0.12677796,0.015943784,0.03738855,-0.1294544,-0.39079005,-0.350141,0.0600589,-3.0769145,0.6254922,0.000108048785,-0.099687636,-0.014784743,-0.0012785817,0.01271901,0.0006095957,-0.016904125,0.47257155,-1.4066439,1.9342226,-2.0958622,-1.5720462,2.4481287,-0.05636932,0.19591987,-0.23367226,0.042987265,-0.012049304,-0.039302293,-0.36391866,0.30645782,-9.346964,0.8717007,47.668976,-0.8874103,-1.7618277,-3.555266,-0.09583243,-0.15572213,-0.3423525,25.25,25.8125,25.0625,27.5,28.0625,28.375
0.2060521,-1.1328247,-0.49591804,-0.20571552,0.020531105,0.033981394,-0.1333439,-0.39097345,-0.3501713,0.060056657,-3.0769053,0.6255486,7.890591e-05,-0.101353675,-0.015166417,-0.00023972872,0.0120583195,0.0026520148,-0.01758972,0.47245124,-1.4062833,1.933791,-2.0957782,-1.5720338,2.448045,-0.05693885,0.19679648,-0.23725815,0.04357776,-0.012397891,-0.039183635,-0.40222588,0.2681506,-9.346964,0.96569055,47.672558,-0.8214736,-1.8167295,-3.5833056,-0.06668437,-0.15952554,-0.35446477,25.25,25.8125,25.0625,27.5,28.0625,28.375
0.20805255,-1.0353907,-0.27783567,-0.02080569,0.019819137,0.02484557,-0.14227547,-0.3911875,-0.35019943,0.06006211,-3.0768573,0.62559617,9.509307e-05,-0.10227501,-0.015053292,-0.0005879464,0.01281847,0.0017530886,-0.018289924,0.47233096,-1.4058741,1.9332775,-2.0956585,-1.5720705,2.4479609,-0.057750307,0.19932008,-0.23970369,0.04464403,-0.012669794,-0.03929282,-0.22984336,0.21068975,-9.32781,0.90750587,47.67614,-0.78487676,-1.8636754,-3.617961,-0.046782605,-0.16455191,-0.36904642,25.25,25.8125,25.0625,27.5,28.0625,28.375
0.2100522,-1.1557277,-0.20914294,0.16000338,0.013806186,0.01822442,-0.14085455,-0.3913963,-0.3502139,0.06005081,-3.076783,0.62569714,0.00010887172,-0.10389767,-0.014684911,-0.0005042563,0.013963805,0.0015889278,-0.019720297,0.4721985,-1.4054646,1.9328097,-2.0955741,-1.5721182,2.4479012,-0.05920429,0.20193663,-0.24339819,0.046389114,-0.0136207435,-0.039311994,-0.2681506,0.1340753,-9.289502,0.8537928,47.684196,-0.7181556,-1.9244616,-3.5646143,-0.019157216,-0.17119405,-0.39704877,25.25,25.8125,25.0625,27.5,28.0625,28.375
0.21205206,-1.3335003,-0.101166345,0.045660324,0.020777414,0.0042933426,-0.12822065,-0.39162397,-0.35023543,0.060045723,-3.0767462,0.62576544,0.0001538272,-0.105280034,-0.014828418,-0.00047498086,0.014241333,0.0010867212,-0.019638896,0.4720543,-1.4050431,1.932319,-2.0955136,-1.5721544,2.4478047,-0.06013125,0.20476073,-0.24716076,0.04789635,-0.013645715,-0.040318646,-0.17238252,0.019153614,-9.232042,0.8560339,47.684196,-0.6739975,-2.0204945,-3.428267,-0.025026288,-0.17055841,-0.4061945,25.25,25.8125,25.0625,27.5,28.0625,28.375
0.21405211,-0.9871944,-0.010892182,0.092568114,0.035336833,0.0019898738,-0.12747723,-0.3918269,-0.35028714,0.060049806,-3.0767395,0.6257828,0.00017632483,-0.10508438,-0.014161,-0.0016013068,0.016132683,-0.0015740083,-0.019952562,0.47197005,-1.4046342,1.9318165,-2.0954292,-1.5721668,2.4477324,-0.060783423,0.20680772,-0.24735449,0.04927247,-0.014118344,-0.040656053,-0.1340753,0.05746084,-9.232041,0.93436235,47.687782,-0.66226244,-2.033148,-3.5010982,0.01300394,-0.15832426,-0.40826607,25.25,25.8125,25.0625,27.5,28.0625,28.375
0.2160521,-0.71298903,0.20923771,0.08575315,0.028546289,0.006477733,-0.13261658,-0.39201054,-0.35030437,0.06001347,-3.076665,0.6257871,9.0679394e-05,-0.1061396,-0.014400825,-0.0016437706,0.016337557,-0.002421935,-0.02045678,0.4718498,-1.4042001,1.931374,-2.0953333,-1.5721902,2.4476247,-0.061395258,0.20943025,-0.25075287,0.050893273,-0.013923803,-0.04076141,-0.17238252,0.095768064,-9.174581,0.88289046,47.687782,-0.60984766,-2.1718302,-3.5410433,0.013710069,-0.17637798,-0.44541815,25.25,25.8125,25.0625,27.5,28.0625,28.375
0.2180526,-0.723645,0.07931304,-0.07591534,0.03343262,0.0033528227,-0.138563,-0.39224336,-0.3503461,0.060045537,-3.0766528,0.62586063,0.00015584957,-0.10755782,-0.013909622,-0.0011643851,0.017091595,-0.0022730448,-0.02033215,0.47172928,-1.4038037,1.9308108,-2.0952008,-1.572215,2.447552,-0.0630047,0.21072076,-0.25388375,0.052941073,-0.014666935,-0.04249288,-0.11492168,0.0,-9.212888,0.9298854,47.705692,-0.61916465,-2.1442964,-3.4952524,0.035734534,-0.18965504,-0.46614957,25.25,25.8125,25.0625,27.5,28.0625,28.375
0.22005193,-0.5755061,-0.06459557,0.015647689,0.014621386,0.012692926,-0.1410803,-0.39243686,-0.35037687,0.060016617,-3.0765789,0.62595874,4.933549e-05,-0.10812344,-0.014348558,-0.0007377935,0.016761985,-0.0027478212,-0.018786563,0.47160918,-1.4033473,1.9303197,-2.0950801,-1.572215,2.4475029,-0.063019775,0.21183619,-0.2566863,0.05489545,-0.014165909,-0.044052675,-0.11492168,0.095768064,-9.251195,0.86498255,47.690468,-0.55618083,-2.079226,-3.411194,0.012196429,-0.19582385,-0.47800532,25.25,25.8125,25.0625,27.5,28.0625,28.375
0.22205202,-0.9350589,-0.44984972,-0.034635957,0.003714739,0.014523103,-0.12626167,-0.39265245,-0.3503821,0.060006026,-3.0764792,0.6259933,7.963285e-05,-0.10702171,-0.014848907,-0.001316957,0.019554954,-0.0068129553,-0.015210868,0.47147813,-1.4029257,1.9298295,-2.09497,-1.5722989,2.4474065,-0.060704127,0.2144165,-0.2596333,0.060147155,-0.014806729,-0.045309626,-0.22984336,0.24899697,-9.078813,0.8940802,47.68599,-0.74076813,-2.0558777,-3.443966,-0.00228022,-0.20079431,-0.49257904,25.25,25.8125,25.0625,27.5,28.0625,28.375
0.22405207,-0.4870275,-0.66655225,-0.23455966,-0.004446549,0.038739994,-0.14119875,-0.3928753,-0.35041445,0.06000132,-3.0764213,0.6260182,6.5966036e-05,-0.10731138,-0.01452476,-0.0020416433,0.020441968,-0.009377045,-0.012990307,0.47135776,-1.4024689,1.9292797,-2.094838,-1.5723351,2.4473095,-0.061717514,0.21680884,-0.26129085,0.062089514,-0.014439545,-0.04854338,-0.19153613,0.30645782,-9.193734,0.9097417,47.694946,-0.6299359,-1.9947792,-3.4979882,-0.04418274,-0.2006031,-0.47856143,25.25,25.8125,25.0625,27.5,28.0625,28.375
0.22605288,-1.3247459,-1.1624001,-0.24385445,-0.017741792,0.024554448,-0.13660656,-0.39309952,-0.35042873,0.05999763,-3.0763638,0.62610155,1.4404661e-05,-0.107947834,-0.013289648,-0.0018417839,0.022039892,-0.011029034,-0.01247016,0.47118893,-1.4020364,1.9287528,-2.0946934,-1.5723466,2.4472003,-0.063956425,0.2171721,-0.26307282,0.0657005,-0.01511807,-0.051299676,-0.11492168,0.24899697,-9.3661175,0.86945957,47.684196,-0.5443199,-1.9181927,-3.5905597,-0.055488065,-0.19773477,-0.4455214,25.25,25.8125,25.0625,27.5,28.0625,28.375
0.22805268,-1.3537534,-1.4017708,-0.001388138,-0.017408937,0.01839186,-0.12787901,-0.393319,-0.35046536,0.059996095,-3.076328,0.6259949,5.175564e-05,-0.10654022,-0.014810639,-0.00079164165,0.022713391,-0.013154268,-0.008091405,0.4710943,-1.4015917,1.9282144,-2.0945833,-1.5724066,2.4470441,-0.06023234,0.21695365,-0.2666639,0.071702555,-0.014751148,-0.05195464,-0.038307227,0.28730422,-9.289502,0.8940802,47.68062,-0.6258442,-1.8199973,-3.507344,-0.117813595,-0.20487222,-0.44434854,25.25,25.8125,25.0625,27.5,28.0625,28.375
0.23005281,-0.7989984,-0.80379003,-0.17504022,0.0023720486,0.011624739,-0.13206322,-0.3935226,-0.3505097,0.059980102,-3.0763164,0.62602836,-2.0086165e-05,-0.106234886,-0.014353779,-0.0021657897,0.025005046,-0.01671326,-0.0047872085,0.4709742,-1.4011465,1.9277114,-2.094487,-1.5723828,2.4469466,-0.060436938,0.21999884,-0.26764596,0.07384586,-0.015185144,-0.055461206,-0.076614454,0.30645782,-9.308656,0.9030289,47.67614,-0.7767091,-1.9540011,-3.4882584,-0.18349552,-0.22359301,-0.41818488,25.25,25.8125,25.0625,27.5,28.0625,28.375
0.23205216,-0.7313671,-0.6520885,-0.308278,0.028781582,-0.0068795197,-0.12518013,-0.39374983,-0.35050187,0.059969377,-3.0761657,0.62609076,-4.7970956e-05,-0.108054265,-0.014980594,-0.0006723135,0.022802882,-0.014438516,-0.0011038623,0.47081798,-1.4006896,1.9271611,-2.0942953,-1.5724787,2.446849,-0.061493684,0.22016707,-0.27148286,0.07446879,-0.014277958,-0.060201056,-0.019153614,0.3256114,-9.289502,0.8918391,47.67614,-0.6919411,-1.8797916,-3.5654192,-0.18299311,-0.2402288,-0.3723197,25.25,25.8125,25.0625,27.5,28.0625,28.375
0.23405255,-0.26920575,-0.44534963,-0.63322335,0.02716801,-0.014962305,-0.13462661,-0.39396018,-0.3505498,0.059971314,-3.0761716,0.62607145,-0.00010654185,-0.1074311,-0.014911912,-0.0012848374,0.024624625,-0.016667906,0.002150875,0.47069824,-1.4002568,1.9266227,-2.0941622,-1.5724548,2.4467168,-0.0606185,0.22152603,-0.27225888,0.0766968,-0.014895168,-0.06257832,0.076614454,0.3256114,-9.423578,0.9791215,47.691364,-0.7504501,-1.8264107,-3.585484,-0.2265252,-0.23409075,-0.3129666,25.25,25.8125,25.0625,27.5,28.0625,28.375
0.23605265,-0.09790014,-0.44367677,-0.41077247,0.0029755502,-0.0196783,-0.13599415,-0.39415202,-0.35055557,0.059926853,-3.0760226,0.6259819,-0.00022107524,-0.10757874,-0.014647288,-0.0027121766,0.026408514,-0.01948829,0.0018661594,0.47059005,-1.3997632,1.9261092,-2.093983,-1.5725387,2.4465723,-0.060967274,0.22514556,-0.27353713,0.077672474,-0.015219791,-0.06263821,0.15322891,0.28730422,-9.346964,0.9298854,47.703007,-0.8495122,-1.9896581,-3.6826057,-0.27073708,-0.2383643,-0.29793972,25.25,25.8125,25.0625,27.5,28.0625,28.375
0.23805171,-0.53221023,-1.4423813,-0.21294916,-0.009168193,-0.012966862,-0.12581079,-0.3943483,-0.3505933,0.05991374,-3.0759904,0.6260116,-0.00036314578,-0.10887452,-0.014745597,-0.0027883742,0.02701375,-0.019119984,0.004986137,0.47045797,-1.3993182,1.9255828,-2.093815,-1.5725034,2.446463,-0.061443985,0.22764798,-0.27644944,0.07802476,-0.015947428,-0.066229776,0.11492168,0.34476504,-9.270349,0.8851263,47.691364,-0.7701536,-1.9509456,-3.673449,-0.30559367,-0.24586187,-0.25816178,25.25,25.8125,25.0625,27.5,28.0625,28.375
0.24005201,-0.14562869,-1.7960821,-0.46057123,-0.015370274,0.00042306748,-0.13018042,-0.394579,-0.35060784,0.05990328,-3.0758808,0.62594813,-0.0003610785,-0.11084776,-0.015853591,-0.0020198757,0.025567539,-0.01700573,0.0066345693,0.4703381,-1.3988369,1.9250082,-2.0936482,-1.5725993,2.4463181,-0.061421875,0.23009253,-0.28106657,0.07764482,-0.01563871,-0.067853674,0.22984336,0.34476504,-9.346964,0.92764956,47.67166,-0.85951424,-1.9785422,-3.573981,-0.3162346,-0.24227212,-0.21460518,25.25,25.8125,25.0625,27.5,28.0625,28.375
0.24205223,-0.44563025,-1.7726113,-0.5457068,-0.020844162,-0.0111527415,-0.12847425,-0.39479476,-0.3506494,0.059912276,-3.0758739,0.6258702,-0.0004082484,-0.11224024,-0.016151564,-0.0022855315,0.025092341,-0.016204257,0.005615787,0.4702179,-1.3984034,1.9244446,-2.0934808,-1.5725993,2.4461505,-0.062126547,0.2326483,-0.28323308,0.07632444,-0.015591183,-0.06753778,0.32561144,0.34476507,-9.461885,0.8806493,47.692257,-0.84713,-1.9600601,-3.4128067,-0.32292548,-0.23974606,-0.18310896,25.25,25.8125,25.0625,27.5,28.0625,28.375
0.24405232,-0.19755054,-2.3950074,-0.34105298,-0.031495184,0.0070692715,-0.13170703,-0.39502385,-0.3506801,0.059897352,-3.0757995,0.62585497,-0.00043938932,-0.11451217,-0.016966393,-0.0021521202,0.02413932,-0.013507892,0.004769622,0.4700976,-1.3979102,1.9238714,-2.0933383,-1.5726475,2.4460306,-0.06243397,0.23591414,-0.2869013,0.07388876,-0.015982874,-0.06699446,0.095768064,0.49799395,-9.461885,0.92093146,47.71554,-0.8059701,-2.0134358,-3.5191033,-0.31327552,-0.25003874,-0.17157593,25.25,25.8125,25.0625,27.5,28.0625,28.375
0.24605171,-0.44208184,-1.8881412,-0.36203295,-0.03240025,-0.00063955394,-0.12712754,-0.395302,-0.35072947,0.05993303,-3.075796,0.6258737,-0.00032348785,-0.116992414,-0.018255709,-0.0011797607,0.021288361,-0.009135797,0.00386329,0.46996558,-1.3974408,1.9232129,-2.0932071,-1.5726947,2.4459112,-0.06268548,0.23765182,-0.2904954,0.0705502,-0.01543444,-0.06634028,0.1340753,0.4405331,-9.385271,0.9321212,47.683304,-0.8916714,-2.0760646,-3.4832654,-0.2915672,-0.26658428,-0.14965625,25.25,25.8125,25.0625,27.5,28.0625,28.375
0.24805167,-0.56966,-1.4158139,-0.80188626,-0.022363042,-0.005180827,-0.12954038,-0.3954949,-0.3507643,0.05989605,-3.075735,0.6257835,-0.00041812038,-0.1185287,-0.019460836,-0.0009119371,0.019359529,-0.0062955557,0.002689918,0.46986973,-1.3969598,1.9227093,-2.0930893,-1.572719,2.4457672,-0.062177114,0.23961158,-0.29281268,0.06750093,-0.015017488,-0.06465699,0.076614454,0.4405331,-9.519346,0.86945957,47.681515,-0.88552314,-2.0990434,-3.322514,-0.24990496,-0.28007713,-0.14464182,25.25,25.8125,25.0625,27.5,28.0625,28.375
0.25005248,-0.7981361,-2.0914938,-0.859782,-0.020316279,0.0051618433,-0.12261071,-0.3957239,-0.3507942,0.0598709,-3.0756812,0.6257747,-0.0004990345,-0.12037081,-0.019726401,-0.0002422554,0.017303402,-0.0030141955,-0.0008695453,0.46972537,-1.3964552,1.9221481,-2.0929587,-1.5727309,2.4456246,-0.06350834,0.23994344,-0.2942121,0.06471243,-0.01468121,-0.062428016,-0.05746084,0.59376204,-9.595961,0.8851263,47.682407,-0.90208614,-2.027648,-3.4874551,-0.22486413,-0.29065076,-0.13780609,25.25,25.8125,25.0625,27.5,28.0625,28.375
0.25205258,-1.4719784,-2.8097017,-0.82988364,-0.033509735,0.010585922,-0.12328279,-0.39595342,-0.35082674,0.059882503,-3.0756211,0.62585974,-0.00052292115,-0.12136065,-0.019889222,8.3856416e-05,0.017023025,-0.0007215841,-0.0038358741,0.46959323,-1.3960106,1.9215621,-2.0927794,-1.5727552,2.4455535,-0.06354834,0.24031979,-0.29512414,0.063082516,-0.015472108,-0.05949785,-0.095768064,0.6512229,-9.691729,0.88289046,47.691364,-0.8368468,-1.9483042,-3.7442083,-0.176588,-0.3009132,-0.15770827,25.25,25.8125,25.0625,27.5,28.0625,28.375
0.25405172,-1.4774681,-2.3364718,-0.5717121,-0.05165555,0.036045007,-0.12595715,-0.39620253,-0.35088402,0.059884924,-3.0756068,0.6258368,-0.00050431705,-0.12150795,-0.021401156,0.00023147966,0.01589689,0.0003805664,-0.0053249965,0.4694861,-1.3955058,1.9209398,-2.0926597,-1.5727786,2.4454343,-0.061318498,0.2416573,-0.29690015,0.062031724,-0.014966076,-0.05577976,-0.2873042,0.6895301,-9.730036,0.9567419,47.675243,-1.0396414,-1.9346995,-3.9037442,-0.1718385,-0.30844954,-0.19257593,25.25,25.8125,25.0625,27.5,28.0625,28.375
0.25605202,-1.8540913,-2.0606484,-0.62398154,-0.062522024,0.04705834,-0.1279481,-0.39646235,-0.35090676,0.059879366,-3.0755334,0.6259368,-0.0005174423,-0.12250853,-0.021362562,0.00078960205,0.015611895,0.0020591153,-0.006840165,0.46931803,-1.3950008,1.9203299,-2.0925162,-1.5728153,2.4453385,-0.061885033,0.24172159,-0.29829416,0.061735,-0.015476135,-0.05482831,-0.38307226,0.47884035,-9.710882,1.0015011,47.69763,-1.0962632,-1.7916377,-3.7663732,-0.14934391,-0.33538058,-0.23057494,25.25,25.8125,25.0625,27.5,28.0625,28.375
0.25805256,-1.9583474,-1.8273231,-0.78433233,-0.03244898,0.04718474,-0.12891552,-0.39668375,-0.35098487,0.059889242,-3.0755625,0.6258299,-0.0005075925,-0.12567583,-0.02126695,0.0018692366,0.013913002,0.0047239563,-0.011188715,0.46925682,-1.3945322,1.9197325,-2.092397,-1.5728148,2.445207,-0.06500852,0.24363875,-0.30303162,0.061410934,-0.015174285,-0.053602293,-0.30645782,0.36391866,-9.710882,0.8940802,47.687782,-0.9481988,-1.7835827,-3.8241181,-0.10132161,-0.33211333,-0.23212887,25.25,25.8125,25.0625,27.5,28.0625,28.375
0.26005265,-2.0595415,-1.2371523,-1.0429815,-0.0063932566,0.030262537,-0.12688816,-0.3969301,-0.3510291,0.059883773,-3.0755181,0.62589663,-0.00047764354,-0.1253152,-0.022946209,0.0022019697,0.014635149,0.004799647,-0.010795516,0.46913826,-1.3940383,1.9191455,-2.0923002,-1.5728515,2.4451363,-0.061292026,0.24537039,-0.3063443,0.063257076,-0.015848989,-0.050275285,-0.34476507,0.36391866,-9.768343,0.8985519,47.67166,-1.1282728,-1.9009496,-3.7857995,-0.102265656,-0.3438722,-0.26680788,25.25,25.8125,25.0625,27.5,28.0625,28.375
0.26205274,-2.0829258,-0.56491184,-0.8448239,0.0099082375,0.028071253,-0.12099317,-0.39720026,-0.3510683,0.05986961,-3.0754888,0.62590945,-0.00047309825,-0.12674296,-0.023046147,0.0014907711,0.013928663,0.0052942554,-0.01092162,0.46898183,-1.3934976,1.9185237,-2.0922053,-1.5728754,2.444992,-0.06256729,0.24827534,-0.30773038,0.060970165,-0.015454245,-0.051424585,-0.36391866,0.3256114,-9.768343,0.9097417,47.661808,-1.1560972,-1.8778179,-3.7270107,-0.060151704,-0.3584054,-0.29320857,25.25,25.8125,25.0625,27.5,28.0625,28.375
0.26405182,-1.4703981,-0.44118434,-0.63107663,0.011659289,0.04690011,-0.12966634,-0.39743415,-0.3511347,0.059883237,-3.075494,0.62587035,-0.00045137838,-0.12952943,-0.023513496,0.0019214553,0.013777579,0.0070319227,-0.0106102275,0.46889737,-1.3930278,1.9179128,-2.0920737,-1.5728873,2.4448829,-0.06375506,0.25226524,-0.31353432,0.06116311,-0.016119784,-0.052918617,-0.30645782,0.19153613,-9.749189,0.9545008,47.68599,-1.103983,-1.965128,-3.672402,-0.026082808,-0.3610974,-0.2854626,25.25,25.8125,25.0625,27.5,28.0625,28.375
0.266052,-1.4352663,-0.3219778,-0.94497883,0.012110916,0.033276487,-0.12770396,-0.3977093,-0.35119084,0.059884544,-3.07545,0.62591875,-0.00036969906,-0.1302367,-0.023314942,0.0012577932,0.015943054,0.0035643156,-0.009539156,0.46878907,-1.392486,1.9172534,-2.091976,-1.5729474,2.4448109,-0.06443722,0.25639215,-0.31796747,0.06553381,-0.016487114,-0.054669153,-0.2873042,0.17238252,-9.80665,0.9097417,47.682407,-1.1129961,-2.062868,-3.5316594,-0.021211289,-0.38176656,-0.27619398,25.25,25.8125,25.0625,27.5,28.0625,28.375
0.2680525,-1.4919466,-0.63904905,-0.884567,0.023013532,0.023587067,-0.1182764,-0.397988,-0.35123852,0.059898216,-3.0754466,0.62591916,-0.0003481231,-0.13130227,-0.023384497,0.0011398286,0.016393239,0.0040194453,-0.01263514,0.46863303,-1.3919687,1.9165839,-2.0918329,-1.5729598,2.444656,-0.06480646,0.2584185,-0.320195,0.06553764,-0.017093642,-0.051939383,-0.4405331,0.19153613,-9.825804,0.9388393,47.682407,-1.1703323,-2.1709518,-3.490204,-0.014311311,-0.3926278,-0.30485022,25.25,25.8125,25.0625,27.5,28.0625,28.375
0.27005246,-1.8309096,-1.062893,-0.81885874,0.012591942,0.03226785,-0.12789421,-0.39825112,-0.35127634,0.05990798,-3.0754018,0.6259849,-0.00031954647,-0.13195775,-0.023098554,0.0005483212,0.018112976,0.003218199,-0.012095411,0.46848908,-1.3914747,1.9159502,-2.0916884,-1.5729965,2.444559,-0.06507456,0.2609042,-0.32207474,0.06642137,-0.018270874,-0.05274211,-0.45968673,0.21068975,-9.653421,0.9030289,47.661808,-1.1512733,-2.175644,-3.503646,0.021116696,-0.38772988,-0.32293168,25.25,25.8125,25.0625,27.5,28.0625,28.375
0.27205276,-1.4764948,-0.9183652,-1.1990536,0.009572786,0.039669942,-0.120192185,-0.39850143,-0.3513258,0.059905816,-3.07536,0.6260146,-0.00033206484,-0.1313755,-0.022203457,0.0006036208,0.019575153,0.0011526191,-0.011856443,0.46836868,-1.3909591,1.9153179,-2.091544,-1.5730203,2.444463,-0.06581972,0.26003608,-0.3220646,0.06977828,-0.018639559,-0.053725258,-0.2873042,0.17238252,-9.710882,0.947788,47.672558,-1.1679628,-2.1476805,-3.693346,0.012789005,-0.3905207,-0.33942187,25.25,25.8125,25.0625,27.5,28.0625,28.375
0.27405193,-1.6339955,-1.2219517,-0.65934706,0.00021155366,0.03878259,-0.123517,-0.39879906,-0.3513862,0.059935253,-3.0753453,0.6260302,-0.00020615589,-0.13175368,-0.021411913,-5.441313e-06,0.021733835,-0.0019464283,-0.012902009,0.46824837,-1.3904296,1.9145998,-2.0914114,-1.5730804,2.4443548,-0.067130625,0.26251152,-0.32455054,0.07352447,-0.019162435,-0.05398909,-0.19153613,0.11492168,-9.691729,0.9365982,47.683304,-1.094033,-2.0355632,-3.7509098,-6.0533872e-05,-0.3841164,-0.3472601,25.25,25.8125,25.0625,27.5,28.0625,28.375
0.27605215,-1.6728162,-0.8910834,-0.33914667,0.005928842,0.016563334,-0.12518916,-0.39906207,-0.351408,0.0599305,-3.07528,0.6260359,-0.00018108428,-0.13300678,-0.021531323,0.0014135642,0.021893455,-0.0010065421,-0.013747994,0.46809223,-1.3899245,1.913988,-2.0912783,-1.573141,2.444211,-0.067600645,0.2626674,-0.32885262,0.07690085,-0.019732933,-0.05360942,-0.22984336,0.019153614,-9.423578,0.9791215,47.684196,-1.114764,-2.01095,-3.6793041,-0.005491604,-0.40211165,-0.36098236,25.25,25.8125,25.0625,27.5,28.0625,28.375
0.2780527,-1.0414678,-0.18517047,-0.45072654,0.039843682,-0.00069912325,-0.119402364,-0.39933136,-0.35146165,0.05994222,-3.0752673,0.62616724,-0.0001573087,-0.13370742,-0.021190185,0.0018783154,0.022287183,-0.0022485347,-0.014413745,0.46794772,-1.3894206,1.9133424,-2.0911572,-1.573141,2.4441504,-0.06887099,0.26345503,-0.33171797,0.080259666,-0.019524312,-0.054214507,-0.22984336,0.0,-9.3661175,0.94331104,47.667187,-1.0515349,-1.9132129,-3.6148376,-0.054706365,-0.40321153,-0.37544048,25.25,25.8125,25.0625,27.5,28.0625,28.375
0.28005195,-0.84402037,0.8764032,-0.3770788,0.055235203,-0.016349247,-0.1261772,-0.399621,-0.35150662,0.059965838,-3.075244,0.6261032,-5.075883e-05,-0.13452016,-0.020796185,0.0024778808,0.023372239,-0.003764412,-0.014136149,0.46781543,-1.3889035,1.9126486,-2.0910118,-1.5732125,2.4439816,-0.07002022,0.26459756,-0.33557734,0.08480993,-0.019809889,-0.055639967,-0.17238252,-0.095768064,-9.346964,0.9925471,47.66271,-1.0363256,-1.8087945,-3.5298066,-0.049583204,-0.40728512,-0.37897664,25.25,25.8125,25.0625,27.5,28.0625,28.375
0.2820521,-0.43380532,0.997455,-0.5794683,0.06904945,-0.018728236,-0.12699716,-0.3998564,-0.35155421,0.059943724,-3.0751934,0.6261301,-0.0001691885,-0.1354663,-0.020835502,0.00410949,0.024021665,-0.0024044695,-0.012633828,0.46768358,-1.3883634,1.9120263,-2.0908434,-1.5732015,2.4438734,-0.06996501,0.26387283,-0.33939236,0.08842747,-0.02101234,-0.057080273,-0.19153613,-0.05746084,-9.308657,0.89631605,47.655537,-1.0817032,-1.7131679,-3.4827337,-0.13211703,-0.4034709,-0.3941273,25.25,25.8125,25.0625,27.5,28.0625,28.375
0.28405222,-0.8962291,0.536961,-0.39826158,0.06654384,-0.017939469,-0.1262609,-0.40015233,-0.3515922,0.0599684,-3.0751123,0.6262479,-0.00013292243,-0.13631102,-0.01928571,0.0030335444,0.026322588,-0.0060018697,-0.01364207,0.46752647,-1.3878219,1.9112848,-2.090627,-1.5732611,2.4438007,-0.07303672,0.26688078,-0.34131494,0.091580175,-0.021449381,-0.059141215,-0.22984336,0.038307227,-9.193734,1.0171678,47.68599,-0.8425139,-1.654686,-3.4749222,-0.14591528,-0.41382074,-0.3750438,25.25,25.8125,25.0625,27.5,28.0625,28.375
0.28605235,-1.2957337,0.18009892,-0.4695436,0.026923355,0.013447748,-0.13455455,-0.40040925,-0.3516292,0.05997419,-3.0750542,0.62617564,-0.00015640017,-0.13396879,-0.01872697,0.00033814192,0.031793583,-0.015829712,-0.009522056,0.4673948,-1.387303,1.9106148,-2.09042,-1.5733093,2.443632,-0.07160096,0.27206206,-0.34317243,0.099484265,-0.021902712,-0.06182224,-0.34476504,0.076614454,-9.346964,0.9634547,47.711964,-0.98115176,-1.9104958,-3.483926,-0.24163276,-0.41633394,-0.3577628,25.25,25.8125,25.0625,27.5,28.0625,28.375
0.28805244,-1.6015811,-1.1137928,-0.39231628,0.005610895,0.047005214,-0.13025084,-0.40069503,-0.35165256,0.05998423,-3.0749469,0.626286,-0.00020261235,-0.13583413,-0.01821019,0.0007162903,0.032521714,-0.015043254,-0.008490674,0.46721444,-1.3867505,1.9098853,-2.0901687,-1.5733575,2.4435346,-0.07340729,0.27392223,-0.34663,0.10069688,-0.022927983,-0.064653195,-0.19153613,0.095768064,-9.3661175,0.89631605,47.70838,-1.0238699,-1.9278798,-3.5334234,-0.28437388,-0.407231,-0.33317396,25.25,25.8125,25.0625,27.5,28.0625,28.375
0.2900517,-1.9920971,-1.8950967,-0.32821253,-0.007059751,0.05565415,-0.11652216,-0.400975,-0.35170415,0.06000828,-3.0749354,0.62622607,-0.00015946555,-0.13710333,-0.016380055,-0.00048924296,0.03405306,-0.017039364,-0.009273798,0.4670809,-1.386233,1.909181,-2.0899894,-1.5733942,2.4433656,-0.077308446,0.2763666,-0.3469666,0.101048976,-0.023406813,-0.067769416,-0.19153614,0.19153613,-9.481039,0.8806493,47.675243,-0.7212357,-1.8238558,-3.5144095,-0.3545432,-0.39442247,-0.29670757,25.25,25.8125,25.0625,27.5,28.0625,28.375
0.29205272,-2.4983535,-2.2552326,-0.22475457,-0.02217014,0.051646523,-0.12080909,-0.40123352,-0.35174835,0.060005486,-3.074877,0.6262105,-0.0002527657,-0.13818409,-0.018032407,-0.000112292444,0.032779574,-0.013086767,-0.0051479475,0.46693793,-1.3856804,1.9084858,-2.089763,-1.5734061,2.4432209,-0.074913956,0.277876,-0.348913,0.09737701,-0.024075922,-0.0694951,-0.36391866,0.36391866,-9.308656,0.95002913,47.664497,-0.89835906,-1.7411232,-3.6401262,-0.32893538,-0.40318564,-0.26077664,25.25,25.8125,25.0625,27.5,28.0625,28.375
0.29405195,-1.6239457,-1.7194684,-0.14460689,-0.0299884,0.068028904,-0.13440634,-0.40154976,-0.3517628,0.060009383,-3.0747783,0.6262068,-0.00011470803,-0.14182185,-0.017760864,0.0010251235,0.030474644,-0.0064496626,-0.003123365,0.46676892,-1.3851151,1.907782,-2.0896332,-1.5735387,2.4430628,-0.077878624,0.27829742,-0.3509263,0.091980726,-0.025036845,-0.07447973,-0.24899697,0.28730422,-9.212888,0.9030289,47.705692,-0.7925383,-1.7729421,-3.7147057,-0.29141432,-0.39348078,-0.20585254,25.25,25.8125,25.0625,27.5,28.0625,28.375
0.2960521,-1.2977371,-1.8408036,-0.26788354,-0.01684426,0.055680808,-0.13316496,-0.40180984,-0.35181147,0.06000196,-3.0747144,0.6261569,-0.00016935499,-0.14623381,-0.018480683,0.002261199,0.027807266,0.0011539701,-0.005016859,0.46664813,-1.3845501,1.9070877,-2.089432,-1.5735754,2.4429195,-0.07975601,0.28077638,-0.35547146,0.0860546,-0.026106957,-0.07445503,-0.095768064,0.34476504,-9.308657,1.0082139,47.691364,-0.6222319,-1.718077,-3.5827377,-0.25450033,-0.39039043,-0.17133838,25.25,25.8125,25.0625,27.5,28.0625,28.375
0.29805255,-1.3197633,-1.5729859,-0.33582,-0.013431158,0.026565611,-0.12488325,-0.40210277,-0.3518323,0.05999999,-3.0746257,0.62619424,-0.00012015195,-0.1486628,-0.019656751,0.0026986874,0.025388336,0.0059904433,-0.0044028256,0.4664801,-1.3839967,1.9064053,-2.0892785,-1.5736588,2.4427867,-0.07974438,0.28290835,-0.35799038,0.081021875,-0.02614416,-0.07505506,-0.3256114,0.45968673,-9.308656,0.92093146,47.707485,-0.5914973,-1.734795,-3.5350919,-0.17605507,-0.3598985,-0.15613462,25.25,25.8125,25.0625,27.5,28.0625,28.375
0.30005172,-1.3652941,-1.6102355,-0.2958943,-0.014981292,0.01678413,-0.124302015,-0.40241328,-0.35188335,0.060035616,-3.0746324,0.62621343,-4.047483e-05,-0.15132596,-0.020371547,0.0042559896,0.023688072,0.0121254865,-0.0022852202,0.4663122,-1.383468,1.9056629,-2.0891116,-1.5736836,2.4426303,-0.0799603,0.28310817,-0.36116907,0.07774788,-0.027401442,-0.07738356,-0.36391866,0.4213795,-9.232041,0.9254084,47.705692,-0.6182383,-1.6967138,-3.6140985,-0.10775085,-0.34913194,-0.10317403,25.25,25.8125,25.0625,27.5,28.0625,28.375
0.3020519,-1.5790286,-1.7575629,-0.42617127,-0.02256031,0.017591069,-0.11670399,-0.40273193,-0.3519439,0.06003151,-3.0746162,0.6261729,2.8020786e-05,-0.15227772,-0.020012613,0.0028561081,0.025456734,0.011071162,-0.006182975,0.46616805,-1.3828425,1.90491,-2.0890038,-1.5737313,2.4424634,-0.08063531,0.28711218,-0.36270195,0.07702,-0.028503418,-0.07415613,-0.4405331,0.4405331,-9.385271,0.9567419,47.690468,-0.6592154,-1.6411394,-3.59184,-0.07779422,-0.32550895,-0.106293045,25.25,25.8125,25.0625,27.5,28.0625,28.375
0.30405247,-1.4679557,-1.7379199,-0.3838294,-0.033707213,0.033143602,-0.12603065,-0.40301758,-0.3519778,0.060027376,-3.0745397,0.6262147,-1.540335e-05,-0.1528421,-0.020321418,0.0034253867,0.02554624,0.011910889,-0.007462934,0.46600005,-1.3822658,1.9041928,-2.0888007,-1.573768,2.4423318,-0.0802222,0.28747475,-0.3648119,0.07805702,-0.028963726,-0.07245902,-0.36391866,0.34476504,-9.385271,0.9612189,47.68599,-0.6864437,-1.648684,-3.570888,-0.06422229,-0.3032517,-0.10842234,25.25,25.8125,25.0625,27.5,28.0625,28.375
0.30605173,-2.0593262,-1.8587885,-0.16855802,-0.03652448,0.033354595,-0.11342779,-0.40333164,-0.35199934,0.060006794,-3.0744565,0.62625486,1.5451278e-05,-0.15290612,-0.02063208,0.0026174264,0.025647046,0.009521525,-0.009301621,0.46580806,-1.381652,1.9034876,-2.0886796,-1.5738395,2.442176,-0.08026567,0.29011676,-0.366542,0.07931675,-0.027979407,-0.07066623,-0.38307226,0.4213795,-9.385271,0.9701675,47.674347,-0.6967356,-1.6678342,-3.6071267,-0.019852377,-0.3073869,-0.10124919,25.25,25.8125,25.0625,27.5,28.0625,28.375
0.30805174,-2.4243824,-2.093534,-0.11537185,-0.018449835,0.035434406,-0.11200154,-0.4036515,-0.35207456,0.06005158,-3.074474,0.6262399,0.00016077528,-0.15331887,-0.021937765,0.0038349158,0.023538418,0.010818383,-0.010723282,0.46568862,-1.3810997,1.9026979,-2.088524,-1.5738872,2.4420455,-0.079117104,0.28975976,-0.36925787,0.08028087,-0.026669832,-0.06810273,-0.38307226,0.49799395,-9.155427,0.9679317,47.711964,-0.7864386,-1.4702072,-3.7058835,0.0081470385,-0.31358775,-0.13153653,25.25,25.8125,25.0625,27.5,28.0625,28.375
0.31005198,-1.9901819,-1.4467872,-0.103994854,0.0135045,0.030860003,-0.12656865,-0.40395582,-0.3520948,0.06003385,-3.0743678,0.6263725,0.00015419243,-0.15516765,-0.021566337,0.0026430895,0.025010921,0.009360154,-0.014850713,0.46549603,-1.3804973,1.9019912,-2.0883687,-1.5739473,2.4419498,-0.080855206,0.29504833,-0.37306538,0.08076509,-0.027336197,-0.06570747,-0.3256114,0.40222588,-9.232041,0.900793,47.693153,-0.6703914,-1.6389271,-3.5976787,0.0071211453,-0.3071644,-0.15735295,25.25,25.8125,25.0625,27.5,28.0625,28.375
0.31205204,-1.5462507,-0.34800464,-0.017231729,0.020307759,0.021576948,-0.12801287,-0.4042986,-0.35215327,0.060061727,-3.0743783,0.62637454,0.00029330704,-0.15395233,-0.021754976,0.0008634721,0.028862055,0.0039366484,-0.01489563,0.46532857,-1.379907,1.9012021,-2.0882466,-1.5739955,2.4417827,-0.07876389,0.29946908,-0.37541214,0.08526921,-0.028329318,-0.06356868,-0.19153613,0.3256114,-9.193734,0.97240865,47.698532,-0.8157412,-1.7681115,-3.6147714,0.012388615,-0.27310643,-0.1780232,25.25,25.8125,25.0625,27.5,28.0625,28.375
0.3140519,-1.0703899,-0.060494754,0.31130373,0.020376535,0.016786428,-0.12385755,-0.40460193,-0.35220367,0.060036827,-3.0742962,0.6263771,0.00031229245,-0.15543231,-0.0217456,0.00081104273,0.029066509,0.0040846677,-0.017901013,0.46519643,-1.3792578,1.9004611,-2.088115,-1.5740675,2.4416633,-0.07982725,0.3020068,-0.37861708,0.08589522,-0.028583176,-0.061623327,-0.24899697,0.19153614,-9.078813,0.93436235,47.690468,-0.89345187,-1.9279895,-3.589284,0.048333958,-0.2516738,-0.20621912,25.25,25.8125,25.0625,27.5,28.0625,28.375
0.3160519,-0.80947196,-0.07864478,-0.008195994,0.052656267,-0.019449685,-0.11112292,-0.4049167,-0.3522317,0.06004836,-3.0742161,0.6264372,0.00035854563,-0.15465592,-0.021271974,-0.00070027984,0.031971335,-0.0019946531,-0.01913146,0.46501628,-1.37868,1.8997072,-2.0879214,-1.5741395,2.4415314,-0.0799626,0.30574903,-0.38096786,0.09123411,-0.028446216,-0.06052763,-0.11492168,0.17238252,-9.078813,0.97240865,47.691364,-0.6303217,-1.9307756,-3.6669629,0.0334379,-0.25315794,-0.23206818,25.25,25.8125,25.0625,27.5,28.0625,28.375
0.31805202,-0.15302497,0.29080465,0.09715787,0.046058297,-0.03300582,-0.122831024,-0.40521476,-0.3522881,0.0600358,-3.0741334,0.6264963,0.00033982703,-0.15437202,-0.021543067,0.00020522113,0.033434607,-0.0037609409,-0.019229602,0.46488473,-1.3780433,1.8989409,-2.0877397,-1.5741881,2.441448,-0.078853175,0.3059137,-0.3847125,0.09704856,-0.0289593,-0.059316013,-0.1340753,0.1340753,-9.078813,0.8873621,47.703007,-0.90174174,-1.9492395,-3.5102022,-0.047354925,-0.21477363,-0.26724127,25.25,25.8125,25.0625,27.5,28.0625,28.375
0.32005215,-0.03844441,-0.011617875,0.49539188,0.031728074,-0.0289972,-0.12378553,-0.40555373,-0.3523367,0.06004764,-3.0740752,0.62658,0.00037749828,-0.1542178,-0.020545991,-0.00021996384,0.03607719,-0.008371997,-0.0206888,0.46470433,-1.3774064,1.8981155,-2.0875456,-1.5742363,2.4413278,-0.08015301,0.30783695,-0.3876148,0.10332776,-0.02925016,-0.059154894,-0.038307227,0.11492168,-8.90643,1.0149267,47.66539,-0.8565062,-1.8431451,-3.440228,-0.085505456,-0.19271776,-0.2857051,25.25,25.8125,25.0625,27.5,28.0625,28.375
0.32205254,-0.47287023,-0.3427495,0.34733492,0.03851202,-0.0422833,-0.11378128,-0.40584177,-0.3523693,0.06004205,-3.0739353,0.6266857,0.00029454945,-0.1546863,-0.020318244,0.0001844225,0.03730516,-0.010332268,-0.022179438,0.4645482,-1.3767926,1.8973383,-2.087269,-1.5742964,2.4412563,-0.080726616,0.30915412,-0.39132383,0.10801853,-0.029474985,-0.0582328,-0.095768064,0.19153613,-8.868123,0.96569055,47.709274,-0.7965175,-1.8176997,-3.4544468,-0.14583316,-0.1701315,-0.31980795,25.25,25.8125,25.0625,27.5,28.0625,28.375
0.32405257,-0.7123808,-0.60157543,0.37337998,0.027100086,-0.02696382,-0.11871229,-0.4061427,-0.35241297,0.060021505,-3.0738354,0.6266823,0.00021390418,-0.15472883,-0.0202453,0.0005137599,0.03724846,-0.011755416,-0.020409072,0.46439195,-1.3761319,1.89655,-2.0870407,-1.5743436,2.4411113,-0.081222534,0.3092901,-0.3930605,0.11084836,-0.028800169,-0.06049894,-0.038307227,0.17238252,-8.90643,1.0037369,47.681515,-0.8854208,-1.7985723,-3.4503098,-0.19798732,-0.16145745,-0.31512323,25.25,25.8125,25.0625,27.5,28.0625,28.375
0.3260527,-0.5386571,-0.55644274,0.4046784,0.013838941,-0.005078764,-0.12242828,-0.40644053,-0.3524252,0.059983473,-3.0736947,0.6267112,0.00012861319,-0.15443735,-0.02054413,0.00042056863,0.037887268,-0.014129699,-0.021835683,0.4642002,-1.3754829,1.8958205,-2.086836,-1.5744156,2.4409564,-0.080670856,0.31064615,-0.39540735,0.11424412,-0.028312821,-0.05851876,0.11492168,0.11492168,-8.944737,0.94331104,47.679718,-0.8172916,-1.7374871,-3.5160935,-0.26042885,-0.1601731,-0.35644147,25.25,25.8125,25.0625,27.5,28.0625,28.375
0.3280517,-0.6812691,-0.4706489,0.5867792,0.003246644,0.008931041,-0.12847416,-0.40673408,-0.35247457,0.059976913,-3.0735943,0.6267471,9.545754e-05,-0.15630232,-0.0216607,0.00016522694,0.036316134,-0.011302313,-0.02213165,0.46406847,-1.3748577,1.8950423,-2.0866106,-1.5744756,2.4408605,-0.08036409,0.3138152,-0.39788264,0.110313535,-0.028194442,-0.057913054,0.019153614,0.11492168,-8.848969,0.9567419,47.689575,-0.9184611,-1.6153841,-3.474986,-0.2553795,-0.14424285,-0.40698034,25.25,25.8125,25.0625,27.5,28.0625,28.375
0.3300527,-0.9677068,-1.5128258,0.023786057,0.026903205,0.0033501536,-0.11924849,-0.4070576,-0.35252208,0.059994396,-3.073541,0.6268123,0.00013348866,-0.15663931,-0.021792483,-0.0008665601,0.036105104,-0.01279192,-0.022421865,0.4639002,-1.3742558,1.8942417,-2.086407,-1.5745233,2.4407403,-0.0808637,0.31640327,-0.39864802,0.10971739,-0.027347669,-0.058125637,0.05746084,0.19153613,-8.963891,0.9164598,47.67614,-0.93889344,-1.756447,-3.67662,-0.24597856,-0.14455198,-0.4409927,25.25,25.8125,25.0625,27.5,28.0625,28.375
0.33205196,-0.97753596,-1.093656,0.08951282,0.0010298161,-0.0013703342,-0.120246395,-0.40738443,-0.3525581,0.059968002,-3.0734231,0.62680453,0.000108454995,-0.16035655,-0.023522498,0.00045416364,0.032097958,-0.005484127,-0.019821499,0.4637321,-1.3735586,1.8934282,-2.0862062,-1.5746073,2.4405832,-0.081181854,0.31864825,-0.40316075,0.10363511,-0.027074793,-0.061040908,0.11492168,0.28730422,-9.059659,0.96569055,47.70659,-0.91237247,-1.7913353,-3.5483093,-0.19349909,-0.13885388,-0.43875664,25.25,25.8125,25.0625,27.5,28.0625,28.375
0.33405203,-1.380423,-1.7284356,0.13228278,-0.0036766494,-0.0116173765,-0.11459032,-0.40765566,-0.35260752,0.05995166,-3.0732987,0.6268551,2.3528926e-06,-0.1625675,-0.025300412,0.0006739065,0.029576624,-0.0014266788,-0.020850927,0.46361238,-1.3729326,1.8926619,-2.085944,-1.5746549,2.4405117,-0.080231726,0.32183465,-0.40662953,0.099161126,-0.026655782,-0.05905813,-0.05746084,0.36391866,-9.212888,1.0037369,47.694946,-0.95518017,-1.8763921,-3.5223398,-0.14173421,-0.11846505,-0.46831286,25.25,25.8125,25.0625,27.5,28.0625,28.375
0.33605215,-1.135123,-2.1964066,-0.19747251,-0.010011022,-0.0031736009,-0.11808474,-0.40799132,-0.3526396,0.059964303,-3.073222,0.626933,1.1046619e-06,-0.1650245,-0.025857447,0.0017107005,0.027078295,0.0028801125,-0.019767953,0.4634081,-1.3723083,1.891837,-2.0857065,-1.5747031,2.4403665,-0.0814618,0.32256785,-0.40937844,0.09618918,-0.026371494,-0.061370537,-0.095768064,0.4405331,-9.232041,0.96569055,47.699425,-1.0426872,-1.8808286,-3.4912426,-0.096734814,-0.1079022,-0.512838,25.25,25.8125,25.0625,27.5,28.0625,28.375
0.33805218,-1.5052208,-2.496111,-0.43026432,-0.012268016,-0.007415226,-0.12107264,-0.4083057,-0.35268784,0.059929345,-3.0731182,0.62692755,-2.7170647e-05,-0.1659673,-0.027188273,0.0013515297,0.026483804,0.003216896,-0.015152978,0.46326447,-1.3716102,1.8910478,-2.0855381,-1.5747746,2.4402335,-0.08013292,0.32609835,-0.4128229,0.09551356,-0.026016014,-0.06465486,-0.13407528,0.45968673,-9.270349,0.9679317,47.698532,-0.9714783,-1.9838698,-3.4883761,-0.05251061,-0.09766261,-0.48388678,25.25,25.8125,25.0625,27.5,28.0625,28.375
0.3400523,-1.6185143,-2.9675763,-0.69463503,-0.025255086,0.017197473,-0.11646664,-0.40864637,-0.3527479,0.059931006,-3.0730786,0.6269349,-1.4718982e-05,-0.16450647,-0.026731562,-0.0002918354,0.027744075,-0.00091163814,-0.010945156,0.46309668,-1.3709373,1.8901995,-2.0853465,-1.5748109,2.4400759,-0.07999984,0.32731172,-0.41099703,0.09670522,-0.025308259,-0.06873366,-0.21068975,0.61291564,-9.404425,0.86498255,47.677036,-1.1820359,-1.9094975,-3.6269267,-0.056630895,-0.10173541,-0.46318722,25.25,25.8125,25.0625,27.5,28.0625,28.375
0.34205246,-1.8165048,-2.6476736,-0.86556447,-0.03748055,0.021913685,-0.121947,-0.40898037,-0.35280374,0.059947785,-3.0730238,0.6270191,-3.1793322e-06,-0.16514614,-0.024886493,-0.0010953005,0.028306881,-0.0039603016,-0.011829865,0.46292707,-1.3703005,1.8893512,-2.0851185,-1.5748461,2.4399664,-0.084123924,0.32825348,-0.4109164,0.09863895,-0.024459645,-0.07197717,-0.095768064,0.61291564,-9.634268,0.92093146,47.65464,-0.9533067,-1.868041,-3.9422698,-0.06303856,-0.115631275,-0.4370219,25.25,25.8125,25.0625,27.5,28.0625,28.375
0.34405246,-1.9004282,-2.827214,-1.0270252,-0.04358997,0.03072314,-0.1181193,-0.40930572,-0.35284802,0.05992733,-3.0729263,0.6269937,-5.810941e-05,-0.16469684,-0.02685842,-0.0010063328,0.027153414,-0.004421692,-0.004219846,0.46276042,-1.3696028,1.8885149,-2.0848906,-1.5749058,2.4397972,-0.08102951,0.32994077,-0.41352186,0.09942355,-0.023249624,-0.0764958,-0.1340753,0.59376204,-9.615114,1.0529729,47.666286,-1.093275,-1.849739,-3.994776,-0.053019658,-0.12464764,-0.40600926,25.25,25.8125,25.0625,27.5,28.0625,28.375
0.3460517,-1.9717362,-3.0847452,-1.245463,-0.031418037,0.02808934,-0.118278176,-0.40964112,-0.35292193,0.05992023,-3.0729284,0.62699205,-8.9776375e-05,-0.16703252,-0.02724263,0.0005844419,0.024780003,-0.0016434004,-0.001896554,0.4625916,-1.368918,1.8876761,-2.0847228,-1.5748938,2.4396274,-0.08280358,0.33024016,-0.4178063,0.09984009,-0.022391507,-0.08059585,-0.1340753,0.63206923,-9.672575,1.0238806,47.707485,-1.0269253,-1.8907349,-3.945156,-0.03302283,-0.0971444,-0.3589483,25.25,25.8125,25.0625,27.5,28.0625,28.375
0.3480517,-1.5199392,-2.0664597,-1.3412207,-0.034540292,0.022669919,-0.12234034,-0.4099656,-0.35298157,0.059923228,-3.0728726,0.6269402,-4.2899206e-05,-0.16822636,-0.02749754,-0.00016098177,0.025332488,-0.0037212821,0.00079132104,0.46245956,-1.3682685,1.8868512,-2.084531,-1.5749654,2.4394708,-0.08355974,0.3346453,-0.4219815,0.10169163,-0.021978308,-0.08403991,-0.11492168,0.49799395,-9.844957,0.99702406,47.716442,-1.0055496,-1.9701266,-3.841357,-0.032556646,-0.12486436,-0.29157454,25.25,25.8125,25.0625,27.5,28.0625,28.375
0.35005262,-1.5238699,-1.9465938,-1.4157201,-0.018234005,0.021605438,-0.12360257,-0.41032106,-0.35299662,0.059902567,-3.0727384,0.6268905,-2.5746467e-05,-0.16860475,-0.027231948,-0.00085032743,0.02709057,-0.007325204,0.0024475118,0.46225536,-1.3675582,1.8860015,-2.0843136,-1.5750855,2.4392536,-0.08423771,0.33803505,-0.42563215,0.10593774,-0.021960322,-0.08637145,-0.24899697,0.4405331,-9.864111,0.9567419,47.71286,-0.95019585,-2.0176618,-3.7031202,-0.048276655,-0.12721309,-0.25764364,25.25,25.8125,25.0625,27.5,28.0625,28.375
0.35205197,-1.3743527,-1.1851747,-1.227531,-0.011911845,0.011754288,-0.12727202,-0.41065836,-0.35308394,0.05990882,-3.072735,0.626811,-3.9207178e-05,-0.16881579,-0.027079972,-0.0016315064,0.028385833,-0.011471397,0.0030923393,0.46212307,-1.3668606,1.885105,-2.0840967,-1.5750974,2.4390726,-0.08500716,0.34145662,-0.4291406,0.11030102,-0.021277606,-0.08778769,-0.24899697,0.28730422,-9.844957,0.90527004,47.681515,-1.0009418,-2.0572257,-3.737856,-0.09119766,-0.13682929,-0.20952237,25.25,25.8125,25.0625,27.5,28.0625,28.375
0.35405213,-0.6110699,-0.73852915,-1.3159118,0.017703647,0.012804455,-0.11881037,-0.41099814,-0.35313034,0.05989649,-3.0726686,0.6269322,-9.6705626e-05,-0.1670164,-0.026022334,-0.0036832863,0.031648874,-0.019495461,0.0026735114,0.4619189,-1.366175,1.8842672,-2.0838912,-1.5751089,2.4389532,-0.08556975,0.3442756,-0.42942584,0.116396576,-0.020618936,-0.087933995,-0.3256114,0.24899697,-9.883265,1.1089219,47.72002,-0.94594055,-2.28833,-3.7799733,-0.17635524,-0.13934222,-0.20139116,25.25,25.8125,25.0625,27.5,28.0625,28.375
0.35605204,-1.7739465,-0.89370453,-1.2407842,0.025788214,0.00092179683,-0.102398515,-0.41131648,-0.35318595,0.059884634,-3.0726001,0.62682164,-9.5917516e-05,-0.16662118,-0.025154963,-0.004677325,0.033959325,-0.023708774,0.0013066415,0.46178657,-1.3655016,1.8834428,-2.083686,-1.5751814,2.4387612,-0.08650279,0.3463601,-0.4307802,0.12046168,-0.020811057,-0.08749804,-0.36391866,0.11492168,-9.710882,0.9567419,47.67793,-0.9781476,-2.250237,-3.9521577,-0.1851438,-0.1387171,-0.14544126,25.25,25.8125,25.0625,27.5,28.0625,28.375
0.3580522,-1.0427375,-0.678081,-1.048923,0.033343866,0.011068498,-0.1271537,-0.41165945,-0.35325772,0.059907105,-3.0725756,0.62676126,-0.00011408658,-0.16667461,-0.02507834,-0.0049292236,0.03515972,-0.026312936,-0.0034934012,0.46163058,-1.3648276,1.882523,-2.0834095,-1.5752047,2.4385712,-0.08663909,0.34828585,-0.43356186,0.12419936,-0.020714909,-0.08283347,-0.095768064,-0.038307227,-9.615114,0.98135734,47.689575,-0.9956355,-2.2795882,-3.88619,-0.26225027,-0.14238052,-0.18966895,25.25,25.8125,25.0625,27.5,28.0625,28.375
0.3600521,-0.66004705,-0.2654939,-0.73715043,0.03833908,0.005883947,-0.11426516,-0.41203076,-0.35327727,0.059896916,-3.0724692,0.6269136,-0.00014466528,-0.1704832,-0.02520787,-0.0019353324,0.031682838,-0.020977288,-0.008292878,0.46137732,-1.3641201,1.881648,-2.083182,-1.5752529,2.4384274,-0.08996807,0.34743848,-0.4397459,0.12490031,-0.019998416,-0.08136379,-0.11492168,-0.17238252,-9.557653,0.9679317,47.698532,-0.6936203,-2.1514819,-3.8056235,-0.28388035,-0.17428997,-0.18505523,25.25,25.8125,25.0625,27.5,28.0625,28.375
0.36205235,-0.77319795,0.15695836,-0.7251604,0.04163624,-0.0034584312,-0.107391894,-0.41234443,-0.35336262,0.059882503,-3.07242,0.62680894,-0.00022827704,-0.17366919,-0.0278974,0.0013217677,0.027072078,-0.011425573,-0.012196924,0.46127003,-1.3633997,1.8807615,-2.0829318,-1.5752767,2.4382617,-0.08793922,0.34657824,-0.44545722,0.120889865,-0.020131096,-0.0754267,-0.22984336,-0.2681506,-9.346964,0.9567419,47.694946,-0.9343761,-1.926647,-3.5770793,-0.27282003,-0.16636461,-0.22951967,25.25,25.8125,25.0625,27.5,28.0625,28.375
0.36405244,-0.84247255,0.8906402,-1.0036325,0.05590961,0.0007296986,-0.123465426,-0.4127141,-0.35342494,0.059903197,-3.0723836,0.62691945,-0.00019723225,-0.17609216,-0.026748823,0.0015243851,0.026436066,-0.008882554,-0.018924983,0.46107686,-1.3627144,1.8798422,-2.0827057,-1.5753015,2.4381428,-0.09148066,0.34738013,-0.44659695,0.11867847,-0.020692527,-0.07223706,-0.11492168,-0.21068975,-9.481039,1.0350704,47.67614,-0.824243,-1.9033787,-3.581871,-0.2567223,-0.19579,-0.28476512,25.25,25.8125,25.0625,27.5,28.0625,28.375
0.36605242,-1.0311896,0.34390986,-1.1738458,0.043479364,0.025040857,-0.12272331,-0.413045,-0.35347387,0.059901025,-3.0723174,0.6269804,-0.00027877718,-0.17785402,-0.02883569,0.0013620551,0.024029464,-0.0034503443,-0.017399559,0.46088594,-1.3620415,1.8789815,-2.0824454,-1.575313,2.437999,-0.089147076,0.35016558,-0.44818187,0.111542486,-0.02097922,-0.071424894,-0.15322891,-0.19153613,-9.710882,0.96569055,47.68062,-0.85593677,-1.8584349,-3.5710058,-0.16815455,-0.19366086,-0.29754153,25.25,25.8125,25.0625,27.5,28.0625,28.375
0.36805254,-2.1698992,-0.830543,-0.9283863,0.0115682855,0.043177184,-0.12194252,-0.41342306,-0.35351184,0.05991406,-3.0722249,0.6270574,-0.00022052763,-0.17939268,-0.02902007,0.0009758201,0.023938498,-0.0028838837,-0.017870838,0.4606815,-1.361343,1.8780602,-2.082206,-1.5753974,2.4378552,-0.08990376,0.35320476,-0.4509958,0.11075874,-0.02116274,-0.07170797,-0.21068975,-0.05746084,-9.730036,0.9835985,47.67345,-0.9237523,-1.9878378,-3.7316337,-0.14891703,-0.18839043,-0.30289522,25.25,25.8125,25.0625,27.5,28.0625,28.375
0.37005255,-2.7335496,-1.6117587,-1.107129,-0.0043117707,0.06217613,-0.11301753,-0.41378984,-0.35355422,0.059924744,-3.0721226,0.6270922,-0.00016858715,-0.17932273,-0.028435199,-0.0023802517,0.026516058,-0.0066273254,-0.01779832,0.4605014,-1.3606443,1.8771409,-2.0819547,-1.5754932,2.4377108,-0.09032209,0.35904214,-0.4500845,0.10849871,-0.02181809,-0.07219452,-0.4405331,0.019153614,-9.653421,1.005978,47.677036,-0.88665557,-2.1844838,-3.9258137,-0.11017938,-0.18898746,-0.32123846,25.25,25.8125,25.0625,27.5,28.0625,28.375
0.3720527,-2.5989888,-1.9657686,-1.5205429,-0.00794139,0.071228184,-0.11411292,-0.41411108,-0.3536012,0.059906315,-3.0720212,0.6271864,-0.00033407533,-0.18107533,-0.02841754,-0.0008418452,0.026126167,-0.0038016862,-0.019089699,0.46030918,-1.3599381,1.8762673,-2.0816553,-1.5754937,2.437591,-0.09115506,0.35868114,-0.45365438,0.10972652,-0.022740176,-0.07172758,-0.40222588,0.21068975,-9.902418,0.96569055,47.67793,-0.9168627,-2.0821147,-4.0275917,-0.09212222,-0.19386232,-0.31133127,25.25,25.8125,25.0625,27.5,28.0625,28.375
