Tylouw/Master_Thesis_Code/training_data/batch_1/small_rod_t0.1/sample_62_session_2.csv
timestamp[s],tcp_force_x[N],tcp_force_y[N],tcp_force_z[N],tcp_force_rx[Nm?],tcp_force_ry[Nm?],tcp_force_rz[Nm?],tcp_pose_x[m],tcp_pose_y[m],tcp_pose_z[m],tcp_pose_rx[rot_vec_x],tcp_pose_ry[rot_vec_y],tcp_pose_rz[rot_vec_z],tcp_velo_x[m/s],tcp_velo_y[m/s],tcp_velo_z[m/s],tcp_velo_rx[rot_vec_x/s],tcp_velo_ry[rot_vec_y/s],tcp_velo_rz[rot_vec_z/s],q1[rad],q2[rad],q3[rad],q4[rad],q5[rad],q6[rad],qd1[rad/s],qd2[rad/s],qd3[rad/s],qd4[rad/s],qd5[rad/s],qd6[rad/s],tool_acc_x,tool_acc_y,tool_acc_z,current_of_whole_robot[A],voltage_of_whole_robot[V],current_J1[A],current_J2[A],current_J3[A],current_J4[A],current_J5[A],current_J6[A],temp_J1[C],temp_J2[C],temp_J3[C],temp_J4[C],temp_J5[C],temp_J6[C]
8.12026e-07,0.027406093,-0.41613224,0.23524468,-0.039742973,0.03334048,-0.0019635097,-0.3810681,-0.3485414,0.059971705,-3.078532,0.6249185,-0.0001998814,0.002156462,0.0011108345,-0.0022791105,0.0024721925,-0.0051096277,6.17113e-06,0.47779807,-1.4259095,1.9576792,-2.1008208,-1.5707334,2.452776,-8.480284e-05,0.0009019595,0.004005637,0.000765978,0.00016456147,-9.329625e-05,0.05746084,0.17238252,-8.714894,0.7486078,47.711063,-0.029456694,-2.7423396,-2.444282,-0.45233715,0.17917779,0.035584264,26.0,26.8125,25.9375,28.9375,29.875,30.3125
0.002054209,-0.7330951,-0.8658039,0.24780233,-0.02592216,0.012004149,0.007941803,-0.38105822,-0.34852085,0.059942715,-3.0785007,0.624874,-0.00021675845,-0.0007472401,-0.00040539782,-0.0031337785,-0.0016736746,0.002844135,1.5163328e-05,0.47778615,-1.4258965,1.9577397,-2.1008613,-1.5707573,2.4527402,-7.7041994e-05,0.0039577167,0.0055687157,-0.012822268,0.00016089508,-9.210279e-05,0.11492168,0.17238252,-8.714894,0.6948948,47.705692,0.008942859,-2.8084664,-2.5218415,-0.38741204,0.17748839,0.042958893,26.0,26.8125,25.9375,28.9375,29.875,30.3125
0.004054061,-0.39177096,-0.48787054,0.3264593,-0.028001858,0.019269826,-0.0005040564,-0.38109595,-0.34852287,0.059980065,-3.0785346,0.6248616,-3.6763668e-05,-0.0013268269,-0.00070865976,-0.0029623418,-0.002285872,0.004025458,1.9020152e-05,0.47778615,-1.4259323,1.9577035,-2.1008976,-1.5708054,2.4527283,-7.2663344e-05,0.0043957415,0.0049365726,-0.013958675,0.000157379,-9.093943e-05,0.05746084,0.15322891,-8.714894,0.800085,47.705692,0.033370987,-3.1296515,-2.7562401,-0.30464622,0.16784692,0.026582425,26.0,26.8125,25.9375,28.9375,29.875,30.3125
0.00605434,0.22057052,0.06560188,0.25919196,-0.011892968,0.010739711,-0.013113622,-0.38107076,-0.34853196,0.05994931,-3.0785267,0.62484074,-0.000119564946,-0.0011083739,-0.00059364975,-0.0013873994,-0.0020064733,0.0035077992,1.8510576e-05,0.4778101,-1.4258972,1.9577388,-2.1009195,-1.5707816,2.4527402,-7.178852e-05,0.0021691772,0.0027330099,-0.008940369,0.00015401242,-8.980522e-05,0.0,0.24899697,-8.695741,0.8023209,47.73077,-0.02651484,-2.9866118,-2.5849721,-0.31626156,0.16094905,0.040768616,26.0,26.8125,25.9375,28.9375,29.875,30.3125
0.008054163,0.3888676,0.17294006,-0.2931205,0.025635185,-0.014898672,0.0012494945,-0.38106066,-0.34852672,0.059937514,-3.0784934,0.6248913,-0.00016361011,-0.00059653184,-0.0003256258,-0.00012632587,-0.0015919438,0.0027310038,1.754235e-05,0.4778101,-1.425886,1.9577497,-2.1009057,-1.5707816,2.452776,-7.0979106e-05,-0.00020802737,0.001549691,-0.0044994117,0.00015078697,-8.8698944e-05,0.076614454,0.17238252,-8.791509,0.779936,47.71823,0.0123251695,-2.9822407,-2.5103464,-0.35602006,0.17567593,0.041267723,26.0,26.8125,25.9375,28.9375,29.875,30.3125
0.010054398,0.16724102,0.28410307,-0.7141497,0.019692684,-0.019349009,-0.0022145857,-0.38105285,-0.34853572,0.059925556,-3.078509,0.6248755,-0.0002292626,-0.00014075435,-9.445189e-05,-2.7996024e-05,-0.0007926525,0.0011411879,1.0338053e-05,0.4778101,-1.4258622,1.9577497,-2.1009047,-1.5707458,2.452764,-7.679306e-05,-0.00041973745,0.0009845394,-0.00194333,0.00017673681,-8.7619504e-05,0.076614454,0.095768064,-9.021352,0.78888994,47.672558,-0.25430635,-2.153751,-3.212566,-0.3939458,0.1656068,0.011511734,26.0,26.8125,25.9375,28.9375,29.875,30.3125
0.012054264,-0.3423017,-0.8567526,-0.9198667,-0.0073114624,-0.005185169,0.0067235436,-0.3810215,-0.3485219,0.059910435,-3.0784664,0.6248095,-0.00030713744,-0.0019269362,-0.001038159,-0.0016020309,0.00082086347,-0.0020031042,3.0416586e-05,0.47782204,-1.4258716,1.957784,-2.1008565,-1.5707573,2.4527402,-6.1603874e-05,0.008093895,-0.005452851,-0.00048550084,0.00017931165,-8.821074e-05,0.11492168,0.1340753,-9.193734,0.779936,47.698532,-0.3335101,-2.07671,-3.4146085,-0.39078152,0.14510778,-0.027285786,26.0,26.8125,25.9375,28.9375,29.875,30.3125
0.014054074,-0.9243853,-1.4991632,-0.9675669,-0.047930304,0.019535307,-0.0030991,-0.3810574,-0.3485155,0.05991167,-3.0784285,0.624841,-0.00024730113,-0.005131221,-0.0005552787,-0.003931042,0.0027687498,-0.005779845,-0.0019621078,0.47780868,-1.4258196,1.9577221,-2.1008565,-1.5708054,2.4527514,-0.0038902222,0.018187102,-0.011733621,-4.883757e-05,0.00017304427,-0.0019196001,0.019153614,0.2681506,-9.500193,0.73741806,47.691364,-0.30960956,-2.8767693,-3.0858958,-0.40713102,0.17291036,-0.06373046,26.0,26.8125,25.9375,28.9375,29.875,30.3125
0.01605435,-1.4781094,-2.2387462,-1.1322315,-0.07993381,0.05387405,-0.00022217454,-0.38102755,-0.34851727,0.059875697,-3.0783992,0.62479407,-0.000441464,-0.00562122,0.00035053038,-0.004098309,0.0029710415,-0.0061614644,0.002383657,0.4778081,-1.4257599,1.9577225,-2.100797,-1.5707573,2.4527252,-0.005949968,0.018088965,-0.011250126,-3.1887441e-06,0.00016667484,-0.0083253905,-0.24899697,0.45968673,-9.576807,0.7933669,47.694946,-0.2133111,-2.7165537,-3.3312411,-0.3914199,0.15754592,-0.020297958,26.0,26.8125,25.9375,28.9375,29.875,30.3125
0.018054081,-2.1745117,-2.5842426,-1.3175355,-0.10006486,0.06559992,-0.010210153,-0.38105562,-0.348514,0.05988105,-3.07839,0.6248665,-0.00040039024,-0.0052509117,0.0002982017,-0.0033717789,0.0033794742,-0.0069309813,0.006162269,0.47778434,-1.4257363,1.9576858,-2.1008074,-1.5707697,2.4527478,-0.005509445,0.017121563,-0.012514219,0.0030988134,0.00016072363,-0.011663602,-0.2681506,0.5554548,-9.691729,0.7665104,47.716442,-0.27654943,-2.369737,-3.5050418,-0.4119962,0.17934851,0.011845136,26.0,26.8125,25.9375,28.9375,29.875,30.3125
0.020054122,-1.8821695,-2.163517,-1.1613475,-0.10058115,0.071841545,-0.020256778,-0.38102406,-0.34850886,0.059850875,-3.0783625,0.62478477,-0.00051518437,-0.005639922,-0.00020544097,-0.0035435553,0.0037910715,-0.0077214492,0.006795913,0.47779638,-1.4257115,1.9577211,-2.1007836,-1.5707573,2.4527123,-0.0049730213,0.01928347,-0.014821445,0.004135481,0.0001551806,-0.011759523,-0.4405331,0.7278373,-9.787497,0.7777002,47.695843,-0.4631551,-2.3537161,-3.5459905,-0.4265837,0.18513529,-0.020789243,26.0,26.8125,25.9375,28.9375,29.875,30.3125
0.022054026,-1.869486,-2.0660024,-1.3796508,-0.0851484,0.069429375,-0.030766986,-0.38105565,-0.34851384,0.059858397,-3.078387,0.6247704,-0.00044358286,-0.0074931015,-0.0005047892,-0.0033004577,0.003003425,-0.006206646,0.0053735403,0.47778404,-1.4256867,1.9576839,-2.1008198,-1.5707697,2.452688,-0.0061548217,0.021533107,-0.017695967,0.0030529355,0.00015000705,-0.011516907,-0.59376204,0.68953013,-9.864111,0.7665104,47.68599,-0.44623914,-2.4292374,-3.4762964,-0.43495348,0.17144446,-0.039671514,26.0,26.8125,25.9375,28.9375,29.875,30.3125
0.024053795,-1.402818,-1.7325466,-1.5694398,-0.08126188,0.07852066,-0.04471014,-0.3810882,-0.34853935,0.059869517,-3.0784202,0.62477773,-0.0004372123,-0.008810625,-0.000522435,-0.0030080457,0.0023074003,-0.004922107,0.0043019415,0.47778368,-1.4256265,1.9575871,-2.100808,-1.5707458,2.452688,-0.007358015,0.02253105,-0.019311601,0.002210066,0.00017224162,-0.0116473995,-0.40222588,0.59376204,-9.921572,0.7597976,47.67614,-0.49231023,-2.2994883,-3.5418663,-0.40928638,0.16045585,-0.0463319,26.0,26.8125,25.9375,28.9375,29.875,30.3125
0.026054109,-1.5921335,-1.762751,-1.3776046,-0.082473174,0.069592394,-0.058930907,-0.3810938,-0.348513,0.059817716,-3.0783472,0.62474424,-0.00053034915,-0.010145405,-0.0005306075,-0.0024554615,0.0014683815,-0.0033093244,0.004531363,0.4777471,-1.4255307,1.957599,-2.1008203,-1.5707697,2.4526398,-0.008576935,0.023005625,-0.020973852,0.0015792646,0.00016862836,-0.013094714,-0.4596867,0.4405331,-9.902418,0.7978386,47.71823,-0.4915461,-2.335686,-3.580195,-0.40622175,0.17385936,-0.054721802,26.0,26.8125,25.9375,28.9375,29.875,30.3125
0.028054096,-1.8121791,-1.7981224,-1.3441193,-0.07499084,0.06431061,-0.064426266,-0.3810959,-0.34854075,0.059828725,-3.0783978,0.62463886,-0.0005651048,-0.011775656,-0.00091819745,-0.0016143572,0.0003750634,-0.0012580527,0.004447246,0.47777092,-1.4255064,1.957538,-2.1007845,-1.5707334,2.4525914,-0.009411678,0.023882607,-0.023815047,0.0012194825,0.00018907043,-0.013843737,-0.51714754,0.34476504,-9.80665,0.77545905,47.698532,-0.55209535,-2.2836938,-3.4725618,-0.37219325,0.17286077,-0.06776343,26.0,26.8125,25.9375,28.9375,29.875,30.3125
0.030053673,-1.6535769,-1.3730378,-1.3753579,-0.050791558,0.0624354,-0.07445653,-0.3811315,-0.34853634,0.059820835,-3.0783842,0.6247522,-0.00057740614,-0.013432531,-0.0008677601,-0.0015251122,0.000112860784,-0.00080760336,0.0038504577,0.4777223,-1.4254454,1.9574894,-2.1007965,-1.5707215,2.4526153,-0.011047791,0.026154058,-0.026611105,0.001223497,0.00020815362,-0.014881332,-0.5363012,0.22984336,-9.844957,0.7597976,47.692257,-0.5799738,-2.344441,-3.4759521,-0.3730604,0.19201493,-0.080400005,26.0,26.8125,25.9375,28.9375,29.875,30.3125
0.032053467,-1.4341881,-0.58732355,-1.1503054,-0.030500092,0.06593867,-0.09305947,-0.38120553,-0.34854147,0.05983969,-3.0784013,0.6247555,-0.00045471545,-0.014310465,-0.0009916284,-0.001640307,-0.00011448925,-0.0007571602,0.0035574785,0.47768605,-1.4253731,1.9573692,-2.1008203,-1.5707573,2.452579,-0.011753257,0.027839433,-0.028219635,0.0009961107,0.0003837146,-0.015293029,-0.40222588,0.13407528,-9.883265,0.7642693,47.690468,-0.5698312,-2.3684793,-3.5321603,-0.359424,0.18825,-0.080490455,26.0,26.8125,25.9375,28.9375,29.875,30.3125
0.034053866,-0.60928375,0.3315355,-0.9541994,-0.021455428,0.07199975,-0.12273533,-0.38120082,-0.3485519,0.05983215,-3.078418,0.62474006,-0.00051825395,-0.015570978,-0.00107181,-0.0012545479,-0.00041072868,-0.00041913096,0.0030075833,0.4776857,-1.4253486,1.9573559,-2.1008084,-1.5707215,2.4525669,-0.012845665,0.02929843,-0.030957188,0.0018383901,0.00048680647,-0.015834313,-0.34476504,0.019153614,-9.768343,0.78217715,47.71465,-0.5551758,-2.3598452,-3.5025854,-0.34053668,0.17236166,-0.071782894,26.0,26.8125,25.9375,28.9375,29.875,30.3125
0.03605428,-1.078968,0.5690299,-0.9616696,-0.0029321793,0.04618293,-0.121604495,-0.38123447,-0.34855843,0.05982555,-3.0783978,0.6247561,-0.00052277657,-0.017022148,-0.001725253,-0.00032671168,-0.0018488044,0.00066161907,0.0013572925,0.4776735,-1.4252642,1.9572719,-2.100796,-1.570733,2.4525673,-0.013530886,0.03043654,-0.034572482,0.0026918212,0.0012615796,-0.014868974,-0.47884035,0.019153614,-9.576807,0.8314132,47.704796,-0.5358549,-2.3000884,-3.3605933,-0.34199685,0.17954288,-0.076158464,26.0,26.8125,25.9375,28.9375,29.875,30.3125
0.038054217,-0.5392644,0.568757,-0.88077444,0.00039149696,0.054099776,-0.13600487,-0.38131872,-0.34855917,0.05983708,-3.0784333,0.62478274,-0.00047489186,-0.018068457,-0.0018408408,-0.0002808798,-0.0024604723,0.0005545152,-0.00071371277,0.4775891,-1.4251679,1.9571384,-2.100808,-1.570721,2.452495,-0.014673578,0.03208434,-0.036603704,0.0028874727,0.0018514176,-0.013940511,-0.21068975,-0.076614454,-9.5385,0.7396539,47.689575,-0.60988724,-2.2960293,-3.404142,-0.33239222,0.1532085,-0.09156591,26.0,26.8125,25.9375,28.9375,29.875,30.3125
0.040053867,-1.4372804,-0.2045765,-1.0212643,-0.003834176,0.03407849,-0.13580813,-0.3813289,-0.34855327,0.059814066,-3.0784028,0.6247773,-0.0005059057,-0.019756924,-0.0022255417,0.0005250794,-0.0034029803,0.002559074,-0.0022700506,0.47757685,-1.4251077,1.9571251,-2.1008198,-1.570733,2.4524834,-0.015493102,0.033185698,-0.039640844,0.002610059,0.0017598574,-0.013201824,-0.22984336,-0.1340753,-9.576807,0.77545905,47.69763,-0.5162616,-2.3203578,-3.3781939,-0.3307243,0.15340003,-0.10011085,26.0,26.8125,25.9375,28.9375,29.875,30.3125
0.042053618,-0.8946968,-0.6652237,-1.1300421,-0.013919992,0.0478338,-0.14917222,-0.3813646,-0.3485738,0.059833203,-3.0784314,0.62480205,-0.00050157466,-0.020185744,-0.0022687195,0.00019033295,-0.0026716911,0.0019444801,-0.0020881644,0.4775648,-1.4250592,1.9570178,-2.100784,-1.5707091,2.4524832,-0.0155732995,0.03498358,-0.041036982,0.0030919113,0.0013911851,-0.013462252,-0.19153613,0.0,-9.461885,0.7665104,47.68062,-0.6274439,-2.2208695,-3.3920777,-0.29952225,0.16849026,-0.11473328,26.0,26.8125,25.9375,28.9375,29.875,30.3125
0.044054277,-0.7750773,-0.55530006,-0.9694437,-0.022719061,0.04902134,-0.15509692,-0.38137653,-0.34856883,0.059806194,-3.0783968,0.6247381,-0.0005630742,-0.021521984,-0.002631822,0.0011894781,-0.0032655743,0.0033891716,-0.0024822077,0.4775526,-1.4249749,1.9569806,-2.1007712,-1.570721,2.4524355,-0.016072202,0.035605785,-0.04427458,0.004151645,0.0012492801,-0.013565396,-0.22984336,-0.019153614,-9.576807,0.7933669,47.728977,-0.5842417,-2.2208548,-3.3473945,-0.3053015,0.17764145,-0.13750473,26.0,26.8125,25.9375,28.9375,29.875,30.3125
0.046053663,-1.5240388,-1.2090923,-1.1228716,-0.008688206,0.028776586,-0.16051139,-0.38147023,-0.34857687,0.05985579,-3.0784507,0.62484545,-0.00041894126,-0.022019906,-0.0021949287,0.00093348353,-0.0023289886,0.0020533558,-0.0027884697,0.4774802,-1.4249386,1.9568256,-2.1007707,-1.570721,2.4524233,-0.017164404,0.03708592,-0.045743514,0.005758051,0.0010334313,-0.014350122,-0.19153613,0.038307227,-9.595961,0.79560274,47.7254,-0.5262375,-2.183432,-3.3591354,-0.32867593,0.15513922,-0.1295411,26.0,26.8125,25.9375,28.9375,29.875,30.3125
0.048053652,-0.982115,-1.0198392,-0.96305287,-0.016817307,0.035398398,-0.17746112,-0.3814798,-0.3485727,0.05983549,-3.0784311,0.624841,-0.0004883305,-0.022531167,-0.0022313807,0.00019508426,-0.0012536665,0.00032884892,-0.003051737,0.47745618,-1.4248778,1.9567999,-2.1007588,-1.5707091,2.452399,-0.017466255,0.04015691,-0.047788814,0.00675894,0.0008680903,-0.014387117,-0.076614454,0.17238252,-9.5385,0.7642693,47.704796,-0.58050764,-2.2143695,-3.3739994,-0.3438692,0.15802546,-0.15269826,26.0,26.8125,25.9375,28.9375,29.875,30.3125
0.05005421,-0.64586425,-1.3942417,-1.1120664,-0.035254594,0.04198807,-0.17640565,-0.3815457,-0.34858423,0.05984797,-3.078447,0.62488294,-0.00047195505,-0.023427429,-0.0023375186,0.00093376584,-0.0016967922,0.0014422145,-0.0028457984,0.4774079,-1.4247818,1.9566563,-2.1007345,-1.5706972,2.452375,-0.018024273,0.040196385,-0.049674403,0.007413151,0.0007475706,-0.015150004,-0.15322891,0.2681506,-9.557653,0.7239871,47.686886,-0.54055756,-2.2039447,-3.3935807,-0.32514304,0.17109872,-0.15842456,26.0,26.8125,25.9375,28.9375,29.875,30.3125
0.05205414,-0.6665091,-1.7545977,-1.0989456,-0.05218502,0.04100551,-0.17323197,-0.38159248,-0.34858617,0.05984533,-3.0784292,0.62484026,-0.00046198623,-0.024532862,-0.0025095972,0.0018168626,-0.0023064655,0.0028109346,-0.0029258917,0.47738376,-1.424686,1.9565476,-2.1007102,-1.5707215,2.4523265,-0.018679194,0.040317323,-0.051994257,0.008116165,0.00065644516,-0.015723625,-0.15322891,0.3256114,-9.500193,0.7396539,47.651955,-0.5734081,-2.0965767,-3.3317804,-0.3344546,0.16297355,-0.17351648,26.0,26.8125,25.9375,28.9375,29.875,30.3125
0.054054085,-0.6397214,-2.507041,-1.1250154,-0.052358713,0.044988643,-0.14706422,-0.3816407,-0.34858862,0.05985261,-3.0784307,0.62487876,-0.00047476956,-0.024896512,-0.0025863145,0.0007867543,-0.0011980452,0.0008174856,-0.002198567,0.47733578,-1.4246129,1.9564394,-2.1006744,-1.5707096,2.4523025,-0.018831614,0.043709837,-0.053632863,0.008642496,0.0005851664,-0.01660198,-0.17238252,0.40222588,-9.615114,0.7486078,47.711063,-0.5851999,-2.0880575,-3.455448,-0.33133072,0.17131352,-0.18593846,26.0,26.8125,25.9375,28.9375,29.875,30.3125
0.0560537,-0.75107336,-2.4124968,-1.081897,-0.064006075,0.040821195,-0.15070362,-0.3816946,-0.34860328,0.059871413,-3.0784514,0.6248256,-0.00036587665,-0.027087552,-0.0032437018,0.0022503398,-0.0025862802,0.003608585,-0.0022135265,0.47733545,-1.4245526,1.9563302,-2.1006854,-1.5707458,2.4522665,-0.019650837,0.044691034,-0.05820771,0.00911874,0.00052787055,-0.017403744,-0.076614454,0.47884035,-9.595961,0.800085,47.703007,-0.5331444,-2.1020377,-3.3533516,-0.33411646,0.17472845,-0.1984458,26.0,26.8125,25.9375,28.9375,29.875,30.3125
0.058053833,-0.33657682,-1.9662741,-0.9333262,-0.07310815,0.047222376,-0.1574828,-0.38174593,-0.34859604,0.059868816,-3.078429,0.6248978,-0.000381128,-0.02689621,-0.0027127548,0.00027742996,-0.00043101519,-0.00045452404,-0.002141829,0.47727513,-1.4244673,1.9562334,-2.1006615,-1.5707458,2.452254,-0.02038477,0.048785478,-0.05857226,0.009988044,0.0004808102,-0.018208638,-0.076614454,0.53630114,-9.5385,0.75084364,47.696735,-0.54568386,-2.2106743,-3.310811,-0.33831185,0.18117814,-0.20640212,26.0,26.8125,25.9375,28.9375,29.875,30.3125
0.060054343,-0.82300377,-1.5405058,-0.8398058,-0.06533586,0.03012495,-0.15014754,-0.38180065,-0.3486152,0.059866898,-3.0784688,0.6249242,-0.00041576588,-0.027979372,-0.0032642423,0.0012115389,-0.0016034581,0.0017374766,-0.0012304235,0.47722724,-1.4243594,1.9561146,-2.1006615,-1.5706977,2.4522176,-0.020420594,0.048785016,-0.060609765,0.009541105,0.00050980505,-0.019154817,-0.05746084,0.51714754,-9.423578,0.779936,47.675243,-0.6012748,-2.1683533,-3.40035,-0.34049565,0.17641696,-0.21365115,26.0,26.8125,25.9375,28.9375,29.875,30.3125
0.06205424,-0.6537841,-1.5513717,-0.82278925,-0.05809856,0.03091242,-0.14896746,-0.38187996,-0.34861434,0.059891894,-3.078439,0.6249173,-0.0003269574,-0.029643616,-0.003841797,0.002232872,-0.0028400642,0.0041156346,-0.000864948,0.47719106,-1.4242634,1.9559344,-2.100602,-1.5707573,2.452181,-0.020927763,0.04957768,-0.06378405,0.009241024,0.000508704,-0.020025678,-0.038307227,0.51714754,-9.32781,0.7486078,47.68599,-0.5213805,-2.0449245,-3.4173934,-0.31242585,0.17301884,-0.22427163,26.0,26.8125,25.9375,28.9375,29.875,30.3125
0.06405393,-0.41651994,-1.4152261,-0.67404217,-0.044773545,0.03169569,-0.15371707,-0.38192192,-0.34861985,0.059889965,-3.078445,0.6248989,-0.00035165626,-0.031815894,-0.004319012,0.0023982415,-0.0032666605,0.0049295616,-0.0008663498,0.4771546,-1.4241782,1.9558362,-2.100578,-1.5707458,2.4521325,-0.02208255,0.053192444,-0.0682838,0.009207175,0.0005035864,-0.02117623,-0.095768064,0.45968673,-9.3661175,0.82022345,47.70838,-0.6027643,-2.184285,-3.132152,-0.32836127,0.18631785,-0.23851523,26.0,26.8125,25.9375,28.9375,29.875,30.3125
0.06605383,-0.03333413,-1.0745839,-0.4043625,-0.051531512,0.039240044,-0.1502254,-0.38200563,-0.34862542,0.059879493,-3.078439,0.6249931,-0.0002990916,-0.031208072,-0.0038552643,0.000965859,-0.001887198,0.002527603,0.00045985458,0.4770945,-1.4240339,1.9557065,-2.1006267,-1.5707573,2.452132,-0.022261247,0.054943763,-0.066943035,0.008882294,0.0003837958,-0.022681242,-0.095768064,0.38307226,-9.270349,0.8314132,47.711964,-0.55876786,-2.1224399,-3.3031206,-0.31356263,0.19917703,-0.24197772,26.0,26.8125,25.9375,28.9375,29.875,30.3125
0.06805371,-0.95781654,-1.5058573,-0.47218573,-0.04972203,0.020265648,-0.14312616,-0.38206473,-0.34864274,0.05990373,-3.0784771,0.6249235,-0.00025373546,-0.0327092,-0.004769214,0.001866499,-0.0029273666,0.004346846,0.00163602,0.47707066,-1.4239615,1.9555601,-2.10059,-1.5707573,2.45206,-0.022074958,0.05645782,-0.07078606,0.009117084,0.00046532403,-0.023669139,-0.038307227,0.34476504,-9.174581,0.7665104,47.70211,-0.620989,-2.1321266,-3.252049,-0.30550876,0.19639857,-0.26208627,26.0,26.8125,25.9375,28.9375,29.875,30.3125
0.070053585,-0.62940556,-1.1070144,-0.30655682,-0.044909786,0.030600948,-0.1457865,-0.3821324,-0.34865808,0.059907448,-3.0784812,0.62490433,-0.00025637718,-0.033013195,-0.0052282927,0.0018134884,-0.003484591,0.0028394544,0.0022972696,0.47703466,-1.4238292,1.9553922,-2.1005533,-1.5707563,2.4520116,-0.022306478,0.058138993,-0.072945856,0.010674564,0.0016512617,-0.02456302,-0.038307227,0.30645782,-9.11712,0.7866488,47.705692,-0.65510404,-2.1340487,-3.2329712,-0.31304327,0.19484857,-0.27164668,26.0,26.8125,25.9375,28.9375,29.875,30.3125
0.072053626,-0.37248814,-1.1253147,-0.28787032,-0.026560681,0.034694877,-0.15337083,-0.38220572,-0.3487043,0.05993988,-3.078593,0.6248889,-0.00019860832,-0.0340611,-0.0057354374,0.0020869328,-0.0045573693,0.0029128082,0.0030128376,0.4770103,-1.4237447,1.9552244,-2.1005657,-1.5706967,2.4519634,-0.022964135,0.059816293,-0.07557995,0.011071699,0.0025679776,-0.025936155,-0.095768064,0.30645782,-9.11712,0.7418897,47.689575,-0.6675706,-2.0400767,-3.150972,-0.30707866,0.17190222,-0.25391722,26.0,26.8125,25.9375,28.9375,29.875,30.3125
0.07405346,-0.43074343,-0.66339684,-0.15294315,-0.025476575,0.03753437,-0.15151963,-0.38228896,-0.348678,0.059914816,-3.078539,0.62495357,-0.00021831351,-0.035414007,-0.006235299,0.0025112287,-0.0053536925,0.0038717235,0.0034886838,0.47690216,-1.4235884,1.9551033,-2.1005657,-1.5707206,2.4519026,-0.023486039,0.061539084,-0.07852732,0.011077431,0.0028282679,-0.026932722,-0.038307227,0.21068975,-9.097966,0.7172743,47.66271,-0.6405659,-2.1318545,-3.1275475,-0.29698038,0.16163018,-0.28367764,26.0,26.8125,25.9375,28.9375,29.875,30.3125
0.07605385,-0.42459905,-0.62738824,-0.31398678,-0.020996923,0.03857731,-0.13953543,-0.38233817,-0.34871903,0.05992483,-3.0785835,0.62486553,-0.00022748538,-0.036246676,-0.0064794663,0.0024187202,-0.00538654,0.0035464135,0.0043534148,0.47691405,-1.4234679,1.9549345,-2.1005294,-1.5706967,2.451854,-0.023933515,0.06354718,-0.08072016,0.011535961,0.003003022,-0.028243888,-0.076614454,0.22984336,-9.136273,0.74413085,47.705692,-0.67891455,-2.0038939,-3.1269886,-0.3042871,0.16469538,-0.29334408,26.0,26.8125,25.9375,28.9375,29.875,30.3125
0.07805407,-0.63077617,-0.4742689,-0.3897578,-0.022259114,0.03436694,-0.14803642,-0.38241687,-0.3487108,0.059914615,-3.078547,0.62491494,-0.00021906062,-0.037145708,-0.0070145605,0.003094001,-0.0058438163,0.0053587547,0.0060734893,0.47684222,-1.4233241,1.954791,-2.1005175,-1.5707206,2.4518178,-0.023526583,0.06402229,-0.08275549,0.011277109,0.0025721858,-0.029555194,-0.114921674,0.22984336,-9.097966,0.7620334,47.704796,-0.70541143,-2.0012012,-3.0856194,-0.2973702,0.1466697,-0.29295743,26.0,26.8125,25.9375,28.9375,29.875,30.3125
0.08005395,-0.5790929,-0.57195586,-0.25438148,-0.024986863,0.04667522,-0.15335782,-0.38249406,-0.34873903,0.059938684,-3.0786102,0.62494665,-0.00023736576,-0.03755426,-0.0071492456,0.0011724337,-0.0040534805,0.0021171938,0.0068554725,0.47678205,-1.423214,1.9545993,-2.1004698,-1.5706605,2.4517694,-0.023591816,0.06955644,-0.08472371,0.011415138,0.0024664537,-0.030400323,-0.24899697,0.19153613,-9.155427,0.800085,47.682407,-0.72784555,-2.2809014,-3.044643,-0.3006775,0.15664756,-0.3035254,26.0,26.8125,25.9375,28.9375,29.875,30.3125
0.082053624,-0.94939893,-0.5357491,-0.1583939,-0.03334159,0.039050236,-0.15285768,-0.3825687,-0.3487398,0.059937153,-3.078582,0.6248635,-0.0002032075,-0.038996845,-0.0073799193,0.0031959547,-0.006147141,0.0056530456,0.0071133734,0.47674578,-1.4230707,1.9544309,-2.100434,-1.5707086,2.451685,-0.02465655,0.06728881,-0.08682625,0.011680616,0.002699654,-0.03172277,-0.21068975,0.19153613,-9.193734,0.7597976,47.689575,-0.7295768,-1.9978875,-3.038521,-0.30509135,0.17345393,-0.30071247,26.0,26.8125,25.9375,28.9375,29.875,30.3125
0.08405353,-0.8287911,-0.6702027,-0.35937148,-0.041907325,0.050558366,-0.14666232,-0.38266072,-0.34876496,0.059946854,-3.078613,0.62486947,-0.00017259663,-0.039660856,-0.0077336044,0.0026753154,-0.0059585893,0.0048950785,0.008105393,0.4766977,-1.4229134,1.9542264,-2.1004217,-1.5706967,2.4516368,-0.024750076,0.07001619,-0.088753104,0.01163985,0.0028769174,-0.03280714,-0.28730422,0.17238252,-9.212888,0.7709874,47.70838,-0.79646057,-2.0958562,-3.111906,-0.30812594,0.14215425,-0.30517778,26.0,26.8125,25.9375,28.9375,29.875,30.3125
0.08605361,-0.93596345,-0.9312493,-0.4386405,-0.04243789,0.0493752,-0.14177126,-0.38271612,-0.3487799,0.059956186,-3.0786436,0.6248557,-0.00021099926,-0.0399222,-0.0075637726,0.0006749356,-0.00394153,0.00086066563,0.007884814,0.47664958,-1.4228157,1.9540824,-2.1003735,-1.5706605,2.4515762,-0.025326746,0.07537761,-0.090525016,0.012561614,0.0029341944,-0.033161793,-0.2681506,0.24899697,-9.32781,0.779936,47.71286,-0.7874283,-2.1518886,-3.169948,-0.3204952,0.15377498,-0.3357935,26.0,26.8125,25.9375,28.9375,29.875,30.3125
0.08805386,-1.1338854,-0.8915611,-0.5134223,-0.046319462,0.049312983,-0.14724618,-0.38279036,-0.34881175,0.05995488,-3.0786698,0.62476474,-0.000197049,-0.040716335,-0.007908875,0.0022869655,-0.005527039,0.0039209304,0.0075937063,0.47663757,-1.4226481,1.9538912,-2.1003616,-1.5706605,2.4515042,-0.025441658,0.07315328,-0.09165719,0.012471572,0.0029367562,-0.032985367,-0.28730422,0.19153613,-9.442732,0.78217715,47.704796,-0.8769982,-2.110792,-3.1849232,-0.3194056,0.16044378,-0.34974933,26.0,26.8125,25.9375,28.9375,29.875,30.3125
0.09005367,-1.2702206,-1.1097625,-0.59580976,-0.04064234,0.04635813,-0.1439246,-0.38289142,-0.34880793,0.05996707,-3.0786436,0.6248357,-0.000159382,-0.042125754,-0.008349814,0.0017811945,-0.005266708,0.0033701998,0.008649774,0.47655332,-1.4225026,1.9536861,-2.1003134,-1.5706848,2.4514678,-0.025959536,0.07718552,-0.09513121,0.012521427,0.002951271,-0.034556966,-0.22984336,0.28730422,-9.3661175,0.79560274,47.70032,-0.79394615,-2.1245327,-3.200213,-0.32116088,0.14315891,-0.34766275,26.0,26.8125,25.9375,28.9375,29.875,30.3125
0.09205361,-1.4528039,-1.0837885,-0.6218398,-0.04389523,0.03945155,-0.14191833,-0.38298127,-0.34882322,0.0599683,-3.0786705,0.6246855,-0.00013749367,-0.04137176,-0.007827616,-7.505793e-05,-0.0033722268,-0.00010817238,0.010335614,0.47650534,-1.4223334,1.9534844,-2.1002896,-1.5706967,2.4513228,-0.026129615,0.07983015,-0.09395857,0.012663905,0.0028663373,-0.03641294,-0.30645782,0.30645782,-9.442732,0.79560274,47.667187,-0.8778162,-2.1634865,-3.2484503,-0.32235977,0.14878133,-0.33747345,26.0,26.8125,25.9375,28.9375,29.875,30.3125
0.094053455,-1.1806421,-1.4452702,-0.7758668,-0.038874257,0.043590963,-0.13966598,-0.3830605,-0.3488416,0.059972867,-3.078684,0.62470806,-0.00013357546,-0.04326809,-0.008468832,0.00058424124,-0.004425642,0.0022990548,0.00972286,0.47645715,-1.4221886,1.9533032,-2.1002662,-1.5706848,2.451287,-0.026617475,0.08164077,-0.09729619,0.011569883,0.0026892393,-0.036285583,-0.2681506,0.3256114,-9.404425,0.8314132,47.707485,-0.8793653,-2.2265618,-3.3653264,-0.31638157,0.14604864,-0.35163832,26.0,26.8125,25.9375,28.9375,29.875,30.3125
0.096053734,-1.1173126,-1.3430476,-0.87357265,-0.034935556,0.041035116,-0.14162631,-0.38312048,-0.34886947,0.059943646,-3.0787222,0.62469745,-0.00027559305,-0.04351355,-0.008193413,0.00026558118,-0.004072538,0.0019799005,0.008689725,0.47639686,-1.4219961,1.9531473,-2.1002548,-1.5706009,2.4512153,-0.027214007,0.082329616,-0.09732269,0.01135692,0.0025198385,-0.035848696,-0.15322891,0.30645782,-9.442732,0.86498255,47.703903,-0.82696635,-2.2071192,-3.215189,-0.2901703,0.149311,-0.3751957,26.0,26.8125,25.9375,28.9375,29.875,30.3125
0.098054126,-0.6349177,-1.1783162,-0.85407686,-0.044187896,0.048377648,-0.13830735,-0.38323298,-0.3488835,0.059953686,-3.078708,0.6246545,-0.00020133633,-0.04436674,-0.008552115,0.000385109,-0.0039493367,0.0024790925,0.010422451,0.47634894,-1.4218036,1.952896,-2.1002185,-1.5706486,2.4511425,-0.027133552,0.08398783,-0.09954745,0.011535955,0.002177725,-0.03749904,-0.19153613,0.30645782,-9.404425,0.8112748,47.690468,-0.9052682,-2.1627784,-3.3831332,-0.29780573,0.13080476,-0.38516524,26.0,26.8125,25.9375,28.9375,29.875,30.3125
0.10005416,-0.6070756,-1.188901,-0.7437432,-0.043879777,0.047469113,-0.14162046,-0.38328877,-0.3488738,0.059926115,-3.078685,0.62466913,-0.0002997455,-0.044973668,-0.008594704,0.00014470455,-0.0037139375,0.0021171803,0.011636752,0.47626486,-1.4216588,1.9527878,-2.1001942,-1.5706247,2.4510705,-0.027577141,0.085634924,-0.10093249,0.0117047,0.002129464,-0.03915609,-0.17238252,0.22984336,-9.32781,0.84708,47.683304,-0.91583294,-2.1412807,-3.468172,-0.30270037,0.13548654,-0.39413458,26.0,26.8125,25.9375,28.9375,29.875,30.3125
0.10205483,-0.5724141,-0.980828,-0.72998506,-0.049205415,0.038408324,-0.14309923,-0.3834024,-0.34891486,0.059947837,-3.0787282,0.6245986,-0.00021594597,-0.045890223,-0.008658514,0.00023634292,-0.0039349278,0.002503204,0.013321364,0.4762407,-1.4214662,1.9525126,-2.1001709,-1.5706366,2.450997,-0.028310651,0.08688373,-0.10257335,0.011651853,0.0021471553,-0.04157313,-0.1340753,0.28730422,-9.385271,0.7463667,47.696735,-0.8977455,-2.0229774,-3.4485605,-0.2917051,0.1447877,-0.37609637,26.0,26.8125,25.9375,28.9375,29.875,30.3125
0.10405363,-0.581143,-0.8950406,-0.6763924,-0.044245873,0.02690531,-0.13576701,-0.38351494,-0.34891447,0.059957646,-3.0787485,0.62456375,-0.00016078004,-0.046075653,-0.0085030515,-0.0005518104,-0.0031458512,0.0014126828,0.015464247,0.47614446,-1.4213095,1.952308,-2.1001585,-1.570649,2.4508767,-0.028613972,0.08878266,-0.10290424,0.011415074,0.001945888,-0.044018447,-0.15322891,0.3256114,-9.385271,0.8672237,47.711063,-0.96552765,-2.1112132,-3.5419254,-0.2845835,0.15674049,-0.3525468,26.0,26.8125,25.9375,28.9375,29.875,30.3125
0.10605353,-0.5117698,-0.98846215,-0.77681607,-0.036158334,0.021834029,-0.13553265,-0.38359576,-0.34894055,0.059947867,-3.078765,0.6244904,-0.0001888424,-0.04803654,-0.009319555,0.0007662896,-0.004321308,0.0041854535,0.014413696,0.47610852,-1.4211167,1.9521044,-2.1001346,-1.5706371,2.450793,-0.028810872,0.08990955,-0.1072759,0.011658197,0.0017105918,-0.043162175,-0.15322891,0.28730422,-9.423578,0.8291774,47.707485,-0.9811156,-2.053595,-3.3720922,-0.26817632,0.14035076,-0.37404168,26.0,26.8125,25.9375,28.9375,29.875,30.3125
0.10805348,-0.8415031,-1.4708244,-0.7610023,-0.021168964,0.012507844,-0.12986924,-0.38369074,-0.3489583,0.059949152,-3.0787666,0.62446916,-0.00016499628,-0.04768012,-0.008770163,-5.460114e-05,-0.0032901668,0.0026285548,0.016275274,0.4760603,-1.4209362,1.9518894,-2.1001103,-1.570649,2.4507315,-0.029317718,0.090645835,-0.106289156,0.011791741,0.0015103492,-0.045530688,-0.038307227,0.22984336,-9.423578,0.8493211,47.67614,-1.0281229,-2.0559812,-3.6432781,-0.25265303,0.14936696,-0.36625004,26.0,26.8125,25.9375,28.9375,29.875,30.3125
0.1100533,-0.44122538,-0.82166636,-0.8210004,-0.041878592,0.024229638,-0.14752088,-0.3838067,-0.34898642,0.05996672,-3.0788333,0.624386,-0.00013025475,-0.049481962,-0.009377037,-0.0005119115,-0.0028022253,0.0018423691,0.018562304,0.47598797,-1.4207543,1.9516357,-2.1000865,-1.5706252,2.450599,-0.029837,0.095721565,-0.11125412,0.012604824,0.0014301841,-0.048333727,0.038307227,0.22984336,-9.308656,0.8179876,47.66808,-1.0329291,-2.0929039,-3.4570427,-0.26580137,0.14723647,-0.34193692,26.0,26.8125,25.9375,28.9375,29.875,30.3125
0.11205415,-0.71181685,-1.366238,-0.8787771,-0.028706668,0.013568067,-0.12872545,-0.38393995,-0.34899706,0.05999185,-3.0788732,0.62437296,-3.0376701e-05,-0.050647438,-0.009944412,0.0017606426,-0.0048470246,0.0059928205,0.020772042,0.475892,-1.4205873,1.9513844,-2.1000745,-1.5706371,2.45049,-0.029830573,0.09295023,-0.11333848,0.0128343105,0.0013460275,-0.050536297,0.05746084,0.21068975,-9.346964,0.7709874,47.657326,-1.0338621,-1.9211614,-3.5009298,-0.2436898,0.14533778,-0.31206024,26.0,26.8125,25.9375,28.9375,29.875,30.3125
0.1140534,-0.45667678,-0.9081652,-1.0413896,-0.037486885,0.020730333,-0.14089692,-0.3840021,-0.34901094,0.059958804,-3.078858,0.62431026,-0.00014446901,-0.051661458,-0.010291638,0.0011387686,-0.0041888384,0.0045328047,0.022350663,0.47584403,-1.4203815,1.9512161,-2.1000383,-1.5706133,2.450405,-0.0301902,0.09688226,-0.116665475,0.013829615,0.0014212956,-0.05247273,0.019153614,0.19153613,-9.3661175,0.81351066,47.68599,-1.1784109,-2.0002248,-3.4175858,-0.25387925,0.15277494,-0.30149055,26.0,26.8125,25.9375,28.9375,29.875,30.3125
0.11605386,-0.38590828,-1.163745,-1.0342666,-0.040861096,0.02627021,-0.13729781,-0.3841147,-0.34903497,0.05998155,-3.0788915,0.6242988,-8.5782835e-05,-0.053209294,-0.009713601,0.0019909337,-0.005200119,0.0058740117,0.02204293,0.47578305,-1.4202138,1.9509639,-2.100002,-1.5706133,2.4503326,-0.032804787,0.096485585,-0.118244745,0.014149196,0.0017059959,-0.054779336,-0.05746084,0.22984336,-9.442732,0.8157518,47.70032,-1.0811243,-1.9354768,-3.4745708,-0.24054366,0.14267899,-0.27602386,26.0,26.8125,25.9375,28.9375,29.875,30.3125
0.11805397,-1.2466086,-1.7892933,-1.1661534,-0.035468373,0.016437493,-0.13429484,-0.38422987,-0.34906095,0.05998866,-3.0789323,0.62413245,-7.3372554e-05,-0.05385386,-0.010182185,0.0021092254,-0.005270455,0.0056571197,0.02455352,0.47572327,-1.4199969,1.9506882,-2.099954,-1.5706133,2.450164,-0.032658223,0.09818637,-0.120687425,0.01505124,0.0018655458,-0.057142332,-0.1340753,0.30645782,-9.500193,0.8090337,47.72002,-1.0828695,-1.8390439,-3.4757576,-0.24114391,0.14458837,-0.23475137,26.0,26.8125,25.9375,28.9375,29.875,30.3125
0.12005376,-0.81228334,-1.4824744,-1.20798,-0.051455583,0.035151135,-0.1410625,-0.3843294,-0.34908995,0.05997335,-3.0789413,0.6241315,-8.859396e-05,-0.05420095,-0.01034013,0.0017931496,-0.004977818,0.0046401354,0.027317543,0.47567508,-1.4197679,1.9504608,-2.0999534,-1.5706009,2.4501143,-0.032819055,0.09997265,-0.12220949,0.015825247,0.0020696607,-0.060066666,-0.11492168,0.2681506,-9.576807,0.77545905,47.68599,-1.1175151,-1.8541785,-3.4672365,-0.2341925,0.14098603,-0.19160244,26.0,26.8125,25.9375,28.9375,29.875,30.3125
0.122053556,-1.1960868,-1.9313202,-1.186831,-0.049579155,0.043322884,-0.13787071,-0.3844366,-0.34910324,0.059972648,-3.0789652,0.6239234,-6.5248e-05,-0.054788046,-0.011315011,0.0020372388,-0.0051861345,0.005120297,0.030225957,0.47561556,-1.419563,1.9502195,-2.0999172,-1.5706247,2.449922,-0.031596407,0.101825126,-0.12500365,0.01624353,0.0020302192,-0.06175083,-0.05746084,0.36391866,-9.576807,0.784413,47.688675,-1.281566,-1.8076501,-3.484539,-0.2507781,0.14473958,-0.15323594,26.0,26.8125,25.9375,28.9375,29.875,30.3125
0.12405334,-1.7698174,-1.766975,-1.3706551,-0.051235545,0.038372792,-0.12959212,-0.38454103,-0.34912923,0.0599922,-3.0790107,0.6239134,-7.2459494e-05,-0.05684231,-0.010905608,0.002111779,-0.0053888075,0.0057325787,0.02903277,0.4755426,-1.419394,1.9499677,-2.0998576,-1.570589,2.4498372,-0.034123126,0.10419644,-0.12787598,0.016110225,0.0019254567,-0.06308238,-0.1340753,0.36391866,-9.615114,0.7732232,47.696735,-1.2494357,-1.8070416,-3.4300175,-0.23582971,0.15874268,-0.1166635,26.0,26.8125,25.9375,28.9375,29.875,30.3125
0.1260537,-0.9201259,-1.6314958,-1.1233817,-0.049494933,0.056434415,-0.14054072,-0.38464513,-0.3491676,0.060011253,-3.0790472,0.62374866,-6.780498e-06,-0.057838395,-0.011295213,0.0025178497,-0.005768515,0.006700851,0.02795268,0.4755306,-1.4192015,1.9496926,-2.0998094,-1.5706133,2.449718,-0.03426913,0.10535063,-0.13016702,0.016211305,0.0018173002,-0.062146828,-0.095768064,0.34476504,-9.672575,0.8537928,47.690468,-1.2374494,-1.8568089,-3.5003185,-0.23171178,0.14819446,-0.09469697,26.0,26.8125,25.9375,28.9375,29.875,30.3125
0.12805341,-1.2722101,-1.5304624,-1.1166285,-0.052089386,0.044418484,-0.1361019,-0.38477674,-0.34917274,0.060003504,-3.0790443,0.6236704,1.584279e-05,-0.060704734,-0.012200302,0.0023637651,-0.0061818245,0.007494129,0.026877698,0.47543436,-1.4189589,1.949427,-2.099786,-1.5706371,2.4495735,-0.03527396,0.11119878,-0.13643412,0.015734538,0.001807851,-0.062072627,-0.22984336,0.30645782,-9.634268,0.7732232,47.711964,-1.2409501,-1.9909524,-3.319954,-0.22453016,0.15397857,-0.10868715,26.0,26.8125,25.9375,28.9375,29.875,30.3125
0.13005424,-0.8226528,-1.150687,-1.0541543,-0.05362836,0.056858312,-0.14599341,-0.3849141,-0.34921983,0.06004119,3.0789566,-0.62359685,-7.933793e-05,-0.061288405,-0.011150327,0.002398774,-0.006138777,0.007387491,0.024402179,0.47533754,-1.4187912,1.9491514,-2.099798,-1.5705532,2.449442,-0.037656143,0.11060608,-0.13588826,0.015901266,0.0018282518,-0.06197954,-0.3256114,0.2681506,-9.634268,0.784413,47.691364,-1.18466,-1.9440554,-3.329135,-0.2072709,0.15731697,-0.065511286,26.0,26.8125,25.9375,28.9375,29.875,30.3125
0.13205421,-1.1179979,-1.4155784,-1.2234783,-0.038639206,0.053409427,-0.12929873,-0.38504958,-0.34925202,0.060050245,3.0789595,-0.6235609,-0.00011502073,-0.062033676,-0.012129259,0.001227169,-0.0056298915,0.00531264,0.021420186,0.47527763,-1.4185369,1.9488281,-2.0997493,-1.5705646,2.4493594,-0.036912337,0.115949705,-0.13942857,0.016173154,0.0023194887,-0.05825189,-0.38307226,0.2681506,-9.653421,0.83589023,47.67614,-1.228057,-2.097644,-3.1998456,-0.2067621,0.14892069,-0.10202471,26.0,26.8125,25.9375,28.9375,29.875,30.3125
0.13405398,-2.0028443,-1.7853209,-1.0212184,-0.032145515,0.043424845,-0.12500383,-0.38515726,-0.34924293,0.06003072,3.079048,-0.6234623,-0.00010337162,-0.062649816,-0.012847376,0.0019431295,-0.006659272,0.0065329205,0.021244263,0.47519398,-1.4183087,1.9486002,-2.0997016,-1.5706128,2.4492033,-0.036417786,0.1161808,-0.14139345,0.016347056,0.0026704452,-0.057581108,-0.3256114,0.3256114,-9.595961,0.8672237,47.70659,-1.3090874,-1.9805381,-3.2723742,-0.18475196,0.14507137,-0.10971437,26.0,26.8125,25.9375,28.9375,29.875,30.3125
0.1360542,-0.9117012,-1.0935944,-0.7863774,-0.054251634,0.07924687,-0.13871613,-0.3852922,-0.3492826,0.06005083,3.0789819,-0.6234112,-0.00012808651,-0.06412092,-0.0125889685,0.0020950057,-0.0068552517,0.0067773657,0.019358091,0.4751094,-1.418092,1.9483002,-2.0996778,-1.5705646,2.4490952,-0.03824132,0.11786782,-0.14379019,0.016752569,0.002732797,-0.05751709,-0.47884035,0.34476504,-9.500193,0.83365434,47.70211,-1.2652397,-1.8945458,-3.2767925,-0.18611017,0.13836135,-0.09952471,26.0,26.8125,25.9375,28.9375,29.875,30.3125
0.13805397,-1.8297207,-1.3981417,-0.7414226,-0.05062817,0.06435703,-0.14013411,-0.38541016,-0.34932286,0.060053762,3.078985,-0.623319,-0.000156637,-0.0658548,-0.012300513,0.0022711228,-0.007061215,0.0072452645,0.014749979,0.4750725,-1.4178511,1.9480118,-2.099654,-1.5705646,2.4490006,-0.04030102,0.11981202,-0.14650944,0.01701746,0.0026979288,-0.054967046,-0.47884035,0.30645782,-9.576807,0.7777002,47.70032,-1.2376606,-2.0064979,-3.1479485,-0.17176853,0.14415607,-0.10918164,26.0,26.8125,25.9375,28.9375,29.875,30.3125
0.14005375,-1.7045902,-1.2815727,-0.57948965,-0.060224682,0.06997653,-0.13759932,-0.38558012,-0.34934545,0.060092844,3.0789363,-0.62331015,-0.00028200648,-0.06585639,-0.0122481445,0.0016349162,-0.0061112954,0.005727353,0.011495475,0.4749646,-1.4176342,1.9476656,-2.0996177,-1.5705765,2.4488935,-0.040277045,0.12161778,-0.14733517,0.017821822,0.0025526674,-0.051687658,-0.47884035,0.28730422,-9.519346,0.8314132,47.695843,-1.2009597,-1.7599013,-3.4580784,-0.15533853,0.12721103,-0.18072271,26.0,26.8125,25.9375,28.9375,29.875,30.3125
0.1420538,-1.7268368,-1.3342298,-0.23059875,-0.054455616,0.06766442,-0.14126134,-0.38569978,-0.34935555,0.06006904,3.0789838,-0.6232802,-0.00023127721,-0.06670583,-0.012212494,0.000792145,-0.0054302462,0.0046607074,0.0109504955,0.47488058,-1.4173567,1.9473904,-2.0995696,-1.5705885,2.448785,-0.041019242,0.124813035,-0.14906459,0.017616095,0.0024285458,-0.051883537,-0.4405331,0.2681506,-9.270349,0.784413,47.71286,-1.2598121,-1.9031076,-3.3701234,-0.14713079,0.1249904,-0.20086491,26.0,26.8125,25.9375,28.9375,29.875,30.3125
0.14405335,-0.9356321,-0.46899998,-0.21398187,-0.04839081,0.07274355,-0.14988573,-0.3858484,-0.34940004,0.060095254,3.0789354,-0.62315583,-0.00031120863,-0.06804303,-0.012140192,0.00044506427,-0.0052852207,0.004557177,0.009651218,0.47480792,-1.4171277,1.9470652,-2.099558,-1.5705646,2.448641,-0.042295415,0.12749307,-0.15131286,0.017344473,0.002346267,-0.051858626,-0.51714754,0.17238252,-9.232041,0.86945957,47.704796,-1.2530929,-1.841474,-3.330926,-0.13107862,0.13419272,-0.21254572,26.0,26.8125,25.9375,28.9375,29.875,30.3125
0.14605424,-0.90783256,-0.6024601,-0.15851274,-0.032078296,0.067874804,-0.1420231,-0.38599983,-0.34943074,0.06011015,3.0788999,-0.6231106,-0.00039553316,-0.06867672,-0.012018078,4.6164325e-05,-0.0051883096,0.0039652144,0.008381954,0.47472373,-1.416887,1.9467548,-2.0995576,-1.5705646,2.4485333,-0.043187477,0.12917478,-0.15234327,0.017263526,0.0025322218,-0.051480755,-0.4405331,0.17238252,-9.174581,0.8403672,47.688675,-1.2708313,-1.8896568,-3.3478289,-0.106583446,0.1410734,-0.2397156,26.0,26.8125,25.9375,28.9375,29.875,30.3125
0.14805417,-0.4425344,-0.06587077,0.08320745,-0.020036872,0.06375823,-0.15468279,-0.3861435,-0.34945482,0.060116243,3.0788867,-0.6230503,-0.00041287154,-0.070369706,-0.012312592,0.0008068094,-0.006315072,0.006074667,0.007155462,0.47462723,-1.4166342,1.9464425,-2.0995224,-1.5705527,2.448401,-0.044210188,0.13008842,-0.15501462,0.016630791,0.0025648838,-0.051275466,-0.30645782,0.095768064,-8.963891,0.779936,47.683304,-1.2038302,-1.9172707,-3.3500466,-0.10812761,0.1265099,-0.27231115,26.0,26.8125,25.9375,28.9375,29.875,30.3125
0.15005392,-0.6443657,0.025417244,0.08501246,-0.0038198668,0.038848743,-0.14327788,-0.38629505,-0.34948117,0.060119018,3.0788524,-0.6231203,-0.00048012703,-0.07092549,-0.01211556,-0.00061029795,-0.0054626884,0.0035171332,0.006322836,0.47454298,-1.4163686,1.9461311,-2.0995224,-1.5705646,2.448365,-0.045308348,0.13399766,-0.15631607,0.016685586,0.0029757663,-0.051540144,-0.28730422,0.05746084,-8.810662,0.8605109,47.687782,-1.240049,-1.8562617,-3.4354615,-0.053057097,0.12967676,-0.28874886,26.0,26.8125,25.9375,28.9375,29.875,30.3125
0.15205353,-0.40467468,-0.09783087,0.07481853,0.0070372415,0.033167157,-0.1399905,-0.38642922,-0.34949604,0.060106006,3.0788593,-0.6230835,-0.00047956913,-0.07212227,-0.012484022,0.000977317,-0.0065948605,0.005666605,0.0064016692,0.47444674,-1.4161048,1.945855,-2.09951,-1.5705646,2.448245,-0.045740232,0.13311459,-0.15928113,0.018104725,0.002998525,-0.052049924,-0.36391866,0.038307227,-8.7532015,0.7978386,47.661808,-1.1588892,-1.7042475,-3.365085,-0.043433476,0.12326991,-0.30212882,26.0,26.8125,25.9375,28.9375,29.875,30.3125
0.15405403,-0.1309663,0.15816374,-0.0066831624,0.007983736,0.024247268,-0.14078419,-0.38656244,-0.34953216,0.06011636,3.0787923,-0.6231087,-0.00044634717,-0.07279107,-0.011980217,0.0007551157,-0.0056638164,0.0039309836,0.0057502817,0.4743502,-1.4158641,1.9455436,-2.0994608,-1.5705045,2.4481728,-0.047193896,0.13490489,-0.16138075,0.020386985,0.0029660168,-0.052851286,-0.17238252,-0.038307227,-8.925584,0.842603,47.695843,-1.2146853,-1.8665558,-3.4057252,-0.038654387,0.13413337,-0.33537993,26.0,26.8125,25.9375,28.9375,29.875,30.3125
0.15605433,-0.43507993,-0.12870163,-0.04966386,0.014006266,0.01752978,-0.13286006,-0.3867302,-0.34955078,0.06011748,3.0787897,-0.6230875,-0.00045845934,-0.07428124,-0.011982598,0.00093644636,-0.005124328,0.0033815564,0.0054653157,0.47423002,-1.4155626,1.9451836,-2.0994127,-1.5705045,2.44804,-0.04836978,0.13764149,-0.16544908,0.02245524,0.0027346257,-0.053740002,-0.11492168,0.019153614,-8.848969,0.9030289,47.690468,-1.1715332,-1.7633381,-3.4476938,-0.04020321,0.1230105,-0.3558644,26.0,26.8125,25.9375,28.9375,29.875,30.3125
0.15805328,-0.4140834,-0.2569675,-0.119522855,-0.0026600098,0.02169914,-0.13267484,-0.38685995,-0.34957507,0.06010918,3.0788276,-0.62303776,-0.0004634377,-0.07373731,-0.011432251,-0.000453226,-0.0032349986,-7.0954543e-06,0.0053687664,0.47416985,-1.4152852,1.9448727,-2.0993645,-1.5705284,2.4479442,-0.048742574,0.13994098,-0.16527869,0.02386225,0.0026042568,-0.054016206,-0.17238252,0.0,-8.829816,0.90750587,47.717335,-1.1582477,-1.793781,-3.454021,-0.04179492,0.12539133,-0.38223958,26.0,26.8125,25.9375,28.9375,29.875,30.3125
0.16005424,-0.6459894,-0.8692548,-0.320626,-0.012139273,0.029763913,-0.1353914,-0.38700795,-0.3495906,0.06011883,3.0788524,-0.62298435,-0.0005263786,-0.07487138,-0.011404563,-0.00020664532,-0.0029152583,-0.00011518842,0.0047089984,0.47408566,-1.4150327,1.9445494,-2.0993164,-1.5705646,2.4478238,-0.049648173,0.14166698,-0.1681821,0.025280997,0.002367585,-0.0542604,-0.19153613,0.19153613,-9.021352,0.9030289,47.670765,-1.1184179,-1.7509615,-3.4184313,-0.049395762,0.14167105,-0.40617818,26.0,26.8125,25.9375,28.9375,29.875,30.3125
0.16205418,-0.8804231,-0.8722301,-0.5631224,-0.02450656,0.026730213,-0.1312048,-0.38714507,-0.3496035,0.060094904,3.0788598,-0.62298733,-0.00038872167,-0.077102594,-0.010827764,0.0005741743,-0.0032146561,0.0007001931,0.0021478431,0.4739525,-1.4147197,1.9442247,-2.0992315,-1.5705165,2.4476917,-0.052591447,0.14305344,-0.17194654,0.026800264,0.0022535273,-0.0546409,-0.17238252,0.24899697,-9.078813,0.8940802,47.71017,-1.0582857,-1.8474846,-3.31935,-0.053630687,0.14472376,-0.43360072,26.0,26.8125,25.9375,28.9375,29.875,30.3125
0.16405407,-0.9242246,-1.2103305,-0.7339126,-0.02838061,0.031205986,-0.1324103,-0.38733393,-0.3496485,0.060127966,3.0787873,-0.622991,-0.00046499097,-0.07780092,-0.011294453,-0.0005861147,-0.0020843602,-0.001546226,0.0035214012,0.47384453,-1.4144295,1.9438046,-2.0991833,-1.5704926,2.4475954,-0.052386295,0.14786556,-0.17505951,0.027617488,0.0022732315,-0.055807117,-0.22984336,0.3256114,-9.212888,0.82694155,47.717335,-0.9911586,-1.8539519,-3.1574082,-0.05182743,0.1268705,-0.4612673,26.0,26.8125,25.9375,28.9375,29.875,30.3125
0.16605395,-1.3698698,-1.7698376,-0.85829693,-0.040531047,0.034044232,-0.12660334,-0.38744634,-0.3496394,0.060103025,3.0788884,-0.6229704,-0.00036706586,-0.07835288,-0.012253512,0.0009123749,-0.0033182346,0.0007849462,0.006429749,0.4737491,-1.414154,1.9435171,-2.0990632,-1.5705284,2.4474745,-0.051192038,0.14678961,-0.1774727,0.02846761,0.002298975,-0.05752073,-0.22984336,0.34476504,-9.519346,0.88289046,47.707485,-1.179606,-1.7882596,-3.3849392,-0.068291396,0.14077586,-0.46202576,26.0,26.8125,25.9375,28.9375,29.875,30.3125
0.1680536,-1.441829,-2.2828157,-1.1418586,-0.052881643,0.047441803,-0.123343594,-0.38762164,-0.34966132,0.06012095,3.0788527,-0.62300205,-0.00042233613,-0.07856694,-0.011416006,-7.0071816e-05,-0.0023378357,-0.0021144887,0.005843438,0.47362828,-1.4138767,1.9431461,-2.099015,-1.5705284,2.4473782,-0.053122118,0.14880903,-0.1779258,0.029927555,0.0027548117,-0.05886468,-0.2873042,0.51714754,-9.461885,0.80456203,47.696735,-1.0752125,-1.748791,-3.381047,-0.07808423,0.14094067,-0.48044968,26.0,26.8125,25.9375,28.9375,29.875,30.3125
0.17005347,-1.1575739,-2.0625815,-1.2141887,-0.08056882,0.06215139,-0.13772136,-0.38776183,-0.34968993,0.06010856,3.0788922,-0.6228724,-0.00036512717,-0.08007003,-0.010813295,-0.00010068131,-0.0023047368,-0.0025239622,0.0087309405,0.47354352,-1.413564,1.942798,-2.098943,-1.5705165,2.4472077,-0.055621833,0.15064108,-0.18019547,0.030745707,0.002908905,-0.06425103,-0.34476504,0.47884035,-9.5385,0.8403672,47.661808,-1.0308089,-1.7665248,-3.3837104,-0.07931727,0.14043933,-0.46250445,26.0,26.8125,25.9375,28.9375,29.875,30.3125
0.17205401,-1.5446156,-2.8521783,-1.2563709,-0.077414006,0.064094275,-0.12766486,-0.38794732,-0.34969938,0.060110696,3.0788977,-0.62289345,-0.00037480306,-0.08133124,-0.0111056855,-2.400079e-05,-0.0028876225,-0.0014465288,0.009663068,0.47339922,-1.413239,1.9424027,-2.0988715,-1.5705284,2.447076,-0.056227848,0.15238501,-0.18220653,0.029787961,0.0029302274,-0.0657879,-0.4405331,0.45968673,-9.576807,0.8493211,47.683304,-0.9080895,-1.6998994,-3.3564568,-0.09437252,0.13841912,-0.44297642,26.0,26.8125,25.9375,28.9375,29.875,30.3125
0.17405397,-1.7054178,-2.4387717,-1.2947055,-0.080099456,0.058264397,-0.1331597,-0.38810128,-0.34973148,0.06010579,3.0789096,-0.6228328,-0.00037390727,-0.08218758,-0.012121946,0.00040781367,-0.0038485045,0.0005769952,0.015037375,0.47331583,-1.4129264,1.9420432,-2.0988243,-1.5705284,2.4469535,-0.055141542,0.15351388,-0.18423125,0.02844575,0.0028571957,-0.07007454,-0.30645782,0.51714754,-9.672575,0.8851263,47.72629,-1.0840245,-1.6481738,-3.4026895,-0.06446949,0.13553147,-0.42878824,26.0,26.8125,25.9375,28.9375,29.875,30.3125
0.176054,-1.6884334,-1.6564118,-1.133855,-0.072863735,0.05278567,-0.14063753,-0.38825107,-0.3497643,0.060086776,3.0789156,-0.62273467,-0.000279278,-0.083788946,-0.011586598,-0.00036369765,-0.0035568718,-0.00042327485,0.020165388,0.47320694,-1.4125886,1.9416837,-2.0987642,-1.5704807,2.4467828,-0.057628155,0.1569244,-0.18640167,0.028233066,0.00304844,-0.07768799,-0.2681506,0.47884035,-9.653421,0.9186956,47.694054,-0.96155643,-1.8435137,-3.4095416,-0.06358659,0.13377047,-0.37267503,26.0,26.8125,25.9375,28.9375,29.875,30.3125
0.17805396,-1.043263,-1.572411,-1.4999985,-0.046372715,0.05192683,-0.14245227,-0.38843298,-0.3497849,0.060108338,3.0788724,-0.62270707,-0.00031055082,-0.08409564,-0.011329142,-0.0021008658,-0.0024148517,-0.0036185777,0.021105064,0.4730626,-1.4123112,1.9413012,-2.0987046,-1.5704564,2.446627,-0.05860492,0.16113654,-0.18735866,0.028343774,0.0034902804,-0.07960376,-0.21068975,0.3256114,-9.595961,0.8627467,47.67614,-0.9351407,-1.7462652,-3.5216374,-0.04460428,0.12855631,-0.30734998,26.0,26.8125,25.9375,28.9375,29.875,30.3125
0.18005455,-1.3138645,-1.3382843,-1.485073,-0.035372496,0.03486681,-0.12936422,-0.38859537,-0.34980974,0.060089085,3.0789046,-0.6225955,-0.00031906576,-0.08582318,-0.011799492,-0.0014871539,-0.003899352,-0.0015050747,0.024694534,0.4729663,-1.4119743,1.9409541,-2.0986927,-1.5704678,2.4464571,-0.05953648,0.16240323,-0.1900014,0.02716106,0.003841998,-0.084123634,-0.1340753,0.30645782,-9.653421,0.85826975,47.684196,-0.9534545,-1.8395126,-3.4534485,-0.026231628,0.11575511,-0.26550716,26.0,26.8125,25.9375,28.9375,29.875,30.3125
0.18205443,-0.85515624,-1.0908772,-1.2379315,-0.031665504,0.048887055,-0.1308009,-0.3887705,-0.3498426,0.06010428,3.0789008,-0.6224585,-0.00034938983,-0.08673335,-0.011774623,-0.0025242753,-0.0033892961,-0.0033160525,0.02693294,0.47285798,-1.411673,1.9405583,-2.0986326,-1.5704564,2.446264,-0.060608212,0.16621076,-0.19210349,0.027300872,0.004212776,-0.087432556,-0.1340753,0.30645782,-9.557653,0.85155696,47.68599,-0.9106468,-2.052341,-3.6383796,-0.032282867,0.11193438,-0.21434055,26.0,26.8125,25.9375,28.9375,29.875,30.3125
0.18405375,-0.70702237,-0.8822104,-1.2110137,-0.020954978,0.055118795,-0.13542731,-0.3889708,-0.34985217,0.06009817,3.0788794,-0.6225107,-0.00030744102,-0.0866391,-0.011238017,-0.0037199361,-0.0015841121,-0.0058995914,0.028196592,0.4726778,-1.4113116,1.9401392,-2.0985606,-1.5704321,2.4461193,-0.061143667,0.16866043,-0.19250378,0.028378533,0.0037825615,-0.089231,-0.21068975,0.17238252,-9.615114,0.8851263,47.694946,-0.98873997,-1.9902449,-3.6138067,-0.018327147,0.12862311,-0.18233159,26.0,26.8125,25.9375,28.9375,29.875,30.3125
0.1860542,-0.6738886,-0.7719658,-0.9689428,-0.02406075,0.059581332,-0.13678268,-0.3891579,-0.34988704,0.06009079,3.0788772,-0.6223752,-0.00036268678,-0.08792077,-0.011476719,-0.0033666112,-0.0017332352,-0.005136622,0.027833503,0.47256967,-1.4109628,1.9397563,-2.098572,-1.5704321,2.4459271,-0.061707597,0.17032011,-0.1953899,0.028859088,0.003566558,-0.08943003,-0.22984336,0.114921674,-9.691729,0.85826975,47.703007,-0.9134492,-1.9797844,-3.7025285,3.3979304e-06,0.123513326,-0.13889399,26.0,26.8125,25.9375,28.9375,29.875,30.3125
0.18805394,-0.6472893,-0.37614077,-0.8096307,-0.037040427,0.06321632,-0.13335255,-0.38934153,-0.34990883,0.060103282,3.0788949,-0.62226397,-0.0004003247,-0.089276604,-0.011921222,-0.0039622323,-0.0019484021,-0.0058522504,0.026015144,0.4724494,-1.4106487,1.939349,-2.0985005,-1.570444,2.4457355,-0.062442396,0.1742348,-0.19854957,0.02864078,0.004077412,-0.08834486,-0.21068975,0.0,-9.595961,0.8940802,47.716442,-0.8502494,-2.196821,-3.6972218,0.019145688,0.1208767,-0.12284556,26.0,26.8125,25.9375,28.9375,29.875,30.3125
0.19005375,-0.6858213,-0.76477957,-0.7640238,-0.022017322,0.05201363,-0.13731742,-0.3895185,-0.3499314,0.060094696,3.078916,-0.6221935,-0.00038503183,-0.09074859,-0.012112001,-0.00315155,-0.0027860894,-0.0043010716,0.022197206,0.47232893,-1.4103005,1.9389533,-2.098441,-1.570444,2.4455686,-0.063418485,0.17492615,-0.20132779,0.028965114,0.004109466,-0.08550185,-0.21068975,0.1340753,-9.385271,0.8493211,47.674347,-0.89265275,-1.9651854,-3.5482044,0.023261748,0.11784258,-0.12994294,26.0,26.8125,25.9375,28.9375,29.875,30.3125
0.19205368,-0.52135694,-0.5205274,-0.75502855,-0.02173925,0.051224295,-0.13024384,-0.38970333,-0.34994867,0.060100228,3.0788994,-0.62215394,-0.00040145652,-0.09229445,-0.012128701,-0.0020343491,-0.0032468487,-0.0030525087,0.016460724,0.47218463,-1.4099877,1.9385685,-2.0983922,-1.5704321,2.445402,-0.064637266,0.17538778,-0.2048582,0.030713767,0.003947719,-0.080982566,-0.30645782,0.17238252,-9.3661175,0.7732232,47.65912,-0.8558551,-2.0557923,-3.43698,0.01561592,0.105172224,-0.1541488,26.0,26.8125,25.9375,28.9375,29.875,30.3125
0.19405368,-0.71760875,-0.6304093,-0.58124083,-0.020303786,0.04153569,-0.13281898,-0.38988557,-0.34998512,0.06009911,3.078906,-0.6220794,-0.00038580547,-0.09294585,-0.012053666,-0.0021057727,-0.0028909654,-0.0046283305,0.01367788,0.47207633,-1.409627,1.9381379,-2.0983198,-1.5704201,2.4452465,-0.065572925,0.17728546,-0.2074642,0.032987032,0.0043456834,-0.07913477,-0.34476504,0.2681506,-9.270349,0.83589023,47.67614,-0.78148746,-2.0075321,-3.3729558,0.01584415,0.110969886,-0.17977484,26.0,26.8125,25.9375,28.9375,29.875,30.3125
0.19605383,-0.61753696,-0.6482649,-0.59155244,-0.02603875,0.048434895,-0.13124065,-0.39009362,-0.35002115,0.06010512,3.0788746,-0.6220763,-0.0004155839,-0.09400574,-0.0121615715,-0.0013241302,-0.003054878,-0.003850962,0.007990912,0.47194412,-1.4092541,1.9376825,-2.0982716,-1.5704082,2.4451165,-0.06615799,0.17782429,-0.21027394,0.034492258,0.0041353307,-0.0740315,-0.36391866,0.28730422,-9.193734,0.9097417,47.688675,-0.7220149,-1.9597197,-3.3396096,-0.0022434331,0.105691336,-0.22165853,26.0,26.8125,25.9375,28.9375,29.875,30.3125
0.1980537,-1.3953834,-1.5619078,-0.611674,-0.028392466,0.04693114,-0.12260842,-0.39027599,-0.35003036,0.060096502,3.07887,-0.6220947,-0.0003855015,-0.09454691,-0.012078548,-0.00097504846,-0.0022930629,-0.003947721,0.006464524,0.47178808,-1.4089177,1.9372996,-2.0982106,-1.5703963,2.4449728,-0.0663379,0.1785349,-0.21236004,0.036303803,0.0034982793,-0.072683804,-0.4405331,0.30645782,-9.212888,0.86498255,47.703007,-0.74803984,-1.8574893,-3.3411098,-0.01472865,0.110588074,-0.2824863,26.0,26.8125,25.9375,28.9375,29.875,30.3125
0.20005338,-1.7902541,-1.6936021,-0.5888708,-0.040813502,0.059725516,-0.1347111,-0.3904543,-0.35006225,0.060102634,3.078911,-0.62198627,-0.0003784943,-0.096554995,-0.011254861,-0.0011395087,-0.0011923618,-0.0053636674,0.007230855,0.4716911,-1.4085679,1.9368566,-2.0981023,-1.5704087,2.4448032,-0.06933771,0.1819513,-0.21657595,0.038866412,0.0031584557,-0.0764477,-0.38307226,0.28730422,-9.193734,0.8291774,47.668976,-0.62334514,-1.8923512,-3.378431,-0.043102648,0.13659091,-0.26575893,26.0,26.8125,25.9375,28.9375,29.875,30.3125
0.2020534,-1.4443598,-1.5812446,-0.51670843,-0.05303566,0.07733879,-0.12462167,-0.39064395,-0.35006,0.060087066,3.0789495,-0.6220329,-0.00031410804,-0.09560895,-0.012040412,-0.0010963418,-0.0004491225,-0.006757888,0.0072855526,0.47152382,-1.408196,1.9364375,-2.0979936,-1.5704206,2.4446604,-0.06703885,0.1824143,-0.21780804,0.04121455,0.0031260063,-0.07420357,-0.4213795,0.2681506,-9.212888,0.85826975,47.683304,-0.7236669,-1.7653165,-3.4283018,-0.08504889,0.11426784,-0.30071518,26.0,26.8125,25.9375,28.9375,29.875,30.3125
0.20405339,-1.4915622,-1.5308707,-0.5639017,-0.04344523,0.0708662,-0.13117097,-0.39084888,-0.350112,0.060099762,3.0788863,-0.6219232,-0.00032458504,-0.09587377,-0.011929785,-0.0009737698,-0.0006378365,-0.0071832906,0.006920227,0.4713917,-1.4078352,1.9359831,-2.0979574,-1.5703601,2.444468,-0.06765592,0.1826396,-0.2186081,0.042086367,0.0034911754,-0.07445537,-0.4405331,0.30645782,-9.097966,0.83813137,47.681515,-0.8499729,-1.7144544,-3.3996024,-0.108075246,0.115991294,-0.315694,26.0,26.8125,25.9375,28.9375,29.875,30.3125
0.20605354,-0.9714501,-1.296014,-0.38255727,-0.03289282,0.07244061,-0.13183157,-0.39102486,-0.35013095,0.060063943,3.0789287,-0.62189335,-0.00022229183,-0.09838412,-0.011695223,0.00019726992,-0.0018642152,-0.005567383,0.0046997475,0.47125885,-1.4074264,1.9355754,-2.0978854,-1.5703481,2.4443114,-0.0705018,0.18378119,-0.22294255,0.043283027,0.0038375875,-0.07507954,-0.38307226,0.30645782,-9.155427,0.9097417,47.678825,-0.6819953,-1.7342321,-3.3927245,-0.1189235,0.11349256,-0.32439095,26.0,26.8125,25.9375,28.9375,29.875,30.3125
0.20805347,-1.0375739,-0.93282616,-0.6837426,-0.01475562,0.043051858,-0.12985629,-0.391259,-0.35015395,0.060081787,3.0789309,-0.6219122,-0.00026895382,-0.097843744,-0.013040003,-0.00014035979,-0.0014102254,-0.0065130596,0.007162519,0.47110373,-1.4070292,1.9350504,-2.0977771,-1.570372,2.444168,-0.06762057,0.18592827,-0.22492683,0.04416767,0.003860633,-0.07466006,-0.2681506,0.30645782,-9.11712,0.8314132,47.682407,-0.6971531,-1.7579563,-3.4340699,-0.15530314,0.11420216,-0.35565522,26.0,26.8125,25.9375,28.9375,29.875,30.3125
0.21005347,-0.43297264,-0.4110154,-0.5292081,-0.011378333,0.03565685,-0.12824415,-0.39146042,-0.35016656,0.0600772,3.0789437,-0.621912,-0.00030353005,-0.09682508,-0.013170173,-0.0020624716,0.0006403644,-0.010310806,0.009549405,0.47096026,-1.406668,1.9346317,-2.097729,-1.5703963,2.4440231,-0.0663673,0.1893712,-0.22475258,0.044864725,0.0037588915,-0.075793326,-0.22984336,0.24899697,-9.136273,0.8873621,47.67345,-0.8771447,-1.7315264,-3.4218602,-0.14662255,0.11878041,-0.3585016,26.0,26.8125,25.9375,28.9375,29.875,30.3125
0.21205364,-0.5142968,-0.45579958,-0.55921715,-0.00566087,0.017295169,-0.12873605,-0.39165235,-0.35020015,0.060071815,3.0789258,-0.6218884,-0.0002242248,-0.09799414,-0.012953682,-0.0018478094,0.00057070237,-0.010109366,0.009811142,0.47081587,-1.4062833,1.9341768,-2.0976331,-1.5703481,2.4438665,-0.067725584,0.19061734,-0.22691493,0.045574717,0.0037238745,-0.07741247,-0.095768064,0.24899697,-9.097966,0.8560339,47.68062,-0.9015386,-1.7574425,-3.4823074,-0.17733204,0.10472481,-0.38459677,26.0,26.8125,25.9375,28.9375,29.875,30.3125
0.21405374,-0.06617365,-1.1622916,-0.89737207,0.004755436,0.015419539,-0.12935172,-0.39186054,-0.35022545,0.06007384,3.0789473,-0.6218902,-0.00027036673,-0.098854825,-0.013774511,-0.0015707277,0.0005743366,-0.010166992,0.013613178,0.47069603,-1.4058981,1.9337095,-2.0975606,-1.5703839,2.4437454,-0.06702791,0.19296238,-0.23066343,0.047029708,0.0037429498,-0.080515094,0.0,0.11492168,-9.136273,0.82694155,47.693153,-0.8843046,-1.8569304,-3.3908505,-0.20243181,0.10949974,-0.38227928,26.0,26.8125,25.9375,28.9375,29.875,30.3125
0.21605419,-0.026948366,-1.1502386,-0.69080347,-0.027796937,0.014989654,-0.1201248,-0.3920588,-0.35024214,0.06005575,3.0789955,-0.6218406,-0.00016415614,-0.09926339,-0.013313635,-0.0027288632,0.0021500217,-0.012785586,0.016631559,0.4705397,-1.4054761,1.9332317,-2.0974286,-1.570372,2.4435523,-0.0680097,0.19622797,-0.23218034,0.04833297,0.0035191684,-0.08451445,0.11492168,0.19153613,-9.232041,0.95226496,47.683304,-0.9071297,-1.9190974,-3.440002,-0.23058175,0.11090876,-0.34968913,26.0,26.8125,25.9375,28.9375,29.875,30.3125
0.21805415,0.035083156,-1.1298659,-0.61540073,-0.043203656,0.011893566,-0.13491124,-0.39224848,-0.35027754,0.060060166,3.0790231,-0.621746,-0.00014698278,-0.10044105,-0.013814312,-0.0027963084,0.0024606942,-0.012472906,0.021754978,0.47043175,-1.4051027,1.9327644,-2.0973208,-1.5703725,2.443382,-0.06787566,0.19903217,-0.23541245,0.04862633,0.003093325,-0.08950166,0.095768064,0.19153613,-9.155427,0.9254084,47.704796,-0.9456887,-1.917376,-3.4683585,-0.2662603,0.14583279,-0.30919343,26.0,26.8125,25.9375,28.9375,29.875,30.3125
0.22005413,0.19855842,-1.1845791,-0.85778546,-0.04431148,0.015930414,-0.13158686,-0.39245468,-0.3502827,0.060036227,3.0790803,-0.6216985,-8.27742e-05,-0.10141504,-0.013886432,-0.0030508193,0.0027039298,-0.012617927,0.025292791,0.47026354,-1.4046817,1.932309,-2.0972254,-1.5703844,2.4431772,-0.0684659,0.20126158,-0.23752466,0.048749875,0.002931478,-0.09362857,0.24899697,0.26815057,-9.232041,0.84708,47.678825,-0.9094091,-2.0479114,-3.4452057,-0.27960092,0.12058043,-0.2704875,26.0,26.8125,25.9375,28.9375,29.875,30.3125
0.22205402,0.1376835,-1.6061592,-0.8652714,-0.039191723,0.010387033,-0.13478577,-0.39266905,-0.3503319,0.06004467,3.0790226,-0.6216055,-7.7389275e-05,-0.101831846,-0.013701776,-0.0044725914,0.003323849,-0.0146126365,0.029969266,0.4701193,-1.404296,1.9318317,-2.0971777,-1.5703243,2.4429824,-0.06933441,0.20461074,-0.23807454,0.04801642,0.0032835342,-0.09917309,0.30645782,0.3256114,-9.232041,0.89631605,47.677036,-0.9219613,-1.9913421,-3.4730082,-0.30661517,0.132725,-0.17822328,26.0,26.8125,25.9375,28.9375,29.875,30.3125
0.22405404,0.21649455,-1.2127874,-0.9636173,-0.052821424,0.0015930437,-0.12840943,-0.39285755,-0.3503374,0.060008503,3.079126,-0.6215683,5.017816e-05,-0.10377776,-0.014716563,-0.0034473415,0.0013272758,-0.01177778,0.031084111,0.46997523,-1.4038512,1.9313654,-2.0970342,-1.5703481,2.4428024,-0.06955229,0.20601082,-0.24189037,0.046997383,0.0037552307,-0.10050487,0.21068975,0.30645782,-9.346964,0.87393653,47.733456,-0.87765783,-2.053577,-3.4286983,-0.30276662,0.13760874,-0.14849846,26.0,26.8125,25.9375,28.9375,29.875,30.3125
0.22605427,-0.03746848,-1.7261993,-1.1174247,-0.0507165,0.0034220314,-0.12886786,-0.39308825,-0.35037372,0.06002324,3.0791728,-0.62136364,-2.6849299e-05,-0.10468243,-0.015175397,-0.0030310957,-0.00011741121,-0.010384119,0.033904538,0.46985513,-1.4034425,1.9308385,-2.0969508,-1.5703839,2.442549,-0.06992366,0.20646393,-0.24320856,0.04596117,0.0044099847,-0.10369669,0.15322891,0.45968673,-9.308657,0.9030289,47.694946,-0.8802694,-2.0900025,-3.591878,-0.31784123,0.109569356,-0.09188175,26.0,26.8125,25.9375,28.9375,29.875,30.3125
0.22805335,0.13644607,-1.985679,-1.103763,-0.058756247,0.017159417,-0.12964562,-0.39326254,-0.3504005,0.05998246,3.0792217,-0.62127936,0.00012864002,-0.10659498,-0.0155875385,-0.002627142,-0.0013042443,-0.008664543,0.030407185,0.46972293,-1.4030094,1.9304069,-2.0968554,-1.5703477,2.4423583,-0.071030304,0.20851876,-0.24638529,0.045015324,0.004669202,-0.101305015,0.05746084,0.57460845,-9.442732,0.7709874,47.67793,-0.9794874,-2.1365933,-3.4398775,-0.31606823,0.11047213,-0.0828845,26.0,26.8125,25.9375,28.9375,29.875,30.3125
0.23005413,-0.44885728,-2.2113364,-1.276687,-0.064519495,0.023873635,-0.13092588,-0.3934765,-0.35042924,0.059980907,3.079236,-0.62122506,0.00019872987,-0.10777661,-0.015832491,-0.00235616,-0.0021515752,-0.0071852384,0.027892582,0.46956646,-1.402589,1.9298924,-2.0967243,-1.5703233,2.4421663,-0.0716479,0.20952296,-0.24800487,0.043930527,0.004744304,-0.099407405,0.0,0.57460845,-9.557653,0.86498255,47.668976,-0.8203248,-2.0480452,-3.4947388,-0.33142418,0.12204616,-0.09170938,26.0,26.8125,25.9375,28.9375,29.875,30.3125
0.23205397,-1.2879689,-2.9933367,-1.5363747,-0.06660301,0.028726447,-0.11349439,-0.39367425,-0.35046223,0.05995875,3.0792987,-0.6211029,0.00027484202,-0.108401805,-0.01745462,-0.0011136057,-0.0042911195,-0.0037960494,0.026935376,0.4694474,-1.4021449,1.9294027,-2.0966175,-1.5703233,2.4419634,-0.06955193,0.20903628,-0.2500217,0.042441953,0.00510443,-0.09635417,-0.05746084,0.5746084,-9.615114,0.8403672,47.681515,-1.124688,-1.9412105,-3.497316,-0.3236112,0.12769431,-0.124505,26.0,26.8125,25.9375,28.9375,29.875,30.3125
0.23405392,-1.192613,-3.2178693,-1.5357529,-0.07276896,0.058766346,-0.11992127,-0.39387384,-0.35050386,0.05995981,3.0792959,-0.6209896,0.00028740766,-0.10925132,-0.016963862,-0.0018947416,-0.00372351,-0.004628301,0.02256537,0.4693268,-1.4017595,1.9289359,-2.0965455,-1.5702995,2.4417727,-0.07103379,0.21131341,-0.25086504,0.042009655,0.0049723163,-0.09346516,-0.1340753,0.47884035,-9.576807,0.8851263,47.72002,-1.0917797,-1.97844,-3.5850372,-0.33266178,0.12081355,-0.14323117,26.0,26.8125,25.9375,28.9375,29.875,30.3125
0.23605402,-1.2436093,-2.5164864,-1.4270242,-0.08065858,0.06849775,-0.13126048,-0.39411384,-0.35056373,0.05997416,3.079236,-0.6209595,0.00025239593,-0.11122212,-0.017504742,-0.002134952,-0.004777068,-0.0029574384,0.018036865,0.46919453,-1.4013258,1.9283856,-2.0964863,-1.5702637,2.4416294,-0.07190059,0.2145535,-0.25361183,0.03955174,0.0051494655,-0.08980148,-0.076614454,0.4213795,-9.768343,0.8247004,47.695843,-0.92314076,-2.0497146,-3.549213,-0.32089052,0.118766055,-0.19151491,26.0,26.8125,25.9375,28.9375,29.875,30.3125
0.23805416,-1.5497745,-2.4804015,-1.5404743,-0.054821912,0.06240048,-0.11938396,-0.39431944,-0.35057986,0.059937563,3.0792906,-0.62091273,0.00034230246,-0.112835206,-0.019668097,-0.0006292517,-0.008309713,0.002535947,0.017654661,0.46903935,-1.4008691,1.9279193,-2.0964043,-1.5702637,2.4414384,-0.06991474,0.2146964,-0.25643626,0.035733923,0.0057957442,-0.087433085,-0.21068975,0.36391866,-9.653421,0.84708,47.73614,-1.2185853,-1.9601322,-3.5822809,-0.2820391,0.116196245,-0.24228618,26.0,26.8125,25.9375,28.9375,29.875,30.3125
0.24005418,-1.3628973,-1.256344,-1.4561491,-0.045583688,0.061639663,-0.117177516,-0.39455128,-0.35063136,0.059930444,3.0792725,-0.6208332,0.00034113898,-0.114180475,-0.019750217,-0.0012275482,-0.00907615,0.0025794192,0.014151555,0.46890688,-1.4004117,1.9273924,-2.0963562,-1.570239,2.441259,-0.07133056,0.21747719,-0.25804713,0.034178674,0.0064551993,-0.08534543,-0.3256114,0.40222588,-9.576807,0.842603,47.668976,-1.1711426,-1.9119118,-3.6305318,-0.24403137,0.11020866,-0.27643934,26.0,26.8125,25.9375,28.9375,29.875,30.3125
0.24205415,-0.7378161,-0.7630086,-1.6876149,-0.018696334,0.058859766,-0.12622069,-0.3947984,-0.35066134,0.059918765,3.0793126,-0.620783,0.0003093226,-0.11561382,-0.019810962,-0.001976532,-0.008765492,0.0031074693,0.0139851775,0.46876246,-1.39993,1.9268421,-2.096285,-1.5702757,2.4410784,-0.07210691,0.22081369,-0.25991395,0.03237834,0.0059319404,-0.08595328,-0.2681506,0.30645782,-9.691729,0.9321212,47.65464,-1.149882,-2.0490227,-3.5992117,-0.22145057,0.09661348,-0.31434634,26.0,26.8125,25.9375,28.9375,29.875,30.3125
0.24405433,-1.0018023,-0.89822567,-1.5664768,-0.023446038,0.056951303,-0.12612075,-0.3950277,-0.35069963,0.059918217,3.0792613,-0.6207744,0.00033027167,-0.11659251,-0.020207481,-0.0017162903,-0.009175863,0.0041755424,0.01173631,0.46859473,-1.3995093,1.92634,-2.0962255,-1.5702275,2.440912,-0.07214528,0.22208051,-0.26199734,0.032061405,0.005813221,-0.083741516,-0.24899697,0.22984336,-9.653421,0.9388393,47.683304,-1.1895497,-2.0824378,-3.7257645,-0.17687294,0.09990363,-0.33370996,26.0,26.8125,25.9375,28.9375,29.875,30.3125
0.24605413,-1.0196139,-1.385043,-1.2964946,-0.029590007,0.059165962,-0.1243936,-0.39525998,-0.35076463,0.059925426,3.079223,-0.6206517,0.00026988686,-0.11736348,-0.020032844,-0.0016815361,-0.008320122,0.003546254,0.009516221,0.4684864,-1.3990763,1.9258136,-2.0962007,-1.5702037,2.4407322,-0.0727789,0.22369683,-0.26445723,0.033856638,0.0053389696,-0.082153134,-0.34476507,0.28730422,-9.653421,0.86498255,47.709274,-1.2176021,-2.1058638,-3.7063317,-0.17439441,0.08915296,-0.40091667,26.0,26.8125,25.9375,28.9375,29.875,30.3125
0.24805427,-1.1427362,-0.96912,-1.3580985,-0.04168315,0.062619954,-0.12738451,-0.39547434,-0.35078427,0.0599037,3.0792456,-0.6206927,0.00033241606,-0.119137645,-0.020368012,-0.0011103023,-0.008482932,0.0048590265,0.011542061,0.46833014,-1.3986313,1.9253229,-2.0961049,-1.5702037,2.440599,-0.073419645,0.22580962,-0.26846436,0.034509923,0.0048816316,-0.08481754,-0.45968673,0.17238252,-9.691729,0.8493211,47.677036,-1.2107687,-2.089962,-3.7503502,-0.15712392,0.08639452,-0.42109647,26.0,26.8125,25.9375,28.9375,29.875,30.3125
0.25005418,-1.8682694,-1.7350668,-1.5314707,-0.022342311,0.05213272,-0.11889562,-0.39571103,-0.3508289,0.059893936,3.0792575,-0.6205997,0.0003220052,-0.12119685,-0.02081594,-0.0006574226,-0.009357938,0.006091624,0.00939719,0.4681977,-1.3981613,1.9247836,-2.0960448,-1.5702037,2.4404073,-0.07454336,0.22844476,-0.2726902,0.034605343,0.0050989757,-0.08379459,-0.2681506,0.19153613,-9.710882,0.87617236,47.694946,-1.2220638,-2.1891303,-3.6770816,-0.13269678,0.10180563,-0.47166318,26.0,26.8125,25.9375,28.9375,29.875,30.3125
0.25205335,-1.5261557,-1.3630244,-1.334442,-0.033196602,0.057103675,-0.12321458,-0.39598042,-0.3508765,0.0599352,3.0792038,-0.6205285,0.00019137045,-0.12325047,-0.021668892,0.000350637,-0.010693357,0.008354386,0.012130575,0.46804166,-1.3977525,1.9241966,-2.0959733,-1.5702037,2.440214,-0.07491644,0.23034716,-0.27731362,0.034706227,0.005271181,-0.086898595,-0.3256114,0.17238252,-9.672575,0.81351066,47.655537,-1.2110605,-2.2774599,-3.5451689,-0.09394898,0.09059991,-0.48674548,26.0,26.8125,25.9375,28.9375,29.875,30.3125
0.2540542,-1.3348875,-1.4571536,-1.4727606,-0.019149765,0.055527322,-0.11722213,-0.39622423,-0.35092637,0.059920825,3.079201,-0.620487,0.00023280644,-0.124083735,-0.021444676,0.00016407124,-0.010571545,0.007027018,0.015877048,0.4678972,-1.3972478,1.9236215,-2.0958889,-1.5701798,2.4400442,-0.07628955,0.23226456,-0.27960166,0.036320172,0.0057613603,-0.09201805,-0.28730422,0.2681506,-9.5385,0.9567419,47.690468,-1.1813462,-2.200161,-3.515816,-0.11408859,0.08925062,-0.4704911,26.0,26.8125,25.9375,28.9375,29.875,30.3125
0.2560533,-1.5745567,-1.1047906,-1.3626891,-0.026223177,0.05190228,-0.11585991,-0.39646256,-0.35094184,0.059903976,3.079216,-0.6204473,0.00027885073,-0.12514263,-0.022053575,0.000635536,-0.0105007,0.0076330216,0.0225911,0.46770543,-1.3967904,1.923107,-2.0958045,-1.5701679,2.439826,-0.07587828,0.23412162,-0.28323278,0.03759199,0.0054205526,-0.09831906,-0.38307226,0.24899697,-9.557653,0.9186956,47.693153,-1.1702676,-2.2379296,-3.5073986,-0.0999076,0.08385089,-0.42761612,26.0,26.8125,25.9375,28.9375,29.875,30.3125
0.2580542,-1.7326514,-1.3948319,-1.3765945,-0.019118626,0.057013944,-0.121957,-0.39670303,-0.3509921,0.059900545,3.0792181,-0.6203877,0.00029362476,-0.12761675,-0.021050978,0.0014960659,-0.010891449,0.009285737,0.025491573,0.46757215,-1.3963097,1.922532,-2.0957086,-1.5701555,2.4396555,-0.07949205,0.23481438,-0.28626585,0.03828774,0.0050218552,-0.104831696,-0.45968673,0.28730422,-9.634268,0.900793,47.667187,-1.0501243,-2.1393542,-3.4635134,-0.081075415,0.064867474,-0.3687733,26.0,26.8125,25.9375,28.9375,29.875,30.3125
0.26005423,-2.2007282,-1.5286274,-1.2513528,-0.025248555,0.062213756,-0.11626989,-0.39696893,-0.35104734,0.059922058,3.0792205,-0.620172,0.00018459915,-0.12635933,-0.021342076,-0.00013691236,-0.009280704,0.0058931434,0.033302736,0.46744084,-1.3958526,1.9219354,-2.0956485,-1.5701679,2.4393897,-0.077874355,0.23734133,-0.28575966,0.039011296,0.0051268744,-0.111025065,-0.4405331,0.24899697,-9.500193,1.0104496,47.667187,-1.1744741,-2.1301527,-3.523089,-0.085775755,0.07549974,-0.2831887,26.0,26.8125,25.9375,28.9375,29.875,30.3125
0.26205415,-1.6437545,-1.6996654,-1.2137618,-0.04201927,0.086547405,-0.12974575,-0.39719573,-0.3510841,0.059892796,3.0792499,-0.62009835,0.0002467103,-0.12651713,-0.020661708,0.00010291338,-0.008945861,0.0049630995,0.036709428,0.4672964,-1.3953602,1.9214104,-2.095576,-1.5701555,2.4391959,-0.07920762,0.2368311,-0.28627872,0.04102604,0.0052482635,-0.11576577,-0.59376204,0.21068975,-9.500193,0.8873621,47.67345,-1.2149274,-1.9396229,-3.614078,-0.055478714,0.094547525,-0.23680659,26.0,26.8125,25.9375,28.9375,29.875,30.3125
0.26405412,-2.1238012,-1.6129586,-1.1515415,-0.051932693,0.07897439,-0.12408532,-0.3974618,-0.35112518,0.059884094,3.0792215,-0.6200166,0.0002831576,-0.1284385,-0.019015223,0.0010196922,-0.009805323,0.005636636,0.034330446,0.4671026,-1.394856,1.9208244,-2.095503,-1.5701078,2.4389548,-0.0839747,0.23580754,-0.28759012,0.042378977,0.0057157353,-0.11815445,-0.51714754,0.21068975,-9.500193,0.9545008,47.70032,-0.9027148,-1.9193435,-3.745463,-0.08303684,0.06723144,-0.18563527,26.0,26.8125,25.9375,28.9375,29.875,30.3125
0.26605427,-1.833682,-1.1143503,-1.2020532,-0.0495389,0.07351648,-0.12560838,-0.39773417,-0.35115606,0.05991445,3.079209,-0.6199354,0.00019906374,-0.12908599,-0.020438233,0.0025875743,-0.010714158,0.008510065,0.037109345,0.46692345,-1.3944237,1.9202255,-2.0953958,-1.5701197,2.438727,-0.08169046,0.23541321,-0.2909775,0.04318759,0.0052371407,-0.11864712,-0.45968673,0.22984336,-9.461885,0.9679317,47.66987,-1.0821183,-1.7771828,-3.7120452,-0.058915053,0.06579501,-0.14826949,26.0,26.8125,25.9375,28.9375,29.875,30.3125
0.2680541,-1.4059596,-0.83152026,-1.2226385,-0.02609986,0.06589162,-0.12587304,-0.39798498,-0.35121545,0.05990849,3.0792031,-0.61976427,0.00018315291,-0.13168181,-0.019386265,0.0028249205,-0.010266402,0.009554361,0.031055508,0.46679032,-1.3939307,1.9196514,-2.0953472,-1.5700959,2.438488,-0.085183635,0.23764351,-0.29432437,0.043578513,0.0043656095,-0.11608378,-0.34476507,0.15322891,-9.500193,0.98135734,47.65912,-0.9435922,-1.848999,-3.6931095,-0.04017511,0.057969697,-0.17298903,26.0,26.8125,25.9375,28.9375,29.875,30.3125
0.27005425,-1.1937176,-0.4077816,-1.2456431,-0.0074602417,0.049152937,-0.12306104,-0.39827022,-0.35123613,0.059929114,3.0792232,-0.619695,0.0001054043,-0.13323021,-0.019098777,0.0024066337,-0.009928945,0.0093351975,0.023772223,0.46659774,-1.3934612,1.9190282,-2.0952284,-1.5701321,2.43825,-0.08683084,0.24058782,-0.2969172,0.04356914,0.0041618086,-0.11044597,-0.36391866,0.13407528,-9.519346,0.8717007,47.681515,-0.8105131,-1.7402474,-3.61097,-0.028341541,0.08925911,-0.19144237,26.0,26.8125,25.9375,28.9375,29.875,30.3125
0.272054,-0.8167111,-0.34791273,-1.2418584,-0.0030277015,0.041347608,-0.1232447,-0.39854062,-0.3512781,0.0599244,3.079214,-0.61958045,0.00010541078,-0.13416578,-0.01886708,0.001056112,-0.00852437,0.006841964,0.017816689,0.46641743,-1.3929552,1.9184302,-2.095156,-1.5701083,2.4379997,-0.08788864,0.24518432,-0.29953638,0.044451684,0.004027436,-0.105546534,-0.36391866,0.19153613,-9.500193,0.83589023,47.66271,-0.7785804,-1.938798,-3.635089,-0.0033398827,0.08263138,-0.26892772,26.0,26.8125,25.9375,28.9375,29.875,30.3125
0.27405405,-0.8392342,-0.46006107,-1.2953284,-0.013517439,0.039603572,-0.11775135,-0.39882728,-0.35130575,0.05993709,3.079193,-0.61961526,8.097057e-05,-0.13621329,-0.019483404,0.0014325686,-0.009085731,0.0071702953,0.0155953895,0.46621323,-1.3924612,1.9177955,-2.0950358,-1.5701083,2.4378202,-0.08874793,0.24868903,-0.30491057,0.045774527,0.0043763076,-0.104182385,-0.24899697,0.1340753,-9.481039,1.0373062,47.70211,-0.710613,-2.0776198,-3.4740376,-0.00851223,0.09099248,-0.30055875,26.0,26.8125,25.9375,28.9375,29.875,30.3125
0.27605388,-0.8281816,-1.1673559,-1.1970713,-0.025040405,0.0399996,-0.12253114,-0.3990893,-0.3513414,0.05992337,3.0791876,-0.6196151,7.268963e-05,-0.13661341,-0.019383438,0.0014254288,-0.007987472,0.0043635406,0.014333236,0.46604472,-1.391956,1.917221,-2.0949738,-1.5701083,2.4376526,-0.08937156,0.25089854,-0.30862474,0.050279655,0.00466104,-0.10354304,-0.19153613,0.11492168,-9.481039,0.9455522,47.701214,-0.68525326,-2.0861132,-3.358533,-0.014197369,0.0802329,-0.3216817,26.0,26.8125,25.9375,28.9375,29.875,30.3125
0.27805397,-0.88548326,-1.2050862,-1.0538275,-0.03163642,0.05042099,-0.12498276,-0.39935187,-0.35140818,0.059932612,3.0791252,-0.6194869,0.000115432034,-0.13675153,-0.019407537,0.000988663,-0.0071244347,0.0030610836,0.013739651,0.465877,-1.3914622,1.9165996,-2.0948784,-1.5700244,2.437413,-0.08925287,0.25264445,-0.31007943,0.051549636,0.004479027,-0.10282996,-0.24899697,0.22984336,-9.308656,0.81351066,47.71286,-0.73719025,-2.291306,-3.380756,-0.047752026,0.089811824,-0.33896998,26.0,26.8125,25.9375,28.9375,29.875,30.3125
0.2800543,-0.923166,-0.56875,-1.3711991,-0.036459103,0.043136455,-0.12515718,-0.39960968,-0.3514247,0.05991615,3.0792036,-0.6194438,0.00013334227,-0.13611074,-0.019416245,0.0008583321,-0.005562194,0.0014714346,0.01442706,0.46570933,-1.3909464,1.9160022,-2.0947454,-1.570072,2.437209,-0.08816745,0.25309047,-0.31102318,0.054167554,0.0037965444,-0.10243157,-0.21068975,0.34476504,-9.461885,0.8403672,47.683304,-0.8207239,-2.1088524,-3.4674368,-0.053907067,0.07154906,-0.35801888,26.0,26.8125,25.9375,28.9375,29.875,30.3125
0.28205436,-1.0773076,-1.8046834,-1.3966429,-0.03847783,0.045639172,-0.11722262,-0.39989585,-0.35146084,0.059949003,3.079189,-0.6194221,6.836837e-05,-0.13563868,-0.01741901,-0.00075674226,-0.0023925516,-0.0040865587,0.01268197,0.46552852,-1.3904772,1.9153441,-2.0946004,-1.570084,2.4370167,-0.09092342,0.2551293,-0.31077924,0.058275618,0.0034747773,-0.103442505,-0.21068975,0.30645782,-9.500193,0.9030289,47.71017,-0.72294337,-2.0089483,-3.6531563,-0.08263254,0.08317636,-0.38737768,26.0,26.8125,25.9375,28.9375,29.875,30.3125
0.2840544,-0.46153843,-1.5822716,-0.99366194,-0.059441566,0.051312443,-0.12885909,-0.4001871,-0.35148984,0.059938658,3.079157,-0.6194507,0.00010975214,-0.13389178,-0.017914861,-0.0007467363,-0.00041121876,-0.0074851625,0.018145688,0.46530133,-1.3899362,1.9147109,-2.0945032,-1.5700487,2.4368117,-0.08828964,0.2552306,-0.31225657,0.063585274,0.0032381054,-0.10627252,-0.05746084,0.2681506,-9.308656,0.9679317,47.703007,-0.86502045,-2.0147336,-3.6922839,-0.17478417,0.107178405,-0.3787681,26.0,26.8125,25.9375,28.9375,29.875,30.3125
0.28605428,-0.7505576,-1.4192963,-1.0838443,-0.03416075,0.012486188,-0.11851309,-0.40050304,-0.35153922,0.059995208,3.0791125,-0.6193619,-0.00010144734,-0.13714726,-0.018286742,0.0011951952,-0.0028265659,-0.0027286394,0.021386368,0.4651328,-1.3894802,1.914028,-2.0944197,-1.5700845,2.4365938,-0.09041926,0.2557478,-0.31717843,0.06265539,0.0032675243,-0.11164034,0.076614454,0.28730422,-9.3661175,0.9612189,47.684196,-0.9550539,-1.924454,-3.5944169,-0.1703245,0.11063881,-0.36528796,26.0,26.8125,25.9375,28.9375,29.875,30.3125
0.2880541,0.07595075,-0.68731797,-0.97219133,-0.03572479,0.010536339,-0.12356065,-0.40073997,-0.351585,0.059965577,3.0791726,-0.61919695,1.603523e-05,-0.13760082,-0.019507736,0.0018700594,-0.003556915,-0.0017919352,0.028786793,0.4649894,-1.3889391,1.9134301,-2.0942876,-1.5700601,2.43634,-0.0887703,0.256743,-0.3202137,0.06353681,0.0034898042,-0.11739123,0.076614454,0.2681506,-9.289503,0.92093146,47.68062,-0.80162036,-1.7762314,-3.5665545,-0.18104741,0.09894257,-0.2915811,26.0,26.8125,25.9375,28.9375,29.875,30.3125
0.2900542,0.24371435,-0.6711452,-1.0260359,-0.0043445667,-0.007924988,-0.12188613,-0.40102622,-0.35162044,0.059964515,3.0791397,-0.61918724,1.2187717e-05,-0.13915603,-0.020118603,0.0030985775,-0.0053597866,0.00010695185,0.033823308,0.46478525,-1.3884227,1.9128069,-2.0942037,-1.5700358,2.4361343,-0.08945406,0.25714356,-0.3237471,0.06416881,0.004249506,-0.12311097,0.076614454,0.17238252,-9.174581,0.9231726,47.652847,-0.94352055,-1.7786677,-3.4774427,-0.22062889,0.10678629,-0.2488662,26.0,26.8125,25.9375,28.9375,29.875,30.3125
0.29205424,0.4800958,-0.4559691,-1.0566779,0.006215199,-0.0061747152,-0.12450571,-0.40129852,-0.35166767,0.059977792,3.0791683,-0.6190164,4.181414e-06,-0.13944227,-0.019748839,0.0021679315,-0.00469111,-0.0021862078,0.03920019,0.46462882,-1.3879172,1.9121498,-2.0940597,-1.5700353,2.435868,-0.0905341,0.2595232,-0.32477176,0.065167025,0.0046838406,-0.12956788,0.095768064,0.22984336,-9.136273,0.85155696,47.655537,-0.90734935,-1.7163851,-3.4135747,-0.22070459,0.111221656,-0.13192661,26.0,26.8125,25.9375,28.9375,29.875,30.3125
0.2940543,0.24600866,-0.5946473,-1.1389349,-0.00045896776,0.013059391,-0.117390424,-0.40159708,-0.35168898,0.05997539,3.0792243,-0.61887264,2.8749871e-05,-0.14048752,-0.020581976,0.0010648634,-0.0040288903,-0.0045319684,0.041517437,0.4644129,-1.3873627,1.9114679,-2.0939033,-1.5700477,2.4355557,-0.09019136,0.265186,-0.32935053,0.066476166,0.005132649,-0.1315406,-0.095768064,0.24899697,-9.289502,0.92093146,47.688675,-0.90603995,-1.8648338,-3.453867,-0.26420113,0.10378863,-0.08013855,26.0,26.8125,25.9375,28.9375,29.875,30.3125
0.2960542,-0.77558106,-1.7391127,-1.4457259,-0.009609716,0.01610439,-0.113126434,-0.40187544,-0.3517296,0.059974365,3.079256,-0.6187461,7.547737e-05,-0.14096022,-0.020259915,-3.304535e-05,-0.0033776392,-0.0070145573,0.03903021,0.4642326,-1.3868208,1.9107975,-2.0937474,-1.5700353,2.4352927,-0.091399655,0.26822942,-0.33076543,0.06735912,0.005656187,-0.13026167,0.019153614,0.30645782,-9.32781,0.92764956,47.72002,-0.83670384,-2.0673199,-3.5047274,-0.2966903,0.098795965,-0.060275413,26.0,26.8125,25.9375,28.9375,29.875,30.3125
0.29805353,-1.1296229,-2.1526399,-1.2511187,-0.061952725,0.0495653,-0.11732616,-0.4021416,-0.3517935,0.05998991,3.0792515,-0.6186316,0.0001148494,-0.14151569,-0.020740218,0.00037151275,-0.0037780518,-0.006416903,0.03522367,0.46408862,-1.3863041,1.9101161,-2.0935795,-1.5699996,2.4350781,-0.091025636,0.26893422,-0.33277807,0.0679558,0.0057407124,-0.12608063,-0.076614454,0.36391866,-9.385271,0.9567419,47.684196,-0.93984306,-2.0107026,-3.3910553,-0.3096636,0.10308717,-0.09169469,26.0,26.8125,25.9375,28.9375,29.875,30.3125
0.3000536,-1.6471423,-2.9905555,-1.2434832,-0.0843401,0.062988184,-0.11463651,-0.40245578,-0.35182244,0.060013883,3.0792325,-0.6186301,4.8824226e-05,-0.1420197,-0.020923749,0.00019115162,-0.0038500337,-0.006012184,0.029894507,0.46387264,-1.3857876,1.9094237,-2.0934484,-1.5700115,2.434864,-0.09097011,0.27008048,-0.33370423,0.06733834,0.0056226207,-0.120695226,-0.15322891,0.57460845,-9.442732,0.8940802,47.661808,-0.94360065,-1.952167,-3.5668793,-0.34310114,0.102225825,-0.116971545,26.0,26.8125,25.9375,28.9375,29.875,30.3125
0.30205423,-1.9990933,-3.5122414,-1.4783959,-0.08490646,0.064446,-0.10536735,-0.40273142,-0.35187277,0.059999067,3.0792503,-0.61851907,0.00010386367,-0.14343071,-0.021507671,8.12024e-05,-0.0044050254,-0.004062536,0.027092524,0.4637048,-1.3852222,1.9087647,-2.0933297,-1.5699877,2.434625,-0.09085693,0.27236044,-0.33578506,0.065150626,0.005232282,-0.11777867,-0.13407528,0.61291564,-9.5385,0.92764956,47.66987,-1.0198762,-1.8414199,-3.6437764,-0.36012602,0.10759832,-0.16411565,26.0,26.8125,25.9375,28.9375,29.875,30.3125
0.30405405,-0.8544467,-2.1748674,-1.3987815,-0.09474812,0.067565896,-0.12315603,-0.40299976,-0.351897,0.059970364,3.0793014,-0.61849433,0.00019734225,-0.14424366,-0.02286773,0.00020146716,-0.005739583,-0.0010247419,0.022494802,0.4635134,-1.3846571,1.908132,-2.093187,-1.5699877,2.434412,-0.089010105,0.27368838,-0.33698583,0.061706893,0.0050454885,-0.111333534,-0.05746084,0.61291564,-9.595961,0.9097417,47.698532,-1.0833707,-1.916992,-3.6378381,-0.31842336,0.11315974,-0.25378376,26.0,26.8125,25.9375,28.9375,29.875,30.3125
0.30605474,-1.1547363,-2.641262,-1.1311591,-0.076106735,0.0408972,-0.10721493,-0.40332422,-0.35195965,0.06000986,3.0792458,-0.61834836,6.312916e-05,-0.14789042,-0.022713916,0.00096378656,-0.00829107,0.003805113,0.01976691,0.4633323,-1.38414,1.9074138,-2.0931046,-1.5699757,2.4341471,-0.09241209,0.2754815,-0.34000006,0.057469547,0.005166656,-0.11200546,-0.19153613,0.47884035,-9.442732,0.9791215,47.668976,-1.0325847,-1.8079002,-3.5743365,-0.28871554,0.10532002,-0.27485296,26.0,26.8125,25.9375,28.9375,29.875,30.3125
0.3080537,-0.86263704,-2.2480054,-1.2081503,-0.04873181,0.024344405,-0.10684286,-0.40359905,-0.35201946,0.06000564,3.0792625,-0.6182167,7.747156e-05,-0.14910127,-0.025613194,0.0021177751,-0.0111269485,0.009044419,0.020506198,0.46318954,-1.3835868,1.9067444,-2.0929868,-1.5699638,2.4339204,-0.088493854,0.27685678,-0.3435241,0.053663254,0.005345379,-0.10882493,-0.15322891,0.51714754,-9.289502,0.9097417,47.684196,-1.1715547,-1.8455637,-3.5856385,-0.23079416,0.11573474,-0.33374476,26.0,26.8125,25.9375,28.9375,29.875,30.3125
0.31005353,-0.34939995,-1.4619235,-1.3625858,-0.03131134,0.019422969,-0.11726599,-0.40392083,-0.35208076,0.060008485,3.0791981,-0.618225,-1.1605753e-05,-0.15248671,-0.025267733,0.00383517,-0.013818945,0.014135985,0.014730079,0.46300852,-1.3830098,1.9060491,-2.092951,-1.5699514,2.433753,-0.09199877,0.2765604,-0.34671178,0.051389866,0.0054774997,-0.10655226,-0.19153613,0.4405331,-9.423578,0.9388393,47.678825,-1.2063705,-1.8914459,-3.5569878,-0.1892971,0.11540565,-0.38461974,26.0,26.8125,25.9375,28.9375,29.875,30.3125
0.31205338,-0.5709999,-1.3008181,-1.3948394,-0.047964767,0.029163199,-0.12155633,-0.40421343,-0.3521305,0.05999565,3.0792177,-0.61817133,8.554877e-06,-0.15273985,-0.025768138,0.0024077655,-0.012939963,0.012132879,0.014465079,0.46284074,-1.3824207,1.9053558,-2.0928314,-1.5699514,2.4335496,-0.09133,0.28072584,-0.34848732,0.051184833,0.005581893,-0.10561763,-0.15322891,0.38307226,-9.461885,0.90527004,47.666286,-1.0421877,-1.848496,-3.5922174,-0.15546548,0.11319432,-0.4386001,26.0,26.8125,25.9375,28.9375,29.875,30.3125
0.31405422,-0.58952713,-2.0442963,-1.3154155,-0.057360407,0.048247978,-0.11542313,-0.40451697,-0.3521732,0.060003445,3.0792089,-0.61809134,2.4296001e-05,-0.1537409,-0.025980135,0.0017971654,-0.013208977,0.011207945,0.01578669,0.4626365,-1.3818663,1.904651,-2.0926878,-1.5699271,2.433297,-0.092135,0.28377345,-0.35084534,0.05120606,0.006235611,-0.107743695,-0.21068975,0.4405331,-9.404425,0.95897776,47.696735,-1.2168131,-1.8492236,-3.5814395,-0.12206733,0.10902828,-0.4809659,26.0,26.8125,25.9375,28.9375,29.875,30.3125
0.31605422,-1.0102196,-2.410281,-0.9812864,-0.07893869,0.07852642,-0.12591124,-0.40480545,-0.35221604,0.05998867,3.0792477,-0.6179809,2.9744468e-05,-0.15541962,-0.026404997,0.004611767,-0.015748547,0.015749544,0.020454695,0.4624682,-1.3812912,1.9039806,-2.0925796,-1.569939,2.4330552,-0.092910826,0.2806777,-0.35397562,0.052237727,0.006481987,-0.11318753,-0.30645782,0.4213795,-9.519346,0.9388393,47.677036,-1.14462,-1.8295096,-3.5184112,-0.12434548,0.09376733,-0.45891738,26.0,26.8125,25.9375,28.9375,29.875,30.3125
0.31805384,-1.546194,-1.961182,-1.0872997,-0.06217009,0.080168076,-0.119773544,-0.40513617,-0.35227796,0.060021862,3.0791473,-0.61795485,-2.4077422e-05,-0.15541904,-0.025703423,0.0021011983,-0.013233469,0.011400882,0.029008849,0.46225196,-1.3807491,1.9032401,-2.0924718,-1.5698794,2.4328356,-0.09382274,0.28572991,-0.35448584,0.052726887,0.006191164,-0.12265219,-0.15322891,0.30645782,-9.461885,0.98135734,47.686886,-1.1486658,-1.6679933,-3.5851042,-0.094009936,0.1109513,-0.39415196,26.0,26.8125,25.9375,28.9375,29.875,30.3125
0.32005358,-1.597489,-1.0343738,-1.3624052,-0.025476174,0.062443342,-0.11471123,-0.40545538,-0.35235173,0.060032822,3.0791342,-0.61775684,-9.3952454e-05,-0.15611948,-0.02521596,0.0008359657,-0.011676998,0.007808524,0.03353822,0.46209556,-1.3801594,1.9024986,-2.092387,-1.569867,2.4325576,-0.095306255,0.28997484,-0.357362,0.05527457,0.006414128,-0.12866364,-0.11492168,0.24899697,-9.481039,0.95002913,47.683304,-1.1086875,-1.9548724,-3.6067884,-0.1091919,0.11227575,-0.3422051,26.0,26.8125,25.9375,28.9375,29.875,30.3125
0.32205355,-1.2089936,-0.46489772,-0.9424829,-0.019370891,0.07140227,-0.12418993,-0.40578327,-0.3524021,0.060028233,3.0791085,-0.61768955,-0.00013691804,-0.15717468,-0.026041081,0.00034995427,-0.012780526,0.008282503,0.041924737,0.46189174,-1.3795574,1.901781,-2.0923164,-1.5698546,2.4323153,-0.09517413,0.2928929,-0.35948327,0.05356898,0.007196702,-0.1369172,-0.22984336,0.19153613,-9.442732,0.8985519,47.698532,-1.1035584,-1.9346064,-3.6226716,-0.047830716,0.091110684,-0.22589557,26.0,26.8125,25.9375,28.9375,29.875,30.3125
0.3240538,-0.7361272,-0.03120752,-0.82938516,-0.009878079,0.071132734,-0.121553466,-0.40610483,-0.3524652,0.060049854,3.079103,-0.6174938,-0.00022233368,-0.15904367,-0.026280515,8.164193e-05,-0.013134101,0.008708864,0.04462871,0.4617232,-1.3789917,1.901038,-2.0922086,-1.5698546,2.4320257,-0.09635131,0.29638606,-0.36305547,0.05311307,0.007329346,-0.14079629,-0.30645782,0.21068975,-9.308657,0.99031126,47.661808,-1.049557,-2.0454268,-3.6097364,-0.018210724,0.07673704,-0.17138964,26.0,26.8125,25.9375,28.9375,29.875,30.3125
0.32605377,-0.6660742,0.38919935,-0.69853514,-0.0023212486,0.058105983,-0.12300518,-0.40641528,-0.35253248,0.06003547,3.0790825,-0.6173771,-0.00018450202,-0.16103144,-0.024824305,0.0008839722,-0.012781257,0.009891321,0.0411322,0.46154186,-1.3783668,1.900309,-2.0921118,-1.5698069,2.4317744,-0.09992755,0.29623628,-0.3651917,0.054508973,0.0064888843,-0.14087518,-0.2873042,0.1340753,-9.212888,0.95897776,47.657326,-1.0350742,-2.071869,-3.6418655,0.020934159,0.098591074,-0.132092,26.0,26.8125,25.9375,28.9375,29.875,30.3125
0.3280535,-1.0008827,-0.20535408,-0.6176047,-0.00769026,0.05262853,-0.11563789,-0.4067419,-0.35256782,0.06002435,3.0790796,-0.61727923,-0.00019827977,-0.16012742,-0.025929209,0.0009099648,-0.011116884,0.008009947,0.041391235,0.46131495,-1.3777664,1.8996037,-2.0920274,-1.569796,2.431487,-0.09673534,0.29781026,-0.36814672,0.05831862,0.005841902,-0.13794082,-0.51714754,0.17238252,-9.174581,0.9634547,47.678825,-1.0222263,-1.9519928,-3.597618,0.0051853005,0.09337562,-0.14579122,26.0,26.8125,25.9375,28.9375,29.875,30.3125
0.3300535,-0.812057,-0.6676077,-0.44726023,-0.02225746,0.062437035,-0.11642399,-0.40707183,-0.35261658,0.06003358,3.0790803,-0.6171695,-0.000266876,-0.16300087,-0.025719848,0.0026389214,-0.012803364,0.012073611,0.032684345,0.46112233,-1.3771772,1.8988603,-2.0919201,-1.5698074,2.4312263,-0.099256456,0.29772595,-0.37204373,0.05790569,0.0055377204,-0.13175341,-0.5554548,0.21068975,-9.002198,0.98135734,47.66987,-1.0740627,-1.917999,-3.4427514,0.025028046,0.104657054,-0.19237363,26.0,26.8125,25.9375,28.9375,29.875,30.3125
0.33205342,-0.7592319,-0.2540522,-0.4092316,-0.041912682,0.07520278,-0.12098473,-0.40739396,-0.35266832,0.060027197,3.0791397,-0.61697197,-0.0002563015,-0.16358575,-0.025874572,0.0030557557,-0.012386512,0.011828054,0.02712094,0.4609423,-1.3765403,1.898084,-2.0917633,-1.5698198,2.4309158,-0.099216536,0.2986934,-0.37481478,0.060110286,0.0052682506,-0.12614942,-0.57460845,0.15322891,-9.040505,0.947788,47.694946,-0.8949395,-1.836261,-3.5113256,0.061633654,0.107326314,-0.26336905,26.0,26.8125,25.9375,28.9375,29.875,30.3125
0.33405402,-1.2871706,-0.7462502,-0.6686162,-0.037938382,0.07685604,-0.10955262,-0.4077151,-0.35270196,0.060020104,3.0791056,-0.6170433,-0.00020019591,-0.16359976,-0.025692092,0.0032733544,-0.011887749,0.00983119,0.024253454,0.46070218,-1.3759398,1.897355,-2.0916183,-1.5697836,2.4307249,-0.09969341,0.29926795,-0.3769736,0.06370725,0.0057125306,-0.12375896,-0.6512228,0.17238252,-9.11712,1.0373062,47.733456,-1.0219029,-1.7025521,-3.4995809,0.026053738,0.09905127,-0.31307048,26.0,26.8125,25.9375,28.9375,29.875,30.3125
0.33605367,-1.1790379,-0.67141664,-0.2780426,-0.03744677,0.08261181,-0.119208306,-0.40801796,-0.3527613,0.060007796,3.0791047,-0.61694676,-0.00014465554,-0.16374269,-0.025245983,0.002781683,-0.010277356,0.007357464,0.02436751,0.46052194,-1.3753265,1.8966249,-2.0914857,-1.5697473,2.4304848,-0.100263305,0.3012113,-0.3790256,0.06675529,0.005372953,-0.124442376,-0.4405331,0.17238252,-9.11712,0.99702406,47.692257,-1.0379643,-1.7042816,-3.4572425,0.017180363,0.10468358,-0.34749347,26.0,26.8125,25.9375,28.9375,29.875,30.3125
0.33805388,-0.74482447,-0.25405523,-0.38502315,-0.010036453,0.07398983,-0.114529446,-0.40836498,-0.35282233,0.060014,3.0790749,-0.6168851,-0.00022543721,-0.16396613,-0.024590349,0.001018143,-0.007946472,0.0028389052,0.019541323,0.4603295,-1.3747,1.8958477,-2.0914009,-1.5697473,2.430258,-0.10141606,0.30574968,-0.38119847,0.06947149,0.0053004734,-0.12076765,-0.40222588,0.1340753,-9.097966,0.96569055,47.668976,-1.0139847,-1.7457421,-3.5617342,-0.0050343946,0.1119405,-0.3683195,26.0,26.8125,25.9375,28.9375,29.875,30.3125
0.34005365,-0.59817123,0.15053152,-0.3010099,0.0036021313,0.056266986,-0.118941374,-0.40870598,-0.35285336,0.060010858,3.0791054,-0.6168495,-0.00026874794,-0.16366416,-0.024316967,0.0012957384,-0.007251385,0.0011450109,0.023146728,0.46011364,-1.3740755,1.8950828,-2.0912678,-1.5697836,2.4300165,-0.10159143,0.3055339,-0.3825111,0.07282638,0.005440476,-0.12454871,-0.51714754,0.076614454,-9.040505,0.9567419,47.67345,-1.0657009,-1.8825507,-3.5998192,-0.016984273,0.10897171,-0.39038113,26.0,26.8125,25.9375,28.9375,29.875,30.3125
0.34205347,-0.5766623,0.3478008,-0.2380952,-0.0040133824,0.04077625,-0.11602283,-0.40900415,-0.35289574,0.059990637,3.0791557,-0.6166867,-0.00013801071,-0.1639955,-0.023339557,-6.907111e-05,-0.004899419,-0.0029939245,0.023209749,0.459909,-1.37345,1.8943418,-2.0910757,-1.5697473,2.4297042,-0.103265405,0.3091384,-0.38461238,0.076084554,0.005165756,-0.12628527,-0.22984336,0.076614454,-9.002198,0.9298854,47.666286,-0.9455216,-1.8874979,-3.6368732,-0.050680242,0.111207865,-0.40273353,26.0,26.8125,25.9375,28.9375,29.875,30.3125
0.3440543,0.3484158,0.36070976,-0.33786964,-0.004007317,0.043286763,-0.12819007,-0.40934667,-0.35294008,0.060007878,3.0791376,-0.61667836,-0.00017465392,-0.1640922,-0.022855753,-4.6795707e-05,-0.0029566209,-0.0075285165,0.029399652,0.45969263,-1.3728484,1.8935512,-2.0909169,-1.5697473,2.4294853,-0.10423089,0.3113663,-0.38912058,0.08329795,0.0054535004,-0.1334396,-0.1340753,0.095768064,-8.983045,0.9791215,47.675243,-0.9096634,-1.9336897,-3.5935478,-0.10964523,0.114072256,-0.34986073,26.0,26.8125,25.9375,28.9375,29.875,30.3125
0.34605372,0.1490689,-0.2716714,-0.4358359,-0.0106206965,0.033377755,-0.12418906,-0.40967202,-0.35297114,0.059987556,3.0792005,-0.61657184,-0.00012039207,-0.16580448,-0.02248117,-0.00078037736,-0.0024840992,-0.008378653,0.03571048,0.45947605,-1.3721987,1.8927864,-2.090749,-1.5697597,2.4291947,-0.106176056,0.31518114,-0.39224696,0.08358891,0.005399443,-0.14169449,-0.15322891,0.1340753,-8.963891,1.0395473,47.70211,-0.8086413,-1.9752272,-3.5182605,-0.14868233,0.11985079,-0.26917627,26.0,26.8125,25.9375,28.9375,29.875,30.3125
0.34805393,0.25510344,-0.37623695,-0.24556865,-0.03255099,0.042117,-0.12716775,-0.4100115,-0.35300702,0.05997853,3.0792348,-0.6164792,-8.642226e-05,-0.16609587,-0.022694323,-0.00060042995,-0.0012396327,-0.009895347,0.04240702,0.45924833,-1.3715492,1.8919958,-2.0905812,-1.5697597,2.4289052,-0.10565973,0.31694436,-0.39578232,0.087281324,0.004956793,-0.14787365,-0.05746084,0.17238252,-8.925584,0.9455522,47.690468,-0.8639293,-2.0242138,-3.4838877,-0.19339782,0.12491791,-0.17507163,26.0,26.8125,25.9375,28.9375,29.875,30.3125
0.35005423,-0.038450718,-0.3297131,-0.30347574,-0.03299729,0.047820322,-0.12027747,-0.4103433,-0.35304478,0.059964713,3.0792665,-0.6163688,2.90659e-05,-0.16693865,-0.023037149,0.000727028,-0.0013701267,-0.009177895,0.043909986,0.45900816,-1.370889,1.8911942,-2.0903757,-1.5697235,2.4285924,-0.10552925,0.3168664,-0.3996322,0.090517156,0.00474446,-0.14924555,-0.095768064,0.15322891,-8.925584,0.9835985,47.652847,-0.69266564,-1.9780328,-3.3097005,-0.2751421,0.13274811,-0.102730334,26.0,26.8125,25.9375,28.9375,29.875,30.3125
0.35205346,0.33814594,-0.5396423,-0.7920091,-0.015151943,0.0572165,-0.120536305,-0.41065532,-0.35311753,0.05995771,3.0792978,-0.61612487,5.8076566e-05,-0.16684899,-0.022874268,-0.0005148469,-0.00059974095,-0.011031056,0.04415119,0.45885238,-1.370252,1.8904189,-2.090233,-1.5696996,2.4282808,-0.105705336,0.31913033,-0.39963815,0.090266414,0.0048723435,-0.149663,-0.19153613,0.19153613,-9.136273,0.97464454,47.67345,-0.9130744,-1.928338,-3.3951235,-0.30686554,0.12876302,-0.08462573,26.0,26.8125,25.9375,28.9375,29.875,30.3125
0.35405338,-0.71996105,-0.75542676,-1.0255438,-0.0405409,0.051398255,-0.107592195,-0.41097602,-0.35313624,0.05991027,3.0793915,-0.6161093,0.0002420158,-0.16655976,-0.022490399,-0.0013672895,-0.0010238618,-0.0123295495,0.037112657,0.45861197,-1.3695426,1.8896292,-2.0900056,-1.5696996,2.4280193,-0.106561765,0.31952715,-0.39818457,0.089384325,0.005800465,-0.14348331,-0.17238252,0.22984336,-9.174581,0.9254084,47.698532,-0.703383,-1.8833616,-3.7179198,-0.3211628,0.13894983,-0.12506852,26.0,26.8125,25.9375,28.9375,29.875,30.3125
0.35605413,-0.41304725,-1.2254243,-0.92906123,-0.06270499,0.06932617,-0.123336166,-0.4113209,-0.35318995,0.05993921,3.0793803,-0.6160333,0.00025496742,-0.1682679,-0.023321215,-0.0006515974,-0.0033245208,-0.008653379,0.030795654,0.45839608,-1.3689299,1.8887814,-2.0897796,-1.5696753,2.4277577,-0.1067236,0.32018068,-0.40006557,0.086294115,0.006220723,-0.1373278,-0.17238252,0.38307226,-9.32781,1.0843065,47.667187,-0.8922486,-1.9305365,-3.8241148,-0.32653308,0.12829728,-0.18823063,26.0,26.8125,25.9375,28.9375,29.875,30.3125
0.35805422,-0.8874413,-2.3461082,-1.2378066,-0.067333974,0.063086264,-0.10972963,-0.41168305,-0.3532177,0.059945866,3.0793903,-0.61599815,0.00023175108,-0.17055386,-0.024351213,-0.00041882004,-0.004741579,-0.0047332197,0.026375374,0.4581442,-1.368292,1.8879675,-2.0896132,-1.5696877,2.427483,-0.10646686,0.3229487,-0.4032364,0.08255139,0.005738917,-0.13264881,-0.15322891,0.4405331,-9.500193,0.9925471,47.691364,-0.8996849,-1.9015144,-3.7893496,-0.29360926,0.1304694,-0.2405905,26.0,26.8125,25.9375,28.9375,29.875,30.3125
0.36005396,-1.0815082,-3.0251715,-1.5447339,-0.0737858,0.06800943,-0.10126408,-0.41201037,-0.3532546,0.059945647,3.079447,-0.6159344,0.00023091419,-0.17350094,-0.02515982,-0.0005980856,-0.005901978,-0.0008190459,0.022397533,0.45795205,-1.3676664,1.8871778,-2.089423,-1.5697235,2.4272444,-0.10702373,0.3271127,-0.40697813,0.078101054,0.005024645,-0.12922537,-0.15322891,0.5554548,-9.595961,1.0194036,47.664497,-0.8914057,-1.9720516,-3.8039708,-0.27785313,0.14996377,-0.29736805,26.0,26.8125,25.9375,28.9375,29.875,30.3125
0.36205366,-1.1995562,-2.7050407,-1.6618936,-0.10072832,0.07355016,-0.11671844,-0.41235504,-0.35329637,0.059910882,3.0794663,-0.6159399,0.00030607494,-0.17606331,-0.026796265,-0.000308827,-0.0078283455,0.00354797,0.01988761,0.4577244,-1.3669565,1.8863767,-2.0892813,-1.5697116,2.4270182,-0.10612876,0.33072674,-0.41123387,0.07397437,0.0047958824,-0.12581854,-0.038307227,0.57460845,-9.730036,0.9545008,47.64658,-0.9102458,-2.0654123,-3.557555,-0.23591104,0.17454977,-0.375659,26.0,26.8125,25.9375,28.9375,29.875,30.3125
0.36405358,-1.1277807,-3.1717587,-1.9634166,-0.100499555,0.0619788,-0.108318925,-0.4127216,-0.3533714,0.059924774,3.0794258,-0.6157789,0.00025606318,-0.1774722,-0.027955668,2.813671e-05,-0.010091881,0.006481416,0.017560601,0.45752048,-1.3662941,1.8855265,-2.089162,-1.5696758,2.4267192,-0.105661616,0.3321452,-0.41319332,0.0708839,0.0055274847,-0.123023994,0.038307227,0.61291564,-9.883265,1.0350704,47.666286,-0.9631232,-2.308166,-3.5871592,-0.18909454,0.16432661,-0.44108403,26.0,26.8125,25.9375,28.9375,29.875,30.3125
0.36605334,-0.9455109,-2.9459045,-1.7210059,-0.1045908,0.05423902,-0.12135298,-0.41307762,-0.3534081,0.059921898,3.0793998,-0.6158518,0.0003001695,-0.17921819,-0.027201742,-0.0011588011,-0.010953493,0.005616411,0.01411172,0.45726725,-1.3656338,1.884703,-2.0889833,-1.569651,2.426515,-0.1089795,0.33549052,-0.41427702,0.06901844,0.006676221,-0.12289352,-0.11492168,0.8236054,-9.864111,1.048496,47.70211,-0.81923753,-2.177768,-3.7515273,-0.16452919,0.15659392,-0.49207687,26.0,26.8125,25.9375,28.9375,29.875,30.3125
0.36805424,-0.68972933,-2.6005836,-2.0867643,-0.0943371,0.05367656,-0.122230776,-0.4134389,-0.35345396,0.059904505,3.0794172,-0.61577064,0.00030596668,-0.17784971,-0.028598143,-0.0025006004,-0.010039629,0.0042928467,0.02483226,0.45704076,-1.3649361,1.8838781,-2.0888522,-1.569651,2.4262362,-0.10517442,0.33780164,-0.4139861,0.06801757,0.0064441934,-0.129809,-0.17238253,0.7661445,-10.0748005,0.99702406,47.719128,-1.1004856,-2.24752,-3.8816972,-0.115341574,0.16170102,-0.4886745,26.0,26.8125,25.9375,28.9375,29.875,30.3125
0.3700541,-0.13943778,-2.4119213,-1.8224565,-0.102827,0.07455192,-0.14124194,-0.41380292,-0.35351074,0.05989574,3.079414,-0.6156337,0.00027888626,-0.1804598,-0.027431687,-0.0012149423,-0.01117729,0.007004122,0.02832089,0.45682338,-1.3642511,1.8830537,-2.0887444,-1.5696391,2.425934,-0.10910893,0.3372933,-0.41654214,0.068158925,0.0062743467,-0.13723147,-0.019153614,0.6512228,-10.113108,0.99702406,47.661808,-0.9442512,-2.3104112,-4.0740423,-0.089425415,0.17312545,-0.44423422,26.0,26.8125,25.9375,28.9375,29.875,30.3125
0.37205398,-0.7813146,-2.9799197,-1.489494,-0.0943036,0.059128903,-0.119544,-0.41415033,-0.35358018,0.05989369,3.0793767,-0.61552286,0.0002846187,-0.18089572,-0.028176583,-0.0001495245,-0.0119757,0.0092403125,0.039939333,0.4566201,-1.3635908,1.8822402,-2.0886238,-1.5695919,2.4256666,-0.10791786,0.33649543,-0.41824698,0.06832348,0.0060149916,-0.14765845,0.038307227,0.40222588,-9.921572,0.9791215,47.66271,-1.0149578,-2.0114496,-4.0203047,-0.07230177,0.17988414,-0.32480744,26.0,26.8125,25.9375,28.9375,29.875,30.3125
0.3740538,0.25604784,-1.4760823,-1.48732,-0.07422682,0.057143718,-0.12330647,-0.41455555,-0.3536503,0.059928995,3.0793788,-0.6152883,7.7186065e-05,-0.18449736,-0.029386863,0.0018748663,-0.014701458,0.013850884,0.046518583,0.45642775,-1.3629179,1.8813294,-2.088517,-1.5696391,2.425328,-0.10900763,0.33869693,-0.42565396,0.068190396,0.0064409426,-0.15532441,-0.05746084,0.38307226,-9.653421,1.0574499,47.684196,-0.93621624,-2.00214,-3.774218,-0.041425854,0.17689225,-0.2431866,26.0,26.8125,25.9375,28.9375,29.875,30.3125
