Tylouw/Master_Thesis_Code/training_data/batch_1/small_rod_t0.1/sample_39_session_1.csv
timestamp[s],tcp_force_x[N],tcp_force_y[N],tcp_force_z[N],tcp_force_rx[Nm?],tcp_force_ry[Nm?],tcp_force_rz[Nm?],tcp_pose_x[m],tcp_pose_y[m],tcp_pose_z[m],tcp_pose_rx[rot_vec_x],tcp_pose_ry[rot_vec_y],tcp_pose_rz[rot_vec_z],tcp_velo_x[m/s],tcp_velo_y[m/s],tcp_velo_z[m/s],tcp_velo_rx[rot_vec_x/s],tcp_velo_ry[rot_vec_y/s],tcp_velo_rz[rot_vec_z/s],q1[rad],q2[rad],q3[rad],q4[rad],q5[rad],q6[rad],qd1[rad/s],qd2[rad/s],qd3[rad/s],qd4[rad/s],qd5[rad/s],qd6[rad/s],tool_acc_x,tool_acc_y,tool_acc_z,current_of_whole_robot[A],voltage_of_whole_robot[V],current_J1[A],current_J2[A],current_J3[A],current_J4[A],current_J5[A],current_J6[A],temp_J1[C],temp_J2[C],temp_J3[C],temp_J4[C],temp_J5[C],temp_J6[C]
9.489886e-07,-0.47407302,-0.87320375,-0.07765364,-0.024219416,0.01499029,-0.006073616,-0.3810821,-0.34853107,0.059991047,-3.0785398,0.6248436,-9.316156e-05,0.002248384,0.001141192,-0.0019225415,0.0022409405,-0.0047590216,7.198537e-07,0.47779807,-1.425946,1.9576792,-2.1008327,-1.5707816,2.4527283,-8.2457715e-05,-9.4416455e-06,0.004149705,0.0011154675,0.00020981969,-8.585695e-05,0.05746084,0.15322891,-8.772355,0.7530795,47.678825,0.03697634,-2.7192194,-2.4194956,-0.45796382,0.096294045,0.019873738,25.5625,26.1875,25.4375,28.0625,28.8125,29.125
0.002054686,-0.7096965,-0.46272632,0.11583029,-0.029829765,0.014413077,-0.00592879,-0.38108543,-0.3485328,0.059993397,-3.0785298,0.6249768,-6.0865746e-05,-0.00068602274,-0.00038751334,-0.003528255,-0.0013950751,0.0022100613,3.841171e-06,0.47779807,-1.4259561,1.957692,-2.1008618,-1.5707816,2.4528127,-8.121749e-05,0.0047292085,0.0056211404,-0.012955177,0.00020483785,-8.488801e-05,-0.019153614,0.095768064,-8.63828,0.65237147,47.690468,-0.028589917,-2.8104494,-2.5587518,-0.37381208,0.10328414,0.025891151,25.5625,26.1875,25.4375,28.0625,28.8125,29.125
0.004053766,-0.63373,-0.9735969,-0.087894686,-0.021636527,0.01678849,-0.0030445831,-0.38103858,-0.34853762,0.059949838,-3.0785239,0.62480164,-0.00020090284,-0.0013939567,-0.0007547604,-0.0029392473,-0.0022300303,0.0038275386,4.7314197e-06,0.4778342,-1.4259204,1.9577507,-2.1008613,-1.5707573,2.4527402,-8.0014055e-05,0.00465832,0.004498734,-0.013582137,0.00019850356,-8.3901716e-05,0.05746084,0.15322891,-8.695741,0.7530795,47.67166,0.034396295,-3.1155844,-2.7198086,-0.29798198,0.09332737,0.022530183,25.5625,26.1875,25.4375,28.0625,28.8125,29.125
0.006054263,-0.42370656,-0.09965142,0.0032761304,-0.0087368665,-0.011264021,-0.0044826376,-0.38108987,-0.34852841,0.059976324,-3.078552,0.6248652,-6.190618e-05,-0.0008883864,-0.00048931676,-0.001768444,-0.001552611,0.0025503072,4.477867e-06,0.47778615,-1.425933,1.9577149,-2.100907,-1.5707816,2.4527283,-7.88458e-05,0.0027413943,0.0028726754,-0.008593425,0.00019244675,-8.293537e-05,0.019153614,0.17238252,-8.619126,0.73069996,47.682407,0.022274524,-3.00452,-2.633291,-0.32699147,0.08945744,0.018476993,25.5625,26.1875,25.4375,28.0625,28.8125,29.125
0.00805344,0.29889706,0.73159045,-0.6157306,0.027014025,-0.019687565,-0.012773884,-0.38105834,-0.3485255,0.05994231,-3.0785084,0.6248179,-0.00016350376,-0.00021254274,-0.00014234187,-0.00053354516,-0.0009697837,0.0014133839,3.7921332e-06,0.4778101,-1.425898,1.9577497,-2.1008937,-1.5707816,2.4527283,-7.7711215e-05,0.00023101855,0.0018069992,-0.0037398215,0.00020650025,-8.199106e-05,-0.05746084,0.17238252,-8.734048,0.81351066,47.686886,0.01841778,-2.9269867,-2.588148,-0.3775081,0.088798955,0.028378826,25.5625,26.1875,25.4375,28.0625,28.8125,29.125
0.010053554,0.25858942,0.8483268,-0.86046463,0.019429272,-0.017856413,-0.015802192,-0.3810774,-0.34853977,0.05995603,-3.078542,0.6248821,-0.00010419219,-0.00037579297,-0.00022184437,5.20431e-06,-0.0009126074,0.0013044843,-6.9873627e-06,0.4778101,-1.4258981,1.9577264,-2.1009285,-1.5707697,2.452764,-8.788711e-05,3.0994088e-06,0.00044611125,-0.0020280182,0.00020682314,-8.106783e-05,0.038307227,0.114921674,-9.021352,0.79560274,47.686886,-0.28459084,-2.1865354,-3.1851177,-0.39604566,0.09580363,0.005846512,25.5625,26.1875,25.4375,28.0625,28.8125,29.125
0.012053859,-0.50002,-0.9320736,-1.1552888,0.0034697668,-0.010241063,-0.00021999697,-0.38106498,-0.34851345,0.059927016,-3.078451,0.6248829,-0.00018801785,-0.0014449196,-0.00074493454,-0.0033326854,0.002131163,-0.0045809564,-6.8347385e-05,0.47779804,-1.4258581,1.9577364,-2.1008809,-1.5708054,2.452764,-0.0001523216,0.010747533,-0.0043184604,-0.0013819416,0.00020144561,-8.016528e-05,0.1340753,0.076614454,-9.270349,0.7038487,47.67614,-0.37343198,-2.3349433,-3.2450933,-0.39033586,0.10476665,-0.012048009,25.5625,26.1875,25.4375,28.0625,28.8125,29.125
0.01405426,-0.60086256,-1.378803,-1.2518709,-0.044537008,0.028607586,-0.0064101545,-0.38104993,-0.3485222,0.059912477,-3.078461,0.6248689,-0.00029479826,-0.0050257035,3.6696856e-05,-0.004062055,0.0027148735,-0.005720483,-0.0047624353,0.47779617,-1.4258322,1.9577345,-2.1008565,-1.5707573,2.452752,-0.004858685,0.017225016,-0.010186885,-0.0007106741,0.00019598816,-8.857914e-05,0.0,0.21068975,-9.481039,0.7486078,47.67614,-0.31708783,-2.8177814,-3.108654,-0.39992628,0.086783215,-0.041839212,25.5625,26.1875,25.4375,28.0625,28.8125,29.125
0.016053747,-1.3984218,-2.1713688,-1.5553707,-0.074754044,0.051423755,-0.013735836,-0.38105834,-0.3485149,0.059899844,-3.078433,0.62488157,-0.00031222796,-0.0058530644,0.0009494103,-0.003584104,0.0027432505,-0.005762813,-0.0046565053,0.47778353,-1.4257965,1.9577225,-2.100856,-1.5707697,2.452751,-0.0072433,0.016627247,-0.010910331,0.0006607787,0.00019079601,-0.0025791246,-0.17238252,0.38307226,-9.519346,0.7239871,47.664497,-0.04683309,-2.590282,-3.3681169,-0.4012796,0.10884489,-0.045743197,25.5625,26.1875,25.4375,28.0625,28.8125,29.125
0.018053714,-2.2423706,-2.8258176,-1.7511275,-0.07009602,0.055298265,-0.0056216586,-0.38107526,-0.34849507,0.059891284,-3.0783603,0.6249591,-0.00036152345,-0.0052066157,0.00074962387,-0.0037102008,0.0037801703,-0.007762147,0.001286687,0.477748,-1.4257483,1.9576734,-2.1007955,-1.5707935,2.452773,-0.0062897927,0.01732505,-0.012024941,0.0033288002,0.00019034522,-0.0075686825,-0.21068975,0.4405331,-9.710882,0.7933669,47.683304,-0.21290419,-2.398766,-3.4680667,-0.43421015,0.1125233,-0.0089784255,25.5625,26.1875,25.4375,28.0625,28.8125,29.125
0.020053867,-2.1613367,-2.2753894,-1.6187992,-0.0708344,0.070681445,-0.014480374,-0.381044,-0.34851244,0.05986071,-3.0783772,0.6247892,-0.0004857084,-0.005872146,-8.4369894e-05,-0.0037927416,0.0037964203,-0.007853581,0.003976479,0.47778425,-1.4256995,1.9576849,-2.1007836,-1.5707573,2.452701,-0.0054399255,0.019866649,-0.014808845,0.0036596637,0.00021153083,-0.0094069205,-0.38307226,0.57460845,-9.710882,0.800085,47.67614,-0.37374997,-2.3771589,-3.5398788,-0.436431,0.111650944,0.020941941,25.5625,26.1875,25.4375,28.0625,28.8125,29.125
0.022055019,-1.8457851,-2.0406473,-1.8510038,-0.060432676,0.07430065,-0.017661422,-0.3810675,-0.34852234,0.059871066,-3.0783925,0.6247353,-0.00041694107,-0.007580153,-0.00030962392,-0.0032891817,0.0028336376,-0.0060757264,0.0014864366,0.47779587,-1.425675,1.9576362,-2.100796,-1.5707816,2.4526772,-0.0066422117,0.021234902,-0.017320458,0.0027814438,0.00024264208,-0.008117556,-0.5554548,0.63206923,-9.80665,0.6971306,47.711063,-0.4744189,-2.3448248,-3.4457235,-0.42307425,0.106597185,-0.0021959874,25.5625,26.1875,25.4375,28.0625,28.8125,29.125
0.024054244,-2.2354953,-2.4778492,-1.9198462,-0.052684817,0.062674694,-0.024638427,-0.3810703,-0.34851462,0.059830647,-3.0783467,0.62478465,-0.0005161621,-0.009070522,-0.0006684831,-0.002507322,0.0011988643,-0.0039940034,-5.8672427e-05,0.47777146,-1.4255911,1.9576358,-2.1008084,-1.5707692,2.4526894,-0.007701199,0.021661555,-0.01937354,0.0018059942,0.0007300476,-0.0076311436,-0.51714754,0.4405331,-9.902418,0.7933669,47.67166,-0.42381537,-2.3692265,-3.5390606,-0.41567516,0.116579264,-0.019472413,25.5625,26.1875,25.4375,28.0625,28.8125,29.125
0.026054176,-1.6952007,-1.7550588,-1.712917,-0.07833714,0.06730538,-0.039168023,-0.38111842,-0.34852368,0.059838742,-3.078356,0.62490356,-0.00048396896,-0.010302185,-0.00081667793,-0.0023294706,9.931691e-05,-0.0030133915,-0.0017189238,0.4777349,-1.4255309,1.9575514,-2.1008208,-1.5707568,2.452726,-0.008915742,0.022817858,-0.020861909,0.00075999624,0.0012503862,-0.007185303,-0.49799395,0.4405331,-9.864111,0.7105615,47.67793,-0.3972909,-2.3280609,-3.5162492,-0.4116845,0.11216305,-0.026558824,25.5625,26.1875,25.4375,28.0625,28.8125,29.125
0.028053466,-2.178287,-2.4057968,-1.7697299,-0.054517005,0.045733888,-0.03215379,-0.38114116,-0.34852177,0.059844844,-3.0783675,0.62492555,-0.00045355342,-0.011838452,-0.0008037217,-0.002167511,-0.000257449,-0.0024052942,-0.002983842,0.47771046,-1.4255182,1.9575256,-2.1008327,-1.5707568,2.4527137,-0.0103821745,0.02474227,-0.023407493,0.00067700475,0.0012819859,-0.0073852413,-0.5746084,0.40222588,-9.730036,0.7642693,47.690468,-0.4757293,-2.3329213,-3.5210602,-0.37251675,0.10783034,-0.052568436,25.5625,26.1875,25.4375,28.0625,28.8125,29.125
0.030053567,-1.8301431,-1.3527471,-1.6496443,-0.04947233,0.054904733,-0.041576236,-0.38115487,-0.348524,0.05983533,-3.078367,0.62494445,-0.00050722854,-0.013010907,-0.0010861533,-0.0018104865,-0.0008889,-0.0017531262,-0.0025021574,0.4776862,-1.4254698,1.9574894,-2.1008203,-1.570733,2.4527013,-0.011131785,0.026119398,-0.025835937,0.0008579724,0.0015372548,-0.008615671,-0.59376204,0.30645782,-9.787497,0.72622824,47.703903,-0.514642,-2.3183632,-3.4532344,-0.38555086,0.11008148,-0.03522914,25.5625,26.1875,25.4375,28.0625,28.8125,29.125
0.032053687,-1.7246523,-0.99112725,-1.6108017,-0.01967479,0.06033185,-0.044756636,-0.38119903,-0.34855118,0.05985853,-3.0784204,0.6249169,-0.00044610281,-0.013979237,-0.0010394243,-0.0018217935,-0.000840987,-0.0017393093,-0.0028582113,0.4776858,-1.4254214,1.9573811,-2.1008203,-1.570721,2.452677,-0.012077346,0.027696704,-0.027670465,0.0011251707,0.0014852624,-0.009203865,-0.40222588,0.22984336,-9.80665,0.7396539,47.692257,-0.558678,-2.3001776,-3.5175426,-0.37655127,0.11514994,-0.051930323,25.5625,26.1875,25.4375,28.0625,28.8125,29.125
0.034053747,-1.1774869,-0.01982286,-1.3739679,-0.0027950134,0.062830105,-0.072818324,-0.381199,-0.34854415,0.05982667,-3.0783834,0.6248717,-0.00053451594,-0.015428107,-0.00082588574,-0.0015150721,-0.00096367067,-0.0015510689,-0.0041269884,0.47767332,-1.425349,1.9573687,-2.100808,-1.570721,2.452641,-0.01381049,0.029263256,-0.030365411,0.00202989,0.0015030339,-0.009666951,-0.22984336,0.095768064,-9.653421,0.81351066,47.723602,-0.55680406,-2.2596867,-3.4616032,-0.37140894,0.11767563,-0.058132924,25.5625,26.1875,25.4375,28.0625,28.8125,29.125
0.03605347,-1.8517009,-0.24940926,-1.4710062,0.022046689,0.034036927,-0.069608234,-0.38126338,-0.34855685,0.05984547,-3.0784333,0.62495893,-0.00049551314,-0.017184576,-0.0014155036,-0.0007569624,-0.0021297967,0.00018814486,-0.004249574,0.47761303,-1.4252886,1.9572595,-2.1008203,-1.5706853,2.4526289,-0.014534656,0.030871144,-0.03389766,0.0018731948,0.0017315034,-0.010266819,-0.3256114,-0.076614454,-9.634268,0.7396539,47.683304,-0.57366645,-2.3023138,-3.3919287,-0.36841184,0.10432367,-0.05843687,25.5625,26.1875,25.4375,28.0625,28.8125,29.125
0.038053855,-1.0440996,-0.09578798,-1.3700814,0.012229085,0.048143666,-0.08140624,-0.38129807,-0.34855285,0.059851624,-3.0784025,0.62491506,-0.0004224272,-0.018591259,-0.0017320488,-0.0003505257,-0.0034835998,0.001097308,-0.0055573317,0.47761253,-1.42524,1.9571875,-2.1008084,-1.5707449,2.452605,-0.015779726,0.032202806,-0.036253843,0.0014645611,0.002510048,-0.010204138,-0.22984336,-0.038307227,-9.519346,0.7933669,47.66987,-0.48373398,-2.2740993,-3.409815,-0.34965074,0.09219311,-0.08847653,25.5625,26.1875,25.4375,28.0625,28.8125,29.125
0.040054116,-1.4966916,-0.37644026,-1.3389708,-0.0023794293,0.035997327,-0.08635682,-0.38133258,-0.34856397,0.059847675,-3.0784237,0.6249569,-0.00045707315,-0.019882692,-0.002517665,0.00046023246,-0.0046991683,0.0028261847,-0.005143165,0.4775767,-1.4251678,1.9571141,-2.1008084,-1.5707086,2.4525926,-0.015758008,0.033246834,-0.039272346,0.001344293,0.0027881176,-0.010595415,-0.19153613,-0.038307227,-9.519346,0.7978386,47.660015,-0.58371514,-2.288517,-3.337836,-0.32805502,0.09780729,-0.07966275,25.5625,26.1875,25.4375,28.0625,28.8125,29.125
0.04205429,-1.125907,-0.5362901,-1.2485261,-0.011771784,0.035782672,-0.09742661,-0.38138685,-0.34857616,0.059841942,-3.0784247,0.62503475,-0.0004553504,-0.020552248,-0.002396019,0.0004938137,-0.004788835,0.003145025,-0.005499236,0.47754037,-1.4250598,1.9570068,-2.1008203,-1.5706967,2.4526048,-0.016546214,0.03396151,-0.040125303,0.0011586352,0.0027190435,-0.011026815,-0.19153613,-0.076614454,-9.576807,0.7351769,47.687782,-0.46780083,-2.2691333,-3.3500159,-0.31764922,0.09420627,-0.10411642,25.5625,26.1875,25.4375,28.0625,28.8125,29.125
0.04405406,-1.0800456,-0.8035234,-1.2494272,-0.0095222695,0.036005434,-0.11021785,-0.38141185,-0.3485644,0.05983118,-3.0783906,0.6250466,-0.00048635018,-0.021834256,-0.0025788357,0.0012876282,-0.005057155,0.004151162,-0.005657429,0.47750401,-1.4249996,1.9569572,-2.100796,-1.5707086,2.4525802,-0.017257944,0.034813825,-0.04318477,0.0023496174,0.0024906527,-0.011578565,-0.21068975,0.038307227,-9.519346,0.7597976,47.684196,-0.5391978,-2.1572127,-3.397654,-0.30440277,0.0949184,-0.111085124,25.5625,26.1875,25.4375,28.0625,28.8125,29.125
0.04605399,-1.0112945,-0.35347676,-1.2271765,-0.013657459,0.033120237,-0.12599784,-0.381486,-0.3485915,0.059855074,-3.0784447,0.6250575,-0.00043908413,-0.021881094,-0.0022827906,0.0008408584,-0.0035667308,0.0018083553,-0.005296395,0.47746804,-1.4249033,1.9567899,-2.100783,-1.5706848,2.4525442,-0.017666109,0.036671944,-0.04487756,0.004951177,0.0022464173,-0.012346533,-0.1340753,0.11492168,-9.461885,0.71279734,47.687782,-0.5038087,-2.0955973,-3.3497076,-0.33318406,0.11717531,-0.11349485,25.5625,26.1875,25.4375,28.0625,28.8125,29.125
0.048054144,-1.2063539,-0.71282494,-1.3900629,-0.009499717,0.021008758,-0.12949698,-0.38150588,-0.34856617,0.059859008,-3.0783873,0.62510335,-0.0003806063,-0.022494612,-0.002151889,6.145654e-05,-0.0026357947,-0.00027035706,-0.005636474,0.47744372,-1.4249021,1.9567765,-2.1007702,-1.5707449,2.452556,-0.018549388,0.039801456,-0.046940427,0.006157338,0.002372956,-0.012888679,-0.11492168,0.22984336,-9.557653,0.7665104,47.704796,-0.47425058,-2.2616374,-3.396906,-0.33002952,0.102142125,-0.11882405,25.5625,26.1875,25.4375,28.0625,28.8125,29.125
0.05005379,-1.0870544,-1.385505,-1.4290684,-0.024344184,0.031004865,-0.12960613,-0.3815819,-0.34858516,0.05986144,-3.0784225,0.62515,-0.0003868501,-0.023624914,-0.002626127,0.00075149664,-0.0039123674,0.0014224475,-0.0064459434,0.47738352,-1.4247701,1.9566206,-2.1007707,-1.5707086,2.4525204,-0.01897523,0.040245015,-0.048896942,0.0055795913,0.0027240217,-0.012504493,-0.1340753,0.2681506,-9.481039,0.7709874,47.675243,-0.5107042,-2.1901,-3.3712654,-0.33286777,0.10089404,-0.11198732,25.5625,26.1875,25.4375,28.0625,28.8125,29.125
0.052053716,-1.4072038,-2.5852563,-1.5578504,-0.032332983,0.025967566,-0.14420211,-0.38159522,-0.3485786,0.059845537,-3.0783942,0.62514335,-0.00044360367,-0.024760948,-0.0032108298,0.0016760433,-0.0052487445,0.003480705,-0.0071447263,0.4773595,-1.4247104,1.9565834,-2.1007469,-1.5707086,2.4524958,-0.019138657,0.040381085,-0.05107702,0.0051807137,0.002959494,-0.011968523,-0.1340753,0.30645782,-9.615114,0.68818194,47.65643,-0.5148823,-2.0410175,-3.343988,-0.31486112,0.10044944,-0.12378883,25.5625,26.1875,25.4375,28.0625,28.8125,29.125
0.054053716,-1.0761501,-2.3044674,-1.5340873,-0.056147743,0.027402757,-0.15165198,-0.38163805,-0.34859806,0.059859756,-3.0784411,0.625173,-0.0004637293,-0.025305418,-0.0029770033,0.0011101706,-0.004511985,0.002131004,-0.008206458,0.47732314,-1.4246496,1.9564761,-2.100723,-1.5706605,2.452472,-0.02003269,0.04256497,-0.052440505,0.0058984533,0.002924398,-0.011799808,-0.05746084,0.38307226,-9.672575,0.7083204,47.64837,-0.5055738,-2.1088903,-3.430379,-0.31481117,0.08453488,-0.12995237,25.5625,26.1875,25.4375,28.0625,28.8125,29.125
0.056053508,-0.7479685,-1.9786108,-1.3557187,-0.062416,0.029309627,-0.16070093,-0.38169143,-0.34858787,0.059858676,-3.0784116,0.6251289,-0.0004169238,-0.026745152,-0.0034414043,0.0018362902,-0.0049628066,0.0024135641,-0.009551676,0.47728693,-1.4245652,1.9563793,-2.1007102,-1.5707086,2.4524121,-0.020709803,0.044430245,-0.05666357,0.0077968044,0.0031907468,-0.011130173,-0.076614454,0.5554548,-9.615114,0.75084364,47.666286,-0.56010723,-2.024783,-3.340559,-0.32981914,0.071924,-0.13993627,25.5625,26.1875,25.4375,28.0625,28.8125,29.125
0.05805364,-0.9971867,-2.1505604,-1.3177545,-0.051718332,0.021540798,-0.15307888,-0.38177648,-0.3485897,0.05985959,-3.078389,0.625297,-0.00033647276,-0.026738368,-0.0033922554,0.0003693203,-0.0035749846,-0.0005771422,-0.009114147,0.47722694,-1.4244441,1.9562472,-2.100746,-1.5707325,2.45246,-0.020878883,0.04812285,-0.057667147,0.008401135,0.0033314538,-0.011735933,-0.076614454,0.51714754,-9.442732,0.81351066,47.67166,-0.50574064,-2.1412425,-3.2491708,-0.32764405,0.08873831,-0.15126374,25.5625,26.1875,25.4375,28.0625,28.8125,29.125
0.060053304,-0.8811587,-1.8224931,-1.3070714,-0.049218547,0.020218171,-0.14425857,-0.3818375,-0.34860322,0.059878875,-3.0784256,0.62532437,-0.00031688972,-0.027485099,-0.0036446494,0.00039837768,-0.0040987693,-2.4708243e-05,-0.009737324,0.47717875,-1.4243717,1.9561151,-2.100722,-1.5707082,2.4524243,-0.02125157,0.049255986,-0.05888171,0.0077509955,0.0035394572,-0.011484791,-0.038307227,0.49799395,-9.423578,0.784413,47.661808,-0.5311986,-2.2291107,-3.4345448,-0.33274597,0.09498967,-0.15793698,25.5625,26.1875,25.4375,28.0625,28.8125,29.125
0.062054224,-0.40234616,-1.7609544,-1.0109756,-0.046502367,0.037997648,-0.14640935,-0.38189897,-0.3486256,0.059901357,-3.0784826,0.6253168,-0.0003321031,-0.029654006,-0.004183245,0.0022412757,-0.006460464,0.0039453595,-0.0101312185,0.47713038,-1.4242883,1.9559578,-2.1006749,-1.57066,2.452364,-0.02246582,0.048601992,-0.062205862,0.0071176044,0.003805727,-0.012303846,-0.038307227,0.45968673,-9.3661175,0.7396539,47.703903,-0.49785882,-2.0537608,-3.4405193,-0.3104959,0.07006528,-0.16832528,25.5625,26.1875,25.4375,28.0625,28.8125,29.125
0.06405416,-0.39371684,-1.7694715,-1.0208094,-0.036573987,0.03370648,-0.14213844,-0.38194546,-0.34861863,0.05989044,-3.0784352,0.6253265,-0.00029887818,-0.031449948,-0.0050599095,0.0026204893,-0.0068858345,0.004512759,-0.010012011,0.47710624,-1.4241914,1.9558719,-2.1006744,-1.5707082,2.452352,-0.022637982,0.05202766,-0.06717982,0.007965593,0.003914204,-0.012592592,-0.05746084,0.45968673,-9.270349,0.7933669,47.690468,-0.54125714,-2.0971122,-3.1155775,-0.30975464,0.08164263,-0.17643103,25.5625,26.1875,25.4375,28.0625,28.8125,29.125
0.06605446,-0.8997812,-1.6387084,-0.8674983,-0.033960704,0.019584645,-0.13414165,-0.3820127,-0.34863746,0.059903063,-3.0784662,0.62546706,-0.00030647722,-0.030213015,-0.0043425225,0.0004907888,-0.004561302,0.00021994533,-0.010162798,0.4770463,-1.4240946,1.9557298,-2.100662,-1.57066,2.452376,-0.022707831,0.054461725,-0.06520314,0.008436896,0.003826473,-0.01251208,-0.095768064,0.4213795,-9.232041,0.7351769,47.66987,-0.5107428,-2.2249265,-3.2633996,-0.32656187,0.069706336,-0.18692884,25.5625,26.1875,25.4375,28.0625,28.8125,29.125
0.06805359,-1.0065793,-1.676412,-0.8785001,-0.02423358,0.02193568,-0.13049245,-0.3820732,-0.34863088,0.05989772,-3.078423,0.6254192,-0.00028609257,-0.03211721,-0.0051585804,0.0016607579,-0.005497859,0.0030379957,-0.009833043,0.47701025,-1.4239744,1.9555968,-2.1006267,-1.5707086,2.4523156,-0.022708135,0.05576966,-0.06935588,0.008349441,0.0033551955,-0.012839088,-0.095768064,0.2873042,-9.136273,0.7463667,47.687782,-0.50065446,-2.073419,-3.2092247,-0.3161048,0.08853531,-0.18997741,25.5625,26.1875,25.4375,28.0625,28.8125,29.125
0.07005386,-0.3347816,-1.062684,-0.6839955,-0.032162067,0.036679395,-0.1433713,-0.38215393,-0.3486812,0.059922535,-3.078516,0.6254579,-0.00024485314,-0.033230186,-0.005162217,0.0016855224,-0.0052349106,0.0030583912,-0.010367685,0.47698596,-1.4238539,1.9554051,-2.1006382,-1.5706486,2.4523036,-0.02356521,0.057711378,-0.07176463,0.008920812,0.0031094663,-0.013159438,-0.095768064,0.30645782,-9.11712,0.8224646,47.689575,-0.57342404,-2.0886962,-3.1866236,-0.3027258,0.09272657,-0.21942003,25.5625,26.1875,25.4375,28.0625,28.8125,29.125
0.07205394,-0.5162031,-0.9487841,-0.7634016,-0.02068805,0.028837886,-0.13852239,-0.38220707,-0.3486701,0.059910465,-3.0785053,0.6255326,-0.00029648756,-0.034839932,-0.005666466,0.0022949104,-0.00623303,0.0048552956,-0.010041985,0.4769017,-1.4237577,1.9553202,-2.1006267,-1.5706247,2.4522674,-0.024184888,0.059185304,-0.07471333,0.00834137,0.0031635852,-0.014103169,-0.076614454,0.28730422,-9.174581,0.779936,47.690468,-0.5834899,-2.0731223,-3.1396809,-0.2938892,0.08496162,-0.21712592,25.5625,26.1875,25.4375,28.0625,28.8125,29.125
0.07405399,-1.1048689,-1.0905015,-0.7785611,-0.013388054,0.017565489,-0.12840389,-0.38230398,-0.34868917,0.05992678,-3.0785186,0.6255741,-0.00022615287,-0.0357286,-0.0059869047,0.0023477327,-0.0062869024,0.005146666,-0.010253036,0.47685376,-1.4236132,1.9551152,-2.1006143,-1.5706366,2.4522438,-0.024371928,0.060945705,-0.07687948,0.008463846,0.0030743538,-0.014077534,-0.076614454,0.24899697,-9.193734,0.8224646,47.68599,-0.6129489,-2.0495095,-3.1517086,-0.29187542,0.08183733,-0.22731818,25.5625,26.1875,25.4375,28.0625,28.8125,29.125
0.07605348,-0.93652487,-0.49664232,-0.5999173,-0.02049341,0.021678478,-0.13762856,-0.38234115,-0.3487085,0.059925243,-3.0785222,0.625477,-0.0002573528,-0.0363813,-0.006394098,0.0023052816,-0.0064298217,0.0046515125,-0.009463183,0.4768537,-1.4235048,1.9549841,-2.1005661,-1.5706366,2.4521828,-0.024478128,0.06286214,-0.07914063,0.009181574,0.0034248144,-0.014972984,-0.05746084,0.24899697,-9.174581,0.6702794,47.677036,-0.62618643,-2.075406,-3.1233354,-0.29127002,0.09664113,-0.22135231,25.5625,26.1875,25.4375,28.0625,28.8125,29.125
0.07805344,-0.8409068,-0.521713,-0.4902193,-0.015836703,0.030416412,-0.14108087,-0.38242495,-0.34874073,0.05993924,-3.0785627,0.62556183,-0.00020889376,-0.036984142,-0.006700639,0.0028448198,-0.006491553,0.0045170113,-0.009331486,0.47681773,-1.4233727,1.9548038,-2.1005776,-1.5706123,2.4521947,-0.024559857,0.06367544,-0.08173558,0.011054463,0.0035412223,-0.015185356,-0.05746084,0.24899697,-9.097966,0.784413,47.682407,-0.6704731,-2.0939145,-3.1043983,-0.3026314,0.07369319,-0.23562494,25.5625,26.1875,25.4375,28.0625,28.8125,29.125
0.08005332,-0.81975543,-0.51469076,-0.46646452,-0.015553369,0.03909904,-0.13717291,-0.38251194,-0.34874266,0.059934784,-3.078552,0.6256943,-0.00020763573,-0.0377175,-0.0066637015,0.0011925558,-0.004862984,0.001557532,-0.0090896785,0.47673342,-1.4232268,1.9546474,-2.1005776,-1.5706009,2.4521945,-0.025235916,0.06895211,-0.08410324,0.011523087,0.0034488563,-0.016101124,-0.11492168,0.2681506,-9.193734,0.7933669,47.679718,-0.7002108,-2.1182127,-2.9928534,-0.30317238,0.07914554,-0.2295214,25.5625,26.1875,25.4375,28.0625,28.8125,29.125
0.08205439,-1.4000151,-0.75896716,-0.67072254,-0.015127176,0.031772677,-0.12508084,-0.3825761,-0.34874707,0.059946768,-3.0785573,0.6256179,-0.00016799038,-0.03878212,-0.007238188,0.0029774092,-0.006506957,0.005026312,-0.008351251,0.47669744,-1.4231315,1.9545029,-2.1005418,-1.5706247,2.4521103,-0.025104137,0.06711022,-0.08607832,0.011503892,0.0033138618,-0.016706826,-0.13407528,0.24899697,-9.232041,0.7530795,47.694946,-0.6930278,-2.1477728,-3.0427465,-0.30443287,0.071899965,-0.24467799,25.5625,26.1875,25.4375,28.0625,28.8125,29.125
0.08405413,-1.2574711,-0.81575066,-0.73867655,-0.025417255,0.04278992,-0.14036772,-0.3826682,-0.34876087,0.05994865,-3.0785468,0.6257309,-0.00023588566,-0.039169207,-0.0072650346,0.0026272486,-0.0058114347,0.004132327,-0.007983503,0.47661343,-1.4229506,1.9542755,-2.1004694,-1.5705885,2.4520981,-0.025268763,0.06893659,-0.08754903,0.012263344,0.0031046579,-0.017238094,-0.21068975,0.24899697,-9.193734,0.784413,47.655537,-0.74812603,-1.9946322,-3.074039,-0.3047748,0.08530268,-0.24550118,25.5625,26.1875,25.4375,28.0625,28.8125,29.125
0.08605409,-1.367059,-0.8715411,-0.804514,-0.03148069,0.041629586,-0.13524231,-0.38274133,-0.3487877,0.05995265,-3.078578,0.62567854,-0.00016752079,-0.039310176,-0.0072626877,0.0011603606,-0.0046206187,0.0011398466,-0.0073105786,0.47660127,-1.4228173,1.9541196,-2.1004932,-1.5706004,2.4520495,-0.025604274,0.07285634,-0.088809095,0.012807657,0.0034186668,-0.018245762,-0.21068975,0.17238252,-9.212888,0.7418897,47.65643,-0.766178,-2.0247052,-3.1058345,-0.30296445,0.0803834,-0.26057678,25.5625,26.1875,25.4375,28.0625,28.8125,29.125
0.088054016,-1.1470345,-1.0211047,-0.8118516,-0.03561746,0.04800809,-0.13588266,-0.38280746,-0.34878567,0.059926294,-3.0785244,0.6257641,-0.00026720806,-0.04051519,-0.007261201,0.0015775003,-0.0049503907,0.0020506594,-0.0074688033,0.47652888,-1.4226365,1.9539622,-2.100445,-1.5705885,2.4520373,-0.026625177,0.073798165,-0.090892695,0.012989787,0.003288579,-0.019107344,-0.3256114,0.19153613,-9.32781,0.7709874,47.694946,-0.765573,-2.226108,-3.1506546,-0.32920617,0.08173436,-0.26275253,25.5625,26.1875,25.4375,28.0625,28.8125,29.125
0.09005403,-0.96517766,-1.0612907,-0.99544954,-0.035345603,0.045216247,-0.14188664,-0.38288736,-0.34881997,0.05994308,-3.0785768,0.6257177,-0.00027575382,-0.04102438,-0.00746279,0.0010919888,-0.004848429,0.0015118937,-0.0070503387,0.47649285,-1.4224918,1.9537476,-2.1003973,-1.5705527,2.4519658,-0.026830344,0.075856954,-0.092063755,0.012627861,0.0034421813,-0.0197302,-0.30645782,0.22984336,-9.385271,0.8224646,47.664497,-0.81554425,-2.0865161,-3.2438867,-0.3293963,0.0621533,-0.26898694,25.5625,26.1875,25.4375,28.0625,28.8125,29.125
0.092054084,-1.2137734,-0.8968183,-1.0056869,-0.035862554,0.03832698,-0.12919727,-0.382953,-0.34882018,0.059936218,-3.0785472,0.6257873,-0.00030572026,-0.041430406,-0.007231907,1.3796988e-06,-0.0038063978,0.00012248007,-0.006758345,0.4764327,-1.4223589,1.9536031,-2.1003616,-1.5705527,2.451953,-0.027418897,0.078636356,-0.09264974,0.012148349,0.0031505735,-0.020609537,-0.22984336,0.30645782,-9.3661175,0.75084364,47.690468,-0.82861876,-2.1426516,-3.13795,-0.32335478,0.08819921,-0.29613802,25.5625,26.1875,25.4375,28.0625,28.8125,29.125
0.09405421,-1.355108,-0.67680615,-0.9483885,-0.03856131,0.03257778,-0.12913194,-0.38307014,-0.34884268,0.059975117,-3.0785923,0.6258544,-0.00016446933,-0.04160366,-0.0070134043,-0.00092035835,-0.0031384614,-0.0014061434,-0.0066438406,0.4763724,-1.422238,1.9533762,-2.1003616,-1.5705646,2.4519289,-0.02802673,0.08072693,-0.09290313,0.011975482,0.0032592434,-0.02133124,-0.2681506,0.28730422,-9.308657,0.7777002,47.62867,-0.80977476,-2.221909,-3.3390632,-0.33276242,0.079968564,-0.2964989,25.5625,26.1875,25.4375,28.0625,28.8125,29.125
0.09605371,-1.33064,-1.0089008,-1.0615766,-0.033725973,0.030418182,-0.13183239,-0.38314047,-0.34885654,0.059947312,-3.0785763,0.62586945,-0.00022008465,-0.044745415,-0.008473737,0.0011148704,-0.005955867,0.003694824,-0.0062596058,0.47632438,-1.4220451,1.9532193,-2.100362,-1.5705527,2.4518924,-0.028419018,0.08217517,-0.09894198,0.010741017,0.0034074418,-0.022104679,-0.17238252,0.28730422,-9.3661175,0.81351066,47.67614,-0.86022455,-2.195253,-3.1559234,-0.31171766,0.07938953,-0.29820353,25.5625,26.1875,25.4375,28.0625,28.8125,29.125
0.09805404,-1.0844848,-1.158696,-1.1776558,-0.026875291,0.03337312,-0.12495872,-0.38325635,-0.34887433,0.059967056,-3.0785835,0.62585104,-0.00015611647,-0.043646835,-0.0077602514,-0.0004327592,-0.004381847,0.00052205386,-0.0058624744,0.47626433,-1.4218647,1.952957,-2.100314,-1.5705761,2.4518201,-0.028702574,0.08328555,-0.09674296,0.010972443,0.0034694849,-0.022786343,-0.19153613,0.30645782,-9.346964,0.83813137,47.65464,-0.87335956,-2.2169456,-3.4106565,-0.31522554,0.066521615,-0.2898177,25.5625,26.1875,25.4375,28.0625,28.8125,29.125
0.1000541,-0.5094513,-0.9054594,-1.0573462,-0.042303555,0.04244055,-0.1348463,-0.38331947,-0.34886402,0.059928834,-3.0785148,0.6259333,-0.0002862095,-0.04491527,-0.008146858,-0.000105005194,-0.0046756747,0.0011866386,-0.005368725,0.47618014,-1.421672,1.952813,-2.1002662,-1.5705642,2.451796,-0.029142814,0.08516117,-0.099743724,0.011373052,0.003418261,-0.023718907,-0.095768064,0.22984336,-9.404425,0.8403672,47.67614,-0.9171936,-2.1729977,-3.247655,-0.31907678,0.08791446,-0.29569805,25.5625,26.1875,25.4375,28.0625,28.8125,29.125
0.10205339,-0.9933337,-1.0693303,-1.0652246,-0.037207942,0.023806293,-0.13015847,-0.38341886,-0.348888,0.059950914,-3.0785723,0.6259825,-0.0002477166,-0.045475688,-0.008129556,-0.00023533407,-0.0047128126,0.0013651445,-0.0051028696,0.476108,-1.4215395,1.9526085,-2.1002548,-1.5705284,2.4517474,-0.02964554,0.08614907,-0.10049184,0.010958955,0.0033684403,-0.024486618,-0.038307227,0.21068975,-9.385271,0.73069996,47.650166,-0.9464911,-2.1756904,-3.468719,-0.30401015,0.08806724,-0.29954708,25.5625,26.1875,25.4375,28.0625,28.8125,29.125
0.104053475,-0.6940676,-0.95349425,-1.0936594,-0.032345284,0.021757187,-0.13322471,-0.38351172,-0.34891808,0.059965957,-3.0785997,0.6259506,-0.00017753948,-0.046527524,-0.008418818,4.8436727e-05,-0.0051467433,0.002675167,-0.005502794,0.47608384,-1.421383,1.9523925,-2.1002429,-1.5705408,2.4517,-0.029951317,0.08723248,-0.10223079,0.010251856,0.0031496002,-0.02439083,-0.076614454,0.22984336,-9.423578,0.7866488,47.63852,-0.9319335,-2.086316,-3.4600458,-0.28727266,0.09341076,-0.29426205,25.5625,26.1875,25.4375,28.0625,28.8125,29.125
0.10605334,-0.7966436,-1.2991048,-1.3491229,-0.02558783,0.016009599,-0.1264058,-0.3836076,-0.3489209,0.059942715,-3.0785398,0.62595725,-0.00020105405,-0.048303638,-0.009004512,0.00087878655,-0.0061641443,0.00484943,-0.0059207166,0.4760237,-1.4211541,1.9521755,-2.100207,-1.5705765,2.4516518,-0.030471325,0.08865103,-0.10568781,0.009891269,0.0030483527,-0.024490941,0.0,0.2681506,-9.3661175,0.7978386,47.690468,-0.97903514,-2.073592,-3.488722,-0.29098922,0.09907444,-0.32486957,25.5625,26.1875,25.4375,28.0625,28.8125,29.125
0.108053386,-0.8140308,-1.3363596,-1.2954005,-0.03415802,0.011666798,-0.12315034,-0.383717,-0.34894112,0.059945013,3.078566,-0.6260579,0.00017949939,-0.047524553,-0.008642207,-0.00041174886,-0.0048104855,0.0018205104,-0.0053385617,0.4759277,-1.4209855,1.9519852,-2.1002424,-1.5705284,2.4516153,-0.030506844,0.09034316,-0.10487423,0.010698929,0.003238498,-0.025109058,0.076614454,0.2681506,-9.3661175,0.8627467,47.687782,-0.9792163,-2.050427,-3.6014094,-0.27627316,0.096202396,-0.31878364,25.5625,26.1875,25.4375,28.0625,28.8125,29.125
0.11005397,-0.68596375,-1.2547659,-1.2051442,-0.0316034,0.010744153,-0.124793656,-0.38381845,-0.3489779,0.05996145,3.0785456,-0.62599576,0.00014799436,-0.049165856,-0.009456832,-0.00032437025,-0.0051612346,0.0018487287,-0.005319423,0.47589153,-1.420804,1.951732,-2.1002066,-1.570516,2.451543,-0.030753372,0.09405104,-0.10949866,0.011429106,0.003530088,-0.025372349,-0.019153614,0.28730422,-9.404425,0.8314132,47.694946,-1.0610651,-2.0737529,-3.5265274,-0.28956944,0.09508553,-0.32621834,25.5625,26.1875,25.4375,28.0625,28.8125,29.125
0.11205403,-0.7284699,-1.2359375,-1.2536085,-0.032938514,0.011625661,-0.12556829,-0.38392058,-0.3489706,0.059944365,-3.0785525,0.6260354,-0.00012068478,-0.05021276,-0.009414499,0.0008416423,-0.006677418,0.0041701593,-0.0063843383,0.4758312,-1.4205884,1.951516,-2.1001709,-1.570588,2.4515069,-0.031959288,0.09258387,-0.11041658,0.011053508,0.0038109287,-0.025513664,-0.038307227,0.30645782,-9.461885,0.7418897,47.716442,-1.0090641,-2.0510476,-3.5680966,-0.2723225,0.08346646,-0.3343076,25.5625,26.1875,25.4375,28.0625,28.8125,29.125
0.1140534,-0.5544304,-1.1024956,-1.1772755,-0.03634199,0.022943433,-0.13039526,-0.38403472,-0.34901074,0.05998578,3.0785136,-0.6260092,6.4162115e-05,-0.051871628,-0.009713986,0.0014718525,-0.007702949,0.0053128945,-0.0065660174,0.47575858,-1.4204559,1.9512643,-2.1001465,-1.5705279,2.451423,-0.033187237,0.09407424,-0.11362514,0.011286674,0.0041957246,-0.026558382,0.0,0.2681506,-9.481039,0.80679786,47.668976,-0.9356696,-1.8594625,-3.5031235,-0.27127093,0.08776079,-0.33711392,25.5625,26.1875,25.4375,28.0625,28.8125,29.125
0.116054334,-0.52822477,-1.192916,-1.3017054,-0.035947677,0.024026018,-0.12912756,-0.38413465,-0.34902644,0.059970055,3.0785017,-0.62606317,9.353546e-05,-0.05221426,-0.010188028,0.0013842885,-0.0074370755,0.004788456,-0.005002696,0.47568685,-1.4202387,1.9510487,-2.1001341,-1.570516,2.4513865,-0.032652073,0.095819585,-0.1156382,0.012143094,0.0041973772,-0.02758554,-0.05746084,0.30645782,-9.442732,0.8247004,47.653748,-1.0121669,-2.0781062,-3.4394135,-0.289703,0.09159161,-0.3311934,25.5625,26.1875,25.4375,28.0625,28.8125,29.125
0.118053354,-1.5398718,-1.7976154,-1.4684362,-0.029460028,0.012859089,-0.11544336,-0.38422924,-0.34904426,0.059974015,3.0784957,-0.6260617,5.2445146e-05,-0.0528448,-0.010970424,0.001777584,-0.008013038,0.005491257,-0.003990322,0.4756392,-1.4200704,1.9508442,-2.1001222,-1.5705279,2.4513388,-0.0319571,0.09700698,-0.117968954,0.012397166,0.0043841866,-0.027901858,-0.076614454,0.3256114,-9.481039,0.8179876,47.657326,-1.1884601,-1.8499973,-3.5150847,-0.28654766,0.106695876,-0.34419185,25.5625,26.1875,25.4375,28.0625,28.8125,29.125
0.12005364,-1.3682306,-1.3370625,-1.3146567,-0.044526897,0.025234768,-0.1132602,-0.3843131,-0.3490781,0.059964202,3.0784962,-0.6259851,0.00014563977,-0.05388763,-0.010927022,0.0017857312,-0.008422118,0.0053066514,-0.006235631,0.47559088,-1.4198537,1.9506048,-2.1000626,-1.5704798,2.4512427,-0.033267878,0.098573886,-0.11987393,0.012711882,0.004828389,-0.026967067,-0.095768064,0.28730422,-9.595961,0.8605109,47.691364,-1.2445912,-1.849731,-3.4660091,-0.26905096,0.08560971,-0.35947552,25.5625,26.1875,25.4375,28.0625,28.8125,29.125
0.12205355,-1.2904252,-1.9375215,-1.4251673,-0.038737264,0.029905828,-0.120199494,-0.38444984,-0.34908792,0.05999625,3.0784767,-0.6260012,2.5794405e-05,-0.055330034,-0.010387768,0.0015057775,-0.008338132,0.0046135364,-0.008364547,0.47550592,-1.4196846,1.9503297,-2.100026,-1.5705155,2.4511704,-0.035685048,0.100865245,-0.12198089,0.013180771,0.0050701704,-0.027254052,-0.095768064,0.34476504,-9.634268,0.77545905,47.687782,-1.1280054,-1.881551,-3.5141761,-0.27164835,0.09797208,-0.38276842,25.5625,26.1875,25.4375,28.0625,28.8125,29.125
0.124053314,-1.1287599,-1.8328068,-1.4973061,-0.046568997,0.041167304,-0.12218598,-0.38456032,-0.3491331,0.060013242,3.078379,-0.62609565,2.5848394e-05,-0.056427263,-0.011145005,0.0023902408,-0.009550228,0.005834035,-0.0069053457,0.47544593,-1.4194922,1.950065,-2.100002,-1.5704559,2.451182,-0.035670605,0.10166812,-0.12508912,0.013846478,0.005585933,-0.028697783,-0.11492168,0.30645782,-9.500193,0.9030289,47.694946,-1.1343868,-1.7584063,-3.4859815,-0.280206,0.067673944,-0.40427837,25.5625,26.1875,25.4375,28.0625,28.8125,29.125
0.12605394,-1.2135215,-1.557067,-1.367084,-0.048397686,0.04110449,-0.12402838,-0.38466343,-0.34916356,0.06001709,3.078381,-0.62600094,2.5371608e-05,-0.058209375,-0.010962533,0.0019218241,-0.009582499,0.0055948263,-0.0077865566,0.47539717,-1.419287,1.9498128,-2.0999658,-1.5704435,2.451074,-0.037700787,0.10506103,-0.12782173,0.013384443,0.005718045,-0.029844955,-0.22984336,0.30645782,-9.634268,0.8224646,47.690468,-1.1183733,-1.8384225,-3.451393,-0.26924008,0.07920357,-0.38879752,25.5625,26.1875,25.4375,28.0625,28.8125,29.125
0.12805411,-1.3919561,-1.1794755,-1.4468695,-0.04313506,0.042943563,-0.12600243,-0.3848161,-0.34917295,0.060030878,3.0783482,-0.6261077,-5.4663276e-05,-0.05849898,-0.0109074935,0.0004905526,-0.008357456,0.0031321275,-0.007473489,0.4752892,-1.4190574,1.9495128,-2.099942,-1.5704674,2.451037,-0.038068652,0.10888824,-0.12898153,0.013467255,0.005755893,-0.030524565,-0.3256114,0.30645782,-9.557653,0.9097417,47.683304,-1.0788211,-1.8326323,-3.4822016,-0.26545274,0.07966332,-0.40726864,25.5625,26.1875,25.4375,28.0625,28.8125,29.125
0.13005379,-1.7785116,-1.2103664,-1.3716474,-0.034212507,0.04386732,-0.12537533,-0.38491404,-0.34919178,0.06000995,3.0783365,-0.62614286,-2.2322447e-06,-0.06075543,-0.012575317,0.002696886,-0.011290846,0.0079492405,-0.0051016924,0.47521728,-1.4188291,1.9492964,-2.0999305,-1.5704435,2.4509885,-0.037424047,0.10902626,-0.1340404,0.012762666,0.0061477185,-0.032249834,-0.34476504,0.28730422,-9.576807,0.8403672,47.70211,-1.2173071,-1.9430711,-3.1981335,-0.24952519,0.06768423,-0.39314735,25.5625,26.1875,25.4375,28.0625,28.8125,29.125
0.13205391,-1.9326469,-1.3057164,-1.3966085,-0.024335777,0.048142247,-0.11353565,-0.38503328,-0.34923276,0.06001406,3.0782917,-0.62611395,-6.997925e-06,-0.06241308,-0.013030149,0.0018275304,-0.010645118,0.0065853074,-0.004118953,0.47515705,-1.4185989,1.9490203,-2.0999181,-1.5704073,2.450916,-0.03815285,0.11446914,-0.13842116,0.013210554,0.0061911717,-0.03395836,-0.3256114,0.34476504,-9.557653,0.7709874,47.661808,-1.2033,-1.964047,-3.2860608,-0.23276898,0.086656734,-0.37143984,25.5625,26.1875,25.4375,28.0625,28.8125,29.125
0.13405392,-1.1904753,-1.1543003,-1.4177179,-0.027576981,0.06424818,-0.131238,-0.38514325,-0.3492375,0.060003534,3.0783074,-0.62619567,2.6057503e-05,-0.063343085,-0.012404326,0.0021422815,-0.011260713,0.0071503166,-0.0068921116,0.47507235,-1.418371,1.9487695,-2.099859,-1.5704192,2.4508805,-0.040277522,0.114161626,-0.13878673,0.013098601,0.0064786864,-0.03331039,-0.38307226,0.28730422,-9.500193,0.8873621,47.682407,-1.2023447,-2.000049,-3.304555,-0.23507792,0.06684533,-0.37875384,25.5625,26.1875,25.4375,28.0625,28.8125,29.125
0.13605395,-1.7067627,-1.1735511,-1.2709279,-0.040517095,0.058084734,-0.124684595,-0.3852912,-0.34928185,0.060063403,3.0782042,-0.6261939,-0.0001113038,-0.064413235,-0.012276193,0.0016645064,-0.010866254,0.0062314575,-0.007646278,0.4749999,-1.4182137,1.9484442,-2.0998228,-1.5703954,2.4508202,-0.041509684,0.11694198,-0.14099646,0.01352665,0.006549683,-0.03378622,-0.40222588,0.3256114,-9.5385,0.8291774,47.68599,-1.1220971,-1.9292976,-3.2948718,-0.22465777,0.05749221,-0.38224852,25.5625,26.1875,25.4375,28.0625,28.8125,29.125
0.13805406,-2.4773521,-1.5537703,-1.1571482,-0.036460366,0.043298595,-0.11219277,-0.38542938,-0.34929904,0.060056873,3.0781949,-0.6261702,-0.00013853013,-0.06471963,-0.012344925,0.0013168041,-0.009960765,0.0058214203,-0.0048494027,0.4749041,-1.4179609,1.9481691,-2.0998228,-1.5703958,2.450711,-0.04124975,0.11857219,-0.14217636,0.013858509,0.0059325825,-0.03632158,-0.49799395,0.3256114,-9.557653,0.8179876,47.67614,-1.1866124,-2.0133243,-3.2513254,-0.20932913,0.055221274,-0.37642524,25.5625,26.1875,25.4375,28.0625,28.8125,29.125
0.140054,-1.7260889,-1.4102674,-1.1384084,-0.041829113,0.07047075,-0.13037619,-0.38554698,-0.3493035,0.060042836,3.0782318,-0.6261578,-0.00013102188,-0.06561619,-0.012081473,0.0013621849,-0.0094835805,0.005737191,-0.00408267,0.47481978,-1.4177204,1.9479169,-2.099786,-1.5704197,2.4506145,-0.042266745,0.119856484,-0.14396225,0.014654611,0.0055450485,-0.038104128,-0.5554548,0.30645782,-9.481039,0.7642693,47.683304,-1.2596767,-1.9423752,-3.2355905,-0.2246916,0.06400805,-0.34081674,25.5625,26.1875,25.4375,28.0625,28.8125,29.125
0.1420541,-2.0240433,-1.6432667,-1.0247654,-0.031068193,0.06440401,-0.12080842,-0.38569283,-0.3493513,0.06006835,3.0781455,-0.62617886,-0.00019613926,-0.067758255,-0.012674622,0.00215729,-0.010354809,0.0077620065,-0.0040883534,0.4747474,-1.4174913,1.9475931,-2.0997741,-1.5703834,2.4505663,-0.04305527,0.1220777,-0.14834166,0.014616229,0.0053889053,-0.038883906,-0.4213795,0.34476504,-9.404425,0.7665104,47.696735,-1.1929414,-1.8307643,-3.2475321,-0.19997782,0.066447094,-0.33515102,25.5625,26.1875,25.4375,28.0625,28.8125,29.125
0.14405334,-1.7064683,-0.9768532,-0.8049496,-0.035791755,0.06506548,-0.13039678,-0.3858441,-0.3493837,0.060078356,3.0781057,-0.6261707,-0.00021417378,-0.068168186,-0.012223757,0.0011126364,-0.009801545,0.005682876,-0.004274779,0.47465095,-1.4172262,1.9472579,-2.0997384,-1.5703596,2.45047,-0.044499245,0.12455026,-0.14885882,0.0147631215,0.0058491644,-0.04014123,-0.40222588,0.22984336,-9.270349,0.8627467,47.70211,-1.1574559,-1.811552,-3.3523626,-0.19339684,0.066761196,-0.3090757,25.5625,26.1875,25.4375,28.0625,28.8125,29.125
0.14605331,-1.5715711,-0.6816631,-0.5456443,-0.027763277,0.051510554,-0.11973338,-0.38599658,-0.34941688,0.06010119,3.0780332,-0.62613595,-0.00030416832,-0.06895734,-0.0125484355,0.00033276735,-0.0103472965,0.004437304,-0.003956307,0.47455457,-1.4170088,1.9469589,-2.0997503,-1.5703353,2.4503613,-0.04530294,0.1276629,-0.15054747,0.014195759,0.006903999,-0.04126254,-0.4405331,0.22984336,-9.136273,0.8157518,47.661808,-1.1019101,-1.9110188,-3.3337414,-0.17155108,0.052554674,-0.3089473,25.5625,26.1875,25.4375,28.0625,28.8125,29.125
0.1480533,-1.3863348,-0.9510751,-0.579637,-0.010689943,0.044713527,-0.1236594,-0.38612044,-0.34943104,0.060078546,3.0780244,-0.626249,-0.00024468775,-0.06927869,-0.012223618,-0.00096876186,-0.008669477,0.0023262938,-0.0027183527,0.4744584,-1.4167312,1.9466838,-2.0997145,-1.5703229,2.450337,-0.045808226,0.1310035,-0.15150863,0.014464334,0.0063744783,-0.043004632,-0.4213795,0.21068975,-9.059659,0.87393653,47.674347,-1.2141119,-2.0283003,-3.3727446,-0.14160831,0.057101015,-0.27528614,25.5625,26.1875,25.4375,28.0625,28.8125,29.125
0.1500535,-1.2627424,-0.30956617,-0.40018597,-0.006048428,0.025966488,-0.12329433,-0.38628396,-0.3494676,0.060114373,3.077976,-0.62618047,-0.00036392274,-0.07111,-0.012061987,0.0014345373,-0.010596687,0.007081863,-0.002930696,0.47437397,-1.4165044,1.9463362,-2.0996912,-1.5703233,2.450216,-0.04744146,0.12787691,-0.15341023,0.014384407,0.0059177736,-0.044424105,-0.1340753,0.17238252,-8.983045,0.8023209,47.672558,-1.1660321,-1.7597833,-3.4444244,-0.13779807,0.05893712,-0.25354773,25.5625,26.1875,25.4375,28.0625,28.8125,29.125
0.1520535,-0.8492109,0.0016111832,-0.27381068,0.004109887,0.023955092,-0.122308284,-0.3864273,-0.34948513,0.060112882,3.0779698,-0.6261974,-0.0004288692,-0.07208105,-0.011885922,0.0010249236,-0.009598233,0.0065231347,-0.0023771594,0.4742897,-1.4162512,1.9460486,-2.0996907,-1.5703477,2.4501433,-0.048207708,0.1304308,-0.15556689,0.014942362,0.005284511,-0.045741845,-0.17238252,0.1340753,-8.925584,0.7777002,47.690468,-1.0970823,-1.9499636,-3.3949041,-0.10673949,0.05467117,-0.23920894,25.5625,26.1875,25.4375,28.0625,28.8125,29.125
0.1540537,-0.68219703,0.10460272,-0.22193287,0.0059259967,0.019731635,-0.122824505,-0.38657925,-0.3495266,0.06011441,3.077901,-0.626126,-0.00046688583,-0.073043935,-0.011814373,0.00019597622,-0.009216191,0.0050410936,-0.002283747,0.47419325,-1.4159857,1.9457482,-2.099726,-1.5702995,2.4500113,-0.0494037,0.1337958,-0.15761428,0.015119671,0.005622335,-0.04702975,-0.15322891,0.076614454,-8.810662,0.8179876,47.651955,-1.0133516,-1.7482779,-3.3977232,-0.104734585,0.055510126,-0.20855916,25.5625,26.1875,25.4375,28.0625,28.8125,29.125
0.15605414,-0.113243096,0.19719814,-0.22812438,0.0036161672,0.02222719,-0.1316215,-0.38674384,-0.34952807,0.06013696,3.0778933,-0.62618226,-0.0005170245,-0.07379184,-0.0119572105,0.00032036635,-0.009738998,0.00469507,-0.0025454503,0.47406086,-1.4157454,1.9454015,-2.099642,-1.5703229,2.4499152,-0.050203428,0.13503416,-0.15951742,0.015851252,0.00624558,-0.047567237,-0.1340753,0.114921674,-8.868123,0.82022345,47.666286,-1.077992,-1.7962846,-3.3803596,-0.096244514,0.059280477,-0.17731515,25.5625,26.1875,25.4375,28.0625,28.8125,29.125
0.15805414,-0.57118565,0.16044582,-0.3579009,-0.0060298014,0.014782692,-0.12556966,-0.38687673,-0.3495569,0.060142417,3.077833,-0.62620866,-0.0004717012,-0.07574957,-0.011628886,0.0004847186,-0.009694462,0.0048928685,-0.0046763923,0.4739522,-1.415504,1.9451007,-2.0995939,-1.5702633,2.4498308,-0.05245209,0.13754201,-0.16299045,0.016664853,0.0061115795,-0.047682926,-0.076614454,0.11492168,-8.963891,0.8157518,47.67345,-1.0518005,-1.8370781,-3.3231006,-0.07502739,0.053162586,-0.17372411,25.5625,26.1875,25.4375,28.0625,28.8125,29.125
0.16005342,-0.65052915,-0.39624694,-0.42905244,-0.01095973,0.014892342,-0.12330478,-0.38702697,-0.3495598,0.060106806,3.0778978,-0.6261852,-0.00044564437,-0.07683118,-0.011558801,0.0005578526,-0.009003128,0.0033847238,-0.0068025645,0.47384375,-1.415167,1.9447888,-2.099569,-1.5702995,2.4496996,-0.053577878,0.14009646,-0.16680345,0.01957926,0.0061810217,-0.04668128,-0.05746084,0.19153613,-8.887277,0.8247004,47.657326,-0.92013407,-1.8500943,-3.4250565,-0.0700446,0.07109359,-0.1449419,25.5625,26.1875,25.4375,28.0625,28.8125,29.125
0.16205381,-0.73113257,-0.7556734,-0.4109932,-0.011963825,0.019889167,-0.12930696,-0.3871706,-0.34959552,0.06012168,3.0778666,-0.62621635,-0.00043223685,-0.075761884,-0.01188775,-0.0015998969,-0.0060216147,-0.0012141373,-0.00624263,0.47376055,-1.4149009,1.9444298,-2.0994847,-1.5702757,2.44964,-0.051647734,0.14482258,-0.16772722,0.021232728,0.0056279837,-0.045309737,-0.15322891,0.22984336,-9.040505,0.81351066,47.645687,-1.1351714,-1.9542947,-3.3761387,-0.07539652,0.07225246,-0.15238777,25.5625,26.1875,25.4375,28.0625,28.8125,29.125
0.16405357,-0.96743244,-1.2008618,-0.7364263,-0.010503769,0.025676744,-0.12402743,-0.38733214,-0.34960184,0.060110122,3.0778654,-0.626312,-0.00045442863,-0.07739502,-0.011717899,0.00063494744,-0.008408705,0.0019587076,-0.007824091,0.4736397,-1.4146017,1.9441065,-2.0994604,-1.570299,2.4495792,-0.053832386,0.14205283,-0.16991931,0.022279613,0.0063033043,-0.04591316,-0.1340753,0.28730422,-9.040505,0.800085,47.658226,-1.0358908,-1.7058339,-3.3060317,-0.08674073,0.06878437,-0.113147825,25.5625,26.1875,25.4375,28.0625,28.8125,29.125
0.16605364,-0.8645926,-1.2661086,-0.9396856,-0.024886472,0.03395594,-0.11993646,-0.38747796,-0.34964854,0.060126342,3.0777845,-0.62627804,-0.00044075312,-0.0783257,-0.011128175,-5.020758e-05,-0.007976432,-0.00019715006,-0.010544036,0.473543,-1.4143484,1.9437698,-2.0994241,-1.570227,2.4494717,-0.056074705,0.14470948,-0.17173697,0.023557967,0.0069031385,-0.045434725,-0.15322891,0.36391866,-9.212888,0.83813137,47.699425,-1.0020851,-1.8963175,-3.2678995,-0.08716588,0.067659415,-0.109107636,25.5625,26.1875,25.4375,28.0625,28.8125,29.125
0.16805442,-1.3711182,-1.5870394,-0.99362016,-0.048190564,0.0338938,-0.12651266,-0.38762254,-0.34965727,0.06011105,3.077816,-0.6263631,-0.0003758644,-0.07961848,-0.011070662,-1.771979e-05,-0.007657149,-0.0003773002,-0.014308203,0.47343457,-1.4140354,1.9434227,-2.0993278,-1.570239,2.4494126,-0.057186995,0.14695996,-0.17466907,0.024545494,0.0066929525,-0.042781603,-0.32561144,0.4405331,-9.308657,0.8560339,47.675243,-0.8711536,-1.7792604,-3.2664013,-0.09175771,0.049146734,-0.10116496,25.5625,26.1875,25.4375,28.0625,28.8125,29.125
0.17005354,-1.8483962,-2.5188107,-1.3187916,-0.05730746,0.03636698,-0.114935376,-0.38777646,-0.34965762,0.060086504,3.0778325,-0.6264421,-0.00034298282,-0.07958381,-0.011815908,-0.00019772671,-0.006982935,-0.0007346835,-0.013713596,0.47330323,-1.4137225,1.9431103,-2.099292,-1.5702513,2.4493287,-0.055527963,0.14870155,-0.17646194,0.025223808,0.006251668,-0.04171611,-0.40222588,0.49799395,-9.385271,0.91421866,47.692257,-1.0284061,-1.8768735,-3.3476048,-0.10467921,0.06264998,-0.12721601,25.5625,26.1875,25.4375,28.0625,28.8125,29.125
0.17205362,-1.8834836,-2.6513073,-1.4143771,-0.060036354,0.049796745,-0.11198644,-0.38792846,-0.34969404,0.06010779,3.0778096,-0.62641984,-0.00030441987,-0.0813239,-0.011123788,-0.00040258284,-0.006546855,-0.0012774753,-0.017110875,0.47320628,-1.4134455,1.9427155,-2.0991719,-1.5702156,2.449221,-0.05820321,0.151255,-0.17916152,0.026054205,0.0061066677,-0.040992502,-0.36391866,0.5554548,-9.5385,0.7530795,47.711063,-0.9816528,-1.7776277,-3.3865361,-0.11243963,0.06665963,-0.1260733,25.5625,26.1875,25.4375,28.0625,28.8125,29.125
0.17405379,-1.6102116,-2.2149978,-1.4568201,-0.0680315,0.0568544,-0.122666486,-0.38809675,-0.3497281,0.060108453,3.0777464,-0.626485,-0.0003375541,-0.08258853,-0.011343824,-6.618108e-05,-0.0078063216,-0.0007013267,-0.01882184,0.47309783,-1.413145,1.9423679,-2.0991719,-1.5701913,2.4491613,-0.059478253,0.15248531,-0.18136121,0.025935253,0.006962079,-0.04055585,-0.22984336,0.51714754,-9.615114,0.8493211,47.668976,-0.8639902,-1.7375525,-3.352613,-0.116012126,0.06621911,-0.1541619,25.5625,26.1875,25.4375,28.0625,28.8125,29.125
0.17605408,-2.0195935,-2.4002242,-1.5033563,-0.052297108,0.037357964,-0.11962594,-0.38828108,-0.34972998,0.060105417,3.0777514,-0.6265443,-0.0003334721,-0.08386088,-0.011689008,-3.880281e-05,-0.008908465,0.000117718,-0.020343125,0.47294152,-1.4128201,1.9419845,-2.0991008,-1.5702032,2.4490416,-0.060368996,0.1542799,-0.18328644,0.024832927,0.0075629936,-0.03992462,-0.28730422,0.59376204,-9.615114,0.7597976,47.658226,-0.91961074,-1.7100472,-3.4000187,-0.11526738,0.05516481,-0.16200194,25.5625,26.1875,25.4375,28.0625,28.8125,29.125
0.17805432,-1.4548831,-1.9798563,-1.4408675,-0.039851267,0.051028416,-0.115210705,-0.38845396,-0.34977323,0.06011337,3.0776846,-0.6266281,-0.00036734377,-0.08495195,-0.011552265,-1.3399938e-05,-0.008735175,0.0009837231,-0.02318865,0.47284546,-1.4125074,1.9416007,-2.099077,-1.5701793,2.4490066,-0.061209667,0.15556963,-0.18476044,0.024327973,0.007010895,-0.037918076,-0.45968673,0.4213795,-9.634268,0.80456203,47.677036,-0.8893348,-1.767338,-3.395368,-0.0891761,0.061737232,-0.185886,25.5625,26.1875,25.4375,28.0625,28.8125,29.125
0.18005343,-1.8589655,-1.8339798,-1.5395606,-0.01643261,0.040082965,-0.11911841,-0.38862255,-0.34977555,0.060090158,3.0776992,-0.6267088,-0.00027620298,-0.084934324,-0.011172223,-0.0020929656,-0.007186711,-0.00273383,-0.025664022,0.47268903,-1.4121569,1.9412307,-2.098993,-1.5701674,2.4488988,-0.062023334,0.15988462,-0.18503731,0.02430448,0.0073214024,-0.03625639,-0.34476504,0.3256114,-9.710882,0.7978386,47.666286,-0.84866154,-1.9533052,-3.523395,-0.069893315,0.063979514,-0.22515947,25.5625,26.1875,25.4375,28.0625,28.8125,29.125
0.18205337,-1.5464512,-0.94293976,-1.3905526,-0.02385775,0.049341828,-0.12258804,-0.3887912,-0.34982112,0.0601119,3.077638,-0.6267149,-0.0002979841,-0.08603219,-0.011683175,-0.0025278085,-0.007904975,-0.0034412525,-0.025422214,0.47259283,-1.411868,1.9408344,-2.0989335,-1.5701307,2.4488144,-0.06269943,0.16304365,-0.1876815,0.024091609,0.00827912,-0.037173044,-0.21068975,0.22984336,-9.672575,0.75755644,47.684196,-0.86790514,-1.9459069,-3.4061308,-0.0798612,0.054368317,-0.21874797,25.5625,26.1875,25.4375,28.0625,28.8125,29.125
0.18405354,-1.5268524,-0.99132365,-1.3292632,-0.021876464,0.04906458,-0.12070077,-0.38899526,-0.34983727,0.060104318,3.0775683,-0.6269119,-0.00035295577,-0.08719789,-0.011742411,-0.002839901,-0.0077367052,-0.003403826,-0.0261612,0.4724365,-1.4115186,1.9404515,-2.0989454,-1.5701307,2.44879,-0.063495286,0.16554211,-0.18983728,0.023794191,0.008108675,-0.03722806,-0.24899697,0.21068975,-9.519346,0.8247004,47.67793,-0.75988567,-2.039881,-3.445665,-0.06007737,0.037115805,-0.23922607,25.5625,26.1875,25.4375,28.0625,28.8125,29.125
0.18605344,-1.5865865,-1.3098654,-1.4177779,-0.0114114825,0.04179054,-0.11003478,-0.38914844,-0.3498726,0.060087603,3.0775821,-0.62683815,-0.00032340168,-0.08826205,-0.01169367,-0.0031128689,-0.007749722,-0.0030126416,-0.027536375,0.47235224,-1.4111817,1.9400929,-2.0989096,-1.5701188,2.4486582,-0.064401746,0.16741882,-0.19124553,0.022973016,0.007936503,-0.036758337,-0.30645782,0.15322891,-9.5385,0.80679786,47.696735,-0.7966156,-2.0618117,-3.6325471,-0.04119663,0.04459326,-0.24275096,25.5625,26.1875,25.4375,28.0625,28.8125,29.125
0.1880535,-0.94804645,-0.7019701,-1.2336211,-0.01699464,0.04959073,-0.12554026,-0.3893648,-0.34987935,0.06011497,3.0775108,-0.6270545,-0.00043430147,-0.08986957,-0.011618662,-0.00250735,-0.0081982715,-0.0018753603,-0.028848115,0.4721838,-1.410881,1.9396728,-2.098862,-1.5701426,2.4486341,-0.06585905,0.16855595,-0.19409935,0.023473915,0.0078165475,-0.03690191,-0.2681506,0.11492168,-9.481039,0.8873621,47.67345,-0.7489473,-2.0435407,-3.5047717,-0.022416346,0.037245892,-0.24749821,25.5625,26.1875,25.4375,28.0625,28.8125,29.125
0.19005382,-1.1132041,-0.43214455,-0.9857646,-0.016636632,0.036199007,-0.119691685,-0.38952205,-0.34992665,0.06010095,3.0774446,-0.6270803,-0.00030920506,-0.09132932,-0.011974945,-0.002121283,-0.0091531025,-0.0014543171,-0.029300613,0.4720633,-1.4105321,1.9392885,-2.0988019,-1.5700468,2.4485383,-0.06693084,0.17045148,-0.19734663,0.024018995,0.008469472,-0.037520267,-0.17238252,0.11492168,-9.404425,0.8672237,47.688675,-0.6645198,-2.1388178,-3.5718684,-0.012481428,0.039000764,-0.26948783,25.5625,26.1875,25.4375,28.0625,28.8125,29.125
0.19205399,-0.45936668,-0.2947932,-0.83076316,-0.010673213,0.04410866,-0.13052908,-0.3897093,-0.34993857,0.060098454,3.0773957,-0.62716633,-0.00033662477,-0.09225725,-0.011999855,-0.0026182819,-0.0081891315,-0.0021604397,-0.028979402,0.47190714,-1.4102186,1.9389294,-2.098789,-1.5700344,2.4484422,-0.067334,0.17339946,-0.19979797,0.024593774,0.007930064,-0.038242564,-0.28730422,0.11492168,-9.385271,0.8112748,47.67614,-0.6801598,-2.1641273,-3.4512153,-0.00046427606,0.031248886,-0.29086152,25.5625,26.1875,25.4375,28.0625,28.8125,29.125
0.19405408,-0.44753692,-0.09547796,-0.7419402,-0.004954731,0.048046425,-0.12598552,-0.38987872,-0.3499621,0.060078032,3.0774477,-0.6271945,-0.00028631804,-0.0940973,-0.012776,-0.001521021,-0.009172397,0.00074384594,-0.028434927,0.47181123,-1.4098339,1.9385103,-2.098694,-1.5700592,2.4483576,-0.06730321,0.17457539,-0.20363773,0.02422555,0.0074749277,-0.038754467,-0.2681506,0.095768064,-9.32781,0.8157518,47.655537,-0.684798,-2.022684,-3.4321475,-4.2212196e-06,0.030647319,-0.28398123,25.5625,26.1875,25.4375,28.0625,28.8125,29.125
0.19605435,-1.0506815,-0.6967228,-1.0494175,0.0069994046,0.03861339,-0.11822671,-0.3900901,-0.35000318,0.06010404,3.0773175,-0.62734216,-0.00032587326,-0.09552622,-0.011864121,-0.0017268312,-0.008592954,-0.00020711788,-0.031084465,0.4716542,-1.4095091,1.9380673,-2.098657,-1.5699991,2.4483094,-0.07008771,0.17652534,-0.2057678,0.025520043,0.0073931725,-0.0388878,-0.24899697,0.15322891,-9.308656,0.8291774,47.65912,-0.6079083,-2.0470963,-3.3768084,0.011107905,0.0530423,-0.30953753,25.5625,26.1875,25.4375,28.0625,28.8125,29.125
0.1980535,-1.4924058,-1.1422219,-1.0840303,-0.005441042,0.037218362,-0.117115974,-0.39028358,-0.35003933,0.060114067,3.0772638,-0.62740576,-0.0003712241,-0.095148735,-0.013269857,-0.00071108114,-0.009559439,0.00011570151,-0.028404351,0.47153524,-1.409173,1.9376482,-2.0986211,-1.5699867,2.4482372,-0.06769417,0.17616183,-0.20818704,0.02757519,0.0081095565,-0.039173882,-0.34476504,0.34476507,-9.289502,0.82022345,47.653748,-0.7361345,-1.9532422,-3.3545032,0.014958756,0.037997402,-0.33721825,25.5625,26.1875,25.4375,28.0625,28.8125,29.125
0.20005353,-1.6144973,-1.4957829,-0.85443926,-0.027166303,0.055091422,-0.12533982,-0.390471,-0.35004476,0.060098704,3.0772822,-0.62748617,-0.00036263047,-0.09610688,-0.013464811,-0.000226282,-0.009551982,0.00025559432,-0.028091691,0.47139105,-1.4088122,1.9372524,-2.0985606,-1.5700105,2.448141,-0.06812305,0.1773886,-0.2111355,0.029176675,0.008036903,-0.039914407,-0.4213795,0.28730422,-9.155427,0.8717007,47.67345,-0.73134583,-1.8552446,-3.3505545,-0.008039123,0.04497558,-0.34999135,25.5625,26.1875,25.4375,28.0625,28.8125,29.125
0.20205371,-1.4828931,-1.731296,-1.0837718,-0.042449456,0.06220792,-0.12484557,-0.39066884,-0.35004306,0.06008715,3.0772722,-0.62769645,-0.00029911168,-0.09766541,-0.012665122,-0.00045219169,-0.008614679,-0.00016460134,-0.030108964,0.47121015,-1.4084387,1.9368223,-2.0984523,-1.570011,2.448093,-0.07046131,0.17967527,-0.21353592,0.030094411,0.0073883887,-0.04023415,-0.36391866,0.3256114,-9.385271,0.80679786,47.694054,-0.64984107,-2.022849,-3.3279529,-0.02246241,0.029821146,-0.38493258,25.5625,26.1875,25.4375,28.0625,28.8125,29.125
0.2040536,-1.7830218,-1.8996542,-0.94296974,-0.053877316,0.060010847,-0.124019705,-0.39086357,-0.35007706,0.060073197,3.07724,-0.6277263,-0.0002872062,-0.09728503,-0.0136161465,-0.00087859883,-0.0076090517,-0.00039198552,-0.026999773,0.4710792,-1.4080538,1.9364036,-2.0984285,-1.5699872,2.447985,-0.06789786,0.18153408,-0.2147934,0.030157354,0.006594168,-0.040778533,-0.34476504,0.34476504,-9.442732,0.8985519,47.682407,-0.6941319,-1.934123,-3.3983223,-0.0060628154,0.06214692,-0.3897936,25.5625,26.1875,25.4375,28.0625,28.8125,29.125
0.20605369,-1.7095741,-2.073392,-0.8646918,-0.04990884,0.05329986,-0.11803276,-0.39104995,-0.3500819,0.060084525,3.077258,-0.6278067,-0.00027940414,-0.097495355,-0.013998413,-0.0006464954,-0.007988741,-0.00053365313,-0.026912766,0.47093526,-1.4077296,1.935973,-2.0982969,-1.570011,2.447889,-0.067626774,0.18206945,-0.21617948,0.030960508,0.006994925,-0.04059444,-0.2681506,0.40222588,-9.404425,0.8403672,47.690468,-0.8658625,-1.8422662,-3.4621782,-0.024032261,0.07389205,-0.41283563,25.5625,26.1875,25.4375,28.0625,28.8125,29.125
0.2080536,-1.7567503,-1.8595723,-0.90224063,-0.0378248,0.034399286,-0.120322526,-0.3912724,-0.35014477,0.060090303,3.0771606,-0.6278049,-0.00034613136,-0.099560946,-0.014255198,0.0006602368,-0.0085937,0.0015371019,-0.027673593,0.47081497,-1.4073327,1.9355057,-2.0983198,-1.5699633,2.4477804,-0.06872467,0.18310355,-0.22074504,0.03237666,0.0065925247,-0.0409287,-0.24899697,0.34476504,-9.251195,0.85826975,47.703903,-0.7914711,-1.753335,-3.4001985,-0.026621062,0.063095324,-0.44085354,25.5625,26.1875,25.4375,28.0625,28.8125,29.125
0.21005408,-0.6480117,-1.08194,-0.8851844,-0.026760614,0.03277571,-0.12689745,-0.39148036,-0.35015577,0.060067035,3.0771377,-0.62799203,-0.00031457396,-0.0994867,-0.014589172,-7.744953e-05,-0.007943772,0.00026198488,-0.026969237,0.47064736,-1.4069237,1.9350747,-2.0982726,-1.5699633,2.4477327,-0.06801849,0.18524432,-0.22165969,0.032582935,0.006589781,-0.04092647,-0.11492168,0.4213795,-9.155427,0.87617236,47.72002,-0.8885006,-1.74541,-3.441865,-0.015631642,0.07033784,-0.45443064,25.5625,26.1875,25.4375,28.0625,28.8125,29.125
0.21205424,-0.31501174,-0.76137507,-1.0223145,-0.025102498,0.017719463,-0.12691411,-0.39168298,-0.35019538,0.060080137,3.0771089,-0.62798595,-0.00033942383,-0.09952538,-0.014207406,-0.002424797,-0.0060313516,-0.004239223,-0.027249124,0.47052684,-1.4065614,1.9346088,-2.0981996,-1.5699509,2.4476123,-0.06889372,0.19047396,-0.22254929,0.03312252,0.006927324,-0.041520827,0.0,0.40222588,-9.212888,0.83589023,47.688675,-0.9033977,-1.9083012,-3.4120607,-0.02617877,0.07035018,-0.4666811,25.5625,26.1875,25.4375,28.0625,28.8125,29.125
0.21405418,-0.90696967,-0.8840519,-1.0572864,-0.028428512,-0.0122084245,-0.11933942,-0.3919058,-0.35023177,0.060103696,3.0770273,-0.62808317,-0.0004267858,-0.09984173,-0.01447287,-0.0028592378,-0.005505069,-0.00557429,-0.025699032,0.47038302,-1.4062124,1.934143,-2.0981638,-1.569939,2.4475398,-0.06874898,0.1927578,-0.22452071,0.034240764,0.007066067,-0.04292474,0.019153614,0.34476504,-9.193734,0.86945957,47.694946,-0.922263,-1.7869503,-3.4722037,-0.022734795,0.07607988,-0.47864634,25.5625,26.1875,25.4375,28.0625,28.8125,29.125
0.21605341,-0.70520175,-1.6152476,-0.92690206,-0.017482411,-0.019495225,-0.113915116,-0.39208633,-0.3502375,0.0600578,3.0770652,-0.6282057,-0.00033376116,-0.10135992,-0.014671559,-0.0014250289,-0.006616895,-0.0038069496,-0.025209796,0.4702387,-1.4057919,1.9337467,-2.0981033,-1.5699509,2.4474673,-0.06983117,0.19253884,-0.2279776,0.035838336,0.0072499057,-0.044495743,0.095768064,0.3256114,-9.308656,0.8784135,47.67345,-0.8814474,-1.9690639,-3.4695778,-0.040755272,0.085795574,-0.4879067,25.5625,26.1875,25.4375,28.0625,28.8125,29.125
0.21805401,-0.30979565,-1.2463784,-0.84703326,-0.0378767,-0.0110332435,-0.11768408,-0.39230582,-0.35028297,0.060075764,3.077019,-0.6282727,-0.00033428977,-0.10152162,-0.014345509,-0.0024335976,-0.0052519403,-0.0068683946,-0.025054518,0.47010633,-1.4053947,1.9332207,-2.0979946,-1.5699271,2.447383,-0.07060617,0.19550404,-0.22965622,0.03790154,0.0074225194,-0.045425232,0.2873042,0.30645782,-9.251195,0.8784135,47.64658,-0.84076226,-1.9311175,-3.4468377,-0.059296776,0.08237608,-0.4896088,25.5625,26.1875,25.4375,28.0625,28.8125,29.125
0.22005418,-0.32345095,-1.3733577,-1.0179378,-0.032750785,-0.013280608,-0.12274699,-0.39252758,-0.35030723,0.060056735,3.0770051,-0.62834436,-0.00033067775,-0.102693,-0.014411228,-0.002620297,-0.0047265906,-0.0080730645,-0.021708949,0.46995014,-1.4049612,1.9327534,-2.0979583,-1.5699271,2.4472735,-0.07153383,0.1985454,-0.23326643,0.039786413,0.007499048,-0.049696855,0.2681506,0.34476504,-9.212888,0.8873621,47.66091,-0.89575344,-2.097611,-3.4981878,-0.077344455,0.09097888,-0.4799958,25.5625,26.1875,25.4375,28.0625,28.8125,29.125
0.22205348,-0.21396638,-1.4610504,-0.7991825,-0.02555964,-0.008594909,-0.11785334,-0.3927222,-0.3503472,0.060051158,3.0769954,-0.6283396,-0.00028830607,-0.103204876,-0.015204069,-0.0023148537,-0.0051672957,-0.007921291,-0.018505476,0.4698303,-1.4045643,1.9322866,-2.097874,-1.5699028,2.4471521,-0.07076241,0.19994521,-0.23585495,0.040643096,0.007820298,-0.052128114,0.30645782,0.36391866,-9.193734,0.7933669,47.681515,-0.9231467,-1.9984741,-3.3950453,-0.10187343,0.08313708,-0.46299562,25.5625,26.1875,25.4375,28.0625,28.8125,29.125
0.22405365,-0.025674285,-0.57271755,-0.7909684,-0.03411363,-0.008728693,-0.12893982,-0.39294323,-0.35037047,0.060073737,3.0769343,-0.62842464,-0.0003710954,-0.10351205,-0.013811801,-0.003508508,-0.0039008113,-0.011392004,-0.021144902,0.4696733,-1.4042268,1.9318327,-2.0978253,-1.5699028,2.4470563,-0.07370178,0.20193425,-0.23589684,0.04236396,0.008268706,-0.052427858,0.2681506,0.3256114,-9.212888,0.86498255,47.66808,-0.8427509,-2.1671648,-3.4407556,-0.12476994,0.07565948,-0.46681848,25.5625,26.1875,25.4375,28.0625,28.8125,29.125
0.22605486,0.23240066,-0.6460302,-0.9380767,-0.01944209,-0.007757141,-0.1282099,-0.39313087,-0.35037258,0.06003482,3.0769677,-0.6285432,-0.00019807204,-0.103647076,-0.015082741,-0.0031771741,-0.003868708,-0.011418601,-0.015711945,0.469494,-1.403794,1.9313892,-2.0976932,-1.5698789,2.4469469,-0.07152996,0.20366633,-0.23908615,0.043864865,0.008243278,-0.05568866,0.24899697,0.2681506,-9.193734,0.83365434,47.683304,-0.9086046,-2.1309803,-3.4762335,-0.15972108,0.08121843,-0.4402851,25.5625,26.1875,25.4375,28.0625,28.8125,29.125
0.22805402,-0.337913,-0.96503496,-0.78033847,-0.020943966,-0.012585694,-0.113733605,-0.39332852,-0.35043883,0.060025364,3.0769644,-0.62846226,-0.0001429615,-0.104495265,-0.01545778,-0.0029554432,-0.004007774,-0.011437318,-0.009896691,0.46941006,-1.4033496,1.9308757,-2.0976088,-1.5698427,2.446813,-0.071672514,0.20530632,-0.24182057,0.044920195,0.008375183,-0.06164553,0.15322891,0.30645782,-9.212888,0.9030289,47.687782,-1.0287715,-2.0978236,-3.4952574,-0.18587539,0.09457101,-0.40049088,25.5625,26.1875,25.4375,28.0625,28.8125,29.125
0.2300541,-0.1236248,-0.9223918,-0.8798132,-0.025526095,0.008841797,-0.12674315,-0.3935331,-0.3504511,0.06000663,3.0769577,-0.6285192,-0.000100208454,-0.10597777,-0.014685237,-0.0028551593,-0.0045474214,-0.012224838,-0.011114894,0.4692409,-1.4029527,1.9304441,-2.0975497,-1.5698303,2.4466805,-0.07481903,0.20662278,-0.24394247,0.04618482,0.009209403,-0.063573845,0.1340753,0.30645782,-9.270349,0.8784135,47.689575,-0.9442739,-2.107114,-3.382133,-0.21907374,0.09196535,-0.32500267,25.5625,26.1875,25.4375,28.0625,28.8125,29.125
0.23205401,-0.96121806,-1.3606418,-1.0938538,-0.025648605,0.005027601,-0.11559114,-0.3937451,-0.35048884,0.060010854,3.0769758,-0.6285388,-2.6386833e-05,-0.10582266,-0.016392,-0.002954124,-0.0041625258,-0.012539548,-0.006935683,0.4691103,-1.4025193,1.9298929,-2.0973814,-1.5698189,2.4465601,-0.07151467,0.20933372,-0.2471716,0.047161244,0.008999814,-0.06444743,-0.038307227,0.45968673,-9.251195,0.8179876,47.7245,-1.033671,-1.979413,-3.4263568,-0.25159165,0.077234596,-0.33249268,25.5625,26.1875,25.4375,28.0625,28.8125,29.125
0.23405407,-1.3761393,-1.3432852,-1.0397629,-0.04251061,0.027731355,-0.11519338,-0.39395595,-0.35051632,0.060006976,3.0769794,-0.6285378,-4.8410377e-05,-0.10625324,-0.016048513,-0.002883082,-0.0040968475,-0.012415533,-0.004475129,0.4689778,-1.402123,1.9294275,-2.0973213,-1.5698308,2.4464269,-0.07237373,0.2094261,-0.24757154,0.047391534,0.008886433,-0.06776689,-0.1340753,0.3256114,-9.270349,0.82694155,47.657326,-1.1020653,-1.9141498,-3.4484046,-0.2815584,0.0915814,-0.27650726,25.5625,26.1875,25.4375,28.0625,28.8125,29.125
0.23605323,-1.4781305,-1.0404167,-0.9205468,-0.058338106,0.0490577,-0.12298658,-0.39413768,-0.35054228,0.059977695,3.0770197,-0.62854606,9.7607975e-05,-0.10729041,-0.016094012,-0.0024076465,-0.0054912977,-0.012125972,-0.0049334476,0.4688453,-1.4016902,1.9289612,-2.0971892,-1.569806,2.4462945,-0.073869705,0.20990725,-0.2494044,0.04785464,0.009989337,-0.06880573,-0.17238252,0.30645782,-9.308656,0.8605109,47.67166,-1.1172131,-1.9041538,-3.4875166,-0.30987576,0.09445384,-0.22348067,25.5625,26.1875,25.4375,28.0625,28.8125,29.125
0.23805353,-1.9351177,-1.5879034,-1.2045865,-0.040071975,0.04997523,-0.113668434,-0.39433277,-0.35059246,0.05995733,3.077001,-0.6285805,0.00025912578,-0.10790117,-0.016647656,-0.002445704,-0.0063725496,-0.012002935,-0.004658294,0.46871328,-1.4012334,1.9284467,-2.097058,-1.569734,2.4461865,-0.073852405,0.21136999,-0.2510303,0.047513906,0.010709564,-0.069064185,-0.21068975,0.28730422,-9.385271,0.8672237,47.677036,-1.1554693,-1.9344864,-3.442246,-0.32879874,0.087538175,-0.18891571,25.5625,26.1875,25.4375,28.0625,28.8125,29.125
0.24005356,-1.7870209,-1.3377485,-1.0560437,-0.033105858,0.05798691,-0.117855094,-0.3945717,-0.35062858,0.059971064,3.0769475,-0.6285499,0.00026520758,-0.10987247,-0.017500242,-0.0014712596,-0.007495634,-0.0085382685,-0.005125186,0.46853337,-1.4008244,1.9279207,-2.0969746,-1.5696863,2.4459946,-0.07368725,0.21274668,-0.25461894,0.04613424,0.010136557,-0.068429396,-0.2873042,0.2681506,-9.461885,0.92093146,47.67614,-1.1252732,-1.9493362,-3.5193505,-0.35006964,0.08225355,-0.17275298,25.5625,26.1875,25.4375,28.0625,28.8125,29.125
0.24205372,-1.6412586,-1.0089672,-1.2674809,-0.015607368,0.0581749,-0.11982908,-0.39478946,-0.35066882,0.05996702,3.0769465,-0.62857014,0.00021368782,-0.111650005,-0.017528,-0.0015583467,-0.0084484955,-0.0062616803,-0.007550501,0.46842492,-1.4004035,1.9274296,-2.096928,-1.5697101,2.4458992,-0.0750487,0.21448335,-0.2558506,0.043166924,0.00994987,-0.06736405,-0.28730422,0.24899697,-9.442732,0.8291774,47.675243,-1.1945474,-1.8509991,-3.5215626,-0.35374546,0.08371069,-0.164468,25.5625,26.1875,25.4375,28.0625,28.8125,29.125
0.24405386,-1.8775461,-0.63344556,-1.5174011,-0.0050348877,0.04911295,-0.11446992,-0.39500868,-0.35069034,0.05994048,3.0769567,-0.6286107,0.00034180266,-0.112258956,-0.017521154,-0.0028779586,-0.008161238,-0.0067029917,-0.009589153,0.4682448,-1.3999335,1.926916,-2.0968091,-1.5696744,2.4457433,-0.07549435,0.21747138,-0.2558587,0.04071344,0.009880742,-0.06577111,-0.36391866,0.22984336,-9.500193,0.84484416,47.66091,-1.1584339,-2.0516682,-3.5258155,-0.32756817,0.09407492,-0.1478127,25.5625,26.1875,25.4375,28.0625,28.8125,29.125
0.24605405,-1.6886837,-0.80570835,-1.3818845,-0.026879333,0.06163041,-0.11375269,-0.3952353,-0.35073617,0.059933186,3.0769103,-0.6286609,0.00036433135,-0.11429351,-0.017751316,-0.0023169394,-0.008745364,-0.0037280591,-0.0131535195,0.46810067,-1.3994888,1.9264015,-2.09675,-1.5696386,2.4456367,-0.07631013,0.21897936,-0.25860262,0.039035052,0.009048817,-0.06302012,-0.40222588,0.22984336,-9.634268,0.8627467,47.687782,-1.2063496,-2.0268636,-3.7033563,-0.32635257,0.08438738,-0.15184718,25.5625,26.1875,25.4375,28.0625,28.8125,29.125
0.24805403,-1.51623,-1.0896533,-1.3085643,-0.04742315,0.07352097,-0.12995788,-0.3954787,-0.3507662,0.05992274,3.0769,-0.62875706,0.00035607012,-0.11616702,-0.018169029,-0.002386286,-0.009912082,-0.0020608741,-0.017215453,0.46794418,-1.3990197,1.9258627,-2.0966785,-1.56965,2.4455419,-0.07735488,0.22161011,-0.26112163,0.03690585,0.009326106,-0.060001586,-0.53630114,0.24899697,-9.634268,0.86945957,47.681515,-1.0965548,-2.0130548,-3.685355,-0.3081011,0.09377299,-0.1817199,25.5625,26.1875,25.4375,28.0625,28.8125,29.125
0.25005394,-1.660312,-1.2022868,-1.4445515,-0.04611594,0.072070114,-0.124488525,-0.39567238,-0.3508018,0.05989842,3.0769286,-0.6287067,0.000482736,-0.11788923,-0.018192906,-0.0019148993,-0.009603819,-0.000229117,-0.021425352,0.46781194,-1.3985748,1.9253725,-2.0965588,-1.5696148,2.4453747,-0.0780791,0.22326985,-0.2642093,0.03684172,0.008212408,-0.056514014,-0.61291564,0.24899697,-9.595961,0.9164598,47.667187,-1.1226559,-2.0784807,-3.7036033,-0.3073502,0.11340633,-0.20369747,25.5625,26.1875,25.4375,28.0625,28.8125,29.125
0.25205398,-2.4265993,-1.6822592,-1.4865526,-0.033973638,0.0551263,-0.10863486,-0.39592576,-0.35081318,0.059898768,3.0768733,-0.6288691,0.00044090516,-0.12009683,-0.017997965,-0.001448598,-0.009742906,0.0015950764,-0.023836002,0.4676074,-1.3981532,1.9248694,-2.0965116,-1.5696152,2.445279,-0.07985135,0.22525541,-0.26761428,0.036573768,0.0075087086,-0.055872973,-0.59376204,0.22984336,-9.615114,0.84708,47.679718,-1.1662443,-2.123779,-3.5389757,-0.30879945,0.12703088,-0.2274391,25.5625,26.1875,25.4375,28.0625,28.8125,29.125
0.2540534,-2.0160406,-0.86311865,-1.4656925,-0.04622348,0.06188301,-0.118190825,-0.39616552,-0.3508839,0.05991827,3.0767846,-0.62889045,0.00040241663,-0.12239091,-0.019270012,-0.0010873781,-0.011905518,0.0042112353,-0.02676716,0.46748734,-1.3977202,1.9243068,-2.0964525,-1.5695666,2.4451838,-0.08007328,0.22848539,-0.27174494,0.03416247,0.008248876,-0.05316143,-0.45968673,0.24899697,-9.576807,0.92093146,47.68062,-1.0680414,-2.188881,-3.716099,-0.2861352,0.10745236,-0.25683978,25.5625,26.1875,25.4375,28.0625,28.8125,29.125
0.25605345,-1.6982927,-1.0045224,-1.581621,-0.03386197,0.06398321,-0.11989796,-0.39644328,-0.35090598,0.059901703,3.0767758,-0.6289854,0.00036531023,-0.12513791,-0.020476017,3.328506e-05,-0.015085085,0.008116109,-0.029504793,0.467295,-1.3972032,1.9237307,-2.0964053,-1.5695904,2.4450521,-0.08099675,0.23043469,-0.2761134,0.031657692,0.009314547,-0.051345814,-0.51714754,0.2873042,-9.557653,0.86945957,47.66271,-1.1000397,-2.18741,-3.58441,-0.24671756,0.104801744,-0.3007159,25.5625,26.1875,25.4375,28.0625,28.8125,29.125
0.25805348,-1.4941823,-1.0252159,-1.4691254,-0.031895414,0.064758725,-0.123058476,-0.39663175,-0.35094246,0.05987736,3.076757,-0.6290413,0.00047465414,-0.12790775,-0.018849531,1.31635525e-05,-0.015135996,0.008715956,-0.033619795,0.4671612,-1.3967822,1.9232758,-2.0963213,-1.5695423,2.4449558,-0.08607014,0.23240529,-0.2784074,0.031428326,0.0090840645,-0.05230331,-0.59376204,0.30645782,-9.500193,0.88289046,47.670765,-0.94893956,-2.1572587,-3.5368195,-0.23176703,0.12686165,-0.30729792,25.5625,26.1875,25.4375,28.0625,28.8125,29.125
0.26005358,-1.8766475,-1.4159333,-1.5409149,-0.02679918,0.056167345,-0.112472534,-0.39691114,-0.35096523,0.05985965,3.076708,-0.6292003,0.00047562073,-0.12889816,-0.021046493,0.0014539738,-0.017170135,0.012055858,-0.027931629,0.46694627,-1.396265,1.9227017,-2.0962737,-1.5695304,2.4448466,-0.08322775,0.23321122,-0.28263718,0.030958964,0.009391678,-0.055147517,-0.5363012,0.24899697,-9.672575,0.900793,47.668976,-0.9176362,-2.1118634,-3.4510293,-0.21131372,0.12895611,-0.30062968,25.5625,26.1875,25.4375,28.0625,28.8125,29.125
0.26205376,-1.9542923,-1.6382166,-1.667313,-0.03893109,0.064616546,-0.11128877,-0.39715683,-0.35102728,0.05987103,3.0766687,-0.6292137,0.00040720796,-0.12944898,-0.01988929,2.3330667e-05,-0.016199773,0.009069453,-0.031304106,0.4668372,-1.3958077,1.9221281,-2.0962136,-1.5695304,2.4447513,-0.085968256,0.23591721,-0.2827533,0.03147131,0.009874856,-0.05451529,-0.57460845,0.36391866,-9.710882,0.8940802,47.709274,-0.96443635,-2.0992107,-3.5954344,-0.196493,0.12573016,-0.29043975,25.5625,26.1875,25.4375,28.0625,28.8125,29.125
0.26405394,-2.0617197,-2.0753791,-1.4615045,-0.05547909,0.07173512,-0.11801764,-0.3974516,-0.35106793,0.059894834,3.07658,-0.6293315,0.00034585374,-0.13046683,-0.018624263,0.0009783964,-0.01571348,0.00983834,-0.03545782,0.4666323,-1.3953277,1.9214939,-2.0961292,-1.569506,2.4446316,-0.088482596,0.23443118,-0.2837579,0.033498477,0.009103006,-0.052874923,-0.59376204,0.4213795,-9.615114,0.90750587,47.670765,-0.8052954,-2.0068302,-3.645846,-0.18476975,0.12233519,-0.33040377,25.5625,26.1875,25.4375,28.0625,28.8125,29.125
0.26605394,-1.8316253,-2.0517406,-1.5475606,-0.05642955,0.08184768,-0.11968478,-0.39770487,-0.35107866,0.059884172,3.0765402,-0.62953424,0.00034976137,-0.13142584,-0.018007847,0.0015358103,-0.015578423,0.010975262,-0.035757728,0.46642792,-1.3948717,1.9209689,-2.0960572,-1.5695065,2.444559,-0.0899152,0.2340003,-0.2847274,0.03394972,0.0084737735,-0.054007076,-0.47884035,0.30645782,-9.615114,0.8537928,47.67614,-0.74317706,-1.8761129,-3.7907302,-0.17572069,0.13481121,-0.33524847,25.5625,26.1875,25.4375,28.0625,28.8125,29.125
0.26805407,-2.107069,-1.9424801,-1.5684705,-0.04204401,0.07064861,-0.10420873,-0.3979477,-0.3511122,0.05986195,3.0765548,-0.6294984,0.00036736394,-0.13233316,-0.018493978,0.002110274,-0.017427173,0.012066873,-0.035702813,0.46627185,-1.3943791,1.9204301,-2.0959976,-1.569506,2.444379,-0.09052524,0.2342634,-0.2863495,0.033500526,0.00963211,-0.054672576,-0.47884035,0.21068975,-9.710882,0.88289046,47.683304,-0.72740424,-1.8025808,-3.669849,-0.16514324,0.13873021,-0.3456626,25.5625,26.1875,25.4375,28.0625,28.8125,29.125
0.27005452,-1.8290209,-1.418459,-1.6476986,-0.024086038,0.063863166,-0.11609714,-0.39826128,-0.35116646,0.059892863,3.0764136,-0.6296803,0.00025840785,-0.13463627,-0.019028109,0.0022117544,-0.018038698,0.013901566,-0.036574252,0.4660675,-1.3938859,1.919772,-2.0959504,-1.5694703,2.4443066,-0.09134826,0.23775369,-0.29047915,0.032231122,0.00935213,-0.05462058,-0.40222588,0.21068975,-9.595961,0.95002913,47.684196,-0.6817534,-1.8227795,-3.6962597,-0.12984224,0.148797,-0.3684589,25.5625,26.1875,25.4375,28.0625,28.8125,29.125
0.2720534,-0.70612574,0.05774269,-1.6299821,-0.009224576,0.066631675,-0.11985875,-0.3985244,-0.3512207,0.05988797,3.0763338,-0.6297404,0.00025157555,-0.13559726,-0.019737732,0.0022228633,-0.018155633,0.013845574,-0.035938334,0.46589977,-1.3933923,1.9191974,-2.0959136,-1.5694221,2.444187,-0.090960264,0.24037828,-0.29385617,0.03298522,0.009482148,-0.054866668,-0.19153613,0.22984336,-9.519346,0.95226496,47.677036,-0.7445116,-1.8810357,-3.611874,-0.09865996,0.1510635,-0.38292855,25.5625,26.1875,25.4375,28.0625,28.8125,29.125
0.27405375,-0.7694708,-0.0022273636,-1.7376583,0.008754632,0.04798552,-0.121063836,-0.3988026,-0.35125822,0.05990792,3.076265,-0.6298594,0.00016913968,-0.13540685,-0.020695642,0.0011604434,-0.01809503,0.011012568,-0.03385673,0.4657201,-1.3929342,1.9185995,-2.0958416,-1.5694216,2.4440906,-0.089817435,0.24407153,-0.29611596,0.034108832,0.010706057,-0.055804394,-0.21068975,0.19153614,-9.5385,0.9254084,47.67614,-0.73876345,-2.002238,-3.5541863,-0.07809542,0.1371896,-0.39030755,25.5625,26.1875,25.4375,28.0625,28.8125,29.125
0.27605358,-0.63600653,-0.22211553,-1.6212666,0.008101665,0.037220694,-0.120950766,-0.39909318,-0.35128263,0.05989941,3.0762315,-0.6299674,0.000117955504,-0.13799699,-0.0197933,0.00059496774,-0.016460665,0.010657143,-0.034918047,0.46551502,-1.3924162,1.9180015,-2.095794,-1.569434,2.4439576,-0.092741445,0.24864665,-0.3005045,0.034982234,0.009404685,-0.057663765,-0.15322891,0.15322891,-9.615114,0.8806493,47.635834,-0.6929511,-2.1652904,-3.5745182,-0.07262648,0.14025117,-0.389135,25.5625,26.1875,25.4375,28.0625,28.8125,29.125
0.2780537,-1.362535,-1.1539344,-1.5425463,-0.0078499215,0.015271957,-0.10762019,-0.39937264,-0.35133877,0.059922438,3.076169,-0.6300095,4.4519787e-05,-0.13884942,-0.021146795,0.0016968497,-0.016021227,0.0126383435,-0.030571362,0.46536,-1.3919353,1.9173664,-2.095709,-1.5694226,2.4438372,-0.09025154,0.2500275,-0.30512163,0.03665444,0.008125076,-0.05951752,-0.038307227,0.17238252,-9.576807,0.92764956,47.666286,-0.8343164,-2.1805818,-3.374098,-0.05711087,0.16406499,-0.37576687,25.5625,26.1875,25.4375,28.0625,28.8125,29.125
0.28005385,-0.9562223,-1.5494642,-1.6433198,-0.030150961,0.025945373,-0.10872753,-0.39963785,-0.3513593,0.05991734,3.0761425,-0.6300982,6.0781316e-05,-0.140027,-0.02041715,0.0019690343,-0.015342046,0.012486321,-0.030134765,0.46515548,-1.3914537,1.9167918,-2.0956128,-1.5694107,2.4436917,-0.09211972,0.25094694,-0.30732596,0.03838727,0.0075911754,-0.061821457,-0.076614454,0.19153613,-9.423578,0.9254084,47.685097,-0.8658874,-2.3335774,-3.3594174,-0.035247345,0.1808187,-0.36697906,25.5625,26.1875,25.4375,28.0625,28.8125,29.125
0.28205386,-0.62451965,-1.8977045,-1.8665727,-0.01985832,0.014053998,-0.117534384,-0.39992875,-0.35140434,0.059937876,3.0760741,-0.63015944,1.4414221e-05,-0.13917328,-0.020689284,0.0015031798,-0.014863553,0.010131059,-0.026537286,0.4649637,-1.3909619,1.9161466,-2.0955164,-1.5693868,2.4435472,-0.09121072,0.2517316,-0.30774322,0.040343862,0.008232813,-0.06451004,0.11492168,0.2681506,-9.5385,0.95226496,47.699425,-0.6851678,-2.2379913,-3.3815358,-0.038575668,0.18945262,-0.35894918,25.5625,26.1875,25.4375,28.0625,28.8125,29.125
0.284054,-1.0192508,-2.4285684,-1.6544645,-0.042286314,0.001037944,-0.11032667,-0.40021822,-0.3514467,0.059950907,3.07601,-0.63025844,-6.825426e-05,-0.13883536,-0.020347107,0.0007031265,-0.013905461,0.007456439,-0.023833234,0.4647837,-1.3904688,1.9155248,-2.0954554,-1.5693868,2.4434376,-0.09164139,0.2532318,-0.3082018,0.042126976,0.008588835,-0.067644425,0.076614454,0.36391866,-9.615114,0.9567419,47.685097,-0.8742018,-2.0668855,-3.5879247,-0.029961612,0.19866651,-0.30203813,25.5625,26.1875,25.4375,28.0625,28.8125,29.125
0.28605404,-0.8909495,-2.4110909,-1.3093265,-0.065059006,0.0028388286,-0.1078623,-0.40049145,-0.35149622,0.059949283,3.0759776,-0.6302516,-7.019638e-05,-0.13960016,-0.019832473,0.0010979712,-0.013528627,0.007977394,-0.02203512,0.46461517,-1.3899518,1.914903,-2.095372,-1.5693625,2.4432693,-0.09275834,0.2531975,-0.3093965,0.04306827,0.008024828,-0.07055902,0.05746084,0.38307226,-9.500193,0.91421866,47.707485,-0.77794313,-1.9576966,-3.611145,-0.05471215,0.20859408,-0.26181474,25.5625,26.1875,25.4375,28.0625,28.8125,29.125
0.28805402,-0.4354288,-1.6705631,-1.3490365,-0.055516604,0.012016552,-0.11723885,-0.4007873,-0.3515363,0.05996059,3.0759053,-0.6303298,-0.00011733972,-0.14057532,-0.020394696,0.0019810782,-0.015010928,0.009260931,-0.019049462,0.46441108,-1.3894478,1.9142693,-2.0953,-1.5693387,2.4431236,-0.093012854,0.25338957,-0.31185254,0.0435258,0.008781373,-0.07379825,0.11492168,0.40222588,-9.385271,0.87393653,47.668976,-0.78898,-1.9378502,-3.581466,-0.019718029,0.20516117,-0.24301705,25.5625,26.1875,25.4375,28.0625,28.8125,29.125
0.2900543,-0.31760868,-1.2175773,-1.1871701,-0.03338558,0.008284967,-0.11289441,-0.40107453,-0.35156342,0.059954867,3.0758686,-0.63043576,-0.00014258423,-0.14218874,-0.021023234,0.0027043344,-0.01655976,0.010591445,-0.017101562,0.4642069,-1.3889308,1.913659,-2.095228,-1.5693382,2.4429905,-0.09373176,0.25490043,-0.315438,0.043719944,0.009570957,-0.07646366,0.19153613,0.3256114,-9.346964,0.92093146,47.66987,-0.8021865,-1.8023634,-3.6327026,-0.021603368,0.218664,-0.16201197,25.5625,26.1875,25.4375,28.0625,28.8125,29.125
0.29205418,-0.009407845,-0.64278233,-1.2025793,-0.011032167,0.0031929028,-0.11509941,-0.40137756,-0.35160547,0.059966244,3.0758145,-0.63048154,-0.0002277798,-0.14358771,-0.022359846,0.0042136894,-0.01875407,0.013254724,-0.016562926,0.4640153,-1.3884144,1.9130129,-2.0951679,-1.5693382,2.4428349,-0.09302437,0.255261,-0.31949025,0.044046856,0.010341538,-0.07629299,0.17238252,0.2681506,-9.32781,0.784413,47.667187,-0.82091177,-1.7225186,-3.545579,0.014705969,0.21398126,-0.15437448,25.5625,26.1875,25.4375,28.0625,28.8125,29.125
0.2940541,0.14517336,-0.47685862,-1.1029396,0.000975352,0.00043349044,-0.11857648,-0.4016402,-0.35163996,0.059957333,3.075788,-0.6305129,-0.0001724829,-0.14427242,-0.023122393,0.0041366494,-0.019436004,0.011570514,-0.014422015,0.4638233,-1.3879089,1.9124144,-2.0950592,-1.569302,2.442666,-0.09306905,0.2580785,-0.32322913,0.046172384,0.011706988,-0.0784776,0.11492168,0.2873042,-9.270349,0.8627467,47.64837,-0.89225614,-1.7179132,-3.4514377,0.01446504,0.20319186,-0.11449628,25.5625,26.1875,25.4375,28.0625,28.8125,29.125
0.29605332,-0.19943932,-0.3076826,-1.3674858,-0.003202996,-0.0037772113,-0.11562672,-0.40194252,-0.35170642,0.059970245,3.0757382,-0.630465,-0.0002551885,-0.14348423,-0.022517638,0.0015643394,-0.0158038,0.0047886944,-0.016652923,0.4636671,-1.3873664,1.9117335,-2.0949981,-1.5692896,2.4424868,-0.0932122,0.26354426,-0.32479572,0.049964234,0.011502981,-0.07638816,0.095768064,0.40222588,-9.32781,0.82694155,47.664497,-0.8812417,-1.8589609,-3.4271755,-0.01874229,0.21325913,-0.08691686,25.5625,26.1875,25.4375,28.0625,28.8125,29.125
0.29805395,-0.42437616,-1.1071326,-1.4315643,-0.018604128,0.014063392,-0.11368756,-0.40220755,-0.3517553,0.05998104,3.0756745,-0.6305679,-0.00015312267,-0.1437766,-0.023375524,0.0017522022,-0.015484112,0.0047783325,-0.01769601,0.46347573,-1.3868613,1.911074,-2.0948184,-1.5692176,2.442368,-0.09171242,0.26520565,-0.32759416,0.051258653,0.011215457,-0.073844545,0.076614454,0.3256114,-9.3661175,0.93436235,47.661808,-1.0077972,-2.0077333,-3.4299068,-0.0101379305,0.2285532,-0.10391923,25.5625,26.1875,25.4375,28.0625,28.8125,29.125
0.30005363,-1.218441,-2.2545636,-1.3655549,-0.041535705,0.02563655,-0.108727284,-0.40248343,-0.35179886,0.059982374,3.0756748,-0.6305507,-0.000187735,-0.14424908,-0.021624466,0.0013475529,-0.013490421,0.0011236497,-0.02283506,0.46331856,-1.3863444,1.9104408,-2.094721,-1.5692295,2.4422004,-0.094971225,0.26635152,-0.3292013,0.05587917,0.011073224,-0.07196405,-0.076614454,0.3256114,-9.308656,0.9164598,47.664497,-0.9333539,-1.9695377,-3.5078712,-0.057809945,0.21833196,-0.0949197,25.5625,26.1875,25.4375,28.0625,28.8125,29.125
0.30205363,-1.4992514,-2.6208122,-1.1336663,-0.05089882,0.032579307,-0.109032705,-0.40279043,-0.3518586,0.059999805,3.0756147,-0.63061327,-0.00021700784,-0.14268078,-0.022740576,0.0016290167,-0.011770533,-0.0014729621,-0.0216479,0.46314004,-1.385792,1.9097232,-2.094599,-1.5692056,2.442069,-0.09135546,0.2668527,-0.33173326,0.061003007,0.010702022,-0.0695347,-0.17238252,0.45968673,-9.289503,0.85826975,47.677036,-1.1732616,-1.9657931,-3.474278,-0.120699205,0.23127207,-0.100761995,25.5625,26.1875,25.4375,28.0625,28.8125,29.125
0.3040537,-1.0726203,-2.1848645,-1.2325875,-0.050873343,0.043921582,-0.10738102,-0.40308452,-0.35189852,0.060025558,3.0755472,-0.63075656,-0.00025871734,-0.14282389,-0.020316133,-6.9493995e-05,-0.009595894,-0.007338466,-0.028819153,0.46294627,-1.3852988,1.9090537,-2.0944664,-1.5691937,2.4419737,-0.09599344,0.26911974,-0.33150753,0.06472631,0.011385132,-0.06700146,-0.15322891,0.45968673,-9.308656,0.91198283,47.68599,-0.98311317,-1.8230996,-3.5840497,-0.18360841,0.23278463,-0.14015712,25.5625,26.1875,25.4375,28.0625,28.8125,29.125
0.30605388,-0.7350382,-1.4060311,-1.3034513,-0.03780478,0.031529304,-0.110220894,-0.40337065,-0.35196036,0.060017455,3.0754795,-0.63081944,-0.00021090808,-0.14280792,-0.021527883,-0.00043302792,-0.009928,-0.0065379324,-0.028812326,0.46276715,-1.3847334,1.9083847,-2.094372,-1.5691336,2.4418428,-0.093752936,0.27083337,-0.33247507,0.06311861,0.01131607,-0.06476715,-0.05746084,0.53630114,-9.404425,1.0104496,47.685097,-1.0524205,-1.7980556,-3.5679312,-0.19456571,0.23840183,-0.15721756,25.5625,26.1875,25.4375,28.0625,28.8125,29.125
0.3080539,-0.94671535,-1.3595997,-1.0391164,-0.031862598,0.018539941,-0.109915055,-0.40366662,-0.3520071,0.060045667,3.0754502,-0.63079494,-0.00030621342,-0.14434972,-0.021564659,-0.00032286043,-0.01005463,-0.006918831,-0.032384288,0.46259874,-1.3842399,1.9077142,-2.0942633,-1.5691456,2.4416633,-0.09510707,0.27345946,-0.33627388,0.064572506,0.011595365,-0.06254701,-0.019153614,0.2681506,-9.270349,1.0104496,47.674347,-1.1181408,-1.8601888,-3.690923,-0.22007644,0.24486317,-0.18406557,25.5625,26.1875,25.4375,28.0625,28.8125,29.125
0.31005415,-0.14148071,-0.92141366,-0.98112,-0.01868632,0.020616869,-0.11633899,-0.403968,-0.3520503,0.060029633,3.0753787,-0.6309931,-0.00024140843,-0.14636463,-0.02188692,0.00046923824,-0.011355871,-0.0048098373,-0.03496114,0.46238217,-1.3836509,1.9070319,-2.094156,-1.5690974,2.4415798,-0.096320465,0.27487272,-0.33981392,0.06423403,0.011807368,-0.061182342,-0.11492168,0.24899697,-9.212888,0.947788,47.661808,-0.9905504,-1.8450785,-3.569968,-0.23880008,0.2525562,-0.23234446,25.5625,26.1875,25.4375,28.0625,28.8125,29.125
0.31205344,0.24760382,-0.0865699,-1.2701706,-0.004509137,0.014811883,-0.11520208,-0.4042251,-0.35207623,0.060000163,3.0753868,-0.63113034,-0.00010888025,-0.14844583,-0.02222997,0.0014973517,-0.012537854,-0.0024110836,-0.037058823,0.4621898,-1.3830975,1.9064106,-2.0939996,-1.569074,2.4414723,-0.097418144,0.27605549,-0.34369528,0.064260826,0.011780599,-0.06018192,-0.11492168,0.28730422,-9.212888,0.8806493,47.668976,-1.0150187,-1.8649323,-3.46877,-0.2587154,0.25112945,-0.25383392,25.5625,26.1875,25.4375,28.0625,28.8125,29.125
0.31405386,-0.92222404,-0.47713673,-1.2315253,-0.005003118,0.009023295,-0.11182171,-0.40454397,-0.3521365,0.060024768,3.0753405,-0.6311577,-0.00015326771,-0.14968772,-0.023128683,0.0021540772,-0.014126637,-0.0013350161,-0.037185226,0.46200997,-1.3825333,1.9056562,-2.093856,-1.5690612,2.441316,-0.09742597,0.27751622,-0.34711963,0.064552404,0.012719548,-0.060061585,-0.095768064,0.15322891,-9.251195,0.8985519,47.647476,-1.0199296,-1.9096159,-3.4702668,-0.27529627,0.25146735,-0.26836857,25.5625,26.1875,25.4375,28.0625,28.8125,29.125
0.316054,-1.374053,-1.2420146,-1.1469667,-0.0031881894,0.02443779,-0.11478778,-0.40483814,-0.35219666,0.060027983,3.0752716,-0.63127893,-0.00011568266,-0.15015623,-0.022918127,0.001017952,-0.013375038,-0.0030933726,-0.038817078,0.46182978,-1.3819679,1.9049515,-2.0937245,-1.5690135,2.4412205,-0.09816145,0.2804876,-0.3481928,0.064566664,0.012827899,-0.059164565,-0.17238253,0.21068975,-9.251195,0.87393653,47.679718,-1.006024,-1.749312,-3.520186,-0.2990372,0.25141132,-0.2866132,25.5625,26.1875,25.4375,28.0625,28.8125,29.125
0.3180542,-1.9439685,-1.5955802,-0.9048062,-0.03178972,0.05544249,-0.11009384,-0.40512112,-0.35224,0.060011167,3.075265,-0.6313525,-4.542102e-06,-0.1515896,-0.023300812,0.0029094194,-0.015118658,0.0009880115,-0.03759138,0.46163756,-1.3813795,1.9042567,-2.0935571,-1.5689772,2.4410753,-0.098471664,0.27860442,-0.3503298,0.0641644,0.0125644775,-0.06070098,-0.49799395,0.24899697,-9.289502,0.83589023,47.67793,-1.0647451,-1.7434607,-3.404634,-0.3178961,0.25677016,-0.30458137,25.5625,26.1875,25.4375,28.0625,28.8125,29.125
0.32005414,-2.54527,-1.6620615,-0.8671941,-0.037148103,0.07528986,-0.108588345,-0.40544683,-0.3522856,0.060034446,3.0751698,-0.6315083,-6.515366e-05,-0.15358664,-0.02248226,0.0020255286,-0.015198429,0.00068281096,-0.04182433,0.46142045,-1.3808379,1.9035395,-2.0934498,-1.5689534,2.440968,-0.10161143,0.28197885,-0.35214514,0.06284478,0.012768912,-0.059605874,-0.47884035,0.21068975,-9.212888,0.8985519,47.678825,-0.8625853,-1.6429813,-3.5321608,-0.3073067,0.24884672,-0.33100772,25.5625,26.1875,25.4375,28.0625,28.8125,29.125
0.3220536,-1.9643959,-0.82440394,-0.95424247,-0.02653475,0.09247183,-0.1230419,-0.40574667,-0.352322,0.06001935,3.0751538,-0.63161945,-1.7694187e-05,-0.15377614,-0.023578322,0.0006317463,-0.015221815,1.9506062e-05,-0.041591246,0.46121708,-1.3802481,1.9028467,-2.0933187,-1.568941,2.4408364,-0.09997597,0.28590995,-0.35327488,0.060626924,0.013075184,-0.05820294,-0.4405331,0.19153613,-9.232041,0.9545008,47.67614,-1.034201,-1.7836609,-3.591379,-0.31270927,0.2581324,-0.3757749,25.5625,26.1875,25.4375,28.0625,28.8125,29.125
0.32405382,-2.405217,-0.8640799,-0.9034925,-0.02308742,0.0859108,-0.11797128,-0.40607184,-0.35237396,0.06003521,3.075069,-0.6317574,-6.402163e-05,-0.15676123,-0.023017162,0.0002038564,-0.017012838,0.001376516,-0.045703787,0.4610115,-1.3796824,1.9021176,-2.0932124,-1.5689167,2.4407282,-0.104009025,0.28931537,-0.35582507,0.057760086,0.014067822,-0.05812122,-0.7086837,0.24899697,-9.232041,0.9567419,47.699425,-0.7924646,-1.864244,-3.6825335,-0.2785621,0.23830509,-0.42018026,25.5625,26.1875,25.4375,28.0625,28.8125,29.125
0.32605416,-2.1759818,-0.9970714,-1.0517924,-0.00881598,0.08580616,-0.105272666,-0.40636352,-0.3524191,0.060013037,3.075009,-0.6319336,1.3813382e-05,-0.15763864,-0.024723269,5.04783e-05,-0.01780396,0.00389335,-0.040419977,0.46080866,-1.3790929,1.9014462,-2.0931056,-1.568869,2.4406433,-0.101463914,0.2920486,-0.35819846,0.0548065,0.013649305,-0.060858954,-0.6895301,0.19153613,-9.155427,0.96569055,47.682407,-0.9971689,-1.8929157,-3.5066485,-0.253505,0.24842098,-0.43296295,25.5625,26.1875,25.4375,28.0625,28.8125,29.125
0.3280536,-2.2264223,-0.96674424,-1.117164,-0.0066880956,0.070422806,-0.102363475,-0.4066685,-0.35248837,0.060022965,3.0749238,-0.63197494,1.8559698e-05,-0.1593298,-0.024905337,-0.00011905821,-0.018775808,0.0055951406,-0.042877134,0.46062827,-1.3785274,1.90073,-2.0929987,-1.5688089,2.4405,-0.102561496,0.29422522,-0.36001483,0.052493144,0.013756659,-0.059497856,-0.51714754,0.24899697,-9.270349,0.9567419,47.677036,-0.9497025,-1.9842217,-3.6897297,-0.21345747,0.2437901,-0.4624285,25.5625,26.1875,25.4375,28.0625,28.8125,29.125
0.33005404,-2.6365674,-1.7538648,-1.0735749,-0.0055543426,0.056959722,-0.09945895,-0.40705118,-0.35250372,0.06004648,3.0748713,-0.6322121,-0.00014005268,-0.16089986,-0.024998851,0.00060756225,-0.01919836,0.008994976,-0.040912226,0.46036407,-1.3779268,1.8999408,-2.0928915,-1.5688695,2.440391,-0.10290414,0.29447284,-0.36171988,0.05072559,0.012628754,-0.0618039,-0.63206923,0.36391866,-9.193734,0.8940802,47.67166,-1.0029567,-1.8643507,-3.5912733,-0.18406814,0.2560078,-0.4607951,25.5625,26.1875,25.4375,28.0625,28.8125,29.125
0.33205408,-1.4203606,-0.9820611,-0.8639571,-0.04024126,0.07640105,-0.12606381,-0.40732738,-0.35256302,0.059995502,3.0748339,-0.63229734,7.980672e-06,-0.16306128,-0.025803406,0.0015604364,-0.020767406,0.011758425,-0.03814293,0.46018398,-1.37729,1.8992833,-2.0928085,-1.568797,2.4402692,-0.10337802,0.29623246,-0.36600214,0.050087918,0.012800287,-0.06504624,-0.63206923,0.3256114,-9.174581,0.900793,47.69763,-0.9459977,-1.8100896,-3.652918,-0.15594824,0.2529422,-0.4685383,25.5625,26.1875,25.4375,28.0625,28.8125,29.125
0.3340533,-2.1319144,-1.8915157,-0.966566,-0.03043192,0.049208228,-0.10409668,-0.40768683,-0.35262516,0.06002346,3.0747406,-0.6322953,-0.00011259975,-0.1643256,-0.025939478,0.0019822833,-0.02101575,0.01364572,-0.034803953,0.459968,-1.376701,1.8985051,-2.092736,-1.5687732,2.4400644,-0.10372198,0.29712808,-0.36803195,0.04943459,0.012196704,-0.06872719,-0.45968673,0.30645782,-9.251195,0.8851263,47.672558,-1.0511826,-1.8334131,-3.5392106,-0.11858006,0.2575456,-0.4544361,25.5625,26.1875,25.4375,28.0625,28.8125,29.125
0.3360534,-1.6279798,-1.5044011,-1.0018189,-0.053007297,0.057051145,-0.11848292,-0.4079743,-0.3526449,0.059975773,3.0747926,-0.63242006,1.2409861e-05,-0.16592997,-0.025554866,0.002881462,-0.021900475,0.015028242,-0.033166654,0.4597633,-1.3760645,1.8978232,-2.0925806,-1.5687851,2.4399312,-0.105751395,0.29718208,-0.3704976,0.050222985,0.01237476,-0.072394766,-0.51714754,0.34476507,-9.270349,0.82694155,47.63404,-0.8709287,-1.7114071,-3.5252323,-0.11484248,0.28107655,-0.416085,25.5625,26.1875,25.4375,28.0625,28.8125,29.125
0.33805373,-1.4849257,-1.7427715,-1.0846483,-0.04317918,0.05218708,-0.11232059,-0.40834504,-0.35269365,0.0599999,3.0746717,-0.63256603,-0.00013302336,-0.16767682,-0.0254259,0.003167189,-0.02231555,0.015828019,-0.030593796,0.45952266,-1.3754753,1.8970584,-2.0925324,-1.5687732,2.4397976,-0.107344545,0.29908383,-0.37364197,0.05057672,0.012407472,-0.07655812,-0.4213795,0.34476504,-9.308657,0.92093146,47.647476,-0.86701906,-1.6320369,-3.5639193,-0.09070699,0.29037338,-0.37790638,25.5625,26.1875,25.4375,28.0625,28.8125,29.125
0.3400539,-1.5590037,-1.5513172,-0.99885845,-0.034307443,0.040610425,-0.10967666,-0.408681,-0.3527523,0.05999022,3.0746078,-0.6326652,-9.408416e-05,-0.16727097,-0.025299352,0.0015942355,-0.020058604,0.011710466,-0.026256505,0.45930675,-1.3748251,1.8962811,-2.0924118,-1.5687255,2.4396522,-0.10697647,0.302898,-0.37537557,0.05320266,0.012224225,-0.08052672,-0.22984336,0.30645782,-9.289503,0.8784135,47.64837,-0.79355276,-1.7866302,-3.6448445,-0.07133441,0.29529548,-0.32809728,25.5625,26.1875,25.4375,28.0625,28.8125,29.125
0.34205395,-1.2273808,-1.2964971,-1.2264802,-0.013471114,0.033747964,-0.109002754,-0.40901554,-0.3528011,0.059985906,3.0745459,-0.63268983,-0.00014054765,-0.16952369,-0.024797216,0.0013088753,-0.021104809,0.011927306,-0.026006937,0.45908967,-1.3742235,1.895563,-2.0923526,-1.5687007,2.4394588,-0.11015346,0.30579537,-0.37816334,0.052443705,0.0130726425,-0.083951205,-0.28730422,0.2681506,-9.193734,0.9925471,47.67614,-0.66005266,-1.7728324,-3.5834212,-0.067268744,0.28027487,-0.28978348,25.5625,26.1875,25.4375,28.0625,28.8125,29.125
0.344054,-1.263348,-0.97244745,-1.2447267,-0.0047118682,0.031056192,-0.10721666,-0.40935224,-0.35285166,0.05998118,3.0745153,-0.63271815,-0.00012671937,-0.16836607,-0.025796862,0.00020974014,-0.020386543,0.0103902975,-0.020703236,0.45887482,-1.3735864,1.8947867,-2.092221,-1.5686773,2.439266,-0.107360035,0.3076309,-0.37795058,0.05210153,0.013118208,-0.0864616,-0.13407528,0.24899697,-9.270349,0.9612189,47.690468,-0.88539624,-1.9599432,-3.6194777,-0.009137355,0.27882466,-0.23153654,25.5625,26.1875,25.4375,28.0625,28.8125,29.125
0.3460537,-1.635892,-1.1440693,-1.3591977,0.0021972694,0.018398697,-0.10537036,-0.40971544,-0.35291857,0.05999598,3.0744236,-0.63277584,-0.00018905291,-0.17113045,-0.025493639,0.00065991544,-0.021216081,0.010655376,-0.022383573,0.4586577,-1.3729484,1.8939728,-2.0921242,-1.5686411,2.4390972,-0.11048491,0.31083935,-0.3833223,0.05366673,0.013749848,-0.08790292,-0.038307227,0.19153613,-9.289502,0.97240865,47.661808,-0.70067,-1.9924439,-3.77309,-0.0062921373,0.27140194,-0.20157936,25.5625,26.1875,25.4375,28.0625,28.8125,29.125
0.34805402,-1.2684509,-0.8396293,-1.0537076,-0.012198148,0.018031549,-0.10752854,-0.41006306,-0.35294253,0.059985798,3.0744023,-0.63290554,-0.0002374625,-0.17055683,-0.025709866,0.0003520481,-0.01917353,0.008215259,-0.020675307,0.4584182,-1.3723238,1.8932308,-2.0920274,-1.5686654,2.4389417,-0.10903511,0.31248653,-0.38561603,0.05741003,0.0130084455,-0.08816096,-0.1340753,0.19153613,-9.155427,0.9612189,47.705692,-0.84487534,-2.043233,-3.6332045,0.013182881,0.30235028,-0.18763761,25.5625,26.1875,25.4375,28.0625,28.8125,29.125
0.35005423,-0.9329413,-1.0855665,-1.1257056,-0.012480085,0.017404117,-0.11010552,-0.41039258,-0.3529792,0.059969068,3.0743523,-0.6330862,-0.00016665674,-0.17210303,-0.02658103,0.00050984,-0.020068163,0.008775856,-0.020344451,0.45817828,-1.3716859,1.8924769,-2.0918834,-1.5686287,2.4388213,-0.109065056,0.31555033,-0.38987362,0.057710666,0.013556088,-0.08852031,-0.038307227,0.21068975,-9.11712,0.9835985,47.68062,-0.79006314,-2.0624917,-3.498581,0.006402437,0.30836082,-0.12370062,25.5625,26.1875,25.4375,28.0625,28.8125,29.125
0.35205367,-0.6270289,-1.0055234,-1.0346782,-0.01967449,0.020039279,-0.110135734,-0.41072923,-0.3530555,0.059972085,3.074289,-0.63301826,-0.00016408082,-0.17376697,-0.026990123,0.0013167247,-0.020686204,0.011102988,-0.025370335,0.45798612,-1.3710489,1.8916873,-2.0917757,-1.5685691,2.4385953,-0.10935211,0.31667677,-0.3931933,0.057543017,0.013072361,-0.08378003,-0.095768064,0.19153613,-9.212888,0.9097417,47.691364,-0.84921086,-2.0924368,-3.4869843,0.04201422,0.3053326,-0.16508216,25.5625,26.1875,25.4375,28.0625,28.8125,29.125
0.35405377,-0.55015403,-0.85479105,-1.3822058,-0.01507259,0.0027700886,-0.11063014,-0.41107005,-0.35309157,0.05995061,3.0742702,-0.63314825,-0.00014424474,-0.17408134,-0.027776906,0.0024673294,-0.021825163,0.01146234,-0.02590034,0.45775846,-1.370388,1.8909215,-2.0916555,-1.5685686,2.4384515,-0.1086751,0.3163007,-0.396112,0.06000956,0.013935441,-0.08257254,0.038307227,0.28730422,-9.32781,0.8940802,47.694054,-0.86885726,-2.1000767,-3.4491115,0.041797772,0.3060872,-0.17612253,25.5625,26.1875,25.4375,28.0625,28.8125,29.125
0.35605368,-0.861615,-1.1020141,-1.4253834,-0.022321973,-0.009949138,-0.10498176,-0.41141024,-0.3531467,0.059941493,3.0742333,-0.6332016,-0.00010172289,-0.17232731,-0.026669236,0.0007064029,-0.018727556,0.005784534,-0.032324754,0.4575424,-1.3697274,1.8901218,-2.0915105,-1.5685328,2.438274,-0.10878684,0.3176668,-0.39479455,0.063781515,0.013668709,-0.0762611,-0.019153614,0.36391866,-9.346964,0.8627467,47.696735,-0.8749683,-1.9181527,-3.563551,0.033779927,0.30978626,-0.21121222,25.5625,26.1875,25.4375,28.0625,28.8125,29.125
0.35805386,-0.8240409,-1.7480656,-1.5559709,-0.023363601,-0.002106401,-0.10543078,-0.41176513,-0.35318843,0.05994778,3.07418,-0.6333281,-0.000152644,-0.17262428,-0.025320264,-0.00057047105,-0.016908532,0.0016045151,-0.03822335,0.45731336,-1.3691013,1.8893336,-2.09139,-1.5685328,2.438131,-0.111337416,0.3203724,-0.39599866,0.0668289,0.013886773,-0.07291223,-0.1340753,0.28730422,-9.32781,0.9186956,47.658226,-0.82715523,-1.9066906,-3.7704358,0.0051064603,0.31890848,-0.2631823,25.5625,26.1875,25.4375,28.0625,28.8125,29.125
0.3600541,-0.53164214,-1.6113166,-1.6236445,-0.031742714,0.015524333,-0.10720996,-0.41208893,-0.35322222,0.059932373,3.074149,-0.6334923,-5.2149437e-05,-0.17109385,-0.026379472,-0.00047692162,-0.015456371,-0.0005445047,-0.036013126,0.457075,-1.3684647,1.8885678,-2.0912082,-1.5684966,2.4379995,-0.10789161,0.32075223,-0.3977513,0.07077573,0.013533488,-0.07167752,0.038307227,0.30645782,-9.461885,0.9365982,47.64837,-1.0476191,-2.0370913,-3.8524206,-0.019316835,0.33177412,-0.28708962,25.5625,26.1875,25.4375,28.0625,28.8125,29.125
0.36205417,-1.3247027,-1.763825,-1.8301094,-0.031076757,0.00073143846,-0.09555186,-0.41247556,-0.3532919,0.059957564,3.0740416,-0.63358784,-0.00013087245,-0.17302988,-0.024800088,-0.00074287696,-0.014341164,-0.0035569714,-0.040189724,0.45684534,-1.3678032,1.8876938,-2.0910876,-1.5684608,2.4378438,-0.11227872,0.32384777,-0.402034,0.07516353,0.01387073,-0.07188536,0.05746084,0.30645782,-9.481039,0.8851263,47.677036,-0.8840133,-1.9893856,-3.7864926,-0.08949999,0.33138105,-0.28540248,25.5625,26.1875,25.4375,28.0625,28.8125,29.125
0.36405364,-0.6551833,-1.6768817,-1.8324729,-0.04012776,0.02000468,-0.09938877,-0.41280442,-0.35332572,0.059937153,3.0740414,-0.6336628,-6.635995e-05,-0.1720568,-0.025351278,-0.002022964,-0.012324057,-0.009275179,-0.03878394,0.45661798,-1.3671536,1.8869284,-2.0909297,-1.5684484,2.4376636,-0.11083246,0.3279076,-0.4053805,0.080473475,0.01458414,-0.07184416,-0.019153614,0.51714754,-9.576807,0.9858343,47.694946,-0.9405487,-2.084613,-3.7170992,-0.11869896,0.33282766,-0.30573723,25.5625,26.1875,25.4375,28.0625,28.8125,29.125
0.36605376,-0.70757097,-1.3882269,-1.7698674,-0.048061587,0.01482189,-0.107290186,-0.41316515,-0.35339877,0.059949078,3.0739365,-0.6337952,-6.338185e-05,-0.17373803,-0.025804002,-0.0016731902,-0.013162338,-0.009272351,-0.040042657,0.4564015,-1.366492,1.8860782,-2.0907862,-1.5683883,2.4375436,-0.111799836,0.33062273,-0.40995523,0.08196535,0.015330796,-0.0715503,0.0,0.45968673,-9.519346,0.8560339,47.674347,-0.8732258,-2.1749601,-3.5456474,-0.1933748,0.3322176,-0.316531,25.5625,26.1875,25.4375,28.0625,28.8125,29.125
0.3680537,-0.47252584,-1.5218433,-1.9641793,-0.04777022,0.017890612,-0.11352089,-0.41350207,-0.3534269,0.059937313,3.0739565,-0.63393474,5.211501e-06,-0.17457612,-0.025147479,-0.002031154,-0.0124965925,-0.01022385,-0.041841865,0.45617312,-1.3658307,1.8852652,-2.0905702,-1.5684003,2.4374,-0.113374524,0.33222625,-0.41151324,0.08307034,0.015145765,-0.07132654,0.019153614,0.4405331,-9.595961,0.98807013,47.6636,-0.8239467,-2.3851695,-3.5781546,-0.1962308,0.34268683,-0.34910244,25.5625,26.1875,25.4375,28.0625,28.8125,29.125
0.37005416,-0.46438566,-1.8036383,-1.9560715,-0.040299006,0.02019978,-0.10900499,-0.41386262,-0.35346812,0.059951846,3.073909,-0.6340595,-4.8336974e-06,-0.17355599,-0.024296397,-0.002414483,-0.010828652,-0.014836519,-0.042750683,0.45593283,-1.3651942,1.8844298,-2.090389,-1.5683883,2.4372442,-0.11415757,0.33246914,-0.41237694,0.08856947,0.015690206,-0.071200795,-0.05746084,0.47884035,-9.595961,0.99031126,47.67166,-0.73203546,-2.1801262,-3.7413366,-0.29753438,0.32821727,-0.3464553,25.5625,26.1875,25.4375,28.0625,28.8125,29.125
