Tylouw/Master_Thesis_Code/training_data/batch_1/small_rod_t0.1/sample_25_session_1.csv
timestamp[s],tcp_force_x[N],tcp_force_y[N],tcp_force_z[N],tcp_force_rx[Nm?],tcp_force_ry[Nm?],tcp_force_rz[Nm?],tcp_pose_x[m],tcp_pose_y[m],tcp_pose_z[m],tcp_pose_rx[rot_vec_x],tcp_pose_ry[rot_vec_y],tcp_pose_rz[rot_vec_z],tcp_velo_x[m/s],tcp_velo_y[m/s],tcp_velo_z[m/s],tcp_velo_rx[rot_vec_x/s],tcp_velo_ry[rot_vec_y/s],tcp_velo_rz[rot_vec_z/s],q1[rad],q2[rad],q3[rad],q4[rad],q5[rad],q6[rad],qd1[rad/s],qd2[rad/s],qd3[rad/s],qd4[rad/s],qd5[rad/s],qd6[rad/s],tool_acc_x,tool_acc_y,tool_acc_z,current_of_whole_robot[A],voltage_of_whole_robot[V],current_J1[A],current_J2[A],current_J3[A],current_J4[A],current_J5[A],current_J6[A],temp_J1[C],temp_J2[C],temp_J3[C],temp_J4[C],temp_J5[C],temp_J6[C]
5.259935e-07,-0.4846102,-0.39391023,0.44732866,-0.027459119,0.011234412,-0.0014116566,-0.38105327,-0.3485272,0.059969332,-3.078511,0.62487584,-0.00016544905,0.0025460136,0.0013011666,-0.002769962,0.0029447933,-0.006028949,3.1701402e-05,0.4778101,-1.4259455,1.9577283,-2.1008327,-1.5707697,2.452764,-6.5501365e-05,0.001192568,0.0048101367,0.0007045278,0.00016928249,-9.98821e-05,0.1340753,0.095768064,-8.734048,0.71951014,47.72092,0.04701388,-2.7701058,-2.5223157,-0.44740316,0.16899073,0.051747642,25.3125,25.9375,25.1875,27.6875,28.25,28.625
0.0020519579,0.055077337,-0.31591818,0.40962467,-0.029485418,0.026436552,-0.005640248,-0.38103554,-0.34853148,0.059959244,-3.0784953,0.6248929,-0.0001889084,-0.00058747473,-0.0003373562,-0.0032018668,-0.0012485471,0.0019798924,3.428178e-05,0.4778342,-1.4259444,1.9577512,-2.1008375,-1.5707697,2.4528008,-6.43309e-05,0.0042303097,0.0051646777,-0.01172797,0.00018230536,-9.8517165e-05,0.076614454,0.15322891,-8.695741,0.74413085,47.675243,0.071713075,-2.897775,-2.503724,-0.3942592,0.15844163,0.070390835,25.3125,25.9375,25.1875,27.6875,28.25,28.625
0.004052434,-0.07405441,-0.16489868,0.48218828,-0.028626675,0.0197805,-0.0069453656,-0.3810927,-0.34853658,0.059979416,-3.078538,0.6249395,-6.016933e-05,-0.0016358467,-0.00088437885,-0.0024705771,-0.0026728895,0.004714476,3.4992874e-05,0.47779807,-1.4259206,1.9576916,-2.1008976,-1.5707816,2.4527884,-6.320158e-05,0.0040831794,0.00408356,-0.013583011,0.00018320048,-9.7187476e-05,0.1340753,0.17238252,-8.63828,0.7777002,47.690468,0.028044954,-3.0936246,-2.685423,-0.31092298,0.16291858,0.061481565,25.3125,25.9375,25.1875,27.6875,28.25,28.625
0.0060516438,0.10390248,0.0073729306,0.4001637,-0.004529327,0.0070391404,0.0004926393,-0.38108316,-0.3485338,0.059975546,-3.0785527,0.6249227,-9.897476e-05,-0.001305647,-0.0007109484,-0.001021816,-0.002223133,0.0038712611,3.446371e-05,0.47778615,-1.4259332,1.9577144,-2.1008956,-1.5707573,2.452764,-6.211114e-05,0.0019568054,0.00202681,-0.008444266,0.00017900702,-9.589307e-05,-0.038307227,0.17238252,-8.619126,0.75755644,47.672558,0.07921547,-2.9833531,-2.58321,-0.3337276,0.1554154,0.054850154,25.3125,25.9375,25.1875,27.6875,28.25,28.625
0.008051947,0.43877038,0.79370505,-0.25894478,0.016132217,-0.012600036,-0.005204093,-0.3810739,-0.3485492,0.059960186,-3.0785599,0.62484753,-0.00011475081,-0.000835112,-0.0004642773,0.00011024584,-0.0018635216,0.0032009196,3.362968e-05,0.47782204,-1.425898,1.9577144,-2.100918,-1.5707573,2.452752,-6.1057755e-05,-0.00022183661,0.0010260564,-0.004504225,0.00017468755,-9.4632735e-05,0.038307227,0.095768064,-8.7532015,0.7418897,47.67614,0.043803606,-2.885788,-2.5187082,-0.37123835,0.14290795,0.056122176,25.3125,25.9375,25.1875,27.6875,28.25,28.625
0.010052037,0.59369624,0.91716665,-0.51196647,0.009659769,-0.009977203,-0.007412411,-0.3810545,-0.34854594,0.05993419,-3.0785418,0.62478614,-0.000172939,-0.0005176679,-0.00029796344,0.00020603288,-0.0013266746,0.0021802203,3.3207103e-05,0.4778342,-1.4258742,1.9577492,-2.100929,-1.5707573,2.4527283,-6.003957e-05,-0.00045847302,0.0006821592,-0.0027704283,0.00017055112,-9.340507e-05,0.095768064,0.11492168,-9.136273,0.65013564,47.674347,-0.15219995,-2.1671724,-3.1365085,-0.38710165,0.15098655,0.03007856,25.3125,25.9375,25.1875,27.6875,28.25,28.625
0.012051912,0.10385962,0.11949082,-0.5949842,-0.025143124,0.001966596,-0.0074295453,-0.38106257,-0.348534,0.05993878,-3.078523,0.62484026,-0.00021645913,-0.0021558956,-0.0011286673,-0.0015848414,0.0003642369,-0.0010984842,-8.0202e-06,0.47779807,-1.4258717,1.9577249,-2.1008809,-1.5707458,2.4527283,-0.00010418244,0.008005468,-0.005101028,-0.0017621275,0.00016660446,-9.2250804e-05,0.076614454,0.17238252,-9.270349,0.80679786,47.719128,-0.2703219,-2.0638037,-3.2977815,-0.39603603,0.17162111,-0.014170712,25.3125,25.9375,25.1875,27.6875,28.25,28.625
0.014052099,-0.8434989,-1.2062302,-0.9042129,-0.049316317,0.022666737,-0.0021608693,-0.38106805,-0.34854564,0.05994044,-3.0785172,0.6248185,-0.00020745679,-0.004350396,-0.00031105257,-0.004788251,0.0034334017,-0.0070364918,-1.0261159e-05,0.4778211,-1.4258436,1.9576863,-2.1008685,-1.5707573,2.4527385,-0.0035945058,0.018440828,-0.009916124,-0.0006986537,0.0001628365,-0.0035764473,-0.076614454,0.19153613,-9.385271,0.69937176,47.723602,-0.37335485,-2.9225454,-3.0348983,-0.40356863,0.17060688,-0.04807385,25.3125,25.9375,25.1875,27.6875,28.25,28.625
0.01605218,-1.2864538,-1.9326737,-1.0150653,-0.07222976,0.052658707,-0.0057552075,-0.38104105,-0.3484996,0.059881408,-3.0783744,0.6248461,-0.00034826386,-0.005915712,0.001130822,-0.004086436,0.0029700864,-0.0061416663,0.0024507341,0.47779554,-1.4257842,1.9577454,-2.1008327,-1.5708054,2.4527483,-0.007604146,0.017363675,-0.010422913,-0.00012385611,0.0001593716,-0.010047134,-0.21068975,0.4405331,-9.519346,0.7217513,47.689575,-0.1212699,-2.6934786,-3.2998476,-0.414859,0.18013817,0.0101912385,25.3125,25.9375,25.1875,27.6875,28.25,28.625
0.018052075,-1.6111478,-2.4251704,-1.1803273,-0.078085445,0.06906072,-0.008531933,-0.3810699,-0.3485101,0.05989857,-3.0784078,0.6248517,-0.00034248485,-0.0058782785,0.0004543157,-0.0032926674,0.0022495585,-0.0047251596,0.005736994,0.47777194,-1.4257607,1.9576739,-2.1008089,-1.5707816,2.452724,-0.006357038,0.016390175,-0.011154449,-8.0869195e-06,0.00014580712,-0.0120860655,-0.28730422,0.40222588,-9.634268,0.78217715,47.70659,-0.18339318,-2.4078531,-3.4891229,-0.40349722,0.16828603,0.017712794,25.3125,25.9375,25.1875,27.6875,28.25,28.625
0.020052128,-1.8142359,-1.9598261,-1.2152964,-0.085525595,0.07006044,-0.019468555,-0.38105863,-0.3485309,0.059877876,-3.0784168,0.62479544,-0.00043658842,-0.006934096,-0.00039083118,-0.0031740656,0.0019236616,-0.004194821,0.006852997,0.47779608,-1.4256998,1.9576491,-2.100797,-1.5707458,2.4527118,-0.005859436,0.018926008,-0.014318449,-5.2801806e-07,0.00018380671,-0.012702549,-0.4405331,0.49799395,-9.787497,0.6478998,47.6636,-0.2831916,-2.351426,-3.5433831,-0.4093722,0.17451659,0.0047554313,25.3125,25.9375,25.1875,27.6875,28.25,28.625
0.022052271,-1.6816397,-2.0624228,-1.3497536,-0.069533065,0.073778115,-0.026699964,-0.38105744,-0.3485214,0.05985277,-3.0783818,0.6248271,-0.00052334345,-0.007463373,-0.0006600584,-0.0032876814,0.0015100515,-0.0060344087,0.0064915353,0.4777719,-1.4256512,1.9576482,-2.100784,-1.570733,2.4527118,-0.006659547,0.02097823,-0.016831087,0.0018990047,0.0013948095,-0.013142426,-0.5554548,0.51714754,-9.749189,0.73741806,47.63046,-0.48606932,-2.345707,-3.4441462,-0.41103822,0.17867279,-0.013563343,25.3125,25.9375,25.1875,27.6875,28.25,28.625
0.024051914,-1.444457,-1.4820737,-1.5553621,-0.069367535,0.066606164,-0.04730532,-0.38108402,-0.34850836,0.059852585,-3.078366,0.62480474,-0.00047272272,-0.008644194,-0.00084733736,-0.0028358428,-0.00013427252,-0.0054592714,0.005454988,0.47774732,-1.425627,1.9576238,-2.1007965,-1.5707687,2.4526753,-0.008194199,0.021691987,-0.01863782,0.0017203524,0.0025860544,-0.013641827,-0.51714754,0.5554548,-9.883265,0.69937176,47.68599,-0.3923037,-2.3202963,-3.4659328,-0.42921937,0.18830876,-0.03847842,25.3125,25.9375,25.1875,27.6875,28.25,28.625
0.026051795,-1.3592124,-1.4536289,-1.5252609,-0.079233475,0.070430666,-0.060466032,-0.38109162,-0.3485077,0.059842225,-3.0783386,0.62478036,-0.0005046577,-0.009797215,-0.00069999386,-0.0026186535,-0.00081236864,-0.0046920767,0.004647396,0.47774684,-1.425579,1.9575871,-2.1007721,-1.5707806,2.4526632,-0.0096830735,0.022489538,-0.01993104,0.0012217747,0.0028306872,-0.014322821,-0.45968673,0.45968673,-9.883265,0.71951014,47.653748,-0.43992275,-2.2937374,-3.521072,-0.43411052,0.16866907,-0.03863676,25.3125,25.9375,25.1875,27.6875,28.25,28.625
0.028051812,-1.8319343,-1.5851551,-1.3230767,-0.07034343,0.057896458,-0.07456855,-0.38111264,-0.34853798,0.059836876,-3.0784233,0.62472177,-0.0005464364,-0.011395096,-0.0007648904,-0.002286242,-0.0012363077,-0.0035070756,0.0044426788,0.4777344,-1.4255183,1.9575385,-2.1008084,-1.5707086,2.4526033,-0.010933829,0.024139138,-0.022497972,0.0008934518,0.0026557923,-0.015366818,-0.51714754,0.2681506,-9.768343,0.7217513,47.655537,-0.3988241,-2.327569,-3.4867494,-0.415892,0.16639453,-0.04670711,25.3125,25.9375,25.1875,27.6875,28.25,28.625
0.030051798,-1.611018,-1.2051643,-1.1452298,-0.052936025,0.06760088,-0.085414216,-0.38115722,-0.3485389,0.059837602,-3.0783942,0.62481105,-0.0005085633,-0.012875749,-0.0011651454,-0.0019787932,-0.0014817317,-0.0023753203,0.005045795,0.47771016,-1.4254457,1.9574541,-2.1008084,-1.5707325,2.4526386,-0.011392173,0.026238522,-0.025561022,0.0007399105,0.0023460397,-0.016425723,-0.45968673,0.24899697,-9.672575,0.6948948,47.707485,-0.5528234,-2.3557265,-3.469696,-0.40533692,0.17011043,-0.053837687,25.3125,25.9375,25.1875,27.6875,28.25,28.625
0.032051653,-1.6870065,-0.6871378,-1.2274884,-0.026624277,0.064524785,-0.1035595,-0.38118035,-0.3485392,0.059818912,-3.0784204,0.62470204,-0.00056047254,-0.014138348,-0.0010772435,-0.0017488498,-0.0019854214,-0.0017617892,0.004060887,0.47767377,-1.4253736,1.9574174,-2.1008208,-1.5707086,2.4525309,-0.012820896,0.027436383,-0.027430288,0.00063475035,0.0025063632,-0.016868765,-0.4213795,0.095768064,-9.80665,0.7665104,47.668976,-0.45875314,-2.3249044,-3.4502976,-0.4083515,0.19293258,-0.056501668,25.3125,25.9375,25.1875,27.6875,28.25,28.625
0.034052722,-1.5916481,-0.2891875,-1.2017577,-0.0011561142,0.043886345,-0.11004919,-0.38118222,-0.34852895,0.059804007,-3.0783749,0.6247323,-0.00060708355,-0.015293101,-0.0012722772,-0.0014704188,-0.0032473681,-0.0014456267,0.0016868538,0.47766122,-1.4253372,1.9574045,-2.100797,-1.5707201,2.452543,-0.014174572,0.028620033,-0.029399721,0.0005560597,0.0034771087,-0.015849335,-0.34476504,0.038307227,-9.825804,0.7553206,47.65464,-0.51534814,-2.296073,-3.4768007,-0.40599525,0.18018109,-0.047317334,25.3125,25.9375,25.1875,27.6875,28.25,28.625
0.036051992,-1.3015193,-0.096693315,-1.0491341,0.010218332,0.037141804,-0.12866761,-0.38124436,-0.34853855,0.05982552,-3.078399,0.62481534,-0.00056035875,-0.01730861,-0.001952351,-0.00041663836,-0.005736692,0.00022563525,-0.00076201913,0.47761267,-1.4252769,1.9572839,-2.100785,-1.5707077,2.4525433,-0.015762018,0.029869255,-0.03322092,0.0004947856,0.004912544,-0.014988498,-0.2681506,-0.038307227,-9.653421,0.70608455,47.686886,-0.5320715,-2.2808356,-3.376392,-0.39777717,0.16025987,-0.07887136,25.3125,25.9375,25.1875,27.6875,28.25,28.625
0.038052,-0.7570472,0.15095906,-1.1209971,0.010459212,0.041646134,-0.14785792,-0.3812973,-0.34856814,0.05983556,-3.0784838,0.6247944,-0.00046699267,-0.01785458,-0.0022807743,-0.0005646009,-0.005983866,1.1765511e-05,-0.0017555056,0.4776007,-1.4252164,1.9572109,-2.1008685,-1.5706838,2.4525075,-0.015888102,0.031459033,-0.03468595,0.0004457,0.0052289586,-0.014120234,-0.24899697,-0.13407528,-9.576807,0.7597976,47.652847,-0.45633003,-2.326679,-3.385388,-0.3914627,0.14056262,-0.09438254,25.3125,25.9375,25.1875,27.6875,28.25,28.625
0.040051937,-0.67583996,-0.06299995,-1.151452,0.0025729598,0.04397361,-0.15800032,-0.38133642,-0.34854597,0.05982348,-3.0784252,0.6248784,-0.00048695086,-0.018958408,-0.0026304498,-0.00013394422,-0.006635592,0.0009650105,-0.0021526709,0.47754055,-1.4251442,1.9571508,-2.100845,-1.5707077,2.4525073,-0.016374312,0.032592136,-0.036964647,0.00044463505,0.0053643836,-0.014208406,-0.15322891,-0.17238252,-9.710882,0.7172743,47.640312,-0.6030814,-2.327856,-3.3795316,-0.36942548,0.14341919,-0.10597046,25.3125,25.9375,25.1875,27.6875,28.25,28.625
0.04205197,-1.1339542,-0.3685179,-1.0540437,-0.004547089,0.039467208,-0.1555045,-0.3813928,-0.34855497,0.059825987,-3.0784473,0.6248827,-0.00044369805,-0.0202515,-0.003190036,0.0007176033,-0.007773874,0.0026794837,-0.0023214496,0.47750434,-1.42506,1.9570545,-2.1008685,-1.5707077,2.452471,-0.016715338,0.033280924,-0.039698813,0.00044358286,0.0055821156,-0.0143794,-0.1340753,-0.1340753,-9.634268,0.7777002,47.65912,-0.5243503,-2.1737669,-3.3230987,-0.36593714,0.1523224,-0.11827175,25.3125,25.9375,25.1875,27.6875,28.25,28.625
0.044052545,-1.0779545,-0.6574909,-1.1690339,-0.020207204,0.04046375,-0.17039914,-0.38141128,-0.34855962,0.059817147,-3.0784404,0.62486273,-0.0005247207,-0.021424092,-0.0029216392,0.0009164472,-0.0075971894,0.003429779,-0.0029728578,0.47747993,-1.4249879,1.9569815,-2.1008208,-1.5706838,2.452435,-0.01794738,0.034330785,-0.041359335,0.0004713303,0.005076067,-0.014958308,-0.17238252,-0.019153614,-9.481039,0.7418897,47.640312,-0.51054937,-2.2311075,-3.3817983,-0.35874444,0.15005024,-0.13998544,25.3125,25.9375,25.1875,27.6875,28.25,28.625
0.04605161,-0.38362476,-1.1286565,-1.1504602,-0.016293457,0.061542414,-0.16972093,-0.3814565,-0.34857178,0.059853815,-3.0784903,0.6248337,-0.00041002856,-0.022577822,-0.0030477026,0.0010648905,-0.0076482557,0.0040766974,-0.0030180886,0.4774678,-1.4249873,1.9568971,-2.1008208,-1.5706962,2.4523985,-0.018623522,0.03596376,-0.043551795,0.0004335276,0.00482041,-0.015586941,-0.19153614,0.019153614,-9.519346,0.8403672,47.67614,-0.49005604,-2.1715052,-3.3087864,-0.3557272,0.15474397,-0.14613447,25.3125,25.9375,25.1875,27.6875,28.25,28.625
0.048052415,-1.0174798,-0.93588024,-1.2680948,-0.02082673,0.037816163,-0.14718333,-0.3814943,-0.34855768,0.059833195,-3.0784807,0.62483144,-0.0005212524,-0.022852367,-0.0034451848,0.00020304721,-0.0071254415,0.0025522162,-0.0018993383,0.47738388,-1.4248905,1.9568256,-2.100785,-1.5706595,2.4523144,-0.018320015,0.039024174,-0.045093782,0.0005094442,0.005052595,-0.016401691,-0.1340753,0.2681506,-9.557653,0.8224646,47.67614,-0.5043328,-2.2080238,-3.3640149,-0.32501674,0.15681426,-0.16156855,25.3125,25.9375,25.1875,27.6875,28.25,28.625
0.050052628,-0.44269952,-1.2579631,-1.3091317,-0.025403455,0.04094914,-0.1514119,-0.3815523,-0.34858093,0.05985707,-3.0785024,0.6249515,-0.00043404542,-0.02362713,-0.0031181427,0.00081387983,-0.0068675303,0.0020241686,-0.0022216393,0.47737148,-1.4248303,1.956705,-2.100796,-1.5706595,2.4523742,-0.019624991,0.03937304,-0.04748867,0.003142935,0.005067885,-0.017383302,-0.15322891,0.3256114,-9.519346,0.7239871,47.704796,-0.51083446,-2.2590868,-3.3708982,-0.3612668,0.14086103,-0.16948012,25.3125,25.9375,25.1875,27.6875,28.25,28.625
0.052052535,-0.814179,-1.9502522,-1.3636357,-0.0268019,0.026947895,-0.14231488,-0.3815923,-0.3485992,0.059856802,-3.0785604,0.62482893,-0.00040117264,-0.0245259,-0.0031655324,0.0017583304,-0.0075044073,0.0034358618,-0.0022890589,0.4773592,-1.4247588,1.956632,-2.1008313,-1.5706476,2.4522781,-0.020314356,0.038848378,-0.04921042,0.0038434144,0.004983362,-0.018004268,-0.095768064,0.38307226,-9.595961,0.7642693,47.691364,-0.5116941,-2.0596156,-3.4144664,-0.36091185,0.1374826,-0.18780422,25.3125,25.9375,25.1875,27.6875,28.25,28.625
0.054052275,-1.0868534,-1.8229698,-1.2927911,-0.055362556,0.022557255,-0.13618104,-0.38167256,-0.34858435,0.05986681,-3.0785356,0.6249962,-0.0004131502,-0.025292858,-0.0033225317,0.001362022,-0.00706647,0.0032459833,-0.0014035463,0.47725114,-1.4246621,1.956488,-2.1007836,-1.5706362,2.4522777,-0.02054037,0.04115754,-0.050881896,0.0035773795,0.004677652,-0.019113984,-0.05746084,0.45968673,-9.615114,0.7553206,47.698532,-0.52057916,-1.9785144,-3.3781092,-0.36958623,0.15285029,-0.19859011,25.3125,25.9375,25.1875,27.6875,28.25,28.625
0.056052256,-1.2321659,-2.2679937,-1.2312151,-0.06257839,0.029094817,-0.13525763,-0.38168672,-0.34858483,0.05984732,-3.078506,0.62495214,-0.00048692577,-0.02671426,-0.003221477,0.0013798744,-0.006539097,0.0041398774,-0.0017068468,0.47723883,-1.4245776,1.9564279,-2.1007478,-1.5706362,2.4522417,-0.021458546,0.04320343,-0.053196903,0.003297977,0.003791641,-0.019725926,-0.038307227,0.59376204,-9.595961,0.7709874,47.65643,-0.49909562,-2.1511726,-3.4176037,-0.3376927,0.1613158,-0.21512046,25.3125,25.9375,25.1875,27.6875,28.25,28.625
0.05805229,-1.1621394,-2.7364352,-1.0948036,-0.05047596,0.02837081,-0.13894199,-0.38175896,-0.34861305,0.059864983,-3.0785708,0.6249068,-0.0004099892,-0.028961644,-0.003989778,0.0020059193,-0.007235777,0.0060196733,-0.0016938613,0.47721472,-1.4244808,1.9562825,-2.1007717,-1.5706247,2.452181,-0.022003591,0.046220455,-0.058035377,0.0031308804,0.0035376712,-0.020280285,-0.038307227,0.5363012,-9.615114,0.7866488,47.647476,-0.5271991,-2.0785074,-3.201909,-0.34251916,0.17961876,-0.22225316,25.3125,25.9375,25.1875,27.6875,28.25,28.625
0.06005239,-0.98624825,-1.9305015,-0.9465855,-0.05333887,0.029913783,-0.13993716,-0.3818187,-0.3486172,0.059875574,-3.078596,0.6248921,-0.00036898436,-0.027831556,-0.0032776555,-3.970038e-05,-0.0052431575,0.0018002426,-0.0010264034,0.47716647,-1.4244081,1.9561752,-2.1007712,-1.5706242,2.4521205,-0.022333616,0.048557676,-0.056125194,0.0035462768,0.0037113186,-0.021278637,-0.076614454,0.53630114,-9.519346,0.7396539,47.661808,-0.51401925,-2.175903,-3.433848,-0.33031633,0.17031333,-0.23530798,25.3125,25.9375,25.1875,27.6875,28.25,28.625
0.062052514,-0.43688455,-1.0937521,-0.77025837,-0.05212555,0.02755457,-0.14297786,-0.3818687,-0.34861615,0.05988353,-3.0785782,0.6249833,-0.00036837216,-0.029571062,-0.0041491888,0.0022508046,-0.007938133,0.005730269,0.00019908641,0.47711843,-1.4243367,1.9560674,-2.1007354,-1.5706242,2.4521317,-0.022765504,0.046988986,-0.05965646,0.003915539,0.0042935037,-0.02293561,-0.05746084,0.4405331,-9.442732,0.7486078,47.717335,-0.5551957,-2.1141071,-3.3631477,-0.33362818,0.16602248,-0.23404509,25.3125,25.9375,25.1875,27.6875,28.25,28.625
0.064052016,-0.42588353,-1.3579377,-0.8493084,-0.03206327,0.02372395,-0.13833484,-0.38196287,-0.34864497,0.05990221,-3.0786421,0.62497735,-0.00025065863,-0.031728193,-0.00526608,0.0027826575,-0.0094536925,0.007180284,0.0010464418,0.47708222,-1.4242157,1.9558977,-2.1007836,-1.5706238,2.4520838,-0.023206258,0.050336666,-0.0646104,0.0035354649,0.0049647186,-0.024221359,-0.11492168,0.4405331,-9.423578,0.7284641,47.705692,-0.4859444,-2.1161585,-3.3026109,-0.33592403,0.15937054,-0.23948273,25.3125,25.9375,25.1875,27.6875,28.25,28.625
0.06605292,-0.5043712,-1.3536764,-0.77637815,-0.029355086,0.019906802,-0.138688,-0.3820268,-0.3486376,0.059907,-3.078635,0.6249749,-0.00026582196,-0.031944763,-0.0054856925,0.0018625146,-0.009554367,0.005223004,0.002465718,0.47701007,-1.4241191,1.9557656,-2.100736,-1.5706238,2.452011,-0.023651462,0.053016793,-0.06556296,0.003497215,0.0059506977,-0.02608668,-0.076614454,0.45968673,-9.32781,0.76874626,47.655537,-0.5893385,-2.1525488,-3.0918326,-0.30709732,0.1668263,-0.24229372,25.3125,25.9375,25.1875,27.6875,28.25,28.625
0.06805204,-0.5994067,-1.8839185,-0.6348655,-0.024690092,0.02835095,-0.13887313,-0.38208896,-0.3486655,0.059908066,-3.0786736,0.6248863,-0.0001972585,-0.032441866,-0.005199897,0.0015884541,-0.00894701,0.004824646,0.0025336728,0.47700983,-1.4239988,1.955634,-2.1007712,-1.5706357,2.4519508,-0.024383748,0.054199185,-0.066345364,0.0037309374,0.0055939537,-0.026885534,-0.11492168,0.38307226,-9.270349,0.8314132,47.690468,-0.5397506,-2.1961782,-3.3165848,-0.28912205,0.15200719,-0.24373671,25.3125,25.9375,25.1875,27.6875,28.25,28.625
0.070052125,-0.7858587,-1.1348007,-0.26292178,-0.039802093,0.030545847,-0.13889046,-0.38214934,-0.34867826,0.059902932,-3.078724,0.62491506,-0.0002412506,-0.03374756,-0.005753332,0.002276824,-0.009624507,0.0054022926,0.0031570953,0.47693768,-1.4238906,1.9555248,-2.100783,-1.5705756,2.4518902,-0.02481648,0.055800777,-0.070041016,0.0050016507,0.0059264023,-0.02794032,0.019153614,0.30645782,-9.212888,0.6725152,47.6636,-0.5615027,-2.0932949,-3.1663985,-0.30927005,0.15793237,-0.25951767,25.3125,25.9375,25.1875,27.6875,28.25,28.625
0.07205237,-0.80537707,-0.9649149,-0.1663067,-0.028024254,0.031356674,-0.1394045,-0.38222772,-0.3486828,0.05992326,-3.0787249,0.62502986,-0.0002252695,-0.034543216,-0.005916296,0.0024944984,-0.009443407,0.0057555344,0.0042361123,0.47686562,-1.4237943,1.9553574,-2.100735,-1.5705637,2.4518898,-0.025043715,0.05703096,-0.07207902,0.00558077,0.0056014145,-0.02924482,-0.11492168,0.24899697,-9.232041,0.8157518,47.67345,-0.6228274,-2.0607314,-3.1670084,-0.30806988,0.17450249,-0.27792472,25.3125,25.9375,25.1875,27.6875,28.25,28.625
0.074051976,-0.4388278,-0.5805404,-0.27529696,-0.01876291,0.03582776,-0.14024125,-0.38228106,-0.3487128,0.05991621,-3.078766,0.62496006,-0.00023506794,-0.035434388,-0.0067463163,0.0026710753,-0.010367555,0.0058123143,0.00614059,0.4768538,-1.4236616,1.9552249,-2.1007469,-1.5705394,2.4518292,-0.024902837,0.05913284,-0.07495783,0.00588111,0.0063911118,-0.031007927,-0.15322891,0.21068975,-9.136273,0.7911258,47.681515,-0.6404504,-2.05715,-3.1232963,-0.308429,0.16786794,-0.27413282,25.3125,25.9375,25.1875,27.6875,28.25,28.625
0.076052114,-0.6424396,-0.27564335,-0.40038592,-0.015241104,0.029507218,-0.13541271,-0.38236746,-0.34873515,0.059945792,3.078787,-0.6249447,0.00015949534,-0.036283966,-0.007394873,0.0028093022,-0.011439953,0.0061247544,0.006920471,0.47680566,-1.4235654,1.9550446,-2.100735,-1.570527,2.4517689,-0.02505259,0.060767245,-0.07707938,0.0055963285,0.0071979323,-0.031936977,-0.1340753,0.15322891,-9.059659,0.75755644,47.684196,-0.651404,-2.062512,-3.063445,-0.3048445,0.14891186,-0.28144142,25.3125,25.9375,25.1875,27.6875,28.25,28.625
0.078052394,-0.67267853,-0.4810104,-0.34970832,-0.009948349,0.032934383,-0.134859,-0.3824289,-0.34873754,0.059935,3.0787969,-0.6249277,0.00020167856,-0.03711193,-0.007505141,0.00278899,-0.011609095,0.0058856495,0.0074971076,0.4767454,-1.423433,1.9549125,-2.1007106,-1.570515,2.4516969,-0.025781251,0.062376127,-0.07897389,0.0060167937,0.0074545583,-0.033241753,-0.21068975,0.22984336,-9.136273,0.7777002,47.65912,-0.66993314,-2.0897093,-3.0925505,-0.29316986,0.13348722,-0.27976054,25.3125,25.9375,25.1875,27.6875,28.25,28.625
0.08005233,-0.40146336,-0.13509333,-0.4466709,-0.02608534,0.042076863,-0.14248516,-0.3824712,-0.34874597,0.059918348,-3.0788045,0.62487113,-0.00025925183,-0.037998818,-0.0075517506,0.0026763754,-0.010959118,0.005559743,0.0076643624,0.47672126,-1.4233007,1.9547914,-2.1006749,-1.570515,2.4516366,-0.026233653,0.064497225,-0.0813367,0.0068481453,0.0070220293,-0.033859726,-0.1340753,0.22984336,-9.251195,0.7239871,47.686886,-0.70461816,-1.9886622,-3.0801444,-0.2611212,0.15037848,-0.28738832,25.3125,25.9375,25.1875,27.6875,28.25,28.625
0.08205194,-1.0672487,-0.88955617,-0.6964797,-0.0151044,0.034804586,-0.13303974,-0.38259134,-0.34877658,0.05996424,3.0787396,-0.6248566,0.000125986,-0.038012896,-0.0077067404,0.0016203166,-0.009678144,0.0024791008,0.008514358,0.4766493,-1.4231913,1.954564,-2.1006854,-1.5704912,2.4515638,-0.026144784,0.067999676,-0.08334719,0.008681571,0.007302198,-0.03461918,-0.21068975,0.24899697,-9.308656,0.7709874,47.675243,-0.7920383,-2.2414906,-3.0724313,-0.30879813,0.15287934,-0.29545072,25.3125,25.9375,25.1875,27.6875,28.25,28.625
0.084052406,-1.7056407,-0.95513177,-0.7039542,-0.024453564,0.029152876,-0.12829083,-0.38265082,-0.34878296,0.059949312,3.0787654,-0.62484324,0.00014247876,-0.038982634,-0.008254959,0.0033272326,-0.011977363,0.0049521136,0.008220072,0.47661313,-1.4230477,1.9544314,-2.100674,-1.5705026,2.4515162,-0.026645971,0.066199064,-0.08531603,0.009195411,0.00820703,-0.03482703,-0.2681506,0.3256114,-9.289502,0.75084364,47.694946,-0.7465755,-1.997669,-3.0904293,-0.3205428,0.13298196,-0.3121023,25.3125,25.9375,25.1875,27.6875,28.25,28.625
0.08605227,-1.6740503,-1.247102,-0.7683917,-0.023888005,0.03236095,-0.12643301,-0.3827157,-0.34878242,0.059932973,3.0787678,-0.624881,0.00025313013,-0.039914772,-0.0080392035,0.0024098777,-0.011001777,0.004067833,0.009353287,0.47652876,-1.4228903,1.9542755,-2.1006143,-1.5704664,2.451455,-0.027577778,0.06941477,-0.08678965,0.008690547,0.0077399123,-0.036890503,-0.19153613,0.22984336,-9.32781,0.77545905,47.63404,-0.7622105,-2.0197055,-3.0892978,-0.30678588,0.12408446,-0.31456372,25.3125,25.9375,25.1875,27.6875,28.25,28.625
0.08805232,-1.2098578,-0.9269244,-0.65453506,-0.03452951,0.045652825,-0.13659947,-0.38280523,-0.3488395,0.0599769,3.0787,-0.6246937,0.00016992737,-0.039980996,-0.007949913,0.0006829765,-0.00883684,0.000577905,0.010792825,0.47651687,-1.4227808,1.9540471,-2.100602,-1.5704192,2.451335,-0.027586432,0.07405134,-0.08838997,0.009751752,0.0074199685,-0.038336094,-0.30645782,0.22984336,-9.346964,0.7530795,47.675243,-0.8161574,-2.194974,-3.1081433,-0.30236316,0.13063404,-0.31722814,25.3125,25.9375,25.1875,27.6875,28.25,28.625
0.0900524,-1.4673191,-1.2215044,-0.7811634,-0.030179158,0.04000079,-0.123579614,-0.38286495,-0.34882984,0.059940018,3.0787332,-0.6247198,0.00024403143,-0.040633887,-0.007846933,0.0014584708,-0.009598242,0.0020268888,0.009097997,0.4764446,-1.4226131,1.9539398,-2.100602,-1.5704192,2.4512749,-0.028367382,0.07303507,-0.08901325,0.009754848,0.0074287546,-0.037422556,-0.2681506,0.2681506,-9.385271,0.6769922,47.677036,-0.80527157,-2.039123,-3.1778286,-0.31249514,0.13004264,-0.33171803,25.3125,25.9375,25.1875,27.6875,28.25,28.625
0.0920525,-0.858147,-0.79511243,-0.74350387,-0.038050435,0.049826942,-0.14203525,-0.38298333,-0.3488464,0.0599611,3.0786982,-0.62471247,0.0001467068,-0.04207443,-0.008526587,0.0015322883,-0.0103770355,0.0026656815,0.009062413,0.47637233,-1.4224558,1.9537119,-2.100602,-1.5704306,2.4512026,-0.0287342,0.07577525,-0.092219,0.009294377,0.007823044,-0.03775174,-0.24899697,0.30645782,-9.32781,0.7418897,47.696735,-0.8562254,-2.1757877,-3.166639,-0.30221918,0.11687123,-0.36760488,25.3125,25.9375,25.1875,27.6875,28.25,28.625
0.094052516,-1.073403,-1.1086462,-0.6829701,-0.028733427,0.03762289,-0.12639226,-0.38306326,-0.34885418,0.059956208,3.078733,-0.6246985,0.00020875502,-0.04101867,-0.007671529,-0.00055550004,-0.0077278377,-0.0018814044,0.011155061,0.4763124,-1.4222747,1.9534968,-2.1005175,-1.5704306,2.4511297,-0.02909958,0.07849308,-0.090832755,0.010447825,0.007557674,-0.04021028,-0.11492168,0.22984336,-9.423578,0.75755644,47.640312,-0.8924924,-2.1180625,-3.287383,-0.31634343,0.12515861,-0.3585143,25.3125,25.9375,25.1875,27.6875,28.25,28.625
0.09605254,-0.8301135,-0.8527014,-0.7707487,-0.03729883,0.03673567,-0.13244316,-0.38312936,-0.34888548,0.059949104,3.0786893,-0.62465155,0.00022725674,-0.04236393,-0.007841805,-0.0005272846,-0.0075916257,-0.0011139597,0.01234968,0.47627604,-1.42213,1.9533533,-2.1005423,-1.570383,2.4510696,-0.029720586,0.08069611,-0.09336007,0.010156875,0.007079645,-0.042023383,-0.1340753,0.28730422,-9.3661175,0.8537928,47.689575,-0.8299686,-2.2014308,-3.3281462,-0.3282743,0.13210177,-0.35937616,25.3125,25.9375,25.1875,27.6875,28.25,28.625
0.09805173,-0.5941603,-1.1450517,-0.6584888,-0.028255235,0.03891746,-0.13165958,-0.38326135,-0.34889522,0.05998736,3.0786395,-0.62463874,9.69162e-05,-0.043773327,-0.008273989,9.9607605e-05,-0.008813333,0.0008174642,0.015412757,0.47617984,-1.4219974,1.9531115,-2.10053,-1.5703954,2.4509718,-0.030365372,0.081551194,-0.09556879,0.009234204,0.007277859,-0.045729447,-0.15322891,0.11492168,-9.481039,0.7486078,47.67614,-0.89990664,-2.2195446,-3.165132,-0.31063604,0.133804,-0.35487276,25.3125,25.9375,25.1875,27.6875,28.25,28.625
0.10005156,-0.5569837,-0.7940934,-0.9353386,-0.03779951,0.0307157,-0.13635857,-0.3833289,-0.34891263,0.05996074,3.078701,-0.6245362,0.00014696,-0.04393015,-0.008435703,-0.0002983899,-0.008890085,6.608115e-05,0.015140872,0.47615582,-1.4217926,1.9529327,-2.100506,-1.5704068,2.4508762,-0.030482689,0.082856,-0.09614637,0.009137744,0.007686838,-0.04557535,-0.095768064,0.22984336,-9.442732,0.7396539,47.63315,-0.97376895,-2.1555498,-3.398509,-0.31760186,0.11300528,-0.3549367,25.3125,25.9375,25.1875,27.6875,28.25,28.625
0.102051675,-0.60685253,-0.9787515,-0.8729469,-0.03312583,0.022986157,-0.13271,-0.38341874,-0.3489071,0.05994758,3.0786934,-0.62455404,0.00020101966,-0.04474028,-0.008577789,-3.1223248e-05,-0.009160076,0.00045035576,0.015224785,0.4760476,-1.4216243,1.9527649,-2.1004822,-1.5703825,2.4507802,-0.031002233,0.08380458,-0.09794213,0.009521537,0.0077470625,-0.046178143,-0.019153614,0.15322891,-9.461885,0.8314132,47.682407,-0.9419488,-2.161136,-3.3347266,-0.313008,0.114144966,-0.3719983,25.3125,25.9375,25.1875,27.6875,28.25,28.625
0.10405214,-0.4859812,-0.9989412,-0.6826872,-0.03456826,0.026022092,-0.13619246,-0.3835342,-0.34893486,0.059956085,3.078662,-0.6244675,0.00016682029,-0.04564297,-0.008530528,-3.3474527e-05,-0.008860954,0.0007103612,0.018362598,0.47597542,-1.4214317,1.952525,-2.1004822,-1.5703591,2.450658,-0.031654097,0.08526527,-0.09966101,0.009689703,0.0073614744,-0.0499659,-0.038307227,0.22984336,-9.461885,0.83813137,47.698532,-0.96800625,-2.1477137,-3.3863668,-0.31299293,0.14285707,-0.3581053,25.3125,25.9375,25.1875,27.6875,28.25,28.625
0.106052324,-0.434191,-1.0556462,-0.6207481,-0.028351106,0.025474291,-0.1359547,-0.3836105,-0.34895435,0.05997439,3.0786703,-0.6243529,0.00014017367,-0.045488782,-0.008562529,-0.00080392853,-0.008422866,-0.0008435985,0.020904278,0.4759394,-1.4213109,1.9523343,-2.1004345,-1.5703586,2.4505496,-0.03165876,0.08690341,-0.09980474,0.009777043,0.007685453,-0.052512236,-0.05746084,0.24899697,-9.461885,0.76874626,47.675243,-1.0629594,-2.1014001,-3.4927,-0.29971576,0.13874038,-0.3169387,25.3125,25.9375,25.1875,27.6875,28.25,28.625
0.1080522,-0.39505664,-1.2984225,-0.90740526,-0.021688165,0.025284529,-0.13490042,-0.38369325,-0.34898108,0.05994466,3.0786624,-0.6243112,0.00023094763,-0.047505964,-0.009894477,0.00068978954,-0.010870299,0.0020961978,0.023103662,0.47587946,-1.4210824,1.9521407,-2.1004345,-1.5703105,2.4504647,-0.03167152,0.08806032,-0.10451857,0.009600289,0.008502057,-0.054723296,0.038307227,0.21068975,-9.385271,0.8537928,47.689575,-1.064282,-2.0303686,-3.4147964,-0.30326828,0.1299819,-0.29162678,25.3125,25.9375,25.1875,27.6875,28.25,28.625
0.11005243,-0.54397666,-1.1489769,-0.7823271,-0.031046135,0.017522529,-0.1321559,-0.38380155,-0.3489783,0.059952512,3.078673,-0.6242356,0.00019246232,-0.047339335,-0.008702357,-0.00038920675,-0.010324176,4.970007e-06,0.02327438,0.47578266,-1.4209261,1.9519385,-2.1004107,-1.5703224,2.4503195,-0.03392459,0.08849046,-0.10247669,0.0092365565,0.008980051,-0.05714847,0.0,0.24899697,-9.385271,0.72622824,47.653748,-1.0440354,-2.0047388,-3.6403098,-0.30439442,0.13023329,-0.2802298,25.3125,25.9375,25.1875,27.6875,28.25,28.625
0.11205162,-0.32012355,-1.317497,-0.8677089,-0.02617322,0.021754066,-0.13036838,-0.38391054,-0.34900525,0.059978615,3.0786312,-0.6241685,0.000117453485,-0.04940561,-0.009150989,-0.0009290551,-0.009647582,-0.00085215026,0.024635952,0.47572252,-1.4207798,1.9517087,-2.1003983,-1.5703105,2.450223,-0.034880176,0.09398785,-0.10773804,0.010075045,0.008766399,-0.05946142,-0.019153614,0.2681506,-9.423578,0.7553206,47.684196,-0.9843999,-2.1232965,-3.4917262,-0.30738902,0.109471545,-0.23389149,25.3125,25.9375,25.1875,27.6875,28.25,28.625
0.114052355,-0.91361696,-1.7781873,-1.0658159,-0.018620472,0.013767336,-0.12319043,-0.38397372,-0.34904632,0.05995861,3.0786405,-0.6239961,0.00022009372,-0.050131924,-0.0095520895,0.0007977154,-0.01180582,0.0015439211,0.026790261,0.47569826,-1.4205768,1.9515165,-2.100374,-1.5702504,2.45009,-0.035356745,0.0916278,-0.109146096,0.010726505,0.009584452,-0.062093563,0.019153614,0.24899697,-9.442732,0.7486078,47.670765,-1.0605726,-1.9334168,-3.5704937,-0.32513964,0.11808433,-0.20314324,25.3125,25.9375,25.1875,27.6875,28.25,28.625
0.11605241,-0.31434545,-0.9296446,-0.956027,-0.03362756,0.03436081,-0.14162628,-0.3840844,-0.34905225,0.059961766,3.078662,-0.62394106,0.00021068474,-0.05096965,-0.010535433,0.00070754107,-0.011503249,0.0021116447,0.030251052,0.47561473,-1.4203835,1.9512771,-2.1003263,-1.5702623,2.4499695,-0.034026206,0.09453002,-0.11224058,0.010555386,0.009049129,-0.06422112,-0.11492168,0.28730422,-9.423578,0.6971306,47.674347,-1.1672925,-1.8762958,-3.4572067,-0.30949795,0.1210383,-0.17669824,25.3125,25.9375,25.1875,27.6875,28.25,28.625
0.11805254,-0.5370812,-0.98701817,-0.98241746,-0.02672809,0.04135625,-0.13560723,-0.38417888,-0.3490755,0.05998062,3.0786476,-0.6238031,0.0001905045,-0.052451592,-0.00979106,0.0016722817,-0.011959669,0.0035862508,0.02952187,0.47555372,-1.4202397,1.9510611,-2.10029,-1.5702385,2.4498243,-0.036517,0.093811005,-0.11380765,0.011325276,0.008781162,-0.065981574,-0.17238252,0.2681506,-9.461885,0.7777002,47.666286,-1.1427312,-1.9806333,-3.42305,-0.29634884,0.1301393,-0.13586795,25.3125,25.9375,25.1875,27.6875,28.25,28.625
0.12005182,-0.6707847,-0.9610387,-0.99445635,-0.03859759,0.043119088,-0.13339947,-0.38429886,-0.34908158,0.059977565,3.0786626,-0.6237494,0.00013948075,-0.053348932,-0.010123352,0.0012933827,-0.012205494,0.0027091105,0.028158002,0.47546974,-1.4200345,1.9508332,-2.10029,-1.5702623,2.4497051,-0.037137065,0.09657397,-0.11618912,0.011607799,0.009398857,-0.06523686,-0.076614454,0.24899697,-9.500193,0.7933669,47.693153,-1.102135,-1.8307285,-3.4873586,-0.3115108,0.11853959,-0.10719205,25.3125,25.9375,25.1875,27.6875,28.25,28.625
0.122051835,-1.4746642,-1.8129351,-1.0878681,-0.032305207,0.034408245,-0.13176769,-0.38441446,-0.3491201,0.059988078,3.0786192,-0.6235675,0.00016763103,-0.05449393,-0.009928107,0.0014580714,-0.0125641115,0.0030783515,0.02687251,0.47538528,-1.41983,1.9505695,-2.1002662,-1.5701903,2.4495127,-0.038612213,0.097670496,-0.11785812,0.011692913,0.009548301,-0.06542544,-0.24899697,0.34476504,-9.500193,0.7911258,47.705692,-1.1218851,-1.8321185,-3.478251,-0.3163679,0.094241425,-0.106543034,25.3125,25.9375,25.1875,27.6875,28.25,28.625
0.124052115,-1.7814955,-1.79117,-1.2108746,-0.040271986,0.036847867,-0.12258839,-0.3845272,-0.3491373,0.059981696,3.0785809,-0.62361825,0.00020551562,-0.056028537,-0.009987044,0.0016257059,-0.012861304,0.0039302497,0.025353972,0.4752888,-1.419613,1.9503301,-2.1002424,-1.5701541,2.4494529,-0.03981286,0.09962027,-0.120434366,0.011429585,0.009417203,-0.06510582,-0.2873042,0.24899697,-9.595961,0.7777002,47.72271,-1.0688515,-1.8747067,-3.4202485,-0.32355365,0.110906415,-0.0687009,25.3125,25.9375,25.1875,27.6875,28.25,28.625
0.12605223,-1.0223199,-1.4437511,-1.2002672,-0.045013677,0.064983495,-0.1347805,-0.38462767,-0.34916246,0.059978813,3.0786135,-0.6234912,0.00022036368,-0.05688513,-0.011053955,0.0018710343,-0.013658566,0.0047792653,0.022770245,0.47524118,-1.4193962,1.9500774,-2.1001947,-1.5701541,2.449322,-0.038901012,0.10164709,-0.12326463,0.011111042,0.009729812,-0.061609033,-0.3256114,0.24899697,-9.710882,0.8291774,47.660015,-1.1311066,-1.7735755,-3.4221342,-0.31229717,0.113822356,-0.122769795,25.3125,25.9375,25.1875,27.6875,28.25,28.625
0.12805246,-1.2763118,-1.5594208,-1.3009217,-0.044508893,0.06534664,-0.13414742,-0.38474277,-0.34918755,0.060008503,3.0785651,-0.62336713,0.00016951658,-0.058151692,-0.011488951,0.0018695298,-0.014235041,0.0053887637,0.020983879,0.47515693,-1.4192511,1.949838,-2.1001709,-1.5701183,2.4491665,-0.039425265,0.10392243,-0.12574424,0.0105111925,0.009961747,-0.06034486,-0.30645782,0.24899697,-9.80665,0.7732232,47.652847,-1.1959879,-1.9018574,-3.4157195,-0.30298024,0.11306839,-0.13697752,25.3125,25.9375,25.1875,27.6875,28.25,28.625
0.130052,-1.407596,-1.465369,-1.2859453,-0.03796666,0.06113919,-0.12694515,-0.3848719,-0.34921345,0.06002078,3.078544,-0.62328583,9.834414e-05,-0.059017427,-0.010811553,-0.00015908387,-0.01247472,0.0024628262,0.019734554,0.47508442,-1.4190453,1.9495744,-2.1001713,-1.5701183,2.4490461,-0.04125509,0.10896338,-0.12677273,0.00990771,0.009735638,-0.06092315,-0.3256114,0.24899697,-9.634268,0.7396539,47.694054,-1.2075375,-1.8726153,-3.436875,-0.31062376,0.111488745,-0.12718162,25.3125,25.9375,25.1875,27.6875,28.25,28.625
0.13205244,-1.7132802,-1.075201,-1.2254868,-0.033796716,0.051265813,-0.12705477,-0.38499638,-0.34921885,0.060008995,3.0785584,-0.62329197,9.998275e-05,-0.062485605,-0.01141985,0.002673651,-0.015621177,0.008489198,0.013519506,0.4749876,-1.4188054,1.9493207,-2.100147,-1.5701302,2.4489515,-0.043350574,0.10810856,-0.1321566,0.009346338,0.009763685,-0.056801174,-0.4405331,0.22984336,-9.557653,0.7665104,47.666286,-1.0632317,-1.8647699,-3.2007914,-0.3008894,0.11299132,-0.16352677,25.3125,25.9375,25.1875,27.6875,28.25,28.625
0.13405256,-1.4035155,-0.9104177,-1.1504416,-0.03286975,0.061924275,-0.13501641,-0.38512,-0.34925744,0.06004668,3.0784693,-0.6232357,5.9108996e-05,-0.06337542,-0.012237063,0.00096337794,-0.014790269,0.006213386,0.012493878,0.47490385,-1.418647,1.9490451,-2.1001117,-1.5700701,2.448844,-0.042896565,0.114373066,-0.13528146,0.008612962,0.010062203,-0.05531844,-0.4213795,0.2681506,-9.557653,0.8940802,47.660015,-1.146281,-2.1260254,-3.3491914,-0.29821056,0.09844157,-0.19799158,25.3125,25.9375,25.1875,27.6875,28.25,28.625
0.13605298,-0.97472656,-1.1513758,-0.93586564,-0.0284506,0.07671645,-0.13918927,-0.38524312,-0.34926233,0.060002483,3.0785222,-0.6231699,0.00010627835,-0.06417988,-0.0120071275,0.0018124757,-0.01562163,0.0077776797,0.011068639,0.4748074,-1.4183471,1.9488047,-2.1001236,-1.5700821,2.4487,-0.04403085,0.11324602,-0.13597172,0.008659076,0.010083499,-0.05502792,-0.38307226,0.3256114,-9.500193,0.79560274,47.63315,-1.1949427,-1.9277818,-3.3046,-0.28324312,0.09338248,-0.2130095,25.3125,25.9375,25.1875,27.6875,28.25,28.625
0.13805208,-1.719817,-1.3267727,-1.0817136,-0.027100356,0.06248393,-0.13015595,-0.3853761,-0.34929654,0.06004607,3.0784512,-0.623079,2.553271e-05,-0.06558132,-0.0122817205,0.001883885,-0.015873922,0.008056125,0.009637786,0.4747232,-1.4181902,1.9485172,-2.100088,-1.5700463,2.448568,-0.044869367,0.11569429,-0.13900895,0.008887228,0.01018072,-0.054432943,-0.45968673,0.30645782,-9.461885,0.8291774,47.682407,-1.1815455,-1.9992083,-3.2149558,-0.2772034,0.117039494,-0.22727996,25.3125,25.9375,25.1875,27.6875,28.25,28.625
0.14005215,-1.7564982,-1.3961049,-0.9030826,-0.03324163,0.060809717,-0.13027558,-0.38551384,-0.3493403,0.060054243,3.0783868,-0.6231054,5.5626697e-06,-0.06654274,-0.0122236945,0.0018534415,-0.016229378,0.008027661,0.008488772,0.47465074,-1.4179374,1.9482058,-2.1000755,-1.5700096,2.4485204,-0.046042208,0.1171124,-0.14060165,0.008926278,0.010510091,-0.0544557,-0.45968673,0.30645782,-9.404425,0.7172743,47.694946,-1.1409457,-1.901626,-3.1865916,-0.26204973,0.09519313,-0.24178219,25.3125,25.9375,25.1875,27.6875,28.25,28.625
0.14205223,-1.8643199,-1.9602578,-1.0115913,-0.027550517,0.05920635,-0.11857861,-0.38565123,-0.34935898,0.060054004,3.0783937,-0.6230096,-4.948532e-05,-0.06745942,-0.012069302,0.0018257569,-0.015791545,0.008012534,0.008093579,0.47456646,-1.4176967,1.9479302,-2.1000755,-1.5700225,2.4483757,-0.04688483,0.118644394,-0.14244202,0.009450066,0.010128132,-0.054901425,-0.5554548,0.40222588,-9.423578,0.75755644,47.666286,-1.1907401,-1.773392,-3.1679745,-0.2836688,0.09586717,-0.28381705,25.3125,25.9375,25.1875,27.6875,28.25,28.625
0.14405172,-1.5319886,-1.2091659,-0.66224635,-0.046465,0.06895404,-0.13194281,-0.38580582,-0.3494045,0.060077455,3.0783083,-0.62295437,-0.00014254071,-0.06922019,-0.012715613,0.0013939571,-0.015802538,0.0076449155,0.007813333,0.47448224,-1.417467,1.9476184,-2.1000988,-1.5699862,2.448268,-0.047442157,0.12328061,-0.14681458,0.00951083,0.010303714,-0.055174798,-0.53630114,0.36391866,-9.404425,0.77545905,47.63852,-1.191784,-1.8469281,-3.2856154,-0.2449151,0.11110756,-0.30325836,25.3125,25.9375,25.1875,27.6875,28.25,28.625
0.14605197,-1.4666255,-1.188204,-0.4914682,-0.03012972,0.055446096,-0.1299178,-0.3859237,-0.34942642,0.06007327,3.078316,-0.6229371,-7.3752926e-05,-0.069304176,-0.011851485,0.00055043184,-0.0147800585,0.0061113075,0.0070403963,0.47439778,-1.4172143,1.9473189,-2.1000154,-1.5699624,2.4481719,-0.048889954,0.12429124,-0.1461056,0.009625968,0.010096029,-0.055850133,-0.40222588,0.2681506,-9.308657,0.84708,47.684196,-1.1366351,-1.9478834,-3.3482661,-0.25736353,0.09728429,-0.3230658,25.3125,25.9375,25.1875,27.6875,28.25,28.625
0.14805195,-1.0122665,-0.83238965,-0.12259286,-0.025077593,0.05709376,-0.12998094,-0.38605517,-0.349435,0.060050726,3.0783088,-0.6229153,-3.4800672e-05,-0.07046734,-0.011458141,0.00076484814,-0.014042135,0.0070781866,0.0066645592,0.4742775,-1.4169497,1.9470667,-2.1000154,-1.5699385,2.448039,-0.049910545,0.1252727,-0.14779796,0.009820758,0.008995895,-0.056493163,-0.40222588,0.2681506,-9.308657,0.81351066,47.70211,-1.1565887,-1.9149662,-3.2907047,-0.24520832,0.10383953,-0.32861152,25.3125,25.9375,25.1875,27.6875,28.25,28.625
0.15005226,-0.8101444,-0.18977937,-0.042904425,-0.02434423,0.048666466,-0.13664207,-0.38624072,-0.34945604,0.06009703,3.0782063,-0.6229334,-0.00022217043,-0.07089279,-0.011185728,-0.001358581,-0.012488549,0.004018951,0.006537294,0.47414505,-1.4167557,1.9467438,-2.1000402,-1.5699381,2.447931,-0.050762914,0.1302843,-0.1485366,0.008980594,0.009017805,-0.057215657,-0.3256114,0.22984336,-9.155427,0.76874626,47.69763,-1.1414411,-2.0112472,-3.3017254,-0.2283722,0.13242567,-0.35106722,25.3125,25.9375,25.1875,27.6875,28.25,28.625
0.15205224,-0.3092442,0.084539406,-0.023676053,-0.013986061,0.044904687,-0.13831331,-0.38641036,-0.34951076,0.060126394,3.078113,-0.6228568,-0.0002811761,-0.07253031,-0.011344682,0.0013138482,-0.01445611,0.008881032,0.0057285368,0.47404882,-1.416493,1.9463724,-2.1000273,-1.5698789,2.447799,-0.051642,0.1269122,-0.15091224,0.009510293,0.008551395,-0.057284385,-0.21068975,0.21068975,-9.002198,0.87393653,47.687782,-1.0738666,-1.7946371,-3.3438575,-0.20829569,0.10438824,-0.39502975,25.3125,25.9375,25.1875,27.6875,28.25,28.625
0.15405194,-0.30342174,-0.13791603,0.12007444,-0.00060756947,0.03473478,-0.1383527,-0.38655695,-0.34951112,0.06011208,3.0781066,-0.6228945,-0.00027788378,-0.07392621,-0.0102440175,0.00046302498,-0.013272204,0.007518852,0.0032492634,0.4739158,-1.4162275,1.9460973,-2.1000154,-1.5698789,2.4476905,-0.054548133,0.12977083,-0.15236765,0.009862526,0.008119419,-0.05770997,-0.17238252,0.05746084,-8.829816,0.7866488,47.682407,-1.0192459,-1.866369,-3.4548788,-0.2101854,0.11143586,-0.42522556,25.3125,25.9375,25.1875,27.6875,28.25,28.625
0.15605207,-0.06183491,0.44245547,0.0096874405,-0.0038952166,0.029274117,-0.13823885,-0.38669297,-0.34953636,0.060122762,3.0781088,-0.6228554,-0.00031751604,-0.07484288,-0.011169939,0.00057716155,-0.01409574,0.0077714734,0.0049572294,0.47384396,-1.4159863,1.9457849,-2.0999672,-1.5698909,2.4475942,-0.054123178,0.13209783,-0.15534039,0.009906328,0.008733943,-0.05899145,-0.21068975,0.095768064,-8.734048,0.7978386,47.634937,-0.97822237,-1.8267848,-3.325632,-0.20050554,0.12814052,-0.44439286,25.3125,25.9375,25.1875,27.6875,28.25,28.625
0.1580521,-0.19588648,0.1507808,0.07713383,0.0034009588,0.018516114,-0.14095484,-0.38684803,-0.34957042,0.06012329,3.0780377,-0.6227818,-0.00033089923,-0.07533533,-0.011498584,0.0001949446,-0.013705256,0.007064771,0.0070801363,0.47372413,-1.4157215,1.945485,-2.0999916,-1.5698308,2.4474375,-0.053947702,0.13438413,-0.15722097,0.010313912,0.008712566,-0.06093724,-0.22984336,0.1340753,-8.772355,0.85155696,47.661808,-1.1615568,-1.8452365,-3.3822107,-0.18182999,0.121137455,-0.45538908,25.3125,25.9375,25.1875,27.6875,28.25,28.625
0.16005217,-0.15985143,-0.07771902,-0.105619974,-0.0016788443,0.028011374,-0.12718667,-0.38701278,-0.3495852,0.060137264,3.0780272,-0.6228177,-0.0003955174,-0.077336475,-0.011376924,0.00087852014,-0.013710536,0.008029431,0.0077041895,0.47361553,-1.4154564,1.9451374,-2.099943,-1.5698546,2.447353,-0.055672433,0.1362648,-0.16127503,0.011629355,0.0082771685,-0.06328356,-0.11492168,0.1340753,-8.772355,0.83365434,47.64121,-1.092665,-1.802113,-3.3510375,-0.18289997,0.13767141,-0.47550908,25.3125,25.9375,25.1875,27.6875,28.25,28.625
0.16205232,-0.9546602,-0.62109065,-0.31806082,0.007136182,0.0063673453,-0.12963906,-0.38714573,-0.34958956,0.06011406,3.0780454,-0.6227228,-0.00036667884,-0.07788901,-0.009990465,2.5807194e-05,-0.012976,0.0055807484,0.01009823,0.4734945,-1.4151919,1.9448861,-2.0999424,-1.5698427,2.4471705,-0.05889306,0.13755481,-0.16108444,0.012667486,0.008748761,-0.06889876,-0.095768064,0.1340753,-8.90643,0.8090337,47.651955,-0.8950329,-1.8701179,-3.5172687,-0.16233024,0.13694593,-0.45596474,25.3125,25.9375,25.1875,27.6875,28.25,28.625
0.16405243,-0.85671484,-0.81629086,-0.30818513,-0.014743596,0.015885938,-0.12755676,-0.3873034,-0.34960997,0.06010819,3.0780396,-0.6226816,-0.0003909883,-0.078066334,-0.010762841,-0.0014929746,-0.011961528,0.0021636426,0.012444461,0.47338673,-1.4149015,1.9445628,-2.09993,-1.5698422,2.447038,-0.058086526,0.14286725,-0.16402484,0.013799129,0.009404004,-0.07043666,-0.095768064,0.28730422,-9.002198,0.8112748,47.677036,-0.89132595,-1.8636899,-3.3728342,-0.17158628,0.1363408,-0.45776212,25.3125,25.9375,25.1875,27.6875,28.25,28.625
0.16605268,-0.51672274,-0.5698456,-0.34337407,-0.029632524,0.029654868,-0.13357173,-0.38745406,-0.34962323,0.060107835,3.0779948,-0.62270826,-0.00034602033,-0.07994486,-0.011465945,0.0013749121,-0.0146747595,0.007146274,0.017118825,0.47324246,-1.4146386,1.9442505,-2.0998824,-1.5697945,2.446916,-0.058608726,0.14010921,-0.16757604,0.014445312,0.009547971,-0.075632215,-0.05746084,0.30645782,-9.11712,0.83813137,47.698532,-1.0219729,-1.7118386,-3.3355284,-0.1591332,0.15754125,-0.40993285,25.3125,25.9375,25.1875,27.6875,28.25,28.625
0.16805266,-1.1517721,-1.2187886,-0.7809095,-0.02587639,0.026405664,-0.12315066,-0.38761583,-0.3496627,0.060113803,3.0779674,-0.6225837,-0.00032404283,-0.081650585,-0.010904326,0.0013310086,-0.014362156,0.00665583,0.022507183,0.4731337,-1.4143372,1.943879,-2.0998337,-1.5697459,2.4467332,-0.06108302,0.14252406,-0.170557,0.015602329,0.009500016,-0.083493136,-0.095768064,0.34476504,-9.174581,0.80456203,47.66987,-0.91413414,-1.8524747,-3.1979706,-0.18526138,0.13454726,-0.33724877,25.3125,25.9375,25.1875,27.6875,28.25,28.625
0.17005168,-1.108588,-1.9026867,-0.87818956,-0.03087336,0.034145486,-0.124608845,-0.38776687,-0.3496797,0.06012515,3.0780222,-0.6224204,-0.00037190298,-0.08212649,-0.0110497475,0.0007556805,-0.014292697,0.005096714,0.024332905,0.47304973,-1.4140723,1.9435319,-2.0997617,-1.5697821,2.4465406,-0.061649427,0.14497711,-0.17225322,0.01626253,0.0101506105,-0.08588449,-0.17238252,0.49799395,-9.270349,0.80679786,47.68599,-0.8836218,-1.7544723,-3.4084024,-0.17391457,0.1389906,-0.3114816,25.3125,25.9375,25.1875,27.6875,28.25,28.625
0.17205255,-1.0491732,-1.7631357,-0.8613032,-0.06153814,0.052522298,-0.13305512,-0.3879398,-0.34967083,0.06008871,3.0780356,-0.62245923,-0.0002998425,-0.08236314,-0.010660454,0.0002098839,-0.013476292,0.0037062184,0.028405827,0.47286937,-1.4137235,1.9432081,-2.099738,-1.5697702,2.446383,-0.06244889,0.14643794,-0.17292869,0.017094366,0.010059821,-0.09075703,-0.24899697,0.47884035,-9.346964,0.8179876,47.683304,-0.8904531,-1.7413632,-3.416079,-0.19114436,0.1393152,-0.24258992,25.3125,25.9375,25.1875,27.6875,28.25,28.625
0.17405178,-1.0941594,-1.7180716,-1.0294409,-0.07555447,0.069461875,-0.1392558,-0.3880953,-0.34968886,0.060088206,3.0780382,-0.6223434,-0.0002484507,-0.08351516,-0.01102875,0.00030043162,-0.013946361,0.0039504226,0.029799784,0.47273704,-1.4134343,1.94286,-2.0996659,-1.5697345,2.4461782,-0.06300425,0.14850643,-0.17559543,0.017266452,0.010363591,-0.09270517,-0.4405331,0.53630114,-9.519346,0.7777002,47.66987,-0.8639852,-1.8340373,-3.3961098,-0.191988,0.15695396,-0.1892533,25.3125,25.9375,25.1875,27.6875,28.25,28.625
0.17605187,-1.8197407,-2.1555998,-1.3078065,-0.062112156,0.06839939,-0.11825299,-0.38825563,-0.3497146,0.060090974,3.0780294,-0.6222639,-0.00026293407,-0.08454159,-0.011046243,0.00045463786,-0.0144393165,0.0043798042,0.030083558,0.4726287,-1.4131458,1.9425133,-2.09963,-1.5697216,2.4460216,-0.06402579,0.14966126,-0.17730588,0.017218048,0.010607568,-0.094009474,-0.36391866,0.47884035,-9.595961,0.8493211,47.66271,-0.87920487,-1.6863155,-3.3478632,-0.20938486,0.15085949,-0.15979102,25.3125,25.9375,25.1875,27.6875,28.25,28.625
0.17805219,-1.7607911,-1.9023358,-1.3542897,-0.06340777,0.07105359,-0.12158765,-0.38843367,-0.3497237,0.060085647,3.0780172,-0.6221856,-0.00022570684,-0.085635394,-0.010881735,7.997288e-05,-0.0142529905,0.00414847,0.028943295,0.47246036,-1.412833,1.9421543,-2.0995824,-1.5696858,2.445806,-0.065221526,0.15191111,-0.17903613,0.016994758,0.010544303,-0.09406382,-0.28730422,0.45968673,-9.615114,0.84708,47.679718,-0.827363,-1.628725,-3.4031682,-0.1812337,0.15533763,-0.14690053,25.3125,25.9375,25.1875,27.6875,28.25,28.625
0.18005218,-1.7060397,-1.8407557,-1.296749,-0.04315642,0.065555535,-0.12312747,-0.38861328,-0.34977227,0.060089868,3.0779545,-0.6221156,-0.00025091943,-0.08698823,-0.011370006,0.00016426065,-0.015436749,0.0051827566,0.026176773,0.47235218,-1.4125075,1.94177,-2.099583,-1.5696377,2.4456623,-0.06592078,0.15385264,-0.18123755,0.015796619,0.011124921,-0.091994755,-0.40222588,0.3256114,-9.653421,0.75755644,47.695843,-0.8092787,-1.8282925,-3.391274,-0.18438312,0.15501747,-0.13307908,25.3125,25.9375,25.1875,27.6875,28.25,28.625
0.18205224,-1.171422,-1.0465065,-1.4738458,-0.038710915,0.06471456,-0.13041015,-0.38876382,-0.3497975,0.06008527,3.0780277,-0.62188333,-0.0002281967,-0.08723608,-0.010872384,-0.0021101055,-0.0142401485,0.0012080653,0.020254072,0.47226754,-1.4121935,1.9413995,-2.099499,-1.5696491,2.4454236,-0.06746328,0.1586377,-0.18151276,0.015363703,0.011860021,-0.087614365,-0.40222588,0.3256114,-9.691729,0.77545905,47.688675,-0.7761367,-1.9369174,-3.4810505,-0.1661373,0.15333334,-0.16201435,25.3125,25.9375,25.1875,27.6875,28.25,28.625
0.18405242,-0.9240192,-0.7407105,-1.4810131,-0.030999245,0.05687901,-0.13442189,-0.3889747,-0.34980264,0.060098507,3.0779297,-0.6219621,-0.00029621995,-0.08932037,-0.011130745,-0.0017207182,-0.014747321,0.0031702467,0.016189607,0.4720632,-1.4119045,1.941039,-2.0995114,-1.5696138,2.445281,-0.068553604,0.16097382,-0.18493329,0.01447413,0.011415741,-0.08463701,-0.36391866,0.24899697,-9.787497,0.8179876,47.675243,-0.7579397,-1.9082174,-3.566648,-0.13857614,0.15797134,-0.19911891,25.3125,25.9375,25.1875,27.6875,28.25,28.625
0.18605159,-1.2657487,-0.593094,-1.3838159,-0.031214405,0.041666646,-0.121992014,-0.3891673,-0.3498579,0.06012108,3.0778358,-0.6218686,-0.0003899307,-0.08930529,-0.010684758,-0.0033803168,-0.013847814,-0.00010692553,0.009871989,0.47195497,-1.4116033,1.9406456,-2.0995347,-1.5695652,2.4451265,-0.06972791,0.16418831,-0.1849227,0.0145743275,0.012109485,-0.07949222,-0.34476504,0.11492168,-9.595961,0.83589023,47.66091,-0.70385337,-2.0794463,-3.6004174,-0.1151672,0.16091505,-0.24144138,25.3125,25.9375,25.1875,27.6875,28.25,28.625
0.18805167,-1.1667038,-0.8379095,-1.2036808,-0.01632847,0.05142277,-0.11806613,-0.38935724,-0.34986427,0.06010043,3.077848,-0.62187195,-0.0003336665,-0.09034508,-0.011131325,-0.0030665337,-0.014080452,0.0007585481,0.007819225,0.47178686,-1.4112306,1.9402493,-2.0994751,-1.5695533,2.4449592,-0.06970851,0.16573426,-0.18751979,0.014750364,0.011913958,-0.07741911,-0.30645782,0.11492168,-9.595961,0.8851263,47.701214,-0.6401354,-2.0214596,-3.5582592,-0.11642982,0.16647959,-0.29203326,25.3125,25.9375,25.1875,27.6875,28.25,28.625
0.19005172,-1.2341454,-0.78574413,-1.0947121,-0.011400014,0.047472727,-0.12646171,-0.38952345,-0.3498963,0.060088184,3.0778234,-0.62182754,-0.00033688665,-0.09130438,-0.009836813,-0.0036940577,-0.013327272,-0.0006114241,0.008578375,0.47167775,-1.4109055,1.9399022,-2.0994751,-1.5695294,2.4448256,-0.07278411,0.16710578,-0.18784113,0.015270424,0.011872866,-0.08125343,-0.22984336,0.05746084,-9.653421,0.82694155,47.690468,-0.634398,-2.0664136,-3.6447284,-0.09730047,0.17887554,-0.2935947,25.3125,25.9375,25.1875,27.6875,28.25,28.625
0.19205175,-1.5418277,-0.73421514,-0.77007335,-0.0068595125,0.043934993,-0.120613694,-0.38970688,-0.34991783,0.060099233,3.0777986,-0.6217458,-0.00035545643,-0.091164224,-0.010926741,-0.0041818,-0.012842748,-0.0012837062,0.008361677,0.4715347,-1.4106041,1.9395183,-2.099427,-1.5695056,2.444635,-0.07061574,0.16963486,-0.18973775,0.015458475,0.011743648,-0.078866765,-0.21068975,0.05746084,-9.481039,0.81351066,47.684196,-0.64000684,-2.187222,-3.636856,-0.0945813,0.18189831,-0.31450713,25.3125,25.9375,25.1875,27.6875,28.25,28.625
0.19405206,-0.996989,-0.49656886,-0.818456,-0.010112435,0.056373842,-0.12985207,-0.38989273,-0.34994063,0.06009978,3.0777755,-0.62172025,-0.00043889802,-0.09295356,-0.011757309,-0.003708493,-0.013362585,0.00010756548,0.008898741,0.47141466,-1.410291,1.9391583,-2.099439,-1.5695175,2.444502,-0.0706181,0.17246056,-0.19415563,0.015576843,0.011571496,-0.07940307,-0.21068975,0.11492168,-9.32781,0.8090337,47.674347,-0.73415375,-2.1311555,-3.5164604,-0.09962048,0.17816071,-0.33729047,25.3125,25.9375,25.1875,27.6875,28.25,28.625
0.19605201,-0.83388597,-0.34473565,-0.69343275,-0.0123275565,0.050736744,-0.12615499,-0.39009935,-0.34994766,0.060092047,3.077757,-0.6216983,-0.0003607993,-0.09582072,-0.012084889,-0.0017461554,-0.016186452,0.003638849,0.006516929,0.47120982,-1.4099188,1.9387273,-2.099355,-1.5694693,2.444286,-0.07314385,0.17253962,-0.19881538,0.015732309,0.01247423,-0.07954548,-0.21068975,0.076614454,-9.136273,0.86498255,47.674347,-0.640214,-2.0001984,-3.4041169,-0.06697064,0.18651909,-0.34605205,25.3125,25.9375,25.1875,27.6875,28.25,28.625
0.19805199,-0.78090614,-0.27321112,-0.7548669,-0.010167634,0.033106707,-0.12671192,-0.39030764,-0.34999537,0.060102,3.0776992,-0.6215895,-0.00045297117,-0.095731184,-0.013219079,-0.0016142181,-0.01539451,0.0033685635,0.008809817,0.47109067,-1.4095697,1.9383067,-2.0993779,-1.5694455,2.4441066,-0.07065585,0.1743838,-0.2016712,0.017349582,0.011897249,-0.07934789,-0.1340753,0.21068975,-9.174581,0.78888994,47.67345,-0.6503242,-2.0574734,-3.345478,-0.054661356,0.18813379,-0.3846525,25.3125,25.9375,25.1875,27.6875,28.25,28.625
0.200052,-0.895869,-1.0307057,-0.7691466,-0.011236292,0.021463286,-0.12042083,-0.39050663,-0.3500271,0.060108893,3.0776577,-0.62155867,-0.00051250606,-0.0957888,-0.013851466,-0.0010575595,-0.015605653,0.0034587795,0.011331525,0.47095922,-1.4092336,1.9379,-2.099366,-1.5694331,2.4439614,-0.069649175,0.17459662,-0.20359032,0.018883597,0.012051874,-0.0808617,-0.22984336,0.2873042,-9.155427,0.7553206,47.691364,-0.85840166,-1.9029098,-3.306807,-0.06014899,0.20827752,-0.40242076,25.3125,25.9375,25.1875,27.6875,28.25,28.625
0.20205201,-0.5717713,-1.1032306,-0.5900053,-0.0354667,0.033748236,-0.12827078,-0.39068756,-0.3500573,0.06011386,3.0776348,-0.6215344,-0.00047614967,-0.09737588,-0.013897383,-0.00019511906,-0.016013907,0.0049499786,0.012409101,0.47082677,-1.4088972,1.9374808,-2.099282,-1.5693978,2.443817,-0.07074968,0.17541668,-0.20674832,0.019715788,0.011738544,-0.083038434,-0.2681506,0.40222588,-9.289502,0.89631605,47.687782,-0.82899773,-1.8559873,-3.3330073,-0.06320808,0.22018106,-0.4092136,25.3125,25.9375,25.1875,27.6875,28.25,28.625
0.20405242,-0.6051751,-1.5987846,-0.85497487,-0.04361518,0.037666325,-0.121658266,-0.3908958,-0.35006663,0.060118973,3.077645,-0.62151396,-0.0005230504,-0.097133085,-0.014039944,-0.0013124271,-0.014665039,0.0023953356,0.016812945,0.47067106,-1.4085474,1.9370512,-2.0992215,-1.5694216,2.4436474,-0.07020929,0.17832878,-0.2078796,0.020828309,0.011703732,-0.086900994,-0.17238252,0.49799395,-9.308656,0.84708,47.67614,-0.887805,-1.9541148,-3.3358803,-0.06265291,0.23301312,-0.3762339,25.3125,25.9375,25.1875,27.6875,28.25,28.625
0.20605242,-0.76799995,-2.0651498,-0.74216115,-0.055112783,0.0374244,-0.12046746,-0.39109254,-0.3501004,0.060123898,3.077575,-0.62147796,-0.00051877514,-0.09744649,-0.013811991,-0.0019904005,-0.014054183,0.0005036505,0.021112194,0.4705147,-1.4082105,1.9366449,-2.0991971,-1.5693611,2.4434776,-0.07104766,0.18045786,-0.20909382,0.021889098,0.01202927,-0.09203753,-0.05746084,0.47884035,-9.270349,0.8851263,47.658226,-0.91891515,-1.8231604,-3.3488822,-0.06718064,0.23081519,-0.34605825,25.3125,25.9375,25.1875,27.6875,28.25,28.625
0.20805268,-0.696765,-2.075808,-0.6847472,-0.06511916,0.038709193,-0.12463492,-0.39127135,-0.35013235,0.060112186,3.0776048,-0.62130797,-0.00046597773,-0.09827048,-0.014252853,-0.0007604493,-0.015128393,0.0027795588,0.025390476,0.47039482,-1.4078386,1.9362253,-2.0991256,-1.5693372,2.443248,-0.070922695,0.17949854,-0.21091257,0.022160988,0.011956417,-0.09619063,-0.019153614,0.49799395,-9.308656,0.8179876,47.653748,-0.9638467,-1.7995534,-3.3910513,-0.071220785,0.2482397,-0.29483694,25.3125,25.9375,25.1875,27.6875,28.25,28.625
0.21005182,-0.5099477,-1.9925812,-0.60603416,-0.055296578,0.037094202,-0.1296118,-0.39148033,-0.35014784,0.060092416,3.0776076,-0.62124604,-0.000452049,-0.099759124,-0.014819916,-0.00024858382,-0.016811049,0.003494475,0.03210294,0.4702264,-1.4074416,1.9358057,-2.0991018,-1.5693249,2.4430408,-0.07196382,0.18117324,-0.21411438,0.022297613,0.013138259,-0.10394274,0.05746084,0.51714754,-9.251195,0.8179876,47.686886,-0.8955296,-1.7373631,-3.3573592,-0.06539415,0.25292447,-0.24281359,25.3125,25.9375,25.1875,27.6875,28.25,28.625
0.21205202,-0.3784878,-1.7618488,-0.7199651,-0.04223165,0.022173818,-0.116244346,-0.39169863,-0.35018775,0.06010668,3.077558,-0.62115926,-0.00046007498,-0.10078994,-0.014560267,-0.0003987039,-0.016827688,0.0035162785,0.031830627,0.47007,-1.4070686,1.9353279,-2.0990417,-1.5692772,2.4428368,-0.073292546,0.18269326,-0.21557608,0.022220861,0.013147673,-0.104997806,0.076614454,0.5554548,-9.174581,0.8403672,47.687782,-0.90826607,-1.7501216,-3.270206,-0.052283566,0.25553375,-0.1788232,25.3125,25.9375,25.1875,27.6875,28.25,28.625
0.21405211,0.17617114,-1.1768945,-0.59279346,-0.035087172,0.014687057,-0.12295885,-0.39191145,-0.35020468,0.060083367,3.07753,-0.62107426,-0.00042388865,-0.10180222,-0.014820588,-0.0012587932,-0.01653675,0.0022597723,0.03541805,0.46987778,-1.4066713,1.9349211,-2.0990417,-1.5692285,2.4425952,-0.07388372,0.18654661,-0.21813989,0.022195915,0.013460682,-0.109174654,0.05746084,0.47884035,-9.289502,0.83813137,47.677036,-0.9175222,-1.7603016,-3.3027456,-0.049037587,0.26937395,-0.12394682,25.3125,25.9375,25.1875,27.6875,28.25,28.625
0.21605219,-0.11020339,-1.0868243,-0.73505217,-0.023618981,-8.3856185e-06,-0.115857095,-0.392107,-0.3502569,0.060075052,3.0775528,-0.6208492,-0.0004658985,-0.10230164,-0.015273101,-0.00096938363,-0.017152531,0.0030252775,0.0338562,0.46979395,-1.4062747,1.9344782,-2.0990298,-1.5692285,2.4423683,-0.0736234,0.18709266,-0.21945743,0.022003997,0.013661686,-0.10735145,0.076614454,0.4213795,-9.251195,0.8851263,47.67614,-0.95472777,-1.7959781,-3.4586883,-0.028823014,0.27652648,-0.1175905,25.3125,25.9375,25.1875,27.6875,28.25,28.625
0.21805172,0.32739562,-0.81323445,-0.6917794,-0.03624246,0.0103759505,-0.11991134,-0.39230645,-0.35029426,0.060072917,3.0775626,-0.62071824,-0.00046540107,-0.10436001,-0.014823028,-0.0010298217,-0.018170763,0.0032439937,0.029036453,0.46967283,-1.4058895,1.9340233,-2.0989697,-1.5692161,2.4421644,-0.07671537,0.18941577,-0.22197093,0.021536203,0.014463799,-0.105622075,0.17238252,0.36391866,-9.212888,0.9097417,47.655537,-0.8207259,-1.8085867,-3.444699,-0.028979456,0.27095738,-0.12729082,25.3125,25.9375,25.1875,27.6875,28.25,28.625
0.22005178,0.0543561,-1.30529,-0.7132309,-0.037950546,0.012703792,-0.11441118,-0.39253473,-0.35032433,0.06009017,3.0775092,-0.6206684,-0.0005267681,-0.10397469,-0.016613234,-0.0016997311,-0.017923286,0.0022729817,0.029257666,0.46950597,-1.405528,1.9335569,-2.098934,-1.5691923,2.4419734,-0.07331678,0.19282943,-0.22447972,0.021608884,0.014681247,-0.10244215,0.05746084,0.38307226,-9.3661175,0.8224646,47.709274,-0.9705,-1.9358416,-3.4032173,-0.0051305895,0.26874793,-0.13798477,25.3125,25.9375,25.1875,27.6875,28.25,28.625
0.22205196,-0.7279466,-1.5423058,-0.67496425,-0.029774345,0.0014799765,-0.11151611,-0.39271456,-0.35036254,0.06004696,3.0775297,-0.6205597,-0.00037611916,-0.10448972,-0.01628002,-0.0026185294,-0.017107205,-6.466216e-05,0.025129205,0.4693736,-1.4050825,1.9331254,-2.0988734,-1.5691322,2.4417708,-0.07451526,0.19570696,-0.22607084,0.022779042,0.014999309,-0.09951243,0.0,0.36391866,-9.346964,0.89631605,47.67166,-1.0857992,-2.0074015,-3.5007625,-0.0067252144,0.27433288,-0.17008337,25.3125,25.9375,25.1875,27.6875,28.25,28.625
0.22405222,-0.04054872,-1.0376955,-0.75886583,-0.036730725,0.021697467,-0.12090179,-0.39293876,-0.35037526,0.060050882,3.0774968,-0.6205568,-0.00037968255,-0.106691554,-0.015554246,-0.0020484282,-0.017670395,0.00012043724,0.017980197,0.46918032,-1.4047096,1.9326705,-2.0988133,-1.5691084,2.44158,-0.07794904,0.19727837,-0.22961292,0.024328142,0.015411819,-0.09579537,0.038307227,0.2681506,-9.404425,0.8157518,47.66987,-0.85117793,-2.0506513,-3.386948,0.011634886,0.2769563,-0.21861798,25.3125,25.9375,25.1875,27.6875,28.25,28.625
0.22605252,-0.24672933,-1.1171435,-0.5822388,-0.026146486,0.025181137,-0.118483394,-0.39315745,-0.35042325,0.06007762,3.0774257,-0.6204635,-0.00042981454,-0.105385,-0.017198987,-0.00339945,-0.017133342,-0.0028640812,0.018612143,0.4690379,-1.4043599,1.9321932,-2.0987651,-1.5690597,2.4413886,-0.07440694,0.20077763,-0.2307886,0.024908682,0.016284697,-0.09288303,0.019153614,0.2681506,-9.404425,0.83589023,47.672558,-1.0769501,-2.0964344,-3.414678,-0.017332656,0.27500632,-0.2685147,25.3125,25.9375,25.1875,27.6875,28.25,28.625
0.2280519,-0.15770362,-0.49992126,-0.77864546,-0.022178965,0.02228008,-0.12242072,-0.39336294,-0.35044786,0.06005427,3.0774643,-0.6203586,-0.00042553447,-0.106374286,-0.016862849,-0.0036289573,-0.01710113,-0.002880256,0.01473591,0.46890536,-1.4039392,1.9317502,-2.0987298,-1.5690721,2.441186,-0.07580638,0.20223919,-0.23198839,0.024673214,0.01625561,-0.090405814,-0.019153614,0.22984336,-9.346964,0.8717007,47.66987,-1.1041013,-1.9899964,-3.4899373,0.031181391,0.28469455,-0.31310257,25.375,25.9375,25.1875,27.6875,28.25,28.625
0.23005189,-0.7195571,-0.96146905,-0.9009852,-0.01907912,0.021956874,-0.11512994,-0.39355338,-0.35049117,0.060023945,3.0774367,-0.62037015,-0.00032100678,-0.10827369,-0.017473714,-0.0021612162,-0.01913833,-0.00043960087,0.015465462,0.46877286,-1.4035065,1.9313062,-2.0986817,-1.569012,2.4410644,-0.07682861,0.2025535,-0.23589276,0.025173495,0.016963078,-0.092156574,-0.076614454,0.32561144,-9.3661175,0.83813137,47.699425,-1.1125556,-2.157833,-3.4155457,0.0069867456,0.28738123,-0.3292157,25.375,25.9375,25.1875,27.6875,28.25,28.625
0.2320518,-0.57618815,-1.2197493,-1.0347011,-0.018911434,0.029069832,-0.120523706,-0.39377493,-0.35052386,0.060021374,3.0774338,-0.620295,-0.00029295133,-0.108339064,-0.017363992,-0.0027969896,-0.018394293,-0.0022695698,0.011583199,0.468617,-1.4030855,1.9308041,-2.0985973,-1.5689877,2.4408622,-0.07711979,0.20440897,-0.23694396,0.026336405,0.017121537,-0.088565126,-0.114921674,0.3256114,-9.289502,0.8537928,47.660015,-1.0761884,-2.0986357,-3.5210123,0.00976387,0.29113466,-0.39299121,25.375,25.9375,25.1875,27.6875,28.25,28.625
0.23405187,-1.1017262,-1.0973692,-0.97976637,-0.028238207,0.033831615,-0.12074757,-0.3939914,-0.35056487,0.06001842,3.0774071,-0.6202122,-0.00028432047,-0.10968782,-0.017769547,-0.0018821137,-0.019321308,-0.0009460919,0.011374721,0.46847266,-1.4026768,1.9303254,-2.0985491,-1.5689515,2.4406698,-0.077697955,0.2051532,-0.24017343,0.027227787,0.017349528,-0.088933155,-0.1340753,0.2681506,-9.346964,0.87393653,47.660015,-1.1579839,-2.1420336,-3.4538312,0.009304838,0.27409267,-0.45518404,25.375,25.9375,25.1875,27.6875,28.25,28.625
0.23605162,-1.6485598,-1.6412789,-1.1154175,-0.022084702,0.03790707,-0.10586588,-0.39418933,-0.3505965,0.059993967,3.0774243,-0.62013906,-0.00018637709,-0.11082481,-0.018502895,-0.0009987724,-0.020642871,0.0006398994,0.010990471,0.4683286,-1.4022443,1.9298595,-2.0984652,-1.5689152,2.440478,-0.077660695,0.20578668,-0.24306102,0.027473573,0.017803123,-0.08851132,-0.3256114,0.30645782,-9.346964,0.8560339,47.67166,-1.0933714,-2.052476,-3.403726,0.007989832,0.28927022,-0.46896595,25.375,25.9375,25.1875,27.6875,28.25,28.625
0.23805267,-1.4017506,-1.1039503,-1.1815337,-0.03902755,0.06923996,-0.122062474,-0.39440167,-0.35062385,0.059986304,3.077396,-0.6201513,-0.00017466543,-0.11139455,-0.017963624,-0.0012404736,-0.02036644,0.00020701368,0.01137643,0.4681722,-1.4018476,1.9294051,-2.098417,-1.5688914,2.4403331,-0.07901862,0.20655145,-0.24352601,0.027693102,0.017756287,-0.09025493,-0.24899697,0.24899697,-9.5385,0.9321212,47.661808,-1.1632702,-2.0110164,-3.5248213,0.006665703,0.2935496,-0.5347129,25.375,25.9375,25.1875,27.6875,28.25,28.625
0.24005187,-1.9034251,-1.4228413,-1.2552277,-0.030025927,0.06710221,-0.119519696,-0.3946362,-0.35066903,0.05999735,3.0773327,-0.6200779,-0.00017151561,-0.11133809,-0.017786229,-0.0023798097,-0.01974498,-0.0031633992,0.015126919,0.46800402,-1.4014384,1.9288906,-2.0983574,-1.5688308,2.4401274,-0.079834804,0.20936047,-0.24464022,0.029299969,0.018736193,-0.094820194,-0.2681506,0.22984336,-9.557653,0.8157518,47.698532,-1.1415987,-2.0357776,-3.5305352,-0.010778574,0.2831744,-0.52212423,25.375,25.9375,25.1875,27.6875,28.25,28.625
0.24205193,-1.671452,-1.2484558,-1.156915,-0.030447247,0.07649219,-0.12316451,-0.3948518,-0.3506954,0.05996988,3.0773404,-0.61997986,-0.000101872625,-0.11224141,-0.017611153,-0.002420371,-0.019557342,-0.0039983895,0.020299433,0.46783543,-1.4009933,1.9284247,-2.0983088,-1.5687946,2.4398968,-0.081015825,0.21111077,-0.24700496,0.030762058,0.01895169,-0.10117333,-0.40222588,0.19153613,-9.519346,0.8873621,47.67614,-1.1785033,-2.0672321,-3.5891666,-0.024282131,0.29161602,-0.48640788,25.375,25.9375,25.1875,27.6875,28.25,28.625
0.24405208,-1.5606256,-1.01568,-1.2545402,-0.011442539,0.07345598,-0.119347855,-0.39507473,-0.3507255,0.0599637,3.0773215,-0.6199333,-6.6001674e-05,-0.11377953,-0.018175086,-0.001513782,-0.020344114,-0.0018343083,0.0272835,0.46766758,-1.4005727,1.9279331,-2.0982368,-1.5687593,2.4397025,-0.081160255,0.21212643,-0.2503492,0.03082564,0.01868303,-0.10830043,-0.5554548,0.15322891,-9.442732,0.7933669,47.66808,-1.1282144,-1.8430977,-3.5570912,-0.015377371,0.26784533,-0.43577367,25.375,25.9375,25.1875,27.6875,28.25,28.625
0.24605219,-1.1956992,0.06822906,-1.1972518,-0.0028500005,0.076640554,-0.12508674,-0.39530915,-0.3507812,0.05995326,3.0772645,-0.61982286,-3.4807104e-05,-0.11490425,-0.017736671,-0.002252609,-0.020153798,-0.0033739896,0.032387547,0.46751073,-1.4001153,1.9274191,-2.0982125,-1.5686868,2.4394841,-0.083195835,0.21504532,-0.2522624,0.031303253,0.019219832,-0.1154384,-0.4405331,0.11492168,-9.615114,0.94331104,47.675243,-1.0367347,-1.8904678,-3.555087,-0.009613289,0.27498582,-0.36455494,25.375,25.9375,25.1875,27.6875,28.25,28.625
0.24805216,-1.3662375,-0.017719546,-1.198222,-0.002220074,0.07159292,-0.12163077,-0.39556333,-0.35081095,0.059960786,3.0772266,-0.61971503,-2.8986009e-05,-0.114697166,-0.017670466,-0.0033428762,-0.018864067,-0.005686725,0.03805621,0.46730694,-1.3996818,1.9268812,-2.098141,-1.5686392,2.439218,-0.082990535,0.21753715,-0.25296813,0.032183897,0.01912451,-0.1209008,-0.49799395,0.1340753,-9.653421,0.89631605,47.67345,-1.1183202,-1.9855018,-3.5690217,-0.029027006,0.27941224,-0.27708817,25.375,25.9375,25.1875,27.6875,28.25,28.625
0.25005227,-1.4765007,-0.6226805,-1.0356312,-0.015791813,0.073968045,-0.12658459,-0.3957927,-0.35085785,0.05996709,3.077236,-0.6195248,-8.543294e-05,-0.1170931,-0.01619402,-0.0022790474,-0.018965244,-0.004333499,0.035954144,0.4671858,-1.3992615,1.9263662,-2.0980918,-1.5686396,2.4389772,-0.08729808,0.21738954,-0.25567123,0.03378956,0.018612767,-0.12310477,-0.49799395,0.19153613,-9.500193,0.8560339,47.691364,-1.0505077,-1.9470072,-3.6867652,-0.05979397,0.29748982,-0.23154189,25.375,25.9375,25.1875,27.6875,28.25,28.625
0.2520526,-1.3129102,-1.0486451,-1.2066507,-0.025095208,0.07423429,-0.122008614,-0.39601022,-0.3508741,0.059956077,3.0772593,-0.61943173,-1.3392867e-05,-0.11736741,-0.01695961,-0.0025786383,-0.018285938,-0.005149883,0.03950286,0.46700606,-1.3988403,1.925876,-2.0979836,-1.5686153,2.4387367,-0.08598543,0.22001578,-0.2583963,0.034935128,0.018370055,-0.12534034,-0.45968673,0.11492168,-9.481039,0.8493211,47.655537,-0.9614283,-2.0286608,-3.6569958,-0.07796024,0.30459714,-0.16718301,25.375,25.9375,25.1875,27.6875,28.25,28.625
0.25405172,-1.2464516,-1.1371493,-1.3787023,-0.02794395,0.06180895,-0.12651701,-0.39623252,-0.3508982,0.05990994,3.0772786,-0.61936164,0.00015125755,-0.11950018,-0.016601048,-0.0027361056,-0.017583163,-0.005226903,0.03482878,0.46681324,-1.3983347,1.925373,-2.0979002,-1.5685552,2.4384978,-0.08803424,0.22359028,-0.26252663,0.035883952,0.017756179,-0.12271465,-0.36391866,0.15322891,-9.519346,0.8717007,47.68062,-0.9802716,-2.0231245,-3.7200081,-0.09441121,0.3057734,-0.19331647,25.375,25.9375,25.1875,27.6875,28.25,28.625
0.256052,-1.0736524,-1.252224,-1.011396,-0.03219781,0.061169706,-0.115801096,-0.3964882,-0.35091972,0.05992508,3.0772595,-0.6192465,3.9567003e-05,-0.121925205,-0.01614366,-0.0020928665,-0.018229883,-0.004538465,0.026247723,0.46663225,-1.3979375,1.9248699,-2.0978754,-1.5685672,2.4382477,-0.09106181,0.2256019,-0.26670393,0.037133165,0.01801942,-0.11715787,-0.3256114,0.19153613,-9.423578,0.91198283,47.66539,-0.8359029,-2.0387812,-3.5184155,-0.1191039,0.3028454,-0.21678096,25.375,25.9375,25.1875,27.6875,28.25,28.625
0.25805172,-0.25030565,-0.78361124,-1.3209031,-0.02180746,0.055819932,-0.12123136,-0.3967455,-0.35096657,0.059930153,3.0772288,-0.6191476,3.325799e-05,-0.123657525,-0.01612179,-0.001296685,-0.019020613,-0.0033456953,0.0197447,0.46646383,-1.3974684,1.9242948,-2.0978029,-1.5685314,2.4380217,-0.092651464,0.22662269,-0.2699992,0.037983008,0.018180521,-0.112242594,-0.3256114,0.19153613,-9.423578,0.8873621,47.67166,-0.79675627,-2.1622722,-3.571957,-0.12206536,0.3069942,-0.29067907,25.375,25.9375,25.1875,27.6875,28.25,28.625
0.2600517,-0.84977543,-0.99292487,-1.4030066,-0.0064295386,0.03536724,-0.11138833,-0.39700803,-0.35101107,0.059934247,3.0771577,-0.6190757,2.0142847e-05,-0.1248506,-0.016095547,-0.0013016274,-0.01863768,-0.0031670835,0.017451216,0.46627152,-1.3970115,1.9237446,-2.0977676,-1.5684713,2.4377937,-0.09339756,0.22868532,-0.27262402,0.038566347,0.017758688,-0.11069309,-0.4213795,0.28730422,-9.3661175,0.83813137,47.685097,-0.6756524,-2.1135783,-3.4659863,-0.140879,0.3266884,-0.33162728,25.375,25.9375,25.1875,27.6875,28.25,28.625
0.26205173,-0.8253607,-0.8727954,-1.3231856,-0.023760451,0.044622857,-0.11477097,-0.39722842,-0.35102078,0.05990764,3.0771742,-0.6190213,0.00018591035,-0.12551703,-0.016615497,-0.0009286293,-0.019802727,-0.0033719887,0.016779782,0.4660557,-1.3965548,1.923242,-2.097635,-1.5684108,2.437542,-0.09370804,0.22971106,-0.2749982,0.03958007,0.018879693,-0.11033266,-0.40222588,0.2873042,-9.346964,0.85826975,47.674347,-0.69691586,-2.1021948,-3.393743,-0.17477125,0.33127952,-0.35962778,25.375,25.9375,25.1875,27.6875,28.25,28.625
0.26405197,-1.0253462,-0.9491022,-1.3675416,-0.025429683,0.052941613,-0.11791408,-0.39748886,-0.35104734,0.05990715,3.0771787,-0.619023,0.00013560617,-0.1268555,-0.017574186,0.00059212104,-0.021517152,-0.0010569639,0.016711788,0.46588767,-1.396086,1.9226793,-2.097563,-1.5684351,2.4373748,-0.09344771,0.22974192,-0.2788114,0.040522095,0.01936817,-0.11000252,-0.4405331,0.2681506,-9.423578,0.82022345,47.66271,-0.80500865,-2.0382242,-3.3856707,-0.20902559,0.31891435,-0.38032538,25.375,25.9375,25.1875,27.6875,28.25,28.625
0.2660521,-1.5205902,-1.9739903,-1.3449944,-0.022082934,0.059649967,-0.11179215,-0.39771605,-0.35108775,0.05988098,3.077181,-0.61892664,0.0002570515,-0.12671186,-0.017756602,0.0007303883,-0.021336008,-0.0013150956,0.016596016,0.46571982,-1.3955934,1.9221419,-2.0974672,-1.568375,2.4371467,-0.09289672,0.22978486,-0.27950403,0.041492444,0.019317692,-0.10933683,-0.4213795,0.38307226,-9.404425,0.8985519,47.68062,-0.8433317,-2.1025338,-3.4567366,-0.2340016,0.33401144,-0.40831292,25.375,25.9375,25.1875,27.6875,28.25,28.625
0.2680522,-1.7427124,-1.7866035,-1.2488859,-0.047194105,0.0675741,-0.11082082,-0.39798978,-0.35112345,0.059887696,3.0771282,-0.61887634,0.00028911248,-0.1276761,-0.016814252,0.00058986485,-0.021723267,-0.0024706842,0.017467508,0.46550277,-1.395113,1.9215435,-2.0973709,-1.5683144,2.4369051,-0.09584138,0.2305387,-0.28039655,0.04250671,0.020193128,-0.11315234,-0.2681506,0.3256114,-9.5385,0.8717007,47.64837,-0.7522353,-1.911368,-3.4916348,-0.26699445,0.32233098,-0.4169555,25.375,25.9375,25.1875,27.6875,28.25,28.625
0.2700521,-1.6445042,-1.6669112,-1.1634747,-0.05358897,0.064352185,-0.109734066,-0.39823163,-0.35116994,0.059887335,3.0770986,-0.6188108,0.0002990581,-0.12682147,-0.018087706,0.00026054197,-0.021648912,-0.0030911756,0.021255344,0.465348,-1.3946563,1.9209942,-2.0972989,-1.5682782,2.4367135,-0.09293898,0.23170847,-0.28115347,0.04269045,0.02040876,-0.11403709,-0.24899697,0.28730422,-9.461885,0.9097417,47.66539,-0.90119016,-1.7944124,-3.67026,-0.28174883,0.3214799,-0.43016785,25.375,25.9375,25.1875,27.6875,28.25,28.625
0.27205196,-1.0712442,-1.2361231,-1.2692611,-0.050776895,0.056342747,-0.11641845,-0.39849824,-0.35118818,0.059879173,3.0771039,-0.6186929,0.00032396635,-0.12885295,-0.017012732,-0.0005153281,-0.020497119,-0.0037890694,0.026586963,0.4651307,-1.3941747,1.9204305,-2.097215,-1.5682548,2.436422,-0.09605324,0.23531364,-0.28374425,0.042846702,0.019702056,-0.12248173,-0.22984336,0.2681506,-9.461885,0.90527004,47.63315,-0.8224604,-1.7906133,-3.6513894,-0.31591374,0.3290957,-0.3436281,25.375,25.9375,25.1875,27.6875,28.25,28.625
0.27405205,-0.56185436,-0.9738463,-1.2598531,-0.036162697,0.042383045,-0.11703198,-0.39876178,-0.35122,0.059890162,3.0770614,-0.61866194,0.00029082576,-0.12939547,-0.018369596,-0.0003314675,-0.0217543,-0.0020569952,0.032907262,0.46493953,-1.3937297,1.9198688,-2.097144,-1.568231,2.4362173,-0.094309285,0.23673807,-0.2855295,0.041112363,0.020055547,-0.12705614,-0.05746084,0.2681506,-9.442732,0.87617236,47.66271,-0.8969487,-1.8281732,-3.6019301,-0.3305012,0.3438154,-0.2924961,25.375,25.9375,25.1875,27.6875,28.25,28.625
0.2760525,0.06601932,-0.6996977,-1.3576068,-0.021339769,0.031310126,-0.12239709,-0.39904603,-0.3512863,0.05989408,3.0770004,-0.61845225,0.00027579648,-0.1320882,-0.01938469,0.0010359642,-0.024771761,0.0025431071,0.039444547,0.46475923,-1.3932127,1.919247,-2.0971086,-1.568158,2.435914,-0.09522081,0.23779373,-0.289388,0.03848005,0.020699766,-0.13450153,0.05746084,0.30645782,-9.481039,0.8784135,47.645687,-0.85116565,-1.7888136,-3.5627563,-0.31800383,0.349613,-0.20746477,25.375,25.9375,25.1875,27.6875,28.25,28.625
0.2780518,0.11381765,-0.25556013,-1.5313663,-0.02773291,0.022683516,-0.11690764,-0.39931148,-0.35132274,0.05990036,3.0769658,-0.6183291,0.00025274034,-0.13376118,-0.02013024,0.00026719386,-0.025522003,0.00262346,0.043416947,0.46456704,-1.3927547,1.9186834,-2.09705,-1.5681218,2.4356496,-0.09570796,0.24233669,-0.29268238,0.036841568,0.021340314,-0.13895783,-0.019153614,0.28730422,-9.5385,0.9030289,47.66091,-0.8234801,-2.0078008,-3.5386796,-0.3044039,0.326548,-0.113484204,25.375,25.9375,25.1875,27.6875,28.25,28.625
0.28005174,0.021964733,-1.0227758,-1.8114542,-0.01972634,0.02161359,-0.113489136,-0.3995617,-0.35134342,0.059875138,3.0769591,-0.61827016,0.00040026152,-0.13523485,-0.020009931,-0.00073523977,-0.024922783,0.0020423469,0.042653177,0.4643387,-1.3922487,1.9181212,-2.0969303,-1.5680503,2.4353855,-0.09693139,0.2464095,-0.29509068,0.03598224,0.021052564,-0.13941741,0.095768064,0.28730422,-9.672575,0.86945957,47.679718,-0.9289908,-2.2083735,-3.485351,-0.30995905,0.33824033,-0.08628942,25.375,25.9375,25.1875,27.6875,28.25,28.625
0.2820517,-0.43512648,-1.5033488,-1.6459851,-0.048978023,0.026765015,-0.11324362,-0.39984885,-0.35140458,0.05989216,3.0769107,-0.6181466,0.00034904308,-0.13732313,-0.021460699,0.001356875,-0.027225852,0.006385275,0.039746657,0.46417096,-1.3917443,1.9174751,-2.0968583,-1.5680145,2.435147,-0.096217744,0.24658415,-0.30016598,0.03596712,0.02116192,-0.13579382,0.076614454,0.34476504,-9.576807,0.842603,47.677036,-0.8130357,-2.027452,-3.372607,-0.299142,0.3384637,-0.08285195,25.375,25.9375,25.1875,27.6875,28.25,28.625
0.28405252,-0.9245985,-2.1773007,-1.5974077,-0.060201813,0.029886281,-0.09936744,-0.40013912,-0.35141084,0.059888694,3.076937,-0.618039,0.00029886843,-0.13788708,-0.021741876,0.00094791217,-0.026714789,0.006355525,0.03447414,0.4639431,-1.3912514,1.9168891,-2.0967867,-1.5680383,2.434849,-0.09583827,0.2486938,-0.3017607,0.035696015,0.020710776,-0.13014072,0.05746084,0.4213795,-9.481039,0.8627467,47.666286,-0.892383,-2.136288,-3.4025812,-0.32225633,0.3512939,-0.13052455,25.375,25.9375,25.1875,27.6875,28.25,28.625
0.28605258,-0.65875953,-2.387021,-1.9227227,-0.054263223,0.030541886,-0.10138384,-0.40038484,-0.3514751,0.059918627,3.076862,-0.61789095,0.00030869638,-0.13828906,-0.02177562,0.00015235163,-0.026681755,0.005556426,0.030509084,0.463787,-1.3908299,1.9163026,-2.0966794,-1.5679544,2.4346101,-0.09625544,0.25078362,-0.30231005,0.03488845,0.021039141,-0.1265911,0.076614454,0.5554548,-9.653421,0.8493211,47.651955,-0.9309687,-2.0551476,-3.4122105,-0.30451882,0.36852378,-0.18740344,25.375,25.9375,25.1875,27.6875,28.25,28.625
0.28805175,-0.7563509,-2.4677715,-1.9750559,-0.074446656,0.030159391,-0.10841678,-0.4006388,-0.35151064,0.059891526,3.0769043,-0.617788,0.0003844585,-0.138323,-0.0222705,0.00053466135,-0.028257506,0.0061339964,0.023979144,0.4636191,-1.3902897,1.915706,-2.0965717,-1.567942,2.434373,-0.09605556,0.25016633,-0.30247834,0.03443548,0.02217282,-0.1198622,0.019153614,0.47884035,-9.653421,0.90750587,47.651955,-1.0190272,-2.0448492,-3.6005387,-0.302414,0.34722596,-0.26513094,25.375,25.9375,25.1875,27.6875,28.25,28.625
0.29005173,-0.5412182,-2.77381,-1.9040831,-0.075368,0.029869614,-0.10486711,-0.4009418,-0.351556,0.05990753,3.0768125,-0.6177506,0.00031474317,-0.13934791,-0.022749119,0.00070366316,-0.030097561,0.006513252,0.02179359,0.46340287,-1.3897971,1.9150838,-2.0965364,-1.5678934,2.4341452,-0.096947275,0.25145704,-0.30435595,0.033862412,0.023656536,-0.11856483,0.095768064,0.40222588,-9.576807,0.86498255,47.657326,-1.1299177,-1.9073632,-3.6336107,-0.31610668,0.34653676,-0.28917152,25.375,25.9375,25.1875,27.6875,28.25,28.625
0.29205185,-0.39429134,-2.3093166,-1.5449407,-0.08150705,0.025164016,-0.10567288,-0.40124637,-0.35161632,0.059916496,3.076755,-0.6176247,0.00027732793,-0.14066832,-0.02452351,0.0017833001,-0.032832295,0.010038721,0.019961564,0.46321136,-1.389256,1.9144148,-2.0964768,-1.5678447,2.4338827,-0.09546738,0.25226346,-0.30739057,0.031712625,0.024521334,-0.115249485,-0.019153614,0.40222588,-9.653421,0.9567419,47.65464,-1.0351214,-1.8938613,-3.698589,-0.3027674,0.31295425,-0.3671394,25.375,25.9375,25.1875,27.6875,28.25,28.625
0.29405192,-0.65221626,-1.7423503,-1.3024487,-0.0534786,0.02520208,-0.105945855,-0.4015232,-0.3516881,0.05991386,3.0766113,-0.61759657,0.00029130297,-0.14229453,-0.025019595,0.001878116,-0.035046455,0.012631695,0.016760785,0.46301907,-1.3887513,1.9138287,-2.0964782,-1.5677246,2.4336913,-0.09644062,0.2535597,-0.30843076,0.0281568,0.025343012,-0.113018684,-0.019153614,0.36391866,-9.481039,0.9567419,47.66987,-1.2110217,-1.8320742,-3.6094809,-0.24630469,0.33251894,-0.43020093,25.375,25.9375,25.1875,27.6875,28.25,28.625
0.29605177,-0.08486489,-0.58085364,-1.4902718,-0.02498728,0.029340357,-0.11866857,-0.40178666,-0.35173455,0.059920605,3.076613,-0.6174249,0.0002600989,-0.14486355,-0.02616012,0.004044529,-0.03947978,0.017006367,0.014951069,0.4628625,-1.3882711,1.9132303,-2.0963948,-1.5677122,2.4334276,-0.09787304,0.2530912,-0.31263548,0.026933188,0.027351802,-0.11263766,0.038307227,0.40222588,-9.404425,0.9186956,47.661808,-0.9537018,-1.7283776,-3.5886836,-0.21247272,0.3000422,-0.47665405,25.375,25.9375,25.1875,27.6875,28.25,28.625
0.29805216,-0.0038200086,-0.2143524,-1.294013,-0.009399345,0.028830543,-0.11705043,-0.40209287,-0.3517897,0.05993801,3.0764825,-0.61741537,0.00018576239,-0.14589037,-0.026877785,0.003978182,-0.041021302,0.016335705,0.017531728,0.46264634,-1.3877773,1.912608,-2.0963829,-1.5676397,2.4332223,-0.09848117,0.2556208,-0.31566286,0.027360855,0.029052213,-0.11582072,0.05746084,0.21068975,-9.500193,0.9365982,47.647476,-1.0959806,-1.7266798,-3.5035582,-0.1883226,0.26722157,-0.5030595,25.375,25.9375,25.1875,27.6875,28.25,28.625
0.30005202,-0.0030087284,0.1690702,-1.2691219,-0.009908333,0.034300674,-0.11869483,-0.40239727,-0.3518314,0.059937928,3.0764852,-0.6172967,0.00014556196,-0.14732987,-0.027080173,0.0034375298,-0.04076951,0.015976656,0.024021659,0.4624541,-1.3872232,1.9119376,-2.096299,-1.5676397,2.432956,-0.09924921,0.25929058,-0.31888196,0.027371924,0.029006395,-0.12307625,-0.095768064,0.24899697,-9.442732,0.82022345,47.652847,-1.0577652,-2.0406365,-3.5713253,-0.16800396,0.24992678,-0.48416376,25.375,25.9375,25.1875,27.6875,28.25,28.625
0.30205193,-0.7227906,-0.21155086,-1.3378197,-0.024862759,0.04467545,-0.12105413,-0.40269423,-0.3518848,0.05995971,3.0763416,-0.6172054,0.00013263054,-0.14785124,-0.026319813,0.0019739154,-0.038372822,0.013028415,0.031837903,0.46221378,-1.386754,1.9113282,-2.0962622,-1.56752,2.432677,-0.100405805,0.2631979,-0.32062343,0.028966956,0.028217359,-0.13204607,-0.11492168,0.21068975,-9.481039,0.900793,47.63046,-1.0821393,-2.002849,-3.5417967,-0.14627053,0.22683075,-0.3774124,25.375,25.9375,25.1875,27.6875,28.25,28.625
0.30405188,-1.000315,-1.4105864,-1.4046446,-0.037562795,0.073116735,-0.11275421,-0.40297234,-0.3519471,0.059951168,3.0763423,-0.61706424,0.0001725233,-0.14757048,-0.026063409,0.0015005443,-0.036812186,0.009802737,0.042166933,0.4620576,-1.3861889,1.9106578,-2.096153,-1.5674838,2.432433,-0.1005603,0.26500368,-0.32269982,0.032863446,0.028291404,-0.1425294,-0.11492168,0.24899697,-9.5385,0.87617236,47.66808,-1.1001174,-2.0095625,-3.5097609,-0.16607028,0.21370468,-0.29720291,25.375,25.9375,25.1875,27.6875,28.25,28.625
0.30605197,-1.5434612,-1.8625617,-1.2062043,-0.06473592,0.07752942,-0.10610772,-0.40326834,-0.35199898,0.059983972,3.0762653,-0.6169134,0.00011539626,-0.1485852,-0.026155474,0.0016550577,-0.03730951,0.009231421,0.045306988,0.46185327,-1.3857201,1.9100126,-2.096069,-1.5674237,2.4321444,-0.10162633,0.2667162,-0.32549506,0.034261648,0.029016884,-0.14673126,-0.13407528,0.28730422,-9.5385,0.8940802,47.684196,-1.0625097,-1.905565,-3.498942,-0.17129621,0.20649417,-0.21538426,25.375,25.9375,25.1875,27.6875,28.25,28.625
0.308052,-1.1894317,-1.4259214,-1.2489218,-0.071329676,0.08655955,-0.10906527,-0.4035708,-0.35204998,0.05996408,3.0762553,-0.6167747,0.0001653588,-0.14893304,-0.026383648,0.0016973987,-0.037792794,0.009868378,0.048187327,0.4616494,-1.3851192,1.9093312,-2.0959857,-1.5673755,2.4318554,-0.10152279,0.26711127,-0.3260726,0.033680428,0.029174522,-0.14950804,-0.47884035,0.30645782,-9.461885,0.8918391,47.685097,-1.0710504,-1.9336574,-3.622035,-0.14540803,0.1850176,-0.15437773,25.375,25.9375,25.1875,27.6875,28.25,28.625
0.3100521,-1.1551634,-1.2964089,-1.297806,-0.049025435,0.07835571,-0.111777835,-0.4038726,-0.35212204,0.05998214,3.0761716,-0.6165693,0.00010405924,-0.15109938,-0.024847604,0.0012393709,-0.037821222,0.010074249,0.041876543,0.4614678,-1.3846022,1.9086732,-2.09595,-1.5673035,2.4315565,-0.10590076,0.26897964,-0.3271289,0.032681286,0.029119033,-0.14757176,-0.4213795,0.30645782,-9.461885,0.8851263,47.683304,-0.909601,-1.8742734,-3.7287064,-0.1211195,0.18036696,-0.12976788,25.375,25.9375,25.1875,27.6875,28.25,28.625
0.3120523,-1.1669436,-0.8505742,-0.8913819,-0.038090397,0.06744243,-0.10936935,-0.40418068,-0.3521708,0.059984475,3.0761,-0.6164603,0.00010433956,-0.15033717,-0.026126781,0.0005796088,-0.03755079,0.008721548,0.038494013,0.46124086,-1.3840606,1.9080161,-2.0958898,-1.5672315,2.4312708,-0.10314496,0.2711011,-0.32836235,0.03311989,0.029475193,-0.14143096,-0.47884035,0.24899697,-9.385271,0.98135734,47.658226,-1.0532817,-1.8737826,-3.7739353,-0.11281898,0.17092058,-0.18741983,25.375,25.9375,25.1875,27.6875,28.25,28.625
0.31405243,-1.0413713,-0.43755266,-0.7610255,-0.02079947,0.059609476,-0.10394433,-0.40450898,-0.35221767,0.060006,3.0760298,-0.61637515,-4.67408e-06,-0.15418455,-0.025372898,0.0028845803,-0.039884135,0.013130224,0.027647952,0.46102324,-1.3835325,1.9073337,-2.0958421,-1.5672072,2.4310093,-0.107713796,0.27071393,-0.33335975,0.033505745,0.029597,-0.13514881,-0.51714754,0.22984336,-9.270349,0.9030289,47.65643,-0.9468149,-1.8104614,-3.6361957,-0.08750819,0.13374968,-0.25609925,25.375,25.9375,25.1875,27.6875,28.25,28.625
0.31605247,-0.61856425,0.037482977,-0.6915849,-0.001030992,0.061795946,-0.11029438,-0.40483496,-0.35229778,0.060040638,3.075885,-0.6162294,-0.000101636375,-0.15494263,-0.02736212,0.0037947902,-0.041587885,0.015125504,0.027547475,0.4608202,-1.3830154,1.9066399,-2.0958183,-1.5671109,2.430734,-0.105226494,0.27220625,-0.33728456,0.033401035,0.030246075,-0.13255414,-0.49799395,0.22984336,-9.193734,0.90750587,47.650166,-1.0981442,-1.8332105,-3.5453336,-0.063874125,0.11612694,-0.3196886,25.375,25.9375,25.1875,27.6875,28.25,28.625
0.3180524,-0.41884097,0.12478358,-0.9242541,0.0045735235,0.07004323,-0.10769334,-0.4051207,-0.3523413,0.060024463,3.0758412,-0.6161626,-2.9560757e-05,-0.15542138,-0.0271269,0.003335287,-0.040769614,0.014014166,0.02688052,0.46060413,-1.3824625,1.9060053,-2.095734,-1.5670389,2.430482,-0.105785534,0.27407253,-0.33882207,0.034448236,0.03001229,-0.13244621,-0.59376204,0.095768064,-9.32781,0.8985519,47.694946,-1.0467572,-1.763066,-3.4281306,-0.052482165,0.097405076,-0.3533649,25.375,25.9375,25.1875,27.6875,28.25,28.625
0.32005224,-1.2383169,-0.22321977,-0.9884779,0.001969074,0.06255849,-0.10523038,-0.40542823,-0.35239354,0.060034808,3.075811,-0.6160243,-2.2343696e-05,-0.15629101,-0.027017435,0.0025553508,-0.03929203,0.011986967,0.022612274,0.46040004,-1.3819078,1.9052995,-2.0956132,-1.5669917,2.4301956,-0.106342845,0.27784795,-0.3420985,0.036422253,0.029586175,-0.1287336,-0.28730422,0.15322891,-9.32781,0.87617236,47.71823,-1.0739977,-1.777075,-3.498069,-0.02006945,0.08814577,-0.404315,25.375,25.9375,25.1875,27.6875,28.25,28.625
0.32205233,-0.6408964,-0.1624419,-0.7084688,-0.028875012,0.09083235,-0.114337996,-0.40574786,-0.352438,0.060040712,3.0757272,-0.61598545,-7.9183716e-05,-0.15746565,-0.02691845,0.0049742614,-0.040087137,0.01567938,0.02578283,0.46017182,-1.3813689,1.9046415,-2.095577,-1.5669435,2.429954,-0.10683458,0.27475822,-0.34450698,0.03828928,0.028685723,-0.13239497,-0.47884035,0.1340753,-9.212888,0.8717007,47.711964,-1.0286736,-1.7342412,-3.457511,-0.02888944,0.07853873,-0.4128257,25.375,25.9375,25.1875,27.6875,28.25,28.625
0.32405233,-1.2635866,-0.9724159,-0.12156374,-0.029458936,0.0919465,-0.1080226,-0.40607366,-0.35250354,0.06003475,3.0756586,-0.61587405,-0.000105521234,-0.15838024,-0.026691688,0.003728444,-0.03837498,0.013303077,0.027770383,0.4599677,-1.3807671,1.9039358,-2.0955403,-1.5668839,2.4296894,-0.10760494,0.27927113,-0.3474767,0.03966166,0.028226754,-0.13515039,-0.5363012,0.076614454,-9.155427,0.900793,47.668976,-1.0686189,-1.6232932,-3.4513907,-0.026104862,0.079960614,-0.41308647,25.375,25.9375,25.1875,27.6875,28.25,28.625
0.3260524,-0.807383,0.32389536,-0.72529215,-0.028312977,0.08923918,-0.119887345,-0.40639538,-0.35255185,0.060035363,3.0755913,-0.61579883,-2.2285158e-05,-0.15815482,-0.025395827,0.0012408921,-0.035632063,0.008251838,0.034034114,0.45971507,-1.3801771,1.9032072,-2.0954082,-1.5667881,2.4293985,-0.10939711,0.28345984,-0.34724572,0.041038338,0.02804608,-0.1432065,-0.28730422,0.19153613,-9.212888,0.90527004,47.675243,-0.98375636,-1.7563689,-3.4650998,-0.02582524,0.047138415,-0.34950215,25.375,25.9375,25.1875,27.6875,28.25,28.625
0.32805234,-0.78882736,0.45803213,-0.69706523,-0.024564749,0.077777766,-0.11290443,-0.40676126,-0.3525987,0.06007226,3.0755053,-0.61566126,-0.00021491195,-0.1594497,-0.02462447,0.0005325619,-0.03430862,0.0072658616,0.041115727,0.45947444,-1.3796356,1.9024776,-2.0953844,-1.5667757,2.4290833,-0.111261934,0.2864113,-0.34944168,0.04179997,0.027351806,-0.15214883,-0.2681506,0.17238252,-9.270349,0.8537928,47.640312,-0.93475586,-1.876868,-3.5989065,-0.017674567,0.040922515,-0.26169014,25.375,25.9375,25.1875,27.6875,28.25,28.625
0.3300525,-0.7330422,-0.25816655,-0.657976,-0.006798263,0.07332503,-0.1087396,-0.40704715,-0.35264668,0.060043022,3.0755184,-0.6155255,-0.00012065732,-0.15984638,-0.024821797,-0.00036711566,-0.032865606,0.006303061,0.04888117,0.4592827,-1.379034,1.9018077,-2.095276,-1.5667285,2.4288054,-0.11062561,0.2895146,-0.35130498,0.042106804,0.02650233,-0.15927978,-0.36391866,0.21068975,-9.193734,0.91198283,47.677036,-0.93194807,-1.8778244,-3.5431447,-0.013097189,0.046453603,-0.17430516,25.375,25.9375,25.1875,27.6875,28.25,28.625
0.33205277,-1.0289028,-0.3656831,-0.59888655,-0.0077548428,0.05265682,-0.10343425,-0.40735143,-0.35267526,0.060028423,3.075508,-0.6153909,-7.158842e-05,-0.1617732,-0.02436587,0.0003727293,-0.03264234,0.007933048,0.045993168,0.45904192,-1.3784689,1.9011501,-2.0951803,-1.5666808,2.428482,-0.11235225,0.2905723,-0.35459176,0.0429865,0.025575347,-0.15811908,-0.28730422,0.21068975,-9.078813,0.9298854,47.66987,-0.78182244,-2.0137258,-3.609939,-0.0025254984,0.05732631,-0.13839437,25.375,25.9375,25.1875,27.6875,28.25,28.625
0.33405188,-0.87993795,-0.63384205,-0.46227404,-0.023996446,0.057873897,-0.10091693,-0.4077046,-0.35274798,0.060052387,3.07547,-0.6151925,-0.00016505246,-0.16271527,-0.024762433,0.0011308518,-0.032045748,0.009441345,0.043932766,0.45885044,-1.377856,1.9003481,-2.095084,-1.5666574,2.4281719,-0.11160556,0.2913916,-0.3577292,0.04421844,0.024378,-0.15531094,-0.28730422,0.2681506,-9.021352,0.9186956,47.698532,-0.9926876,-1.8192067,-3.57724,0.010611447,0.048401646,-0.13511145,25.375,25.9375,25.1875,27.6875,28.25,28.625
0.3360517,-0.74651706,-0.6925708,-0.30489412,-0.030233737,0.05527686,-0.109025754,-0.40802637,-0.35278434,0.060040947,3.0754097,-0.6151259,-9.52831e-05,-0.16300681,-0.024195513,0.0008100216,-0.029842716,0.007177931,0.03748063,0.4585861,-1.3772669,1.8996543,-2.0949872,-1.5665735,2.4278738,-0.112080224,0.29336157,-0.3603259,0.047848575,0.023394935,-0.14933443,-0.21068975,0.3256114,-8.983045,0.9545008,47.690468,-0.8705133,-1.8099427,-3.5527587,-0.0074239215,0.06197226,-0.17185046,25.375,25.9375,25.1875,27.6875,28.25,28.625
0.33805263,-0.58753854,-0.92368335,-0.39492357,-0.03363691,0.047331467,-0.103597544,-0.40835783,-0.35282046,0.060037706,3.0753977,-0.6150693,-0.00010985051,-0.16412635,-0.024121597,0.0016358608,-0.030096576,0.008224401,0.030946918,0.45835802,-1.3766664,1.8989252,-2.094879,-1.5665616,2.4276123,-0.11287589,0.29355752,-0.36289403,0.04915441,0.023145571,-0.14359578,-0.28730422,0.40222588,-9.021352,0.9254084,47.660015,-0.9323017,-1.8174925,-3.435016,-0.057878584,0.04963586,-0.2454721,25.375,25.9375,25.1875,27.6875,28.25,28.625
0.34005252,0.1613819,-1.0317569,-0.2471607,-0.049427643,0.057347905,-0.11096304,-0.40867352,-0.35286003,0.060020875,3.0753844,-0.6150094,-9.785349e-05,-0.16434316,-0.024238724,0.0020257481,-0.029668063,0.00831609,0.027675211,0.45814213,-1.3760657,1.8982319,-2.0947945,-1.5665377,2.427361,-0.112468414,0.2937488,-0.36452228,0.05069354,0.022714162,-0.13991705,-0.21068975,0.36391866,-9.002198,0.87617236,47.657326,-0.99472725,-1.6370157,-3.5022593,-0.02659477,0.06939207,-0.29381213,25.375,25.9375,25.1875,27.6875,28.25,28.625
0.3420518,0.16270144,-0.88630736,-0.4443254,-0.045897905,0.04614758,-0.104552865,-0.40902317,-0.35291946,0.060038596,3.0753195,-0.6148263,-0.00011406771,-0.16561863,-0.023766479,0.0025625452,-0.028192295,0.007932551,0.022883955,0.4579018,-1.3754644,1.8974537,-2.0946853,-1.5664657,2.4270148,-0.113507845,0.29533696,-0.36858115,0.054164726,0.021560913,-0.13616477,-0.21068975,0.40222588,-8.925584,0.9388393,47.65464,-0.97796285,-1.648192,-3.473422,-0.056759983,0.08972581,-0.35746264,25.375,25.9375,25.1875,27.6875,28.25,28.625
0.34405178,-0.4273014,-1.0613307,-0.4245739,-0.036845878,0.025919098,-0.0992887,-0.40932876,-0.35296488,0.060004663,3.075301,-0.61482406,-5.978043e-05,-0.16442576,-0.022978192,0.00050608726,-0.024355965,0.0012285083,0.019235974,0.4576979,-1.3748387,1.8967713,-2.094612,-1.5664304,2.4268122,-0.113430195,0.29922518,-0.3698733,0.059273098,0.021080106,-0.13244013,0.019153614,0.36391866,-9.002198,0.9679317,47.67793,-0.99056196,-1.7048023,-3.5160255,-0.13750775,0.09847282,-0.4427871,25.375,25.9375,25.1875,27.6875,28.25,28.625
0.34605214,0.2746562,-0.71118283,-0.48098207,-0.031475507,0.027836468,-0.10716355,-0.40969938,-0.3530166,0.060040377,3.0751953,-0.6147439,-0.0001463904,-0.16519095,-0.02384094,0.00070537144,-0.025025776,0.0014913075,0.018842507,0.45743424,-1.374261,1.8959826,-2.0945165,-1.5663699,2.4265122,-0.11276131,0.30115595,-0.3729036,0.05984839,0.02157435,-0.13137338,0.095768064,0.40222588,-8.925584,0.9791215,47.66271,-1.0644149,-1.7768155,-3.5211296,-0.14899161,0.096000805,-0.50169694,25.375,25.9375,25.1875,27.6875,28.25,28.625
0.3480521,0.17162067,-0.28881744,-0.29830092,-0.029712604,0.021770073,-0.10989389,-0.41001233,-0.3530426,0.06000605,3.0752425,-0.614692,-4.0678187e-05,-0.16566569,-0.023755508,0.00021703701,-0.024661437,0.0008743103,0.024048483,0.45720583,-1.3736123,1.895254,-2.09436,-1.566358,2.4262457,-0.113157,0.30287033,-0.37405843,0.060034614,0.021529302,-0.13697657,0.019153614,0.38307226,-9.002198,0.9701675,47.64479,-0.9393772,-1.8396266,-3.4448895,-0.15871823,0.10326691,-0.49888927,25.375,25.9375,25.1875,27.6875,28.25,28.625
0.3500522,0.9713042,-0.05459351,-0.4171999,-0.025282139,0.036247805,-0.12269663,-0.4103482,-0.35308608,0.060006294,3.0751982,-0.61462134,-3.3845965e-05,-0.16581835,-0.023495397,-0.0013108619,-0.022495959,-0.002579993,0.031484134,0.45696604,-1.3730099,1.894513,-2.0942519,-1.5663103,2.4259677,-0.11335971,0.30706722,-0.37622386,0.062105548,0.021143153,-0.14461428,0.076614454,0.30645782,-9.097966,0.92093146,47.66808,-1.1184437,-1.8856046,-3.568387,-0.20375568,0.115744695,-0.4830165,25.375,25.9375,25.1875,27.6875,28.25,28.625
0.35205296,-0.036116913,-0.66085607,-0.48798525,-0.011464176,0.013295098,-0.105356075,-0.4106707,-0.35312966,0.059995934,3.0752058,-0.61446357,4.3082448e-05,-0.16712181,-0.023656886,-0.0011433397,-0.02284845,-0.002345719,0.041491948,0.45673773,-1.3723849,1.8937577,-2.094096,-1.5662621,2.42564,-0.11420705,0.30907473,-0.37935454,0.06292252,0.021385891,-0.15546866,0.13407528,0.3256114,-9.059659,0.9634547,47.64658,-0.99336123,-2.0073447,-3.6061442,-0.22888565,0.098024175,-0.36185238,25.375,25.9375,25.1875,27.6875,28.25,28.625
0.3540526,0.37635916,-0.28992522,-0.42473343,-0.03477346,0.0306633,-0.1183225,-0.41099903,-0.35316885,0.059951995,3.0752327,-0.6142924,0.00015370645,-0.16848032,-0.023597546,-0.0013603499,-0.022844747,-0.0026750981,0.04906804,0.45649716,-1.3716993,1.8930172,-2.0939882,-1.566214,2.4252894,-0.11542105,0.31171152,-0.38236263,0.06364304,0.021545712,-0.16425867,0.095768064,0.34476504,-9.174581,0.89631605,47.657326,-1.0002978,-2.0643244,-3.5286193,-0.2559392,0.11477783,-0.2649291,25.375,25.9375,25.1875,27.6875,28.25,28.625
0.35605183,0.26194593,-0.82333934,-0.36360803,-0.035690594,0.032058924,-0.118322246,-0.4113156,-0.35321507,0.059933264,3.0752192,-0.61417305,0.00029618372,-0.17062859,-0.02378426,-0.0004880598,-0.024149219,-0.0006924517,0.051609784,0.45625678,-1.3710619,1.8922628,-2.0938203,-1.56613,2.4249763,-0.11696349,0.31314537,-0.38626507,0.06379391,0.021841759,-0.16834223,0.15322891,0.22984336,-9.11712,0.9455522,47.651955,-0.942297,-2.1120603,-3.4370985,-0.28898376,0.13996893,-0.18537824,25.375,25.9375,25.1875,27.6875,28.25,28.625
0.35805196,0.23240294,-0.43302363,-0.70178396,-0.033801123,0.025403867,-0.11771091,-0.41169024,-0.35324624,0.05994769,3.075249,-0.613949,0.00017372354,-0.17336369,-0.023772664,0.0016139937,-0.02601583,0.004321637,0.048646256,0.4560162,-1.370437,1.8914613,-2.093713,-1.5661663,2.4245925,-0.118812464,0.31220677,-0.3899299,0.06306989,0.021310117,-0.16722628,0.1340753,0.21068975,-9.232041,0.9701675,47.6421,-0.9224543,-2.012468,-3.4214954,-0.30043444,0.1470162,-0.15650278,25.375,25.9375,25.1875,27.6875,28.25,28.625
0.360052,0.0776324,-0.66452235,-0.96504074,-0.02857276,0.031036256,-0.11439673,-0.4119938,-0.3533183,0.05993351,3.0752108,-0.6137921,0.0002825262,-0.17418402,-0.02385346,0.0011020645,-0.026065513,0.0047483575,0.042397548,0.45582405,-1.3698127,1.8907198,-2.0935814,-1.5660704,2.4243073,-0.11913875,0.31412596,-0.39093184,0.061741028,0.021142203,-0.1613041,-0.076614454,0.30645782,-9.404425,0.89631605,47.694946,-0.89499235,-1.9311199,-3.4700227,-0.30792794,0.15539627,-0.22653571,25.375,25.9375,25.1875,27.6875,28.25,28.625
0.3620522,-0.7619231,-0.98843455,-1.1917123,-0.04175523,0.024728509,-0.102332756,-0.41235504,-0.35334015,0.05991725,3.075155,-0.6137843,0.00035526074,-0.17345269,-0.024074275,-0.00040772886,-0.02607758,0.0026563315,0.035260517,0.45551237,-1.3691633,1.8899554,-2.0934627,-1.565998,2.423998,-0.11854404,0.3159943,-0.38961622,0.06040909,0.022051495,-0.15357123,-0.17238252,0.34476504,-9.461885,0.9567419,47.66539,-0.90197575,-1.8914909,-3.6864264,-0.31659868,0.1563195,-0.28997865,25.375,25.9375,25.1875,27.6875,28.25,28.625
0.36405203,-1.5267316,-2.0742512,-1.2568545,-0.053165276,0.04479906,-0.10453688,-0.41268945,-0.35337862,0.059924025,3.075175,-0.61369276,0.00036022018,-0.17336865,-0.024408687,-0.001188196,-0.02612565,0.0022512048,0.03379937,0.4552966,-1.3685501,1.8891677,-2.0932834,-1.565998,2.423723,-0.1179029,0.3174643,-0.38948882,0.059148658,0.022265302,-0.15146877,-0.2681506,0.3256114,-9.615114,0.9545008,47.63046,-0.97634506,-1.9742653,-3.8178391,-0.3204385,0.17370091,-0.33603427,25.375,25.9375,25.1875,27.6875,28.25,28.625
0.36605224,-1.725337,-1.7071793,-1.4206592,-0.07876775,0.0711806,-0.11522951,-0.41304755,-0.3534206,0.059925165,3.075137,-0.61362684,0.00035191618,-0.17472818,-0.025328293,-0.0009340006,-0.027077286,0.004196757,0.032574747,0.45504484,-1.3679131,1.888378,-2.0931642,-1.5659617,2.4234352,-0.11732517,0.31954563,-0.39243883,0.057854284,0.022257842,-0.14966461,-0.22984336,0.40222588,-9.730036,0.9612189,47.629562,-1.0635784,-1.9850466,-3.8827949,-0.31115112,0.17857745,-0.37661678,25.375,25.9375,25.1875,27.6875,28.25,28.625
0.3680523,-1.5067647,-2.0694973,-1.5227368,-0.08035187,0.08919882,-0.11859142,-0.41337684,-0.35347557,0.059900146,3.075164,-0.61342335,0.00041853392,-0.17752469,-0.025429185,-0.001165063,-0.028402867,0.006049168,0.029725939,0.45483997,-1.3672391,1.8876003,-2.0930336,-1.565926,2.4231,-0.11959017,0.32333788,-0.39610055,0.05548332,0.022618383,-0.14907905,-0.22984336,0.61291564,-9.940725,0.9791215,47.63852,-0.9715921,-2.0714483,-3.7734928,-0.32870656,0.1898958,-0.43425274,25.375,25.9375,25.1875,27.6875,28.25,28.625
0.3700525,-1.7642664,-2.5769904,-1.7865864,-0.06830224,0.08398989,-0.10903498,-0.41373307,-0.35355383,0.0599024,3.075116,-0.61327404,0.0004201813,-0.1783937,-0.027853325,-0.0018435984,-0.029651087,0.0070701935,0.036687832,0.45463717,-1.366565,1.886763,-2.0929148,-1.5658654,2.4228103,-0.11647476,0.32818776,-0.40001112,0.053108633,0.023300411,-0.15292144,-0.36391866,0.57460845,-10.01734,0.98807013,47.684196,-1.2027025,-2.1745987,-3.7942288,-0.27265075,0.19076335,-0.40971813,25.375,25.9375,25.1875,27.6875,28.25,28.625
0.37205246,-2.4187913,-2.7235785,-1.902898,-0.07340271,0.062256526,-0.10610519,-0.41410047,-0.3536117,0.05990859,3.075047,-0.61314297,0.00041484454,-0.18215379,-0.026876286,-0.00055056886,-0.030918408,0.011970359,0.03995928,0.45438382,-1.3659159,1.885949,-2.092808,-1.5657939,2.4224842,-0.12052092,0.328909,-0.40351787,0.05099185,0.022314534,-0.16023877,-0.40222588,0.61291564,-10.132261,0.9679317,47.67345,-0.91456646,-2.2123008,-3.6672637,-0.2571407,0.1995624,-0.36103374,25.375,25.9375,25.1875,27.6875,28.25,28.625
0.3740525,-1.9173592,-2.5755205,-1.846037,-0.07496159,0.0642666,-0.11912315,-0.41448423,-0.35364112,0.059902523,3.075052,-0.613022,0.00034662426,-0.18324064,-0.027320758,-0.0006027823,-0.031351183,0.013906458,0.049543995,0.45412007,-1.3652427,1.885136,-2.0927126,-1.5658058,2.4221447,-0.12025303,0.33046216,-0.405022,0.049064882,0.02189216,-0.16955522,-0.22984336,0.59376204,-10.0748005,0.95897776,47.67614,-1.1183591,-2.2860737,-3.7322693,-0.21360475,0.23454222,-0.262826,25.375,25.9375,25.1875,27.6875,28.25,28.625
