Tylouw/Master_Thesis_Code/test_recorded_data/trial_zebin_dev03/insertion_4_2026-01-26_10-20-35.csv
num_insertion,tcp_force_x[N],tcp_force_y[N],tcp_force_z[N],tcp_force_rx[Nm?],tcp_force_ry[Nm?],tcp_force_rz[Nm?],tcp_pose_x[m],tcp_pose_y[m],tcp_pose_z[m],tcp_pose_rx[rot_vec_x],tcp_pose_ry[rot_vec_y],tcp_pose_rz[rot_vec_z],tcp_velo_x[m/s],tcp_velo_y[m/s],tcp_velo_z[m/s],tcp_velo_rx[rot_vec_x/s],tcp_velo_ry[rot_vec_y/s],tcp_velo_rz[rot_vec_z/s],q1[rad],q2[rad],q3[rad],q4[rad],q5[rad],q6[rad],qd1[rad/s],qd2[rad/s],qd3[rad/s],qd4[rad/s],qd5[rad/s],qd6[rad/s],tool_acc_x,tool_acc_y,tool_acc_z,current_of_whole_robot[A],voltage_of_whole_robot[V],current_J1[A],current_J2[A],current_J3[A],current_J4[A],current_J5[A],current_J6[A],temp_J1[C],temp_J2[C],temp_J3[C],temp_J4[C],temp_J5[C],temp_J6[C]
1.0,0.015919627410684048,-0.3801337935224523,-1.1797250538595276,0.011635294830890557,-0.0409159777590768,-0.03648245583363382,-0.538855626039351,-0.32434894231004024,0.06004330501457447,-3.078691907365526,0.6247897661389046,0.0001691737373896721,-2.491439918163048e-05,4.077458267430672e-05,0.0008959018848887941,-0.0017028359946631242,0.005489546519923435,-0.0019051469840534855,0.3263932466506958,-1.152070776825287,1.6625459829913538,-2.0798169575133265,-1.5713813940631312,2.301377534866333,-1.1164269378763358e-12,-0.0038969535380601883,0.004918049555271864,-0.0067658983170986176,-0.00015244336100295186,0.001902521587908268,0.4213795065879822,-0.3064578175544739,-9.21288776397705,0.7732232213020325,47.65911865234375,-0.0870601087808609,-4.206720352172852,-2.613373279571533,-0.37613552808761597,-0.03122805804014206,-0.1011185348033905,24.3125,25.1875,24.1875,26.5,27.125,27.625
1.0,-0.014791635777122177,0.19948813851490707,-1.4375715887316411,0.032588272774270025,-0.056912762047009416,-0.038260205632582305,-0.538834431078688,-0.32434956543360016,0.060023382126548064,-3.0786981593114793,0.6247708333371378,0.00010128349846187441,-0.0007321280245453917,-0.0010368892333790366,0.0017373537146617587,-0.0021136354251752145,0.006673604131886317,-0.00014016569760493523,0.326393723487854,-1.1520704489997406,1.662593189870016,-2.0798284016051234,-1.571357552205221,2.301365375518799,0.001285398262552917,-0.0030482569709420204,0.001547131803818047,-0.005497078876942396,-0.0001474477321607992,0.0014232418034225702,0.28730422258377075,-0.17238251864910126,-9.155426979064941,0.7732232213020325,47.657325744628906,-0.24622967839241028,-4.268048286437988,-2.476480007171631,-0.38536328077316284,-0.02140701934695244,-0.08842267841100693,24.3125,25.1875,24.1875,26.5,27.125,27.625
1.0,0.11165382959495643,0.12238612967204271,-1.6628039300256072,0.01773726522210265,-0.03523765761067007,-0.04511961237320869,-0.5388280021350298,-0.3243590390774063,0.06004421316110803,-3.0787029904828143,0.6246946707453903,0.00011060092531363544,-0.0008296135999861968,-0.0008054911038359323,0.001663653453495498,-0.0015895708202451806,0.005117230537573369,-0.00022510298764812022,0.3264175057411194,-1.1520941418460389,1.6625679175006312,-2.0797792873778285,-1.571369473134176,2.3013410568237305,0.0008752801804803312,-0.0022148301359266043,3.0336161216837354e-05,-0.0031715231016278267,-0.00014276907313615084,0.0010989697184413671,0.038307227194309235,0.019153613597154617,-9.251194953918457,0.7083203792572021,47.693153381347656,-0.22631517052650452,-4.299894332885742,-2.2765915393829346,-0.40583276748657227,-0.03455466404557228,-0.0936165601015091,24.3125,25.1875,24.1875,26.5,27.125,27.625
1.0,-2.9977344313213194,-3.3864375792215236,-1.4177252098374706,-0.07510828023216107,0.053367602970791767,-0.026213559631039902,-0.5388079472486078,-0.3243675042914355,0.06002863560680077,-3.0787026403291917,0.624675093826476,2.4913314708907822e-05,-0.0001049734597224024,-0.00036746518919624735,0.00047845013054738204,-0.00032848837655491354,0.001383422792055612,-0.00023416467761423602,0.32642945647239685,-1.1520816546729584,1.6625803152667444,-2.07975496868276,-1.571345631276266,2.3013408184051514,0.0005764026427641511,-0.0006554385181516409,5.46040146431892e-09,-0.0007596539799124002,-0.00013424968346953392,0.0008103634463623166,-0.28730419278144836,0.325611412525177,-9.366117477416992,0.7262282371520996,47.63225173950195,-0.25191545486450195,-3.913902997970581,-2.0438249111175537,-0.5075032711029053,-0.03698233142495155,-0.10437993705272675,24.3125,25.1875,24.1875,26.5,27.125,27.625
1.0,-3.6629171541227565,-4.155283344307346,-1.0509570710975975,-0.11420699117483696,0.10578406700108123,-0.03342593739167536,-0.5388008181440312,-0.32434584605237315,0.06002265959137609,-3.078640289408822,0.6247590665395952,1.698103095952205e-05,0.0038368375977008784,0.0012145470507434564,-0.004249171431793682,0.0029392838818574577,-0.008151951660389085,-0.0004988355779400546,0.3264172673225403,-1.1520929795554657,1.6626070181476038,-2.0797435245909632,-1.5713813940631312,2.30138897895813,0.0002180117735406384,0.0010213041678071022,0.008358076214790344,-0.0007146684220060706,-0.0001529896690044552,0.0007178050000220537,-0.325611412525177,0.24899697303771973,-9.385271072387695,0.7508436441421509,47.66360092163086,-0.23457947373390198,-3.9740982055664062,-2.445369005203247,-0.5513800382614136,-0.04813762381672859,-0.09499052166938782,24.3125,25.1875,24.1875,26.5,27.125,27.625
1.0,-3.0164218779890337,-2.7392457588073458,-0.9791505833096272,-0.11035493527189824,0.10945265595248106,-0.03642815976934081,-0.5387839615940273,-0.324347922793095,0.05999811492781665,-3.0786400284273796,0.6247015143785885,-1.4569890948142562e-05,0.0023514102770223755,0.0007405252470560499,-0.0031638407798463206,0.0015447555794836727,-0.004066058967962276,-0.00047696467679432883,0.3264293074607849,-1.1520811778358002,1.662654225026266,-2.0797792873778285,-1.5713813940631312,2.3013651371002197,0.00016754418902564794,0.000800776295363903,0.006775706075131893,-0.0032291014213114977,-0.00015180314949247986,0.000644261424895376,-0.2298433631658554,0.2106897532939911,-9.346963882446289,0.7732232213020325,47.68330383300781,-0.2794700264930725,-3.894557476043701,-2.3628716468811035,-0.5808468461036682,-0.03993836045265198,-0.09880904853343964,24.3125,25.1875,24.1875,26.5,27.125,27.625
1.0,-1.6366230441274157,-0.9179860137028968,-1.0129960530302708,-0.04396925073846499,0.05486065771370268,-0.04524808938195627,-0.538788414339007,-0.3243725314586233,0.06002410023059224,-3.0787005503622757,0.624636492431236,3.604322491625868e-05,-0.0007964333714852715,-0.0003169173520939934,-0.0009872434745269688,-0.001487211930684521,0.004811048931789255,-0.0004463396946403673,0.3264532685279846,-1.1521052581122895,1.6626294294940394,-2.0797816715636195,-1.571357552205221,2.3013408184051514,0.00014109730545897037,0.00041552167385816574,0.003726088674739003,-0.00917486846446991,-0.00014784987433813512,0.0005844135885126889,-0.17238251864910126,0.17238251864910126,-9.251194953918457,0.6993717551231384,47.674346923828125,-0.27107083797454834,-3.8704304695129395,-2.173827648162842,-0.5550358891487122,-0.027093585580587387,-0.09488623589277267,24.3125,25.1875,24.1875,26.5,27.125,27.625
1.0,-0.7699795948321893,0.13601946224015188,-0.9557749148479565,0.0244529976971274,-0.009685600697577044,-0.03757483683013446,-0.5387954015761571,-0.324355298596072,0.059995475301677426,-3.0786928354911667,0.6246728424884687,-2.2390088849056727e-06,-0.0024608801105572677,-0.000873306387306184,-0.00015567227117905993,-0.003248081525361374,0.009961028923652441,-0.0004177779718377281,0.3264172375202179,-1.1520692867091675,1.6626527945147913,-2.0798198185362757,-1.571345631276266,2.301328420639038,0.00012195385352242738,0.0003351133200339973,0.0030019667465239763,-0.013813059777021408,-0.00014392253069672734,0.0005347519181668758,-0.2298433631658554,0.19153612852096558,-9.078812599182129,0.8135106563568115,47.68419647216797,-0.23800405859947205,-3.754706859588623,-2.025139093399048,-0.5029959082603455,-0.013569071888923645,-0.1024211049079895,24.3125,25.1875,24.1875,26.5,27.125,27.625
1.0,-0.2160984697639841,0.6550748156800102,-0.837082270342809,0.023992318548033457,-0.028116151319345403,-0.047467408152245,-0.5388197116981092,-0.32437139542909893,0.060032875556794235,-3.078742136856542,0.6247033458800383,0.00014417061620203045,-0.0030027215861593635,-0.0010499471527533222,-7.80505763586413e-05,-0.003813022739498602,0.011602961357224629,-0.0003912241047193094,0.3264292776584625,-1.1521051985076447,1.6626289526568812,-2.0798679790892542,-1.571345631276266,2.3013532161712646,0.00010738964192569256,0.0005448168958537281,0.0029664135072380304,-0.015723617747426033,-0.0001401868648827076,0.0004928747657686472,-0.2106897532939911,0.15322890877723694,-9.02135181427002,0.7038487195968628,47.68419647216797,-0.2232750654220581,-3.720651149749756,-1.9593353271484375,-0.49053850769996643,-0.024753352627158165,-0.10370343923568726,24.3125,25.1875,24.1875,26.5,27.125,27.625
1.0,-0.5201733807635189,-0.36530036799949966,-0.8489029283961449,0.003961132032717546,-0.012542133833814506,-0.042217717269891715,-0.538822445656771,-0.3243648024680907,0.060008349829375196,-3.0787153592393985,0.6246974844768279,0.00014445280709987531,-0.0017526820181419209,-0.0006175145936265405,-0.0013079008127020553,-0.002755459135831181,0.008489129942552768,-0.00013829795143748707,0.3264292776584625,-1.1520690780929108,1.6626423040973108,-2.0799037418761195,-1.571369473134176,2.3013529777526855,9.593485447112471e-05,0.0008859469089657068,0.005089371465146542,-0.014899221248924732,-0.00013663941354025155,0.0002290899574290961,0.019153613597154617,-0.09576806426048279,-8.9064302444458,0.7418897151947021,47.6895751953125,-0.23687496781349182,-3.653167486190796,-1.9872820377349854,-0.5075082778930664,-0.03206080570816994,-0.09996028989553452,24.3125,25.1875,24.1875,26.5,27.125,27.625
1.0,-1.129864396875866,-0.9216848771284669,-0.6149259940540944,-0.03437562517049928,0.010748136709117114,-0.045129775246225474,-0.5388220334062234,-0.3243606042191992,0.060017747284131784,-3.078716231041105,0.6247743105356093,0.0001508691720593833,-0.0011261232974491735,-0.00039934564704667737,-0.0024495038965155307,-0.001891214472861006,0.005936169681051169,-5.915422984179498e-05,0.3264172375202179,-1.1520926815322419,1.6626537481891077,-2.0799032650389613,-1.571357552205221,2.301388740539551,8.668912050779909e-05,0.0021867710165679455,0.005683602299541235,-0.01409902423620224,-0.00013326706539373845,0.00014128352631814778,0.019153613597154617,-0.17238251864910126,-8.983044624328613,0.6680382490158081,47.68061828613281,-0.21452048420906067,-3.600998640060425,-2.006890296936035,-0.5296372175216675,-0.025257736444473267,-0.1065213531255722,24.3125,25.1875,24.1875,26.5,27.125,27.625
1.0,-1.3732577105078156,-1.137167713643422,-0.7596855600887283,-0.03389225990511903,0.020537002895600523,-0.03856086531243781,-0.5388406322629294,-0.32437826788679003,0.0600076809342594,-3.0787696385937315,0.6247852755962107,0.00018579520524430044,-0.0010725566860261472,-0.00037225925863281547,-0.002721716250404735,-0.0015983185377009116,0.0051130901456625,-5.188412792076253e-05,0.3264172375202179,-1.1520564717105408,1.6626423040973108,-2.0799747906126917,-1.5713217894183558,2.301388740539551,7.907025428721681e-05,0.002815244486555457,0.005279382690787315,-0.013449699617922306,-0.00014612681115977466,0.00012672613956965506,0.13407529890537262,-0.28730422258377075,-9.097966194152832,0.7172743082046509,47.70121383666992,-0.2511715292930603,-3.642049789428711,-1.850064992904663,-0.5656156539916992,-0.0384625606238842,-0.10685999691486359,24.3125,25.1875,24.1875,26.5,27.125,27.625
1.0,-0.626794170206565,-0.22470341578729214,-0.6135959421678283,-0.012871399567986386,0.0063434475392703535,-0.043430848258696156,-0.5388429442572074,-0.32437933242179184,0.06001959342038379,-3.0787635838262415,0.6247455871187784,0.00022294877603017468,-0.0016596231367841082,-0.000567788420839362,-0.0023759382559669314,-0.002196968615582608,0.006873090696450401,-5.026857097731781e-05,0.3264292776584625,-1.1520684522441407,1.6626294294940394,-2.079963346520895,-1.571345631276266,2.3013768196105957,7.268207264132798e-05,0.0027563751209527254,0.004899102728813887,-0.014869571663439274,-0.00014779870980419219,0.00011810370779130608,0.2298433631658554,-0.2298433631658554,-9.078812599182129,0.7441308498382568,47.68240737915039,-0.2896405756473541,-3.544844627380371,-1.8217251300811768,-0.5599430799484253,-0.03003011643886566,-0.1043052077293396,24.3125,25.1875,24.1875,26.5,27.125,27.625
1.0,-0.20208963231144153,0.24819069780022163,-0.7398450772158408,0.02355937628796371,-0.02261587326718264,-0.04375394147672239,-0.5388284394485483,-0.3243706186318654,0.06000043079815287,-3.078741740299309,0.6247411327135214,0.0002001237688828068,-0.0020927070134523673,-0.0007129250338513109,-0.002236249407119599,-0.0027595001013491004,0.008512736617572365,-4.915366223044409e-05,0.3264292776584625,-1.152068482046463,1.6626785437213343,-2.0799886188902796,-1.571357552205221,2.3013768196105957,6.724993727402762e-05,0.002665142295882106,0.00513325585052371,-0.016745952889323235,-0.00014473628834821284,0.00011080955300712958,0.24899697303771973,-0.13407528400421143,-9.02135181427002,0.6837049722671509,47.68240737915039,-0.2549593150615692,-3.489274501800537,-1.8075432777404785,-0.5476436018943787,-0.029981570318341255,-0.12195699661970139,24.3125,25.1875,24.1875,26.5,27.125,27.625
1.0,-0.08951057792822484,0.6048773420162664,-1.0967825512996434,0.023060087811250372,-0.053981943939273164,-0.04225144869741225,-0.5388430542380259,-0.32436371475432324,0.05999978793648933,-3.078758135118114,0.6248022694261184,0.00023886303544346201,-0.0011656012200468146,-0.00036848682411487797,-0.0035829718521280082,-0.0019553615948390193,0.00613991851480481,-4.965512912544123e-05,0.3264051675796509,-1.1520682734302063,1.6626904646502894,-2.0800363026061,-1.571345631276266,2.301388740539551,2.167006823583506e-05,0.003427419811487198,0.007192630786448717,-0.017062248662114143,-0.0001415070000803098,6.592346471734345e-05,0.26815059781074524,-0.1149216815829277,-9.117119789123535,0.7329410910606384,47.66001510620117,-0.1987517923116684,-3.4025044441223145,-1.8509891033172607,-0.549646258354187,-0.03608350828289986,-0.14062932133674622,24.3125,25.1875,24.1875,26.5,27.125,27.625
1.0,0.485020155623329,-0.30016088432948296,-1.2619528634586135,0.007349473348969146,-0.04179399608459907,-0.042687496309956635,-0.538808794041739,-0.3243678834192044,0.05996342920630274,-3.0787168680620614,0.6247170091070412,0.00015862160257556257,-0.00011600192786805905,4.840279620325314e-06,-0.005217967125659311,-0.0007138576677195292,0.0025095306581246783,-5.455779162378258e-05,0.3264411687850952,-1.152043805723526,1.6627386252032679,-2.0800358257689417,-1.571369473134176,2.3013768196105957,2.90731634322583e-07,0.004939809907227755,0.008577937260270119,-0.016123127192258835,-0.00014812083099968731,5.02246584801469e-05,0.325611412525177,-0.09576806426048279,-9.117119789123535,0.7530794739723206,47.66986846923828,-0.22902162373065948,-3.4532907009124756,-1.867279291152954,-0.537968099117279,-0.05008687824010849,-0.12276658415794373,24.3125,25.1875,24.1875,26.5,27.125,27.625
1.0,-0.3230016564935213,-1.5947839204724712,-1.2689710805410634,-0.017085680309282845,-0.03853459732799072,-0.039156379198444204,-0.5388383603752488,-0.32436995142363634,0.05996766369774548,-3.0787598143413843,0.6247259976841775,0.0002021517115048339,0.0009874208899129597,0.00038278896813364477,-0.0066024024414061975,0.0006094171443504756,-0.0013594291753174015,-1.5897798113292114e-05,0.3264172077178955,-1.1520193380168458,1.6627028624164026,-2.0800706348814906,-1.571345631276266,2.3013529777526855,3.900536338363736e-09,0.006186546757817268,0.009556861594319344,-0.014259789139032364,-0.00015418033581227064,1.232672730111517e-05,0.2298433631658554,0.0,-9.232041358947754,0.7351769208908081,47.68419647216797,-0.3076384663581848,-3.491755723953247,-1.893202543258667,-0.567270040512085,-0.014708993025124073,-0.12361294031143188,24.3125,25.1875,24.1875,26.5,27.125,27.625
1.0,-0.43913045172162346,-2.07771530575649,-1.5027442187554232,-0.0483482443696951,-0.0055109575178123125,-0.038844484547559906,-0.538813355419733,-0.3243420997849416,0.05993506607254251,-3.0786870369302,0.6247877719116608,8.049317644724721e-05,0.0020137532109077184,0.0007519920946478093,-0.00749994905047326,0.0017023543777661561,-0.004376147543264741,-2.6589896685592057e-06,0.32638120651245117,-1.152007059460022,1.6627519766436976,-2.0800582371153773,-1.571357552205221,2.3013405799865723,7.020827604183044e-13,0.0065864743664860725,0.010644422844052315,-0.012539169751107693,-0.00021566727082245052,5.2550774398696376e-08,0.2298433631658554,0.17238251864910126,-9.346963882446289,0.6993717551231384,47.65911865234375,-0.2557916045188904,-3.3822474479675293,-1.830989122390747,-0.6219445466995239,-0.03317048400640488,-0.11498633027076721,24.3125,25.1875,24.1875,26.5,27.125,27.625
1.0,-1.1891362340510694,-2.113260387686821,-1.4753709976505582,-0.05595629384906767,0.0010745449528081624,-0.034945198205798146,-0.5388154787487824,-0.32435433734117625,0.059927556296311274,-3.07873590682816,0.6247205820189999,0.00013616045474246373,0.0022316525991471626,0.0008288814512039565,-0.008163338280750181,0.0018665720221380223,-0.004834473279349993,-2.836307584516902e-06,0.3264051675796509,-1.1520069402507325,1.6627872625934046,-2.080118795434469,-1.571345631276266,2.3013405799865723,9.419336716317249e-15,0.007121167611330748,0.011637337505817413,-0.0135799590498209,-0.00022441679902840406,3.4311902208372658e-09,0.19153612852096558,0.24899697303771973,-9.308656692504883,0.7038487195968628,47.651954650878906,-0.2740493714809418,-3.406240940093994,-1.8092913627624512,-0.636134147644043,-0.0393512099981308,-0.12836341559886932,24.3125,25.1875,24.1875,26.5,27.125,27.625
1.0,-1.2731322605373827,-2.360490757580199,-1.4216747997522348,-0.03953856494603187,-0.009726269761287543,-0.03758812513188609,-0.5387912250241218,-0.32432675649775794,0.0598705826215194,-3.078645483135449,0.6248368666662264,-3.1015760656930898e-06,0.0021681929777141113,0.0008045262360371298,-0.00910833603202524,0.0020086016690153826,-0.005283019314448181,-3.1133889064480215e-06,0.32638120651245117,-1.1519583624652405,1.6628487745868128,-2.0801192722716273,-1.571357552205221,2.301400661468506,1.263724320560051e-16,0.008590918965637684,0.012052406556904316,-0.014994408935308456,-0.00021773396292701364,2.240322094504421e-10,0.2298433631658554,0.28730422258377075,-9.327810287475586,0.7060845494270325,47.63225173950195,-0.2721985876560211,-3.3968734741210938,-1.8026316165924072,-0.6325126886367798,-0.03178907930850983,-0.1101362332701683,24.3125,25.1875,24.1875,26.5,27.125,27.625
1.0,-0.7782197613533872,-1.6820185281108868,-1.4430202152781053,-0.053666464298750646,-0.008489339276268422,-0.04005543852128795,-0.5388089196664694,-0.32432538159314733,0.05987634049956303,-3.078645647667801,0.624779322706913,0.00011646950462380205,0.0022762293065169384,0.0008458055648582622,-0.009986229307675837,0.002019714438186445,-0.005275221382199123,-3.716798535539302e-06,0.3263932466506958,-1.151958243255951,1.662849251423971,-2.080179830590719,-1.5714057127581995,2.3013768196105957,1.6954472861315642e-18,0.009364619851112366,0.013455205596983433,-0.017174676060676575,-0.00023278733715415,1.4627703562308803e-11,0.2106897532939911,0.26815059781074524,-9.366117477416992,0.6814691424369812,47.693153381347656,-0.24850332736968994,-3.359360694885254,-1.8140606880187988,-0.6341111660003662,-0.038978610187768936,-0.1275722086429596,24.3125,25.1875,24.1875,26.5,27.125,27.625
1.0,-0.7704050546592822,-2.002702597258798,-1.298135398395242,-0.0544569881498784,-0.012461087963985751,-0.044562296322761374,-0.5388021582127767,-0.32433488091861074,0.0598491142461558,-3.078649573888204,0.6246836236336347,0.00011249067023769087,0.0016682412805144647,0.0006383250889557249,-0.00976726992570897,0.0014152968396636016,-0.0035057393161875535,-4.412389733809561e-06,0.3264172077178955,-1.1519221526435395,1.6628716627704065,-2.080228467980856,-1.5714176336871546,2.3013405799865723,2.274658635022029e-20,0.009498408064246178,0.013159036636352539,-0.018882153555750847,-0.00023231636441778392,9.550844273439885e-13,0.1149216741323471,0.26815056800842285,-9.308655738830566,0.7083203792572021,47.68240737915039,-0.2861824929714203,-3.353699207305908,-1.8389458656311035,-0.6196309924125671,-0.04039880633354187,-0.12509000301361084,24.3125,25.1875,24.1875,26.5,27.125,27.625
1.0,-1.0457234051810915,-2.3516338986422576,-1.2387913452424852,-0.054498740456771326,-0.0173502381689722,-0.0407109139502636,-0.5387913682309298,-0.3243115500234065,0.059816741771954646,-3.0786178672806486,0.6248121324306928,-1.5323038475587556e-05,0.0018419050380604498,0.0006948046617061667,-0.010833238236148336,0.0016504963007932037,-0.004226556462759655,-4.714986131691573e-06,0.3263692855834961,-1.1518978041461487,1.6629083792315882,-2.0802165470519007,-1.5713813940631312,2.3013768196105957,3.0517448887757416e-22,0.010735493153333664,0.014193529263138771,-0.020395595580339432,-0.00022549997083842754,6.236019188012032e-14,0.1149216815829277,0.24899697303771973,-9.193734169006348,0.7374180555343628,47.66986846923828,-0.2942907512187958,-3.344649076461792,-1.8599767684936523,-0.6261953115463257,-0.00918599870055914,-0.12812328338623047,24.3125,25.1875,24.1875,26.5,27.125,27.625
1.0,-0.889469513350949,-2.024738545518823,-1.279093055511869,-0.056460199413561576,-0.006931802954228303,-0.03447212006645577,-0.5387943544001271,-0.3243281336131468,0.059810078319249366,-3.0786474326291535,0.6247606635556404,3.492570215349957e-05,0.0011784127222613633,0.0004661534684764834,-0.010925818379639822,0.0012094137732375834,-0.002960798592936518,-5.288899355807071e-06,0.3263932466506958,-1.151885287170746,1.662919823323385,-2.0802775822081507,-1.5713813940631312,2.3013648986816406,4.0943052439414766e-24,0.011616422794759274,0.013529101386666298,-0.02195248007774353,-0.00021868044859729707,4.071674671957213e-15,0.19153612852096558,0.2298433631658554,-9.251194953918457,0.7620334029197693,47.674346923828125,-0.26810839772224426,-3.4306845664978027,-1.7680723667144775,-0.6105834245681763,-0.018165836110711098,-0.14956016838550568,24.3125,25.1875,24.1875,26.5,27.125,27.625
1.0,-0.8621124700336777,-1.7918230367828927,-1.0387139671163388,-0.048927528319351765,0.004331206775939119,-0.036028511415493944,-0.5387733890415006,-0.3243481333052916,0.05980042154999565,-3.078670069662937,0.6246686124448286,8.237875513068826e-06,0.0010921317338137124,0.0004348425693941763,-0.010825817634022074,0.0008920520343259341,-0.0020475710133638025,-5.769057752798444e-06,0.32642924785614014,-1.1518854659846802,1.6629446188556116,-2.080289503137106,-1.571369473134176,2.3013405799865723,5.493033233089882e-26,0.011205420829355717,0.01413725595921278,-0.023116420954465866,-0.00021223557996563613,2.65851269602672e-16,0.19153612852096558,0.24899697303771973,-9.21288776397705,0.6344689130783081,47.658226013183594,-0.2822072207927704,-3.288663387298584,-1.8140888214111328,-0.6184742450714111,-0.030680321156978607,-0.13179895281791687,24.3125,25.1875,24.1875,26.5,27.125,27.625
1.0,-0.7964533997131676,-1.517066628207275,-1.0911231544127398,-0.038370834477629484,0.0071222636986117485,-0.04464448671524709,-0.5387748767498701,-0.3243330228238316,0.05975697332103863,-3.078654949682382,0.6246842918308846,-2.358870243674473e-05,0.0004988796201610108,0.00023021434746161538,-0.011071293077025285,0.0005763395783771443,-0.0011491481482694677,-6.2282949985845645e-06,0.3264051675796509,-1.1518372756293793,1.662992302571432,-2.0803619823851527,-1.571369473134176,2.301328182220459,7.369604154489299e-28,0.012306607328355312,0.013475975021719933,-0.024508576840162277,-0.0002061581617454067,1.7358188285439498e-17,0.13407529890537262,0.09576806426048279,-9.155426979064941,0.7127973437309265,47.6895751953125,-0.33296316862106323,-3.346489906311035,-1.7529730796813965,-0.6061172485351562,-0.01287115179002285,-0.12464271485805511,24.3125,25.1875,24.1875,26.5,27.125,27.625
1.0,-0.8347603264202699,-1.6445698577750343,-1.387325492163872,-0.022403872058766556,0.006083462248536114,-0.043579641785235906,-0.5387633167296821,-0.324325124704282,0.059714423045807596,-3.078624946460726,0.6247944114866149,-8.113699857881232e-05,0.00017356699720856545,0.00011752947990854127,-0.010940503538768437,-1.2518980293468922e-05,0.000561208998199397,-7.077679279888269e-06,0.3263932466506958,-1.1518013936332245,1.6630523840533655,-2.0804225407042445,-1.571357552205221,2.301388740539551,9.887264669173123e-30,0.011959454976022243,0.014143883250653744,-0.026638224720954895,-0.0002004194975597784,1.133365548795017e-18,0.1149216815829277,0.17238251864910126,-9.21288776397705,0.7597975730895996,47.61165237426758,-0.2873411178588867,-3.280484199523926,-1.715467929840088,-0.6092045307159424,-0.02813301607966423,-0.13761743903160095,24.3125,25.1875,24.1875,26.5,27.125,27.625
1.0,-0.4985901880213777,-1.4612358906396075,-1.2035762017739102,-0.022929023075654947,0.008893516724546219,-0.04348625331386228,-0.5387834839996413,-0.32433578321509243,0.05970744157412039,-3.0786603835681103,0.6247634509665293,-4.1740700383763406e-05,-0.0003059071842418219,-4.812042514420667e-05,-0.01148694471005781,-0.0002757497473682984,0.0013066848165489283,-7.696101923946817e-06,0.3263932466506958,-1.1517650049975892,1.6630285421954554,-2.080471178094381,-1.571345631276266,2.3013648986816406,1.3265027044580166e-31,0.01323989313095808,0.01404449064284563,-0.02860981412231922,-0.00019508042896632105,7.40006761982449e-20,0.1149216815829277,0.13407529890537262,-9.174580574035645,0.7172743082046509,47.671661376953125,-0.2907823324203491,-3.3336713314056396,-1.75636625289917,-0.5901983976364136,-0.033622127026319504,-0.1462894082069397,24.3125,25.1875,24.1875,26.5,27.125,27.625
1.0,-0.7526845425976918,-1.3319589942406622,-1.0573556873730512,-0.02909378676861127,-0.00121484205917562,-0.03246593445014646,-0.5387751981610167,-0.3243256316511152,0.05968032007317697,-3.0786118129858933,0.6247343794475543,-3.695905326082862e-05,-0.0005805985601772366,-9.595469012360751e-05,-0.01140711721029517,-0.0004614186702072421,0.002299985731235332,-7.885396167286508e-06,0.3264051675796509,-1.1517411035350342,1.6630647818194788,-2.0805069408812464,-1.5713933149920862,2.3013648986816406,1.779672733206019e-33,0.01321483589708805,0.014140681363642216,-0.02968079410493374,-0.0003400866989977658,4.8317154386999544e-21,0.15322890877723694,0.09576806426048279,-9.308655738830566,0.7441308498382568,47.686885833740234,-0.3119719624519348,-3.342479944229126,-1.6580300331115723,-0.5686942934989929,-0.02256794087588787,-0.1403638869524002,24.3125,25.1875,24.1875,26.5,27.125,27.625
1.0,-1.0847000748643083,-1.1979887101389692,-1.1758773802301956,-0.03299420007213736,-0.014114445584567408,-0.03503172131414143,-0.5387584342523519,-0.3243315150175525,0.059642270467336,-3.0786238198660683,0.6246984781978139,-6.184179724993719e-05,-0.000892264619487062,-0.00020696723638756985,-0.011656881100169325,-0.00068456733912189,0.002905179382978302,-8.307181681042535e-06,0.3264172077178955,-1.1517169040492554,1.6631363073932093,-2.0805913410582484,-1.5713813940631312,2.3013529777526855,2.38765804128861e-35,0.013864066451787949,0.014082771725952625,-0.030916959047317505,-0.00032591255148872733,3.1547650742878123e-22,0.07661445438861847,0.038307227194309235,-9.232041358947754,0.7486078143119812,47.65284729003906,-0.3505370020866394,-3.302614688873291,-1.7424108982086182,-0.5642852187156677,-0.03234706446528435,-0.1430240273475647,24.3125,25.1875,24.1875,26.5,27.125,27.625
1.0,-1.014894833510644,-0.9141124469183433,-1.0177563807311032,-0.02928640352853669,-0.005462063927407302,-0.03932846532516257,-0.5388018152149627,-0.32433471589575713,0.0596725411940075,-3.0786731888883905,0.6247079670774719,0.00011043078417941948,-0.0007655607797119987,-0.00017068043419786114,-0.012179263332869908,-0.0007073998261671176,0.00290302893111687,-8.772026502862247e-06,0.3264051675796509,-1.151728705768921,1.663100544606344,-2.0806638203062953,-1.5713933149920862,2.3013405799865723,3.2033478865408913e-37,0.014193041250109673,0.015116320922970772,-0.032284852117300034,-0.0003045292687602341,2.0598363614783796e-23,0.13407529890537262,0.019153613597154617,-9.21288776397705,0.6993717551231384,47.6895751953125,-0.3433663547039032,-3.274808406829834,-1.6972438097000122,-0.5547614097595215,-0.025534383952617645,-0.13408198952674866,24.3125,25.1875,24.1875,26.5,27.125,27.625
1.0,-0.9324143751399138,-1.0625215633598128,-1.2414759063079597,-0.01894451425754047,-0.0030785757337308296,-0.04060214029384197,-0.5387632622915102,-0.324352036405004,0.05959393344254732,-3.078695823526428,0.624635339377889,-9.205393452845548e-05,-0.001047043028123611,-0.0002731332680477568,-0.012627501709644747,-0.0008202148128146006,0.0031664989747371055,-9.101912911446767e-06,0.3264172077178955,-1.151644305591919,1.6631720701800745,-2.080712457696432,-1.5713217894183558,2.301304340362549,4.297699713474819e-39,0.015188951045274734,0.015012162737548351,-0.03346240893006325,-0.00028525886591523886,1.3449259004752953e-24,0.019153613597154617,-0.019153613597154617,-9.232041358947754,0.7217512726783752,47.68240737915039,-0.35233360528945923,-3.2586669921875,-1.6551178693771362,-0.538253664970398,-0.024653766304254532,-0.14087876677513123,24.3125,25.1875,24.1875,26.5,27.125,27.625
1.0,-1.4031692845507986,-1.1353463182681285,-1.0587497926942424,-0.015612047999526202,-0.00356947973307969,-0.034470221214406994,-0.5387871706508544,-0.32431432645815794,0.059586122571879785,-3.0786309219459524,0.6246603938956362,4.8704002395874474e-05,-0.0006809010092374405,-0.00015373140092117996,-0.013198691580966785,-0.0006973950599805387,0.0027527580638831597,-9.416650590264526e-06,0.3263932466506958,-1.1516442757895966,1.6632087866412562,-2.080796857873434,-1.5714176336871546,2.301304340362549,5.765922791157325e-41,0.015273571945726871,0.016430150717496872,-0.03453380987048149,-0.00026824744418263435,8.781404846884327e-26,0.038307227194309235,0.019153613597154617,-9.289502143859863,0.7374180555343628,47.658226013183594,-0.3399446904659271,-3.304187297821045,-1.6999070644378662,-0.5405079126358032,-0.024887796491384506,-0.13798172771930695,24.3125,25.1875,24.1875,26.5,27.125,27.625
1.0,-1.3935482905780177,-1.0702747387835951,-1.0349724586194196,-0.017424253381653206,-0.00017407015770787553,-0.04355269863791569,-0.538767413465406,-0.32432681190896173,0.05953688263273771,-3.0786092408372228,0.6247722377957262,-6.186188425529668e-05,-0.0013544957532672498,-0.00038859388218984365,-0.013371982597285984,-0.001050346773732702,0.0037322165366243595,-9.851906134952297e-06,0.3264051675796509,-1.151584045296051,1.6632445494281214,-2.080832620660299,-1.5713813940631312,2.301388740539551,7.73516752307299e-43,0.016424095258116722,0.015508853830397129,-0.035804010927677155,-0.00025315137463621795,5.7336305706528415e-27,-0.019153613597154617,-0.019153613597154617,-9.289502143859863,0.7195101380348206,47.68061828613281,-0.3822875916957855,-3.3511362075805664,-1.647188425064087,-0.5234558582305908,-0.037648484110832214,-0.1349724382162094,24.3125,25.1875,24.1875,26.5,27.125,27.625
1.0,-1.137598807985362,-0.9553421123046306,-1.0514216789877262,-0.03272594756378725,0.011568455746056756,-0.04384510173772392,-0.538772360700838,-0.32434416342920375,0.059492984052511355,-3.0786343396421243,0.6246814702555471,-4.482996769522287e-05,-0.0014271331797887387,-0.00042184482965221243,-0.01407841284837771,-0.001190894149919708,0.004058033531134233,-1.0528831518153765e-05,0.32642924785614014,-1.1515118342689057,1.6632679144488733,-2.0809408626952113,-1.5713813940631312,2.3013529777526855,0.0,0.017230389639735222,0.016464481130242348,-0.03791970759630203,-0.00022754078963771462,2.4443365700264246e-29,-0.09576806426048279,0.019153613597154617,-9.308655738830566,0.7038487195968628,47.6895751953125,-0.34150272607803345,-3.3001151084899902,-1.6145658493041992,-0.49797171354293823,-0.023655809462070465,-0.14473307132720947,24.3125,25.1875,24.1875,26.5,27.125,27.625
1.0,-1.121627007338299,-0.9812706897795316,-1.0697109302419834,-0.03327483003596078,0.011187576074065017,-0.04894504652785634,-0.5387850918701875,-0.3243404110023668,0.059475409444134264,-3.0786825971258684,0.6247300054106439,3.39293988701011e-05,-0.0015222267929091945,-0.00045773438715931714,-0.014098532548461913,-0.0012962264385653149,0.004332476362812062,-1.0706887774641397e-05,0.3264051675796509,-1.1515118938735505,1.6633403936969202,-2.081085344354147,-1.571357552205221,2.3013529777526855,0.0,0.017318064346909523,0.01647859252989292,-0.038315266370773315,-0.00021658570040017366,1.5959769555916495e-30,-0.1149216815829277,0.019153613597154617,-9.27034854888916,0.7284641265869141,47.657325744628906,-0.4066162109375,-3.325901985168457,-1.6541471481323242,-0.49713754653930664,-0.02381870150566101,-0.14785361289978027,24.3125,25.1875,24.1875,26.5,27.125,27.625
1.0,-0.772895782111546,-0.7934865495735419,-1.2800017622451993,-0.03406374974615479,0.02308606337003309,-0.04835113701848849,-0.5387862798435611,-0.3243295262620259,0.05944004796973412,-3.0786330040702303,0.6247580782754127,2.9276377334181996e-05,-0.0013702152257300893,-0.0004092503405379865,-0.014639025027360584,-0.0011944962245371486,0.00399954826536123,0.00021513602312003927,0.3264051675796509,-1.151463733320572,1.6633642355548304,-2.081133028069967,-1.5713933149920862,2.3013768196105957,0.0,0.017791451886296272,0.017245620489120483,-0.03920779377222061,-0.000206637050723657,-0.00022606282436754555,-0.038307227194309235,0.019153613597154617,-9.289502143859863,0.7441308498382568,47.65911865234375,-0.36510300636291504,-3.28942608833313,-1.6652858257293701,-0.4847761392593384,-0.022670026868581772,-0.13760030269622803,24.3125,25.1875,24.1875,26.5,27.125,27.625
1.0,-1.0739023141135928,-1.236071237585188,-1.093179249006649,-0.02894446596148305,0.0177016337591977,-0.04123715173497032,-0.5387841873753032,-0.3243323951628888,0.05940439161718736,-3.078662734201735,0.6247642355260478,-7.528173973777828e-07,-0.001242238840558178,-0.0003689273229387242,-0.015563214717030444,-0.0009228585965110569,0.0031659213948699223,0.00029685352643261893,0.3263932466506958,-1.1514273148826142,1.6634133497821253,-2.081217428246969,-1.571357552205221,2.3013648986816406,0.0,0.019026974216103554,0.017833992838859558,-0.040155019611120224,-0.00019756304391194135,-0.00030792265897616744,0.019153613597154617,0.05746084079146385,-9.28950309753418,0.7396538853645325,47.67792892456055,-0.42102041840553284,-3.3329708576202393,-1.6943373680114746,-0.4758616089820862,-0.022933414205908775,-0.1432081162929535,24.3125,25.1875,24.1875,26.5,27.125,27.625
1.0,-1.208420730681668,-1.1042989633129565,-1.1401244378039523,-0.028600720885235895,0.012000722653881515,-0.04156505139955865,-0.5387836468642201,-0.3243244111113625,0.05936500562768199,-3.0786546854546235,0.6247429406253491,-3.370903174247902e-05,-0.0005757473658113449,-0.0001443799505051758,-0.016239936213618793,-0.0004110698714992661,0.0016384934341888127,0.0002833069471154218,0.32638120651245117,-1.1513792437366028,1.6634491125689905,-2.0812770328917445,-1.571357552205221,2.3013405799865723,0.0,0.019172033295035362,0.01912609674036503,-0.03998132795095444,-0.00018925215408671647,-0.0002941615821328014,0.1149216815829277,0.07661445438861847,-9.404424667358398,0.7530794739723206,47.68867492675781,-0.41851621866226196,-3.276930093765259,-1.7475390434265137,-0.4903857111930847,-0.02989427000284195,-0.15197953581809998,24.3125,25.1875,24.1875,26.5,27.125,27.625
1.0,-0.6559900188566097,-0.6721536707392264,-1.155982122509749,-0.038279568446092066,0.018347229357794696,-0.04860557556459668,-0.5387844888578625,-0.3243443262412685,0.059334459602991996,-3.078682798717367,0.6246137779637804,8.035749749820916e-06,-0.0006748187971915278,-0.00018074390609567207,-0.016415645554754138,-0.00043797557523061277,0.001690621855248051,0.0002655208774798209,0.3264172077178955,-1.1513311129859467,1.6634729544269007,-2.0813728771605433,-1.571369473134176,2.3012924194335938,0.0,0.019566142931580544,0.019064100459218025,-0.04037147015333176,-0.00018161270418204367,-0.0002764961391221732,0.038307227194309235,0.05746084079146385,-9.327810287475586,0.6434228420257568,47.67613983154297,-0.43760716915130615,-3.3871140480041504,-1.6599562168121338,-0.486000657081604,-0.02236223593354225,-0.14797434210777283,24.3125,25.1875,24.1875,26.5,27.125,27.625
1.0,-0.9540553624732627,-1.1463998337760613,-1.271781092531696,-0.023614039980614863,-0.004809478149558714,-0.04405369344256101,-0.5387624568798652,-0.3243330567913647,0.05928558511175391,-3.0786359595373707,0.6247013295789223,-3.164193746783712e-05,-0.0008377665353978886,-0.00023887587790157548,-0.016788788267608802,-0.00029358558060343573,0.001238219867421303,0.00024964865142228194,0.3264172077178955,-1.1513068240932007,1.6635687986956995,-2.081456800500387,-1.5713813940631312,2.3013529777526855,0.0,0.020596666261553764,0.01846754364669323,-0.04033065214753151,-0.00017456634668633342,-0.0002605113841127604,0.13407529890537262,0.07661445438861847,-9.327810287475586,0.7374180555343628,47.671661376953125,-0.42053309082984924,-3.2847704887390137,-1.6348141431808472,-0.47288036346435547,-0.04579221084713936,-0.14936679601669312,24.3125,25.1875,24.1875,26.5,27.125,27.625
1.0,-0.49740309398077576,-0.9404180430330398,-1.1977150026570271,-0.02865728833498487,-0.0064685790131276235,-0.0443415523945235,-0.538811618274812,-0.32436142949985125,0.05928965137573067,-3.0787103164206653,0.6246574815727384,0.0001032117299070071,-0.00025480978370963836,-4.2187291888760274e-05,-0.017343903290867716,9.127735654383722e-05,8.968622825779253e-05,0.0002717690329200111,0.32642924785614014,-1.1512469214252015,1.6634977499591272,-2.0815521679320277,-1.571369473134176,2.301328182220459,0.0,0.020578982308506966,0.019763322547078133,-0.04039747267961502,-0.00016804604092612863,-0.00028255951474420726,0.15322890877723694,0.038307227194309235,-9.308655738830566,0.6635612845420837,47.65374755859375,-0.44706064462661743,-3.3507299423217773,-1.63869047164917,-0.5035914778709412,-0.03880540281534195,-0.16059136390686035,24.3125,25.1875,24.1875,26.5,27.125,27.625
1.0,-0.5326211853261374,-1.346404947235837,-1.1136912922153206,-0.022265844679524194,-0.008835060490752257,-0.038633657882646756,-0.5387875953616941,-0.32432987417520603,0.059232793188618627,-3.078651786875297,0.6247032854718405,-2.6757828042083138e-05,5.972610100014244e-05,6.301738738486455e-05,-0.017761949265480362,0.00046756937013393927,-0.001035132475309976,0.00026883170984296054,0.3263932466506958,-1.1512107414058228,1.663581673298971,-2.081576486627096,-1.571369473134176,2.301328182220459,0.0,0.02097897417843342,0.02004007250070572,-0.039888154715299606,-0.00016199595120269805,-0.00027931988006457686,0.1149216815829277,0.13407529890537262,-9.27034854888916,0.7463666796684265,47.66001510620117,-0.4389250874519348,-3.2882697582244873,-1.6482715606689453,-0.501590371131897,-0.031252700835466385,-0.14896932244300842,24.3125,25.1875,24.1875,26.5,27.125,27.625
1.0,-0.2998081343235861,-1.516858019130213,-1.1568922747849677,-0.01975039774081084,-0.007436304698970924,-0.04366812704666951,-0.5387616483561952,-0.32434819016205596,0.059187336928954115,-3.0786496100026555,0.6247040491391408,-6.947388395307312e-05,0.00047872028982944747,0.0002037697678145143,-0.01860314346111674,0.0010624841585177532,-0.0028035913459963095,0.0002561756594771496,0.32642924785614014,-1.1511743527701874,1.6636527220355433,-2.0816594562926234,-1.571357552205221,2.3013648986816406,0.0,0.021982237696647644,0.02044794149696827,-0.03943345695734024,-0.00015636600437574089,-0.00026628555497154593,0.09576806426048279,0.17238251864910126,-9.155426979064941,0.7396538853645325,47.671661376953125,-0.45652633905410767,-3.383842706680298,-1.6718436479568481,-0.5120829939842224,-0.023441078141331673,-0.16648545861244202,24.3125,25.1875,24.1875,26.5,27.125,27.625
1.0,-0.512143343152797,-0.8234231771106482,-1.1322767794333501,-0.03406149423094863,-0.012899982844956399,-0.04805822677760324,-0.5388001143237668,-0.3243304600911965,0.05916870419625525,-3.078638927479835,0.6247014481533871,5.052473902453161e-05,0.000673971375405646,0.0002686589437350403,-0.018803647108347362,0.0011730392638201353,-0.0031442075829359755,0.00024368245856506217,0.3264051675796509,-1.1511264604381104,1.6636527220355433,-2.0817676983275355,-1.5714057127581995,2.3013405799865723,0.0,0.021971948444843292,0.02094545029103756,-0.03956262767314911,-0.00015111439279280603,-0.000253814912866801,0.19153612852096558,0.19153612852096558,-9.097966194152832,0.6769921779632568,47.687782287597656,-0.4376640319824219,-3.2874131202697754,-1.6994072198867798,-0.5400956869125366,-0.02772645279765129,-0.1587723195552826,24.3125,25.1875,24.1875,26.5,27.125,27.625
1.0,-0.3449704658527313,-1.526146935745673,-1.0814115873815995,-0.01608566097970237,-0.00531825229876213,-0.03273601571240678,-0.5388001177786822,-0.32431864232084306,0.059117489349309243,-3.078644177998103,0.6247402581814854,-2.818319636206037e-05,0.0005582178119916783,0.00022745006073133473,-0.0190048952281946,0.0011359011774383396,-0.0030542374852448304,0.00026978987233311903,0.3263692855834961,-1.1510663789561768,1.66370135942568,-2.081839700738424,-1.571369473134176,2.301328182220459,0.0,0.022413702681660652,0.02089848928153515,-0.0400545671582222,-0.00014620386355090886,-0.00028006164939142764,0.24899697303771973,0.1149216815829277,-9.155426979064941,0.7441308498382568,47.67792892456055,-0.42221975326538086,-3.3452911376953125,-1.6183041334152222,-0.557463526725769,-0.025224145501852036,-0.15758730471134186,24.3125,25.1875,24.1875,26.5,27.125,27.625
1.0,-0.466235076822495,-1.1054279123994157,-1.1235157960352333,-0.0283556467474695,-0.013492313164766798,-0.04231624592713015,-0.5387746147233591,-0.3243252586098487,0.059045196517267834,-3.078611165870868,0.6247924608154273,-0.00016205217576058283,0.0005272393393308535,0.0002152614608464609,-0.019231248986536966,0.0012571202785740421,-0.003427583127083087,0.0002603228247769015,0.32638120651245117,-1.150982217197754,1.6637614409076136,-2.0818993053831996,-1.571345631276266,2.3013768196105957,0.0,0.022946910932660103,0.020644867792725563,-0.039941661059856415,-0.00014160291175357997,-0.00027049012714996934,0.2106897532939911,0.13407529890537262,-9.136273384094238,0.7172743082046509,47.6895751953125,-0.44556546211242676,-3.2854294776916504,-1.6075893640518188,-0.5660863518714905,-0.035243816673755646,-0.16682609915733337,24.3125,25.1875,24.1875,26.5,27.125,27.625
1.0,-0.27467338490925486,-1.0933780516458407,-0.9900614157119932,-0.03506651254656182,-0.006784205733680438,-0.04954124305453461,-0.538785353370947,-0.3243211817775132,0.05903730616578373,-3.07863826689759,0.6247789086607279,-9.797146149861618e-05,0.0009264740075788607,0.00034961581078188743,-0.020147446754708847,0.00182785154825113,-0.00512236281592938,0.00024962455730418424,0.3263692855834961,-1.1509817999652405,1.663797680531637,-2.0819832287230433,-1.571345631276266,2.3013529777526855,0.0,0.02403881587088108,0.02116047590970993,-0.03976089134812355,-0.0001372827246086672,-0.00025950552662834525,0.2106897532939911,0.15322890877723694,-9.193734169006348,0.7732232213020325,47.693153381347656,-0.4491341710090637,-3.4060206413269043,-1.583998680114746,-0.5808248519897461,-0.038919851183891296,-0.15112848579883575,24.3125,25.1875,24.1875,26.5,27.125,27.625
1.0,-0.2607180982850569,-0.9549103129489829,-0.8817961509274111,-0.04409164353097744,-0.004653629612270959,-0.045539649856654686,-0.5387638488098176,-0.3243296408000138,0.0589677489893938,-3.078619463146768,0.6246778271550302,-0.00012787016498572648,0.001181146129942961,0.0004350280660682184,-0.020758635198061225,0.0019413605791136937,-0.005470200589616756,0.000269939133904219,0.3264051675796509,-1.15090964854274,1.663882080708639,-2.0821038685240687,-1.571369473134176,2.301328182220459,0.0,0.02438419684767723,0.022324329242110252,-0.04090427979826927,-0.00013321818551048636,-0.0002801140653900802,0.17238251864910126,0.09576806426048279,-9.097966194152832,0.6971306204795837,47.6421012878418,-0.49285823106765747,-3.3975532054901123,-1.6755616664886475,-0.604091227054596,-0.026068884879350662,-0.1657811403274536,24.3125,25.1875,24.1875,26.5,27.125,27.625
1.0,-0.3240518854866472,-1.1726811178890468,-0.9843994762010196,-0.04234864607412117,-0.008036916244086423,-0.044420298957596985,-0.5387725023219873,-0.3243479503130098,0.05896976853969965,-3.0786731653923005,0.6246695383124039,-6.510090573592547e-05,0.0010277513101543618,0.0003815735556803478,-0.02079875074970609,0.0014706422747787504,-0.0041001977426018315,0.0002626919734277641,0.3264172077178955,-1.1509098273566742,1.663894001637594,-2.0821758709349574,-1.571345631276266,2.301328182220459,0.0,0.02403990738093853,0.023382794111967087,-0.04306706413626671,-0.00012938727741129696,-0.0002737032773438841,0.2106897532939911,0.09576806426048279,-9.136273384094238,0.6725152134895325,47.68240737915039,-0.47219181060791016,-3.2752175331115723,-1.646180510520935,-0.5979964733123779,-0.03017379716038704,-0.1548522561788559,24.3125,25.1875,24.1875,26.5,27.125,27.625
1.0,-0.5130606281284555,-1.0472349345778862,-0.8980892269933852,-0.035055141588734504,-0.011287280858832918,-0.038143679266125365,-0.5387863754770463,-0.3243180213688726,0.05892096981095643,-3.078606196643993,0.6247533115792827,-8.592824769676914e-05,0.002092258150627087,0.0007492030538395703,-0.02187444428550698,0.0028450747284073175,-0.00808777248210581,0.00028823147022808,0.3264051675796509,-1.1507657629302521,1.6640008131610315,-2.0823542080321253,-1.571369473134176,2.3013529777526855,0.0,0.025092432275414467,0.023718668147921562,-0.0402376726269722,-0.00014517863746732473,-0.00029786431696265936,0.15322890877723694,0.09576806426048279,-9.193734169006348,0.6635612845420837,47.6734504699707,-0.4877195358276367,-3.323549747467041,-1.656916618347168,-0.6689484119415283,-0.03785039857029915,-0.16689342260360718,24.3125,25.1875,24.1875,26.5,27.125,27.625
1.0,-0.7641904097399181,-0.6798758331818441,-0.8565031655212165,-0.03455218808179027,-0.019055704517081884,-0.04346792460756914,-0.5387792544584655,-0.3243385274348326,0.05884566329308172,-3.0786522143631214,0.6247037954976856,-0.0001403755852698976,0.001527445485333392,0.0005554108342264703,-0.022310164333307483,0.0024650811373900005,-0.006990138609828017,0.00026985814973080516,0.3263932466506958,-1.150741384630539,1.6639893690692347,-2.082391401330465,-1.5713337103473108,2.301328182220459,0.0,0.026245787739753723,0.023594414815306664,-0.04242829978466034,-0.00014282754273153841,-0.0002802181406877935,0.15322890877723694,0.09576806426048279,-9.155426979064941,0.7239871025085449,47.656429290771484,-0.47454720735549927,-3.368406295776367,-1.593689203262329,-0.6869412064552307,-0.030866308137774467,-0.16634947061538696,24.3125,25.1875,24.1875,26.5,27.125,27.625
1.0,-0.5430807410757392,-0.7405342199541651,-0.8292366324502667,-0.037932594828882824,-0.008547740123718471,-0.04897799034412902,-0.5388094497532548,-0.3243182081141431,0.058816989797261576,-3.078612506347823,0.6247539338613041,-7.019659466047478e-05,0.0015407383257469254,0.0005587780525985691,-0.022438224972758696,0.002273331511156879,-0.006438850614664216,0.0002787285561864119,0.3263692855834961,-1.1506813627532502,1.6639898459063929,-2.082475801507467,-1.5713813940631312,2.3013405799865723,0.0,0.026076527312397957,0.024394268169999123,-0.04364258795976639,-0.00013924171798862517,-0.0002895374782383442,0.15322890877723694,0.1149216815829277,-9.289502143859863,0.7396538853645325,47.65284729003906,-0.4826395511627197,-3.37717866897583,-1.6428415775299072,-0.6887016296386719,-0.00959045346826315,-0.1655793935060501,24.3125,25.1875,24.1875,26.5,27.125,27.625
1.0,-0.9746382275502832,-1.2761701981474705,-0.9569361206101447,-0.03741539280963048,-0.012172236966499855,-0.04911580266579706,-0.5387921017911055,-0.3243201856171345,0.05875826998212616,-3.0786012436519683,0.6246742665370476,-6.714387817827564e-05,0.0016959058349461475,0.0006103956607054267,-0.023132359447023614,0.0022293292776475486,-0.006323999354407667,0.0002858963101901901,0.3263932466506958,-1.1506332022002717,1.6640856901751917,-2.0826078854002894,-1.5714057127581995,2.301316261291504,0.0,0.026490582153201103,0.025840837508440018,-0.04562612995505333,-0.0001357473956886679,-0.0002973014779854566,0.07661445438861847,0.13407529890537262,-9.232041358947754,0.6635612845420837,47.68240737915039,-0.46353596448898315,-3.3270702362060547,-1.6879298686981201,-0.7015327215194702,-0.03388066589832306,-0.14748750627040863,24.3125,25.1875,24.1875,26.5,27.125,27.625
1.0,-1.1347367875975214,-1.2720899350195578,-0.9131087446101505,-0.037791723264593964,-0.005841264026403321,-0.03595820798462081,-0.5387598983355383,-0.3243169183541485,0.058692566816753944,-3.0785696292811537,0.6246869988783794,-0.00021973987344791433,0.002259311531546231,0.0008009530006864627,-0.024169606699010793,0.0032099975085866247,-0.009219936515048769,0.00029579954419375686,0.3263932466506958,-1.1505726736835022,1.6641581694232386,-2.0826426945128382,-1.5713813940631312,2.301328182220459,0.0,0.028007712215185165,0.025702238082885742,-0.043947186321020126,-0.00013241883425507694,-0.0003062916803173721,0.09576806426048279,0.038307227194309235,-9.155426979064941,0.6948947906494141,47.67703628540039,-0.5131926536560059,-3.4287755489349365,-1.6482270956039429,-0.760073184967041,-0.020077891647815704,-0.15685351192951202,24.3125,25.1875,24.1875,26.5,27.125,27.625
1.0,-1.2740288239061879,-1.09821334528021,-1.0357070681353504,-0.03178123540156941,-0.01033548164346007,-0.04487297191297743,-0.5387652242559902,-0.3243109317509729,0.05865903086194352,-3.0785720136146955,0.6247068260227642,-0.00020316790618895032,0.0026604308217843893,0.0009366170857755184,-0.024553441746796408,0.003587926132557607,-0.010339359887343334,0.00030229986937554417,0.32638120651245117,-1.1505367916873475,1.6642058531390589,-2.082738538781637,-1.5713813940631312,2.301328182220459,0.0,0.028177278116345406,0.02622716687619686,-0.043460194021463394,-0.00012924931070301682,-0.0003125213843304664,0.07661445438861847,0.09576806426048279,-9.117119789123535,0.7329410910606384,47.690467834472656,-0.5524590015411377,-3.4016523361206055,-1.6012752056121826,-0.7976857423782349,-0.03582672029733658,-0.1365269273519516,24.3125,25.1875,24.1875,26.5,27.125,27.625
1.0,-0.8805487996303494,-0.6710602772305576,-0.8953419633419492,-0.03922231822813458,-0.0018957488109279507,-0.05268399370015578,-0.5387357928064755,-0.32430106246242585,0.05857019289331547,-3.0785024349116346,0.6246733408306553,-0.0003293082673129202,0.0020648623884574613,0.0007324692301489312,-0.02465345125909051,0.002791511795202639,-0.00801592350283905,0.0002876015409539244,0.3263932466506958,-1.1504406195930024,1.6642897764789026,-2.082811494866842,-1.5714057127581995,2.301328182220459,0.0,0.028369082137942314,0.026950446888804436,-0.04683142527937889,-0.0001262277946807444,-0.0002990846405737102,0.09576806426048279,0.019153613597154617,-9.155426979064941,0.6881819367408752,47.69673538208008,-0.5260530710220337,-3.327085494995117,-1.6460964679718018,-0.81211918592453,-0.01990753971040249,-0.1680229753255844,24.3125,25.1875,24.1875,26.5,27.125,27.625
1.0,-1.0360495808974735,-0.9249548632918222,-0.7706103798039826,-0.0344386766246705,0.004385139604848922,-0.04317161219418618,-0.5387541947402003,-0.32431509327693286,0.05855025633340638,-3.078533840358105,0.6247004312698441,-0.0002324294312836813,0.0016166931183817805,0.0005787945994640734,-0.024470489500865965,0.002145401394412619,-0.006129271311026899,0.0002732406937680946,0.3264051675796509,-1.1504048270038147,1.6643150488482874,-2.0829440555968226,-1.5714057127581995,2.3013529777526855,0.0,0.028136203065514565,0.027347508817911148,-0.048989828675985336,-0.00012334456550888717,-0.00028561343788169324,0.1149216815829277,0.07661445438861847,-9.232041358947754,0.7396538853645325,47.6734504699707,-0.5164554119110107,-3.4241554737091064,-1.6433520317077637,-0.7992550134658813,-0.04270249605178833,-0.15571215748786926,24.3125,25.1875,24.1875,26.5,27.125,27.625
1.0,-1.1681642503028977,-1.192932053991616,-0.9068620950072038,-0.0298612690930518,0.008995467791233653,-0.041138675796835604,-0.538711251837544,-0.32434285764406806,0.0584660142727757,-3.0785586828299127,0.6246280770085301,-0.00039327771926787815,0.0014203766424510512,0.0005106576133679924,-0.02507067528341849,0.00202660800899215,-0.005796382738958024,0.0002891852532307235,0.3264411687850952,-1.1503205758384247,1.664410416279928,-2.0830403767027796,-1.571345631276266,2.3013405799865723,0.0,0.029093492776155472,0.0277684535831213,-0.050721462815999985,-0.00012058985885232687,-0.00030206667724996805,0.05746084079146385,0.05746084079146385,-9.193734169006348,0.6792280077934265,47.658226013183594,-0.5403879880905151,-3.3106493949890137,-1.6407406330108643,-0.8127628564834595,-0.04642275720834732,-0.16058349609375,24.3125,25.1875,24.1875,26.5,27.125,27.625
1.0,-0.8692580495767239,-0.8751888086858705,-0.8165188556060227,-0.03676321141974437,0.015643387372918018,-0.04622317439850935,-0.5387104016764152,-0.324292354684659,0.05839550061876167,-3.078468105097259,0.6247056973447139,-0.000479580116503349,0.0013389559436060502,0.0004812353255200842,-0.0263180727261957,0.002224457773178981,-0.006400484265236984,0.0002853486590094959,0.32638120651245117,-1.1502480071834107,1.664482895527975,-2.0831009350218714,-1.5713813940631312,2.3013405799865723,0.0,0.031046900898218155,0.02829410322010517,-0.05256490409374237,-0.00011795580212492496,-0.00029861461371183395,0.038307227194309235,0.0,-9.232041358947754,0.7195101380348206,47.693153381347656,-0.5223665833473206,-3.461695671081543,-1.6832953691482544,-0.8357127904891968,-0.03189460188150406,-0.14762941002845764,24.3125,25.1875,24.1875,26.5,27.125,27.625
1.0,-1.0993013609455409,-1.176548376342363,-0.9068975537082575,-0.03187764566009547,0.014173909644317159,-0.0481107442286009,-0.5387243968433139,-0.3243164743572169,0.05836580310357409,-3.0785216757051654,0.6246782928524492,-0.00039066772068621457,0.000902003049785398,0.00033141281912877767,-0.026280792263488735,0.0016664064446062525,-0.00477267863506175,0.0002731980032013516,0.3264051675796509,-1.1501999956420441,1.6645186583148401,-2.083257337609762,-1.571369473134176,2.3013405799865723,0.0,0.031097181141376495,0.02861158363521099,-0.05465346574783325,-0.00011543402069946751,-0.00028728984761983156,0.05746084079146385,0.09576806426048279,-9.251194953918457,0.7150384783744812,47.6680793762207,-0.5254690647125244,-3.4225072860717773,-1.6906654834747314,-0.8440053462982178,-0.03574378043413162,-0.16269224882125854,24.3125,25.1875,24.1875,26.5,27.125,27.625
1.0,-1.0892490889589164,-1.0227157916783576,-1.0600006825329595,-0.038669525259529054,0.017508985021967995,-0.04785937238929604,-0.5387594920079012,-0.32431290174904304,0.05834415263046583,-3.078558132764546,0.6246848175315791,-0.0002916091176282856,-0.00014376764511197547,-2.613995902628514e-05,-0.026248445509983995,0.00038716578524973635,-0.0010332680978159846,0.00033637459156084015,0.32638120651245117,-1.150152013903,1.6645310560809534,-2.083390852014059,-1.571369473134176,2.301316022872925,0.0,0.03135928884148598,0.029274435713887215,-0.05953060835599899,-0.00011301819904474542,-0.0003523582126945257,0.038307227194309235,0.09576806426048279,-9.251194953918457,0.7284641265869141,47.656429290771484,-0.5450872778892517,-3.449759006500244,-1.6102356910705566,-0.8333398103713989,-0.021980421617627144,-0.15783566236495972,24.3125,25.1875,24.1875,26.5,27.125,27.625
1.0,-1.285270342267547,-1.2100019239707773,-1.23818564138706,-0.04069392253580327,0.022696684248146932,-0.04471900281022146,-0.5387125782122592,-0.32433587407576386,0.058256179119387574,-3.0785286087230666,0.624622105903775,-0.0004034507629176021,-0.0008440648579728033,-0.00026569465851159705,-0.026024608354820646,-0.0006149168023594439,0.0018980330112669107,0.0003201225890025561,0.3264411687850952,-1.1500682097724457,1.6646383444415491,-2.0834995708861292,-1.571369473134176,2.3013405799865723,0.0,0.03108261339366436,0.02994305081665516,-0.06302040070295334,-0.00011070108303101733,-0.0003375048690941185,-0.05746084079146385,0.13407528400421143,-9.232041358947754,0.7665104269981384,47.68240737915039,-0.5872074961662292,-3.4545814990997314,-1.6484789848327637,-0.7770223617553711,-0.04135866090655327,-0.1568020135164261,24.3125,25.1875,24.1875,26.5,27.125,27.625
1.0,-2.4752117584819935,-1.9456341815170366,-1.1937147216837884,-0.027044774454710187,-0.005278763072199675,-0.02797770289760117,-0.5387274107065704,-0.3243253941048851,0.05821747473351557,-3.078540881425031,0.6246237019789598,-0.0003707094625296419,-0.0006457771632565343,-0.0001990846678630024,-0.026843277083648167,-0.00047292947327763456,0.001468997342495151,0.0003512725527587561,0.3264172077178955,-1.1500199598125,1.6646860281573694,-2.0836197338499964,-1.571369473134176,2.301316022872925,0.0,0.031835757195949554,0.031075308099389076,-0.06445390731096268,-0.00010847728844964877,-0.0003690113371703774,0.05746084079146385,0.09576806426048279,-9.327810287475586,0.7060845494270325,47.68419647216797,-0.5336540937423706,-3.4414305686950684,-1.7528170347213745,-0.8067668080329895,-0.031130827963352203,-0.16629815101623535,24.3125,25.1875,24.1875,26.5,27.125,27.625
1.0,-1.4045692077079506,-1.3616805302278046,-1.1651017963430075,-0.03843982552272601,0.020025047488902686,-0.04151392780008217,-0.5387486944794094,-0.3243248547281666,0.058182283305947574,-3.0785636516944264,0.6246668134709291,-0.0002881307284431215,-0.001537190647519926,-0.0005040975769963746,-0.027181864203543647,-0.0014566505334087712,0.004339228865334967,0.0003329961207618496,0.3264051675796509,-1.1499717396548768,1.664734188710348,-2.0837770901122035,-1.571369473134176,2.30132794380188,0.0,0.03265585005283356,0.031717412173748016,-0.06895022839307785,-0.00010634102363837883,-0.00035238571581430733,0.0,0.13407529890537262,-9.289502143859863,0.7418897151947021,47.68419647216797,-0.5617834329605103,-3.4747347831726074,-1.707916021347046,-0.7732109427452087,-0.026248198002576828,-0.16790945827960968,24.3125,25.1875,24.1875,26.5,27.125,27.625
1.0,-1.527397136639082,-1.5148673002351933,-1.1490701445333138,-0.03509623132725502,0.01515637261687089,-0.04323025174820409,-0.5387245547261029,-0.3243247549442954,0.058100192988388144,-3.078525972754416,0.6246014426903372,-0.00034871926626728724,-0.0029131756558311165,-0.0009743200704047057,-0.027170506104088728,-0.0030834824185912977,0.009096159257387937,0.00036083527054932345,0.32642924785614014,-1.1498874586871644,1.664830509816305,-2.0838991604247035,-1.5713933149920862,2.301316022872925,0.0,0.03313009813427925,0.03243870660662651,-0.07517320662736893,-0.0001042873045662418,-0.0003826194442808628,0.07661445438861847,0.13407529890537262,-9.327810287475586,0.7463666796684265,47.66986846923828,-0.5663930177688599,-3.4650354385375977,-1.7077196836471558,-0.697848916053772,-0.03331374377012253,-0.1545102745294571,24.3125,25.1875,24.1875,26.5,27.125,27.625
1.0,-0.9435256682917217,-1.2865336663186335,-1.191100391506842,-0.04869106385118656,0.02520436231735786,-0.049853563095585446,-0.538738493870232,-0.3243333106729759,0.05804656082942494,-3.0785434670508516,0.6246241975146231,-0.00032824884300404293,-0.0026329539191435247,-0.0008795704437658932,-0.027710387155132427,-0.0028174274867026165,0.008306758174390314,0.00034212292325603075,0.32642924785614014,-1.149803326731064,1.6648672262774866,-2.0840422115721644,-1.5713813940631312,2.30132794380188,0.0,0.033711280673742294,0.033346012234687805,-0.07945992797613144,-0.0001004088408080861,-0.0003442259621806443,0.07661445438861847,0.17238251864910126,-9.404424667358398,0.7530794739723206,47.68867492675781,-0.5589898824691772,-3.475074529647827,-1.766390085220337,-0.6417750120162964,-0.02153922989964485,-0.15510059893131256,24.3125,25.1875,24.1875,26.5,27.125,27.625
1.0,-0.9084517337930166,-1.2153623552195847,-1.2311643023204917,-0.051106323487782185,0.022331938263954403,-0.051625927287826875,-0.5387310965705109,-0.3243111998508062,0.057986459765814735,-3.0785260644458052,0.6247376849167698,-0.00035085582207288434,-0.003848380987653399,-0.0011974406121770596,-0.028256122366516954,-0.004194915266187653,0.012323630887214252,0.00015081179864951652,0.32642918825149536,-1.149659202699997,1.6650117079364222,-2.0843807659544886,-1.5713813940631312,2.3013405799865723,-0.0001514118048362434,0.034639764577150345,0.034346044063568115,-0.08200366795063019,-9.857589611783624e-05,-0.0003264007391408086,0.05746084079146385,0.15322890877723694,-9.423578262329102,0.6859408020973206,47.68240737915039,-0.5480870008468628,-3.397021770477295,-1.8787038326263428,-0.5736923813819885,-0.037866272032260895,-0.15704652667045593,24.3125,25.1875,24.1875,26.5,27.125,27.625
1.0,-0.9300758790452552,-1.384412345433063,-1.073609360668813,-0.0434558588036785,0.011338612482235286,-0.04616494075578181,-0.5387502682282608,-0.3243446297163715,0.057873030815695586,-3.0786128776987876,0.624678298491428,-0.00026656129851167676,-0.0037313966106040856,-0.001139344142636521,-0.029058711480128573,-0.00405217770618113,0.011893261050939638,0.000105032002891391,0.32641714811325073,-1.1496109825423737,1.6651070753680628,-2.084548135797018,-1.5713337103473108,2.3013405799865723,-0.00018079353321809322,0.035536039620637894,0.03521763160824776,-0.08331810683012009,-9.68086751527153e-05,-0.00031031708931550384,0.05746084079146385,0.09576806426048279,-9.366117477416992,0.6971306204795837,47.687782287597656,-0.593441903591156,-3.550804615020752,-1.8642525672912598,-0.5502936840057373,-0.03390253707766533,-0.16472598910331726,24.3125,25.1875,24.1875,26.5,27.125,27.625
1.0,-0.8746396645711882,-1.236766989786402,-1.0835455012544395,-0.03576568216401214,0.0037514665624568816,-0.04036663306949491,-0.5387935250120728,-0.3243210822257259,0.05783431520418064,-3.07859439850506,0.6246356778683122,-0.00011450318297530357,-0.003352894266819426,-0.00100791442318265,-0.02947122762994966,-0.0037297131937633556,0.010942320973482841,8.616839706474203e-05,0.326393187046051,-1.1495389503291626,1.6651323477374476,-2.084715505639547,-1.5714057127581995,2.3012924194335938,-0.00018523438484407961,0.03569984808564186,0.03588808327913284,-0.08314826339483261,-9.510367090115324e-05,-0.00029574596555903554,0.07661445438861847,0.17238251864910126,-9.308655738830566,0.6814691424369812,47.68240737915039,-0.5679768919944763,-3.4954371452331543,-1.8491677045822144,-0.5123530626296997,-0.034221768379211426,-0.15574169158935547,24.3125,25.1875,24.1875,26.5,27.125,27.625
1.0,-0.6820097928007919,-0.7222437853559986,-1.0983931530558637,-0.04354746589995881,-0.005145860210013495,-0.04747984974322441,-0.5387845847787717,-0.3243180690011228,0.05775585917210044,-3.0785711354422127,0.6246883332878256,-0.00014828974588021698,-0.002702406946726379,-0.0007907877548497303,-0.03019168363648014,-0.00287719545790778,0.00843269963985315,0.00011733113911891881,0.326393187046051,-1.1494545501521607,1.6652277151690882,-2.0848704777159632,-1.5714057127581995,2.301328182220459,-0.00017922979895956814,0.03646651655435562,0.036072734743356705,-0.08144912123680115,-9.345768194179982e-05,-0.00032007883419282734,0.09576806426048279,0.17238251864910126,-9.327810287475586,0.7597975730895996,47.70748519897461,-0.6075092554092407,-3.5965685844421387,-1.8535819053649902,-0.5188535451889038,-0.02389172837138176,-0.15640607476234436,24.3125,25.1875,24.1875,26.5,27.125,27.625
1.0,-0.5286836867365328,-1.0943754770606322,-1.1870194654120991,-0.022314508952434062,-0.005902945030876764,-0.04914410825959405,-0.5387955050177665,-0.32432147905373215,0.057714545024062675,-3.078633329396638,0.6247395782692033,-0.00010735089062285287,-0.0019416655101608183,-0.0005355698471429689,-0.030453719236647227,-0.0019308624939063292,0.005653787960804182,0.00011304859560519202,0.3263692259788513,-1.1494186085513611,1.665311638508932,-2.085048814813131,-1.571357552205221,2.301328182220459,-0.00017347354150842875,0.03659817576408386,0.03578871116042137,-0.07836111634969711,-9.186768875224516e-05,-0.0003087986842729151,0.07661445438861847,0.1149216815829277,-9.308655738830566,0.6881819367408752,47.638519287109375,-0.6412784457206726,-3.5744409561157227,-1.847738265991211,-0.511070966720581,-0.04615861177444458,-0.1552189141511917,24.3125,25.1875,24.1875,26.5,27.125,27.625
1.0,-0.16472230003522548,-0.7256373397008138,-0.9567611557409226,-0.023247349716645632,-0.013582033037816547,-0.04791425726365724,-0.5387848897169891,-0.3243414883533425,0.057622547806363916,-3.078636270075841,0.6245869668123779,-0.00010788352619917084,-0.00039454212677818897,3.638345718413037e-06,-0.031913642191704894,-0.00029009986813477613,0.0008322148902566253,8.259251800640113e-05,0.32641714811325073,-1.1492985647967835,1.6653960386859339,-2.0852390728392542,-1.5713813940631312,2.3012804985046387,-0.00019279043772257864,0.037483591586351395,0.037248220294713974,-0.07561294734477997,-9.03308973647654e-05,-0.00029625161550939083,0.17238251864910126,0.09576806426048279,-9.27034854888916,0.6568484306335449,47.65553665161133,-0.6062495708465576,-3.479053497314453,-1.9133327007293701,-0.5474269986152649,-0.04707486927509308,-0.15360413491725922,24.3125,25.1875,24.1875,26.5,27.125,27.625
1.0,0.11003151065187879,-0.6009222109726424,-0.8802384923449966,-0.021856299934648923,-0.017461616231373968,-0.051981655770520684,-0.5388071982282713,-0.3243142356603552,0.057565754791152446,-3.078609353456061,0.6246965574232338,-8.369202391428883e-05,0.0007080466136649843,0.00038008226722493615,-0.03383393119406886,0.001220751804656803,-0.003583535818593154,7.463636757796318e-05,0.3263692259788513,-1.1492256087115784,1.6654556433307093,-2.0853826008238734,-1.5713933149920862,2.301304340362549,-0.0001901234354590997,0.03966791182756424,0.03822075203061104,-0.07410271465778351,-9.983696509152651e-05,-0.0002845509152393788,0.19153612852096558,0.15322890877723694,-9.059659004211426,0.7195101380348206,47.67703628540039,-0.5782297253608704,-3.6861822605133057,-1.926598310470581,-0.5597597360610962,-0.040319547057151794,-0.17234137654304504,24.3125,25.1875,24.1875,26.5,27.125,27.625
1.0,-0.5389032253454625,-0.9156410635218815,-0.9559484797449493,-0.012240211953285805,-0.031041569636020658,-0.04629069874038025,-0.5388260693791543,-0.32433597459737573,0.05753034655551656,-3.0786618021346093,0.6247264632384046,-4.261514028046809e-06,0.00014033267859317705,0.00020085522524352172,-0.03255249146822125,0.0007500348875646753,-0.002189405752739204,6.939059741751572e-05,0.3263811469078064,-1.149166153078415,1.6654909292804163,-2.0855499706664027,-1.571369473134176,2.301328182220459,-0.00021060157450847328,0.03866281732916832,0.03641180321574211,-0.07276011258363724,-0.00010172522161155939,-0.00029959745006635785,0.26815059781074524,0.05746084079146385,-9.097966194152832,0.6188021302223206,47.71733474731445,-0.5720787644386292,-3.584439277648926,-1.8389654159545898,-0.5888715386390686,-0.03872300684452057,-0.15970003604888916,24.3125,25.1875,24.1875,26.5,27.125,27.625
1.0,0.08147551372587798,-0.21451335564050053,-0.7277408635623898,-0.03298671534813243,-0.016104990624903035,-0.05386577499759589,-0.5388182935446171,-0.324333271776654,0.05746976150344815,-3.078655917397598,0.6247255153990288,-2.0752736719916067e-05,6.010686483321399e-06,0.0003384928268411928,-0.03213185603321445,0.0007124056584858592,-0.002079839488337766,-0.0002233457559342165,0.32638102769851685,-1.1491063994220276,1.66557485262026,-2.0856815777220667,-1.571369473134176,2.301328182220459,-0.0004934704047627747,0.03821662813425064,0.03588927537202835,-0.07190724462270737,-0.00010033392027253285,-0.0002895148645620793,0.3064578175544739,0.09576806426048279,-9.040505409240723,0.6814691424369812,47.661808013916016,-0.5920199751853943,-3.558504104614258,-1.7350714206695557,-0.5962398648262024,-0.04437539353966713,-0.1507740616798401,24.3125,25.1875,24.1875,26.5,27.125,27.625
1.0,-0.5424864593355542,-0.5934052701795429,-0.6670732462989479,-0.025189694829301536,-0.02518557646557635,-0.042459733308668084,-0.5388139523882757,-0.3243048048329304,0.057364091899407166,-3.078575481005431,0.624747578510658,-0.00010901748433733568,0.0016465859128822389,0.000941241428525037,-0.03404208678268696,0.0022002618003252017,-0.006454629741330656,-0.0003077799790321095,0.32635703682899475,-1.1489740175059815,1.6656597296344202,-2.0858127079405726,-1.5714057127581995,2.301328182220459,-0.0005617586430162191,0.03915742039680481,0.03872447833418846,-0.071062371134758,-9.87756866379641e-05,-0.00027257343754172325,0.3064578175544739,0.09576806426048279,-9.040505409240723,0.7441308498382568,47.68240737915039,-0.6038256287574768,-3.496124505996704,-1.8527506589889526,-0.6083526015281677,-0.03191488981246948,-0.15940529108047485,24.3125,25.1875,24.1875,26.5,27.125,27.625
1.0,-0.42605146340677047,-0.7713794815128767,-0.6563878175414777,-0.02422085092803566,-0.013789991204794192,-0.04306624442052534,-0.5387932572597371,-0.32433260840276307,0.05730805209318532,-3.0786230115017457,0.6246996903998858,-0.00012263048791804257,0.0019936654107091875,0.0010805618329016217,-0.03402780201590259,0.002704655658262347,-0.007936665825892433,-0.0003554015408174052,0.3263930380344391,-1.1489261549762269,1.6657550970660608,-2.0859672031798304,-1.571369473134176,2.301328182220459,-0.0005946257151663303,0.03915545344352722,0.03823225945234299,-0.0690026581287384,-9.72518464550376e-05,-0.0002570354554336518,0.3064578175544739,0.0,-9.059659004211426,0.6434228420257568,47.6895751953125,-0.6419568061828613,-3.571251153945923,-1.8102588653564453,-0.6238008737564087,-0.026513252407312393,-0.1600247025489807,24.3125,25.1875,24.1875,26.5,27.125,27.625
1.0,-0.13690000749529024,-0.12829364696120052,-0.6122820168006281,-0.035396258260310724,-0.01836187972903802,-0.048809588963676806,-0.5388063080908708,-0.3243408522813587,0.05726795884278946,-3.078642448986678,0.6247434729494259,-8.562346569188027e-05,0.002859290731182477,0.0013919713942068404,-0.03564935952768301,0.003974719235921013,-0.01167872870713226,-0.00039516681981352085,0.3263930380344391,-1.1488656264594574,1.6657913366900843,-2.0860983333983363,-1.571357552205221,2.3013529777526855,-0.0006214272580109537,0.04112950712442398,0.038854192942380905,-0.06764692068099976,-9.577356104273349e-05,-0.00024314453185070306,0.28730419278144836,0.17238251864910126,-9.002198219299316,0.7172743082046509,47.69673538208008,-0.6568750143051147,-3.549644947052002,-1.8816813230514526,-0.6936814785003662,-0.030542735010385513,-0.1731880158185959,24.3125,25.1875,24.1875,26.5,27.125,27.625
1.0,-0.3006616121143757,-0.5167272341287474,-0.6570729988654713,-0.02228063991834385,-0.027971701769384627,-0.04861149638736264,-0.538791703160427,-0.32432460257837237,0.057182849485738624,-3.078595944090198,0.6246369136950428,-0.00015448111727343295,0.00314589557903864,0.0014628186402911134,-0.03587160901562412,0.004150833230781061,-0.012199318601923253,-0.0003669176963306152,0.3263930380344391,-1.1487697225860138,1.665875260029928,-2.0862065754332484,-1.5713933149920862,2.3012924194335938,-0.0005807732231914997,0.04108353704214096,0.03941941633820534,-0.06761661171913147,-9.433932427782565e-05,-0.00023067687288857996,0.26815056800842285,0.038307227194309235,-9.059659004211426,0.7463666796684265,47.65374755859375,-0.6329391598701477,-3.615355968475342,-1.8421568870544434,-0.7202315330505371,-0.047062065452337265,-0.15303155779838562,24.3125,25.1875,24.1875,26.5,27.125,27.625
1.0,-0.20801408689058498,-0.36475453512071765,-0.7998520250614666,-0.025622501243420706,-0.026432747980834302,-0.04591190013607682,-0.5387926765821912,-0.32432462768915693,0.05711490571925121,-3.0786150421314717,0.6246794791834606,-0.00015623527648848948,0.0020347933602123487,0.0012437062290740974,-0.03445093083634674,0.0030902795948115694,-0.009086915933343629,-0.0006248753548774753,0.3263809084892273,-1.1486981076053162,1.6659701506244105,-2.0863858662047328,-1.571369473134176,2.301304340362549,-0.0008268709643743932,0.040034208446741104,0.037801455706357956,-0.06823745369911194,-9.294749906985089e-05,-0.00021942469174973667,0.2106897532939911,0.038307227194309235,-9.040505409240723,0.7486078143119812,47.67882537841797,-0.6243206262588501,-3.508361339569092,-1.766960620880127,-0.726963996887207,-0.04141158610582352,-0.1605401635169983,24.3125,25.1875,24.1875,26.5,27.125,27.625
1.0,-0.9927745607697464,-1.287408047872992,-0.8559270709314251,-0.008216993275827322,-0.041426853237558556,-0.030962939166313402,-0.5387577136852844,-0.32432809333328066,0.057036358839574586,-3.0785931707489427,0.6246749210204228,-0.00029101807986338813,0.002864024548849871,0.0015250728584330934,-0.03492052168306016,0.0037547084376550474,-0.01103716410449229,-0.0006329674791756141,0.3263929486274719,-1.14862613499675,1.6660669485675257,-2.0864693127074183,-1.571345631276266,2.301316261291504,-0.0008253257256001234,0.03982451930642128,0.038898766040802,-0.06706474721431732,-9.159615001408383e-05,-0.0002092201029881835,0.2298433631658554,0.09576806426048279,-8.925583839416504,0.7038487195968628,47.645687103271484,-0.6492334604263306,-3.4146745204925537,-1.7580208778381348,-0.7795939445495605,-0.036341920495033264,-0.16745516657829285,24.3125,25.1875,24.1875,26.5,27.125,27.625
1.0,-0.09478209702617152,-0.3493428882812828,-0.6157779837238211,-0.04124357334340938,-0.009911179148560562,-0.05825167665496844,-0.5387577340939889,-0.32428608437588624,0.056945024541857875,-3.078475925791467,0.6247672171610061,-0.0002899912917766093,0.003148860081867389,0.0015582948519081929,-0.03643483710488597,0.004179399788009816,-0.012301702325557669,-0.0005460979672962941,0.326369047164917,-1.1485296946815033,1.6661751906024378,-2.086625715295309,-1.5714295546161097,2.3013648986816406,-0.0007288613705895841,0.04172572121024132,0.040085919201374054,-0.06881918013095856,-9.028350177686661e-05,-0.00019992186571471393,0.1149216815829277,0.1149216815829277,-9.059659004211426,0.6725152134895325,47.661808013916016,-0.6742329001426697,-3.638718366622925,-1.8207645416259766,-0.8116049766540527,-0.034833382815122604,-0.1541086882352829,24.3125,25.1875,24.1875,26.5,27.125,27.625
1.0,-0.6050887904082046,-1.3264010949260345,-0.9003387337527654,-0.035658338820357724,-0.0024146110090152075,-0.042286353853796484,-0.538746591684705,-0.32431310054528095,0.05689040860242722,-3.078518651846846,0.6247376570384076,-0.0003437097888825814,0.002064314456363066,0.0011767890870811924,-0.03637603539792951,0.003147698296131397,-0.00928599058064742,-0.000538937293649023,0.3263930082321167,-1.1484573644450684,1.666222874318258,-2.0867344341673792,-1.5713813940631312,2.3013648986816406,-0.0007117915083654225,0.04244265705347061,0.039763979613780975,-0.07240147143602371,-8.900788088794798e-05,-0.00019141624215990305,0.13407529890537262,0.09576806426048279,-9.059659004211426,0.7642692923545837,47.6976318359375,-0.6257654428482056,-3.565019130706787,-1.81990385055542,-0.7981222867965698,-0.05190230533480644,-0.1510741114616394,24.3125,25.1875,24.1875,26.5,27.125,27.625
1.0,-1.3698822652380414,-1.8707334744331843,-0.9210112261058712,-0.04267151994786184,0.007620182219114528,-0.04277512407810689,-0.5387259976410167,-0.324317952464264,0.05674567800030536,-3.078514835993034,0.6246205773701186,-0.0003804672311269535,0.0011113222491669788,0.0007816539045625247,-0.0364490344770724,0.0019821244273086906,-0.005880539460272127,-0.0004492187592507795,0.3264169991016388,-1.148301438694336,1.6664021650897425,-2.0870357952513636,-1.5713933149920862,2.301316261291504,-0.0006052699754945934,0.042902592569589615,0.04034361615777016,-0.07704044133424759,-8.656195132061839e-05,-0.00017640559235587716,0.15322890877723694,0.24899697303771973,-9.193734169006348,0.7620334029197693,47.67524337768555,-0.6944383978843689,-3.5683727264404297,-1.762716293334961,-0.8377748131752014,-0.030716082081198692,-0.15004883706569672,24.3125,25.1875,24.1875,26.5,27.125,27.625
1.0,-0.9165580276920915,-1.7105295878286184,-1.1455197859665964,-0.05109197011874965,0.026936041413807545,-0.044389177154957764,-0.5387205088201064,-0.32430028735361327,0.056651132661494435,-3.078494545692254,0.6246742643536226,-0.0004802531486822305,0.00010648174366101528,0.0004573117525187213,-0.036425586637845675,0.0006960421568101035,-0.00208877728683782,-0.0004824797798598726,0.32638099789619446,-1.1481933456710358,1.6664989630328577,-2.0871812305846156,-1.571369473134176,2.301316261291504,-0.0006299294182099402,0.0430566780269146,0.04121669381856918,-0.08207151293754578,-9.444879833608866e-05,-0.00016975004109553993,0.09576806426048279,0.24899697303771973,-9.251194953918457,0.7888899445533752,47.681514739990234,-0.6557430028915405,-3.5069117546081543,-1.7882287502288818,-0.7924008369445801,-0.022996068000793457,-0.15199266374111176,24.3125,25.1875,24.1875,26.5,27.125,27.625
1.0,-0.990576281363861,-1.6878863966082753,-1.0296547967100445,-0.05757595212783868,0.032888384792299774,-0.0534006459625822,-0.5387127042311262,-0.3242745737933991,0.05655566903672543,-3.078417105329136,0.6247748657113953,-0.0005570016165495979,-0.0009654998604221828,6.392871660128145e-05,-0.03660495015161837,-0.0004979550465293677,0.0014103159141945335,-0.00044733575778578745,0.32635703682899475,-1.1480852526477356,1.6665952841388147,-2.0873152218260707,-1.5713933149920862,2.3013648986816406,-0.0005867477739229798,0.043795861303806305,0.04171106964349747,-0.08700226992368698,-9.607724496163428e-05,-0.0001635783410165459,0.09576806426048279,0.28730419278144836,-9.366117477416992,0.6635612845420837,47.700321197509766,-0.6890463829040527,-3.5733642578125,-1.7946202754974365,-0.7604033350944519,-0.03794345259666443,-0.14406335353851318,24.3125,25.1875,24.1875,26.5,27.125,27.625
1.0,-2.1478527452862006,-1.8926033071230737,-1.2439120589454564,-0.05607573817540883,0.00812104497262486,-0.039484512522101604,-0.5387244428432798,-0.3242977561271347,0.05649382505287029,-3.0784884976413327,0.6247312518117271,-0.0005043321345937807,-0.0017166202872031392,-0.00024479362913826605,-0.036705635934891005,-0.0014481683817241092,0.0041892565524432905,-0.0003470010927035462,0.32636910676956177,-1.14800118029628,1.6666672865497034,-2.0875312290587367,-1.571357552205221,2.3013405799865723,-0.0005065455916337669,0.044148899614810944,0.04233493283390999,-0.09091607481241226,-9.499824227532372e-05,-0.0001852207351475954,-0.019153613597154617,0.28730422258377075,-9.27034854888916,0.6993717551231384,47.66449737548828,-0.7292190790176392,-3.5353288650512695,-1.7768993377685547,-0.7205443382263184,-0.024764474481344223,-0.14514321088790894,24.3125,25.1875,24.1875,26.5,27.125,27.625
1.0,-1.2757913402461587,-1.3686337496449665,-1.0984723028676395,-0.06917042283968047,0.032162884432942865,-0.05707942018390666,-0.5387164885706743,-0.32428759174701577,0.05641539049670527,-3.0784404566288552,0.6247023293919305,-0.0004970643783760619,-0.002625904704719807,-0.0005324787442833981,-0.03713171177284826,-0.002506333029319688,0.00728019628737202,-0.0003870606912774673,0.32638102769851685,-1.14791692913089,1.6667636076556605,-2.087689062158102,-1.5714057127581995,2.3013405799865723,-0.0005422382964752614,0.04498264193534851,0.04328520968556404,-0.09596715122461319,-9.377334208693355e-05,-0.0001827153901103884,0.0,0.28730422258377075,-9.346963882446289,0.7262282371520996,47.6707649230957,-0.668695330619812,-3.647631883621216,-1.8481335639953613,-0.668881893157959,-0.037471070885658264,-0.12874320149421692,24.3125,25.1875,24.1875,26.5,27.125,27.625
1.0,-1.5153515473983252,-1.8959926642488119,-1.4794905272851462,-0.05904291013939769,0.032464129700285616,-0.04267827254662996,-0.5387180446627521,-0.3242996120433585,0.056352689707939385,-3.0784914025837917,0.624673882738746,-0.0004915058323652153,-0.003379390816840225,-0.0007849470333019092,-0.03687843418218985,-0.003380861534213443,0.0098398044304514,-0.0004014542421852741,0.32638102769851685,-1.1478451055339356,1.6668465773211878,-2.0878693066039027,-1.571369473134176,2.301316261291504,-0.00054973951773718,0.04498039558529854,0.04333982989192009,-0.09872440248727798,-9.256853809347376e-05,-0.00017697268049232662,0.0,0.24899697303771973,-9.308656692504883,0.7508436441421509,47.6734504699707,-0.7415185570716858,-3.553616523742676,-1.9288923740386963,-0.6390531659126282,-0.05143611878156662,-0.1500019133090973,24.3125,25.1875,24.1875,26.5,27.125,27.625
1.0,-1.1057712244679267,-1.3523127884848265,-1.2429913428067083,-0.059533269878710875,0.04048872479377696,-0.051352876268309575,-0.5387494839943333,-0.32431791816100175,0.05628158181314469,-3.078547778040033,0.6246855152742137,-0.0004120074693980985,-0.00425460668422343,-0.001097148937259768,-0.03717454926085025,-0.004528893869134135,0.013196869848445108,-0.0003888071960673308,0.32638102769851685,-1.147724763756134,1.6668947378741663,-2.0881105862059535,-1.571345631276266,2.301316261291504,-0.0005295220762491226,0.04548761993646622,0.04448305442929268,-0.1039227843284607,-9.139354369835928e-05,-0.0001713718520477414,-0.05746084079146385,0.2298433631658554,-9.442731857299805,0.7284641265869141,47.704795837402344,-0.6926760077476501,-3.6341118812561035,-1.8698415756225586,-0.5632145404815674,-0.041194237768650055,-0.14509159326553345,24.3125,25.1875,24.1875,26.5,27.125,27.625
1.0,-1.3476977576032496,-1.2360369901169046,-1.381125829128141,-0.05211190628846934,0.023223401150779678,-0.049585829775778155,-0.5387375624350799,-0.3243027027006349,0.056205381971395935,-3.078492597101219,0.6246939238774957,-0.0003663299865353358,-0.003944529905935465,-0.0009740214712004089,-0.037938480961938435,-0.003936925637875062,0.011449305413872965,-0.00042167716070258706,0.3263930678367615,-1.1476646822742005,1.6670272986041468,-2.088301797906393,-1.5714057127581995,2.3013405799865723,-0.0005575849208980799,0.04662615805864334,0.04447257146239281,-0.10320574790239334,-9.024792234413326e-05,-0.00016610122111160308,-0.1149216815829277,0.07661445438861847,-9.481039047241211,0.7575564384460449,47.687782287597656,-0.7822482585906982,-3.579633951187134,-1.8657137155532837,-0.5526004433631897,-0.04146066680550575,-0.14937931299209595,24.3125,25.1875,24.1875,26.5,27.125,27.625
1.0,-0.9416198422905678,-0.7815962392713522,-1.4225540900886235,-0.0433394343621767,0.01692772109496835,-0.04706680533657895,-0.5387419513990976,-0.3243119733546828,0.05610863621976625,-3.0784997083565044,0.6246565342605177,-0.00036861254001877345,-0.003383907364051296,-0.000718471003452609,-0.03835100845577437,-0.0032928977507569995,0.009556149028392021,-0.0005258599522863867,0.32640495896339417,-1.1475325387767334,1.6671112219439905,-2.0885163746275843,-1.5714057127581995,2.301328182220459,-0.0006574675790034235,0.04683753103017807,0.04478408396244049,-0.10172893106937408,-8.913081546779722e-05,-0.000161144052981399,-0.019153613597154617,0.09576806426048279,-9.423578262329102,0.8023208975791931,47.68598937988281,-0.732940137386322,-3.5910191535949707,-1.8559648990631104,-0.5502397418022156,-0.03613955155014992,-0.14712929725646973,24.3125,25.1875,24.1875,26.5,27.125,27.625
1.0,-1.0263369460808913,-1.1701948651255498,-1.5964073696824694,-0.017155320116876895,-0.005877566517393721,-0.04256521586619359,-0.538754305514649,-0.3243124090079005,0.05602971093811099,-3.078508269133598,0.6246973660881585,-0.00036368654102942054,-0.0027519161985141835,-0.0005182563418388125,-0.038836547371616424,-0.0023120334995278126,0.006673016365210321,-0.0005065401793572747,0.3263930380344391,-1.1474243861487885,1.667182747517721,-2.0887071094908656,-1.5713933149920862,2.3013405799865723,-0.0006347085582092404,0.04758354276418686,0.04419517517089844,-0.0988406166434288,-8.804092794889584e-05,-0.00015647447435185313,0.038307227194309235,0.019153613597154617,-9.500192642211914,0.7038487195968628,47.703006744384766,-0.7082267999649048,-3.6726319789886475,-1.8694791793823242,-0.5678620338439941,-0.03688593953847885,-0.1448138952255249,24.3125,25.1875,24.1875,26.5,27.125,27.625
1.0,-0.5731619854839245,-0.47449516469485026,-1.3189282549888295,-0.013920061067593829,-0.007751663837218302,-0.04676715382594173,-0.5387754305717319,-0.3243193472220399,0.05597460697438117,-3.0785514697033998,0.6247057644031563,-0.0003203303307050624,-0.0012939599584878758,-8.737846872440809e-06,-0.040058017169669356,-0.0006746425328990547,0.001864316847813635,-0.0005293010338091072,0.32638096809387207,-1.1473402839950104,1.6672309080706995,-2.0888854465880335,-1.571369473134176,2.301328182220459,-0.0006546742515638471,0.04838132485747337,0.04509364068508148,-0.0954570323228836,-8.69773211888969e-05,-0.0001520674559287727,0.05746084079146385,0.038307227194309235,-9.404424667358398,0.6590895652770996,47.69673538208008,-0.6935033798217773,-3.6612112522125244,-1.76371431350708,-0.6031339168548584,-0.04080013185739517,-0.15132589638233185,24.3125,25.1875,24.1875,26.5,27.125,27.625
1.0,-0.3141038486852694,-0.6181473598658588,-1.4062556481705313,-0.00033712910568194955,-0.014445660441494593,-0.05002410613346892,-0.5387750165653072,-0.3243351183953344,0.05587472694549245,-3.078547644798809,0.6246472895134867,-0.0002884678092643779,0.00036088934267404667,0.0005162041181832608,-0.04106409677831781,0.0007253250096529032,-0.0022415914791593518,-0.0004721486165186754,0.3264169991016388,-1.1472083789161225,1.6673277060138147,-2.089123865167135,-1.5713933149920862,2.301328182220459,-0.0005945850862190127,0.04819522425532341,0.04706697165966034,-0.09290625154972076,-8.593918028054759e-05,-0.00014790191198699176,0.05746084079146385,-0.13407528400421143,-9.232041358947754,0.7642692923545837,47.6734504699707,-0.7887181043624878,-3.6948060989379883,-1.9449005126953125,-0.615813136100769,-0.044261738657951355,-0.14587946236133575,24.3125,25.1875,24.1875,26.5,27.125,27.625
1.0,-0.37545288532811094,-0.07157300044008175,-1.2829345469709226,-0.0005248302898558151,-0.024175463705208233,-0.053665735019701885,-0.5387570401986315,-0.3243209963269335,0.05579564945553228,-3.078542445799576,0.62468475743479,-0.0003568470898878179,-0.0004609604092765439,0.00025447409183896073,-0.04016354539008284,0.0006307115949932458,-0.001970239726258626,-0.0005044341676326005,0.3263930380344391,-1.1471481782248993,1.6674583593951624,-2.089278360406393,-1.571369473134176,2.301328182220459,-0.000623691885266453,0.04877152666449547,0.04363996535539627,-0.09034290909767151,-8.492555934935808e-05,-0.00014395917241927236,0.13407529890537262,-0.19153614342212677,-9.251194953918457,0.6658024191856384,47.692256927490234,-0.7484986782073975,-3.6850762367248535,-1.779752492904663,-0.6638603210449219,-0.038718122988939285,-0.15163271129131317,24.3125,25.1875,24.1875,26.5,27.125,27.625
1.0,-0.4641561677045277,-0.28417489166063464,-1.2805646122901722,0.009366323209049385,-0.029539520347168332,-0.0414610820050925,-0.5387886483241469,-0.3243084350363758,0.055730890226664664,-3.0785696393604423,0.6246716575336985,-0.0002930474718183427,0.0004486579486182233,0.0005804560159413693,-0.04067551675598261,0.0015953726975850963,-0.004802290097523677,-0.0005320234964569665,0.32635703682899475,-1.1470523339561005,1.6675174872027796,-2.089480539361471,-1.571369473134176,2.3012804985046387,-0.0006485986523330212,0.048884809017181396,0.04410034418106079,-0.08792473375797272,-8.393551979679614e-05,-0.00014022043615113944,0.09576806426048279,-0.13407529890537262,-9.327810287475586,0.7127973437309265,47.67255783081055,-0.6939609050750732,-3.656972885131836,-1.6394503116607666,-0.705264687538147,-0.04588685929775238,-0.14435769617557526,24.3125,25.1875,24.1875,26.5,27.125,27.625
1.0,-0.06611000630222891,0.14502964428841839,-1.235252085077661,-0.010866376311475353,-0.0116237345671775,-0.05451088570869632,-0.5387687410605694,-0.3243016348967366,0.05562830689663659,-3.078524757429912,0.624739168630139,-0.0003759751464561722,0.0014182468176685903,0.001045918750427771,-0.04103517038608478,0.002466956262195842,-0.007357195475946751,-0.0007426437131526496,0.3263569474220276,-1.146944598560669,1.667638127003805,-2.0896479092040003,-1.571369473134176,2.301328182220459,-0.0008566051837988198,0.04842187836766243,0.045074354857206345,-0.08573633432388306,-8.296834857901558e-05,-0.00013667152961716056,0.17238251864910126,-0.17238251864910126,-9.308655738830566,0.7732232213020325,47.69136428833008,-0.7278967499732971,-3.6234374046325684,-1.772130012512207,-0.7628812789916992,-0.02160700224339962,-0.1436041295528412,24.3125,25.1875,24.1875,26.5,27.125,27.625
1.0,-0.13297923919723342,-0.37971377453449473,-1.1636356861167803,-0.007847383916058628,-0.008510995670917915,-0.05497170584026254,-0.5387612945418833,-0.3243072686067541,0.05554624600486985,-3.0784758734874367,0.6247112689964052,-0.00037051573575301437,0.0019285296651428568,0.0012879194873043622,-0.040604238274098245,0.002714438388271212,-0.008075202241660357,-0.0008499186714110038,0.32639291882514954,-1.1468371015838166,1.6677096525775355,-2.0898028812804164,-1.5714176336871546,2.3013529777526855,-0.0009609992848709226,0.04712865501642227,0.04554621875286102,-0.08415552973747253,-8.20231216493994e-05,-0.00013329762441571802,0.2298433631658554,-0.1149216815829277,-9.27034854888916,0.7329410910606384,47.702110290527344,-0.7133857607841492,-3.5462417602539062,-1.7138372659683228,-0.8047020435333252,-0.05000481754541397,-0.15805163979530334,24.3125,25.1875,24.1875,26.5,27.125,27.625
1.0,-0.3498058521298406,-0.5006605338835128,-1.2526311276475601,-0.012663537218383588,-0.005045686224772846,-0.05040091699207418,-0.5387855400101933,-0.3243034736269543,0.055475654592016393,-3.078541043431817,0.624742667810611,-0.000369937709385636,0.0008017192631839074,0.0013112417927154825,-0.04085185650861068,0.002084178246855171,-0.006295642479528939,-0.00149466054191763,0.3263566792011261,-1.1466447573951264,1.6679132620440882,-2.0901271305479945,-1.571345631276266,2.301316261291504,-0.0015985191566869617,0.048512835055589676,0.04474287107586861,-0.08662411570549011,-6.360101542668417e-05,-0.00012702602543868124,0.17238251864910126,0.0,-9.327810287475586,0.7172743082046509,47.687782287597656,-0.6944888830184937,-3.661902904510498,-1.6293761730194092,-0.8459714651107788,-0.04818644002079964,-0.15532070398330688,24.3125,25.1875,24.1875,26.5,27.125,27.625
1.0,-1.1100313810631162,-1.2909341734167514,-1.3730723680536019,-0.02297325880731419,0.0029046947297951386,-0.04444796761183601,-0.5387475630402234,-0.3242984512578702,0.055297767170563866,-3.0784733937883995,0.6247101047640622,-0.0004927224650899341,-0.000894498669504207,0.0008122183494915524,-0.03872268241734689,-0.0005732424362317795,0.0014971556105276725,-0.0016240872170538631,0.3263687193393707,-1.1465497773936768,1.6679852644549769,-2.090297361413473,-1.5713813940631312,2.301328182220459,-0.0017221359303221107,0.04551896080374718,0.0454278402030468,-0.0925486758351326,-5.749993943027221e-05,-0.00012410634371917695,0.15322890877723694,0.019153613597154617,-9.423578262329102,0.7665104269981384,47.70390319824219,-0.7096606492996216,-3.4130496978759766,-1.5762182474136353,-0.8564971685409546,-0.05780673027038574,-0.14281633496284485,24.3125,25.1875,24.1875,26.5,27.125,27.625
1.0,-1.2566827777608776,-1.0808306610507197,-1.4151184820207332,-0.046074989400582134,0.01241201839686266,-0.04980797763379586,-0.5387430506134628,-0.3242852658983815,0.055201098014900696,-3.0784538854090786,0.6247642772012924,-0.0005530888671677313,-0.001059385017133947,0.000674757555316485,-0.039940614888006445,-0.000652260499974406,0.0017118671075119442,-0.0015042472987817465,0.32634490728378296,-1.1464413565448304,1.6680944601642054,-2.090477605859274,-1.571369473134176,2.3013405799865723,-0.0015986484941095114,0.047302067279815674,0.04638269543647766,-0.09551535546779633,-5.643342592520639e-05,-0.00012131817493354902,0.13407528400421143,0.07661445438861847,-9.385271072387695,0.7687462568283081,47.67255783081055,-0.7059429287910461,-3.3479321002960205,-1.6160590648651123,-0.844565749168396,-0.03696199133992195,-0.15286195278167725,24.3125,25.1875,24.1875,26.5,27.125,27.625
1.0,-1.1580579019313597,-1.5480528756634813,-1.5071112091131174,-0.05479767544931158,0.032387148592314556,-0.04971022009046194,-0.5387489524875734,-0.3242874575308497,0.05513206726705827,-3.0784510504748313,0.6247447721281834,-0.0004974597459425465,-0.003025189951117833,-9.959478364512798e-05,-0.03932119001096329,-0.0030976997234908607,0.008878479572207935,-0.001350360352106853,0.3263567388057709,-1.1463574332049866,1.6681783835040491,-2.090672632256979,-1.5713933149920862,2.3013405799865723,-0.0014387797564268112,0.04719656705856323,0.046942103654146194,-0.10354162007570267,-5.571226211031899e-05,-0.00011865238047903404,0.09576806426048279,0.15322890877723694,-9.385271072387695,0.8247004151344299,47.686885833740234,-0.7271227836608887,-3.3539235591888428,-1.639601469039917,-0.8093324303627014,-0.05919831246137619,-0.14911727607250214,24.3125,25.1875,24.1875,26.5,27.125,27.625
1.0,-1.854821240715538,-2.0805503567466657,-1.4735296374214424,-0.0685183586651076,0.03118989014263766,-0.051424127940382175,-0.5387494411859282,-0.3242800198228973,0.05503610260242103,-3.078442627586048,0.6246849261000254,-0.0004768343993061766,-0.0040977060039877125,-0.0005259750491584618,-0.03990498388453646,-0.004029488099719567,0.011620695060557252,-0.0012584420732359386,0.32635679841041565,-1.1462488931468506,1.6682966391192835,-2.0909005604186,-1.5714176336871546,2.301304340362549,-0.0013426514342427254,0.048854850232601166,0.047002650797367096,-0.10815663635730743,-6.320571264950559e-05,-0.00011610115325311199,0.05746084079146385,0.24899697303771973,-9.461885452270508,0.7172743082046509,47.687782287597656,-0.731419563293457,-3.4503583908081055,-1.6314131021499634,-0.7275018692016602,-0.04594568908214569,-0.14449474215507507,24.3125,25.1875,24.1875,26.5,27.125,27.625
1.0,-1.7010841891591841,-2.4594876969362374,-1.7074573551197971,-0.07634798623629308,0.03954597691771039,-0.03578684912619447,-0.5387665336686313,-0.3242973343774899,0.054982258347639895,-3.0785142735837203,0.6247379235540141,-0.00037316632712476046,-0.005441821624218048,-0.001022471701916571,-0.039116850371920225,-0.005879864593322556,0.017056281927673375,-0.0012031534743091737,0.32635679841041565,-1.1461893183043976,1.6683934370623987,-2.091154714623922,-1.5713813940631312,2.301328182220459,-0.0012825358426198363,0.048042669892311096,0.047602392733097076,-0.11368609964847565,-6.505271448986605e-05,-0.00011365749378455803,0.038307227194309235,0.24899697303771973,-9.481039047241211,0.6590895652770996,47.68867492675781,-0.7123434543609619,-3.380744695663452,-1.6298003196716309,-0.6852505803108215,-0.04717816412448883,-0.1500149667263031,24.3125,25.1875,24.1875,26.5,27.125,27.625
1.0,-1.339790721041397,-2.6186303983137567,-1.7508449131041726,-0.07320373202379929,0.043973269447970684,-0.04994131486150879,-0.538777911293517,-0.3242702151794571,0.05489269896432686,-3.07850056928423,0.6248118529626416,-0.0003705466820649266,-0.006763715058028943,-0.0014384253417726693,-0.038212131778825216,-0.007684797586291529,0.022355991429414898,-0.0012606101785920313,0.3263089954853058,-1.1460936528495331,1.6685126463519495,-2.0913716755309046,-1.5713813940631312,2.301328182220459,-0.0013353978283703327,0.04704134538769722,0.04810395464301109,-0.11878497153520584,-6.444666360039264e-05,-0.00011131442443002015,0.05746084079146385,0.3064578175544739,-9.557653427124023,0.7374180555343628,47.671661376953125,-0.6992217302322388,-3.1730144023895264,-1.6294832229614258,-0.6132481694221497,-0.04754534736275673,-0.14341971278190613,24.3125,25.1875,24.1875,26.5,27.125,27.625
1.0,-1.533014012933636,-2.4213314646568183,-1.8897860939889564,-0.0735386495516075,0.03495767768688217,-0.04268562166182986,-0.5387844571451922,-0.32429151555973296,0.0548217042808945,-3.0785554362058476,0.6247850223142392,-0.0003524799234269735,-0.007082018803922186,-0.001284452011265986,-0.039419016206325035,-0.007422774860627861,0.021596589521803,-0.0016645544547574742,0.3263208866119385,-1.145996944313385,1.6685851255999964,-2.0915752849974574,-1.571345631276266,2.301316261291504,-0.0017368666594848037,0.0492841973900795,0.0480271652340889,-0.12014768272638321,-7.293045200640336e-05,-0.00010906618990702555,-0.038307227194309235,0.325611412525177,-9.557653427124023,0.7665104269981384,47.70748519897461,-0.7636340856552124,-3.3192882537841797,-1.6370370388031006,-0.5880056619644165,-0.044720783829689026,-0.14691466093063354,24.3125,25.1875,24.1875,26.5,27.125,27.625
1.0,-1.3736890027258406,-2.295720945613846,-1.6354026425364674,-0.06784406914854015,0.022543291177841963,-0.04166210663238129,-0.5387974810432621,-0.3242886260633916,0.054737316414584236,-3.0785333699508524,0.6247806350987084,-0.0002653851580247785,-0.006962505518828888,-0.0011656474048655021,-0.03997028972330345,-0.007233931236134452,0.021038652872715988,-0.001787309893067932,0.3263327479362488,-1.1458889108947297,1.668680493031637,-2.0918151340880335,-1.5713933149920862,2.301328182220459,-0.001857368042692542,0.049902014434337616,0.048546936362981796,-0.12069624662399292,-7.335799455177039e-05,-0.00010690685303416103,0.038307227194309235,0.38307225704193115,-9.557653427124023,0.7463666796684265,47.6680793762207,-0.6991263031959534,-3.2978806495666504,-1.5723705291748047,-0.5488849878311157,-0.05833393335342407,-0.15616543591022491,24.3125,25.1875,24.1875,26.5,27.125,27.625
1.0,-1.0520296501707622,-1.758016581336371,-1.6857846789747435,-0.054525085643536045,0.007805320448631942,-0.040941518576483656,-0.5388334405355174,-0.32428908761992287,0.0546859598219292,-3.0785839936524053,0.6248494567800862,-0.0001330006096787692,-0.005115880380218756,-0.00040612945281422587,-0.041038971687906954,-0.005034665627731414,0.014602074371476665,-0.0019847404508176155,0.3263087272644043,-1.1458167296699067,1.6687529722796839,-2.092064519921774,-1.5713813940631312,2.3013405799865723,-0.002055306453257799,0.05041322484612465,0.048929449170827866,-0.11478802561759949,-7.770965748932213e-05,-0.00010483136429684237,0.038307227194309235,0.363918662071228,-9.500192642211914,0.7195101380348206,47.6895751953125,-0.6251692771911621,-3.270402431488037,-1.535752773284912,-0.584291398525238,-0.04449255391955376,-0.1499728560447693,24.3125,25.1875,24.1875,26.5,27.125,27.625
1.0,-0.8301376308279378,-1.4027691862004783,-1.5869488449855151,-0.03298238331155597,-0.010666809703419282,-0.04459672412366394,-0.5388284136438678,-0.32427975165361944,0.054581535680807314,-3.0785592533152797,0.624864310061813,-0.00011539596929157585,-0.00445555859204678,-0.00021833557067220798,-0.04139857977600701,-0.004412235696874601,0.01278927044753164,-0.0019118779789246405,0.3263087570667267,-1.1457088154605408,1.668896500264303,-2.0923148594298304,-1.5714057127581995,2.3013529777526855,-0.001995978644117713,0.05042242631316185,0.049420155584812164,-0.11337125301361084,-8.168471686076373e-05,-0.00011772834113799036,0.05746084079146385,0.3064578175544739,-9.481039047241211,0.6635612845420837,47.702110290527344,-0.6893062591552734,-3.3345441818237305,-1.6320399045944214,-0.6080586314201355,-0.05490025505423546,-0.14417433738708496,24.3125,25.1875,24.1875,26.5,27.125,27.625
1.0,-0.02024349973572881,-0.8180672147272107,-1.4622389250764218,-0.022482839730848407,-0.011253028288987731,-0.04674994570127688,-0.5388423687183862,-0.3242920487999304,0.05448725404262866,-3.0786074303467656,0.6248934286168362,-0.0001238964420292766,-0.00376178370135175,-1.696926278995956e-05,-0.04199673532016394,-0.0033055127771853946,0.009536276302453616,-0.0018571568282271618,0.3262968361377716,-1.145576463346817,1.6689799467669886,-2.092552801171774,-1.571357552205221,2.3013529777526855,-0.001942492090165615,0.05138756334781647,0.04871564731001854,-0.11019577085971832,-8.10819401522167e-05,-0.00011758548498619348,0.1149216815829277,0.13407528400421143,-9.385271072387695,0.7083203792572021,47.6707649230957,-0.7069587707519531,-3.3416860103607178,-1.5197598934173584,-0.6537676453590393,-0.048703476786613464,-0.14170435070991516,24.3125,25.1875,24.1875,26.5,27.125,27.625
