Tylouw/Master_Thesis_Code/training_data/batch_1/small_rod_t0.2/sample_63_session_2.csv
timestamp[s],tcp_force_x[N],tcp_force_y[N],tcp_force_z[N],tcp_force_rx[Nm?],tcp_force_ry[Nm?],tcp_force_rz[Nm?],tcp_pose_x[m],tcp_pose_y[m],tcp_pose_z[m],tcp_pose_rx[rot_vec_x],tcp_pose_ry[rot_vec_y],tcp_pose_rz[rot_vec_z],tcp_velo_x[m/s],tcp_velo_y[m/s],tcp_velo_z[m/s],tcp_velo_rx[rot_vec_x/s],tcp_velo_ry[rot_vec_y/s],tcp_velo_rz[rot_vec_z/s],q1[rad],q2[rad],q3[rad],q4[rad],q5[rad],q6[rad],qd1[rad/s],qd2[rad/s],qd3[rad/s],qd4[rad/s],qd5[rad/s],qd6[rad/s],tool_acc_x,tool_acc_y,tool_acc_z,current_of_whole_robot[A],voltage_of_whole_robot[V],current_J1[A],current_J2[A],current_J3[A],current_J4[A],current_J5[A],current_J6[A],temp_J1[C],temp_J2[C],temp_J3[C],temp_J4[C],temp_J5[C],temp_J6[C]
1.020002e-06,-1.0126125,-1.1158665,0.10230521,-0.01777196,0.007355944,-0.01116162,-0.38105908,-0.34851474,0.059957642,-3.0784783,0.6248693,-0.00017047486,0.0018267629,0.0008973152,-0.0020188855,0.001997019,-0.0041615823,7.9716774e-05,0.4777981,-1.4259217,1.9577278,-2.1008327,-1.5707935,2.452752,-3.6486012e-09,0.0008307838,0.0036324675,0.00015000645,0.00014836507,-8.1717204e-05,0.11492168,0.17238252,-8.734048,0.78217715,47.719128,-0.026929002,-2.7659812,-2.4629579,-0.4419699,0.13360997,0.1211066,28.0,29.125,28.25,32.1875,34.3125,35.25
0.002054477,-0.55670244,-0.61797976,0.14667551,-0.021644855,0.01577977,-0.012832742,-0.38105047,-0.34852576,0.059953533,-3.0785062,0.6248366,-0.00018960043,-0.00056715467,-0.00034906645,-0.0029919168,-0.0011994072,0.0019689265,8.0419675e-05,0.47781014,-1.4259206,1.9577397,-2.1008494,-1.5707697,2.4527402,-4.8950642e-11,0.003969921,0.00484141,-0.011111833,0.0001444959,-8.0259684e-05,0.05746084,0.05746084,-8.6574335,0.7083204,47.719128,-0.02162125,-2.6886928,-2.4928288,-0.39485162,0.13445592,0.13923131,28.0,29.125,28.25,32.1875,34.3125,35.25
0.004053735,-0.9987949,-0.6611046,0.38284728,-0.02004471,0.0036982947,-0.015166634,-0.38106596,-0.34850726,0.059950992,-3.078483,0.6248511,-0.0001387897,-0.0016038462,-0.00088796107,-0.0028063285,-0.0024097734,0.004297863,8.0050224e-05,0.47778618,-1.4259204,1.9577507,-2.1008732,-1.5708054,2.4527283,-6.567353e-13,0.004761669,0.0041308813,-0.013817721,0.00014073629,-7.8853256e-05,0.095768064,0.1340753,-8.599973,0.76874626,47.711964,0.0053893356,-3.237247,-2.7308688,-0.29945052,0.12432584,0.101052895,28.0,29.125,28.25,32.1875,34.3125,35.25
0.006054351,-0.2014988,-0.19268343,0.20025149,-0.006751939,0.0018053816,-0.017734835,-0.38104156,-0.34851435,0.059930723,-3.078491,0.62483376,-0.0002198575,-0.0008154477,-0.0004753524,-0.0015019585,-0.0014913138,0.0025545831,7.7864424e-05,0.4777981,-1.4259092,1.9577864,-2.1008828,-1.5707697,2.4527283,-8.810943e-15,0.0022797948,0.0026220025,-0.007856562,0.00013716186,-7.749535e-05,0.038307227,0.1340753,-8.619126,0.74413085,47.690468,0.03902701,-3.0964808,-2.5836906,-0.31146014,0.12299494,0.12704237,28.0,29.125,28.25,32.1875,34.3125,35.25
0.008053453,-0.20359093,0.032902874,-0.4486481,0.03419336,-0.031130506,-0.006739475,-0.3810638,-0.34851286,0.059947293,-3.0784793,0.6248694,-0.0001393304,-0.0008164195,-0.00047366836,0.00048346963,-0.0019980061,0.00355155,7.616849e-05,0.4777981,-1.4259104,1.9577497,-2.1008818,-1.5708054,2.452752,-1.1821004e-16,-0.0009289988,0.0008666243,-0.00401068,0.00013376416,-7.6183365e-05,0.05746084,0.22984336,-8.791509,0.74413085,47.675243,-0.0053512347,-2.8577988,-2.5554483,-0.36653438,0.13716356,0.1344017,28.0,29.125,28.25,32.1875,34.375,35.25
0.01005437,-0.035063177,0.39081243,-0.826264,0.028700013,-0.022961529,-0.009217495,-0.38104847,-0.348509,0.059914872,-3.0784678,0.6249247,-0.00026014747,-0.00064427796,-0.00038295996,0.00049292145,-0.0014841224,0.002571039,6.382173e-05,0.47777414,-1.4258744,1.9577855,-2.1008937,-1.5707573,2.452764,-1.5859385e-18,-0.00072297396,0.0002690793,-0.002512137,0.00013053045,-6.3804946e-05,0.095768064,0.17238252,-9.11712,0.8247004,47.68062,-0.26899782,-2.2695487,-3.0388088,-0.3920107,0.13486515,0.06299543,28.0,29.125,28.25,32.1875,34.375,35.25
0.012053546,-0.066027634,-0.4580485,-1.0503463,-0.005450772,-7.469902e-05,-0.019612035,-0.38104996,-0.348503,0.05991963,-3.0784514,0.6249217,-0.00029232018,0.000496528,0.00025203152,-0.0037700683,0.0031070684,-0.0062815403,-3.5759476e-05,0.47776207,-1.4258718,1.9577607,-2.100845,-1.5707573,2.452752,-7.616105e-05,0.007694881,3.6100425e-06,-0.00069218245,0.00012744959,-3.9274724e-05,0.15322891,0.1340753,-9.251195,0.679228,47.675243,-0.5328936,-2.2062144,-3.2389688,-0.41665992,0.1397718,0.034124725,28.0,29.125,28.25,32.1875,34.375,35.25
0.014053662,-0.9564608,-1.6381652,-1.1542038,-0.037277337,0.018074825,-0.01534056,-0.38103825,-0.3485022,0.059896763,-3.0784023,0.62493336,-0.00038167508,-0.0051224288,0.001593641,-0.004334736,0.0032437183,-0.0065781483,-0.005350407,0.47777143,-1.4258207,1.9577464,-2.1008089,-1.5707573,2.452775,-0.007668259,0.015955955,-0.008177075,-0.00044671365,0.00012451089,-0.0023113296,0.076614454,0.21068975,-9.519346,0.80456203,47.692257,-0.29421976,-3.1278548,-3.146943,-0.41662636,0.13406847,0.029429212,28.0,29.125,28.25,32.1875,34.375,35.25
0.01605397,-2.069166,-2.6804905,-1.4666623,-0.051413402,0.03563829,0.0005309165,-0.38105085,-0.34850556,0.05989362,-3.0784187,0.62486064,-0.0004071609,-0.006730807,0.0024959561,-0.0026390953,0.0016623929,-0.0035641768,-0.0060873004,0.47775832,-1.4257858,1.9577111,-2.100797,-1.5707458,2.4527144,-0.0107697025,0.0130965095,-0.008815125,-0.00035316328,0.00014063349,-0.0046760645,-0.19153613,0.24899697,-9.615114,0.7732232,47.685097,-0.19673705,-2.683879,-3.191111,-0.42995757,0.15019093,0.03879126,28.0,29.125,28.25,32.1875,34.375,35.25
0.018053515,-2.4711778,-2.5723732,-1.460483,-0.06909601,0.058700483,-0.01067246,-0.38102737,-0.34848928,0.05985375,-3.0783734,0.62485,-0.00046926888,-0.006224139,0.0021761314,-0.003161059,0.0022235138,-0.004683578,-0.0027246801,0.47775853,-1.4257615,1.9577826,-2.1008327,-1.5707573,2.4527137,-0.009743385,0.014136913,-0.008867922,-8.919024e-05,0.00015605304,-0.007012268,-0.38307226,0.2681506,-9.730036,0.7351769,47.67614,-0.34675512,-2.543181,-3.4480226,-0.4258334,0.14806941,0.029997014,28.0,29.125,28.25,32.1875,34.375,35.25
0.020053228,-1.9780043,-1.995791,-1.3962139,-0.065789044,0.08469811,-0.02459194,-0.3810327,-0.34850088,0.059853323,-3.0783849,0.62481195,-0.00052165583,-0.0069476403,0.0017290321,-0.0028957555,0.0018817836,-0.004070418,-0.00042268704,0.47775868,-1.4257251,1.957734,-2.100797,-1.5707334,2.4526887,-0.0096299,0.015276453,-0.010792646,-5.823485e-06,0.00017231135,-0.009199676,-0.4405331,0.34476504,-9.691729,0.7911258,47.66987,-0.5686207,-2.4640503,-3.5407646,-0.4503814,0.15870398,0.018873148,28.0,29.125,28.25,32.1875,34.375,35.25
0.022054132,-2.5561247,-1.733885,-1.5886048,-0.046105683,0.07259683,-0.029381072,-0.38104898,-0.3485069,0.059858955,-3.0784018,0.62485486,-0.00050526205,-0.008419502,0.0014323567,-0.0030172751,-8.857033e-05,-0.0050047226,-0.0009241552,0.47774595,-1.4257122,1.9577092,-2.1008089,-1.5707206,2.4527006,-0.0118790595,0.017888492,-0.013494364,-3.8023194e-07,0.002345112,-0.01094989,-0.5363012,0.34476504,-9.902418,0.7105615,47.72092,-0.5808911,-2.449024,-3.4552007,-0.43317562,0.15488388,0.026425727,28.0,29.125,28.25,32.1875,34.375,35.25
0.024053898,-2.4099102,-1.054019,-1.5951252,-0.04606574,0.06431199,-0.04721637,-0.38106245,-0.34849098,0.05982255,-3.0783596,0.62488526,-0.00060494064,-0.009474011,0.0014083347,-0.0028768852,-0.0020248694,-0.0054967483,-0.0026796553,0.4776971,-1.425628,1.9576963,-2.1008089,-1.5707082,2.452676,-0.014074564,0.018873846,-0.014940177,-2.4826429e-08,0.004286506,-0.011393163,-0.59376204,0.30645782,-9.998186,0.800085,47.704796,-0.56777567,-2.4563327,-3.508615,-0.4584113,0.13413829,0.016475735,28.0,29.125,28.25,32.1875,34.375,35.25
0.026053343,-1.7782418,-1.2391545,-1.5344446,-0.04420319,0.07651127,-0.058977928,-0.38107482,-0.34848166,0.059821658,-3.0783374,0.6249008,-0.00058177597,-0.0107768085,0.0016222405,-0.0024284024,-0.0024020523,-0.004434035,-0.00379325,0.47768456,-1.4256157,1.9576844,-2.1008089,-1.570732,2.452676,-0.0155587075,0.01952707,-0.016710276,-1.6209885e-09,0.0041288356,-0.011762393,-0.68953013,0.2681506,-9.921572,0.7933669,47.67345,-0.60769063,-2.4270911,-3.4239817,-0.45174435,0.14534923,0.0019190619,28.0,29.125,28.25,32.1875,34.375,35.25
0.02805432,-2.5095832,-1.5383248,-1.5758394,-0.042242974,0.0717417,-0.058074106,-0.38113916,-0.34850338,0.05985176,-3.0784001,0.6249524,-0.00050150946,-0.012136451,0.0017350102,-0.002117969,-0.0020732228,-0.0032491244,-0.004635603,0.47764835,-1.4255674,1.9575633,-2.1008208,-1.5707086,2.4526641,-0.01646987,0.020864373,-0.018945238,-1.0583896e-10,0.0032881587,-0.011827857,-0.7469909,0.22984336,-9.902418,0.77545905,47.70211,-0.5723257,-2.471723,-3.4817533,-0.45577145,0.13249819,-0.044498213,28.0,29.125,28.25,32.1875,34.375,35.25
0.03005414,-2.0444086,-0.90976495,-1.347945,-0.04785534,0.09485911,-0.085124604,-0.38114765,-0.34849414,0.059835944,-3.0783818,0.62489134,-0.0005600066,-0.0131782945,0.0018604768,-0.0019530985,-0.0020222939,-0.002623913,-0.0041782004,0.47762403,-1.4255191,1.957539,-2.100797,-1.5707086,2.452604,-0.017438248,0.021957051,-0.020568598,-6.910528e-12,0.002950653,-0.013252124,-0.7469909,0.13407528,-9.864111,0.7665104,47.689575,-0.63992155,-2.3765461,-3.4823978,-0.4561364,0.1497187,-0.029004186,28.0,29.125,28.25,32.1875,34.375,35.25
0.03205382,-2.4773588,-0.8887195,-1.3350716,-0.029066147,0.07623555,-0.09050497,-0.3811568,-0.34849235,0.05981889,-3.0783644,0.62490624,-0.00058875274,-0.013925584,0.0011245233,-0.0010875289,-0.0033589606,-0.0010861404,-0.0027464952,0.47761202,-1.4254713,1.9575261,-2.1008089,-1.5707082,2.4526036,-0.017130217,0.021973144,-0.022566603,-4.5120814e-13,0.0034256312,-0.014375826,-0.6512229,0.019153614,-9.825804,0.7038487,47.690468,-0.652233,-2.3601537,-3.4608696,-0.46891582,0.16423835,-0.038282167,28.0,29.125,28.25,32.1875,34.375,35.25
0.034053616,-1.5621519,-0.3727963,-1.1830461,-0.0069408175,0.08171221,-0.10469905,-0.38119927,-0.34849653,0.059827223,-3.078381,0.6248907,-0.000534775,-0.015243487,0.00066892983,-0.0005908121,-0.0052464325,-0.0005954855,-0.0040096394,0.47758755,-1.4254229,1.9574546,-2.1008208,-1.5707196,2.4525673,-0.018478785,0.02319946,-0.025101582,-2.946067e-14,0.004871412,-0.014462556,-0.5746084,-0.038307227,-9.749189,0.7642693,47.67614,-0.69055355,-2.3655272,-3.365945,-0.46257597,0.13704593,-0.030924052,28.0,29.125,28.25,32.1875,34.375,35.25
0.03605395,-1.7211105,-0.24381664,-1.2743933,0.017429028,0.052440315,-0.11255642,-0.38124812,-0.34851444,0.059832536,-3.078447,0.62500185,-0.0005477083,-0.015987499,0.0005525062,-0.0008264679,-0.0063399374,-0.0015111738,-0.0065245046,0.47752708,-1.4253625,1.9573816,-2.1008565,-1.5706471,2.4525678,-0.019861713,0.024842124,-0.026437212,-1.9235714e-15,0.00626192,-0.013332171,-0.47884035,0.019153614,-9.672575,0.7284641,47.705692,-0.628518,-2.4387875,-3.4414432,-0.45395148,0.1351378,-0.03874217,28.0,29.125,28.25,32.1875,34.375,35.25
0.038053624,-1.4275675,0.09087814,-1.2443784,0.018328544,0.038700465,-0.119952485,-0.38127246,-0.34848908,0.05982502,-3.0783737,0.625026,-0.0005578837,-0.017082589,0.0002588151,-0.00038751875,-0.0077666366,-0.0009854661,-0.008017431,0.47749072,-1.4253142,1.957333,-2.1008089,-1.5706953,2.452556,-0.02101572,0.02570938,-0.028431118,-1.2559546e-16,0.007282781,-0.012994452,-0.3256114,-0.11492168,-9.595961,0.7418897,47.68599,-0.6592574,-2.3851385,-3.41917,-0.44463205,0.106732205,-0.07277204,28.0,29.125,28.25,32.1875,34.375,35.25
0.040054154,-1.4597864,-0.2650154,-1.2741284,0.018117491,0.027791716,-0.12056433,-0.38133574,-0.34846783,0.059831776,-3.0783887,0.6251062,-0.0004987409,-0.018782713,4.5038785e-05,0.0002988993,-0.008137625,0.0008070916,-0.008743995,0.47739437,-1.4252778,1.9572843,-2.100845,-1.5706953,2.4525077,-0.021880358,0.027067438,-0.031549264,-8.200486e-18,0.0067827804,-0.013129409,-0.2681506,-0.05746084,-9.576807,0.79560274,47.690468,-0.61937106,-2.3422806,-3.3636885,-0.45178574,0.1083646,-0.07490188,28.0,29.125,28.25,32.1875,34.375,35.25
0.042053573,-1.5200007,-0.81239414,-1.3847895,0.019516857,0.022842912,-0.12581559,-0.38136047,-0.34848467,0.059821736,-3.0784059,0.6250328,-0.0005233959,-0.02008641,0.00037112774,0.00051732047,-0.008035865,0.0022440117,-0.009270011,0.47739393,-1.4251937,1.9572114,-2.1008456,-1.5706838,2.4524593,-0.023173984,0.027895665,-0.03281562,-0.00078854425,0.0060271136,-0.013894686,-0.24899697,0.0,-9.519346,0.7978386,47.71465,-0.6404629,-2.273849,-3.2406683,-0.45928577,0.10520609,-0.09193322,28.0,29.125,28.25,32.1875,34.375,35.25
0.04405447,-1.4449092,-1.2715225,-1.313371,-0.002254974,0.026467098,-0.14023171,-0.3814088,-0.3484756,0.05982197,-3.0784032,0.6251866,-0.0005601057,-0.021359826,0.0006024432,0.00065189577,-0.008087774,0.003694668,-0.0101054795,0.47730953,-1.4251335,1.9571394,-2.1008332,-1.5706476,2.4524713,-0.024352895,0.028856307,-0.03396525,-0.0019086536,0.005402042,-0.014235952,-0.1340753,0.076614454,-9.576807,0.7777002,47.684196,-0.6405429,-2.3218935,-3.364355,-0.42869502,0.13592377,-0.08851545,28.0,29.125,28.25,32.1875,34.375,35.25
0.046054,-1.0244547,-1.0621893,-1.2002096,-0.019575452,0.035828106,-0.1603084,-0.3814489,-0.3484827,0.05984053,-3.0784512,0.62517774,-0.0004725203,-0.022558022,0.0006989772,0.0011196038,-0.008439707,0.0043835337,-0.010908426,0.4772851,-1.4251213,1.9570912,-2.100869,-1.5706476,2.4524353,-0.025626361,0.029662933,-0.036074344,-0.0013795998,0.005395874,-0.014704987,-0.15322891,0.15322891,-9.519346,0.73069996,47.63852,-0.6225654,-2.293857,-3.3086567,-0.4355447,0.14065506,-0.11859486,28.0,29.125,28.25,32.1875,34.375,35.25
0.04805385,-0.7496108,-0.99386895,-1.0584353,-0.025056774,0.03256454,-0.17233679,-0.3814955,-0.34848854,0.05983925,-3.0784543,0.6252554,-0.00049665873,-0.023458755,0.0008477783,0.0013821739,-0.008588585,0.0046437453,-0.0114920875,0.47723678,-1.425037,1.9569954,-2.100857,-1.5706238,2.452435,-0.026727188,0.030428726,-0.037671164,-0.00084752945,0.0054065334,-0.015221361,-0.076614454,0.21068975,-9.557653,0.7239871,47.655537,-0.5645152,-2.2789917,-3.3249855,-0.44897646,0.13552247,-0.12941825,28.0,29.125,28.25,32.1875,34.375,35.25
0.05005386,-0.93390673,-1.1817333,-1.3188459,-0.020729953,0.013071428,-0.18087128,-0.38154653,-0.34849226,0.05986739,-3.0784934,0.62526315,-0.0004487825,-0.02446022,0.0006450524,0.0021094119,-0.0094100535,0.005842942,-0.011378476,0.4771885,-1.4250131,1.9568981,-2.1008327,-1.5706118,2.4523866,-0.027403293,0.030606784,-0.039608393,-0.00053108373,0.0055828625,-0.016010199,-0.019153614,0.24899697,-9.5385,0.76874626,47.690468,-0.62388366,-2.177219,-3.324665,-0.43274295,0.123109795,-0.121950045,28.0,29.125,28.25,32.1875,34.375,35.25
0.052053727,-0.83801204,-1.835768,-1.5467602,-0.022023886,0.009087459,-0.18864799,-0.38158044,-0.3484803,0.05984639,-3.078484,0.62524223,-0.0005049195,-0.02547344,0.00087436987,0.0020479767,-0.009214903,0.005973113,-0.012097648,0.47712812,-1.4249288,1.9568499,-2.1008327,-1.5705999,2.4523144,-0.028591085,0.032061204,-0.041142132,-0.000476386,0.0053463527,-0.01647759,0.038307227,0.3256114,-9.461885,0.7642693,47.704796,-0.6258508,-2.1871703,-3.3440068,-0.4426122,0.14482762,-0.13701765,28.0,29.125,28.25,32.1875,34.375,35.25
0.054053895,-1.1931037,-2.217661,-1.367411,-0.031944267,0.004312764,-0.18891118,-0.38164586,-0.3484802,0.059863143,-3.0784826,0.62539595,-0.00044742427,-0.026444044,0.0010344479,0.0018510323,-0.00873535,0.00600134,-0.011916574,0.4770677,-1.4248682,1.9567426,-2.1008327,-1.5706004,2.4523501,-0.02948135,0.033894703,-0.042786494,-0.00046847013,0.004904813,-0.017546756,-0.05746084,0.3256114,-9.5385,0.6478998,47.704796,-0.6339656,-2.2323327,-3.3142924,-0.42162478,0.13707596,-0.16539541,28.0,29.125,28.25,32.1875,34.375,35.25
0.056054175,-1.1043901,-2.5222397,-1.4943558,-0.036243863,0.013063031,-0.20294988,-0.38169506,-0.3484677,0.0598364,-3.0784454,0.6254264,-0.00047872067,-0.02741822,0.000967527,0.0021870798,-0.00927344,0.0066712317,-0.012078267,0.47700742,-1.4247482,1.9566697,-2.100845,-1.5706118,2.4523137,-0.0303667,0.03467284,-0.044458173,-0.0004176057,0.0050714593,-0.018269952,0.019153614,0.4213795,-9.500193,0.784413,47.67614,-0.57604307,-2.1779563,-3.3517833,-0.42618555,0.15268,-0.18805182,28.0,29.125,28.25,32.1875,34.375,35.25
0.058053836,-1.1190621,-2.2288926,-1.2263148,-0.052336477,0.016620912,-0.21674705,-0.3817336,-0.3484627,0.059844833,-3.0784533,0.62544787,-0.0005165415,-0.02853404,0.00081728486,0.0028435143,-0.010262351,0.007861783,-0.012344518,0.4769471,-1.4247004,1.9565848,-2.100797,-1.5705875,2.4522657,-0.031339504,0.03498398,-0.046324674,-0.00037434115,0.005399666,-0.018976204,-0.038307227,0.34476504,-9.461885,0.7911258,47.66808,-0.6487427,-2.0294306,-3.2904582,-0.44775215,0.15082261,-0.18449728,28.0,29.125,28.25,32.1875,34.375,35.25
0.060053337,-1.0438571,-2.4075322,-1.3068961,-0.046202965,0.028234448,-0.20673497,-0.38182345,-0.34846643,0.05988992,-3.0785427,0.6255039,-0.0003553087,-0.029301092,0.0007901778,0.0023273549,-0.0106146345,0.0066893194,-0.012463812,0.47686267,-1.4246874,1.956478,-2.100845,-1.5705751,2.452205,-0.032545384,0.037329853,-0.047828235,-0.0003390516,0.0062510436,-0.020062381,0.0,0.4213795,-9.461885,0.7777002,47.696735,-0.60985255,-2.0405922,-3.309107,-0.43949515,0.1399585,-0.19392194,28.0,29.125,28.25,32.1875,34.375,35.25
0.06205405,-1.1639354,-2.3274786,-1.2376406,-0.033488747,0.02420483,-0.1824813,-0.38188732,-0.34845936,0.05988157,-3.0785007,0.6255332,-0.00033402705,-0.030313598,0.00023141288,0.0025888002,-0.011556557,0.0071091834,-0.011554052,0.4768146,-1.424567,1.9563569,-2.1008327,-1.5706114,2.4521806,-0.032898072,0.038951486,-0.050287172,-0.0003098371,0.0068899193,-0.021324545,-0.038307227,0.4213795,-9.557653,0.7418897,47.70211,-0.6426236,-2.147228,-3.269099,-0.42765582,0.13360158,-0.217002,28.0,29.125,28.25,32.1875,34.375,35.25
0.0640537,-0.9888457,-1.9147686,-1.118544,-0.023083363,0.028264305,-0.17494154,-0.38195333,-0.34845945,0.05989704,-3.0785546,0.6256014,-0.00029591576,-0.03183582,-0.00022360671,0.0029029285,-0.012184395,0.0079252785,-0.010717112,0.47673026,-1.4245185,1.9562715,-2.1008565,-1.5705751,2.452132,-0.03360465,0.04116989,-0.0535426,-0.0002852601,0.007068247,-0.02286597,-0.15322891,0.38307226,-9.423578,0.7463667,47.67614,-0.64271605,-2.0626817,-3.1369076,-0.4130032,0.17578137,-0.2350299,28.0,29.125,28.25,32.1875,34.375,35.25
0.06605392,-1.0471832,-1.6009941,-0.9700241,-0.018150011,0.02790917,-0.17657001,-0.3820047,-0.34846583,0.05990615,-3.0785599,0.6256783,-0.00034860242,-0.03078705,-0.00021686323,0.0011837373,-0.011898395,0.00399188,-0.009118962,0.4766703,-1.4244336,1.9561404,-2.100797,-1.5705384,2.4521194,-0.033652484,0.043433774,-0.05220556,-0.00026430047,0.008621864,-0.024515018,-0.19153613,0.34476504,-9.385271,0.7777002,47.66091,-0.6673635,-2.2323594,-3.3578625,-0.42364442,0.13278286,-0.20521855,28.0,29.125,28.25,32.1875,34.375,35.25
0.068054765,-0.82659316,-1.0624971,-0.77499604,-0.020397384,0.034926943,-0.18974496,-0.38205135,-0.34846982,0.05989658,-3.0785794,0.62558556,-0.00034774328,-0.03215044,-0.0010393523,0.0022203685,-0.01368362,0.0058236984,-0.007928531,0.47663423,-1.4243377,1.9560555,-2.1008089,-1.5705384,2.452023,-0.033925492,0.0440727,-0.055311553,-0.0002462117,0.009361059,-0.02597806,-0.05746084,0.22984336,-9.32781,0.79560274,47.67614,-0.74373597,-2.1697488,-3.2659483,-0.42503107,0.12289114,-0.20609136,28.0,29.125,28.25,32.1875,34.375,35.25
0.070053406,-1.6025151,-1.5517606,-0.9205856,-0.0040651965,0.019240946,-0.16982277,-0.38215044,-0.34849143,0.059930187,3.07864,-0.6257135,0.0002646808,-0.034171633,-0.0016188512,0.0035936246,-0.0151456315,0.008691896,-0.007938516,0.4765499,-1.4242536,1.9558882,-2.1008327,-1.5704902,2.4520109,-0.0347368,0.044709474,-0.059181157,-0.0002304424,0.009339835,-0.026776316,-0.038307227,0.22984336,-9.232041,0.7978386,47.684196,-0.83887434,-2.095579,-3.1807768,-0.40505695,0.1235621,-0.23069046,28.0,29.125,28.25,32.1875,34.375,35.25
0.07205412,-1.2765132,-1.1273657,-0.95221853,0.00020817318,0.029066622,-0.1745619,-0.38222453,-0.34847817,0.059935674,3.0786264,-0.6257488,0.00022313328,-0.034789156,-0.0015015798,0.0028139162,-0.014445198,0.007469473,-0.00771097,0.47646573,-1.4241688,1.955779,-2.1008327,-1.5705022,2.4519506,-0.03546703,0.047402237,-0.060479466,-0.00021657138,0.009277096,-0.027732696,-0.21068975,0.24899697,-9.289502,0.7284641,47.707485,-0.81960416,-2.1878977,-3.005496,-0.40920192,0.111568436,-0.24849474,28.0,29.125,28.25,32.1875,34.375,35.25
0.0740539,-1.1495041,-1.0606917,-0.8634169,-0.0036365583,0.041478507,-0.18248023,-0.38225865,-0.34849295,0.05991785,3.0786095,-0.62572515,0.00030154551,-0.033949297,-0.001084534,0.001258246,-0.013674169,0.0041362797,-0.0066272654,0.4764295,-1.4240605,1.955696,-2.1008327,-1.5704545,2.4519017,-0.035978798,0.049129415,-0.058904506,-0.0002042776,0.010123555,-0.029330289,-0.22984336,0.15322891,-9.270349,0.784413,47.703903,-0.86259204,-2.1609163,-3.2610097,-0.3987199,0.11519407,-0.23969276,28.0,29.125,28.25,32.1875,34.375,35.25
0.07605343,-0.6357933,-1.0351856,-0.7132119,-0.001542048,0.057009663,-0.18014371,-0.3823533,-0.34850162,0.05995266,3.0785644,-0.6257154,0.00021242604,-0.035722986,-0.0019336796,0.0024563342,-0.014654609,0.006885028,-0.0055135926,0.47635755,-1.4239762,1.9555148,-2.1008089,-1.5704545,2.4518294,-0.035840858,0.050249994,-0.06292605,-0.00019330406,0.009728584,-0.030302498,-0.21068975,0.1340753,-9.289502,0.7866488,47.71017,-0.91955525,-2.208552,-3.1407466,-0.40927002,0.11505653,-0.24154618,28.0,29.125,28.25,32.1875,34.375,35.25
0.078054406,-1.3004268,-0.9714061,-0.5243468,0.0025294842,0.041947242,-0.16768041,-0.38241482,-0.34851485,0.059958544,3.0784898,-0.62573916,0.00022972727,-0.036446758,-0.0020016409,0.002432254,-0.014902931,0.0068547963,-0.005418913,0.47628534,-1.423892,1.955408,-2.1008208,-1.5703944,2.4517815,-0.03653123,0.051504597,-0.064318344,-0.00014074252,0.009962204,-0.031086685,-0.19153613,0.17238252,-9.251195,0.7665104,47.691364,-0.98778474,-2.1796758,-3.0894022,-0.3802396,0.11825311,-0.26029107,28.0,29.125,28.25,32.1875,34.375,35.25
0.08005405,-1.099476,-0.7848206,-0.5890741,0.003846463,0.04641492,-0.17761366,-0.3824691,-0.3485092,0.059926048,3.0785108,-0.6257432,0.0002733202,-0.03776179,-0.0020921186,0.0027614564,-0.015718976,0.0074853906,-0.005543195,0.47622484,-1.4237478,1.9553231,-2.100845,-1.5703939,2.451721,-0.037855905,0.052794628,-0.06655321,-0.00013112024,0.010393204,-0.03228678,-0.2681506,0.11492168,-9.193734,0.7978386,47.687782,-1.0152552,-2.1074667,-3.064682,-0.38863176,0.082230836,-0.27432054,28.0,29.125,28.25,32.1875,34.375,35.25
0.082053944,-1.1477529,-0.7847493,-0.7437829,0.0020196284,0.0459546,-0.17183492,-0.3825707,-0.34850547,0.059958052,3.078439,-0.6257858,0.00018328772,-0.03831654,-0.0024101876,0.0025947993,-0.015466266,0.0073372833,-0.004617287,0.47611684,-1.4236753,1.9551672,-2.100845,-1.570382,2.4516487,-0.037689477,0.05460425,-0.06827849,3.4261182e-05,0.010237354,-0.033044063,-0.22984336,0.11492168,-9.212888,0.7530795,47.69763,-1.0382409,-2.1924894,-3.0480804,-0.3891882,0.085944846,-0.27729338,28.0,29.125,28.25,32.1875,34.375,35.25
0.08405367,-1.534542,-1.0577286,-0.51576716,-0.00020619782,0.039040446,-0.17003249,-0.3826584,-0.34851718,0.059971288,3.0784175,-0.62574184,0.00012573267,-0.03898328,-0.0023659973,0.002425486,-0.01506173,0.007283888,-0.0042423713,0.4760568,-1.4235551,1.9549998,-2.100845,-1.570382,2.451564,-0.038155586,0.05607335,-0.06959305,0.00011460948,0.009902057,-0.033883277,-0.22984336,0.11492168,-9.346964,0.78217715,47.67614,-1.1002421,-2.207499,-3.052102,-0.37242272,0.09942292,-0.28435838,28.0,29.125,28.25,32.1875,34.375,35.25
0.086054035,-1.4579135,-0.9173817,-0.7875446,-0.011362786,0.042328883,-0.1784043,-0.38273045,-0.34852678,0.0599755,3.0783744,-0.625734,0.00013067418,-0.040275205,-0.002301043,0.0025904472,-0.015240584,0.0078158025,-0.005338506,0.47598422,-1.4234467,1.9548663,-2.100845,-1.5703462,2.451492,-0.03939487,0.057622332,-0.07175841,0.00017854667,0.009814608,-0.03402476,-0.22984336,0.13407528,-9.3661175,0.8112748,47.661808,-1.1245412,-2.094357,-3.0471597,-0.36367798,0.08976501,-0.29452187,28.0,29.125,28.25,32.1875,34.375,35.25
0.08805393,-1.7856656,-1.6031622,-0.988118,-0.0056739557,0.035564713,-0.16338728,-0.38279372,-0.3485121,0.059954554,3.0783503,-0.62586254,0.00022576636,-0.040739458,-0.002592956,0.0030378443,-0.015400566,0.008365693,-0.003860423,0.47587636,-1.4233149,1.954758,-2.1008203,-1.57031,2.4514675,-0.0392214,0.057967287,-0.073335215,0.00085141696,0.009702974,-0.035328995,-0.21068975,0.21068975,-9.32781,0.73741806,47.678825,-1.2028514,-2.058913,-3.047548,-0.3719965,0.09252606,-0.3155738,28.0,29.125,28.25,32.1875,34.375,35.25
0.09005366,-1.55412,-1.9358296,-0.97094196,-0.0038606771,0.044569332,-0.16467021,-0.3829213,-0.34853035,0.060002133,3.0782704,-0.6258089,5.305743e-05,-0.04208368,-0.001428563,0.001205819,-0.013598538,0.0048573795,-0.005138685,0.4757913,-1.4232169,1.954543,-2.1008446,-1.57031,2.4513593,-0.042518433,0.06309788,-0.07515989,0.0014909692,0.009712209,-0.03734482,-0.19153613,0.28730422,-9.423578,0.8403672,47.67345,-1.12904,-2.3015099,-3.03855,-0.37043384,0.10612666,-0.32117328,28.0,29.125,28.25,32.1875,34.375,35.25
0.092053264,-1.6766156,-1.8320513,-1.1927569,-0.020762995,0.045542046,-0.16033348,-0.38296115,-0.34852582,0.059966203,3.0783,-0.6257953,0.00016447536,-0.042651646,-0.0014978395,0.002923111,-0.015034957,0.007493551,-0.0054882118,0.47573105,-1.4230738,1.9544586,-2.1008317,-1.5702862,2.4512868,-0.042953018,0.0601891,-0.07592158,0.0021613967,0.009779657,-0.0374309,-0.19153613,0.2681506,-9.423578,0.74413085,47.71017,-1.1096853,-2.1057327,-3.0242724,-0.3692721,0.10386121,-0.31842506,28.0,29.125,28.25,32.1875,34.375,35.25
0.094054036,-1.643333,-1.7105228,-1.0374461,-0.030634968,0.041692395,-0.16527405,-0.38304555,-0.3485336,0.059965793,3.0782764,-0.6258292,0.00016321873,-0.042886697,-0.0019930862,0.00212917,-0.014400317,0.0063461605,-0.00576772,0.47565937,-1.4229287,1.9542912,-2.1008203,-1.5702742,2.4512393,-0.042254567,0.0631301,-0.07745411,0.0020645538,0.009738601,-0.036451552,-0.2681506,0.28730422,-9.3661175,0.8112748,47.67614,-1.250069,-2.139124,-3.1029425,-0.37907302,0.103435315,-0.33489764,28.0,29.125,28.25,32.1875,34.375,35.25
0.09605419,-1.3042245,-1.864504,-1.2140298,-0.029389042,0.05384378,-0.17551163,-0.3831505,-0.34852177,0.05998039,3.0782402,-0.6258411,0.00015885536,-0.04411403,-0.0013154694,0.0012459127,-0.013922262,0.0051107425,-0.006405544,0.4755264,-1.4228077,1.9541115,-2.1007845,-1.5702504,2.4511185,-0.044660944,0.0660358,-0.07868162,0.0017058834,0.009878429,-0.03821894,-0.2681506,0.30645782,-9.423578,0.7329411,47.65912,-1.2975258,-2.1581566,-3.078954,-0.3752625,0.0790256,-0.3438496,28.0,29.125,28.25,32.1875,34.375,35.25
0.098053925,-1.3098991,-1.9038363,-1.2686707,-0.024824647,0.048144788,-0.1675621,-0.38324884,-0.34854528,0.0600033,3.0781572,-0.6258043,7.857516e-05,-0.04538655,-0.001126688,0.0015435999,-0.014824946,0.0058204834,-0.006402539,0.47545388,-1.422699,1.9539431,-2.1008203,-1.5702137,2.4510336,-0.046461914,0.06680467,-0.08017218,0.0013844697,0.010357047,-0.040021647,-0.11492168,0.19153613,-9.423578,0.74413085,47.66271,-1.1933457,-2.2925725,-3.1103795,-0.35631925,0.083765686,-0.37136215,28.0,29.125,28.25,32.1875,34.375,35.25
0.10005338,-0.7613387,-1.203112,-1.0988595,-0.033522606,0.04594945,-0.17253596,-0.38333535,-0.34851742,0.059991464,3.0781405,-0.62593585,6.7339264e-05,-0.046470277,9.335433e-05,0.0009394688,-0.013969245,0.005263913,-0.006803523,0.4753329,-1.4225787,1.9538354,-2.1008322,-1.5702261,2.4509969,-0.049280573,0.068156585,-0.08026023,0.0010106209,0.009851883,-0.042438403,-0.13407528,0.17238252,-9.519346,0.7553206,47.682407,-1.160719,-2.1478305,-3.167997,-0.34693143,0.09716843,-0.353064,28.0,29.125,28.25,32.1875,34.375,35.25
0.10205353,-0.9230685,-1.6452597,-1.1709887,-0.011912629,0.035534825,-0.17176393,-0.38340032,-0.3485329,0.059962455,3.0781736,-0.6258266,0.00015028754,-0.047884714,-0.0005250717,0.0013763398,-0.014916299,0.0062894616,-0.0046478943,0.47528479,-1.4223858,1.9536785,-2.1008203,-1.5702018,2.4508765,-0.049710736,0.07005332,-0.083420426,0.00093007943,0.010216708,-0.04502327,-0.1340753,0.17238252,-9.500193,0.7665104,47.679718,-1.1080126,-2.1776533,-3.0598981,-0.3557711,0.10559632,-0.31925952,28.0,29.125,28.25,32.1875,34.375,35.25
0.10405335,-1.1350168,-1.4971395,-1.1949762,-0.0074147684,0.035898183,-0.16745883,-0.38351017,-0.3485242,0.05997304,3.078112,-0.6259292,0.00013246629,-0.047020327,-0.0006374438,6.4408785e-05,-0.014213151,0.003600643,-0.004885813,0.47515303,-1.4222529,1.9534997,-2.1008084,-1.5701779,2.4508166,-0.049095113,0.071932055,-0.082578056,0.00092147326,0.010826269,-0.044170275,-0.19153613,0.17238252,-9.423578,0.75084364,47.689575,-1.2895575,-2.245871,-3.2315025,-0.35057998,0.09296458,-0.32706743,28.0,29.125,28.25,32.1875,34.375,35.25
0.10605391,-1.1853347,-1.4038854,-1.3193177,-0.0030031342,0.03597063,-0.16326599,-0.38363183,-0.34853056,0.06000145,3.0780897,-0.6258666,6.5473537e-06,-0.04930156,-0.0002819578,0.00044647025,-0.014670783,0.004480874,-0.0050912863,0.47506797,-1.4221202,1.9532832,-2.1008084,-1.5702018,2.4506955,-0.051805288,0.07415116,-0.08605679,0.0011899319,0.010829061,-0.046672065,-0.15322891,0.11492168,-9.3661175,0.78217715,47.68599,-1.1681377,-2.2474566,-3.2718158,-0.3466946,0.099776,-0.34116107,28.0,29.125,28.25,32.1875,34.375,35.25
0.108053535,-1.2682055,-0.95927566,-1.0395622,-0.005440398,0.032299373,-0.17148815,-0.38372752,-0.34854022,0.059987556,3.0779872,-0.6259608,8.816674e-05,-0.049739864,0.00062139,-6.213419e-06,-0.014534953,0.0032400137,-0.004836242,0.47493514,-1.4219518,1.9531277,-2.1008322,-1.5701059,2.4506345,-0.054081928,0.07469219,-0.08571957,0.0014829034,0.011279831,-0.049204316,-0.19153613,0.076614454,-9.385271,0.74413085,47.683304,-1.0990994,-2.3029332,-3.174195,-0.33323652,0.08188047,-0.31991947,28.0,29.125,28.25,32.1875,34.375,35.25
0.11005412,-1.2896398,-1.0122533,-0.98228157,0.0003562636,0.037367452,-0.15893587,-0.38382232,-0.34854195,0.05999455,3.0779884,-0.62584454,4.6034533e-05,-0.050136093,0.00061770686,0.00020796084,-0.014219491,0.0029696086,-0.0028078605,0.4748511,-1.4218194,1.9529604,-2.1008317,-1.5701059,2.4504778,-0.054324377,0.07534558,-0.08725383,0.0027511723,0.011125846,-0.05147399,-0.22984336,0.05746084,-9.404425,0.78888994,47.687782,-1.1683255,-2.132712,-3.3164692,-0.32092458,0.07717325,-0.29353955,28.0,29.125,28.25,32.1875,34.375,35.25
0.11205447,-1.1733451,-1.0191753,-0.8163692,0.0054293238,0.04659225,-0.17314856,-0.38392314,-0.3485215,0.06000082,3.0779517,-0.62597066,8.6145155e-05,-0.05104353,0.00110276,-4.2550782e-05,-0.013582855,0.0027267006,-0.0017307888,0.47470665,-1.4216868,1.9527806,-2.1007717,-1.5700816,2.4504168,-0.05570271,0.07684165,-0.08845074,0.0029648992,0.010670048,-0.053928263,-0.21068975,0.095768064,-9.346964,0.7777002,47.711964,-1.1506046,-2.229447,-3.2702515,-0.3301546,0.06598002,-0.25843936,28.0,29.125,28.25,32.1875,34.375,35.25
0.1140533,-1.2353371,-0.59654224,-0.8525245,-0.0031803907,0.04977861,-0.16572462,-0.38402644,-0.34853846,0.059997056,3.0779464,-0.6258345,5.3988057e-05,-0.052085713,0.0012248843,0.00014298715,-0.014416528,0.0032361497,-0.00086404406,0.47463414,-1.4215063,1.9525884,-2.100796,-1.5700697,2.4502602,-0.057187293,0.07758693,-0.089654066,0.0025896868,0.011178763,-0.056279004,-0.17238252,0.019153614,-9.289502,0.8112748,47.687782,-1.1911634,-2.1181417,-3.339593,-0.3381204,0.051288564,-0.2406288,28.0,29.125,28.25,32.1875,34.375,35.25
0.11605376,-1.4519476,-0.79426575,-0.89999515,0.004376705,0.045912754,-0.16997144,-0.38413802,-0.3485478,0.060015157,3.077859,-0.6258737,8.299612e-05,-0.05280587,0.0015136246,0.00015005213,-0.014408788,0.003647431,0.00071711565,0.4745018,-1.4213619,1.9523739,-2.1007602,-1.5699977,2.4501634,-0.058212522,0.07818309,-0.090289995,0.0022750145,0.010986139,-0.058884367,-0.19153613,0.038307227,-9.3661175,0.80456203,47.683304,-1.166951,-2.0853,-3.354754,-0.33002257,0.066939004,-0.22506875,28.0,29.125,28.25,32.1875,34.375,35.25
0.118053705,-0.8318378,0.032013725,-0.6530551,-0.016988376,0.059134565,-0.17839177,-0.384243,-0.3485212,0.0599996,3.077897,-0.62586033,6.170253e-05,-0.05427731,0.0014372164,0.00048012097,-0.014609447,0.004787676,0.0022301695,0.47438154,-1.4211934,1.9522165,-2.1007602,-1.5700334,2.45003,-0.059182685,0.079772025,-0.092842564,0.002134602,0.0106395045,-0.061365828,-0.2681506,0.11492168,-9.32781,0.83813137,47.678825,-1.203204,-2.0316684,-3.4819267,-0.30137035,0.06478275,-0.16955096,28.0,29.125,28.25,32.1875,34.375,35.25
0.1200533,-1.5337324,-0.962219,-0.93365586,0.007921168,0.048389953,-0.16683464,-0.3843324,-0.3485526,0.059995994,3.0778286,-0.6258078,9.028196e-05,-0.054634616,0.0021600144,-0.000226941,-0.013740868,0.00346719,0.0026150907,0.474309,-1.4210247,1.9520372,-2.100784,-1.5699619,2.4499335,-0.060667563,0.081128865,-0.09284358,0.002357208,0.010474133,-0.063234955,-0.2873042,0.1340753,-9.404425,0.81351066,47.66091,-1.2059882,-2.0154786,-3.3884974,-0.3101008,0.073512405,-0.1377618,28.0,29.125,28.25,32.1875,34.375,35.25
0.122053854,-1.5975516,-0.5688626,-0.95011294,-0.0048145456,0.043325514,-0.17034721,-0.3844732,-0.34852597,0.060015872,3.0777967,-0.6258591,2.013218e-05,-0.055404052,0.0024540082,-7.392326e-06,-0.013700065,0.0033415393,0.0025398217,0.47414052,-1.4208803,1.9518212,-2.1007602,-1.5699738,2.4498012,-0.06188234,0.08177634,-0.09431402,0.003312286,0.010499391,-0.06437337,-0.34476504,0.019153614,-9.442732,0.78888994,47.694054,-1.2531884,-1.9929228,-3.5929856,-0.29789883,0.094767064,-0.08081184,28.0,29.125,28.25,32.1875,34.375,35.25
0.12405387,-1.2543654,-0.9678299,-1.0239426,-0.0055537065,0.051618084,-0.16468622,-0.38459444,-0.3485116,0.06001728,3.0777624,-0.625872,-1.0067168e-05,-0.056533035,0.0023682634,-3.6863043e-05,-0.013190332,0.002746575,0.0005651497,0.47399637,-1.4207231,1.9516405,-2.1007712,-1.5699619,2.4496696,-0.06262277,0.08432434,-0.09749277,0.0047072675,0.010316669,-0.06313691,-0.2873042,0.019153614,-9.385271,0.842603,47.660015,-1.2425187,-2.1540082,-3.3508296,-0.33673948,0.069618456,-0.08489241,28.0,29.125,28.25,32.1875,34.375,35.25
0.12605335,-1.1858748,-1.0708375,-0.989217,-0.008999285,0.059041366,-0.16763982,-0.38469946,-0.34852844,0.060007475,3.0777106,-0.62586236,8.670569e-06,-0.05882772,0.003219341,0.0018756739,-0.015266717,0.006057837,-0.00236034,0.47389895,-1.4205316,1.9514493,-2.100795,-1.5699137,2.4495728,-0.06642286,0.08210585,-0.09938414,0.00492667,0.010652316,-0.064011075,-0.4405331,0.13407528,-9.346964,0.8605109,47.686886,-1.0663772,-1.893564,-3.4418926,-0.32926914,0.08334223,-0.099064134,28.0,29.125,28.25,32.1875,34.375,35.25
0.12805404,-1.3147554,-0.91445017,-1.2824606,-0.013565999,0.065203235,-0.17383766,-0.3848343,-0.34852144,0.06003792,3.0776622,-0.62583375,-6.614486e-05,-0.058879763,0.0023607858,0.0007624083,-0.013874341,0.0048724976,-0.001888441,0.47375578,-1.4203985,1.9512218,-2.1007712,-1.5699023,2.449418,-0.0644742,0.08605232,-0.101291336,0.004581228,0.009954511,-0.062531374,-0.4405331,0.17238252,-9.519346,0.79560274,47.691364,-1.2568793,-1.9717202,-3.423968,-0.31826955,0.064143986,-0.055010952,28.0,29.125,28.25,32.1875,34.375,35.25
0.13005361,-1.5496199,-0.87358457,-1.1357735,-0.031027192,0.06862718,-0.16697875,-0.3849312,-0.3484942,0.060025997,3.077684,-0.6258594,1.738964e-05,-0.06057877,0.0025477414,0.0021738808,-0.015842201,0.0072838017,-0.007113749,0.47361088,-1.4202306,1.9510406,-2.1006997,-1.5698899,2.4492865,-0.06675042,0.084926344,-0.103245914,0.0046161227,0.010598067,-0.0595827,-0.4213795,0.19153613,-9.557653,0.83813137,47.690468,-1.2054194,-1.9500709,-3.3888438,-0.3239233,0.08077889,-0.082282536,28.0,29.125,28.25,32.1875,34.375,35.25
0.1320532,-2.215571,-1.3495346,-1.3628842,-0.024472114,0.058864642,-0.16271006,-0.38504243,-0.34850302,0.060015816,3.0776339,-0.6258908,2.5498002e-05,-0.062240783,0.0041067014,0.0017078468,-0.014798371,0.0060390867,-0.012246449,0.47350138,-1.4200379,1.9508485,-2.100723,-1.5698537,2.449203,-0.07077411,0.08693949,-0.10474823,0.0056928797,0.010238107,-0.058472313,-0.3256114,0.19153613,-9.519346,0.76874626,47.71286,-1.064295,-1.7852743,-3.4346566,-0.3383059,0.083352,-0.09016964,28.0,29.125,28.25,32.1875,34.375,35.25
0.13405412,-1.931594,-1.3910443,-1.3856657,-0.023376694,0.0557046,-0.16150703,-0.38518846,-0.34847265,0.060030885,3.0776184,-0.6259446,-1.2778884e-05,-0.062319,0.0034618366,0.0014359176,-0.014597019,0.0052115885,-0.010868776,0.47332188,-1.4198688,1.9506096,-2.1006749,-1.5698656,2.4490592,-0.06980183,0.088858984,-0.106487066,0.0063413023,0.010437538,-0.058876652,-0.30645782,0.22984336,-9.595961,0.82022345,47.703903,-1.1210388,-1.9312174,-3.4123569,-0.3342143,0.09500902,-0.105383754,28.0,29.125,28.25,32.1875,34.375,35.25
0.13605417,-2.0684788,-1.9139194,-1.4153541,-0.024005996,0.055150144,-0.15831484,-0.38529506,-0.34847683,0.06001945,3.0775843,-0.6259986,6.380151e-05,-0.06389271,0.003615548,0.0017338829,-0.015496954,0.0058057234,-0.016947845,0.47320107,-1.4196641,1.9503931,-2.100639,-1.5698179,2.4489765,-0.07182389,0.090244405,-0.10875888,0.0062876814,0.010960354,-0.054819047,-0.4213795,0.24899697,-9.576807,0.7978386,47.672558,-1.1230626,-1.783377,-3.413209,-0.3481813,0.10384334,-0.115357965,28.0,29.125,28.25,32.1875,34.375,35.25
0.13805391,-2.0917878,-1.6056089,-1.258823,-0.036668196,0.05205453,-0.15508991,-0.38544458,-0.34846103,0.060020983,3.0775604,-0.6259756,-2.0243175e-05,-0.06557182,0.004434052,0.0015843555,-0.014897505,0.0060728756,-0.020721832,0.47304434,-1.4194715,1.9501771,-2.1006749,-1.5698298,2.4488087,-0.07434979,0.09216983,-0.11063777,0.006278961,0.010305286,-0.053568587,-0.34476507,0.2681506,-9.595961,0.779936,47.67793,-1.0322692,-1.8439605,-3.391319,-0.35069406,0.10567474,-0.15952457,28.0,29.125,28.25,32.1875,34.375,35.25
0.14005378,-1.6351941,-1.4747894,-1.3815776,-0.037154414,0.056285262,-0.16706331,-0.38558266,-0.34845248,0.060051754,3.0774674,-0.6261118,-8.3875595e-05,-0.06692541,0.004457785,0.0013926249,-0.015364738,0.005981415,-0.022522805,0.47288758,-1.4193386,1.9499491,-2.1006515,-1.5698055,2.4487488,-0.07589029,0.094504915,-0.11282133,0.0059971395,0.010763088,-0.053306255,-0.2681506,0.24899697,-9.653421,0.83813137,47.67345,-1.033005,-1.7278242,-3.3475046,-0.35457903,0.11972606,-0.17559421,28.0,29.125,28.25,32.1875,34.375,35.25
0.14205344,-2.0384026,-1.5176891,-1.1086016,-0.03119381,0.049163453,-0.16795371,-0.38572577,-0.3484512,0.06006017,3.0773842,-0.6262292,-0.000106010564,-0.06835913,0.0038245146,0.0015680437,-0.01685487,0.0066949865,-0.023624318,0.47273138,-1.4191456,1.9497088,-2.1006515,-1.5697693,2.4486766,-0.076687254,0.09670811,-0.11559207,0.005250644,0.011761394,-0.0530001,-0.40222588,0.19153613,-9.634268,0.7105615,47.699425,-0.9818503,-1.8188535,-3.324997,-0.35758936,0.10434528,-0.21609718,28.0,29.125,28.25,32.1875,34.375,35.25
0.14405389,-1.383828,-1.2082121,-1.1173342,-0.023398759,0.06499252,-0.17007986,-0.38582665,-0.34843698,0.06003327,3.077403,-0.6261959,-2.1943035e-05,-0.07071838,0.0037781443,0.0008415315,-0.01636409,0.0064964187,-0.025339004,0.47259882,-1.4189394,1.9495286,-2.1006281,-1.5697454,2.448521,-0.07850009,0.10197406,-0.11985227,0.0046493364,0.011403467,-0.05309557,-0.34476504,0.24899697,-9.557653,0.81351066,47.704796,-0.9767289,-2.1231437,-3.24891,-0.35148117,0.12248689,-0.23650962,28.0,29.125,28.25,32.1875,34.375,35.25
0.14605384,-1.1498322,-0.7833086,-1.0595567,-0.016154028,0.068962336,-0.17674872,-0.38599595,-0.34844452,0.060058154,3.0773146,-0.6262351,-0.00011473056,-0.07168466,0.003970829,0.001695249,-0.017867444,0.008204359,-0.026810303,0.47244227,-1.4187357,1.949241,-2.1006396,-1.5697211,2.4484003,-0.08004486,0.10084163,-0.120400816,0.0041264906,0.011969711,-0.053168193,-0.22984336,0.24899697,-9.442732,0.8112748,47.698532,-0.8841076,-1.8918302,-3.1842165,-0.3337985,0.112264454,-0.2397761,28.0,29.125,28.25,32.1875,34.375,35.25
0.14805378,-1.7417084,-1.1783059,-1.030089,-0.0060830363,0.059011254,-0.16813143,-0.38616067,-0.3484295,0.06008638,3.07724,-0.62631667,-0.00025673053,-0.07362893,0.003777182,0.0008345042,-0.017564429,0.006486751,-0.02813223,0.4722737,-1.4185776,1.9490007,-2.1006634,-1.5697335,2.4482923,-0.08176501,0.10639119,-0.124968916,0.0048123593,0.012481548,-0.053562485,-0.38307226,0.28730422,-9.576807,0.779936,47.684196,-0.8995545,-2.0832825,-3.1200743,-0.32426408,0.12404673,-0.265481,28.0,29.125,28.25,32.1875,34.375,35.25
0.15005347,-1.5259917,-1.101853,-0.88764393,-0.01729131,0.059841692,-0.1744768,-0.38629425,-0.34842697,0.06008196,3.077146,-0.62641394,-0.00018655791,-0.07423639,0.004327026,0.0011489466,-0.017720262,0.0068296893,-0.029229334,0.47209322,-1.4183736,1.9487742,-2.1006515,-1.5696491,2.4481845,-0.0832426,0.10597726,-0.1253223,0.0052106334,0.012467911,-0.05394286,-0.40222588,0.22984336,-9.404425,0.779936,47.70211,-0.8453121,-1.9533397,-3.0957584,-0.34208822,0.12336729,-0.29592365,28.0,29.125,28.25,32.1875,34.375,35.25
0.15205425,-1.9776276,-1.8296651,-0.98060554,-0.02091021,0.054950833,-0.16105951,-0.3864604,-0.3484084,0.060095884,3.0771239,-0.6265049,-0.00025393788,-0.075287946,0.0045134546,0.0010504033,-0.017618744,0.0072237635,-0.02997705,0.47192493,-1.4181569,1.9484857,-2.1006153,-1.5696734,2.448076,-0.084314354,0.10747974,-0.12675758,0.004840709,0.012198988,-0.05426536,-0.49799395,0.24899697,-9.385271,0.779936,47.707485,-0.80130756,-1.9169297,-3.1274934,-0.33846843,0.124972366,-0.29724222,28.0,29.125,28.25,32.1875,34.375,35.25
0.15405424,-1.8937187,-1.2776529,-1.1641133,-0.036434278,0.058945935,-0.16833292,-0.38659728,-0.34840366,0.060090497,3.077067,-0.62660885,-0.00023077642,-0.07593492,0.0046962923,0.0009381981,-0.01722212,0.0069386964,-0.030090095,0.47176877,-1.4179403,1.9482468,-2.1006033,-1.5696372,2.447992,-0.085046165,0.10874174,-0.1280865,0.005347167,0.011976935,-0.054883193,-0.51714754,0.2681506,-9.385271,0.83365434,47.66271,-0.8695339,-1.9211259,-3.1519306,-0.3242438,0.13313258,-0.32791716,28.0,29.125,28.25,32.1875,34.375,35.25
0.15605374,-1.6511928,-1.4926082,-0.8508593,-0.03986491,0.069950245,-0.16869707,-0.38675374,-0.34839538,0.060108222,3.0770218,-0.6266396,-0.0003032746,-0.07728636,0.0051270067,0.00090950786,-0.01846321,0.006348129,-0.033045065,0.47161162,-1.4177476,1.9479827,-2.1005914,-1.5696367,2.44786,-0.08788222,0.11013302,-0.12966971,0.005498162,0.013353128,-0.054763258,-0.49799395,0.22984336,-9.308656,0.8314132,47.67614,-0.6510327,-1.9013379,-3.0094013,-0.33032164,0.15871318,-0.3783527,28.0,29.125,28.25,32.1875,34.375,35.25
0.15805356,-1.9015878,-1.5162544,-0.56325626,-0.03460544,0.06534491,-0.16720137,-0.38692147,-0.3483752,0.060102493,3.0769563,-0.6267971,-0.00030713648,-0.07718396,0.004384203,0.00048222364,-0.018064443,0.0055027977,-0.031015836,0.47140825,-1.4175068,1.9477195,-2.1005914,-1.5696129,2.4477634,-0.086450934,0.11218873,-0.13116485,0.005876402,0.013384089,-0.055359993,-0.49799395,0.21068975,-9.270349,0.842603,47.677036,-0.9123933,-1.977891,-3.2628222,-0.32777673,0.15281884,-0.40246004,28.0,29.125,28.25,32.1875,34.375,35.25
0.16005342,-1.7772034,-1.4401248,-0.44752368,-0.01150947,0.0655076,-0.1657692,-0.3870832,-0.34837338,0.06009502,3.0769148,-0.6268487,-0.00024316434,-0.07823902,0.005465606,5.527412e-05,-0.018914016,0.004135915,-0.034234766,0.47122687,-1.41723,1.9474081,-2.1005437,-1.5695642,2.4476197,-0.09016358,0.113111846,-0.13128561,0.005906942,0.014763561,-0.05585435,-0.34476504,0.19153614,-9.251195,0.8493211,47.666286,-0.80499005,-1.8637723,-3.1543221,-0.33336702,0.13881278,-0.41371903,28.0,29.125,28.25,32.1875,34.375,35.25
0.16205354,-1.4434942,-0.6905575,-0.59487164,-0.0021859596,0.054195985,-0.16680071,-0.38726836,-0.34838456,0.060136817,3.0767431,-0.6269834,-0.00040019173,-0.07840027,0.004003084,4.1406438e-05,-0.018634025,0.0049295044,-0.02960614,0.47104806,-1.4170611,1.9471325,-2.1006033,-1.5695165,2.447547,-0.08728848,0.11541331,-0.1338387,0.0055879755,0.014161235,-0.057603657,-0.2873042,0.21068975,-9.212888,0.7620334,47.67345,-0.86094487,-2.0151877,-3.205923,-0.32260984,0.13693042,-0.45290542,28.0,29.125,28.25,32.1875,34.375,35.25
0.16405341,-1.2469211,-0.5434614,-0.19112322,0.007818309,0.047371812,-0.16255555,-0.38744485,-0.348375,0.060147796,3.0766695,-0.6270638,-0.00044850798,-0.0786914,0.0043131355,-0.0013130738,-0.017826457,0.0029236241,-0.028980697,0.4708555,-1.4168321,1.9468445,-2.1006033,-1.5694922,2.4474142,-0.088180125,0.11840094,-0.13406634,0.0049871407,0.014357392,-0.05911933,-0.22984336,0.1340753,-9.174581,0.83813137,47.67793,-0.9538867,-1.8346775,-3.3216136,-0.29394376,0.16795352,-0.47396374,28.0,29.125,28.25,32.1875,34.375,35.25
0.16605341,-0.9925933,-0.4178786,-0.28382444,0.01258047,0.04067606,-0.17182149,-0.38758042,-0.3483536,0.06012199,3.0766637,-0.6271174,-0.0004089416,-0.08031231,0.0040506236,0.0006932966,-0.019415619,0.0075943107,-0.02439793,0.47068748,-1.4165926,1.9466285,-2.1006038,-1.5694808,2.4472804,-0.08869177,0.11627342,-0.13605447,0.0042308415,0.0136562865,-0.064213224,-0.076614454,0.05746084,-9.021352,0.8806493,47.67614,-0.98451567,-1.9489157,-3.2729797,-0.30240124,0.17674902,-0.4587912,28.0,29.125,28.25,32.1875,34.375,35.25
0.16805321,-0.6680393,-0.6639231,-0.25512013,0.01866117,0.026847819,-0.16104622,-0.38776052,-0.348357,0.060128536,3.0765934,-0.6271782,-0.00042868714,-0.0810387,0.0042495336,-0.0011517456,-0.018624704,0.0044006105,-0.023327446,0.4705071,-1.4163264,1.9463052,-2.100592,-1.5694445,2.4471471,-0.09013537,0.12128981,-0.13756958,0.0039398717,0.014404115,-0.06672533,-0.038307227,0.095768064,-8.983045,0.8179876,47.691364,-1.0064061,-1.9015126,-3.2571895,-0.27420866,0.17994507,-0.42592365,28.0,29.125,28.25,32.1875,34.375,35.25
0.17005476,-0.2700982,-0.068321206,-0.24081604,0.006811998,0.012456405,-0.17981727,-0.38792378,-0.34834778,0.060134523,3.0765665,-0.6272096,-0.0004985724,-0.08170106,0.004157635,0.00021412446,-0.018959899,0.006658413,-0.019914767,0.47035104,-1.4160988,1.94603,-2.1005914,-1.5694569,2.4470143,-0.09006674,0.11969617,-0.13910107,0.004908476,0.013688118,-0.07006836,-0.019153614,0.095768064,-8.90643,0.80679786,47.690468,-0.9873872,-1.7967335,-3.3024497,-0.28209597,0.18557137,-0.42025012,28.0,29.125,28.25,32.1875,34.375,35.25
0.17205356,0.29268044,-0.24353057,-0.36899713,0.009889809,0.004768443,-0.17248349,-0.38809818,-0.3483457,0.060157962,3.0764985,-0.6271725,-0.0005223448,-0.08225763,0.0043407734,-0.0007789238,-0.018258555,0.004227232,-0.01404977,0.47015867,-1.4158815,1.9457186,-2.1005552,-1.5694088,2.4468076,-0.09116099,0.12300035,-0.14087704,0.0058781276,0.014179166,-0.07702573,0.17238252,0.1340753,-8.868123,0.7530795,47.684196,-1.038828,-1.911216,-3.2952538,-0.27588633,0.1951124,-0.38886124,28.0,29.125,28.25,32.1875,34.375,35.25
0.17405331,0.12968528,-0.8493396,-0.5250427,0.015084008,-0.010070387,-0.17343406,-0.38824466,-0.34832048,0.060138617,3.076462,-0.62725973,-0.0004979152,-0.082830586,0.004737895,-0.00082266,-0.017688332,0.0036652207,-0.011102073,0.4699664,-1.4156528,1.9455026,-2.100567,-1.5693849,2.4466746,-0.09217772,0.123929314,-0.14211906,0.006960952,0.013932828,-0.08098967,0.19153613,0.15322891,-8.983045,0.8672237,47.694946,-1.0421946,-1.8757694,-3.3328824,-0.28648856,0.20794587,-0.3052994,28.0,29.125,28.25,32.1875,34.375,35.25
0.17605391,0.08231808,-1.308385,-0.78393704,0.010970021,-0.008528417,-0.16250367,-0.38841322,-0.34828696,0.060134567,3.0764565,-0.6273333,-0.000507601,-0.084126845,0.003916253,-0.00036508587,-0.018730745,0.0043511144,-0.00765716,0.4697623,-1.4154121,1.945227,-2.1005309,-1.5693964,2.4465172,-0.09224725,0.1260417,-0.14570934,0.0073594186,0.014552072,-0.08450225,0.17238252,0.15322891,-9.097966,0.79560274,47.687782,-1.0629042,-1.9422626,-3.342742,-0.29048565,0.22557738,-0.27764618,28.0,29.125,28.25,32.1875,34.375,35.25
0.17805387,-0.2850744,-1.2169397,-0.78176934,-0.018550178,-0.0020860478,-0.17195317,-0.38859704,-0.348289,0.06014732,3.076373,-0.62737274,-0.00053118257,-0.08394531,0.0058197915,-0.0024757423,-0.01693132,0.0001087541,-0.0068279584,0.46956903,-1.4151589,1.9449042,-2.100519,-1.5693482,2.4463594,-0.09560655,0.12819278,-0.14344189,0.007549421,0.014885707,-0.0886908,0.15322891,0.30645782,-9.193734,0.8224646,47.651955,-0.9285115,-1.9636753,-3.492734,-0.28997496,0.22668193,-0.21803117,28.0,29.125,28.25,32.1875,34.375,35.25
0.18005344,-0.45064244,-1.9680984,-0.92977333,-0.025063295,0.0029232886,-0.16684876,-0.38873315,-0.348261,0.06009976,3.0764143,-0.62732136,-0.00034939797,-0.08424467,0.004318818,-0.0029859142,-0.017478166,-0.0018234445,-0.0030864251,0.46936575,-1.4148571,1.944652,-2.1004589,-1.5693,2.4461188,-0.094053365,0.13222584,-0.14723638,0.008792079,0.016236812,-0.09087879,0.095768064,0.2681506,-9.3661175,0.82022345,47.658226,-1.1271365,-2.089557,-3.2458863,-0.29835954,0.22261497,-0.17535846,28.0,29.125,28.25,32.1875,34.375,35.25
0.1820541,-0.5187666,-2.0277157,-1.1032262,-0.032783624,0.015977127,-0.17225929,-0.38889325,-0.34826672,0.06010839,3.0763676,-0.6272943,-0.00035849505,-0.08700793,0.0052594766,-0.00017115584,-0.019903317,0.0025962933,-0.006853553,0.46920818,-1.4146183,1.944352,-2.100434,-1.5692638,2.4459505,-0.09826037,0.12892851,-0.15016313,0.009983392,0.016402649,-0.091317505,0.11492168,0.40222588,-9.423578,0.8023209,47.690468,-0.9115902,-1.8151939,-3.3909078,-0.33199012,0.2520974,-0.13015348,28.0,29.125,28.25,32.1875,34.375,35.25
0.18405376,-0.7255484,-1.9456011,-1.3931197,-0.047720276,0.026210418,-0.16409363,-0.38907093,-0.34827805,0.06012956,3.0762746,-0.6272542,-0.00040169945,-0.0866509,0.0037949118,-0.0006305617,-0.019824851,0.0019205463,-0.00486227,0.4690295,-1.414389,1.9440402,-2.1004345,-1.5692037,2.4457588,-0.09545655,0.13146652,-0.15206261,0.00998957,0.016642401,-0.090502374,0.019153614,0.40222588,-9.481039,0.81351066,47.686886,-1.1005512,-2.045175,-3.2859802,-0.32280314,0.24283743,-0.11258014,28.0,29.125,28.25,32.1875,34.375,35.25
0.18605393,-0.9066101,-2.3449337,-1.3826501,-0.05426381,0.0416647,-0.17306435,-0.38920113,-0.34822878,0.06008292,3.0763514,-0.62733024,-0.00022141974,-0.086742476,0.0045965896,-0.0020502808,-0.018786363,-0.0010083363,-0.009396405,0.46882486,-1.4141,1.9437894,-2.1003263,-1.5692033,2.445592,-0.09715843,0.13395442,-0.15180105,0.010320274,0.017025882,-0.08767247,-0.038307227,0.57460845,-9.5385,0.87393653,47.683304,-1.0825222,-1.9199909,-3.286521,-0.32625365,0.25411588,-0.1313676,28.0,29.125,28.25,32.1875,34.375,35.25
0.18805362,-0.9300658,-2.692091,-1.5762908,-0.06670989,0.05742059,-0.1696174,-0.38940996,-0.3482593,0.060112678,3.0762196,-0.6273244,-0.00029627894,-0.0882487,0.0040779896,-0.001586654,-0.01950832,-0.00016088656,-0.014241463,0.46864456,-1.4138231,1.9434055,-2.1003377,-1.5691313,2.445425,-0.09770513,0.13601841,-0.1553614,0.010736548,0.01728606,-0.083370246,-0.17238252,0.61291564,-9.576807,0.83813137,47.640312,-1.12965,-1.8734453,-3.2787611,-0.35287046,0.2464265,-0.14361513,28.0,29.125,28.25,32.1875,34.375,35.25
0.19005339,-0.98575944,-2.1097972,-1.5207211,-0.087024,0.0716277,-0.17695005,-0.38957572,-0.3482298,0.060105614,3.076196,-0.6274179,-0.00024399953,-0.088930055,0.0042202817,-0.0016309884,-0.020096097,-0.00031547507,-0.01742013,0.46842808,-1.4135706,1.9431175,-2.1002786,-1.5691074,2.44527,-0.09889363,0.13684544,-0.15622318,0.010644489,0.017875329,-0.08138003,-0.22984336,0.5746084,-9.825804,0.91198283,47.689575,-1.2097046,-1.8729548,-3.3850453,-0.35500324,0.2652399,-0.1812306,28.0,29.125,28.25,32.1875,34.375,35.25
0.19205393,-2.0292344,-3.047664,-1.4751091,-0.077150404,0.05641291,-0.15915237,-0.3897688,-0.34821257,0.060097773,3.0761588,-0.6274897,-0.0002865049,-0.090186924,0.0039592185,-0.0010171678,-0.020638209,0.0009762398,-0.023206152,0.46822408,-1.4132819,1.9428056,-2.10029,-1.5691074,2.4451158,-0.09943521,0.1377979,-0.15880999,0.010877623,0.01776813,-0.076133706,-0.2681506,0.59376204,-9.730036,0.8179876,47.703903,-1.17091,-1.840636,-3.3295836,-0.36025918,0.26929325,-0.22418787,28.0,29.125,28.25,32.1875,34.375,35.25
0.19405359,-1.7739495,-2.6232014,-1.7679572,-0.070364006,0.067780346,-0.16198994,-0.3899508,-0.3482161,0.06010193,3.0760903,-0.6274965,-0.000324178,-0.09154287,0.0038209727,-0.0006974985,-0.022100395,0.0021261729,-0.026485663,0.46804354,-1.4130172,1.9424943,-2.100303,-1.5690712,2.4449484,-0.10085561,0.13877496,-0.16046713,0.0098720845,0.018551925,-0.07427248,-0.22984336,0.49799395,-9.730036,0.85826975,47.682407,-1.1396663,-1.8596638,-3.3254027,-0.36574548,0.28474444,-0.27050823,28.0,29.125,28.25,32.1875,34.375,35.25
0.19605345,-1.3423213,-2.2377522,-1.6708963,-0.05469594,0.07293479,-0.16293229,-0.3901323,-0.3482396,0.060102392,3.0760255,-0.62746114,-0.00027864316,-0.09288477,0.0034534547,-0.0021603545,-0.022656133,0.0007087163,-0.02366138,0.46787524,-1.412703,1.9421233,-2.1002672,-1.5689982,2.4447665,-0.10208588,0.14384332,-0.16256572,0.007927891,0.01968784,-0.078324564,-0.36391866,0.40222588,-9.653421,0.8537928,47.67614,-1.20736,-1.9403907,-3.3323886,-0.35521257,0.26675045,-0.26808012,28.0,29.125,28.25,32.1875,34.375,35.25
0.19805343,-1.5267525,-1.1703376,-1.5548146,-0.043398425,0.06641196,-0.17006037,-0.39030787,-0.34821925,0.06008029,3.075981,-0.62760866,-0.00021547126,-0.094645165,0.0030122076,-0.00040089592,-0.025451893,0.004776391,-0.027289607,0.46765885,-1.4124036,1.9418234,-2.1002438,-1.5689625,2.444648,-0.103242904,0.14229082,-0.16450962,0.0065337024,0.020339109,-0.07585297,-0.45968673,0.2873042,-9.691729,0.7665104,47.64837,-1.236238,-1.8915287,-3.3582454,-0.3378123,0.27480352,-0.2829141,28.0,29.125,28.25,32.1875,34.375,35.25
0.20005387,-1.5834324,-0.7023581,-1.527389,-0.011125624,0.06807044,-0.17051512,-0.39050153,-0.34822795,0.060081974,3.0758712,-0.6276817,-0.00021618778,-0.09480544,0.0031715112,-0.0018829454,-0.024713969,0.0021903673,-0.027712503,0.4674544,-1.4121138,1.9414886,-2.1002567,-1.5688905,2.4445033,-0.10393415,0.14566807,-0.16500783,0.0063040694,0.020852018,-0.07611939,-0.4405331,0.17238252,-9.672575,0.800085,47.65912,-1.1311809,-2.04862,-3.3528464,-0.32534075,0.27223325,-0.31334594,28.0,29.125,28.25,32.1875,34.375,35.25
0.20205349,-2.1513205,-0.5160414,-1.4843891,0.012054045,0.060121063,-0.16319863,-0.39068368,-0.34821108,0.06007566,3.075826,-0.6277297,-0.0001916206,-0.09564938,0.003564803,-0.0029491654,-0.024568079,0.00043033576,-0.028868163,0.46723795,-1.4118369,1.9411782,-2.1002324,-1.5688537,2.4443228,-0.10574834,0.14870639,-0.16603214,0.005933298,0.02151597,-0.07677674,-0.49799395,0.076614454,-9.691729,0.82694155,47.71286,-1.21993,-2.085977,-3.447907,-0.30942622,0.25337535,-0.32153082,28.0,29.125,28.25,32.1875,34.375,35.25
0.2040536,-1.819603,-0.24896681,-1.3346044,0.017378025,0.0768076,-0.16124326,-0.39088386,-0.34821153,0.060070157,3.0757275,-0.6278655,-0.00017618957,-0.09739159,0.0039796443,-0.002820059,-0.02532339,0.0009463635,-0.031883746,0.467021,-1.4115239,1.9408301,-2.1002324,-1.5687937,2.4442034,-0.108253345,0.15033011,-0.16817932,0.005662754,0.021957124,-0.07626414,-0.51714754,-0.11492168,-9.576807,0.8493211,47.698532,-0.969036,-2.1822593,-3.320948,-0.3009081,0.26360542,-0.34791008,28.0,29.125,28.25,32.1875,34.375,35.25
0.20605353,-2.3010263,-0.4095056,-1.238908,0.028940706,0.07077533,-0.16144565,-0.39108738,-0.3482206,0.0600831,3.0756373,-0.6279228,-0.00017691862,-0.09897995,0.0038128563,-0.002401043,-0.02612124,0.002143371,-0.032088,0.46681663,-1.4112233,1.9404458,-2.1001966,-1.568734,2.4440465,-0.10942347,0.15188713,-0.17091687,0.0054255975,0.022132128,-0.07722747,-0.40222588,-0.21068975,-9.500193,0.81351066,47.71465,-1.1439756,-2.0787945,-3.3148737,-0.30767,0.25146133,-0.36692363,28.0,29.125,28.25,32.1875,34.375,35.25
0.20805334,-2.175853,-0.18294148,-0.9558386,0.021086406,0.06817676,-0.1554322,-0.39129072,-0.34819326,0.060085397,3.075562,-0.6280044,-0.00019826,-0.099968195,0.00518959,-0.003047166,-0.025201147,0.00060876564,-0.03291741,0.46656352,-1.4109583,1.9401349,-2.1001966,-1.5686978,2.443854,-0.11258235,0.15340418,-0.17140786,0.0061974674,0.022012295,-0.07955572,-0.53630114,-0.17238252,-9.461885,0.84484416,47.703903,-0.9770992,-2.1105812,-3.4573765,-0.2906563,0.23982467,-0.3654076,28.0,29.125,28.25,32.1875,34.375,35.25
0.21005392,-1.8342729,-0.08069145,-1.0612532,0.021696338,0.06942778,-0.17181511,-0.3915271,-0.34822324,0.060116407,3.075406,-0.62800837,-0.00031666196,-0.10174338,0.0053494023,-0.0027891002,-0.025242597,0.0011618388,-0.031196633,0.4663591,-1.410657,1.9397277,-2.1002438,-1.5686258,2.4436724,-0.114244066,0.15559897,-0.1747092,0.0068092155,0.021815712,-0.08293326,-0.49799395,-0.19153614,-9.423578,0.8672237,47.703007,-0.9085394,-2.2986765,-3.5129342,-0.28527385,0.26240006,-0.36762607,28.0,29.125,28.25,32.1875,34.375,35.25
0.21205355,-1.3847404,-0.27226645,-0.736301,0.021196216,0.06427497,-0.16521831,-0.3917222,-0.34818986,0.060101815,3.0753522,-0.6281884,-0.00031888453,-0.102457255,0.0058542085,-0.0033113004,-0.024742668,0.00052553834,-0.028086526,0.46611854,-1.4103688,1.9394282,-2.1002438,-1.5686139,2.4435513,-0.11560347,0.15723455,-0.17542413,0.0066975886,0.021665433,-0.0874021,-0.53630114,-0.1340753,-9.270349,0.8247004,47.666286,-0.8348135,-2.0121453,-3.5599928,-0.27672032,0.27606657,-0.32694888,28.0,29.125,28.25,32.1875,34.375,35.25
0.21405424,-1.3249934,-0.27537125,-0.5282578,0.017576892,0.06966295,-0.16727467,-0.3919307,-0.34817874,0.060085926,3.0753186,-0.62821585,-0.0002835691,-0.10406425,0.0054645245,-0.001851697,-0.025667783,0.003560823,-0.0232792,0.4658904,-1.4100202,1.9390568,-2.10022,-1.5685786,2.4433448,-0.11593468,0.15699045,-0.17858985,0.007000686,0.02113434,-0.09253961,-0.59376204,-0.17238252,-9.232041,0.86498255,47.709274,-0.9507686,-2.031451,-3.4462924,-0.27533373,0.27723515,-0.28906855,28.0,29.125,28.25,32.1875,34.375,35.25
0.21605396,-1.4682314,-0.20853391,-0.5888536,0.015932392,0.0725454,-0.17576902,-0.3921446,-0.34817344,0.060112894,3.0752451,-0.62821615,-0.0003630229,-0.10561547,0.004826534,-0.0011436172,-0.026491407,0.0053195846,-0.01810193,0.46567458,-1.4097556,1.9386843,-2.1001961,-1.5685538,2.4431388,-0.116092905,0.15858164,-0.1820701,0.006966658,0.021094164,-0.097871594,-0.68953013,0.038307227,-9.097966,0.8672237,47.72002,-1.047569,-2.0304232,-3.3033304,-0.2665399,0.27632987,-0.22718152,28.0,29.125,28.25,32.1875,34.375,35.25
0.21805394,-1.9136801,-0.87125176,-0.7415846,0.019442858,0.07433503,-0.16329217,-0.3923184,-0.34815618,0.06006999,3.0752382,-0.6282521,-0.00023919131,-0.105698235,0.0044848495,-0.00096873194,-0.026658237,0.004457923,-0.014299862,0.46545854,-1.4094069,1.9383739,-2.1001718,-1.5685056,2.4429462,-0.11584491,0.15933706,-0.18377224,0.0086234715,0.021634223,-0.101426266,-0.40222588,0.13407528,-9.059659,0.91421866,47.658226,-0.9526119,-1.9598808,-3.3028755,-0.2792725,0.27955472,-0.16371813,28.0,29.125,28.25,32.1875,34.375,35.25
0.22005387,-1.8360506,-1.1389236,-0.81447893,-0.0025800888,0.076368496,-0.16183774,-0.39255962,-0.34815723,0.060098704,3.0751586,-0.62825304,-0.00033284264,-0.10635782,0.0047207284,-0.0003589123,-0.027024334,0.0050304625,-0.012450677,0.46523046,-1.4090949,1.9379424,-2.100147,-1.5684818,2.4427292,-0.11681868,0.15895362,-0.18497401,0.0095460005,0.021722844,-0.10424693,-0.5554548,0.26815057,-9.097966,0.8851263,47.64837,-1.1659474,-1.8803072,-3.336833,-0.2735697,0.3028727,-0.12066412,28.0,29.125,28.25,32.1875,34.375,35.25
0.22205353,-2.2531798,-1.9298224,-1.0894184,-0.02720692,0.06616755,-0.15870902,-0.392772,-0.34812284,0.06007755,3.0751376,-0.628306,-0.0002929837,-0.10724271,0.0049234396,-0.00028400906,-0.026212636,0.005178105,-0.012602584,0.46496615,-1.4087578,1.9375957,-2.1001232,-1.5684584,2.4425008,-0.11737671,0.16036381,-0.18702962,0.010435467,0.020932382,-0.10465284,-0.5363012,0.30645782,-9.2703495,0.80456203,47.68599,-0.9952482,-1.8338296,-3.3048573,-0.28934544,0.3031283,-0.059090834,28.0,29.125,28.25,32.1875,34.375,35.25
0.2240541,-1.914028,-2.2710922,-1.0391779,-0.05002018,0.05703189,-0.15454157,-0.39299068,-0.34810305,0.060090363,3.0750806,-0.62829566,-0.00031464774,-0.108210005,0.005093299,-0.00054748595,-0.026055094,0.0044588437,-0.015563045,0.46471354,-1.4084688,1.9372243,-2.100087,-1.5684217,2.4422493,-0.11857086,0.16249035,-0.18907496,0.011072503,0.021116337,-0.10288439,-0.40222588,0.34476504,-9.289502,0.84708,47.664497,-1.1100968,-1.9456242,-3.2693963,-0.27847874,0.32673118,-0.078864776,28.0,29.125,28.25,32.1875,34.375,35.25
0.22605398,-1.7576108,-2.4172018,-1.1822964,-0.070250794,0.047382284,-0.15692906,-0.3932004,-0.34808782,0.060082503,3.075036,-0.6284235,-0.000289016,-0.10962541,0.0048975516,-0.00078687427,-0.026565738,0.0043277475,-0.019683706,0.4644853,-1.4081315,1.9368414,-2.1000392,-1.5683979,2.4421067,-0.11972932,0.1653395,-0.19182652,0.010862246,0.021622559,-0.09992031,-0.4405331,0.4405331,-9.346964,0.87617236,47.686886,-1.0155196,-1.9864174,-3.2438734,-0.28670815,0.31068614,-0.079101995,28.0,29.125,28.25,32.1875,34.375,35.25
0.22805376,-1.43933,-2.8702807,-1.4431525,-0.055423778,0.042410556,-0.15220562,-0.39342347,-0.34808975,0.06007503,3.0749483,-0.6284264,-0.00027610897,-0.11097874,0.0050039347,0.00010523821,-0.02803848,0.006138074,-0.024541836,0.4642448,-1.4077834,1.9364585,-2.1000507,-1.5683259,2.4418795,-0.12135171,0.16494714,-0.19338235,0.010535471,0.022126457,-0.09668271,-0.36391866,0.5554548,-9.3661175,0.8784135,47.690468,-0.9962189,-1.8697693,-3.372539,-0.29140884,0.33017126,-0.115608156,28.0,29.125,28.25,32.1875,34.375,35.25
0.23005377,-0.6918518,-2.2825463,-1.2201841,-0.04745226,0.045655336,-0.16709514,-0.3936656,-0.34808838,0.060096662,3.0748513,-0.628504,-0.00034180714,-0.11085512,0.0053152777,-0.00069978094,-0.027801434,0.004447604,-0.028565027,0.46400458,-1.4074588,1.9360284,-2.1000268,-1.5682896,2.4417005,-0.12205194,0.16616504,-0.19301133,0.0105634695,0.022677,-0.0933577,-0.1340753,0.5554548,-9.3661175,0.8537928,47.698532,-1.0263617,-1.8152866,-3.3621912,-0.2748162,0.34309155,-0.1509523,28.0,29.125,28.25,32.1875,34.375,35.25
0.23205334,-0.86951953,-2.2265372,-0.97524947,-0.027795244,0.033928733,-0.15845709,-0.39388195,-0.34806013,0.06005548,3.0748222,-0.62865406,-0.00024566296,-0.11261816,0.0049274415,-0.00021283593,-0.0292362,0.006064895,-0.03312371,0.46374014,-1.407062,1.9356579,-2.1000035,-1.5682534,2.4415336,-0.12319272,0.16781545,-0.19589785,0.009710656,0.023221163,-0.08993898,-0.05746084,0.4405331,-9.270349,0.81351066,47.682407,-1.0755403,-1.7834928,-3.3198364,-0.26094377,0.33565336,-0.20123282,28.0,29.125,28.25,32.1875,34.375,35.25
0.23405397,-0.37128893,-1.5867916,-1.0375526,-0.013445337,0.029113147,-0.15561856,-0.39414355,-0.34805948,0.060066555,3.0746868,-0.62876093,-0.00034319167,-0.11262902,0.0038919756,-0.00068838755,-0.030171368,0.005809984,-0.03410714,0.46347645,-1.4067129,1.9352397,-2.1000516,-1.5682048,2.4413543,-0.121894956,0.16973133,-0.19681124,0.008519668,0.024177263,-0.08765361,-0.05746084,0.3256114,-9.232041,0.8537928,47.66808,-1.0969417,-1.834674,-3.3864932,-0.24265097,0.3361345,-0.24155639,28.0,29.125,28.25,32.1875,34.375,35.25
0.23605381,-0.10370358,-1.0155225,-1.2347052,-0.010793319,0.021373026,-0.16836351,-0.39435878,-0.3480439,0.0600624,3.0746136,-0.6289025,-0.0003369699,-0.1142906,0.0040304596,-0.0005338367,-0.031760797,0.0061988053,-0.038567893,0.46323565,-1.4063882,1.9348677,-2.1000278,-1.5681685,2.4412115,-0.12431604,0.17132029,-0.19893146,0.007992349,0.025421605,-0.08561125,0.038307227,0.3256114,-9.251195,0.842603,47.675243,-0.96481216,-1.9718885,-3.3295488,-0.23928425,0.3382339,-0.2865074,28.0,29.125,28.25,32.1875,34.375,35.25
0.23805375,-0.012566693,-1.1410204,-1.1236876,-0.016793346,0.016523222,-0.17277302,-0.39458004,-0.34804228,0.06005441,3.0745459,-0.62894434,-0.00023747994,-0.115176916,0.00404033,-0.0011800705,-0.032242782,0.0049722376,-0.038259555,0.4629835,-1.4060146,1.9344372,-2.0999563,-1.5680841,2.4409943,-0.12565356,0.17398334,-0.20057273,0.007867126,0.026404107,-0.08725573,0.15322891,0.19153613,-9.251195,0.86945957,47.651955,-1.1849182,-1.9993367,-3.4172568,-0.225812,0.31178325,-0.30412665,28.0,29.125,28.25,32.1875,34.375,35.25
0.24005333,-0.36939812,-1.7449716,-1.2092166,-0.013180135,0.0025524807,-0.16000648,-0.39481324,-0.3480343,0.060034268,3.0744925,-0.62905014,-0.00026693055,-0.115826204,0.0036514516,-0.0017356832,-0.031911638,0.004254675,-0.041124888,0.46275562,-1.4056294,1.9340423,-2.09998,-1.5680717,2.4408395,-0.1254694,0.17683984,-0.2026918,0.007918884,0.026424002,-0.08420406,0.13407528,0.24899697,-9.232041,0.86498255,47.658226,-1.0809424,-2.049317,-3.3463755,-0.20868674,0.33529338,-0.35488284,28.0,29.125,28.25,32.1875,34.375,35.25
0.24205396,-0.28807297,-1.509553,-1.3571194,-0.013075737,-0.004703191,-0.15855873,-0.39508423,-0.34801397,0.060057994,3.0743372,-0.6292492,-0.0003392444,-0.11688927,0.0041244524,-0.0020133702,-0.031478558,0.003305591,-0.042458355,0.462443,-1.4053044,1.9336118,-2.0999796,-1.5680121,2.4406714,-0.12715888,0.17892967,-0.20477168,0.008965728,0.026473017,-0.0845563,0.1340753,0.24899697,-9.404425,0.82694155,47.679718,-1.1186323,-2.047276,-3.3321493,-0.2050991,0.3446703,-0.41272593,28.0,29.125,28.25,32.1875,34.375,35.25
0.24405354,-0.11691753,-1.4876006,-1.1878216,-0.021334134,0.0023131724,-0.16092159,-0.39529422,-0.34801093,0.06003875,3.074291,-0.62935567,-0.0002335637,-0.1173622,0.004879759,-0.0030207662,-0.030162219,0.0007001554,-0.044564255,0.4622143,-1.4049193,1.9331926,-2.0999072,-1.567952,2.4405153,-0.12880735,0.1815984,-0.20596959,0.010424014,0.026456947,-0.08409932,0.1340753,0.28730422,-9.308657,0.8493211,47.661808,-1.012608,-2.2243028,-3.3607626,-0.21862191,0.3480683,-0.4427681,28.0,29.125,28.25,32.1875,34.375,35.25
0.24605365,-0.68337935,-1.7005082,-1.1950935,-0.008491313,-0.0001838835,-0.15488075,-0.3955274,-0.34801695,0.060026705,3.0741956,-0.6294316,-0.00020605944,-0.119093284,0.004529092,-0.0018882543,-0.032345254,0.002673225,-0.04403193,0.4619737,-1.4045347,1.9327744,-2.0999076,-1.56788,2.4403346,-0.1303073,0.18185848,-0.20889989,0.01036919,0.027536178,-0.086128555,0.076614454,0.2681506,-9.346964,0.87393653,47.695843,-0.96229637,-2.0808842,-3.467205,-0.22438219,0.324229,-0.46576384,28.0,29.125,28.25,32.1875,34.375,35.25
0.24805367,-0.6036569,-1.2294735,-1.2403786,-0.016072866,0.011856499,-0.16071337,-0.3957498,-0.34800443,0.060029138,3.074089,-0.6295219,-0.00019251787,-0.11942654,0.0041499017,-0.0024029256,-0.033484846,0.0009953227,-0.040189356,0.4617096,-1.404221,1.9324025,-2.0998952,-1.5678071,2.4401407,-0.13097711,0.18392843,-0.21024294,0.010656826,0.029320754,-0.09063732,-0.019153614,0.24899697,-9.423578,0.86945957,47.705692,-0.99098027,-2.3186028,-3.5006135,-0.20710222,0.32472396,-0.47071248,28.0,29.125,28.25,32.1875,34.375,35.25
0.2500533,-0.9662605,-1.2458022,-1.1721255,-0.015516811,0.020778848,-0.16333614,-0.39599606,-0.34798032,0.060005996,3.0740268,-0.62968063,-0.00012785952,-0.12111202,0.005507257,-0.0032082547,-0.03368764,-0.0005501085,-0.038962316,0.46142015,-1.4038123,1.9319729,-2.0998595,-1.5677589,2.4399586,-0.13529728,0.1864133,-0.21134731,0.0105956495,0.030204145,-0.09618349,-0.05746084,0.30645782,-9.385271,0.779936,47.677036,-0.9224906,-2.2593417,-3.4039564,-0.20451868,0.30510333,-0.43593085,28.0,29.125,28.25,32.1875,34.375,35.25
0.25205395,-1.189034,-1.5326726,-1.3424319,-0.017633172,0.039931946,-0.16705096,-0.3962209,-0.3479876,0.060014896,3.0739262,-0.6296929,-0.00010348812,-0.12000341,0.0037737715,-0.0031464896,-0.035364855,-0.0012520499,-0.029286148,0.46118143,-1.4034759,1.9315542,-2.0998237,-1.567674,2.4397407,-0.13235848,0.18667555,-0.21188858,0.010785753,0.032041892,-0.102917664,-0.11492168,0.24899697,-9.385271,0.83813137,47.699425,-1.0361291,-2.2144306,-3.4783092,-0.20136467,0.2768832,-0.3873432,28.0,29.125,28.25,32.1875,34.375,35.25
0.2540537,-1.7922078,-1.6836168,-1.2881615,-0.016988743,0.046797343,-0.15885077,-0.39644325,-0.34799355,0.05999034,3.0738366,-0.6297106,3.726526e-06,-0.12121087,0.0043496387,-0.0033297143,-0.0365098,-0.0028593543,-0.025828233,0.46092787,-1.4030792,1.931147,-2.0998108,-1.5675658,2.4395099,-0.13544883,0.18834879,-0.2137392,0.011926639,0.033800043,-0.109463654,-0.3256114,0.22984336,-9.423578,0.81351066,47.68599,-0.7731712,-2.2221186,-3.4523697,-0.2008729,0.2656917,-0.32460588,28.0,29.125,28.25,32.1875,34.375,35.25
0.25605354,-1.7948558,-1.4230602,-1.3265926,-0.022763118,0.07285095,-0.16669023,-0.3966859,-0.34796205,0.059977602,3.073824,-0.62976164,3.153057e-05,-0.122305684,0.0039364914,-0.0021294157,-0.03722642,-0.0005417846,-0.020025378,0.46065196,-1.4026948,1.9307159,-2.0997508,-1.5675534,2.4392676,-0.13534185,0.18803075,-0.21628614,0.012426907,0.033423267,-0.11515952,-0.4213795,0.22984336,-9.461885,0.84484416,47.716442,-0.99851936,-2.1704776,-3.42482,-0.20802961,0.22727278,-0.2482008,28.0,29.125,28.25,32.1875,34.375,35.25
0.25805423,-2.1372688,-1.1770889,-1.5731232,-0.020582264,0.08178422,-0.16327468,-0.39692318,-0.34796733,0.059968796,3.0737357,-0.6297608,7.081457e-05,-0.123806626,0.0035530422,-0.0014905279,-0.03770301,0.0012789065,-0.01726485,0.4604003,-1.4023098,1.9302863,-2.0997393,-1.56747,2.439027,-0.13564524,0.18937412,-0.21934575,0.012329557,0.03304964,-0.118221305,-0.45968673,0.17238252,-9.442732,0.81351066,47.681515,-1.0690604,-2.24252,-3.437539,-0.20271143,0.21528858,-0.19946283,28.0,29.125,28.25,32.1875,34.375,35.25
0.26005387,-2.3532202,-0.8978402,-1.4512098,-0.014543932,0.09099859,-0.15468483,-0.39716634,-0.34798673,0.059962917,3.0736291,-0.6297946,0.00012130797,-0.12446506,0.002828354,-0.0014744863,-0.03887674,0.0010914933,-0.013840417,0.46016026,-1.4019005,1.929819,-2.0997155,-1.5673736,2.438822,-0.13557738,0.19116434,-0.22155032,0.012416853,0.034196448,-0.12157458,-0.6703765,0.19153613,-9.519346,0.84708,47.688675,-1.0600688,-2.1633377,-3.369458,-0.22282133,0.19976184,-0.13356861,28.0,29.125,28.25,32.1875,34.375,35.25
0.26205358,-2.2029119,-1.2431594,-1.4570415,-0.013730444,0.10118841,-0.1656381,-0.397414,-0.3479718,0.05994755,3.0735579,-0.6298221,0.0001773404,-0.1254252,0.0030470206,-0.0012766148,-0.040510457,0.0011562502,-0.019993478,0.45987147,-1.4015045,1.9293884,-2.0996916,-1.5673012,2.4385598,-0.13759688,0.19153403,-0.22243571,0.012149157,0.035625428,-0.117438875,-0.7661445,0.19153613,-9.595961,0.83589023,47.70032,-1.0914912,-2.0468836,-3.4733205,-0.19647253,0.17240581,-0.15094592,28.0,29.125,28.25,32.1875,34.375,35.25
0.26405352,-1.9253576,-1.4877187,-1.450772,-0.023271834,0.10976188,-0.16333888,-0.39766705,-0.34796205,0.05994935,3.0734603,-0.62991685,0.00017764053,-0.12620126,0.0034096693,-0.0016842136,-0.040008385,0.00040448923,-0.022451166,0.45959517,-1.4011316,1.9289454,-2.0996678,-1.5672411,2.4383554,-0.13872986,0.19340658,-0.2238547,0.0126049705,0.035514172,-0.116111964,-0.7661445,0.15322891,-9.500193,0.86498255,47.677036,-1.0538437,-2.0880563,-3.483431,-0.19756885,0.14996976,-0.13873598,28.0,29.125,28.25,32.1875,34.375,35.25
0.26605344,-2.3381135,-1.1001806,-1.5412692,-0.019348364,0.08444432,-0.15624048,-0.3979393,-0.34794223,0.059960242,3.07336,-0.6299941,0.00016328866,-0.12747507,0.0034851215,-0.0008998667,-0.03998674,0.0026597045,-0.030086042,0.45928505,-1.4007589,1.9284791,-2.0996315,-1.5671815,2.4381068,-0.13919874,0.19352795,-0.22580642,0.012420311,0.0344841,-0.1089443,-0.7469909,0.038307227,-9.615114,0.85155696,47.70211,-1.0915997,-2.0241656,-3.432655,-0.1596337,0.122482575,-0.23186812,28.0,29.125,28.25,32.1875,34.375,35.25
0.2680534,-1.9609039,-0.8339351,-1.5455719,-0.011885312,0.08414956,-0.15933959,-0.39819694,-0.3479242,0.059941184,3.07327,-0.6301534,0.00023603838,-0.1288948,0.0033342692,-0.0006644855,-0.04060179,0.0038260901,-0.03413529,0.4589828,-1.4003379,1.9280246,-2.0995953,-1.567109,2.4379158,-0.14007193,0.19512849,-0.22814965,0.011851934,0.03450986,-0.10576711,-0.7086837,0.0,-9.615114,0.9164598,47.67614,-0.9470083,-2.0459511,-3.439674,-0.17654078,0.1147822,-0.26277876,28.0,29.125,28.25,32.1875,34.375,35.25
0.27005422,-1.958036,-0.45849577,-1.4090917,-0.0022442858,0.07764862,-0.1596557,-0.3984748,-0.34790778,0.059930105,3.0731635,-0.63026756,0.00019458457,-0.13088639,0.004126799,-0.0011520622,-0.04052669,0.0035946453,-0.037853777,0.45868173,-1.3999279,1.9275812,-2.099632,-1.5670613,2.4377,-0.14309707,0.19812189,-0.2305107,0.011473272,0.034550954,-0.10506993,-0.6512228,0.038307227,-9.519346,0.91198283,47.65912,-1.0628519,-2.2794883,-3.5107374,-0.16469842,0.10333246,-0.2968607,28.0,29.125,28.25,32.1875,34.375,35.25
0.27205473,-2.1847079,-0.58987266,-1.6180896,0.013837169,0.076782145,-0.1649284,-0.3987295,-0.34791192,0.059926506,3.0730262,-0.6304108,0.00022844179,-0.13198936,0.002673665,-0.00019275676,-0.041856453,0.005839329,-0.036589313,0.45840624,-1.3995318,1.9271258,-2.09962,-1.566965,2.437532,-0.14152472,0.19942665,-0.23424876,0.011323077,0.034751542,-0.10475848,-0.40222588,0.095768064,-9.634268,0.8717007,47.681515,-1.0915375,-2.1766574,-3.623228,-0.15600619,0.08354149,-0.3138677,28.0,29.125,28.25,32.1875,34.375,35.25
0.2740533,-1.6785152,-0.74694264,-1.4587677,0.002110369,0.089218944,-0.15760322,-0.39900133,-0.34787953,0.059927322,3.072989,-0.63048106,0.00021275372,-0.13285746,0.0028322008,-0.00011300961,-0.041435987,0.0062321867,-0.038181327,0.45810598,-1.3991352,1.9266485,-2.09956,-1.5669535,2.4372807,-0.14208905,0.20061643,-0.2359785,0.011706598,0.03420428,-0.10373005,-0.36391866,0.095768064,-9.5385,0.9410752,47.65912,-1.0857928,-2.0485425,-3.5447717,-0.13307633,0.06700269,-0.34547424,28.0,29.125,28.25,32.1875,34.375,35.25
0.27605408,-1.9662421,-0.9940782,-1.3954599,-0.0032509458,0.07131375,-0.15832373,-0.3992707,-0.34788182,0.05991269,3.0728624,-0.63060623,0.00028995652,-0.13383742,0.0031840722,-0.00053897785,-0.040707015,0.0053769876,-0.040286314,0.4578077,-1.39869,1.9261578,-2.0995357,-1.5668458,2.437077,-0.14325911,0.20301552,-0.23806933,0.012506619,0.033932336,-0.1027938,-0.28730422,0.15322891,-9.423578,0.8314132,47.661808,-1.0632268,-2.208252,-3.506678,-0.13426843,0.047196254,-0.37325126,28.0,29.125,28.25,32.1875,34.375,35.25
0.27805418,-1.3916215,-1.2155428,-1.5800705,-0.0048698983,0.057316117,-0.15665606,-0.3995279,-0.3478678,0.05991756,3.0727828,-0.6306675,0.00027961208,-0.13405046,0.003259731,-0.0015695419,-0.038258053,0.0037073707,-0.035649702,0.45752975,-1.3983165,1.9257034,-2.0994995,-1.5667981,2.436848,-0.14255102,0.20637493,-0.23997883,0.013671329,0.03249311,-0.106721744,-0.17238252,0.22984336,-9.423578,0.9567419,47.682407,-1.1083776,-2.1393914,-3.4902697,-0.13574001,0.0678666,-0.361215,28.0,29.125,28.25,32.1875,34.375,35.25
0.28005335,-0.93775284,-1.369811,-1.6503937,-0.014475382,0.045538712,-0.1569478,-0.39980635,-0.34786665,0.059922736,3.0726507,-0.63081294,0.00026102836,-0.13632078,0.004144153,-0.0014937918,-0.03716832,0.005355223,-0.036149092,0.4572411,-1.3979074,1.9252123,-2.0994875,-1.5667266,2.4366674,-0.14486685,0.20860963,-0.24273549,0.013226315,0.030799214,-0.10853689,-0.15322891,0.17238252,-9.500193,0.88289046,47.67614,-1.0284046,-2.2399597,-3.5146642,-0.12413444,0.06107144,-0.36121777,28.0,29.125,28.25,32.1875,34.375,35.25
0.2820541,-0.52293396,-1.1733555,-1.3715318,-0.027797505,0.03774391,-0.16802499,-0.40011558,-0.34785113,0.059943393,3.0725474,-0.6308974,0.00015164986,-0.13807335,0.0039335894,-0.00045786644,-0.037298895,0.008134164,-0.02823317,0.4569314,-1.3974985,1.9246858,-2.0994756,-1.5667032,2.4364243,-0.14519861,0.20938532,-0.24609564,0.0133081665,0.029725527,-0.11678167,-0.05746084,0.2681506,-9.461885,0.87393653,47.677036,-1.25512,-2.2952104,-3.4500113,-0.110654354,0.067857996,-0.30949458,28.0,29.125,28.25,32.1875,34.375,35.25
0.28405413,-0.6465831,-1.398015,-1.4883076,-0.031202786,0.02653995,-0.16637395,-0.40035805,-0.34781173,0.059888866,3.0725195,-0.6310061,0.00032598374,-0.13913016,0.0043144627,-0.00068099913,-0.03701333,0.007930004,-0.025333596,0.45660686,-1.3970417,1.9242662,-2.0994275,-1.5666307,2.4361713,-0.14655593,0.21115838,-0.24781522,0.013599865,0.02956602,-0.121040605,0.0,0.24899697,-9.481039,0.9321212,47.709274,-1.0672865,-2.281294,-3.4861293,-0.115787186,0.072375484,-0.23895729,28.0,29.125,28.25,32.1875,34.375,35.25
0.28605413,-0.44189823,-1.4276634,-1.2896415,-0.04478757,0.033334345,-0.1661269,-0.40063602,-0.34783033,0.059893113,3.0724,-0.6310554,0.00029358748,-0.1410305,0.0047878553,0.0006168197,-0.03790225,0.010138596,-0.020934781,0.45635384,-1.3966093,1.9237522,-2.099427,-1.5665592,2.4359648,-0.14880718,0.21076237,-0.25057825,0.01442876,0.029421877,-0.12768781,-0.019153614,0.34476507,-9.461885,0.9254084,47.72092,-1.0899022,-2.2180593,-3.404797,-0.110999465,0.07200935,-0.18745136,28.0,29.125,28.25,32.1875,34.375,35.25
0.28805384,-0.5824139,-1.5106162,-1.3978125,-0.04960686,0.033948224,-0.16716854,-0.4009318,-0.3478035,0.059906848,3.0723073,-0.6311503,0.00024003824,-0.14300883,0.0059472234,0.0007278453,-0.03736392,0.010449627,-0.020091334,0.45602903,-1.3962125,1.9232496,-2.0993912,-1.5665234,2.4357116,-0.15202367,0.21242906,-0.25303194,0.015206866,0.02882754,-0.13174568,-0.038307227,0.38307226,-9.481039,0.8851263,47.666286,-0.94129705,-2.2057254,-3.321557,-0.09910479,0.07055172,-0.08619064,28.0,29.125,28.25,32.1875,34.375,35.25
0.29005337,-0.34393978,-1.8079137,-1.3569629,-0.03990254,0.047246072,-0.15859903,-0.4012075,-0.3477846,0.059898723,3.072254,-0.63112086,0.00024283987,-0.14404005,0.006365282,0.0006065397,-0.03635761,0.010460521,-0.020843193,0.45572838,-1.3957912,1.9227709,-2.099367,-1.5664762,2.4353998,-0.15294334,0.2141851,-0.25505683,0.015927855,0.027928986,-0.13191316,0.0,0.45968673,-9.500193,0.8940802,47.675243,-0.9037908,-2.1635227,-3.2190108,-0.11055017,0.08431107,-0.06673947,28.0,29.125,28.25,32.1875,34.375,35.25
0.29205403,-1.1956643,-1.6414247,-1.5862035,-0.048608426,0.034245037,-0.14761965,-0.40149558,-0.3477813,0.05989832,3.072143,-0.6312335,0.00025519438,-0.14494057,0.006038694,0.0020941766,-0.037514865,0.013398412,-0.023392135,0.45542857,-1.3953475,1.9222454,-2.0993307,-1.5664037,2.435185,-0.15285037,0.21260099,-0.25669637,0.016011791,0.02767803,-0.12927018,-0.076614454,0.49799395,-9.481039,0.85155696,47.71286,-0.88666564,-2.0803072,-3.325201,-0.10290732,0.0947362,-0.058075286,28.0,29.125,28.25,32.1875,34.375,35.25
0.29405412,-0.997949,-1.6865308,-1.4532453,-0.053341243,0.044232495,-0.16086721,-0.4017973,-0.3477662,0.059899773,3.0720599,-0.63129526,0.000269442,-0.14503266,0.006024342,0.0024035939,-0.037555367,0.013670695,-0.028202891,0.45510453,-1.3948913,1.9216956,-2.099271,-1.5663437,2.4349105,-0.15270473,0.21230483,-0.2572841,0.016629063,0.027592918,-0.12431307,-0.076614454,0.51714754,-9.461885,0.85826975,47.668976,-0.93292165,-1.9446075,-3.4169278,-0.09746513,0.10009159,-0.115049794,28.0,29.125,28.25,32.1875,34.375,35.25
0.29605338,-1.363819,-1.8044317,-1.401491,-0.050813302,0.051263195,-0.15126705,-0.40208775,-0.3477462,0.05990405,3.0719528,-0.63141423,0.00022804075,-0.14503433,0.006936279,0.0017843021,-0.03702971,0.012230808,-0.033409562,0.4547898,-1.3944827,1.9212059,-2.0992591,-1.566296,2.4346843,-0.15426347,0.21265364,-0.25643614,0.016954904,0.027761728,-0.1206635,-0.17238252,0.30645782,-9.481039,0.9388393,47.670765,-0.94031596,-1.9113634,-3.5972638,-0.078799546,0.089133576,-0.14516291,28.0,29.125,28.25,32.1875,34.375,35.25
0.29805425,-0.72966564,-1.083019,-1.5401881,-0.040443555,0.0610211,-0.16437681,-0.4023902,-0.3477351,0.059922744,3.0718327,-0.6315231,0.00015775152,-0.14549822,0.007138966,0.00080991414,-0.03542705,0.010558368,-0.03984883,0.45448032,-1.3940727,1.9206785,-2.0992348,-1.5662478,2.4344587,-0.15442628,0.2158179,-0.25817773,0.01772782,0.027052872,-0.114384785,0.076614454,0.22984336,-9.519346,0.9567419,47.711063,-1.1330851,-2.0807698,-3.5420675,-0.07968703,0.11135937,-0.21148308,28.0,29.125,28.25,32.1875,34.375,35.25
0.30005398,-0.7775993,-0.7533764,-1.3810009,-0.021874709,0.04404236,-0.16144432,-0.4026766,-0.3477214,0.059908442,3.0717664,-0.631624,0.00019080497,-0.14763941,0.00680183,0.0019557138,-0.036334895,0.013130252,-0.04117552,0.45418024,-1.393604,1.9201521,-2.0991867,-1.5661997,2.4342306,-0.15533844,0.21704909,-0.26238123,0.018003738,0.026739,-0.11396885,0.05746084,0.19153613,-9.634268,0.9365982,47.693153,-1.0676302,-2.0403109,-3.6106334,-0.09241785,0.120581016,-0.2502784,28.0,29.125,28.25,32.1875,34.375,35.25
0.30205366,-0.44766858,-0.6145955,-1.2691462,-0.009183329,0.043062977,-0.15016879,-0.40296564,-0.34772548,0.059908595,3.0716262,-0.63175267,0.00021110923,-0.14870016,0.007489415,0.0008764599,-0.035941143,0.01168097,-0.04782268,0.45387924,-1.3931589,1.9196256,-2.0991623,-1.5661038,2.4340284,-0.15747923,0.2200418,-0.26340127,0.017503753,0.027016787,-0.109459676,-0.076614454,0.15322891,-9.461885,0.8985519,47.694946,-0.90284145,-1.9837924,-3.5277808,-0.07190545,0.12838903,-0.31679204,28.0,29.125,28.25,32.1875,34.375,35.25
0.30405337,-0.19997409,0.12662646,-1.4654591,0.0017333021,0.032774337,-0.16704783,-0.4032833,-0.34771094,0.059927966,3.0715184,-0.6318277,8.883332e-05,-0.15009777,0.0075323526,0.00032208857,-0.035355814,0.011009828,-0.051112898,0.45356688,-1.3927373,1.9190882,-2.0991623,-1.56608,2.4337773,-0.15845816,0.22364236,-0.2665286,0.01789167,0.026791593,-0.10714408,-0.05746084,0.22984336,-9.442732,0.86498255,47.694946,-0.9174013,-2.1531186,-3.4581451,-0.06685595,0.13513261,-0.3578261,28.0,29.125,28.25,32.1875,34.375,35.25
0.30605417,-0.28741038,-0.22303909,-1.7005632,0.013707121,0.027150003,-0.155237,-0.4035786,-0.34767565,0.059899412,3.0714488,-0.6321027,0.0001551001,-0.15082234,0.008985087,-0.00092202984,-0.03403065,0.008293512,-0.055371884,0.4532302,-1.3922437,1.9185618,-2.0991027,-1.5660442,2.4336216,-0.16146116,0.22610697,-0.26690677,0.018834734,0.026792262,-0.10588863,-0.15322891,0.15322891,-9.576807,0.86945957,47.69763,-0.8719795,-2.2222295,-3.4527118,-0.04732389,0.15738554,-0.4394871,28.0,29.125,28.25,32.1875,34.375,35.25
0.3080536,-1.1463227,-0.96072656,-1.4428893,-0.027906023,0.040791728,-0.1499273,-0.4038663,-0.34767112,0.059910122,3.0713422,-0.63215494,0.00015038744,-0.15192081,0.0068500508,0.00090346165,-0.03557739,0.011392392,-0.050904837,0.45293093,-1.3918232,1.918034,-2.099054,-1.5659717,2.4333692,-0.15856399,0.22685862,-0.27229708,0.020033184,0.02683634,-0.10745486,-0.19153613,0.19153613,-9.634268,0.8940802,47.681515,-0.98618454,-2.1770725,-3.4146638,-0.055812303,0.1530864,-0.45308837,28.0,29.125,28.25,32.1875,34.375,35.25
0.31005335,-1.2777935,-1.2658805,-1.3307022,-0.046465002,0.0701632,-0.15633865,-0.40418848,-0.34766,0.059933268,3.0712252,-0.63228136,9.183117e-05,-0.1539635,0.0065818965,0.002500017,-0.036771044,0.014092703,-0.046846345,0.45260656,-1.3913785,1.917447,-2.0989945,-1.565924,2.4331393,-0.15963058,0.22711214,-0.27656642,0.021137223,0.026757771,-0.112576544,-0.17238252,0.19153613,-9.423578,0.9254084,47.660015,-0.9374707,-2.3037758,-3.261331,-0.075636,0.16170958,-0.47046632,28.0,29.125,28.25,32.1875,34.375,35.25
0.3120539,-1.6867009,-1.0931138,-1.6690208,-0.030457024,0.06783857,-0.16499758,-0.40446976,-0.3476491,0.059917834,3.0711534,-0.6323766,0.00020470234,-0.15432319,0.006529791,0.0022435586,-0.037124645,0.013011512,-0.038866173,0.45229462,-1.3908981,1.9168972,-2.0988982,-1.5658396,2.4328964,-0.16022034,0.22851981,-0.27791995,0.021957502,0.027583623,-0.12114521,-0.30645782,0.2681506,-9.653421,0.81351066,47.684196,-1.0416646,-2.1429446,-3.2482285,-0.08045697,0.19484234,-0.40867484,28.0,29.125,28.25,32.1875,34.375,35.25
0.31405362,-1.7380171,-1.1309059,-1.4644471,-0.039666887,0.08949951,-0.15771678,-0.4047856,-0.34765273,0.059931677,3.0710218,-0.63242173,0.00011429241,-0.1550089,0.006379367,0.0020947023,-0.03701436,0.013888699,-0.03198617,0.45199448,-1.390453,1.9163469,-2.0989106,-1.56578,2.432642,-0.16011138,0.22982825,-0.27899694,0.021035606,0.027144223,-0.12791367,-0.2681506,0.28730422,-9.5385,0.8672237,47.67614,-1.0712171,-2.1555634,-3.262813,-0.074389085,0.17634507,-0.32675064,28.0,29.125,28.25,32.1875,34.375,35.25
0.31605425,-2.1014116,-1.5642998,-1.7431232,-0.019489426,0.08760043,-0.1510603,-0.40510678,-0.34761536,0.059924517,3.0709772,-0.6325442,7.439133e-05,-0.15414488,0.0073684896,-3.2733595e-05,-0.034164824,0.011240566,-0.022566015,0.45165652,-1.3899711,1.9157871,-2.098863,-1.5657805,2.4323866,-0.16008832,0.23201802,-0.27664274,0.020178284,0.025787655,-0.137314,-0.4213795,0.3256114,-9.5385,0.8291774,47.716442,-1.1849549,-2.119729,-3.4264731,-0.06687379,0.2112288,-0.22827485,28.0,29.125,28.25,32.1875,34.375,35.25
0.318054,-1.579074,-1.1461401,-1.6032895,-0.027876101,0.091332264,-0.15113452,-0.40540928,-0.34760842,0.05993275,3.070862,-0.63259304,8.1064645e-05,-0.1550051,0.0070637013,0.0011012899,-0.03571884,0.012864076,-0.019584846,0.45133436,-1.3895273,1.9152368,-2.0988147,-1.5656961,2.4321103,-0.16058293,0.23121813,-0.27849734,0.020728782,0.026504217,-0.14078644,-0.4405331,0.2873042,-9.557653,0.85826975,47.6636,-1.1822073,-2.1118245,-3.5933924,-0.05642899,0.2198565,-0.1781103,28.0,29.125,28.25,32.1875,34.375,35.25
0.3200535,-1.6274159,-1.5743768,-1.0426493,-0.032174014,0.08354919,-0.15132342,-0.40573394,-0.34759542,0.059937168,3.070769,-0.6325544,3.4902685e-05,-0.15571314,0.007018244,0.0012755111,-0.037181035,0.0126927085,-0.019768342,0.45099816,-1.3890591,1.9146746,-2.0988028,-1.5656356,2.4317625,-0.16182707,0.23180793,-0.2797161,0.020892415,0.027917277,-0.1418413,-0.47884035,0.15322891,-9.3661175,0.91198283,47.699425,-1.1538118,-1.8934302,-3.6559646,-0.056219466,0.22023973,-0.12198988,28.0,29.125,28.25,32.1875,34.375,35.25
0.3220571,-1.3830965,-0.77289736,-1.2280263,-0.014804757,0.060820676,-0.15077601,-0.40606537,-0.34759864,0.059970777,3.070618,-0.63262093,-8.618716e-05,-0.15879317,0.0074789,0.002648133,-0.038478076,0.016019223,-0.025749432,0.45068538,-1.3886263,1.9140877,-2.0987904,-1.565576,2.4315114,-0.16490024,0.23271954,-0.2839366,0.020645425,0.027643148,-0.13892846,-0.38307226,0.038307227,-9.385271,0.900793,47.737934,-1.1517682,-1.7992103,-3.5752199,-0.038606435,0.24600466,-0.11913948,28.0,29.125,28.25,32.1875,34.375,35.25
0.3240546,-0.77982754,-0.18650311,-1.1418923,0.0023863828,0.058292367,-0.15323569,-0.40638456,-0.34758577,0.059980497,3.0705252,-0.63269967,-0.00011424057,-0.15896846,0.0056201634,0.0035449718,-0.040355876,0.018304853,-0.029187541,0.4503622,-1.3881578,1.9135021,-2.0987318,-1.5655273,2.4312499,-0.16208294,0.23287265,-0.28603077,0.019692397,0.028324807,-0.13266884,-0.40222588,0.1340753,-9.32781,0.88960326,47.675243,-1.2761625,-1.7816086,-3.5391755,-0.02197453,0.24873275,-0.18634665,28.0,29.125,28.25,32.1875,34.375,35.25
0.32605383,-0.34973046,0.1220427,-1.1269425,0.014494713,0.061281007,-0.16882801,-0.40668538,-0.34756324,0.059960917,3.070455,-0.63278437,-9.610827e-05,-0.1604828,0.0049716104,0.0037173203,-0.041512415,0.018674953,-0.035725947,0.45003834,-1.3876762,1.9129752,-2.0987074,-1.5654792,2.4309883,-0.16262111,0.2355779,-0.28973514,0.01983642,0.029186763,-0.12666397,-0.22984336,-0.038307227,-9.442732,0.9030289,47.695843,-1.2228155,-1.7666126,-3.429656,0.0074680564,0.24406013,-0.2542842,28.0,29.125,28.25,32.1875,34.375,35.25
0.32805374,-0.35757765,0.22123317,-1.3014979,0.022807935,0.054380827,-0.16145363,-0.40702042,-0.34754273,0.059964407,3.07033,-0.6330287,-0.00012282952,-0.16231309,0.0048418506,0.0039546294,-0.04180424,0.019313779,-0.03966615,0.44968975,-1.3871827,1.9123763,-2.0986588,-1.5654315,2.430809,-0.16375974,0.23824382,-0.29363623,0.020371094,0.029172335,-0.123859055,-0.21068975,0.038307227,-9.461885,0.8403672,47.687782,-1.3503606,-2.006231,-3.4284744,0.014315248,0.2705703,-0.29586104,28.0,29.125,28.25,32.1875,34.375,35.25
0.3300551,-1.2820407,-0.61922514,-1.3860904,0.018673884,0.046260208,-0.14284362,-0.40736097,-0.3475276,0.06000008,3.0702202,-0.63310206,-0.00021941942,-0.16234319,0.005401339,0.0022984287,-0.03953934,0.015708392,-0.040249426,0.4493533,-1.3867372,1.911755,-2.0985868,-1.5653952,2.4305332,-0.16430457,0.24214736,-0.29493877,0.022017304,0.028723953,-0.1238182,-0.24899697,0.05746084,-9.385271,0.8851263,47.695843,-1.2720919,-2.0775409,-3.3194757,0.029341077,0.28709355,-0.31816766,28.0,29.125,28.25,32.1875,34.375,35.25
0.33205354,-0.78821117,-0.95978254,-1.4976885,-0.009090699,0.07142589,-0.15849996,-0.40766644,-0.3475293,0.060006388,3.0700636,-0.63316786,-0.00016658226,-0.16339885,0.00680417,0.0020110533,-0.03937796,0.013975737,-0.046111405,0.4490161,-1.3862804,1.9111928,-2.0985386,-1.5652632,2.4302578,-0.16784719,0.24315685,-0.29594636,0.023657672,0.029339887,-0.12149539,-0.15322891,0.2873042,-9.3661175,0.91421866,47.711964,-1.0911475,-2.0048318,-3.2845874,-0.004233891,0.30807287,-0.3776381,28.0,29.125,28.25,32.1875,34.375,35.25
0.33405414,-0.913634,-1.868219,-1.4125214,-0.051579572,0.07028592,-0.1562896,-0.40800092,-0.34750015,0.060018692,3.070004,-0.633327,-0.00025073468,-0.16445316,0.008162721,0.0021383455,-0.039452307,0.01316834,-0.04652442,0.4486913,-1.3858004,1.9105834,-2.0984662,-1.5652751,2.4300406,-0.17120142,0.24322547,-0.29675582,0.025116265,0.029787999,-0.12443384,-0.095768064,0.36391866,-9.500193,0.87393653,47.66271,-1.2143838,-1.8972263,-3.356565,-0.018625762,0.32130632,-0.41024476,28.0,29.125,28.25,32.1875,34.375,35.25
0.33605373,-1.3387004,-3.1418374,-1.3620931,-0.07271022,0.056787692,-0.14351153,-0.4083434,-0.34748057,0.06000901,3.0699005,-0.6334568,-0.00025042324,-0.16498345,0.007174519,0.0017978606,-0.03993112,0.012659072,-0.043872632,0.44833168,-1.3852708,1.909974,-2.0984304,-1.565215,2.429776,-0.17016985,0.24608634,-0.29950428,0.02527999,0.030457525,-0.12604961,-0.24899697,0.3256114,-9.442732,0.8627467,47.684196,-1.1212436,-1.8915188,-3.478571,-0.029250292,0.32572454,-0.3889361,28.0,29.125,28.25,32.1875,34.375,35.25
0.33805358,-1.0063115,-2.447212,-1.2811525,-0.085232094,0.049635712,-0.1532837,-0.4086683,-0.34745172,0.06001272,3.0697923,-0.6336052,-0.00025080564,-0.1652385,0.0083688535,0.0010224254,-0.03926266,0.010662314,-0.03957509,0.44797087,-1.3848016,1.9093994,-2.0983698,-1.5651544,2.4295223,-0.17247216,0.24700709,-0.29912594,0.026124392,0.030767828,-0.1326478,-0.28730422,0.4405331,-9.500193,0.9298854,47.668976,-1.0407517,-1.8804355,-3.5199537,-0.024824059,0.3484589,-0.3313418,28.0,29.125,28.25,32.1875,34.375,35.25
0.34005406,-0.9792667,-2.4227424,-1.4456061,-0.058972765,0.048618637,-0.14894885,-0.40900663,-0.34744573,0.06002355,3.069707,-0.6336205,-0.00029194748,-0.1657083,0.0083221905,0.0007950041,-0.039587934,0.009518012,-0.03203706,0.44764647,-1.3842965,1.9087662,-2.0983098,-1.5651063,2.429219,-0.1731349,0.24861607,-0.3008626,0.027202118,0.031609517,-0.14084363,-0.15322891,0.4405331,-9.423578,0.99031126,47.67614,-0.9989039,-1.9098569,-3.627902,-0.0342676,0.35838804,-0.2575072,28.0,29.125,28.25,32.1875,34.375,35.25
0.34205368,-0.3974666,-1.3222182,-1.1725308,-0.059619326,0.055775415,-0.15899314,-0.40936193,-0.34743586,0.06002729,3.0695386,-0.6337943,-0.0003698673,-0.1666313,0.008350045,0.0002706714,-0.041026663,0.008156827,-0.028055234,0.4472861,-1.3837914,1.9081682,-2.0983336,-1.5650333,2.4289896,-0.17497401,0.25089914,-0.30246207,0.027171178,0.033544324,-0.14665432,-0.095768064,0.4405331,-9.423578,0.88289046,47.698532,-0.98520523,-1.8273213,-3.6077209,-0.028972413,0.36970437,-0.18426082,28.0,29.125,28.25,32.1875,34.375,35.25
0.3440541,0.089011766,-0.86237866,-1.0513695,-0.042751838,0.06418343,-0.16553204,-0.40967906,-0.34742272,0.06002931,3.0694313,-0.6338278,-0.000324446,-0.16901834,0.0076145376,0.0017846493,-0.043970775,0.011417014,-0.02596971,0.44693774,-1.383311,1.9075812,-2.098262,-1.564937,2.4286766,-0.17630717,0.25157917,-0.3066507,0.026508313,0.034809146,-0.15006636,-0.05746084,0.3256114,-9.289502,0.8806493,47.679718,-0.9410496,-1.7506459,-3.4821193,-0.025593052,0.369074,-0.08245073,28.0,29.125,28.25,32.1875,34.375,35.25
0.34605384,0.09721137,-0.5949958,-0.77729905,-0.024978878,0.059062917,-0.15335305,-0.41003433,-0.3474036,0.06003015,3.0693557,-0.63386893,-0.00033594112,-0.170142,0.006973458,0.0017946771,-0.045342848,0.011053038,-0.025271755,0.44657752,-1.3827693,1.9069241,-2.0981905,-1.5648888,2.4283524,-0.17682387,0.2540827,-0.30984902,0.026960552,0.03622064,-0.15127368,-0.22984336,0.15322891,-9.136273,0.8784135,47.693153,-0.97858095,-1.8326557,-3.3863554,-0.015767818,0.35406274,-0.06959731,28.0,29.125,28.25,32.1875,34.375,35.25
0.3480533,-0.106370784,-0.16265804,-0.9558739,0.0047049215,0.044444103,-0.14828572,-0.41038227,-0.34743312,0.060053598,3.069175,-0.6339156,-0.00036984094,-0.17117497,0.006264233,0.0028273992,-0.046229396,0.012804114,-0.030213818,0.4462632,-1.3822529,1.9062537,-2.0981538,-1.5647687,2.4280913,-0.17629483,0.254502,-0.31297046,0.027697546,0.03626009,-0.14579728,-0.22984336,0.17238252,-9.232041,0.9388393,47.711964,-0.91073966,-1.7603979,-3.4258714,-0.03058083,0.36594373,-0.09405756,28.0,29.125,28.25,32.1875,34.375,35.25
0.3500538,-0.6845605,-0.28252938,-0.87836814,0.0052830377,0.048879832,-0.14667226,-0.4107119,-0.34739357,0.060056727,3.0691018,-0.6340347,-0.00040605504,-0.17227294,0.006591344,0.0031474843,-0.04765844,0.011744664,-0.038831342,0.44590467,-1.3817834,1.9056786,-2.0980937,-1.5647444,2.427817,-0.17867199,0.25544804,-0.3153058,0.029399447,0.03799272,-0.1395486,-0.38307226,0.15322891,-9.193734,0.90527004,47.67793,-0.8182486,-1.8221707,-3.375752,-0.024333235,0.35362357,-0.15345687,28.0,29.125,28.25,32.1875,34.375,35.25
0.35205427,-0.8018448,-0.43286672,-0.7664166,-0.012617068,0.06580864,-0.15326855,-0.411077,-0.34738916,0.06006624,3.068955,-0.63412106,-0.0004180451,-0.17206943,0.006887767,0.0029666254,-0.047192976,0.010253087,-0.044493068,0.44553298,-1.3812438,1.9050092,-2.0980446,-1.564648,2.427519,-0.17895009,0.25581768,-0.3158471,0.031111931,0.03821444,-0.13416134,-0.38307226,0.22984336,-9.078813,0.8090337,47.664497,-0.95578796,-1.5932366,-3.377001,-0.05379585,0.35486776,-0.21659306,28.0,29.125,28.25,32.1875,34.375,35.25
0.354054,-1.4509484,-0.72922826,-0.9421383,-0.018149218,0.06221802,-0.14579083,-0.41139528,-0.34738556,0.060064066,3.0688434,-0.6342328,-0.00037880454,-0.17181733,0.0063381847,0.0013530832,-0.04607593,0.0063285152,-0.047081046,0.44520935,-1.3807374,1.9043998,-2.0979726,-1.5645636,2.4272802,-0.17803712,0.2604288,-0.31814167,0.032818247,0.03889159,-0.13065563,-0.24899697,0.1340753,-9.308657,0.97240865,47.66091,-1.0251261,-1.6681137,-3.3703885,-0.07324871,0.33917713,-0.26938108,28.0,29.125,28.25,32.1875,34.375,35.25
0.35605362,-1.3875704,-1.1058729,-0.7172614,-0.029062092,0.07279596,-0.15251411,-0.41171923,-0.3473707,0.060037,3.068737,-0.6343701,-0.00025830534,-0.17085329,0.0059877466,-0.00045016414,-0.044366337,0.0019855502,-0.049829345,0.4448474,-1.3801835,1.9037904,-2.0979006,-1.5644559,2.4270182,-0.17664297,0.26420182,-0.31905603,0.034616765,0.039205886,-0.12651223,-0.3256114,0.19153613,-9.3661175,0.9164598,47.66987,-1.1121678,-1.8702165,-3.3326056,-0.09120017,0.3372252,-0.33555517,28.0,29.125,28.25,32.1875,34.375,35.25
0.35805422,-1.4176146,-1.0328896,-0.79209286,-0.032659758,0.07757837,-0.14581665,-0.4120918,-0.34734756,0.060060494,3.0686424,-0.63449997,-0.00036270253,-0.1708195,0.005652443,-0.001140905,-0.04447179,-0.00019258073,-0.052781973,0.4444901,-1.3796663,1.903109,-2.0978277,-1.564443,2.426755,-0.17648205,0.26647535,-0.32056,0.03576077,0.04024029,-0.12339082,-0.34476504,0.21068975,-9.193734,1.0373062,47.71017,-1.2057527,-1.9347242,-3.4444885,-0.11700025,0.3506538,-0.41994008,28.0,29.125,28.25,32.1875,34.375,35.25
0.3600537,-1.159599,-0.21603402,-0.7742009,-0.011303414,0.06526139,-0.16213128,-0.41245237,-0.34735996,0.06008565,3.0684383,-0.6346484,-0.00037032482,-0.1712609,0.0048840535,-0.0008956021,-0.045707397,-0.00083529943,-0.053054035,0.4441303,-1.3791496,1.9024276,-2.097768,-1.5643104,2.426515,-0.17619409,0.2678827,-0.32319397,0.037059005,0.0416462,-0.12282069,-0.22984336,0.1340753,-9.193734,0.95897776,47.681515,-1.4027158,-1.9828541,-3.457006,-0.14127353,0.33912522,-0.46330053,28.0,29.125,28.25,32.1875,34.375,35.25
0.3620544,-1.0172026,-0.90423614,-0.806336,0.00284391,0.04733616,-0.15928158,-0.4127968,-0.34734493,0.060080834,3.068334,-0.63481575,-0.0003560862,-0.17210107,0.0046599363,-0.0018800764,-0.046850108,-0.0029124706,-0.049106903,0.44378185,-1.3786076,1.901781,-2.0976956,-1.5642503,2.4262853,-0.17753015,0.27139428,-0.3252325,0.037020218,0.043603294,-0.12809445,-0.1340753,0.21068975,-9.232042,0.89631605,47.690468,-1.3180243,-1.96028,-3.4013941,-0.16398978,0.31187558,-0.47214326,28.0,29.125,28.25,32.1875,34.375,35.25
0.3640541,-0.35278627,-1.2715377,-0.43943852,-0.018326439,0.036242727,-0.15605503,-0.41313586,-0.34732458,0.060031563,3.0682702,-0.6349155,-0.0002564193,-0.17374521,0.004662401,-0.00028576437,-0.04934537,-0.00028949385,-0.045135252,0.44342127,-1.3779955,1.9011601,-2.0976598,-1.5641779,2.4259956,-0.17941833,0.270124,-0.32753715,0.037214473,0.044760186,-0.1339511,-0.11492168,0.2681506,-8.963891,0.947788,47.67614,-1.3594238,-1.9808483,-3.4093766,-0.17380463,0.30641198,-0.4465654,28.0,29.125,28.25,32.1875,34.375,35.25
0.36605388,0.3004118,-1.2483597,-0.6654629,-0.027016575,0.016706966,-0.16292547,-0.4134959,-0.34731144,0.060057804,3.068118,-0.63503045,-0.00029737013,-0.1752403,0.0051684105,0.00022471353,-0.05029843,0.00050887093,-0.03536789,0.44304863,-1.3775028,1.9005011,-2.0975883,-1.564093,2.4257152,-0.18169324,0.27069977,-0.32959646,0.037673842,0.045359045,-0.14598687,0.019153614,0.34476504,-9.002198,0.8940802,47.65912,-1.2865617,-1.8558095,-3.4370708,-0.19162367,0.28509188,-0.3334788,28.0,29.125,28.25,32.1875,34.375,35.25
0.36805412,0.7783189,-1.057586,-0.61695063,-0.043126777,0.0053453874,-0.17224197,-0.41386396,-0.34727722,0.06003575,3.0680733,-0.635114,-0.00026189382,-0.17617562,0.005604508,-0.00030428174,-0.04987358,-0.0007690212,-0.028849576,0.4426638,-1.3769013,1.8998193,-2.097504,-1.5640572,2.4253888,-0.18314105,0.2731679,-0.33171636,0.03873738,0.04556988,-0.15395194,-0.076614454,0.36391866,-9.059659,0.9835985,47.668976,-1.185406,-1.863668,-3.5212402,-0.20954546,0.2701926,-0.22644156,28.0,29.125,28.25,32.1875,34.375,35.25
0.37005377,0.042850133,-1.6809045,-0.57131314,-0.05098407,0.00077846093,-0.1571201,-0.4142056,-0.34727317,0.06003417,3.0679607,-0.63510656,-0.00024459473,-0.177677,0.0053149355,0.00061850785,-0.052409895,0.00010635014,-0.026005782,0.44231567,-1.3763723,1.8991851,-2.0974553,-1.5639609,2.4250512,-0.18489116,0.27367276,-0.33467117,0.03936519,0.047522504,-0.15853521,-0.05746084,0.40222588,-9.002198,0.99031126,47.689575,-1.2827483,-1.8090618,-3.3835387,-0.24835356,0.24828073,-0.15442228,28.0,29.125,28.25,32.1875,34.375,35.25
0.37205353,-0.37321973,-1.3435671,-0.65740126,-0.044516947,-0.0042685797,-0.16406155,-0.41455898,-0.3472779,0.060044233,3.0677898,-0.63526326,-0.00015178032,-0.17847647,0.0051174583,0.0011960975,-0.053831607,0.0009614127,-0.026360855,0.44194362,-1.37582,1.8984808,-2.097336,-1.5638164,2.4248,-0.18557593,0.27373767,-0.33621797,0.03950562,0.04845403,-0.15885967,0.0,0.3256114,-9.078813,0.95226496,47.703903,-1.2132934,-1.694109,-3.4463582,-0.26284787,0.22054656,-0.14216477,28.0,29.125,28.25,32.1875,34.375,35.25
0.3740547,-0.7411779,-1.3768823,-0.5599522,-0.047478344,0.019862307,-0.14773546,-0.4149296,-0.34727526,0.060046773,3.0676806,-0.6352845,-0.00014755728,-0.17959246,0.005660019,0.000650716,-0.053680375,-0.00033625512,-0.03598431,0.4415825,-1.3752428,1.8977741,-2.097264,-1.5637325,2.4244668,-0.18745951,0.27623653,-0.33826104,0.040263034,0.04884512,-0.15111455,-0.22984336,0.34476504,-9.097966,0.9567419,47.68599,-1.097546,-1.6762024,-3.4108896,-0.27660465,0.22031552,-0.15804775,28.0,29.125,28.25,32.1875,34.375,35.25
0.37605354,-0.93653506,-1.5805813,-0.67875296,-0.03384206,0.051244225,-0.16250107,-0.41527233,-0.34723654,0.0600077,3.0676076,-0.6354066,6.3237408e-06,-0.18057111,0.0054813535,0.00024001255,-0.0552238,-0.0015514116,-0.042698372,0.44117433,-1.3746525,1.8971404,-2.0971682,-1.5636352,2.4241447,-0.1889103,0.27865118,-0.34036505,0.040382627,0.050728396,-0.14584556,-0.22984336,0.3256114,-9.078813,0.9030289,47.67166,-1.0695428,-1.9341464,-3.4589217,-0.32123062,0.18159156,-0.2170729,28.0,29.125,28.25,32.1875,34.375,35.25
0.37805408,-1.4393932,-1.4669201,-0.9671998,-0.018649848,0.05595627,-0.16641544,-0.41560715,-0.34722942,0.059991185,3.067459,-0.6355954,0.0001587297,-0.18206544,0.005739398,-0.00027721055,-0.05701744,-0.0021399418,-0.049351975,0.44079822,-1.374088,1.8964838,-2.097061,-1.5634907,2.4239063,-0.19151878,0.28107762,-0.34196314,0.039325405,0.052580185,-0.14179327,-0.038307227,0.24899697,-9.251195,0.9925471,47.684196,-0.8676952,-1.8936427,-3.4712138,-0.32366702,0.13507596,-0.29382375,28.0,29.125,28.25,32.1875,34.375,35.25
