Tylouw/Master_Thesis_Code/training_data/batch_1/small_rod_t0.2/sample_2_session_1.csv
timestamp[s],tcp_force_x[N],tcp_force_y[N],tcp_force_z[N],tcp_force_rx[Nm?],tcp_force_ry[Nm?],tcp_force_rz[Nm?],tcp_pose_x[m],tcp_pose_y[m],tcp_pose_z[m],tcp_pose_rx[rot_vec_x],tcp_pose_ry[rot_vec_y],tcp_pose_rz[rot_vec_z],tcp_velo_x[m/s],tcp_velo_y[m/s],tcp_velo_z[m/s],tcp_velo_rx[rot_vec_x/s],tcp_velo_ry[rot_vec_y/s],tcp_velo_rz[rot_vec_z/s],q1[rad],q2[rad],q3[rad],q4[rad],q5[rad],q6[rad],qd1[rad/s],qd2[rad/s],qd3[rad/s],qd4[rad/s],qd5[rad/s],qd6[rad/s],tool_acc_x,tool_acc_y,tool_acc_z,current_of_whole_robot[A],voltage_of_whole_robot[V],current_J1[A],current_J2[A],current_J3[A],current_J4[A],current_J5[A],current_J6[A],temp_J1[C],temp_J2[C],temp_J3[C],temp_J4[C],temp_J5[C],temp_J6[C]
8.8100205e-07,-0.577118,-0.3261235,0.99492055,-0.019533988,0.0027254126,0.00615575,-0.38107815,-0.34852442,0.05997555,-3.0785172,0.6249738,-0.00014663639,0.002504179,0.0013130234,-0.002841706,0.0032449276,-0.0064263293,1.9954314e-05,0.4777741,-1.4259334,1.957703,-2.100845,-1.5707573,2.4527884,-7.1388764e-05,0.0016382254,0.0043512443,0.0012089609,8.541039e-05,-9.367226e-05,0.019153614,0.114921674,-8.829816,0.75084364,47.71465,0.05740938,-2.83874,-2.4476783,-0.45327547,0.05518183,0.028150246,27.6875,28.75,27.9375,31.875,33.75,34.6875
0.0020527071,-0.5106812,-0.07434818,0.9944059,-0.0126967635,0.0020180712,0.013426974,-0.3810467,-0.34850353,0.059930526,-3.0784438,0.6249589,-0.0002615144,-0.00021355963,-0.00010259358,-0.002811524,-0.000957312,0.0016401325,2.1403865e-05,0.4777741,-1.425897,1.9577626,-2.100837,-1.5707697,2.4527884,-7.058902e-05,0.0030160015,0.0053152656,-0.010228249,8.381938e-05,-9.2299866e-05,0.1340753,0.1340753,-8.848969,0.74413085,47.70211,0.020231929,-2.8314016,-2.5691848,-0.4264414,0.06325044,0.027037038,27.6875,28.75,27.9375,31.875,33.75,34.6875
0.00405251,-0.10190679,0.42364705,1.1818854,-0.018949168,0.008053312,0.0053139664,-0.3810587,-0.34853455,0.05994303,-3.078528,0.62486017,-0.00017055857,-0.0021051816,-0.0010877176,-0.0016122739,-0.003747772,0.0070041995,2.8733757e-05,0.4778101,-1.4258971,1.9577507,-2.1009095,-1.5707573,2.452752,-6.9806825e-05,0.0026219003,0.004014369,-0.01457973,8.22868e-05,-9.736922e-05,0.076614454,0.019153614,-8.772355,0.78217715,47.705692,0.04760597,-3.0787854,-2.7083404,-0.28669682,0.066382304,0.01353348,27.6875,28.75,27.9375,31.875,33.75,34.6875
0.006052457,0.015359982,0.8682612,1.0990392,-0.0033987763,-0.012358589,0.0038168468,-0.38103962,-0.34853774,0.059920803,-3.0785248,0.6248596,-0.00026624763,-0.0012315741,-0.0006666919,-0.0009983394,-0.0023296315,0.0042901575,9.45936e-05,0.47781014,-1.4258735,1.957774,-2.100907,-1.5707215,2.452752,-8.041086e-06,0.001508892,0.0026098876,-0.0090000285,8.080907e-05,-0.00010205221,0.038307227,0.05746084,-8.714894,0.8314132,47.71286,0.03692771,-3.014369,-2.6326513,-0.30621505,0.064559,0.02940635,27.6875,28.75,27.9375,31.875,33.75,34.6875
0.008052515,0.61896604,1.444032,0.5977828,0.02471012,-0.02562643,-0.0010443389,-0.38106188,-0.348516,0.0599372,-3.0785046,0.624894,-0.00020178888,-0.0001512158,-0.00011318977,-0.0008182334,-0.0006249588,0.0009916632,0.0001006971,0.47777414,-1.4258978,1.9577612,-2.1008937,-1.5707573,2.4527402,-1.0788143e-07,0.0007822947,0.0018411655,-0.0037918002,9.420489e-05,-0.00010101629,0.019153614,0.13407528,-8.810662,0.7530795,47.690468,0.025760267,-2.9294455,-2.588049,-0.3615191,0.05855466,0.020590674,27.6875,28.75,27.9375,31.875,33.75,34.6875
0.0100526605,1.0054932,1.535825,0.25598496,0.027674446,-0.021053253,-0.005572759,-0.38105723,-0.34853125,0.059925564,-3.0785017,0.6249123,-0.00022917251,-0.00028964365,-0.0001852655,-0.00032281916,-0.00044632252,0.0006508491,9.9783174e-05,0.4777981,-1.4258618,1.9577492,-2.1009047,-1.5707458,2.452776,-1.447367e-09,0.0007098239,0.00034768065,-0.0018410541,9.353994e-05,-9.9644174e-05,0.076614454,0.095768064,-9.078813,0.7396539,47.703903,-0.33018583,-2.381164,-3.0542636,-0.40241534,0.066987425,-0.013520714,27.6875,28.75,27.9375,31.875,33.75,34.6875
0.012051802,-0.27672607,0.11185734,-0.05458578,-0.00020022476,-0.023003757,0.0055849375,-0.3810655,-0.34851527,0.059924208,-3.078478,0.624908,-0.00027569922,0.00019137486,0.00011063164,-0.0027606199,0.0020521828,-0.0041692853,7.6426106e-05,0.47776207,-1.4258485,1.9577264,-2.100857,-1.5707458,2.4527402,-8.300714e-05,0.0057534864,4.6645796e-06,-0.0011124985,9.200929e-05,-0.0001584642,0.095768064,0.095768064,-9.251196,0.70608455,47.711063,-0.53014827,-2.2645822,-3.2382386,-0.41273767,0.07477111,-0.056788877,27.6875,28.75,27.9375,31.875,33.75,34.6875
0.014052011,-0.86160785,-0.7187606,-0.20662506,-0.05120792,0.010267843,0.0031994155,-0.3810597,-0.34849107,0.05991029,-3.0784247,0.6249557,-0.00026928936,-0.0053229798,0.0014993375,-0.0038583863,0.00268889,-0.0054356093,-0.003999997,0.47774765,-1.4258567,1.9577702,-2.100869,-1.5707816,2.4527624,-0.007663248,0.015089385,-0.008188869,-0.0008382356,9.047186e-05,-0.00365671,0.0,0.2681506,-9.481039,0.7665104,47.684196,-0.34992164,-2.9471145,-3.0934682,-0.42199594,0.07761666,-0.07126361,27.6875,28.75,27.9375,31.875,33.75,34.6875
0.016052416,-1.3987098,-1.278549,-0.39889956,-0.0763878,0.03842668,-0.008158097,-0.3810481,-0.34850916,0.059896432,-3.078416,0.6248545,-0.00035520026,-0.006321913,0.0021648013,-0.0028723942,0.0018517068,-0.0038402907,0.0028283377,0.47778273,-1.4257976,1.9577235,-2.1008208,-1.5707697,2.4527354,-0.0097740125,0.013420651,-0.008605025,-0.0005564626,9.628362e-05,-0.012595939,-0.22984336,0.3256114,-9.691729,0.8023209,47.719128,-0.21010762,-2.731196,-3.1368456,-0.4174608,0.09059611,-0.02035846,27.6875,28.75,27.9375,31.875,33.75,34.6875
0.018051848,-1.7929374,-1.534463,-0.46556145,-0.08638469,0.063534066,-0.015594288,-0.38103366,-0.34850824,0.059866253,-3.0784,0.6248496,-0.0004784161,-0.005595773,0.002327056,-0.0035035806,0.0027772912,-0.005661466,0.006556321,0.47777092,-1.4257494,1.957735,-2.1008089,-1.5707334,2.4527225,-0.009401108,0.013957722,-0.007973659,0.0003178819,0.00011246838,-0.015951468,-0.34476504,0.28730422,-9.768343,0.7709874,47.72719,-0.3943076,-2.5882635,-3.4049616,-0.42463845,0.10042037,-0.0046978216,27.6875,28.75,27.9375,31.875,33.75,34.6875
0.020051934,-1.7069744,-1.2349586,-0.55703896,-0.06996331,0.07438302,-0.0380076,-0.38104004,-0.34850687,0.059865363,-3.0784092,0.62475413,-0.00046659255,-0.00670583,0.0023206724,-0.0030960653,0.0023408325,-0.0049370015,0.008259585,0.47777063,-1.4257373,1.957723,-2.1008089,-1.5707458,2.4526615,-0.010450478,0.014797276,-0.009922367,0.00058222725,0.00016198045,-0.018703135,-0.4405331,0.2681506,-9.844957,0.7418897,47.693153,-0.5374814,-2.4109163,-3.5349956,-0.43232635,0.112889096,0.037863236,27.6875,28.75,27.9375,31.875,33.75,34.6875
0.022051824,-1.9760542,-0.86805505,-0.53652287,-0.04214303,0.05930759,-0.04509798,-0.38105232,-0.34851757,0.0598536,-3.0784404,0.62476104,-0.0005290027,-0.008145595,0.0013571472,-0.0030558028,-0.00069280056,-0.005949307,0.0077567548,0.477746,-1.4256883,1.9576968,-2.1008208,-1.5706962,2.4526372,-0.012120583,0.017736495,-0.013365587,0.00057973486,0.0033130592,-0.019874448,-0.51714754,0.2681506,-9.844957,0.7418897,47.70211,-0.54299736,-2.4362311,-3.437904,-0.44377226,0.075161785,0.030843385,27.6875,28.75,27.9375,31.875,33.75,34.6875
0.024051858,-1.8188936,-0.36142227,-0.77708435,-0.036152143,0.0514251,-0.06569729,-0.38106456,-0.3485032,0.0598366,-3.0784197,0.62481767,-0.0006383879,-0.0091673285,0.0012338496,-0.0029382969,-0.0028597822,-0.00647884,0.003912043,0.4776852,-1.42564,1.9576725,-2.100785,-1.5706595,2.4526143,-0.014253804,0.018764062,-0.014771334,0.00042511328,0.0054770317,-0.018166669,-0.63206923,0.28730422,-9.787497,0.7777002,47.705692,-0.6097021,-2.418503,-3.518323,-0.45163482,0.04649879,0.0028143162,27.6875,28.75,27.9375,31.875,33.75,34.6875
0.026052047,-2.0362926,-0.65594643,-0.46808466,-0.03568083,0.044741195,-0.08094754,-0.38108104,-0.34849626,0.059830476,-3.0783703,0.6248277,-0.0005787035,-0.010761986,0.001432149,-0.0022019153,-0.0035169502,-0.004713007,0.001350269,0.47769666,-1.425604,1.9576482,-2.100797,-1.5707196,2.4526384,-0.015931727,0.019133426,-0.016836813,0.0002507389,0.005244534,-0.017281206,-0.6512229,0.3256114,-9.825804,0.8314132,47.690468,-0.5958538,-2.4421444,-3.4566069,-0.45197946,0.05206179,-0.02698258,27.6875,28.75,27.9375,31.875,33.75,34.6875
0.028052475,-1.7584074,-0.5660358,-0.4619445,-0.042707015,0.07023366,-0.102845006,-0.38110912,-0.34850392,0.05984082,-3.0784073,0.62475824,-0.0005340415,-0.011813359,0.0013395606,-0.0018588981,-0.0032026835,-0.0033124294,0.0008147642,0.47768456,-1.4255797,1.9575995,-2.1008089,-1.5707201,2.4525783,-0.016137943,0.020127958,-0.0187042,2.7736882e-05,0.0043177987,-0.016948724,-0.7086837,0.24899697,-9.710882,0.79560274,47.717335,-0.59054565,-2.4258027,-3.5264258,-0.45969415,0.06708868,-0.030681547,27.6875,28.75,27.9375,31.875,33.75,34.6875
0.030052565,-1.8544006,-0.7245609,-0.42012298,-0.03360872,0.08362956,-0.11542174,-0.38115054,-0.34850034,0.059817504,-3.0784032,0.6248353,-0.0005722976,-0.013032523,0.0016592257,-0.0017387127,-0.0029684003,-0.0026621586,-0.0010440472,0.47762427,-1.4254835,1.9575514,-2.100845,-1.5706962,2.4525666,-0.017501596,0.021347655,-0.020365205,1.81102e-06,0.0038071652,-0.016451554,-0.63206923,0.1340753,-9.730036,0.7418897,47.684196,-0.5876212,-2.3183095,-3.4486132,-0.47231275,0.06380517,-0.032766387,27.6875,28.75,27.9375,31.875,33.75,34.6875
0.032052748,-1.8448392,-0.26119336,-0.25597513,-0.011531811,0.0810566,-0.12500136,-0.38112995,-0.34848717,0.059792075,-3.0783648,0.62480915,-0.0006851928,-0.013958387,0.0010194529,-0.0009283381,-0.003916686,-0.0010084652,-0.0017772879,0.47761217,-1.4254594,1.9575738,-2.1008089,-1.5706843,2.452543,-0.017272135,0.021706244,-0.022626588,1.18246675e-07,0.0038835586,-0.015488131,-0.59376204,0.076614454,-9.653421,0.75755644,47.69763,-0.6492241,-2.3603413,-3.3960423,-0.45247507,0.06640099,-0.04840135,27.6875,28.75,27.9375,31.875,33.75,34.6875
0.034052175,-1.7000726,0.6046412,-0.15510269,0.0017662818,0.061768502,-0.1416488,-0.381194,-0.3484999,0.059818566,-3.0784369,0.62486345,-0.00061893836,-0.015361219,0.00048214046,-0.00040804705,-0.0059562884,-0.0005092966,-0.004230833,0.47755167,-1.4254228,1.957477,-2.1008327,-1.5706476,2.4525073,-0.0186385,0.02310004,-0.025405899,7.720663e-09,0.005461533,-0.014402179,-0.5554548,-0.11492168,-9.691729,0.8918391,47.717335,-0.6325124,-2.3598995,-3.339127,-0.4615757,0.07717596,-0.05828324,27.6875,28.75,27.9375,31.875,33.75,34.6875
0.036052164,-1.2747933,1.0563881,-0.0006887864,0.01874996,0.040543493,-0.14923476,-0.38123566,-0.34849462,0.059819803,-3.0784202,0.624841,-0.0005694693,-0.01623033,0.00076630944,-0.0005226383,-0.006031221,-0.00065339997,-0.0055468245,0.47752723,-1.4253626,1.9574054,-2.1008327,-1.5706838,2.452471,-0.020031627,0.024296612,-0.026509786,5.0410415e-10,0.0055921143,-0.014478772,-0.49799395,-0.114921674,-9.557653,0.84708,47.71823,-0.67318135,-2.3345842,-3.4046173,-0.4769705,0.05926097,-0.07431997,27.6875,28.75,27.9375,31.875,33.75,34.6875
0.03805224,-0.83154446,0.9442916,-0.08930306,0.027835628,0.026717462,-0.15763755,-0.38128233,-0.34849393,0.059826307,-3.0784569,0.6249063,-0.0005355142,-0.017170291,0.00077660807,-0.00043353176,-0.0063196886,-0.00038265687,-0.0064029987,0.477467,-1.4253262,1.9573573,-2.1008685,-1.5706595,2.452447,-0.021001345,0.025497848,-0.028083831,3.2914397e-11,0.0057212836,-0.014591319,-0.3256114,-0.21068975,-9.653421,0.76874626,47.71286,-0.6754582,-2.35242,-3.3920293,-0.46650898,0.052427,-0.09160281,27.6875,28.75,27.9375,31.875,33.75,34.6875
0.040052135,-1.0099032,0.3266801,-0.25634342,0.027868014,0.016737556,-0.16546883,-0.38134742,-0.34850946,0.059855215,-3.078513,0.6249562,-0.00046939327,-0.019601725,-5.344898e-05,0.00096012576,-0.008449016,0.0043832446,-0.006407182,0.47741887,-1.4252782,1.9572366,-2.1008694,-1.5706357,2.4524229,-0.021570075,0.026065538,-0.031344555,-0.0025166373,0.005410789,-0.015152627,-0.22984336,-0.095768064,-9.576807,0.75084364,47.70032,-0.6651819,-2.2670794,-3.3126547,-0.42871106,0.059658647,-0.12237276,27.6875,28.75,27.9375,31.875,33.75,34.6875
0.04205222,-0.8222446,0.53734314,-0.09933641,0.003773412,0.024796208,-0.17628337,-0.38137713,-0.34849337,0.059836287,-3.0784423,0.62503844,-0.00045059976,-0.020503236,0.0004655659,0.00067433174,-0.007754747,0.0042278357,-0.0075023556,0.47739428,-1.4252057,1.9571999,-2.1008813,-1.5706843,2.4524586,-0.022969864,0.027518556,-0.032353695,-0.0025021231,0.004863103,-0.015455596,-0.2681506,-0.05746084,-9.461885,0.76874626,47.69763,-0.6311581,-2.2291107,-3.3430963,-0.42365417,0.07117936,-0.13214594,27.6875,28.75,27.9375,31.875,33.75,34.6875
0.044052154,-0.7363585,0.30572662,-0.06771476,-0.008386652,0.02805929,-0.1923302,-0.3813861,-0.3484864,0.0598205,-3.0784426,0.6249812,-0.00053355267,-0.0213428,0.00083803426,0.00071575004,-0.0075589316,0.0039530494,-0.007945364,0.4773578,-1.4251575,1.9571756,-2.100857,-1.57066,2.4523864,-0.02437527,0.02850408,-0.033741355,-0.001765275,0.0048131905,-0.016417423,-0.24899697,-0.038307227,-9.634268,0.82022345,47.711063,-0.6007921,-2.1879506,-3.2569594,-0.4279385,0.07736145,-0.13052249,27.6875,28.75,27.9375,31.875,33.75,34.6875
0.04605229,-1.1098387,-0.3680952,-0.17639858,-0.0061273207,0.015328184,-0.18366385,-0.3814455,-0.34848985,0.0598161,-3.078463,0.6250628,-0.00055418286,-0.02233742,0.0010061794,0.0010886391,-0.0077754944,0.004284261,-0.008893675,0.4772854,-1.4250615,1.9570788,-2.100869,-1.5706238,2.4523623,-0.025614502,0.029195677,-0.03554947,-0.0010416342,0.0048517515,-0.01670749,-0.05746084,0.15322891,-9.481039,0.83813137,47.704796,-0.68373704,-2.2290606,-3.359375,-0.43494135,0.08262675,-0.14590201,27.6875,28.75,27.9375,31.875,33.75,34.6875
0.04805238,-0.6797181,-0.5880044,-0.28207713,-0.010227794,0.015186641,-0.18888284,-0.38149416,-0.34845042,0.059826378,-3.0783982,0.6250493,-0.0004721016,-0.023176651,0.0010900283,0.0011404336,-0.0076089907,0.0043306807,-0.008701424,0.47722512,-1.425037,1.9570192,-2.1008327,-1.5707082,2.452302,-0.02642551,0.030460607,-0.037209015,-0.0006123702,0.0046799034,-0.017709471,-0.038307227,0.19153613,-9.461885,0.7732232,47.723602,-0.6089356,-2.218943,-3.302513,-0.44243366,0.09157126,-0.17022118,27.6875,28.75,27.9375,31.875,33.75,34.6875
0.05005197,-0.11090775,-0.82568455,-0.39973733,-0.024097038,0.023501636,-0.19249377,-0.3815721,-0.34849903,0.059864618,-3.0785458,0.6251178,-0.00040545722,-0.024330718,0.00082720106,0.001965666,-0.00879036,0.0057583,-0.008532731,0.47717685,-1.4249771,1.9568743,-2.1008804,-1.5706118,2.4522777,-0.027273482,0.030604322,-0.039287742,-0.00048757455,0.0050718077,-0.018725183,0.05746084,0.21068975,-9.442732,0.7777002,47.689575,-0.66261876,-2.1477907,-3.2713299,-0.43689698,0.081315495,-0.1857608,27.6875,28.75,27.9375,31.875,33.75,34.6875
0.052051965,-0.66205716,-1.396648,-0.42182702,-0.028173497,0.006406879,-0.16276447,-0.3815855,-0.3484657,0.059842452,-3.0784562,0.6251954,-0.00045708794,-0.025123928,0.0009721119,0.0019190286,-0.009257596,0.005596372,-0.0087011,0.47712845,-1.4249288,1.9568619,-2.100845,-1.5706476,2.452289,-0.028578652,0.031636685,-0.04035149,-0.00052915793,0.0055574887,-0.019862555,-0.019153614,0.3256114,-9.500193,0.7463667,47.690468,-0.613991,-2.1296349,-3.342216,-0.4304899,0.09619443,-0.19985154,27.6875,28.75,27.9375,31.875,33.75,34.6875
0.054051813,-0.385477,-1.3833302,-0.44318643,-0.038949512,0.008629444,-0.16880116,-0.38162395,-0.348476,0.05984161,-3.0784957,0.62518376,-0.0005059563,-0.025916496,0.00082335476,0.001484024,-0.009262742,0.004770834,-0.007924057,0.47708017,-1.4248561,1.9567779,-2.1008327,-1.5705999,2.4522285,-0.029291123,0.034104,-0.04219901,-0.0004181227,0.00593722,-0.021351498,-0.019153614,0.4213795,-9.500193,0.81351066,47.68599,-0.6473391,-2.1953268,-3.318565,-0.4280264,0.08522043,-0.20331758,27.6875,28.75,27.9375,31.875,33.75,34.6875
0.056049984,-0.6784874,-1.4068187,-0.3712682,-0.03958343,0.0027664353,-0.16356093,-0.38169083,-0.34848365,0.059863977,-3.078529,0.62520885,-0.00043332015,-0.026821723,0.00082944357,0.0019148439,-0.009697402,0.0056328364,-0.0074179033,0.47703195,-1.4247959,1.9566582,-2.1008327,-1.5705999,2.4521918,-0.030125707,0.03449764,-0.043656442,-0.00031933328,0.00592587,-0.02269109,-0.076614454,0.4405331,-9.595961,0.779936,47.704796,-0.6707557,-2.174951,-3.280043,-0.4455133,0.08897622,-0.1965853,27.6875,28.75,27.9375,31.875,33.75,34.6875
0.058052097,-0.3936331,-1.4864674,-0.37361774,-0.042675238,0.01734811,-0.15940887,-0.38175228,-0.3484749,0.05986643,-3.0785408,0.62523055,-0.00040265644,-0.028169276,0.0005845884,0.0030774854,-0.011055959,0.007828212,-0.0072368537,0.47695956,-1.4247243,1.9565738,-2.100845,-1.5705999,2.4521315,-0.031056186,0.03409719,-0.045867067,-0.00028257965,0.0061211726,-0.023801785,0.019153614,0.47884035,-9.5385,0.80679786,47.70659,-0.7036295,-2.006391,-3.371789,-0.45025063,0.09661013,-0.23189862,27.6875,28.75,27.9375,31.875,33.75,34.6875
0.060052067,-0.54579777,-1.133871,-0.22518496,-0.040611204,0.015161771,-0.16493763,-0.38181087,-0.34847564,0.05989189,-3.0785885,0.62529796,-0.00040764027,-0.028656526,0.00067405694,0.0022569662,-0.011170568,0.0060243476,-0.0069241617,0.47687516,-1.4246877,1.9564656,-2.1008089,-1.5705513,2.452083,-0.03226329,0.03656173,-0.046810225,-0.000255574,0.0070504243,-0.025322145,0.038307227,0.47884035,-9.519346,0.7642693,47.691364,-0.70559776,-2.0066404,-3.2857852,-0.43317574,0.11059596,-0.2327486,27.6875,28.75,27.9375,31.875,33.75,34.6875
0.062052075,-0.86411303,-1.0524215,-0.2209527,-0.036791738,0.011166895,-0.16021447,-0.38186857,-0.3484744,0.059877656,-3.078583,0.6253149,-0.0003833697,-0.029305417,0.00028996606,0.0018725266,-0.011509958,0.0052183233,-0.0056424327,0.47682709,-1.4245788,1.9563822,-2.100845,-1.5705627,2.4520464,-0.032610133,0.038928602,-0.048641194,-0.00023343616,0.0077183247,-0.026950529,0.019153614,0.38307226,-9.557653,0.7620334,47.64837,-0.71123505,-2.1239042,-3.340967,-0.44455504,0.11410238,-0.22281417,27.6875,28.75,27.9375,31.875,33.75,34.6875
0.0640523,-1.038725,-1.0224303,0.017689316,-0.031438142,0.0062435195,-0.15607196,-0.38193262,-0.3484603,0.059876483,-3.0785952,0.62533695,-0.00035233414,-0.031586822,-0.00076855975,0.0034113799,-0.013695307,0.008225018,-0.0051085255,0.4767428,-1.4245067,1.9563078,-2.1008685,-1.5705627,2.4519744,-0.03318871,0.040141314,-0.053548075,-0.00021484158,0.008270984,-0.028061124,-0.11492168,0.3256114,-9.404425,0.84708,47.71017,-0.72988975,-2.0405746,-3.152079,-0.43559796,0.09734603,-0.23983029,27.6875,28.75,27.9375,31.875,33.75,34.6875
0.06605228,-0.85311973,-1.0472319,-0.12225589,-0.018741146,0.013144812,-0.15126139,-0.3820153,-0.34848738,0.059918977,-3.0786846,0.625277,-0.00023505949,-0.030215746,-0.00017372429,0.0005499742,-0.011453305,0.0026239795,-0.004068101,0.47670683,-1.4244455,1.9561409,-2.1008685,-1.5705508,2.4518898,-0.033355147,0.04400833,-0.051427018,-0.0001989945,0.008856885,-0.029268518,-0.15322891,0.30645782,-9.385271,0.8314132,47.67793,-0.8045064,-2.2111874,-3.3108735,-0.44770434,0.10522252,-0.2595874,27.6875,28.75,27.9375,31.875,33.75,34.6875
0.068052456,-0.8028068,-0.88373667,0.12625809,-0.015658073,0.018533086,-0.15789692,-0.38204396,-0.3484752,0.05989411,-3.0786505,0.62536526,-0.00035824286,-0.031506684,-0.0011662738,0.0021269089,-0.013838561,0.005349807,-0.0025227214,0.47663483,-1.4243498,1.9560803,-2.1008327,-1.5705141,2.451877,-0.033337273,0.043445565,-0.054395556,-0.0001853263,0.0097174775,-0.03079672,-0.17238252,0.34476504,-9.423578,0.7933669,47.684196,-0.8457903,-2.2186692,-3.30405,-0.44171757,0.089342356,-0.28272748,27.6875,28.75,27.9375,31.875,33.75,34.6875
0.07005238,-0.58468515,-0.23594058,0.33195302,-0.016500114,0.024672363,-0.16796401,-0.3821021,-0.34847343,0.05988773,-3.0786843,0.62537175,-0.00035158786,-0.032931834,-0.001536164,0.0030572931,-0.015266503,0.0071020834,-0.0020262809,0.47656256,-1.4242659,1.9560074,-2.1008685,-1.5704902,2.4518046,-0.034287527,0.0438258,-0.05694988,-0.00022337552,0.010178193,-0.0322426,-0.11492168,0.30645782,-9.270349,0.8179876,47.68599,-0.9182534,-2.046942,-3.2598705,-0.43985137,0.073237576,-0.26911625,27.6875,28.75,27.9375,31.875,33.75,34.6875
0.072052576,-0.6226358,0.093266994,0.11473996,-0.011460911,0.028352695,-0.15941495,-0.38219,-0.3484915,0.05991476,3.0786664,-0.6254059,0.00028572083,-0.03474906,-0.0020337394,0.003316047,-0.015705325,0.008000354,-0.0011492281,0.4764903,-1.424181,1.9558514,-2.1008804,-1.5704545,2.451756,-0.03505488,0.046721876,-0.060849823,-0.00021674749,0.010151193,-0.033883713,-0.24899697,0.21068975,-9.32781,0.7709874,47.71286,-0.91746217,-2.1448019,-3.0775704,-0.4182173,0.08474042,-0.2676921,27.6875,28.75,27.9375,31.875,33.75,34.6875
0.07405258,-0.8683754,-0.06763291,0.15571368,-0.005214026,0.026846357,-0.16238807,-0.38226795,-0.34850717,0.05994689,3.0785933,-0.62541026,0.00021014635,-0.033565756,-0.0014813578,0.0015028758,-0.014509045,0.004211071,-0.00011233257,0.4764301,-1.4241204,1.9557089,-2.1008804,-1.5704297,2.4517078,-0.035380237,0.04838475,-0.058609437,-0.00020485536,0.01083438,-0.035247028,-0.22984336,0.11492168,-9.308656,0.8314132,47.71286,-1.0126113,-2.1971097,-3.1587417,-0.4266104,0.073844925,-0.2750552,27.6875,28.75,27.9375,31.875,33.75,34.6875
0.07605256,-0.84795326,0.1653859,0.34804624,-0.009595217,0.03599474,-0.15933087,-0.38232595,-0.3484968,0.059924338,3.078644,-0.62534213,0.0002818021,-0.034728423,-0.0022761484,0.0020517993,-0.015462633,0.005373635,0.0007437195,0.47635812,-1.4239762,1.9555877,-2.100845,-1.5704297,2.451587,-0.035233866,0.04992415,-0.06163045,-0.00019384957,0.011140863,-0.03595608,-0.17238252,0.0,-9.289502,0.8179876,47.704796,-1.042026,-2.1248193,-3.098333,-0.43842852,0.065995604,-0.3071785,27.6875,28.75,27.9375,31.875,33.75,34.6875
0.07805275,-1.4424275,-0.29378855,0.35515758,-0.0032645299,0.026508117,-0.15187387,-0.38241082,-0.348509,0.059952196,3.07856,-0.62540185,0.00020440186,-0.035458647,-0.0024645317,0.0021488431,-0.015912293,0.0055627883,0.0005390288,0.47628605,-1.423904,1.9554442,-2.1008565,-1.5704058,2.451563,-0.03576689,0.05103678,-0.063126646,-0.0001839431,0.011454376,-0.03628304,-0.24899697,0.05746084,-9.32781,0.8157518,47.704796,-1.1225275,-2.1697674,-3.128192,-0.4316503,0.07353469,-0.31069976,27.6875,28.75,27.9375,31.875,33.75,34.6875
0.080051854,-0.82139665,0.2910287,0.44747564,-0.009822982,0.04386742,-0.16046822,-0.3824986,-0.3485294,0.059951503,3.078504,-0.6253521,0.00014021777,-0.036800086,-0.0024231276,0.002422531,-0.01652935,0.0061561614,0.00047189672,0.47622555,-1.4237717,1.9553112,-2.100928,-1.5703815,2.4514785,-0.037246056,0.05234606,-0.06525419,-0.00017499883,0.011729647,-0.037693378,-0.24899697,0.095768064,-9.232041,0.7642693,47.68062,-1.1349229,-2.193346,-3.100682,-0.40937418,0.04959844,-0.32275409,27.6875,28.75,27.9375,31.875,33.75,34.6875
0.082051806,-0.835665,0.3419538,0.33197615,-0.0061405865,0.038394194,-0.15844509,-0.38254035,-0.34852353,0.05994957,3.07851,-0.6253329,0.00023400522,-0.037497785,-0.0023492621,0.0021301087,-0.015684085,0.006133598,0.002724841,0.4761534,-1.4236873,1.9552029,-2.1008565,-1.5703458,2.4513936,-0.037531443,0.05415893,-0.06666211,-0.00016688438,0.01098491,-0.040230207,-0.3256114,0.1340753,-9.251195,0.8157518,47.684196,-1.1707735,-2.1067412,-3.151333,-0.41765743,0.049694505,-0.3272114,27.6875,28.75,27.9375,31.875,33.75,34.6875
0.08405175,-1.1189963,0.11139197,0.4554196,-0.003676067,0.031159166,-0.16352448,-0.38261327,-0.34850746,0.059927978,3.0785172,-0.62533385,0.00024957763,-0.03825435,-0.0027180652,0.0021930626,-0.016370058,0.0061556622,0.0027796747,0.47605732,-1.423555,1.9551066,-2.1008804,-1.5703453,2.4512973,-0.037951402,0.05560197,-0.06846697,-0.00013999754,0.0115813995,-0.0407049,-0.3256114,0.19153613,-9.232041,0.8560339,47.719128,-1.24495,-2.185785,-3.0525668,-0.41735086,0.052057497,-0.34711128,27.6875,28.75,27.9375,31.875,33.75,34.6875
0.08605213,-0.6898657,0.0048355665,0.35851115,-0.008680992,0.038948838,-0.16056949,-0.38267425,-0.34851128,0.059944905,3.0784707,-0.6253838,0.00027023102,-0.039614405,-0.0024788994,0.0023954026,-0.016293706,0.0069189514,0.00030738793,0.47598472,-1.4234827,1.9549745,-2.1008327,-1.5703095,2.4512618,-0.039347704,0.056963794,-0.070492856,-0.00011587211,0.011160883,-0.03962695,-0.28730422,0.21068975,-9.155427,0.83589023,47.72629,-1.247666,-2.0853455,-3.0652435,-0.40305507,0.041802794,-0.36713076,27.6875,28.75,27.9375,31.875,33.75,34.6875
0.08805262,-1.1475322,-0.018531678,0.22069456,-0.017507657,0.035702962,-0.15909138,-0.3827804,-0.34851912,0.059954945,3.0784562,-0.62534094,0.00022668019,-0.040387914,-0.0025522204,0.0027605365,-0.016476445,0.0078439955,0.0021478955,0.47590077,-1.4233268,1.9547709,-2.1008208,-1.5703095,2.451153,-0.039747313,0.057428736,-0.0718671,-0.000109965666,0.010899244,-0.041865557,-0.2681506,0.15322891,-9.251195,0.86498255,47.717335,-1.3121973,-2.0868673,-3.0802736,-0.40387166,0.06381025,-0.36785966,27.6875,28.75,27.9375,31.875,33.75,34.6875
0.09005263,-1.0885773,-0.22058888,-0.026223332,-0.024109295,0.03738949,-0.1594566,-0.3828595,-0.34852108,0.05994638,3.0784128,-0.6253515,0.00020817664,-0.041706678,-0.001984345,0.0012392674,-0.015606448,0.005161037,0.0018629488,0.47581592,-1.423205,1.9546622,-2.1008685,-1.5702857,2.4510803,-0.042254895,0.06226275,-0.07392076,-0.000105873485,0.0113533065,-0.04408667,-0.30645782,0.21068975,-9.251195,0.83813137,47.690468,-1.2846885,-2.2649102,-3.041204,-0.40602946,0.041975863,-0.36668038,27.6875,28.75,27.9375,31.875,33.75,34.6875
0.09205259,-0.90428394,-0.92856044,0.08889305,-0.018361775,0.040010776,-0.16011487,-0.3829349,-0.34852812,0.05996247,3.0783763,-0.62528414,0.00017238322,-0.04275126,-0.0020524028,0.002660649,-0.017037315,0.007658173,0.0048396047,0.47574356,-1.4231216,1.9545301,-2.1008685,-1.5702618,2.4509706,-0.043167047,0.060597893,-0.07531128,7.710031e-05,0.011482533,-0.047974717,-0.2681506,0.22984336,-9.404425,0.7978386,47.684196,-1.2136728,-2.1795075,-3.0443616,-0.41558123,0.04210641,-0.36656007,27.6875,28.75,27.9375,31.875,33.75,34.6875
0.09405245,-0.82494646,-0.34734505,-0.053543642,-0.037799448,0.045991335,-0.1592492,-0.383028,-0.34854278,0.059973963,3.07838,-0.62522656,0.0001583398,-0.042854555,-0.0026623711,0.0025512236,-0.017137097,0.0074966196,0.006453801,0.4756838,-1.4229649,1.9543141,-2.1008208,-1.5702618,2.4508746,-0.04227395,0.061870117,-0.076534554,0.0001264405,0.011644235,-0.048695117,-0.2681506,0.22984336,-9.442732,0.8493211,47.717335,-1.3468289,-2.0349236,-3.09731,-0.40358287,0.05269485,-0.36342993,27.6875,28.75,27.9375,31.875,33.75,34.6875
0.09605255,-1.2291331,-0.81563795,-0.33186474,-0.023906227,0.036602832,-0.15006162,-0.3831308,-0.34854576,0.059983794,3.078299,-0.6252504,0.00013506167,-0.044161342,-0.0021765742,0.0022878207,-0.017224569,0.0070663304,0.0040015946,0.475563,-1.4228442,1.9541591,-2.100845,-1.5702132,2.450779,-0.044501036,0.06381115,-0.078164205,0.00016026362,0.011920109,-0.04846857,-0.22984336,0.2681506,-9.461885,0.842603,47.711063,-1.4164746,-2.1291108,-3.0589,-0.4067583,0.040590845,-0.36867738,27.6875,28.75,27.9375,31.875,33.75,34.6875
0.09805571,-0.7957949,-0.53890014,-0.3505247,-0.027575528,0.03903815,-0.15725097,-0.38321713,-0.34855404,0.05999772,3.0782762,-0.62516606,8.9010784e-05,-0.04491607,-0.0015117475,0.0007857805,-0.015709449,0.0042508584,0.0058630765,0.47549057,-1.4227346,1.9540023,-2.100845,-1.5702013,2.450657,-0.046328403,0.06786673,-0.07947816,0.00061854115,0.011864391,-0.052155595,-0.1340753,0.2873042,-9.423578,0.79560274,47.703903,-1.328306,-2.275224,-3.0944939,-0.40079343,0.044375397,-0.353373,27.6875,28.75,27.9375,31.875,33.75,34.6875
0.10005192,-0.8174342,-0.5273055,-0.21664406,-0.02752094,0.029662596,-0.15591876,-0.38329795,-0.3485474,0.0599899,3.0782685,-0.62514585,0.00015552402,-0.04600821,-0.00027182008,0.0013169518,-0.016031414,0.0050338865,0.0059032184,0.47538152,-1.4225911,1.9538478,-2.1008084,-1.570166,2.4505363,-0.04947035,0.0666546,-0.07937734,0.00089111424,0.011793692,-0.055338223,-0.15322891,0.28730422,-9.442732,0.7597976,47.675243,-1.2603092,-2.0368917,-3.1318302,-0.39786458,0.04151418,-0.34246296,27.6875,28.75,27.9375,31.875,33.75,34.6875
0.10205227,-1.1289043,-0.7694275,-0.07364766,-0.0194675,0.017266143,-0.15221974,-0.38337648,-0.3485406,0.059973713,3.0782542,-0.6251029,0.00011218378,-0.048065472,-0.00064441486,0.0017471812,-0.016004885,0.0067183073,0.007952326,0.47529724,-1.4224699,1.9537624,-2.10088,-1.570166,2.450427,-0.050170586,0.06940715,-0.083484754,0.0007655492,0.010993844,-0.058083694,-0.24899697,0.17238252,-9.519346,0.7665104,47.68062,-1.2289356,-2.2585282,-3.094686,-0.40741783,0.056686092,-0.32111144,27.6875,28.75,27.9375,31.875,33.75,34.6875
0.10405209,-0.92732453,-0.45602944,-0.091454506,-0.016258933,0.022126116,-0.15409866,-0.38348797,-0.34853286,0.059974868,3.0782247,-0.62515265,0.00013656272,-0.046989445,-0.00029109066,-0.00014228593,-0.014256832,0.0032547796,0.011164827,0.4751653,-1.4223009,1.9535588,-2.100845,-1.5701417,2.45033,-0.049814943,0.07175177,-0.08183558,0.0006554025,0.011029743,-0.060941055,-0.095768064,0.24899697,-9.3661175,0.84708,47.731667,-1.3944712,-2.1991436,-3.183617,-0.40334284,0.06397038,-0.2616642,27.6875,28.75,27.9375,31.875,33.75,34.6875
0.106052324,-1.1851578,-0.44825843,-0.13666101,-0.003448908,0.02135111,-0.15928721,-0.383595,-0.3485424,0.05998333,3.0781744,-0.6251225,8.9267654e-05,-0.048430555,0.00031387075,-2.966877e-05,-0.0147386165,0.0035463055,0.0113467425,0.47506845,-1.4221563,1.9533795,-2.1008685,-1.5701178,2.4502208,-0.0523865,0.07277212,-0.08324928,0.0005719662,0.011326915,-0.063693374,-0.076614454,0.15322891,-9.32781,0.83813137,47.691364,-1.3497009,-2.2722635,-3.3338048,-0.38981992,0.040206756,-0.22215918,27.6875,28.75,27.9375,31.875,33.75,34.6875
0.10805225,-0.9910189,-0.38075075,-0.09606417,-0.0017480552,0.02318146,-0.15859832,-0.38369393,-0.3485235,0.059976514,3.0782068,-0.6250903,7.9647645e-05,-0.05128079,0.00046201568,0.0010061531,-0.015749881,0.006033754,0.011852999,0.47495946,-1.4219997,1.9532107,-2.100845,-1.5701417,2.4500878,-0.055089682,0.074489124,-0.08757409,0.0005073416,0.011080618,-0.066900246,-0.05746084,0.17238252,-9.32781,0.7933669,47.707485,-1.2185378,-2.2564983,-3.037026,-0.38382405,0.04139036,-0.19635063,27.6875,28.75,27.9375,31.875,33.75,34.6875
0.11005233,-0.6812678,0.12787983,0.053499144,-0.011185631,0.027774807,-0.15470983,-0.3837885,-0.34855598,0.059989296,3.0781374,-0.62499744,0.00012293064,-0.05045469,0.00073829654,5.878056e-05,-0.015481977,0.003875226,0.013975022,0.47487557,-1.4218433,1.9529971,-2.1008208,-1.5700573,2.4499547,-0.055294216,0.074952476,-0.085938625,0.0004558594,0.0118367225,-0.06922805,-0.24899697,0.1340753,-9.404425,0.8157518,47.688675,-1.2554591,-2.225238,-3.3188124,-0.36513025,0.030507002,-0.16094407,27.6875,28.75,27.9375,31.875,33.75,34.6875
0.11205231,-0.9202235,0.06786727,0.030286439,-0.0093081435,0.032529578,-0.16051787,-0.38390568,-0.34856826,0.06000894,3.0780587,-0.6249047,2.5516894e-05,-0.051964406,0.00094755087,0.00039861043,-0.015580911,0.004896333,0.013879716,0.47476697,-1.421723,1.9528283,-2.1008804,-1.570022,2.4497983,-0.056787618,0.076254115,-0.088217005,0.00048516094,0.011462331,-0.07062318,-0.22984336,0.05746084,-9.442732,0.7463667,47.645687,-1.2410613,-2.1341574,-3.2048109,-0.3751459,0.032176062,-0.119907334,27.6875,28.75,27.9375,31.875,33.75,34.6875
0.11405162,-0.8952103,-0.09476206,-0.07001215,-0.0029309182,0.04384166,-0.15622938,-0.38403094,-0.34854284,0.06001321,3.0780659,-0.6248885,-2.6044654e-05,-0.05265341,0.0014771058,-1.8317587e-05,-0.015028906,0.0043699066,0.011730892,0.47462243,-1.4215662,1.9526366,-2.1008685,-1.5700458,2.449643,-0.05817512,0.07761471,-0.088825464,0.00045402657,0.011213458,-0.06986085,-0.076614454,0.038307227,-9.3661175,0.89631605,47.67345,-1.2759299,-2.1807027,-3.3575363,-0.37407255,0.033661716,-0.10127572,27.6875,28.75,27.9375,31.875,33.75,34.6875
0.11605186,-1.3942555,-0.019593986,0.09180246,0.0025156473,0.033562362,-0.15397522,-0.3841035,-0.3485303,0.05999519,3.078077,-0.6247939,8.078836e-05,-0.053304482,0.0016242393,0.000277341,-0.015992358,0.0045904815,0.011658574,0.47450212,-1.4214219,1.9525045,-2.1008327,-1.5699972,2.4494622,-0.05950365,0.07759743,-0.08950594,0.0005181832,0.011966829,-0.071118094,-0.21068975,0.038307227,-9.404425,0.8627467,47.69763,-1.260627,-2.0804906,-3.4046516,-0.3608508,0.040408105,-0.07630058,27.6875,28.75,27.9375,31.875,33.75,34.6875
0.11805203,-0.69313645,0.37921688,0.0033707905,-0.004425009,0.046786014,-0.16419531,-0.3842295,-0.34854096,0.060014334,3.0780516,-0.6247345,8.590956e-06,-0.053706072,0.0022256183,-0.00044999775,-0.014815595,0.0036395183,0.006695761,0.47440583,-1.4212532,1.9522651,-2.1008208,-1.5699977,2.4493322,-0.06052254,0.0792158,-0.089699455,0.00047779194,0.011357275,-0.06717254,-0.30645782,0.019153614,-9.404425,0.83813137,47.699425,-1.3072126,-2.1317332,-3.457121,-0.3634845,0.026582124,-0.10728327,27.6875,28.75,27.9375,31.875,33.75,34.6875
0.12005206,-0.9818696,-0.011536245,-0.07253846,0.00440561,0.0381509,-0.14246622,-0.3843404,-0.34853917,0.060000475,3.0780032,-0.6247247,-2.6232998e-05,-0.055853426,0.0017551092,0.00080901844,-0.016642438,0.0060532987,0.003598345,0.47428533,-1.4210849,1.9521207,-2.1008928,-1.5699733,2.4492118,-0.061969,0.08009034,-0.09359562,0.00051784987,0.011875337,-0.0655195,-0.34476504,0.076614454,-9.442732,0.7642693,47.68599,-1.2934389,-2.0066836,-3.3407207,-0.34975702,0.046438973,-0.11786991,27.6875,28.75,27.9375,31.875,33.75,34.6875
0.12205224,-1.1671784,-0.16645293,-0.07282747,0.0021815938,0.031833153,-0.15145342,-0.38445565,-0.34852824,0.060005482,3.0779872,-0.6247604,-1.34352895e-05,-0.05553688,0.0025672212,-0.00019974979,-0.015580427,0.0041071638,0.0029059062,0.47415292,-1.4209164,1.9519056,-2.100845,-1.5699619,2.4491038,-0.0630627,0.08092856,-0.09227916,0.0005823247,0.011823897,-0.065921284,-0.34476504,0.095768064,-9.385271,0.83365434,47.71286,-1.302735,-1.9830561,-3.5074825,-0.35769242,0.028987011,-0.10271551,27.6875,28.75,27.9375,31.875,33.75,34.6875
0.12405212,-0.9150938,-0.21878356,0.09990947,-0.008573765,0.0428246,-0.15631911,-0.38455826,-0.34851748,0.05999341,3.0779576,-0.62475693,5.1021198e-05,-0.057404947,0.0021569312,-0.00033013924,-0.015709896,0.0031850864,-0.0021404694,0.47400847,-1.4207467,1.9517359,-2.1008317,-1.5699133,2.448961,-0.064366154,0.0851997,-0.09720524,0.0019989882,0.01235135,-0.062176213,-0.28730422,0.038307227,-9.461885,0.842603,47.705692,-1.2857084,-2.1031575,-3.4551034,-0.3566047,0.04733244,-0.12963177,27.6875,28.75,27.9375,31.875,33.75,34.6875
0.12605192,-1.0337027,-0.10474726,-0.036679115,-0.017025923,0.040764,-0.15519385,-0.38468638,-0.34851727,0.060018476,3.0778983,-0.6247673,1.7548084e-06,-0.05855685,0.0036484064,0.00071573205,-0.01638927,0.0048509836,-0.007988041,0.4738754,-1.4206035,1.9515094,-2.100808,-1.5698894,2.448842,-0.06793666,0.08252392,-0.096605904,0.0022851606,0.012201302,-0.059899084,-0.3256114,0.038307227,-9.404425,0.900793,47.690468,-1.180048,-1.8980389,-3.4812996,-0.3579334,0.027725913,-0.1913577,27.6875,28.75,27.9375,31.875,33.75,34.6875
0.12805198,-1.5569669,-0.75133526,-0.2559611,-0.0011217713,0.041920513,-0.14665316,-0.38479066,-0.34851038,0.060009137,3.0778944,-0.62474644,-1.4070105e-05,-0.059382807,0.002283337,0.0011270778,-0.016578617,0.0063614235,-0.006075303,0.47376812,-1.4204346,1.9513401,-2.1008203,-1.5698899,2.4487224,-0.065913945,0.08472964,-0.10003737,0.0020835951,0.0116747515,-0.059786443,-0.30645782,0.1340753,-9.385271,0.81351066,47.661808,-1.3456793,-1.8981712,-3.4562225,-0.35622406,0.04808288,-0.21349339,27.6875,28.75,27.9375,31.875,33.75,34.6875
0.1300521,-1.5392327,-0.7862394,-0.25410056,-0.0065778955,0.049436554,-0.15022665,-0.38492128,-0.34849384,0.059999578,3.0778742,-0.62480044,7.7775674e-08,-0.06055201,0.00258546,0.001293803,-0.017549267,0.0066637164,-0.008678992,0.47361133,-1.42023,1.951125,-2.1008084,-1.5698775,2.448602,-0.06795782,0.08547851,-0.10123047,0.0018156619,0.012399144,-0.059226565,-0.3256114,0.17238252,-9.500193,0.77545905,47.675243,-1.2724907,-1.9914873,-3.4022093,-0.33755422,0.045127593,-0.22039929,27.6875,28.75,27.9375,31.875,33.75,34.6875
0.13205196,-1.2976369,-0.25348586,-0.2783101,-0.020969361,0.06008548,-0.16055824,-0.3850421,-0.34850457,0.060022507,3.0777543,-0.6248363,-4.780249e-06,-0.06318475,0.0040079006,0.0020990863,-0.018209504,0.008538576,-0.013345932,0.4734657,-1.4200978,1.9509214,-2.1008084,-1.5697936,2.448494,-0.07268093,0.08562273,-0.10321485,0.0016939916,0.012133575,-0.059280645,-0.40222588,0.19153613,-9.481039,0.8157518,47.690468,-1.1360937,-1.7940483,-3.4483929,-0.3482268,0.03849241,-0.25092152,27.6875,28.75,27.9375,31.875,33.75,34.6875
0.13405187,-1.2973698,-0.29521888,-0.43487293,-0.023170521,0.056951925,-0.15088195,-0.38516328,-0.3484732,0.060004484,3.077801,-0.62478626,-2.3746545e-05,-0.06277753,0.0028735416,0.0015902023,-0.018077413,0.007388996,-0.010820013,0.47332245,-1.419905,1.9507416,-2.1008084,-1.5698293,2.4483137,-0.070538156,0.087877385,-0.10472969,0.002036063,0.012539306,-0.059663285,-0.5363012,0.21068975,-9.576807,0.88960326,47.719128,-1.2335875,-1.8625894,-3.3660746,-0.35079706,0.05500289,-0.28717452,27.6875,28.75,27.9375,31.875,33.75,34.6875
0.13605201,-1.6147134,-0.6625153,-0.56989557,-0.028297724,0.048327588,-0.14806844,-0.38529775,-0.34849158,0.060026158,3.0776906,-0.62488085,-7.8028046e-05,-0.0644679,0.0041937274,0.0015475982,-0.017339215,0.0076314746,-0.013862196,0.47320142,-1.4197365,1.9505018,-2.1008198,-1.5697817,2.4482658,-0.073896624,0.088991486,-0.10598185,0.0023021684,0.011776566,-0.059977267,-0.45968673,0.30645782,-9.595961,0.8672237,47.71823,-1.1961762,-1.8565557,-3.4981189,-0.3471196,0.07042624,-0.3153933,27.6875,28.75,27.9375,31.875,33.75,34.6875
0.13805191,-1.261647,-0.37023017,-0.5336775,-0.031280074,0.04950881,-0.1504039,-0.38544637,-0.34847984,0.060034614,3.0776646,-0.6248567,-0.0001354802,-0.065976776,0.0044343136,0.001553886,-0.017302027,0.0072704176,-0.015264075,0.4730447,-1.4195435,1.9502615,-2.1008198,-1.5697812,2.4480975,-0.07575265,0.0913361,-0.108907804,0.0032236783,0.01190926,-0.060429357,-0.49799395,0.2681506,-9.653421,0.83365434,47.703903,-1.0897002,-1.8574033,-3.4300766,-0.33392665,0.07269149,-0.33117223,27.6875,28.75,27.9375,31.875,33.75,34.6875
0.14005186,-1.2416657,-0.7923147,-0.6675042,-0.018165577,0.046561845,-0.15471753,-0.38554347,-0.34846342,0.06001421,3.0776293,-0.62494594,-1.7124767e-05,-0.06704935,0.0046156975,0.0014870276,-0.017690673,0.0068177953,-0.015915278,0.47288817,-1.4193627,1.9500927,-2.1007836,-1.5697211,2.4480011,-0.07738049,0.09298525,-0.11075895,0.0036560239,0.012458435,-0.061405927,-0.53630114,0.21068975,-9.672575,0.8314132,47.68062,-1.0756885,-1.7992644,-3.4306946,-0.34605697,0.0738951,-0.352759,27.6875,28.75,27.9375,31.875,33.75,34.6875
0.1420519,-1.8882507,-0.9477407,-0.59719133,-0.021470444,0.032382827,-0.15037763,-0.3857194,-0.3484475,0.06005294,3.0775728,-0.6249739,-0.000145186,-0.06863742,0.0047949287,0.0018008668,-0.017987378,0.0077836406,-0.01763244,0.47270766,-1.4191941,1.9498056,-2.1007597,-1.5697335,2.4478455,-0.07899369,0.09445324,-0.11315601,0.00359216,0.012285799,-0.061299294,-0.4213795,0.19153613,-9.634268,0.8179876,47.684196,-1.0431999,-1.7343782,-3.3483849,-0.35676926,0.08331634,-0.3799852,27.6875,28.75,27.9375,31.875,33.75,34.6875
0.14405198,-1.750044,-0.39310417,-0.2585631,-0.027382229,0.045055307,-0.15049824,-0.38586542,-0.3484389,0.06006786,3.0775096,-0.62501854,-0.00021597151,-0.069359034,0.0051236567,-0.0009276625,-0.016705025,0.0030873793,-0.019063728,0.472551,-1.4190234,1.9495786,-2.1007717,-1.5697206,2.4477248,-0.080846086,0.10125573,-0.11460529,0.0030037279,0.013283951,-0.06171828,-0.38307226,0.17238252,-9.5385,0.9231726,47.70032,-0.992012,-1.9612813,-3.2914214,-0.36023986,0.090595886,-0.4305618,27.6875,28.75,27.9375,31.875,33.75,34.6875
0.1460526,-1.319039,-0.025926283,-0.37567827,-0.022607563,0.058930725,-0.15657781,-0.3859912,-0.3484237,0.060042866,3.0774608,-0.6251247,-0.000116731644,-0.0723647,0.003999901,0.0018695076,-0.02005374,0.008960422,-0.0198258,0.47237074,-1.4187957,1.9493722,-2.1007602,-1.5696605,2.447617,-0.081748895,0.1004556,-0.11995658,0.0024067876,0.013580758,-0.061857082,-0.4405331,0.17238252,-9.557653,0.8985519,47.690468,-1.0026916,-1.9089383,-3.1189017,-0.3397072,0.08159268,-0.45934367,27.6875,28.75,27.9375,31.875,33.75,34.6875
0.14805178,-1.3063532,-0.04842301,-0.27855948,-0.023119401,0.054935034,-0.15083696,-0.38613877,-0.34841508,0.060052615,3.077389,-0.6251863,-0.00010884527,-0.07250627,0.004759456,-0.000994993,-0.018405756,0.0038820521,-0.019912217,0.47219002,-1.4186014,1.9491218,-2.1007364,-1.5696124,2.447484,-0.083733,0.106131725,-0.11982293,0.0018735478,0.01442875,-0.06375394,-0.38307226,0.17238252,-9.404425,0.800085,47.672558,-0.91609776,-2.0425575,-3.2582157,-0.31837118,0.08281471,-0.4718116,27.6875,28.75,27.9375,31.875,33.75,34.6875
0.15005177,-1.5377406,-0.35441875,-0.26156792,-0.01595818,0.04838626,-0.14975305,-0.38628206,-0.34841365,0.060065202,3.0773442,-0.6251769,-0.000199668,-0.07484594,0.0047406354,0.001491198,-0.020376462,0.008976511,-0.019794676,0.47205743,-1.418422,1.948893,-2.1007607,-1.5696129,2.4473515,-0.085428745,0.10387223,-0.12290205,0.0017845419,0.013868532,-0.06556477,-0.40222588,0.19153613,-9.346964,0.8247004,47.684196,-0.8521832,-1.9361947,-3.109784,-0.3321885,0.10273446,-0.47585058,27.6875,28.75,27.9375,31.875,33.75,34.6875
0.15205264,-1.1988679,-0.30439776,-0.12112721,-0.023651605,0.048556596,-0.15661141,-0.38645747,-0.34839764,0.060080163,3.077288,-0.6252384,-0.00031171666,-0.07577796,0.0046754912,0.00074682577,-0.020515319,0.007261592,-0.014688938,0.47187698,-1.4182168,1.9486288,-2.100784,-1.5696243,2.4472167,-0.08670774,0.10719086,-0.12510987,0.0021429546,0.014782986,-0.07194727,-0.51714754,0.24899697,-9.423578,0.7933669,47.682407,-0.8581939,-2.0370696,-3.1240933,-0.32929987,0.094278865,-0.46907425,27.6875,28.75,27.9375,31.875,33.75,34.6875
0.15405217,-1.6438103,-0.9161332,-0.22803782,-0.013519494,0.040584985,-0.14867784,-0.38660544,-0.34841302,0.060101483,3.077183,-0.6251978,-0.00028930805,-0.07700689,0.0056742984,0.0006875532,-0.019755714,0.0067340545,-0.014893853,0.47170818,-1.4180241,1.9483536,-2.1007597,-1.5695289,2.447036,-0.08927278,0.10839384,-0.12663463,0.0032933932,0.014354826,-0.07430572,-0.4405331,0.19153613,-9.32781,0.8672237,47.709274,-0.782471,-2.0167565,-3.1559157,-0.32079682,0.11092205,-0.47005635,27.6875,28.75,27.9375,31.875,33.75,34.6875
0.15605196,-1.6741531,-0.6746156,0.02061623,-0.027215742,0.045861524,-0.14570369,-0.38675004,-0.34838843,0.060095295,3.0771854,-0.6252323,-0.000299138,-0.077181086,0.0045930427,0.0014473734,-0.020888535,0.007597326,-0.007859091,0.4715407,-1.4178079,1.9481143,-2.1007354,-1.5695404,2.4468899,-0.08788159,0.10850847,-0.12866752,0.003933437,0.014977604,-0.0799487,-0.3256114,0.24899697,-9.251195,0.8851263,47.68599,-0.8121935,-1.9484062,-3.227333,-0.3273759,0.1328089,-0.42909536,27.6875,28.75,27.9375,31.875,33.75,34.6875
0.15805219,-1.4805375,-0.79513985,0.42453316,-0.03326567,0.06063078,-0.1572743,-0.38691252,-0.34837398,0.060093515,3.077113,-0.6252522,-0.00030907363,-0.076980285,0.0051042545,0.00021231688,-0.01958791,0.0052615777,-0.0004481292,0.47133654,-1.4175909,1.9478749,-2.1007597,-1.5694922,2.4467075,-0.08850651,0.110572785,-0.12829809,0.004187689,0.014897037,-0.08798384,-0.34476504,0.22984336,-9.155427,0.83365434,47.694946,-0.9044045,-1.8623405,-3.1256258,-0.33112532,0.12516786,-0.33722156,27.6875,28.75,27.9375,31.875,33.75,34.6875
0.16005206,-0.8729478,0.3257502,0.32918027,-0.043520834,0.07982071,-0.16624562,-0.38707435,-0.34836078,0.060091432,3.077063,-0.6253184,-0.0002885726,-0.0801157,0.005279102,0.0014278279,-0.021445373,0.00789336,-0.00068214606,0.4711433,-1.4173502,1.9475979,-2.1007354,-1.5694565,2.446562,-0.09190783,0.112105004,-0.1328071,0.003984433,0.015354677,-0.0911487,-0.30645782,0.21068975,-9.251195,0.8224646,47.688675,-0.75541085,-1.9770427,-3.0610132,-0.33643574,0.11760694,-0.30776194,27.6875,28.75,27.9375,31.875,33.75,34.6875
0.16205214,-1.1171645,0.07546326,0.32487097,-0.010171127,0.055988196,-0.1609606,-0.38726354,-0.34833875,0.06010096,3.0770338,-0.62532645,-0.00037104686,-0.07879195,0.004541094,5.9724174e-05,-0.020064179,0.006024821,0.0072806817,0.4709405,-1.4171093,1.9472998,-2.100736,-1.5694684,2.4463682,-0.08911724,0.1141748,-0.1319429,0.0033516719,0.014986983,-0.09632001,-0.21068975,0.19153613,-9.136273,0.8179876,47.689575,-1.0226399,-1.8585012,-3.2235398,-0.32216698,0.14066246,-0.25744516,27.6875,28.75,27.9375,31.875,33.75,34.6875
0.16405205,-0.64427376,-0.019213649,0.4614755,0.0063863876,0.04187181,-0.15342443,-0.38744023,-0.34836707,0.06014481,3.0768955,-0.6252397,-0.00048975245,-0.07984081,0.0042555477,0.00046898753,-0.021336118,0.0069759507,0.00941812,0.47078407,-1.4169288,1.9470009,-2.1007717,-1.5693964,2.4461753,-0.08997752,0.114908524,-0.13362886,0.0028897352,0.015705623,-0.09931455,-0.13407528,0.19153613,-9.11712,0.91198283,47.704796,-1.0063688,-1.9572883,-3.1857207,-0.31406754,0.15489185,-0.18740386,27.6875,28.75,27.9375,31.875,33.75,34.6875
0.16605204,-0.73237854,-0.028390873,0.42056423,0.020065846,0.018980686,-0.14162564,-0.3875777,-0.3483425,0.06012462,3.0769336,-0.62516874,-0.00044330856,-0.07993989,0.0047673867,-0.0010006662,-0.019386787,0.0051035294,0.009972034,0.4706161,-1.4166874,1.9467615,-2.100736,-1.5693964,2.4459584,-0.090362236,0.117845416,-0.1335797,0.0024635447,0.014816483,-0.1002532,-0.15322891,0.1340753,-8.983045,0.8627467,47.72719,-1.1245837,-2.054877,-3.2477717,-0.29422167,0.17183897,-0.14904173,27.6875,28.75,27.9375,31.875,33.75,34.6875
0.16805223,-0.19217627,0.5686795,0.44963166,0.013714315,0.0059112622,-0.15292624,-0.38775483,-0.34832454,0.060126413,3.0768998,-0.62518126,-0.0005032617,-0.08110711,0.0041400003,0.00032097497,-0.021210734,0.007492241,0.009402323,0.470424,-1.4164476,1.9464849,-2.1007478,-1.5693964,2.4457786,-0.090610884,0.117269054,-0.13595735,0.0024621263,0.015361449,-0.09993047,0.019153614,0.095768064,-9.002198,0.8157518,47.71286,-1.0543729,-1.7943201,-3.1993124,-0.29487526,0.17930605,-0.12846555,27.6875,28.75,27.9375,31.875,33.75,34.6875
0.17005183,0.38701737,0.2766528,0.5406567,0.010416144,-0.0039051531,-0.1499297,-0.38793713,-0.34830648,0.060128063,3.0768654,-0.62512,-0.00056283927,-0.081828736,0.0046959566,-0.0001523807,-0.020501269,0.0064366786,0.0045661447,0.47021952,-1.4162066,1.9462098,-2.1007717,-1.5693845,2.4455404,-0.092097804,0.119030096,-0.13706641,0.0030734155,0.015210524,-0.096579686,0.019153614,0.05746084,-8.925584,0.800085,47.672558,-1.0909427,-1.9644661,-3.2801476,-0.27741376,0.19089991,-0.13229445,27.6875,28.75,27.9375,31.875,33.75,34.6875
0.17205183,0.89669025,0.33145547,0.36059263,0.0016296749,-0.004306041,-0.15758726,-0.38808605,-0.34830227,0.06011792,3.0768268,-0.6251155,-0.00048743284,-0.08298853,0.005135878,-0.0007024098,-0.02008259,0.0049702884,-0.001837137,0.4700387,-1.4159533,1.9459337,-2.1007354,-1.5693244,2.4453619,-0.0940615,0.121847585,-0.13928185,0.003970178,0.015493736,-0.09213903,0.076614454,0.0,-8.944737,0.8157518,47.667187,-1.0706558,-1.9304762,-3.3399894,-0.26705837,0.20989683,-0.17271028,27.6875,28.75,27.9375,31.875,33.75,34.6875
0.1740517,0.6808195,0.121471815,0.30279672,-0.0012656973,-0.0146257095,-0.14907989,-0.388251,-0.34830248,0.06011072,3.0767715,-0.6251242,-0.00046747903,-0.082953714,0.004981087,-0.0008411094,-0.020439774,0.0038515765,-0.0048555313,0.46985874,-1.4156889,1.9456462,-2.100735,-1.5692757,2.4451945,-0.09423986,0.12254608,-0.13999084,0.0048169363,0.016319511,-0.089298435,0.11492168,0.095768064,-9.021352,0.88960326,47.704796,-1.0046027,-1.9446354,-3.3514342,-0.27882582,0.21880227,-0.18703873,27.6875,28.75,27.9375,31.875,33.75,34.6875
0.17605163,0.08490493,-0.24754882,-0.035680104,-0.0026826905,-0.023629593,-0.15256998,-0.38842875,-0.34827054,0.060125485,3.0767348,-0.6251596,-0.0005239876,-0.08368797,0.005964548,-0.0021096815,-0.019947693,0.0010739529,-0.012600294,0.46964177,-1.415484,1.9453715,-2.100711,-1.5692757,2.4450045,-0.097114064,0.12535384,-0.14041965,0.0051316335,0.017137116,-0.08442656,0.15322891,0.11492168,-9.002198,0.85826975,47.667187,-0.9268011,-1.9267397,-3.334609,-0.2829737,0.21729988,-0.2646417,27.6875,28.75,27.9375,31.875,33.75,34.6875
0.1780518,0.28380454,-0.8824635,-0.038698185,-0.004997516,-0.008172529,-0.14244,-0.38858244,-0.34824958,0.060116507,3.0767016,-0.625264,-0.00048485553,-0.08377455,0.004646543,-0.0016012269,-0.020418363,0.0011967816,-0.008614836,0.46945044,-1.415243,1.9451069,-2.1006749,-1.5692514,2.4448826,-0.09505357,0.12660223,-0.1433556,0.0065034335,0.01750182,-0.08635043,0.17238252,0.21068975,-9.097966,0.7978386,47.64927,-1.0929577,-2.0322661,-3.2316012,-0.28758606,0.2345615,-0.2864042,27.6875,28.75,27.9375,31.875,33.75,34.6875
0.1800517,0.001478396,-0.3919142,0.09208208,-0.03050294,0.0016166386,-0.153518,-0.38875332,-0.34824073,0.06011005,3.076678,-0.6252432,-0.00044777818,-0.08577514,0.0055073807,-0.0011580732,-0.02045334,0.0017499013,-0.013012091,0.46925765,-1.4149667,1.9447955,-2.1006382,-1.5692157,2.44468,-0.09818248,0.12786895,-0.14607142,0.007448953,0.017279124,-0.08508086,0.095768064,0.24899697,-9.155427,0.79560274,47.683304,-1.0864354,-1.7778978,-3.5022092,-0.30440742,0.24708426,-0.29430565,27.6875,28.75,27.9375,31.875,33.75,34.6875
0.1820518,-0.4598855,-1.3203759,-0.39334202,-0.01843638,0.0005274557,-0.14660157,-0.3889053,-0.34824356,0.06009035,3.0766404,-0.625214,-0.00044017486,-0.08548592,0.0044310726,-0.0010079652,-0.021473527,0.0015402182,-0.011330945,0.46910235,-1.4147018,1.9445442,-2.1006744,-1.5691794,2.4445114,-0.096624225,0.12847866,-0.14720297,0.0076989583,0.018285802,-0.08520281,0.05746084,0.40222588,-9.289503,0.84484416,47.689575,-1.0370882,-2.021213,-3.4123473,-0.32260913,0.23183078,-0.32220227,27.6875,28.75,27.9375,31.875,33.75,34.6875
0.18405169,-0.23219801,-1.1943151,-0.35071602,-0.04097723,0.020112075,-0.1532077,-0.38905925,-0.34821713,0.06009055,3.0765996,-0.62526387,-0.00037642088,-0.086683266,0.004433133,-0.0018110808,-0.021191176,-0.00021818235,-0.012555773,0.4688857,-1.4144845,1.94428,-2.1006143,-1.5691308,2.4443312,-0.09800424,0.13242045,-0.15007603,0.008332879,0.018825259,-0.0853564,0.095768064,0.49799395,-9.423578,0.9321212,47.693153,-1.1635218,-1.8975556,-3.3703685,-0.3260834,0.25711155,-0.3427131,27.6875,28.75,27.9375,31.875,33.75,34.6875
0.1860523,-0.80307335,-1.7353842,-0.63597655,-0.04783557,0.020764088,-0.14018539,-0.38922766,-0.34822702,0.060096856,3.0765474,-0.62523466,-0.0003063845,-0.08835967,0.004215673,-0.0005937504,-0.022424506,0.0016058931,-0.013854339,0.4687052,-1.4142082,1.9439315,-2.1005423,-1.5690588,2.4441392,-0.09925116,0.13271524,-0.1534242,0.009210309,0.01909798,-0.08530334,0.019153614,0.49799395,-9.442732,0.9097417,47.687782,-1.1167485,-1.9154241,-3.292336,-0.32850373,0.26310414,-0.36387986,27.6875,28.75,27.9375,31.875,33.75,34.6875
0.18805256,-0.54678625,-1.4550347,-0.98042756,-0.06260564,0.032548312,-0.15414505,-0.3894217,-0.34821904,0.060093205,3.0764904,-0.6252796,-0.0003367061,-0.08716789,0.004845539,-0.0023525984,-0.021619614,-0.0025124247,-0.012618652,0.4685009,-1.4139193,1.9436101,-2.1005538,-1.5690345,2.4439704,-0.09997593,0.1341571,-0.15119247,0.0095796995,0.020254212,-0.08726388,-0.15322891,0.5554548,-9.576807,0.84708,47.71017,-1.1950728,-1.9208314,-3.4618154,-0.33972538,0.25882933,-0.37374234,27.6875,28.75,27.9375,31.875,33.75,34.6875
0.19005257,-0.73426706,-1.9254341,-0.94607973,-0.07121747,0.04906823,-0.15031987,-0.38957793,-0.34819856,0.060069766,3.0764802,-0.62527585,-0.00029737898,-0.08862347,0.0043613487,-0.0018612159,-0.02273444,-0.00072405866,-0.0106621785,0.46830893,-1.4136544,1.9433588,-2.1005542,-1.5690106,2.4437776,-0.10049856,0.13547757,-0.15364842,0.008625535,0.020438308,-0.089741774,-0.15322891,0.5746084,-9.691729,0.8493211,47.652847,-1.1625395,-1.9086812,-3.3919048,-0.35870963,0.25196958,-0.37853813,27.6875,28.75,27.9375,31.875,33.75,34.6875
0.19205186,-1.3911513,-2.1039917,-0.79464406,-0.07371212,0.046373155,-0.14883514,-0.3897502,-0.34819713,0.06008034,3.0764291,-0.6253025,-0.0002933039,-0.090351164,0.0043279687,-0.0012548711,-0.023637125,0.00039206422,-0.008053405,0.46812832,-1.413402,1.9430331,-2.1005065,-1.5689744,2.4436202,-0.10213491,0.13681561,-0.15666904,0.00891769,0.020744966,-0.09398485,-0.21068975,0.51714754,-9.768343,0.82022345,47.666286,-1.1487665,-1.943431,-3.367217,-0.36962652,0.28504586,-0.36271438,27.6875,28.75,27.9375,31.875,33.75,34.6875
0.1940519,-0.9983953,-1.8002996,-1.0101826,-0.06319874,0.06446323,-0.1527628,-0.3899216,-0.34817713,0.0600556,3.0764103,-0.62527585,-0.00018695543,-0.09138378,0.0039753807,-0.00095151295,-0.024877472,0.0008955408,-0.0030492027,0.4679002,-1.4131012,1.9427351,-2.1004708,-1.5689138,2.443378,-0.10294812,0.13797557,-0.15870874,0.008805927,0.021627879,-0.09980196,-0.40222588,0.47884035,-9.749189,0.87617236,47.6636,-1.1765912,-1.8615901,-3.3299918,-0.3906092,0.28354418,-0.30993438,27.6875,28.75,27.9375,31.875,33.75,34.6875
0.196052,-1.515945,-1.8189396,-0.9996171,-0.042111773,0.054204397,-0.144256,-0.39017478,-0.3481966,0.060099173,3.076265,-0.62528265,-0.0003723854,-0.092689924,0.0033432052,-0.00023293907,-0.026995212,0.002697451,0.0015901146,0.4676838,-1.4128127,1.9423145,-2.1005185,-1.5688771,2.4431846,-0.10363416,0.13855474,-0.16081324,0.0077819293,0.022728449,-0.105122045,-0.40222588,0.4213795,-9.787497,0.9186956,47.67614,-1.1993017,-1.7792542,-3.2973042,-0.36916864,0.2727463,-0.25499427,27.6875,28.75,27.9375,31.875,33.75,34.6875
0.19805232,-1.4912711,-0.8538553,-0.76599383,-0.02570008,0.05940069,-0.1467809,-0.39034456,-0.34818846,0.0600971,3.076231,-0.6252153,-0.00031378603,-0.09474748,0.0034633095,-0.0002614691,-0.02866809,0.0037980892,0.0041476265,0.4674789,-1.4125476,1.9420031,-2.1004717,-1.5688175,2.4429421,-0.1062738,0.14071059,-0.16284272,0.0059359237,0.023728848,-0.110317476,-0.49799395,0.22984336,-9.576807,0.83589023,47.67614,-1.0676914,-1.9296346,-3.3390026,-0.35138196,0.26429424,-0.17350948,27.6875,28.75,27.9375,31.875,33.75,34.6875
0.20005214,-1.5274231,-0.114814416,-1.0254718,-0.0037573797,0.05341728,-0.15261339,-0.39052668,-0.34818497,0.060081486,3.0761654,-0.6252187,-0.00025578652,-0.09491203,0.0026582875,-0.0015741969,-0.02872963,0.0016509457,0.008254174,0.467263,-1.412246,1.9416913,-2.1004717,-1.568745,2.4427369,-0.105600454,0.1447988,-0.16447335,0.0053835534,0.024756579,-0.113748804,-0.4213795,0.114921674,-9.634268,0.8672237,47.679718,-1.2410479,-1.9637303,-3.3036103,-0.3495518,0.28080937,-0.12682219,27.6875,28.75,27.9375,31.875,33.75,34.6875
0.20205206,-1.4803025,0.19063123,-0.69587475,0.010785905,0.063652016,-0.1404313,-0.3906942,-0.3481913,0.060085464,3.076133,-0.62511796,-0.00023622063,-0.09678515,0.0045357435,-0.0019580228,-0.02907105,0.0012676866,0.00437013,0.4670932,-1.4119815,1.9413694,-2.1004364,-1.5686969,2.4425085,-0.11083976,0.14566606,-0.16448182,0.0047238525,0.025239708,-0.11510325,-0.36391866,0.019153614,-9.653421,0.83589023,47.689575,-0.97335243,-1.9494152,-3.426919,-0.33798152,0.2538699,-0.09531851,27.6875,28.75,27.9375,31.875,33.75,34.6875
0.20405197,-1.4408365,-0.08856326,-0.5975488,0.023359016,0.07064141,-0.1467666,-0.39092734,-0.34816203,0.06009852,3.0760455,-0.62511855,-0.0003452238,-0.09788218,0.0036647932,-0.0021447318,-0.028696878,0.0016811979,0.0037366345,0.46681777,-1.4117161,1.9410447,-2.1004841,-1.568673,2.4422448,-0.10987752,0.14907606,-0.168005,0.004644725,0.024724951,-0.11350288,-0.5554548,-0.095768064,-9.576807,0.82022345,47.694946,-1.1597468,-2.0578675,-3.450348,-0.32321185,0.25638086,-0.08460607,27.6875,28.75,27.9375,31.875,33.75,34.6875
0.20605206,-1.1539999,0.69240636,-0.3992524,0.015195859,0.086035416,-0.15456529,-0.3911176,-0.3481775,0.06008522,3.075997,-0.6250548,-0.0003132365,-0.098723255,0.0054952046,-0.003361785,-0.027098604,-0.000104159124,-0.002617646,0.46663663,-1.4113792,1.9406866,-2.1004841,-1.5686134,2.4420302,-0.11339157,0.15077218,-0.16719173,0.0044567273,0.024101786,-0.11066258,-0.53630114,-0.15322891,-9.500193,0.8672237,47.694054,-0.9911612,-2.1016972,-3.4532714,-0.32149142,0.25682354,-0.090776265,27.6875,28.75,27.9375,31.875,33.75,34.6875
0.20805211,-1.5183787,0.49271774,-0.33078846,0.02378935,0.06968551,-0.13876341,-0.39128202,-0.34816483,0.060066953,3.0759835,-0.6250546,-0.00024732947,-0.100057855,0.0057257144,-0.0029723637,-0.027688783,0.0006941693,-0.007844674,0.46644413,-1.4110905,1.9403871,-2.1004484,-1.5685772,2.4418395,-0.11503171,0.15160051,-0.16909859,0.0045575737,0.024258995,-0.10707531,-0.59376204,-0.19153613,-9.5385,0.8314132,47.689575,-0.9397472,-2.1620634,-3.4358268,-0.31684527,0.27762997,-0.13243563,27.6875,28.75,27.9375,31.875,33.75,34.6875
0.2100522,-0.9724603,0.44253588,-0.36997572,0.019192152,0.079494335,-0.14930937,-0.39153436,-0.3481559,0.0601038,3.0758715,-0.62509114,-0.0003586303,-0.1005825,0.0060003344,-0.0037183706,-0.027293956,-0.0009675297,-0.012986074,0.4661798,-1.4108015,1.939967,-2.100436,-1.5685409,2.4416125,-0.11615415,0.15394741,-0.17025204,0.005026499,0.02466011,-0.10305256,-0.68953013,-0.19153613,-9.5385,0.83365434,47.668976,-0.83242106,-2.0315938,-3.5199664,-0.3216287,0.27187318,-0.17856151,27.6875,28.75,27.9375,31.875,33.75,34.6875
0.21205215,-1.7282846,0.18862303,-0.16566274,0.018387437,0.053545862,-0.14491153,-0.39171278,-0.34814548,0.060083263,3.0758176,-0.6251197,-0.00029948045,-0.10182229,0.005539234,-0.0024031901,-0.028433833,0.0013244892,-0.016757801,0.46596378,-1.4105014,1.9396676,-2.100436,-1.5684808,2.4414213,-0.116367765,0.15359661,-0.17301458,0.0055840584,0.02463945,-0.09949342,-0.63206923,-0.19153613,-9.385271,0.8784135,47.668976,-0.91220987,-2.0739744,-3.4336681,-0.31631762,0.2818872,-0.22786808,27.6875,28.75,27.9375,31.875,33.75,34.6875
0.21405205,-1.983608,-0.5535741,0.039184783,0.028636908,0.05424104,-0.13893418,-0.39193875,-0.34813625,0.060095944,3.0756962,-0.62517375,-0.00033149883,-0.10312029,0.004618519,-0.0016981941,-0.029036745,0.0031527642,-0.018934678,0.4657,-1.410212,1.9393076,-2.100448,-1.5684088,2.441207,-0.11563878,0.15525068,-0.17657183,0.005591244,0.024355458,-0.096583866,-0.7661445,-0.095768064,-9.212888,0.83813137,47.698532,-1.0555748,-2.1940887,-3.479298,-0.30919582,0.29304773,-0.27148053,27.6875,28.75,27.9375,31.875,33.75,34.6875
0.2160521,-1.4789077,-0.11006313,0.037424017,0.020731075,0.06414471,-0.14496987,-0.3921468,-0.34812456,0.060105816,3.0756397,-0.6252382,-0.00032513984,-0.10440629,0.0050964644,-0.0019782034,-0.029312368,0.0028039017,-0.019480169,0.46547115,-1.4099115,1.9389247,-2.1003883,-1.5683731,2.4410257,-0.11781188,0.15712592,-0.1781096,0.005453132,0.024763813,-0.09820977,-0.6703765,-0.095768064,-9.289502,0.87393653,47.668976,-0.9271765,-2.01764,-3.3517246,-0.29458505,0.29783225,-0.30205762,27.6875,28.75,27.9375,31.875,33.75,34.6875
0.21809453,-1.0475242,0.074523695,0.07377514,0.0069954046,0.07201496,-0.15842542,-0.39236015,-0.34810725,0.06008534,3.0755649,-0.62533987,-0.00030783075,-0.10507197,0.004078405,-0.001320655,-0.029883554,0.0043040668,-0.022024741,0.46521986,-1.4095749,1.938588,-2.1004121,-1.5683249,2.4408476,-0.11642435,0.15806878,-0.18077563,0.0055819005,0.024593906,-0.09427592,-0.49799395,0.038307227,-9.308657,0.900793,47.71286,-1.1649382,-2.0174448,-3.2910333,-0.3061021,0.2871021,-0.37043208,27.6875,28.75,27.9375,31.875,33.75,34.6875
0.22010654,-1.6021523,-0.7854509,0.013484288,0.005742995,0.04742076,-0.14062509,-0.39254588,-0.34810662,0.060064066,3.0755274,-0.62533236,-0.00023095339,-0.10653397,0.00442479,-0.0006916752,-0.0303012,0.0051832334,-0.022756575,0.46501505,-1.4092383,1.9382423,-2.1003878,-1.5682648,2.440643,-0.11825167,0.15868045,-0.18314828,0.0063832444,0.024573972,-0.09537085,-0.49799395,0.19153613,-9.232041,0.88289046,47.66808,-1.0217605,-1.9206307,-3.2861428,-0.31025833,0.31641763,-0.42162007,27.6875,28.75,27.9375,31.875,33.75,34.6875
0.22210158,-0.8904316,-0.87882286,0.033369582,-0.014312855,0.04653371,-0.14590484,-0.3927861,-0.34808645,0.06009483,3.0754404,-0.62537223,-0.00032406996,-0.10734929,0.0047152676,-0.000441527,-0.029989636,0.00513789,-0.024895227,0.46475086,-1.4089617,1.937847,-2.100363,-1.568241,2.4404151,-0.11924045,0.15949671,-0.18497427,0.0075801783,0.024325853,-0.09421818,-0.38307226,0.2681506,-9.193734,0.8873621,47.70211,-1.1783109,-1.9159629,-3.2737978,-0.32380193,0.32316375,-0.44774908,27.6875,28.75,27.9375,31.875,33.75,34.6875
0.22410242,-0.50134957,-1.1598389,-0.21042071,-0.041531112,0.053486224,-0.15807594,-0.39299756,-0.34805483,0.060080886,3.0754452,-0.6254097,-0.00035965553,-0.10847103,0.0048490423,-0.0016394916,-0.028941652,0.003346681,-0.023181062,0.46452254,-1.4086362,1.9374999,-2.100351,-1.5682648,2.4402099,-0.12031561,0.16396643,-0.18749018,0.007707768,0.02419724,-0.09700563,-0.38307226,0.34476504,-9.193734,0.83589023,47.686886,-1.0617683,-1.9100047,-3.228002,-0.32074702,0.335401,-0.4877137,27.6875,28.75,27.9375,31.875,33.75,34.6875
0.22610746,-0.7708319,-1.3275263,-0.17564283,-0.052648332,0.038691495,-0.14659636,-0.39322227,-0.3480644,0.060088314,3.0753462,-0.62542605,-0.0003634395,-0.10953139,0.004995471,-6.455785e-05,-0.03121443,0.00596913,-0.019378865,0.46429393,-1.4083004,1.9370922,-2.1003387,-1.5681928,2.4400043,-0.1219876,0.16146858,-0.18821055,0.00758626,0.025074761,-0.102477945,-0.19153613,0.38307226,-9.212888,0.8806493,47.698532,-1.0476921,-1.9040276,-3.2776706,-0.30073252,0.33600014,-0.48030776,27.6875,28.75,27.9375,31.875,33.75,34.6875
0.22809908,-0.5844375,-1.4338703,-0.2359298,-0.051007804,0.032296102,-0.14998029,-0.39344522,-0.34802195,0.06005428,3.0753095,-0.62562436,-0.0002936863,-0.110070325,0.0044341977,-0.00015722842,-0.032326028,0.005243636,-0.012525594,0.464006,-1.4079275,1.9367331,-2.1003149,-1.5681685,2.439845,-0.12224169,0.1632194,-0.19016631,0.00796505,0.026407285,-0.10958435,-0.05746084,0.47884035,-9.289502,0.8537928,47.681515,-1.0786803,-1.9262308,-3.1529012,-0.31379363,0.33894634,-0.41970634,27.6875,28.75,27.9375,31.875,33.75,34.6875
0.23005292,-0.69704676,-1.5770324,-0.1966679,-0.050854333,0.030767668,-0.14445588,-0.39369032,-0.3480238,0.060095977,3.0751886,-0.62557673,-0.00039512836,-0.11047948,0.004714329,-0.0006248061,-0.032255303,0.003622041,-0.0060049067,0.46375346,-1.4076506,1.9363154,-2.1003034,-1.568108,2.4395785,-0.12345063,0.16487004,-0.19126831,0.008928855,0.027106019,-0.11730955,-0.019153614,0.4213795,-9.289502,0.842603,47.682407,-1.0760878,-1.8751163,-3.2712874,-0.32429832,0.3443445,-0.36885527,27.6875,28.75,27.9375,31.875,33.75,34.6875
0.23205185,-0.23733538,-1.4631371,-0.40692762,-0.030500984,0.032256044,-0.14926033,-0.39390847,-0.34801918,0.060059894,3.0751402,-0.6255801,-0.000335054,-0.11114626,0.0041122045,-0.0002311949,-0.032856498,0.0048371484,0.0017494834,0.46351376,-1.4072541,1.9359444,-2.1003273,-1.5680479,2.4393473,-0.12290439,0.1656468,-0.19305286,0.008613296,0.027116492,-0.12451695,0.019153614,0.36391866,-9.308657,0.8605109,47.653748,-1.1451707,-1.8235874,-3.3975954,-0.32359654,0.34923002,-0.29699975,27.6875,28.75,27.9375,31.875,33.75,34.6875
0.23405196,0.0005632892,-0.79017025,-0.43159685,-0.020291641,0.015653996,-0.14727178,-0.39412382,-0.34799176,0.060039997,3.0750983,-0.62555176,-0.000275555,-0.11403811,0.0040477873,0.00043140716,-0.03439453,0.007278501,0.0038597907,0.46323672,-1.4069169,1.9355968,-2.1003153,-1.5679878,2.439058,-0.12544392,0.1681122,-0.19720092,0.007451035,0.027405564,-0.12916426,0.1340753,0.40222588,-9.289502,0.9925471,47.674347,-0.9646106,-1.9358199,-3.34523,-0.3047586,0.34705552,-0.21839662,27.6875,28.75,27.9375,31.875,33.75,34.6875
0.2360524,-0.1041741,-0.87097466,-0.2810567,-0.014069305,-0.002361451,-0.14944881,-0.39435932,-0.34799764,0.060051396,3.075007,-0.6255291,-0.00024877224,-0.11361946,0.003507852,-0.0018404784,-0.033935696,0.003168965,0.008871488,0.46298504,-1.4065666,1.9351548,-2.1002676,-1.5679034,2.4388041,-0.124956034,0.17311522,-0.19774175,0.0068957144,0.028849732,-0.13368466,0.11492168,0.34476504,-9.289503,0.91198283,47.681515,-1.2650149,-1.9525338,-3.3241754,-0.26905474,0.35333765,-0.15759817,27.6875,28.75,27.9375,31.875,33.75,34.6875
0.23805244,0.25763345,-0.581057,-0.31432348,-0.014429637,-0.010712501,-0.1428927,-0.3945784,-0.34799284,0.06003807,3.074942,-0.62550104,-0.0002326933,-0.11405693,0.003703603,-0.002090571,-0.03540459,0.0016526098,0.0032236855,0.46274447,-1.4062183,1.9347848,-2.10028,-1.5678428,2.4385545,-0.12686834,0.17394333,-0.19827545,0.007299875,0.03084076,-0.12994619,0.15322891,0.3256114,-9.155427,0.85826975,47.677036,-1.0329864,-1.9821763,-3.3590963,-0.2978808,0.32950518,-0.15961014,27.6875,28.75,27.9375,31.875,33.75,34.6875
0.24005237,0.25645688,-0.5897764,-0.4832971,-0.016476281,-0.024600832,-0.14407994,-0.3948088,-0.3480006,0.06005274,3.0748708,-0.62542975,-0.0002464804,-0.114733495,0.0037730236,-0.0019045449,-0.036041114,0.0014434967,-0.0009027352,0.46251616,-1.4058816,1.9343532,-2.1002433,-1.5677823,2.438291,-0.12792127,0.17459801,-0.19965287,0.007929521,0.031506136,-0.12686977,0.19153614,0.3256114,-9.308656,0.95897776,47.68062,-1.089967,-1.9565048,-3.412197,-0.27772605,0.31659785,-0.15495186,27.6875,28.75,27.9375,31.875,33.75,34.6875
0.24205264,0.49065417,-0.5335456,-0.35201198,-0.03629229,-0.011772582,-0.14305186,-0.3950393,-0.34796754,0.060019746,3.0748513,-0.6254698,-0.00020617628,-0.116088696,0.0040897606,-0.0022923835,-0.037012044,0.0003306062,-0.010003303,0.46223933,-1.4054966,1.9339823,-2.1002433,-1.567758,2.438042,-0.13043742,0.17700762,-0.20165607,0.008074186,0.032854468,-0.12028333,0.114921674,0.26815057,-9.404425,0.84708,47.6636,-1.0295303,-2.1198244,-3.4045362,-0.27245432,0.3174358,-0.25943238,27.6875,28.75,27.9375,31.875,33.75,34.6875
0.24405165,0.19246033,-0.8665617,-0.5386435,-0.023782536,-0.0047718207,-0.14994898,-0.39529634,-0.3479771,0.060041036,3.0747313,-0.62546563,-0.00032046245,-0.11676658,0.0036781314,-0.0022289199,-0.03866324,-0.00034628206,-0.013460711,0.46199903,-1.4051596,1.9335517,-2.1002796,-1.5677098,2.4378147,-0.1313518,0.17831331,-0.20344393,0.008426057,0.034644313,-0.11773328,0.1340753,0.21068975,-9.346964,0.88289046,47.694946,-1.014044,-2.1402755,-3.312251,-0.27087045,0.28851083,-0.29934648,27.6875,28.75,27.9375,31.875,33.75,34.6875
0.24605267,-0.39994362,-0.68076557,-0.6006264,-0.016442671,-0.004025226,-0.14258283,-0.39552128,-0.3479804,0.060028184,3.0746264,-0.6255032,-0.00017471444,-0.117661245,0.004098331,-0.0024103085,-0.03827127,-0.0011652893,-0.0156098725,0.4617227,-1.4047747,1.9331211,-2.100219,-1.5675777,2.4375753,-0.13278694,0.17998992,-0.2052877,0.009524077,0.034657802,-0.11701902,0.038307227,0.19153613,-9.442732,0.8784135,47.686886,-0.9996182,-2.1716301,-3.3868499,-0.2705968,0.27230203,-0.33523566,27.6875,28.75,27.9375,31.875,33.75,34.6875
0.24805163,0.35128766,-0.026914058,-0.38725805,-0.02933323,0.0351654,-0.15189812,-0.39573646,-0.34797508,0.06001995,3.074575,-0.6254562,-0.00017186975,-0.12031087,0.004769011,-0.00170529,-0.0391509,0.00016332453,-0.01977067,0.46149343,-1.404438,1.9327496,-2.100219,-1.5675296,2.4373236,-0.13632801,0.1816578,-0.2089881,0.009986316,0.03485294,-0.11639614,-0.019153614,0.15322891,-9.385271,0.95226496,47.677036,-0.970603,-2.1352248,-3.3721418,-0.29041308,0.26163697,-0.36351165,27.6875,28.75,27.9375,31.875,33.75,34.6875
0.25005165,-0.80637294,-0.09635277,-0.6570158,-0.013585768,0.020929044,-0.14151649,-0.39598286,-0.347952,0.060011476,3.0744836,-0.6256093,-7.37494e-05,-0.119696595,0.0030492793,-0.0014172231,-0.041042693,-4.793403e-05,-0.01816987,0.4611824,-1.4040534,1.9323066,-2.100147,-1.5674447,2.43712,-0.13379966,0.18214768,-0.21031755,0.010184545,0.036640126,-0.11546662,-0.038307227,0.22984336,-9.442732,0.8493211,47.68599,-1.0297629,-2.1291318,-3.4779706,-0.27468204,0.23972659,-0.38135207,27.6875,28.75,27.9375,31.875,33.75,34.6875
0.25205165,-1.0947622,-0.46781054,-0.41424465,-0.006470543,0.03343393,-0.14416027,-0.39619794,-0.3479751,0.060007833,3.074384,-0.62549233,-3.9250568e-05,-0.120105155,0.004137829,-0.002840152,-0.041353356,-0.003357126,-0.017079609,0.46096492,-1.4037043,1.9319128,-2.100159,-1.567336,2.4368424,-0.13710567,0.18437006,-0.20971638,0.010215339,0.038413618,-0.11985894,-0.19153613,0.095768064,-9.481039,0.96569055,47.689575,-0.79506147,-2.24408,-3.4605086,-0.2709328,0.1981844,-0.38289455,27.6875,28.75,27.9375,31.875,33.75,34.6875
0.25405183,-1.4092038,-0.2571625,-0.34525904,-0.015882889,0.045506477,-0.15185267,-0.39644358,-0.34795076,0.059983592,3.0742974,-0.62566566,7.431832e-05,-0.12025221,0.0035554015,-0.0033304712,-0.04163306,-0.004428014,-0.01461657,0.4606533,-1.403295,1.9314822,-2.1001108,-1.567252,2.4366503,-0.1365693,0.18650046,-0.21118693,0.010416446,0.039143972,-0.12178506,-0.4405331,0.13407528,-9.442732,0.8985519,47.668976,-1.0048754,-2.1857123,-3.4767342,-0.27097914,0.15462627,-0.39008874,27.6875,28.75,27.9375,31.875,33.75,34.6875
0.25605214,-1.2310517,-0.038806908,-0.43172127,-0.022608295,0.07301944,-0.1479993,-0.39668316,-0.34794617,0.059981972,3.0742154,-0.62564296,8.782295e-05,-0.120827995,0.0035114263,-0.003045089,-0.041476887,-0.0040026046,-0.006857898,0.4603895,-1.4029343,1.9310645,-2.1000984,-1.56718,2.436383,-0.13670325,0.18711181,-0.21277006,0.011124243,0.03884323,-0.12967585,-0.38307226,0.15322891,-9.5385,0.88960326,47.661808,-1.1065075,-2.2420738,-3.5050855,-0.28259292,0.14870302,-0.31192446,27.6875,28.75,27.9375,31.875,33.75,34.6875
0.25805247,-1.7190496,-0.42609346,-0.41631028,-0.0144588845,0.08152318,-0.14549951,-0.39691642,-0.34792447,0.05995637,3.0741851,-0.62565273,0.00021582792,-0.12191943,0.0031072684,-0.0027781008,-0.041596975,-0.003487565,-0.00040138193,0.4601014,-1.4025258,1.930632,-2.1000264,-1.567108,2.436105,-0.13677652,0.18899457,-0.21578802,0.011788857,0.038731966,-0.13620631,-0.5554548,0.11492168,-9.461885,0.81351066,47.689575,-1.092495,-2.0846338,-3.473507,-0.29855433,0.13180725,-0.26016316,27.6875,28.75,27.9375,31.875,33.75,34.6875
0.2600525,-2.0655072,-0.13455649,-0.42797264,-0.013701101,0.084745236,-0.1460603,-0.39714718,-0.34793475,0.059940677,3.07408,-0.6256273,0.00027501697,-0.12419972,0.0031245814,-0.0006102316,-0.04384393,0.0010854515,0.0056138537,0.45984876,-1.4021417,1.9302248,-2.1000392,-1.5669998,2.4358501,-0.13870083,0.18719298,-0.21859643,0.011357329,0.038738333,-0.14414372,-0.6895301,0.11492168,-9.3661175,0.91198283,47.685097,-1.0932424,-2.1172998,-3.4320538,-0.28057468,0.10306388,-0.1562961,27.6875,28.75,27.9375,31.875,33.75,34.6875
0.2620516,-2.1663845,0.12683344,-0.52782494,-0.0078882715,0.090795256,-0.14050677,-0.39739943,-0.34792882,0.059940424,3.0740077,-0.6255926,0.00030132756,-0.12582457,0.003351342,-0.0007871011,-0.043981247,0.0014000393,0.006925504,0.45957243,-1.4017566,1.9297699,-2.100003,-1.5669283,2.4355617,-0.1404053,0.18968363,-0.2210812,0.011040988,0.038734153,-0.14715722,-0.7086837,-0.019153614,-9.5385,0.89631605,47.716442,-1.027746,-2.1026406,-3.3407164,-0.26622182,0.08590989,-0.085543275,27.6875,28.75,27.9375,31.875,33.75,34.6875
0.26405257,-2.0449061,-0.13659312,-0.7102382,-0.0044272398,0.09178438,-0.13825561,-0.3976583,-0.34789464,0.059938096,3.07394,-0.6256564,0.00034664237,-0.12655568,0.0034710818,-0.0015976586,-0.043571454,0.00083713146,0.005003142,0.4592483,-1.4013834,1.9293278,-2.0999434,-1.5668682,2.4352863,-0.14106159,0.19224045,-0.22207738,0.010183742,0.03861682,-0.14589015,-0.7661445,0.05746084,-9.557653,0.8873621,47.704796,-1.066205,-2.1390603,-3.4834595,-0.26281613,0.07794424,-0.07081645,27.6875,28.75,27.9375,31.875,33.75,34.6875
0.26605183,-1.5615501,-0.28556585,-0.41970447,-0.014250497,0.11154364,-0.14590074,-0.3979129,-0.3479075,0.05994416,3.073841,-0.62552387,0.00031134475,-0.1274578,0.0039283116,-0.0014179044,-0.04259846,0.002348804,0.00011247468,0.4589958,-1.4010106,1.9288863,-2.0999672,-1.5667847,2.434964,-0.14156209,0.19265036,-0.22292116,0.009704161,0.037078224,-0.14149809,-0.7852981,0.038307227,-9.653421,0.92093146,47.683304,-0.9880996,-2.0951095,-3.4745867,-0.2625244,0.05935262,-0.079593025,27.6875,28.75,27.9375,31.875,33.75,34.6875
0.26805174,-2.0510285,0.17299594,-0.57258093,-0.013912328,0.089264125,-0.13831374,-0.39817697,-0.3478887,0.05993309,3.073761,-0.62560713,0.00033947796,-0.1296042,0.004800838,-0.0006779726,-0.042721298,0.004381913,-0.0075971778,0.45869488,-1.4006025,1.9284314,-2.0999434,-1.5667251,2.4347255,-0.14433314,0.19316007,-0.22526294,0.009662103,0.03627871,-0.13655873,-0.7661445,0.019153614,-9.576807,0.83589023,47.705692,-1.0159011,-2.0249403,-3.4244776,-0.26725742,0.02643694,-0.15141267,27.6875,28.75,27.9375,31.875,33.75,34.6875
0.27005255,-1.5141388,0.46573126,-0.5535461,0.011962101,0.08773059,-0.14163302,-0.39843193,-0.3478706,0.05993569,3.0736763,-0.6255934,0.0003501381,-0.13076182,0.0037042226,0.00015123069,-0.043604586,0.006754675,-0.013419955,0.45839548,-1.4002415,1.9280003,-2.0999196,-1.5666531,2.4344287,-0.14313005,0.19432585,-0.22845595,0.009164306,0.036005996,-0.12953,-0.63206923,-0.038307227,-9.519346,0.85155696,47.658226,-1.1069341,-1.9455812,-3.4299045,-0.25627318,0.037050482,-0.20798454,27.6875,28.75,27.9375,31.875,33.75,34.6875
0.27205256,-1.2374126,0.63420624,-0.6405245,0.020530345,0.07870295,-0.1405298,-0.39873046,-0.34785366,0.059943456,3.0735614,-0.6257225,0.00026696984,-0.13162567,0.0039937724,-0.00010651053,-0.042424027,0.0075229155,-0.014474678,0.45808348,-1.3998326,1.9275097,-2.099932,-1.5666174,2.4342124,-0.1433793,0.19590251,-0.22966108,0.008643645,0.034621254,-0.12872253,-0.5554548,0.019153614,-9.500193,0.7978386,47.64479,-1.1414417,-2.1454103,-3.4240794,-0.23794602,0.02191588,-0.2651803,27.6875,28.75,27.9375,31.875,33.75,34.6875
0.2740517,-1.3960605,0.20056282,-0.67774534,0.020415496,0.06735464,-0.12533188,-0.39900935,-0.34784445,0.059938937,3.0734806,-0.6257481,0.00023854402,-0.13330758,0.0043403,0.00017547987,-0.041294847,0.00928664,-0.019856425,0.45779505,-1.3994116,1.92703,-2.099932,-1.5665702,2.4339507,-0.14418435,0.1976274,-0.23236972,0.008548404,0.032823935,-0.124145225,-0.49799395,0.076614454,-9.423578,0.9925471,47.667187,-1.0824857,-2.1401713,-3.3780043,-0.24061729,0.046304878,-0.3382545,27.6875,28.75,27.9375,31.875,33.75,34.6875
0.27605197,-0.62695247,0.26821104,-0.5690643,-0.007231258,0.07266114,-0.14423409,-0.3992398,-0.34781334,0.059905853,3.0734482,-0.62581855,0.00038412152,-0.13330367,0.0048044217,-0.00068990217,-0.038981285,0.008478144,-0.0219426,0.45749548,-1.3990026,1.9266127,-2.0998604,-1.5664991,2.4336994,-0.1437898,0.19939563,-0.2325907,0.008763184,0.031098215,-0.12166892,-0.34476504,0.1340753,-9.442732,0.9164598,47.674347,-1.1330507,-2.096577,-3.4860144,-0.22467299,0.05807185,-0.38318494,27.6875,28.75,27.9375,31.875,33.75,34.6875
0.27805215,-0.98974293,-0.39594147,-0.6250373,-0.015732378,0.036806643,-0.13953729,-0.39952067,-0.34783575,0.059930623,3.0732996,-0.62577057,0.00031605898,-0.13509187,0.0059947926,-0.00094172254,-0.037166446,0.008638846,-0.02526001,0.45723042,-1.3986174,1.9261106,-2.0998719,-1.5664033,2.4334238,-0.14623246,0.20172358,-0.23496908,0.0094930865,0.029414823,-0.120791785,-0.19153613,0.21068975,-9.519346,0.9321212,47.703903,-1.0151799,-2.1871145,-3.6602802,-0.22811401,0.06625068,-0.45361596,27.6875,28.75,27.9375,31.875,33.75,34.6875
0.2800522,-0.65116495,-0.87640256,-0.51902086,-0.037798688,0.026237726,-0.1402063,-0.39979988,-0.34779647,0.059921246,3.0731912,-0.6260354,0.0003609011,-0.13711293,0.006870988,-0.0010310017,-0.035425805,0.009003332,-0.024538135,0.45688203,-1.3982073,1.9256433,-2.0998237,-1.5663437,2.433255,-0.14829966,0.2046044,-0.2384522,0.010572066,0.027704801,-0.123581745,-0.17238252,0.21068975,-9.481039,0.8940802,47.691364,-1.2025831,-2.2731905,-3.5822477,-0.22741047,0.10209414,-0.48497158,27.6875,28.75,27.9375,31.875,33.75,34.6875
0.28205243,-0.1547393,-0.75127584,-0.56744206,-0.0418223,0.021406109,-0.13508771,-0.40008378,-0.34776932,0.059899982,3.073162,-0.6260247,0.00032708998,-0.1386946,0.006383926,-0.00074754393,-0.0354785,0.010711973,-0.01699656,0.45658186,-1.3977622,1.9251755,-2.0998356,-1.5663327,2.4329522,-0.14825791,0.2069387,-0.24178964,0.010063176,0.027024802,-0.13108014,-0.019153614,0.2681506,-9.404425,0.97464454,47.701214,-1.1200893,-2.3645716,-3.4400663,-0.21000555,0.10524398,-0.464826,27.6875,28.75,27.9375,31.875,33.75,34.6875
0.2840524,-0.106502034,-0.63433707,-0.5781167,-0.027349062,0.01633624,-0.14343837,-0.40035495,-0.34775317,0.059888914,3.0730984,-0.62606525,0.0003714407,-0.14069283,0.00685292,-0.00010694071,-0.035854973,0.012893796,-0.009961946,0.4562811,-1.3973298,1.9246858,-2.099788,-1.5662726,2.4326851,-0.15030074,0.20778465,-0.2442043,0.009565602,0.026431877,-0.1401574,0.038307227,0.36391866,-9.481039,0.9231726,47.692257,-0.97738934,-2.2350764,-3.5434456,-0.21105286,0.117035866,-0.36935294,27.6875,28.75,27.9375,31.875,33.75,34.6875
0.2860525,-0.08306891,-0.9755064,-0.50541365,-0.033686437,0.021244572,-0.14078349,-0.4006542,-0.34773263,0.059901465,3.07299,-0.6261135,0.0002989012,-0.14303422,0.0073988466,0.0004693143,-0.03645664,0.013945006,-0.0017873994,0.45595628,-1.3969327,1.9241942,-2.099788,-1.5662245,2.4324048,-0.15321532,0.2095948,-0.24786165,0.010268365,0.026560301,-0.15124243,0.076614454,0.40222588,-9.423578,0.9298854,47.684196,-0.9373455,-2.2700071,-3.4720616,-0.20155406,0.13309614,-0.267829,27.6875,28.75,27.9375,31.875,33.75,34.6875
0.28805256,0.13330255,-0.52741474,-0.5132155,-0.04918941,0.022326887,-0.14384553,-0.40092614,-0.34772205,0.05991219,3.0729458,-0.6259677,0.00024591468,-0.14377376,0.007571698,0.00061859743,-0.037194133,0.013735695,0.0016298802,0.4556799,-1.3965484,1.923716,-2.0997636,-1.5661877,2.4320433,-0.15452412,0.21025144,-0.2491611,0.010805911,0.027346825,-0.15596497,0.076614454,0.40222588,-9.3661175,0.8851263,47.67345,-0.8202884,-2.2238173,-3.382645,-0.18308267,0.14888886,-0.20010337,27.6875,28.75,27.9375,31.875,33.75,34.6875
0.2900517,-0.0046684756,-0.82658774,-0.5740304,-0.049937934,0.018561462,-0.14485557,-0.40122712,-0.34771183,0.05989684,3.0728753,-0.62602973,0.00022257336,-0.14473943,0.00733662,0.0011834489,-0.037362937,0.014923398,0.0031989384,0.45537993,-1.3960674,1.9231895,-2.0997636,-1.566152,2.4317915,-0.1545808,0.21098806,-0.2515149,0.01130478,0.026993088,-0.15758936,0.038307227,0.4213795,-9.423578,0.8940802,47.691364,-0.90635234,-2.1893277,-3.2988648,-0.18560007,0.158894,-0.13269965,27.6875,28.75,27.9375,31.875,33.75,34.6875
0.29205167,-0.43285713,-1.239517,-0.56457335,-0.054745346,0.02360161,-0.12918006,-0.40149355,-0.3477039,0.059898347,3.0727563,-0.62600565,0.00025227567,-0.14531156,0.0061366647,0.0024888762,-0.038659524,0.017349236,0.0016127416,0.45506856,-1.3956829,1.9227346,-2.0997512,-1.5660442,2.4314806,-0.15290591,0.21052769,-0.25408494,0.011596392,0.027093956,-0.15432575,-0.095768064,0.4405331,-9.289502,0.85826975,47.67614,-0.93179774,-2.235079,-3.2264154,-0.20254506,0.17940181,-0.13912997,27.6875,28.75,27.9375,31.875,33.75,34.6875
0.2940517,-0.54223055,-0.8120888,-0.5227037,-0.059878953,0.030378472,-0.13686353,-0.40178177,-0.34765258,0.059876315,3.072734,-0.62608314,0.000332146,-0.1462417,0.0061596143,0.003432262,-0.0401638,0.018660847,-0.005931601,0.4547081,-1.3952272,1.9222335,-2.0996678,-1.566008,2.4311717,-0.15407705,0.20973493,-0.25546482,0.01191299,0.027851686,-0.14795187,-0.15322891,0.49799395,-9.3661175,0.93436235,47.68062,-1.0088836,-2.0929985,-3.341569,-0.18532392,0.18606767,-0.22005022,27.6875,28.75,27.9375,31.875,33.75,34.6875
0.29605156,-0.50539577,-1.2314674,-0.71189535,-0.045275487,0.03557327,-0.13382427,-0.40211505,-0.34765935,0.059913885,3.0725796,-0.62609273,0.00018374945,-0.14724043,0.007186801,0.0029659148,-0.04031914,0.016935645,-0.014355645,0.45439535,-1.3948061,1.9216589,-2.0996792,-1.5659474,2.4308853,-0.15714726,0.21125473,-0.256473,0.01287251,0.028764926,-0.14259128,-0.1340753,0.36391866,-9.481039,0.94331104,47.689575,-1.0702912,-1.9859776,-3.4898813,-0.18551314,0.19850838,-0.29658744,27.6875,28.75,27.9375,31.875,33.75,34.6875
0.29805198,-1.0185041,-1.3617151,-0.62068427,-0.04370366,0.03530702,-0.12554967,-0.40238443,-0.3476471,0.059903502,3.0725338,-0.62610334,0.00019003547,-0.14638397,0.0067836936,0.0026971162,-0.04056756,0.016162748,-0.015864685,0.45411983,-1.3943739,1.9211692,-2.0996435,-1.5659112,2.4306226,-0.15593682,0.21101189,-0.25566474,0.01289087,0.029331552,-0.13987063,-0.038307227,0.36391866,-9.481039,0.9030289,47.687782,-1.0392667,-1.8221658,-3.5436,-0.18254566,0.20153028,-0.32417554,27.6875,28.75,27.9375,31.875,33.75,34.6875
0.30005187,0.16823015,-0.31609145,-0.58453953,-0.0367826,0.0572991,-0.14878802,-0.40268946,-0.34764075,0.059900112,3.072423,-0.62610143,0.00018206117,-0.14825909,0.008161118,0.0025836772,-0.039594073,0.016959162,-0.020270998,0.45379457,-1.3939172,1.9206432,-2.0996435,-1.5658277,2.4303107,-0.15903164,0.21243554,-0.25710455,0.0126374215,0.02811914,-0.1385591,-0.076614454,0.30645782,-9.423578,0.9365982,47.693153,-0.9353665,-1.9108964,-3.6249022,-0.15114754,0.20704001,-0.36772013,27.6875,28.75,27.9375,31.875,33.75,34.6875
0.30205193,-0.4250461,0.2267753,-0.6969949,-0.0157015,0.028527657,-0.132659,-0.40296045,-0.34762543,0.05988191,3.0723438,-0.6261604,0.00026505845,-0.14990665,0.007582137,0.002188259,-0.039744377,0.017006226,-0.018098729,0.45348248,-1.3934711,1.9201521,-2.0995953,-1.5657433,2.4300458,-0.15937333,0.21655266,-0.2610532,0.012393346,0.028243098,-0.14107081,-0.038307227,0.28730422,-9.461885,0.91421866,47.67614,-0.9042903,-2.0239232,-3.6324744,-0.1667157,0.24258071,-0.4066164,27.6875,28.75,27.9375,31.875,33.75,34.6875
0.30405185,0.044018842,0.2882801,-0.76162523,-0.011301945,0.031486418,-0.14095257,-0.40326184,-0.34760004,0.059890755,3.072263,-0.62616336,0.00019727323,-0.15123057,0.008346594,0.00095982774,-0.04030995,0.014715803,-0.020140179,0.45315745,-1.3930618,1.9196504,-2.0995839,-1.5657071,2.4297335,-0.16265552,0.22006093,-0.2623533,0.012011769,0.029777113,-0.14230503,0.019153614,0.095768064,-9.461885,0.90527004,47.661808,-0.8953657,-2.0222511,-3.5225613,-0.1498526,0.23905662,-0.40680683,27.6875,28.75,27.9375,31.875,33.75,34.6875
0.306052,0.17264856,0.25946835,-0.8161011,0.015057826,0.034937203,-0.1437292,-0.40355906,-0.34759694,0.05988467,3.0721993,-0.6262015,0.00014872698,-0.15115349,0.006872793,0.0002478298,-0.04048242,0.013044509,-0.010773179,0.45288262,-1.392592,1.9191116,-2.0995715,-1.5656828,2.429491,-0.16046298,0.22370414,-0.2652606,0.012747448,0.030701954,-0.14947441,0.0,0.038307227,-9.576807,0.9365982,47.668976,-1.1290247,-2.249836,-3.5082653,-0.12512186,0.23037508,-0.34595346,27.6875,28.75,27.9375,31.875,33.75,34.6875
0.30805203,-0.47259393,0.19571935,-0.90432495,0.007739343,0.025871228,-0.13286076,-0.4038486,-0.34759614,0.05987761,3.0720904,-0.62615454,0.00021913144,-0.15058604,0.0070624365,-0.0011434702,-0.03870606,0.010497614,-0.00052243605,0.4525586,-1.3921345,1.9185842,-2.0995352,-1.5655631,2.429152,-0.15988901,0.22614837,-0.2652026,0.013391575,0.030270398,-0.15915142,-0.095768064,0.15322891,-9.634268,0.95002913,47.689575,-1.0110216,-2.2113597,-3.4682746,-0.1224016,0.25844923,-0.26920134,27.6875,28.75,27.9375,31.875,33.75,34.6875
0.31005242,-0.6880721,-0.20706914,-0.6259179,-0.018627075,0.051094566,-0.13148552,-0.40416268,-0.3475787,0.05990452,3.0719914,-0.62611055,0.00015800912,-0.15276399,0.006247255,0.0007579736,-0.040734187,0.013136872,0.00709087,0.45222223,-1.3917261,1.918034,-2.099487,-1.5655025,2.4288013,-0.16061904,0.22673896,-0.27068263,0.015081337,0.030989114,-0.16748846,-0.22984336,0.13407528,-9.557653,0.83365434,47.684196,-1.1460075,-2.2120004,-3.3821826,-0.1262528,0.26519465,-0.1753138,27.6875,28.75,27.9375,31.875,33.75,34.6875
0.31205237,-0.46493435,-0.19966476,-0.5732467,-0.026321834,0.073211476,-0.14635822,-0.40449855,-0.3475725,0.059930027,3.0719135,-0.6260362,3.236319e-05,-0.15435082,0.0055429814,0.0018970071,-0.041706312,0.015461729,0.00754051,0.45191026,-1.3912696,1.9174355,-2.0994627,-1.5654787,2.4284534,-0.16050771,0.22767568,-0.27456322,0.015525216,0.030871183,-0.16782202,-0.11492168,0.17238252,-9.595961,0.9030289,47.647476,-1.1185722,-2.1817274,-3.2964287,-0.12798929,0.28171778,-0.10972355,27.6875,28.75,27.9375,31.875,33.75,34.6875
0.31405264,-1.3189183,-0.43099225,-0.69052064,-0.022732172,0.05762576,-0.12446292,-0.4047945,-0.34756404,0.05992011,3.0718272,-0.6260008,2.9936376e-05,-0.1543312,0.005506792,0.0015305355,-0.041446503,0.014339189,0.005459229,0.45159835,-1.3908124,1.9169225,-2.0994623,-1.5654067,2.4281309,-0.16044559,0.22880916,-0.27532864,0.016290087,0.031138035,-0.16567612,-0.30645782,0.19153613,-9.653421,0.8851263,47.67345,-1.1803868,-2.1696868,-3.3172526,-0.1278973,0.29146868,-0.073451,27.6875,28.75,27.9375,31.875,33.75,34.6875
0.31605157,-1.0752366,-0.5409397,-0.6026143,-0.03388041,0.07096346,-0.12844756,-0.40510008,-0.34754685,0.059931777,3.0717692,-0.6259923,2.178137e-06,-0.15535435,0.0055501163,0.0020886234,-0.041872382,0.015608648,-0.001087397,0.45128617,-1.3903679,1.9163584,-2.0993907,-1.5653709,2.4278212,-0.16112411,0.22910245,-0.2770538,0.016379105,0.030957803,-0.1598064,-0.4405331,0.15322891,-9.653421,0.85826975,47.64389,-1.2819595,-2.1520784,-3.3410392,-0.11640276,0.32235593,-0.14804842,27.6875,28.75,27.9375,31.875,33.75,34.6875
0.3180523,-0.98362374,-0.45690048,-0.86813736,-0.02929416,0.07167939,-0.13229597,-0.4054049,-0.3475175,0.059931297,3.0716622,-0.6261076,-1.0326604e-05,-0.1542252,0.0064512882,0.0012483697,-0.04126905,0.013056766,-0.008518349,0.45093817,-1.3899353,1.9158467,-2.0993664,-1.5653104,2.4275594,-0.16193198,0.2283514,-0.2745278,0.017146757,0.031526845,-0.15318158,-0.4213795,0.19153613,-9.787497,0.91421866,47.685097,-1.2623444,-2.1028228,-3.482339,-0.12847176,0.3194431,-0.22929078,27.6875,28.75,27.9375,31.875,33.75,34.6875
0.32005233,-1.6879169,-0.82066816,-0.66049635,-0.051702652,0.061739754,-0.12150107,-0.40571526,-0.34751505,0.059928373,3.0715773,-0.6260552,-1.564802e-05,-0.15563391,0.006740301,0.0014411758,-0.042985044,0.013023739,-0.01552827,0.45062512,-1.3894548,1.9152845,-2.0993426,-1.5652379,2.4272249,-0.16444741,0.22943632,-0.27633047,0.017137768,0.033081308,-0.14868036,-0.59376204,0.24899697,-9.787497,0.9231726,47.684196,-1.1823761,-1.9729137,-3.6250472,-0.11753716,0.3190273,-0.2890076,27.6875,28.75,27.9375,31.875,33.75,34.6875
0.3220525,-1.3630902,-1.0167042,-0.3174427,-0.05294518,0.07850357,-0.13565205,-0.40603298,-0.3475013,0.05993149,3.0715005,-0.6260986,-2.6922253e-05,-0.15616602,0.006138292,0.0013793338,-0.04405594,0.013084059,-0.019735431,0.4503014,-1.388974,1.9146994,-2.099283,-1.5651892,2.4269385,-0.16427484,0.23087968,-0.27788526,0.016719347,0.034012754,-0.14429587,-0.49799395,0.22984336,-9.5385,0.97464454,47.67614,-1.40483,-1.8683841,-3.6752205,-0.12637062,0.31280446,-0.34971341,27.6875,28.75,27.9375,31.875,33.75,34.6875
0.32405233,-0.5720462,0.26290217,-0.47534275,-0.03070802,0.07212175,-0.1378212,-0.4063851,-0.34749788,0.059976924,3.071283,-0.6262268,-0.0001342808,-0.1576533,0.0046929573,0.002945084,-0.046198208,0.016261382,-0.021703312,0.44992992,-1.3885533,1.9141,-2.099271,-1.5650815,2.4266758,-0.16318727,0.2313481,-0.2820508,0.016632766,0.03457278,-0.1412316,-0.38307226,0.21068975,-9.423578,0.98135734,47.67614,-1.4247925,-1.8765681,-3.5830255,-0.12259732,0.32527226,-0.44595522,27.6875,28.75,27.9375,31.875,33.75,34.6875
0.3261003,-0.7122735,0.43169874,-0.01803649,-0.0048972066,0.05972059,-0.14851819,-0.4066693,-0.34747824,0.05993917,3.0712464,-0.62623817,-4.7702775e-05,-0.15899755,0.004450644,0.0032722163,-0.04758803,0.017523522,-0.021990573,0.44961748,-1.3880485,1.9135851,-2.0992358,-1.5650209,2.4263754,-0.16419537,0.23250376,-0.28405914,0.015765665,0.035279874,-0.14195046,-0.40222588,0.1340753,-9.519346,0.947788,47.6636,-1.4192853,-1.7670965,-3.5562017,-0.094732955,0.33542973,-0.51211333,27.6875,28.75,27.9375,31.875,33.75,34.6875
0.32805744,-0.008729733,0.8225529,-0.13468611,0.010064064,0.06376327,-0.14788549,-0.40700492,-0.34748247,0.059961084,3.0711024,-0.62616664,-0.00012037658,-0.16077128,0.0037693381,0.00364167,-0.048859727,0.018812945,-0.016621301,0.44928136,-1.3875914,1.9129986,-2.0992358,-1.5649251,2.4260137,-0.16473165,0.23504306,-0.2878872,0.015397933,0.03591313,-0.14784804,-0.1340753,0.076614454,-9.3661175,0.8851263,47.677036,-1.3976936,-1.8440602,-3.4830592,-0.06645477,0.34598756,-0.4791832,27.6875,28.75,27.9375,31.875,33.75,34.6875
0.33005783,-0.012969276,1.1786824,-0.34874368,0.026250647,0.033328634,-0.15541266,-0.40734515,-0.34745955,0.05997338,3.0709865,-0.6263085,-0.00020224697,-0.16270551,0.004181263,0.0025465856,-0.048821207,0.016829766,-0.0065954183,0.44893196,-1.3871212,1.9124125,-2.0992115,-1.5648888,2.4257684,-0.16746938,0.24009603,-0.2915524,0.015902337,0.0368175,-0.16060397,0.019153614,0.095768064,-9.32781,0.92093146,47.667187,-1.2111955,-1.9962101,-3.4633338,-0.037420806,0.3484083,-0.38417438,27.6875,28.75,27.9375,31.875,33.75,34.6875
0.33205324,-0.05501052,0.73194116,-0.16091727,0.0021045227,0.02189905,-0.14417002,-0.40767965,-0.34747878,0.0600082,3.0708525,-0.6262008,-0.0002990098,-0.16419478,0.0058230576,0.0020226007,-0.047975905,0.014932002,-0.0008218112,0.44863072,-1.3866642,1.9117907,-2.0991867,-1.5648044,2.4254177,-0.17149119,0.24217796,-0.2933316,0.017758157,0.03695891,-0.17039365,-0.095768064,0.24899697,-9.289502,0.87393653,47.66091,-1.1765038,-2.0439854,-3.377234,-0.04620313,0.3583808,-0.28853557,27.6875,28.75,27.9375,31.875,33.75,34.6875
0.33405256,-0.4087812,-0.27256814,-0.34716755,-0.027271423,0.019652328,-0.15014099,-0.40800622,-0.3474515,0.059998527,3.0707867,-0.62622094,-0.00027091848,-0.16387764,0.005784795,0.0019687193,-0.047341585,0.013946221,0.0067065684,0.44827121,-1.3861593,1.9112052,-2.0991266,-1.5647448,2.4250796,-0.17092219,0.2425488,-0.294141,0.019425347,0.03686529,-0.17735295,-0.15322891,0.3256114,-9.3661175,0.90750587,47.68062,-1.2392288,-1.9432406,-3.3170416,-0.04632256,0.35642198,-0.19300233,27.6875,28.75,27.9375,31.875,33.75,34.6875
0.3360526,-0.006346714,-0.9984563,-0.24267942,-0.060071494,0.05028455,-0.14532493,-0.40831244,-0.34743893,0.060011752,3.0707076,-0.6261078,-0.0002914111,-0.16465273,0.0065970053,0.001308518,-0.04664179,0.011774562,0.0065168785,0.44794673,-1.3857262,1.9106549,-2.0990784,-1.5646724,2.424695,-0.17303199,0.24483494,-0.295811,0.021104902,0.03720749,-0.17926894,-0.22984336,0.34476504,-9.404425,0.8940802,47.660015,-1.1908563,-1.9075325,-3.3681302,-0.06544895,0.36435825,-0.13420343,27.6875,28.75,27.9375,31.875,33.75,34.6875
0.33805203,-0.597671,-1.346761,-0.07528876,-0.08510893,0.05173665,-0.14406513,-0.40865794,-0.347408,0.059991434,3.0706124,-0.6261709,-0.00024070605,-0.1656624,0.006618125,0.0023935374,-0.047996793,0.012740587,-0.0016009244,0.44755018,-1.3851856,1.9100565,-2.0990417,-1.564588,2.4243505,-0.17421179,0.24425064,-0.29800293,0.022408556,0.037991613,-0.17232706,-0.30645782,0.40222588,-9.404425,1.0574499,47.677036,-1.169734,-1.8919406,-3.3888822,-0.0751585,0.3902115,-0.18228833,27.6875,28.75,27.9375,31.875,33.75,34.6875
0.34005225,-0.9798093,-1.6922594,-0.2015327,-0.073073134,0.046354406,-0.14431493,-0.40897256,-0.34740144,0.059996903,3.0705242,-0.62615675,-0.00027021184,-0.16624449,0.0073464937,0.0013255381,-0.047676094,0.010309392,-0.010690864,0.44723746,-1.3847164,1.9094833,-2.099005,-1.5645279,2.4240408,-0.17626333,0.24677135,-0.2987768,0.022968622,0.03874062,-0.16528305,-0.28730422,0.38307226,-9.385271,0.9388393,47.698532,-1.0562637,-1.9467708,-3.4542623,-0.08401521,0.39504164,-0.2390863,27.6875,28.75,27.9375,31.875,33.75,34.6875
0.3420523,-1.1672602,-1.5194443,-0.048160195,-0.050821945,0.031330284,-0.13869968,-0.40934235,-0.34738448,0.060022168,3.070367,-0.626279,-0.00035099042,-0.16702618,0.0068717906,0.0014840381,-0.05017137,0.010308296,-0.014745439,0.44685313,-1.384224,1.9088382,-2.0989697,-1.5644554,2.4237537,-0.17730474,0.2476498,-0.30012998,0.022365838,0.04100269,-0.16225688,-0.22984336,0.36391866,-9.3661175,0.91198283,47.70211,-1.0585973,-1.8485729,-3.498311,-0.07154292,0.3704589,-0.29863465,27.6875,28.75,27.9375,31.875,33.75,34.6875
0.3440525,-0.8541346,-0.79869586,-0.2472844,-0.03712292,0.030218838,-0.142079,-0.40966696,-0.3473864,0.060019754,3.0702622,-0.62618184,-0.0003219686,-0.16809322,0.0067017227,0.0009780729,-0.052742224,0.009881454,-0.01830734,0.44651675,-1.3837185,1.9082402,-2.0989344,-1.5643462,2.4233706,-0.17928684,0.24954492,-0.30089235,0.020520229,0.04351136,-0.16066524,-0.30645782,0.30645782,-9.289502,0.92093146,47.655537,-1.1414593,-1.9324883,-3.6437416,-0.050946593,0.34506142,-0.33909842,27.6875,28.75,27.9375,31.875,33.75,34.6875
0.34605205,-0.6813093,-0.28833953,0.14434792,-0.015383486,0.02319541,-0.14960967,-0.40999445,-0.3473743,0.060027737,3.0701427,-0.626252,-0.00031719662,-0.16923186,0.0046103583,0.0012280829,-0.055664133,0.010712693,-0.017147087,0.44616953,-1.3832371,1.9076413,-2.0988748,-1.5642618,2.423083,-0.17785677,0.25270388,-0.3050536,0.019530358,0.04579595,-0.1603826,-0.19153613,0.21068975,-9.308657,0.9567419,47.668976,-1.1504472,-1.8494012,-3.5388296,-0.03025989,0.32590795,-0.35213858,27.6875,28.75,27.9375,31.875,33.75,34.6875
0.34805208,-0.3128328,-0.19666345,0.15253572,-0.0024839647,0.029123878,-0.14900362,-0.4103653,-0.3473839,0.060041014,3.06998,-0.6262543,-0.00036406706,-0.17070547,0.004201363,0.0020382667,-0.058609784,0.011346402,-0.014813986,0.44580862,-1.382696,1.9069709,-2.0988634,-1.5641526,2.4227452,-0.1796883,0.25340092,-0.30790636,0.019896623,0.04822781,-0.16453205,-0.2681506,0.22984336,-9.155427,0.91421866,47.689575,-1.0364964,-1.97663,-3.4671018,-0.021598022,0.30295157,-0.36200774,27.6875,28.75,27.9375,31.875,33.75,34.6875
0.3500522,-0.8147886,0.45944753,-0.055308618,0.011281481,0.007720826,-0.15000036,-0.41070044,-0.34736478,0.06004587,3.069857,-0.6262632,-0.00036216222,-0.17185782,0.0039032942,0.0032005012,-0.0607368,0.012662601,-0.008145992,0.4454362,-1.3822159,1.9063853,-2.0988266,-1.5640563,2.4223948,-0.18081899,0.25300473,-0.31036705,0.020729816,0.04964255,-0.17232184,-0.17238252,0.19153613,-9.155427,0.8918391,47.647476,-1.0358231,-1.8413526,-3.3872313,-0.016855516,0.24878371,-0.2899118,27.6875,28.75,27.9375,31.875,33.75,34.6875
0.35205218,-0.044664245,0.44158354,0.067203544,0.00038656758,0.035027623,-0.16380726,-0.41106224,-0.34735194,0.060053933,3.06972,-0.62626535,-0.00038960803,-0.1723313,0.0031491623,0.0032310812,-0.062482633,0.011471644,0.0022309045,0.4450526,-1.3816988,1.9057516,-2.0988023,-1.5639595,2.4220307,-0.18105507,0.254789,-0.31292176,0.021922994,0.051815744,-0.18292135,-0.17238252,0.2873042,-9.212888,1.0149267,47.651955,-1.2245041,-1.845038,-3.446734,0.001340305,0.23278181,-0.17104135,27.6875,28.75,27.9375,31.875,33.75,34.6875
0.35405236,-1.2389946,-0.6093729,0.22637993,-0.020973798,0.03856486,-0.14616346,-0.411392,-0.34735307,0.060062576,3.0695956,-0.626254,-0.00033633507,-0.17133543,0.0015086919,0.0030759645,-0.06309595,0.010719736,0.010854527,0.44470558,-1.3811942,1.9051174,-2.0987184,-1.5638393,2.421693,-0.17777762,0.25582337,-0.3140287,0.022483816,0.052741993,-0.18826161,-0.30645782,0.30645782,-9.212888,0.91421866,47.66808,-1.3561411,-1.5739639,-3.3988502,-0.0062266877,0.2048067,-0.10022087,27.6875,28.75,27.9375,31.8125,33.75,34.6875
0.35605237,-1.3648144,-0.57488436,0.2908381,-0.037544962,0.058746926,-0.15331368,-0.4117229,-0.34734318,0.060048632,3.069538,-0.6261877,-0.00029698905,-0.17243147,0.0021168857,0.0018414804,-0.060424685,0.008729731,0.0070813275,0.4443692,-1.3806517,1.9044946,-2.0986578,-1.5637678,2.421323,-0.17858683,0.26038182,-0.31708512,0.023943324,0.05118214,-0.18530138,-0.30645782,0.30645782,-9.078813,0.9768804,47.651955,-1.4212428,-1.9199274,-3.3682919,-0.0052515976,0.17621493,-0.06363917,27.6875,28.75,27.9375,31.8125,33.75,34.6875
0.35805324,-1.2811226,-0.31061164,0.123362206,-0.03470373,0.062161803,-0.1461021,-0.41207215,-0.3473291,0.0600314,3.069414,-0.6261657,-0.0002175187,-0.17323762,0.0019030822,0.0014718251,-0.060323443,0.007380226,0.0004886544,0.4439731,-1.3800982,1.9038719,-2.0986216,-1.5636357,2.4209297,-0.17897375,0.26322484,-0.320053,0.025329504,0.05165233,-0.17909083,-0.21068975,0.24899697,-9.3661175,0.9254084,47.696735,-1.4817953,-1.9154148,-3.30278,-0.018384783,0.15420584,-0.11639375,27.6875,28.75,27.9375,31.8125,33.75,34.6875
0.36005247,-1.5945257,-0.43671715,0.20188202,-0.02481753,0.0350222,-0.13962142,-0.41240388,-0.3473194,0.060029898,3.069345,-0.6261546,-0.00017577501,-0.17288716,0.0029273166,-0.00044204306,-0.059556954,0.0031482435,-0.0079384595,0.44363648,-1.3795689,1.9032277,-2.0985253,-1.5635632,2.4205954,-0.18095747,0.26576638,-0.31895244,0.02581899,0.052758653,-0.17264225,-0.19153613,0.21068975,-9.251195,0.9410752,47.684196,-1.3792939,-1.9888886,-3.4283226,-0.02960487,0.13709271,-0.17795007,27.6875,28.75,27.9375,31.8125,33.75,34.6875
0.36205176,-1.0831352,-0.2727386,0.05442487,-0.0152209485,0.012310289,-0.14640911,-0.41277057,-0.3473495,0.0600444,3.069131,-0.6261521,-0.00020810902,-0.17420793,0.0028588932,-0.00126048,-0.05973947,0.0026502116,-0.015297764,0.4432883,-1.3790275,1.9025582,-2.0985382,-1.5634073,2.420274,-0.18195525,0.26933858,-0.32123336,0.024896825,0.053128034,-0.16627055,-0.1340753,0.2681506,-9.155427,0.8918391,47.651955,-1.3867847,-1.9655476,-3.5271192,-0.006717228,0.11370158,-0.27279034,27.6875,28.75,27.9375,31.8125,33.75,34.6875
0.36405176,-0.060525004,0.31198904,0.2271379,-0.022029636,0.008197876,-0.15193,-0.4131465,-0.34732163,0.060045872,3.0690417,-0.6262149,-0.00030743063,-0.17602944,0.0047295443,-0.0015581799,-0.05635205,0.004632721,-0.024163118,0.4429157,-1.3784862,1.9019116,-2.0985262,-1.5633849,2.4199529,-0.184044,0.2707062,-0.32214457,0.024089407,0.04920084,-0.15950543,-0.22984336,0.4405331,-9.232041,1.0238806,47.675243,-1.3134634,-2.0985305,-3.4983544,0.0064840065,0.10466773,-0.36074287,27.6875,28.75,27.9375,31.8125,33.75,34.6875
0.36605173,-0.20654367,-0.34519958,0.29566842,-0.031867296,0.0045417254,-0.14991765,-0.4135159,-0.3473203,0.060058627,3.0688615,-0.6262754,-0.00027701442,-0.17820528,0.0049110227,0.00037259707,-0.05731859,0.008724538,-0.028552204,0.44251928,-1.3779464,1.9012307,-2.0984662,-1.5632409,2.4196181,-0.1853858,0.2696495,-0.32546875,0.024381723,0.048321743,-0.15645732,-0.22984336,0.38307226,-9.136273,0.92093146,47.64658,-1.253836,-2.0530627,-3.451252,0.026562653,0.13077891,-0.435143,27.6875,28.75,27.9375,31.8125,33.75,34.6875
0.3680523,-0.27612215,-0.5219972,0.115603045,-0.037228703,0.0002971405,-0.16310091,-0.4138651,-0.34728542,0.060044125,3.0687642,-0.6264463,-0.00024933164,-0.17933469,0.005872791,0.00024001434,-0.0564727,0.0076979366,-0.028078651,0.44213408,-1.3774054,1.9006094,-2.098406,-1.5631808,2.4193528,-0.18758847,0.27125588,-0.32764548,0.026291236,0.048027344,-0.1591335,-0.076614454,0.40222588,-9.078813,0.9545008,47.667187,-1.1499166,-1.8846307,-3.413991,0.02727621,0.12595858,-0.4803182,27.6875,28.75,27.9375,31.8125,33.75,34.6875
0.37005216,-0.3157061,-0.24589682,0.29578757,-0.043554466,0.009004358,-0.1697849,-0.4142156,-0.34729877,0.06003221,3.0686789,-0.6263472,-0.00021831592,-0.17973825,0.008068782,-0.00075672544,-0.052714206,0.005409908,-0.021492193,0.4418095,-1.376816,1.8999275,-2.0983574,-1.5630854,2.4189777,-0.19005929,0.272675,-0.32780758,0.028818278,0.045683954,-0.16820002,-0.05746084,0.4405331,-9.11712,0.9791215,47.66271,-1.2252719,-2.0052636,-3.5114107,0.0037492404,0.13801545,-0.4262475,27.6875,28.75,27.9375,31.8125,33.75,34.6875
0.37205222,-0.9991111,-0.7852228,0.36918092,-0.033534046,0.022507591,-0.15758601,-0.41456762,-0.34726307,0.06002598,3.0685456,-0.62644625,-0.00011026996,-0.18222591,0.007850291,0.001027183,-0.052768525,0.009443352,-0.009948488,0.44137734,-1.3762873,1.8992933,-2.0982606,-1.5629543,2.418625,-0.19051333,0.27336633,-0.33303973,0.029829923,0.044084955,-0.1802035,-0.13407528,0.4213795,-9.136273,0.95002913,47.66091,-1.1843302,-1.9301901,-3.4654217,0.0013819663,0.15111518,-0.3109293,27.6875,28.75,27.9375,31.8125,33.75,34.6875
0.37405226,-1.2791963,0.03141775,0.2776574,-0.022903726,0.023453549,-0.16604275,-0.41494262,-0.34725332,0.060015563,3.0684483,-0.6263636,-9.667763e-05,-0.18340352,0.00831165,0.0016894655,-0.052520603,0.010506142,-0.0018912499,0.4409934,-1.3756986,1.898611,-2.0982244,-1.5628585,2.4182026,-0.19167963,0.27365056,-0.3353116,0.031071292,0.043482143,-0.18942744,-0.05746084,0.24899697,-9.212888,0.97464454,47.68062,-1.1835021,-1.7702947,-3.4239435,-0.032191012,0.14564008,-0.2081593,27.6875,28.75,27.9375,31.8125,33.75,34.6875
