Tylouw/Master_Thesis_Code/training_data/batch_1/small_rod_t0.2/sample_96_session_3.csv
timestamp[s],tcp_force_x[N],tcp_force_y[N],tcp_force_z[N],tcp_force_rx[Nm?],tcp_force_ry[Nm?],tcp_force_rz[Nm?],tcp_pose_x[m],tcp_pose_y[m],tcp_pose_z[m],tcp_pose_rx[rot_vec_x],tcp_pose_ry[rot_vec_y],tcp_pose_rz[rot_vec_z],tcp_velo_x[m/s],tcp_velo_y[m/s],tcp_velo_z[m/s],tcp_velo_rx[rot_vec_x/s],tcp_velo_ry[rot_vec_y/s],tcp_velo_rz[rot_vec_z/s],q1[rad],q2[rad],q3[rad],q4[rad],q5[rad],q6[rad],qd1[rad/s],qd2[rad/s],qd3[rad/s],qd4[rad/s],qd5[rad/s],qd6[rad/s],tool_acc_x,tool_acc_y,tool_acc_z,current_of_whole_robot[A],voltage_of_whole_robot[V],current_J1[A],current_J2[A],current_J3[A],current_J4[A],current_J5[A],current_J6[A],temp_J1[C],temp_J2[C],temp_J3[C],temp_J4[C],temp_J5[C],temp_J6[C]
6.2500476e-07,0.06802186,-0.007802232,1.093353,-0.014823132,0.009061561,-0.028809452,-0.38105714,-0.34850898,0.05994755,-3.0784638,0.6248857,-0.00025191336,0.0021929296,0.0011131143,-0.00226329,0.0024621848,-0.005112789,6.976386e-05,0.4777741,-1.4258977,1.9577154,-2.100797,-1.5707697,2.4527402,-6.188935e-05,0.00081454805,0.0040630978,0.0007940905,0.00017493425,-0.00013405462,0.076614454,0.076614454,-8.7532015,0.73069996,47.690468,0.026103862,-2.8122547,-2.5990472,-0.44264537,0.17336549,0.059516504,28.125,29.3125,28.5,32.4375,34.6875,35.625
0.002052575,-0.22842476,-0.34380072,1.1376274,0.0028034984,0.00024537474,-0.022313349,-0.38104543,-0.34852725,0.059950706,-3.0785167,0.62497437,-0.0002367803,-0.0009850417,-0.00054102927,-0.0026870938,-0.0014079429,0.0023135717,6.9492475e-05,0.47778615,-1.4259324,1.9577621,-2.1008604,-1.5707215,2.4528008,-6.246728e-05,0.004330936,0.003631909,-0.010665377,0.00016967277,-0.00013126456,-0.05746084,0.21068975,-8.7532015,0.7665104,47.69763,0.051300913,-2.898006,-2.4351351,-0.3981194,0.16867588,0.03839861,28.125,29.3125,28.5,32.4375,34.6875,35.625
0.004052623,-0.20027395,0.03890675,1.2307498,-0.004974792,0.0005063631,-0.028157413,-0.3810725,-0.34852147,0.059955176,-3.0785155,0.62491536,-0.00017279314,-0.0018260154,-0.0009819482,-0.002107238,-0.0028968041,0.0051868814,7.626607e-05,0.4777741,-1.4259087,1.9577278,-2.1008732,-1.5707573,2.452752,-5.3514173e-05,0.0037819867,0.0035180266,-0.013238678,0.00016451818,-0.00012858551,-0.05746084,0.21068975,-8.676587,0.7665104,47.67345,0.036773033,-3.1736968,-2.6654418,-0.31150475,0.16866526,0.058204718,28.125,29.3125,28.5,32.4375,34.6875,35.625
0.006052102,0.049209647,0.15382631,1.2477967,0.010119416,-0.0067585898,-0.025197491,-0.3810569,-0.34850883,0.05994218,-3.0784876,0.62492883,-0.00018946169,-0.0009920287,-0.0005481895,-0.0015273218,-0.0017065491,0.002918423,7.7811324e-05,0.4777741,-1.4259212,1.957774,-2.1008832,-1.5707697,2.452764,-4.869539e-05,0.002469127,0.0025978808,-0.008443924,0.0001596545,-0.00012601347,0.1340753,0.17238252,-8.7532015,0.71951014,47.66539,0.084489085,-3.0733051,-2.6352224,-0.32795024,0.16626805,0.048775207,28.125,29.3125,28.5,32.4375,34.6875,35.625
0.008052205,0.2255738,0.7702185,0.6753982,0.032628633,-0.032682206,-0.021038197,-0.38103724,-0.34853238,0.059931953,-3.0784955,0.6248532,-0.00020374081,-0.00038823878,-0.0002317305,-0.00038920194,-0.0012440718,0.0020520496,7.525057e-05,0.4778342,-1.4258981,1.9577736,-2.1008942,-1.5707697,2.452776,-4.799133e-05,8.1887505e-05,0.0017602626,-0.004237043,0.00015506962,-0.00012354345,0.076614454,0.076614454,-8.90643,0.73069996,47.707485,-0.0111110415,-2.936656,-2.5823936,-0.367952,0.161106,0.052329198,28.125,29.3125,28.5,32.4375,34.6875,35.625
0.010052604,0.49925268,0.31576282,0.032885335,0.045144703,-0.030955318,-0.013859832,-0.3810437,-0.34851786,0.059922915,-3.0784564,0.6248838,-0.00023697199,9.302405e-05,2.6032529e-05,-0.00041382338,-0.00037845745,0.00039983078,7.127894e-05,0.4778101,-1.4258741,1.9577612,-2.100869,-1.5707816,2.452776,-5.7818503e-05,1.0986254e-06,0.0013789652,-0.0019097173,0.0001507407,-0.00012968417,0.038307227,0.0,-9.040505,0.7239871,47.645687,-0.331389,-2.366008,-3.1603737,-0.40366027,0.15663604,-0.016252415,28.125,29.3125,28.5,32.4375,34.6875,35.625
0.012052266,-0.11862464,-0.16611533,-0.19502777,0.018617393,-0.02677724,-0.015310709,-0.38103512,-0.348513,0.05991145,-3.0784636,0.6249047,-0.00030454865,0.00033895115,0.00016828939,-0.0028771977,0.0022506956,-0.0047084857,0.00010128588,0.47778615,-1.4258726,1.9577855,-2.1008685,-1.5707458,2.452764,-9.623191e-05,0.0058870036,2.4426208e-05,-0.0006959516,0.00016475587,-0.00019675693,0.019153614,0.095768064,-9.174581,0.7978386,47.704796,-0.50325644,-2.2308702,-3.2272515,-0.4231937,0.17061223,-0.09360765,28.125,29.3125,28.5,32.4375,34.6875,35.625
0.014052452,-0.38483062,-0.53496414,-0.22120818,-0.018760137,0.0012622635,-0.028159078,-0.3810592,-0.34849545,0.05990145,-3.078407,0.62487197,-0.0002759719,-0.0054007564,0.001352932,-0.004141095,0.002918616,-0.0060511203,0.0024972302,0.47777137,-1.4258206,1.9577464,-2.1008565,-1.5708054,2.4527361,-0.0075251386,0.016171701,-0.008822692,-0.0006361878,0.00016615055,-0.01001552,0.0,0.19153613,-9.308656,0.784413,47.666286,-0.23681635,-2.9745147,-2.9802692,-0.42636922,0.1934022,-0.06873757,28.125,29.3125,28.5,32.4375,34.6875,35.625
0.01605185,-0.92782027,-1.0747634,-0.31414166,-0.059004333,0.028908325,-0.03899844,-0.38103157,-0.34849393,0.05988188,-3.0784063,0.62479115,-0.00039782436,-0.006192771,0.0018136607,-0.003033481,0.001896022,-0.0041253637,0.009147924,0.477771,-1.4258094,1.9577702,-2.1008208,-1.5707697,2.4526854,-0.009088142,0.014091473,-0.0090003805,-0.00055968075,0.00018405641,-0.018229522,-0.11492168,0.2681506,-9.634268,0.7620334,47.65643,-0.2606115,-2.7920756,-3.13585,-0.43160063,0.2034467,0.022131756,28.125,29.3125,28.5,32.4375,34.6875,35.625
0.018051755,-1.7359998,-1.8340089,-0.3739605,-0.06813804,0.048094604,-0.053671665,-0.38105124,-0.34850195,0.059887525,-3.0784268,0.6247374,-0.0004108048,-0.0055791456,0.0021540308,-0.0032400184,0.0023893465,-0.005256689,0.011580558,0.47775897,-1.4257736,1.9577111,-2.100797,-1.5707573,2.4526372,-0.009179262,0.013511478,-0.00806759,0.0003185256,0.00026894026,-0.02075418,-0.24899697,0.30645782,-9.557653,0.7150385,47.705692,-0.3702551,-2.5637388,-3.4057107,-0.4513507,0.21229105,0.027094943,28.125,29.3125,28.5,32.4375,34.6875,35.625
0.020051979,-2.1293561,-1.8048985,-0.6304726,-0.06872708,0.0630574,-0.06571293,-0.38105568,-0.34849772,0.059879825,-3.0784132,0.6247352,-0.0004403906,-0.00640223,0.0015501697,-0.0029621453,0.00025489443,-0.005603234,0.010796767,0.4777467,-1.4257492,1.9576982,-2.100785,-1.5707563,2.4526253,-0.010201318,0.014669947,-0.010058324,0.00046967642,0.002319147,-0.020995306,-0.3256114,0.38307226,-9.730036,0.74413085,47.660015,-0.5468092,-2.4312918,-3.5819736,-0.45054883,0.19376495,0.008705466,28.125,29.3125,28.5,32.4375,34.6875,35.625
0.02205202,-1.4883468,-1.1736448,-0.48867017,-0.05467707,0.07349939,-0.09980638,-0.38107035,-0.3484979,0.05986637,-3.0784109,0.62481326,-0.0005055156,-0.008176348,0.0012289318,-0.003140639,-0.0011162936,-0.006219728,0.00825312,0.47770986,-1.4257001,1.957673,-2.100785,-1.5707201,2.4526374,-0.012245351,0.018024858,-0.01346796,0.00043694608,0.0038124255,-0.020496445,-0.51714754,0.3256114,-9.864111,0.784413,47.713753,-0.53624654,-2.5066009,-3.4168081,-0.46827745,0.18274832,-0.0015742118,28.125,29.3125,28.5,32.4375,34.6875,35.625
0.024052143,-1.2701619,-0.96893144,-0.57204217,-0.025422823,0.06674832,-0.12015212,-0.38107413,-0.34849513,0.05983124,-3.0783837,0.62471306,-0.0005663534,-0.009762472,0.0013530105,-0.0026300156,-0.002369353,-0.005332246,0.0048916675,0.47770908,-1.4256159,1.9576601,-2.100797,-1.570732,2.4525776,-0.014389625,0.018901505,-0.01561357,0.0003390613,0.004511827,-0.01927968,-0.5746084,0.34476504,-9.787497,0.7553206,47.651955,-0.5784711,-2.4727468,-3.4394686,-0.46846536,0.15899417,-0.0038671014,28.125,29.3125,28.5,32.4375,34.6875,35.625
0.026051853,-1.6745377,-0.67229193,-0.59594345,-0.019726807,0.05542508,-0.12584084,-0.38110527,-0.3484863,0.05984676,-3.078392,0.6247356,-0.0005107473,-0.010746915,0.0019182394,-0.0025709537,-0.002240806,-0.004785541,0.0018634412,0.47767267,-1.4256157,1.9576243,-2.100797,-1.5707444,2.4525542,-0.01606683,0.019429633,-0.016287126,5.9526876e-05,0.004145519,-0.017927283,-0.7469909,0.3256114,-9.864111,0.72622824,47.691364,-0.5622948,-2.5073638,-3.4472966,-0.4822005,0.17882639,-0.03810122,28.125,29.3125,28.5,32.4375,34.6875,35.625
0.028052047,-1.0889118,-0.5600687,-0.4906099,-0.028264424,0.07764501,-0.14863089,-0.38112244,-0.3485017,0.059844162,-3.0784276,0.6247054,-0.00054570823,-0.01171448,0.0016597171,-0.002308096,-0.0023246892,-0.003902418,0.0010198484,0.47766054,-1.4255674,1.9575752,-2.100797,-1.5707082,2.4525187,-0.016284995,0.020689134,-0.018311838,3.8866797e-06,0.0038098593,-0.017299946,-0.7661445,0.24899697,-9.844957,0.77545905,47.686886,-0.5310679,-2.428304,-3.4827888,-0.47632056,0.191279,-0.05293006,28.125,29.3125,28.5,32.4375,34.6875,35.625
0.030052138,-1.4599788,-0.751173,-0.4536568,-0.029966503,0.07878444,-0.1609437,-0.38113618,-0.34850386,0.059825648,-3.078423,0.624744,-0.000599607,-0.012865775,0.0017422504,-0.0018439015,-0.0031099485,-0.003033677,-0.0008637627,0.4776361,-1.4255074,1.9575518,-2.1008089,-1.5706843,2.452519,-0.017688273,0.02117476,-0.019926842,2.537724e-07,0.004104191,-0.016819414,-0.7086837,0.15322891,-9.80665,0.74413085,47.68599,-0.58752984,-2.334344,-3.4491892,-0.48780432,0.18940148,-0.07085657,28.125,29.3125,28.5,32.4375,34.6875,35.625
0.032052167,-1.9172715,-0.84479433,-0.31425387,-0.013439298,0.066421814,-0.1633576,-0.3811687,-0.34851432,0.05984462,-3.0784655,0.62465495,-0.00055433606,-0.01374538,0.0006658179,-0.0008574326,-0.0052873944,-0.0015827874,-0.000110425055,0.4776243,-1.4254835,1.9574784,-2.100797,-1.5706838,2.4524462,-0.017408105,0.02144732,-0.02249317,1.6569526e-08,0.0053658835,-0.017293604,-0.63206923,0.17238252,-9.576807,0.7284641,47.65464,-0.6969172,-2.3799694,-3.4439187,-0.5032072,0.17904799,-0.08958393,28.125,29.3125,28.5,32.4375,34.6875,35.625
0.03405174,-1.8202813,-0.62608653,-0.28133342,0.0109911375,0.0548849,-0.16780414,-0.38118115,-0.34848934,0.05980748,-3.0784194,0.62468475,-0.00060225604,-0.015132822,6.191338e-05,-0.0007990076,-0.0072932006,-0.0011009737,-0.0007649752,0.47757575,-1.4254227,1.9575022,-2.1008332,-1.5706953,2.4524221,-0.018627351,0.023533955,-0.024734456,-0.0012008039,0.006917124,-0.017860025,-0.49799395,-0.05746084,-9.672575,0.79560274,47.682407,-0.7065103,-2.3651948,-3.362956,-0.49573362,0.15574387,-0.10438835,28.125,29.3125,28.5,32.4375,34.6875,35.625
0.036052424,-0.7162364,0.28259775,-0.26365328,0.019965181,0.056847427,-0.19312745,-0.38124436,-0.3484995,0.059835043,-3.0784588,0.62473106,-0.0005407097,-0.016142398,-0.00011539993,-0.00075844943,-0.00880584,-0.0010516456,-0.0015808543,0.47752726,-1.4253745,1.9573816,-2.1008213,-1.5706829,2.4523976,-0.020099798,0.02476112,-0.026087001,-0.0018187093,0.008234418,-0.018517783,-0.4213795,-0.11492168,-9.691729,0.78217715,47.661808,-0.62207776,-2.4468155,-3.3338165,-0.48028642,0.14394656,-0.115766294,28.125,29.3125,28.5,32.4375,34.6875,35.625
0.038051683,-0.7503202,0.7439867,-0.19392982,0.028987367,0.029118266,-0.2079034,-0.38128498,-0.34849322,0.059835423,-3.0784905,0.62479585,-0.00054597505,-0.017489452,-0.00022578773,-0.00042693142,-0.009635571,0.00060994655,-0.0016187725,0.4774549,-1.4253381,1.9573449,-2.100846,-1.5706466,2.4523616,-0.02112624,0.02568275,-0.027611088,-0.0030719612,0.0082018655,-0.019504873,-0.3256114,-0.076614454,-9.653421,0.7933669,47.72808,-0.618013,-2.3272512,-3.4025428,-0.4492476,0.1198683,-0.13222112,28.125,29.3125,28.5,32.4375,34.6875,35.625
0.04005169,-0.30692837,0.5268067,0.03470609,0.033692837,0.026957495,-0.21570046,-0.38131443,-0.34849915,0.059823077,-3.0784996,0.6247974,-0.0005575392,-0.019199664,-0.0004247791,0.0005039144,-0.010004398,0.0031734756,-0.0013478219,0.4774307,-1.425266,1.9572963,-2.1008694,-1.5706352,2.4523373,-0.021796325,0.026387444,-0.030480571,-0.0033500125,0.0073443525,-0.020442624,-0.21068975,-0.05746084,-9.595961,0.679228,47.67166,-0.6030978,-2.305795,-3.3203568,-0.4411364,0.12948304,-0.1710804,28.125,29.3125,28.5,32.4375,34.6875,35.625
0.042051744,-0.09586174,0.3076171,-0.12591895,0.025593843,0.027668327,-0.22265066,-0.38135913,-0.34848595,0.059822086,-3.07849,0.6248533,-0.00058393634,-0.020170681,1.7288792e-05,0.000380606,-0.009569756,0.0027890594,-0.0019531394,0.47735813,-1.4252056,1.9572242,-2.100846,-1.5706233,2.4523008,-0.023340164,0.027851699,-0.0320077,-0.0027444735,0.0071328487,-0.021379938,-0.17238252,-0.076614454,-9.557653,0.7530795,47.64927,-0.6082379,-2.3368864,-3.3656273,-0.45383352,0.1273145,-0.17239743,28.125,29.3125,28.5,32.4375,34.6875,35.625
0.04405194,-0.6088493,0.051569823,-0.16569068,0.009194381,0.029140173,-0.2145845,-0.38141122,-0.34848145,0.05983673,-3.0785103,0.6248578,-0.0005143859,-0.020967782,0.0003646976,0.0005097227,-0.009511588,0.002761784,-0.0017673105,0.47730964,-1.4251695,1.9571522,-2.1008575,-1.5706352,2.4522526,-0.024665866,0.02852688,-0.03320357,-0.0021726487,0.007093124,-0.022890462,-0.076614454,-0.019153614,-9.595961,0.7396539,47.66808,-0.6002524,-2.294182,-3.3364658,-0.45330912,0.13713656,-0.1572657,28.125,29.3125,28.5,32.4375,34.6875,35.625
0.046052393,-0.6848329,-0.7750983,-0.2771279,0.0073602656,0.029386403,-0.19528052,-0.3814393,-0.34849545,0.05983744,-3.0785382,0.62486243,-0.0005488439,-0.022095177,0.0006225148,0.00087395747,-0.0092314305,0.003517764,-0.0010586502,0.4772853,-1.4251093,1.9570793,-2.1008456,-1.5705994,2.4522276,-0.02577535,0.029348161,-0.03509459,-0.0016425307,0.0064935177,-0.024706477,-0.05746084,0.076614454,-9.672575,0.7911258,47.674347,-0.6260128,-2.2766535,-3.3149238,-0.45114374,0.13764608,-0.19771798,28.125,29.3125,28.5,32.4375,34.6875,35.625
0.048052464,-0.63304466,-0.816776,-0.38268858,-0.0027979347,0.026896635,-0.1950949,-0.3814716,-0.34847376,0.059834678,-3.078499,0.62489194,-0.00058158406,-0.023177901,0.0009602927,0.0011532785,-0.008991849,0.0041877655,-0.00050286733,0.47722492,-1.4250611,1.9570197,-2.1007974,-1.5706118,2.4521906,-0.027033584,0.030102536,-0.036672227,-0.0013023898,0.005969005,-0.026518865,-0.11492168,0.22984336,-9.5385,0.78888994,47.698532,-0.5460363,-2.2070966,-3.340069,-0.4544452,0.15480869,-0.21206102,28.125,29.3125,28.5,32.4375,34.6875,35.625
0.05005215,-0.18175448,-0.8871135,-0.25730267,-0.0067877434,0.02218068,-0.19153032,-0.38154486,-0.3484872,0.059849314,-3.0785427,0.6248611,-0.00048096947,-0.024327138,0.00061702693,0.0019594042,-0.009953855,0.005629602,0.0010523745,0.47718877,-1.4249772,1.9568986,-2.1008332,-1.5706238,2.4521298,-0.02760418,0.030474404,-0.038991716,-0.0010782006,0.006158201,-0.028643446,-0.1340753,0.2681506,-9.557653,0.75084364,47.660015,-0.64971966,-2.1793323,-3.3136697,-0.46283564,0.15872452,-0.22257783,28.125,29.3125,28.5,32.4375,34.6875,35.625
0.052052025,-0.40111023,-1.2631162,-0.42548048,-0.0099478755,0.008616491,-0.18371801,-0.3815944,-0.34850344,0.05988388,-3.07862,0.62489617,-0.00044171658,-0.024936303,0.00093314925,0.0016734613,-0.009989679,0.0049266717,0.0018092105,0.47714025,-1.4249648,1.9568027,-2.1008213,-1.5705751,2.4520934,-0.028955715,0.03166833,-0.03973535,-0.0009200607,0.0065133963,-0.030751487,-0.019153614,0.30645782,-9.634268,0.68146914,47.68599,-0.60599345,-2.1436,-3.335628,-0.46990108,0.14723185,-0.21901836,28.125,29.3125,28.5,32.4375,34.6875,35.625
0.05405215,-0.024854522,-1.5277579,-0.37220472,-0.014761467,0.0065527344,-0.18745044,-0.38164243,-0.34849212,0.059867144,-3.0786104,0.62491274,-0.000483861,-0.025882863,0.0009967408,0.0012358192,-0.009695487,0.004246561,0.0028503211,0.4770679,-1.4248681,1.9567307,-2.1008213,-1.5705632,2.4520326,-0.029970419,0.03414117,-0.04158574,-0.00080249703,0.00655977,-0.032806255,0.0,0.4213795,-9.500193,0.7463667,47.687782,-0.6103724,-2.231472,-3.344411,-0.47713155,0.15459356,-0.24644208,28.125,29.3125,28.5,32.4375,34.6875,35.625
0.056051806,-0.3783133,-1.5754746,-0.4202477,-0.028795851,0.002246265,-0.17995846,-0.38169488,-0.34848982,0.059875373,-3.078657,0.62492245,-0.00042156017,-0.026968144,0.0010418793,0.0018062802,-0.01010832,0.005544251,0.003217714,0.47700763,-1.424832,1.9566816,-2.100869,-1.5705513,2.4519725,-0.03089886,0.034419246,-0.043208033,-0.00079895224,0.0063293274,-0.034100424,-0.05746084,0.4213795,-9.442732,0.7777002,47.64389,-0.6394254,-2.243307,-3.3444176,-0.4600891,0.1567855,-0.24729335,28.125,29.3125,28.5,32.4375,34.6875,35.625
0.058051918,-0.50186616,-1.41838,-0.12059319,-0.03961655,0.012253702,-0.18876265,-0.38176793,-0.348476,0.059889242,-3.0786667,0.6249043,-0.00038095578,-0.028273307,0.0008997995,0.0029249312,-0.011462165,0.007583886,0.004044235,0.4769233,-1.4247603,1.9565629,-2.1008456,-1.5705632,2.4518757,-0.03201576,0.033917695,-0.045210004,-0.00072969066,0.006592733,-0.03604325,-0.05746084,0.38307226,-9.481039,0.80679786,47.73256,-0.6843851,-2.0517883,-3.3251562,-0.48082596,0.18738851,-0.25102463,28.125,29.3125,28.5,32.4375,34.6875,35.625
0.06005194,-0.51255304,-1.6453068,-0.3560867,-0.03035938,0.020851739,-0.18156135,-0.38179895,-0.3484737,0.05988731,-3.0786777,0.62486696,-0.00043430895,-0.028534943,0.0007930266,0.0022582766,-0.011526659,0.00610657,0.005913482,0.476875,-1.4246999,1.9564899,-2.1008089,-1.5705394,2.4518027,-0.032541145,0.03598527,-0.046062537,-0.00066316954,0.0073254225,-0.038438603,-0.095768064,0.47884035,-9.442732,0.78888994,47.677036,-0.60359055,-1.9994454,-3.2542474,-0.47420487,0.17441109,-0.2748194,28.125,29.3125,28.5,32.4375,34.6875,35.625
0.062052034,-0.74047077,-1.3905679,-0.11901016,-0.03511091,0.019047555,-0.17554638,-0.381876,-0.34847787,0.059884835,-3.0787127,0.62489223,-0.00039043793,-0.029092975,0.00028996312,0.0017961925,-0.012317085,0.004856482,0.0076487167,0.47680283,-1.424591,1.9563822,-2.1008565,-1.5705265,2.451742,-0.03298414,0.038477406,-0.047866147,-0.0006072261,0.008599658,-0.040617414,-0.095768064,0.36391866,-9.461885,0.8314132,47.716442,-0.6657342,-2.1344924,-3.3299346,-0.47583702,0.14296481,-0.27354282,28.125,29.3125,28.5,32.4375,34.6875,35.625
0.064052075,-0.9603297,-1.4235187,-0.06402054,-0.021349551,0.01147883,-0.1744898,-0.38194537,-0.3484844,0.059910204,-3.0787752,0.62486595,-0.00031195307,-0.031411484,-0.0005831136,0.0034393698,-0.014324665,0.00806812,0.008205898,0.47674266,-1.4245428,1.956272,-2.1008685,-1.5705146,2.4516575,-0.033764347,0.039324813,-0.052617837,-0.0004776985,0.008903028,-0.041952174,-0.22984336,0.3256114,-9.3661175,0.7239871,47.64837,-0.68952894,-2.1219015,-3.2264054,-0.47868592,0.15263778,-0.2728833,28.125,29.3125,28.5,32.4375,34.6875,35.625
0.06605202,-0.36374834,-1.1339393,0.024399832,-0.012926144,0.024784632,-0.18096839,-0.38197953,-0.34847936,0.0598845,-3.0787895,0.62479156,-0.00043530058,-0.030313103,0.00014854848,0.0007636387,-0.011964688,0.0029489354,0.0087008225,0.47667053,-1.4244337,1.956201,-2.100845,-1.5704659,2.4515371,-0.034212325,0.043043442,-0.050765812,-0.00041509885,0.009157231,-0.042896423,-0.19153613,0.30645782,-9.442732,0.7396539,47.66987,-0.6878731,-2.2270997,-3.2793622,-0.48479864,0.16479456,-0.2836817,28.125,29.3125,28.5,32.4375,34.6875,35.625
0.06805216,-0.49200326,-0.689234,0.100420296,-0.017936153,0.021379866,-0.1846131,-0.3820405,-0.34848598,0.05990379,3.0788229,-0.6248166,0.00038600535,-0.03173418,-0.0007224473,0.0020238704,-0.014144593,0.0051549347,0.009206381,0.47661048,-1.4243857,1.9561046,-2.1008565,-1.5704421,2.4514885,-0.034567997,0.04323519,-0.053849507,-0.00048501146,0.01007824,-0.043757044,-0.1340753,0.24899697,-9.385271,0.7665104,47.70211,-0.79845834,-2.2376475,-3.321895,-0.4778039,0.13530111,-0.32410082,28.125,29.3125,28.5,32.4375,34.6875,35.625
0.070053406,-0.4453128,-0.49433967,0.27342713,-0.01128317,0.022209827,-0.1799337,-0.38212013,-0.34849334,0.059911452,3.0788143,-0.62477565,0.000354576,-0.03355318,-0.0010554286,0.0032324952,-0.015651245,0.008180217,0.011156233,0.47654998,-1.4242661,1.9559482,-2.1008456,-1.5704421,2.4514036,-0.035610817,0.04327963,-0.056487706,-0.0012692871,0.010023113,-0.046747893,-0.1340753,0.28730422,-9.289502,0.7933669,47.677036,-0.80463815,-2.1269212,-3.2159014,-0.47349292,0.13826299,-0.31558645,28.125,29.3125,28.5,32.4375,34.6875,35.625
0.07205252,-0.24852578,-0.19997324,-0.034351844,-0.004832912,0.02959855,-0.18901366,-0.38217103,-0.3484973,0.05991197,3.0787988,-0.62465626,0.0003099347,-0.034884583,-0.0019508783,0.0032657627,-0.016457561,0.008649758,0.012239825,0.47650203,-1.4242051,1.9558882,-2.1008933,-1.5704297,2.4512832,-0.03556664,0.046281476,-0.05990735,-0.0016391168,0.010518785,-0.047785364,-0.1340753,0.22984336,-9.270349,0.8112748,47.670765,-0.8750187,-2.1282191,-3.0053296,-0.4685052,0.1250069,-0.30292392,28.125,29.3125,28.5,32.4375,34.6875,35.625
0.074051954,-0.13665882,-0.40089077,0.28269914,0.0022276791,0.044719297,-0.18896784,-0.38223428,-0.34850043,0.059912026,3.0787656,-0.62466896,0.00037259544,-0.03393451,-0.0012952653,0.0012797056,-0.015183557,0.00495361,0.011180514,0.47641793,-1.4240966,1.9557561,-2.1008575,-1.5703815,2.4512112,-0.03621546,0.0483932,-0.057676975,-0.0021113493,0.011086155,-0.047376614,-0.1340753,0.15322891,-9.289502,0.83813137,47.67614,-0.8979272,-2.1736166,-3.1858027,-0.46196568,0.12332784,-0.3701676,28.125,29.3125,28.5,32.4375,34.6875,35.625
0.07605269,-0.48585895,-0.69242316,0.060373295,0.002546965,0.038480025,-0.18366724,-0.38232493,-0.34849563,0.059932105,3.078731,-0.6246227,0.0002581491,-0.0354473,-0.0017845772,0.0021431388,-0.01587825,0.006753005,0.0131500745,0.47633383,-1.4240243,1.9556359,-2.1008933,-1.5703939,2.4511027,-0.03659622,0.049490727,-0.060967937,-0.0018339172,0.010876825,-0.049723927,-0.076614454,0.21068975,-9.251195,0.7284641,47.66271,-0.99385536,-2.1783867,-3.1575503,-0.4597496,0.112783074,-0.3670318,28.125,29.3125,28.5,32.4375,34.6875,35.625
0.078052215,-0.74574333,-0.37483582,0.28325617,0.009844964,0.032717843,-0.18329471,-0.3823984,-0.34851712,0.05995775,3.078638,-0.62456334,0.00026918805,-0.03650438,-0.0020026488,0.0024815684,-0.016423076,0.007229344,0.01620221,0.47624946,-1.423952,1.9554919,-2.1008809,-1.5703095,2.450993,-0.037346456,0.05072225,-0.06323149,-0.0014697039,0.011142725,-0.053524792,-0.15322891,0.13407528,-9.212888,0.8023209,47.690468,-1.0145979,-2.1582923,-3.041266,-0.46275145,0.11258148,-0.36264527,28.125,29.3125,28.5,32.4375,34.6875,35.625
0.08005238,-0.5860888,0.17399769,0.33525574,0.0075715054,0.034236796,-0.18322104,-0.38248694,-0.34850484,0.059953243,3.0786781,-0.6245506,0.000221282,-0.037056036,-0.0019856826,0.0024948074,-0.016252331,0.006864616,0.019161927,0.47617722,-1.423808,1.955335,-2.1008685,-1.5703577,2.450908,-0.037885927,0.051836494,-0.064717084,-0.00069687515,0.011157845,-0.057023246,-0.22984336,0.1340753,-9.193734,0.7486078,47.675243,-0.9906366,-2.1211686,-3.059167,-0.4466836,0.106686614,-0.33246136,28.125,29.3125,28.5,32.4375,34.6875,35.625
0.08205221,-0.32498574,0.0970896,0.4028513,0.007286742,0.042393174,-0.1858288,-0.3825487,-0.34851837,0.05995143,3.0786593,-0.6243731,0.00026707174,-0.03785818,-0.002151683,0.0025290248,-0.016110165,0.00702923,0.01897138,0.47610533,-1.4236995,1.9552153,-2.1008685,-1.5702976,2.4507277,-0.038190395,0.053383563,-0.06663292,-0.00040423276,0.010954191,-0.057135615,-0.2681506,0.05746084,-9.251195,0.80679786,47.677036,-1.0609794,-2.115177,-3.1055388,-0.44421795,0.11939536,-0.37205362,28.125,29.3125,28.5,32.4375,34.6875,35.625
0.08405221,-0.34696722,-0.1442532,0.2437677,-0.001688988,0.04809483,-0.19221468,-0.3826381,-0.34853336,0.05997424,3.0786273,-0.62430716,0.0001525835,-0.038884647,-0.0023960439,0.002662994,-0.017092146,0.0071560806,0.022125352,0.47605693,-1.4236033,1.9550589,-2.1008928,-1.570309,2.4506423,-0.039222695,0.054823987,-0.06857243,-0.00046974237,0.011770491,-0.06132087,-0.24899697,0.15322891,-9.289502,0.78888994,47.629562,-1.1276913,-2.1555471,-3.0821457,-0.46906155,0.108279124,-0.3442238,28.125,29.3125,28.5,32.4375,34.6875,35.625
0.08605176,-0.9499921,-0.57648903,0.2690025,-0.0067312364,0.03275313,-0.18229178,-0.3826782,-0.34852397,0.059947472,3.078647,-0.62425214,0.00028754395,-0.03962304,-0.002346716,0.002573383,-0.01669139,0.0073153987,0.025858022,0.47597265,-1.4234831,1.9549745,-2.1008565,-1.5702618,2.4505212,-0.0397013,0.056210283,-0.06997183,-0.0004076893,0.01133534,-0.065531485,-0.34476504,0.19153613,-9.270349,0.75084364,47.645687,-1.1563351,-2.111175,-3.0141773,-0.4725979,0.101328716,-0.3053416,28.125,29.3125,28.5,32.4375,34.6875,35.625
0.08805192,-0.3179487,0.0795361,0.30812228,-0.023098579,0.046453603,-0.19657695,-0.38278183,-0.34852996,0.05996791,3.0785909,-0.62416124,0.00023635112,-0.040634792,-0.0022452117,0.002915319,-0.01698823,0.008107883,0.028642688,0.47586438,-1.423375,1.9548072,-2.1008685,-1.5702256,2.4503634,-0.040736698,0.056848064,-0.07149769,-0.0003545878,0.011239609,-0.06934977,-0.22984336,0.17238252,-9.32781,0.82694155,47.70032,-1.279704,-2.1279118,-3.0716183,-0.46069995,0.096338615,-0.29222745,28.125,29.3125,28.5,32.4375,34.6875,35.625
0.09005188,-0.3121231,-0.29689357,0.11098418,-0.015754014,0.047324557,-0.19422214,-0.38287997,-0.3485238,0.059966803,3.0785635,-0.62413675,0.00020524145,-0.041970875,-0.0013894092,0.0014897122,-0.015756961,0.005746219,0.029309794,0.47575527,-1.4232415,1.9546627,-2.1008928,-1.5702137,2.4502425,-0.043465868,0.06117068,-0.07319473,-0.0003133747,0.011227749,-0.07274413,-0.21068975,0.17238252,-9.404425,0.7486078,47.69763,-1.1435825,-2.1516654,-3.0157614,-0.46060947,0.10678473,-0.25203866,28.125,29.3125,28.5,32.4375,34.6875,35.625
0.092052035,-0.43134934,-0.13242565,0.22849128,-0.031131512,0.045452546,-0.19441016,-0.3829361,-0.34851226,0.059970453,3.0786014,-0.6239497,0.00020559834,-0.043130256,-0.0013991514,0.0026430455,-0.016567834,0.008128531,0.03252768,0.47568312,-1.4231697,1.9545668,-2.1008685,-1.5702137,2.450049,-0.04426472,0.060272723,-0.07481482,-0.00028073206,0.010855672,-0.07675973,-0.22984336,0.19153613,-9.404425,0.7620334,47.684196,-1.1786491,-2.1813192,-3.0713387,-0.46623033,0.101208076,-0.18866503,28.125,29.3125,28.5,32.4375,34.6875,35.625
0.09405219,-1.0950105,-0.7857542,0.05651612,-0.024599923,0.031979855,-0.1816024,-0.38302186,-0.34853417,0.05996495,3.0785768,-0.6238453,0.00023947288,-0.043019462,-0.0026237355,0.0029242698,-0.01764256,0.008406064,0.037896365,0.47561184,-1.4230013,1.9543871,-2.1008685,-1.5701655,2.4499156,-0.0425148,0.06100927,-0.07631358,-0.00025425767,0.01168336,-0.08037863,-0.24899697,0.21068975,-9.442732,0.8090337,47.67614,-1.3350254,-2.0159092,-3.086027,-0.4562286,0.09032926,-0.146603,28.125,29.3125,28.5,32.4375,34.6875,35.625
0.09605258,-0.47779572,-0.6716888,-0.0113485195,-0.025384502,0.042628933,-0.19586177,-0.383128,-0.34852123,0.059970066,3.0786273,-0.6236641,0.0001756605,-0.044517998,-0.0012105494,0.0023676704,-0.016729943,0.007720934,0.036386143,0.47551465,-1.4228566,1.9542073,-2.1008565,-1.5702018,2.4496992,-0.046065222,0.06277751,-0.07707592,-0.00023235065,0.011187787,-0.08241729,-0.19153613,0.24899697,-9.404425,0.779936,47.627773,-1.2675581,-2.095465,-3.0687149,-0.45926285,0.09344053,-0.12529261,28.125,29.3125,28.5,32.4375,34.6875,35.625
0.09805193,-0.44111067,-0.747824,-0.16913678,-0.020567335,0.042386383,-0.18298659,-0.3831854,-0.34852287,0.05995717,3.0785995,-0.62356216,0.00026373705,-0.04532433,-0.00084281754,0.0008041377,-0.015195623,0.0052239266,0.03575669,0.47541812,-1.4227469,1.9541115,-2.1008565,-1.5701298,2.4495425,-0.047304954,0.06732435,-0.07871067,-0.0002139239,0.010963384,-0.08302591,-0.17238252,0.2681506,-9.461885,0.75755644,47.685097,-1.285726,-2.224704,-3.1465535,-0.456536,0.10487656,-0.09162165,28.125,29.3125,28.5,32.4375,34.6875,35.625
0.10005199,-0.1461496,-0.58822834,-0.22827138,-0.023279397,0.04099725,-0.18263051,-0.38331902,-0.34852636,0.05999126,3.078571,-0.62344277,0.00013393322,-0.04690326,0.00013793242,0.0021740685,-0.016519547,0.0074966014,0.03244442,0.4753091,-1.4226155,1.9538835,-2.1008565,-1.5701417,2.4493628,-0.050568685,0.06516979,-0.07944368,4.6756606e-05,0.011108836,-0.08297654,-0.17238252,0.21068975,-9.500193,0.7418897,47.64837,-1.15329,-2.0689483,-3.1429315,-0.46599597,0.08994731,-0.034563057,28.125,29.3125,28.5,32.4375,34.6875,35.625
0.10205208,-0.336907,-0.46835473,-0.19951585,-0.01981363,0.034693036,-0.18068549,-0.38339338,-0.3485419,0.059985124,3.0785422,-0.6233221,0.00015244844,-0.047896836,-0.0005323263,0.0017648205,-0.01558713,0.007497393,0.03039674,0.47523743,-1.4224821,1.9537505,-2.1008804,-1.570094,2.4492195,-0.049742322,0.06878926,-0.08266011,7.598145e-05,0.010274634,-0.080099106,-0.21068975,0.22984336,-9.404425,0.7665104,47.684196,-1.2013717,-2.178213,-3.1245515,-0.45985287,0.10112959,-0.08193587,28.125,29.3125,28.5,32.4375,34.6875,35.625
0.10405205,-0.60963213,-0.87899905,-0.1850465,-0.0024099185,0.029221822,-0.17358896,-0.38348544,-0.34852612,0.059978217,3.078545,-0.6233037,0.0001809307,-0.04751876,0.00025574415,0.0004794184,-0.014122776,0.005200642,0.029818542,0.47511712,-1.4223374,1.9535955,-2.1008565,-1.5700821,2.4490874,-0.050616965,0.0702387,-0.08139013,7.2069655e-05,0.010026476,-0.08039582,-0.21068975,0.17238252,-9.500193,0.8314132,47.71823,-1.3356763,-2.1449401,-3.1344857,-0.45672262,0.10913886,-0.105446905,28.125,29.3125,28.5,32.4375,34.6875,35.625
0.106052674,-0.43460563,-0.43161386,-0.07981176,-0.0072466703,0.041084003,-0.1826503,-0.38359058,-0.3485367,0.059992395,3.0785117,-0.62316686,0.0001866122,-0.048579957,0.0015419717,-0.00042866718,-0.014034526,0.0032305885,0.02222329,0.47500774,-1.4221928,1.9533924,-2.1008327,-1.5700334,2.448897,-0.054389287,0.072117135,-0.08147119,6.685478e-05,0.010851608,-0.076573186,-0.19153613,0.1340753,-9.500193,0.7777002,47.691364,-1.1977797,-2.172572,-3.2921376,-0.45014137,0.090066746,-0.11047874,28.125,29.3125,28.5,32.4375,34.6875,35.625
0.10805182,-0.596926,-0.30040973,-0.059790686,-0.0048464583,0.029750649,-0.18489555,-0.3836926,-0.3485511,0.059999954,3.0785203,-0.6230157,0.00011428684,-0.051327743,0.00034424243,0.0014220367,-0.016472569,0.00696435,0.019562889,0.47494757,-1.422036,1.9531988,-2.100845,-1.5700458,2.4487414,-0.0550653,0.073504135,-0.087292,6.2237596e-05,0.011303452,-0.074585676,-0.19153613,0.17238252,-9.461885,0.7530795,47.709274,-1.168171,-2.275139,-3.0354965,-0.45042682,0.07723895,-0.1633814,28.125,29.3125,28.5,32.4375,34.6875,35.625
0.11005188,-0.34797487,0.06826135,0.12447845,-0.007214532,0.04207177,-0.17904675,-0.38380972,-0.34854776,0.060020678,3.078415,-0.62309134,6.281198e-05,-0.050477136,0.0015414634,-0.00029274746,-0.014819496,0.0036088296,0.016968705,0.47480303,-1.4219277,1.9530329,-2.1008685,-1.5699977,2.4486575,-0.05643592,0.07463201,-0.08467153,5.82103e-05,0.011380354,-0.073362425,-0.3256114,0.19153613,-9.32781,0.7463667,47.64389,-1.1934772,-2.1854358,-3.3090348,-0.44751415,0.10129189,-0.20269603,28.125,29.3125,28.5,32.4375,34.6875,35.625
0.11205276,-0.47642258,0.048462916,-0.1337755,-0.004794805,0.04599171,-0.1849464,-0.38389647,-0.34854525,0.05998802,3.0784702,-0.6229304,0.000107223794,-0.05181458,0.0011775122,0.00060903834,-0.016048618,0.0053681512,0.015793657,0.47471893,-1.4217232,1.9528764,-2.1008804,-1.5699977,2.448466,-0.057184692,0.07498095,-0.08714382,5.467231e-05,0.011662076,-0.07293561,-0.30645782,0.095768064,-9.3661175,0.78217715,47.647476,-1.1963562,-2.15537,-3.23876,-0.457482,0.07982136,-0.23460296,28.125,29.3125,28.5,32.4375,34.6875,35.625
0.11405262,-0.9517317,-0.071258746,0.14197864,0.0013143753,0.038631435,-0.18143488,-0.38402474,-0.34855667,0.060017206,3.0784028,-0.622821,2.5904972e-05,-0.052512813,0.0017631089,7.0043454e-05,-0.0154397935,0.004570792,0.013890646,0.47459835,-1.4215906,1.9526609,-2.1008928,-1.5699619,2.4482858,-0.05873058,0.07656977,-0.087737605,5.153991e-05,0.011491842,-0.072576694,-0.24899697,0.076614454,-9.404425,0.7709874,47.6421,-1.1893945,-2.0636487,-3.301133,-0.43903607,0.08460138,-0.24252146,28.125,29.3125,28.5,32.4375,34.6875,35.625
0.11605207,-0.9978957,-0.07663103,0.05002182,0.011231596,0.044745494,-0.1796456,-0.38411307,-0.34853855,0.060016092,3.0783477,-0.6229447,8.963492e-05,-0.053388588,0.0018488955,0.00028259182,-0.015572826,0.0051882355,0.013299551,0.47445408,-1.4214702,1.9525174,-2.1008565,-1.5699137,2.4482257,-0.0595588,0.07732212,-0.08909122,4.8747148e-05,0.011325915,-0.07281304,-0.28730422,0.076614454,-9.3661175,0.7911258,47.62598,-1.2091458,-2.1156135,-3.3447542,-0.44157916,0.079987526,-0.29284483,28.125,29.3125,28.5,32.4375,34.6875,35.625
0.11805233,-0.8296563,-0.22407012,0.15460241,0.0111207375,0.047016922,-0.16943124,-0.38423836,-0.34852666,0.060020186,3.0783515,-0.6228296,-6.9572257e-06,-0.054093536,0.0025658982,-2.1318044e-06,-0.015036077,0.0048838183,0.012417122,0.47433355,-1.4213139,1.9523376,-2.1008928,-1.5699376,2.448033,-0.06123817,0.07815188,-0.08940108,4.6241643e-05,0.010992987,-0.07360874,-0.38307226,0.095768064,-9.308656,0.83589023,47.689575,-1.181401,-1.9947102,-3.362812,-0.42264426,0.09301148,-0.33634984,28.125,29.3125,28.5,32.4375,34.6875,35.625
0.12005275,-0.7976452,-0.11782973,0.03673121,0.0041028787,0.04376997,-0.18885015,-0.38435662,-0.34851703,0.060011335,3.0783103,-0.6228802,5.40137e-05,-0.05641769,0.0018764312,0.0015401384,-0.01703976,0.007930904,0.01153383,0.47417727,-1.4211215,1.9521321,-2.1008685,-1.5698899,2.4479136,-0.062367212,0.07894719,-0.09385395,8.206515e-05,0.011375799,-0.07385269,-0.28730422,0.05746084,-9.3661175,0.7911258,47.63404,-1.2409711,-2.0165234,-3.3459496,-0.43403733,0.112610206,-0.35763735,28.125,29.3125,28.5,32.4375,34.6875,35.625
0.12205185,-1.101933,-0.5227969,-0.053869132,0.004519324,0.036034368,-0.1741032,-0.38442945,-0.3485182,0.059999865,3.0783398,-0.6227319,8.368026e-05,-0.05556169,0.002671724,-8.309528e-05,-0.015739214,0.0046735248,0.011004753,0.4741049,-1.4209768,1.95199,-2.1008565,-1.569878,2.447745,-0.06319646,0.080356844,-0.09177243,8.347826e-05,0.011710469,-0.074154176,-0.30645782,0.11492168,-9.3661175,0.78217715,47.65464,-1.1969154,-1.9330405,-3.549025,-0.4429056,0.09928146,-0.3986541,28.125,29.3125,28.5,32.4375,34.6875,35.625
0.124051824,-0.3516151,-0.22831218,0.020408534,-0.01010739,0.05064363,-0.18079326,-0.3845757,-0.34852257,0.060032487,3.0782514,-0.622677,1.421144e-05,-0.058249585,0.0034957717,-0.00020930883,-0.015308289,0.005132067,0.00855858,0.47394767,-1.4208313,1.9517492,-2.1008565,-1.5698298,2.4475648,-0.066705406,0.08377722,-0.09541189,9.96867e-05,0.01111944,-0.07521302,-0.34476504,0.095768064,-9.32781,0.8403672,47.67614,-1.1717011,-1.9583017,-3.484931,-0.4349704,0.10236688,-0.46042258,28.125,29.3125,28.5,32.4375,34.6875,35.625
0.12605242,-0.7440881,-0.71113074,-0.06274978,-0.0033026368,0.045296095,-0.17121592,-0.38468593,-0.34849417,0.060005967,3.0782673,-0.6227168,3.214969e-05,-0.058546487,0.0029158846,0.001090394,-0.01697992,0.0073003634,0.010706272,0.47380385,-1.4206399,1.9515933,-2.1008685,-1.5698413,2.447444,-0.066246614,0.081841104,-0.0961817,0.00011373105,0.011616832,-0.07690259,-0.4213795,0.17238252,-9.308656,0.82022345,47.675243,-1.0979756,-2.0085897,-3.3622806,-0.40946898,0.1003723,-0.4623273,28.125,29.3125,28.5,32.4375,34.6875,35.625
0.12805264,-1.1036925,-1.1536977,-0.17546126,0.0124457935,0.044547573,-0.17224938,-0.38480216,-0.3484973,0.06001777,3.078259,-0.62263584,1.45180675e-05,-0.06020562,0.0027335852,0.002018001,-0.01759218,0.009485617,0.014641415,0.4736956,-1.4204713,1.9513654,-2.1008327,-1.5698298,2.4472864,-0.06712521,0.08251482,-0.0990863,0.00012827663,0.01116488,-0.08171417,-0.36391866,0.21068975,-9.404425,0.7597976,47.72808,-1.257094,-1.8818879,-3.4264224,-0.41743192,0.112910464,-0.48286843,28.125,29.3125,28.5,32.4375,34.6875,35.625
0.13005215,-0.4741402,-0.070122436,-0.22090244,-0.010594866,0.06347104,-0.19052215,-0.3849266,-0.34849548,0.060042195,3.078208,-0.62252825,-6.2732084e-05,-0.061611846,0.0034059526,0.0007868775,-0.017406771,0.0070834453,0.01607939,0.4735626,-1.4203497,1.9511732,-2.100845,-1.569805,2.4470928,-0.07018346,0.08656,-0.10091757,0.00014051341,0.012103574,-0.086208686,-0.22984336,0.17238252,-9.442732,0.83365434,47.67345,-1.1682136,-1.9759922,-3.33596,-0.42046607,0.12658341,-0.455481,28.125,29.3125,28.5,32.4375,34.6875,35.625
0.13205244,-0.7882062,-0.7342464,-0.2589779,-0.0059008873,0.057338838,-0.1945226,-0.38505682,-0.34848264,0.06003758,3.0781438,-0.62253135,-3.3310982e-05,-0.06301883,0.0035193416,0.002386533,-0.019274369,0.00982034,0.019923441,0.47338203,-1.4201704,1.950981,-2.1008565,-1.569745,2.4469223,-0.071907595,0.084727354,-0.10252027,0.00029924233,0.012523604,-0.09177647,-0.24899697,0.17238252,-9.442732,0.8090337,47.684196,-0.98194194,-1.735114,-3.435617,-0.4152037,0.113958806,-0.44750118,28.125,29.3125,28.5,32.4375,34.6875,35.625
0.13405208,-0.69691205,-0.99194926,-0.38630444,-0.015945934,0.060025338,-0.17197445,-0.3851758,-0.34846273,0.060021233,3.0781903,-0.6223816,-1.4181473e-06,-0.06365751,0.0029665986,0.0019741259,-0.019237727,0.009214848,0.02980799,0.47323805,-1.4199651,1.9507779,-2.1008327,-1.569745,2.446679,-0.071645334,0.08745742,-0.104733214,0.00034709234,0.012769104,-0.101397805,-0.28730422,0.24899697,-9.500193,0.8090337,47.666286,-1.1913036,-1.7427263,-3.389832,-0.40918353,0.12023885,-0.3567829,28.125,29.3125,28.5,32.4375,34.6875,35.625
0.13605273,-1.245886,-1.6429801,-0.62657076,-0.013037248,0.047686372,-0.1682517,-0.38530812,-0.34845108,0.060029708,3.0781543,-0.6223544,-1.9491788e-05,-0.064813465,0.004148725,0.0011807423,-0.018973041,0.0072088316,0.031652957,0.47308087,-1.4197963,1.9505624,-2.1008203,-1.5697206,2.4465096,-0.07520815,0.08961575,-0.10553396,0.0009026686,0.013457114,-0.10680507,-0.28730422,0.24899697,-9.595961,0.88289046,47.67345,-1.0447946,-1.7717271,-3.3860292,-0.40105343,0.112056926,-0.3121227,28.125,29.3125,28.5,32.4375,34.6875,35.625
0.13805217,-1.1868984,-1.3678085,-0.48036236,-0.023693183,0.046750333,-0.17348583,-0.38542977,-0.34846345,0.06004697,3.0781434,-0.6221369,-9.579344e-05,-0.06641431,0.00447985,0.0010831081,-0.018334482,0.0072582085,0.036219466,0.47298434,-1.4196393,1.9503459,-2.1008322,-1.5697092,2.4462788,-0.076854035,0.09219089,-0.10839787,0.0014487047,0.012875279,-0.113014445,-0.3256114,0.22984336,-9.691729,0.7911258,47.65464,-1.0341444,-1.8169603,-3.3877769,-0.4172489,0.117781475,-0.22609946,28.125,29.3125,28.5,32.4375,34.6875,35.625
0.1400533,-1.0512882,-1.2943056,-0.49615967,-0.020791382,0.044537067,-0.17811416,-0.3855761,-0.34845072,0.060051348,3.07814,-0.62199986,-0.00015368333,-0.06724687,0.004322077,0.0009960367,-0.018664641,0.007292142,0.03897997,0.472828,-1.4194466,1.950118,-2.1008446,-1.5697087,2.4460375,-0.07748497,0.09379719,-0.110018596,0.00128674,0.01316045,-0.11640442,-0.30645782,0.2681506,-9.595961,0.7777002,47.62419,-0.93786854,-1.7851064,-3.3527992,-0.41427943,0.11767732,-0.16096154,28.125,29.3125,28.5,32.4375,34.6875,35.625
0.14205301,-1.3195727,-0.9969408,-0.3083277,-0.022669269,0.04288332,-0.17452914,-0.3857165,-0.34843406,0.060049284,3.0781171,-0.6218996,-0.00014767525,-0.06873995,0.0045545064,0.0011527456,-0.018582111,0.008213056,0.03918111,0.47264773,-1.419254,1.9499019,-2.1008446,-1.5696734,2.4457977,-0.078905046,0.09540704,-0.11218934,0.0010751233,0.012669356,-0.11802372,-0.4213795,0.21068975,-9.576807,0.7933669,47.685097,-0.99844444,-1.7609732,-3.3500671,-0.40343612,0.14530855,-0.13340074,28.125,29.3125,28.5,32.4375,34.6875,35.625
0.14405277,-0.92827797,-0.6752129,-0.22890821,-0.016336815,0.062180094,-0.17562708,-0.38587314,-0.34842843,0.060074415,3.0780735,-0.62175786,-0.00022410577,-0.07008141,0.004610729,1.3892471e-05,-0.018894302,0.0060147806,0.035444457,0.47247902,-1.4190843,1.9496502,-2.1008446,-1.5696486,2.4455462,-0.081019014,0.099861786,-0.11467306,0.00091835577,0.013952838,-0.11639875,-0.34476504,0.28730422,-9.442732,0.83589023,47.650166,-0.91684854,-1.8599783,-3.2672563,-0.41038096,0.14427574,-0.1259318,28.125,29.3125,28.5,32.4375,34.6875,35.625
0.14605288,-1.3038675,-0.67478174,-0.37683573,-0.0034236566,0.04308456,-0.17863186,-0.38600603,-0.3484166,0.06006597,3.0780375,-0.62169623,-0.00016674552,-0.07304439,0.0036445356,0.0026853613,-0.022010127,0.011253059,0.029963132,0.47229856,-1.4188801,1.9494327,-2.1008322,-1.569589,2.4453318,-0.082212485,0.09928876,-0.12011619,0.00085591775,0.014331105,-0.11210854,-0.30645782,0.2681506,-9.461885,0.8314132,47.67614,-0.9188769,-1.8416078,-3.101128,-0.3961537,0.14236894,-0.16725877,28.125,29.3125,28.5,32.4375,34.6875,35.625
0.14805305,-1.0036407,-0.46503288,-0.3240853,-0.0074917558,0.046411127,-0.17983763,-0.3861683,-0.3484293,0.06009668,3.0779533,-0.62158567,-0.0002492919,-0.07260152,0.0045857904,0.000116883675,-0.020642217,0.0060770083,0.023069456,0.47214195,-1.4186988,1.9491576,-2.1008446,-1.5695404,2.445117,-0.084177606,0.10324776,-0.11879736,0.00080827245,0.015479414,-0.107179,-0.36391866,0.24899697,-9.385271,0.82022345,47.689575,-0.86427283,-1.8876809,-3.2119026,-0.38595772,0.15206973,-0.19134942,28.125,29.3125,28.5,32.4375,34.6875,35.625
0.15005283,-0.9728318,-0.8583271,-0.14755471,-0.0047139144,0.04380173,-0.17640363,-0.38631135,-0.3484009,0.06008338,3.07799,-0.62147975,-0.00021881917,-0.07501808,0.004189297,0.0018340216,-0.022192875,0.009810518,0.018334813,0.47196153,-1.4184703,1.9489177,-2.1008084,-1.5695404,2.444866,-0.08542256,0.103442945,-0.12294378,0.00072945823,0.015150422,-0.10368753,-0.4213795,0.22984336,-9.442732,0.8493211,47.689575,-0.8080919,-1.9943727,-3.1108165,-0.37872994,0.14410065,-0.27473438,28.125,29.3125,28.5,32.4375,34.6875,35.625
0.15205196,-1.2401685,-0.98062813,-0.05376128,-0.009063862,0.042344388,-0.17520621,-0.3864725,-0.34841976,0.06010889,3.0778878,-0.6213823,-0.0003325059,-0.075451314,0.004125417,0.000913785,-0.021337546,0.008525064,0.018816136,0.47181734,-1.4182891,1.9486655,-2.1008685,-1.5694922,2.444674,-0.085558355,0.106386244,-0.12420218,0.00058687024,0.014986736,-0.10430157,-0.34476504,0.19153613,-9.385271,0.784413,47.660015,-0.82398117,-1.9511402,-3.0945313,-0.37242064,0.14770551,-0.27620924,28.125,29.3125,28.5,32.4375,34.6875,35.625
0.15405288,-1.1525388,-0.60152787,-0.061295122,-0.020110138,0.052628532,-0.18181868,-0.38659993,-0.34839615,0.060103275,3.0779247,-0.62123746,-0.0003181626,-0.07761179,0.0054444564,0.0012462726,-0.021346856,0.009489751,0.014347525,0.47166008,-1.4180967,1.9484495,-2.1008327,-1.5694927,2.4444218,-0.08953973,0.10718837,-0.12591109,0.0006334608,0.014554,-0.10381348,-0.40222588,0.19153613,-9.404425,0.78888994,47.63315,-0.68531823,-1.9619823,-3.0498407,-0.3615992,0.16369462,-0.3183319,28.125,29.3125,28.5,32.4375,34.6875,35.625
0.15605173,-1.2265265,-0.8876952,-0.012784631,-0.012342766,0.05749995,-0.17633736,-0.38679737,-0.34839395,0.060130063,3.0778327,-0.62123567,-0.00046479737,-0.07668006,0.0042528356,0.0009906009,-0.021994945,0.0085793305,0.017079351,0.47146887,-1.4178803,1.948151,-2.10088,-1.5694803,2.4442413,-0.08718557,0.107890226,-0.1261688,0.0007069831,0.015561868,-0.1041893,-0.49799395,0.2681506,-9.251195,0.84484416,47.677036,-0.9085287,-1.823776,-3.1330578,-0.3755504,0.18820864,-0.3302679,28.125,29.3125,28.5,32.4375,34.6875,35.625
0.15805204,-1.3696705,-0.8637456,0.19917303,-0.009133058,0.055401035,-0.17442645,-0.38691285,-0.3483705,0.06011063,3.0778177,-0.62121445,-0.00032035867,-0.078344576,0.0052612657,0.0009238676,-0.021271044,0.0081835985,0.0145711815,0.4712761,-1.4176756,1.9479469,-2.1008203,-1.5694083,2.4440372,-0.09013952,0.10974896,-0.12841812,0.0017916346,0.015091825,-0.10463477,-0.4213795,0.24899697,-9.232041,0.8291774,47.664497,-0.92486924,-1.8708868,-3.05316,-0.36011422,0.19310923,-0.36682528,28.125,29.3125,28.5,32.4375,34.6875,35.625
0.16005228,-0.79415745,-0.48971727,0.18032956,-0.002511698,0.062836625,-0.17991592,-0.38710582,-0.3483496,0.060111422,3.0777488,-0.6212759,-0.00036720163,-0.0786935,0.0041334676,0.00070750894,-0.022049299,0.007192871,0.01723098,0.47104838,-1.4174222,1.9476599,-2.1008441,-1.569384,2.4438567,-0.089150846,0.11243431,-0.13116695,0.0023887036,0.016242376,-0.10630366,-0.40222588,0.19153613,-9.251195,0.80679786,47.687782,-0.84158474,-1.9113731,-3.2129273,-0.35959476,0.1855952,-0.3890649,28.125,29.3125,28.5,32.4375,34.6875,35.625
0.16205265,-0.5209271,-0.2817826,0.2959234,-0.0022743396,0.054661967,-0.18634702,-0.38725325,-0.3483749,0.060139574,3.0777063,-0.62103343,-0.00042214256,-0.078512765,0.004086343,0.0002236921,-0.021669384,0.006427597,0.02213693,0.47092843,-1.4172297,1.9473718,-2.1008317,-1.5693358,2.4435909,-0.088882275,0.11333184,-0.13108675,0.002278338,0.016268024,-0.11093965,-0.34476504,0.17238252,-9.232041,0.8023209,47.704796,-1.0606481,-1.9528654,-3.1362891,-0.37514615,0.19469544,-0.3643221,28.125,29.3125,28.5,32.4375,34.6875,35.625
0.16405264,-0.38455015,-0.3376234,0.32064554,0.001432382,0.045392655,-0.18002284,-0.3874305,-0.34836602,0.06014851,3.0776706,-0.6209641,-0.00045633825,-0.07909085,0.0040781596,-0.00021471299,-0.021439541,0.006143571,0.028877398,0.47073644,-1.4169887,1.9470724,-2.1008203,-1.5693115,2.4433603,-0.08930442,0.11512273,-0.13206787,0.0018414672,0.01620715,-0.11810074,-0.22984336,0.15322891,-9.136273,0.80679786,47.64479,-0.9993693,-1.965272,-3.2245893,-0.36379433,0.20557913,-0.33654904,28.125,29.3125,28.5,32.4375,34.6875,35.625
0.16605203,-0.094301544,-0.23430434,0.3077327,0.0013188424,0.038551018,-0.17884298,-0.3876034,-0.34834996,0.06014483,3.077649,-0.6208781,-0.0005019915,-0.07930694,0.004344453,-0.0021501787,-0.020262223,0.0028814278,0.036077484,0.47054407,-1.4167469,1.9468087,-2.1008446,-1.5693,2.4431171,-0.09021392,0.11949675,-0.13261732,0.0014719355,0.016654855,-0.12620865,-0.15322891,0.17238252,-9.11712,0.8493211,47.67614,-1.0293746,-2.100835,-3.2658682,-0.34317765,0.19914703,-0.25884694,28.125,29.3125,28.5,32.4375,34.6875,35.625
0.16805232,0.20471582,-0.53231144,0.46263668,0.010412537,0.02822687,-0.1879556,-0.38776642,-0.34832692,0.060149517,3.0776312,-0.6207946,-0.00050759147,-0.080777615,0.0038112958,0.00072184217,-0.02273226,0.008584729,0.040787257,0.47034013,-1.4165322,1.946546,-2.1008203,-1.5692757,2.4428635,-0.09031005,0.11560372,-0.13466272,0.001221343,0.016279478,-0.13101383,-0.019153614,0.1340753,-9.059659,0.80456203,47.709274,-1.0837299,-1.8093377,-3.258924,-0.33696955,0.22136524,-0.17144644,28.125,29.3125,28.5,32.4375,34.625,35.625
0.17005244,0.07817491,-0.68387955,0.5372326,0.022478474,-0.0016190555,-0.18363653,-0.3879279,-0.34831405,0.06014608,3.0776486,-0.6205653,-0.00056325353,-0.08121556,0.0046216175,-0.001793254,-0.020735085,0.0044214204,0.04490625,0.47017133,-1.4163021,1.9462951,-2.1008446,-1.5692757,2.4425495,-0.09217513,0.121007964,-0.13507633,0.00085752324,0.016401457,-0.13699612,0.05746084,0.076614454,-9.021352,0.8112748,47.689575,-1.0639632,-2.0842717,-3.2897177,-0.30375046,0.24030659,-0.12169264,28.125,29.3125,28.5,32.4375,34.625,35.625
0.17205255,0.7210516,-0.1196152,0.36116183,0.01993361,-0.00972444,-0.179949,-0.3880736,-0.34831956,0.060138904,3.0776048,-0.62038445,-0.0005367113,-0.08260453,0.0048797815,-0.0010687277,-0.021530204,0.0058595953,0.04244095,0.47000298,-1.4160739,1.9460548,-2.100868,-1.5692037,2.4422739,-0.0938803,0.12108286,-0.1368564,0.0009317891,0.016461223,-0.13623463,0.076614454,0.11492168,-8.944737,0.7777002,47.674347,-1.0212072,-1.8946586,-3.35317,-0.30222026,0.25765276,-0.08132589,28.125,29.3125,28.5,32.4375,34.625,35.625
0.17405327,0.3950861,-0.4641911,0.22072566,0.023853282,-0.021328038,-0.17375877,-0.38823926,-0.3482909,0.060123187,3.0776153,-0.6203115,-0.0004831539,-0.0829008,0.004092044,-0.0009664043,-0.022538919,0.0050879885,0.040435873,0.46978697,-1.4158093,1.9457783,-2.1008317,-1.5691794,2.442011,-0.09350629,0.122559264,-0.13902673,0.0018560579,0.017703645,-0.1338548,0.038307227,0.095768064,-8.887277,0.82022345,47.687782,-1.1169552,-1.9056978,-3.358611,-0.3103494,0.25171202,-0.07919994,28.125,29.3125,28.5,32.4375,34.625,35.625
0.17605236,0.32062867,-0.50022006,0.17922221,0.015820349,-0.027247446,-0.17320348,-0.38842335,-0.3482956,0.06013969,3.0775583,-0.62018824,-0.0005495888,-0.0844033,0.0053748735,-0.0010200231,-0.022218639,0.0037567986,0.032693412,0.46960574,-1.4155686,1.9454669,-2.1008437,-1.5691432,2.4417603,-0.09728403,0.123950884,-0.14095758,0.0037284098,0.018027889,-0.12988783,0.076614454,0.17238252,-9.021352,0.84708,47.679718,-0.9317868,-1.8988113,-3.2998123,-0.30216143,0.26017106,-0.12047362,28.125,29.3125,28.5,32.4375,34.625,35.625
0.17805208,0.87462705,-0.22223458,0.17493661,-0.004890156,-0.0062259226,-0.18641588,-0.38861334,-0.34827068,0.06013725,3.0775447,-0.62014794,-0.0005912391,-0.08477932,0.0041619227,-0.00091221853,-0.022309782,0.003522084,0.029773964,0.46939033,-1.4153033,1.9451674,-2.1008432,-1.5691432,2.4415216,-0.09554429,0.12635711,-0.14423709,0.00476619,0.01821021,-0.1252263,0.095768064,0.2681506,-9.11712,0.7978386,47.691364,-1.163654,-1.8576753,-3.3557951,-0.32845843,0.27087572,-0.16968659,28.125,29.3125,28.5,32.4375,34.625,35.625
0.18005602,0.34070006,-0.5093241,0.2535402,-0.030570744,0.0043684994,-0.18835151,-0.3887376,-0.34825343,0.06011104,3.077564,-0.6200022,-0.00045730235,-0.08510624,0.0063127456,-0.0020051259,-0.02154362,0.0006074862,0.021496378,0.46920884,-1.415063,1.94494,-2.100795,-1.5690826,2.4412467,-0.09999919,0.12666792,-0.14228848,0.005455584,0.018839216,-0.12140572,0.038307227,0.34476504,-9.136273,0.7866488,47.63046,-0.96321845,-1.9184299,-3.4522686,-0.3097915,0.27396175,-0.24246983,28.125,29.3125,28.5,32.4375,34.625,35.625
0.18205243,-0.931644,-1.4764118,-0.11552908,-0.029169671,-0.00012001465,-0.16486682,-0.38887852,-0.3482684,0.060090933,3.0775266,-0.6198963,-0.0003586947,-0.08510365,0.0040362068,-0.0019964224,-0.022556905,0.0007746212,0.024283694,0.46905416,-1.4147857,1.9446644,-2.100783,-1.5689987,2.4410307,-0.09646218,0.12958832,-0.14566629,0.005314821,0.019658593,-0.12065417,-0.019153614,0.3256114,-9.289502,0.784413,47.66539,-1.1575527,-2.0419533,-3.256306,-0.32974142,0.2872606,-0.28757513,28.125,29.3125,28.5,32.4375,34.625,35.625
0.18405186,-0.599877,-1.2123977,-0.17000481,-0.0388358,0.017194692,-0.18068407,-0.38907924,-0.34824577,0.060115322,3.0774763,-0.6198701,-0.00043489697,-0.08686742,0.0040577715,-0.0012472704,-0.024025235,0.0016439252,0.017850189,0.46882552,-1.4145573,1.9443406,-2.1007593,-1.5689863,2.4407923,-0.098616205,0.13058594,-0.14867799,0.0058856634,0.020574562,-0.116371684,0.019153614,0.38307226,-9.423578,0.8493211,47.684196,-1.1621106,-1.8336154,-3.3859854,-0.3489886,0.28393108,-0.37658596,28.125,29.3125,28.5,32.4375,34.625,35.625
0.18605241,-1.0194389,-1.7331761,-0.44201177,-0.029615311,0.015450494,-0.17088306,-0.38924846,-0.34825182,0.060096353,3.077446,-0.6197478,-0.00038913154,-0.087691285,0.003809716,-0.0009092351,-0.024830628,0.0020724523,0.018434202,0.46864522,-1.4142567,1.9440407,-2.1007702,-1.5689262,2.4405396,-0.09920593,0.1314017,-0.15048061,0.0061372872,0.021101572,-0.11754427,-0.095768064,0.47884035,-9.461885,0.8493211,47.678825,-1.1634103,-1.8481777,-3.2851903,-0.34744415,0.27653813,-0.40306756,28.125,29.3125,28.5,32.4375,34.625,35.625
0.18805186,-0.7098056,-1.5561831,-0.64453,-0.034164947,0.02213785,-0.17766653,-0.389428,-0.3482431,0.060099993,3.0774095,-0.6196847,-0.00042265406,-0.087873936,0.0044811983,-0.0017576593,-0.024279645,0.00022117406,0.015733067,0.46845263,-1.4140041,1.9437417,-2.1007702,-1.5689019,2.4403124,-0.100726545,0.13284017,-0.15029627,0.006418781,0.021452773,-0.11636268,-0.11492168,0.5554548,-9.557653,0.90527004,47.696735,-1.1260847,-1.885392,-3.3073997,-0.35279217,0.2746725,-0.4742538,28.125,29.3125,28.5,32.4375,34.625,35.625
0.19005208,-0.92879736,-1.8961635,-0.59863925,-0.038441703,0.027645774,-0.17958282,-0.3895895,-0.3482322,0.06009067,3.077429,-0.6195697,-0.0003678465,-0.08942992,0.0039147977,-0.0012383279,-0.025050871,0.0013170231,0.019608041,0.4682726,-1.4137268,1.9434303,-2.1007106,-1.5688776,2.4400582,-0.10119957,0.13486508,-0.15390807,0.0066933874,0.021645512,-0.12070928,-0.15322891,0.49799395,-9.576807,0.83589023,47.66987,-1.1537313,-1.8979037,-3.287391,-0.3698727,0.30161652,-0.50187707,28.125,29.3125,28.5,32.4375,34.625,35.625
0.19205229,-0.5644394,-1.6015774,-0.6872262,-0.055377554,0.048314396,-0.18301086,-0.38979414,-0.34822422,0.06010444,3.0773494,-0.6195494,-0.00040943446,-0.090471685,0.004072348,-0.0013392288,-0.025749207,0.0011758812,0.02661322,0.468044,-1.4134624,1.9430946,-2.1007106,-1.5688299,2.4398272,-0.10280377,0.13630709,-0.15532616,0.0065040905,0.02235539,-0.1293161,-0.34476504,0.57460845,-9.672575,0.78217715,47.650166,-1.1484107,-1.8108001,-3.3116984,-0.35892057,0.306109,-0.4717261,28.125,29.3125,28.5,32.4375,34.625,35.625
0.19405258,-1.18993,-1.7848572,-0.7708574,-0.042024054,0.04075462,-0.1721076,-0.3899386,-0.3482153,0.060082994,3.0773501,-0.6193705,-0.00029420012,-0.09184245,0.0036544483,-0.0003959743,-0.027441548,0.0030675845,0.03540182,0.467852,-1.413198,1.9428309,-2.1006749,-1.5687574,2.4395235,-0.10367323,0.13652518,-0.15769918,0.006236813,0.023021216,-0.13897373,-0.36391866,0.3256114,-9.691729,0.800085,47.64479,-1.217861,-1.8590026,-3.2960658,-0.37385666,0.30204844,-0.38086128,28.125,29.3125,28.5,32.4375,34.625,35.625
0.19605194,-1.2451942,-1.4006273,-0.702893,-0.05092168,0.0587251,-0.17859487,-0.3901244,-0.348207,0.060080077,3.077331,-0.61920923,-0.0003027184,-0.09319807,0.003601738,0.000104364466,-0.028879967,0.0038034082,0.04250135,0.46764734,-1.4129214,1.9425191,-2.1006749,-1.5687212,2.4392207,-0.10535849,0.13734534,-0.15982269,0.006258007,0.023992255,-0.14775643,-0.4405331,0.3256114,-9.787497,0.8851263,47.67345,-1.2808578,-1.8180337,-3.280236,-0.3557676,0.28258383,-0.30233556,28.125,29.3125,28.5,32.4375,34.625,35.625
0.19805212,-1.2135961,-1.279624,-0.6244691,-0.03137807,0.071274966,-0.17680606,-0.3903293,-0.34820125,0.060101878,3.077244,-0.6191311,-0.0003190569,-0.0936261,0.003473307,-0.001525789,-0.028473288,0.0009946728,0.048066083,0.467407,-1.4126673,1.9421715,-2.1006515,-1.5686487,2.4389427,-0.106041454,0.14176519,-0.16113946,0.0058712424,0.024916599,-0.15400086,-0.4405331,0.28730422,-9.595961,0.8537928,47.70032,-1.106448,-1.9281604,-3.249938,-0.35260513,0.2918262,-0.22408047,28.125,29.3125,28.5,32.4375,34.625,35.625
0.20005228,-1.2055626,-0.103428185,-0.57295847,-0.012333185,0.073431104,-0.1779449,-0.39051092,-0.34822178,0.060084607,3.0772204,-0.61887556,-0.00025205122,-0.09511323,0.003637318,-0.0011002583,-0.029259553,0.0019941668,0.04846318,0.46722656,-1.4123313,1.9418238,-2.1006515,-1.5685648,2.4386058,-0.10776554,0.14273345,-0.16324925,0.005787252,0.025171721,-0.15612064,-0.4405331,0.1340753,-9.672575,0.7777002,47.68599,-1.2311155,-1.8297386,-3.312652,-0.3566677,0.27975452,-0.16264774,28.125,29.3125,28.5,32.4375,34.625,35.625
0.20205295,-1.3943981,0.21972884,-0.4239721,0.01831798,0.0708584,-0.18382478,-0.39069045,-0.34819868,0.060086876,3.0772152,-0.6187033,-0.000269375,-0.09591634,0.0041138837,-0.0019394913,-0.029163968,0.0010611869,0.04564057,0.46700978,-1.41209,1.9415377,-2.100639,-1.5685409,2.4382823,-0.10948033,0.14491306,-0.16368221,0.0049224263,0.025509674,-0.15501127,-0.4405331,0.038307227,-9.653421,0.8314132,47.683304,-1.0030792,-1.9588612,-3.3675408,-0.355138,0.27262372,-0.15894532,28.125,29.3125,28.5,32.4375,34.625,35.625
0.20405252,-1.5110191,0.0691453,-0.37766775,0.033340737,0.06570205,-0.17694287,-0.39089605,-0.34819546,0.060078412,3.077157,-0.6186013,-0.00026909626,-0.09679127,0.0047949576,-0.003133106,-0.028804945,-0.00045963816,0.036407813,0.4667813,-1.4117767,1.9412016,-2.1006634,-1.5684804,2.4379976,-0.111622855,0.1477205,-0.16402268,0.0039739143,0.02586746,-0.14791901,-0.5554548,-0.076614454,-9.653421,0.91198283,47.683304,-1.1137967,-2.0876236,-3.3655941,-0.33651835,0.27087817,-0.24105963,28.125,29.3125,28.5,32.4375,34.625,35.625
0.2060517,-1.297536,0.42123994,-0.35731277,0.023797778,0.07127507,-0.18058991,-0.39108795,-0.34820244,0.06010267,3.0770729,-0.61847126,-0.00030267565,-0.09893787,0.005542246,-0.0029679416,-0.028912546,0.0006338274,0.030187652,0.46657613,-1.4115356,1.9408659,-2.100652,-1.5684088,2.437722,-0.114538945,0.14951259,-0.16639856,0.0035427697,0.025473787,-0.14461163,-0.59376204,-0.095768064,-9.557653,0.7777002,47.71017,-0.96723896,-2.1843174,-3.3199573,-0.3126322,0.2858379,-0.28662875,28.125,29.3125,28.5,32.4375,34.625,35.625
0.20805205,-1.3617122,0.74549925,-0.29261568,0.013258184,0.0627195,-0.1829081,-0.39132327,-0.34819213,0.060109075,3.0770295,-0.6184257,-0.00040506903,-0.10041296,0.0057543586,-0.0025419123,-0.029050516,0.0015504783,0.027655015,0.46634772,-1.4112111,1.9404825,-2.1006758,-1.5684088,2.437471,-0.1159718,0.15071014,-0.16889186,0.003962245,0.02519319,-0.14350875,-0.5363012,-0.1340753,-9.481039,0.8224646,47.716442,-0.8685466,-2.0673323,-3.3693917,-0.32949233,0.275015,-0.33496857,28.125,29.3125,28.5,32.4375,34.625,35.625
0.21005253,-1.5307474,0.07232044,-0.36528763,0.022300111,0.054683562,-0.17197321,-0.3915087,-0.34818453,0.060096167,3.0769749,-0.6183192,-0.0003098651,-0.10042581,0.006519531,-0.0032363213,-0.027927415,-0.00041527633,0.025299357,0.46610734,-1.4109104,1.9401597,-2.1006515,-1.568313,2.437171,-0.117186196,0.15183263,-0.16891591,0.0051422855,0.025076725,-0.14236775,-0.59376204,-0.17238252,-9.500193,0.8247004,47.668976,-0.86688906,-2.0632906,-3.4407406,-0.32551032,0.29624358,-0.36675757,28.125,29.3125,28.5,32.4375,34.625,35.625
0.21205182,-1.172282,0.32933712,-0.031396367,0.0075011295,0.06699883,-0.18806893,-0.39171827,-0.348163,0.06010571,3.0769398,-0.61825275,-0.00034406353,-0.10142651,0.0062680743,-0.0031558073,-0.028198302,-0.0006007788,0.028082205,0.4658672,-1.4106331,1.9398125,-2.1006277,-1.5682892,2.436894,-0.117778026,0.15379502,-0.17157511,0.005899352,0.025414642,-0.14573975,-0.6512228,-0.2681506,-9.404425,0.90750587,47.70032,-0.924088,-2.2164164,-3.5655432,-0.33004236,0.29935867,-0.39012226,28.125,29.3125,28.5,32.4375,34.625,35.625
0.21405205,-1.6572454,0.06856657,0.012457418,0.013475448,0.06194327,-0.1805624,-0.39193168,-0.34815913,0.060108174,3.0768857,-0.6181056,-0.00038416227,-0.10153083,0.0064243698,-0.0042806813,-0.02766253,-0.0027305698,0.03126947,0.465639,-1.4103323,1.9394654,-2.1006515,-1.5682405,2.436581,-0.11839009,0.156355,-0.17201954,0.005947703,0.025912577,-0.14953649,-0.59376204,-0.13407528,-9.2703495,0.842603,47.67345,-1.0293788,-2.0180495,-3.5461354,-0.32358906,0.29537386,-0.3955329,28.125,29.3125,28.5,32.4375,34.625,35.625
0.21605247,-1.5322754,0.006190636,0.11668439,0.019693937,0.06530852,-0.17850251,-0.3921254,-0.3481517,0.060107898,3.0768478,-0.6179585,-0.0003020418,-0.10299137,0.0050074845,-0.0024925265,-0.029582644,0.0015622579,0.040765464,0.46539932,-1.410032,1.9391059,-2.1005914,-1.5681561,2.4362543,-0.11699333,0.15602632,-0.1755813,0.005179939,0.025712358,-0.15763432,-0.51714754,0.038307227,-9.155427,0.8157518,47.65912,-1.0175563,-1.9761164,-3.431074,-0.32723123,0.28733632,-0.32479355,28.125,29.3125,28.5,32.4375,34.625,35.625
0.21805221,-0.9099345,-0.041805726,0.21893345,0.021645052,0.070692874,-0.18543169,-0.3923547,-0.348119,0.06009781,3.0768225,-0.61787283,-0.00032463967,-0.10602229,0.0053918916,-0.0013262366,-0.031122124,0.0043414496,0.04690657,0.4651223,-1.4097074,1.9387568,-2.1006033,-1.5681323,2.4359272,-0.120377004,0.15726426,-0.17964216,0.0048627118,0.025863128,-0.16715609,-0.28730422,0.076614454,-9.136273,0.8672237,47.690468,-1.1110482,-2.0320885,-3.3286781,-0.30210286,0.29715937,-0.2347024,28.125,29.3125,28.5,32.4375,34.625,35.625
0.2200524,-0.64352167,-0.32375225,0.11556308,0.01525228,0.052381888,-0.18637864,-0.39255667,-0.3480919,0.06007897,3.0768573,-0.61770266,-0.00032318218,-0.10639468,0.004141148,-0.00074751803,-0.031847425,0.0053420924,0.055636767,0.46489495,-1.4093828,1.9384221,-2.1005914,-1.5681323,2.4355893,-0.11857029,0.1583199,-0.18232697,0.00529484,0.026077112,-0.17407826,-0.4213795,0.17238252,-9.232041,0.8605109,47.667187,-1.0987246,-1.9242158,-3.2785115,-0.30282563,0.3057253,-0.12300589,28.125,29.3125,28.5,32.4375,34.625,35.625
0.22205259,-0.67152596,-0.757771,0.011871061,0.0021456026,0.024181105,-0.16653135,-0.39279854,-0.3480965,0.060092498,3.0767777,-0.6175517,-0.00035650542,-0.107220046,0.004945947,-0.00032351466,-0.03155546,0.005750673,0.054982267,0.46464235,-1.4090466,1.938003,-2.100591,-1.5680608,2.4352527,-0.12035953,0.15795727,-0.18314348,0.006263204,0.02565519,-0.17521124,-0.3256114,0.36391866,-9.155427,0.7933669,47.693153,-1.0893692,-1.8284732,-3.2307725,-0.3113595,0.3271578,-0.075547576,28.125,29.3125,28.5,32.4375,34.625,35.625
0.22405176,-0.6500865,-1.0941985,0.09613187,-0.028501669,0.019901799,-0.17216982,-0.39299658,-0.348089,0.060090773,3.07679,-0.61728823,-0.00037539183,-0.108093806,0.005377042,-0.0006910735,-0.030525522,0.004322965,0.04995696,0.46443802,-1.4087456,1.9376563,-2.1005785,-1.5680369,2.4348824,-0.12164242,0.16033526,-0.18548913,0.007969482,0.025373697,-0.17146713,-0.36391866,0.34476504,-9.040505,0.8985519,47.711063,-1.1168334,-1.8229969,-3.2664475,-0.32860476,0.3327091,-0.099786706,28.125,29.3125,28.5,32.4375,34.625,35.625
0.22605212,-0.20002721,-1.4514545,-0.11582393,-0.039342824,0.029007053,-0.1820001,-0.39324582,-0.34805956,0.060104746,3.0767457,-0.6171868,-0.0004409501,-0.10925371,0.005500671,-0.0001109389,-0.031426266,0.005345702,0.04307276,0.4641496,-1.4084331,1.9372605,-2.1005666,-1.5680126,2.4345365,-0.123015724,0.16058289,-0.18716617,0.008076969,0.025721885,-0.16595341,-0.22984336,0.49799395,-9.136273,0.8985519,47.668976,-1.0479144,-1.9328136,-3.2318497,-0.3319674,0.34254283,-0.1349199,28.125,29.3125,28.5,32.4375,34.625,35.625
0.22805233,0.28225467,-1.30086,-0.008786037,-0.055039477,0.0462144,-0.18142101,-0.39343655,-0.348061,0.06008795,3.0767124,-0.6170879,-0.0002996945,-0.110557914,0.004768759,-0.00023783436,-0.0327329,0.0049132174,0.035889402,0.46392143,-1.4080833,1.9368781,-2.1004946,-1.5679163,2.4342508,-0.12366244,0.16369234,-0.19053602,0.008138702,0.027058989,-0.15941463,-0.3256114,0.5554548,-9.251195,0.9388393,47.686886,-1.0573937,-2.0184116,-3.303945,-0.3201712,0.35323098,-0.25304085,28.125,29.3125,28.5,32.4375,34.625,35.625
0.23005256,-0.59873587,-1.8798543,-0.20085493,-0.056604233,0.026961384,-0.16988204,-0.3936689,-0.34804296,0.060081992,3.0766733,-0.6169685,-0.0002697408,-0.11014861,0.0049079047,-0.0009208981,-0.033317897,0.0028904595,0.030037824,0.4636452,-1.4077351,1.9364837,-2.1004708,-1.5678557,2.4339051,-0.12436357,0.16432706,-0.18980527,0.008318509,0.028485274,-0.15426266,-0.22984336,0.51714754,-9.251195,0.8560339,47.681515,-1.0446693,-1.7812529,-3.3561182,-0.33742595,0.32698786,-0.30468142,28.125,29.3125,28.5,32.4375,34.625,35.625
0.23205173,-0.2106962,-1.4577557,-0.11716086,-0.04515158,0.028987711,-0.17422949,-0.39387304,-0.34803373,0.06006013,3.0766294,-0.61692256,-0.00024962542,-0.11102746,0.0046486333,-0.00075462274,-0.034781855,0.0027830724,0.025238382,0.46341714,-1.4073983,1.9361495,-2.1004946,-1.5678071,2.433654,-0.12546891,0.16543624,-0.1915286,0.008373003,0.029837532,-0.15056583,-0.05746084,0.45968673,-9.251195,0.8851263,47.71286,-1.1874248,-1.8771334,-3.2843568,-0.32151487,0.3207662,-0.4019301,28.125,29.3125,28.5,32.4375,34.625,35.625
0.2340526,-0.14682405,-1.522585,-0.35049292,-0.017367132,0.010800398,-0.1662045,-0.39411354,-0.34804457,0.0600689,3.0765445,-0.6167913,-0.00028394532,-0.111113444,0.0034963808,-0.00084763084,-0.036025282,0.0023505162,0.025056407,0.46317723,-1.4070497,1.9357289,-2.1005065,-1.5677346,2.4333432,-0.12426765,0.16711089,-0.1932862,0.008296732,0.031152647,-0.14917783,0.076614454,0.40222588,-9.3661175,0.80456203,47.684196,-1.15282,-1.8155825,-3.3613007,-0.32766283,0.31220454,-0.4740116,28.125,29.3125,28.5,32.4375,34.625,35.625
0.23605195,0.74309784,-0.5362571,-0.08259281,-0.023972312,0.012184593,-0.17944391,-0.39434594,-0.34803417,0.060072333,3.076466,-0.6167363,-0.00024472192,-0.11312117,0.004403731,-0.0014278456,-0.038398977,0.0012400828,0.024363862,0.4628997,-1.4067125,1.9353231,-2.1004713,-1.5676502,2.4330413,-0.1292213,0.16940722,-0.19438447,0.00705677,0.03378788,-0.15343423,0.076614454,0.4213795,-9.251195,0.8314132,47.677036,-1.0758133,-1.8450878,-3.2318528,-0.32292992,0.28819063,-0.49619722,28.125,29.3125,28.5,32.4375,34.625,35.625
0.23805235,0.30379102,-0.64112765,-0.45855665,-0.008440176,-0.012819947,-0.17146868,-0.39459318,-0.3480148,0.060067564,3.0764258,-0.616644,-0.00026715593,-0.11352547,0.0034408318,-0.0011847325,-0.039535914,0.002136136,0.036600657,0.46262395,-1.4063518,1.9349164,-2.1004713,-1.5676135,2.4327133,-0.12820505,0.17040046,-0.1959954,0.006411923,0.034441307,-0.16465175,0.26815057,0.38307226,-9.308656,0.86498255,47.711964,-1.1421059,-1.9470592,-3.243071,-0.31190732,0.243812,-0.40555173,28.125,29.3125,28.5,32.4375,34.625,35.625
0.2400526,0.20976415,-1.0953401,-0.57331985,0.002941141,-0.021365257,-0.16631287,-0.39480668,-0.3480045,0.060054433,3.0763872,-0.61655223,-0.00019560015,-0.11445307,0.0039852983,-0.0021434654,-0.038401555,0.00064370024,0.048511926,0.4623716,-1.4060023,1.9345335,-2.1004355,-1.5675415,2.4324086,-0.12969306,0.1735568,-0.1976055,0.006770839,0.034128033,-0.17805056,0.4213795,0.36391866,-9.308656,0.8314132,47.67166,-1.0620792,-2.0498872,-3.3936148,-0.3028735,0.25896037,-0.33068073,28.125,29.3125,28.5,32.4375,34.625,35.625
0.24205203,0.10492065,-0.8267769,-0.25473082,-0.01901365,-0.012863424,-0.17398648,-0.395064,-0.3480201,0.06006473,3.0763,-0.61628175,-0.0002608622,-0.11563068,0.0043086596,-0.0026388157,-0.038508173,-0.00046225195,0.05437147,0.46211872,-1.4056412,1.9341029,-2.1004832,-1.5674576,2.431998,-0.13159941,0.1761777,-0.1996662,0.0071992595,0.03475919,-0.1858107,0.17238252,0.24899697,-9.3661175,0.8314132,47.694946,-1.0320091,-2.0563867,-3.412384,-0.30191296,0.25061157,-0.20119378,28.125,29.3125,28.5,32.4375,34.625,35.625
0.24405238,0.1863427,-0.7678218,-0.36313757,-0.022143627,-0.009730945,-0.16937612,-0.39525315,-0.34799552,0.060029924,3.0763123,-0.61614907,-7.226593e-05,-0.11642923,0.003673347,-0.002664565,-0.03987746,-0.0013138051,0.05698648,0.46185482,-1.4052799,1.9337443,-2.1003988,-1.5673727,2.4316497,-0.13212068,0.17833689,-0.20232078,0.007876276,0.03635658,-0.18894692,0.114921674,0.21068975,-9.289502,0.8537928,47.703007,-0.9955716,-2.090681,-3.3750267,-0.30939543,0.20977968,-0.16068,28.125,29.3125,28.5,32.4375,34.625,35.625
0.24605167,0.25654894,-0.5683612,-0.40020767,-0.014350007,0.007222569,-0.15896213,-0.39549872,-0.34800965,0.060037058,3.0762281,-0.6159239,-8.331757e-05,-0.11655738,0.0036334926,-0.0030731764,-0.040519215,-0.0032199963,0.052033257,0.46160245,-1.404919,1.9333128,-2.1004107,-1.5672768,2.4312675,-0.13297558,0.17972219,-0.2032797,0.008879114,0.037789095,-0.18484354,-0.019153614,0.19153613,-9.404425,0.8179876,47.68599,-1.0164025,-2.1924407,-3.4346914,-0.30321637,0.19118953,-0.17696959,28.125,29.3125,28.5,32.4375,34.625,35.625
0.24805194,0.066923946,-0.25029132,-0.2676741,-0.0153122675,0.023197822,-0.16216221,-0.39571866,-0.3479953,0.060001645,3.0762303,-0.61569965,1.875551e-05,-0.11773216,0.004359138,-0.0030337658,-0.04156835,-0.0033854363,0.042541195,0.46133742,-1.4045222,1.9329308,-2.1003988,-1.5672039,2.4308622,-0.13581863,0.18023583,-0.20400359,0.0087675415,0.0387817,-0.17819406,-0.11492168,0.22984336,-9.423578,0.8247004,47.7254,-0.8260218,-2.153449,-3.3912454,-0.29928532,0.16711614,-0.23490728,28.125,29.3125,28.5,32.4375,34.625,35.625
0.2500521,-0.0018549738,-0.058380358,-0.14086209,-0.004451504,0.03460489,-0.17114505,-0.3959353,-0.34798622,0.059997328,3.0761836,-0.6155394,4.625342e-05,-0.118717134,0.004620031,-0.0036884095,-0.04158404,-0.004789517,0.036743525,0.4610853,-1.4041969,1.9325608,-2.1003869,-1.5671319,2.430516,-0.13745302,0.1829803,-0.20582402,0.009099712,0.039415743,-0.17402767,-0.15322891,0.038307227,-9.423578,0.9567419,47.694054,-0.9857906,-2.3509555,-3.3819108,-0.30195436,0.123502314,-0.32063022,28.125,29.3125,28.5,32.4375,34.625,35.625
0.2520524,-0.6074363,0.19439022,-0.1624352,0.00084133976,0.04461867,-0.17731236,-0.39618886,-0.34797716,0.059996586,3.076102,-0.6154857,0.00010985411,-0.11960412,0.0036538038,-0.0032245913,-0.042668097,-0.0036059583,0.033933535,0.46078554,-1.4038122,1.9321054,-2.1003387,-1.5670356,2.4301932,-0.13670355,0.18439725,-0.20853189,0.0088626975,0.039852474,-0.17046547,-0.34476507,0.22984336,-9.423578,0.8537928,47.66091,-0.9359081,-2.2752948,-3.3811202,-0.30497676,0.09102975,-0.3783205,28.125,29.3125,28.5,32.4375,34.625,35.625
0.2540527,-1.1397244,0.18733262,0.048874505,-0.0071086306,0.06692686,-0.17310794,-0.39642864,-0.34797242,0.05999002,3.0760467,-0.61535937,0.0001344241,-0.11991656,0.0038966765,-0.0034330057,-0.042078745,-0.004768153,0.035661347,0.46052113,-1.4034395,1.9316853,-2.1003263,-1.5669636,2.429857,-0.13730545,0.18562917,-0.20988236,0.010315806,0.039857898,-0.17279343,-0.47884035,0.17238252,-9.3661175,0.8985519,47.658226,-0.9983533,-2.280746,-3.4742966,-0.31472522,0.07336648,-0.39167845,28.125,29.3125,28.5,32.4375,34.625,35.625
0.25605202,-1.4363954,0.4919868,-0.2299017,-0.013674022,0.07815396,-0.1757036,-0.39662874,-0.34797025,0.059963197,3.07604,-0.61512333,0.00027251037,-0.12101927,0.0037085484,-0.0032022758,-0.042175286,-0.0038839215,0.041232888,0.460281,-1.4030666,1.9313029,-2.1002786,-1.5668677,2.4294703,-0.13766284,0.18710035,-0.21219192,0.01036888,0.039559547,-0.17872325,-0.34476504,0.15322891,-9.385271,0.92764956,47.66091,-1.0335037,-2.1581104,-3.4362712,-0.31725657,0.060168497,-0.37749338,28.125,29.3125,28.5,32.4375,34.625,35.625
0.25805232,-1.5300149,-0.46918815,-0.35167962,-0.000113868846,0.08893475,-0.16492666,-0.39687148,-0.34795746,0.05996335,3.07597,-0.6149868,0.00029288032,-0.12242079,0.0030872552,-0.0018696948,-0.043542758,-0.000854402,0.05259004,0.459993,-1.4027184,1.9308957,-2.1002667,-1.5667843,2.429106,-0.13763945,0.18687701,-0.21496665,0.010115857,0.039477244,-0.19005434,-0.45968673,0.17238252,-9.500193,0.8985519,47.693153,-1.1886573,-2.1574283,-3.4609334,-0.31887168,0.036018994,-0.31013876,28.125,29.3125,28.5,32.4375,34.625,35.625
0.26005214,-1.5523492,0.12581423,-0.10150673,-0.028702583,0.104293905,-0.17350306,-0.39710203,-0.3479359,0.05992397,3.0759633,-0.6148656,0.0004770896,-0.12393231,0.0039204042,-0.0016161818,-0.04248907,0.0003885051,0.06158288,0.45969257,-1.4022853,1.930466,-2.1001947,-1.5666884,2.4287307,-0.13937548,0.18784761,-0.21682356,0.010433963,0.037998036,-0.2007874,-0.61291564,0.24899697,-9.481039,0.88289046,47.66987,-1.0738404,-2.2082412,-3.4500704,-0.32473692,0.016363854,-0.15438086,28.125,29.3125,28.5,32.4375,34.625,35.625
0.26205206,-1.558965,-0.07030054,-0.38786444,-0.011267183,0.0925985,-0.16747154,-0.3973632,-0.34794164,0.05993457,3.0759225,-0.6145494,0.0003614684,-0.12587163,0.0044698426,-0.0015327608,-0.042061117,0.0016662758,0.063305,0.4594517,-1.4019246,1.930034,-2.1002429,-1.5666527,2.4282978,-0.1413421,0.18987848,-0.21933639,0.009995063,0.037080213,-0.2044716,-0.80445176,0.1340753,-9.5385,0.8627467,47.694946,-1.0111957,-2.1626737,-3.4486904,-0.31765482,0.035844907,-0.08787473,28.125,29.3125,28.5,32.4375,34.625,35.625
0.2640524,-0.8727252,0.10515569,-0.49199486,-0.0119801,0.102650456,-0.16800912,-0.39763388,-0.347924,0.059936848,3.0758646,-0.614446,0.00038855115,-0.12704748,0.005790161,-0.0017291375,-0.041069552,0.0015062597,0.05579352,0.45913902,-1.4015281,1.9295572,-2.1001947,-1.5665811,2.427928,-0.14404015,0.19069733,-0.22001556,0.010447986,0.03626099,-0.19965793,-0.7661445,0.1340753,-9.595961,0.8672237,47.675243,-0.98376,-2.117123,-3.3914437,-0.3192616,0.027381148,-0.090792015,28.125,29.3125,28.5,32.4375,34.625,35.625
0.26605216,-1.3913189,-0.39996856,-0.4071198,-0.0121140145,0.09847805,-0.1701284,-0.39788693,-0.34791875,0.059942577,3.0758061,-0.6143037,0.00039909952,-0.1272613,0.0050323065,-0.0019330889,-0.039798256,0.0022266014,0.05051226,0.45886368,-1.401155,1.9291023,-2.1001585,-1.5665096,2.4275713,-0.1418546,0.19269584,-0.22189765,0.010247618,0.0347905,-0.19219051,-0.7661445,0.076614454,-9.672575,0.8784135,47.68062,-1.0692817,-2.095859,-3.5945616,-0.32558292,0.013324475,-0.16391799,28.125,29.3125,28.5,32.4375,34.625,35.625
0.26805246,-1.1577475,0.07913082,-0.28490463,-0.004793689,0.10777147,-0.17017916,-0.39813402,-0.3479049,0.059907332,3.0757742,-0.6141856,0.000532769,-0.13077451,0.0045546303,0.00061712565,-0.041243467,0.0090747485,0.042776566,0.45856354,-1.4007106,1.9286579,-2.1001232,-1.5664142,2.4272015,-0.142838,0.19256407,-0.22736403,0.009072069,0.033020236,-0.18543945,-0.8236054,0.038307227,-9.672575,0.85155696,47.71823,-1.0319052,-2.0603857,-3.4996302,-0.31014186,0.025488796,-0.26358852,28.125,29.3125,28.5,32.4375,34.625,35.625
0.27005273,-1.5036259,0.26427433,-0.43840966,0.011939598,0.100972034,-0.17261557,-0.39840865,-0.3478931,0.05991635,3.0756855,-0.6140369,0.00050954503,-0.1321359,0.0051346524,0.0005704127,-0.039891385,0.010223929,0.03581117,0.45825115,-1.4003375,1.9282035,-2.1001232,-1.5663313,2.4268076,-0.14382204,0.19418478,-0.22915319,0.008814266,0.03130053,-0.17945704,-0.6512228,-0.05746084,-9.615114,0.9545008,47.655537,-1.0480092,-2.0777354,-3.3838713,-0.3079426,0.054324877,-0.38312516,28.125,29.3125,28.5,32.4375,34.625,35.625
0.2720519,-1.3326178,0.21071413,-0.41127992,0.01870289,0.090342276,-0.17160816,-0.39868146,-0.34785908,0.059903022,3.0756571,-0.6139383,0.0004759686,-0.13258642,0.0058765076,-0.00097099965,-0.037700042,0.008362476,0.031137887,0.4579389,-1.3999397,1.9277738,-2.1001356,-1.566307,2.4264376,-0.14466864,0.19757873,-0.22960074,0.008508111,0.030161137,-0.17563008,-0.51714754,0.038307227,-9.653421,0.8918391,47.675243,-1.1096717,-2.1717782,-3.4621549,-0.29233906,0.05543714,-0.47346082,28.125,29.3125,28.5,32.4375,34.625,35.625
0.27405217,-0.9908393,0.21124147,-0.45882016,0.015759254,0.08319463,-0.18247484,-0.39895833,-0.34785146,0.059904218,3.0756028,-0.61384696,0.0004216815,-0.13334224,0.0061794757,-0.0011412641,-0.036817573,0.008566993,0.034631073,0.45766264,-1.399531,1.9272956,-2.1001356,-1.5662717,2.4261115,-0.1451935,0.19896346,-0.2309491,0.008713644,0.029307676,-0.1796469,-0.4213795,0.1340753,-9.595961,0.92093146,47.67614,-1.1444608,-2.177394,-3.5675244,-0.286534,0.040129744,-0.47735167,28.125,29.3125,28.5,32.4375,34.625,35.625
0.27605256,-0.32805425,0.32074755,-0.5424092,-0.009880396,0.07326609,-0.1834361,-0.39923036,-0.34782022,0.059897617,3.0755455,-0.61377066,0.00046165782,-0.13469283,0.007256588,-0.0010475982,-0.03551089,0.009293978,0.04485729,0.4573262,-1.3991345,1.9268407,-2.1000988,-1.5661997,2.4257348,-0.14720462,0.19986075,-0.23241638,0.00929118,0.02786164,-0.19188564,-0.2681506,0.095768064,-9.653421,0.9186956,47.675243,-1.1981256,-2.1089838,-3.6598577,-0.2889703,0.07936091,-0.42039979,28.125,29.3125,28.5,32.4375,34.625,35.625
0.2780519,-1.1087632,-1.0499628,-0.4433515,-0.014372792,0.036045898,-0.18021981,-0.39949697,-0.34781733,0.059889354,3.0755556,-0.6135151,0.0004393296,-0.13461412,0.0063511063,-0.0012753403,-0.03419791,0.009755655,0.05982593,0.45707515,-1.3987017,1.92635,-2.1000755,-1.5661763,2.425323,-0.1445927,0.20176564,-0.23423718,0.0094442535,0.026526814,-0.20424291,-0.19153613,0.15322891,-9.595961,0.92093146,47.71286,-1.2474375,-2.1510847,-3.607392,-0.2730351,0.10074192,-0.30147448,28.125,29.3125,28.5,32.4375,34.625,35.625
0.28005204,0.021681448,-0.94565797,-0.52966434,-0.036543675,0.04171674,-0.17788897,-0.39979044,-0.34779155,0.059901163,3.0754893,-0.6133464,0.00039348644,-0.1365612,0.0072832922,-0.0018794361,-0.033517346,0.009165239,0.065625876,0.4567378,-1.398316,1.9258713,-2.1000636,-1.5661162,2.4248888,-0.14758159,0.20507564,-0.23683204,0.009621614,0.026223551,-0.2130289,-0.11492168,0.21068975,-9.576807,0.91421866,47.67614,-1.099434,-2.1221018,-3.5230916,-0.2820619,0.11866563,-0.18617842,28.125,29.3125,28.5,32.4375,34.625,35.625
0.28205225,0.22328497,-1.1453426,-0.37699386,-0.03492859,0.030512422,-0.17387459,-0.40007126,-0.34774753,0.059901863,3.0755033,-0.6131772,0.0003208968,-0.1387779,0.007668857,-0.0013309495,-0.033832993,0.011299379,0.06280584,0.4564256,-1.3979313,1.9254159,-2.1000397,-1.5661286,2.4244695,-0.14963326,0.2065616,-0.2397447,0.008998073,0.025573168,-0.21225901,-0.19153613,0.2681506,-9.500193,0.84484416,47.68599,-1.1044259,-2.1352606,-3.4670944,-0.28350997,0.13695528,-0.14012024,28.125,29.3125,28.5,32.4375,34.625,35.625
0.28405204,0.049894933,-0.76386064,-0.30425322,-0.024278075,0.007845822,-0.17653912,-0.40034777,-0.34774917,0.05988948,3.0754497,-0.61296046,0.00034271812,-0.14107627,0.008418219,-0.00020658998,-0.035061732,0.013674172,0.053138,0.45613638,-1.3974869,1.9249262,-2.1000397,-1.5660447,2.4240518,-0.15282731,0.20642117,-0.2422049,0.008920731,0.025620328,-0.20578313,-0.15322891,0.3256114,-9.519346,0.8940802,47.678825,-1.0094714,-2.160566,-3.4585676,-0.28152198,0.17865574,-0.20840608,28.125,29.3125,28.5,32.4375,34.625,35.625
0.28605226,0.25545636,-0.7059443,-0.3773449,-0.015373899,0.005749008,-0.17033318,-0.40063494,-0.3477339,0.059897307,3.0753925,-0.612819,0.0003256323,-0.14242645,0.0086022755,-0.00034791185,-0.036222517,0.013523086,0.046424042,0.45582366,-1.3970778,1.9244231,-2.100004,-1.5659846,2.4236581,-0.1548781,0.20824772,-0.24399053,0.00849907,0.026729291,-0.20111549,0.0,0.40222588,-9.404425,0.87617236,47.679718,-0.8424924,-2.2454443,-3.3535976,-0.25021404,0.18664005,-0.30465972,28.125,29.3125,28.5,32.4375,34.625,35.625
0.28805238,0.6296158,-0.9566501,-0.3696918,-0.015042874,0.0049062115,-0.17951475,-0.40093502,-0.34770304,0.059893087,3.0753362,-0.6127314,0.00027172113,-0.14328541,0.008120818,-0.00014169859,-0.037259046,0.013995954,0.043630112,0.4554876,-1.3966568,1.9239444,-2.1000159,-1.5659479,2.4232748,-0.15509579,0.20957015,-0.24604756,0.008354689,0.027461953,-0.19853508,0.1340753,0.36391866,-9.461885,0.9097417,47.72002,-0.9204366,-2.260593,-3.3548646,-0.24025407,0.17751002,-0.34106058,28.125,29.3125,28.5,32.4375,34.625,35.625
0.29005185,-0.23807067,-1.3767428,-0.27907667,-0.023095917,-0.008856067,-0.17948453,-0.40119344,-0.34768754,0.05989236,3.075305,-0.61253184,0.00028429859,-0.14473383,0.0072212745,0.0009705446,-0.03909185,0.015395488,0.044057734,0.45519954,-1.3962721,1.923489,-2.0999796,-1.5658873,2.422866,-0.15530297,0.21062285,-0.25009355,0.009304447,0.028503517,-0.19916536,0.0,0.34476504,-9.404425,0.8851263,47.67614,-0.94360983,-2.1484458,-3.2442193,-0.25357535,0.19336659,-0.38727477,28.125,29.3125,28.5,32.4375,34.625,35.625
0.29205206,-0.3968265,-1.4055991,-0.02410106,-0.038427506,0.0034831946,-0.17707554,-0.40148324,-0.34765077,0.059868045,3.0752966,-0.612469,0.00033312672,-0.1470015,0.006900719,0.0020319172,-0.04008094,0.017925998,0.05005212,0.45486346,-1.3958032,1.9229859,-2.0999315,-1.565852,2.422492,-0.15642399,0.21215698,-0.25442457,0.00944534,0.028302994,-0.20627981,-0.095768064,0.4213795,-9.404425,0.83589023,47.639416,-1.0933214,-2.1048985,-3.2958326,-0.24820456,0.2114896,-0.34885252,28.125,29.3125,28.5,32.4375,34.625,35.625
0.29405242,-0.70356154,-1.4011277,-0.419631,-0.035455022,0.014996675,-0.18193188,-0.40178275,-0.3476616,0.059895933,3.07519,-0.6122077,0.00026068394,-0.14617436,0.005988168,0.0023304399,-0.03975236,0.018394895,0.06573848,0.45456433,-1.3954072,1.9224604,-2.0999315,-1.5657562,2.4220433,-0.15371053,0.21174407,-0.2548435,0.010093899,0.027885066,-0.21925053,0.019153614,0.4213795,-9.442732,0.8493211,47.63046,-1.1426549,-2.0182161,-3.221443,-0.23492557,0.23867342,-0.23952252,28.125,29.25,28.5,32.4375,34.625,35.625
0.29605183,-0.41611528,-1.061476,-0.42481935,-0.039784014,0.023491686,-0.18723729,-0.40207884,-0.3476474,0.059897505,3.0751429,-0.61196554,0.00025601473,-0.14637843,0.0071808817,0.0021534096,-0.040594526,0.016796226,0.070875,0.4542391,-1.3949748,1.9219464,-2.0999072,-1.5656832,2.421573,-0.15677677,0.21099553,-0.25384495,0.010971515,0.029400486,-0.22744963,0.11492168,0.4213795,-9.576807,0.8940802,47.64837,-0.9748034,-1.9616182,-3.3778644,-0.24644694,0.25126922,-0.121153355,28.125,29.25,28.5,32.4375,34.625,35.625
0.29805228,-0.93120474,-1.6032219,-0.4396865,-0.040085103,0.013256737,-0.17239791,-0.40234882,-0.34762526,0.05987496,3.075132,-0.6117553,0.00027300793,-0.14712138,0.0077863755,0.0022280288,-0.04187036,0.01582947,0.06598928,0.45393834,-1.3945425,1.9214925,-2.0999067,-1.5656351,2.4211423,-0.15933084,0.21121567,-0.25452906,0.011747242,0.030977529,-0.22511397,0.019153614,0.36391866,-9.423578,0.87617236,47.67614,-0.96123177,-1.8483459,-3.4741535,-0.24786441,0.25213245,-0.0861609,28.125,29.25,28.5,32.4375,34.625,35.625
0.3000524,-0.1957507,-0.77456635,-0.122066006,-0.04438665,0.02621088,-0.18547997,-0.40266442,-0.34761617,0.0598974,3.0750618,-0.6115347,0.00019755917,-0.14797606,0.008089407,0.0010327339,-0.041135095,0.014260726,0.058713112,0.45361403,-1.3941202,1.9209427,-2.0998833,-1.565575,2.4206893,-0.16046037,0.21477395,-0.25595787,0.0113422945,0.031011062,-0.21896304,-0.11492168,0.28730422,-9.481039,0.9164598,47.688675,-0.85932815,-1.9947507,-3.608695,-0.24230652,0.260412,-0.16261347,28.125,29.25,28.5,32.4375,34.625,35.625
0.3020525,-0.2080103,-0.3674394,-0.43960732,-0.025930038,0.022391949,-0.18448575,-0.40294367,-0.34757838,0.059857387,3.0750697,-0.61140704,0.00028802326,-0.14900747,0.0075613675,0.0013912097,-0.042930707,0.0149253765,0.049960952,0.45327792,-1.3936396,1.9204634,-2.0998476,-1.5655259,2.4202726,-0.16109115,0.21585019,-0.25803018,0.010929206,0.03230102,-0.21083893,-0.038307227,0.19153613,-9.519346,0.91198283,47.67614,-0.93897176,-2.0201592,-3.5549612,-0.23296943,0.2694891,-0.2580539,28.125,29.25,28.5,32.4375,34.625,35.625
0.30405176,-0.5899838,-0.3823403,-0.3411812,-0.009060243,0.011687228,-0.18031813,-0.40328106,-0.34761247,0.05993268,3.0749478,-0.6111361,2.5010491e-05,-0.1495242,0.0070222984,0.0014063796,-0.043645788,0.01504389,0.041708607,0.45302626,-1.393255,1.9198426,-2.0998476,-1.5654901,2.4198675,-0.1608259,0.21718955,-0.25966132,0.010770833,0.03291264,-0.2023115,-0.17238252,0.22984336,-9.5385,0.947788,47.66091,-0.90337604,-1.8578875,-3.5229177,-0.21902758,0.27119178,-0.359098,28.125,29.25,28.5,32.4375,34.625,35.625
0.30605206,-1.3689065,-0.5376619,-0.32210472,0.0041544135,0.0012113238,-0.17316146,-0.40355936,-0.34758767,0.059910487,3.0748897,-0.61099285,0.00012862502,-0.15117055,0.007336601,0.0008576237,-0.043532804,0.014277963,0.03579711,0.45267704,-1.3928096,1.9193639,-2.0998113,-1.5653819,2.4194362,-0.16277196,0.22065464,-0.26261172,0.011005992,0.033135295,-0.19834408,-0.19153613,0.17238252,-9.557653,0.9231726,47.652847,-0.8465353,-2.1042051,-3.4855123,-0.20846581,0.27830458,-0.47125122,28.125,29.25,28.5,32.4375,34.625,35.625
0.30805224,-0.8712175,-0.1082706,-0.6158389,0.020946044,0.017394183,-0.18060802,-0.4038542,-0.34755698,0.059887446,3.0748541,-0.610943,0.00015977389,-0.15163594,0.0067976415,1.1808795e-05,-0.04319164,0.012855061,0.04141398,0.4523418,-1.3923397,1.9188608,-2.0997875,-1.5653342,2.4190745,-0.16229631,0.22413458,-0.2649319,0.01132203,0.033478644,-0.20348306,-0.1340753,0.21068975,-9.557653,0.947788,47.694946,-1.0221415,-2.1339767,-3.5928469,-0.2029098,0.28990662,-0.4827013,28.125,29.25,28.5,32.4375,34.625,35.625
0.3100524,-1.3635364,-0.44464827,-0.3311058,-0.00018426732,0.03439283,-0.18849766,-0.4041648,-0.34754902,0.059909392,3.0747871,-0.6106915,0.000109024375,-0.15282153,0.006108237,0.0007220951,-0.044361796,0.014014253,0.054892477,0.4520175,-1.3919189,1.91831,-2.0997508,-1.5652617,2.4186018,-0.16234073,0.22537024,-0.26820806,0.011905386,0.03410225,-0.21700041,-0.095768064,0.15322891,-9.5385,0.9030289,47.687782,-1.0355556,-2.2277935,-3.5321965,-0.20338318,0.29799557,-0.39744577,28.125,29.25,28.5,32.4375,34.625,35.625
0.31205255,-1.2736224,-0.46807852,-0.19650303,-0.030736892,0.058205813,-0.19825782,-0.40444905,-0.34756207,0.059898056,3.0747273,-0.61040306,0.00015255412,-0.1538616,0.0052675214,0.0013241466,-0.046024702,0.014769686,0.06813938,0.45172969,-1.3914495,1.9177836,-2.0997393,-1.565153,2.4181414,-0.16239218,0.22667362,-0.27130708,0.012398021,0.03533594,-0.23029326,-0.11492168,0.15322891,-9.481039,0.92093146,47.647476,-1.1894306,-2.2162986,-3.4205046,-0.20568779,0.3014986,-0.24180487,28.125,29.25,28.5,32.4375,34.625,35.625
0.31405187,-1.2830962,-0.8060543,-0.48338145,-0.014460628,0.04123885,-0.1860865,-0.40479296,-0.3475269,0.059918337,3.0746555,-0.6102717,7.745822e-05,-0.15530348,0.005004399,0.0028050055,-0.0474462,0.017210845,0.07085826,0.45134556,-1.3910055,1.917209,-2.0997026,-1.5651048,2.4176846,-0.16314349,0.22608246,-0.27423906,0.013147601,0.035594434,-0.23375884,-0.3256114,0.21068975,-9.653421,0.87617236,47.62598,-1.1630626,-2.218309,-3.242559,-0.19120099,0.30955073,-0.16196108,28.125,29.25,28.5,32.4375,34.625,35.625
0.31605223,-1.0975705,-0.50599235,-0.16195652,-0.036532614,0.054078046,-0.18749985,-0.4050833,-0.3475307,0.059915245,3.0745895,-0.6099944,7.873523e-05,-0.15554029,0.005295927,0.0020219628,-0.04676156,0.015622332,0.06450899,0.4510452,-1.3905606,1.916695,-2.0997026,-1.565009,2.4172194,-0.16375229,0.2280703,-0.27499416,0.013643279,0.035672862,-0.22801541,-0.59376204,0.2681506,-9.557653,0.8672237,47.63673,-1.1783102,-2.0240102,-3.3398829,-0.19582212,0.32487732,-0.20074303,28.125,29.25,28.5,32.4375,34.625,35.625
0.31805244,-1.5737422,-0.7916051,-0.58803004,-0.016234033,0.03230596,-0.19066913,-0.40540427,-0.34749582,0.059911232,3.0745792,-0.6098055,4.2104897e-05,-0.15661222,0.0059476835,0.0013820194,-0.046450417,0.014537417,0.055033576,0.450697,-1.3900917,1.9161462,-2.0996673,-1.5649852,2.4167547,-0.16574495,0.23040171,-0.2764124,0.013816836,0.035852805,-0.22052975,-0.51714754,0.22984336,-9.653421,0.8918391,47.67614,-1.2461784,-2.0204816,-3.4193246,-0.19897473,0.31755885,-0.3049617,28.125,29.25,28.5,32.4375,34.625,35.625
0.32005253,-1.4611534,-0.932801,-0.6121536,-0.008405982,0.044388305,-0.184192,-0.40571076,-0.34748545,0.059914622,3.0745244,-0.6096796,6.685772e-05,-0.15547507,0.004867929,0.0010122485,-0.047064207,0.013585024,0.053451624,0.45037353,-1.3896228,1.915572,-2.0995948,-1.5649127,2.4163597,-0.16335203,0.23072758,-0.2760194,0.013689364,0.036821295,-0.21655133,-0.4405331,0.19153613,-9.749189,0.9030289,47.682407,-1.3295485,-1.9918692,-3.5073671,-0.17492373,0.34297925,-0.36374193,28.125,29.25,28.5,32.4375,34.625,35.625
0.32205182,-1.6823151,-0.7265225,-0.08527007,-0.033269495,0.050032556,-0.18285051,-0.40605733,-0.34749576,0.059955724,3.0743945,-0.60938364,-6.71055e-05,-0.1562611,0.004583564,0.0017509835,-0.0489574,0.014789115,0.054979153,0.45003724,-1.3891904,1.9149746,-2.0996072,-1.5648159,2.4158552,-0.16412249,0.23032546,-0.27725136,0.013458118,0.038058568,-0.21883915,-0.5554548,0.19153613,-9.634268,0.9097417,47.65464,-1.2417259,-1.9087565,-3.6294818,-0.16122884,0.33224487,-0.39903378,28.125,29.25,28.5,32.4375,34.625,35.625
0.32405207,-1.4726462,-0.43817028,0.09108199,-0.027272806,0.05178497,-0.19681168,-0.40638992,-0.34747267,0.059972797,3.0743353,-0.60925055,-0.00018093745,-0.1580676,0.004146342,0.0028160485,-0.05055285,0.017098462,0.063454285,0.4497008,-1.3887461,1.9144114,-2.0995948,-1.564792,2.4154434,-0.16503654,0.23112267,-0.28067854,0.0133864265,0.03856179,-0.22822177,-0.21068975,0.15322891,-9.3661175,0.95897776,47.66271,-1.3677962,-1.9080212,-3.554187,-0.15952411,0.3360021,-0.33826298,28.125,29.25,28.5,32.4375,34.625,35.625
0.32605243,-1.0716707,-0.16686864,-0.016277758,0.004323486,0.04353826,-0.18650047,-0.40667313,-0.3474895,0.05997014,3.0742512,-0.60894006,-0.00010506995,-0.15877979,0.0043479293,0.0032013073,-0.05170635,0.01785713,0.07540157,0.44940042,-1.3882895,1.9138736,-2.099559,-1.564648,2.4149597,-0.16633047,0.23085,-0.2812791,0.013196851,0.039352134,-0.24145937,-0.19153613,0.05746084,-9.442732,0.90750587,47.647476,-1.3118069,-1.7514939,-3.4832263,-0.13934115,0.33787167,-0.20437817,28.125,29.25,28.5,32.4375,34.625,35.625
0.3280527,-1.0431879,0.32849172,-0.23057605,0.024215413,0.018352386,-0.18784493,-0.40699294,-0.3474787,0.05996674,3.0741997,-0.6086214,-9.031519e-05,-0.16144226,0.004893859,0.0034958548,-0.05292291,0.018594649,0.07843951,0.4490513,-1.3878082,1.9133109,-2.0995352,-1.5645517,2.414418,-0.16987066,0.23348287,-0.28516892,0.013335691,0.040177803,-0.2480312,-0.11492168,0.076614454,-9.442732,0.90750587,47.71286,-1.1857336,-1.75319,-3.4645643,-0.12068066,0.33190504,-0.09227692,28.125,29.25,28.5,32.4375,34.625,35.625
0.33005205,-0.69057226,0.30998865,-0.34305704,0.033003453,-0.0076571153,-0.18155463,-0.40732822,-0.3474583,0.05996879,3.0741644,-0.6083483,-0.00014845547,-0.16335659,0.0052048173,0.0024406184,-0.052885868,0.016698934,0.07221123,0.44870275,-1.3873254,1.9127363,-2.0995233,-1.5645031,2.4139035,-0.17234762,0.23851919,-0.28888348,0.01373801,0.04097527,-0.24427204,0.0,0.13407528,-9.461885,0.9097417,47.65912,-1.2771194,-1.9772959,-3.3747127,-0.11484118,0.333845,-0.07025578,28.125,29.25,28.5,32.4375,34.625,35.625
0.33205226,-0.48878926,0.012151602,-0.29259762,0.016511839,-0.01607141,-0.17985535,-0.40767053,-0.3474343,0.05999104,3.0740988,-0.60818666,-0.00022430389,-0.16336568,0.004991114,0.0017012039,-0.053284064,0.0152033735,0.06292831,0.44834268,-1.386869,1.9121383,-2.0994756,-1.5644549,2.413451,-0.1724258,0.24032204,-0.28937832,0.013570592,0.041972637,-0.23505972,-0.24899697,0.13407528,-9.461885,0.9567419,47.677036,-1.1603413,-2.0657582,-3.2765567,-0.10388549,0.35747123,-0.16892433,28.125,29.25,28.5,32.4375,34.625,35.625
0.33405238,-0.64696854,-1.0127599,-0.51195663,-0.004165054,0.0017601842,-0.1809501,-0.40799803,-0.34741986,0.059979465,3.0740135,-0.60800403,-0.00022374437,-0.16529384,0.005038429,0.002284842,-0.05426676,0.015735773,0.050795417,0.44798186,-1.3863757,1.9115876,-2.099487,-1.5643586,2.412987,-0.1743404,0.24221541,-0.29328054,0.014644684,0.042600702,-0.22483471,-0.2873042,0.21068975,-9.404425,0.8985519,47.650166,-1.1259319,-2.0432951,-3.360958,-0.10725948,0.33409077,-0.26944286,28.125,29.25,28.5,32.4375,34.625,35.625
0.33605266,-0.9782467,-1.905465,-0.74220234,-0.02519372,0.022153052,-0.17954764,-0.40832534,-0.3474331,0.060008433,3.0739112,-0.60783523,-0.00025188667,-0.16550927,0.00472463,0.0025962207,-0.05585177,0.014364843,0.040958293,0.4476696,-1.3859067,1.9109539,-2.0994146,-1.5642623,2.4125824,-0.17505759,0.24264568,-0.2949979,0.016450442,0.044609968,-0.21570331,-0.05746084,0.38307226,-9.481039,0.9321212,47.65643,-1.1205267,-2.0471287,-3.3182487,-0.09919472,0.31316942,-0.43136203,28.125,29.25,28.5,32.4375,34.625,35.625
0.3380519,-1.0605547,-2.09576,-0.5309664,-0.06519796,0.040368963,-0.1849753,-0.40865275,-0.34742543,0.060029272,3.0738242,-0.6076246,-0.00026568316,-0.16588086,0.0050750077,0.0026694927,-0.05708005,0.012388829,0.040614307,0.44732106,-1.3854508,1.9103564,-2.0993536,-1.5641655,2.4121134,-0.17704715,0.24312969,-0.29630733,0.018565997,0.046612736,-0.21733814,-0.19153613,0.36391866,-9.557653,0.947788,47.70838,-0.99910235,-1.8933458,-3.3851466,-0.10293912,0.30628648,-0.47949144,28.125,29.25,28.5,32.4375,34.625,35.625
0.34005213,-0.81491107,-1.9241554,-0.29510581,-0.0734267,0.045538556,-0.19220497,-0.4090031,-0.34738556,0.060028177,3.0737522,-0.60750616,-0.0002732303,-0.16613932,0.0050976975,0.001743832,-0.057797734,0.009324995,0.053266875,0.4469127,-1.3849572,1.9097699,-2.0993178,-1.5640925,2.4116404,-0.17839868,0.24587707,-0.2978564,0.019940225,0.048683055,-0.23133193,-0.1340753,0.4213795,-9.519346,0.8493211,47.67614,-1.041591,-1.8369141,-3.344925,-0.10477844,0.266988,-0.4056419,28.125,29.25,28.5,32.4375,34.625,35.625
0.34205252,-1.3010134,-1.9843093,-0.5154952,-0.037312776,0.015339304,-0.18304722,-0.40932894,-0.34737936,0.060036562,3.0737054,-0.6071822,-0.00028291176,-0.16634902,0.0051861424,0.0011212948,-0.058490198,0.008268649,0.06603512,0.44657654,-1.3844763,1.9091738,-2.09927,-1.5640081,2.4111078,-0.17928322,0.24718255,-0.29799038,0.019545393,0.049860615,-0.24497767,-0.24899697,0.49799395,-9.461885,0.9768804,47.71286,-1.03645,-1.9037477,-3.5529404,-0.119695604,0.26269776,-0.25909644,28.125,29.25,28.5,32.4375,34.625,35.625
0.34405184,-0.7712698,-1.0433501,-0.41681892,-0.031720955,0.028870558,-0.18662694,-0.40967333,-0.34738684,0.060047653,3.0736108,-0.60693,-0.00032792662,-0.16646583,0.0036461859,0.0012796336,-0.062033534,0.008117844,0.07185068,0.4462408,-1.3839715,1.9085516,-2.0992582,-1.5639108,2.4106266,-0.17859536,0.24811462,-0.29932916,0.018622087,0.053180948,-0.2500872,-0.24899697,0.36391866,-9.461885,0.9545008,47.675243,-0.9923384,-1.8980795,-3.5674942,-0.10049837,0.20316541,-0.17829269,28.125,29.25,28.5,32.4375,34.625,35.625
0.34605214,-0.8352438,-1.2897044,-0.21155493,-0.019436946,0.026648616,-0.18418232,-0.4100084,-0.34739873,0.060055967,3.073485,-0.60671884,-0.00029818903,-0.16755794,0.0044072694,0.0010790626,-0.06251868,0.008388034,0.0636297,0.44589183,-1.3834667,1.9079303,-2.0992224,-1.5637668,2.4101617,-0.18083408,0.2488773,-0.29968515,0.017774308,0.0534989,-0.24409945,-0.21068975,0.3256114,-9.32781,0.9567419,47.64479,-0.9202304,-1.788089,-3.6001277,-0.08467108,0.18079841,-0.22737259,28.125,29.25,28.5,32.4375,34.625,35.625
0.34805247,-1.0698242,-0.97968745,0.07223505,-0.01057116,0.028689507,-0.18037075,-0.4103487,-0.3473866,0.060057532,3.0733757,-0.60656613,-0.00030455564,-0.17045553,0.003724716,0.0023163625,-0.06421185,0.011516521,0.055563692,0.4455195,-1.3829737,1.9073433,-2.099211,-1.5636586,2.409708,-0.18197228,0.25125402,-0.30533636,0.017492946,0.05366043,-0.23716415,-0.34476504,0.28730422,-9.232041,0.8672237,47.68599,-0.94766587,-1.7183361,-3.499055,-0.049617883,0.16833067,-0.29883948,28.125,29.25,28.5,32.4375,34.625,35.625
0.35005173,-0.7603871,-0.7609406,-0.15970981,0.017506242,0.024562929,-0.17768894,-0.41071308,-0.34739482,0.060076863,3.0732388,-0.60634744,-0.00033208804,-0.17113167,0.00260759,0.00261257,-0.06528393,0.011303438,0.05165772,0.44514796,-1.3824565,1.9066843,-2.0991862,-1.5635265,2.4092174,-0.1810603,0.25337902,-0.3088909,0.018665908,0.054729406,-0.2323343,-0.22984336,0.24899697,-9.11712,0.82694155,47.677036,-1.1023943,-1.79249,-3.4571702,-0.04856965,0.13931815,-0.37203547,28.125,29.25,28.5,32.4375,34.625,35.625
0.35205182,-0.97883785,-0.38252866,-0.039100092,0.014313302,0.015394729,-0.18469599,-0.41106254,-0.3473831,0.06006026,3.0731518,-0.6061731,-0.00033264403,-0.17146082,0.00082499644,0.002701739,-0.06635647,0.011086909,0.057430144,0.44477698,-1.3819144,1.9060854,-2.099198,-1.5634302,2.4087486,-0.17873801,0.2561457,-0.31266007,0.019466095,0.055833977,-0.23577484,-0.21068975,0.34476504,-9.097966,0.8851263,47.684196,-1.1762145,-1.8151801,-3.3064094,-0.05034378,0.09695138,-0.40860558,28.125,29.25,28.5,32.4375,34.625,35.625
0.35405216,-1.0608606,-0.781767,0.22143717,0.016103357,0.03487297,-0.17607698,-0.4113788,-0.34738776,0.060068026,3.0730639,-0.6058998,-0.00028643,-0.1718973,0.0016862192,0.003968911,-0.06472155,0.014135696,0.068342164,0.44444093,-1.3814348,1.9054884,-2.0991375,-1.5632995,2.408253,-0.17872822,0.2535194,-0.31273437,0.020257372,0.053137448,-0.24668702,-0.22984336,0.2873042,-8.963891,0.8291774,47.677036,-1.3771107,-1.8372141,-3.3096285,-0.032565936,0.087553784,-0.3357407,28.125,29.25,28.5,32.4375,34.625,35.625
0.35605243,-1.0628108,-0.10874264,0.07642028,0.013793453,0.042060126,-0.1845911,-0.41175276,-0.34736398,0.060092077,3.0729835,-0.60564667,-0.00037029822,-0.17247654,0.002322193,0.0025617126,-0.061988827,0.012198088,0.08098131,0.44404465,-1.3809414,1.9048432,-2.0991018,-1.5632275,2.407709,-0.17915678,0.2574541,-0.31451973,0.021173863,0.051621355,-0.2597552,-0.24899697,0.22984336,-9.155427,0.97464454,47.664497,-1.4346652,-1.6464255,-3.3669357,-0.021063581,0.09078549,-0.19972849,28.125,29.25,28.5,32.4375,34.625,35.625
0.35805258,-0.70074713,-0.27715743,0.102101624,0.010372821,0.05766382,-0.18594016,-0.41209003,-0.34737587,0.060086966,3.0728908,-0.6054164,-0.00028091183,-0.173217,0.0033161088,0.0011651904,-0.060615145,0.009040374,0.08063591,0.44369614,-1.3803877,1.9041847,-2.0990293,-1.5630835,2.4072282,-0.18138865,0.26106343,-0.31608176,0.022637444,0.051768616,-0.26163906,-0.038307227,0.24899697,-9.212888,0.97464454,47.688675,-1.3778963,-1.8538773,-3.3120008,-0.047332745,0.076131575,-0.13636166,28.125,29.25,28.5,32.4375,34.625,35.625
0.36005172,-1.1005374,-0.2598151,0.1804777,0.0008475508,0.04309654,-0.17848316,-0.41242546,-0.34736967,0.06007491,3.0728827,-0.605075,-0.0002859618,-0.17463256,0.004588298,0.000141377,-0.05760826,0.008159654,0.07235236,0.44337133,-1.3798456,1.9035634,-2.0989935,-1.5630249,2.406691,-0.18310949,0.2645873,-0.31823027,0.023337983,0.049410697,-0.25508353,-0.19153613,0.19153613,-9.174581,0.9298854,47.66539,-1.319406,-1.8438675,-3.436246,-0.03447693,0.088631675,-0.16791406,28.125,29.25,28.5,32.4375,34.625,35.625
0.36205187,-0.5948213,-0.44625592,0.1871878,0.009785614,0.03768103,-0.17751662,-0.41279283,-0.3473701,0.06007844,3.0727668,-0.6048661,-0.00027002036,-0.17638978,0.006254696,3.1169857e-05,-0.05457909,0.010335639,0.06105157,0.44298685,-1.379293,1.9028944,-2.0989578,-1.5628937,2.4061909,-0.18493095,0.26567066,-0.31923833,0.02258716,0.045713034,-0.24561672,-0.2681506,0.24899697,-9.136273,0.8672237,47.666286,-1.2890352,-1.9869273,-3.4562721,-0.012894373,0.101872355,-0.2775076,28.125,29.25,28.5,32.4375,34.625,35.625
0.36405212,-0.56222373,-0.2244679,0.05049769,0.009055319,0.026030509,-0.17131896,-0.41316634,-0.34732687,0.060074504,3.0726957,-0.6047612,-0.0003070847,-0.17770442,0.0070522963,-0.00027504098,-0.05315879,0.011149911,0.050706625,0.44256678,-1.3787637,1.9022721,-2.098934,-1.5628341,2.4057145,-0.18614364,0.26744154,-0.32065874,0.022077072,0.044051707,-0.2364882,-0.17238252,0.2681506,-9.097966,0.9545008,47.634937,-1.2264259,-2.0100815,-3.4802854,-0.01141294,0.1288861,-0.4222536,28.125,29.25,28.5,32.4375,34.625,35.625
0.36605236,-0.48165873,-0.47894853,0.31785408,0.0015955179,0.025198717,-0.18816997,-0.4134958,-0.3473213,0.06006469,3.072659,-0.60458255,-0.00027208793,-0.18063718,0.008364548,0.00059473823,-0.052335344,0.013461617,0.047556184,0.4422414,-1.3782227,1.9016379,-2.098862,-1.5627631,2.4052823,-0.18956855,0.26887652,-0.32467273,0.022958878,0.04232868,-0.23676853,-0.13407528,0.24899697,-9.174581,0.9567419,47.64479,-1.1935875,-2.0128026,-3.515509,0.0015147994,0.15303487,-0.5165977,28.125,29.25,28.5,32.4375,34.625,35.625
0.3680526,-0.94026875,-1.041495,0.3138111,-0.0035287524,0.014003789,-0.18056366,-0.4138737,-0.34729117,0.060061876,3.0725968,-0.6043888,-0.000294944,-0.18088679,0.00901907,-0.00034762223,-0.05013585,0.0119654415,0.059681732,0.4418335,-1.3776692,1.9009808,-2.0988252,-1.5626911,2.4047613,-0.18991204,0.2712332,-0.32573104,0.024092479,0.041087102,-0.24924114,-0.05746084,0.3256114,-9.078813,0.9992599,47.67345,-1.2140131,-1.9605265,-3.4310546,0.007219498,0.17790526,-0.44339105,28.125,29.25,28.5,32.4375,34.625,35.625
0.37005264,-0.76999766,-0.8374411,0.23332396,-0.010112161,0.017002858,-0.17996117,-0.41421938,-0.34728837,0.06004527,3.0725532,-0.6041422,-0.00023898427,-0.18207888,0.009285352,0.00052225037,-0.04996382,0.013897432,0.07429618,0.44148517,-1.3770927,1.9003223,-2.0987651,-1.5625957,2.4042645,-0.19060731,0.2711619,-0.32794347,0.024868645,0.040214237,-0.2645547,-0.076614454,0.30645782,-8.925584,0.96569055,47.664497,-1.1432943,-1.8993806,-3.445887,-0.001605815,0.21679278,-0.2798858,28.125,29.25,28.5,32.4375,34.625,35.625
0.3720518,-0.775593,-1.1333585,-0.043945305,-2.3785875e-05,0.02082123,-0.17678338,-0.4145768,-0.3472549,0.06002796,3.0725484,-0.60383147,-0.00019085531,-0.18336411,0.00895686,0.0010004087,-0.050317027,0.015531559,0.07954188,0.44108924,-1.3765279,1.8996762,-2.0986936,-1.5625237,2.4036748,-0.19067284,0.27248457,-0.33071318,0.024766851,0.039878454,-0.26986665,-0.28730422,0.3256114,-9.059659,0.9701675,47.65912,-1.1240939,-1.948703,-3.4473195,0.011285296,0.20823047,-0.15690601,28.125,29.25,28.5,32.4375,34.625,35.625
0.37405202,-1.0691876,-0.65001816,-0.038623743,-0.005611028,0.022838688,-0.17003486,-0.4149452,-0.347246,0.060034852,3.0724444,-0.6035859,-0.00022641761,-0.1841365,0.009876796,0.00090967026,-0.05044789,0.014570796,0.071739756,0.44070464,-1.3759992,1.8990315,-2.0986812,-1.5624155,2.40315,-0.19300438,0.2730521,-0.3315546,0.025850933,0.040414296,-0.2643895,-0.24899697,0.22984336,-9.232041,0.96569055,47.677036,-1.0692315,-1.8113973,-3.3686619,0.015591431,0.21402839,-0.2055491,28.125,29.25,28.5,32.4375,34.625,35.625
0.37605247,-1.141907,-0.55274725,0.11367802,-0.0061289845,0.038722795,-0.17800967,-0.4153003,-0.3472298,0.0600189,3.0724432,-0.60336065,-0.00019755417,-0.18593709,0.0106084645,0.0012758501,-0.049906623,0.015059753,0.06196949,0.44035596,-1.37541,1.8983496,-2.0985968,-1.5623673,2.4026608,-0.19507767,0.27468646,-0.33478644,0.027202044,0.03967796,-0.25669444,-0.47884032,0.21068975,-9.232041,0.97240865,47.652847,-0.96663564,-1.7561209,-3.4459991,0.005753598,0.25414863,-0.30388457,28.125,29.25,28.5,32.4375,34.625,35.625
