Tylouw/Master_Thesis_Code/training_data/batch_1/small_rod_t0.2/sample_12_session_1.csv
timestamp[s],tcp_force_x[N],tcp_force_y[N],tcp_force_z[N],tcp_force_rx[Nm?],tcp_force_ry[Nm?],tcp_force_rz[Nm?],tcp_pose_x[m],tcp_pose_y[m],tcp_pose_z[m],tcp_pose_rx[rot_vec_x],tcp_pose_ry[rot_vec_y],tcp_pose_rz[rot_vec_z],tcp_velo_x[m/s],tcp_velo_y[m/s],tcp_velo_z[m/s],tcp_velo_rx[rot_vec_x/s],tcp_velo_ry[rot_vec_y/s],tcp_velo_rz[rot_vec_z/s],q1[rad],q2[rad],q3[rad],q4[rad],q5[rad],q6[rad],qd1[rad/s],qd2[rad/s],qd3[rad/s],qd4[rad/s],qd5[rad/s],qd6[rad/s],tool_acc_x,tool_acc_y,tool_acc_z,current_of_whole_robot[A],voltage_of_whole_robot[V],current_J1[A],current_J2[A],current_J3[A],current_J4[A],current_J5[A],current_J6[A],temp_J1[C],temp_J2[C],temp_J3[C],temp_J4[C],temp_J5[C],temp_J6[C]
6.260234e-07,-0.9823901,-1.3845439,0.10493838,-0.027112126,0.020965664,-0.0075677466,-0.381068,-0.3485525,0.059985243,-3.0785785,0.62485135,-0.00016676563,0.0015610487,0.00076639734,-0.0013145818,0.0015451737,-0.0032463814,-1.8016173e-06,0.47781014,-1.425934,1.9576787,-2.1008327,-1.5707215,2.4527402,0.0,-2.2354241e-05,0.002856554,0.0007586672,0.00012857554,-1.8003114e-08,0.11492168,0.1340753,-8.695741,0.6702794,47.677036,0.014839221,-2.7562027,-2.3091874,-0.45084047,0.14252469,0.1518931,27.6875,28.8125,28.0,31.875,33.9375,34.8125
0.002051966,-0.42825988,-0.87757206,0.28535637,-0.037755955,0.037568178,-0.01726054,-0.38105452,-0.3485302,0.059964765,-3.0785196,0.6248011,-0.00014817166,-0.0004852543,-0.0002984598,-0.002512525,-0.0019906627,0.0035393254,-5.064247e-07,0.47782207,-1.4259334,1.9577287,-2.1008499,-1.5707816,2.4527283,0.0,0.0021183405,0.0061275014,-0.012304629,0.00012500345,-1.1754746e-09,0.095768064,0.1340753,-8.695741,0.7418897,47.679718,0.097807355,-2.676999,-2.560369,-0.37636673,0.11933881,0.16578752,27.6875,28.8125,28.0,31.875,33.9375,34.8125
0.004052233,-0.36227664,-0.8955131,0.18330961,-0.030551298,0.028103981,-0.013935613,-0.38103068,-0.34854224,0.059933886,-3.078531,0.624784,-0.00025374,-0.0012468471,-0.000694888,-0.0029556742,-0.0021537517,0.0038488908,7.4901806e-07,0.47783422,-1.4258965,1.9577626,-2.1008732,-1.5707334,2.4527283,0.0,0.004366232,0.00488738,-0.013662285,0.00012162492,-7.67501e-11,0.22984336,0.11492168,-8.619126,0.6926589,47.716442,0.011901163,-3.1108906,-2.7452366,-0.29526007,0.14534637,0.15291004,27.6875,28.8125,28.0,31.875,33.9375,34.8125
0.006052345,0.3989862,-0.26934195,0.055991728,-0.011471202,0.023452215,-0.023981513,-0.38105014,-0.348541,0.0599478,-3.0785544,0.62477,-0.00018363069,-0.0008292735,-0.00047580997,-0.0017525499,-0.0014815809,0.0025745425,4.3033435e-07,0.47782207,-1.425909,1.9577502,-2.1008956,-1.5707458,2.4527044,0.0,0.0026221904,0.0029629893,-0.008553116,0.00011842366,-5.0112327e-12,0.019153614,0.17238252,-8.504205,0.7418897,47.694946,0.06149365,-3.0815778,-2.6517131,-0.31223974,0.124434285,0.1560354,27.6875,28.8125,28.0,31.875,33.9375,34.8125
0.008052288,0.5885483,0.62566686,-0.3854611,0.014255149,-0.0052523175,-0.027497828,-0.38103953,-0.34852457,0.059923712,-3.0784972,0.6248922,-0.00021645859,-0.0007075782,-0.0004109492,-0.00052631524,-0.0012606522,0.0021655937,3.2592087e-07,0.47781014,-1.4258977,1.9577974,-2.100918,-1.5707573,2.452776,0.0,0.0010110383,0.0011007186,-0.0046149353,0.00011538687,-3.2719771e-13,0.05746084,0.21068975,-8.7532015,0.7418897,47.66987,0.07270189,-2.9863374,-2.594234,-0.36432222,0.14140344,0.15922615,27.6875,28.8125,28.0,31.875,33.9375,34.8125
0.0100523215,0.2760014,-0.16127168,-1.0790375,0.02540179,-0.005839631,-0.013119746,-0.38105023,-0.3485389,0.059936613,-3.078538,0.624824,-0.00022505903,-0.00077029923,-0.00044988107,0.0003893074,-0.0015137199,0.0026192633,2.2808248e-07,0.47781014,-1.4258862,1.9577492,-2.1008937,-1.5707334,2.4527283,0.0,-0.00030976426,0.000104464096,-0.0028171716,0.00013349605,-2.1363672e-14,0.15322891,0.22984336,-9.021352,0.79560274,47.679718,-0.19732073,-2.2495048,-3.1036105,-0.37160003,0.11322098,0.106773764,27.6875,28.8125,28.0,31.875,33.9375,34.8125
0.012052232,-0.07768108,-1.2007629,-1.1467893,-0.01798706,0.021651095,-0.012542296,-0.3810689,-0.34854206,0.059940167,-3.0785267,0.62480253,-0.00016448322,-0.0006136468,-0.000329061,-0.0026832456,0.0018354484,-0.003804486,-5.9341364e-05,0.47782204,-1.4258597,1.9577135,-2.1009047,-1.5707697,2.4527283,-6.159845e-05,0.0074214013,-0.002069292,-0.0011301248,0.000112548034,-1.394895e-15,0.076614454,0.15322891,-9.308657,0.76874626,47.688675,-0.39165604,-2.2243214,-3.3646588,-0.36871582,0.12769532,0.07251383,27.6875,28.8125,28.0,31.875,33.9375,34.8125
0.014052452,-1.2799305,-2.366525,-1.367281,-0.04889974,0.03122031,-0.007209596,-0.38104635,-0.34851122,0.05992041,-3.0784616,0.62481225,-0.00025467036,-0.0051215235,0.0005028341,-0.003779307,0.0027833665,-0.0056555043,-0.005710374,0.47779584,-1.4258682,1.9577574,-2.1008565,-1.5707816,2.4527164,-0.0057178093,0.016309988,-0.00993461,-7.378907e-05,0.00010732666,-9.1076675e-17,0.019153614,0.22984336,-9.423578,0.71951014,47.687782,-0.34810668,-2.8947163,-3.1362667,-0.37676263,0.10394393,0.035476275,27.6875,28.8125,28.0,31.875,33.9375,34.8125
0.016052442,-1.7853414,-2.5685651,-1.527387,-0.08030276,0.057471253,-0.014352203,-0.38104758,-0.348496,0.059900105,-3.0783951,0.6247774,-0.00033536664,-0.0056554773,0.001840037,-0.0028775518,0.003169368,-0.0063857096,-0.0044927928,0.4777831,-1.4258091,1.9577225,-2.1007955,-1.5708054,2.4526904,-0.008586433,0.014477256,-0.010681778,0.003331211,0.00010466463,-0.0040868074,-0.22984336,0.21068975,-9.500193,0.7105615,47.694946,-0.08915299,-2.655252,-3.2367125,-0.39075577,0.11565523,0.031527683,27.6875,28.8125,28.0,31.875,33.9375,34.8125
0.01805164,-2.044652,-2.8638382,-1.7485075,-0.08442773,0.078091145,-0.016569074,-0.3810266,-0.3485071,0.05988384,-3.0784187,0.6247802,-0.00043808593,-0.0049856543,0.0017628339,-0.0033931,0.004369447,-0.00869461,-0.00038842455,0.4777835,-1.4257966,1.9577454,-2.100795,-1.5707458,2.4526894,-0.007828636,0.015654298,-0.011312532,0.005386841,0.00010227509,-0.007433285,-0.30645782,0.4213795,-9.691729,0.7486078,47.689575,-0.31196475,-2.425399,-3.5375652,-0.4225889,0.1015431,0.04640131,27.6875,28.8125,28.0,31.875,33.9375,34.8125
0.020051628,-1.9993873,-2.337579,-1.9160608,-0.08388544,0.099306524,-0.02585611,-0.38105083,-0.3484906,0.05987743,-3.078368,0.6248275,-0.0004575018,-0.006338288,0.0016086858,-0.003268191,0.003766905,-0.0075420975,-0.0004234252,0.47774723,-1.4257482,1.9576968,-2.1007597,-1.5707697,2.4526892,-0.008806336,0.017234318,-0.0131657,0.0043591512,0.00010000111,-0.00837459,-0.2873042,0.45968673,-9.80665,0.7463667,47.67614,-0.4156651,-2.3648584,-3.4408667,-0.4251724,0.08453795,0.051455,27.6875,28.8125,28.0,31.875,33.9375,34.8125
0.022051863,-2.0826983,-2.2713726,-1.9355544,-0.07472324,0.09986552,-0.027387071,-0.3810463,-0.34850562,0.05985683,-3.0783675,0.6248668,-0.0005636511,-0.0083628,0.0009534564,-0.0027568538,0.0025415865,-0.005195205,-0.0007606784,0.47774678,-1.4256876,1.957672,-2.1007478,-1.5707215,2.4527133,-0.009516373,0.019421404,-0.016483221,0.0028424459,9.7827266e-05,-0.008745049,-0.5554548,0.40222588,-9.80665,0.7665104,47.675243,-0.44391516,-2.4064045,-3.488511,-0.3990934,0.09153019,0.011585325,27.6875,28.8125,28.0,31.875,33.9375,34.8125
0.024052532,-2.047975,-1.9726326,-1.9726688,-0.078820676,0.105473675,-0.046344414,-0.38106236,-0.3484891,0.059846062,-3.0783513,0.6248635,-0.00056610594,-0.00931332,0.0013397345,-0.0030367274,0.0025565953,-0.0052275765,-0.0017158467,0.47771028,-1.425663,1.9576715,-2.1007602,-1.5707334,2.4526768,-0.011082096,0.020802135,-0.017296871,0.0023108365,9.574555e-05,-0.009354864,-0.5554548,0.45968673,-9.902418,0.6948948,47.703007,-0.48677504,-2.482214,-3.5333161,-0.3839718,0.06724945,-0.0073692226,27.6875,28.8125,28.0,31.875,33.9375,34.8125
0.026052222,-2.1873512,-1.7821157,-1.7486689,-0.08408439,0.09221408,-0.044054847,-0.38108748,-0.3485154,0.059846524,-3.0783894,0.62479466,-0.0005205346,-0.011262392,0.0013228314,-0.0018906287,0.0012734993,-0.0027239947,-0.0021921843,0.4777337,-1.4256032,1.9576105,-2.1007965,-1.5707334,2.4526525,-0.012844537,0.020975107,-0.020065628,0.002093302,7.746111e-05,-0.010639461,-0.59376204,0.40222588,-9.902418,0.78217715,47.694054,-0.5428511,-2.3671155,-3.471395,-0.35015613,0.057803974,-0.013411563,27.6875,28.8125,28.0,31.875,33.9375,34.8125
0.028052349,-1.9245988,-2.0560908,-1.7546996,-0.06853382,0.09460986,-0.059257444,-0.38112286,-0.3485001,0.059852093,-3.0783498,0.6248445,-0.00048643022,-0.012313861,0.0014837295,-0.0014007004,0.0010035118,-0.0022006915,-0.0023603872,0.47769728,-1.425567,1.9575509,-2.1007717,-1.5707697,2.4526522,-0.014100798,0.021514408,-0.02197963,0.0028786042,7.3630734e-05,-0.011726618,-0.6512228,0.2681506,-9.768343,0.75084364,47.688675,-0.5618762,-2.333242,-3.545934,-0.3526845,0.069831885,-0.047565676,27.6875,28.8125,28.0,31.875,33.9375,34.8125
0.030052261,-1.57419,-1.1045765,-1.5057701,-0.061723515,0.097141676,-0.0840573,-0.38113454,-0.34848574,0.059822574,-3.078298,0.62483424,-0.00058921345,-0.013234841,0.001642751,-0.0013660606,0.0014573336,-0.0030451072,-0.0020052125,0.47766086,-1.4254825,1.9575137,-2.100735,-1.5707697,2.452616,-0.015224846,0.02332781,-0.024508502,0.004552419,5.521016e-05,-0.013204582,-0.61291564,0.24899697,-9.844957,0.7396539,47.689575,-0.51816726,-2.3410952,-3.477004,-0.35732704,0.06043174,-0.03679647,27.6875,28.8125,28.0,31.875,33.9375,34.8125
0.032052156,-1.3690306,-1.1037683,-1.4211727,-0.027720226,0.09415993,-0.08205934,-0.38119045,-0.34849903,0.059838887,-3.0783408,0.62490046,-0.0005135773,-0.01423203,0.0017257546,-0.0015008423,0.001467529,-0.0030674147,-0.0022575879,0.47762465,-1.425434,1.9574293,-2.1007712,-1.5707573,2.4526157,-0.016292853,0.02505706,-0.026161483,0.004500693,5.311713e-05,-0.014019088,-0.63206923,0.1340753,-9.825804,0.784413,47.689575,-0.5284256,-2.383484,-3.4580798,-0.35905328,0.057187602,-0.022855612,27.6875,28.8125,28.0,31.875,33.9375,34.8125
0.03405271,-1.5043272,-0.61658114,-1.3005477,-0.008290196,0.08733451,-0.094082534,-0.3812275,-0.3484887,0.059827752,-3.0783272,0.62493604,-0.0005545841,-0.015194139,0.001350418,-0.0013236554,0.0011092245,-0.002112828,-0.002318866,0.47756448,-1.4253616,1.9573697,-2.1007597,-1.5707458,2.4525795,-0.016432963,0.026446871,-0.028032027,0.00396957,-7.3250085e-05,-0.014096396,-0.47884035,-0.038307227,-9.768343,0.8560339,47.72808,-0.5043952,-2.3399062,-3.5130668,-0.35104743,0.052766845,-0.03759373,27.6875,28.8125,28.0,31.875,33.9375,34.8125
0.036052287,-1.1461424,-0.096379995,-1.1747165,-0.006335936,0.09033887,-0.10703259,-0.38123372,-0.34851623,0.059827313,-3.0783796,0.6249087,-0.00058607006,-0.017014591,0.0007687204,-0.00032073222,-0.00021702275,0.0004431027,-0.0032593987,0.47757635,-1.4253254,1.957332,-2.1007717,-1.5706977,2.4525676,-0.017081104,0.027412046,-0.031293485,0.0033870398,-7.8155164e-05,-0.013802082,-0.4213795,-0.076614454,-9.595961,0.7597976,47.694946,-0.5983868,-2.2810435,-3.4526248,-0.32744023,0.039612956,-0.04332221,27.6875,28.8125,28.0,31.875,33.9375,34.8125
0.038052265,-1.4567326,-0.17228565,-1.2839701,0.00038511265,0.07114885,-0.11213886,-0.38128704,-0.34850374,0.059839975,-3.0783412,0.624959,-0.0005505875,-0.018610857,0.0004400841,0.00037054266,-0.00097701,0.0019323386,-0.004375008,0.47752804,-1.425265,1.9572233,-2.1007235,-1.5707334,2.4525557,-0.017962283,0.028724134,-0.0343987,0.0035078367,-9.386068e-05,-0.013565873,-0.36391866,-0.1340753,-9.500193,0.7396539,47.67614,-0.5895562,-2.2280855,-3.3783965,-0.29937035,0.028885761,-0.06427894,27.6875,28.8125,28.0,31.875,33.9375,34.8125
0.040052164,-1.3827176,-0.39710873,-1.2931628,0.0038770882,0.054501656,-0.13200624,-0.38135633,-0.3485193,0.059858028,-3.0784042,0.62495303,-0.00043374542,-0.019442126,0.00072797225,0.00027704277,-0.0005316119,0.0011391448,-0.005188153,0.4774915,-1.4252044,1.9571265,-2.100783,-1.5707334,2.4525075,-0.019220326,0.030330876,-0.03629028,0.004701891,-0.0001250742,-0.014009752,-0.28730422,-0.17238252,-9.442732,0.76874626,47.684196,-0.52101487,-2.3356295,-3.3237615,-0.29417765,0.02289883,-0.07286088,27.6875,28.8125,28.0,31.875,33.9375,34.8125
0.042052127,-0.71134293,-0.6778398,-1.097153,-0.0050994786,0.060971837,-0.13690157,-0.38135144,-0.34847635,0.059822988,-3.0782952,0.62496877,-0.0005447177,-0.01995867,0.0011347259,0.0003605266,0.00010821367,-4.4060534e-06,-0.0060173986,0.47744325,-1.4251562,1.957138,-2.1007226,-1.5707697,2.452483,-0.020393178,0.031236218,-0.03799471,0.006810243,-0.00016850937,-0.0143526755,-0.19153613,-0.22984336,-9.595961,0.75755644,47.689575,-0.5161093,-2.3029673,-3.2736044,-0.31556374,0.026083967,-0.09130305,27.6875,28.8125,28.0,31.875,33.9375,34.8125
0.044052012,-0.86492056,-1.1722578,-1.3786799,-0.0059242025,0.042017892,-0.14396995,-0.3813993,-0.34848326,0.05983658,-3.0783145,0.6249725,-0.00047556072,-0.020560587,0.0011908745,0.00063116365,0.0008435885,0.00027806973,-0.0055790315,0.47741926,-1.4251081,1.9570545,-2.100734,-1.5707821,2.4524589,-0.020538628,0.032009285,-0.039736807,0.00786885,-0.00095241104,-0.014934141,-0.15322891,-0.05746084,-9.5385,0.7486078,47.685097,-0.55819046,-2.2482514,-3.3810678,-0.31648284,0.007554152,-0.09708551,27.6875,28.8125,28.0,31.875,33.9375,34.8125
0.04605222,-0.4433232,-0.98447114,-1.4662095,-0.023611225,0.049993936,-0.16015352,-0.38144672,-0.34849837,0.05985268,-3.0783331,0.6250729,-0.000522291,-0.02204005,0.0011299986,0.0015944456,0.0006374353,0.002040398,-0.006089388,0.4773709,-1.425036,1.9569219,-2.1006744,-1.5707339,2.4524708,-0.021385679,0.032491278,-0.042670902,0.008663852,-0.0015836627,-0.01526818,-0.095768064,0.05746084,-9.481039,0.7217513,47.658226,-0.51854056,-2.182786,-3.3399496,-0.29924807,0.011879688,-0.12046005,27.6875,28.8125,28.0,31.875,33.9375,34.8125
0.048052154,-0.8052526,-1.512687,-1.3853623,-0.02370419,0.03924126,-0.16276826,-0.38151428,-0.34849477,0.059853204,-3.0783412,0.6250557,-0.0004819787,-0.02265469,0.001684746,0.0016788315,0.0015824059,0.0012426967,-0.0066753943,0.47731033,-1.4249401,1.9568137,-2.100685,-1.5707468,2.4523985,-0.022629453,0.033319477,-0.044239867,0.010548615,-0.0020554953,-0.015924508,-0.05746084,0.11492168,-9.519346,0.7486078,47.719128,-0.50974673,-2.1115985,-3.3113525,-0.32108253,0.01000627,-0.1360209,27.6875,28.8125,28.0,31.875,33.9375,34.8125
0.050052665,-0.86655796,-1.6093341,-1.4358337,-0.03410634,0.030126696,-0.17965525,-0.38153875,-0.34846506,0.059846118,-3.078279,0.6251197,-0.00051740184,-0.023273135,0.0018771787,0.00093934854,0.0022238262,-0.00048792185,-0.006711105,0.47725004,-1.4249032,1.956777,-2.1006372,-1.5707701,2.4523861,-0.023686942,0.03603743,-0.045805242,0.011226432,-0.0018334202,-0.016945556,-0.05746084,0.17238252,-9.557653,0.7642693,47.70032,-0.5306158,-2.1115034,-3.3475065,-0.32710117,0.002706694,-0.15303911,27.6875,28.8125,28.0,31.875,33.9375,34.8125
0.052052323,-0.81041163,-2.28845,-1.4925554,-0.051047232,0.032282848,-0.18441856,-0.38159782,-0.34846646,0.059864815,-3.0783033,0.62512434,-0.00050094945,-0.024154617,0.0016657535,0.0005798788,0.0021011883,-0.001121389,-0.0066896873,0.47718984,-1.4248425,1.9566568,-2.1006014,-1.5707577,2.4523258,-0.024380183,0.038519014,-0.047826517,0.011271052,-0.0014378554,-0.017659653,-0.019153614,0.2681506,-9.481039,0.7642693,47.709274,-0.52067375,-2.1155663,-3.3642397,-0.30466872,0.009313611,-0.1478465,27.6875,28.8125,28.0,31.875,33.9375,34.8125
0.054052275,-0.9185041,-2.6762428,-1.6804827,-0.061838422,0.029052077,-0.17577443,-0.381642,-0.34846935,0.059869714,-3.0782795,0.6251385,-0.00045049872,-0.025167502,0.0013744314,0.001862348,0.00080510014,0.00096485286,-0.006462849,0.47717765,-1.4247706,1.956561,-2.1005895,-1.570794,2.4523256,-0.024919076,0.0375462,-0.049752567,0.011719964,-0.0012480229,-0.01842506,-0.019153614,0.38307226,-9.500193,0.74413085,47.707485,-0.50310767,-2.0894065,-3.3578954,-0.32829773,-0.0039209407,-0.15696369,27.6875,28.8125,28.0,31.875,33.9375,34.8125
0.05605202,-0.7040435,-2.384028,-1.5275335,-0.078411736,0.041749276,-0.17921297,-0.3817105,-0.34847587,0.05989639,-3.0782907,0.6251793,-0.00035400037,-0.025994757,0.0013759221,0.002050143,0.00056050153,0.0012761686,-0.006557718,0.47714135,-1.4247108,1.9564289,-2.100577,-1.5708178,2.4523134,-0.025729256,0.03844811,-0.05126189,0.011937604,-0.0011756695,-0.019139731,0.019153614,0.47884035,-9.557653,0.7172743,47.69763,-0.47454706,-2.0147164,-3.3867564,-0.3304143,-0.0114181135,-0.18698928,27.6875,28.8125,28.0,31.875,33.9375,34.8125
0.058052003,-0.8622094,-2.5172086,-1.6728538,-0.06812382,0.0352226,-0.16506666,-0.38175038,-0.34847152,0.059894823,-3.078291,0.6251217,-0.00043590824,-0.027301667,0.0009682799,0.0019079056,0.00090274954,0.0005495549,-0.006041367,0.4770812,-1.4246255,1.9563187,-2.1005046,-1.570794,2.4522173,-0.026225965,0.041903637,-0.055167094,0.013190025,-0.0011529466,-0.020150524,0.0,0.5554548,-9.557653,0.7642693,47.696735,-0.48183364,-2.0544877,-3.3262377,-0.32818747,-0.010384842,-0.20265919,27.6875,28.8125,28.0,31.875,33.9375,34.8125
0.0600518,-1.1541666,-2.660712,-1.4787441,-0.051511344,0.034986787,-0.15654148,-0.38181508,-0.3484845,0.059903413,-3.07833,0.62514794,-0.0004426811,-0.02807688,0.00108694,0.0018959146,0.0009121688,0.00075529254,-0.00510698,0.47702092,-1.4245293,1.9561867,-2.1004927,-1.5707577,2.4521685,-0.027078971,0.0429527,-0.05632454,0.01312074,-0.0012588146,-0.021936983,-0.11492168,0.51714754,-9.500193,0.779936,47.67614,-0.49597144,-2.1234095,-3.2439933,-0.34064734,-0.026049066,-0.20635413,27.6875,28.8125,28.0,31.875,33.9375,34.8125
0.06205176,-1.2121581,-2.5890777,-1.5149868,-0.044938765,0.040100615,-0.1521588,-0.38190004,-0.34845477,0.05991108,-3.0782852,0.6252346,-0.00031382602,-0.028714048,0.0012089392,0.0003770881,0.0018340343,-0.0008899104,-0.004442389,0.47693664,-1.4244561,1.9560913,-2.1005175,-1.5708302,2.4521441,-0.027835589,0.046900187,-0.057057977,0.011789725,-0.0013267737,-0.023356868,-0.15322891,0.49799395,-9.442732,0.7978386,47.685097,-0.51774514,-2.1617546,-3.3934429,-0.3122173,-0.03801944,-0.20118237,27.6875,28.8125,28.0,31.875,33.9375,34.8125
0.06405256,-1.1234548,-2.302693,-1.3594551,-0.053574085,0.046764944,-0.15558212,-0.38191122,-0.34845138,0.059879027,-3.0782325,0.6252423,-0.0004417561,-0.030503541,0.0008996338,0.0017909624,0.0011042907,0.002496835,-0.0041368045,0.4769125,-1.4243484,1.9560307,-2.1004698,-1.5708183,2.4521315,-0.028342562,0.04677341,-0.06011324,0.011631344,-0.0022427454,-0.024165928,-0.076614454,0.4213795,-9.32781,0.7038487,47.711063,-0.52993274,-2.1312737,-3.3391938,-0.32337242,-0.04216267,-0.21148753,27.6875,28.8125,28.0,31.875,33.9375,34.8125
0.06605208,-1.1346711,-2.2237058,-1.2676147,-0.043726508,0.046784017,-0.15990843,-0.3819978,-0.34847322,0.059915937,-3.0783103,0.6253156,-0.00038485354,-0.03318703,-0.00027907162,0.003825624,-0.0011963028,0.0071001966,-0.003398547,0.47684035,-1.4242764,1.9558614,-2.100458,-1.5707706,2.4520953,-0.028667103,0.047468863,-0.06544294,0.011120932,-0.0023225544,-0.025225885,-0.038307227,0.36391866,-9.2703495,0.8224646,47.689575,-0.5624579,-2.0308948,-3.1263285,-0.32605574,-0.040725186,-0.23997346,27.6875,28.8125,28.0,31.875,33.9375,34.8125
0.06805207,-0.6981884,-1.5321574,-1.0154591,-0.051320557,0.058675226,-0.16039641,-0.38206187,-0.34850457,0.059937015,-3.0783744,0.62527007,-0.0003129977,-0.032332174,0.00015731996,0.0016698383,0.0005589245,0.0031846205,-0.0023151147,0.47682843,-1.4241912,1.9557189,-2.1004698,-1.5707577,2.4520469,-0.028806988,0.050593946,-0.06402853,0.010865079,-0.0020810678,-0.026449982,-0.05746084,0.30645782,-9.289502,0.7933669,47.68599,-0.6143461,-2.0875518,-3.2927213,-0.31866428,-0.05441249,-0.262939,27.6875,28.8125,28.0,31.875,33.9375,34.8125
0.070051804,-0.7688629,-1.8468097,-0.92792815,-0.03472928,0.06108083,-0.16023242,-0.3821259,-0.3484882,0.05993423,-3.0783455,0.6252838,-0.00030235827,-0.03404996,-0.000388108,0.0020037275,-0.00035451984,0.0044051665,-0.0019058287,0.47675604,-1.4240947,1.9556097,-2.1004465,-1.5707821,2.4519868,-0.02957624,0.05295172,-0.06736812,0.010341392,-0.0018385445,-0.027626807,-0.17238252,0.24899697,-9.289502,0.784413,47.672558,-0.62442344,-2.1355357,-3.184377,-0.30301413,-0.07009449,-0.2389696,27.6875,28.8125,28.0,31.875,33.9375,34.8125
0.07205262,-1.1114632,-1.3878795,-0.9391871,-0.03832976,0.058564205,-0.16240689,-0.38219535,-0.34847298,0.05990992,-3.0782802,0.6252304,-0.0003281965,-0.03489706,-0.0007688353,0.0024561223,-0.00077122165,0.005126716,-0.0006829812,0.47669604,-1.4239266,1.9554652,-2.1004102,-1.5708302,2.451902,-0.029697826,0.053876914,-0.06956681,0.010780719,-0.0018051128,-0.028970053,-0.17238252,0.22984336,-9.32781,0.7329411,47.66808,-0.6818023,-2.1122983,-3.1069565,-0.2989821,-0.07569309,-0.24951804,27.6875,28.8125,28.0,31.875,33.9375,34.8125
0.07405175,-1.230536,-1.5174996,-0.83820397,-0.017608942,0.062152866,-0.15321325,-0.3822704,-0.34849566,0.059934806,-3.078331,0.6253547,-0.00030307504,-0.03552522,-0.000856876,0.0022822353,0.00010842543,0.0048065768,0.0009042519,0.47663608,-1.4238418,1.9553088,-2.1003978,-1.5707825,2.451913,-0.029701982,0.05581025,-0.071548365,0.011520292,-0.0024410242,-0.03055922,-0.30645782,0.15322891,-9.232041,0.8537928,47.70211,-0.6862818,-2.1358547,-3.1444821,-0.30649114,-0.080756545,-0.26086196,27.6875,28.8125,28.0,31.875,33.9375,34.8125
0.076052025,-1.0445505,-0.87493354,-0.679614,-0.02459986,0.07157862,-0.16023803,-0.38235,-0.34849668,0.059967235,-3.0783513,0.6252628,-0.00020943116,-0.036833853,-0.0008681374,0.002630227,0.00057211355,0.0062714564,0.0016615972,0.4765879,-1.4237697,1.9551414,-2.1003501,-1.5708188,2.451805,-0.030177003,0.057146586,-0.073842436,0.011391583,-0.003529066,-0.03178835,-0.28730422,0.15322891,-9.174581,0.8090337,47.670765,-0.7421787,-2.0779958,-3.1327949,-0.30696893,-0.063795656,-0.26707718,27.6875,28.8125,28.0,31.875,33.9375,34.8125
0.07805206,-0.64185756,-0.9881053,-0.7027368,-0.016278658,0.07952518,-0.16247995,-0.38241214,-0.34850365,0.05995185,-3.0783508,0.625281,-0.00026296335,-0.037820894,-0.0007297961,0.0026263015,0.0014384175,0.006709313,0.0023285893,0.47652775,-1.4236253,1.9550089,-2.1003373,-1.5707954,2.4517565,-0.030694338,0.05878258,-0.0757809,0.011706213,-0.004504065,-0.032969646,-0.22984336,0.11492168,-9.174581,0.7597976,47.684196,-0.79415345,-2.083631,-3.093061,-0.2666855,-0.077650145,-0.26754612,27.6875,28.8125,28.0,31.875,33.9375,34.8125
0.080051966,-0.9632786,-0.65706855,-0.8922648,-0.023239039,0.06634705,-0.15520932,-0.3825073,-0.348488,0.059959274,-3.0783293,0.6252762,-0.00018444167,-0.03885999,-0.0005105633,0.002749403,0.0028314132,0.0071282443,0.0029082363,0.4764437,-1.4235051,1.954852,-2.1003258,-1.570844,2.4516723,-0.031104088,0.06045975,-0.078217104,0.012734846,-0.0059360038,-0.03395529,-0.22984336,0.1340753,-9.174581,0.7530795,47.666286,-0.86231405,-2.1090784,-3.1035743,-0.26896456,-0.08033071,-0.26584637,27.6875,28.8125,28.0,31.875,33.9375,34.8125
0.082052596,-1.5636193,-1.2811044,-0.8131621,-0.011963683,0.055289276,-0.14363891,-0.38256243,-0.34849358,0.05994544,-3.0783088,0.62527275,-0.00025468852,-0.040591344,-0.00022218416,0.0034704178,0.003840936,0.009662674,0.0029879138,0.47639525,-1.4233608,1.954708,-2.1002781,-1.5708326,2.4516244,-0.031865582,0.061342165,-0.080879815,0.012733304,-0.008002829,-0.034790877,-0.22984336,0.15322891,-9.232041,0.7597976,47.668976,-0.9033651,-2.1127028,-3.091073,-0.2750061,-0.046944235,-0.2821907,27.6875,28.8125,28.0,31.875,33.9375,34.8125
0.0840524,-1.1786604,-0.9149695,-0.9103243,-0.020417975,0.065226465,-0.15207198,-0.38265005,-0.3485027,0.059962925,-3.0783348,0.62533414,-0.0002105834,-0.041022334,0.0004963151,0.0019085683,0.007177467,0.007219063,0.0028920046,0.47632322,-1.4232514,1.9545401,-2.1002653,-1.5708212,2.4515874,-0.032335445,0.06548298,-0.082262084,0.013682687,-0.009846388,-0.035160698,-0.2681506,0.15322891,-9.212888,0.7665104,47.691364,-0.9475335,-2.1317186,-3.0338943,-0.2869924,-0.031484153,-0.3025266,27.6875,28.8125,28.0,31.875,33.9375,34.8125
0.08605157,-0.9273831,-1.098016,-1.0505941,-0.021025892,0.07996971,-0.152737,-0.38272575,-0.3485082,0.05997869,-3.0783365,0.62525743,-0.00014556886,-0.04229177,0.0010523418,0.0026901187,0.008608996,0.009649297,0.0031802657,0.47628698,-1.4231435,1.9543728,-2.1002295,-1.5708579,2.4515033,-0.032935902,0.06533687,-0.08396632,0.014036452,-0.012235023,-0.036044624,-0.22984336,0.095768064,-9.308657,0.7620334,47.677036,-0.96347,-2.218888,-3.021914,-0.28037328,0.0041854335,-0.30614343,27.6875,28.8125,28.0,31.875,33.9375,34.8125
0.08805251,-1.1528,-1.4815124,-1.0930771,-0.024368213,0.07791658,-0.14798637,-0.3828269,-0.34848675,0.059960887,-3.0782948,0.6252478,-0.00014072757,-0.04266397,0.0008088918,0.002759932,0.008051353,0.009097395,0.0051808683,0.47617882,-1.422963,1.9542044,-2.100217,-1.5708936,2.4513946,-0.033318628,0.06623815,-0.08532253,0.01472028,-0.011488983,-0.038428348,-0.30645782,0.17238252,-9.385271,0.78217715,47.68062,-0.9362093,-1.9748904,-3.0990171,-0.27625966,0.012735415,-0.3100178,27.6875,28.8125,28.0,31.875,33.9375,34.8125
0.0900524,-1.0265079,-1.4777173,-1.1421516,-0.04005694,0.074727826,-0.15309115,-0.38288805,-0.34849808,0.059969038,-3.0783117,0.62527066,-0.00019175673,-0.04303753,-5.1720544e-05,0.00217124,0.0063064634,0.007304278,0.005641033,0.47611874,-1.4228538,1.9540476,-2.1001575,-1.5708569,2.4513466,-0.03366441,0.0689445,-0.08702871,0.014505969,-0.009120956,-0.039237183,-0.34476504,0.19153613,-9.32781,0.7597976,47.65464,-0.9890875,-2.0613134,-3.0890765,-0.26878494,-0.019169834,-0.30858892,27.6875,28.8125,28.0,31.875,33.9375,34.8125
0.09205253,-0.6672556,-1.6140498,-1.29385,-0.050010618,0.06916319,-0.15000828,-0.3829938,-0.34849754,0.059977565,-3.078298,0.62521064,-9.420605e-05,-0.04246905,-0.0002953545,0.0004943516,0.006164571,0.0028426861,0.0037801492,0.47605866,-1.4226965,1.9538454,-2.100145,-1.570916,2.451251,-0.034109764,0.072375834,-0.087293975,0.015230051,-0.006947122,-0.037825342,-0.30645782,0.22984336,-9.32781,0.8314132,47.674347,-1.0404506,-2.2576914,-3.1538644,-0.2620672,-0.036242124,-0.3465782,27.6875,28.8125,28.0,31.875,33.9375,34.8125
0.094052434,-0.5264483,-1.774644,-1.2535672,-0.050411228,0.054009028,-0.14945272,-0.38305512,-0.34850693,0.059986856,-3.0783212,0.6251182,-0.000118674216,-0.044751924,-0.001486251,0.0026781573,0.0027347584,0.0063800667,0.0036473235,0.47601047,-1.4225883,1.9536871,-2.1000855,-1.5709032,2.4511423,-0.035009082,0.072194695,-0.09215716,0.01555335,-0.005529909,-0.038592014,-0.24899697,0.17238252,-9.423578,0.7418897,47.70211,-1.0850283,-2.0210838,-3.079037,-0.26814955,-0.02780585,-0.34952235,27.6875,28.8125,28.0,31.875,33.9375,34.8125
0.09605196,-0.62579036,-1.6732597,-1.1909858,-0.04403312,0.04718345,-0.14824413,-0.383179,-0.34851924,0.059994318,-3.0783284,0.6251769,-5.235215e-05,-0.043827638,-0.00083068723,0.00063766766,0.0042824144,0.0022218232,0.005139685,0.4759262,-1.4223955,1.9534496,-2.1000855,-1.5709156,2.451094,-0.03565558,0.07473252,-0.090443864,0.015703924,-0.004994917,-0.040732574,-0.1340753,0.15322891,-9.442732,0.8090337,47.65912,-1.0895174,-2.154714,-3.2152348,-0.26728424,-0.055945892,-0.3448558,27.6875,28.8125,28.0,31.875,33.9375,34.8125
0.09805219,-0.39581963,-1.5937178,-1.2621232,-0.04107411,0.05269857,-0.14884551,-0.38326222,-0.34851465,0.06000295,-3.0783212,0.6252125,-5.2832707e-05,-0.045608416,-0.0007224979,0.00080561446,0.0041313684,0.002568495,0.0057642567,0.4758415,-1.4222742,1.9532803,-2.1000373,-1.5709156,2.4510324,-0.03745538,0.07712254,-0.093672544,0.016164195,-0.0050260643,-0.04315501,-0.1340753,0.17238252,-9.3661175,0.8291774,47.684196,-1.1227163,-2.1362407,-3.3474216,-0.25329882,-0.044400908,-0.3552554,27.6875,28.8125,28.0,31.875,33.9375,34.8125
0.10005233,-0.8453274,-1.5718273,-1.2408586,-0.039504793,0.048655726,-0.14955743,-0.38334453,-0.34850058,0.05996597,-3.0782926,0.6251683,-0.00015555382,-0.045742564,0.00037199524,-0.00031161663,0.0060498263,0.00094125577,0.0064281155,0.47573298,-1.4220695,1.9531254,-2.100013,-1.5709037,2.4509,-0.038884237,0.078651436,-0.092886396,0.01617722,-0.005988441,-0.045245774,-0.038307227,0.21068975,-9.423578,0.77545905,47.66091,-1.0899336,-2.1690843,-3.2090125,-0.23894632,-0.045454226,-0.3500126,27.6875,28.8125,28.0,31.875,33.9375,34.8125
0.10205221,-0.6665058,-1.229314,-1.3352345,-0.04270563,0.054658793,-0.14940661,-0.38344008,-0.3484961,0.059968606,-3.0782657,0.6251636,-0.000119226745,-0.04732548,0.00052246853,0.0005588326,0.005877978,0.002800046,0.004772813,0.4756606,-1.4219135,1.9529327,-2.0999773,-1.5709399,2.4508283,-0.040139228,0.079083785,-0.095477834,0.016605813,-0.006691418,-0.04484293,-0.05746084,0.30645782,-9.481039,0.784413,47.678825,-1.1027445,-2.1380506,-3.3023705,-0.23792654,-0.052838553,-0.35712555,27.6875,28.8125,28.0,31.875,33.9375,34.75
0.10405215,-0.61917067,-1.6507052,-1.2274675,-0.04280961,0.05920233,-0.15651539,-0.3835486,-0.3484766,0.059982248,-3.0782266,0.6251918,-3.312575e-05,-0.047359042,-0.00016978796,0.00025691435,0.006580384,0.0025470608,0.008247846,0.4755651,-1.4217807,1.9527415,-2.099941,-1.571,2.4507556,-0.038599353,0.081000075,-0.09702954,0.01678553,-0.0072026667,-0.04677629,-0.076614454,0.21068975,-9.423578,0.76874626,47.70032,-1.2317716,-2.1696339,-3.314106,-0.22178873,-0.05276028,-0.34137112,27.6875,28.8125,28.0,31.875,33.9375,34.75
0.10605156,-0.22133727,-1.8853363,-1.2190945,-0.0392846,0.05848567,-0.1512976,-0.3836016,-0.3485031,0.05996443,-3.078243,0.62505966,-0.00014361496,-0.048574343,0.0010626527,-0.00014364456,0.00773444,0.0018815242,0.008871034,0.47554016,-1.4215999,1.9525617,-2.099881,-1.5709642,2.4506462,-0.041424524,0.08245947,-0.0979246,0.017344164,-0.007928907,-0.05022231,0.0,0.28730422,-9.385271,0.8291774,47.68062,-1.1392972,-2.0941262,-3.3803174,-0.2125363,-0.03815198,-0.3400609,27.6875,28.8125,28.0,31.875,33.9375,34.75
0.10805247,-0.58723617,-1.7459583,-1.2600951,-0.034560323,0.046221986,-0.14745809,-0.38372636,-0.34850007,0.059972428,-3.078252,0.62498325,-6.5046275e-05,-0.049403295,0.001797516,-0.00028140162,0.009446695,0.0021482715,0.010587151,0.47544384,-1.4214194,1.9523343,-2.099869,-1.5710009,2.4505012,-0.042407896,0.08353982,-0.098977335,0.017865514,-0.009573848,-0.05291849,-0.076614454,0.22984336,-9.404425,0.73069996,47.67345,-1.0967487,-2.0985007,-3.4944577,-0.20977107,-0.03508421,-0.30848938,27.6875,28.8125,28.0,31.875,33.9375,34.75
0.11005244,-0.8171878,-1.6045569,-1.2370312,-0.031107755,0.034873568,-0.1472085,-0.38384238,-0.348481,0.059996083,-3.078241,0.62503874,5.661334e-05,-0.051983196,0.0024474473,0.00040065136,0.009928958,0.00430632,0.0103367865,0.47533494,-1.4213105,1.9521531,-2.099857,-1.5710496,2.4504285,-0.044992577,0.08528547,-0.10257459,0.018019581,-0.010995427,-0.055248845,-0.1340753,0.15322891,-9.32781,0.79560274,47.67614,-1.0049684,-2.10727,-3.3484244,-0.19966319,-0.016162595,-0.27863014,27.6875,28.8125,28.0,31.875,33.9375,34.75
0.11205224,-0.45601112,-1.2297697,-1.0334222,-0.038808983,0.05546362,-0.15500449,-0.383954,-0.34850037,0.06000261,-3.0782707,0.6249851,3.005128e-05,-0.051244337,0.0025889568,-0.00024790826,0.010286475,0.0025738,0.013022038,0.47525093,-1.4211062,1.9518908,-2.0997975,-1.5710253,2.4503074,-0.044857997,0.08556773,-0.10151467,0.018379176,-0.010518428,-0.057800934,-0.15322891,0.24899697,-9.461885,0.784413,47.688675,-1.0847374,-2.0228226,-3.5862691,-0.17659537,-0.00015922775,-0.23358215,27.6875,28.8125,28.0,31.875,33.9375,34.75
0.114052266,-0.53678244,-0.95598847,-1.1300249,-0.037335783,0.06827567,-0.1580421,-0.38405156,-0.34849724,0.06000946,-3.0782516,0.62494063,6.6136876e-05,-0.053185068,0.0012339518,0.0016002209,0.008272294,0.006244806,0.016225902,0.47517926,-1.4209499,1.9516853,-2.0997488,-1.5710615,2.4502106,-0.044289906,0.08605579,-0.106340155,0.018526437,-0.0104178805,-0.060434483,-0.095768064,0.22984336,-9.308656,0.8247004,47.699425,-1.1943797,-2.0265083,-3.4290662,-0.16776878,0.008665427,-0.22107312,27.6875,28.8125,28.0,31.875,33.9375,34.75
0.116052665,-1.0352825,-0.8109497,-1.0603846,-0.034310378,0.066503435,-0.1543249,-0.38417155,-0.34852067,0.06002271,-3.0783203,0.6248774,0.0001099991,-0.05367033,0.0017129091,-0.0006474129,0.009362428,0.0016367604,0.016120143,0.47509456,-1.4207678,1.9514464,-2.0997484,-1.5710367,2.4500778,-0.046306774,0.09148217,-0.10750847,0.01886043,-0.009278145,-0.062346797,-0.11492168,0.24899697,-9.32781,0.79560274,47.707485,-1.187524,-2.0698168,-3.5256696,-0.16370729,-0.006428313,-0.19301102,27.6875,28.8125,28.0,31.875,33.9375,34.75
0.11805174,-1.2322652,-1.1484151,-1.2719884,-0.03204492,0.061403155,-0.15614797,-0.3842829,-0.348504,0.06001086,-3.078272,0.62486804,0.00010158214,-0.055663634,0.001533943,0.0018296167,0.005701082,0.0047115544,0.015471951,0.4749856,-1.4205645,1.9512299,-2.0997002,-1.571072,2.4499693,-0.04898955,0.08900731,-0.1106157,0.020022854,-0.0074353633,-0.06438342,-0.15322891,0.19153613,-9.404425,0.784413,47.691364,-1.0773451,-1.966779,-3.4333708,-0.16322872,-0.023016177,-0.1430208,27.6875,28.8125,28.0,31.875,33.9375,34.75
0.120052665,-1.3574692,-1.4334642,-1.5332181,-0.028071674,0.05238766,-0.14567195,-0.38439032,-0.34850118,0.060029775,-3.0783114,0.6247401,0.00015602009,-0.055910584,0.0010076626,0.0011339075,0.005810333,0.0030112462,0.017162722,0.47488979,-1.4204314,1.9510263,-2.099665,-1.5710839,2.4497888,-0.048707977,0.09189761,-0.11246388,0.020538265,-0.0067558046,-0.0657928,-0.24899697,0.22984336,-9.3661175,0.7620334,47.67614,-1.1239214,-1.8333892,-3.4400272,-0.14118847,-0.042156305,-0.09556437,27.6875,28.8125,28.0,31.875,33.9375,34.75
0.122051716,-1.1060749,-1.3029274,-1.3830478,-0.037733573,0.06769282,-0.15027414,-0.38448533,-0.3485137,0.060018647,-3.0783281,0.6246294,0.000115057126,-0.057294246,0.0013304709,0.002111912,0.006036532,0.005109951,0.014817633,0.47481737,-1.4202273,1.9508098,-2.0996287,-1.5710725,2.4496453,-0.04977871,0.09166855,-0.1145879,0.021133354,-0.007920902,-0.06451539,-0.38307226,0.17238252,-9.423578,0.8090337,47.66987,-1.1673782,-1.9349211,-3.4297454,-0.13908426,-0.050295893,-0.08235033,27.6875,28.8125,28.0,31.875,33.9375,34.75
0.12405187,-1.4330982,-1.6949624,-1.5286535,-0.034357436,0.07738464,-0.15153024,-0.3846059,-0.34850863,0.060026076,-3.0783074,0.6245855,0.00014797351,-0.058119796,0.0016024782,0.0020619244,0.007202691,0.0051651546,0.015302299,0.47472125,-1.4200346,1.9505585,-2.0995681,-1.5711087,2.4495246,-0.050310295,0.09319005,-0.11641029,0.02191851,-0.008985699,-0.06552881,-0.36391866,0.17238252,-9.5385,0.7038487,47.707485,-1.1925544,-1.8123177,-3.4148211,-0.14323096,-0.03238257,-0.078917414,27.6875,28.8125,28.0,31.875,33.9375,34.75
0.12605214,-1.3444393,-1.224322,-1.5486022,-0.04544973,0.092492096,-0.15198532,-0.38471007,-0.348476,0.059985362,-3.078247,0.6246723,5.2461014e-06,-0.059318654,0.002256753,0.0017236852,0.0083725555,0.0046388526,0.011472761,0.47455257,-1.4198056,1.9503783,-2.09952,-1.5710849,2.4494178,-0.052022617,0.09538134,-0.11833741,0.022661082,-0.009793608,-0.06340812,-0.40222588,0.24899697,-9.500193,0.8157518,47.698532,-1.168714,-1.8401496,-3.4586005,-0.13868311,-0.022048665,-0.07836501,27.6875,28.8125,28.0,31.875,33.9375,34.75
0.12805198,-1.6019405,-1.3727701,-1.5033185,-0.04689997,0.09534566,-0.15401879,-0.3848048,-0.34851363,0.060022287,-3.07829,0.6244886,4.6323643e-05,-0.060554087,0.0022058492,0.0017770355,0.008467549,0.004802457,0.008500038,0.47454038,-1.4196489,1.9500898,-2.0994122,-1.5710973,2.4492857,-0.05294835,0.09743244,-0.1209194,0.02309055,-0.009955209,-0.061359584,-0.38307226,0.24899697,-9.634268,0.8023209,47.683304,-1.187587,-1.8252394,-3.4447384,-0.12837017,-0.014658181,-0.086689025,27.6875,28.8125,28.0,31.875,33.9375,34.75
0.13005239,-1.6471806,-1.9530095,-1.55377,-0.04407113,0.093960375,-0.14885645,-0.3849534,-0.34849155,0.060027406,-3.0782716,0.6244667,0.000120925106,-0.062132962,0.0018523544,0.0028342907,0.0072626136,0.006556585,0.0065271277,0.47439605,-1.4194444,1.9498385,-2.0993884,-1.5711449,2.4491303,-0.0539134,0.09799192,-0.12411074,0.023606842,-0.009688511,-0.060350917,-0.40222588,0.095768064,-9.576807,0.800085,47.668976,-1.1780955,-1.8016945,-3.4037328,-0.105051324,-0.015524151,-0.082753934,27.6875,28.8125,28.0,31.875,33.9375,34.75
0.13205233,-0.8333201,-1.1935096,-1.5014173,-0.061222788,0.1019118,-0.16518046,-0.38507512,-0.34849536,0.060039748,-3.0783074,0.624494,0.00013828871,-0.06236921,0.0020338993,0.0016172114,0.0077985544,0.0033798334,0.00523625,0.47427568,-1.4192749,1.9496106,-2.099364,-1.5711206,2.4490225,-0.0550603,0.101279564,-0.12534545,0.024621656,-0.008712416,-0.06020809,-0.45968673,0.17238252,-9.672575,0.81351066,47.69763,-1.1645987,-1.849276,-3.3308463,-0.109944314,-0.04255682,-0.0929226,27.6875,28.8125,28.0,31.875,33.9375,34.75
0.1340522,-1.3045764,-1.6787219,-1.3561225,-0.03841389,0.075931594,-0.14785753,-0.38520923,-0.34848142,0.060038075,-3.0782573,0.62450564,0.00019720965,-0.064442225,0.0015041176,0.0021136643,0.0073243272,0.004274988,-0.00076504453,0.4741674,-1.4190578,1.9493574,-2.0993278,-1.5711812,2.448928,-0.05600072,0.10433765,-0.13017698,0.025380474,-0.008706489,-0.055144556,-0.5554548,0.19153613,-9.691729,0.7642693,47.71823,-1.124596,-1.8722489,-3.2341838,-0.11786804,-0.028239807,-0.15086825,27.6875,28.8125,28.0,31.875,33.9375,34.75
0.13605182,-0.8798472,-1.1083251,-1.3111439,-0.041395854,0.081854686,-0.14963719,-0.3853593,-0.34848195,0.060063284,-3.0782807,0.62451065,0.0002117419,-0.06574644,0.0015316836,0.002523927,0.0074943705,0.00529177,-0.002159008,0.4740231,-1.4188532,1.949046,-2.0992434,-1.5711688,2.448784,-0.05681328,0.1056041,-0.13267751,0.025789568,-0.009324927,-0.054560963,-0.49799395,0.22984336,-9.576807,0.82022345,47.691364,-1.2238563,-1.939336,-3.250147,-0.09953979,-0.014971557,-0.17458722,27.6875,28.8125,28.0,31.875,33.9375,34.75
0.13805196,-1.3599722,-1.2995367,-1.4194356,-0.03690275,0.071278155,-0.15130161,-0.38548744,-0.34849375,0.060064483,-3.078282,0.62447405,0.00028878104,-0.0671477,0.0025764073,0.0011277276,0.008609287,0.0025848008,-0.0057472484,0.47394985,-1.4186355,1.9487938,-2.0992434,-1.5712045,2.448688,-0.06007928,0.10980837,-0.13443834,0.026260277,-0.009082135,-0.054238066,-0.49799395,0.24899697,-9.500193,0.8023209,47.67614,-1.0614762,-1.8266966,-3.151071,-0.07987848,-0.0234981,-0.18260601,27.6875,28.8125,28.0,31.875,33.9375,34.75
0.14005184,-1.4573809,-0.9961326,-1.3312079,-0.050253928,0.07909488,-0.1553684,-0.38562462,-0.34849465,0.06008248,-3.0782945,0.6245334,0.00030461274,-0.06735848,0.0018110266,0.0013915568,0.008553887,0.0027532962,-0.004665498,0.4738184,-1.4184428,1.9485182,-2.0991833,-1.5711926,2.4485922,-0.058872234,0.11089716,-0.13648708,0.027044708,-0.009111286,-0.054111943,-0.49799395,0.24899697,-9.519346,0.75755644,47.657326,-1.086957,-1.9236245,-3.187468,-0.079727024,-0.033159338,-0.22429812,27.6875,28.8125,28.0,31.875,33.9375,34.75
0.14205189,-1.6747428,-1.9246085,-1.26391,-0.0401144,0.08767603,-0.1483226,-0.38575453,-0.348478,0.06007778,-3.0782533,0.6245643,0.00029752095,-0.06813859,0.0022395682,0.00039093525,0.009616866,0.0007764647,-0.006295667,0.47368595,-1.4182254,1.9482659,-2.0991237,-1.571217,2.4484844,-0.060286947,0.11415641,-0.13809799,0.027638266,-0.009159056,-0.053895034,-0.59376204,0.3256114,-9.500193,0.7911258,47.658226,-1.2304211,-1.9757658,-3.1578608,-0.073599026,-0.011361091,-0.24776506,27.6875,28.8125,28.0,31.875,33.9375,34.75
0.14405185,-1.394649,-1.6805335,-1.0055449,-0.055673808,0.09968978,-0.15595788,-0.38588747,-0.34847653,0.060090404,-3.0782197,0.6245958,0.00030363465,-0.06954533,0.0026216612,0.0004703057,0.009607355,0.0005462295,-0.008052492,0.47357738,-1.4180086,1.9479665,-2.0990274,-1.5712408,2.4484,-0.062291533,0.11593723,-0.14054006,0.028497295,-0.009050083,-0.054141592,-0.40222588,0.34476504,-9.481039,0.78217715,47.703903,-1.0919739,-2.0112617,-3.1366293,-0.073183954,-0.035745777,-0.25865972,27.6875,28.8125,28.0,31.875,33.9375,34.75
0.14605218,-1.4068444,-2.2670975,-1.114863,-0.050494835,0.09053754,-0.14959812,-0.38607752,-0.34848818,0.06013228,-3.0782752,0.62464726,0.0004592105,-0.07085962,0.0035959762,0.00068152917,0.009945649,0.00019665262,-0.010612788,0.47343224,-1.4177921,1.9476198,-2.099015,-1.5712527,2.44828,-0.06508744,0.11670586,-0.14224544,0.029897884,-0.00918645,-0.054377403,-0.40222588,0.3256114,-9.404425,0.8851263,47.675243,-0.9511167,-1.9065081,-3.3322499,-0.07513813,-0.022387074,-0.28437367,27.6875,28.8125,28.0,31.875,33.9375,34.75
0.1480522,-1.5915235,-2.2453055,-0.8516008,-0.05851492,0.0776811,-0.14533809,-0.38620386,-0.348495,0.060121313,-3.0782511,0.6246407,0.0004401884,-0.07068239,0.002726872,0.0002203325,0.010340459,-0.0006116275,-0.007987604,0.473337,-1.4175392,1.9473437,-2.0989668,-1.5712651,2.448184,-0.0633746,0.11883588,-0.14371969,0.030139359,-0.009173946,-0.05528859,-0.38307226,0.19153613,-9.32781,0.81351066,47.687782,-1.1637063,-1.9345369,-3.2233255,-0.06252608,-0.02699242,-0.30882615,27.6875,28.8125,28.0,31.875,33.9375,34.75
0.15005206,-1.0360523,-1.6004583,-0.81049484,-0.051512003,0.06871278,-0.14963162,-0.38635534,-0.34848234,0.0601238,-3.0782332,0.624676,0.00047841686,-0.07285119,0.0034379566,0.00035969395,0.009622059,0.0012947783,-0.010088496,0.4731919,-1.4173105,1.9470676,-2.098932,-1.571289,2.4480634,-0.06642201,0.12009724,-0.14507012,0.028201746,-0.009410899,-0.05623368,-0.28730422,0.22984336,-9.212888,0.8314132,47.703903,-1.0665957,-1.8905888,-3.239082,-0.039680436,-0.043797478,-0.3290426,27.6875,28.8125,28.0,31.875,33.9375,34.75
0.15205207,-0.55688024,-0.9326839,-0.64017844,-0.036672562,0.06380471,-0.15410751,-0.38649195,-0.3484668,0.060101323,-3.0781982,0.6246503,0.00042940592,-0.073615074,0.0038602247,-0.00043583682,0.010201901,0.0005381896,-0.011475779,0.4730476,-1.4170455,1.9468039,-2.0988843,-1.5713009,2.4479077,-0.06771952,0.12234157,-0.14570852,0.027532233,-0.009588509,-0.05614243,-0.24899697,0.24899697,-9.212888,0.800085,47.66271,-0.94862735,-1.9570942,-3.3183088,-0.0005849128,-0.029107966,-0.34145987,27.6875,28.8125,28.0,31.875,33.9375,34.75
0.15405208,-0.49808544,-0.48558718,-0.3280757,-0.031382654,0.055113964,-0.1585305,-0.38665497,-0.3484799,0.06012379,-3.0782347,0.6246963,0.00048727365,-0.07484111,0.0045327204,-0.0010897807,0.011728825,-0.0008279764,-0.013038371,0.47291487,-1.4168162,1.9464811,-2.0988476,-1.5712894,2.4477992,-0.06951535,0.1254761,-0.14810881,0.028711673,-0.0103254495,-0.056373633,-0.21068975,0.19153613,-9.021352,0.8985519,47.690468,-0.9126257,-1.8577347,-3.3078642,0.020062022,-0.02529145,-0.37853283,27.6875,28.8125,28.0,31.875,33.9375,34.75
0.15605196,0.30200806,-0.12053869,-0.26910612,-0.018136607,0.061252233,-0.16079433,-0.3868318,-0.34847167,0.060144022,-3.0782216,0.6248282,0.0005412245,-0.07534382,0.0044679376,1.2394386e-05,0.010316399,0.0006600555,-0.013274346,0.4727468,-1.4165765,1.9461459,-2.0987875,-1.5713009,2.4477153,-0.07019095,0.123771995,-0.14878957,0.029123874,-0.009745089,-0.05681462,-0.19153613,0.15322891,-8.848969,0.78217715,47.682407,-0.8877357,-1.9385636,-3.3599224,0.02469463,-0.018654205,-0.4250176,27.6875,28.8125,28.0,31.875,33.9375,34.75
0.15805212,-0.081231505,-0.021122672,-0.5219117,-0.006574567,0.045168627,-0.15835972,-0.3869585,-0.3484577,0.060132656,-3.07819,0.62482166,0.00050548324,-0.07669451,0.004264884,-0.00091516174,0.010432706,-0.0012506052,-0.013454082,0.47261414,-1.4163464,1.9458941,-2.098728,-1.5713123,2.4475827,-0.07152098,0.12841205,-0.15213224,0.029575204,-0.00898792,-0.057963543,-0.24899697,-0.019153614,-8.868123,0.7933669,47.65912,-0.9059639,-1.8745261,-3.3726134,0.04125436,-0.026519353,-0.459076,27.6875,28.8125,28.0,31.875,33.9375,34.75
0.1600523,-0.7105679,-0.08928797,-0.3004674,0.0030020764,0.034504622,-0.15768564,-0.38713774,-0.34843943,0.060138077,-3.0781512,0.6248509,0.0005927831,-0.07768092,0.0047917766,0.00013571259,0.010602996,-0.0003860983,-0.01277575,0.47245786,-1.4160826,1.9455703,-2.0986912,-1.5713729,2.44745,-0.07295722,0.12764204,-0.15415367,0.031669907,-0.009532322,-0.060077053,-0.24899697,0.0,-8.810662,0.8157518,47.66091,-0.8839601,-1.7809764,-3.380702,0.049372967,-0.049797244,-0.4463318,27.6875,28.8125,28.0,31.875,33.9375,34.75
0.16205221,-0.36655372,-0.25218657,-0.3336232,0.007082643,0.04906614,-0.15201062,-0.38728002,-0.34843126,0.060135845,-3.0780861,0.6248756,0.0005668334,-0.078258954,0.0052105156,-8.889379e-05,0.011725216,-0.0018620264,-0.011831356,0.47233742,-1.4158179,1.9452466,-2.0985825,-1.5714091,2.4473534,-0.073977835,0.12939529,-0.15615804,0.03374232,-0.009863651,-0.062040243,-0.15322891,0.0,-8.829816,0.8112748,47.657326,-0.8536869,-1.8501313,-3.404389,0.030925982,-0.039811853,-0.4702451,27.6875,28.8125,28.0,31.875,33.9375,34.75
0.16405244,-1.0316459,-0.5419712,-0.31534493,-0.0020184552,0.038722653,-0.15202501,-0.38742894,-0.34842128,0.060133822,-3.0780964,0.62487453,0.00052387716,-0.07864218,0.005853125,-0.0013323448,0.012742712,-0.0047367527,-0.007584926,0.4721688,-1.4155765,1.94496,-2.0985224,-1.5713848,2.447183,-0.07568035,0.13234626,-0.15693268,0.034582883,-0.0094652735,-0.06798907,-0.17238252,0.038307227,-8.887277,0.79560274,47.691364,-0.7653087,-1.8050389,-3.3750005,0.035417516,-0.046814065,-0.44799906,27.6875,28.8125,28.0,31.875,33.9375,34.75
0.16605186,-1.0257745,-0.6112755,-0.54870117,-0.015392278,0.047700997,-0.15370378,-0.38759616,-0.34839186,0.060141224,-3.078043,0.6249592,0.00054406415,-0.080215335,0.005931821,-0.00062042207,0.012418214,-0.0036497249,-0.0075031356,0.47198835,-1.415336,1.9446477,-2.0984385,-1.571421,2.4470623,-0.077068776,0.13336703,-0.15996233,0.035471547,-0.009677884,-0.06945742,-0.17238252,0.0,-8.983045,0.83365434,47.66091,-0.7211642,-1.8735042,-3.2747993,0.046113007,-0.04058373,-0.43857768,27.6875,28.8125,28.0,31.875,33.9375,34.75
0.16801839,-0.84200495,-1.1030773,-0.9468962,-0.012269791,0.061723996,-0.15024681,-0.38775146,-0.34837693,0.06013726,-3.0780158,0.6248738,0.00054677983,-0.08127956,0.0060933754,-1.2464848e-05,0.013213953,-0.004194481,-0.0038728649,0.47184408,-1.4150712,1.9443358,-2.0983655,-1.5714568,2.4468684,-0.0779831,0.1347217,-0.16366515,0.038660727,-0.010143774,-0.07399962,-0.15322891,0.076614454,-9.136273,0.8672237,47.68599,-0.7161767,-1.8535774,-3.30205,0.034108594,-0.045492135,-0.40983546,27.6875,28.8125,28.0,31.875,33.9375,34.75
0.17000704,-1.1727475,-0.98392254,-1.1324159,-0.020626232,0.06230119,-0.15612835,-0.38790315,-0.34837765,0.060113575,-3.0779572,0.62487775,0.0004947537,-0.08251578,0.006760078,-0.00031881392,0.014339861,-0.0061070216,0.002024747,0.47172332,-1.4147455,1.9439987,-2.098293,-1.5714811,2.4467578,-0.08015457,0.13749509,-0.16677494,0.041203093,-0.010286438,-0.08206643,-0.24899697,0.1340753,-9.174581,0.81351066,47.68062,-0.69183934,-2.0692835,-3.3157358,-0.0036969257,-0.047226608,-0.33280015,27.6875,28.8125,28.0,31.875,33.9375,34.75
0.1720425,-0.9571694,-1.0418874,-1.1691005,-0.038286295,0.07610285,-0.1600226,-0.38807258,-0.3483585,0.060120597,-3.0779314,0.62487,0.00047162108,-0.08051664,0.0070550777,-0.0030919455,0.017583959,-0.01278786,0.005457168,0.47154394,-1.4144803,1.943653,-2.0981843,-1.5714935,2.446577,-0.0789191,0.14153041,-0.16563079,0.04344382,-0.010139144,-0.084263735,-0.47884035,0.2681506,-9.346964,0.85826975,47.685097,-0.68813133,-1.8544035,-3.3827243,-0.020830294,-0.055437967,-0.29202253,27.6875,28.8125,28.0,31.875,33.9375,34.75
0.17404237,-1.6253904,-1.8293071,-1.406559,-0.04158036,0.08497893,-0.14070834,-0.3882265,-0.34833777,0.060119502,-3.0779219,0.62486535,0.00038734308,-0.08115044,0.006512679,-0.0016494669,0.016556503,-0.01154338,0.01070835,0.47135186,-1.4142286,1.9433411,-2.098076,-1.5714687,2.4463835,-0.078711644,0.1406081,-0.1683675,0.045522247,-0.009799544,-0.08930686,-0.45968673,0.36391866,-9.442732,0.8112748,47.694946,-0.79369694,-1.7906275,-3.3005471,-0.05742006,-0.0523094,-0.250838,27.6875,28.8125,28.0,31.875,33.9375,34.75
0.17605211,-1.6496537,-2.0375254,-1.7649835,-0.05223747,0.0920946,-0.15008017,-0.38838732,-0.34830248,0.06008795,-3.0778127,0.6248618,0.0003248803,-0.08295952,0.007834526,-0.0017050722,0.017442387,-0.012862782,0.009565963,0.47118258,-1.4139034,1.9430169,-2.0979788,-1.5715288,2.4462261,-0.08250992,0.14268829,-0.17120554,0.04784927,-0.010003711,-0.09196021,-0.36391866,0.36391866,-9.576807,0.842603,47.690468,-0.69961256,-1.8583381,-3.3671446,-0.10046912,-0.06375337,-0.17257264,27.6875,28.8125,28.0,31.875,33.9375,34.75
0.17804198,-1.9728936,-2.914963,-1.7385583,-0.05542004,0.08909813,-0.14489283,-0.38854274,-0.34829018,0.0600768,-3.0777712,0.62479216,0.0002471893,-0.08210685,0.0060124146,-0.0015546852,0.017848806,-0.013375733,0.01492781,0.47102812,-1.4136025,1.9426688,-2.0978591,-1.5715412,2.4460337,-0.07839638,0.14421645,-0.1737155,0.049469385,-0.0101451045,-0.09320643,-0.36391866,0.40222588,-9.730036,0.80456203,47.674347,-0.8615491,-1.7760332,-3.341592,-0.11971676,-0.06640433,-0.13559262,27.6875,28.8125,28.0,31.875,33.9375,34.75
0.18004234,-1.2100351,-2.419342,-1.6110768,-0.08389546,0.10579031,-0.15858302,-0.38870272,-0.3482886,0.060083754,-3.0777562,0.6246938,0.00023794992,-0.082892515,0.005977997,-0.0015147055,0.017970476,-0.013836956,0.013929506,0.4708959,-1.4133258,1.9423097,-2.097751,-1.571565,2.4458423,-0.079069056,0.14579898,-0.17590989,0.050543956,-0.01005143,-0.09287969,-0.36391866,0.40222588,-9.710882,0.83589023,47.652847,-0.8895446,-1.8342184,-3.3660917,-0.15730818,-0.0426867,-0.11922915,27.6875,28.8125,28.0,31.875,33.9375,34.75
0.18205172,-1.2693846,-2.2220201,-1.6925093,-0.077777475,0.084911026,-0.15112013,-0.38890883,-0.34828287,0.06010422,-3.0777795,0.62473756,0.00026818397,-0.08355449,0.005816647,-0.0014142189,0.017997969,-0.014163931,0.01181255,0.47069183,-1.4130368,1.941914,-2.097679,-1.5715531,2.4456627,-0.07940846,0.14719893,-0.17802233,0.051560715,-0.009929903,-0.09110175,-0.28730422,0.38307226,-9.615114,0.81351066,47.666286,-0.88963544,-1.8119761,-3.3584929,-0.21666333,-0.053053845,-0.11020771,27.6875,28.8125,28.0,31.875,33.9375,34.75
0.18404225,-0.71990675,-2.1308823,-1.8570548,-0.061890468,0.08268512,-0.14597988,-0.389062,-0.34826887,0.060107127,-3.0777044,0.62472504,0.00023784999,-0.08389242,0.0062435432,-0.0029845682,0.020138344,-0.01629996,0.007533193,0.47055963,-1.4127593,1.9415549,-2.097535,-1.5716013,2.4455326,-0.07982347,0.15098213,-0.1788039,0.051434994,-0.010877401,-0.08723392,-0.19153613,0.34476504,-9.595961,0.7463667,47.7245,-0.9339132,-1.6991715,-3.3449516,-0.23645195,-0.04012728,-0.13411744,27.6875,28.8125,28.0,31.875,33.9375,34.75
0.18604232,-0.812653,-2.0066524,-1.8944718,-0.04825531,0.051031582,-0.14225863,-0.38926297,-0.3482566,0.06010791,-3.0777016,0.62466687,0.00029894465,-0.08384617,0.005937206,-0.0025521878,0.019499015,-0.015683085,0.004618049,0.47037977,-1.4124471,1.9411854,-2.0974991,-1.5716375,2.445317,-0.07937805,0.1502883,-0.17906061,0.051543225,-0.010587895,-0.08387428,-0.076614454,0.2873042,-9.691729,0.82694155,47.691364,-0.9775572,-1.8959308,-3.4731145,-0.24655719,-0.053533353,-0.17573646,27.6875,28.8125,28.0,31.875,33.9375,34.75
0.18805239,-0.33452442,-1.8530637,-1.7254759,-0.04091974,0.041131984,-0.1476124,-0.38941666,-0.3482379,0.060072154,-3.077621,0.62459517,0.00017337849,-0.085512765,0.0060796086,-0.003159522,0.020136891,-0.016071621,-0.0006867423,0.4702233,-1.4120973,1.9408368,-2.09738,-1.5716614,2.4451263,-0.0808308,0.15410061,-0.18208174,0.051389337,-0.010998464,-0.0800181,-0.019153614,0.24899697,-9.634268,0.8560339,47.6636,-0.98792607,-2.07644,-3.4087524,-0.25908813,-0.055594005,-0.19004765,27.6875,28.8125,28.0,31.875,33.9375,34.75
0.19004206,-0.32994604,-1.8844966,-1.7424396,-0.034820583,0.026880682,-0.14046308,-0.38960627,-0.34823295,0.060105678,-3.0776248,0.62461776,0.00027945105,-0.086904675,0.0064048474,-0.0040593566,0.02094721,-0.016845064,-0.0053579733,0.47006688,-1.411856,1.9404658,-2.0973084,-1.5716976,2.4449837,-0.0823732,0.15779635,-0.18420662,0.050875247,-0.011373437,-0.07688751,0.05746084,0.28730422,-9.5385,0.8314132,47.682407,-1.0129744,-2.049152,-3.3930364,-0.29066476,-0.034340307,-0.25746572,27.6875,28.8125,28.0,31.875,33.9375,34.75
0.19204204,-0.042959604,-1.7106445,-1.5807042,-0.0365475,0.02904607,-0.14367756,-0.3897977,-0.3482445,0.060100485,-3.077636,0.62461764,0.00023642572,-0.0873213,0.0064016334,-0.0046992768,0.02068992,-0.01831353,-0.0034813911,0.46989867,-1.4115069,1.9400586,-2.097236,-1.5716728,2.4448142,-0.083262056,0.15984921,-0.18519406,0.05099662,-0.010487984,-0.07965398,0.076614454,0.24899697,-9.5385,0.85826975,47.67614,-0.9186202,-2.1187174,-3.4805813,-0.30126324,-0.048858672,-0.27910098,27.6875,28.8125,28.0,31.875,33.9375,34.75
0.19405241,0.17521837,-1.5554112,-1.6151063,-0.03917417,0.035227753,-0.14628509,-0.38995188,-0.34822375,0.060078975,-3.077544,0.62461954,0.00017988018,-0.08921831,0.006066024,-0.004115406,0.019996405,-0.016282966,-0.0063975593,0.46975434,-1.411194,1.9397224,-2.0971286,-1.5717214,2.444683,-0.08413546,0.16163261,-0.18849011,0.050382808,-0.010806253,-0.07760778,0.2681506,0.28730422,-9.519346,0.79560274,47.70211,-1.0478127,-2.1239252,-3.5680923,-0.29511672,-0.056777257,-0.27510566,27.6875,28.8125,28.0,31.875,33.9375,34.75
0.19604236,-0.77114993,-1.9300281,-1.4429654,-0.036679383,0.01281346,-0.13695776,-0.39013743,-0.3481913,0.060073674,-3.0774903,0.6246852,0.00013006154,-0.09134347,0.005853457,-0.0030247685,0.01837644,-0.013436296,-0.00746784,0.46953773,-1.4108934,1.9393634,-2.0970209,-1.5717334,2.4445145,-0.085707955,0.16222948,-0.19152251,0.04954254,-0.01066748,-0.0781082,0.21068975,0.21068975,-9.385271,0.8493211,47.682407,-0.88035476,-2.087302,-3.5342813,-0.3154865,-0.04640077,-0.30602834,27.6875,28.8125,28.0,31.875,33.9375,34.75
0.19804226,0.07400607,-1.8601794,-1.3501759,-0.042145062,0.035857756,-0.14442131,-0.39032695,-0.34822053,0.0600881,-3.0775096,0.6246307,0.0001427458,-0.09201232,0.0043921447,-0.0029179864,0.016706966,-0.0122611625,-0.00539447,0.46941832,-1.4105563,1.9389199,-2.096926,-1.5717329,2.4443588,-0.084297754,0.16419043,-0.1937263,0.047976814,-0.009720616,-0.07877209,0.13407528,0.2681506,-9.308657,0.8493211,47.661808,-1.0573437,-2.2116055,-3.3825917,-0.32113788,-0.07483118,-0.31256366,27.6875,28.8125,28.0,31.875,33.9375,34.75
0.20005235,-0.050596505,-1.4731302,-1.2861856,-0.045848075,0.04013582,-0.14822228,-0.39052433,-0.34818953,0.060090255,-3.0774407,0.6246952,0.00018438965,-0.09525701,0.0051271934,-0.002599529,0.015763678,-0.010223372,-0.009979092,0.46922475,-1.4102552,1.9385484,-2.0968425,-1.571793,2.4442146,-0.08839243,0.16687019,-0.19728051,0.04660158,-0.009815872,-0.07827957,0.038307227,0.3256114,-9.251195,0.83813137,47.66987,-0.96596074,-2.055004,-3.3693697,-0.2956776,-0.057574347,-0.3481558,27.6875,28.8125,28.0,31.875,33.9375,34.75
0.20204313,-0.52996284,-1.9995533,-1.4001694,-0.035790805,0.03453124,-0.14081983,-0.3906878,-0.34819645,0.06006331,-3.0774007,0.62464446,5.444321e-05,-0.095527545,0.0028480208,-0.0016527417,0.013880771,-0.006904452,-0.005156903,0.46908227,-1.4098828,1.9381531,-2.0967243,-1.571781,2.4440458,-0.08468044,0.16729802,-0.19954541,0.0446248,-0.009656973,-0.079387866,0.038307227,0.36391866,-9.289502,0.80679786,47.68062,-1.1380708,-2.0789933,-3.3167982,-0.28894016,-0.042729467,-0.3781464,27.6875,28.8125,28.0,31.875,33.9375,34.75
0.20404199,-0.48524252,-2.0713527,-1.2286826,-0.04755298,0.048486214,-0.14376903,-0.39087862,-0.3482074,0.060070112,-3.0774207,0.6245331,7.7116696e-05,-0.09693406,0.0025370668,-0.0014240317,0.012571539,-0.0058397525,-0.0042483183,0.46893778,-1.4095579,1.9377459,-2.0966518,-1.571793,2.4438295,-0.085779496,0.16882424,-0.2016654,0.043670077,-0.0089798,-0.081395894,-0.095768064,0.38307226,-9.308656,0.81351066,47.67614,-1.1279751,-1.9818057,-3.3023567,-0.2821376,-0.07755892,-0.36703736,27.6875,28.8125,28.0,31.875,33.9375,34.75
0.20605227,-0.98121214,-2.841958,-1.3062149,-0.05927681,0.060145605,-0.13605918,-0.39106235,-0.34818986,0.06006405,-3.0773518,0.62455523,1.0583295e-05,-0.098349825,0.0029814325,-0.00068819075,0.012752931,-0.004465094,-0.0018574588,0.46875715,-1.4092215,1.9373387,-2.0965087,-1.5718168,2.4436717,-0.08726735,0.1691005,-0.20389912,0.04447799,-0.009777096,-0.08527121,-0.19153613,0.49799395,-9.308657,0.87393653,47.67614,-1.1154416,-1.9646481,-3.3351517,-0.27954587,-0.07624669,-0.35477448,27.6875,28.8125,28.0,31.875,33.9375,34.75
0.20804216,-1.6680434,-3.0291517,-1.4593041,-0.06972645,0.06607748,-0.13596086,-0.3912519,-0.34818226,0.060060166,-3.0773184,0.62458396,1.650366e-05,-0.09974929,0.0022756483,-0.00021327432,0.011342544,-0.0021680722,0.002255121,0.46858928,-1.4088969,1.9369563,-2.0964372,-1.5718411,2.4435263,-0.08735864,0.17031881,-0.20604075,0.042705506,-0.009571652,-0.089474075,-0.21068975,0.51714754,-9.32781,0.90527004,47.717335,-1.1720618,-1.8607565,-3.42102,-0.27399284,-0.07298592,-0.3234517,27.6875,28.8125,28.0,31.875,33.9375,34.75
0.21004221,-1.7827332,-3.2358344,-1.2340275,-0.086709015,0.08692618,-0.14233746,-0.39144397,-0.34818906,0.06005694,-3.0773318,0.62448806,-2.8981944e-05,-0.100463,0.002335744,-0.0017919694,0.011481154,-0.0033066052,0.0063030636,0.468421,-1.408547,1.9365376,-2.0963423,-1.5718287,2.4432967,-0.088290595,0.17399567,-0.20618698,0.040245652,-0.0091956975,-0.094453715,-0.30645782,0.47884035,-9.385271,0.7866488,47.658226,-1.2078309,-1.9526255,-3.4314356,-0.23497623,-0.10126887,-0.27889645,27.6875,28.8125,28.0,31.875,33.9375,34.75
0.21205224,-1.5621331,-2.426598,-1.0853531,-0.100186005,0.10610573,-0.1551042,-0.3916684,-0.3481895,0.060079727,-3.0773447,0.62452495,3.978209e-05,-0.10192492,0.0024145693,-0.0009864504,0.010880025,-0.0013945652,0.011230525,0.46822867,-1.408223,1.9360946,-2.0962703,-1.5718411,2.443126,-0.08945948,0.1742442,-0.208348,0.04017171,-0.009529795,-0.10054875,-0.40222588,0.40222588,-9.3661175,0.8940802,47.6636,-1.2430193,-1.7783854,-3.416308,-0.2271991,-0.09979232,-0.22357988,27.6875,28.8125,28.0,31.875,33.9375,34.75
0.21404201,-1.6021677,-2.1329558,-1.3571438,-0.07039002,0.10466613,-0.1450833,-0.39188126,-0.3481893,0.060072582,-3.0773427,0.62446606,0.00010062888,-0.103489466,0.0019977337,4.453469e-05,0.009306729,0.0014574387,0.012955853,0.46806055,-1.4078625,1.9356889,-2.096247,-1.5718769,2.4429216,-0.09013603,0.17429149,-0.21056733,0.03908025,-0.00942074,-0.102950014,-0.38307226,0.36391866,-9.308656,0.8023209,47.67614,-1.228206,-1.8218913,-3.3959532,-0.19012775,-0.11094164,-0.16031066,27.6875,28.8125,28.0,31.875,33.9375,34.75
0.21604198,-1.324473,-1.8075356,-1.2643663,-0.039226178,0.097800285,-0.14455678,-0.39210346,-0.34819293,0.060086343,-3.0773604,0.6244483,0.00012564681,-0.104301415,0.0021233098,-0.00012385946,0.0092377635,0.0010201645,0.015859477,0.4678681,-1.4075134,1.9352344,-2.096163,-1.5718769,2.4427161,-0.09118005,0.17585939,-0.2121335,0.039430235,-0.009166416,-0.10689767,-0.47884035,0.36391866,-9.3661175,0.8672237,47.66539,-1.2256653,-1.8202484,-3.4603581,-0.17793646,-0.10114166,-0.12134982,27.6875,28.8125,28.0,31.875,33.9375,34.75
0.21805257,-1.1061584,-1.2061915,-1.2136177,-0.018512415,0.100143254,-0.14935134,-0.39231816,-0.34819117,0.06007453,-3.0773613,0.6243141,0.0001321835,-0.105542704,0.0015513245,0.00021514329,0.008636707,0.0026976534,0.0154712135,0.4676882,-1.4071285,1.9348024,-2.0961034,-1.5719007,2.4424527,-0.0910758,0.17740051,-0.2145517,0.038536422,-0.00939498,-0.106403135,-0.59376204,0.17238252,-9.32781,0.8023209,47.65912,-1.1884129,-1.7565556,-3.456087,-0.15400437,-0.13217047,-0.07198917,27.6875,28.8125,28.0,31.875,33.9375,34.75
0.22004218,-1.6613942,-0.4902337,-1.1928697,-0.012779771,0.087282084,-0.14638722,-0.3925393,-0.34820062,0.060083847,-3.0773833,0.6242812,0.00015948863,-0.10785548,0.0020556957,0.0005428973,0.007645619,0.005051524,0.010845072,0.46750718,-1.4067677,1.9343475,-2.0960324,-1.5719007,2.4422486,-0.09384481,0.17869626,-0.21640906,0.03655157,-0.009575894,-0.10454454,-0.57460845,0.095768064,-9.32781,0.84708,47.64658,-1.0655625,-1.8556187,-3.5182872,-0.10071072,-0.14067152,-0.066002294,27.6875,28.8125,28.0,31.875,33.9375,34.75
0.22204235,-1.2521546,-0.73174727,-1.1526617,-0.005972749,0.09984207,-0.14520329,-0.392728,-0.34818786,0.06005887,-3.077321,0.6242505,0.0001157229,-0.10818365,0.0017378747,3.877955e-05,0.008224607,0.0035464296,0.00858152,0.46733937,-1.4063945,1.9339532,-2.095948,-1.571937,2.4420698,-0.093622856,0.18127352,-0.21857765,0.03774486,-0.009420822,-0.10205773,-0.5363012,0.019153614,-9.32781,0.8851263,47.674347,-1.2215264,-1.9564606,-3.4441445,-0.077068456,-0.12655663,-0.079106495,27.6875,28.8125,28.0,31.875,33.9375,34.75
0.22405156,-1.9595296,-0.774217,-1.1900682,0.0018284946,0.08349186,-0.13069722,-0.39294904,-0.348194,0.060055222,-3.0773354,0.6242198,9.864772e-05,-0.109920956,0.004349843,-0.0008223272,0.010483747,0.00052103726,-0.00041360274,0.46714526,-1.4060092,1.9334987,-2.0958755,-1.571925,2.441855,-0.0992748,0.18368785,-0.2201223,0.04060003,-0.010069569,-0.09871246,-0.63206923,-0.11492168,-9.3661175,0.9030289,47.704796,-1.0257293,-2.075696,-3.4371228,-0.081036836,-0.15254086,-0.11742549,27.6875,28.8125,28.0,31.875,33.9375,34.75
0.22604184,-1.8436662,-0.94087553,-1.1928753,0.008505663,0.085406095,-0.13012065,-0.39315847,-0.34816918,0.06003572,-3.0772831,0.6242279,5.9322894e-05,-0.11033682,0.0030658424,-0.00096579926,0.011449074,0.00048819123,-0.0013829354,0.4669304,-1.4056357,1.9330915,-2.0957916,-1.5719494,2.441652,-0.09677849,0.18693161,-0.22382857,0.041529685,-0.010925144,-0.09524228,-0.51714754,-0.19153613,-9.32781,0.83589023,47.66987,-1.1294144,-1.8916678,-3.433064,-0.06721889,-0.15393253,-0.1412304,27.6875,28.8125,27.9375,31.875,33.9375,34.75
0.22804207,-1.3302425,-0.32991877,-1.1216817,-0.0030422385,0.0907422,-0.13607667,-0.3933981,-0.34817216,0.06005521,-3.0772815,0.6242886,0.00013685612,-0.11202435,0.0041371104,-0.0013121851,0.011504736,-0.00065463735,-0.008194605,0.46673703,-1.4052749,1.9326123,-2.0957186,-1.5719727,2.441497,-0.10038686,0.1891562,-0.22587684,0.042397387,-0.010456643,-0.09203958,-0.40222588,-0.21068975,-9.404425,0.8023209,47.67345,-1.0442522,-2.0893137,-3.327806,-0.035121527,-0.15150729,-0.19643429,27.6875,28.8125,27.9375,31.875,33.9375,34.75
0.23005232,-0.94917417,-0.22525859,-1.1663778,-7.8596175e-05,0.08797234,-0.14509632,-0.3936214,-0.34816676,0.06003055,-3.0772312,0.62428,9.550413e-05,-0.11273148,0.0053100563,-0.0023236487,0.01368449,-0.002825147,-0.012792863,0.46654448,-1.4048413,1.9321469,-2.0956347,-1.5719975,2.4413059,-0.10238347,0.19176744,-0.22699808,0.04382935,-0.011429627,-0.08943446,-0.57460845,-0.2681506,-9.32781,0.82694155,47.65464,-0.9089775,-2.0968163,-3.3776646,-0.019462805,-0.13660882,-0.24145412,27.6875,28.8125,27.9375,31.875,33.9375,34.75
0.23204234,-1.2024742,-0.29556227,-1.1396065,-0.002529948,0.06553249,-0.14404997,-0.39383745,-0.34815094,0.060033202,-3.0772052,0.62427527,0.0001022109,-0.113807835,0.0056189653,-0.0014411936,0.013599703,-0.0019096502,-0.014854003,0.46633998,-1.4044929,1.9317149,-2.0955384,-1.5720218,2.441102,-0.10359383,0.19159275,-0.22921951,0.045367677,-0.011768863,-0.088582076,-0.4213795,-0.15322891,-9.346964,0.8605109,47.65912,-0.85846704,-2.1132536,-3.4836078,-0.02631034,-0.13947575,-0.3043302,27.6875,28.8125,27.9375,31.875,33.9375,34.75
0.23404215,-0.46108133,-0.67085963,-1.2934676,-0.0063847885,0.080791675,-0.14870177,-0.3940886,-0.3481368,0.06004349,-3.077188,0.62435025,0.0001258813,-0.11517401,0.005953532,-0.0009298176,0.013923582,-0.0013707672,-0.016942201,0.4660995,-1.4041085,1.9312238,-2.0954425,-1.5720338,2.4409108,-0.10496863,0.19268163,-0.23203202,0.046754714,-0.012303493,-0.087866396,-0.5363012,-0.15322891,-9.385271,0.9298854,47.698532,-0.86245894,-2.189541,-3.4677422,-0.022912785,-0.16303785,-0.31634697,27.6875,28.8125,27.9375,31.875,33.9375,34.75
0.2360524,-1.249356,-1.013631,-1.2142528,-0.018073276,0.07510006,-0.13879192,-0.3942973,-0.34809598,0.060016878,-3.0770376,0.62445295,8.330863e-05,-0.115385994,0.0056561865,-0.0015720592,0.015142913,-0.0033964058,-0.018890452,0.46589592,-1.403711,1.9307932,-2.0953095,-1.5721177,2.440791,-0.10444861,0.19571401,-0.234581,0.048623405,-0.012491722,-0.085395224,-0.5363012,0.076614454,-9.385271,0.86498255,47.666286,-0.9157206,-2.14404,-3.398722,-0.0051068827,-0.17188343,-0.37743396,27.6875,28.8125,27.9375,31.875,33.9375,34.75
0.23804204,-1.4842355,-1.501573,-1.3435173,-0.027859993,0.08214598,-0.14001201,-0.39452255,-0.34810054,0.060006674,-3.077011,0.62446487,3.4028515e-05,-0.11574175,0.005247283,-0.0019933097,0.01550173,-0.0049075214,-0.01600921,0.46570387,-1.4032898,1.930303,-2.0952017,-1.5721177,2.44061,-0.104196206,0.19827697,-0.23697634,0.04995974,-0.012144065,-0.088023365,-0.53630114,0.22984336,-9.3661175,0.8627467,47.683304,-1.0010818,-2.1883447,-3.4744637,-0.023851832,-0.17534503,-0.40164608,27.6875,28.8125,27.9375,31.875,33.9375,34.75
0.2400419,-1.7141832,-1.819153,-1.4968532,-0.037657145,0.093177766,-0.13954216,-0.39474556,-0.3480919,0.05999868,-3.0769637,0.62453383,-1.5329448e-06,-0.11762873,0.005849607,-0.0013751969,0.016061047,-0.0040808055,-0.019877845,0.46549904,-1.4028927,1.9298357,-2.0950935,-1.5721306,2.4404545,-0.10628986,0.19967923,-0.24044637,0.051542222,-0.013022441,-0.0862442,-0.4213795,0.24899697,-9.442732,0.8537928,47.68062,-0.83658516,-2.1185107,-3.415332,-0.0072277933,-0.15494834,-0.45881885,27.6875,28.8125,27.9375,31.875,33.9375,34.75
0.24205221,-1.4227035,-2.105627,-1.5394387,-0.05633728,0.107490174,-0.13601962,-0.39498055,-0.348071,0.059979517,-3.076915,0.624462,-8.0472955e-06,-0.11583827,0.005296205,-0.0029418673,0.018604038,-0.008893704,-0.0139276385,0.4652841,-1.4024714,1.9293708,-2.0950086,-1.5721778,2.4402013,-0.10358431,0.2026565,-0.24111778,0.05466738,-0.013139716,-0.08948789,-0.38307226,0.2681506,-9.442732,0.8940802,47.67614,-1.0959787,-2.0883822,-3.4652896,-0.018205421,-0.16278978,-0.48823065,27.6875,28.8125,27.9375,31.875,33.9375,34.75
0.24404329,-1.3333062,-2.766482,-1.575782,-0.0583122,0.09241051,-0.13921003,-0.39522526,-0.34804803,0.059980717,-3.076851,0.62460166,-1.8755834e-05,-0.11657245,0.007628929,-0.003004777,0.020077238,-0.011213719,-0.012965606,0.4650426,-1.402075,1.9288801,-2.0948875,-1.5722021,2.4400554,-0.10805609,0.20217092,-0.24123783,0.057994757,-0.013421647,-0.09492128,-0.21068975,0.30645782,-9.519346,0.8493211,47.696735,-0.87132454,-1.9977968,-3.5392482,-0.08251427,-0.16858613,-0.45851845,27.6875,28.8125,27.9375,31.875,33.9375,34.75
0.24604185,-0.94819266,-2.1048238,-1.6717798,-0.06322981,0.07246281,-0.13609461,-0.3954948,-0.34803703,0.060002986,-3.07684,0.62465125,9.758504e-05,-0.118154466,0.005930397,-0.0012475906,0.017833026,-0.007206108,-0.004508459,0.4648151,-1.4016905,1.9283661,-2.094816,-1.5722498,2.4398606,-0.10651366,0.20246427,-0.24552019,0.05737621,-0.013229679,-0.10183537,-0.11492168,0.28730422,-9.442732,0.8403672,47.709274,-1.0185641,-2.002852,-3.5486467,-0.08147799,-0.15247265,-0.437743,27.6875,28.8125,27.9375,31.875,33.9375,34.75
0.24805199,-0.6251894,-1.7368499,-1.6020467,-0.05319484,0.04594162,-0.13259739,-0.39571863,-0.34802034,0.0599915,-3.0767875,0.62457865,5.4191485e-05,-0.118776396,0.0065840203,-0.0016958064,0.018995835,-0.009851871,0.00066095573,0.46461067,-1.4012812,1.9278864,-2.0946834,-1.5722855,2.4396179,-0.10821557,0.20476972,-0.24792904,0.060348064,-0.0130998725,-0.10870541,-0.076614454,0.36391866,-9.500193,0.87617236,47.6636,-0.996423,-2.072172,-3.470411,-0.095504135,-0.17727476,-0.36092246,27.6875,28.8125,27.9375,31.875,33.9375,34.75
0.25004205,-0.25888,-1.1564827,-1.5310345,-0.02950266,0.030754527,-0.15028843,-0.3959412,-0.3480184,0.059974138,-3.0767598,0.62447375,-1.3162823e-05,-0.11824329,0.0074767335,-0.0021123937,0.02080469,-0.014146054,0.0058581647,0.46441838,-1.4008486,1.9273952,-2.0945618,-1.5722979,2.439364,-0.109421566,0.20572276,-0.2493188,0.06541902,-0.012803568,-0.11510878,-0.076614454,0.2681506,-9.3661175,0.8717007,47.677036,-0.9766165,-2.008864,-3.4910011,-0.1433326,-0.18327273,-0.28928536,27.6875,28.8125,27.9375,31.875,33.9375,34.75
0.25204208,0.2359911,-0.8347643,-1.7409359,-0.0057264105,0.03086487,-0.14529036,-0.39620224,-0.34800854,0.05996769,-3.076731,0.6245229,-2.3078683e-05,-0.11842083,0.007500928,-0.0025277778,0.02114235,-0.015203456,0.010277027,0.46417817,-1.4004039,1.9268707,-2.094466,-1.5723099,2.4391584,-0.109631106,0.20713656,-0.25023523,0.066005886,-0.012646007,-0.11973706,0.0,0.22984336,-9.442732,0.8717007,47.66987,-0.97677433,-1.8891895,-3.4329739,-0.17448696,-0.18291911,-0.21580552,27.6875,28.8125,27.9375,31.875,33.9375,34.75
0.25405225,0.01701076,-1.2476742,-1.816954,-0.009465853,0.02976965,-0.1426212,-0.39642724,-0.34795192,0.059931215,-3.0765805,0.6244899,-0.00015071967,-0.119371735,0.00740175,-0.00318756,0.022037132,-0.016717816,0.012763748,0.46392623,-1.3999575,1.926391,-2.0942738,-1.5723819,2.4389055,-0.11011774,0.21078333,-0.25332803,0.067190416,-0.012801775,-0.122706376,0.13407528,0.30645782,-9.519346,0.8314132,47.684196,-0.998757,-2.1303012,-3.6114316,-0.17619021,-0.18081611,-0.193876,27.6875,28.8125,27.9375,31.875,33.9375,34.75
0.25604227,-0.56479305,-1.7724681,-1.4393173,-0.035091255,0.031364128,-0.13206726,-0.396668,-0.34795374,0.059936192,-3.0765812,0.6244905,-0.0001812702,-0.119780056,0.00757546,-0.0031930595,0.022642659,-0.01815207,0.011664299,0.4637099,-1.3995492,1.925877,-2.0941536,-1.5723704,2.4386897,-0.110757716,0.21212764,-0.2555002,0.06957122,-0.012707545,-0.12224632,0.095768064,0.24899697,-9.3661175,0.8537928,47.687782,-1.0037907,-2.1256304,-3.564715,-0.23190348,-0.19293733,-0.1410647,27.6875,28.8125,27.9375,31.875,33.9375,34.75
0.25804195,-0.5371482,-1.7436392,-1.5512627,-0.04539729,0.028107783,-0.13709368,-0.39692327,-0.3479306,0.059941396,-3.0765462,0.6243869,-0.0001426473,-0.120334275,0.0066507584,-0.0020702085,0.022294126,-0.016802153,0.011786252,0.4634824,-1.3991407,1.925362,-2.094033,-1.57243,2.4384024,-0.109350905,0.21230692,-0.25873077,0.07125264,-0.013008202,-0.12095933,0.076614454,0.24899697,-9.212888,0.8560339,47.674347,-1.1130441,-2.0300937,-3.491374,-0.26190633,-0.18145996,-0.14831665,27.6875,28.8125,27.9375,31.875,33.9375,34.75
0.26005197,-0.36381292,-1.5008539,-1.6756095,-0.049085844,0.017740473,-0.13803852,-0.39716464,-0.34792984,0.059925545,-3.076508,0.624481,-0.00024494802,-0.122512385,0.0073694107,-0.0019294536,0.0216806,-0.016517306,0.0012439501,0.46325308,-1.3986834,1.9248356,-2.0939014,-1.5724057,2.438237,-0.112698585,0.21438499,-0.2616346,0.07156067,-0.0125942705,-0.11376374,0.22984336,0.24899697,-9.270349,0.8224646,47.667187,-0.94693553,-2.0741997,-3.4101977,-0.2895326,-0.18856922,-0.19530073,27.6875,28.8125,27.9375,31.875,33.9375,34.75
0.262042,0.43874484,-1.5322957,-1.5617155,-0.04932038,0.028863339,-0.14514974,-0.39741158,-0.34791452,0.059944905,-3.0764687,0.6243386,-0.00016841506,-0.1227396,0.0059401523,-0.0027998828,0.022410292,-0.017160263,-0.00073242607,0.46306235,-1.3982974,1.9243091,-2.0937583,-1.5724896,2.4379628,-0.110086784,0.21859258,-0.26453725,0.07115495,-0.012964931,-0.109172545,0.15322891,0.22984336,-9.3661175,0.8873621,47.677036,-1.187016,-2.1373582,-3.4594512,-0.32221633,-0.19656518,-0.2689004,27.6875,28.8125,27.9375,31.875,33.9375,34.75
0.26404214,0.32456622,-1.5777395,-1.3684897,-0.047372155,0.027065838,-0.141583,-0.3976322,-0.34790346,0.05990806,-3.076379,0.62432224,-0.00032271314,-0.12568583,0.0064209546,-0.002401516,0.02112488,-0.014632233,-0.0051704897,0.46285692,-1.3978161,1.9237942,-2.0935915,-1.572502,2.437759,-0.1134297,0.22072205,-0.26759523,0.069245726,-0.012972566,-0.108073905,0.15322891,0.17238252,-9.308657,0.8179876,47.723602,-0.9372418,-2.2057064,-3.446827,-0.30082172,-0.21293348,-0.30754322,27.6875,28.8125,27.9375,31.875,33.9375,34.75
0.2660524,-0.01759903,-1.410384,-1.7012767,-0.04580458,0.023846522,-0.14490987,-0.39787865,-0.34787452,0.059888333,-3.076306,0.6243642,-0.0003905657,-0.12727948,0.005420451,-0.00091743906,0.018944487,-0.010366915,-0.0050595533,0.46260533,-1.397372,1.9232916,-2.0934603,-1.5725263,2.4375432,-0.113001995,0.22026563,-0.2701324,0.06744408,-0.012947557,-0.10775518,0.15322891,0.2681506,-9.346964,0.8851263,47.703903,-1.1427431,-2.1239367,-3.298345,-0.3113452,-0.2084172,-0.3016672,27.6875,28.8125,27.9375,31.875,33.9375,34.75
0.26804227,-0.37201893,-1.8286071,-1.6611936,-0.054391444,0.03974469,-0.1449556,-0.39813527,-0.34787792,0.05990546,-3.0762913,0.62434286,-0.00037170353,-0.12958711,0.005017269,-0.00078448217,0.017525274,-0.008549174,-0.0071587865,0.46240088,-1.3969507,1.9227284,-2.0933168,-1.5725497,2.4373276,-0.1145134,0.2232187,-0.27356443,0.06565762,-0.01250267,-0.10716672,-0.076614454,0.30645782,-9.442732,0.900793,47.68599,-1.147036,-2.219999,-3.34487,-0.28727236,-0.22267139,-0.35141516,27.6875,28.8125,27.9375,31.875,33.9375,34.75
0.27004218,-0.93893546,-2.168821,-1.7294337,-0.074912384,0.062051456,-0.13324484,-0.39838293,-0.34787384,0.059903696,-3.0762565,0.62431645,-0.00042229376,-0.13082556,0.0047651445,-0.00036549865,0.016089767,-0.006612336,-0.008878715,0.46218443,-1.3965062,1.9221786,-2.0931623,-1.5725621,2.4370995,-0.11532475,0.2237269,-0.27484274,0.06405043,-0.012094938,-0.10625822,-0.19153613,0.45968673,-9.442732,0.78888994,47.70032,-1.070843,-2.1386962,-3.4413662,-0.26880753,-0.23679914,-0.3776576,27.6875,28.8125,27.9375,31.875,33.9375,34.75
0.2720522,-1.5309283,-3.0124996,-1.9013479,-0.080692865,0.08447474,-0.13894865,-0.39861837,-0.34785095,0.059887044,-3.0761437,0.62434787,-0.0005135121,-0.13204229,0.0046566804,0.00061490946,0.014849478,-0.0035399531,-0.0047709504,0.46196833,-1.3960496,1.9216403,-2.0929706,-1.5726098,2.4369178,-0.115929104,0.22286367,-0.2758342,0.06258638,-0.01238327,-0.110967785,-0.2681506,0.51714754,-9.576807,0.93436235,47.709274,-1.0934289,-2.016059,-3.506392,-0.27211916,-0.256321,-0.36150253,27.6875,28.8125,27.9375,31.875,33.9375,34.75
0.27404335,-1.7711114,-2.8274217,-1.9205738,-0.10464536,0.119998604,-0.1413363,-0.398875,-0.3478575,0.05987917,-3.076154,0.62435097,-0.00055614515,-0.13273072,0.0048578978,0.0005098098,0.014124725,-0.0021669958,-0.0045700218,0.46174002,-1.3955934,1.9211038,-2.0928762,-1.5725859,2.4366903,-0.116801366,0.22298057,-0.27533627,0.06041739,-0.01235601,-0.11204101,-0.40222588,0.4213795,-9.653421,0.9455522,47.682407,-1.1080234,-2.0612469,-3.7059739,-0.24908726,-0.24881706,-0.36345768,27.6875,28.8125,27.9375,31.875,33.9375,34.75
0.27604264,-2.277458,-2.686335,-1.9748762,-0.10336679,0.12795222,-0.14740165,-0.39915594,-0.34784204,0.05985963,-3.0761235,0.6243786,-0.000578892,-0.1358844,0.0057351715,0.0011152575,0.013305611,0.00074123143,-0.00027292527,0.46147484,-1.3951005,1.9205536,-2.0927927,-1.5725979,2.4364467,-0.12060279,0.22466093,-0.27842832,0.058842506,-0.012949057,-0.12013559,-0.53630114,0.4213795,-9.749189,0.900793,47.655537,-1.0629811,-1.9790816,-3.7170284,-0.22722596,-0.25861865,-0.28736433,27.6875,28.8125,27.9375,31.875,33.9375,34.75
0.2780525,-2.2448828,-2.0120585,-1.9396604,-0.082781784,0.12816349,-0.14267235,-0.39939263,-0.3478305,0.059852585,-3.0760815,0.6243669,-0.0006694106,-0.13641289,0.003708597,0.0018441249,0.010999931,0.0036817447,0.0070023406,0.46124786,-1.3946679,1.9200262,-2.0926263,-1.5725979,2.436218,-0.1178949,0.22538601,-0.28050625,0.056521766,-0.012222166,-0.12470351,-0.6895301,0.30645782,-9.787497,0.9388393,47.64658,-1.1089787,-1.8817306,-3.6421857,-0.19374165,-0.28114593,-0.24972703,27.6875,28.8125,27.9375,31.875,33.9375,34.75
0.280043,-2.148383,-1.6064408,-1.8435944,-0.04999452,0.12710613,-0.1425817,-0.39969975,-0.347844,0.059882596,-3.0761251,0.62431604,-0.0005481826,-0.13931459,0.004788423,0.0013647577,0.009997727,0.0041880705,0.009654819,0.46101806,-1.3942105,1.9194039,-2.092543,-1.5726212,2.4359512,-0.12261281,0.22868249,-0.2829671,0.054764558,-0.011564014,-0.13207556,-0.6895301,0.24899697,-9.730036,0.947788,47.63315,-0.9423727,-1.8162531,-3.7143703,-0.15451372,-0.31062388,-0.16278413,27.6875,28.8125,27.9375,31.875,33.9375,34.75
0.28204197,-1.8966014,-0.55865395,-2.2026846,-0.024228647,0.116405256,-0.14241828,-0.39997408,-0.34784663,0.059873905,-3.0761418,0.62418085,-0.00054158526,-0.14047264,0.003089241,0.0019360589,0.009234096,0.0070806053,0.015889362,0.46079117,-1.3937291,1.9188417,-2.0924594,-1.5726336,2.4356382,-0.12016229,0.23085375,-0.28657314,0.053259812,-0.012185557,-0.13585556,-0.6703765,0.17238252,-9.730036,0.9567419,47.647476,-1.0997515,-1.8202319,-3.6815128,-0.10602117,-0.302621,-0.07122907,27.6875,28.8125,27.9375,31.875,33.9375,34.75
0.28405213,-1.9019699,-0.35947344,-2.1084487,-0.01037355,0.11092421,-0.14643417,-0.40027425,-0.34782508,0.059887916,-3.0761197,0.6242534,-0.00046795438,-0.14158997,0.0029052445,0.0028423166,0.009294355,0.007832888,0.015541564,0.460515,-1.3932841,1.9182671,-2.0923626,-1.5726699,2.4354105,-0.120451674,0.2316111,-0.29009825,0.055374034,-0.012571453,-0.13579507,-0.842759,0.13407528,-9.844957,0.90750587,47.698532,-1.1937743,-1.916549,-3.6243563,-0.095538154,-0.32262778,-0.05139267,27.6875,28.8125,27.9375,31.875,33.9375,34.75
0.286043,-1.8699439,-0.6702296,-1.7820951,-0.019022074,0.120491244,-0.13875113,-0.40054524,-0.34781012,0.059879217,-3.0760553,0.62416595,-0.0004482542,-0.14389236,0.0031065515,0.0022487058,0.0107304305,0.008342187,0.0103801815,0.4602987,-1.392802,1.917693,-2.0922315,-1.5727423,2.4351482,-0.12174566,0.23635837,-0.29432943,0.05504092,-0.014091352,-0.13191956,-0.6703765,-0.05746084,-9.864111,0.88960326,47.705692,-1.123875,-2.053588,-3.5323954,-0.09379529,-0.3386225,-0.06964469,27.6875,28.8125,27.9375,31.875,33.9375,34.75
0.288042,-1.4789237,-0.557936,-2.037181,-0.019540487,0.124010295,-0.14122249,-0.40085748,-0.34780058,0.059884414,-3.0760655,0.6241899,-0.0004230204,-0.14480363,0.0030850985,0.0015273921,0.011383342,0.0069488017,0.0043192804,0.4600105,-1.3923082,1.9170812,-2.0921357,-1.5727423,2.434874,-0.12240181,0.2397609,-0.29695174,0.05580646,-0.0140475035,-0.12651393,-0.61291564,-0.11492168,-9.940725,0.84708,47.66808,-1.1211985,-2.1282547,-3.3696218,-0.046258558,-0.3240202,-0.12049696,27.6875,28.8125,27.9375,31.875,33.9375,34.75
0.29005224,-1.848329,-1.1028689,-2.0091674,-0.022491511,0.11141105,-0.13966122,-0.40115187,-0.34779087,0.059884235,-3.0760417,0.62428427,-0.00040408527,-0.14594875,0.0040994682,0.0012459187,0.013082612,0.0056991074,-0.0009543235,0.4597456,-1.3918272,1.9164962,-2.0920389,-1.5727547,2.4346714,-0.12443691,0.24186076,-0.29937366,0.058007788,-0.015008494,-0.123271376,-0.63206923,-0.05746084,-9.940725,0.9388393,47.686886,-1.0505188,-2.3113053,-3.4212592,-0.025463227,-0.3388638,-0.15379818,27.6875,28.8125,27.9375,31.875,33.9375,34.75
0.29204294,-1.7441539,-0.74257743,-1.9343287,-0.041695815,0.10308245,-0.13691144,-0.4014298,-0.34779665,0.05989659,-3.0760329,0.62422866,-0.00038681916,-0.14515023,0.0052687596,0.0009415205,0.014811386,0.0025674892,-0.008720731,0.4595294,-1.3913587,1.9158863,-2.0918944,-1.5727786,2.434422,-0.12558414,0.24131174,-0.29898512,0.061750364,-0.015147108,-0.11665264,-0.63206923,-0.038307227,-9.768343,0.9298854,47.657326,-1.0158992,-2.2768285,-3.484889,-0.039638005,-0.34626383,-0.22334962,27.6875,28.8125,27.9375,31.875,33.9375,34.75
0.29404232,-1.3169819,-1.2735119,-2.0527108,-0.026731908,0.09072844,-0.14024657,-0.40177113,-0.34776965,0.059938192,-3.0760407,0.6243255,-0.0002120821,-0.14630133,0.0057627913,0.00012220812,0.015830982,0.0029976105,-0.009909996,0.4592171,-1.3909258,1.915265,-2.091811,-1.5728272,2.4341695,-0.12660992,0.24385644,-0.29982197,0.060103226,-0.016246207,-0.11648633,-0.38307226,-0.038307227,-9.825804,0.8493211,47.68062,-1.0224822,-2.223914,-3.6123388,-0.016597465,-0.34769014,-0.23709129,27.6875,28.8125,27.9375,31.875,33.9375,34.75
0.29605252,-1.2209045,-1.2620199,-1.5066617,-0.052697677,0.09321511,-0.14102258,-0.40205777,-0.347769,0.059929017,-3.0759873,0.6242594,-0.0001637227,-0.146834,0.005732007,0.00062710873,0.016306985,0.00346928,-0.013616473,0.45901293,-1.3904092,1.9146556,-2.0917027,-1.5728992,2.4339314,-0.12651177,0.2441895,-0.30180424,0.061539866,-0.016878542,-0.11267889,-0.49799395,-0.11492168,-9.595961,0.90750587,47.640312,-0.9163965,-2.088212,-3.6644645,-0.00052950624,-0.35471404,-0.31898385,27.6875,28.8125,27.9375,31.875,33.9375,34.75
0.29804307,-1.1508554,-0.7793593,-1.4591471,-0.039947975,0.07218897,-0.13678277,-0.40235212,-0.3477633,0.05992695,-3.0759635,0.6243714,-0.0001697994,-0.14916736,0.0063761985,0.0019216739,0.015578121,0.004827684,-0.018971886,0.4587482,-1.3899158,1.9140567,-2.091594,-1.5728992,2.43374,-0.12955847,0.24471113,-0.30595136,0.06362543,-0.016827956,-0.11036895,-0.4022259,-0.076614454,-9.423578,0.9388393,47.647476,-1.0126334,-2.1422696,-3.5837655,0.021732472,-0.32841223,-0.37081224,27.6875,28.8125,27.9375,31.875,33.9375,34.75
0.30004197,-0.19922689,-0.24263188,-1.5296084,-0.0055562104,0.07112158,-0.14135274,-0.40265813,-0.34774393,0.059944596,-3.0759234,0.62445897,-0.00012491173,-0.14892712,0.00577653,0.0026536712,0.015889252,0.0047687134,-0.018224271,0.45847273,-1.3894482,1.9134349,-2.0914495,-1.5729355,2.4335246,-0.12802416,0.24446884,-0.30799854,0.06609987,-0.01707778,-0.10958131,-0.2681506,-0.05746084,-9.3661175,0.9298854,47.652847,-1.018529,-2.0443888,-3.5578246,0.03054676,-0.35502362,-0.4324506,27.6875,28.8125,27.9375,31.875,33.9375,34.75
0.30205226,0.07595339,0.043729566,-1.4241613,0.0038274175,0.063065015,-0.14458895,-0.40297306,-0.34773123,0.059954505,-3.0758736,0.62454355,-7.152127e-05,-0.14985345,0.005326252,0.0030515078,0.015565563,0.0035643796,-0.01645202,0.4582086,-1.3889427,1.9127887,-2.0913165,-1.5729831,2.43332,-0.12842909,0.24662478,-0.3122289,0.06909375,-0.016260924,-0.111759834,-0.24899697,-0.038307227,-9.32781,0.9791215,47.661808,-0.9576156,-1.8586962,-3.4783196,0.016796194,-0.36335436,-0.46510532,27.6875,28.8125,27.9375,31.875,33.9375,34.75
0.3040433,0.26850024,0.13874416,-1.3331532,0.012585658,0.048761662,-0.15462738,-0.40326554,-0.34773138,0.05995724,-3.0758746,0.6245397,-7.5127085e-05,-0.15041949,0.005864654,0.004329109,0.016374756,0.0036428417,-0.011834571,0.4579564,-1.3884509,1.9121774,-2.0911958,-1.5729831,2.4330657,-0.1292471,0.2455365,-0.31487915,0.073106155,-0.017029,-0.117192544,-0.038307227,0.019153614,-9.232041,0.8493211,47.705692,-0.96439445,-1.7950026,-3.3881173,-0.0095747635,-0.34707412,-0.43942928,27.6875,28.8125,27.9375,31.875,33.9375,34.75
0.30604187,0.34956995,-0.16373225,-1.5696867,0.0057428675,0.03946841,-0.14605086,-0.4035933,-0.34769773,0.059975605,-3.0758154,0.62452143,1.2289479e-05,-0.15029436,0.006300652,0.003678233,0.01843887,-0.00016153572,-0.001684681,0.45766842,-1.3879575,1.9115204,-2.091039,-1.5730675,2.4327743,-0.1296475,0.24807194,-0.31746438,0.07744186,-0.017214986,-0.12774168,-0.019153614,0.17238252,-9.193734,0.8717007,47.681515,-1.063563,-1.746174,-3.4018483,-0.049430575,-0.3723892,-0.3778175,27.6875,28.8125,27.9375,31.875,33.9375,34.75
0.30805206,-0.24854364,-0.8921032,-1.5635036,-0.024883408,0.03584093,-0.14303958,-0.40387908,-0.34767598,0.059966125,-3.0757456,0.624541,-9.061429e-05,-0.14889571,0.007584523,0.0015101107,0.02352943,-0.009097241,0.005050341,0.45739228,-1.3874395,1.9108862,-2.090832,-1.57308,2.4325197,-0.13015467,0.25261948,-0.31980148,0.085475594,-0.017850466,-0.13497972,0.11492168,0.2681506,-9.32781,0.8672237,47.6636,-1.0746309,-1.7210237,-3.3803992,-0.1249105,-0.36372268,-0.31956896,27.6875,28.8125,27.9375,31.875,33.9375,34.75
0.31004184,-0.17253904,-1.8162687,-1.489532,-0.057803877,0.048240684,-0.13816899,-0.4041748,-0.34767365,0.059982188,-3.0756967,0.6245469,-6.5543914e-05,-0.14902374,0.0075732227,0.00036122513,0.025795717,-0.011903453,0.012402636,0.457164,-1.3869451,1.9102277,-2.0906522,-1.5731281,2.4323018,-0.12961954,0.25649124,-0.322337,0.08763377,-0.01866546,-0.1417927,0.15322891,0.2681506,-9.270349,0.8873621,47.667187,-0.9530902,-1.9697943,-3.4804382,-0.16843364,-0.36417288,-0.20760527,27.6875,28.8125,27.9375,31.875,33.9375,34.75
0.31204236,-0.4860908,-2.5137963,-1.4515287,-0.06766794,0.049038604,-0.13259363,-0.40450972,-0.34763312,0.060015634,-3.0756605,0.6244998,2.378981e-05,-0.1485064,0.009905411,-0.00045438256,0.02835936,-0.017283995,0.0130667845,0.45685095,-1.386477,1.9095596,-2.0904706,-1.5732001,2.4319644,-0.13312864,0.25672388,-0.32209152,0.09308885,-0.018591845,-0.14596753,0.11492168,0.30645782,-9.232041,0.83813137,47.651955,-1.0510318,-2.0243077,-3.3788052,-0.24550068,-0.35641724,-0.1472064,27.6875,28.8125,27.9375,31.875,33.9375,34.75
0.31405255,0.01949777,-1.99707,-1.2573231,-0.07607111,0.056508563,-0.13976176,-0.40480208,-0.34761548,0.0600209,-3.0756156,0.6244127,1.8888844e-05,-0.1488085,0.009300337,-0.0006408892,0.028664084,-0.017575521,0.013799376,0.45659947,-1.3859831,1.9089259,-2.0902913,-1.5732483,2.4316647,-0.13211925,0.25864255,-0.3241618,0.0936264,-0.018752364,-0.14568861,0.05746084,0.36391866,-9.289502,0.76874626,47.677036,-1.0558636,-1.9925835,-3.487144,-0.30066526,-0.3562116,-0.11082655,27.6875,28.8125,27.9375,31.875,33.9375,34.75
0.31604213,-0.032876093,-1.8263236,-1.2754157,-0.07302923,0.050624255,-0.1332053,-0.4050922,-0.34760925,0.060004517,-3.0755732,0.6243882,-4.870001e-05,-0.15043433,0.009547826,0.00028226944,0.027635459,-0.014520301,0.007906211,0.45634717,-1.3854431,1.9082922,-2.0901358,-1.5732602,2.431403,-0.13354634,0.25815448,-0.32551435,0.09227816,-0.019188622,-0.14121947,0.13407528,0.47884035,-9.251195,0.8918391,47.691364,-0.9769596,-1.9833999,-3.6258588,-0.31397906,-0.37262422,-0.13701865,27.6875,28.8125,27.9375,31.875,33.9375,34.75
0.31804192,0.11571118,-1.887663,-1.2061716,-0.06383229,0.04099749,-0.13361366,-0.40543792,-0.34759784,0.06003869,-3.0755606,0.6244284,2.5934497e-07,-0.15380518,0.009348137,0.0009822438,0.025450082,-0.010460654,-0.0014629065,0.45604637,-1.384926,1.9075621,-2.0899456,-1.5732845,2.4311292,-0.1360459,0.26065004,-0.32946098,0.089130476,-0.019021064,-0.13434877,0.1340753,0.49799395,-9.212888,0.81351066,47.682407,-0.8835006,-1.797194,-3.5412588,-0.31678802,-0.33822346,-0.1970881,27.6875,28.8125,27.9375,31.875,33.9375,34.75
0.3200522,-0.28214717,-2.163234,-0.9937363,-0.067237295,0.030483348,-0.13077699,-0.4057433,-0.3475815,0.060039718,-3.0754924,0.62445533,2.4612771e-05,-0.15684728,0.008795009,0.0021693646,0.0231649,-0.0045556566,-0.0069439476,0.4557939,-1.3844091,1.906916,-2.0897915,-1.5733441,2.4309027,-0.13720815,0.2616276,-0.33247718,0.084862135,-0.019584727,-0.13002591,0.076614454,0.47884035,-9.097966,0.82022345,47.65912,-0.8014324,-1.8256321,-3.3859978,-0.2750135,-0.34513134,-0.25207555,27.6875,28.8125,27.9375,31.875,33.9375,34.75
0.32204273,-0.03293976,-1.9718788,-1.3019657,-0.06891518,0.027401756,-0.13452409,-0.4060428,-0.34755543,0.06002002,-3.0753999,0.6244177,-2.3614215e-05,-0.15913372,0.0073918216,0.0029021895,0.021169253,0.00062112435,-0.008896556,0.4555304,-1.3838562,1.906269,-2.0896137,-1.5734047,2.430628,-0.1362826,0.2635605,-0.3355737,0.08049592,-0.020095589,-0.12714252,0.05746084,0.47884035,-9.11712,0.8851263,47.64479,-0.8732376,-1.7506258,-3.455742,-0.24093536,-0.33902282,-0.30893487,27.6875,28.8125,27.9375,31.875,33.9375,34.75
0.32404202,-0.13486949,-2.258923,-1.4398211,-0.07698377,0.038606163,-0.13684888,-0.40633845,-0.3475491,0.060030613,-3.075386,0.6244139,-5.810241e-05,-0.16091348,0.0062599345,0.0034591723,0.018884022,0.004502293,-0.008923567,0.45526648,-1.3833635,1.9056233,-2.0894353,-1.5734042,2.430364,-0.13591574,0.26491162,-0.33772206,0.07679745,-0.019767754,-0.1267481,-0.05746084,0.49799395,-9.346964,0.8403672,47.69763,-0.89422727,-1.6620588,-3.3881912,-0.21276346,-0.35242346,-0.35065806,27.6875,28.8125,27.9375,31.875,33.9375,34.75
0.32605183,-0.8051868,-3.2361212,-1.4952136,-0.07990563,0.061003983,-0.1236992,-0.40666392,-0.3475416,0.06002618,-3.075337,0.62447923,-7.18118e-05,-0.16137987,0.005554255,0.0022568724,0.018516483,0.003956208,-0.008098627,0.45499083,-1.3827972,1.9049305,-2.0892808,-1.5734285,2.4301357,-0.13530117,0.268345,-0.33869103,0.07465126,-0.019209966,-0.12695912,-0.095768064,0.51714754,-9.2703495,0.9030289,47.691364,-1.114275,-1.7263281,-3.4287987,-0.16658744,-0.33972853,-0.3889956,27.6875,28.8125,27.9375,31.875,33.9375,34.75
0.3280425,-1.4587843,-2.782408,-1.583898,-0.09387918,0.07687359,-0.12452044,-0.40699944,-0.3475301,0.060059704,-3.0753276,0.62447685,2.718416e-05,-0.16255681,0.0050000823,0.0031473583,0.017467037,0.0071568573,-0.005657938,0.45471466,-1.3823048,1.9042376,-2.0891254,-1.5734762,2.4298596,-0.13490632,0.26824173,-0.3403594,0.07307159,-0.019680178,-0.12900358,-0.21068975,0.4213795,-9.385271,0.88289046,47.664497,-1.0630268,-1.6991975,-3.425301,-0.11858322,-0.35395786,-0.36623153,27.6875,28.8125,27.9375,31.875,33.9375,34.75
0.33004203,-1.1273614,-2.6368482,-1.320751,-0.07638331,0.10772454,-0.13920131,-0.40731707,-0.34752122,0.060036737,-3.0752616,0.6244025,4.579975e-05,-0.16463187,0.006028133,0.0032243032,0.016836897,0.00808115,-0.0035984854,0.45447364,-1.3817159,1.9035677,-2.0890057,-1.5735482,2.4295812,-0.13840413,0.26952943,-0.34203368,0.07232103,-0.01954247,-0.13456003,-0.13407528,0.38307226,-9.385271,0.86945957,47.675243,-1.0726584,-1.7645018,-3.5670667,-0.08636091,-0.36307096,-0.3590629,27.6875,28.8125,27.9375,31.875,33.9375,34.75
0.33205214,-1.3428048,-1.7819686,-1.1663606,-0.061422624,0.111084774,-0.13131574,-0.4076526,-0.34752592,0.06005359,-3.0753179,0.6243708,4.9669445e-05,-0.16485104,0.005368883,0.0029091686,0.017191177,0.0082291635,0.0062363953,0.4541742,-1.3811868,1.9028744,-2.088874,-1.5735129,2.429255,-0.13704698,0.27136773,-0.34354445,0.07199279,-0.019943591,-0.14303635,-0.17238253,0.36391866,-9.346964,0.9567419,47.695843,-1.050138,-1.5876436,-3.564017,-0.063445404,-0.34022856,-0.29691803,27.6875,28.8125,27.9375,31.875,33.9375,34.75
0.3340534,-1.0844136,-0.91311455,-1.1921309,-0.038053866,0.10678525,-0.13755229,-0.4079833,-0.34749985,0.060026076,-3.0752387,0.6244084,5.6766676e-05,-0.16654292,0.0062001697,0.0017625145,0.018358676,0.007052126,0.01086603,0.45388547,-1.3805971,1.9022158,-2.0887668,-1.573573,2.4290004,-0.13942629,0.2754895,-0.34590352,0.071767785,-0.020503232,-0.15004128,-0.24899697,0.30645782,-9.308657,0.8314132,47.687782,-0.99301726,-1.6736467,-3.632679,-0.049966805,-0.34221143,-0.19000146,27.6875,28.8125,27.9375,31.875,33.9375,34.75
0.3360526,-1.0244365,-0.40099022,-1.3358384,-0.022227239,0.09488859,-0.13348962,-0.40829742,-0.34749374,0.060028985,-3.0751956,0.6242623,6.0108465e-05,-0.1677136,0.006145975,0.0011177355,0.019100543,0.0064290403,0.014880599,0.4536453,-1.380043,1.9015106,-2.0885746,-1.5736326,2.428675,-0.13993332,0.2789643,-0.34873226,0.071981676,-0.020919263,-0.15455922,-0.4405331,0.22984336,-9.3661175,0.900793,47.677036,-1.0287089,-1.9537773,-3.588654,-0.0076826597,-0.3591054,-0.069951355,27.6875,28.8125,27.9375,31.875,33.9375,34.75
0.33805227,-1.1898972,-1.2337047,-1.2053764,-0.009077703,0.09072713,-0.12774163,-0.40865576,-0.3474934,0.060054407,-3.075227,0.62432563,0.000114563736,-0.16818202,0.006255559,0.00010757622,0.020960728,0.004751446,0.015726555,0.4533336,-1.3795013,1.900782,-2.0884426,-1.5736212,2.428399,-0.13977481,0.28241655,-0.35088277,0.07299995,-0.021853032,-0.15524343,-0.5554548,0.17238252,-9.251195,0.8784135,47.66271,-1.1115147,-1.8808107,-3.5611377,0.027716976,-0.33358502,-0.08066665,27.6875,28.8125,27.9375,31.875,33.9375,34.75
0.3400521,-1.0539052,-0.8683746,-1.3265706,-0.008984799,0.08689793,-0.12592477,-0.40899685,-0.34747034,0.0600368,-3.075164,0.6242591,0.00017269302,-0.16867557,0.006721578,-0.0009284794,0.023076948,0.0022709647,0.009607846,0.45305708,-1.3789107,1.9000987,-2.0883343,-1.5737051,2.4280896,-0.1403461,0.28587902,-0.3532374,0.075049706,-0.022662165,-0.14969178,-0.4405331,0.05746084,-9.232041,0.8560339,47.65912,-0.9637046,-2.0302234,-3.5309157,0.04520834,-0.3259849,-0.102797836,27.6875,28.8125,27.9375,31.875,33.9375,34.75
0.34205225,-1.0264554,-0.6782778,-1.1889558,-0.016592858,0.09502993,-0.13266245,-0.40934315,-0.3474641,0.06004815,-3.0751462,0.62427855,0.00020293341,-0.16967283,0.008156154,-9.864845e-06,0.02391033,0.0011497459,0.00070195773,0.45276833,-1.3783468,1.8993696,-2.088177,-1.5737294,2.4278157,-0.14335795,0.2852621,-0.35576645,0.07957753,-0.022904543,-0.14379688,-0.6512229,0.05746084,-9.346964,0.8605109,47.661808,-0.99861485,-2.0897243,-3.592928,0.00406937,-0.3299485,-0.16313852,27.6875,28.8125,27.9375,31.875,33.9375,34.75
0.34405237,-1.2226824,-0.6962039,-0.78934395,-0.03474311,0.09701918,-0.13432573,-0.40965712,-0.34744474,0.060020525,-3.0750284,0.62417835,0.00016952882,-0.17023873,0.0064147227,0.00073271536,0.024101697,0.002040545,-0.0015838696,0.45252934,-1.377734,1.8986634,-2.0879848,-1.5738257,2.4275298,-0.1403415,0.28753376,-0.36076117,0.08158289,-0.023476884,-0.13848844,-0.61291564,0.019153614,-9.174581,0.89631605,47.68599,-1.1297439,-1.9769549,-3.3978581,0.011531876,-0.31783244,-0.22120363,27.6875,28.8125,27.9375,31.875,33.9375,34.75
0.34605193,-0.67728144,-0.34261376,-0.798951,-0.022542479,0.09874485,-0.14508791,-0.410007,-0.34744364,0.060017623,-3.075022,0.6242555,0.000121730256,-0.16946043,0.0074282754,0.0007343886,0.026567334,-0.002743317,-0.0061114407,0.452217,-1.3771327,1.8979214,-2.0878265,-1.5738019,2.4272668,-0.14120053,0.28793472,-0.36303657,0.08884596,-0.023589242,-0.13481912,-0.5363012,-0.019153614,-9.136273,0.8291774,47.65912,-1.1380401,-1.9489119,-3.393959,-0.021188328,-0.31624413,-0.27743578,27.6875,28.8125,27.9375,31.875,33.9375,34.75
0.34805173,-1.0538626,-0.22498818,-0.74796504,-0.011898514,0.08086793,-0.13231713,-0.41035315,-0.34742966,0.060037613,-3.0749698,0.62420887,0.00020968844,-0.16907154,0.007847272,0.00053102867,0.027996229,-0.0058819386,-0.01042043,0.45195308,-1.3765802,1.8971804,-2.0876462,-1.5738858,2.426981,-0.1415083,0.2889513,-0.36488652,0.0931221,-0.023491561,-0.1308183,-0.57460845,0.05746084,-9.078813,0.94331104,47.67614,-1.1647487,-1.9092703,-3.4396374,-0.07467627,-0.29302227,-0.3451403,27.6875,28.8125,27.9375,31.875,33.9375,34.75
0.3500517,-0.99491274,-0.55294925,-0.70705515,0.0098247295,0.06975796,-0.1306245,-0.4106686,-0.3474133,0.059999894,-3.074862,0.62424487,0.00012728336,-0.16880108,0.008562441,0.00070409296,0.030230165,-0.00828199,-0.013713679,0.45168883,-1.3759553,1.8964866,-2.0874765,-1.573934,2.4267535,-0.14177206,0.28926992,-0.36691472,0.097967364,-0.02445772,-0.12778273,-0.4213795,-0.13407528,-9.002198,0.9097417,47.645687,-1.1852106,-1.8856816,-3.506689,-0.122199036,-0.28834888,-0.43030548,27.6875,28.8125,27.9375,31.875,33.9375,34.75
0.35205168,-0.29828754,-0.28860486,-0.8512352,0.03006152,0.064210095,-0.1273211,-0.41104445,-0.34738263,0.06000618,-3.0747926,0.624289,0.00018821724,-0.16899122,0.009644718,-6.071644e-05,0.032959625,-0.010822101,-0.015656034,0.4513646,-1.375354,1.8957208,-2.0873077,-1.5740064,2.4264662,-0.14279029,0.29129124,-0.36838478,0.10088371,-0.025807338,-0.12685305,-0.34476507,-0.095768064,-8.963891,1.0507371,47.65464,-1.2372037,-1.746459,-3.4739652,-0.18976787,-0.26526988,-0.48640063,27.6875,28.8125,27.9375,31.875,33.9375,34.75
0.35405177,-0.5022763,-0.118476056,-0.6949796,0.014956452,0.057280738,-0.13311736,-0.41135773,-0.34735087,0.059982676,-3.074658,0.6243518,6.271493e-05,-0.16964988,0.0101142265,-0.0010414522,0.03406711,-0.013331079,-0.010419185,0.45107627,-1.3747523,1.8950032,-2.0870564,-1.5740546,2.426235,-0.14404401,0.2945468,-0.3705398,0.102488875,-0.025751704,-0.1333396,-0.40222588,-0.1340753,-9.002198,0.8851263,47.65643,-1.1593513,-1.9246075,-3.5052147,-0.21650383,-0.23576269,-0.46393842,27.6875,28.8125,27.9375,31.875,33.9375,34.75
0.35605183,-0.4236449,-0.19539052,-0.69992,-0.0002567305,0.060368273,-0.14031965,-0.411705,-0.3473374,0.05998872,-3.0746155,0.6244168,6.0414834e-05,-0.16945569,0.0106507875,-0.0015784566,0.035272345,-0.016205184,-0.0037045411,0.45077613,-1.3741753,1.8942631,-2.0868757,-1.5740784,2.4259813,-0.14473549,0.2959176,-0.37176037,0.105414756,-0.025609396,-0.14074582,-0.21068975,-0.095768064,-9.097966,0.9612189,47.661808,-1.2404537,-1.9475577,-3.5334215,-0.25179118,-0.22655454,-0.43800622,27.6875,28.8125,27.9375,31.875,33.9375,34.75
0.35805175,-0.15309213,-0.6510934,-0.68319523,-0.022783682,0.076665305,-0.15064499,-0.41204172,-0.34730804,0.05996719,-3.0745187,0.62431306,5.256558e-06,-0.1719699,0.009503661,-0.0009493613,0.03350386,-0.012294617,0.0073345182,0.45048797,-1.3735503,1.8935212,-2.0866616,-1.5741509,2.4256413,-0.14460741,0.29862761,-0.37593487,0.10253472,-0.025786806,-0.1516518,-0.19153614,0.019153614,-9.11712,0.92764956,47.66987,-1.0970526,-1.8894873,-3.5146785,-0.2501926,-0.22462113,-0.3392673,27.6875,28.8125,27.9375,31.875,33.9375,34.75
0.36005238,-0.8203539,-1.4546173,-0.75611335,-0.034375217,0.072078586,-0.14571734,-0.41237226,-0.34728646,0.059962664,-3.074444,0.6242179,-3.5049587e-05,-0.17464028,0.010320291,-0.00079121406,0.03326699,-0.011239641,0.012246032,0.45021063,-1.3729603,1.8927788,-2.0864336,-1.5742105,2.4253147,-0.14791608,0.30127126,-0.3795765,0.10243633,-0.026081547,-0.15986745,-0.2681506,-0.05746084,-9.193734,0.8493211,47.6421,-1.0912269,-2.0484579,-3.4612164,-0.2619339,-0.19509047,-0.22301748,27.6875,28.8125,27.9375,31.875,33.9375,34.75
0.36205235,-0.41043434,-1.0365208,-1.1078489,-0.05535871,0.08504017,-0.15596989,-0.41270962,-0.34724557,0.05994026,-3.0743437,0.62419367,-0.00012812958,-0.1769037,0.008360082,0.00019207806,0.030391617,-0.0050702076,0.017723639,0.44988763,-1.3723471,1.8920497,-2.086209,-1.5742587,2.42499,-0.14618205,0.30284777,-0.38266242,0.09711141,-0.02623023,-0.16360612,-0.095768064,0.114921674,-9.251195,0.8806493,47.608967,-1.2141793,-2.0867023,-3.372003,-0.24372362,-0.1803252,-0.15767696,27.6875,28.8125,27.9375,31.875,33.9375,34.75
0.36405224,-1.1709042,-1.9160293,-1.107554,-0.04380542,0.06665164,-0.13155782,-0.41307694,-0.34723932,0.059940577,-3.0743036,0.62412727,-0.000117318225,-0.17978676,0.007390876,0.0006773958,0.02807628,-0.0003900555,0.01714917,0.44959944,-1.3717095,1.8912472,-2.0860188,-1.5743068,2.424666,-0.14677224,0.3055596,-0.38617578,0.09267658,-0.026206441,-0.16361955,-0.19153613,0.21068975,-9.289502,0.87617236,47.689575,-1.1948948,-2.1311915,-3.3115268,-0.18429387,-0.16033664,-0.13347147,27.6875,28.8125,27.9375,31.875,33.9375,34.75
0.36605227,-0.7090923,-1.9234973,-1.1918037,-0.06477467,0.079217896,-0.13863719,-0.41342086,-0.34720892,0.059937656,-3.0742195,0.6240563,-0.00010530147,-0.18023844,0.0072255605,-9.433914e-05,0.026843134,0.00039490368,0.008983563,0.44931152,-1.3711206,1.8905071,-2.0858161,-1.5743903,2.424345,-0.1471851,0.306721,-0.38521183,0.089313544,-0.025432147,-0.15586911,-0.34476507,0.4213795,-9.3661175,0.8985519,47.677036,-1.1837434,-2.091456,-3.4984396,-0.13662753,-0.15397018,-0.1868056,27.6875,28.8125,27.9375,31.875,33.9375,34.75
0.36805207,-0.6582229,-2.6396606,-1.5652988,-0.07763766,0.075876445,-0.14013027,-0.4137786,-0.34716907,0.05992364,-3.0741374,0.62408304,-0.00014092814,-0.18143083,0.008621371,-0.00041638818,0.026739603,0.001153355,-0.0007933376,0.4489743,-1.3705078,1.8897661,-2.0856254,-1.5744385,2.4240355,-0.15025683,0.3068446,-0.38443366,0.087693885,-0.025664061,-0.14916185,-0.076614454,0.57460845,-9.576807,0.9612189,47.668976,-0.99804044,-2.050438,-3.7068255,-0.091206655,-0.14419426,-0.24579826,27.6875,28.8125,27.9375,31.875,33.9375,34.75
0.37005225,-1.2784,-3.3854017,-1.808291,-0.11528724,0.06092419,-0.13715869,-0.41414008,-0.34714583,0.059909586,-3.0740376,0.6241225,-0.00011466813,-0.18255225,0.010495675,-0.0011267565,0.027497444,-0.000411325,-0.007298886,0.44868496,-1.3698715,1.8890017,-2.085457,-1.5745224,2.4237843,-0.15423882,0.3080078,-0.38453168,0.08835743,-0.025668435,-0.14663751,-0.21068975,0.7086837,-9.634268,0.9030289,47.653748,-1.0649229,-2.0225165,-3.912492,-0.09812786,-0.11627276,-0.31360954,27.6875,28.8125,27.9375,31.875,33.9375,34.75
0.372052,-0.58275497,-3.4938617,-1.801321,-0.1435563,0.0779045,-0.14905903,-0.41453284,-0.34712803,0.05991681,-3.0739973,0.62413245,-0.00010435356,-0.18293919,0.009265923,-0.0005533928,0.027178785,0.000314157,-0.0063145664,0.4483498,-1.3692224,1.8881654,-2.0852535,-1.5745586,2.423461,-0.15223756,0.30932644,-0.38786545,0.08957136,-0.02570374,-0.14561905,-0.28730422,0.61291564,-9.730036,0.94331104,47.62061,-1.0196109,-1.9373382,-3.902107,-0.09247011,-0.10827555,-0.33157003,27.6875,28.8125,27.9375,31.875,33.9375,34.75
0.37405196,-0.8318883,-3.663421,-2.1031044,-0.122025676,0.06674638,-0.13890247,-0.41488233,-0.34712738,0.059902355,-3.073952,0.62414366,-0.00013407248,-0.1843153,0.009983859,-0.0010756468,0.027627885,-0.0008629793,-0.009680912,0.44807306,-1.3685843,1.8873991,-2.0850856,-1.5745829,2.4231975,-0.15450752,0.31203642,-0.3903163,0.09056145,-0.025607288,-0.14452122,-0.30645782,0.6512228,-9.844957,0.87617236,47.66271,-0.9813448,-1.9698031,-3.7827258,-0.076698214,-0.08717548,-0.37190753,27.6875,28.8125,27.9375,31.875,33.9375,34.75
