Tylouw/Master_Thesis_Code/training_data/batch_1/small_rod_t0.2/sample_42_session_1.csv
timestamp[s],tcp_force_x[N],tcp_force_y[N],tcp_force_z[N],tcp_force_rx[Nm?],tcp_force_ry[Nm?],tcp_force_rz[Nm?],tcp_pose_x[m],tcp_pose_y[m],tcp_pose_z[m],tcp_pose_rx[rot_vec_x],tcp_pose_ry[rot_vec_y],tcp_pose_rz[rot_vec_z],tcp_velo_x[m/s],tcp_velo_y[m/s],tcp_velo_z[m/s],tcp_velo_rx[rot_vec_x/s],tcp_velo_ry[rot_vec_y/s],tcp_velo_rz[rot_vec_z/s],q1[rad],q2[rad],q3[rad],q4[rad],q5[rad],q6[rad],qd1[rad/s],qd2[rad/s],qd3[rad/s],qd4[rad/s],qd5[rad/s],qd6[rad/s],tool_acc_x,tool_acc_y,tool_acc_z,current_of_whole_robot[A],voltage_of_whole_robot[V],current_J1[A],current_J2[A],current_J3[A],current_J4[A],current_J5[A],current_J6[A],temp_J1[C],temp_J2[C],temp_J3[C],temp_J4[C],temp_J5[C],temp_J6[C]
9.75997e-07,-0.82144916,-1.4478971,-0.08000551,-0.022777367,0.024475876,0.0007011981,-0.3810495,-0.34850955,0.05994397,-3.078485,0.6249091,-0.00023329565,0.0021528194,0.0010913063,-0.0016778456,0.0023459438,-0.0048249513,6.7804765e-05,0.47777414,-1.425922,1.9577621,-2.1008446,-1.5707573,2.452752,-4.1787946e-05,-1.3722542e-05,0.0034000762,0.0019764367,0.00014711673,-0.000111974114,0.095768064,0.15322891,-8.7532015,0.6702794,47.71823,0.0015117615,-2.7278311,-2.5550337,-0.44765073,0.0875795,0.060105544,27.875,29.0,28.125,32.0625,34.125,35.0625
0.002044259,-0.60216856,-0.7492967,0.21142314,-0.02677394,0.02347186,-0.0032965362,-0.38107833,-0.3485313,0.05996769,-3.0785408,0.6249012,-0.00012995348,-0.0003016075,-0.0001878702,-0.0029103612,-0.00013825759,-7.028195e-05,6.948618e-05,0.47778618,-1.4259204,1.9577149,-2.1008837,-1.5707573,2.452752,-4.1151055e-05,0.0045120926,0.003282591,-0.0077963998,0.00014417176,-0.00011025945,0.076614454,0.19153613,-8.772355,0.70608455,47.683304,0.038791943,-2.877658,-2.3839474,-0.42000556,0.09339011,0.05920734,27.875,29.0,28.125,32.0625,34.125,35.0625
0.004056553,-0.38554123,-0.9232953,-0.042029824,-0.021729913,0.025039783,0.001515423,-0.38104448,-0.34851587,0.059943866,-3.0784738,0.62492657,-0.00021653794,-0.0017674557,-0.0009506443,-0.0022974582,-0.0024253526,0.004328217,6.949642e-05,0.4777981,-1.4259204,1.9577616,-2.1008494,-1.5707697,2.4527884,-4.0533312e-05,0.0044555715,0.0029968077,-0.012411674,0.00014134124,-0.00010859636,0.05746084,0.17238252,-8.695741,0.72622824,47.685097,0.06316461,-3.1803048,-2.699413,-0.30234197,0.07235717,0.06927389,27.875,29.0,28.125,32.0625,34.125,35.0625
0.00604438,-0.2517879,-0.81555945,-0.2514562,-0.0045893607,0.013253977,0.001662214,-0.38104987,-0.34853214,0.059946466,-3.0785055,0.6248747,-0.00017633595,-0.0006639509,-0.00037476685,-0.0016864979,-0.0009621786,0.001532831,6.7485984e-05,0.47782207,-1.425909,1.9577502,-2.1008823,-1.5707697,2.452776,-3.9933802e-05,0.0027796207,0.0022387519,-0.006822514,0.00013862007,-0.00010698268,0.038307227,0.19153613,-8.695741,0.75084364,47.689575,0.03907697,-3.0812612,-2.596836,-0.3258289,0.09224232,0.06805783,27.875,29.0,28.125,32.0625,34.125,35.0625
0.008051739,-0.042219315,-0.29400307,-0.6442439,0.018846616,-0.0068315393,0.0007580984,-0.38106045,-0.34853548,0.059938706,-3.078523,0.6248782,-0.0001731098,-0.0003461653,-0.00020782447,-0.00027147747,-0.001051078,0.0017226349,6.584129e-05,0.47781014,-1.425886,1.9577497,-2.1009176,-1.5707573,2.452764,-3.93518e-05,4.8837337e-05,0.0013387194,-0.0034011048,0.000136252,-0.00010541644,0.019153614,0.19153613,-8.772355,0.7530795,47.703903,0.033776626,-2.8672075,-2.591242,-0.36173946,0.089230776,0.070652,27.875,29.0,28.125,32.0625,34.125,35.0625
0.010042708,0.35090896,0.1916946,-1.1660229,0.009648087,-0.00036241763,-0.012558309,-0.38104156,-0.34849018,0.059912957,-3.0784101,0.62489367,-0.00023183723,0.00015932278,4.348082e-05,-0.00028586946,-0.00016112176,-8.301593e-05,5.6006418e-05,0.47778615,-1.425886,1.9577974,-2.1008685,-1.5708174,2.452764,-4.729909e-05,6.5521516e-07,0.00084521336,-0.0008469171,0.00018108186,-0.00010389523,0.13407528,0.095768064,-9.097966,0.6926589,47.704796,-0.15212172,-2.2877967,-3.3279967,-0.37579018,0.049578503,0.027103271,27.875,29.0,28.125,32.0625,34.125,35.0625
0.012045263,-0.44197124,-1.0665303,-1.2164019,-0.0023769287,0.0064450228,0.0022057986,-0.38104424,-0.34851357,0.0599245,-3.0784636,0.6248664,-0.0002905126,-0.0023280915,-0.0012404807,-0.000553088,-8.528533e-05,-0.00018404661,4.6416026e-05,0.47778615,-1.4258723,1.9577473,-2.1008327,-1.5707573,2.4527402,-5.0981576e-05,0.006546287,-0.0061302315,-0.000292398,0.00014646587,-9.346761e-05,0.22984336,0.11492168,-9.289502,0.784413,47.69763,-0.31987593,-2.0309143,-3.4057052,-0.3793315,0.040814184,-0.03556144,27.875,29.0,28.125,32.0625,34.125,35.0625
0.014042447,-1.3272916,-1.9460982,-1.5459564,-0.030999409,0.026421485,0.0072220014,-0.38104233,-0.3484984,0.059900206,-3.0784092,0.6248361,-0.00031557918,-0.005219299,-0.0003622209,-0.0041738716,0.0030587509,-0.00619471,-0.00053438667,0.4777845,-1.4258316,1.9577564,-2.1008327,-1.5707935,2.4527266,-0.004271219,0.018657245,-0.011717459,-3.3467026e-05,0.0001053556,-0.0037281348,0.019153614,0.21068975,-9.461885,0.73741806,47.672558,-0.3571682,-3.0161633,-3.0777674,-0.3431077,0.029386867,-0.04807415,27.875,29.0,28.125,32.0625,34.125,35.0625
0.016056875,-1.6452297,-2.4880435,-1.514579,-0.06132899,0.053042468,-0.0059265904,-0.38104495,-0.34849486,0.059873287,-3.0783558,0.62486124,-0.00037813679,-0.0064720567,0.0010261564,-0.0036167789,0.0031166906,-0.004953821,0.0031682528,0.47778347,-1.4257603,1.957734,-2.1008208,-1.5708054,2.452748,-0.007491895,0.017403685,-0.011569662,-2.1851577e-06,-0.0005198079,-0.010650523,-0.22984336,0.40222588,-9.653421,0.7709874,47.68599,-0.043279357,-2.6729589,-3.3638444,-0.33249694,0.031223914,0.012440334,27.875,29.0,28.125,32.0625,34.125,35.0625
0.018041117,-1.8952231,-2.7039793,-1.7057155,-0.08463634,0.074833274,-0.013228615,-0.38105366,-0.34849727,0.05987699,-3.0783799,0.62478685,-0.00039071095,-0.006037801,0.00061904057,-0.0024490335,0.0033944033,-0.005443534,0.007830038,0.47777194,-1.4257487,1.9577092,-2.100807,-1.5707935,2.452687,-0.0063534686,0.016126212,-0.013681706,0.0039494117,-0.00053844426,-0.014173774,-0.40222588,0.49799395,-9.672575,0.7777002,47.687782,-0.20469172,-2.4887633,-3.459452,-0.35812014,0.017187648,0.04148608,27.875,29.0,28.125,32.0625,34.125,35.0625
0.020045161,-2.272445,-2.4570532,-1.8263268,-0.08332451,0.079551674,-0.023546591,-0.38104284,-0.3484957,0.059867967,-3.0783672,0.62480307,-0.00052769063,-0.0055880942,0.0006389735,-0.0031347221,0.005175324,-0.008754544,0.008963341,0.47774813,-1.4257239,1.9576849,-2.100734,-1.5707458,2.4526749,-0.0059372634,0.018426621,-0.015476777,0.0072039603,-0.00059557863,-0.014890097,-0.40222588,0.61291564,-9.749189,0.7642693,47.70211,-0.41978016,-2.4131641,-3.5148208,-0.37906498,0.017255062,0.036755517,27.875,29.0,28.125,32.0625,34.125,35.0625
0.022053836,-2.5768974,-2.8946269,-2.1577876,-0.062138,0.077013716,-0.03950634,-0.3810426,-0.34850484,0.059852377,-3.0783436,0.6247033,-0.00049247226,-0.0073804515,0.00032563994,-0.0025917357,0.004257024,-0.006958166,0.007335522,0.4777956,-1.4256755,1.957671,-2.1007588,-1.5707935,2.4526632,-0.0070300745,0.02003099,-0.018385058,0.0064898925,-0.0006133966,-0.014353181,-0.49799395,0.5746084,-9.883265,0.8112748,47.684196,-0.4659089,-2.3590577,-3.539454,-0.37810594,-0.014120998,0.024955917,27.875,29.0,28.125,32.0625,34.125,35.0625
0.024053248,-2.44695,-2.350682,-1.9254891,-0.07690347,0.08614493,-0.05714004,-0.38105956,-0.3484859,0.05984197,-3.078322,0.6247203,-0.000616705,-0.009058707,0.0007760431,-0.0023642005,0.003675233,-0.0056021353,0.0045459056,0.47772294,-1.4256272,1.9576234,-2.1006868,-1.5707577,2.4526038,-0.009310558,0.021020977,-0.01979533,0.0054394375,-0.00072695594,-0.013842687,-0.40222588,0.49799395,-9.902418,0.7284641,47.6636,-0.51524544,-2.3313007,-3.5206592,-0.35838056,0.0010222921,-0.007447746,27.875,29.0,28.125,32.0625,34.125,35.0625
0.026053948,-2.0158527,-2.6218157,-1.9885625,-0.078240626,0.09273996,-0.067016944,-0.38108265,-0.34849316,0.059834797,-3.078306,0.6247559,-0.000602573,-0.010437923,0.0006773601,-0.0020325957,0.0032954756,-0.0046672183,0.0037299467,0.47772247,-1.4255669,1.9575738,-2.1006992,-1.5707701,2.4526277,-0.010349111,0.022483824,-0.022210233,0.005386792,-0.0008249879,-0.014063615,-0.49799395,0.4405331,-9.902418,0.7978386,47.67614,-0.5256467,-2.3549845,-3.5101485,-0.33385476,-0.021895701,-0.030204777,27.875,29.0,28.125,32.0625,34.125,35.0625
0.028054932,-2.5311134,-2.2900918,-1.8877532,-0.070138544,0.07760274,-0.07197759,-0.38113606,-0.34849617,0.059845444,-3.0783255,0.62479824,-0.0005196183,-0.011404611,0.0009924439,-0.0019148502,0.0037383004,-0.0052477107,0.0031103096,0.47768608,-1.4255184,1.9575022,-2.1007345,-1.5707821,2.4526153,-0.011720838,0.023909597,-0.02445618,0.0069261906,-0.00095247815,-0.014814442,-0.59376204,0.30645782,-9.883265,0.7172743,47.698532,-0.5286606,-2.3257236,-3.517527,-0.32117596,-0.04825756,-0.043335676,27.875,29.0,28.125,32.0625,34.125,35.0625
0.030054113,-2.2191179,-1.9866554,-1.8083508,-0.03235867,0.07842808,-0.09154523,-0.38114017,-0.34849128,0.059830677,-3.0782812,0.62478924,-0.0006068639,-0.012748443,0.0010993549,-0.0014563842,0.004473689,-0.004524475,0.0032867535,0.47767386,-1.4254582,1.9574536,-2.1006744,-1.5707825,2.452603,-0.01251195,0.02541394,-0.027502235,0.008167097,-0.0019435004,-0.015778309,-0.59376204,0.28730422,-9.749189,0.7150385,47.71286,-0.6185201,-2.2572074,-3.4487364,-0.32422334,-0.05733454,-0.033989027,27.875,29.0,28.125,32.0625,34.125,35.0625
0.03205348,-1.9573609,-1.0124822,-1.5558414,-0.008478932,0.07571402,-0.105590016,-0.38114706,-0.34849012,0.059823416,-3.078254,0.6247267,-0.00065165566,-0.014032396,0.0017464077,-0.0014772924,0.006035219,-0.0037413489,0.0015856291,0.4776734,-1.4254096,1.957404,-2.1006267,-1.5707949,2.452567,-0.013714103,0.026944956,-0.029258085,0.008420589,-0.0036938589,-0.015274388,-0.4213795,0.095768064,-9.691729,0.7486078,47.698532,-0.565791,-2.2888386,-3.5250516,-0.33329904,-0.043623522,-0.04763148,27.875,29.0,28.125,32.0625,34.125,35.0625
0.034052573,-1.8196988,-0.9440982,-1.7019398,0.018001175,0.06549072,-0.11467494,-0.3812099,-0.3485044,0.05984697,-3.0783198,0.6247987,-0.0005584016,-0.015406923,0.001677794,-0.0012468396,0.005466616,-0.0029142573,-0.00016702425,0.4776251,-1.4253733,1.9573196,-2.1006744,-1.5707711,2.4525554,-0.014941263,0.028449273,-0.03142585,0.008087971,-0.0035730288,-0.014748099,-0.3256114,0.0,-9.634268,0.7396539,47.694946,-0.54850984,-2.3494768,-3.502638,-0.30334023,-0.06586221,-0.05832643,27.875,29.0,28.125,32.0625,34.125,35.0625
0.036051933,-1.3639092,-0.71581733,-1.5039557,0.021179976,0.06514703,-0.13245295,-0.3812309,-0.348511,0.05982535,-3.0782962,0.6247565,-0.00059159746,-0.017126195,0.0010267001,-0.0002478549,0.0042861663,-0.0015222912,-0.0015086919,0.4776248,-1.4252769,1.957259,-2.100674,-1.5707825,2.4525318,-0.015636919,0.029919263,-0.03559787,0.009009673,-0.0031715117,-0.014100653,-0.38307226,-0.15322891,-9.653421,0.73069996,47.67345,-0.52435184,-2.3376381,-3.3934486,-0.28586677,-0.07203382,-0.074142665,27.875,29.0,28.125,32.0625,34.125,35.0625
0.038051747,-1.7562853,-0.5697983,-1.4791894,0.0123755885,0.04522084,-0.12667495,-0.38129216,-0.34851348,0.0598472,-3.0783231,0.62481886,-0.00054635725,-0.017635405,0.0007288305,-0.00016053951,0.0041784383,-0.0022583911,-0.0015752342,0.4775647,-1.4252284,1.9571508,-2.100661,-1.5707706,2.4525073,-0.015857885,0.031384118,-0.037766468,0.010316028,-0.0027387962,-0.014255051,-0.40222588,-0.1340753,-9.691729,0.7597976,47.687782,-0.5977137,-2.3069606,-3.4014032,-0.2871776,-0.08994059,-0.1013094,27.875,29.0,28.125,32.0625,34.125,35.0625
0.040052056,-1.7791159,-0.95394295,-1.6321286,0.012603729,0.039405793,-0.13879383,-0.3812923,-0.34848446,0.05980053,-3.0782251,0.6247989,-0.0006817746,-0.018778786,0.00059515954,0.00032109176,0.004060412,-0.0018485507,-0.0019003602,0.47752842,-1.4251322,1.957137,-2.1006134,-1.5707945,2.452471,-0.016620832,0.03265261,-0.04057089,0.01143352,-0.0028280995,-0.014690935,-0.24899697,-0.095768064,-9.576807,0.7620334,47.723602,-0.56930494,-2.323921,-3.3275342,-0.29661447,-0.11960994,-0.09728663,27.875,29.0,28.125,32.0625,34.125,35.0625
0.04205224,-1.1610812,-0.7410074,-1.450343,0.0062094736,0.050077595,-0.15696259,-0.38133994,-0.348493,0.0598082,-3.0782554,0.6248056,-0.00065028033,-0.019865643,0.0010202683,0.0005951597,0.0047690617,-0.0009820142,-0.0022964315,0.47749206,-1.4250721,1.9570535,-2.1006253,-1.570783,2.452435,-0.017710488,0.033405825,-0.042144455,0.01181361,-0.0038583071,-0.015381572,-0.21068975,-0.11492168,-9.557653,0.79560274,47.709274,-0.5731826,-2.2470434,-3.3954735,-0.28027096,-0.1272415,-0.114483185,27.875,29.0,28.125,32.0625,34.125,35.0625
0.044052273,-1.2900937,-1.2573775,-1.4425952,0.005529181,0.047646582,-0.16801831,-0.38139933,-0.34849036,0.059833407,-3.0782506,0.62480396,-0.0005700832,-0.021710608,0.0010855236,0.0014552457,0.0055429456,0.0016434942,-0.002587595,0.47745588,-1.4250236,1.9569324,-2.100589,-1.5708193,2.4523985,-0.018296735,0.034496967,-0.045399647,0.012007541,-0.0057584317,-0.01567101,-0.15322891,0.05746084,-9.519346,0.7217513,47.66987,-0.59255457,-2.1903744,-3.3200152,-0.28461307,-0.12044747,-0.116086796,27.875,29.0,28.125,32.0625,34.125,35.0625
0.0460521,-1.4736409,-1.5293592,-1.488796,0.0019006843,0.04857691,-0.16896586,-0.3814377,-0.34850982,0.059860937,-3.0782998,0.62485224,-0.0005474889,-0.022210415,0.0011773923,0.0017801236,0.0060003246,0.0016255113,-0.001979262,0.47743174,-1.4249996,1.9568366,-2.1005647,-1.5707835,2.4523983,-0.018661754,0.03498276,-0.047002647,0.013352583,-0.0061566182,-0.016643196,-0.1340753,0.15322891,-9.500193,0.7418897,47.689575,-0.54251987,-2.1598272,-3.3392563,-0.303014,-0.14234406,-0.13159278,27.875,29.0,28.125,32.0625,34.125,35.0625
0.048051704,-0.807632,-1.3715146,-1.5730352,-0.011293534,0.06005456,-0.18953452,-0.38150352,-0.34850582,0.059868265,-3.0782738,0.6248283,-0.0004850516,-0.02317195,0.0015877634,0.00092532503,0.0074613607,0.0003145958,-0.002729908,0.47739533,-1.4249028,1.956704,-2.1005409,-1.5708321,2.4523504,-0.019825296,0.03826667,-0.048899613,0.0138027035,-0.0068551195,-0.01705335,-0.095768064,0.24899697,-9.500193,0.7665104,47.694946,-0.59284127,-2.143017,-3.3727674,-0.31483898,-0.11714282,-0.18013221,27.875,29.0,28.125,32.0625,34.125,35.0625
0.050052628,-1.1080168,-1.9264654,-1.7592913,-0.026368132,0.04384616,-0.19586779,-0.38153002,-0.34848553,0.05984174,-3.0782177,0.62483543,-0.0005872322,-0.024550509,0.0022017977,0.0009738446,0.010105953,0.0017587774,-0.0021683725,0.4773353,-1.4248061,1.9566435,-2.1004927,-1.5708331,2.452302,-0.020229004,0.040107556,-0.051205654,0.014210406,-0.0098739,-0.0180102,-0.05746084,0.34476504,-9.5385,0.73069996,47.707485,-0.5356815,-2.2409048,-3.359146,-0.30066475,-0.11690275,-0.1592403,27.875,29.0,28.125,32.0625,34.125,35.0625
0.05205173,-0.84692264,-2.040462,-1.692774,-0.047070313,0.05270932,-0.21163873,-0.3815948,-0.3484785,0.059865355,-3.0781941,0.62488794,-0.0005194698,-0.026143339,0.002967104,0.0023759766,0.011777995,0.005880857,-0.0014825964,0.47728702,-1.4247468,1.9565109,-2.100445,-1.5708703,2.4522896,-0.020859595,0.038760256,-0.052913085,0.014382629,-0.013256481,-0.019319067,-0.076614454,0.34476504,-9.557653,0.7620334,47.698532,-0.5571786,-2.0747056,-3.4075713,-0.30906126,-0.09715383,-0.16627574,27.875,29.0,28.125,32.0625,34.125,35.0625
0.054051943,-1.6087431,-2.9502592,-1.7838129,-0.04681119,0.045759976,-0.19184242,-0.38163283,-0.34847766,0.059846442,-3.0781744,0.6248654,-0.0005650945,-0.027479481,0.0037945644,0.0019733002,0.014201838,0.006343105,-0.001951866,0.4772506,-1.4246382,1.9564275,-2.1004326,-1.5708708,2.4522417,-0.022024369,0.041109502,-0.054712877,0.014543895,-0.01562654,-0.02000774,-0.05746084,0.4405331,-9.557653,0.7665104,47.68062,-0.49598032,-1.9936881,-3.4464052,-0.31206563,-0.041179545,-0.19257012,27.875,29.0,28.125,32.0625,34.125,35.0625
0.056055773,-1.7346637,-3.046463,-1.6923307,-0.05041445,0.042270247,-0.17275275,-0.3816972,-0.3484778,0.059879154,-3.0781815,0.6248851,-0.0004546977,-0.029804405,0.0027101217,0.003169997,0.012421947,0.008954751,-0.0015873029,0.47721457,-1.4246014,1.9563054,-2.1004088,-1.5709065,2.452217,-0.022485206,0.04321959,-0.059824664,0.014405329,-0.015255675,-0.020831946,-0.11492168,0.47884035,-9.672575,0.7597976,47.69763,-0.58795094,-2.0677707,-3.2517,-0.30932117,-0.055792682,-0.21388671,27.875,29.0,28.125,32.0625,34.125,35.0625
0.05805251,-1.1992356,-3.312084,-1.6743222,-0.049108174,0.0455987,-0.16071069,-0.38173753,-0.3484788,0.059886478,-3.0781999,0.6247912,-0.00045910606,-0.028509796,0.0027850545,0.0009522434,0.0127705345,0.0035861777,-0.00018035392,0.47717836,-1.4245406,1.956211,-2.1003726,-1.5709056,2.45212,-0.022822585,0.04625243,-0.058302443,0.014770327,-0.013096597,-0.02258111,-0.15322891,0.51714754,-9.5385,0.7911258,47.685097,-0.617054,-2.0526495,-3.4873085,-0.31091607,-0.05125756,-0.22470379,27.875,29.0,28.125,32.0625,34.125,35.0625
0.06005256,-0.9945356,-3.1756544,-1.5691104,-0.05111634,0.041573912,-0.16433476,-0.3818113,-0.3484567,0.05986675,-3.07811,0.6249066,-0.0004972253,-0.029513605,0.0018303428,0.0009698768,0.010791213,0.0030075237,0.0010916009,0.4770941,-1.424384,1.9560665,-2.1003249,-1.5709413,2.4521194,-0.023358086,0.048753314,-0.061202858,0.014765139,-0.011081629,-0.024390277,-0.038307227,0.5363012,-9.461885,0.7418897,47.71554,-0.52107775,-2.1949778,-3.406497,-0.3026119,-0.092978925,-0.19492008,27.875,29.0,28.125,32.0625,34.125,35.0625
0.062051736,-0.8744307,-2.7061114,-1.4657513,-0.05725834,0.038122106,-0.16165885,-0.3818734,-0.3484735,0.05989139,-3.0781484,0.6248569,-0.00038396358,-0.031743914,0.00081055384,0.0034738532,0.008088046,0.0075531523,0.0015427375,0.47708198,-1.4243245,1.9559449,-2.1003363,-1.5709652,2.4520714,-0.02380193,0.04768859,-0.06579945,0.0151449805,-0.010775393,-0.02528465,-0.019153614,0.51714754,-9.519346,0.8314132,47.67614,-0.5597008,-2.073545,-3.3671937,-0.2998877,-0.11087724,-0.22719544,27.875,29.0,28.125,32.0625,34.125,35.0625
0.064051926,-1.0418031,-2.1373336,-1.4468457,-0.048679963,0.030996723,-0.16382553,-0.3819552,-0.34847075,0.05990626,-3.0781317,0.6249292,-0.00035627137,-0.03278353,0.0010693321,0.0029165705,0.009797012,0.0074098376,0.0028446591,0.47700983,-1.4242158,1.9557761,-2.1002886,-1.570978,2.4520466,-0.024270803,0.050560273,-0.06782203,0.015211371,-0.012232523,-0.027051123,-0.095768064,0.4405331,-9.442732,0.7396539,47.66987,-0.54697037,-2.05845,-3.1944714,-0.28478172,-0.09303625,-0.24743015,27.875,29.0,28.125,32.0625,34.125,35.0625
0.06605196,-1.1388432,-2.4589405,-1.3208638,-0.025578048,0.038653266,-0.16857938,-0.38200316,-0.34848684,0.05992393,-3.0781467,0.6248363,-0.00030428148,-0.03319683,0.0017074399,0.0017371447,0.011568824,0.0057639685,0.00296183,0.4770095,-1.424143,1.9556445,-2.1002533,-1.5710019,2.4519866,-0.025253072,0.05327525,-0.068218574,0.015170463,-0.013051838,-0.028148547,-0.019153614,0.2681506,-9.3661175,0.7866488,47.689575,-0.62746036,-2.1407917,-3.2610297,-0.27370426,-0.08997308,-0.23578739,27.875,29.0,28.125,32.0625,34.125,35.0625
0.06805208,-1.6371377,-2.2819703,-1.3319882,-0.023632491,0.04004409,-0.15624632,-0.38206854,-0.34850064,0.059918836,-3.0781262,0.6247925,-0.0002693128,-0.03509346,0.0016184917,0.0024983233,0.012495349,0.008266516,0.003965589,0.47699738,-1.4239986,1.9554886,-2.100241,-1.5710386,2.4519498,-0.025558606,0.05493353,-0.07191219,0.015413429,-0.015032074,-0.029451733,0.0,0.2873042,-9.346964,0.8157518,47.694054,-0.5792032,-2.084523,-3.2877517,-0.28079328,-0.08987558,-0.24462722,27.875,29.0,28.125,32.0625,34.125,35.0625
0.07005229,-1.5587671,-1.6872915,-1.0061688,-0.022012185,0.052044183,-0.16361682,-0.382114,-0.3484968,0.059909422,-3.078128,0.6248109,-0.00034874034,-0.035837226,0.0016972315,0.0024038327,0.013196124,0.00804783,0.0052832174,0.47692534,-1.4239022,1.9553918,-2.1002047,-1.5710028,2.451889,-0.026038632,0.056580424,-0.073740385,0.016111882,-0.01555863,-0.031246725,-0.17238252,0.2681506,-9.232041,0.7597976,47.695843,-0.6656441,-2.136908,-3.237217,-0.26522145,-0.06630873,-0.26196414,27.875,29.0,28.125,32.0625,34.125,35.0625
0.072052464,-1.4286628,-1.8013436,-1.009354,-0.008822333,0.051152203,-0.15911523,-0.38221505,-0.34848672,0.059940938,-3.078105,0.6248432,-0.00022955262,-0.0372744,0.0010369312,0.0030534766,0.012564561,0.0099436445,0.006854896,0.4768534,-1.423806,1.9551991,-2.100157,-1.5710634,2.4518404,-0.025980508,0.05807184,-0.07684958,0.015752913,-0.015874432,-0.032758545,-0.21068975,0.30645782,-9.097966,0.79560274,47.734352,-0.6765122,-2.072407,-3.1721382,-0.23875865,-0.058071285,-0.26860958,27.875,29.0,28.125,32.0625,34.125,35.0625
0.07405257,-0.81903374,-1.4774913,-0.9328196,-0.013662916,0.048982542,-0.16597581,-0.38230702,-0.3485166,0.059970465,-3.0781865,0.6248021,-0.00015400274,-0.037979856,0.00046239622,0.0030149533,0.011629543,0.0089592375,0.0075877015,0.47680515,-1.4236972,1.9550074,-2.1001565,-1.5710381,2.4517562,-0.026436532,0.06019555,-0.07938655,0.016606562,-0.014593117,-0.03394975,-0.19153613,0.22984336,-9.174581,0.7620334,47.68062,-0.70010674,-2.121561,-3.1175814,-0.22859219,-0.076668076,-0.2599532,27.875,29.0,28.125,32.0625,34.125,35.0625
0.07605241,-1.0045404,-1.4173244,-1.0062691,-0.0065875836,0.040125467,-0.15584618,-0.38237423,-0.3484867,0.05995363,-3.0781114,0.62469035,-0.00012886376,-0.038772665,0.00056739314,0.0029919348,0.012200366,0.008786537,0.007899594,0.47674498,-1.4235651,1.9548868,-2.1001203,-1.571123,2.451636,-0.02706895,0.061715458,-0.08124762,0.017360454,-0.015025264,-0.034891497,-0.22984336,0.17238252,-9.155427,0.78217715,47.685097,-0.713707,-2.0961537,-3.1021214,-0.20610258,-0.063855395,-0.26243734,27.875,29.0,28.125,32.0625,34.125,35.0625
0.07805189,-1.2465795,-1.1567172,-0.9181748,0.0016849175,0.0363099,-0.16080172,-0.3824574,-0.3484961,0.059967358,-3.0781217,0.6247885,-7.19516e-05,-0.03942297,3.843201e-05,0.00304642,0.012040299,0.0083765,0.008464875,0.47668493,-1.4234564,1.9547313,-2.1001203,-1.571123,2.451636,-0.026936565,0.063648835,-0.083790325,0.01825836,-0.014696747,-0.035324346,-0.24899697,0.15322891,-9.021352,0.78888994,47.661808,-0.75769997,-2.053198,-3.0969634,-0.21046618,-0.069534026,-0.29163644,27.875,29.0,28.125,32.0625,34.125,35.0625
0.080052234,-0.99685526,-1.0346152,-0.93435717,0.0082857255,0.06240383,-0.16242649,-0.38250244,-0.34849736,0.059968334,-3.0781007,0.62464905,-0.00010688226,-0.03983738,-0.00016348716,0.0029676566,0.012735954,0.007199073,0.008779746,0.47666097,-1.4233483,1.9545864,-2.100036,-1.5711468,2.4515278,-0.026906006,0.06556052,-0.08622997,0.020150634,-0.014777317,-0.03560666,-0.21068975,0.21068975,-9.021352,0.74413085,47.686886,-0.777582,-2.0333562,-3.0650883,-0.19385494,-0.080223754,-0.30821237,27.875,29.0,28.125,32.0625,34.125,35.0625
0.08205228,-1.3378111,-1.2747402,-0.965749,0.0039979876,0.0666863,-0.16466491,-0.3825999,-0.34849426,0.059971645,-3.0780573,0.62467736,-9.0453e-05,-0.04011149,-0.00032225857,0.0017823942,0.013079444,0.0039180783,0.009313103,0.47658873,-1.4231787,1.9543713,-2.0999753,-1.5711826,2.451479,-0.02764684,0.06934529,-0.088122204,0.021323636,-0.013579919,-0.03688174,-0.34476504,0.17238252,-9.155427,0.7597976,47.672558,-0.82772917,-2.2688413,-3.0316534,-0.20602733,-0.07979977,-0.3039106,27.875,29.0,28.125,32.0625,34.125,35.0625
0.08405235,-1.4948617,-1.1705898,-1.0163198,-0.009566172,0.057262845,-0.15521236,-0.38269156,-0.34848619,0.059972677,-3.0780203,0.6246691,-1.5898917e-05,-0.041344833,-0.00044013132,0.003517584,0.011766455,0.0069314796,0.011092201,0.47652847,-1.4230354,1.9542025,-2.099963,-1.5712422,2.4514184,-0.0284226,0.06749279,-0.09010453,0.021874683,-0.01379945,-0.039435774,-0.3256114,0.17238252,-9.136273,0.7933669,47.677036,-0.82769597,-1.9939111,-3.036427,-0.19813788,-0.08061084,-0.28953046,27.875,29.0,28.125,32.0625,34.125,35.0625
0.08605221,-1.6621448,-1.9271812,-1.216131,-0.007942043,0.057577796,-0.14849977,-0.3827694,-0.34851506,0.059982833,-3.0780647,0.6245424,-4.0860283e-05,-0.04190699,-0.0007190596,0.0029283445,0.012127648,0.0055470876,0.011272475,0.47649238,-1.4228781,1.953986,-2.0999029,-1.5712184,2.4512978,-0.028642112,0.070368245,-0.09219142,0.022481054,-0.013488756,-0.039834812,-0.24899697,0.19153613,-9.251195,0.7620334,47.661808,-0.858112,-2.0396614,-3.0997996,-0.17943224,-0.09438456,-0.30697143,27.875,29.0,28.125,32.0625,34.125,35.0625
0.08805228,-2.0662472,-2.0530026,-1.2128487,-0.0189204,0.042888314,-0.14820728,-0.3828291,-0.3485014,0.059966363,-3.0779855,0.62454665,-7.053702e-05,-0.04170815,-2.5883662e-06,0.0006167018,0.015075078,0.0012157058,0.009621358,0.47644424,-1.4227322,1.9538435,-2.0998433,-1.5712665,2.4512625,-0.029316548,0.0750589,-0.09245417,0.023254314,-0.014122217,-0.038855273,-0.24899697,0.17238252,-9.346964,0.73069996,47.66091,-0.8258001,-2.2403095,-3.1505318,-0.17762876,-0.074383706,-0.358796,27.875,29.0,28.125,32.0625,34.125,35.0625
0.09005248,-2.0418913,-2.4808574,-1.3755151,-0.015693918,0.041868433,-0.14503025,-0.38292116,-0.34850904,0.059986047,-3.0779903,0.6244698,-2.7467422e-06,-0.043464992,-0.0010032321,0.0028691061,0.012740193,0.0052460367,0.011516196,0.47639608,-1.4226009,1.9536375,-2.0997956,-1.5713023,2.451166,-0.029292865,0.0738826,-0.096362256,0.023682242,-0.013903255,-0.040725596,-0.2681506,0.22984336,-9.251195,0.7150385,47.71286,-0.84882367,-2.0197325,-3.0846796,-0.1712746,-0.09567264,-0.35791388,27.875,29.0,28.125,32.0625,34.125,35.0625
0.0920526,-1.5218928,-1.9196228,-1.4143134,-0.022787338,0.047616202,-0.1512741,-0.38302058,-0.34851316,0.05998919,-3.078006,0.6244528,2.1346885e-05,-0.04273795,0.00010919866,0.0007427167,0.015671687,0.0013720995,0.012523695,0.476312,-1.4224436,1.9534477,-2.0997827,-1.5713028,2.4510694,-0.030052444,0.07664505,-0.094770014,0.02411502,-0.014728072,-0.04249175,-0.28730422,0.1340753,-9.308657,0.842603,47.71286,-0.96420395,-2.1822495,-3.2510319,-0.152934,-0.103411086,-0.3328606,27.875,29.0,28.125,32.0625,34.125,35.0625
0.09405188,-0.92820007,-2.006277,-1.3458945,-0.015489085,0.06056893,-0.1561323,-0.38310575,-0.34849924,0.05999329,-3.077953,0.6244204,2.596606e-05,-0.04553149,-0.0010533067,0.0021459698,0.013543759,0.0044617574,0.015035478,0.47623974,-1.4222986,1.9532536,-2.0996993,-1.5713505,2.4509838,-0.030851446,0.07903676,-0.10066982,0.023894524,-0.014270362,-0.04579963,-0.19153613,0.22984336,-9.32781,0.7463667,47.694946,-0.9450662,-2.139444,-3.2133846,-0.1403158,-0.08639002,-0.3523574,27.875,29.0,28.125,32.0625,34.125,35.0625
0.09605262,-1.4540342,-2.1736846,-1.34403,-0.016229987,0.043825112,-0.14540696,-0.38321406,-0.3484788,0.059988573,-3.0779114,0.6244883,3.250253e-05,-0.04434269,0.00020310782,-0.00036176454,0.016385492,0.0001295235,0.015724702,0.47611946,-1.4221298,1.9530634,-2.099664,-1.5713748,2.4509113,-0.03162543,0.08145614,-0.097653456,0.023609685,-0.014806368,-0.047262628,-0.17238252,0.22984336,-9.289503,0.80679786,47.691364,-0.9788087,-2.0919676,-3.3315272,-0.118598364,-0.103047505,-0.33987564,27.875,29.0,28.125,32.0625,34.125,35.0625
0.09805229,-0.9943269,-1.9242343,-1.3199322,-0.025360672,0.04674063,-0.14925514,-0.38328257,-0.34848985,0.05997027,-3.0778916,0.6243505,-3.1303913e-05,-0.045768306,-0.00042442614,0.0005743527,0.015385306,0.0013454464,0.014808549,0.47608334,-1.4219371,1.9528712,-2.0996034,-1.5713862,2.4507918,-0.032027893,0.082636125,-0.10138646,0.02462177,-0.014483195,-0.046746902,-0.17238253,0.28730422,-9.32781,0.78888994,47.666286,-1.0048479,-2.14681,-3.3253756,-0.11257737,-0.09669341,-0.3463492,27.875,29.0,28.125,32.0625,34.125,35.0625
0.100052364,-1.0879165,-2.1051905,-1.4775836,-0.025025684,0.04335936,-0.15468825,-0.3833923,-0.34851718,0.060004555,-3.0779464,0.6242052,7.967725e-05,-0.04589354,0.00058856444,-0.00026545417,0.018196743,-0.00042581485,0.0172411,0.47604707,-1.4217923,1.952619,-2.0995667,-1.5714115,2.450658,-0.03284024,0.08436624,-0.10180971,0.026179476,-0.016166443,-0.04998921,-0.05746084,0.24899697,-9.423578,0.7284641,47.687782,-1.0610819,-2.1861012,-3.411678,-0.10004248,-0.08471975,-0.34768233,27.875,29.0,28.125,32.0625,34.125,35.0625
0.10205261,-0.9274153,-2.1876557,-1.3843448,-0.024678737,0.042307544,-0.1473025,-0.38350666,-0.34851855,0.06001126,-3.0779173,0.6242364,0.00015323852,-0.04659433,0.00044398019,-6.514651e-05,0.018209271,-0.00096610066,0.019931728,0.47597483,-1.4216117,1.9523915,-2.0995424,-1.5714587,2.4506092,-0.033368584,0.08573959,-0.10418981,0.02766512,-0.015933016,-0.053207934,-0.038307227,0.2681506,-9.3661175,0.79560274,47.666286,-1.0715777,-2.0710616,-3.4303045,-0.080609955,-0.07694887,-0.3150347,27.875,29.0,28.125,32.0625,34.125,35.0625
0.1040518,-0.8484894,-1.8107663,-1.3465297,-0.024726171,0.031371973,-0.15369636,-0.3835858,-0.34850094,0.059989177,-3.077864,0.62414736,4.6496712e-05,-0.047417585,0.00015194414,0.00024887855,0.018141823,-0.0007070481,0.022381818,0.47587875,-1.4214189,1.9521998,-2.0994465,-1.5714711,2.4504645,-0.03355237,0.087019555,-0.106578015,0.028508008,-0.016002707,-0.05583893,0.019153614,0.2681506,-9.461885,0.8112748,47.66539,-1.0985574,-2.1291466,-3.4957335,-0.07326327,-0.09105088,-0.28943455,27.875,29.0,28.125,32.0625,34.125,35.0625
0.10605209,-1.0079237,-1.9401727,-1.5065484,-0.0237098,0.023393195,-0.14468743,-0.38369337,-0.34849203,0.060012214,-3.077844,0.62402654,0.00017056246,-0.047254797,0.00075628323,-0.001039799,0.018928276,-0.0039560418,0.023671493,0.4758183,-1.4212861,1.9519843,-2.099398,-1.571555,2.4503314,-0.034976568,0.08922084,-0.10634518,0.029311156,-0.015211493,-0.05855495,0.0,0.22984336,-9.3661175,0.784413,47.647476,-1.0745037,-2.0612566,-3.532372,-0.071879044,-0.09263076,-0.25183287,27.875,29.0,28.125,32.0625,34.125,35.0625
0.10805204,-0.79076207,-2.1029127,-1.5249501,-0.019812,0.029700672,-0.15246119,-0.3838018,-0.3485255,0.060030878,-3.0778794,0.62397516,0.00018666394,-0.04932935,0.00062377483,0.0002918307,0.018388262,-0.0016894466,0.025082963,0.47576988,-1.4210937,1.9517077,-2.0993373,-1.5715426,2.4502466,-0.03627082,0.089977,-0.110534,0.03048116,-0.015776766,-0.06125792,-0.019153614,0.2681506,-9.404425,0.800085,47.67345,-1.0392869,-2.040819,-3.5553768,-0.06134173,-0.09482078,-0.21755278,27.875,29.0,28.125,32.0625,34.125,35.0625
0.11005235,-0.6114714,-1.4392337,-1.387283,-0.03237502,0.03823744,-0.16114719,-0.38387132,-0.3485028,0.059987735,-3.0778084,0.6238625,3.696386e-05,-0.050035913,0.0005744769,0.00078823016,0.018003687,-0.0012500783,0.027278721,0.47567368,-1.4208775,1.9515399,-2.099254,-1.571555,2.4500892,-0.036904175,0.09024194,-0.112171285,0.031281423,-0.015648872,-0.06408458,0.05746084,0.30645782,-9.32781,0.72622824,47.70659,-1.0592011,-1.9190052,-3.47331,-0.03323622,-0.122366145,-0.20065287,27.875,29.0,28.125,32.0625,34.125,35.0625
0.11205242,-0.9071027,-1.9190999,-1.7187548,-0.018353533,0.037811514,-0.15160242,-0.38397738,-0.3485137,0.06000221,-3.0778196,0.6237666,0.00013963992,-0.050216623,-0.0006165974,0.00019420651,0.018384583,-0.0029869496,0.031226976,0.4756263,-1.4207197,1.9513234,-2.099241,-1.5716027,2.4499807,-0.035245523,0.09402807,-0.11542992,0.032464743,-0.015195533,-0.06637392,-0.05746084,0.3256114,-9.385271,0.7732232,47.694946,-1.2020077,-2.1754956,-3.4545832,-0.037084915,-0.119375914,-0.16251269,27.875,29.0,28.125,32.0625,34.125,35.0625
0.11405227,-1.0304447,-1.7886884,-1.6208795,-0.018966375,0.04581956,-0.157647,-0.38408896,-0.34851706,0.060005255,-3.0778003,0.62360865,0.00013074066,-0.052120708,0.00013674535,0.0017107914,0.01773112,-0.0005707475,0.030352727,0.47555315,-1.4205041,1.9510478,-2.0991452,-1.571639,2.4498117,-0.03796906,0.0928037,-0.11776187,0.03357035,-0.015727792,-0.068220794,-0.05746084,0.28730422,-9.423578,0.78217715,47.686886,-1.2169677,-1.8860717,-3.4533722,-0.025831452,-0.11834422,-0.11178012,27.875,29.0,28.125,32.0625,34.125,35.0625
0.116051994,-1.1812552,-1.6071143,-1.6811327,-0.021880364,0.03969336,-0.15578842,-0.38418943,-0.3484975,0.06000858,-3.07776,0.6235428,0.00014634771,-0.05239118,0.00035406763,7.357873e-05,0.019553421,-0.004504023,0.029020136,0.47545707,-1.4203463,1.9508432,-2.0990732,-1.5716866,2.4496799,-0.038706303,0.097513445,-0.119803794,0.03522896,-0.01555021,-0.06762403,-0.038307227,0.24899697,-9.519346,0.7732232,47.651955,-1.1382602,-2.0343323,-3.4789245,-0.019299246,-0.14115286,-0.09542929,27.875,29.0,28.125,32.0625,34.125,35.0625
0.118052185,-1.2332909,-1.8453707,-1.7516611,-0.03417198,0.045704708,-0.15321822,-0.38430965,-0.3485163,0.060036004,-3.0778017,0.62345546,0.00016265045,-0.053880207,0.0008944505,0.0020305256,0.019505559,-0.0016118969,0.027818497,0.4753725,-1.4201671,1.9505562,-2.0989883,-1.5716752,2.4495356,-0.040182885,0.09541678,-0.122355945,0.03728831,-0.016831797,-0.067896016,-0.21068975,0.28730422,-9.576807,0.7553206,47.682407,-1.1456957,-1.8304524,-3.4380956,-0.030315608,-0.13229613,-0.094660625,27.875,29.0,28.125,32.0625,34.125,35.0625
0.12005233,-1.2665422,-1.996735,-1.7385914,-0.04295183,0.05502295,-0.15129724,-0.38438082,-0.34850386,0.06001089,-3.077726,0.62332594,0.00011776325,-0.05458341,0.0011600504,0.0014232673,0.020837901,-0.0028546976,0.026396645,0.47532427,-1.4199739,1.9503759,-2.0989163,-1.5717357,2.4494164,-0.040888015,0.09808187,-0.12425098,0.038231175,-0.017455308,-0.06717531,-0.21068975,0.28730422,-9.615114,0.779936,47.66271,-1.0849006,-1.8920069,-3.5002484,-0.043971725,-0.14192128,-0.057135023,27.875,29.0,28.125,32.0625,34.125,35.0625
0.12205234,-1.2214209,-1.8804786,-1.8206707,-0.043767795,0.06914464,-0.15957187,-0.38448742,-0.34850755,0.0599996,-3.077695,0.62328196,7.0285256e-05,-0.055768743,0.00031889288,0.0018643544,0.01987869,-0.00078289775,0.023766587,0.47524062,-1.4197453,1.9501237,-2.0988448,-1.5717477,2.4493093,-0.04040368,0.09947367,-0.1265655,0.036874503,-0.017560052,-0.06405826,-0.19153613,0.19153613,-9.672575,0.85155696,47.67614,-1.2041478,-1.8306053,-3.5173457,-0.02427095,-0.1427153,-0.079846464,27.875,29.0,28.125,32.0625,34.125,35.0625
0.12405248,-1.5704198,-2.0339165,-1.7748877,-0.045739155,0.07613841,-0.15550143,-0.38460967,-0.34850103,0.06001025,-3.077688,0.62318444,7.739442e-05,-0.05703462,-7.2230476e-05,0.0023376702,0.019447796,-0.00053800934,0.022400286,0.47513232,-1.4195522,1.949859,-2.0987604,-1.5717715,2.4491413,-0.041026086,0.10129409,-0.13002777,0.03809799,-0.017294792,-0.06331304,-0.30645782,0.24899697,-9.634268,0.78217715,47.683304,-1.3129773,-1.8662202,-3.3999772,0.008326124,-0.14491257,-0.11302851,27.875,29.0,28.125,32.0625,34.125,35.0625
0.12605214,-1.6861194,-1.8580917,-1.7055957,-0.045227636,0.078062885,-0.15496482,-0.38474625,-0.34851322,0.060038645,-3.077688,0.6231469,0.00018108886,-0.058101375,0.00079604523,0.0018276355,0.019895485,-0.0018329584,0.020060046,0.47505942,-1.4193597,1.94956,-2.0987008,-1.5718192,2.4490452,-0.043650012,0.10317118,-0.13117103,0.038715206,-0.017099595,-0.06359728,-0.34476504,0.22984336,-9.653421,0.77545905,47.65912,-1.2310102,-1.8331898,-3.3794541,-0.017309872,-0.14354226,-0.11013713,27.875,29.0,28.125,32.0625,34.125,35.0625
0.12805222,-1.939738,-1.7573702,-1.7420219,-0.02741829,0.060097393,-0.15449697,-0.38485116,-0.3485021,0.060035136,-3.0776396,0.6230826,0.00018446009,-0.06045027,0.0003891999,0.002748331,0.019611094,0.00028100118,0.014138697,0.474975,-1.4191664,1.9493302,-2.0986283,-1.5718678,2.448927,-0.044600703,0.10551644,-0.13611339,0.039306663,-0.017821671,-0.05862167,-0.3256114,0.30645782,-9.672575,0.8314132,47.681515,-1.1529247,-1.8486847,-3.242516,0.0031004155,-0.17474335,-0.14238517,27.875,29.0,28.125,32.0625,34.125,35.0625
0.13005215,-1.6051363,-1.5023098,-1.7511064,-0.02144882,0.0679265,-0.1501323,-0.3849879,-0.34851685,0.06005498,-3.0776424,0.62304485,0.00023358785,-0.06148529,-0.00020714123,0.001980651,0.020497495,-0.0019096371,0.013384033,0.47489116,-1.4189485,1.9490188,-2.0985563,-1.5718917,2.4488194,-0.04461239,0.11046919,-0.1404523,0.04104369,-0.017612537,-0.05787701,-0.40222588,0.22984336,-9.653421,0.7284641,47.690468,-1.1625867,-2.014189,-3.3353572,-0.0036326777,-0.18087977,-0.15666714,27.875,29.0,28.125,32.0625,34.125,35.0625
0.13205215,-1.5986509,-1.2066023,-1.7177644,-0.028002983,0.075379856,-0.15943359,-0.3851147,-0.34854347,0.060082622,-3.077698,0.622979,0.00025348505,-0.06236142,0.00012746998,0.0026103149,0.020058151,-0.00045319987,0.011830878,0.47480664,-1.4187566,1.9487194,-2.0984848,-1.5718678,2.4486868,-0.045808036,0.10981055,-0.14111528,0.040870525,-0.017888041,-0.057519298,-0.4405331,0.21068975,-9.634268,0.8627467,47.689575,-1.1869093,-1.8911974,-3.2907925,0.0076086274,-0.17064613,-0.18703839,27.875,29.0,28.125,32.0625,34.125,35.0625
0.13405241,-1.3699385,-1.535862,-1.609121,-0.025163068,0.08613934,-0.15607457,-0.3852282,-0.34852645,0.060065433,-3.07758,0.62291664,0.00024213806,-0.06313773,0.00023513079,0.00093718513,0.021851348,-0.0031651545,0.010894823,0.47473443,-1.4185026,1.9484428,-2.0983765,-1.5719637,2.448591,-0.046460856,0.11503489,-0.14336585,0.041123427,-0.01825294,-0.057231847,-0.38307226,0.22984336,-9.634268,0.80456203,47.657326,-1.2318166,-2.135631,-3.2689786,0.03537681,-0.19080183,-0.23113453,27.875,29.0,28.125,32.0625,34.125,35.0625
0.13605192,-2.174593,-1.9368604,-1.5439438,-0.031623367,0.07585392,-0.15111503,-0.38534877,-0.34850997,0.06006041,-3.0775204,0.6228288,0.00021281157,-0.063315414,0.000978762,0.0008306508,0.023104554,-0.005469684,0.009583022,0.47462597,-1.418274,1.9481677,-2.0982678,-1.5720118,2.4484355,-0.047879037,0.11588194,-0.14485802,0.04438647,-0.018315168,-0.05733674,-0.45968673,0.2873042,-9.557653,0.784413,47.67166,-1.19774,-1.9723608,-3.287829,0.023746785,-0.19978091,-0.23959644,27.875,29.0,28.125,32.0625,34.125,35.0625
0.13805234,-2.051044,-1.8534747,-1.4327942,-0.040618204,0.090075664,-0.15282889,-0.38547158,-0.34849483,0.060067497,-3.0774648,0.6227967,0.00021320049,-0.06357055,0.0014013678,0.0004896181,0.024706164,-0.007530798,0.009334705,0.47451782,-1.4180694,1.9478921,-2.098159,-1.57206,2.4483147,-0.048527457,0.11769327,-0.14678454,0.047063354,-0.018800288,-0.057734273,-0.5363012,0.2681506,-9.461885,0.8627467,47.681515,-1.227347,-2.0115047,-3.2998114,-0.0059601367,-0.20264071,-0.25703755,27.875,29.0,28.125,32.0625,34.125,35.0625
0.14005235,-1.8389469,-1.8164253,-1.2520214,-0.03843437,0.09051759,-0.15933056,-0.38560835,-0.34854054,0.060091775,-3.0775247,0.622675,0.00031079524,-0.064884014,0.0013061988,0.0010887576,0.0249527,-0.0073514604,0.009086411,0.47448155,-1.4178407,1.9475688,-2.0981348,-1.5720724,2.448195,-0.04934859,0.119299196,-0.15048507,0.049109977,-0.019101905,-0.058306076,-0.4405331,0.36391866,-9.385271,0.76874626,47.66987,-1.2662215,-1.8081666,-3.1888914,-0.019782726,-0.20473588,-0.29744187,27.875,29.0,28.125,32.0625,34.125,35.0625
0.14205256,-2.0476274,-2.0301888,-1.1522235,-0.029665694,0.07258606,-0.14848971,-0.38577595,-0.3485079,0.060102846,-3.0774183,0.62282604,0.00037542873,-0.06461432,0.0026374925,-0.0005109042,0.028179465,-0.011561233,0.007855276,0.47432503,-1.4175993,1.9472445,-2.0980375,-1.5721568,2.4481466,-0.05081819,0.12209826,-0.15065388,0.051693786,-0.020047946,-0.058542002,-0.45968673,0.2681506,-9.404425,0.79560274,47.679718,-1.2059927,-1.9102881,-3.2565413,-0.049611785,-0.22200039,-0.32932454,27.875,29.0,28.125,32.0625,34.125,35.0625
0.14405245,-1.0962099,-1.1461432,-0.7942667,-0.034214713,0.08320148,-0.15927853,-0.38589633,-0.34851572,0.060099144,-3.0774102,0.62274724,0.00032780622,-0.06494099,0.00330001,-0.0009458261,0.030097215,-0.013330171,0.00769231,0.4742288,-1.4173589,1.946958,-2.097953,-1.5721568,2.4480023,-0.0516864,0.12379403,-0.15214135,0.053935286,-0.02094947,-0.05924375,-0.45968673,0.24899697,-9.270349,0.86498255,47.65643,-1.220511,-1.9011192,-3.3332102,-0.06192386,-0.20136398,-0.33714533,27.875,29.0,28.125,32.0625,34.125,35.0625
0.14605188,-1.2844651,-1.2588813,-0.69094044,-0.00554565,0.05218186,-0.15483658,-0.38606632,-0.348518,0.060135067,-3.0774283,0.6226548,0.00044502472,-0.06569745,0.0035076537,-0.0013760482,0.030767841,-0.015374102,0.0068371748,0.47410834,-1.4171414,1.9466099,-2.0978806,-1.5722045,2.447822,-0.05293431,0.12647593,-0.1547197,0.05594926,-0.020613883,-0.05963728,-0.30645782,0.19153613,-9.097966,0.84708,47.67614,-1.1378392,-1.9315634,-3.4237435,-0.088522255,-0.22100002,-0.3575312,27.875,29.0,28.125,32.0625,34.125,35.0625
0.14805175,-0.99996346,-0.77165204,-0.40205878,-0.0018867847,0.039915495,-0.15424034,-0.38619652,-0.3484954,0.0601144,-3.077327,0.6226924,0.00041290993,-0.06626956,0.003829192,-0.0011276522,0.030459912,-0.016349636,0.0052429917,0.4739878,-1.4168773,1.9463347,-2.0977962,-1.5722641,2.4477382,-0.054460794,0.12692276,-0.15623656,0.057738267,-0.019901425,-0.059569396,-0.1340753,0.095768064,-8.944737,0.784413,47.67793,-1.1763437,-1.75857,-3.381874,-0.118056014,-0.25088793,-0.39691865,27.875,29.0,28.125,32.0625,34.125,35.0625
0.15005201,-0.38463965,-0.36327282,-0.4011405,0.017962603,0.032043375,-0.15626098,-0.386354,-0.34849063,0.060126632,-3.077282,0.6226452,0.0004283203,-0.06774654,0.0047319573,-0.0011576655,0.03150238,-0.017025568,0.003307318,0.473867,-1.4166121,1.9459752,-2.097676,-1.5723127,2.447594,-0.05697242,0.12882096,-0.15876305,0.059439797,-0.020527652,-0.06014213,-0.22984336,0.038307227,-8.848969,0.7777002,47.68062,-1.0518153,-1.9926546,-3.3897429,-0.14728461,-0.2603582,-0.42984435,27.875,29.0,28.125,32.0625,34.125,35.0625
0.15205206,-0.47090647,0.26522088,-0.24929234,0.02441704,0.019670745,-0.15536077,-0.38648558,-0.3485071,0.060137548,-3.077269,0.6226203,0.00042254903,-0.06724713,0.004102064,-0.0021780545,0.033586256,-0.019720294,0.007318118,0.47378367,-1.4163706,1.9456509,-2.0975797,-1.5723246,2.447497,-0.054979194,0.13230392,-0.1609189,0.06145785,-0.021157837,-0.062156674,-0.19153613,0.038307227,-8.810662,0.82022345,47.691364,-1.1416726,-1.7830789,-3.3600245,-0.16232063,-0.24337885,-0.43687946,27.875,29.0,28.125,32.0625,34.125,35.0625
0.15405212,-0.26842546,-0.04283005,-0.15356655,0.029956019,0.026614988,-0.15327935,-0.38662913,-0.34848225,0.060130287,-3.0771751,0.62256306,0.00042874904,-0.06827806,0.0048757726,-0.0013753194,0.033470478,-0.01924811,0.00707217,0.47366288,-1.4161069,1.94534,-2.097471,-1.5724086,2.4473526,-0.057180718,0.13158913,-0.16233431,0.06310427,-0.021279344,-0.064110436,-0.15322891,0.05746084,-8.7532015,0.8112748,47.661808,-1.1205279,-1.7357175,-3.4077144,-0.20130034,-0.27594954,-0.4650048,27.875,29.0,28.125,32.0625,34.125,35.0625
0.1560524,-0.51235825,-0.22224052,-0.26590216,0.023947768,0.030700097,-0.16252469,-0.38675743,-0.3484755,0.060150303,-3.0771365,0.6225133,0.00036497283,-0.06981287,0.005647872,-0.001353317,0.034006283,-0.020359954,0.010342097,0.47354198,-1.4158897,1.9450039,-2.0972908,-1.572421,2.4472058,-0.059926752,0.13368464,-0.16528808,0.06518218,-0.021265425,-0.07012381,-0.05746084,0.05746084,-8.695741,0.8940802,47.677036,-1.0347811,-1.7846093,-3.2915702,-0.21758455,-0.27569804,-0.44274303,27.875,29.0,28.125,32.0625,34.125,35.0625
0.15805168,-0.51360536,-0.6388253,-0.44242254,0.0027199462,0.042471435,-0.16605127,-0.38690817,-0.34845454,0.060138308,-3.0770247,0.6224716,0.0003426534,-0.071457624,0.005447211,-0.0011956663,0.03431043,-0.020503009,0.011267176,0.47342163,-1.4155885,1.9446553,-2.0971587,-1.5725049,2.447074,-0.060900293,0.13674235,-0.16952147,0.066612706,-0.021489035,-0.07201783,-0.019153614,0.11492168,-8.829816,0.7978386,47.677036,-0.9590947,-1.8527532,-3.241897,-0.27220777,-0.28490824,-0.45110744,27.875,29.0,28.125,32.0625,34.125,35.0625
0.16005172,-0.9029075,-0.76330125,-0.28360072,-0.019489657,0.038890753,-0.16158147,-0.38703552,-0.34843883,0.06012323,-3.0769742,0.62241846,0.00022415616,-0.07206488,0.00476252,-0.0011982037,0.03450015,-0.01979103,0.016756523,0.47327814,-1.4153235,1.9443554,-2.0970275,-1.5725054,2.446904,-0.059885014,0.13857795,-0.17158188,0.06628068,-0.022005355,-0.076487124,-0.15322891,0.038307227,-8.848969,0.8179876,47.68062,-1.099642,-1.7754033,-3.2432928,-0.27752274,-0.2957722,-0.43460387,27.875,29.0,28.125,32.0625,34.125,35.0625
0.16205199,-0.92962414,-1.2212231,-0.76842844,-0.028313886,0.052827466,-0.1628125,-0.3871941,-0.34842315,0.06013821,-3.0768886,0.6223773,0.00019394667,-0.07519725,0.0051920842,-0.00016963937,0.034111425,-0.015978701,0.0230745,0.47314507,-1.4150472,1.9439601,-2.0968363,-1.5725659,2.4467564,-0.06254409,0.14006086,-0.17537662,0.06500213,-0.023430191,-0.08545631,-0.17238252,0.17238252,-9.078813,0.90527004,47.711964,-1.0225961,-1.7842691,-3.2760017,-0.30077195,-0.307841,-0.3302588,27.875,29.0,28.125,32.0625,34.125,35.0625
0.16405214,-1.3333653,-1.6624662,-0.9694468,-0.034643732,0.057665244,-0.15263425,-0.3873043,-0.34840125,0.06011292,-3.0767865,0.6222401,6.201481e-05,-0.07578636,0.005346203,-0.00095433637,0.033681646,-0.015763912,0.02474845,0.4730367,-1.4147701,1.9436616,-2.09667,-1.5726136,2.4465756,-0.063496776,0.14154194,-0.17475402,0.0624987,-0.023169562,-0.088080056,-0.22984336,0.22984336,-9.212888,0.8291774,47.68062,-0.93134934,-1.8474407,-3.3598232,-0.30667272,-0.29826596,-0.3148813,27.875,29.0,28.125,32.0625,34.125,35.0625
0.16605258,-1.8991184,-2.883976,-1.3834792,-0.041455124,0.063004486,-0.15179281,-0.38747615,-0.34839055,0.060121432,-3.0767577,0.6221547,9.212703e-05,-0.07705838,0.005215793,-0.0020176074,0.03407181,-0.017024133,0.028808953,0.4728925,-1.4144925,1.9433011,-2.096574,-1.5726618,2.446382,-0.064523004,0.14594491,-0.17729531,0.06191803,-0.02296302,-0.09316518,-0.36391866,0.30645782,-9.232041,0.83365434,47.694946,-0.96017265,-1.8427325,-3.2599611,-0.30853713,-0.32055846,-0.22934689,27.875,29.0,28.125,32.0625,34.125,35.0625
0.16805169,-2.0189533,-3.021494,-1.5037295,-0.07546707,0.08871928,-0.14831126,-0.38764372,-0.34839174,0.0601482,-3.0767238,0.62199247,0.00017313453,-0.079497665,0.0046090977,-0.00045523056,0.032066934,-0.011610172,0.030789211,0.47279626,-1.4142281,1.9429063,-2.0964434,-1.5727457,2.4461892,-0.06518652,0.14575975,-0.18004693,0.05910879,-0.023662973,-0.09580514,-0.40222588,0.49799395,-9.346964,0.83813137,47.684196,-0.89890444,-1.7627926,-3.33805,-0.31633446,-0.32841378,-0.17711537,27.875,29.0,28.125,32.0625,34.125,35.0625
0.17005171,-2.383542,-2.97394,-1.7573723,-0.09320705,0.10035618,-0.15164338,-0.38776976,-0.3483551,0.060089387,-3.076591,0.62190664,-2.8538687e-05,-0.08172294,0.0041917525,-0.00051211595,0.03079586,-0.008668062,0.031369813,0.47264,-1.4138787,1.9426063,-2.0963008,-1.5727814,2.4459965,-0.066281915,0.1483791,-0.18212938,0.05536393,-0.023908988,-0.09747386,-0.53630114,0.53630114,-9.481039,0.7978386,47.698532,-0.9037344,-1.779004,-3.3939667,-0.25361001,-0.3320538,-0.13213654,27.875,29.0,28.125,32.0625,34.125,35.0625
0.17205195,-2.552501,-3.3334043,-1.6498126,-0.09663115,0.11332923,-0.15765567,-0.38793206,-0.34835044,0.06008065,-3.076538,0.6218005,-8.297442e-05,-0.083248176,0.0040536514,-0.0006536905,0.030142326,-0.0072715185,0.03046405,0.47250757,-1.4135537,1.9422225,-2.0961697,-1.5728177,2.4458048,-0.0673416,0.15044679,-0.18378715,0.05340639,-0.02398098,-0.097624466,-0.47884035,0.49799395,-9.768343,0.83589023,47.681515,-0.9084287,-1.8393226,-3.382573,-0.23384817,-0.3633979,-0.11182994,27.875,29.0,28.125,32.0625,34.125,35.0625
0.17405225,-2.3396797,-3.5091882,-1.776725,-0.07967497,0.114750125,-0.146529,-0.38809884,-0.3483283,0.06007124,-3.076468,0.6217103,-7.479771e-05,-0.084432825,0.003971145,-0.0003561268,0.029842945,-0.006530192,0.026990287,0.47236338,-1.4132531,1.9418763,-2.0960743,-1.5728897,2.4456136,-0.068184175,0.15174028,-0.18603128,0.053556547,-0.024059052,-0.09499066,-0.5554548,0.51714754,-9.787497,0.83589023,47.67166,-0.8898492,-1.8098863,-3.3725638,-0.2393387,-0.37227333,-0.10332528,27.875,29.0,28.125,32.0625,34.125,35.0625
0.17605223,-2.766372,-2.882189,-1.862969,-0.071603924,0.08757939,-0.14987762,-0.3882544,-0.3483336,0.060067892,-3.0764523,0.6215365,-8.372042e-05,-0.08619554,0.004195566,-0.00022413996,0.028929038,-0.0035722386,0.020611228,0.4722548,-1.4129528,1.9415168,-2.09598,-1.5729259,2.4453988,-0.06979911,0.1525279,-0.18652585,0.050220557,-0.024595935,-0.09022302,-0.6703765,0.4213795,-9.787497,0.8314132,47.66987,-0.84025025,-1.7810867,-3.5078773,-0.21555807,-0.37588525,-0.1378376,27.875,29.0,28.125,32.0625,34.125,35.0625
0.17805281,-1.8812987,-2.4001062,-2.0726304,-0.055117063,0.09150305,-0.15080921,-0.38843656,-0.3483321,0.06006684,-3.0764124,0.6215108,-8.1665086e-05,-0.087870024,0.004046471,-0.0016831971,0.029104453,-0.0035046495,0.017582526,0.47211027,-1.4126263,1.9411215,-2.095885,-1.5729622,2.4452436,-0.07088663,0.15747538,-0.18820348,0.046968848,-0.024795046,-0.088278465,-0.57460845,0.4405331,-9.672575,0.8157518,47.653748,-0.82431436,-1.8950734,-3.5835464,-0.14225808,-0.39249963,-0.16713367,27.875,29.0,28.125,32.0625,34.125,35.0625
0.18005215,-1.6832155,-2.143327,-1.9373811,-0.031819638,0.07967616,-0.14815193,-0.3886108,-0.34831586,0.060052127,-3.0763493,0.62148196,-9.713683e-05,-0.088379584,0.0043909317,-0.00204121,0.029895935,-0.0045569227,0.010549493,0.47195426,-1.412302,1.9407624,-2.0958006,-1.5730098,2.445078,-0.071772,0.15907846,-0.18950754,0.047974426,-0.025016911,-0.0821282,-0.45968673,0.22984336,-9.80665,0.79560274,47.70211,-0.778026,-1.8317757,-3.6414604,-0.0925218,-0.40321082,-0.22739863,27.875,29.0,28.125,32.0625,34.125,35.0625
0.1820523,-1.5887779,-1.4622308,-1.9222957,-0.023535712,0.06888424,-0.1528793,-0.388838,-0.34833062,0.060084824,-3.0763912,0.62143165,5.3695017e-05,-0.08955458,0.004143937,-0.0020319489,0.030595744,-0.0040896866,0.0101094525,0.47179806,-1.4119886,1.9403185,-2.0957649,-1.5730466,2.4448853,-0.07181446,0.16152059,-0.19248834,0.048412204,-0.025852283,-0.08172854,-0.45968673,0.15322891,-9.80665,0.8717007,47.683304,-0.7487763,-1.9586465,-3.5885315,-0.089839906,-0.39945734,-0.27462485,27.875,29.0,28.125,32.0625,34.125,35.0625
0.18405223,-1.1224148,-1.1058807,-1.7756561,-0.017535914,0.07583607,-0.15430193,-0.3890102,-0.34831914,0.060074173,-3.0763016,0.6214526,7.642541e-06,-0.090555705,0.005871398,-0.0038300906,0.032891102,-0.0072594453,0.008730667,0.47165284,-1.411651,1.9399236,-2.0956328,-1.5730947,2.4447649,-0.07532761,0.16525662,-0.192846,0.048889846,-0.026469354,-0.083858304,-0.4213795,0.038307227,-9.749189,0.83813137,47.691364,-0.6832797,-2.1037855,-3.666219,-0.0727898,-0.41001806,-0.2585453,27.875,29.0,28.125,32.0625,34.125,35.0625
0.18605183,-1.4987189,-1.0743401,-1.5321527,-0.007262948,0.07348741,-0.15843338,-0.38921008,-0.34832108,0.060088728,-3.0762944,0.6213156,0.000119186385,-0.0901294,0.0047442983,-0.0041404013,0.03365002,-0.008509144,0.00989777,0.47152162,-1.411338,1.939516,-2.0955727,-1.5731667,2.4445493,-0.0728464,0.16750476,-0.1951102,0.050358318,-0.02657667,-0.08254366,-0.2681506,-0.076614454,-9.672575,0.8717007,47.670765,-0.7107311,-2.1399689,-3.6405108,-0.036258206,-0.41940734,-0.3089898,27.875,29.0,28.125,32.0625,34.125,35.0625
0.18805195,-1.6457952,-0.96420425,-1.3366047,0.012056684,0.06805428,-0.14545915,-0.38941723,-0.3483185,0.060112163,-3.0762763,0.6213687,0.00019646088,-0.09211013,0.0048069134,-0.0032069962,0.03476033,-0.006521825,0.00981734,0.4713536,-1.4110372,1.9390963,-2.0954883,-1.5732039,2.444417,-0.073478274,0.16917978,-0.19955792,0.051862713,-0.028476527,-0.083087616,-0.21068975,-0.1340753,-9.500193,0.85826975,47.70659,-0.79752725,-2.1049542,-3.573007,-0.014800138,-0.41622707,-0.32443878,27.875,29.0,28.125,32.0625,34.125,35.0625
0.19005218,-0.8619663,-0.4415706,-1.4942834,0.01766718,0.07465134,-0.14734101,-0.3895648,-0.34828553,0.06006968,-3.0761476,0.6212668,8.686288e-05,-0.09525106,0.0060179452,-0.0034159722,0.03670954,-0.0066146217,0.0060286536,0.47120827,-1.4106871,1.9387597,-2.0953562,-1.5732759,2.4442248,-0.077308916,0.17378558,-0.20481029,0.053473014,-0.030194145,-0.083116606,-0.1340753,-0.038307227,-9.481039,0.79560274,47.679718,-0.6838429,-2.2125905,-3.47156,-0.008127313,-0.42430067,-0.33098796,27.875,29.0,28.125,32.0625,34.125,35.0625
0.19205238,-0.76085633,-0.18053228,-1.5212015,0.020323753,0.059837107,-0.16146673,-0.3897667,-0.34829044,0.060080137,-3.0761292,0.6212017,0.0001456084,-0.09501855,0.004167549,-0.0019528307,0.0369639,-0.003953349,0.010880133,0.47106576,-1.4103513,1.9383291,-2.0952718,-1.5733246,2.4440444,-0.07287064,0.17327826,-0.20792529,0.054835305,-0.031635374,-0.08352404,-0.15322891,0.019153614,-9.442732,0.8493211,47.69763,-0.8501151,-2.0708215,-3.3291435,0.009909838,-0.39621043,-0.37667757,27.875,29.0,28.125,32.0625,34.125,35.0625
0.19405183,-0.79836315,-0.8226931,-1.3041008,0.01073859,0.052242536,-0.15831077,-0.3899979,-0.3482736,0.060098615,-3.0760586,0.6212246,0.00019686394,-0.095941864,0.0042700195,-0.0015355716,0.037133887,-0.004187554,0.011909758,0.47087356,-1.4099903,1.9378375,-2.0951269,-1.5733966,2.4438758,-0.07379193,0.17433228,-0.21057257,0.05669728,-0.031691097,-0.08547335,-0.15322891,0.11492168,-9.346964,0.82022345,47.66808,-0.9410953,-2.0720236,-3.35249,0.02331613,-0.4030729,-0.36693388,27.875,29.0,28.125,32.0625,34.125,35.0625
0.19605203,-0.7561684,-1.3384331,-1.4638258,-0.011245391,0.05250659,-0.15542385,-0.3901501,-0.3482614,0.060073756,-3.0759795,0.621071,0.00013418411,-0.09606186,0.004454877,-0.0014901542,0.03928499,-0.0059191165,0.015896399,0.47075352,-1.4096534,1.937478,-2.0950062,-1.5734571,2.4436703,-0.07345467,0.17587224,-0.21335211,0.060440753,-0.032838844,-0.08911472,-0.15322891,0.21068975,-9.270349,0.83589023,47.661808,-0.85051954,-2.0849485,-3.376306,0.01557431,-0.42187726,-0.36468154,27.875,29.0,28.125,32.0625,34.125,35.0625
0.19805232,-0.6362948,-1.6710843,-1.3822812,-0.040134966,0.05795263,-0.16419762,-0.39037612,-0.34823778,0.06008953,-3.075882,0.6210666,0.00024638083,-0.09546824,0.0058334135,-0.0019642196,0.044202738,-0.008503184,0.02078087,0.47058582,-1.4093047,1.9370121,-2.094885,-1.5735782,2.4435127,-0.07323256,0.176651,-0.21426696,0.06509167,-0.036055792,-0.09376572,-0.019153614,0.24899697,-9.308657,0.86945957,47.691364,-0.98345983,-2.1145785,-3.3171015,-0.039791994,-0.38170213,-0.3322914,27.875,29.0,28.125,32.0625,34.125,35.0625
0.20005226,-1.0847791,-2.3903794,-1.3939763,-0.055336233,0.056252696,-0.15590768,-0.39054325,-0.34823307,0.060083024,-3.0758138,0.6209341,0.00021258384,-0.09613055,0.006503218,-0.0015833456,0.04632832,-0.008332324,0.025529744,0.47046563,-1.4089686,1.9366058,-2.0947406,-1.5736388,2.4433188,-0.073691875,0.17711477,-0.21624155,0.067395486,-0.038048662,-0.098963425,-0.076614454,0.3256114,-9.270349,0.83813137,47.68062,-0.9797653,-1.9476519,-3.3841577,-0.03353458,-0.33506554,-0.2770905,27.875,29.0,28.125,32.0625,34.125,35.0625
0.20205238,-1.0140094,-2.4771328,-1.1348042,-0.05951995,0.058906186,-0.15068479,-0.3907751,-0.348228,0.060095984,-3.0757496,0.6208583,0.00029895068,-0.09582815,0.0075922017,-0.0030333607,0.05108763,-0.013656706,0.031807266,0.4703096,-1.4085827,1.9361027,-2.0946186,-1.5737351,2.443124,-0.07410558,0.18116596,-0.21891123,0.07288771,-0.039891224,-0.10564687,-0.019153614,0.4405331,-9.308657,0.82022345,47.67166,-1.0256884,-1.9874073,-3.3747911,-0.07394181,-0.32891944,-0.22146304,27.875,29.0,28.125,32.0625,34.125,35.0625
0.20405254,-1.0017468,-2.428574,-1.3068675,-0.04302306,0.036619537,-0.14540942,-0.39095536,-0.34819612,0.060074266,-3.0756314,0.62067884,0.00024083148,-0.095463835,0.009049253,-0.0023800817,0.05416222,-0.015942201,0.033485197,0.47015318,-1.408211,1.9356846,-2.0944493,-1.5738319,2.442871,-0.07519444,0.17986116,-0.22033502,0.07902784,-0.041610662,-0.108402945,0.11492168,0.45968673,-9.270349,0.8493211,47.651955,-0.98171693,-1.873526,-3.389814,-0.17329784,-0.29176232,-0.1599982,27.875,29.0,28.125,32.0625,34.125,35.0625
0.20605184,-0.74512166,-1.999232,-1.2612962,-0.02815759,0.021294449,-0.14441249,-0.3911572,-0.34819576,0.06008102,-3.0755932,0.62059194,0.00028076608,-0.096615784,0.008243271,-0.0018090011,0.05198899,-0.01528482,0.037359823,0.47000912,-1.4078623,1.9352416,-2.0943415,-1.5738915,2.442678,-0.07580106,0.18106143,-0.22307375,0.07896314,-0.03999445,-0.11288851,-0.019153614,0.4405331,-9.232041,0.92093146,47.703903,-1.0043548,-1.8857043,-3.3730779,-0.18012732,-0.26777738,-0.102914006,27.875,29.0,28.125,32.0625,34.125,35.0625
0.20805195,-0.5076277,-1.327562,-1.0655556,-0.026868844,0.005454204,-0.1420903,-0.39136004,-0.34816712,0.060078792,-3.075468,0.6204709,0.000289712,-0.097328536,0.007990467,-0.001310188,0.05180888,-0.015361616,0.035945404,0.46985298,-1.4074893,1.9347748,-2.0941613,-1.5740112,2.4424627,-0.076065876,0.18197341,-0.22570853,0.080656506,-0.0398136,-0.11173524,0.0,0.4213795,-9.155427,0.8940802,47.70211,-0.9984627,-1.8187944,-3.416438,-0.20149869,-0.26158112,-0.06590719,27.875,29.0,28.125,32.0625,34.125,35.0625
0.2100522,-0.5113959,-1.5723523,-1.1078762,-0.009728098,-0.0021437309,-0.14721525,-0.39156815,-0.34815526,0.060082052,-3.075432,0.6202925,0.0002998101,-0.09888625,0.009533383,-0.001275277,0.053946756,-0.015330172,0.031541996,0.46968386,-1.4071283,1.9343199,-2.0940292,-1.5740718,2.442187,-0.07888989,0.1831596,-0.22758159,0.08228213,-0.041741144,-0.11014604,0.038307227,0.40222588,-8.963891,0.8112748,47.683304,-1.0052795,-1.7874557,-3.4319425,-0.22477368,-0.23237033,-0.06563461,27.875,29.0,28.125,32.0625,34.125,35.0625
0.21205209,-0.30491987,-1.2901391,-0.8924422,-0.02415264,0.008235635,-0.14885236,-0.39175838,-0.34814024,0.060061812,-3.0753093,0.6201903,0.00023142717,-0.09932037,0.008436226,-0.0010228915,0.05402207,-0.014899612,0.030173466,0.46954054,-1.4067197,1.9338526,-2.0938494,-1.5741562,2.441996,-0.07713055,0.18506606,-0.23060122,0.08304235,-0.042018596,-0.10701056,0.038307227,0.30645782,-9.021352,0.8537928,47.657326,-0.9462267,-1.7006637,-3.42518,-0.2588213,-0.19707969,-0.079771645,27.875,29.0,28.125,32.0625,34.125,35.0625
0.21405217,0.07889043,-1.7926259,-1.0710586,-0.02478101,0.0326366,-0.1543802,-0.39196476,-0.34812182,0.060069833,-3.0752199,0.6201356,0.00027703593,-0.10020059,0.008110783,-0.00066002377,0.054020025,-0.014293449,0.026296664,0.46938455,-1.4063709,1.9333981,-2.093706,-1.5742525,2.4418178,-0.077122904,0.18632649,-0.23310244,0.08373999,-0.042294472,-0.10312226,0.019153614,0.24899697,-9.155427,0.8493211,47.66091,-1.1080018,-1.8551843,-3.3985157,-0.2836927,-0.19311017,-0.12053085,27.875,29.0,28.125,32.0625,34.125,35.0625
0.2160524,-0.6159138,-2.003132,-1.0595734,-0.022139747,0.034917913,-0.14344959,-0.3921474,-0.34811988,0.060078207,-3.0751572,0.61993384,0.00025422833,-0.10229368,0.009539687,-0.0017858186,0.054459777,-0.015608817,0.018074306,0.46926305,-1.4060215,1.9329313,-2.0935147,-1.574324,2.4415786,-0.08158984,0.18991108,-0.23457332,0.08299909,-0.042098712,-0.09936329,0.05746084,0.15322891,-9.155427,0.8314132,47.674347,-1.0070938,-1.8895334,-3.3581758,-0.3047131,-0.17246774,-0.17510557,27.875,29.0,28.125,32.0625,34.125,35.0625
0.21805255,-0.6045537,-1.5918218,-0.8559203,-0.036100492,0.04622287,-0.15708807,-0.39235517,-0.34807998,0.060047228,-3.07502,0.61986494,0.0001703954,-0.10268001,0.0072241193,-0.0020093923,0.05399169,-0.013894043,0.019303693,0.4690606,-1.4055998,1.9324759,-2.0933478,-1.5744084,2.4413512,-0.0775729,0.19337183,-0.2376654,0.080884464,-0.042481083,-0.096566334,0.019153614,0.21068975,-9.193734,0.8851263,47.678825,-1.1343987,-1.9460478,-3.3547406,-0.2902947,-0.14444253,-0.21569844,27.875,29.0,28.125,32.0625,34.125,35.0625
0.22005256,-1.102909,-1.6914421,-1.0457553,-0.025443356,0.03628628,-0.14776355,-0.39256504,-0.34809163,0.060063224,-3.0749586,0.6198735,0.00014304445,-0.10507831,0.0064923647,-0.0015247412,0.051799025,-0.010351747,0.01570396,0.46891615,-1.4052145,1.93195,-2.0931575,-1.5744447,2.4412203,-0.07859962,0.19541855,-0.24044052,0.0774611,-0.042142563,-0.09399068,0.0,0.114921674,-9.136273,0.7709874,47.67614,-1.1806515,-1.9226654,-3.3820858,-0.2767641,-0.12929602,-0.2717814,27.875,29.0,28.125,32.0625,34.125,35.0625
0.22205192,-0.84099585,-1.647279,-1.1867005,-0.01838823,0.045975238,-0.14879261,-0.3927585,-0.3480646,0.060028773,-3.0748198,0.6197093,0.00010678135,-0.106685296,0.0066607026,-0.0019932739,0.050822034,-0.00862447,0.015165877,0.46877158,-1.4047934,1.9315084,-2.093015,-1.5745639,2.4409914,-0.08032436,0.19729592,-0.24083291,0.07397177,-0.042080056,-0.09517169,-0.076614454,0.15322891,-9.251195,0.8627467,47.672558,-1.1358448,-2.0817037,-3.4122338,-0.23550841,-0.13169655,-0.29324818,27.875,29.0,28.125,32.0625,34.125,35.0625
0.22405203,-0.9933957,-1.7233474,-1.3805789,-0.02444889,0.04551209,-0.14623941,-0.39297834,-0.34805915,0.060025815,-3.0747375,0.6197714,0.00012032158,-0.108402774,0.005559886,-0.0017640194,0.0486628,-0.0059074233,0.011829506,0.46860364,-1.4043968,1.9310287,-2.0928967,-1.574624,2.4408731,-0.080311105,0.19944458,-0.2432063,0.07079539,-0.041391525,-0.09182192,-0.11492168,0.22984336,-9.346964,0.8291774,47.67345,-1.1645844,-1.9115797,-3.4654033,-0.19767661,-0.11385729,-0.35475433,27.875,29.0,28.125,32.0625,34.125,35.0625
0.22605242,-1.243766,-2.0054107,-1.6966993,-0.03437112,0.04665115,-0.14223085,-0.3931692,-0.34804142,0.06000736,-3.0746245,0.6196315,2.2760969e-05,-0.11018525,0.0046579633,-0.0008370542,0.046204727,-0.0030655102,0.012515878,0.46844745,-1.403988,1.9305509,-2.0926936,-1.5746955,2.4406445,-0.08083138,0.20033291,-0.24604246,0.06907665,-0.04051194,-0.09302564,-0.11492168,0.2681506,-9.32781,0.8784135,47.66987,-1.1673105,-1.9504426,-3.4609618,-0.14851433,-0.118695974,-0.42234316,27.875,29.0,28.125,32.0625,34.125,35.0625
0.22805169,-1.4429283,-2.765992,-1.6567883,-0.040227592,0.057987586,-0.14478253,-0.3934076,-0.3480391,0.060025647,-3.0745692,0.61956203,0.00012722396,-0.11107357,0.0040992484,-0.0014048867,0.04576997,-0.003855592,0.011229934,0.46829146,-1.4036025,1.930035,-2.092574,-1.5747913,2.4404526,-0.08105835,0.20354512,-0.24848358,0.068800986,-0.03977263,-0.09196904,-0.34476507,0.36391866,-9.423578,0.92093146,47.70032,-1.2305446,-2.0489953,-3.5006661,-0.12331678,-0.10941237,-0.4323756,27.875,29.0,28.125,32.0625,34.125,35.0625
0.23005192,-2.5113308,-3.312936,-1.842352,-0.051681347,0.059841305,-0.13508473,-0.39361516,-0.34804082,0.06000051,-3.0744934,0.6194289,7.4480646e-05,-0.11127669,0.004068511,-0.0019664168,0.045404598,-0.0055292547,0.013290403,0.46814707,-1.4031572,1.9295458,-2.0924418,-1.5748509,2.4402351,-0.08180817,0.20520884,-0.2493279,0.069283545,-0.038712826,-0.094780535,-0.59376204,0.40222588,-9.557653,0.82022345,47.666286,-1.2247835,-2.1407757,-3.4965005,-0.10664122,-0.10859558,-0.4781598,27.875,29.0,28.125,32.0625,34.125,35.0625
0.23205191,-2.5482917,-2.916872,-1.9600246,-0.07412572,0.07759509,-0.14487925,-0.39381203,-0.3480148,0.05999019,-3.0743632,0.6193992,1.721625e-05,-0.11153836,0.004027257,-0.0020341098,0.045295652,-0.007888014,0.017133677,0.46797895,-1.4027722,1.9290789,-2.0922492,-1.5749344,2.4400656,-0.082636975,0.20677702,-0.25170532,0.072110355,-0.037580702,-0.099453196,-0.49799395,0.4213795,-9.710882,0.8918391,47.696735,-1.2331645,-2.1311011,-3.5408108,-0.11484287,-0.11969918,-0.48004872,27.875,29.0,28.125,32.0625,34.125,35.0625
0.23405205,-2.2600145,-3.521405,-1.9840143,-0.068317935,0.106789686,-0.14558709,-0.39405173,-0.34801906,0.059977964,-3.0743113,0.6193076,2.6952921e-05,-0.11359362,0.003216043,-0.00120861,0.042589325,-0.005540239,0.023154348,0.4678105,-1.4023149,1.9285516,-2.0921419,-1.574994,2.439847,-0.08382003,0.20821188,-0.25501475,0.07062081,-0.036267314,-0.106660314,-0.6512228,0.36391866,-9.710882,0.8717007,47.664497,-1.2595165,-2.1102018,-3.5051966,-0.075296566,-0.12225948,-0.43462276,27.875,29.0,28.125,32.0625,34.125,35.0625
0.23605226,-2.4262662,-2.6689286,-1.7029773,-0.058929812,0.11298724,-0.1499061,-0.39427766,-0.34798956,0.059954733,-3.0742066,0.61918557,1.222523e-05,-0.11442208,0.0031799038,-0.0011937451,0.041485865,-0.006087948,0.028926998,0.4676182,-1.4018826,1.9280728,-2.0920103,-1.5750893,2.4395924,-0.08518844,0.20940386,-0.25659305,0.07094562,-0.035076726,-0.113803715,-0.7278373,0.30645782,-9.576807,0.947788,47.67614,-1.2829628,-2.0732117,-3.4905248,-0.048252065,-0.13196659,-0.36664754,27.875,29.0,28.125,32.0625,34.125,35.0625
0.23805262,-2.0814338,-1.5519568,-2.1073153,-0.021347458,0.0973927,-0.15164104,-0.3945133,-0.34801644,0.059969667,-3.074188,0.6191202,6.844022e-05,-0.11504881,0.0027604962,-0.0008399384,0.04110517,-0.007031659,0.035749838,0.46748605,-1.4014618,1.9275225,-2.09189,-1.5751375,2.4394221,-0.08542157,0.21087238,-0.25970316,0.07321379,-0.034339752,-0.12086267,-0.6703765,0.22984336,-9.576807,0.8851263,47.683304,-1.1498303,-1.9965906,-3.5588427,-0.067341015,-0.1595009,-0.2933431,27.875,29.0,28.125,32.0625,34.125,35.0625
0.24005191,-2.0422194,-0.68959117,-2.0794349,0.002337771,0.0823912,-0.14804143,-0.39473894,-0.34801537,0.059962653,-3.074155,0.61899465,4.057908e-05,-0.11706967,0.0020637764,-0.00059273,0.039299358,-0.0045434637,0.04026191,0.46730575,-1.4010408,1.9270195,-2.09176,-1.5751728,2.439168,-0.086220205,0.21314089,-0.2623942,0.0705655,-0.03388947,-0.1261723,-0.51714754,0.095768064,-9.730036,0.8918391,47.698532,-1.2706326,-2.0068672,-3.5255785,-0.0022917404,-0.16956069,-0.22071801,27.875,29.0,28.125,32.0625,34.125,35.0625
0.24205247,-1.7956121,-1.3492234,-2.014686,0.01623151,0.08654322,-0.14500877,-0.39496377,-0.34800264,0.059937865,-3.0740693,0.61870855,6.0735565e-05,-0.11848211,0.0042017815,-0.0010455678,0.039646324,-0.006800871,0.03891473,0.46715993,-1.4005841,1.9265178,-2.0916388,-1.575293,2.438855,-0.09159042,0.21404123,-0.2628855,0.0722872,-0.033206966,-0.13019648,-0.49799395,0.05746084,-9.672575,0.87617236,47.66091,-1.0144241,-1.9284298,-3.5855746,0.032227598,-0.17855416,-0.18507987,27.875,29.0,28.125,32.0625,34.125,35.0625
0.24405245,-1.5983915,-0.50160366,-1.8051511,-0.003937942,0.08090652,-0.15734255,-0.39520904,-0.34798416,0.059912883,-3.0739777,0.6187083,-2.9434292e-05,-0.117749594,0.0034611283,-0.0012363156,0.04137018,-0.008888259,0.039449528,0.46693286,-1.4001029,1.9259795,-2.091482,-1.5753297,2.4386399,-0.08918067,0.21580935,-0.26535186,0.07562441,-0.033815775,-0.12831439,-0.47884035,-0.019153614,-9.595961,0.8672237,47.666286,-1.1029044,-1.919728,-3.6519127,0.017345246,-0.19296354,-0.13671711,27.875,29.0,28.125,32.0625,34.125,35.0625
0.24605182,-1.0545337,-0.6508662,-1.6213089,-0.0009825492,0.07860793,-0.15143414,-0.39546016,-0.3479818,0.059938084,-3.0739508,0.6185115,1.8536231e-05,-0.11910249,0.0049453126,-0.0015205061,0.04336081,-0.011884727,0.034973294,0.46675155,-1.3996935,1.9254049,-2.0913012,-1.5754017,2.4383395,-0.092632785,0.21841699,-0.26881003,0.08003801,-0.03424535,-0.12728639,-0.6703765,0.05746084,-9.5385,0.8851263,47.683304,-1.013102,-2.060206,-3.6380167,0.00026101567,-0.19353911,-0.14434272,27.875,29.0,28.125,32.0625,34.125,35.0625
0.24805203,-1.4421576,-0.5747623,-1.6774534,-0.0016599408,0.055020645,-0.14114192,-0.3956827,-0.34794536,0.059906457,-3.073803,0.6184684,-1.7788794e-05,-0.119844906,0.0062512886,-0.0016476968,0.04583355,-0.015405753,0.024349889,0.46655875,-1.3992484,1.9249262,-2.0911553,-1.5755094,2.4381392,-0.09512144,0.2205093,-0.2723244,0.085738815,-0.034853347,-0.11914363,-0.49799395,-0.19153613,-9.615114,0.92093146,47.658226,-0.829637,-2.1366377,-3.6643481,-0.033376567,-0.17778441,-0.22314784,27.875,29.0,28.125,32.0625,34.125,35.0625
0.25005212,-1.0262685,-0.63225245,-1.910108,0.013653023,0.051315606,-0.14735395,-0.39593214,-0.3479625,0.059914764,-3.0737736,0.618388,-1.9241172e-05,-0.12061609,0.006543377,-0.0010257273,0.04698563,-0.017394425,0.019881612,0.4663905,-1.3987913,1.9243392,-2.090998,-1.5755457,2.4379249,-0.09616168,0.22196779,-0.2767135,0.09097109,-0.03498139,-0.11571265,-0.30645782,-0.15322891,-9.557653,0.8851263,47.690468,-0.80788624,-2.0777555,-3.56738,-0.060821123,-0.20542842,-0.26533896,27.875,29.0,28.125,32.0625,34.125,35.0625
0.25205237,-1.0434926,-0.3525902,-1.7425714,0.02082852,0.033891156,-0.14331983,-0.3961544,-0.3479367,0.059911177,-3.073698,0.6182179,-8.724515e-05,-0.12120152,0.006891841,-0.001326589,0.049042366,-0.020639952,0.018221665,0.46618623,-1.3983823,1.9238247,-2.090793,-1.5756053,2.4376245,-0.096970156,0.22512963,-0.28087372,0.09578503,-0.035373338,-0.11485412,-0.28730422,-0.15322891,-9.481039,0.8806493,47.71286,-0.8189405,-2.11695,-3.477302,-0.1578108,-0.20340627,-0.30675566,27.875,29.0,28.125,32.0625,34.125,35.0625
0.25405264,-1.0976657,-1.0589092,-1.6705058,0.024097541,0.047909528,-0.14845756,-0.39640766,-0.34792218,0.05991797,-3.0735912,0.6181583,-4.6718826e-05,-0.12204505,0.0074592005,-0.0018372429,0.051690508,-0.022244819,0.01681722,0.4660059,-1.3979366,1.9232491,-2.0906122,-1.5757145,2.437421,-0.09758413,0.22819838,-0.2839603,0.098417945,-0.037028566,-0.11405151,-0.38307226,-0.11492168,-9.404425,0.9030289,47.661808,-0.7549231,-2.1194017,-3.3731024,-0.18783286,-0.19874954,-0.31644085,27.875,29.0,28.125,32.0625,34.125,35.0625
0.2560518,-1.473932,-0.77869576,-1.6815547,0.021899575,0.036711954,-0.14579554,-0.3966623,-0.3479058,0.059913754,-3.073467,0.61815107,-0.00014434989,-0.1219492,0.0072866064,-0.001005755,0.05263545,-0.024734532,0.016387837,0.4657901,-1.3974439,1.9226273,-2.090359,-1.5757746,2.4372172,-0.097282164,0.2287573,-0.28798294,0.104518786,-0.036769647,-0.11331628,-0.2873042,0.05746084,-9.385271,0.8537928,47.67793,-0.8298841,-2.2453194,-3.3697608,-0.25779453,-0.20498751,-0.36027747,27.875,29.0,28.125,32.0625,34.125,35.0625
0.25805217,-1.703003,-1.3906803,-1.760413,0.0028435057,0.045937676,-0.14181368,-0.3969009,-0.3478838,0.059887975,-3.0733573,0.61799324,-0.0002457578,-0.122062616,0.0075406823,-0.0017602105,0.052410014,-0.027283415,0.017219618,0.46558565,-1.3969508,1.9220651,-2.0901544,-1.5758456,2.4369287,-0.098584145,0.23054856,-0.28869435,0.105584115,-0.035456784,-0.11545252,-0.19153613,0.15322891,-9.461885,0.9321212,47.716442,-0.8564423,-2.2073069,-3.446339,-0.2968438,-0.22371593,-0.37283504,27.875,29.0,28.125,32.0625,34.125,35.0625
0.26005238,-1.4910673,-2.3246891,-1.5559331,-0.039388414,0.077626176,-0.14965008,-0.39714262,-0.347866,0.059902105,-3.073257,0.6179315,-0.00025702507,-0.121613935,0.006651999,-0.001859306,0.05247934,-0.027222494,0.02069397,0.46539456,-1.3965302,1.921491,-2.089928,-1.57593,2.4367125,-0.09649035,0.2312511,-0.2893513,0.10549209,-0.035571314,-0.11682969,-0.17238252,0.21068975,-9.423578,0.8157518,47.660015,-0.9158579,-2.2000604,-3.5015335,-0.33779305,-0.2349606,-0.3796094,27.875,29.0,28.125,32.0625,34.125,35.0625
0.26205254,-2.016985,-3.2779355,-1.8024219,-0.062109422,0.07481592,-0.14156547,-0.3973879,-0.34785628,0.059882384,-3.0731275,0.61782247,-0.0003438485,-0.1232216,0.0066563147,-0.0013223604,0.05186746,-0.023252333,0.028221369,0.46521446,-1.3960135,1.9208821,-2.0897014,-1.5760144,2.4364815,-0.097014956,0.23128018,-0.28997514,0.10220977,-0.03687483,-0.124868944,-0.19153613,0.28730422,-9.423578,0.8672237,47.67345,-1.0379491,-2.0618837,-3.6341999,-0.3416195,-0.23947918,-0.32960618,27.875,29.0,28.125,32.0625,34.125,35.0625
0.2640526,-1.6216166,-3.3688717,-1.837159,-0.084709406,0.08497786,-0.14714634,-0.3976134,-0.3478248,0.059894405,-3.0730264,0.6176849,-0.0003562181,-0.12559664,0.0064581945,-0.00034792523,0.049397733,-0.018052708,0.03191279,0.4650216,-1.3956294,1.9203557,-2.0894759,-1.5761107,2.436216,-0.09857553,0.23104419,-0.2909771,0.09764584,-0.03705466,-0.13011616,-0.17238252,0.34476504,-9.461885,0.8605109,47.677036,-0.80573463,-2.1037388,-3.6075368,-0.30652225,-0.24660504,-0.2590095,27.875,29.0,28.125,32.0625,34.125,35.0625
0.26605263,-1.6715858,-3.4584196,-1.796861,-0.090553865,0.07311674,-0.14787628,-0.39788425,-0.34781182,0.05988809,-3.072951,0.6175867,-0.00036341161,-0.12933977,0.0047557843,0.0016978612,0.046042375,-0.009051974,0.03950074,0.46480605,-1.3951366,1.9197572,-2.0893104,-1.5761832,2.4359493,-0.098112844,0.23193987,-0.29544365,0.091614485,-0.03816248,-0.13723001,-0.095768064,0.3256114,-9.481039,0.8851263,47.66987,-1.0154449,-1.8967621,-3.6538088,-0.25817004,-0.2460183,-0.20282735,27.875,29.0,28.125,32.0625,34.125,35.0625
0.26805174,-1.4416586,-3.3450253,-2.0630782,-0.070016496,0.057916936,-0.13928945,-0.3981499,-0.34780082,0.059890397,-3.0728643,0.61745226,-0.00034963177,-0.13253789,0.004138846,0.0025171235,0.04314654,-0.0036675157,0.04297294,0.46461323,-1.3946556,1.9191474,-2.0891206,-1.5762786,2.4356842,-0.09984381,0.2336337,-0.29826817,0.08658413,-0.03804231,-0.14242987,-0.095768064,0.4213795,-9.519346,0.92093146,47.684196,-0.91541195,-1.8897884,-3.6137068,-0.19001381,-0.24373743,-0.09214096,27.875,29.0,28.125,32.0625,34.125,35.0625
0.27005205,-1.1449761,-2.7767096,-2.2035878,-0.06601024,0.05388482,-0.13961501,-0.39842373,-0.34780493,0.059909966,-3.072857,0.61733437,-0.00029570816,-0.13341409,0.0033091998,0.0013920339,0.04110782,-0.004053114,0.04340057,0.4644093,-1.3942099,1.9185494,-2.088978,-1.5763258,2.4354079,-0.10033269,0.2370633,-0.2990959,0.083387256,-0.036063585,-0.14335786,-0.28730422,0.49799395,-9.634268,0.784413,47.691364,-0.93472433,-1.86345,-3.5770206,-0.13351029,-0.29090118,-0.05347708,27.875,29.0,28.125,32.0625,34.125,35.0625
0.27205223,-1.0761148,-2.5994384,-2.447286,-0.060420822,0.04743159,-0.13075833,-0.39872098,-0.34779167,0.059909098,-3.0727735,0.61724204,-0.00022649486,-0.13615298,0.0020532405,0.0031518196,0.03865544,0.00043483556,0.040088445,0.46419322,-1.393693,1.9179147,-2.0888345,-1.576434,2.4351454,-0.100565664,0.23834565,-0.30450767,0.082399935,-0.03588804,-0.14027643,-0.05746084,0.5554548,-9.691729,0.8224646,47.66987,-0.9214667,-1.8337772,-3.565354,-0.074528396,-0.30364418,-0.06563108,27.875,29.0,28.125,32.0625,34.125,35.0625
0.27405247,-0.83657646,-2.452891,-2.3621752,-0.06330374,0.054844685,-0.13820854,-0.39899012,-0.34777024,0.05989721,-3.0726812,0.6171865,-0.00025088238,-0.13805746,0.0016337245,0.004146025,0.038809586,0.0030623954,0.03443704,0.4639652,-1.3932003,1.9173278,-2.0886667,-1.5765065,2.434895,-0.10058537,0.23987885,-0.3087834,0.0828815,-0.037197255,-0.13463205,-0.05746084,0.5363012,-9.749189,0.8717007,47.661808,-0.96043324,-1.8667684,-3.449739,-0.051195987,-0.31102225,-0.09346908,27.875,29.0,28.125,32.0625,34.125,35.0625
0.2760516,-0.9215392,-2.569114,-2.1326041,-0.051919386,0.057419166,-0.13804033,-0.39924896,-0.34778258,0.05989824,-3.072633,0.61702436,-0.00026175843,-0.13783917,0.0020334728,0.0013907154,0.041985083,-0.0019671377,0.03036778,0.4637974,-1.3927057,1.916706,-2.0884864,-1.5765666,2.4346325,-0.100644924,0.24593727,-0.3099151,0.08388537,-0.03777779,-0.13061559,-0.19153613,0.51714754,-9.634268,0.90750587,47.691364,-0.98029196,-2.0154603,-3.4445767,-0.03184165,-0.3247552,-0.15352857,27.875,29.0,28.125,32.0625,34.125,35.0625
0.2780518,-0.6111695,-2.1775084,-2.4675639,-0.046080574,0.057216153,-0.14409825,-0.39951327,-0.34778115,0.05988524,-3.072576,0.6169201,-0.00029766068,-0.13801646,0.0019221726,0.0010039699,0.042517126,-0.0032574632,0.023993546,0.46359345,-1.3922004,1.916109,-2.088331,-1.5766147,2.4343712,-0.1005935,0.24770291,-0.3114898,0.08511067,-0.037658468,-0.12418762,-0.1340753,0.45968673,-9.864111,0.8717007,47.67614,-1.0397805,-2.1872666,-3.5878627,-0.007377101,-0.31711575,-0.23175031,27.875,29.0,28.125,32.0625,34.125,35.0625
0.28005204,-0.89432555,-2.2896984,-2.226092,-0.062748745,0.059720825,-0.14116806,-0.39983338,-0.34776312,0.059925377,-3.0725007,0.6168678,-0.00013568654,-0.13707516,0.0036066156,-0.00042010777,0.046450578,-0.00871476,0.020827258,0.46336493,-1.3917314,1.9154276,-2.0881493,-1.5767468,2.4341202,-0.10192963,0.24951074,-0.31154624,0.089989685,-0.038719025,-0.122352466,-0.038307227,0.38307226,-9.864111,0.8493211,47.67793,-1.1115643,-2.2090154,-3.6548018,-0.01714183,-0.32880467,-0.2882874,27.875,29.0,28.125,32.0625,34.125,35.0625
0.28205228,-0.9919099,-2.7188115,-1.7760077,-0.0728303,0.05939217,-0.14259627,-0.40007374,-0.34777993,0.05992262,-3.0724616,0.61662817,-0.00015860255,-0.13618556,0.0030009174,-0.0013111396,0.048878256,-0.010613923,0.02090665,0.46322188,-1.3912506,1.9148301,-2.0879695,-1.5768074,2.433833,-0.09919191,0.25188306,-0.31276163,0.09162512,-0.040039875,-0.11968278,-0.11492168,0.17238252,-9.787497,0.89631605,47.691364,-1.1216851,-2.0551116,-3.7436392,-0.0132134855,-0.33182347,-0.33382472,27.875,29.0,28.125,32.0625,34.125,35.0625
0.28405243,-0.4991132,-2.1340718,-1.7683687,-0.045675993,0.044734836,-0.13710178,-0.40037596,-0.3477897,0.059932984,-3.0724182,0.6166019,-0.0001359954,-0.13812421,0.0042485315,0.0003068231,0.050516628,-0.01040892,0.016066233,0.46300507,-1.3907213,1.9141477,-2.0877998,-1.576856,2.4336057,-0.101976335,0.25192925,-0.31788793,0.097257935,-0.041594032,-0.11761488,0.11492168,0.21068975,-9.519346,0.81351066,47.681515,-1.2078279,-2.115515,-3.692995,-0.0147984605,-0.33645418,-0.41168767,27.875,29.0,28.125,32.0625,34.125,35.0625
0.28605184,0.049040664,-1.0390846,-1.5875176,-0.01291839,0.034368876,-0.14391178,-0.4006562,-0.34776956,0.059928317,-3.0723028,0.6165778,-7.0542534e-05,-0.13786006,0.0045676213,0.00021860679,0.053020466,-0.013147619,0.016476091,0.46280113,-1.3902284,1.9135479,-2.0876544,-1.5769767,2.433402,-0.10156543,0.25340083,-0.32059082,0.10203919,-0.042617545,-0.11760517,0.05746084,0.095768064,-9.461885,0.85155696,47.64837,-1.1001513,-2.1452432,-3.6057048,-0.08056246,-0.32403946,-0.45729268,27.875,29.0,28.125,32.0625,34.125,35.0625
0.28805235,0.15172783,0.13002816,-1.4733773,0.032916903,-0.004525744,-0.14454147,-0.4009454,-0.34777614,0.059953555,-3.072235,0.61648333,-1.1038853e-06,-0.13922305,0.0050995513,0.0010234086,0.054717124,-0.013776581,0.019725513,0.46262068,-1.3897358,1.9128665,-2.0874493,-1.577073,2.4331717,-0.10279083,0.2549152,-0.3253168,0.10652818,-0.04388557,-0.12206986,0.1340753,-0.019153614,-9.308656,0.8918391,47.670765,-1.1413509,-2.0114017,-3.529902,-0.12073667,-0.34408614,-0.46866906,27.875,29.0,28.125,32.0625,34.125,35.0625
0.29005274,0.6380998,0.7323874,-1.401792,0.05685555,-0.0084974775,-0.14913672,-0.401222,-0.34777498,0.05993596,-3.0721738,0.61642724,-8.819933e-05,-0.14086632,0.005406716,0.0024163865,0.05567907,-0.01300862,0.027341617,0.46239248,-1.3891948,1.9122308,-2.0872686,-1.5770973,2.4329169,-0.1038604,0.2555644,-0.33027315,0.11051343,-0.045153532,-0.13074233,0.114921674,-0.095768064,-9.212888,0.80679786,47.66539,-1.0979557,-1.9598312,-3.3482563,-0.15075698,-0.32741186,-0.43260998,27.875,29.0,28.125,32.0625,34.125,35.0625
0.29205197,-0.21904163,0.70355916,-1.2820513,0.051818304,-0.0084691895,-0.14942834,-0.40151754,-0.347749,0.059966456,-3.0720534,0.6162444,-4.8381144e-06,-0.14093736,0.006535775,0.0017531445,0.05799877,-0.014837717,0.034153104,0.4621881,-1.3887143,1.9115385,-2.0870054,-1.5772537,2.4326143,-0.10496275,0.2566479,-0.33052304,0.112274796,-0.046465315,-0.13864578,-0.095768064,-0.095768064,-9.078813,0.9298854,47.66808,-1.1149962,-1.8936447,-3.3508658,-0.1651356,-0.32596058,-0.33396524,27.875,29.0,28.125,32.0625,34.125,35.0625
0.2940522,-0.39901853,0.20149028,-1.457554,0.037212,0.029908704,-0.14944063,-0.4017915,-0.3477429,0.059966758,-3.0719657,0.6161243,-4.750187e-05,-0.14152312,0.006719055,0.003030514,0.05904574,-0.015030996,0.043833356,0.46198407,-1.3881978,1.9108795,-2.0867755,-1.5773257,2.432347,-0.105118774,0.2562958,-0.3341559,0.11681831,-0.04738502,-0.14847162,-0.11492168,-0.11492168,-9.174581,0.87617236,47.65912,-1.0763834,-1.7631714,-3.2792504,-0.24797918,-0.31317618,-0.21690872,27.875,29.0,28.125,32.0625,34.125,35.0625
0.29605255,-1.8473091,-1.2736182,-1.3927348,-0.0023632834,0.066535465,-0.14671199,-0.40206522,-0.3477132,0.059977267,-3.0718443,0.61596245,-0.000107803084,-0.14323118,0.0073817186,0.0028683853,0.061354063,-0.013135477,0.048050657,0.46175572,-1.3877044,1.9102091,-2.086477,-1.5774235,2.4320338,-0.105788946,0.25857407,-0.33638698,0.11605566,-0.050355837,-0.1533323,-0.114921674,-0.15322891,-9.3661175,0.8247004,47.688675,-1.080276,-1.7727156,-3.4089184,-0.25898927,-0.29233813,-0.17399132,27.875,29.0,28.125,32.0625,34.125,35.0625
0.29805186,-1.9213191,-1.6362641,-1.4409019,-0.037633974,0.12034479,-0.14962487,-0.40233195,-0.34770977,0.059981838,-3.0717514,0.61578953,-0.00018088624,-0.14415896,0.008845636,0.001231909,0.064208515,-0.014701276,0.047060017,0.46156326,-1.3871869,1.9095286,-2.086202,-1.5774959,2.4317458,-0.10785697,0.26195034,-0.3366181,0.11556297,-0.05224652,-0.15439068,-0.30645782,-0.13407528,-9.385271,0.8940802,47.693153,-1.1517653,-1.979712,-3.3805218,-0.28666195,-0.25858888,-0.13500792,27.875,29.0,28.125,32.0625,34.125,35.0625
0.30005193,-2.6325545,-1.8332288,-1.2031345,-0.052052535,0.14021084,-0.14844683,-0.4026366,-0.3477012,0.059998833,-3.0716946,0.61551034,-0.000103620645,-0.14583285,0.007998907,9.097734e-05,0.06328153,-0.013333377,0.04346817,0.46135917,-1.386669,1.9088358,-2.0859997,-1.5776161,2.431375,-0.10787769,0.26647353,-0.33849785,0.11127723,-0.05203266,-0.15081787,-0.4213795,-0.076614454,-9.5385,0.8851263,47.689575,-0.9477054,-2.0317113,-3.5189323,-0.24461588,-0.25511307,-0.12036064,27.875,29.0,28.125,32.0625,34.125,35.0625
0.3020521,-2.524739,-1.713544,-1.1483492,-0.050370663,0.15386337,-0.14320843,-0.4029231,-0.34767905,0.059999436,-3.0715706,0.6153739,-7.154561e-05,-0.14785369,0.00820947,-1.6454622e-05,0.06313673,-0.00867011,0.036030106,0.4611549,-1.3861521,1.9081787,-2.085786,-1.5777482,2.431102,-0.10867893,0.26764727,-0.33855098,0.105940126,-0.053973116,-0.14416294,-0.68953013,-0.05746084,-9.442732,0.9567419,47.691364,-1.1380911,-1.9297887,-3.6311736,-0.19326231,-0.24288079,-0.18123573,27.875,29.0,28.125,32.0625,34.125,35.0625
0.30405232,-2.0346673,-1.3899782,-1.1588811,-0.039634813,0.15796076,-0.14649372,-0.40322065,-0.3476765,0.060003716,-3.0715077,0.6152099,-8.004481e-05,-0.15136823,0.00819581,0.0010273838,0.06288691,-0.0014793442,0.030159423,0.4609384,-1.3856108,1.9074839,-2.0855725,-1.5778216,2.4307916,-0.10972238,0.26908135,-0.3416507,0.10107811,-0.056955244,-0.13930942,-0.7852981,0.11492168,-9.3661175,0.9388393,47.661808,-0.9659184,-1.8819972,-3.6180396,-0.1201493,-0.20145392,-0.27005517,27.875,29.0,28.125,32.0625,34.125,35.0625
0.3060526,-1.7473595,-0.9412684,-1.1841698,-0.013973877,0.12719862,-0.15105894,-0.403524,-0.3476308,0.05997434,-3.0713317,0.6152125,-6.5695e-05,-0.1536111,0.0078157,0.002543604,0.062036954,0.0033201782,0.026653916,0.46068665,-1.3850467,1.9068497,-2.0854056,-1.5779656,2.4305649,-0.11002381,0.2691082,-0.34495938,0.099677555,-0.05834067,-0.1360887,-0.7278373,0.2681506,-9.346964,0.9030289,47.675243,-1.1513255,-1.8378464,-3.5872169,-0.07943947,-0.16141853,-0.31492,27.875,29.0,28.125,32.0625,34.125,35.0625
0.30805174,-1.8178155,-0.8932392,-1.4316975,-0.014150765,0.09913352,-0.14156097,-0.40386474,-0.34763366,0.06002847,-3.071279,0.6151053,0.00017998976,-0.15516014,0.006999965,0.0030929504,0.060792044,0.0045997766,0.025313694,0.46049443,-1.3845533,1.9061078,-2.0852377,-1.5781215,2.4303129,-0.110187836,0.27117655,-0.34877372,0.0996987,-0.057789452,-0.13491952,-0.8810662,0.2681506,-9.423578,0.91198283,47.694946,-1.0737838,-1.9403794,-3.5394862,-0.03716386,-0.16110428,-0.33305085,27.875,29.0,28.125,32.0625,34.125,35.0625
0.310052,-1.5798609,-1.3801583,-1.680004,-0.026970083,0.088919275,-0.14502342,-0.40414247,-0.3476059,0.060018737,-3.0711577,0.6149443,0.00011511709,-0.15504627,0.0077314186,0.0019466057,0.06292358,0.0018023563,0.02690642,0.46026644,-1.3840237,1.9054497,-2.084986,-1.5782179,2.4300005,-0.110814944,0.27348757,-0.34938797,0.10141521,-0.058488533,-0.13712732,-0.91937345,0.3256114,-9.519346,0.8493211,47.694946,-1.1239691,-1.8240105,-3.6331038,-0.030654345,-0.1245982,-0.38266307,27.875,29.0,28.125,32.0625,34.125,35.0625
0.31205204,-1.1910436,-2.1541939,-1.591827,-0.06023735,0.100969166,-0.1447383,-0.4044657,-0.34756953,0.059995443,-3.0709808,0.6149061,0.00011100764,-0.15597631,0.0074214917,0.0028405306,0.06192043,0.0030685859,0.027678113,0.46001428,-1.3834113,1.9047331,-2.0847704,-1.5783619,2.429748,-0.11115484,0.273443,-0.35168767,0.102135874,-0.05818356,-0.1382344,-0.7469909,0.36391866,-9.595961,0.88960326,47.66271,-1.1173276,-1.834485,-3.6744614,-0.025684088,-0.104257375,-0.4033774,27.875,29.0,28.125,32.0625,34.125,35.0625
0.31405208,-1.85177,-3.1930506,-1.5226148,-0.0956577,0.09949056,-0.14676864,-0.40479368,-0.34757322,0.060039777,-3.0709383,0.6147598,0.00020690795,-0.15724385,0.007922144,0.0020712821,0.06304299,-0.00023547628,0.032476723,0.45979747,-1.3828938,1.9039677,-2.0845296,-1.5784577,2.4294457,-0.11326187,0.27774516,-0.35586125,0.10538571,-0.057769522,-0.14514215,-0.7278373,0.3256114,-9.615114,0.947788,47.653748,-1.0164913,-1.697941,-3.628955,-0.020426493,-0.08381261,-0.3344381,27.875,29.0,28.125,32.0625,34.125,35.0625
0.31605235,-1.4336398,-3.0301008,-1.4365082,-0.10822307,0.10944848,-0.15663208,-0.40510586,-0.3475331,0.059998754,-3.0707777,0.6147019,0.00016201797,-0.15667292,0.00832055,0.002071646,0.062230065,-0.0044275126,0.039658315,0.45953304,-1.3822805,1.9032973,-2.0843484,-1.5785764,2.4291666,-0.114917,0.27769625,-0.35696253,0.10982142,-0.055251896,-0.15399154,-0.57460845,0.22984336,-9.500193,0.9298854,47.678825,-0.97756606,-1.7871914,-3.4928472,-0.030068632,-0.096898876,-0.25547466,27.875,29.0,28.125,32.0625,34.125,35.0625
0.31805256,-0.99934095,-2.1118584,-1.4155668,-0.082501546,0.09500911,-0.14904822,-0.40541914,-0.34752545,0.060033243,-3.0707076,0.6145693,0.00023831264,-0.15630762,0.0078009297,0.0026575187,0.06076963,-0.0071673025,0.046542984,0.45931694,-1.3817755,1.9025687,-2.0841072,-1.5786837,2.428877,-0.115142815,0.27770633,-0.35936496,0.11392803,-0.05277591,-0.16111979,-0.5554548,0.28730422,-9.423578,0.8717007,47.674347,-0.89894736,-1.8464941,-3.632619,-0.08020487,-0.11136238,-0.18953952,27.875,29.0,28.125,32.0625,34.125,35.0625
0.3200526,-1.07397,-1.3710092,-1.1846869,-0.034098346,0.061100196,-0.1442407,-0.40577543,-0.34751344,0.060035568,-3.0706291,0.61443746,0.00032745829,-0.15610546,0.008695354,0.0021100068,0.061577555,-0.0137632005,0.045561794,0.45906395,-1.3811632,1.9018024,-2.0839374,-1.578803,2.4285524,-0.11775676,0.28000894,-0.3625974,0.12107551,-0.050588645,-0.16276775,-0.47884035,0.22984336,-9.232041,0.8985519,47.683304,-0.7397517,-1.59406,-3.5236845,-0.13984677,-0.12356481,-0.112427935,27.875,29.0,28.125,32.0625,34.125,35.0625
0.32205176,0.3252001,-0.045400333,-0.97762483,0.007934018,0.048047293,-0.15244089,-0.40609688,-0.34749356,0.060032424,-3.070554,0.61426735,0.0003471587,-0.15586594,0.0070978883,0.0011096247,0.060847253,-0.016689107,0.046849452,0.45881268,-1.3805969,1.9010977,-2.0837457,-1.5788983,2.428205,-0.11588052,0.28416783,-0.36564428,0.12223335,-0.048657067,-0.16218972,-0.30645782,0.095768064,-9.155427,0.9321212,47.695843,-0.9790447,-1.8142099,-3.5386353,-0.15418413,-0.15812525,-0.06923193,27.875,29.0,28.125,32.0625,34.125,35.0625
0.3240519,0.5893801,0.8323201,-0.9337075,0.03703361,0.019519987,-0.14798246,-0.40639856,-0.34747955,0.06003353,-3.0704331,0.61413074,0.00032049496,-0.15577495,0.007715891,-0.00013082386,0.062169854,-0.022459164,0.039381146,0.45859623,-1.380031,1.9003671,-2.0834806,-1.5790056,2.4279194,-0.11762795,0.28779516,-0.36833236,0.12706853,-0.047273457,-0.1564736,-0.05746084,-0.095768064,-9.078813,0.900793,47.70659,-0.79907346,-1.8548908,-3.5875773,-0.2298668,-0.17232001,-0.1392327,27.875,29.0,28.125,32.0625,34.125,35.0625
0.3260521,0.38278282,0.32648697,-0.81046456,0.040819407,0.011109066,-0.13573125,-0.4067232,-0.3474778,0.0600387,-3.0703924,0.6139908,0.0002981022,-0.15656213,0.0072298837,-0.00046390298,0.06209439,-0.024126355,0.033086214,0.4583442,-1.3794534,1.8996238,-2.0832646,-1.5790533,2.4275856,-0.1178536,0.29099724,-0.37194037,0.12896514,-0.04645385,-0.15040657,-0.076614454,-0.11492168,-8.925584,0.9321212,47.655537,-0.8919791,-2.0368717,-3.4763517,-0.23085883,-0.20528266,-0.2116864,27.875,29.0,28.125,32.0625,34.125,35.0625
0.32805222,0.30797923,-0.34017178,-0.8858827,0.02797527,0.018171389,-0.15351409,-0.40704548,-0.3474598,0.06003,-3.0702646,0.6138506,0.00025783904,-0.15810736,0.0063600433,-0.0005698783,0.061116856,-0.023017658,0.028503532,0.4581042,-1.3788397,1.8988589,-2.0830019,-1.5791615,2.4272752,-0.117793016,0.29414624,-0.37532526,0.12778541,-0.04607686,-0.14575939,0.05746084,-0.095768064,-8.925584,0.99031126,47.688675,-0.9221765,-2.148263,-3.4459276,-0.24262545,-0.2280699,-0.28827173,27.875,29.0,28.125,32.0625,34.125,35.0625
0.33005232,-0.37353745,-1.5629399,-0.8944999,0.004831749,0.02168471,-0.12917991,-0.40736464,-0.34744272,0.06003062,-3.070113,0.6137829,0.0002288458,-0.1601504,0.00600455,0.0008377683,0.059396867,-0.019444807,0.023176314,0.45787588,-1.3782392,1.8980826,-2.0827143,-1.5792812,2.4270248,-0.11878212,0.2941294,-0.37850392,0.1270258,-0.046121445,-0.14141475,0.076614454,0.0,-8.983045,0.842603,47.690468,-0.8559651,-2.1434042,-3.399943,-0.23801553,-0.22559674,-0.3410522,27.875,29.0,28.125,32.0625,34.125,35.0625
0.3320522,-0.3219066,-2.1043158,-0.7216845,-0.043084636,0.052480415,-0.1381219,-0.4076622,-0.34742767,0.06001743,-3.0699832,0.61368006,0.00014008745,-0.16280489,0.004665318,0.0008594923,0.05717482,-0.013835286,0.019565616,0.45764804,-1.377649,1.897353,-2.082442,-1.5793661,2.4267502,-0.11831131,0.2971665,-0.38080424,0.1202903,-0.046629343,-0.13732126,0.076614454,0.05746084,-9.002198,0.9388393,47.64837,-0.99291635,-2.0309572,-3.3872643,-0.18021424,-0.24169914,-0.43631965,27.875,29.0,28.125,32.0625,34.125,35.0625
0.33405244,-0.5571722,-2.1344733,-0.6351201,-0.0830709,0.06085829,-0.15130147,-0.40801227,-0.3474294,0.060026776,-3.069915,0.61359024,0.0001425877,-0.1651356,0.0038698658,0.002754665,0.05316168,-0.008317733,0.01666211,0.45739582,-1.3770254,1.8965396,-2.082204,-1.5794371,2.4264512,-0.11951029,0.2958482,-0.38303095,0.11710235,-0.045482576,-0.13562319,0.13407528,0.11492168,-9.021352,0.9567419,47.677036,-1.0632635,-1.9454418,-3.3503366,-0.15333788,-0.25341308,-0.51379836,27.875,29.0,28.125,32.0625,34.125,35.0625
0.33605167,-1.3833153,-2.904081,-0.90885115,-0.07237638,0.03308999,-0.13759632,-0.40829676,-0.34738618,0.05999965,-3.0697002,0.6135584,6.611152e-05,-0.16571863,0.002365231,0.0029933967,0.05172606,-0.0056901653,0.024856437,0.45716825,-1.376449,1.8958572,-2.081929,-1.5795816,2.4262323,-0.117333576,0.29695147,-0.38441354,0.11430711,-0.04543451,-0.14163354,0.076614454,0.2681506,-9.021352,0.900793,47.664497,-1.0392128,-1.8370368,-3.4392462,-0.068735674,-0.2819672,-0.49777701,27.875,29.0,28.125,32.0625,34.125,35.0625
0.33805215,-0.45186508,-2.6243155,-1.1038338,-0.0666813,0.042892773,-0.1416104,-0.40865782,-0.3473699,0.06002394,-3.0696294,0.6135201,0.00014581054,-0.1669679,0.003678204,0.002711832,0.0514383,-0.006030565,0.03162706,0.4568914,-1.3758719,1.8950695,-2.081714,-1.579677,2.4259412,-0.120724045,0.29755467,-0.38455072,0.11390161,-0.045104556,-0.15179808,0.0,0.4213795,-9.059659,0.9365982,47.694946,-1.0681629,-1.7601726,-3.5502846,-0.04046372,-0.28840575,-0.46557122,27.875,29.0,28.125,32.0625,34.125,35.0625
0.34005237,-0.20939602,-2.3240123,-1.4940745,-0.05044279,0.031131987,-0.15398519,-0.40898892,-0.34737298,0.0600055,-3.069569,0.61330813,8.774037e-05,-0.16708136,0.0028726505,0.0022900195,0.05154946,-0.0066477796,0.043246906,0.45665196,-1.3752224,1.8942927,-2.0814984,-1.5797375,2.4255776,-0.119353436,0.2997243,-0.386373,0.11404487,-0.045026306,-0.16204417,0.11492168,0.47884035,-9.136273,0.98807013,47.690468,-1.0121949,-1.7223954,-3.6592607,-0.0114842765,-0.31868246,-0.33755392,27.875,29.0,28.125,32.0625,34.125,35.0625
0.3420524,0.35448653,-2.172683,-1.4964046,-0.04949783,0.035691466,-0.15323305,-0.4093099,-0.34734175,0.0599872,-3.0694263,0.61315966,4.3875374e-05,-0.16873762,0.0029863992,0.0029583655,0.05127102,-0.005569412,0.050577987,0.45639944,-1.374609,1.8935503,-2.0812466,-1.5798577,2.4252515,-0.12063353,0.30094373,-0.38971564,0.11496946,-0.04534406,-0.17064694,-0.076614454,0.49799395,-9.270349,0.97464454,47.69763,-1.0079796,-1.8751419,-3.6498125,0.012821121,-0.35541397,-0.25861117,27.875,29.0,28.125,32.0625,34.125,35.0625
0.34405252,-0.5307967,-2.699284,-1.5907817,-0.040446613,0.029056633,-0.13859193,-0.40965748,-0.3473394,0.059988752,-3.0693521,0.6129513,4.891219e-05,-0.16926605,0.0036567047,0.0018562919,0.05282151,-0.010226438,0.05126682,0.45615882,-1.3739718,1.8927363,-2.0810058,-1.5799531,2.4248908,-0.12249446,0.30495158,-0.39306447,0.119121835,-0.04471774,-0.17319836,-0.05746084,0.53630114,-9.270349,0.9634547,47.666286,-0.9507202,-1.8882555,-3.6850276,0.019530624,-0.37121403,-0.16148578,27.875,29.0,28.125,32.0625,34.125,35.0625
0.3460519,-0.6925238,-2.7165818,-1.43745,-0.046358358,0.034661405,-0.14062455,-0.40994447,-0.34734228,0.059950672,-3.0692706,0.6127056,-0.00012628536,-0.16902055,0.0053823823,0.00033710862,0.058464017,-0.016598744,0.047474664,0.45594245,-1.3733331,1.8920072,-2.0807512,-1.5799898,2.424532,-0.12373078,0.30911925,-0.3963459,0.1264583,-0.046985127,-0.17061459,0.038307227,0.4405331,-9.308656,1.0283576,47.695843,-0.8066081,-1.9300377,-3.5512848,-0.03493349,-0.37531358,-0.16380513,27.875,29.0,28.125,32.0625,34.125,35.0625
0.3480521,-1.2267481,-2.4483554,-1.4339316,-0.03806469,0.023617547,-0.13910633,-0.41029435,-0.34730142,0.059944946,-3.0691173,0.6126947,-0.00016681038,-0.16857587,0.0062103034,0.0007497041,0.061597496,-0.020442266,0.041259713,0.45564252,-1.3727087,1.8912162,-2.0804737,-1.5800985,2.4242458,-0.12394813,0.3097433,-0.39993083,0.13427813,-0.048084363,-0.1646015,-0.11492168,0.38307226,-9.346964,0.9097417,47.651955,-0.8903643,-2.0473504,-3.464806,-0.1306553,-0.38837165,-0.21424346,27.875,29.0,28.125,32.0625,34.125,35.0625
0.35005233,-0.5676776,-1.6951883,-1.5450654,-0.034829956,0.034327876,-0.14906156,-0.41064608,-0.34731242,0.059970524,-3.0690744,0.61247736,-0.00013377548,-0.16652066,0.0063508675,-0.0013186305,0.064373024,-0.028752007,0.03586198,0.45541474,-1.3720952,1.8903688,-2.0802076,-1.580182,2.4238882,-0.12306608,0.31348783,-0.40123877,0.1405561,-0.04687978,-0.15833037,-0.2681506,0.36391866,-9.423578,0.9254084,47.674347,-0.978529,-2.0912776,-3.5178683,-0.21202895,-0.429626,-0.3179884,27.875,29.0,28.125,32.0625,34.125,35.0625
0.35205236,-0.8706776,-1.1712651,-1.5046294,-0.032557324,0.045103256,-0.15321125,-0.4109531,-0.34730765,0.059939478,-3.0689178,0.61234885,-0.00028823086,-0.16573991,0.0078004934,-0.0028141264,0.06870495,-0.03213394,0.034297734,0.45519885,-1.3714216,1.8895687,-2.0798962,-1.5802668,2.423613,-0.12327116,0.31524706,-0.4006685,0.14316787,-0.049307123,-0.15694137,-0.21068975,0.28730422,-9.404425,0.9298854,47.66987,-1.03249,-2.1395907,-3.7089438,-0.2677526,-0.43048364,-0.35305446,27.875,29.0,28.125,32.0625,34.125,35.0625
0.35405257,-1.0120546,-1.0141331,-1.2937281,-0.031276323,0.07263161,-0.15765083,-0.41130814,-0.34729415,0.059958372,-3.0688171,0.6122695,-0.00028147813,-0.16694953,0.0083972765,-0.0025379271,0.0711822,-0.030189585,0.033191327,0.45493504,-1.3708086,1.8887318,-2.0796087,-1.5803636,2.4233134,-0.12325579,0.31631815,-0.40281397,0.14357916,-0.05240748,-0.15578774,-0.21068975,0.13407528,-9.404425,0.9634547,47.66091,-1.1231049,-2.1218467,-3.8287804,-0.30065298,-0.43854052,-0.3842403,27.875,29.0,28.125,32.0625,34.125,35.0625
0.35605174,-1.8689843,-1.4069787,-1.5953939,-0.009870044,0.068382226,-0.14758682,-0.411595,-0.34728166,0.059909295,-3.0686398,0.6120195,-0.000494007,-0.16939396,0.0073158485,-0.0014144904,0.071913816,-0.024051793,0.036481276,0.45473135,-1.3701234,1.8879532,-2.0792744,-1.5804614,2.4229772,-0.12122757,0.3182268,-0.40721554,0.14085467,-0.05583588,-0.15700349,-0.1340753,0.19153613,-9.404425,0.9388393,47.6636,-1.1024014,-2.0943506,-3.697661,-0.27526996,-0.408122,-0.41503066,27.875,29.0,28.125,32.0625,34.125,35.0625
0.35805193,-2.265101,-1.5833985,-1.5115851,-0.019608635,0.08921968,-0.15230255,-0.41196713,-0.3472688,0.05992156,-3.0685465,0.61192095,-0.00048309952,-0.17511639,0.007367762,0.0010605374,0.06721661,-0.013196399,0.038085032,0.4544541,-1.369475,1.887092,-2.0790026,-1.5805572,2.422651,-0.12559871,0.31807572,-0.4111252,0.13301367,-0.05647877,-0.16296802,-0.2873042,0.1340753,-9.500193,0.9858343,47.660015,-1.1121575,-2.0383945,-3.657524,-0.22253081,-0.4179684,-0.37169063,27.875,29.0,28.125,32.0625,34.125,35.0625
0.3600519,-1.8088703,-1.7444819,-1.663223,-0.032684293,0.11836142,-0.15894029,-0.41232464,-0.3472484,0.059929162,-3.0684128,0.6117327,-0.00043074787,-0.17904024,0.0059545157,0.0025667339,0.06648806,-0.003968776,0.047661502,0.4542147,-1.3688375,1.8862542,-2.0787294,-1.5807146,2.422312,-0.12417199,0.32050914,-0.41629323,0.12702978,-0.059984732,-0.17107898,-0.26815057,-0.076614454,-9.615114,0.9612189,47.686886,-1.1133604,-2.0087643,-3.48236,-0.14067473,-0.39975125,-0.27837482,27.875,29.0,28.125,32.0625,34.125,35.0625
0.36205193,-2.358345,-1.6711537,-1.904897,-0.041458327,0.106958225,-0.15713683,-0.4126748,-0.34724507,0.05990681,-3.0683026,0.61155146,-0.0004836294,-0.18151616,0.007457435,0.0020345643,0.069250174,-0.0014454616,0.0548221,0.45397377,-1.3681397,1.8854169,-2.0784786,-1.5808119,2.4219728,-0.1264034,0.32322225,-0.4180123,0.124868006,-0.06368528,-0.18042912,-0.22984336,-0.095768064,-9.730036,0.9768804,47.684196,-0.97582686,-2.0861335,-3.4619412,-0.06794914,-0.36350217,-0.16487128,27.875,29.0,28.125,32.0625,34.125,35.0625
0.36405197,-2.6940784,-1.5480871,-1.8465226,-0.033148497,0.09384013,-0.14915282,-0.41303802,-0.34721714,0.059921555,-3.0682042,0.6112991,-0.0004177269,-0.18223338,0.008651284,0.00027165172,0.07306236,-0.0012258945,0.05808091,0.45370984,-1.367526,1.8845929,-2.0782163,-1.5809573,2.4215643,-0.12669434,0.3264005,-0.4174032,0.12248908,-0.06725877,-0.18394168,-0.5363012,0.076614454,-9.710882,1.0820653,47.695843,-0.96322876,-2.0401542,-3.6820483,-0.047628485,-0.31157523,-0.09645572,27.875,29.0,28.125,32.0625,34.125,35.0625
0.3660524,-2.2118063,-1.479962,-1.9616668,-0.020944707,0.10014403,-0.14924757,-0.41340882,-0.34722275,0.05993675,-3.068145,0.6110591,-0.0003328317,-0.18170378,0.010041292,-0.0012399212,0.07757214,-0.0050214836,0.05411806,0.45348167,-1.3668766,1.8837317,-2.077987,-1.5810775,2.4211943,-0.12702525,0.32896528,-0.4179324,0.12585111,-0.06962433,-0.18028569,-0.7086837,0.095768064,-9.80665,0.8851263,47.68599,-1.0423434,-2.1612966,-3.7708278,-0.035439994,-0.2735265,-0.10803121,27.875,29.0,28.125,32.0625,34.125,35.0625
0.36805248,-2.1405988,-1.2255565,-2.1331813,-0.019635249,0.090755224,-0.15791011,-0.41376245,-0.34718496,0.059932075,-3.0679855,0.6109158,-0.00031617336,-0.18357827,0.011800229,-0.0020971354,0.07952766,-0.004518389,0.043787457,0.45321655,-1.3662391,1.8829201,-2.0777123,-1.5812343,2.420861,-0.13025981,0.33134472,-0.41873753,0.12471694,-0.071576856,-0.17316304,-0.45968673,-0.019153614,-9.940725,0.9679317,47.694946,-0.8993668,-2.3208442,-3.9636972,0.008528633,-0.24676085,-0.15618607,27.875,29.0,28.125,32.0625,34.125,35.0625
0.3700517,-2.0364258,-1.5967665,-1.6071621,-0.027599016,0.09145672,-0.15489297,-0.4141457,-0.347177,0.059924103,-3.0678957,0.61068654,-0.00019421818,-0.18350144,0.010363758,-0.0015974819,0.081018075,-0.00414007,0.04074595,0.45297793,-1.365554,1.8820823,-2.077544,-1.5813912,2.4204912,-0.12668233,0.3331516,-0.42280865,0.12732607,-0.07304253,-0.16652712,-0.49799395,0.0,-9.730036,1.0082139,47.661808,-1.0615189,-2.3145342,-3.959879,0.005503603,-0.194131,-0.21784724,27.875,29.0,28.125,32.0625,34.125,35.0625
0.3720518,-2.2280936,-1.6670873,-1.7158992,-0.008344327,0.057861913,-0.1443275,-0.41450864,-0.34714708,0.05990158,-3.0677476,0.61063904,-0.00024066321,-0.18490434,0.011324975,-0.0015035073,0.08398842,-0.005845204,0.03565264,0.45268932,-1.3648679,1.8812569,-2.0772903,-1.5814999,2.420193,-0.1281605,0.33609,-0.427817,0.13223661,-0.07496735,-0.16288307,-0.47884035,0.05746084,-9.634268,0.9410752,47.68599,-0.95927775,-2.2410731,-3.8242095,-0.004139987,-0.17341936,-0.31329817,27.875,29.0,28.125,32.0625,34.125,35.0625
0.37405208,-1.4698373,-0.84707457,-2.0483162,0.0045085675,0.03343641,-0.15269044,-0.41491222,-0.34713036,0.059938937,-3.0676377,0.61050403,-9.559525e-05,-0.18464094,0.011281198,0.0005432784,0.08427587,-0.007946671,0.027898332,0.45242554,-1.3642205,1.8803357,-2.0770118,-1.5816668,2.4198596,-0.12815173,0.3343452,-0.4324582,0.14067447,-0.074244335,-0.15512592,-0.45968673,0.095768064,-9.730036,1.0283576,47.687782,-1.0911245,-2.287448,-3.6822066,-0.06625025,-0.118270814,-0.38800108,27.875,29.0,28.125,32.0625,34.125,35.0625
0.37605226,-0.8138637,-0.5554607,-1.8550872,0.0021280576,0.026955903,-0.15722533,-0.41527042,-0.34708795,0.059924312,-3.0674436,0.6104263,-0.00012497911,-0.18306784,0.011576936,0.001287424,0.084455,-0.013850039,0.02502945,0.4521493,-1.3635485,1.8794979,-2.0767095,-1.5818228,2.419561,-0.12868612,0.33309856,-0.43487176,0.14969599,-0.07182393,-0.15280613,-0.57460845,0.076614454,-9.615114,0.9992599,47.668976,-1.0663114,-2.0022771,-3.721971,-0.16742623,-0.14190587,-0.47854498,27.875,29.0,28.125,32.0625,34.125,35.0625
