Tylouw/Master_Thesis_Code/training_data/batch_1/small_rod_t0.2/sample_60_session_2.csv
timestamp[s],tcp_force_x[N],tcp_force_y[N],tcp_force_z[N],tcp_force_rx[Nm?],tcp_force_ry[Nm?],tcp_force_rz[Nm?],tcp_pose_x[m],tcp_pose_y[m],tcp_pose_z[m],tcp_pose_rx[rot_vec_x],tcp_pose_ry[rot_vec_y],tcp_pose_rz[rot_vec_z],tcp_velo_x[m/s],tcp_velo_y[m/s],tcp_velo_z[m/s],tcp_velo_rx[rot_vec_x/s],tcp_velo_ry[rot_vec_y/s],tcp_velo_rz[rot_vec_z/s],q1[rad],q2[rad],q3[rad],q4[rad],q5[rad],q6[rad],qd1[rad/s],qd2[rad/s],qd3[rad/s],qd4[rad/s],qd5[rad/s],qd6[rad/s],tool_acc_x,tool_acc_y,tool_acc_z,current_of_whole_robot[A],voltage_of_whole_robot[V],current_J1[A],current_J2[A],current_J3[A],current_J4[A],current_J5[A],current_J6[A],temp_J1[C],temp_J2[C],temp_J3[C],temp_J4[C],temp_J5[C],temp_J6[C]
9.860087e-07,-1.0547265,-1.0332441,0.10111719,-0.026290288,0.01110588,-0.00056929654,-0.3810501,-0.3485212,0.05995682,-3.0784957,0.6247962,-0.0001957966,0.00071760867,0.00030978982,-0.0012217006,0.0009725341,-0.0022512912,-0.00021571197,0.47781014,-1.4259216,1.9577268,-2.1008208,-1.5707816,2.4527164,-2.697846e-27,0.0012906427,0.0013696995,-0.00021457237,0.00017412953,0.00021495823,0.019153614,0.11492168,-8.676587,0.7777002,47.668976,-0.016060473,-2.8196025,-2.492361,-0.4466636,0.09843032,0.16205734,27.9375,29.125,28.3125,32.1875,34.3125,35.25
0.002052288,-1.1511767,-1.0027816,-0.3152252,-0.022680353,0.0048341206,0.004038138,-0.3810392,-0.3485199,0.059937946,-3.0784817,0.62485075,-0.00023107055,-0.0014091235,-0.0007967759,-0.0021155179,-0.0019964888,0.00344769,-0.00030289902,0.47781014,-1.4259086,1.9577616,-2.1008494,-1.5707697,2.452752,-3.6195046e-29,0.0039514014,0.0027653521,-0.010696958,0.00016893123,0.00030397347,-0.019153614,0.22984336,-8.695741,0.7329411,47.67166,-0.03987805,-2.8831544,-2.4493837,-0.40663162,0.094141394,0.1746512,27.9375,29.125,28.3125,32.1875,34.3125,35.25
0.004052355,-0.24325728,-0.81707644,-0.07662184,-0.025329892,0.026563311,-0.011832782,-0.38105026,-0.34852126,0.059958737,-3.0784938,0.6248532,-0.00017700734,-0.0019342634,-0.0010679659,-0.0018375665,-0.0029539568,0.0053006792,-0.0002963638,0.47781014,-1.4259326,1.9577388,-2.100837,-1.5707816,2.452752,-4.8560273e-31,0.0036732145,0.002886087,-0.012625226,0.00016290248,0.00029773716,0.076614454,0.21068975,-8.7532015,0.7642693,47.689575,-0.039412558,-3.128415,-2.6382532,-0.29642266,0.1000282,0.16025233,27.9375,29.125,28.3125,32.1875,34.3125,35.25
0.006051885,-0.51387495,-0.33913997,-0.13799624,-0.020902088,0.003803496,-0.011912763,-0.381032,-0.34853423,0.059930403,-3.0784974,0.6248536,-0.00023098566,-0.0010142428,-0.0005948808,-0.0013288412,-0.0016714229,0.0028063233,-0.0003068056,0.47783422,-1.4258972,1.9577736,-2.1008828,-1.5707573,2.452776,-6.5149805e-33,0.0023853786,0.002075402,-0.0077220155,0.00018048202,0.0003073634,0.05746084,0.22984336,-8.7532015,0.7978386,47.72629,-0.0065938155,-3.0465386,-2.6386638,-0.3218913,0.10364807,0.17711708,27.9375,29.125,28.3125,32.1875,34.3125,35.25
0.008052308,-0.61392707,-0.010743118,-0.4694682,0.012248993,-0.019784976,0.0009540922,-0.38104936,-0.34852043,0.05993513,-3.0784953,0.62491107,-0.00024139592,-0.0008865827,-0.00052818406,0.00010510791,-0.0017186636,0.002906256,-0.00031434986,0.47778618,-1.425898,1.9577607,-2.10087,-1.5707458,2.452764,-8.7406787e-35,0.00015813853,0.00049554714,-0.004025376,0.00018175629,0.00031460795,-0.038307227,0.2681506,-8.848969,0.7418897,47.71465,0.04462914,-2.9112492,-2.5696754,-0.3765424,0.09248127,0.16093236,27.9375,29.125,28.3125,32.1875,34.3125,35.25
0.010051846,-0.26032573,0.33556628,-0.86546683,0.010653127,-0.01820095,-0.003612584,-0.38104168,-0.3485257,0.059935953,-3.0785232,0.6248401,-0.0001873037,-0.00039467015,-0.00024517396,7.218139e-05,-0.0008756633,0.0012999129,-0.00034301658,0.47781014,-1.425922,1.9577969,-2.100917,-1.5707573,2.4527402,-4.4108565e-05,2.1216304e-06,0.00024280175,-0.0018025113,0.00017630219,0.00029883883,0.05746084,0.21068975,-9.136273,0.7597976,47.64927,-0.5169641,-2.3705955,-3.0843406,-0.41518164,0.096793845,0.10906871,27.9375,29.125,28.3125,32.1875,34.3125,35.25
0.012052046,-0.14159553,-0.24437557,-1.0589552,-0.023068553,0.0013737641,-0.009841851,-0.38103297,-0.34850067,0.05989844,-3.0784128,0.6248574,-0.00030045127,-0.0009211647,0.0013968578,-0.0025584204,0.0018942739,-0.0040910374,-0.003648447,0.47779718,-1.4258487,1.9577855,-2.100857,-1.5707935,2.452752,-0.0034676238,0.0052839536,3.257495e-06,-0.000783981,0.00019729887,0.00018144981,0.095768064,0.095768064,-9.346964,0.779936,47.684196,-0.6465915,-2.223928,-3.2694082,-0.42004287,0.10751098,0.08811189,27.9375,29.125,28.3125,32.1875,34.3125,35.25
0.014052645,-1.0518034,-1.2026442,-1.3031366,-0.04616499,0.010205053,-0.011119277,-0.381057,-0.34852064,0.059933834,-3.0784767,0.6248545,-0.00023938638,-0.004493438,0.0027235444,-0.0054684924,0.0042251116,-0.008666361,-0.00861378,0.47779498,-1.4258684,1.9577245,-2.1008456,-1.5707697,2.45274,-0.009155074,0.015960108,-0.005507153,-0.00081523554,0.00021913477,-0.00053620344,0.05746084,0.21068975,-9.423578,0.7463667,47.704796,-0.2721467,-2.9530096,-3.1549711,-0.42788202,0.1240163,0.048379086,27.9375,29.125,28.3125,32.1875,34.3125,35.25
0.016052255,-1.3504972,-1.4268504,-1.218837,-0.07881509,0.041763194,-0.011484751,-0.38103727,-0.34850332,0.059893355,-3.0784292,0.6248999,-0.0004041583,-0.006264078,0.0022472693,-0.003200597,0.0016329214,-0.004659561,-0.0038693228,0.47775856,-1.4258215,1.9577578,-2.1008208,-1.570733,2.4527378,-0.010240353,0.013877061,-0.00835711,-0.0006346405,0.000670114,-0.0063657514,-0.17238253,0.2681506,-9.461885,0.7530795,47.709274,-0.27283067,-2.8203325,-3.1180038,-0.44571358,0.14547655,0.09190728,27.9375,29.125,28.3125,32.1875,34.3125,35.25
0.018052131,-2.3335087,-2.6548445,-1.3850603,-0.0633778,0.05194638,-0.006914093,-0.38102618,-0.34851775,0.059879337,-3.0784538,0.6248077,-0.00048483102,-0.005776612,0.0015586787,-0.0029497049,-0.00089573493,-0.0056263166,-0.0025420722,0.4777706,-1.4257858,1.9577464,-2.1008089,-1.5706962,2.4526892,-0.010313049,0.013101292,-0.008092058,-0.00043780025,0.0033603392,-0.007771253,-0.36391866,0.2681506,-9.653421,0.779936,47.70211,-0.49550205,-2.5878935,-3.3537288,-0.47502205,0.12116204,0.1004563,27.9375,29.125,28.3125,32.1875,34.3125,35.25
0.020052431,-2.1778996,-1.7478518,-1.6403108,-0.0642019,0.07386261,-0.021717574,-0.38105038,-0.34849477,0.059870016,-3.0784054,0.62487614,-0.0004933266,-0.005679256,0.0012653414,-0.0034687473,-0.002715323,-0.007817525,-0.004125155,0.4777222,-1.4257493,1.9577235,-2.100797,-1.5707191,2.4526896,-0.011406567,0.014201771,-0.008181308,-0.00034920938,0.0059834966,-0.007286741,-0.38307226,0.3256114,-9.749189,0.80456203,47.709274,-0.6696588,-2.527423,-3.5604963,-0.4809524,0.09563773,0.06344636,27.9375,29.125,28.3125,32.1875,34.3125,35.25
0.022052692,-1.9372085,-1.5882109,-1.5533959,-0.054357704,0.084468275,-0.029093413,-0.38105562,-0.34850562,0.059861608,-3.0784268,0.6249018,-0.0005024581,-0.008014346,0.0014528042,-0.0031972951,-0.0039340043,-0.0073137903,-0.00678572,0.47772112,-1.4257245,1.9577225,-2.1008327,-1.5706953,2.4527018,-0.01445137,0.0167221,-0.011664014,-0.00039740172,0.00682644,-0.007670389,-0.40222588,0.30645782,-9.825804,0.7933669,47.68062,-0.5852088,-2.3850195,-3.5769272,-0.49316567,0.094976634,0.045412987,27.9375,29.125,28.3125,32.1875,34.3125,35.25
0.024052667,-1.7771856,-0.6719199,-1.4946518,-0.051012557,0.078004085,-0.039810117,-0.38107297,-0.34849897,0.05985264,-3.0783908,0.6249139,-0.00050700427,-0.00928183,0.0011684538,-0.0026661719,-0.0052717095,-0.006377071,-0.0071762376,0.4777087,-1.4256762,1.9576854,-2.1008208,-1.5707191,2.4527016,-0.0156082,0.017606303,-0.013854192,-0.0005412159,0.007578075,-0.008437074,-0.7278373,0.30645782,-9.844957,0.77545905,47.687782,-0.6127918,-2.4752417,-3.4210653,-0.48516446,0.09562853,0.033474594,27.9375,29.125,28.3125,32.1875,34.3125,35.25
0.02605271,-1.7892808,-0.8187645,-1.5802742,-0.043555997,0.08236178,-0.04839101,-0.38105682,-0.34849218,0.059818845,-3.078404,0.62485945,-0.0006546751,-0.010703885,0.001184108,-0.0026100741,-0.0059946305,-0.00577391,-0.0081477985,0.4776722,-1.4256397,1.9577211,-2.1008213,-1.5706586,2.4526293,-0.017186644,0.019314568,-0.015782274,-0.0011899394,0.007936078,-0.009043862,-0.7086837,0.22984336,-9.768343,0.7463667,47.717335,-0.6644205,-2.4617717,-3.5236387,-0.50140226,0.080634624,0.012426066,27.9375,29.125,28.3125,32.1875,34.3125,35.25
0.02805209,-1.9840361,-1.133006,-1.5075382,-0.05380253,0.092186876,-0.054720804,-0.38110223,-0.34848654,0.059825726,-3.0783885,0.625028,-0.0006499822,-0.0118963225,0.00046193562,-0.0020227877,-0.00849736,-0.0032522734,-0.0071135154,0.47761202,-1.4255918,1.9576482,-2.1008103,-1.5706462,2.4526763,-0.017689979,0.019482633,-0.016720966,-0.0038124954,0.008990701,-0.010582496,-0.6512228,0.22984336,-9.883265,0.7866488,47.686886,-0.6887636,-2.457453,-3.4563003,-0.48293167,0.07471593,-0.018065635,27.9375,29.125,28.3125,32.1875,34.3125,35.25
0.03005243,-2.5322802,-1.4520526,-1.6434149,-0.063773066,0.088413626,-0.056876764,-0.38113412,-0.34850317,0.059836794,-3.0784338,0.62496024,-0.0005905231,-0.013130686,-0.0006338505,-0.0011309419,-0.010737058,-0.0011222457,-0.0059942915,0.47761205,-1.4255557,1.9575871,-2.1008341,-1.5706462,2.4526284,-0.01753531,0.020181373,-0.019325064,-0.0048320014,0.0099927485,-0.01154698,-0.63206923,0.22984336,-9.825804,0.7665104,47.694054,-0.6962864,-2.3967345,-3.5082703,-0.49147385,0.059583426,-0.02622467,27.9375,29.125,28.3125,32.1875,34.3125,35.25
0.03205179,-2.5531387,-1.3106954,-1.5091242,-0.055430636,0.08814205,-0.068476066,-0.3811536,-0.3484949,0.059808675,-3.0784187,0.6250144,-0.0006578892,-0.013924234,-0.0003707636,-0.0012055897,-0.010517983,-0.0016393613,-0.0053121964,0.47756374,-1.4254832,1.9575742,-2.100858,-1.5706223,2.4526157,-0.018763196,0.02152089,-0.02085334,-0.004082722,0.010033012,-0.013456568,-0.6703765,0.17238252,-9.844957,0.7777002,47.690468,-0.7704085,-2.4259262,-3.4342766,-0.4903312,0.025089689,-0.03388113,27.9375,29.125,28.3125,32.1875,34.3125,35.25
0.03405261,-2.3695326,-0.7889392,-1.5825789,-0.017689103,0.07484049,-0.08055265,-0.38118717,-0.34849605,0.059812956,-3.0784345,0.6250569,-0.000640338,-0.015050541,2.6103076e-05,-0.0010138932,-0.009698439,-0.0011911961,-0.0060678828,0.4775273,-1.4254469,1.9575256,-2.1008694,-1.5706109,2.4526038,-0.019901715,0.022717386,-0.02282948,-0.0033205363,0.009096912,-0.013836255,-0.57460845,0.076614454,-9.691729,0.6859408,47.67793,-0.74044216,-2.414555,-3.405561,-0.5020348,0.051940612,-0.0059929225,27.9375,29.125,28.3125,32.1875,34.3125,35.25
0.03605244,-1.5419989,0.25063562,-1.5897502,0.00072697114,0.074573345,-0.09908214,-0.38121673,-0.34849507,0.059814792,-3.0784602,0.62512004,-0.00068754645,-0.016210865,0.00023603463,-0.0007422865,-0.009923327,-0.00042665267,-0.0073358305,0.47746688,-1.4254106,1.9574775,-2.100858,-1.5705627,2.4525795,-0.021246105,0.023562342,-0.024402106,-0.0033734636,0.008941978,-0.0139114475,-0.4213795,-0.11492168,-9.710882,0.7777002,47.70032,-0.69788814,-2.4294171,-3.3560436,-0.51729447,0.067116186,-0.022820543,27.9375,29.125,28.3125,32.1875,34.3125,35.25
0.038051784,-1.9456861,-0.15941215,-1.55934,0.019208252,0.045612052,-0.1022286,-0.38126484,-0.34850395,0.05982178,-3.078506,0.62513083,-0.00062633055,-0.017880516,0.0002601083,-0.00016168124,-0.010922619,0.002535836,-0.009561919,0.4774304,-1.4253627,1.9574178,-2.1009061,-1.5705508,2.452544,-0.022518942,0.02386375,-0.025567645,-0.005597537,0.008462069,-0.012955651,-0.30645782,-0.1340753,-9.710882,0.800085,47.71286,-0.69180685,-2.3352153,-3.3867648,-0.49839967,0.056442086,-0.04147047,27.9375,29.125,28.3125,32.1875,34.3125,35.25
0.040052272,-1.1990386,-0.0065147053,-1.3501645,0.00040504747,0.058431517,-0.118736215,-0.38131446,-0.3484938,0.059838355,-3.078492,0.6251864,-0.0005724155,-0.019591218,6.752335e-05,0.0005171919,-0.012337623,0.005157636,-0.010547747,0.47738194,-1.4253266,1.9573334,-2.1008828,-1.5705746,2.452532,-0.023785511,0.024404135,-0.02733849,-0.0073459526,0.008506988,-0.013234941,-0.36391866,-0.1340753,-9.595961,0.78217715,47.701214,-0.71951085,-2.324982,-3.4155645,-0.4811229,0.07868713,-0.04985472,27.9375,29.125,28.3125,32.1875,34.3125,35.25
0.042052463,-1.8126601,-0.66977245,-1.3858365,-0.007579304,0.04227603,-0.11339676,-0.38134736,-0.34849972,0.059818435,-3.0784986,0.6251482,-0.00054525887,-0.021180369,-0.0002363165,0.0009848614,-0.013304225,0.006063621,-0.011161235,0.47736964,-1.4252421,1.9572963,-2.1009429,-1.5705866,2.452495,-0.024998067,0.026113458,-0.030376459,-0.0072677443,0.008942961,-0.013832949,-0.17238252,-0.076614454,-9.634268,0.7418897,47.67166,-0.67804694,-2.363895,-3.3117228,-0.46692252,0.075222634,-0.07461328,27.9375,29.125,28.3125,32.1875,34.3125,35.25
0.044052184,-1.0652459,-0.6764086,-1.3567467,-0.023929836,0.037546784,-0.13158019,-0.38140923,-0.34849557,0.05983889,-3.0785067,0.6252662,-0.0005152145,-0.021468692,0.00022205395,0.00078894536,-0.01299146,0.004322072,-0.012329449,0.477297,-1.4251939,1.957189,-2.1009185,-1.5705742,2.452495,-0.026416382,0.027034344,-0.031383675,-0.0054918965,0.009468324,-0.0140834255,-0.15322891,0.0,-9.653421,0.7933669,47.670765,-0.68276733,-2.3860657,-3.3046408,-0.48739433,0.07696156,-0.0839196,27.9375,29.125,28.3125,32.1875,34.3125,35.25
0.04605232,-1.0992498,-0.877229,-1.4649881,-0.026011007,0.015883403,-0.14112382,-0.38147065,-0.34849367,0.05984819,-3.0785177,0.6253644,-0.00045705962,-0.02215983,0.00056061865,0.0009801113,-0.012855392,0.0041439747,-0.012798854,0.47723678,-1.4251338,1.9571046,-2.100942,-1.5705742,2.4524949,-0.027627686,0.027565196,-0.032643337,-0.0045416504,0.009429742,-0.014824277,-0.076614454,0.076614454,-9.653421,0.7553206,47.683304,-0.6698084,-2.284667,-3.3570192,-0.5034809,0.06464672,-0.07610162,27.9375,29.125,28.3125,32.1875,34.3125,35.25
0.048052642,-1.2394716,-1.3059926,-1.4997299,-0.01736896,0.0058494573,-0.15011679,-0.3815089,-0.34848154,0.059855953,-3.0785277,0.625444,-0.00046658592,-0.023250597,0.00052924256,0.001297776,-0.013367921,0.005059362,-0.013142232,0.47716436,-1.4251096,1.9570564,-2.1009295,-1.5705503,2.4524708,-0.02859736,0.028415168,-0.034279503,-0.004803024,0.009461147,-0.015449512,-0.095768064,0.095768064,-9.634268,0.7732232,47.645687,-0.69767,-2.2748985,-3.3030329,-0.5083449,0.082931176,-0.109034374,27.9375,29.125,28.3125,32.1875,34.3125,35.25
0.050052248,-0.791088,-1.2006161,-1.3651208,-0.03419385,0.016360207,-0.16132593,-0.38153863,-0.3484832,0.059836306,-3.0785491,0.6254102,-0.00053135364,-0.024752593,0.0002765677,0.0018986869,-0.015136936,0.0069161924,-0.0140209505,0.47711593,-1.4250255,1.9570082,-2.1009424,-1.5705136,2.4523985,-0.029996183,0.028971955,-0.035992928,-0.006109739,0.010173184,-0.015969936,-0.05746084,0.17238252,-9.5385,0.7597976,47.67614,-0.6370566,-2.2580063,-3.3175592,-0.50305307,0.085480265,-0.118904606,27.9375,29.125,28.3125,32.1875,34.3125,35.25
0.052052505,-1.1474291,-1.5048325,-1.4079677,-0.04648133,0.014420391,-0.1692008,-0.38160637,-0.34847957,0.05986864,-3.0785933,0.62555337,-0.0004504533,-0.026224177,9.792302e-05,0.0026785054,-0.016069364,0.0089005595,-0.01398539,0.4770317,-1.4250133,1.9569234,-2.1009548,-1.5704902,2.452398,-0.030976258,0.029449232,-0.03821791,-0.0065513276,0.010086779,-0.01698327,0.0,0.2681506,-9.500193,0.7642693,47.67793,-0.6347754,-2.2148166,-3.2778423,-0.48529544,0.08345378,-0.12240596,27.9375,29.125,28.3125,32.1875,34.3125,35.25
0.05405186,-1.5046825,-1.9659333,-1.3872739,-0.04702329,0.004912445,-0.17093977,-0.38164124,-0.34848124,0.059867736,-3.0786033,0.62565255,-0.00051376637,-0.026723351,0.0005361626,0.002325552,-0.015644085,0.007824913,-0.014943725,0.47697112,-1.424953,1.9568509,-2.10093,-1.5704421,2.452398,-0.03228834,0.030718789,-0.03901554,-0.0058713504,0.010203237,-0.017336886,-0.019153614,0.30645782,-9.557653,0.83589023,47.711964,-0.6711782,-2.2090888,-3.306076,-0.49252385,0.11373458,-0.1285996,27.9375,29.125,28.3125,32.1875,34.3125,35.25
0.05605269,-1.1423613,-2.017708,-1.4565086,-0.056330495,0.00821747,-0.1912852,-0.38170525,-0.34849656,0.05987441,-3.0786462,0.62554556,-0.00044404194,-0.027174247,0.00038708487,0.0019084403,-0.015923155,0.0062990873,-0.014643659,0.4769469,-1.4248565,1.9567312,-2.1009543,-1.570454,2.4523017,-0.03305175,0.032773074,-0.04057374,-0.0051432503,0.011150858,-0.018400546,-0.019153614,0.36391866,-9.519346,0.7217513,47.698532,-0.6591071,-2.2493923,-3.3762727,-0.52498615,0.09558873,-0.16740584,27.9375,29.125,28.3125,32.1875,34.3125,35.25
0.05805229,-0.8286927,-2.1609423,-1.5610018,-0.06330898,0.02050043,-0.17973244,-0.38175836,-0.34848344,0.0598607,-3.0786428,0.6256414,-0.00041387478,-0.028278219,0.0002684326,0.0024036893,-0.01691765,0.00769359,-0.014603981,0.47687447,-1.4247845,1.956694,-2.101014,-1.570454,2.4522896,-0.034011062,0.03313441,-0.041969314,-0.005804323,0.0113909645,-0.01939878,0.0,0.34476504,-9.576807,0.7553206,47.681515,-0.6132722,-2.1802397,-3.3270965,-0.5129093,0.10527107,-0.17431048,27.9375,29.125,28.3125,32.1875,34.3125,35.25
0.060051918,-0.90484196,-1.9227358,-1.4124864,-0.06203486,0.01992825,-0.17275763,-0.38183245,-0.34848857,0.059893046,3.0786285,-0.62569594,0.00032670127,-0.029117638,-0.0006667288,0.0032007492,-0.019336242,0.008767146,-0.014212465,0.47681448,-1.4247366,1.9565629,-2.101003,-1.570453,2.4522655,-0.03419133,0.033429854,-0.044067424,-0.0060707126,0.013044153,-0.019971263,0.076614454,0.4213795,-9.576807,0.77545905,47.670765,-0.66938937,-2.031849,-3.2399077,-0.49760643,0.08883848,-0.1632667,27.9375,29.125,28.3125,32.1875,34.3125,35.25
0.062052265,-0.991523,-1.7907515,-1.4887168,-0.056071665,0.023861,-0.16285361,-0.3819064,-0.3484944,0.05989059,3.0785146,-0.6257681,0.00037856057,-0.029876325,-0.00053638534,0.0024483597,-0.019418988,0.0075198174,-0.014399611,0.47669405,-1.4246397,1.9564661,-2.1010387,-1.5703567,2.4522045,-0.035533752,0.035974026,-0.045167867,-0.006442692,0.013689362,-0.021126073,-0.038307227,0.34476504,-9.442732,0.800085,47.704796,-0.7357726,-2.1211817,-3.2845469,-0.50755805,0.06928929,-0.19824353,27.9375,29.125,28.3125,32.1875,34.3125,35.25
0.06405274,-1.1361619,-1.6256458,-1.3146489,-0.046040088,0.026474327,-0.15040737,-0.38195792,-0.3484741,0.05990538,3.0785239,-0.6258274,0.00032899447,-0.030716289,-0.0007743685,0.0025268826,-0.020032236,0.0075730667,-0.013578777,0.47663385,-1.4246033,1.9563826,-2.101003,-1.570393,2.4521801,-0.036218062,0.037355896,-0.04693845,-0.0063841534,0.014207186,-0.022630781,-0.095768064,0.30645782,-9.442732,0.75084364,47.678825,-0.7518991,-2.161169,-3.2912745,-0.5080122,0.06920497,-0.20525047,27.9375,29.125,28.3125,32.1875,34.3125,35.25
0.066052094,-1.076956,-1.4571788,-1.0836612,-0.032554567,0.042475406,-0.1692895,-0.3820139,-0.3484961,0.059899855,3.078492,-0.6258008,0.0003490426,-0.03255498,-0.0016447193,0.0036521286,-0.021525087,0.010387025,-0.012659023,0.47659773,-1.4244834,1.956261,-2.1010144,-1.5703567,2.4521315,-0.036381163,0.038455714,-0.05063415,-0.0069720014,0.0142342085,-0.023711357,-0.076614454,0.2681506,-9.32781,0.79560274,47.74868,-0.84837425,-2.123102,-3.2472615,-0.5096558,0.0647068,-0.19187817,27.9375,29.125,28.3125,32.1875,34.3125,35.25
0.06805228,-1.2282991,-0.98915637,-1.0506248,-0.02664036,0.044756338,-0.15852347,-0.38206565,-0.3484866,0.059904262,3.078415,-0.6258817,0.00035548172,-0.032081734,-0.0012194077,0.0013799466,-0.020089786,0.0064129047,-0.0121251345,0.47650152,-1.424446,1.9562138,-2.1010387,-1.5703081,2.4520955,-0.037052043,0.042276952,-0.049667284,-0.0075694593,0.0147849005,-0.024916243,-0.11492168,0.2681506,-9.308657,0.7732232,47.689575,-0.8162714,-2.2741442,-3.214685,-0.4974667,0.057269096,-0.21226755,27.9375,29.125,28.3125,32.1875,34.3125,35.25
0.070052266,-1.19081,-0.7628539,-0.84701115,-0.030601678,0.049896892,-0.16260633,-0.38212657,-0.3484975,0.059905276,3.0783796,-0.6258355,0.00035997582,-0.033496626,-0.0014942626,0.002518336,-0.021344692,0.009209364,-0.011466657,0.4764414,-1.4243503,1.9561051,-2.101051,-1.5702723,2.452011,-0.037749838,0.041854635,-0.051638003,-0.008234112,0.014613248,-0.026270842,-0.21068975,0.21068975,-9.270349,0.8023209,47.690468,-0.8742659,-2.2345943,-3.2651021,-0.49117213,0.038391452,-0.2388395,27.9375,29.125,28.3125,32.1875,34.3125,35.25
0.07205289,-1.701892,-1.1456587,-0.9119916,-0.015922336,0.037979197,-0.14810207,-0.3821994,-0.34850332,0.059933767,3.0783057,-0.62587863,0.0002958143,-0.034408078,-0.0016967307,0.0031634883,-0.021873847,0.010446251,-0.010966102,0.47636908,-1.4243025,1.9559854,-2.101051,-1.5702485,2.451975,-0.038159158,0.04210283,-0.0534455,-0.008014265,0.014516146,-0.027178632,-0.22984336,0.19153613,-9.212888,0.7933669,47.698532,-0.928764,-2.0938473,-3.1438112,-0.48006856,0.057623036,-0.23310539,27.9375,29.125,28.3125,32.1875,34.3125,35.25
0.07405246,-1.1144404,-0.99467367,-0.91330796,-0.0070829736,0.0472999,-0.14940631,-0.3822547,-0.3485114,0.05992005,3.0782676,-0.62588894,0.00031710402,-0.03582636,-0.0022054785,0.003134737,-0.021899395,0.011248401,-0.010026393,0.47630918,-1.4241934,1.9559005,-2.1010869,-1.5702127,2.4519265,-0.0383301,0.04493721,-0.056505784,-0.008509379,0.0141648585,-0.028286546,-0.2681506,0.17238252,-9.2703495,0.7642693,47.652847,-1.0039825,-2.237238,-3.063623,-0.4788249,0.039625116,-0.23565018,27.9375,29.125,28.3125,32.1875,34.3125,35.25
0.0760518,-1.3113928,-0.71382475,-0.96359,-0.012366646,0.04577665,-0.1547762,-0.38231155,-0.3485069,0.059921775,3.078257,-0.62586665,0.00028864577,-0.03595228,-0.0015280067,0.0019700078,-0.020867642,0.009487673,-0.009882143,0.4762487,-1.424121,1.9558166,-2.1010988,-1.5702127,2.4518535,-0.03957344,0.046822444,-0.05589565,-0.008965143,0.014057362,-0.029673582,-0.21068975,0.13407528,-9.232041,0.82022345,47.683304,-1.0245371,-2.211075,-3.1169868,-0.47172835,0.04083775,-0.24737468,27.9375,29.125,28.3125,32.1875,34.3125,35.25
0.07805184,-1.0649184,-0.9786206,-0.8827889,-0.001602306,0.05086156,-0.15270884,-0.3823959,-0.3485296,0.05993709,3.0781467,-0.62594014,0.00028732774,-0.036384974,-0.0015620284,0.0019778525,-0.02069208,0.0093226405,-0.008847806,0.47616452,-1.424013,1.9556612,-2.1011107,-1.5701407,2.4518292,-0.03985024,0.04774112,-0.057078056,-0.008470031,0.013979017,-0.030983154,-0.19153613,-0.038307227,-9.155427,0.80456203,47.658226,-1.0737106,-2.2111468,-3.213485,-0.47579163,0.040620457,-0.24945399,27.9375,29.125,28.3125,32.1875,34.3125,35.25
0.080052204,-0.7672798,-0.76128536,-0.88151747,-0.0076289047,0.0562834,-0.15304758,-0.38248283,-0.34850293,0.059933916,3.0781286,-0.6259939,0.00024539203,-0.037444014,-0.0020158843,0.0025245124,-0.021534642,0.0099161295,-0.008515478,0.47604445,-1.4239166,1.9555639,-2.101135,-1.5701522,2.451745,-0.040317506,0.048887767,-0.059787683,-0.007820699,0.014454629,-0.031781618,-0.22984336,0.05746084,-9.155427,0.80679786,47.682407,-1.1848068,-2.208334,-3.0508075,-0.4882424,0.05002098,-0.26406947,27.9375,29.125,28.3125,32.1875,34.3125,35.25
0.0820526,-0.90374327,-0.8267971,-1.054159,-0.0044520563,0.05276486,-0.15336995,-0.3825699,-0.34852463,0.059959013,3.0780563,-0.6259407,0.00020541837,-0.038215455,-0.0017233662,0.0020747292,-0.021120949,0.00938394,-0.008457794,0.47597212,-1.4238203,1.9553965,-2.101135,-1.570105,2.4516487,-0.04145767,0.050726064,-0.060832676,-0.007947805,0.014332101,-0.032977466,-0.30645782,0.17238252,-9.212888,0.800085,47.70032,-1.2041565,-2.1759357,-3.1258454,-0.46845752,0.029226836,-0.24492499,27.9375,29.125,28.3125,32.1875,34.3125,35.25
0.084052116,-1.5785033,-1.0119752,-0.89156467,-0.0017715505,0.037783254,-0.14141783,-0.38266343,-0.34853035,0.059973337,3.0779731,-0.62603885,0.00011618476,-0.03901636,-0.0022294752,0.0024137362,-0.021694453,0.010490892,-0.007750462,0.47588804,-1.423724,1.9552649,-2.1011827,-1.5700926,2.4516366,-0.04128672,0.051683635,-0.062605515,-0.008377332,0.0143343685,-0.03351155,-0.28730422,0.1340753,-9.251195,0.78217715,47.719128,-1.2842972,-2.172377,-3.0989385,-0.48241213,0.035794277,-0.26211822,27.9375,29.125,28.3125,32.1875,34.3125,35.25
0.086051814,-1.4194943,-0.64522475,-0.8768449,-0.020115634,0.04238748,-0.16292764,-0.38270494,-0.3485282,0.05995329,3.077958,-0.625998,0.0001914405,-0.040683318,-0.0012171407,0.0024389972,-0.021604573,0.010399937,-0.010089344,0.47581506,-1.4236277,1.9552034,-2.1011946,-1.5700449,2.45154,-0.044585425,0.052979358,-0.06425703,-0.007896175,0.014294598,-0.03447073,-0.2681506,0.15322891,-9.155427,0.79560274,47.689575,-1.2117901,-2.1606107,-3.054389,-0.47618842,0.03472384,-0.29440957,27.9375,29.125,28.3125,32.1875,34.3125,35.25
0.08805196,-1.079973,-1.1678138,-1.0226874,-0.024549512,0.04976246,-0.1500113,-0.3828034,-0.3485184,0.059960954,3.0779216,-0.6260674,0.00014941784,-0.04138926,-0.0012180774,0.0024949268,-0.02144402,0.010944885,-0.010397034,0.47570696,-1.4235077,1.9550489,-2.1011946,-1.5700449,2.45148,-0.044965755,0.053933658,-0.065438874,-0.008076514,0.013902616,-0.03454167,-0.22984336,0.19153613,-9.270349,0.80456203,47.689575,-1.2019548,-2.1201987,-3.0665693,-0.47362316,0.05040569,-0.30548626,27.9375,29.125,28.3125,32.1875,34.3125,35.25
0.09005229,-1.1904529,-1.2905446,-1.2818563,-0.030267207,0.051143773,-0.149734,-0.3829007,-0.34851697,0.059958916,3.0778768,-0.6261141,0.00014258374,-0.041474085,-0.0020214804,0.0024396784,-0.021660453,0.010731634,-0.0073703304,0.47559938,-1.4233634,1.9548916,-2.1012065,-1.570021,2.4514072,-0.043793168,0.05537521,-0.06701824,-0.007845844,0.014193415,-0.036394812,-0.22984336,0.24899697,-9.308656,0.7642693,47.694946,-1.3925068,-2.2468102,-3.0616412,-0.47792184,0.039337322,-0.29054514,27.9375,29.125,28.3125,32.1875,34.3125,35.25
0.09205205,-1.6428324,-2.0509865,-1.1945823,-0.018370068,0.045434963,-0.14415516,-0.3829545,-0.34852138,0.059952434,3.077829,-0.62616354,0.00019249882,-0.04315826,-0.0011427371,0.0020248068,-0.021564847,0.009943046,-0.009439803,0.47552615,-1.4232666,1.9547957,-2.101206,-1.5699724,2.451371,-0.047071453,0.057773996,-0.06885791,-0.007657506,0.014467698,-0.037602704,-0.22984336,0.19153613,-9.32781,0.77545905,47.661808,-1.3556259,-2.1376934,-3.0670843,-0.48536646,0.039389893,-0.30377728,27.9375,29.125,28.3125,32.1875,34.3125,35.25
0.09405279,-1.2404139,-0.86418563,-1.229987,-0.04109382,0.051287606,-0.15558608,-0.3830678,-0.348539,0.059969366,3.0777466,-0.6261286,0.00011303076,-0.043776296,-0.0006156135,0.0012579708,-0.020778256,0.008250422,-0.011659101,0.47542965,-1.4231336,1.954616,-2.1012537,-1.5699362,2.4512632,-0.048611462,0.06006776,-0.0698643,-0.007077891,0.014547298,-0.0369214,-0.2681506,0.24899697,-9.442732,0.784413,47.704796,-1.3267639,-2.2988007,-3.080171,-0.48957855,0.043634504,-0.32066202,27.9375,29.125,28.3125,32.1875,34.3125,35.25
0.09605257,-1.2602773,-1.8971001,-1.2915002,-0.02584058,0.04836688,-0.1489686,-0.3831386,-0.34852964,0.05997227,3.0777194,-0.62616336,0.00013452268,-0.046084896,0.00010599006,0.003165256,-0.023150127,0.01199634,-0.015399526,0.47533244,-1.4230385,1.9544953,-2.10123,-1.5699123,2.4511912,-0.052253157,0.057747923,-0.071460925,-0.0075767115,0.01493903,-0.036822535,-0.2681506,0.22984336,-9.423578,0.8291774,47.65912,-1.1696385,-2.1087441,-3.049623,-0.49392495,0.069908425,-0.31869093,27.9375,29.125,28.3125,32.1875,34.3125,35.25
0.098052494,-1.7422725,-1.369704,-1.3431594,-0.037478756,0.039193444,-0.13739628,-0.3832303,-0.34853673,0.05999276,3.077669,-0.6261892,4.8821348e-05,-0.046201892,-0.00036293681,0.0021097865,-0.022574563,0.010642509,-0.01221987,0.47526073,-1.4229413,1.9543403,-2.1012423,-1.5699123,2.451142,-0.051588055,0.060854536,-0.07245779,-0.008216868,0.0150485085,-0.039335046,-0.22984336,0.22984336,-9.346964,0.79560274,47.66987,-1.2663548,-2.0970182,-3.0948124,-0.48619884,0.04694671,-0.3391964,27.9375,29.125,28.3125,32.1875,34.3125,35.25
0.100052476,-1.433874,-1.7314304,-1.4094379,-0.031100495,0.055277362,-0.15032417,-0.38329872,-0.3485129,0.05995526,3.0776525,-0.6262622,0.00019686842,-0.0466254,-0.00046941376,0.0011372392,-0.022104044,0.008913561,-0.011147603,0.47511655,-1.4227841,1.9542435,-2.1012304,-1.5698522,2.4510455,-0.05201504,0.063930765,-0.07375683,-0.008237031,0.015418813,-0.040834654,-0.22984336,0.21068975,-9.461885,0.79560274,47.678825,-1.3449712,-2.217021,-3.100656,-0.47529036,0.0637831,-0.34663734,27.9375,29.125,28.3125,32.1875,34.3125,35.25
0.1020517,-1.5434349,-1.1637766,-1.347047,-0.040868364,0.0589733,-0.1514011,-0.38342768,-0.34853148,0.059992757,3.0775645,-0.62628305,3.7152586e-05,-0.048586767,0.000673315,0.0018025812,-0.0230907,0.010212585,-0.011999483,0.4750311,-1.4226639,1.954029,-2.1012666,-1.5698522,2.4509845,-0.056010585,0.063643485,-0.07491717,-0.008393199,0.015707918,-0.043976024,-0.17238252,0.22984336,-9.481039,0.8493211,47.661808,-1.2418917,-2.271142,-3.1509829,-0.49542084,0.05610431,-0.31806177,27.9375,29.125,28.3125,32.1875,34.3125,35.25
0.1040521,-1.7660998,-1.3369303,-1.419237,-0.030763589,0.053087316,-0.14252329,-0.3834938,-0.34852934,0.05998655,3.0775423,-0.62627906,0.00011573729,-0.048971415,0.0007481761,0.001086841,-0.022825541,0.00899307,-0.012181177,0.47493497,-1.4225432,1.9538969,-2.1012304,-1.5698036,2.4508886,-0.056692358,0.065739036,-0.07564938,-0.008547839,0.01602889,-0.044476084,-0.21068975,0.21068975,-9.481039,0.8493211,47.70032,-1.2663463,-2.2058518,-3.1405525,-0.49263403,0.07143916,-0.3174921,27.9375,29.125,28.3125,32.1875,34.3125,35.25
0.10605182,-1.2998246,-0.93890446,-1.4433148,-0.031866036,0.056133393,-0.14969988,-0.38360637,-0.34851694,0.059973344,3.0774891,-0.6263458,6.82391e-05,-0.050565664,0.0009674677,0.0012879358,-0.022783015,0.010112152,-0.01401327,0.47480252,-1.4223864,1.9537643,-2.1013024,-1.5697926,2.4508047,-0.058168128,0.06736435,-0.07789558,-0.008898447,0.0154781565,-0.0441171,-0.30645782,0.17238252,-9.519346,0.8291774,47.687782,-1.2372143,-2.2457454,-3.133277,-0.47904688,0.06684105,-0.36181676,27.9375,29.125,28.3125,32.1875,34.3125,35.25
0.10805204,-1.3440878,-0.6445106,-1.1862183,-0.029611599,0.052396722,-0.16026133,-0.38371366,-0.3485293,0.059981626,3.0774238,-0.6262912,4.54101e-05,-0.050968762,0.0011485947,0.0004544045,-0.023303196,0.008936249,-0.011778831,0.4746942,-1.4222417,1.9535855,-2.1013267,-1.5697435,2.4506707,-0.059490856,0.06912439,-0.07776575,-0.009976898,0.016483085,-0.047673788,-0.38307226,0.0,-9.481039,0.7933669,47.687782,-1.247631,-2.319359,-3.0989752,-0.473139,0.068988375,-0.33518928,27.9375,29.125,28.3125,32.1875,34.3125,35.25
0.110052444,-1.2115626,-0.9339533,-1.2418747,-0.015319702,0.050266206,-0.1567557,-0.38381624,-0.34852743,0.059988752,3.077367,-0.62631816,3.7674767e-05,-0.051426556,0.0017696116,-0.0004060937,-0.022750836,0.007468607,-0.010725854,0.47457352,-1.422109,1.9534177,-2.1013267,-1.5697078,2.4505742,-0.061112646,0.07093322,-0.07783692,-0.010151228,0.016667625,-0.05034779,-0.2873042,0.0,-9.500193,0.800085,47.67166,-1.2311745,-2.318224,-3.2876859,-0.49037087,0.09313898,-0.2932703,27.9375,29.125,28.3125,32.1875,34.3125,35.1875
0.112051785,-1.3364481,-0.8672173,-1.208342,-0.017570367,0.04378272,-0.15274556,-0.38394845,-0.34852532,0.060017604,3.0772514,-0.6263515,-4.8189424e-05,-0.05445703,0.0005092246,0.0018556314,-0.026141383,0.01206958,-0.009849919,0.4744171,-1.4220004,1.953236,-2.101363,-1.5696591,2.4504533,-0.06221849,0.07158955,-0.08364349,-0.010639046,0.017578013,-0.052325297,-0.17238252,0.019153614,-9.3661175,0.78217715,47.682407,-1.2978147,-2.305466,-3.1111674,-0.46527147,0.0798426,-0.29246145,27.9375,29.125,28.3125,32.1875,34.3125,35.1875
0.114052266,-1.5312636,-0.78627354,-1.2390968,-0.019592343,0.0386758,-0.14301018,-0.3840067,-0.34851223,0.05996958,3.0772917,-0.6263401,5.500883e-05,-0.05324276,0.0019488251,-0.00019758978,-0.023886014,0.007757788,-0.00896446,0.47433272,-1.42182,1.953142,-2.1013749,-1.5696472,2.4503567,-0.06362786,0.07283826,-0.08050911,-0.010151784,0.017548576,-0.054622903,-0.22984336,0.05746084,-9.385271,0.8023209,47.675243,-1.2719399,-2.2508194,-3.2690103,-0.47113764,0.087221995,-0.2732555,27.9375,29.125,28.3125,32.1875,34.3125,35.1875
0.11605186,-1.287497,-1.0416582,-1.275805,-0.0114988405,0.04925026,-0.14941448,-0.38415414,-0.34852183,0.060011428,3.0771472,-0.6264059,-4.7232603e-05,-0.054788057,0.002233047,0.00039454902,-0.02375814,0.0095109735,-0.0077378466,0.47417635,-1.4216994,1.9529141,-2.1013987,-1.5695881,2.45026,-0.06493108,0.073554024,-0.08267668,-0.010189436,0.016641628,-0.057148717,-0.21068975,0.05746084,-9.461885,0.8627467,47.70032,-1.2829313,-2.1770735,-3.2386262,-0.47386557,0.11449246,-0.22308984,27.9375,29.125,28.3125,32.1875,34.3125,35.1875
0.118051924,-1.4180837,-0.68158174,-1.2926363,-0.018904684,0.05102641,-0.15692951,-0.38426307,-0.34848592,0.059996337,3.0771518,-0.62646234,-4.3740278e-05,-0.055269342,0.0022057367,0.00017125304,-0.02452483,0.009054055,-0.006244883,0.47401997,-1.4215434,1.9527701,-2.1013992,-1.569599,2.4501383,-0.06587882,0.07456618,-0.083248034,-0.010572433,0.017534655,-0.059589688,-0.21068975,-0.019153614,-9.423578,0.8090337,47.664497,-1.2611363,-2.1924212,-3.2864385,-0.46240115,0.13159189,-0.17058817,27.9375,29.125,28.3125,32.1875,34.3125,35.1875
0.12005223,-1.5463151,-0.72730976,-1.1485183,-0.023783714,0.05020691,-0.14866018,-0.384383,-0.34850597,0.060008477,3.0770845,-0.62643117,-9.3962255e-05,-0.056879602,0.0033535163,0.00035035654,-0.025178567,0.009176136,-0.008141932,0.47392255,-1.4213748,1.9525551,-2.1014225,-1.5695633,2.45003,-0.069707416,0.07496425,-0.084143855,-0.010477693,0.01806671,-0.06151985,-0.24899697,0.019153614,-9.404425,0.82022345,47.688675,-1.1257737,-2.1094022,-3.3862834,-0.4649739,0.101424575,-0.16063002,27.9375,29.125,28.3125,32.1875,34.3125,35.1875
0.12205259,-1.6062049,-1.0593656,-1.3799145,-0.017317774,0.045166444,-0.14502543,-0.3844658,-0.34848353,0.060009766,3.0770588,-0.6263859,-9.984991e-05,-0.056403793,0.0022545739,0.00014908674,-0.02614871,0.008210582,-0.004585011,0.47379127,-1.4212904,1.9524583,-2.1014345,-1.569539,2.449874,-0.068152405,0.0761026,-0.08502868,-0.010313386,0.01937496,-0.063521445,-0.36391866,0.0,-9.3661175,0.87393653,47.690468,-1.2419133,-2.140165,-3.3648388,-0.4580909,0.11754701,-0.13778013,27.9375,29.125,28.3125,32.1875,34.3125,35.1875
0.12405213,-1.5919845,-0.69066924,-1.2065682,-0.021768825,0.05047245,-0.14809698,-0.38459507,-0.348475,0.059989072,3.0770085,-0.6264522,-7.8544785e-05,-0.057885237,0.0025043208,0.0004328496,-0.026752474,0.009146573,-0.005803221,0.47363445,-1.4210739,1.9522661,-2.1014707,-1.5695027,2.449765,-0.06999315,0.07719064,-0.0868526,-0.010680168,0.019484896,-0.06414271,-0.40222588,0.076614454,-9.270349,0.8112748,47.703903,-1.2869955,-2.0233552,-3.4485369,-0.46058708,0.13739353,-0.08436003,27.9375,29.125,28.3125,32.1875,34.3125,35.1875
0.12605175,-1.4188627,-1.2144538,-1.368849,-0.0047512627,0.058656856,-0.14504613,-0.38473558,-0.3484848,0.060025793,3.0768757,-0.6264484,-0.00015403244,-0.059987515,0.0043295994,0.0006374353,-0.026605666,0.009880921,-0.0118567655,0.47347677,-1.4209535,1.9520501,-2.1014946,-1.5694307,2.449622,-0.07482085,0.07744521,-0.08759629,-0.010769713,0.019027106,-0.06291396,-0.24899697,0.0,-9.3661175,0.7978386,47.696735,-1.0817109,-2.058467,-3.3739595,-0.45042524,0.14224973,-0.08674454,27.9375,29.125,28.3125,32.1875,34.3125,35.1875
0.12805213,-1.5740567,-0.86063194,-1.2862184,-0.019274887,0.05530181,-0.14389811,-0.3848414,-0.3484784,0.06001499,3.0768428,-0.62643903,-0.00013022924,-0.058763098,0.0037858207,-0.0014749512,-0.02506881,0.005991132,-0.009377627,0.47334555,-1.4207841,1.9518837,-2.101507,-1.569395,2.449489,-0.072982624,0.081279546,-0.08714899,-0.010884577,0.019437164,-0.06355449,-0.38307226,0.038307227,-9.3661175,0.85155696,47.66271,-1.1806575,-2.073222,-3.5410423,-0.45632657,0.15253848,-0.062699266,27.9375,29.125,28.3125,32.1875,34.3125,35.1875
0.13005188,-1.5876851,-1.8088617,-1.2345965,-0.006355772,0.060276516,-0.13790217,-0.3849811,-0.3484774,0.060019806,3.076763,-0.6265038,-0.00019637847,-0.06251781,0.003660759,0.0022431677,-0.028771726,0.012747065,-0.015784906,0.47320038,-1.420605,1.9516786,-2.1015546,-1.5693706,2.4493947,-0.07629212,0.078496926,-0.09257754,-0.010374728,0.019647248,-0.060453236,-0.38307226,0.05746084,-9.308656,0.75084364,47.64927,-1.2050986,-2.0227916,-3.4015803,-0.4436931,0.18353009,-0.062646255,27.9375,29.125,28.3125,32.1875,34.3125,35.1875
0.13205211,-1.4982573,-1.2853256,-1.3554624,-0.014240348,0.06017172,-0.14469238,-0.38512155,-0.34846526,0.060037423,3.0766754,-0.62652564,-0.0002356587,-0.06309065,0.004265255,0.0013433608,-0.028188707,0.011129299,-0.019232571,0.47301984,-1.4204602,1.9514755,-2.1015666,-1.569323,2.449239,-0.07799737,0.08066205,-0.09300449,-0.010403749,0.019870786,-0.058708973,-0.3256114,0.1340753,-9.404425,0.7978386,47.655537,-1.0582252,-1.8513176,-3.4927082,-0.43950522,0.18566978,-0.08255241,27.9375,29.125,28.3125,32.1875,34.3125,35.1875
0.13405266,-1.9584621,-1.0850961,-1.3562088,-0.015975092,0.040932693,-0.1446134,-0.38521853,-0.348447,0.06001597,3.076658,-0.62654245,-0.00017006372,-0.06454706,0.0044172336,0.00083648023,-0.028253583,0.010485196,-0.021379258,0.47287524,-1.4202907,1.9513305,-2.101567,-1.5692862,2.4491072,-0.0797961,0.08378584,-0.09539424,-0.010590581,0.020217758,-0.05835991,-0.2681506,0.15322891,-9.423578,0.8291774,47.709274,-0.97416353,-2.038336,-3.4438977,-0.45292267,0.18806556,-0.08404221,27.9375,29.125,28.3125,32.1875,34.3125,35.1875
0.13605258,-1.9358335,-1.2582917,-1.3617656,-0.024676913,0.048446056,-0.13551465,-0.38536775,-0.3484374,0.060046528,3.0765338,-0.6266909,-0.00019797451,-0.06546507,0.004356763,0.002026422,-0.030480653,0.0119400015,-0.023393326,0.47268295,-1.4201471,1.9510907,-2.1015422,-1.5692257,2.4490235,-0.08134387,0.08232346,-0.096502945,-0.010326725,0.021544334,-0.057892203,-0.45968673,0.11492168,-9.481039,0.84484416,47.67793,-1.0597211,-1.8247541,-3.4388208,-0.45579112,0.19022213,-0.09272693,27.9375,29.125,28.3125,32.1875,34.3125,35.1875
0.13805191,-1.7994612,-1.4348897,-1.6747673,-0.027509116,0.056893144,-0.14596015,-0.3855047,-0.34844366,0.06006438,3.0764153,-0.6267465,-0.00028343374,-0.06685901,0.004397873,0.0020395452,-0.031243496,0.012092243,-0.02967427,0.4725384,-1.4200023,1.950898,-2.1016023,-1.569178,2.4489288,-0.083047114,0.08420214,-0.098640054,-0.010553943,0.022152621,-0.053310875,-0.5363012,0.11492168,-9.481039,0.79560274,47.690468,-1.0039048,-1.8911682,-3.3933835,-0.4450916,0.20628875,-0.13406475,27.9375,29.125,28.3125,32.1875,34.3125,35.1875
0.14005221,-2.4556983,-1.458864,-1.672454,-0.034383915,0.053250473,-0.13607113,-0.3855927,-0.34840703,0.060009964,3.076428,-0.6268082,-0.0001433398,-0.06773915,0.0046796487,0.0021688938,-0.031378724,0.012184489,-0.03165365,0.47236985,-1.4197978,1.9507908,-2.1016142,-1.5691417,2.4487972,-0.084370896,0.08499926,-0.09995193,-0.010178398,0.022227908,-0.05265652,-0.4405331,0.17238252,-9.691729,0.82694155,47.696735,-0.9486685,-1.8707469,-3.4117293,-0.44019917,0.20883779,-0.16279157,27.9375,29.125,28.3125,32.1875,34.3125,35.1875
0.14205202,-1.7336782,-1.29495,-1.6235837,-0.04570409,0.07374758,-0.14869283,-0.3857439,-0.34841365,0.0600397,3.0763257,-0.62686414,-0.00019786319,-0.06889213,0.0050717597,0.0019111944,-0.03163219,0.011602794,-0.033869904,0.47221306,-1.4196292,1.9505271,-2.1016018,-1.5690941,2.4486885,-0.086397566,0.08683036,-0.10149995,-0.010054782,0.022723181,-0.05246416,-0.4213795,0.1340753,-9.672575,0.8247004,47.711964,-0.9059401,-1.8228588,-3.4130225,-0.44128692,0.21416125,-0.18144244,27.9375,29.125,28.3125,32.1875,34.3125,35.1875
0.14405254,-2.0348222,-1.5217155,-1.4721662,-0.039541725,0.062177524,-0.14527988,-0.385906,-0.34837943,0.060041834,3.0762339,-0.6270777,-0.00025770854,-0.070035465,0.0054000095,0.001680943,-0.031877376,0.011160376,-0.036082055,0.4719966,-1.4194485,1.9503235,-2.101638,-1.5690812,2.4486172,-0.0882509,0.08865679,-0.10309206,-0.010002984,0.02314732,-0.052102994,-0.36391866,0.22984336,-9.557653,0.8717007,47.690468,-0.84666216,-1.6531644,-3.4148457,-0.43705702,0.2341943,-0.2089997,27.9375,29.125,28.3125,32.1875,34.3125,35.1875
0.14605181,-2.001932,-1.6410425,-1.7088037,-0.033005133,0.05294938,-0.13878171,-0.3860441,-0.34837693,0.06006029,3.0761304,-0.6270954,-0.00029940376,-0.07135454,0.005417935,0.00088620145,-0.031652756,0.010132956,-0.036972404,0.471828,-1.4193027,1.9501199,-2.101662,-1.5690216,2.448473,-0.089620866,0.09242295,-0.10553509,-0.010302027,0.02341734,-0.052578904,-0.38307226,0.2681506,-9.557653,0.8717007,47.677036,-0.8003433,-1.8082001,-3.3910804,-0.44974995,0.24481538,-0.2229933,27.9375,29.125,28.3125,32.1875,34.3125,35.1875
0.14805226,-1.8061376,-1.3808467,-1.7687595,-0.032632828,0.05737451,-0.14308268,-0.3861913,-0.34838107,0.060054895,3.0760064,-0.62722474,-0.00027430416,-0.073042735,0.006193663,0.00031311743,-0.031846285,0.009425424,-0.040107984,0.47164696,-1.4190857,1.9498919,-2.1016982,-1.5689372,2.4483886,-0.09280785,0.09505684,-0.107156694,-0.010764956,0.023913411,-0.052627917,-0.40222588,0.22984336,-9.672575,0.78217715,47.687782,-0.8168998,-1.8288045,-3.3663096,-0.43991506,0.255937,-0.25177658,27.9375,29.125,28.3125,32.1875,34.3125,35.1875
0.15005259,-1.9007356,-1.4606224,-1.6148611,-0.033667725,0.05651206,-0.14445966,-0.38632637,-0.3483427,0.06004146,3.075987,-0.6273536,-0.00025957712,-0.073073015,0.004401148,0.00087170315,-0.033575658,0.010609031,-0.03696676,0.47145593,-1.4188933,1.9496993,-2.1016862,-1.5689367,2.4482806,-0.090271905,0.095871225,-0.10925402,-0.011319954,0.024915427,-0.053232178,-0.38307226,0.17238252,-9.576807,0.8560339,47.66987,-0.85677385,-2.0191464,-3.3516097,-0.42512918,0.2635775,-0.2794534,27.9375,29.125,28.3125,32.1875,34.3125,35.1875
0.15205249,-1.9871917,-1.4073757,-1.3206544,-0.033087526,0.06319025,-0.14580153,-0.38651016,-0.34835207,0.060078688,3.0757966,-0.6274693,-0.00036788912,-0.07579682,0.0037541292,0.0020377776,-0.036236536,0.012645813,-0.038492013,0.47125122,-1.4187244,1.9494346,-2.1017463,-1.5688523,2.4481726,-0.092483774,0.09793214,-0.11427049,-0.011381638,0.026365101,-0.053911828,-0.4213795,0.24899697,-9.442732,0.83589023,47.668976,-0.956897,-1.8532853,-3.260611,-0.42545128,0.26405177,-0.28561324,27.9375,29.125,28.3125,32.1875,34.3125,35.1875
0.15405294,-1.5420457,-0.9725025,-1.3947977,-0.037012096,0.07209016,-0.14165707,-0.38665026,-0.34833518,0.06006686,3.0757256,-0.62760806,-0.00035867025,-0.07558858,0.0040961835,0.00029864078,-0.035454474,0.009251588,-0.03910233,0.47107074,-1.4185189,1.9492315,-2.1017702,-1.5688161,2.448088,-0.09341004,0.10111263,-0.11393815,-0.011510764,0.02721576,-0.054226678,-0.30645782,0.2681506,-9.32781,0.8314132,47.703007,-0.715254,-2.077954,-3.1543927,-0.42525265,0.26511797,-0.29973757,27.9375,29.125,28.3125,32.1875,34.3125,35.1875
0.15605193,-1.897148,-1.3971084,-1.4382719,-0.028653905,0.057654858,-0.14277235,-0.38680977,-0.34834242,0.060084812,3.0756307,-0.62762594,-0.00044266303,-0.077074304,0.0023612592,0.001768227,-0.037575174,0.012325203,-0.037641305,0.47091544,-1.4183265,1.9489783,-2.1018069,-1.5687798,2.447956,-0.09196342,0.10213086,-0.11841839,-0.011745538,0.02770998,-0.05423592,-0.24899697,0.30645782,-9.404425,0.8403672,47.696735,-1.0353682,-1.9416065,-3.0871506,-0.4197354,0.25165778,-0.35921538,27.9375,29.125,28.3125,32.1875,34.3125,35.1875
0.15805222,-1.3184029,-1.6789107,-1.2935752,-0.028167298,0.07162167,-0.15020356,-0.3869555,-0.34833273,0.06008258,3.0755434,-0.6277615,-0.0004368154,-0.077036336,0.0027600382,0.0011330124,-0.036671467,0.011193471,-0.037596963,0.47073537,-1.4181218,1.9487513,-2.1018178,-1.5687321,2.447872,-0.09240973,0.10317544,-0.11823129,-0.011549114,0.027426446,-0.054725792,-0.28730422,0.28730422,-9.346964,0.81351066,47.693153,-1.0058098,-1.9780922,-3.1534286,-0.41945213,0.2701251,-0.37791508,27.9375,29.125,28.3125,32.1875,34.3125,35.1875
0.16005251,-1.2574368,-1.3191979,-1.0159425,-0.0368905,0.058304716,-0.14765254,-0.38713145,-0.34830013,0.060083006,3.0754604,-0.6278404,-0.0004739594,-0.07809413,0.0026121682,0.0011247267,-0.037055485,0.011314283,-0.037826717,0.4704949,-1.4179171,1.9485239,-2.101854,-1.5686959,2.4476914,-0.09324396,0.104998544,-0.12031948,-0.01155707,0.027720205,-0.055327274,-0.21068975,0.28730422,-9.289502,0.8537928,47.678825,-1.0153582,-2.073079,-3.149915,-0.41157502,0.2993914,-0.38508952,27.9375,29.125,28.3125,32.1875,34.3125,35.1875
0.16205192,-1.2361423,-1.6874763,-1.2579763,-0.033651672,0.04663862,-0.13692795,-0.3872813,-0.34829968,0.060089648,3.0753458,-0.6279897,-0.00051329436,-0.07853738,0.0022302864,0.0012522264,-0.03811922,0.0111425165,-0.037602067,0.47032702,-1.4177248,1.9482964,-2.1018898,-1.5686473,2.4476316,-0.09359244,0.10579349,-0.121566795,-0.011428885,0.028753437,-0.05589726,-0.17238252,0.34476504,-9.251195,0.8224646,47.691364,-1.1333716,-1.9349773,-3.046175,-0.38215506,0.29636338,-0.4334801,27.9375,29.125,28.3125,32.1875,34.3125,35.1875
0.16405217,-0.603176,-1.6488751,-1.1553916,-0.045586202,0.036283255,-0.1525553,-0.38744456,-0.3483097,0.060118046,3.0752294,-0.6280618,-0.0005574432,-0.08005027,0.0023523252,0.0012857782,-0.038762115,0.01100425,-0.038192075,0.47015825,-1.4175317,1.9480075,-2.101878,-1.5685872,2.4475229,-0.09554496,0.10791404,-0.12416391,-0.011111616,0.02939642,-0.05725549,-0.076614454,0.36391866,-9.251195,0.7777002,47.694946,-1.1218548,-1.9468144,-3.02254,-0.40143853,0.31502765,-0.44208962,27.9375,29.125,28.3125,32.1875,34.3125,35.1875
0.16605242,-0.78527415,-1.8357295,-1.1322058,-0.043531105,0.009941438,-0.14185518,-0.3876079,-0.34829938,0.06010876,3.0751374,-0.6281769,-0.00053920347,-0.0796207,0.0031580348,-8.879924e-05,-0.037596423,0.008283728,-0.037883542,0.4699538,-1.417291,1.9477581,-2.1019018,-1.5685276,2.4474022,-0.096664995,0.10943331,-0.12281954,-0.0110100545,0.029602645,-0.05868349,-0.095768064,0.2681506,-9.174581,0.87617236,47.683304,-1.096469,-1.9197853,-3.1900582,-0.4098701,0.32058087,-0.4618333,27.9375,29.125,28.3125,32.1875,34.3125,35.1875
0.16805173,-0.7000509,-1.6840816,-0.9342052,-0.04722044,0.0034807823,-0.14166267,-0.3877825,-0.3483014,0.06010204,3.0750136,-0.62822425,-0.0005175796,-0.0808624,0.0029233892,5.205904e-06,-0.03757235,0.008698971,-0.032972254,0.4697378,-1.417038,1.9474939,-2.1019495,-1.5684317,2.4472318,-0.09719365,0.11161417,-0.1256275,-0.010717612,0.02940827,-0.06412029,0.038307227,0.30645782,-9.174581,0.84484416,47.653748,-1.1579696,-2.0281503,-3.0182981,-0.39341307,0.32595354,-0.4435295,27.9375,29.125,28.3125,32.1875,34.3125,35.1875
0.1700519,-0.19327447,-1.1391841,-0.7136945,-0.048028618,0.011554618,-0.14414002,-0.38795865,-0.3483005,0.060126916,3.0749218,-0.6283212,-0.00062349957,-0.08158764,0.0036090286,-0.0004625963,-0.03802465,0.0074481596,-0.032873545,0.46956873,-1.4168335,1.9472054,-2.1019619,-1.5684189,2.4471352,-0.099645,0.11276721,-0.12591486,-0.010664654,0.030393222,-0.066666506,0.076614454,0.28730422,-9.136273,0.8605109,47.661808,-0.9335958,-1.94543,-3.2244682,-0.40429652,0.35126877,-0.4213326,27.9375,29.125,28.3125,32.1875,34.3125,35.1875
0.17205215,-0.16494273,-0.7315562,-0.5679734,-0.04272476,0.011547595,-0.16051228,-0.38812467,-0.34827903,0.06011626,3.0748487,-0.6284383,-0.00065680285,-0.08184645,0.002367015,1.6996702e-06,-0.039924208,0.008120273,-0.028205939,0.4693652,-1.4166048,1.946978,-2.1020095,-1.5683945,2.4470143,-0.09853518,0.11340331,-0.12764338,-0.011020186,0.031794913,-0.07022079,0.17238252,0.2681506,-9.11712,0.8873621,47.670765,-1.2087547,-2.074433,-3.1704159,-0.38381076,0.36142427,-0.42381424,27.9375,29.125,28.3125,32.1875,34.3125,35.1875
0.17405243,-0.77631396,-1.2168905,-0.5955142,-0.024047773,-0.0038353044,-0.14723115,-0.38829428,-0.34827074,0.060128976,3.0747166,-0.62852407,-0.00063545594,-0.082938336,0.0038047417,-0.0008311039,-0.040455084,0.0058174734,-0.025716277,0.46913555,-1.4164006,1.9467148,-2.1020095,-1.5682982,2.4468553,-0.102996886,0.11493662,-0.12757686,-0.01078134,0.033336617,-0.077168845,0.17238252,0.24899697,-9.097966,0.8403672,47.704796,-0.91612065,-1.8673248,-3.2195902,-0.38281634,0.34974307,-0.34066802,27.9375,29.125,28.3125,32.1875,34.3125,35.1875
0.17605205,-0.35480714,-0.9523893,-0.528549,-0.013031204,0.0019224853,-0.14552306,-0.38846985,-0.34826967,0.060139325,3.074605,-0.6284787,-0.00065501884,-0.083119,0.0022812188,0.0001680767,-0.04207441,0.00787432,-0.020181445,0.46892077,-1.4161843,1.9464511,-2.1020453,-1.5682133,2.4466267,-0.1007515,0.114708506,-0.12952651,-0.011150434,0.033866007,-0.08045413,0.1340753,0.17238252,-9.002198,0.84708,47.64479,-1.1804748,-1.906735,-3.2911057,-0.38398463,0.34791028,-0.31103998,27.9375,29.125,28.3125,32.1875,34.3125,35.1875
0.17805238,-0.13192452,-0.99871343,-0.59887445,0.0037384697,0.002441919,-0.14753152,-0.38864046,-0.34829408,0.060145337,3.074482,-0.62847084,-0.0007136702,-0.08366729,0.003111563,-0.0013124457,-0.04163543,0.0046189884,-0.018527983,0.46876377,-1.4159427,1.9461764,-2.1021173,-1.5681413,2.4464808,-0.1033715,0.1178882,-0.1298977,-0.010838671,0.034968406,-0.08472235,0.22984336,0.21068975,-9.002198,0.8493211,47.74241,-1.1325364,-1.9792076,-3.3263297,-0.39207086,0.34896368,-0.26515293,27.9375,29.125,28.3125,32.1875,34.3125,35.1875
0.18005177,-0.6709191,-0.7440544,-0.90736157,0.0055459314,-0.013441501,-0.14862897,-0.38881835,-0.34827557,0.06016587,3.074415,-0.6284743,-0.00075060106,-0.08460121,0.002525014,-0.00069851446,-0.043227952,0.0048848884,-0.015348215,0.46854755,-1.4157383,1.9458894,-2.102093,-1.5681051,2.4462755,-0.103966504,0.118793055,-0.13253623,-0.010046008,0.03628508,-0.08849239,0.19153613,0.19153613,-9.097966,0.8314132,47.681515,-1.1514009,-1.9378077,-3.3106246,-0.38390142,0.3341726,-0.19922966,27.9375,29.125,28.3125,32.1875,34.3125,35.1875
0.18205206,-0.24524386,-0.5344747,-0.66118646,-0.005488293,0.0025501426,-0.14744341,-0.38897574,-0.34825528,0.06014684,3.074347,-0.62853676,-0.0007056549,-0.08457839,0.0029398927,-0.001757673,-0.04239507,0.0027245001,-0.014380571,0.4683314,-1.4154974,1.9456614,-2.1021168,-1.568045,2.4461071,-0.104783624,0.12080089,-0.13252455,-0.009744857,0.03652855,-0.09027632,0.11492168,0.076614454,-9.078813,0.92093146,47.704796,-1.156939,-1.9739659,-3.3643856,-0.3839575,0.33556604,-0.15366773,27.9375,29.125,28.3125,32.1875,34.3125,35.1875
0.18405262,-0.5328985,-0.6923172,-0.80993766,-0.013586504,0.010000956,-0.14593916,-0.3891091,-0.34824914,0.060116135,3.074288,-0.6286022,-0.00055123895,-0.08542495,0.0034844691,-0.002132659,-0.041952744,0.0016980424,-0.016197955,0.46813864,-1.4152325,1.9454216,-2.1020925,-1.5679487,2.445963,-0.10650293,0.12253743,-0.13386275,-0.009012303,0.03659518,-0.09017927,0.019153614,0.15322891,-9.136273,0.84708,47.705692,-1.1315304,-1.9458449,-3.3325691,-0.38632083,0.34926337,-0.11363137,27.9375,29.125,28.3125,32.1875,34.3125,35.1875
0.18605235,-0.879668,-0.8307701,-0.97092974,-0.031898238,0.025755964,-0.14883366,-0.38926086,-0.34824395,0.06009647,3.074225,-0.6285896,-0.00049465965,-0.086812705,0.0025699073,-0.0010752992,-0.044403844,0.002405803,-0.017686857,0.46794644,-1.41498,1.9451817,-2.1021163,-1.5678762,2.445771,-0.107282564,0.12356245,-0.13772845,-0.007904019,0.03846082,-0.08946577,-0.019153614,0.19153613,-9.232041,0.8672237,47.698532,-1.1711416,-1.978612,-3.312151,-0.4020945,0.35422337,-0.12197092,27.9375,29.125,28.3125,32.1875,34.3125,35.1875
0.18805276,-1.1904998,-1.2508264,-1.24665,-0.0410769,0.035246328,-0.1490162,-0.38944912,-0.34824133,0.060105182,3.074121,-0.6285894,-0.00048311302,-0.08576311,0.0025957474,-0.00196048,-0.044887565,-0.00078988617,-0.02058601,0.46771845,-1.4147273,1.9448713,-2.1021159,-1.5677918,2.4455564,-0.10753094,0.12408836,-0.13655317,-0.00696883,0.0403412,-0.08681131,-0.15322891,0.24899697,-9.385271,0.8179876,47.696735,-1.2136841,-2.0015693,-3.5249093,-0.4358584,0.3135355,-0.10052255,27.9375,29.125,28.3125,32.1875,34.3125,35.1875
0.19005223,-1.1465567,-1.1364561,-1.0966235,-0.05894818,0.057530686,-0.14728183,-0.38959923,-0.3482455,0.060100153,3.0739982,-0.6286449,-0.0003932122,-0.08700579,0.0030745675,-0.0032749127,-0.04597779,-0.004334775,-0.028806616,0.4675132,-1.4144977,1.944619,-2.1021159,-1.5676707,2.4454017,-0.111084096,0.12822153,-0.13842307,-0.0065632565,0.04290241,-0.08213846,-0.40222588,0.22984336,-9.404425,0.8157518,47.65912,-1.0930886,-1.8998126,-3.369957,-0.42805785,0.29391494,-0.13297716,27.9375,29.125,28.3125,32.1875,34.3125,35.1875
0.1920521,-1.9594203,-1.5455242,-1.4866432,-0.043978434,0.062450744,-0.13633665,-0.38979077,-0.3482403,0.060100418,3.0738604,-0.628771,-0.00042682834,-0.08806363,0.0014055353,-0.0010707108,-0.049654685,-0.0009421402,-0.029787967,0.46728563,-1.4142462,1.944343,-2.102176,-1.5675982,2.4452708,-0.11014604,0.12668513,-0.14174053,-0.0063910875,0.044655558,-0.080211945,-0.5363012,0.28730422,-9.442732,0.8672237,47.689575,-1.2552993,-1.8882732,-3.37876,-0.43339944,0.27005333,-0.17039287,27.9375,29.125,28.3125,32.1875,34.3125,35.1875
0.19405255,-2.215192,-1.6077229,-1.8282311,-0.03974923,0.07964737,-0.14090465,-0.38993588,-0.3482342,0.06008989,3.0737715,-0.6288157,-0.00027974023,-0.09038928,0.0030560049,-0.001048126,-0.0494845,-0.00073082506,-0.039973307,0.4670679,-1.4140055,1.9440793,-2.1021278,-1.5674785,2.4450924,-0.1149192,0.1280912,-0.14348944,-0.0061570443,0.044393104,-0.07480025,-0.49799395,0.24899697,-9.576807,0.8403672,47.691364,-0.9721218,-1.8493044,-3.368213,-0.4622475,0.2437971,-0.21538123,27.9375,29.125,28.3125,32.1875,34.3125,35.1875
0.19605193,-2.7372043,-1.3997103,-1.5686294,-0.04756901,0.09076955,-0.14215669,-0.39012313,-0.34822437,0.060101755,3.0736258,-0.6289771,-0.0002836986,-0.089815535,0.002228583,-0.0017777993,-0.05043277,-0.0026785797,-0.040508203,0.4668283,-1.4137768,1.9437917,-2.1021392,-1.5673937,2.4449725,-0.11398884,0.12976907,-0.14375697,-0.006248828,0.04612202,-0.07332926,-0.7469909,0.3256114,-9.557653,0.92093146,47.681515,-1.1945279,-1.885587,-3.3618345,-0.4889184,0.22688477,-0.26216745,27.9375,29.125,28.3125,32.1875,34.3125,35.1875
0.1980522,-2.6327972,-1.7017657,-1.5065162,-0.05711578,0.107778415,-0.14680976,-0.39029676,-0.34823567,0.060096152,3.0735192,-0.6290318,-0.00019356715,-0.092898384,0.002178369,-0.00063944154,-0.053694237,-0.00038580716,-0.04060195,0.46662295,-1.4134879,1.943467,-2.1021159,-1.567285,2.4448152,-0.117805876,0.13122663,-0.14786178,-0.007093418,0.048008002,-0.07704725,-0.8236054,0.30645782,-9.595961,0.8873621,47.71554,-1.056369,-1.8330798,-3.307156,-0.49105877,0.17756134,-0.25844234,27.9375,29.125,28.3125,32.1875,34.3125,35.1875
0.20005253,-2.6653504,-1.9876006,-1.8951235,-0.056944024,0.11133434,-0.14856221,-0.39049324,-0.3482433,0.060088757,3.0733886,-0.62908435,-0.00021271285,-0.093880594,0.0024891673,-0.00060813903,-0.054682173,0.00012230212,-0.04483706,0.46640643,-1.4131995,1.9431685,-2.1021879,-1.5672005,2.4446485,-0.11958217,0.13175863,-0.1483646,-0.008014565,0.048663046,-0.07458319,-0.8810662,0.28730422,-9.749189,0.8179876,47.716442,-0.9359689,-1.7898281,-3.3667407,-0.48887187,0.1581747,-0.2810406,27.9375,29.125,28.3125,32.1875,34.3125,35.1875
0.20205261,-2.838188,-1.9930984,-1.8060997,-0.06031942,0.09844602,-0.13821952,-0.39068067,-0.3482098,0.060075086,3.0732617,-0.62932605,-0.00011945534,-0.09536104,0.0022447994,-4.465316e-05,-0.056153342,0.001158461,-0.04568611,0.46611798,-1.4129348,1.9428924,-2.1021764,-1.5671042,2.4445274,-0.12094571,0.13286442,-0.15092315,-0.008128616,0.049514353,-0.07509517,-0.842759,0.2681506,-9.883265,0.7777002,47.65912,-0.96312624,-1.7324634,-3.3685112,-0.48905012,0.116873935,-0.31325856,27.9375,29.125,28.3125,32.1875,34.3125,35.1875
0.20405191,-2.593013,-1.3355678,-1.7112083,-0.063742645,0.09774134,-0.14173996,-0.39086857,-0.34820855,0.060072765,3.0731752,-0.62932694,-0.000106511674,-0.09649074,0.0022149778,-0.0010222133,-0.055058785,0.00040137043,-0.045531906,0.46590197,-1.412657,1.9425806,-2.1021879,-1.5670327,2.4443233,-0.1214292,0.13688569,-0.15324436,-0.008639842,0.048881266,-0.07572984,-0.9002198,0.17238252,-9.825804,0.8560339,47.69763,-0.96334887,-1.9537084,-3.3497825,-0.5051582,0.10080007,-0.31653744,27.9375,29.125,28.3125,32.1875,34.3125,35.1875
0.20605253,-2.8258502,-1.3313198,-1.8536063,-0.02241026,0.08754358,-0.14570133,-0.39108232,-0.34822378,0.060069215,3.0729697,-0.62953424,-2.8204338e-05,-0.09773797,0.0019380548,4.599003e-06,-0.056277625,0.0033081695,-0.04629177,0.4656381,-1.4123331,1.9422215,-2.1022122,-1.5668768,2.4442155,-0.12183344,0.13635157,-0.15475754,-0.009712911,0.048669443,-0.07537098,-0.80445176,0.0,-9.691729,0.8605109,47.698532,-1.1040434,-1.7798193,-3.2919147,-0.49869853,0.08953843,-0.34211713,27.9375,29.125,28.3125,32.1875,34.3125,35.1875
0.20805526,-2.3111951,-0.54475003,-1.8085678,-0.0077177426,0.10158686,-0.14398345,-0.39129803,-0.34822288,0.060093872,3.0728083,-0.629635,-0.00011864885,-0.0986765,0.0012589504,-0.0007820556,-0.056836333,0.002954094,-0.045163665,0.46539766,-1.4120914,1.9418982,-2.1022608,-1.5668043,2.4440591,-0.12182462,0.13991074,-0.15675193,-0.011192966,0.049339928,-0.07648119,-0.63206923,0.038307227,-9.710882,0.8627467,47.661808,-1.0537856,-2.068441,-3.312355,-0.50173295,0.048941273,-0.3567138,27.9375,29.125,28.3125,32.1875,34.3125,35.1875
0.21005253,-2.0400224,-0.41972032,-1.608665,0.0058128936,0.101561464,-0.13930449,-0.39150357,-0.34819332,0.060088836,3.0726886,-0.62974447,-9.70577e-05,-0.10034471,0.0022460208,-0.0019027398,-0.055982742,0.002588322,-0.046040807,0.46510887,-1.4118261,1.9416097,-2.1022851,-1.5667208,2.4438543,-0.12459401,0.14324054,-0.15769254,-0.01284214,0.048752908,-0.078370996,-0.4213795,0.038307227,-9.672575,0.85826975,47.65912,-1.0973186,-2.046179,-3.2659976,-0.48863393,0.02727888,-0.36175746,27.9375,29.125,28.3125,32.1875,34.3125,35.1875
0.2120519,-1.9495883,-0.48004025,-1.6872085,0.011129199,0.078357704,-0.14353427,-0.39170587,-0.34821016,0.060098927,3.0725138,-0.6298388,-9.508426e-05,-0.10053879,0.0019051018,-0.0025692838,-0.054844722,0.0024646334,-0.041654397,0.46488145,-1.411549,1.941276,-2.1023214,-1.5666007,2.4437087,-0.12348624,0.1455068,-0.15867883,-0.013464108,0.04781166,-0.08164608,-0.30645782,0.0,-9.5385,0.88960326,47.67614,-1.0424328,-2.169581,-3.385528,-0.46848118,0.039004114,-0.346719,27.9375,29.125,28.3125,32.1875,34.3125,35.1875
0.21405217,-1.4275367,-0.49517822,-1.5264575,0.001753948,0.06450271,-0.14205849,-0.39190802,-0.348204,0.060091045,3.0724015,-0.62993014,-0.00012740736,-0.10296258,0.0023627963,-0.0015255433,-0.05407526,0.0055798334,-0.03895271,0.4646528,-1.4112604,1.9409751,-2.1023815,-1.5665416,2.4435518,-0.12505022,0.146597,-0.16241033,-0.013222071,0.045746483,-0.085910454,-0.22984336,-0.038307227,-9.557653,0.8247004,47.70838,-1.158126,-2.099468,-3.2946274,-0.4683798,0.028617375,-0.32049733,27.9375,29.125,28.3125,32.1875,34.3125,35.1875
0.21605273,-1.5019292,-0.59588796,-1.1539482,-0.008151781,0.040552363,-0.1434261,-0.39213574,-0.3482032,0.06013387,3.0722241,-0.629986,-0.00021044287,-0.10360749,0.0042200373,-0.002454794,-0.05071344,0.0050682654,-0.035866924,0.46438822,-1.4110318,1.940617,-2.1023934,-1.5664467,2.4433453,-0.12705548,0.14779721,-0.16174655,-0.01307132,0.043009073,-0.09100094,-0.095768064,-0.038307227,-9.442732,0.8851263,47.68599,-1.1253947,-2.0837922,-3.4382625,-0.45912513,0.04986351,-0.27798828,27.9375,29.125,28.3125,32.1875,34.3125,35.1875
0.21805204,-0.47659823,-0.4841485,-1.379932,-0.012064279,0.046306357,-0.15377524,-0.39234227,-0.34818816,0.060125187,3.0721457,-0.63004404,-0.00022079496,-0.10448537,0.0048546903,-0.0034845325,-0.04805631,0.0044006146,-0.03193589,0.46414798,-1.4107299,1.9402941,-2.1024172,-1.5663995,2.4431517,-0.12756144,0.15110335,-0.16327375,-0.013022717,0.040954906,-0.0954392,-0.05746084,0.0,-9.385271,0.85826975,47.695843,-1.0575526,-2.2155905,-3.3598137,-0.47348776,0.06990537,-0.23840839,27.9375,29.125,28.3125,32.1875,34.3125,35.1875
0.22005233,-0.948703,-0.69982415,-1.2826173,-0.015321722,0.027291985,-0.14263754,-0.39257738,-0.34816033,0.060128774,3.0720458,-0.6301183,-0.00026551457,-0.10526239,0.005428151,-0.0023623777,-0.047876038,0.0073072854,-0.028388334,0.46385977,-1.4104308,1.9399465,-2.1024415,-1.5663518,2.442923,-0.12825076,0.14900036,-0.16338497,-0.01328754,0.039521802,-0.099676624,0.0,0.17238252,-9.346964,0.85826975,47.690468,-1.1065474,-1.9444613,-3.4542935,-0.47445422,0.096922405,-0.15466799,27.9375,29.125,28.3125,32.1875,34.3125,35.1875
0.22205256,-0.918089,-1.1441544,-0.7757233,-0.027333766,0.034515478,-0.14418697,-0.3927795,-0.3481708,0.060128715,3.0718663,-0.6302141,-0.00021504125,-0.10673007,0.00594085,-0.0023410525,-0.046659533,0.007949948,-0.027635511,0.46360743,-1.4101418,1.9396218,-2.1024768,-1.5662087,2.442754,-0.12950309,0.15096328,-0.16585699,-0.012771124,0.03816355,-0.10168079,-0.019153614,0.21068975,-9.212888,0.842603,47.67614,-1.0454477,-2.0221658,-3.3163867,-0.49034235,0.10261847,-0.11910193,27.9375,29.125,28.3125,32.1875,34.3125,35.1875
0.22405209,-0.69949853,-1.2353296,-0.93966293,-0.022823524,0.02966956,-0.14487235,-0.39300415,-0.3481449,0.06011222,3.0718172,-0.6302225,-0.0002764895,-0.10928226,0.0063308626,-0.0015424686,-0.047156744,0.010181945,-0.02813309,0.46335474,-1.409817,1.939298,-2.1025364,-1.5661963,2.4425132,-0.13201872,0.1525336,-0.16950758,-0.01288783,0.03762304,-0.10369603,0.0,0.24899697,-9.11712,0.88289046,47.705692,-1.1380327,-2.03133,-3.3916645,-0.45362282,0.13209254,-0.065559246,27.9375,29.125,28.3125,32.1875,34.3125,35.1875
0.22605173,-0.2642584,-1.0975552,-0.81847715,-0.026766818,0.039743535,-0.15111215,-0.39320856,-0.34814584,0.060117163,3.0716612,-0.63032454,-0.00020777411,-0.10894323,0.005443349,-0.0013244674,-0.046059288,0.010759613,-0.02778365,0.46309158,-1.4095284,1.9389514,-2.102525,-1.5660652,2.4423342,-0.12927917,0.15326364,-0.17107846,-0.012056417,0.036385346,-0.10130646,0.076614454,0.30645782,-9.155427,0.8672237,47.687782,-1.2126607,-2.0064158,-3.3757277,-0.47321752,0.14760342,-0.07456987,27.9375,29.125,28.3125,32.1875,34.3125,35.1875
0.22805202,-0.6635347,-1.3575345,-0.71224654,-0.028809711,0.018826228,-0.1412193,-0.39341867,-0.34811816,0.060095053,3.0715873,-0.63038915,-0.00020472019,-0.11151816,0.0066375323,-0.00028218573,-0.04632677,0.013049336,-0.033826284,0.46282613,-1.4092159,1.9386519,-2.1025722,-1.566017,2.442119,-0.13306993,0.15342918,-0.17377223,-0.011689389,0.03560028,-0.099054076,0.038307227,0.4405331,-9.040505,0.83589023,47.67614,-1.0134478,-1.8903584,-3.2365494,-0.48038924,0.16638997,-0.08115188,27.9375,29.125,28.3125,32.1875,34.3125,35.1875
0.23005247,-0.675037,-1.4858464,-1.0459919,-0.03954595,0.009357383,-0.14097323,-0.3936539,-0.3481077,0.06010803,3.0714393,-0.6305509,-0.00018613561,-0.11197843,0.006099507,-0.00020857666,-0.046964485,0.012855513,-0.036608722,0.46253854,-1.4089034,1.9382561,-2.1025484,-1.5659212,2.4419518,-0.13285193,0.15477104,-0.17562042,-0.011290956,0.036257934,-0.09604906,0.019153614,0.5746084,-8.944737,0.8493211,47.651955,-1.1482475,-1.815412,-3.2181897,-0.473211,0.18336335,-0.10033001,27.9375,29.125,28.3125,32.1875,34.3125,35.1875
0.23205191,-0.6251773,-1.9712608,-1.1563071,-0.05131691,0.018859902,-0.13602842,-0.39386806,-0.34809598,0.06009922,3.0713594,-0.63057643,-0.00020906959,-0.11275503,0.0065545775,-0.0012511892,-0.046898402,0.0101344315,-0.042272717,0.46229765,-1.4085896,1.9379219,-2.1025836,-1.5658726,2.4417374,-0.13498887,0.15796676,-0.17716607,-0.010483689,0.037410248,-0.09251616,0.0,0.5746084,-9.155427,0.8851263,47.67614,-1.069954,-1.9575797,-3.2803822,-0.49151903,0.20210047,-0.11116581,27.9375,29.125,28.3125,32.1875,34.3125,35.1875
0.23405209,-1.2690434,-2.64045,-1.0739672,-0.05891339,0.017181518,-0.13460307,-0.39410242,-0.34808266,0.060133077,3.071232,-0.6307239,-0.0003105491,-0.11451526,0.007549833,-0.00013901474,-0.04584963,0.013279023,-0.04719507,0.46204516,-1.4083264,1.937538,-2.1025717,-1.5658377,2.441594,-0.13670447,0.15716355,-0.17884311,-0.010344904,0.035071034,-0.08931081,-0.11492168,0.47884035,-9.11712,0.900793,47.70032,-1.121284,-1.7778275,-3.2031775,-0.51415265,0.23676935,-0.1928515,27.9375,29.125,28.3125,32.1875,34.3125,35.1875
0.23605184,-1.4945158,-2.3539011,-1.1511244,-0.06745057,0.023875536,-0.13807292,-0.39434177,-0.34806502,0.06012498,3.0711262,-0.6308184,-0.0002972599,-0.11534889,0.007596072,0.00024665557,-0.04581366,0.013839651,-0.05010827,0.46175706,-1.4079776,1.9371561,-2.1025832,-1.5657657,2.4413788,-0.1372403,0.15782624,-0.18070114,-0.009629439,0.034790255,-0.0869319,-0.11492168,0.5363012,-9.174581,0.86498255,47.690468,-1.1294652,-1.8464911,-3.1975136,-0.5263629,0.2693141,-0.22841111,27.9375,29.125,28.3125,32.1875,34.3125,35.1875
0.23805207,-1.3679945,-2.1977682,-1.0298957,-0.061744936,0.045157652,-0.13868645,-0.3945715,-0.3480373,0.060099684,3.0709944,-0.63108194,-0.00020257366,-0.11732775,0.008070108,0.00021333001,-0.04817608,0.012735542,-0.056507416,0.46144384,-1.4076161,1.9367961,-2.1025832,-1.5656685,2.4412475,-0.14137386,0.16002543,-0.18328513,-0.009309251,0.037393205,-0.0846582,-0.19153613,0.5554548,-9.193734,0.9634547,47.67345,-1.0579041,-1.7450526,-3.1679523,-0.5368593,0.27131575,-0.26154593,27.9375,29.125,28.3125,32.1875,34.3125,35.1875
0.24005271,-1.6123304,-1.9317973,-1.0262158,-0.052051786,0.05236069,-0.14500196,-0.39480528,-0.348035,0.060100745,3.0708494,-0.6311264,-0.00025459589,-0.11711733,0.006940241,0.00026887,-0.05009596,0.013165807,-0.054070108,0.46118018,-1.4073038,1.9364494,-2.1026561,-1.5655841,2.4410307,-0.14008807,0.16033229,-0.18350163,-0.0106220525,0.03894,-0.08580137,-0.19153613,0.34476507,-9.174581,0.90750587,47.693153,-1.0037755,-1.8062837,-3.3627849,-0.5462233,0.2750761,-0.2919825,27.9375,29.125,28.3125,32.1875,34.3125,35.1875
0.24205224,-1.129249,-1.2300645,-1.0865424,-0.04042022,0.06415493,-0.14566574,-0.3950282,-0.34803578,0.0600923,3.070735,-0.6312602,-0.00023947653,-0.11840819,0.007432437,-0.00037023617,-0.051447116,0.011876105,-0.059992224,0.4609389,-1.4069545,1.9360675,-2.1026676,-1.5655111,2.4408882,-0.14312814,0.16261263,-0.18457957,-0.011275955,0.040719736,-0.08291186,-0.30645782,0.26815057,-9.308656,0.89631605,47.68062,-0.8478576,-1.8083797,-3.3022738,-0.52888894,0.26718217,-0.33249378,27.9375,29.125,28.3125,32.1875,34.3125,35.1875
0.24405287,-1.7577465,-1.2425778,-1.0905111,-0.012151464,0.058775738,-0.12986596,-0.39527136,-0.34803033,0.060096774,3.070533,-0.6314484,-0.00025451448,-0.11824791,0.0071117384,-0.0026289017,-0.050648134,0.007724195,-0.060755216,0.4606391,-1.4066408,1.9357084,-2.1027277,-1.565391,2.4407325,-0.14304547,0.16787767,-0.18551904,-0.011513616,0.0418621,-0.08205752,-0.4213795,0.095768064,-9.270349,0.92093146,47.694054,-1.0346543,-1.9229131,-3.2516804,-0.5609646,0.2802495,-0.39618462,27.9375,29.125,28.3125,32.1875,34.3125,35.1875
0.24605265,-1.4882805,0.22820261,-0.91414934,-0.009785401,0.074977905,-0.1422951,-0.39549914,-0.34801057,0.0600793,3.0704384,-0.6315034,-0.0002056321,-0.11959298,0.0071225744,-0.0012982225,-0.051494457,0.011081776,-0.05935595,0.4603509,-1.406293,1.9353489,-2.1027405,-1.565307,2.4404912,-0.14368328,0.16668214,-0.18707982,-0.012108795,0.041143194,-0.08409526,-0.49799395,0.095768064,-9.136273,0.8851263,47.67614,-1.0389099,-1.7983848,-3.2132244,-0.5324244,0.29434842,-0.41474843,27.9375,29.125,28.3125,32.1875,34.3125,35.1875
0.24805251,-1.6616611,0.22792447,-1.0342214,0.01899894,0.07732928,-0.148353,-0.39571676,-0.34801063,0.06005721,3.0703058,-0.6317448,-0.00012401663,-0.120007075,0.0066387425,-0.0017146574,-0.051957883,0.010236941,-0.06013691,0.460099,-1.4059198,1.9349674,-2.1027405,-1.5652112,2.4404075,-0.14360504,0.1688364,-0.18868308,-0.0120976865,0.04193526,-0.08323252,-0.38307226,0.038307227,-9.32781,0.8537928,47.67166,-1.0992566,-1.9683352,-3.2572432,-0.5424833,0.29587933,-0.47897202,27.9375,29.125,28.3125,32.1875,34.3125,35.1875
0.25005168,-1.2994845,0.1984114,-1.1255249,0.008979518,0.09435615,-0.15430814,-0.39595434,-0.347982,0.06005062,3.0701754,-0.6319077,-9.9362e-05,-0.12094726,0.0066326475,-0.0022438539,-0.053134657,0.008916556,-0.058207296,0.45978642,-1.4055943,1.9346083,-2.102752,-1.5651263,2.440214,-0.1453709,0.17124541,-0.19028673,-0.012207447,0.04360202,-0.08692035,-0.4405331,-0.15322891,-9.3661175,0.91421866,47.66091,-1.1106982,-2.038302,-3.3843193,-0.5266462,0.29776603,-0.47769848,27.9375,29.125,28.3125,32.1875,34.3125,35.1875
0.252052,-1.9692281,-0.24743146,-1.2388991,0.006841211,0.07696201,-0.1449777,-0.39621782,-0.3479684,0.060061518,3.070022,-0.63204616,-0.00016174876,-0.121697515,0.0072970074,-0.0031438349,-0.052476346,0.0070132394,-0.054579902,0.45948598,-1.4052573,1.9342016,-2.1027877,-1.5650543,2.4400203,-0.14726776,0.17384203,-0.19143495,-0.01160871,0.043898422,-0.092438616,-0.38307226,-0.17238252,-9.3661175,0.86498255,47.66808,-1.0880502,-2.0233164,-3.356884,-0.5486849,0.32480937,-0.44840306,27.9375,29.125,28.3125,32.1875,34.3125,35.1875
0.25405255,-2.288167,-0.4633442,-1.4733192,-0.0013577207,0.06365949,-0.13476202,-0.39646637,-0.34795597,0.060045402,3.0698864,-0.6322257,-0.00011101318,-0.12310127,0.007905955,-0.0032742873,-0.052254204,0.006688894,-0.05042831,0.45918542,-1.4048721,1.9337949,-2.1027992,-1.564958,2.4398499,-0.14943975,0.17577687,-0.19359562,-0.0109354155,0.043880433,-0.098760016,-0.45968673,-0.11492168,-9.481039,0.88960326,47.690468,-1.0691987,-2.1518426,-3.3880997,-0.5630803,0.3195477,-0.4032198,27.9375,29.125,28.3125,32.1875,34.3125,35.1875
0.256053,-1.9153512,-0.6782819,-1.2424778,-0.0111142695,0.08027196,-0.15054753,-0.39670107,-0.34793267,0.06002832,3.0697787,-0.6323124,-7.4793126e-05,-0.12278595,0.006509783,-0.0029069413,-0.053237762,0.0072207935,-0.040914584,0.45888597,-1.4045238,1.9334358,-2.102823,-1.564874,2.4396188,-0.14704208,0.17627266,-0.19509177,-0.010787487,0.044568308,-0.10587207,-0.61291564,-0.076614454,-9.442732,0.92093146,47.696735,-1.0939612,-2.0811067,-3.421916,-0.5664124,0.3320545,-0.34221712,27.9375,29.125,28.3125,32.1875,34.3125,35.1875
0.25805327,-2.5122344,-1.1415603,-1.5098851,0.004724907,0.066117115,-0.13249056,-0.39693874,-0.3479171,0.060013972,3.0696816,-0.6323474,-3.7787606e-05,-0.12372906,0.006852429,-0.003069703,-0.053467933,0.006804983,-0.036434505,0.45859748,-1.4041623,1.9330524,-2.1028354,-1.5647897,2.4393651,-0.14863023,0.17771423,-0.19652107,-0.010472914,0.044996537,-0.11193699,-0.61291564,-0.095768064,-9.481039,0.8672237,47.70211,-0.9876715,-2.3699548,-3.4155586,-0.56907463,0.36031932,-0.27168792,27.9375,29.125,28.3125,32.1875,34.3125,35.1875
0.260052,-1.8420323,-0.5071641,-1.5400201,-0.012502096,0.08489546,-0.14499691,-0.39720225,-0.34788534,0.05999515,3.0695803,-0.6324589,-3.845958e-05,-0.12470383,0.0064913025,-0.003108323,-0.05503683,0.0064893793,-0.033606,0.4582733,-1.4037777,1.9326576,-2.1028712,-1.5647291,2.439124,-0.14972699,0.1794909,-0.19851387,-0.010628925,0.04657145,-0.11585427,-0.6703765,0.076614454,-9.615114,0.86945957,47.66091,-1.1837089,-2.3165612,-3.314289,-0.57922506,0.34652668,-0.22987106,27.9375,29.125,28.3125,32.1875,34.3125,35.1875
0.26205185,-1.9588659,-0.7341953,-1.3746078,-0.016002148,0.085111395,-0.14198081,-0.39745054,-0.34788075,0.06000638,3.0694194,-0.632558,-1.1240743e-05,-0.1256287,0.006453149,-0.0030989856,-0.055790137,0.0066094245,-0.032332,0.45797285,-1.4034412,1.9322394,-2.1028593,-1.5646094,2.438907,-0.15075973,0.18079346,-0.20005831,-0.010788307,0.047218252,-0.118155055,-0.59376204,0.15322891,-9.461885,0.9321212,47.69763,-1.1786172,-2.2455053,-3.385417,-0.6041384,0.34205782,-0.17176652,27.9375,29.125,28.3125,32.1875,34.3125,35.1875
0.26405287,-1.8648993,-1.1241356,-1.5999697,-0.012748479,0.0811005,-0.13179056,-0.39771986,-0.3478499,0.059990413,3.0693326,-0.63269305,-3.444112e-05,-0.12589984,0.006259602,-0.0034307071,-0.056493286,0.00580113,-0.0325347,0.45766085,-1.4030443,1.9318208,-2.102883,-1.5645727,2.438691,-0.15117107,0.18207167,-0.20083265,-0.010861038,0.04822019,-0.1183579,-0.40222588,0.17238252,-9.385271,0.89631605,47.69763,-1.1577944,-2.1506736,-3.3885937,-0.61636645,0.3631078,-0.1397034,27.9375,29.125,28.3125,32.1875,34.3125,35.1875
0.26605242,-1.0916158,-0.58813304,-1.5443722,-0.037463833,0.07943889,-0.14839464,-0.39795494,-0.3478336,0.059965044,3.0691829,-0.63281846,8.873585e-05,-0.12794103,0.0062826164,-0.0023878887,-0.058906093,0.007807949,-0.037235264,0.45733604,-1.4026717,1.9314493,-2.1028955,-1.5644282,2.4384642,-0.15367474,0.18233433,-0.20344701,-0.011360887,0.0494926,-0.11615513,-0.3256114,0.24899697,-9.519346,0.85826975,47.687782,-1.2569019,-2.2044525,-3.4476185,-0.62007046,0.36280805,-0.13997063,27.9375,29.125,28.3125,32.1875,34.3125,35.1875
0.26805246,-1.1606439,-1.5805459,-1.653539,-0.049622588,0.056279685,-0.14122003,-0.3982171,-0.34781444,0.059962124,3.0690389,-0.6329245,9.3647e-05,-0.12705854,0.0042783897,-0.0025165072,-0.0611175,0.0066170893,-0.040981736,0.4570132,-1.4023106,1.9310426,-2.1029193,-1.5643314,2.4382267,-0.15085231,0.18359897,-0.20467737,-0.011325835,0.051986787,-0.10957364,-0.28730422,0.30645782,-9.461885,0.87617236,47.66987,-1.3259212,-2.2650468,-3.4983506,-0.61734724,0.33172637,-0.18481979,27.9375,29.125,28.3125,32.1875,34.3125,35.1875
0.27005163,-0.81457675,-1.9789119,-1.6397474,-0.055526856,0.04039161,-0.13722704,-0.39847815,-0.34778944,0.059953544,3.0689266,-0.6330973,6.566194e-05,-0.12944844,0.004584639,-0.0017578634,-0.0630811,0.007905033,-0.048835814,0.45671186,-1.401938,1.9306349,-2.1029432,-1.5642828,2.4380484,-0.15409075,0.18488893,-0.20794325,-0.011384575,0.053167596,-0.10494926,-0.24899697,0.30645782,-9.481039,0.8851263,47.690468,-1.0981758,-2.157619,-3.4165773,-0.62864935,0.33566666,-0.24669755,27.9375,29.125,28.3125,32.1875,34.3125,35.1875
0.27205208,-0.7766223,-2.2202175,-2.1301782,-0.048545096,0.016188517,-0.13231824,-0.39876166,-0.3477995,0.059962817,3.0687153,-0.63320804,3.259384e-05,-0.13043633,0.0043476676,-0.0015500697,-0.066337585,0.007049483,-0.052825253,0.45639926,-1.4015534,1.9301814,-2.1030028,-1.5641497,2.437833,-0.15649673,0.18571022,-0.20941004,-0.011398169,0.056480926,-0.103346586,-0.15322891,0.3256114,-9.519346,0.86945957,47.661808,-1.1688813,-2.0783772,-3.4381542,-0.62869626,0.32829493,-0.2932532,27.9375,29.125,28.3125,32.1875,34.3125,35.1875
0.27405238,-1.0457089,-2.2411184,-2.0956423,-0.05965758,0.003552417,-0.13463575,-0.39902562,-0.347775,0.059963133,3.068591,-0.63329786,3.826746e-05,-0.13218254,0.0048011276,-0.0012376292,-0.06824775,0.0069283233,-0.05612907,0.45607412,-1.4011927,1.9297618,-2.1030028,-1.5640653,2.4375806,-0.15980291,0.18691748,-0.21164632,-0.011081085,0.058262654,-0.10333824,-0.095768064,0.4405331,-9.595961,0.9545008,47.68599,-1.0322309,-2.146603,-3.3149204,-0.62660044,0.29478526,-0.3035081,27.9375,29.125,28.3125,32.1875,34.3125,35.1875
0.276052,-0.6455139,-2.010519,-2.0230696,-0.06737542,0.021746261,-0.1340957,-0.39926884,-0.34776932,0.059943244,3.0684268,-0.6334956,0.00016456928,-0.13291225,0.0043261983,-0.0010286544,-0.07187222,0.0059012477,-0.05884897,0.45576143,-1.4007963,1.929344,-2.1029909,-1.5639199,2.4374132,-0.16182819,0.1875719,-0.21291909,-0.011120844,0.061975017,-0.10262911,0.019153614,0.40222588,-9.5385,0.91198283,47.704796,-0.90158284,-2.0582395,-3.464838,-0.65213346,0.2562042,-0.33004385,27.9375,29.125,28.3125,32.1875,34.3125,35.1875
0.27805224,-0.9409964,-2.355182,-2.1016548,-0.05798415,0.022630002,-0.1282839,-0.3995281,-0.34773934,0.059921656,3.0682614,-0.6337107,0.00026145292,-0.13298933,0.004426508,-0.0017413478,-0.072137296,0.004354349,-0.059772886,0.4554011,-1.4004114,1.9289488,-2.1030028,-1.5637878,2.4372091,-0.16252527,0.18908687,-0.21311557,-0.01113572,0.06290729,-0.10239742,0.0,0.30645782,-9.557653,0.8493211,47.701214,-0.8265511,-2.02709,-3.4682465,-0.6749371,0.24500462,-0.35644054,27.9375,29.125,28.3125,32.1875,34.3125,35.1875
0.28005224,-1.1204791,-2.0619354,-2.0014598,-0.06314497,0.022829553,-0.1343967,-0.3998408,-0.34774962,0.05994768,3.0680106,-0.6338674,0.0001675719,-0.13382287,0.003751201,-0.0028335948,-0.07240968,0.0026526542,-0.058482055,0.45506513,-1.4000256,1.9284581,-2.1030748,-1.5636553,2.4370046,-0.16255888,0.19357817,-0.21583831,-0.011455253,0.063930206,-0.10370524,0.038307227,0.4405331,-9.615114,0.9097417,47.688675,-0.8963368,-2.1448634,-3.331018,-0.65884984,0.20269021,-0.38770488,27.9375,29.125,28.3125,32.1875,34.3125,35.1875
0.2820527,-0.7423127,-1.8177768,-1.8156693,-0.055054292,0.03246769,-0.13914053,-0.40008622,-0.3477492,0.059929263,3.0678523,-0.633949,0.00028814367,-0.1347461,0.0024700218,-0.0016371788,-0.076508336,0.0042561335,-0.056962505,0.45475304,-1.3996291,1.9280394,-2.1030753,-1.5634979,2.4367645,-0.16287684,0.19316721,-0.21797779,-0.012107175,0.0669245,-0.10552912,0.15322891,0.36391866,-9.500193,0.82694155,47.686886,-0.9427907,-2.1003833,-3.3135014,-0.65751034,0.16960883,-0.3570806,27.9375,29.125,28.3125,32.1875,34.3125,35.1875
0.28405228,-0.39093676,-1.1976112,-1.9608939,-0.04102754,0.020913118,-0.14724948,-0.40036213,-0.34772474,0.059922736,3.0676663,-0.6341753,0.000286982,-0.13722916,0.0029341353,-0.00053032156,-0.0783144,0.0066244067,-0.054219276,0.4544042,-1.3992566,1.9276322,-2.103123,-1.5633901,2.4365819,-0.1660828,0.193596,-0.22098836,-0.012370357,0.0675544,-0.1114694,0.21068975,0.34476504,-9.519346,0.9365982,47.699425,-1.0289311,-2.1413212,-3.3541677,-0.67027724,0.1309055,-0.35744113,27.9375,29.125,28.3125,32.1875,34.3125,35.1875
0.286052,-0.15994503,-1.0019729,-1.9137654,-0.03909254,0.020609288,-0.14656788,-0.40063968,-0.3476988,0.059908193,3.0675232,-0.6342958,0.00035608656,-0.13855918,0.0028487956,-0.0005258276,-0.076671764,0.009031798,-0.048028864,0.45404446,-1.3988476,1.9271897,-2.1031234,-1.5632709,2.4363165,-0.1653558,0.19569764,-0.22325213,-0.0135639915,0.065062486,-0.1169395,0.17238252,0.34476504,-9.557653,0.91198283,47.677036,-0.95226884,-2.131896,-3.446742,-0.67391783,0.13432825,-0.2720573,27.9375,29.125,28.3125,32.1875,34.3125,35.1875
0.28805223,-0.10601327,-1.0975239,-1.6665297,-0.052689698,0.016800366,-0.1427195,-0.4009204,-0.3477057,0.05991675,3.0673344,-0.6344074,0.0003641948,-0.13998452,0.004107418,-0.00086180033,-0.07605363,0.008768103,-0.045513272,0.45373157,-1.3984506,1.9267114,-2.1031358,-1.5631388,2.4360986,-0.16839425,0.19714434,-0.2242785,-0.01339729,0.06467522,-0.12248898,0.095768064,0.38307226,-9.519346,0.8940802,47.655537,-0.8455625,-2.0907319,-3.6491113,-0.65651,0.11674735,-0.21334743,27.9375,29.125,28.3125,32.1875,34.3125,35.1875
0.29005274,-0.9117401,-1.8288119,-1.4199914,-0.045978498,0.015232772,-0.14214711,-0.40117982,-0.34771118,0.059920896,3.0671766,-0.63438916,0.00034494637,-0.14120436,0.0045626005,-0.00044633963,-0.073904335,0.01095663,-0.03926047,0.45344353,-1.3980899,1.9262933,-2.103183,-1.5630206,2.4358203,-0.16831231,0.19804326,-0.22641245,-0.013097282,0.061839808,-0.12866454,0.019153614,0.38307226,-9.3661175,0.8560339,47.666286,-0.92343265,-2.2576075,-3.5150044,-0.67876446,0.12954023,-0.1292345,27.9375,29.125,28.3125,32.1875,34.3125,35.1875
0.29205242,-0.9406686,-1.3146373,-1.6020718,-0.041850746,0.030582832,-0.13845754,-0.4014489,-0.34769294,0.05988116,3.0670073,-0.63456666,0.00047838248,-0.14297074,0.0059935683,-0.0010149375,-0.07105451,0.011221267,-0.039932784,0.45308244,-1.3976446,1.9258736,-2.1032188,-1.5628651,2.4355927,-0.17050424,0.20080099,-0.22852628,-0.012667602,0.059183083,-0.13019383,0.019153614,0.38307226,-9.346964,0.9231726,47.66987,-0.7161927,-2.2750182,-3.4755163,-0.6810887,0.15075438,-0.06423308,27.9375,29.125,28.3125,32.1875,34.3125,35.1875
0.2940522,-1.2155915,-1.059714,-1.489484,-0.027153527,0.047024127,-0.14453654,-0.40173683,-0.34768492,0.059885826,3.0668504,-0.63464856,0.0005042203,-0.14439443,0.006877383,-0.0010257276,-0.069453165,0.011720292,-0.042577084,0.4527463,-1.3972355,1.9253839,-2.1032069,-1.5627459,2.4353287,-0.17207928,0.20244922,-0.23068671,-0.011870646,0.05753851,-0.12912674,0.019153614,0.3256114,-9.385271,0.9097417,47.704796,-0.85809946,-2.2484088,-3.4615784,-0.6810124,0.17335552,-0.07240508,27.9375,29.125,28.3125,32.1875,34.3125,35.1875
0.29605272,-1.4910909,-0.90337014,-1.6252488,-0.019102568,0.06486212,-0.13159579,-0.4020392,-0.3476969,0.059919365,3.0666382,-0.63471866,0.0003569497,-0.14450768,0.005624932,-0.0009761408,-0.06860544,0.012886815,-0.04348245,0.45244753,-1.3968748,1.9249042,-2.1032789,-1.5626496,2.4351025,-0.16903758,0.2043181,-0.23298857,-0.012113633,0.056274056,-0.12517321,-0.15322891,0.2681506,-9.3661175,0.9701675,47.684196,-0.99324685,-2.3296068,-3.399139,-0.683192,0.18462475,-0.0722295,27.9375,29.125,28.3125,32.1875,34.3125,35.1875
0.29805216,-1.8293653,-0.64512604,-1.4488589,-0.0053937584,0.070672035,-0.13189632,-0.4022873,-0.34768006,0.059887003,3.0665205,-0.63481295,0.00049572595,-0.14540121,0.0060769864,-0.00076315575,-0.06755467,0.014029146,-0.049558967,0.45212308,-1.3964542,1.9244851,-2.103267,-1.5625185,2.4348526,-0.16952853,0.2048824,-0.23424248,-0.011997944,0.054806203,-0.11959435,-0.28730422,0.2681506,-9.346964,0.9097417,47.67614,-1.0084357,-2.1839793,-3.3309522,-0.6901505,0.17719075,-0.11542232,27.9375,29.125,28.3125,32.1875,34.3125,35.1875
0.3000524,-1.8355707,-0.48115718,-1.3551648,-0.022566458,0.094701886,-0.13634248,-0.40259883,-0.34766734,0.059890687,3.0663054,-0.63501704,0.00048774542,-0.14669606,0.0057710325,0.00055860344,-0.06781138,0.017218286,-0.052247677,0.4517516,-1.3960336,1.9239949,-2.1033027,-1.5623869,2.4346375,-0.16920292,0.20443174,-0.23680866,-0.011947011,0.053649586,-0.11657874,-0.40222588,0.3256114,-9.308657,0.91421866,47.67614,-1.1660137,-2.133806,-3.362417,-0.71735287,0.20515192,-0.14151993,27.9375,29.125,28.3125,32.1875,34.3125,35.1875
0.3020517,-1.7781866,-0.64438426,-1.2429192,-0.023792708,0.10612066,-0.1396933,-0.40286705,-0.34767023,0.059879366,3.0662084,-0.63501996,0.0005072136,-0.14878432,0.0056125126,0.002535017,-0.06803398,0.021474786,-0.058939453,0.45147532,-1.3956016,1.9235166,-2.1033022,-1.5623039,2.4343762,-0.16950709,0.20379578,-0.24079782,-0.011271772,0.051964864,-0.110194854,-0.4213795,0.21068975,-9.32781,0.85155696,47.68062,-1.2283252,-2.1541772,-3.2535677,-0.7154913,0.26012787,-0.22331953,27.9375,29.125,28.3125,32.1875,34.3125,35.1875
0.30405232,-1.8607951,-0.44335276,-1.4669716,-0.019382747,0.0963268,-0.13515681,-0.4031622,-0.34761518,0.05987226,3.0660403,-0.6353098,0.0005357562,-0.15105233,0.0053168437,0.004169973,-0.06903192,0.025096858,-0.059540696,0.4510671,-1.3952173,1.9230846,-2.1033022,-1.562208,2.4341717,-0.1703389,0.20411126,-0.24500397,-0.011039752,0.051302005,-0.110424496,-0.5554548,0.11492168,-9.481039,0.8940802,47.689575,-1.237458,-2.0196373,-3.2777176,-0.7285211,0.25864977,-0.25872558,27.9375,29.125,28.3125,32.1875,34.3125,35.1875
0.3060521,-1.8351775,-0.62028414,-1.6335381,-0.01373834,0.09913557,-0.13275054,-0.40349323,-0.34763682,0.05989974,3.0658305,-0.6354024,0.00043268796,-0.15218239,0.0057343105,0.0042456235,-0.06944238,0.025448699,-0.064865634,0.45075476,-1.3947724,1.9225115,-2.103338,-1.5620998,2.4339457,-0.17200206,0.2050599,-0.24632731,-0.011164824,0.051526595,-0.10675274,-0.68953013,0.17238252,-9.500193,0.9612189,47.674347,-1.3278035,-1.9595731,-3.2572575,-0.73444223,0.28244656,-0.3224304,27.9375,29.125,28.3125,32.1875,34.3125,35.1875
0.30805227,-2.4364057,-0.21400851,-1.6121049,-0.028092796,0.09449189,-0.13368544,-0.4037646,-0.34761626,0.059866764,3.0656798,-0.63559896,0.0004910901,-0.1507355,0.0052563758,0.0032286674,-0.06897249,0.023281744,-0.06472242,0.45041955,-1.3943397,1.9220923,-2.1033857,-1.5619911,2.4337535,-0.1701246,0.205784,-0.24495804,-0.011090902,0.052060537,-0.10501491,-0.61291564,0.095768064,-9.576807,0.91198283,47.67345,-1.3164527,-1.9138181,-3.3467746,-0.73416823,0.31646666,-0.3730924,27.9375,29.125,28.3125,32.1875,34.3125,35.1875
0.31005237,-2.178078,-0.7590197,-1.8435789,-0.009105983,0.09768193,-0.13489124,-0.40407702,-0.3476058,0.059872393,3.0655212,-0.6357205,0.0004388558,-0.1512646,0.0052850116,0.002489804,-0.069534585,0.022116473,-0.06648954,0.45008293,-1.3939066,1.9215792,-2.1034095,-1.5619072,2.4335144,-0.17111154,0.20791963,-0.24571986,-0.011644341,0.053093605,-0.10422381,-0.6703765,0.05746084,-9.749189,0.9410752,47.661808,-1.3223991,-1.9650587,-3.4637828,-0.7298354,0.31124344,-0.43191314,27.9375,29.125,28.3125,32.1875,34.3125,35.1875
0.31205213,-2.2140036,-0.6929872,-1.6983969,-0.026880914,0.09030328,-0.13173528,-0.40441394,-0.3475905,0.059900466,3.0652604,-0.636029,0.0003861625,-0.15096408,0.005152392,0.0013765461,-0.07049492,0.01933444,-0.065266125,0.44968662,-1.3934978,1.9210414,-2.1034224,-1.5617741,2.433346,-0.17177744,0.20992301,-0.24559115,-0.011644549,0.0552149,-0.1060951,-0.7086837,0.076614454,-9.653421,0.9388393,47.65912,-1.4100077,-1.9305489,-3.5573971,-0.7492045,0.29229763,-0.45841688,27.9375,29.125,28.3125,32.1875,34.3125,35.1875
0.31405234,-1.5046037,-0.5224054,-1.5480847,-0.036587458,0.10162538,-0.1377199,-0.4047013,-0.34759015,0.05988313,3.065117,-0.63612837,0.00041611315,-0.1520706,0.005260295,0.0006828944,-0.07016129,0.018831082,-0.06103703,0.44937456,-1.3930403,1.9205517,-2.1034462,-1.5616664,2.4331155,-0.17273125,0.21295929,-0.24756391,-0.012034192,0.05518277,-0.11127441,-0.51714754,0.095768064,-9.519346,0.9612189,47.682407,-1.4466289,-1.9903163,-3.6420898,-0.75901467,0.3060439,-0.44529945,27.9375,29.125,28.3125,32.1875,34.3125,35.1875
0.3160517,-1.4126469,-0.4489326,-2.1295195,-0.012226604,0.07026643,-0.13889726,-0.4050166,-0.34756815,0.059879843,3.0649352,-0.63629776,0.00039904396,-0.15458158,0.006287212,-0.00011318876,-0.069132335,0.018425204,-0.05478449,0.44900113,-1.392606,1.92006,-2.1034825,-1.5615581,2.4328725,-0.17605662,0.2174527,-0.25109333,-0.012063364,0.05451616,-0.12084943,-0.34476507,0.076614454,-9.653421,1.0037369,47.677036,-1.2871088,-2.157079,-3.5667849,-0.7533096,0.3460133,-0.39705074,27.9375,29.125,28.3125,32.1875,34.3125,35.1875
0.31805196,-0.8769573,-0.6941788,-2.0239906,-0.01082803,0.04964565,-0.14011195,-0.40531304,-0.34754366,0.059862327,3.0647867,-0.6364563,0.00044275183,-0.15583454,0.0078097945,-0.00089101295,-0.06956689,0.016782463,-0.053364556,0.44863996,-1.392161,1.9195822,-2.103494,-1.5614504,2.4326305,-0.18033475,0.2189805,-0.25117904,-0.012132719,0.05568019,-0.12653942,-0.19153613,0.095768064,-9.710882,0.9701675,47.683304,-1.2446672,-2.1868145,-3.5413883,-0.7430463,0.33527076,-0.32130563,27.9375,29.125,28.3125,32.1875,34.3125,35.1875
0.32005277,-1.0276606,-0.93568546,-1.7449591,-0.045704488,0.027385538,-0.14239714,-0.4056498,-0.3475251,0.059889324,3.0646524,-0.63647956,0.00030754987,-0.15687768,0.0066473996,0.000119474884,-0.072611116,0.01893628,-0.043997202,0.44829223,-1.3917406,1.919032,-2.1035068,-1.5614012,2.4323158,-0.1802029,0.21910301,-0.25344738,-0.01314306,0.057579823,-0.1357566,-0.26815057,0.24899697,-9.519346,0.9567419,47.67614,-1.1974397,-2.2172155,-3.535322,-0.7460727,0.3490886,-0.21086341,27.9375,29.125,28.3125,32.1875,34.3125,35.1875
0.32205173,-0.9809054,-1.9422506,-2.1758714,-0.041661646,0.0372954,-0.124479935,-0.4059808,-0.34750256,0.05991,3.0643952,-0.63673097,0.0002651927,-0.15811911,0.007534612,-0.0003412543,-0.0724549,0.01855346,-0.042888556,0.4478833,-1.3913437,1.9185294,-2.103542,-1.5612572,2.4320989,-0.18265873,0.22084922,-0.2544609,-0.013386713,0.057665814,-0.13931252,-0.24899697,0.24899697,-9.615114,0.92764956,47.70211,-1.1064318,-2.2387888,-3.4370732,-0.74832726,0.37151068,-0.15270326,27.9375,29.125,28.3125,32.1875,34.3125,35.1875
0.32405218,-1.1009389,-1.8578738,-2.2458537,-0.06073892,0.047215644,-0.13029785,-0.40626895,-0.3474903,0.059906375,3.0642922,-0.6367094,0.00029327412,-0.16063692,0.0068940697,0.001618513,-0.07427783,0.021734625,-0.043456674,0.44755894,-1.3909115,1.9180263,-2.1035182,-1.5611614,2.431775,-0.18367825,0.22153136,-0.2600943,-0.012056932,0.057948537,-0.13975772,-0.15322891,0.2681506,-9.787497,0.9567419,47.687782,-1.0837044,-2.1978595,-3.3898587,-0.755103,0.37683564,-0.11487046,27.9375,29.125,28.3125,32.1875,34.3125,35.1875
0.32605225,-1.1186187,-2.4061992,-1.7104673,-0.07218621,0.06267177,-0.12570424,-0.40660408,-0.34747526,0.059915956,3.064067,-0.63689417,0.00022948,-0.16215691,0.0062873852,0.0022108834,-0.077546775,0.021212915,-0.048571765,0.44717437,-1.3904783,1.9175113,-2.1035774,-1.5610398,2.4315367,-0.18570547,0.2232172,-0.2636953,-0.011087395,0.06113326,-0.13664201,-0.21068975,0.30645782,-9.481039,0.9679317,47.684196,-1.0445291,-2.0560272,-3.26151,-0.77997255,0.351456,-0.115248725,27.9375,29.125,28.3125,32.1875,34.3125,35.1875
0.32805252,-1.5939528,-1.6742033,-2.0424142,-0.060474146,0.038095664,-0.1259609,-0.40689307,-0.3474421,0.059881214,3.06393,-0.63700336,0.0003408639,-0.1626753,0.005894969,0.0015383764,-0.08064748,0.018744836,-0.056406975,0.4467899,-1.3900204,1.9170569,-2.1035893,-1.5609063,2.431239,-0.18768862,0.22537696,-0.26469693,-0.0113893,0.064972185,-0.13076654,-0.28730422,0.30645782,-9.519346,0.900793,47.67614,-0.98714435,-2.224094,-3.312241,-0.76899016,0.34632015,-0.15900493,27.9375,29.125,28.3125,32.1875,34.3125,35.1875
0.3300517,-0.90420604,-1.4866222,-1.9553075,-0.050163668,0.054970693,-0.13358288,-0.4072197,-0.34745982,0.059885353,3.0637035,-0.637151,0.0003810266,-0.16460578,0.005613546,0.002888884,-0.085109375,0.020975776,-0.064978845,0.4464406,-1.3895284,1.9164718,-2.1035898,-1.5607375,2.4310126,-0.19053306,0.2246216,-0.2666538,-0.01263943,0.06801472,-0.12501451,-0.34476507,0.36391866,-9.576807,0.92093146,47.667187,-0.9465617,-2.1005716,-3.3337314,-0.7697506,0.30570287,-0.26026094,27.9375,29.125,28.3125,32.1875,34.3125,35.1875
0.33205193,-1.0969927,-1.3957196,-1.66058,-0.0649558,0.07238018,-0.13403232,-0.40758267,-0.34744224,0.059921432,3.0634646,-0.63734823,0.00023082866,-0.16399321,0.004927372,0.0028394023,-0.087973736,0.019496705,-0.067693144,0.44604504,-1.3891085,1.9159092,-2.103638,-1.5606407,2.430773,-0.19065128,0.2242053,-0.2660936,-0.012683958,0.07126429,-0.12238646,-0.4405331,0.34476504,-9.442732,0.9410752,47.652847,-0.9947276,-1.8248551,-3.439611,-0.7727617,0.25958675,-0.2887994,27.9375,29.125,28.3125,32.1875,34.3125,35.1875
0.33405223,-1.064817,-1.4122161,-1.8505409,-0.060065478,0.071777016,-0.13020445,-0.40790474,-0.34744602,0.059936695,3.0631945,-0.63754016,0.00026371228,-0.16325544,0.004316923,0.0021914945,-0.089814045,0.017204087,-0.06801046,0.44566095,-1.3886762,1.9153713,-2.1036499,-1.5604476,2.4305456,-0.19045483,0.22498998,-0.26561183,-0.012639329,0.07394581,-0.12184845,-0.26815057,0.34476504,-9.500193,0.9791215,47.690468,-1.0515171,-1.8902521,-3.5717304,-0.7644017,0.23920602,-0.31003392,27.9375,29.125,28.3125,32.1875,34.3125,35.1875
0.33605185,-0.90550804,-1.4928586,-1.5999155,-0.062038217,0.07130272,-0.12902918,-0.40822837,-0.34743735,0.059923373,3.0629747,-0.63774323,0.00030870954,-0.16351293,0.0034775382,0.0026011409,-0.09288521,0.016461443,-0.070755415,0.44527695,-1.3881953,1.9148463,-2.1036856,-1.5602907,2.4303184,-0.19095702,0.2252757,-0.26706475,-0.012112133,0.07704856,-0.119580194,-0.19153613,0.17238252,-9.481039,1.0283576,47.688675,-0.9802705,-1.7251246,-3.610756,-0.7780892,0.1780591,-0.35662872,27.9375,29.125,28.3125,32.1875,34.3125,35.1875
0.3380523,-0.6351479,-1.0801598,-1.3828144,-0.051239766,0.05492569,-0.13931158,-0.4085841,-0.34742373,0.059932902,3.062752,-0.637847,0.00021221896,-0.16408607,0.0022244535,0.0020978109,-0.09426173,0.015928246,-0.0669504,0.44488063,-1.3877375,1.9143075,-2.1037695,-1.56017,2.4300175,-0.19000691,0.22848222,-0.26959607,-0.012829234,0.078577034,-0.12241175,-0.076614454,0.24899697,-9.32781,0.94331104,47.68599,-0.99724436,-1.77948,-3.5184102,-0.75817335,0.13201931,-0.389012,27.9375,29.125,28.3125,32.1875,34.3125,35.1875
0.34005287,0.05764796,-0.48998648,-1.5516415,-0.015419328,0.049249705,-0.14080442,-0.4089192,-0.3474338,0.059965212,3.0624793,-0.6380559,0.00015109882,-0.16526468,0.0013919557,0.0012627797,-0.094800636,0.015405269,-0.065971985,0.44452104,-1.3873152,1.9137448,-2.1037939,-1.5600141,2.4298258,-0.1898163,0.23284863,-0.27267143,-0.013827062,0.07932546,-0.12318028,0.076614454,0.21068975,-9.346964,0.9388393,47.661808,-1.2185943,-2.049625,-3.5027943,-0.7240021,0.11584145,-0.3591537,27.9375,29.125,28.3125,32.1875,34.3125,35.1875
0.3420527,-0.6311914,-0.25230432,-1.4339398,0.009401838,0.019494627,-0.12959056,-0.4092474,-0.34741756,0.05994866,3.0622687,-0.63823515,0.00023445027,-0.16614683,-0.00019532553,0.0014947186,-0.09693178,0.016049346,-0.058521733,0.4441138,-1.3868221,1.9132069,-2.1038063,-1.5598453,2.4295592,-0.18866609,0.23532611,-0.27608928,-0.014268968,0.081044525,-0.12946367,0.05746084,0.17238252,-9.3661175,0.947788,47.672558,-1.2303312,-2.170388,-3.440431,-0.715376,0.06530294,-0.32883066,27.9375,29.125,28.3125,32.1875,34.3125,35.1875
0.34405237,0.41321465,0.26592776,-1.3022681,0.0072184224,0.040810566,-0.1396705,-0.40959698,-0.3474351,0.059980817,3.0619864,-0.63828534,0.00014640884,-0.16832398,0.000373558,0.0022591,-0.09604824,0.019039307,-0.05233996,0.44374135,-1.3863896,1.9126438,-2.1038783,-1.559666,2.429257,-0.1900215,0.2364424,-0.27917606,-0.014475735,0.07906498,-0.13699791,0.22984336,0.21068975,-9.346964,0.900793,47.67614,-1.3374856,-2.1049252,-3.3107471,-0.7146123,0.029230826,-0.26943445,27.9375,29.125,28.3125,32.1875,34.3125,35.1875
0.34605265,0.20704758,0.05268211,-1.2878131,-0.0006069107,0.040382817,-0.1419495,-0.4099149,-0.34741867,0.05996161,3.0617914,-0.6384713,0.00025794873,-0.16974734,0.0021052351,0.002228483,-0.09270369,0.020242713,-0.048179593,0.44334465,-1.3858963,1.9121054,-2.1038659,-1.5594996,2.429003,-0.19185185,0.23736478,-0.28052974,-0.013562645,0.07560398,-0.1430104,0.076614454,0.30645782,-9.32781,0.9567419,47.67166,-1.2173301,-2.131051,-3.2454863,-0.71112084,0.060467515,-0.18071964,27.9375,29.125,28.3125,32.1875,34.3125,35.1875
0.34805217,-0.4781306,-0.611677,-1.4209694,-0.037339844,0.04848076,-0.1323873,-0.41027358,-0.34741005,0.05998792,3.061607,-0.63856286,0.00016707739,-0.17105475,0.0028763565,0.0028343424,-0.09153858,0.021178987,-0.04473222,0.44297245,-1.3854281,1.9114956,-2.103865,-1.5594043,2.4287136,-0.1932094,0.23790933,-0.2830451,-0.011837248,0.07423069,-0.14781444,-0.038307227,0.40222588,-9.346964,0.9612189,47.68599,-1.2281284,-2.0779786,-3.3583455,-0.70928967,0.06976222,-0.07182621,27.9375,29.125,28.3125,32.1875,34.3125,35.1875
0.3500525,-0.47689453,-1.5439678,-1.4963485,-0.063507445,0.07547066,-0.13850497,-0.4105973,-0.34740528,0.059993733,3.0614128,-0.63861686,0.0001919698,-0.17228834,0.005696583,0.0018590074,-0.08413523,0.020701382,-0.045922816,0.4425997,-1.3849709,1.9109453,-2.103864,-1.5592502,2.4284012,-0.1949109,0.24048954,-0.2846419,-0.009138013,0.06778781,-0.14836419,0.019153614,0.38307226,-9.423578,0.92093146,47.668976,-1.1518313,-1.9436812,-3.3125134,-0.7435665,0.10178851,-0.08214136,27.9375,29.125,28.3125,32.1875,34.3125,35.1875
0.352052,-0.8058895,-1.9890038,-1.456699,-0.08585004,0.08299635,-0.1311417,-0.41096875,-0.34739244,0.060006432,3.061188,-0.6388223,9.8567165e-05,-0.17372482,0.007858358,0.0017396146,-0.08128434,0.020766372,-0.053912595,0.442203,-1.3844781,1.9103483,-2.1039116,-1.559143,2.428164,-0.1980077,0.24118535,-0.28565294,-0.007665734,0.065186284,-0.14347959,-0.1340753,0.49799395,-9.423578,0.9567419,47.674347,-1.2212799,-1.9879112,-3.4110427,-0.7547822,0.15839031,-0.091944516,27.9375,29.125,28.3125,32.1875,34.3125,35.1875
0.35405177,-0.84301764,-1.7536056,-1.2535263,-0.08746592,0.08945876,-0.13788044,-0.4113084,-0.34738427,0.06000839,3.0610118,-0.63886374,0.00012573978,-0.17501988,0.008562694,0.0022281932,-0.079781175,0.022691231,-0.060503323,0.4418188,-1.3839854,1.9097618,-2.1038992,-1.5589999,2.42783,-0.19871692,0.24160492,-0.28742886,-0.0074218577,0.062981755,-0.13760819,-0.2681506,0.53630114,-9.32781,0.95226496,47.689575,-1.2161113,-1.8995333,-3.3350341,-0.7550758,0.1889906,-0.12947358,27.9375,29.125,28.3125,32.1875,34.3125,35.1875
0.35605222,-1.4993185,-1.8554008,-1.392327,-0.05777071,0.074208274,-0.1227144,-0.41166157,-0.34739086,0.060042627,3.0607405,-0.6390192,7.221575e-05,-0.17551094,0.009285271,0.0017824769,-0.07824529,0.023151327,-0.06668118,0.44143435,-1.3835407,1.9091648,-2.103912,-1.5588325,2.42758,-0.19916579,0.24246114,-0.2873657,-0.008116032,0.061387543,-0.13188069,-0.28730422,0.5554548,-9.385271,0.9388393,47.67345,-1.1055249,-1.8949068,-3.491221,-0.7712475,0.22563013,-0.19196019,27.9375,29.125,28.3125,32.1875,34.3125,35.1875
0.35805228,-1.143604,-0.6208073,-1.1449189,-0.04906504,0.08600956,-0.13343859,-0.41198736,-0.34736988,0.059999425,3.0605888,-0.6392185,0.00012503868,-0.17736621,0.009641599,0.002875355,-0.07861757,0.026836483,-0.07169211,0.44106212,-1.3830005,1.9086379,-2.1039603,-1.5587248,2.4273534,-0.20033094,0.24204643,-0.2891861,-0.009376763,0.06013437,-0.1280415,-0.30645782,0.4405331,-9.442732,0.92764956,47.682407,-1.1082094,-1.8641994,-3.5307043,-0.7584919,0.25862488,-0.24715137,27.9375,29.125,28.25,32.1875,34.3125,35.1875
0.36005244,-1.4955873,-0.17918989,-0.9250428,-0.027429814,0.08501946,-0.13557461,-0.41236183,-0.3473412,0.060020708,3.0603616,-0.6394211,5.6108347e-05,-0.17870319,0.010357639,0.0017592373,-0.07774106,0.025908789,-0.07706426,0.4406296,-1.382531,1.9080399,-2.1039722,-1.5586051,2.427079,-0.20219758,0.24555852,-0.2907224,-0.010139433,0.05974307,-0.124529526,-0.36391866,0.21068975,-9.385271,0.9612189,47.6636,-1.0583436,-1.8216383,-3.534175,-0.7413337,0.27970627,-0.33606368,27.9375,29.125,28.25,32.1875,34.3125,35.1875
0.3620517,-1.352982,0.43972105,-0.70659804,-0.016950544,0.09543645,-0.14194165,-0.4127321,-0.34733143,0.06003333,3.0601227,-0.63963896,-2.6803515e-05,-0.18092719,0.010145852,0.0025813102,-0.07966403,0.02794183,-0.08231953,0.44023308,-1.382038,1.907442,-2.1040204,-1.5584844,2.4268517,-0.20397417,0.24705006,-0.2943007,-0.01071864,0.060616285,-0.12103338,-0.53630114,0.095768064,-9.212888,0.9231726,47.668976,-0.9940634,-1.6961277,-3.416931,-0.71304107,0.28362012,-0.39935994,27.9375,29.125,28.25,32.1875,34.3125,35.1875
0.36405203,-1.7627423,-0.08609568,-0.6722595,0.01854794,0.09250409,-0.12810971,-0.4130793,-0.34731248,0.0600191,3.059927,-0.63980687,1.6287511e-05,-0.18170615,0.009077842,0.0022077041,-0.08027792,0.027864795,-0.08192664,0.4398255,-1.38152,1.9068669,-2.1040323,-1.5583404,2.4265761,-0.2029209,0.25026405,-0.29725677,-0.011136687,0.061223265,-0.12036282,-0.59376204,0.0,-9.193734,1.0194036,47.691364,-1.0683527,-1.7669178,-3.32265,-0.7075479,0.32175872,-0.45003375,27.9375,29.125,28.25,32.1875,34.3125,35.1875
0.3660521,-1.780621,0.67715997,-0.8309396,0.015143051,0.09910563,-0.13597581,-0.41344428,-0.34731847,0.06005556,3.05968,-0.6399795,-7.134124e-05,-0.18227975,0.0073156166,0.004064516,-0.08261812,0.031179035,-0.076553494,0.43945414,-1.381052,1.9062332,-2.1040323,-1.5582079,2.426347,-0.20059597,0.24917482,-0.30030903,-0.010916393,0.061995663,-0.12339469,-0.57460845,0.05746084,-9.097966,0.98135734,47.689575,-1.2596538,-1.5984006,-3.38558,-0.6883909,0.33172405,-0.48115999,27.9375,29.125,28.25,32.1875,34.3125,35.1875
0.36805248,-1.472754,0.6613485,-0.94875985,0.0059406916,0.108635604,-0.14517845,-0.41380483,-0.34729254,0.06003755,3.059496,-0.64016557,-8.851719e-05,-0.18169728,0.0067681405,0.002375412,-0.08219561,0.026842473,-0.07043424,0.4390464,-1.3805221,1.90566,-2.1040795,-1.5580992,2.4260812,-0.1999114,0.25327858,-0.30180928,-0.00931372,0.06354586,-0.12881134,-0.47884035,-0.038307227,-9.251195,0.9410752,47.67614,-1.349572,-1.846407,-3.295305,-0.68565494,0.32547268,-0.43711358,27.9375,29.125,28.25,32.1875,34.3125,35.1875
0.37005186,-1.3916783,0.009979194,-0.85854006,-0.016802682,0.10049649,-0.15264156,-0.41418168,-0.34726554,0.060045213,3.0592694,-0.6404162,-7.4420466e-05,-0.18186961,0.007538822,0.0008460703,-0.080746874,0.023654668,-0.060046688,0.4386023,-1.3800045,1.9050268,-2.1040552,-1.5579556,2.425825,-0.20126824,0.25654364,-0.30260277,-0.008088231,0.063740544,-0.14054982,-0.34476504,0.05746084,-9.232041,0.92093146,47.667187,-1.4075714,-1.9109092,-3.4016793,-0.7020695,0.357046,-0.36227453,27.9375,29.125,28.25,32.1875,34.3125,35.1875
0.37205222,-1.3392065,-0.8958687,-0.97901523,-0.035634983,0.09310659,-0.13660406,-0.4145453,-0.34725422,0.06004183,3.0590959,-0.6405079,-0.0001110349,-0.18253072,0.007145474,0.0004154044,-0.08076586,0.02273161,-0.05302214,0.43821818,-1.379475,1.904415,-2.1040785,-1.5578469,2.4255226,-0.20122184,0.2593086,-0.3051912,-0.0073094848,0.064249806,-0.14751719,-0.34476504,0.1340753,-9.289502,0.9701675,47.657326,-1.4643959,-2.0481284,-3.355723,-0.7232169,0.37091166,-0.26500505,27.9375,29.125,28.25,32.1875,34.3125,35.1875
