Tylouw/Master_Thesis_Code/training_data/batch_1/small_rod_t0.2/sample_30_session_1.csv
timestamp[s],tcp_force_x[N],tcp_force_y[N],tcp_force_z[N],tcp_force_rx[Nm?],tcp_force_ry[Nm?],tcp_force_rz[Nm?],tcp_pose_x[m],tcp_pose_y[m],tcp_pose_z[m],tcp_pose_rx[rot_vec_x],tcp_pose_ry[rot_vec_y],tcp_pose_rz[rot_vec_z],tcp_velo_x[m/s],tcp_velo_y[m/s],tcp_velo_z[m/s],tcp_velo_rx[rot_vec_x/s],tcp_velo_ry[rot_vec_y/s],tcp_velo_rz[rot_vec_z/s],q1[rad],q2[rad],q3[rad],q4[rad],q5[rad],q6[rad],qd1[rad/s],qd2[rad/s],qd3[rad/s],qd4[rad/s],qd5[rad/s],qd6[rad/s],tool_acc_x,tool_acc_y,tool_acc_z,current_of_whole_robot[A],voltage_of_whole_robot[V],current_J1[A],current_J2[A],current_J3[A],current_J4[A],current_J5[A],current_J6[A],temp_J1[C],temp_J2[C],temp_J3[C],temp_J4[C],temp_J5[C],temp_J6[C]
8.129864e-07,0.14879557,-0.0166098,1.2483436,-0.008419028,0.016216228,-0.021778604,-0.38109574,-0.3485243,0.059977047,-3.0785441,0.6249595,-0.00012978243,0.0020431578,0.0010470425,-0.0022520865,0.0022744953,-0.004619699,9.9593184e-05,0.47775018,-1.4259217,1.9576916,-2.1008685,-1.5707458,2.452752,-4.3254076e-05,0.0008575782,0.0041328035,0.00015740628,0.000113454866,-0.0001450244,0.019153614,0.1340753,-8.580819,0.75084364,47.67614,0.052954406,-2.810628,-2.500877,-0.44564044,0.07265298,0.06391042,27.8125,28.9375,28.0625,32.0,34.0625,34.9375
0.00205215,0.1191904,-0.1983621,1.2940876,-0.003172484,0.012206112,-0.030329244,-0.38107798,-0.34852436,0.059969302,-3.078523,0.62491685,-0.00015784444,-0.0002387749,-0.00014171946,-0.0034327765,-0.0007059807,0.0010930994,9.784888e-05,0.47777414,-1.4259204,1.9577035,-2.1008494,-1.5707573,2.452752,-4.257208e-05,0.004262483,0.005504032,-0.0110622635,0.00011064129,-0.00014049564,0.038307227,0.15322891,-8.695741,0.70608455,47.705692,0.039321396,-2.6750875,-2.4790938,-0.3927825,0.07785782,0.03976904,27.8125,28.9375,28.0625,32.0,34.0625,34.9375
0.004052381,0.21516488,0.14023452,1.1184729,-0.008893791,0.009078008,-0.02453297,-0.38108107,-0.34852386,0.059961535,-3.0785155,0.62489593,-0.00011966689,-0.0014399403,-0.0007746277,-0.0031733278,-0.0019344368,0.003409198,9.5553696e-05,0.47778618,-1.4259081,1.9577154,-2.1008852,-1.5707816,2.452752,-4.1911313e-05,0.0053757536,0.004194539,-0.013487711,0.00012813674,-0.00013624248,0.05746084,0.11492168,-8.676587,0.7418897,47.683304,0.07661167,-3.1840029,-2.7450037,-0.30466884,0.08432187,0.042591497,27.8125,28.9375,28.0625,32.0,34.0625,34.9375
0.006052384,0.43997288,0.26252154,1.3441813,0.019696932,-0.0020161197,-0.023639018,-0.38105568,-0.3485217,0.059927795,-3.078503,0.6248552,-0.00018934351,-0.0008198034,-0.0004505741,-0.0017489296,-0.0014408932,0.0024791143,9.137278e-05,0.4777981,-1.4258851,1.957774,-2.1009195,-1.5707697,2.4527402,-4.127063e-05,0.0026219676,0.0029220814,-0.008408583,0.00012645032,-0.00013223878,-0.095768064,0.11492168,-8.734048,0.7642693,47.70211,0.06857786,-3.0757983,-2.6277962,-0.33107254,0.0673247,0.04729559,27.8125,28.9375,28.0625,32.0,34.0625,34.9375
0.008052496,0.9090805,1.1702927,0.73615634,0.038013756,-0.021044545,-0.025016263,-0.38105503,-0.34851465,0.059929974,-3.078473,0.62492555,-0.000218879,-0.0003272621,-0.00019292146,-0.00088402396,-0.0008453451,0.0013498452,8.7716035e-05,0.47778618,-1.4258857,1.9577612,-2.1008818,-1.5707697,2.452776,-4.064928e-05,0.0010336282,0.0018625876,-0.00448408,0.00012364065,-0.00012846345,0.076614454,0.13407528,-8.829816,0.784413,47.67345,0.046101436,-2.9722192,-2.5296261,-0.36656517,0.06485036,0.04849434,27.8125,28.9375,28.0625,32.0,34.0625,34.9375
0.010052428,0.9994289,1.1005628,0.43276015,0.045259997,-0.018524526,-0.024240348,-0.38107857,-0.34853145,0.059952177,-3.0785267,0.6248983,-0.00015808432,-0.000666225,-0.00036325897,0.00063613267,-0.0016149364,0.002844783,7.601504e-05,0.47778615,-1.4258864,1.957714,-2.1008937,-1.5707573,2.452752,-4.8835074e-05,-0.0010753262,0.00035105905,-0.0025449796,0.000120878496,-0.00012489656,0.05746084,0.15322891,-9.059659,0.76874626,47.652847,-0.31990412,-2.2704382,-3.079756,-0.4003296,0.07880695,-0.008698309,27.8125,28.9375,28.0625,32.0,34.0625,34.9375
0.01205255,0.48285294,0.110451214,0.050588895,0.011462462,-0.0076090693,-0.024407843,-0.3810231,-0.34848902,0.059884004,-3.0783968,0.62489146,-0.00040834703,-9.379435e-05,-3.453509e-05,-0.0021658894,0.0012434892,-0.002667705,6.96942e-05,0.47776207,-1.4258369,1.9577969,-2.1008213,-1.5707573,2.4527402,-0.000105313775,0.0046892585,4.7099047e-06,-0.0017536914,0.0001182323,-0.00017414117,0.05746084,0.076614454,-9.308657,0.68818194,47.709274,-0.4493261,-2.2198453,-3.2233994,-0.40181658,0.08714636,-0.065479435,27.8125,28.9375,28.0625,32.0,34.0625,34.9375
0.014052528,0.010364436,-0.87535065,-0.18061812,-0.03106799,0.02820291,-0.029744977,-0.38103637,-0.34851235,0.05988939,-3.0784342,0.62486196,-0.00037692022,-0.0050044986,0.0013504433,-0.0044415006,0.0030190574,-0.0061655575,-0.0030785482,0.4777838,-1.4258085,1.9577578,-2.1008456,-1.5707458,2.4527388,-0.0071318774,0.015993107,-0.0077668955,-0.0013639936,0.00013245064,-0.0040468383,-0.076614454,0.17238252,-9.423578,0.7620334,47.719128,-0.3564523,-3.0039124,-3.043875,-0.40380305,0.09011564,-0.08569446,27.8125,28.9375,28.0625,32.0,34.0625,34.9375
0.016051646,-1.2911384,-1.5589935,-0.31623733,-0.057017654,0.03724871,-0.023420254,-0.38105124,-0.34850168,0.059895147,-3.078418,0.6248548,-0.00038227625,-0.006201884,0.0025713653,-0.0034763284,0.0024251991,-0.005060412,0.0036970936,0.47775853,-1.4257973,1.9577235,-2.1008089,-1.5707573,2.452711,-0.010419722,0.014150686,-0.00807699,-0.0004676131,0.00014842486,-0.014110674,-0.13407528,0.2681506,-9.576807,0.68818194,47.689575,-0.22919033,-2.7910028,-3.1273813,-0.418909,0.113235116,0.026421428,27.8125,28.9375,28.0625,32.0,34.0625,34.9375
0.018051999,-1.5027364,-1.6220452,-0.44094178,-0.07271991,0.06861035,-0.042410903,-0.38103116,-0.34850502,0.059862446,-3.0783935,0.62479025,-0.00045422473,-0.0055095665,0.0022996597,-0.0035992106,0.0026584328,-0.0055529354,0.0076960307,0.47778302,-1.4257494,1.9577464,-2.1008208,-1.5707573,2.4526985,-0.009308318,0.013880068,-0.0075543066,-0.00017559365,0.00016744254,-0.01699862,-0.2681506,0.34476504,-9.691729,0.75755644,47.65912,-0.3833725,-2.6359437,-3.3867686,-0.4331491,0.120226555,0.04429041,27.8125,28.9375,28.0625,32.0,34.0625,34.9375
0.020052243,-1.2872589,-1.3783453,-0.48289642,-0.05591721,0.08464451,-0.06276458,-0.381053,-0.34851396,0.059877966,-3.0784488,0.62482125,-0.0004594775,-0.0064134044,0.0012933166,-0.002968482,-0.0002890535,-0.0053684507,0.006918009,0.47774673,-1.4257492,1.9577106,-2.1008208,-1.5707082,2.4526744,-0.009999521,0.014751446,-0.010000904,-0.00012774984,0.0026953695,-0.01691532,-0.4213795,0.34476504,-9.902418,0.77545905,47.70211,-0.52430195,-2.4380336,-3.570823,-0.4452628,0.12505774,0.037232533,27.8125,28.9375,28.0625,32.0,34.0625,34.9375
0.02205224,-1.4688101,-1.2248546,-0.5100116,-0.029430863,0.07801711,-0.07267939,-0.3810466,-0.34849668,0.059843585,-3.0784085,0.624796,-0.0005476796,-0.007973676,0.001353514,-0.0031889214,-0.0023324862,-0.006631332,0.0035074318,0.4777216,-1.4257004,1.9577335,-2.1008208,-1.5707077,2.4526386,-0.013105918,0.017202707,-0.012296002,-0.00011049176,0.0050846008,-0.01661458,-0.47884035,0.34476504,-9.80665,0.74413085,47.695843,-0.5234717,-2.4423661,-3.4549809,-0.46147883,0.09182195,0.010032868,27.8125,28.9375,28.0625,32.0,34.0625,34.9375
0.024052475,-1.001943,-0.21438804,-0.4870013,-0.027857164,0.07568475,-0.099877685,-0.38109553,-0.34848616,0.059853338,-3.0784013,0.62485343,-0.00047951483,-0.009548032,0.001345199,-0.002886087,-0.003216253,-0.005951945,0.001101921,0.47767308,-1.425664,1.9576725,-2.1008327,-1.5707315,2.452627,-0.014852294,0.01878127,-0.014759951,-0.000236494,0.005552237,-0.01595466,-0.61291564,0.38307226,-9.864111,0.7777002,47.709274,-0.5291801,-2.4029624,-3.4408178,-0.4680376,0.061695457,-0.020878788,27.8125,28.9375,28.0625,32.0,34.0625,34.9375
0.026051598,-1.263255,-0.511614,-0.59983605,-0.01944604,0.06481296,-0.10723318,-0.38111985,-0.348509,0.05986478,-3.0784705,0.6248495,-0.000467743,-0.010809925,0.0018879299,-0.0023985035,-0.0029187987,-0.0044385833,-0.00015127902,0.4776605,-1.42564,1.9576243,-2.1008565,-1.5706843,2.452603,-0.016358867,0.018914206,-0.01600555,-0.0003267629,0.004590084,-0.016205251,-0.7278373,0.30645782,-9.80665,0.7239871,47.688675,-0.5166643,-2.4309235,-3.4334931,-0.4794793,0.09782721,-0.029524622,27.8125,28.9375,28.0625,32.0,34.0625,34.9375
0.028051645,-1.6308835,-0.5703249,-0.38054276,-0.02485569,0.06970353,-0.118069075,-0.38113463,-0.348499,0.05985615,-3.0784512,0.62482566,-0.0004851878,-0.011727368,0.0014598771,-0.0021435486,-0.003510417,-0.0039134906,-0.00016489055,0.47763643,-1.4256036,1.9576,-2.100845,-1.5706958,2.4525666,-0.016629027,0.020291569,-0.018169979,-0.00027909747,0.004869006,-0.016461149,-0.7086837,0.22984336,-9.749189,0.7105615,47.66271,-0.6012194,-2.4539902,-3.3743153,-0.48027593,0.08864215,-0.03111951,27.8125,28.9375,28.0625,32.0,34.0625,34.9375
0.030051704,-1.9452778,-0.594597,-0.34122893,-0.027584262,0.07480959,-0.12584274,-0.38114902,-0.3485308,0.059837837,-3.0784767,0.6247745,-0.00057736726,-0.012331415,0.0012055215,-0.0021670482,-0.0044323863,-0.0042210105,-0.0016668176,0.47764823,-1.4254953,1.9575156,-2.1008327,-1.5706476,2.4525433,-0.017358152,0.02144955,-0.01942589,-0.00033459993,0.005826144,-0.015689595,-0.6703765,0.15322891,-9.787497,0.78888994,47.67614,-0.62187445,-2.3890767,-3.4618149,-0.4740408,0.07875116,-0.05304822,27.8125,28.9375,28.0625,32.0,34.0625,34.9375
0.03205173,-1.8488425,-0.32557797,-0.28816193,-0.021677468,0.07876995,-0.13944958,-0.38116896,-0.34850073,0.059825175,-3.0784483,0.6248065,-0.0006204298,-0.013465544,0.0005065964,-0.0010787958,-0.006757403,-0.0025495775,-0.0028021964,0.47757602,-1.4254714,1.9575146,-2.1008208,-1.5706471,2.4524946,-0.018003235,0.02128155,-0.021695325,-0.00045447616,0.00711723,-0.015200962,-0.6512229,0.076614454,-9.749189,0.75084364,47.71286,-0.6052618,-2.3483272,-3.3753128,-0.48985052,0.058662303,-0.046704642,27.8125,28.9375,28.0625,32.0,34.0625,34.9375
0.03405216,-1.069645,0.103080146,-0.24702805,0.00017718994,0.079623,-0.1491442,-0.38122472,-0.34850708,0.0598424,-3.0784945,0.6248556,-0.00054432405,-0.014953139,7.7520126e-05,-0.00046714282,-0.008363289,-0.0009816627,-0.0044821384,0.47752765,-1.4254352,1.9574422,-2.100857,-1.5706347,2.452471,-0.019070124,0.022264764,-0.024039596,-0.001225975,0.007817497,-0.014587263,-0.63206923,-0.019153614,-9.749189,0.7396539,47.72002,-0.61067986,-2.3348649,-3.3362103,-0.50416195,0.048864093,-0.071708836,27.8125,28.9375,28.0625,32.0,34.0625,34.9375
0.036052514,-1.1631385,0.28292656,-0.2722617,0.038386405,0.0488101,-0.1653388,-0.38125673,-0.34848535,0.059823923,-3.0784483,0.6249618,-0.00056220713,-0.016144574,9.1678005e-05,-0.00059538323,-0.009291039,-0.0004334658,-0.0057134763,0.47746712,-1.4253747,1.9574183,-2.1008694,-1.5706466,2.4524827,-0.020564564,0.023762245,-0.025161987,-0.002516058,0.008383889,-0.014850609,-0.51714754,-0.095768064,-9.672575,0.7777002,47.70211,-0.6332366,-2.4049397,-3.416276,-0.48997077,0.06738919,-0.095132135,27.8125,28.9375,28.0625,32.0,34.0625,34.9375
0.038052496,-0.39778823,0.60742396,-0.29109463,0.04956007,0.0483053,-0.18579473,-0.38128096,-0.34850168,0.059812557,-3.0784628,0.62500435,-0.00063761475,-0.017793708,0.00020693304,-0.0004969809,-0.009703096,0.0013740938,-0.0071091084,0.47744268,-1.4252903,1.9573454,-2.100858,-1.570599,2.452483,-0.021987395,0.025262402,-0.02670011,-0.004270237,0.007911659,-0.014875703,-0.38307226,-0.1340753,-9.653421,0.78217715,47.696735,-0.5758523,-2.3849041,-3.3933024,-0.44407344,0.046284575,-0.11003489,27.8125,28.9375,28.0625,32.0,34.0625,34.9375
0.04005232,-0.26994267,0.78078187,-0.47583574,0.03595987,0.040176224,-0.18904987,-0.38133496,-0.34848502,0.05981969,-3.0784643,0.6249657,-0.00052982173,-0.019663738,-0.0001710438,0.00055383233,-0.010635608,0.0041148523,-0.0070931367,0.47739437,-1.4252543,1.9572963,-2.1008942,-1.5706471,2.4524105,-0.022758344,0.026032854,-0.029878022,-0.00472434,0.0074733775,-0.015659569,-0.28730422,-0.15322891,-9.653421,0.7777002,47.70032,-0.6567776,-2.3230705,-3.3549423,-0.42761528,0.064503655,-0.10608535,27.8125,28.9375,28.0625,32.0,34.0625,34.9375
0.04205229,-0.51778966,0.17632551,-0.36005428,0.03845858,0.026928091,-0.1961751,-0.38138732,-0.34849384,0.059856407,-3.0785303,0.62499917,-0.00045085454,-0.02036273,0.00022402519,0.00050611375,-0.009618738,0.0040154937,-0.0074605993,0.47734612,-1.4252539,1.9572119,-2.1008942,-1.5706233,2.4523747,-0.02354725,0.02714898,-0.031219143,-0.00394007,0.0066162995,-0.016078096,-0.30645782,-0.15322891,-9.481039,0.75755644,47.65912,-0.62735915,-2.3376644,-3.3409872,-0.44348723,0.056713376,-0.12441352,27.8125,28.9375,28.0625,32.0,34.0625,34.9375
0.04405232,-0.47817436,-0.048094645,-0.25858265,0.017414521,0.029929098,-0.1988083,-0.3814038,-0.34848434,0.059851572,-3.0784907,0.6250677,-0.00046983853,-0.021088127,0.0005146902,0.0008167017,-0.00959986,0.0040696454,-0.0076749185,0.47732168,-1.4252177,1.9571761,-2.1008694,-1.5706352,2.452398,-0.02470586,0.02750355,-0.03254693,-0.0030061838,0.00657335,-0.017021935,-0.21068975,-0.038307227,-9.5385,0.8940802,47.687782,-0.60489285,-2.2754207,-3.3156185,-0.4576577,0.097295076,-0.14940128,27.8125,28.9375,28.0625,32.0,34.0625,34.9375
0.046051662,-0.09551722,-0.378372,-0.24378993,0.0010704296,0.037182666,-0.21140023,-0.3814599,-0.34848586,0.05982793,-3.078514,0.6250926,-0.00050592603,-0.02180929,0.0008069215,0.00087813585,-0.009550524,0.003347745,-0.008139567,0.47724923,-1.4250977,1.9571041,-2.100917,-1.5705994,2.4523382,-0.026074745,0.028516917,-0.034125946,-0.0017765852,0.006860758,-0.017926011,-0.15322891,0.095768064,-9.557653,0.8314132,47.70838,-0.61887294,-2.2305286,-3.28548,-0.46920782,0.07330918,-0.14847854,27.8125,28.9375,28.0625,32.0,34.0625,34.9375
0.048052605,-0.39181438,-0.7354454,-0.25825244,-0.0076710777,0.020446112,-0.19985132,-0.3814992,-0.3484923,0.059846256,-3.0785563,0.6251392,-0.00049819,-0.022501482,0.0011365536,0.0007865606,-0.009109128,0.0030677966,-0.008219313,0.47720078,-1.4250734,1.9570316,-2.1009047,-1.5705632,2.4523134,-0.0271261,0.02960419,-0.035273694,-0.0012627213,0.0065965923,-0.01889624,-0.095768064,0.21068975,-9.500193,0.7284641,47.66987,-0.58553857,-2.1862395,-3.2948818,-0.45917588,0.08571494,-0.16328457,27.8125,28.9375,28.0625,32.0,34.0625,34.9375
0.050052047,-0.38909915,-1.0780351,-0.3591653,-0.011475284,0.018721148,-0.18531935,-0.38156468,-0.34847248,0.059851304,-3.0785217,0.6252088,-0.00044685646,-0.023978781,0.00087108853,0.0017789045,-0.010539123,0.0049039694,-0.008085292,0.4771285,-1.4250014,1.9569353,-2.1008933,-1.5705994,2.452289,-0.028289134,0.029793933,-0.037762284,-0.0012534137,0.0070185955,-0.020192709,-0.038307227,0.24899697,-9.500193,0.7217513,47.655537,-0.569564,-2.180089,-3.3335922,-0.4795034,0.0921098,-0.18791667,27.8125,28.9375,28.0625,32.0,34.0625,34.9375
0.052052036,-0.061768338,-1.2922326,-0.46067405,-0.0096928775,0.020502806,-0.1841185,-0.3816162,-0.3484834,0.059868634,-3.0785797,0.6252023,-0.000371781,-0.024768237,0.00089229457,0.0017154943,-0.011200113,0.0045755366,-0.00820944,0.47709194,-1.424965,1.9568623,-2.1009285,-1.5705866,2.4522412,-0.029531535,0.03101885,-0.039019,-0.0012355248,0.007755394,-0.021310933,0.0,0.30645782,-9.461885,0.7083204,47.68062,-0.56082225,-2.1376462,-3.3520536,-0.48993516,0.10749717,-0.19757876,27.8125,28.9375,28.0625,32.0,34.0625,34.9375
0.0540521,0.23285206,-1.3340402,-0.40400663,-0.018926198,0.02931886,-0.18325087,-0.38164666,-0.3484942,0.059888013,-3.0786288,0.6252294,-0.00041788,-0.025071917,0.0007732487,0.0009078567,-0.011102798,0.0028676277,-0.0069562173,0.4770439,-1.4249402,1.9567789,-2.1008809,-1.5705265,2.4522038,-0.030050667,0.0335271,-0.040054597,-0.0011470062,0.008451292,-0.023083521,-0.019153614,0.34476504,-9.576807,0.7978386,47.684196,-0.60917556,-2.1846094,-3.297871,-0.4965656,0.10296434,-0.18868849,27.8125,28.9375,28.0625,32.0,34.0625,34.9375
0.056052443,-0.14633681,-1.2991301,-0.45976204,-0.03227384,0.020654904,-0.18597992,-0.3817156,-0.3484717,0.059865642,-3.0785668,0.625275,-0.00039859777,-0.026652541,0.00063092523,0.0014905141,-0.012241745,0.004684183,-0.007100457,0.47697142,-1.424808,1.9566821,-2.1008933,-1.5705746,2.4521677,-0.031363837,0.03436444,-0.04214467,-0.0020320467,0.0086222915,-0.0242516,0.019153614,0.40222588,-9.557653,0.7530795,47.672558,-0.57679945,-2.1935205,-3.33648,-0.48878604,0.0990566,-0.19874057,27.8125,28.9375,28.0625,32.0,34.0625,34.9375
0.0580525,-0.47173128,-1.8529052,-0.6484913,-0.029759543,0.014528271,-0.16906644,-0.3817606,-0.3484589,0.059881136,-3.078603,0.62526345,-0.0003651858,-0.027828826,0.00051026966,0.0026018028,-0.013936493,0.007000231,-0.007357162,0.47689906,-1.4247963,1.9566334,-2.1008937,-1.5705622,2.4520836,-0.03251585,0.033356328,-0.043404866,-0.0025999388,0.009062174,-0.025146764,0.038307227,0.51714754,-9.481039,0.7486078,47.68599,-0.55520225,-2.1203315,-3.3409338,-0.48401225,0.09082566,-0.22787175,27.8125,28.9375,28.0625,32.0,34.0625,34.9375
0.060052987,0.04619145,-1.247311,-0.31571636,-0.044986196,0.034566708,-0.18591233,-0.38181046,-0.3484396,0.05986518,-3.078588,0.6253553,-0.00041948602,-0.028712861,-1.2573574e-05,0.0025729341,-0.015280216,0.0068834536,-0.0062170066,0.47680292,-1.4247122,1.9565738,-2.1008937,-1.5705379,2.4520466,-0.033205044,0.035138927,-0.045278933,-0.0030243234,0.010304677,-0.026977222,-0.095768064,0.40222588,-9.5385,0.779936,47.675243,-0.6460133,-1.9907956,-3.314373,-0.48098853,0.0875815,-0.22579542,27.8125,28.9375,28.0625,32.0,34.0625,34.9375
0.062051974,-0.26772365,-1.4751681,-0.38415438,-0.023731686,0.022913551,-0.17507285,-0.38192,-0.34846064,0.059922896,-3.0786724,0.62537205,-0.00019314633,-0.029076228,0.00010191556,0.0015153313,-0.014387607,0.0047133653,-0.0052573653,0.4767546,-1.4246632,1.9563941,-2.100929,-1.5705618,2.4519982,-0.033870637,0.03826033,-0.046529163,-0.0025585932,0.0105107445,-0.028600046,-0.1340753,0.3256114,-9.500193,0.7396539,47.70211,-0.6585752,-2.0525246,-3.3700287,-0.49030203,0.07826666,-0.24455091,27.8125,28.9375,28.0625,32.0,34.0625,34.9375
0.064051986,-0.12965156,-1.0250213,-0.19090883,-0.017891647,0.022086287,-0.18030001,-0.38192067,-0.34848675,0.059883058,-3.0787184,0.62530476,-0.00040128845,-0.03076922,-0.00038993853,0.002706893,-0.015721325,0.006956049,-0.004787112,0.47673032,-1.424543,1.9563454,-2.1009176,-1.570454,2.451926,-0.03465364,0.038764536,-0.049889594,-0.0023040192,0.01065761,-0.029852716,-0.15322891,0.2873042,-9.423578,0.7866488,47.690468,-0.6698615,-2.1732836,-3.2423,-0.49450207,0.09035955,-0.25771052,27.8125,28.9375,28.0625,32.0,34.0625,34.9375
0.06605225,-0.006011704,-1.0696356,-0.10496388,-0.0043500373,0.027641479,-0.17410015,-0.38198516,-0.34848204,0.059894543,3.078684,-0.6254114,0.00038334986,-0.030908426,-0.00080620794,0.0014147455,-0.015704058,0.0042758053,-0.0034543343,0.4766463,-1.424482,1.9562496,-2.1009176,-1.5704292,2.4519129,-0.034825224,0.042459723,-0.05114234,-0.0023595467,0.011871052,-0.03135748,-0.019153614,0.24899697,-9.346964,0.784413,47.703007,-0.68089485,-2.1721396,-3.1371112,-0.4925913,0.06484802,-0.24662651,27.8125,28.9375,28.0625,32.0,34.0625,34.9375
0.06805208,-0.12916966,-0.62062085,-0.039074566,-0.007422735,0.033416785,-0.17873104,-0.3820561,-0.34848055,0.05988819,3.0786903,-0.6253927,0.00035754408,-0.031010978,-0.0006285955,0.0009246436,-0.01525075,0.0037221632,-0.0022943846,0.47658616,-1.4243617,1.9561294,-2.100929,-1.5704416,2.4518404,-0.035132267,0.043428876,-0.051051665,-0.0027183527,0.011722382,-0.032823928,-0.11492168,0.24899697,-9.3661175,0.7642693,47.68062,-0.7735676,-2.2163165,-3.393379,-0.49672914,0.0856088,-0.26130536,27.8125,28.9375,28.0625,32.0,34.0625,34.9375
0.07005206,-0.12542768,-0.46910927,0.17717649,-0.006959509,0.04803895,-0.18147087,-0.38213074,-0.3484963,0.059924807,3.0786004,-0.62533575,0.000284687,-0.033001628,-0.0015108043,0.0029584353,-0.018518161,0.007958288,-0.0014887808,0.47651398,-1.4243263,1.9560083,-2.100942,-1.5703934,2.451744,-0.03601228,0.042251866,-0.054124095,-0.0037325323,0.01267768,-0.034508303,-0.11492168,0.22984336,-9.3661175,0.7709874,47.684196,-0.79527515,-2.114924,-3.2785716,-0.4755473,0.06624013,-0.26494837,27.8125,28.9375,28.0625,32.0,34.0625,34.9375
0.07205199,-0.34108564,-0.008363726,0.1574304,-0.0033124492,0.0439973,-0.17948793,-0.38220778,-0.34850666,0.05992168,3.0785525,-0.6253445,0.00031882527,-0.034938958,-0.0022750814,0.0031789031,-0.019743327,0.008807626,-0.0006404801,0.47642967,-1.4241935,1.9558638,-2.100942,-1.5703448,2.4516714,-0.03688265,0.04548265,-0.058216106,-0.004187244,0.013368655,-0.036225237,-0.1340753,0.19153613,-9.270349,0.7933669,47.709274,-0.8755783,-2.1130486,-3.083468,-0.46380585,0.059992734,-0.27954975,27.8125,28.9375,28.0625,32.0,34.0625,34.9375
0.074051745,-0.175707,0.11522861,0.31215933,0.0052881422,0.04442998,-0.18364103,-0.38225725,-0.34849617,0.059933376,3.078526,-0.6253579,0.0003038116,-0.034261633,-0.0021676465,0.0019144863,-0.018663336,0.005871123,0.00030827732,0.47635764,-1.4241568,1.9557923,-2.100929,-1.5703329,2.451611,-0.036697377,0.047548182,-0.057836033,-0.0035278443,0.0137597425,-0.03698901,-0.24899697,0.22984336,-9.251195,0.7978386,47.70032,-0.89097446,-2.2278476,-3.0532522,-0.476116,0.057592817,-0.28106833,27.8125,28.9375,28.0625,32.0,34.0625,34.9375
0.07605183,-0.76927704,-0.6071021,0.008285442,0.020761264,0.032195453,-0.17164057,-0.3823224,-0.34850755,0.059921924,3.078517,-0.6253174,0.00030249968,-0.034028247,-0.0018628078,0.0011415004,-0.017766897,0.0041944464,0.00025714273,0.4763097,-1.4240246,1.9556731,-2.1009533,-1.5703205,2.451539,-0.037000734,0.048798863,-0.057597652,-0.003114535,0.013734377,-0.03724106,-0.30645782,0.17238252,-9.232041,0.68146914,47.684196,-0.9683872,-2.2703326,-3.2652826,-0.48040414,0.045078166,-0.29093647,27.8125,28.9375,28.0625,32.0,34.0625,34.9375
0.07805176,-0.29184252,-0.068907976,0.34711492,0.004342998,0.03863701,-0.17308468,-0.38245296,-0.34848946,0.05995394,3.0784485,-0.62539953,0.00017311356,-0.035973784,-0.0021873151,0.0021650905,-0.01865852,0.0063023875,0.00070973043,0.47616524,-1.4239284,1.9554929,-2.1009653,-1.5703329,2.4514546,-0.038088504,0.049949314,-0.061318785,-0.002823399,0.013558651,-0.038777877,-0.19153613,0.13407528,-9.174581,0.75755644,47.66271,-1.0078807,-2.1690955,-3.1871886,-0.48553386,0.045798413,-0.32340908,27.8125,28.9375,28.0625,32.0,34.0625,34.9375
0.08005173,-0.47788706,-0.02367824,0.24219464,0.007802678,0.03645195,-0.18093592,-0.38248897,-0.34851176,0.05993203,3.0784066,-0.62535125,0.0002849188,-0.036417995,-0.0022919734,0.001777632,-0.018441657,0.005734364,0.002771054,0.47611713,-1.4238081,1.9554085,-2.1009777,-1.570249,2.4513817,-0.03834939,0.05169076,-0.062419903,-0.0028549763,0.013623685,-0.04109968,-0.26815057,0.095768064,-9.174581,0.779936,47.709274,-1.0600733,-2.2094939,-3.0319014,-0.48074612,0.030152015,-0.3034582,27.8125,28.9375,28.0625,32.0,34.0625,34.9375
0.08205235,-0.47434872,-0.6746663,0.17602405,0.02034086,0.042331118,-0.18224795,-0.38255385,-0.34851143,0.05993572,3.0784068,-0.6253118,0.00026934643,-0.03753718,-0.002435036,0.0021429309,-0.0184368,0.006978877,0.0031737243,0.47605705,-1.4237119,1.9552873,-2.1009653,-1.5702494,2.451297,-0.03874431,0.052783344,-0.06447481,-0.0029933583,0.013045663,-0.041895073,-0.28730422,0.038307227,-9.212888,0.83365434,47.64121,-1.0781038,-2.2275329,-3.0888262,-0.48675638,0.035633143,-0.30718827,27.8125,28.9375,28.0625,32.0,34.0625,34.9375
0.0840522,-0.6927798,-0.2344972,0.27929345,0.0069733053,0.041132435,-0.17584665,-0.38265696,-0.34853503,0.059970856,3.078292,-0.62530893,0.00017008705,-0.038572337,-0.0023396108,0.0021590139,-0.018488394,0.007177721,0.0010502537,0.4759727,-1.4236275,1.955119,-2.1010015,-1.5702013,2.4512255,-0.03982712,0.054248653,-0.0662011,-0.0029298882,0.013002904,-0.040851716,-0.15322891,0.076614454,-9.193734,0.81351066,47.690468,-1.1396338,-2.18758,-3.1061873,-0.47830173,0.043191817,-0.34480524,27.8125,28.9375,28.0625,32.0,34.0625,34.9375
0.08605236,-0.84144497,-0.5381657,0.15778595,0.007224593,0.042614304,-0.17496908,-0.38269693,-0.3485239,0.059949636,3.0783226,-0.6252568,0.00026850036,-0.03916883,-0.0022991474,0.0020502782,-0.017814487,0.007239229,0.0023967212,0.47590065,-1.4235191,1.9550356,-2.1009653,-1.5701774,2.451117,-0.0400333,0.055594888,-0.06755758,-0.002660687,0.012372157,-0.042403486,-0.24899697,0.17238252,-9.251195,0.7418897,47.65106,-1.1496904,-2.163456,-3.0783086,-0.47746176,0.017086705,-0.37670296,27.8125,28.9375,28.0625,32.0,34.0625,34.9375
0.08805235,0.04497348,0.016769081,0.36170393,-0.010281513,0.06313217,-0.18313737,-0.38278016,-0.34853488,0.059957754,3.0782743,-0.6252863,0.00024917547,-0.040815413,-0.0014443924,0.0021087597,-0.01789065,0.0073511894,0.0017508074,0.47582766,-1.4233989,1.9548796,-2.1009653,-1.5701531,2.4510686,-0.04306609,0.056896657,-0.069240175,-0.0024112982,0.012388473,-0.044788964,-0.21068975,0.24899697,-9.3661175,0.8090337,47.67345,-1.1631895,-2.188466,-3.0675852,-0.487075,0.033656266,-0.35659814,27.8125,28.9375,28.0625,32.0,34.0625,34.9375
0.09005256,-0.70468795,-0.8210476,0.011686996,0.004806124,0.043847848,-0.16984476,-0.38286194,-0.34853658,0.05995991,3.0782638,-0.62518513,0.00019023826,-0.041652385,-0.0014574836,0.0017754557,-0.01716749,0.007075954,0.0053508063,0.47575533,-1.4232903,1.954759,-2.1010015,-1.5701531,2.4509346,-0.043468956,0.05918451,-0.07114143,-0.0022174024,0.011872089,-0.04878932,-0.19153613,0.2681506,-9.3661175,0.77545905,47.68062,-1.1464117,-2.106404,-3.021205,-0.48774743,0.029474474,-0.33960786,27.8125,28.9375,28.0625,32.0,34.0625,34.9375
0.09205165,-0.32261083,-0.48765194,-0.17855686,-0.015189428,0.051953442,-0.17524327,-0.3829536,-0.34852746,0.059958883,3.0782173,-0.6252324,0.0002397754,-0.041679036,-0.0018320384,0.001069237,-0.016498517,0.005959796,0.0069887843,0.47562385,-1.4231573,1.954604,-2.1009777,-1.5701054,2.4508386,-0.042761058,0.061486214,-0.072171845,-0.0021854124,0.01178825,-0.049718462,-0.2681506,0.3256114,-9.385271,0.80456203,47.719128,-1.3005167,-2.3394666,-3.041821,-0.49855912,0.028138323,-0.34638095,27.8125,28.9375,28.0625,32.0,34.0625,34.9375
0.09405161,-0.7987561,-1.0484201,-0.32949185,-0.014694796,0.044593208,-0.1695071,-0.3830302,-0.3485191,0.05995579,3.078213,-0.6252523,0.00023907245,-0.04351978,-0.0013303197,0.0027665226,-0.018132608,0.009100086,0.004636763,0.4755388,-1.423038,1.954472,-2.1009653,-1.5701059,2.4507666,-0.045339618,0.05956602,-0.073882796,-0.0020931796,0.011801032,-0.0499445,-0.30645782,0.2681506,-9.385271,0.86945957,47.709274,-1.297159,-2.0548174,-3.034947,-0.5067285,0.018312428,-0.35483915,27.8125,28.9375,28.0625,32.0,34.0625,34.9375
0.09605156,-0.49026635,-0.6689202,-0.2446677,-0.02072532,0.05405404,-0.18054551,-0.38311955,-0.34852862,0.059969917,3.0781622,-0.6251635,0.00022827346,-0.04466179,-0.0007244554,0.0020253214,-0.017188493,0.0082531655,0.0062749595,0.4754423,-1.4229289,1.9543151,-2.1009653,-1.5700577,2.4506211,-0.047160216,0.06229056,-0.07527594,-0.0022323222,0.011350799,-0.05340105,-0.2681506,0.2681506,-9.500193,0.7553206,47.701214,-1.240327,-2.1876304,-3.0759966,-0.50533116,0.03953711,-0.32756448,27.8125,28.9375,28.0625,32.0,34.0625,34.9375
0.098052,-0.5374656,-0.58065987,-0.11760055,-0.02357125,0.04400644,-0.18393779,-0.38320485,-0.34853423,0.059966315,3.0781608,-0.62514365,0.00019025097,-0.045712758,0.0002342002,0.00057620247,-0.016677832,0.005533308,0.0065229787,0.4753812,-1.4227836,1.9541601,-2.1009777,-1.5700692,2.450548,-0.050330292,0.065847516,-0.07599669,-0.0024174727,0.01214265,-0.056818902,-0.24899697,0.24899697,-9.576807,0.80679786,47.66271,-1.1809855,-2.205393,-3.0991359,-0.49358535,0.023981683,-0.32820708,27.8125,28.9375,28.0625,32.0,34.0625,34.9375
0.100052334,-0.5157391,-0.6885055,-0.25461164,-0.02063941,0.042828225,-0.17249005,-0.3832907,-0.3485352,0.059956085,3.0781424,-0.6250801,0.0002506475,-0.046870243,-0.0003826495,0.0020265952,-0.018483387,0.0082577355,0.009287575,0.47527304,-1.4226278,1.9540027,-2.1009653,-1.5700215,2.4504025,-0.050513882,0.06491239,-0.07823336,-0.0024898553,0.0124979755,-0.059766695,-0.38307226,0.30645782,-9.461885,0.81351066,47.689575,-1.1551934,-2.237688,-3.0940497,-0.49139613,0.03376384,-0.27807355,27.8125,28.9375,28.0625,32.0,34.0625,34.9375
0.102052465,-0.16489519,-0.32792354,0.041621316,-0.019595198,0.05654827,-0.18210967,-0.38337854,-0.34853557,0.059961453,3.0781069,-0.62501395,0.00021816717,-0.046730444,-0.00028388505,0.0006803448,-0.017051129,0.0064776517,0.012324203,0.4751772,-1.4225186,1.9538711,-2.100989,-1.5699972,2.45027,-0.050253052,0.067653194,-0.07816951,-0.0030503462,0.012042749,-0.062540896,-0.24899697,0.22984336,-9.404425,0.784413,47.687782,-1.3704011,-2.2205336,-3.1180887,-0.49463215,0.041769017,-0.24298549,27.8125,28.9375,28.0625,32.0,34.0625,34.9375
0.104052156,-0.5802004,-0.3856305,-0.053407837,-0.0059803748,0.04732808,-0.17728826,-0.3834797,-0.3485265,0.059949752,3.078088,-0.6250296,0.00018900436,-0.049462125,-0.00016192975,0.0017646946,-0.018900452,0.008846602,0.012101604,0.4750681,-1.422362,1.9537271,-2.1010258,-1.5699972,2.4501731,-0.05332141,0.068834625,-0.0819184,-0.0034343204,0.012598697,-0.065384895,-0.17238252,0.13407528,-9.461885,0.83365434,47.689575,-1.2342207,-2.1997008,-3.0713744,-0.49910396,0.04557663,-0.23679084,27.8125,28.9375,28.0625,32.0,34.0625,34.9375
0.10605162,-0.32274187,-0.4185953,-0.19590221,-0.0019472761,0.051341463,-0.17698632,-0.38359073,-0.34851786,0.059958328,3.0780637,-0.62498516,0.00018592832,-0.04933239,0.0011195479,6.210596e-07,-0.017391915,0.005623504,0.012813405,0.47493535,-1.4222174,1.9535369,-2.101002,-1.5699733,2.4500158,-0.05554697,0.07098488,-0.08031218,-0.0036299638,0.012738648,-0.068322584,-0.17238252,0.095768064,-9.461885,0.7597976,47.655537,-1.1711826,-2.273429,-3.2534559,-0.483383,0.027597327,-0.1846199,27.8125,28.9375,28.0625,32.0,34.0625,34.9375
0.108051606,-0.734689,-0.47494832,-0.1392629,0.006438155,0.040505968,-0.17518385,-0.38367558,-0.34854323,0.05996896,3.0780032,-0.6248569,0.00017240828,-0.050099574,0.00075057906,0.00012594066,-0.018083638,0.0057238196,0.015240046,0.4748632,-1.4220966,1.95338,-2.1010258,-1.5699128,2.4498713,-0.055952743,0.07233327,-0.08217176,-0.0035192764,0.013310412,-0.071153745,-0.17238252,0.17238252,-9.385271,0.8112748,47.652847,-1.2033863,-2.2791455,-3.3439837,-0.4859984,0.0419065,-0.12916778,27.8125,28.9375,28.0625,32.0,34.0625,34.9375
0.110052474,-0.5585597,-0.42498037,-0.17410915,0.010365935,0.044607062,-0.17581195,-0.38379094,-0.34852374,0.059957776,3.0780163,-0.6248396,0.00016046654,-0.05217807,0.00045195073,0.0013024972,-0.019235704,0.008176695,0.014789376,0.4747308,-1.4219164,1.9531993,-2.1010253,-1.5699252,2.4497266,-0.05724349,0.07321201,-0.08591077,-0.0033653835,0.013208278,-0.07199178,-0.22984336,0.095768064,-9.3661175,0.79560274,47.696735,-1.2007551,-2.319636,-3.0363955,-0.49337956,0.04330861,-0.108210236,27.8125,28.9375,28.0625,32.0,34.0625,34.9375
0.112052426,-0.43247026,0.084034204,0.03535892,0.0038742258,0.051636077,-0.18047842,-0.38392237,-0.3485302,0.060011,3.0778975,-0.6248359,2.3001428e-05,-0.05192228,0.0013216877,0.00014414132,-0.018615546,0.0059062787,0.012918036,0.47459826,-1.4218436,1.9529976,-2.1010377,-1.569889,2.449607,-0.058851708,0.07420723,-0.0843489,-0.0036171847,0.013709139,-0.071727835,-0.30645782,0.05746084,-9.308656,0.6725152,47.67793,-1.1910563,-2.2585359,-3.343423,-0.4942731,0.034257673,-0.08532196,27.8125,28.9375,28.0625,32.0,34.0625,34.9375
0.11405162,-0.8385813,-0.24009083,-0.021009147,0.010112111,0.043807346,-0.17070621,-0.38401282,-0.34853625,0.059996996,3.0779343,-0.62472755,5.2032832e-05,-0.05338858,0.0011236485,0.0009390737,-0.019207692,0.0075988774,0.01254624,0.47452593,-1.4216514,1.952804,-2.101013,-1.569889,2.4494624,-0.059666105,0.07496312,-0.08709052,-0.0034053402,0.013456595,-0.07216912,-0.21068975,0.038307227,-9.346964,0.7866488,47.696735,-1.2259307,-2.221487,-3.2293658,-0.48203677,0.03691277,-0.05421096,27.8125,28.9375,28.0625,32.0,34.0625,34.9375
0.116051875,-0.009804075,0.009947227,-0.019203486,0.0007292463,0.06631365,-0.17960626,-0.38411793,-0.3485218,0.059996508,3.0778534,-0.6247332,8.015391e-05,-0.053940915,0.0015687994,0.0002593013,-0.019335898,0.0061519574,0.0073737665,0.4743574,-1.4215305,1.9526724,-2.1010373,-1.569817,2.4493077,-0.061441403,0.07666385,-0.08747036,-0.003495647,0.014233712,-0.06877172,-0.15322891,0.038307227,-9.346964,0.7620334,47.716442,-1.1918262,-2.2018352,-3.285411,-0.48178595,0.030710476,-0.08515157,27.8125,28.9375,28.0625,32.0,34.0625,34.9375
0.11805187,-0.9848086,-0.6282626,0.045451596,0.018372996,0.040201344,-0.16151462,-0.38423917,-0.34851432,0.059997268,3.0778182,-0.6247463,4.956609e-05,-0.05470967,0.00213019,0.0005264956,-0.01900116,0.0067420257,0.0048093256,0.47422495,-1.4213624,1.9524812,-2.1010492,-1.5698045,2.449188,-0.06275189,0.07665684,-0.08815893,-0.0031683333,0.013669262,-0.067516536,-0.34476504,0.05746084,-9.289502,0.7866488,47.642998,-1.1495692,-2.0842948,-3.3514068,-0.48968118,0.049423456,-0.11349216,27.8125,28.9375,28.0625,32.0,34.0625,34.9375
0.120051965,-0.5229503,-0.36943337,-0.020983549,0.01330611,0.05201294,-0.1743071,-0.38435465,-0.34853026,0.059989225,3.0777643,-0.6246778,4.0274896e-05,-0.05508533,0.0025984303,6.383468e-05,-0.018828375,0.005942325,0.0038846177,0.47411656,-1.4211701,1.9522904,-2.1010969,-1.5697569,2.4490438,-0.064043395,0.07759518,-0.08815586,-0.0033150904,0.013885229,-0.06788275,-0.22984336,0.019153614,-9.404425,0.779936,47.687782,-1.2099127,-2.148916,-3.4420824,-0.46798468,0.04005267,-0.11185299,27.8125,28.9375,28.0625,32.0,34.0625,34.9375
0.1220517,-0.6283637,-0.12995212,-0.078150794,0.008491704,0.04545943,-0.17569852,-0.38446647,-0.3485135,0.060001902,3.0778058,-0.62457424,-1.1284986e-05,-0.057493784,0.0027020297,0.0008863182,-0.019518826,0.008026262,-0.0032270232,0.4740079,-1.4210253,1.9520849,-2.1010492,-1.5697931,2.4488654,-0.066187195,0.07923074,-0.09190119,-0.0033783866,0.013539204,-0.062912345,-0.30645782,0.019153614,-9.404425,0.83365434,47.66987,-1.1881931,-2.0691612,-3.2958806,-0.4786787,0.056745928,-0.13364665,27.8125,28.9375,28.0625,32.0,34.0625,34.9375
0.1240516,-0.84753567,-0.42402667,-0.11096282,0.007207204,0.044317666,-0.1659924,-0.38456595,-0.3485117,0.06000273,3.0776958,-0.62466925,5.8426314e-05,-0.056872666,0.0037027297,-0.0005352178,-0.018805292,0.004722397,-0.006114389,0.47385103,-1.4208927,1.9519314,-2.1010492,-1.5696963,2.4487817,-0.06793792,0.080237046,-0.08986868,-0.0031477509,0.014419842,-0.06177703,-0.40222588,-0.019153614,-9.385271,0.84708,47.67166,-1.0311499,-1.9889424,-3.5021553,-0.4909559,0.061138228,-0.1960631,27.8125,28.9375,28.0625,32.0,34.0625,34.9375
0.12605198,-0.61742604,-0.53039974,0.008472173,0.0075720246,0.055823743,-0.17101069,-0.38467705,-0.34849656,0.059998337,3.0776627,-0.6246999,6.602757e-05,-0.058759555,0.0026424683,0.00053228356,-0.019648613,0.0069588274,-0.0061267293,0.47370744,-1.4207356,1.9517616,-2.1010492,-1.569673,2.4486616,-0.0675827,0.08232469,-0.09481852,-0.002656226,0.014142875,-0.06140642,-0.4213795,0.095768064,-9.423578,0.7486078,47.686886,-1.2460526,-2.180456,-3.393243,-0.50747955,0.064941615,-0.20133218,27.8125,28.9375,28.0625,32.0,34.0625,34.9375
0.128052,-0.9401873,-0.6271106,0.032420084,0.006070126,0.04772707,-0.17208691,-0.38481316,-0.3484966,0.06001122,3.0776043,-0.62470907,-9.351635e-06,-0.059806425,0.003235122,0.001537623,-0.021130772,0.008417334,-0.009054317,0.47357473,-1.4205682,1.9515461,-2.101073,-1.5696601,2.448542,-0.069986366,0.08063218,-0.09521343,-0.0025429449,0.01480216,-0.060882077,-0.38307226,0.15322891,-9.385271,0.79560274,47.689575,-1.186444,-1.8421358,-3.4525652,-0.49185112,0.07117279,-0.21646832,27.8125,28.9375,28.0625,32.0,34.0625,34.9375
0.13005254,-0.72657096,-0.39045888,-0.22837254,0.006631095,0.055109706,-0.17528944,-0.38492298,-0.34846637,0.06000038,3.077593,-0.6247856,5.9617298e-05,-0.06156399,0.004269277,0.0006720047,-0.020401139,0.0068931296,-0.012604083,0.4734053,-1.4203991,1.9513663,-2.1010253,-1.5696362,2.448422,-0.07342675,0.084105976,-0.097296424,-0.0022407796,0.014844441,-0.06077179,-0.30645782,0.11492168,-9.442732,0.7777002,47.681515,-0.99166256,-1.9843475,-3.3834748,-0.49241745,0.07655794,-0.25580072,27.8125,28.9375,28.0625,32.0,34.0625,34.9375
0.13205247,-0.5637993,-0.36724514,-0.063336626,-0.002236273,0.062927395,-0.17053851,-0.38505816,-0.3484752,0.060007747,3.07751,-0.6247482,-2.2632503e-05,-0.06244899,0.0030200467,0.0023281006,-0.022235261,0.010021832,-0.011214439,0.47327402,-1.4202312,1.9511737,-2.1010969,-1.5696,2.448278,-0.07212672,0.08323348,-0.10010318,-0.0021788022,0.015052916,-0.06085891,-0.34476504,0.19153613,-9.519346,0.79560274,47.690468,-1.1701238,-1.8946604,-3.3657327,-0.4988556,0.08591331,-0.29366058,27.8125,28.9375,28.0625,32.0,34.0625,34.9375
0.13405243,-0.56271935,-0.21154666,-0.100812085,-0.015951892,0.06835416,-0.17595391,-0.3851884,-0.34844875,0.060015876,3.077498,-0.6247853,-6.332939e-05,-0.06406271,0.0045256275,0.0016638578,-0.021245208,0.009576409,-0.014016421,0.47311658,-1.4200743,1.95097,-2.101073,-1.5696129,2.4481454,-0.07580103,0.08514415,-0.1006769,-0.0026631502,0.014377347,-0.061729837,-0.36391866,0.24899697,-9.519346,0.82022345,47.653748,-1.0484177,-1.8107327,-3.4303036,-0.49460012,0.104130656,-0.3145769,27.8125,28.9375,28.0625,32.0,34.0625,34.9375
0.13605183,-0.59015036,-0.38779074,-0.28572798,-0.019387012,0.06725964,-0.180906,-0.3853159,-0.3484442,0.060010612,3.0774457,-0.6248514,-1.3990794e-05,-0.06531821,0.0038425592,0.0020236776,-0.023137646,0.009902257,-0.014050931,0.47296035,-1.4198695,1.9507421,-2.1010492,-1.5695637,2.4480371,-0.07669717,0.08687939,-0.10348186,-0.0027449208,0.015910892,-0.0625908,-0.3256114,0.22984336,-9.557653,0.8314132,47.683304,-1.0411793,-1.8526373,-3.383063,-0.506197,0.10148812,-0.3323601,27.8125,28.9375,28.0625,32.0,34.0625,34.9375
0.13805196,-1.3774579,-1.5144142,-0.60618234,-0.00851131,0.047958385,-0.16554797,-0.38542667,-0.34845948,0.060015526,3.0773835,-0.6247625,1.3179744e-05,-0.06595759,0.0045009907,0.0016557262,-0.023082769,0.008966877,-0.015625421,0.47283983,-1.4197011,1.950538,-2.1010492,-1.5694917,2.447869,-0.07866573,0.087862976,-0.103833735,-0.0025133698,0.016292684,-0.06298429,-0.40222588,0.21068975,-9.595961,0.81351066,47.684196,-1.0240134,-1.7981678,-3.414864,-0.4997304,0.12542975,-0.36915636,27.8125,28.9375,28.0625,32.0,34.0625,34.9375
0.14005183,-0.36872742,-0.8405628,-0.18973947,-0.028538315,0.073447496,-0.1817935,-0.3855904,-0.34842595,0.060022984,3.077278,-0.62493354,-9.110543e-05,-0.06722501,0.004060351,0.00199759,-0.02453063,0.00907445,-0.016786035,0.4726232,-1.4195443,1.9503578,-2.1011207,-1.5694793,2.4477727,-0.079804726,0.08957004,-0.10666419,-0.0021450482,0.017537568,-0.06296017,-0.47884035,0.24899697,-9.634268,0.79560274,47.66091,-0.96405894,-1.8576176,-3.4237099,-0.4937592,0.11370443,-0.39249128,27.8125,28.9375,28.0625,32.0,34.0625,34.9375
0.14205173,-1.0481703,-0.58097094,-0.29608,-0.020680634,0.05562987,-0.18029974,-0.3857275,-0.3484241,0.060047787,3.0772474,-0.6249089,-0.00018887132,-0.06850335,0.0043943087,0.0019125437,-0.024550669,0.009110027,-0.017839124,0.47250265,-1.4193876,1.9501189,-2.1011088,-1.5694913,2.447641,-0.081533745,0.0913087,-0.1084837,-0.0021028465,0.017542833,-0.06363375,-0.28730422,0.30645782,-9.672575,0.8179876,47.711964,-0.9614326,-1.8897395,-3.3571968,-0.5163977,0.11408195,-0.4273406,27.8125,28.9375,28.0625,32.0,34.0625,34.9375
0.14405163,-0.65970176,-0.30318508,-0.16562237,-0.016854303,0.07732094,-0.18353513,-0.3858526,-0.34840837,0.060044635,3.077202,-0.624975,-9.956536e-05,-0.06969786,0.004513362,0.0014345134,-0.024060177,0.008819747,-0.01733784,0.47232231,-1.4191942,1.949891,-2.1010492,-1.5694317,2.4475076,-0.082601555,0.09410085,-0.11055699,-0.002330081,0.017236575,-0.06520169,-0.28730422,0.30645782,-9.634268,0.8985519,47.694946,-0.9207393,-1.8131766,-3.3919418,-0.51559055,0.13043436,-0.46477208,27.8125,28.9375,28.0625,32.0,34.0625,34.9375
0.14605203,-0.82093847,-0.52916884,-0.1615458,-0.0058301645,0.06930682,-0.17932823,-0.3860108,-0.34840342,0.060041755,3.0771441,-0.625021,-0.00013130512,-0.0708757,0.0048336955,-0.0009866178,-0.022814367,0.0047822855,-0.017462892,0.47215378,-1.4189637,1.9496387,-2.101073,-1.5694073,2.4473753,-0.084675536,0.10098972,-0.112849034,-0.0027603349,0.017965592,-0.06714789,-0.30645782,0.21068975,-9.576807,0.8247004,47.64658,-0.8622527,-2.073504,-3.3310199,-0.51324284,0.14192593,-0.46002018,27.8125,28.9375,28.0625,32.0,34.0625,34.9375
0.1480519,-0.7012595,-0.29154766,-0.046419192,-0.008747877,0.06450068,-0.17340103,-0.38615882,-0.3483837,0.06004425,3.0770712,-0.62508005,-0.00015830419,-0.07457962,0.0042284876,0.002575392,-0.025986047,0.012610431,-0.013655197,0.4719611,-1.4187844,1.9494332,-2.1010973,-1.5693716,2.447229,-0.08645591,0.09884081,-0.118361,-0.0034982138,0.017230466,-0.07273236,-0.34476504,0.19153613,-9.481039,0.82022345,47.689575,-0.8374014,-1.9639199,-3.1821184,-0.50007486,0.15530464,-0.46700495,27.8125,28.9375,28.0625,32.0,34.0625,34.9375
0.15005188,-0.42838377,-0.19115795,-0.028469443,-0.010534775,0.074014984,-0.17823474,-0.38631555,-0.34840026,0.060068298,3.07697,-0.6250972,-0.00022435116,-0.0738303,0.004697595,-0.0010070816,-0.023388095,0.00623175,-0.011149029,0.47181678,-1.4185898,1.9491581,-2.1011093,-1.5693234,2.4471083,-0.08695561,0.10535081,-0.117567725,-0.0039311685,0.017829884,-0.07573612,-0.49799395,0.22984336,-9.461885,0.8314132,47.696735,-0.81634176,-2.1355686,-3.1671882,-0.49168524,0.15531409,-0.45616597,27.8125,28.9375,28.0625,32.0,34.0625,34.9375
0.15205179,-0.24797702,-0.4894258,-0.10050678,-0.0037938862,0.074669585,-0.18274802,-0.38645527,-0.34837437,0.060067702,3.0769448,-0.6250906,-0.00024235244,-0.07718576,0.004829141,0.0019574128,-0.026968399,0.011585532,-0.010111141,0.47163567,-1.4184107,1.948954,-2.1011093,-1.5693105,2.4469264,-0.090684645,0.103158034,-0.12185379,-0.0038405822,0.018588524,-0.0805011,-0.4213795,0.21068975,-9.461885,0.8314132,47.721813,-0.66112083,-1.9851395,-3.0443516,-0.47392887,0.16779229,-0.41756937,27.8125,28.9375,28.0625,32.0,34.0625,34.9375
0.15405235,-1.1044934,-0.9908786,0.076109365,-0.009495752,0.059607327,-0.1670046,-0.3865958,-0.34834895,0.060051683,3.0769107,-0.6251156,-0.00017900817,-0.07624657,0.0040352154,0.0009793787,-0.026076779,0.009768704,0.0011521379,0.47143257,-1.4181936,1.9487389,-2.1010973,-1.5692633,2.4467432,-0.088416055,0.10522919,-0.12205944,-0.0036628235,0.01863371,-0.08949574,-0.4405331,0.2681506,-9.423578,0.8672237,47.704796,-0.88157225,-2.0328622,-3.1417618,-0.4858784,0.18778048,-0.3399823,27.8125,28.9375,28.0625,32.0,34.0625,34.9375
0.15605225,-0.8973716,-0.79453695,0.19034949,-0.014575324,0.06895409,-0.17470263,-0.38676998,-0.34834692,0.06009406,3.0768042,-0.6250744,-0.00027783817,-0.078115866,0.0045364085,0.0009866819,-0.026986439,0.009361413,0.0011021027,0.4712395,-1.4180368,1.9484624,-2.1010969,-1.5692147,2.4465382,-0.091602124,0.1074116,-0.12468173,-0.0032642703,0.019643221,-0.09262819,-0.51714754,0.30645782,-9.385271,0.81351066,47.66987,-0.8304689,-1.9479762,-3.0666773,-0.4954607,0.18540904,-0.31723523,27.8125,28.9375,28.0625,32.0,34.0625,34.9375
0.15805218,-0.606411,-0.38969094,0.19600725,-0.014004105,0.07904851,-0.17875841,-0.3869376,-0.34835362,0.060088713,3.0767655,-0.62494665,-0.00034192915,-0.077836595,0.0038558142,0.0009652665,-0.027284302,0.0093635395,0.007935246,0.47108382,-1.4177843,1.9481987,-2.101157,-1.5691909,2.446308,-0.09028184,0.107889496,-0.1251819,-0.003366873,0.019923937,-0.09813941,-0.4213795,0.21068975,-9.308656,0.779936,47.64837,-0.8498734,-2.0371695,-3.0628302,-0.49042314,0.19621837,-0.22669023,27.8125,28.9375,28.0625,32.0,34.0625,34.9375
0.16005212,-0.30086455,-0.27963898,0.24897306,-0.019246748,0.08259735,-0.18884799,-0.38709763,-0.34834957,0.060116507,3.0766919,-0.624988,-0.00040692146,-0.07820664,0.0033903315,0.00081803935,-0.027182197,0.009541783,0.011353537,0.47091615,-1.4176035,1.9479226,-2.1011336,-1.569167,2.4461756,-0.08964778,0.109393515,-0.12652923,-0.0036256928,0.01976322,-0.10092134,-0.21068975,0.2681506,-9.270349,0.82694155,47.688675,-0.98226357,-1.8889656,-3.063725,-0.48426723,0.21137673,-0.1789164,27.8125,28.9375,28.0625,32.0,34.0625,34.9375
0.16205217,-0.55876935,-0.86061114,0.40320343,-0.0063616997,0.06639293,-0.17700925,-0.38724473,-0.3483403,0.060076278,3.0766284,-0.6250125,-0.0003067518,-0.079273045,0.0031979275,0.00072889484,-0.027519207,0.009721569,0.011876182,0.470712,-1.4173266,1.9477075,-2.1011813,-1.5690826,2.4459949,-0.09036978,0.11138669,-0.12858818,-0.0038592392,0.019981658,-0.102165,-0.24899697,0.22984336,-9.212888,0.88289046,47.690468,-1.0027728,-2.0805159,-3.2140534,-0.47501338,0.22111487,-0.14525847,27.8125,28.9375,28.0625,32.0,34.0625,34.9375
0.16405222,-0.42105085,-0.7411215,0.34011588,-0.00084402517,0.04510177,-0.175715,-0.38742727,-0.34833208,0.060095873,3.0766191,-0.62483764,-0.00039160685,-0.07929152,0.0036982398,-0.0003438512,-0.026714629,0.00782008,0.0108625665,0.47053176,-1.4170978,1.9473976,-2.1011693,-1.5690821,2.4457068,-0.09132373,0.11322275,-0.1282452,-0.003975594,0.02013782,-0.10210387,-0.2681506,0.19153613,-9.155427,0.77545905,47.68599,-1.0347322,-1.9331374,-3.1459556,-0.48384738,0.22518945,-0.12561166,27.8125,28.9375,28.0625,32.0,34.0625,34.9375
0.16605219,0.19661914,-0.40131053,0.5965158,0.0024712505,0.035588287,-0.17976266,-0.38760266,-0.348326,0.060114425,3.0765216,-0.6248393,-0.00048967835,-0.0804097,0.0032683308,0.00016826588,-0.02744558,0.009216536,0.00778486,0.47033957,-1.4169053,1.9471453,-2.1012175,-1.5690469,2.4455283,-0.091541044,0.11420091,-0.1304825,-0.0042895926,0.020160925,-0.099240065,-0.17238252,0.2681506,-9.040505,0.7418897,47.70032,-0.9736327,-2.074557,-3.1954927,-0.4680251,0.2428719,-0.121626735,27.8125,28.9375,28.0625,32.0,34.0625,34.9375
0.16805223,0.63350284,-0.27471575,0.26371148,-2.3172672e-05,0.01922123,-0.17047848,-0.38775852,-0.34828782,0.060104616,3.0765157,-0.6248987,-0.00044632572,-0.08071264,0.0038300108,-0.0010300368,-0.026988123,0.0067892494,0.0015872434,0.47012305,-1.4166762,1.9468936,-2.1011693,-1.5690345,2.4453497,-0.09320373,0.11665977,-0.13060468,-0.00425912,0.020847,-0.09470515,-0.076614454,0.2681506,-9.078813,0.82022345,47.70032,-1.0523562,-2.1919117,-3.2819352,-0.45017242,0.2588958,-0.15533751,27.8125,28.9375,28.0625,32.0,34.0625,34.9375
0.17005198,0.9912559,-0.36352807,0.5712505,0.0049702097,0.00027972716,-0.17184508,-0.38792357,-0.34829465,0.060106378,3.0764303,-0.62486374,-0.0005015838,-0.082180105,0.0033914659,0.00037517305,-0.029285721,0.0093325395,-0.002482104,0.46995455,-1.4164485,1.9466418,-2.101229,-1.5689858,2.4451704,-0.09428386,0.11592229,-0.13292766,-0.0045066723,0.021744082,-0.09171299,0.0,0.15322891,-9.021352,0.75755644,47.686886,-1.0966305,-1.906825,-3.1890256,-0.44446555,0.26832795,-0.19327956,27.8125,28.9375,28.0625,32.0,34.0625,34.9375
0.1720522,0.9277685,0.023221703,0.520957,0.0011643736,-0.015818488,-0.17285916,-0.38810122,-0.34827465,0.060092885,3.0764098,-0.62488145,-0.00050233444,-0.08210126,0.003044022,-0.0002230804,-0.02961201,0.007791144,-0.007345658,0.46975067,-1.4161713,1.9463543,-2.101229,-1.5689734,2.4449804,-0.09418159,0.117622115,-0.13358647,-0.004327098,0.022728557,-0.08674621,0.076614454,0.17238252,-8.868123,0.8918391,47.705692,-1.0852554,-1.9973018,-3.277228,-0.44075006,0.27575582,-0.25604182,27.8125,28.9375,28.0625,32.0,34.0625,34.9375
0.17405216,0.87478954,-0.25833222,0.34747142,0.018376172,-0.021033052,-0.17306955,-0.38824594,-0.34827834,0.06011842,3.0762877,-0.6249139,-0.00045416623,-0.083439924,0.0043148682,-0.0012262424,-0.029362757,0.005546491,-0.008853138,0.4695572,-1.4160023,1.946091,-2.1011813,-1.5688657,2.4448228,-0.09810621,0.12034043,-0.13451476,-0.003987491,0.023532929,-0.089161314,0.26815057,0.19153613,-9.002198,0.82694155,47.694054,-0.8760514,-2.051133,-3.338098,-0.44660363,0.28702947,-0.27074668,27.8125,28.9375,28.0625,32.0,34.0625,34.9375
0.17605226,1.0238699,0.13850717,0.5326991,0.011871772,-0.011557884,-0.1741569,-0.3884203,-0.34828192,0.060114667,3.0762362,-0.62488425,-0.0005021838,-0.08363341,0.0028186794,-0.0006222843,-0.030708328,0.006352351,-0.00858029,0.46939012,-1.4157377,1.945804,-2.1012175,-1.5688409,2.444644,-0.09612605,0.12124033,-0.13701664,-0.0037127626,0.024368824,-0.0874511,0.19153613,0.17238252,-9.078813,0.8157518,47.6421,-1.1095618,-1.9827976,-3.2790651,-0.444288,0.2890428,-0.27996713,27.8125,28.9375,28.0625,32.0,34.0625,34.9375
0.17805216,0.4190054,-0.34023058,0.2024924,0.013285282,-0.012663473,-0.16884826,-0.38859648,-0.34826618,0.060094174,3.076178,-0.62491226,-0.00048157663,-0.08519685,0.0043268623,-0.0014450941,-0.03035216,0.0042404663,-0.012205672,0.46917245,-1.4154606,1.9455403,-2.1012523,-1.5687927,2.4444513,-0.10055909,0.12373593,-0.13821147,-0.0029600712,0.025012767,-0.08825725,0.17238252,0.21068975,-9.097966,0.8179876,47.64121,-0.93767595,-2.0132928,-3.379093,-0.4454931,0.28659242,-0.30894202,27.8125,28.9375,28.0625,32.0,34.0625,34.9375
0.18005204,0.99648577,-0.4987843,0.118940175,0.0055115074,0.021735404,-0.17539838,-0.38874108,-0.34827402,0.06009938,3.076115,-0.62487775,-0.00046643644,-0.084768154,0.0030668,-0.0015871967,-0.030564407,0.003633652,-0.00980158,0.46901754,-1.4152439,1.9452766,-2.1012404,-1.5687331,2.444283,-0.098204575,0.12528378,-0.13980377,-0.0024626951,0.025479946,-0.088304915,0.17238252,0.2681506,-9.193734,0.8672237,47.684196,-1.0943034,-1.9925559,-3.4511752,-0.44162598,0.28603044,-0.33132,27.8125,28.9375,28.0625,32.0,34.0625,34.9375
0.18205202,0.6673294,-0.703503,0.033065338,-0.011020221,0.032824513,-0.18118638,-0.3889248,-0.34825888,0.060100954,3.0760899,-0.6248928,-0.00050747686,-0.084758565,0.0037435761,-0.0024467108,-0.030419545,0.0012882573,-0.011637335,0.46882495,-1.4149795,1.9449662,-2.101228,-1.5687326,2.4441032,-0.09994099,0.1264435,-0.13932732,-0.001939675,0.026418732,-0.088204525,0.15322891,0.36391866,-9.3661175,0.8314132,47.709274,-1.1135836,-1.9749203,-3.412302,-0.4451566,0.30053043,-0.36178273,27.8125,28.9375,28.0625,32.0,34.0625,34.9375
0.18405193,-0.18731353,-1.5224683,-0.4116565,-0.010864435,0.023192389,-0.16077237,-0.38905135,-0.3482476,0.060059387,3.0760777,-0.62488997,-0.00034859465,-0.086911194,0.003093397,-0.0008201058,-0.03265506,0.003936112,-0.011073084,0.4686444,-1.4147027,1.9447373,-2.1012042,-1.5686601,2.4439225,-0.101194285,0.12687944,-0.14370097,-0.0013621446,0.027208796,-0.090021685,0.05746084,0.22984336,-9.385271,0.8605109,47.681515,-1.1590213,-2.0366046,-3.2752776,-0.4460141,0.29299545,-0.38451612,27.8125,28.9375,28.0625,32.0,34.0625,34.9375
0.18605241,-0.29264638,-1.1303076,-0.32500243,-0.027626762,0.02104347,-0.16983443,-0.38923383,-0.34823772,0.060067594,3.0759945,-0.62487054,-0.0003339204,-0.086694136,0.0033497936,-0.0030324392,-0.030778741,-0.00067456113,-0.008380872,0.4684162,-1.4144609,1.9444379,-2.1011918,-1.5685877,2.443693,-0.10166616,0.13178115,-0.1445294,-0.00045654547,0.02763065,-0.09318345,0.019153614,0.3256114,-9.442732,0.8627467,47.658226,-1.163921,-1.9910445,-3.3580666,-0.4626218,0.2889041,-0.37026852,27.8125,28.9375,28.0625,32.0,34.0625,34.9375
0.1880524,-0.54995674,-1.7204407,-0.59989756,-0.029751183,0.034022167,-0.16079293,-0.38939023,-0.34823227,0.060061436,3.0759184,-0.6248727,-0.00026737415,-0.08809341,0.0034021705,-0.0015173095,-0.032824162,0.0018386235,-0.005329444,0.4682117,-1.4142214,1.9441737,-2.1011798,-1.5685033,2.4434996,-0.10341157,0.13018718,-0.14620517,-0.00033137406,0.02833138,-0.09797922,-0.11492168,0.40222588,-9.615114,0.79560274,47.668976,-1.1732728,-1.9336743,-3.388155,-0.45862654,0.30309734,-0.3551348,27.8125,28.9375,28.0625,32.0,34.0625,34.9375
0.1900522,-0.114266634,-0.8601378,-0.5805819,-0.048812762,0.06444738,-0.18264322,-0.38956866,-0.3482341,0.060064502,3.0758553,-0.6248941,-0.00029022235,-0.08920529,0.0029437963,-0.0014096478,-0.033207543,0.0023651135,0.00015816685,0.4680316,-1.4139564,1.9438618,-2.1011798,-1.5684675,2.443341,-0.103622325,0.13224448,-0.14883862,-0.00037747127,0.028448813,-0.103674725,-0.19153613,0.36391866,-9.615114,0.8314132,47.684196,-1.1137226,-1.997051,-3.2636595,-0.46534967,0.30540138,-0.2912588,27.8125,28.9375,28.0625,32.0,34.0625,34.9375
0.19205204,-0.9135097,-1.5182266,-0.745218,-0.03855407,0.06587867,-0.16918209,-0.38975438,-0.348219,0.060068887,3.07583,-0.6248084,-0.0002827871,-0.09088946,0.002748686,-0.00072408497,-0.034541238,0.0036801035,0.005944826,0.46781513,-1.4136918,1.943539,-2.1011436,-1.5684317,2.4430745,-0.1051219,0.13339065,-0.15175614,-0.00035750895,0.029060232,-0.11095858,-0.28730422,0.4213795,-9.80665,0.86945957,47.690468,-1.1790354,-1.9341272,-3.4325976,-0.46837416,0.3043575,-0.2365433,27.8125,28.9375,28.0625,32.0,34.0625,34.9375
0.1940519,-1.5262568,-1.7729136,-0.5268378,-0.04519125,0.07946005,-0.16723949,-0.38992515,-0.3482225,0.060066726,3.0757139,-0.6247653,-0.00024997568,-0.0917761,0.0036731286,-0.0011300686,-0.03468618,0.002759213,0.006347332,0.46759826,-1.413451,1.9432753,-2.1011798,-1.568323,2.4428456,-0.107847854,0.13437882,-0.1520041,-0.00031739255,0.029621186,-0.11408487,-0.51714754,0.40222588,-9.730036,0.99031126,47.684196,-1.2316737,-1.9768603,-3.4184642,-0.49003378,0.3113029,-0.16597515,27.8125,28.9375,28.0625,32.0,34.0625,34.9375
0.19605239,-1.4714829,-1.4246945,-0.79814166,-0.037071925,0.09507528,-0.16602781,-0.390095,-0.34820038,0.060040127,3.07574,-0.6247096,-0.00022040855,-0.092233285,0.0023335365,-0.0006182297,-0.036105644,0.003580263,0.012547312,0.46740684,-1.4131505,1.9429873,-2.101168,-1.568323,2.4426162,-0.10641899,0.13557045,-0.15458813,-0.0002840683,0.030523151,-0.11885492,-0.6512229,0.40222588,-9.672575,0.81351066,47.653748,-1.2303463,-1.9524081,-3.3748412,-0.49154475,0.3178922,-0.10051946,27.8125,28.9375,28.0625,32.0,34.0625,34.9375
0.1980523,-1.8118659,-1.3088201,-0.82138336,-0.019109024,0.102636024,-0.16764522,-0.3903101,-0.34821895,0.06006466,3.0756023,-0.62462723,-0.00024682013,-0.09484566,0.0037656105,0.00013763909,-0.037102968,0.0050756484,0.0060748025,0.4671773,-1.4128741,1.9426159,-2.1011798,-1.5682148,2.442353,-0.111355714,0.13581087,-0.1566245,-0.0002569981,0.030749649,-0.11731486,-0.68953013,0.2873042,-9.787497,0.8090337,47.63404,-1.1371593,-1.8500222,-3.3310847,-0.48557192,0.29896945,-0.077954195,27.8125,28.9375,28.0625,32.0,34.0625,34.9375
0.2000523,-1.1357476,-0.38724414,-0.51720524,-0.026707089,0.109462865,-0.17589787,-0.39050215,-0.34819806,0.060062364,3.0755324,-0.62466985,-0.00024345555,-0.09500425,0.0029832877,-0.00057049067,-0.036859527,0.0039783306,0.0057196105,0.46693754,-1.4126086,1.9423155,-2.1011798,-1.5681666,2.442149,-0.1102309,0.13876545,-0.15843616,-0.00030204322,0.03102819,-0.11583235,-0.6703765,0.22984336,-9.787497,0.8717007,47.689575,-1.1247882,-1.9887836,-3.3040857,-0.48947424,0.31012145,-0.063355505,27.8125,28.9375,28.0625,32.0,34.0625,34.9375
0.20205246,-0.7214343,0.18452583,-0.3927629,-0.0055764783,0.101372525,-0.17859806,-0.3906948,-0.34818092,0.06004698,3.0754864,-0.62462527,-0.00019855113,-0.09674918,0.0036049762,-0.00093062833,-0.03778546,0.0030503084,-0.001017288,0.46669638,-1.4123079,1.9420041,-2.1011798,-1.5681065,2.441886,-0.11361384,0.1412621,-0.16053127,-0.0002898915,0.032266974,-0.11247592,-0.7852981,0.076614454,-9.634268,0.8403672,47.668976,-1.0911274,-1.9087316,-3.3557115,-0.5107944,0.29252002,-0.096794635,27.8125,28.9375,28.0625,32.0,34.0625,34.9375
0.2040523,-1.449758,0.33935374,-0.31395146,0.013725197,0.07760635,-0.17064658,-0.39088812,-0.348209,0.06006476,3.0753555,-0.62458247,-0.00019544466,-0.0984032,0.004167239,-0.000979589,-0.03878322,0.003927893,-0.007335392,0.46650356,-1.4120312,1.941645,-2.1011803,-1.5679983,2.4416833,-0.11633265,0.14248423,-0.1615284,-0.001740288,0.032762907,-0.10887278,-0.78529817,-0.076614454,-9.691729,0.7463667,47.682407,-0.937595,-1.9947457,-3.3254943,-0.49438065,0.29212928,-0.12370443,27.8125,28.9375,28.0625,32.0,34.0625,34.9375
0.20605232,-1.0148621,0.49993342,-0.32425693,0.024845915,0.085961424,-0.1708634,-0.3910952,-0.3481863,0.060046364,3.0753002,-0.6246507,-0.00021528098,-0.099397816,0.0044017527,-0.0020426682,-0.038400795,0.0035052295,-0.012635408,0.4662632,-1.4117177,1.9413341,-2.1012175,-1.5679744,2.4414928,-0.11746082,0.14553677,-0.16226225,-0.0035094684,0.032604925,-0.10469889,-0.6895301,-0.15322891,-9.749189,0.78888994,47.68062,-0.94822216,-2.1286888,-3.4081883,-0.47264525,0.27686757,-0.17773129,27.8125,28.9375,28.0625,32.0,34.0625,34.9375
0.2080525,-1.4814593,0.12618014,-0.32238308,0.021004137,0.07532918,-0.16672274,-0.3912845,-0.34819686,0.060079448,3.0751777,-0.6246657,-0.00023540825,-0.101714134,0.004079784,-0.0011895753,-0.038990323,0.006092459,-0.016906917,0.46605897,-1.4114887,1.9409865,-2.1011813,-1.5678905,2.4413137,-0.11848158,0.14749077,-0.16639994,-0.0038930622,0.0319642,-0.10144379,-0.6703765,-0.24899697,-9.595961,0.84708,47.70211,-0.8649661,-2.1497266,-3.3687384,-0.44816345,0.2940438,-0.24994892,27.8125,28.9375,28.0625,32.0,34.0625,34.9375
0.2100529,-1.0952089,0.2606206,0.1344187,0.018808514,0.08925274,-0.17443712,-0.39151818,-0.34817913,0.0600702,3.0751166,-0.6246722,-0.0003501028,-0.10064066,0.004186262,-0.002448066,-0.038464207,0.0029191433,-0.017358383,0.46581888,-1.4111639,1.9406523,-2.1012647,-1.56789,2.4410858,-0.11825437,0.1487571,-0.1651674,-0.0033179864,0.0329367,-0.10076181,-0.8236054,-0.22984336,-9.519346,0.8247004,47.67614,-0.9687612,-2.0944796,-3.4641566,-0.45820457,0.3058412,-0.30097628,27.8125,28.9375,28.0625,32.0,34.0625,34.9375
0.21205203,-1.2021967,0.68348235,0.0042226273,0.030448237,0.080666624,-0.16723393,-0.39170334,-0.34816194,0.060074966,3.0749943,-0.6248045,-0.00026047812,-0.10202844,0.0045324685,-0.0021431698,-0.040223304,0.0024808692,-0.022571025,0.46555388,-1.4109114,1.9403394,-2.101217,-1.5677813,2.4409192,-0.121157,0.1496632,-0.16707638,-0.0027064625,0.034703426,-0.09844878,-0.59376204,-0.05746084,-9.308657,0.8112748,47.709274,-0.94223124,-2.0833251,-3.3666892,-0.45477062,0.27235416,-0.33331442,27.8125,28.9375,28.0625,32.0,34.0625,34.9375
0.21405198,-0.5208155,0.9470866,0.039944634,0.024391094,0.08193206,-0.18162781,-0.391903,-0.3481623,0.060064428,3.074893,-0.62481993,-0.00020777763,-0.10096578,0.0032524688,-0.0027978607,-0.039868243,0.0008956867,-0.020804975,0.4653149,-1.410598,1.9400047,-2.1012285,-1.567685,2.440703,-0.118136376,0.15149091,-0.16785933,-0.0021625557,0.03510184,-0.097192235,-0.40222588,-0.11492168,-9.385271,0.9365982,47.703903,-1.1093655,-2.255862,-3.4573898,-0.45082784,0.24507147,-0.4114003,27.8125,28.9375,28.0625,32.0,34.0625,34.9375
0.21605238,-0.39022788,0.0734335,0.2356757,0.027413199,0.06032185,-0.17071328,-0.3921359,-0.3481605,0.060070768,3.074775,-0.62495196,-0.00026286856,-0.102806404,0.0038953077,-0.0032429036,-0.041075554,-0.00081161,-0.024230685,0.4650736,-1.4102732,1.9396209,-2.1012518,-1.5676368,2.4405594,-0.12200992,0.1544557,-0.17044924,-0.0015451306,0.036956068,-0.09763368,-0.30645782,-0.1340753,-9.251195,0.8403672,47.678825,-0.9234326,-2.1059258,-3.359848,-0.44160843,0.24172816,-0.4491483,27.8125,28.9375,28.0625,32.0,34.0625,34.9375
0.21805239,-0.6070933,0.027970796,0.3362741,0.01035567,0.029281395,-0.16986023,-0.3923465,-0.34814847,0.060071122,3.0747097,-0.62493527,-0.00027478664,-0.10404664,0.0025027264,-0.0015170431,-0.043109443,0.0025399923,-0.021550868,0.46483415,-1.4099731,1.9392737,-2.1012518,-1.5675887,2.440318,-0.12078629,0.15415065,-0.17407948,-0.001500664,0.037276555,-0.099086255,-0.3256114,0.0,-9.11712,0.9030289,47.66271,-1.1149368,-2.0579062,-3.3904698,-0.458857,0.24144743,-0.48878413,27.8125,28.9375,28.0625,32.0,34.0625,34.9375
0.22005226,0.41644832,-0.14105798,0.35207438,0.006444147,0.036615912,-0.18234845,-0.39254257,-0.34813413,0.06005887,3.0746055,-0.6250079,-0.00023747042,-0.10594208,0.003474395,-0.0012511485,-0.042441003,0.004204323,-0.018818447,0.46458125,-1.4096843,1.9389738,-2.1012757,-1.5675052,2.440124,-0.123254776,0.15516143,-0.17579208,-0.0019483374,0.035951167,-0.10428659,-0.21068975,0.1340753,-9.136273,0.8314132,47.69763,-1.0192107,-2.078844,-3.3412127,-0.44785672,0.23239315,-0.47613412,27.8125,28.9375,28.0625,32.0,34.0625,34.9375
0.22205217,0.044390187,-0.8783059,0.2922803,0.0033957085,0.022196462,-0.17098612,-0.39279422,-0.3481329,0.06008293,3.0745082,-0.62494624,-0.00029858455,-0.10775389,0.0032036721,-0.00036441893,-0.044197798,0.0059677237,-0.013630045,0.46431687,-1.4093597,1.9385418,-2.1012647,-1.5674447,2.4398339,-0.12480839,0.156032,-0.17881967,-0.0021202273,0.036759894,-0.11102274,-0.15322891,0.21068975,-9.136273,0.83589023,47.69763,-1.0319965,-2.0489366,-3.2059236,-0.446087,0.23795494,-0.43570182,27.8125,28.9375,28.0625,32.0,34.0625,34.9375
0.22405197,-0.022206832,-0.8738822,0.10187304,-0.013681188,0.018814608,-0.17215386,-0.39302155,-0.34811708,0.06010036,3.0743809,-0.62502897,-0.0003306843,-0.10814478,0.002088202,0.0003246492,-0.04674051,0.00669696,-0.004968394,0.464041,-1.4090835,1.9381832,-2.1012647,-1.5673722,2.4396262,-0.12436821,0.15614003,-0.18050611,-0.0022940561,0.038742572,-0.11923786,-0.038307227,0.36391866,-9.021352,0.85155696,47.713753,-1.0860902,-1.8763399,-3.190289,-0.43819842,0.22858465,-0.38285524,27.8125,28.9375,28.0625,32.0,34.0625,34.9375
0.22605203,0.30292016,-0.76056707,0.12599929,-0.036858767,0.035324335,-0.18169288,-0.3931846,-0.34810275,0.060048554,3.0743773,-0.6249869,-0.00016997613,-0.10898737,0.0020378248,0.00029315203,-0.047649607,0.005983963,0.0013179681,0.4638248,-1.4087349,1.9378957,-2.1012518,-1.5672997,2.4393842,-0.12569195,0.1576335,-0.182352,-0.0016723167,0.039889958,-0.12684855,-0.095768064,0.49799395,-9.097966,0.85826975,47.70211,-1.0518087,-1.8695635,-3.2520409,-0.44479978,0.19115159,-0.28367168,27.8125,28.9375,28.0625,32.0,34.0625,34.9375
0.22805254,0.01698238,-1.6030647,0.053891454,-0.037533022,0.03421232,-0.17292336,-0.39343065,-0.34809136,0.06007323,3.0742598,-0.6250361,-0.00022829707,-0.10969647,0.001634597,0.0005190542,-0.04852352,0.00592283,0.00677804,0.4635484,-1.4084338,1.9374889,-2.10124,-1.5672396,2.439154,-0.12605189,0.15885411,-0.18444733,-0.0010981924,0.04073156,-0.1326628,-0.095768064,0.5554548,-9.059659,0.8627467,47.70211,-1.0387565,-2.0527244,-3.2420964,-0.43828738,0.16501734,-0.23052424,27.8125,28.9375,28.0625,32.0,34.0625,34.9375
0.2300543,0.40678138,-1.529046,-0.3499502,-0.05008927,0.04188138,-0.17929964,-0.3936395,-0.3480784,0.060050115,3.0741858,-0.6249431,-0.00013511305,-0.11030406,0.0025866018,-0.0009992783,-0.047959603,0.0026685894,0.008639673,0.4632715,-1.4080967,1.9371547,-2.1012514,-1.5671314,2.4388285,-0.12879685,0.16208671,-0.18486053,-0.0007159997,0.041703,-0.13726728,0.019153614,0.51714754,-9.212888,0.8940802,47.696735,-1.0481956,-1.9952936,-3.2785301,-0.44029814,0.16594994,-0.14989083,27.8125,28.9375,28.0625,32.0,34.0625,34.9375
0.23205274,-0.63645226,-2.163273,-0.2787037,-0.04632712,0.014335817,-0.1601907,-0.3938633,-0.3480863,0.060056318,3.0741162,-0.6248334,-0.00019141444,-0.11024998,0.001343301,-1.6810975e-05,-0.049228843,0.004260064,0.007219136,0.4630564,-1.4077725,1.9367713,-2.1012752,-1.5670828,2.438554,-0.12675032,0.16140036,-0.1864045,-0.00047468697,0.04213117,-0.1337957,-0.076614454,0.63206923,-9.308657,0.8493211,47.704796,-1.1903691,-1.9675779,-3.198199,-0.44626787,0.14028105,-0.15263337,27.8125,28.9375,28.0625,32.0,34.0625,34.9375
0.23405166,-0.115611464,-1.7298887,-0.09778363,-0.0509413,0.022684736,-0.17139477,-0.3941213,-0.34807786,0.06007049,3.0739918,-0.624867,-0.00023922685,-0.11149214,0.0020041466,-0.00025431896,-0.049317066,0.0039432584,0.0027193036,0.46276757,-1.4074358,1.9363526,-2.1012876,-1.5670108,2.4383025,-0.12905402,0.16295756,-0.18771355,-0.0004656658,0.04236206,-0.13159455,-0.095768064,0.6703765,-9.270349,0.8717007,47.683304,-0.9741825,-1.905827,-3.3087268,-0.44907558,0.10705122,-0.15608752,27.8125,28.9375,28.0625,32.0,34.0625,34.9375
0.23605193,0.32569554,-1.777619,-0.39579174,-0.027105618,0.02440843,-0.17110734,-0.3943139,-0.34808338,0.060045045,3.0739102,-0.62481713,-5.294417e-05,-0.11261074,0.0022190243,-0.0002593503,-0.049726352,0.0040052757,-0.005672377,0.46251526,-1.4070747,1.9359821,-2.1012394,-1.5668668,2.4380295,-0.1305356,0.1643558,-0.18937857,-0.00043455992,0.04267768,-0.124684736,0.095768064,0.7086837,-9.3661175,0.83365434,47.666286,-1.1094762,-1.8823957,-3.3658936,-0.4309886,0.09702663,-0.2281715,27.8125,28.9375,28.0625,32.0,34.0625,34.9375
0.23805231,0.43692523,-1.0213113,-0.3068413,-0.023951693,0.015590706,-0.17074603,-0.39455438,-0.34808633,0.06005308,3.0737786,-0.62484944,-0.00011594648,-0.11451541,0.0023344196,0.00021167817,-0.049838394,0.0054892045,-0.00977517,0.46226263,-1.4067496,1.9355987,-2.1012876,-1.5667952,2.4378142,-0.1319665,0.16614611,-0.19258091,-0.00038916338,0.04212074,-0.12200763,0.17238252,0.45968673,-9.346964,0.85826975,47.67793,-0.9931763,-1.9253674,-3.3334675,-0.43659562,0.094855964,-0.29288724,27.8125,28.9375,28.0625,32.0,34.0625,34.9375
0.24005301,0.40935412,-0.5133688,-0.05093075,-0.011403409,0.009857667,-0.17062774,-0.3947741,-0.34809428,0.060044944,3.0736842,-0.6247928,-8.0318976e-05,-0.115424804,0.003522299,-0.0007025589,-0.04869362,0.003995917,-0.013069895,0.46202177,-1.4064007,1.9352163,-2.1012995,-1.5666994,2.4375503,-0.134541,0.16824247,-0.19302918,-0.00016986372,0.041770898,-0.12128578,0.095768064,0.30645782,-9.346964,0.8851263,47.684196,-0.9657048,-2.056156,-3.389532,-0.43891382,0.08673762,-0.30477145,27.8125,28.9375,28.0625,32.0,34.0625,34.9375
0.24205185,0.22556765,-0.30425206,-0.3435289,0.011537698,0.009569858,-0.16583829,-0.39501143,-0.34807557,0.060042534,3.0735958,-0.62487143,-3.8488855e-05,-0.115935266,0.0035113567,-0.0016973512,-0.0478877,0.0024498485,-0.013820977,0.46173364,-1.4060512,1.9348091,-2.1012638,-1.5666269,2.4373229,-0.1348543,0.1714416,-0.19453947,-9.6244454e-05,0.041743524,-0.120846115,0.05746084,0.2681506,-9.308656,0.9186956,47.692257,-1.0580757,-2.1521993,-3.381445,-0.44210702,0.045720346,-0.3491385,27.8125,28.9375,28.0625,32.0,34.0625,34.9375
0.24405181,-0.02568948,-0.105351545,-0.1513106,0.00365522,0.029748358,-0.17051227,-0.39521548,-0.34805107,0.060006138,3.0735621,-0.62492484,3.864137e-05,-0.11771691,0.005100233,-0.0020387557,-0.046750396,0.0024992102,-0.018855741,0.4614806,-1.4056909,1.9344748,-2.1012638,-1.5665792,2.4371076,-0.1384594,0.17301412,-0.195648,-8.360765e-05,0.040699095,-0.11941868,0.0,0.15322891,-9.270349,0.87393653,47.683304,-0.98158586,-2.0168262,-3.4032297,-0.420305,0.053911097,-0.37491828,27.8125,28.9375,28.0625,32.0,34.0625,34.9375
0.24605201,-0.7157848,0.227037,0.050339114,0.0013599726,0.0378299,-0.17444389,-0.39546785,-0.34807754,0.060032263,3.0734222,-0.6248152,2.290688e-05,-0.11805192,0.0044245813,-0.0022916333,-0.045487985,0.0029917941,-0.012962385,0.46122918,-1.4053414,1.934008,-2.1012514,-1.56646,2.436806,-0.13662045,0.17527644,-0.19775054,-7.6270655e-05,0.039376225,-0.12347016,0.019153614,-0.095768064,-9.346964,0.8605109,47.667187,-0.9898627,-2.1379042,-3.3676362,-0.43325952,0.056330092,-0.3762456,27.8125,28.9375,28.0625,32.0,34.0625,34.9375
0.24805248,0.0012943724,0.32612744,-0.014682453,0.010450971,0.07760057,-0.17487459,-0.3956994,-0.34806085,0.0600157,3.0733025,-0.6249435,0.00011324436,-0.12007114,0.00576002,-0.0024567319,-0.044593327,0.0034642327,-0.011677414,0.46092778,-1.4049802,1.9336246,-2.1012394,-1.5663522,2.4366002,-0.14000216,0.17714216,-0.19959848,-7.0292124e-05,0.03838408,-0.12813736,-0.21068975,0.0,-9.461885,0.83589023,47.674347,-0.7825729,-2.1658344,-3.3498824,-0.4233852,0.055216294,-0.36182845,27.8125,28.9375,28.0625,32.0,34.0625,34.9375
0.25005174,-1.1459142,0.34068713,0.16548859,0.019476218,0.07576976,-0.16908777,-0.39594135,-0.34805965,0.06001186,3.0732017,-0.62488055,0.00013314649,-0.12032261,0.005456835,-0.0028400458,-0.043634843,0.0033796958,-0.0040333318,0.4606523,-1.4046196,1.9332184,-2.1012514,-1.5662564,2.4362986,-0.13908464,0.17900388,-0.20095599,-1.7285565e-05,0.03759616,-0.1348626,-0.36391866,-0.038307227,-9.385271,0.84484416,47.672558,-0.97894514,-2.2297354,-3.4232569,-0.44108957,0.062207595,-0.2955765,27.8125,28.9375,28.0625,32.0,34.0625,34.9375
0.25205168,-0.57028115,1.1992962,0.11683128,0.017413732,0.10099605,-0.1819463,-0.39617375,-0.3480626,0.0600066,3.073099,-0.6249121,0.0001563599,-0.121571176,0.00534985,-0.0032658647,-0.04244804,0.003586831,0.002626505,0.46040055,-1.4042579,1.9328111,-2.1012514,-1.566173,2.43608,-0.139176,0.18227649,-0.20384783,-1.1286238e-06,0.036469035,-0.14161272,-0.38307226,-0.11492168,-9.404425,0.87393653,47.716442,-1.0864092,-2.23404,-3.4579062,-0.42922276,0.057242524,-0.22057891,27.8125,28.9375,28.0625,32.0,34.0625,34.9375
0.25405198,-1.2216684,0.86229134,0.032609567,0.038967263,0.084003076,-0.17475162,-0.39641172,-0.34802604,0.05998308,3.0730784,-0.6248462,0.00014984272,-0.121560484,0.0055513144,-0.00365006,-0.041466363,0.0033537555,0.009580691,0.4601127,-1.4038978,1.9324526,-2.1012752,-1.5661491,2.4357538,-0.1389444,0.18302234,-0.20390299,-7.3691076e-08,0.03572502,-0.14833608,-0.4405331,-0.019153614,-9.423578,0.8918391,47.698532,-1.106915,-2.2306526,-3.5140173,-0.43629706,0.070377216,-0.11716564,27.8125,28.9375,28.0625,32.0,34.0625,34.9375
0.25605193,-1.2081902,0.7476044,0.054891273,0.02165245,0.097845584,-0.16837701,-0.39667764,-0.34804264,0.060014285,3.0729406,-0.6247791,9.5187315e-05,-0.12332349,0.0061032376,-0.0027776842,-0.041097216,0.005890236,0.010174295,0.45984805,-1.4035492,1.9319748,-2.1012638,-1.5660533,2.4354653,-0.14043203,0.18318383,-0.20613512,-4.8115005e-09,0.034293972,-0.1504153,-0.80445176,0.05746084,-9.346964,0.82022345,47.679718,-1.1305509,-2.1928618,-3.4178882,-0.41567773,0.078097045,-0.07714902,27.8125,28.9375,28.0625,32.0,34.0625,34.9375
0.25805172,-1.3060123,0.84510994,-0.16948913,0.005560445,0.10402871,-0.1758719,-0.39688888,-0.34800678,0.059970375,3.0729055,-0.6247742,0.00023507682,-0.12484261,0.0071300124,-0.0026898663,-0.03959042,0.007152196,0.006511088,0.45954758,-1.4031764,1.9316396,-2.1012514,-1.5659703,2.4351664,-0.14224032,0.1842488,-0.2076416,-3.141566e-10,0.03237357,-0.14856523,-0.8619126,0.019153614,-9.3661175,0.8403672,47.70211,-1.0887933,-2.2555726,-3.4722905,-0.40364063,0.11580309,-0.06596264,27.8125,28.9375,28.0625,32.0,34.0625,34.9375
0.26005155,-1.9457062,-0.18624373,-0.431927,0.012653244,0.09030185,-0.15806475,-0.39714393,-0.34797564,0.05996016,3.072866,-0.62478834,0.00025372577,-0.12609456,0.007531789,-0.0024296523,-0.039335575,0.008167621,-0.00010978745,0.45924732,-1.402792,1.9312085,-2.101216,-1.5659345,2.4348803,-0.14348598,0.18514654,-0.20934431,-2.0512179e-11,0.03168154,-0.14319023,-0.6895301,0.019153614,-9.557653,0.97464454,47.68599,-1.101002,-2.1798549,-3.4288247,-0.40573516,0.12126249,-0.10649426,27.8125,28.9375,28.0625,32.0,34.0625,34.9375
0.26205242,-1.2581031,-0.21339616,0.057842746,-0.012951933,0.112043925,-0.17707849,-0.3974114,-0.34796885,0.05995137,3.072779,-0.6247729,0.00019869382,-0.12696134,0.006974891,-0.0024643664,-0.03935316,0.008537793,-0.004089294,0.45897126,-1.4023944,1.9307779,-2.1012638,-1.5658864,2.434606,-0.14305575,0.18734881,-0.21189098,-1.3392987e-12,0.031530485,-0.13877693,-0.90021986,0.05746084,-9.5385,0.89631605,47.681515,-1.1082323,-2.2051358,-3.396142,-0.4148091,0.12477115,-0.12622729,27.8125,28.9375,28.0625,32.0,34.0625,34.9375
0.26405242,-1.4947484,0.105618164,-0.06939929,-0.010430664,0.10496175,-0.17242749,-0.39767885,-0.3479311,0.059959628,3.0726845,-0.6248552,0.00019651979,-0.12892696,0.007913865,-0.0014946072,-0.03945666,0.009584263,-0.013739517,0.458634,-1.4020467,1.9303468,-2.101227,-1.5658268,2.4343326,-0.14604856,0.18760456,-0.2148451,0.001702445,0.031148499,-0.13211784,-0.9576807,0.095768064,-9.5385,0.8672237,47.693153,-0.99144685,-2.0751526,-3.4019427,-0.42935157,0.14290768,-0.2484619,27.8125,28.9375,28.0625,32.0,34.0625,34.9375
0.26605225,-1.4989573,0.1275007,-0.43501705,0.008658365,0.106866665,-0.17244352,-0.3979436,-0.34790632,0.059955686,3.0726023,-0.62491536,0.00020857553,-0.1300163,0.007771142,-0.00042994964,-0.03898097,0.012547047,-0.015466894,0.45832235,-1.4016618,1.9299034,-2.1012032,-1.5657676,2.4340694,-0.14552279,0.18727323,-0.21695596,0.0017110428,0.02941095,-0.12986666,-0.80445176,0.038307227,-9.634268,0.90527004,47.70211,-1.1702093,-2.077908,-3.408461,-0.4188717,0.1932962,-0.26829636,27.8125,28.9375,28.0625,32.0,34.0625,34.9375
0.26805234,-1.6244624,-0.12704809,-0.36722952,-0.0005176225,0.11297644,-0.17006026,-0.39819047,-0.34791586,0.05995261,3.072506,-0.6248012,0.00018844625,-0.13055469,0.0076672854,-0.0010375817,-0.039161216,0.011672164,-0.019368796,0.4580703,-1.4012887,1.9294852,-2.101239,-1.5656828,2.4337587,-0.14604907,0.18944708,-0.21808292,0.0013688533,0.029961359,-0.12648672,-0.7661445,0.13407528,-9.615114,0.8023209,47.66808,-1.168781,-2.1431503,-3.4253883,-0.40509522,0.21831888,-0.36484385,27.8125,28.9375,28.0625,32.0,34.0625,34.9375
0.27005228,-1.9874686,-0.14421208,-0.29102686,-0.010308567,0.092336,-0.15770875,-0.3984575,-0.34788087,0.059920896,3.072424,-0.6250162,0.00023578554,-0.13096441,0.0073433365,-0.00080011674,-0.04093714,0.011715518,-0.022263506,0.45774615,-1.4008566,1.9290551,-2.101239,-1.5656346,2.4335797,-0.1467108,0.1896021,-0.21881886,0.0011249577,0.031533547,-0.12425006,-0.57460845,0.17238252,-9.500193,0.9030289,47.670765,-1.1106061,-2.071809,-3.4889169,-0.40915453,0.21654576,-0.42248467,27.8125,28.9375,28.0625,32.0,34.0625,34.9375
0.27205253,-0.65348864,-0.16543968,-0.3925492,-0.012944832,0.09053186,-0.16688031,-0.3987459,-0.3478543,0.059938855,3.0723326,-0.6251114,0.00015282635,-0.13289101,0.006834423,-0.00014958146,-0.04147672,0.01372852,-0.022052424,0.45743424,-1.4004834,1.9285749,-2.1012156,-1.5656112,2.4333394,-0.14711547,0.1917491,-0.22282182,0.0009539565,0.031141106,-0.124862164,-0.40222588,0.15322891,-9.595961,0.87393653,47.704796,-1.2832565,-1.98869,-3.3466341,-0.40698513,0.23810956,-0.47854957,27.8125,28.9375,28.0625,32.0,34.0625,34.9375
0.27405196,0.09468613,-0.3095189,-0.4127735,-0.0067828395,0.07035759,-0.17454427,-0.39900994,-0.34782636,0.05992964,3.0722418,-0.6251664,0.0001810794,-0.13356642,0.006565224,-0.00065876177,-0.041845687,0.012929531,-0.017548857,0.45710993,-1.4000983,1.9281453,-2.1012032,-1.5655383,2.4330614,-0.14755693,0.19419509,-0.22454585,0.00082814536,0.031853527,-0.12980367,-0.22984336,0.21068975,-9.519346,0.9365982,47.690468,-1.1086843,-1.9613556,-3.3248684,-0.39216137,0.26702872,-0.475865,27.8125,28.9375,28.0625,32.0,34.0625,34.9375
0.27605206,0.08708896,0.06462254,-0.47804028,-0.0076308683,0.027967611,-0.16746208,-0.39927015,-0.34781408,0.059912477,3.0721698,-0.625186,0.00016811492,-0.13544941,0.0077255187,-4.146843e-05,-0.04298566,0.014129972,-0.010611581,0.45683253,-1.3996899,1.9277147,-2.101227,-1.5654906,2.4328058,-0.15144604,0.19396202,-0.22572741,0.0007317314,0.032400325,-0.14062725,-0.11492168,0.22984336,-9.519346,0.8605109,47.677036,-1.1419284,-2.1027153,-3.4041257,-0.39367002,0.27995464,-0.38434196,27.8125,28.9375,28.0625,32.0,34.0625,34.9375
0.27805224,0.33193433,-0.25462496,-0.64886653,0.0021654235,0.012741345,-0.16587459,-0.39954007,-0.34777412,0.059909318,3.0721295,-0.6251907,0.000121710524,-0.13616501,0.0073794518,-0.0003700337,-0.04308094,0.013879906,-0.00045485792,0.45652062,-1.3993169,1.9272851,-2.101216,-1.5654777,2.4325023,-0.15149175,0.19625036,-0.22769299,0.00065545744,0.03264771,-0.15082677,-0.038307227,0.24899697,-9.500193,0.8985519,47.687782,-1.1081636,-2.0279481,-3.5869355,-0.37697238,0.29989186,-0.3250438,27.8125,28.9375,28.0625,32.0,34.0625,34.9375
0.28005248,0.2322203,-0.7036658,-0.47688514,-0.014122597,0.016995799,-0.16025254,-0.39983937,-0.34777117,0.059932884,3.0719738,-0.62513673,3.5569316e-05,-0.13845424,0.007867519,3.873141e-05,-0.04376943,0.0151194595,0.004320278,0.45619577,-1.3989437,1.9268054,-2.1012514,-1.5653819,2.4321642,-0.15426381,0.19814642,-0.23087871,0.0005936047,0.03277471,-0.15836778,0.095768064,0.28730422,-9.481039,0.8851263,47.684196,-0.97859323,-2.129243,-3.5338857,-0.36695492,0.33021146,-0.20590767,27.8125,28.9375,28.0625,32.0,34.0625,34.9375
0.28205168,1.0189728,-0.9990707,-0.54399,-0.029929066,0.038740505,-0.17569171,-0.40011144,-0.34773713,0.0599088,3.0719373,-0.62512815,8.175396e-05,-0.14002572,0.008802856,-9.411049e-05,-0.044553764,0.014750752,0.0048801955,0.4558705,-1.3985107,1.9263505,-2.1012275,-1.5653337,2.4318385,-0.15768781,0.19949949,-0.23223607,0.0006200133,0.03366479,-0.16234899,0.17238252,0.34476504,-9.481039,0.87617236,47.704796,-0.8640407,-2.1483097,-3.4637666,-0.35733116,0.34416306,-0.13794065,27.8125,28.9375,28.0625,32.0,34.0625,34.9375
0.28405172,0.57689667,-1.4948025,-0.4626839,-0.040885683,0.021358825,-0.16735256,-0.40042296,-0.34770092,0.059909787,3.0718534,-0.6251895,2.6281798e-06,-0.14083715,0.00822254,-7.947899e-05,-0.04620495,0.014423988,0.0030358527,0.45552248,-1.3980892,1.9258598,-2.1012394,-1.5653089,2.43154,-0.15826212,0.20122787,-0.23434202,0.0005676109,0.035305932,-0.16107087,0.095768064,0.45968673,-9.3661175,0.87617236,47.69763,-0.8584306,-2.2407386,-3.5511818,-0.36089683,0.35186017,-0.113034725,27.8125,28.9375,28.0625,32.0,34.0625,34.9375
0.28605238,0.9127668,-1.0257461,-0.39087537,-0.045488168,0.010905872,-0.15298909,-0.4006855,-0.34770498,0.059926942,3.0717208,-0.62508756,-2.5898693e-05,-0.14103271,0.007574704,-0.00059880083,-0.0467991,0.012104042,-0.003135905,0.4552347,-1.3977405,1.9254173,-2.1012504,-1.5652007,2.431206,-0.15815043,0.20397428,-0.23675692,0.002046151,0.03685753,-0.1547783,0.1340753,0.4213795,-9.423578,0.8493211,47.67614,-0.8755138,-2.307658,-3.4442525,-0.35447133,0.3710134,-0.18932818,27.8125,28.9375,28.0625,32.0,34.0625,34.9375
0.28805223,1.0670666,-1.1173702,-0.40150377,-0.038832113,0.005844315,-0.16510254,-0.40096986,-0.3476998,0.05992691,3.071618,-0.62508875,-4.4760713e-05,-0.14185975,0.0070033777,-0.00030710592,-0.04807136,0.01202494,-0.009742641,0.45493472,-1.3973198,1.9249271,-2.1012504,-1.5651282,2.4309204,-0.15846393,0.20539272,-0.2392858,0.0026517971,0.038024075,-0.14847808,0.19153613,0.51714754,-9.423578,0.90527004,47.68062,-1.0155342,-2.1895375,-3.3880825,-0.34682208,0.37454888,-0.25590143,27.8125,28.9375,28.0625,32.0,34.0625,34.9375
0.29005226,1.2135559,-0.8136933,-0.4679231,-0.034150064,0.01618436,-0.16441348,-0.4012492,-0.34768015,0.059924833,3.0715063,-0.6251438,8.0033516e-07,-0.14201593,0.005959721,-0.0003131929,-0.049111042,0.012162698,-0.011897613,0.45459905,-1.396911,1.9244474,-2.1012151,-1.5650319,2.4306338,-0.15718293,0.20676169,-0.24085428,0.0022755743,0.0388944,-0.1450375,0.11492168,0.49799395,-9.289502,0.9030289,47.691364,-1.0098907,-2.2415042,-3.2792432,-0.34691104,0.373557,-0.30573988,27.8125,28.9375,28.0625,32.0,34.0625,34.9375
0.2920522,0.40452978,-1.2405185,-0.45238978,-0.028558116,0.008121177,-0.16138746,-0.40154144,-0.34763706,0.05990368,3.0714383,-0.62522846,-8.18407e-06,-0.14385542,0.006293527,0.00035018197,-0.051384382,0.013229703,-0.016406054,0.45424956,-1.3964783,1.9239935,-2.101227,-1.5649956,2.4303463,-0.16019742,0.20720178,-0.24286462,0.001894159,0.040473305,-0.14353688,0.1340753,0.61291564,-9.32781,0.87393653,47.72271,-0.8698869,-2.1611881,-3.340061,-0.3316207,0.38019562,-0.36276865,27.8125,28.9375,28.0625,32.0,34.0625,34.9375
0.29405248,0.90214527,-1.1540154,-0.16259307,-0.053930778,0.040741514,-0.17439742,-0.40181616,-0.34764412,0.059903022,3.0713122,-0.62518245,3.1624102e-05,-0.14616612,0.0055500166,0.002307772,-0.054705102,0.016839122,-0.017244376,0.4539494,-1.3960581,1.9235023,-2.1012156,-1.5648745,2.430034,-0.16163333,0.20684199,-0.24690096,0.0016180982,0.04188689,-0.14412646,0.11492168,0.61291564,-9.346964,0.90527004,47.67614,-0.8974364,-2.1088514,-3.252399,-0.32064608,0.3745063,-0.39146256,27.8125,28.9375,28.0625,32.0,34.0625,34.9375
0.29605192,-0.1956911,-1.5595738,-0.22436236,-0.04242525,0.029257555,-0.15128036,-0.40212247,-0.347666,0.0599283,3.071123,-0.6251619,-4.4817425e-05,-0.14846988,0.0050436864,0.003699796,-0.057771407,0.019316128,-0.016933635,0.45364863,-1.3956486,1.9229754,-2.101251,-1.5647539,2.4297452,-0.16364719,0.2074488,-0.2507748,0.0013524188,0.043592755,-0.14643797,0.0,0.53630114,-9.308657,0.8851263,47.69763,-0.80594814,-2.149445,-3.2667727,-0.31642783,0.3833938,-0.39702746,27.8125,28.9375,28.0625,32.0,34.0625,34.9375
0.29805216,0.37451336,-0.81158715,-0.35325032,-0.043911397,0.050016798,-0.16560583,-0.40239733,-0.34766394,0.05993313,3.0710244,-0.62515634,1.3481572e-06,-0.14833212,0.0046020537,0.0041439487,-0.058607284,0.019112341,-0.009664705,0.45334893,-1.3952293,1.9224614,-2.1011908,-1.564658,2.429455,-0.16317779,0.20712335,-0.2517482,0.0025331997,0.044483207,-0.15323348,-0.095768064,0.47884035,-9.404425,0.87617236,47.666286,-0.9708262,-2.0346088,-3.2425618,-0.29862896,0.37128353,-0.3724023,27.8125,28.9375,28.0625,32.0,34.0625,34.9375
0.30005217,0.019899774,-0.6721296,-0.36345273,-0.031430792,0.049715716,-0.17205538,-0.40269473,-0.3476434,0.059920676,3.070936,-0.6251319,-2.9556134e-07,-0.1471196,0.0049025593,0.00299063,-0.057927538,0.014832623,-1.1532826e-05,0.4530127,-1.3947843,1.9219726,-2.1012018,-1.5645856,2.4291153,-0.16335617,0.20832367,-0.2511703,0.004981664,0.04582068,-0.16305932,-0.095768064,0.36391866,-9.557653,0.91198283,47.688675,-0.8448274,-1.8717425,-3.3421583,-0.3254684,0.37974235,-0.24862972,27.8125,28.9375,28.0625,32.0,34.0625,34.9375
0.302052,0.26718572,-0.11564814,-0.033140536,-0.039981876,0.073059514,-0.1728125,-0.40298912,-0.34763396,0.059898794,3.0708206,-0.62520015,7.4055395e-05,-0.1473525,0.0057009286,0.0024676695,-0.05793773,0.012818048,0.0069180145,0.45267615,-1.3943036,1.9214581,-2.1011894,-1.5644773,2.4288366,-0.1653946,0.20917375,-0.2513409,0.0061946553,0.04677184,-0.17202385,-0.17238252,0.30645782,-9.5385,0.9030289,47.716442,-0.81973886,-1.8563607,-3.4252672,-0.34824127,0.36673245,-0.16601609,27.8125,28.9375,28.0625,32.0,34.0625,34.9375
0.30405185,-0.15002343,0.0067827157,-0.063264735,-0.0073820692,0.07036771,-0.16868138,-0.40324694,-0.34762043,0.059897978,3.0707064,-0.62507963,0.00016757267,-0.14706132,0.0043416214,0.0016065487,-0.059907723,0.011223346,0.009060492,0.45234096,-1.3939307,1.9210166,-2.101154,-1.5643324,2.428441,-0.16419998,0.21170512,-0.2521431,0.0050763,0.049258776,-0.1729615,-0.28730422,0.21068975,-9.500193,0.90750587,47.689575,-1.0182834,-1.8894794,-3.5574512,-0.32563,0.33483326,-0.11716841,27.8125,28.9375,28.0625,32.0,34.0625,34.9375
0.3060522,-0.35396212,0.3374298,-0.29784414,-0.003949741,0.07288713,-0.15856507,-0.40356064,-0.3476187,0.059903868,3.0705905,-0.62498057,0.000112206,-0.1484106,0.003210544,0.002177289,-0.06294116,0.012074234,0.006222757,0.4520167,-1.3934857,1.9204887,-2.1011784,-1.5642475,2.4280703,-0.16471104,0.21336013,-0.255317,0.0045118122,0.05162661,-0.17062017,-0.28730422,0.05746084,-9.557653,0.8873621,47.683304,-1.0291436,-1.8993765,-3.50215,-0.30167052,0.30796427,-0.08459216,27.8125,28.9375,28.0625,32.0,34.0625,34.9375
0.3080522,-0.1624033,0.17935045,0.092289485,0.007987356,0.08017954,-0.15741001,-0.4038512,-0.34760633,0.059895672,3.0705254,-0.62500906,0.0001177668,-0.14821087,0.0026736977,0.00016215003,-0.062957786,0.0075994288,-0.00018457446,0.4517167,-1.3930273,1.9199628,-2.1011417,-1.5641989,2.4277968,-0.16469057,0.2183291,-0.25673622,0.0049557616,0.05357823,-0.16418289,-0.2873042,0.0,-9.442732,0.9164598,47.684196,-1.1489005,-2.0109956,-3.4452744,-0.30554527,0.288377,-0.13287002,27.8125,28.9375,28.0625,32.0,34.0625,34.9375
0.31005207,0.053415935,1.2805518,-0.054488335,0.009310609,0.05744864,-0.16355085,-0.4041467,-0.3476143,0.059907444,3.070325,-0.6250478,0.0001332556,-0.14866762,0.0022176611,-0.0006075648,-0.06389605,0.0054443874,-0.0073912935,0.45138052,-1.3926181,1.9194607,-2.101154,-1.5640424,2.4275112,-0.16524592,0.22134349,-0.25868857,0.005416661,0.05535502,-0.15751861,-0.36391866,-0.038307227,-9.461885,0.8493211,47.683304,-1.2250221,-2.211971,-3.4739301,-0.31993484,0.23222849,-0.2330724,27.8125,28.9375,28.0625,32.0,34.0625,34.9375
0.3120523,-0.039463498,0.70422584,-0.4556704,0.019719634,0.048610542,-0.15842533,-0.40446678,-0.34763235,0.05992464,3.0701406,-0.6250687,0.00011250933,-0.1491788,0.0020373738,-0.0007813465,-0.06483628,0.003806882,-0.013047433,0.4510563,-1.3921609,1.918887,-2.1011536,-1.5639099,2.4272244,-0.16618589,0.22307286,-0.26070952,0.00677329,0.05691857,-0.15278967,-0.49799395,-0.019153614,-9.653421,0.9567419,47.684196,-1.2291827,-2.1688476,-3.4741879,-0.3326402,0.22503799,-0.29077527,27.8125,28.9375,28.0625,32.0,34.0625,34.9375
0.31405205,0.028475584,0.19191697,-0.2153832,-0.002038539,0.07325404,-0.17099614,-0.40476093,-0.34759772,0.059909,3.0700712,-0.6250964,0.00014040744,-0.15067767,0.0022486767,-0.00052543613,-0.06656392,0.0033566724,-0.02007633,0.45070764,-1.3917161,1.9183964,-2.1011293,-1.5638489,2.4269023,-0.1687641,0.2245253,-0.26324037,0.007496746,0.0586575,-0.14833033,-0.49799395,0.1340753,-9.519346,0.98135734,47.675243,-1.2641277,-2.2422042,-3.5964508,-0.32000825,0.18401721,-0.37291467,27.8125,28.9375,28.0625,32.0,34.0625,34.9375
0.31605217,0.10310484,0.16808073,-0.24638245,-0.023564843,0.09307102,-0.17123732,-0.40505263,-0.3475964,0.059913598,3.0699074,-0.62513924,0.00022665794,-0.15164979,0.00082506356,0.0007093949,-0.06654152,0.0066057616,-0.020005932,0.4503604,-1.3912838,1.917869,-2.1010811,-1.5636939,2.4266033,-0.1660452,0.22535403,-0.26715013,0.007692579,0.05721927,-0.14568296,-0.38307226,0.11492168,-9.481039,0.8672237,47.687782,-1.310037,-2.1474788,-3.384582,-0.3204275,0.17065305,-0.45355064,27.8125,28.9375,28.0625,32.0,34.0625,34.9375
0.3180521,-0.7461551,-0.3467121,-0.2717428,-0.029161906,0.07928179,-0.1642001,-0.4053784,-0.34758466,0.059934016,3.0697172,-0.62523174,0.00019070656,-0.15308504,0.00079200737,0.0016454029,-0.067323156,0.008199495,-0.018222036,0.44998825,-1.390863,1.9173301,-2.1010811,-1.5635737,2.426314,-0.16706036,0.22573604,-0.26996794,0.008411881,0.05727022,-0.14847444,-0.53630114,0.24899697,-9.557653,0.9030289,47.67793,-1.2880232,-2.1139543,-3.3078732,-0.3335132,0.14428347,-0.5063679,27.8125,28.9375,28.0625,32.0,34.0625,34.9375
0.3200521,-1.0509299,-0.9490035,-0.2730622,-0.034319222,0.08043907,-0.16473414,-0.40567783,-0.34760574,0.059943516,3.0695662,-0.62519705,0.00021363585,-0.15347505,0.00064841344,0.001642154,-0.06859675,0.007412001,-0.012978239,0.4496881,-1.3904061,1.916768,-2.1010563,-1.5634412,2.4260123,-0.16795263,0.226512,-0.27108148,0.008980743,0.058814015,-0.15460005,-0.40222588,0.3256114,-9.481039,0.9030289,47.696735,-1.3559117,-2.083323,-3.367059,-0.34361035,0.11804971,-0.4702959,27.8125,28.9375,28.0625,32.0,34.0625,34.9375
0.32205197,-0.5884101,-0.81094855,-0.52380145,-0.0077419374,0.08277625,-0.17917423,-0.4059898,-0.34758747,0.059924338,3.069493,-0.6251178,0.0002486137,-0.15341283,0.0012756444,0.0013874635,-0.0678396,0.007728004,-0.0003345843,0.44933972,-1.389913,1.916231,-2.1010454,-1.5633572,2.4256241,-0.16836698,0.22610104,-0.27001548,0.008501932,0.058083847,-0.16766042,-0.21068975,0.4213795,-9.653421,0.8537928,47.701214,-1.3893297,-2.130981,-3.3777351,-0.3473012,0.09088613,-0.35397577,27.8125,28.9375,28.0625,32.0,34.0625,34.9375
0.32405213,-0.3797599,-0.55239564,-0.47785917,-0.02277013,0.08361671,-0.17109036,-0.40632018,-0.34757861,0.059938382,3.0693219,-0.62517387,0.00020079744,-0.15561834,0.0031850552,0.0013998421,-0.065742984,0.009526024,0.0062457942,0.4489782,-1.3894688,1.9156812,-2.1010568,-1.5632504,2.4253204,-0.17175288,0.22725138,-0.27141467,0.008163617,0.055498198,-0.17763047,-0.22984336,0.40222588,-9.691729,0.96569055,47.683304,-1.1688788,-2.0471315,-3.5934308,-0.33953053,0.094517276,-0.24945444,27.8125,28.9375,28.0625,32.0,34.0625,34.9375
0.32605246,-0.81806904,-1.4943787,-0.035476383,-0.028384436,0.06658835,-0.16583744,-0.40661243,-0.34758383,0.059950292,3.0691946,-0.6250695,0.00020977398,-0.15767847,0.0047612954,0.0010682218,-0.065571755,0.009680255,0.0067169783,0.4486653,-1.3890481,1.9151558,-2.1010334,-1.5631303,2.4249592,-0.17596473,0.22896914,-0.27265257,0.007693834,0.055325262,-0.18230952,-0.22984336,0.30645782,-9.519346,0.8851263,47.691364,-1.1822549,-1.8985848,-3.6419544,-0.31838855,0.09089412,-0.15477559,27.8125,28.9375,28.0625,32.0,34.0625,34.9375
0.32805163,-0.009337198,-0.3505482,-0.060366984,-0.022307187,0.061301198,-0.17739822,-0.40695965,-0.34757537,0.059969995,3.0690484,-0.62501943,0.00010786566,-0.15895799,0.0045498395,0.0020435664,-0.064979404,0.01285622,0.005854135,0.44830558,-1.3885916,1.9145812,-2.1010573,-1.5630468,2.4245877,-0.1753071,0.22916436,-0.27512652,0.0073976405,0.053439226,-0.18078859,-0.1340753,0.21068975,-9.423578,0.9455522,47.66091,-1.0838628,-1.8330963,-3.6526742,-0.3096252,0.09767411,-0.12947023,27.8125,28.9375,28.0625,32.0,34.0625,34.9375
0.33005178,-0.42110875,-0.06749789,0.04568087,0.009082132,0.04294737,-0.1522864,-0.40729013,-0.34755963,0.05997764,3.0689282,-0.62496126,0.00011621747,-0.16143079,0.0056712246,0.0027868089,-0.06354279,0.016104374,-0.0022905278,0.44793278,-1.3881228,1.9140056,-2.101022,-1.5629395,2.4241946,-0.17745194,0.23004745,-0.2778525,0.0069378577,0.050723407,-0.17479563,-0.3256114,0.1340753,-9.481039,0.93436235,47.657326,-1.043215,-1.7304091,-3.6042438,-0.3123067,0.10954817,-0.18495,27.8125,28.9375,28.0625,32.0,34.0625,34.9375
0.33205202,0.5573149,1.014095,0.17244664,0.027771376,0.05698638,-0.18670538,-0.4076167,-0.3475405,0.05996163,3.068799,-0.6250532,0.000107158136,-0.16298202,0.005957149,0.0024660935,-0.062750466,0.016748426,-0.009961171,0.44757268,-1.3876293,1.9134682,-2.1010458,-1.5628561,2.4239092,-0.1784391,0.23277366,-0.28031665,0.0064222794,0.04971155,-0.16811179,-0.114921674,0.15322891,-9.346964,0.83813137,47.670765,-1.0315061,-1.839335,-3.5494108,-0.2758478,0.12543356,-0.28015366,27.8125,28.9375,28.0625,32.0,34.0625,34.9375
0.33405185,0.5501537,1.2312794,0.060423456,0.04184882,0.055315126,-0.18404879,-0.4079407,-0.3475479,0.059985857,3.0686243,-0.6250192,0.00010904447,-0.1652954,0.006794681,0.002244523,-0.061361253,0.017252147,-0.014193525,0.4472236,-1.3871839,1.9128822,-2.1010096,-1.5627126,2.423562,-0.1807424,0.23620148,-0.2840498,0.0069056833,0.048254758,-0.16618253,0.038307227,0.05746084,-9.308656,1.0261165,47.66271,-0.96123064,-2.1408,-3.4416442,-0.2672353,0.15043491,-0.30760527,27.8125,28.9375,28.0625,32.0,34.0625,34.9375
0.33605176,-0.094483905,0.3265254,0.20219809,0.03960449,0.05678736,-0.1709159,-0.40827653,-0.34752595,0.059996035,3.0684803,-0.62510455,6.6605106e-05,-0.16704373,0.007102968,0.0019014387,-0.060131058,0.017387101,-0.016568128,0.44685158,-1.3867264,1.9123191,-2.1009982,-1.5626291,2.4232626,-0.1818355,0.23969045,-0.2875866,0.007389128,0.04710388,-0.16490023,-0.19153614,0.17238252,-9.232041,0.9947882,47.692257,-0.9738229,-2.0800478,-3.3849144,-0.2693255,0.1659886,-0.36257586,27.8125,28.9375,28.0625,32.0,34.0625,34.9375
0.3380518,-0.44549084,0.4874421,0.1546444,0.0053572142,0.05979778,-0.17701323,-0.40860635,-0.3474866,0.059983682,3.068395,-0.6251243,0.00011520934,-0.16781923,0.008749393,0.0016862148,-0.05786582,0.017003864,-0.017092137,0.4464547,-1.3862337,1.9117569,-2.100949,-1.5625457,2.4228895,-0.1839974,0.24009213,-0.28801116,0.008788414,0.045258224,-0.16654614,-0.17238252,0.22984336,-9.251195,0.86945957,47.677036,-0.97469735,-2.0532286,-3.339586,-0.26918113,0.18400694,-0.38420582,27.8125,28.9375,28.0625,32.0,34.0625,34.9375
0.3400517,-0.9620302,-0.79022664,0.28404805,-0.019676737,0.073674366,-0.17228009,-0.40894446,-0.3475031,0.06002259,3.0682638,-0.62505287,3.704294e-06,-0.16751449,0.008502115,0.001369086,-0.05569183,0.01592194,-0.008564653,0.44615573,-1.3857768,1.9111232,-2.1009128,-1.5624741,2.4225636,-0.18224959,0.24179532,-0.2899031,0.010977758,0.043842357,-0.17332628,-0.21068975,0.40222588,-9.404425,0.9231726,47.691364,-1.045369,-1.9408662,-3.3553588,-0.29088366,0.2280764,-0.32978004,27.8125,28.9375,28.0625,32.0,34.0625,34.9375
0.34205166,-1.3597311,-1.1022962,0.25158936,-0.0575142,0.074511394,-0.17894617,-0.40927285,-0.34747225,0.05999937,3.0681818,-0.6250311,1.0811672e-05,-0.16845928,0.00930352,0.0017240132,-0.05469706,0.01644913,-0.00047694048,0.44578302,-1.3852721,1.9105848,-2.1009238,-1.5624026,2.4221883,-0.18358961,0.24209534,-0.29149017,0.012328902,0.042798117,-0.1827575,-0.28730422,0.3256114,-9.385271,0.85826975,47.70211,-0.95516753,-1.9398484,-3.2813125,-0.301641,0.2730102,-0.24204624,27.8125,28.9375,28.0625,32.0,34.0625,34.9375
0.3440517,-0.7902239,-1.2142692,0.06476201,-0.047827136,0.0704576,-0.17232881,-0.40961784,-0.34744698,0.06000556,3.0680723,-0.624985,-1.5651658e-05,-0.16953436,0.009544928,0.0012042382,-0.053789336,0.016046949,0.0062178173,0.44539878,-1.3847905,1.9099988,-2.1009,-1.5623187,2.42179,-0.18435133,0.24489608,-0.2937994,0.012687788,0.04222465,-0.19021289,-0.21068975,0.30645782,-9.442732,0.9455522,47.683304,-0.97881556,-1.9538224,-3.488295,-0.31914482,0.26205745,-0.119785376,27.8125,28.9375,28.0625,32.0,34.0625,34.9375
0.34605178,-0.22164926,-0.8082951,-0.019935979,-0.032093253,0.06431502,-0.17325737,-0.40993908,-0.34744212,0.059989277,3.0679731,-0.624945,1.4114504e-05,-0.17006579,0.009973826,0.0009965834,-0.05446386,0.01587195,0.006920303,0.4450624,-1.384274,1.9094251,-2.1008885,-1.5622224,2.4214418,-0.18580322,0.24532627,-0.29383492,0.012208832,0.042942535,-0.19236231,-0.34476504,0.3256114,-9.500193,0.95002913,47.68062,-1.0704789,-1.9172027,-3.5104506,-0.315682,0.28258047,-0.056065597,27.8125,28.9375,28.0625,32.0,34.0625,34.9375
0.34805176,0.047062926,-0.5304734,0.32962123,-0.03045285,0.059994105,-0.18164507,-0.4102696,-0.3474346,0.059999835,3.0678263,-0.62489563,3.4813387e-05,-0.16896054,0.007867065,-5.341156e-05,-0.05511118,0.014504631,0.0059249173,0.44469172,-1.3838044,1.9088405,-2.1008527,-1.5620903,2.4210598,-0.18176673,0.248203,-0.294691,0.01113765,0.044107277,-0.18732056,-0.47884035,0.28730422,-9.3661175,0.9567419,47.694946,-1.2986794,-1.9846755,-3.562002,-0.298395,0.3156432,-0.0916294,27.8125,28.9375,28.0625,32.0,34.0625,34.9375
0.35005164,-0.45555097,-0.82627505,0.005483152,0.00044718003,0.038321994,-0.16629055,-0.41066527,-0.34740075,0.06003321,3.067727,-0.62485844,-0.00015198671,-0.16950762,0.0074692345,4.2187436e-05,-0.056361146,0.014821252,-0.0011462463,0.444296,-1.3833122,1.908182,-2.1008413,-1.5620774,2.4206545,-0.18193257,0.24901463,-0.29584536,0.0106137935,0.0450938,-0.18040274,-0.3256114,0.2681506,-9.32781,0.947788,47.674347,-1.3712254,-1.857843,-3.6568918,-0.28240773,0.30264464,-0.15757729,27.8125,28.9375,28.0625,32.0,34.0625,34.9375
0.35205272,0.085392304,-0.16763623,0.28218138,-0.011739647,0.050451048,-0.17714903,-0.41100085,-0.34740815,0.06001914,3.0675638,-0.6248865,-0.00013181807,-0.17131253,0.006782595,0.0003915774,-0.057767585,0.015375691,-0.010004131,0.4439477,-1.3827821,1.907595,-2.1008646,-1.5619453,2.4203455,-0.18267158,0.25187048,-0.30019897,0.01097144,0.046090115,-0.17227294,-0.19153613,0.17238252,-9.270349,0.9410752,47.67614,-1.3966389,-1.9488951,-3.5880816,-0.28705737,0.3109045,-0.24479064,27.8125,28.9375,28.0625,32.0,34.0625,34.9375
0.35405195,-0.38613045,-0.49375606,0.2221307,0.006528064,0.021945477,-0.16563486,-0.41135237,-0.34737775,0.060021035,3.0674436,-0.62496114,-0.00012943827,-0.17318082,0.006651297,0.0014960389,-0.06027186,0.016918419,-0.017266251,0.44355088,-1.3822776,1.9069852,-2.100817,-1.5618609,2.4200115,-0.18477423,0.25224096,-0.30329812,0.011213196,0.047674086,-0.16710128,-0.076614454,0.2681506,-9.232041,1.0126908,47.68062,-1.3731318,-1.9371758,-3.4273791,-0.27848813,0.3290403,-0.32526585,27.8125,28.9375,28.0625,32.0,34.0625,34.9375
0.35605186,0.02201168,-0.2647013,0.18645921,0.005633433,0.014605429,-0.177166,-0.411709,-0.3473663,0.06003138,3.0673122,-0.6249945,-0.00019597908,-0.17434601,0.006229131,0.0023562065,-0.062947884,0.017229058,-0.023399537,0.4431902,-1.3817723,1.9063629,-2.1008046,-1.561788,2.4196894,-0.1862249,0.25260353,-0.30597183,0.012075266,0.049954556,-0.1624005,-0.17238252,0.22984336,-9.174581,0.9164598,47.67166,-1.2251382,-1.9369483,-3.4039187,-0.2735956,0.30796233,-0.41937768,27.8125,28.9375,28.0625,32.0,34.0625,34.9375
0.3580523,-0.25198814,-0.50054455,0.30774283,-0.00058883376,0.010043788,-0.17870337,-0.41203943,-0.34736782,0.06003381,3.0671506,-0.62503487,-0.00013921605,-0.17633218,0.0065095765,0.00407321,-0.063286595,0.021295367,-0.02289941,0.4428304,-1.3812692,1.9057535,-2.100757,-1.5616449,2.4193764,-0.1872793,0.2516152,-0.30883598,0.012169043,0.048547607,-0.1639595,-0.15322891,0.30645782,-9.193734,0.9791215,47.67345,-1.3025686,-1.667879,-3.4295063,-0.27624866,0.32620975,-0.46615672,27.8125,28.9375,28.0625,32.0,34.0625,34.9375
0.36005265,-0.23512688,-0.4749745,0.08636108,-0.0040073837,0.01666225,-0.1852808,-0.41241923,-0.3473321,0.060020585,3.0670326,-0.6250829,-0.00017523934,-0.17622298,0.007013702,0.0015808463,-0.061860304,0.016526591,-0.015629709,0.44240963,-1.3807148,1.9051317,-2.1007683,-1.5615724,2.4190016,-0.18836564,0.25661993,-0.30934387,0.012698001,0.049391076,-0.1723072,0.038307227,0.28730422,-9.251195,0.9186956,47.674347,-1.2470675,-1.8374596,-3.3225002,-0.2946537,0.34735894,-0.4334122,27.8125,28.9375,28.0625,32.0,34.0625,34.9375
0.3620525,-0.42520303,-0.6491627,0.08291764,-0.011328747,0.016286518,-0.17111665,-0.41274145,-0.3473389,0.06003265,3.0668898,-0.62504643,-0.00013996166,-0.17708598,0.007033284,0.0005396164,-0.062313434,0.01432423,-0.004993567,0.4420731,-1.3802332,1.9045223,-2.1007082,-1.5614399,2.4186614,-0.18982896,0.26027548,-0.31150678,0.0131483525,0.050850037,-0.18439512,0.038307227,0.30645782,-9.232041,0.94331104,47.677036,-1.1565624,-1.9343915,-3.4454224,-0.2876174,0.3730476,-0.35366833,27.8125,28.9375,28.0625,32.0,34.0625,34.9375
0.36405256,-0.86962634,-1.1547096,0.3907666,-0.032444853,0.03310644,-0.1736917,-0.4131243,-0.34730396,0.060042053,3.0667815,-0.62496233,-0.00021049657,-0.17894253,0.0073126974,0.00061215763,-0.064706974,0.013198813,0.0018389091,0.44165182,-1.3797158,1.9038872,-2.1006963,-1.5613669,2.4182022,-0.19332263,0.26262173,-0.31478813,0.014198885,0.053600255,-0.19469984,-0.05746084,0.3256114,-9.251195,0.9768804,47.677036,-1.0597284,-2.0395162,-3.3744564,-0.3062738,0.31734073,-0.21150368,27.8125,28.9375,28.0625,32.0,34.0625,34.9375
0.36605158,-0.36172232,-0.64160264,0.20729765,-0.041788604,0.05057432,-0.1871247,-0.4134713,-0.34729004,0.06002153,3.0666645,-0.6249941,-0.00012684656,-0.17855385,0.008536232,-0.00093636994,-0.063076556,0.010469868,0.004822018,0.4412675,-1.3791507,1.9032553,-2.1006486,-1.5612468,2.4178534,-0.19474997,0.26410416,-0.31321457,0.014393431,0.05334586,-0.19911207,-0.076614454,0.40222588,-9.193734,0.9030289,47.689575,-1.0778828,-1.9659985,-3.4553773,-0.31211644,0.32575744,-0.15078127,27.8125,28.9375,28.0625,32.0,34.0625,34.9375
0.36805287,-0.73954886,-0.6032819,0.16315328,-0.015324333,0.04076291,-0.17464495,-0.41383836,-0.34729195,0.06004009,3.0665073,-0.62492657,-0.00016681432,-0.18070567,0.009663792,-0.0015545626,-0.062873244,0.010112173,-0.0041477405,0.44089445,-1.3786336,1.9025968,-2.1006248,-1.5611266,2.4174592,-0.19822317,0.26724565,-0.31555885,0.013997613,0.053305235,-0.19360834,-0.2873042,0.34476504,-9.270349,0.9298854,47.678825,-0.9921763,-2.0482798,-3.4929378,-0.31250307,0.3531834,-0.1763592,27.8125,28.9375,28.0625,32.0,34.0625,34.9375
0.3700517,-1.1582066,-1.009167,0.14819846,-0.014841272,0.037770826,-0.1778651,-0.41418952,-0.34726685,0.060024768,3.066405,-0.62494826,-0.00014953445,-0.18276514,0.0088471165,0.00019826548,-0.067261375,0.012981734,-0.014319342,0.44051018,-1.3780924,1.901986,-2.1006005,-1.5610417,2.4171023,-0.19995865,0.26676804,-0.31891537,0.013310129,0.056002323,-0.18515247,-0.5363012,0.34476504,-9.212888,0.9388393,47.703903,-0.9572903,-1.9993091,-3.57707,-0.32033706,0.33795297,-0.24296665,27.8125,28.9375,28.0625,32.0,34.0625,34.9375
0.37205186,-1.3886218,-1.0482286,0.33668023,-0.016340662,0.039475404,-0.17913938,-0.41454592,-0.34726182,0.060017075,3.0662484,-0.62493604,-0.00013240083,-0.18261762,0.0070372364,0.0010296814,-0.07050571,0.014078879,-0.016962983,0.44012675,-1.377552,1.9013647,-2.100601,-1.5609087,2.4167323,-0.1980158,0.26635188,-0.3202733,0.012701225,0.058461893,-0.18054649,-0.5363012,0.36391866,-9.212888,0.86498255,47.66808,-1.0139885,-2.1135478,-3.4831865,-0.30265844,0.30701134,-0.32807958,27.8125,28.9375,28.0625,32.0,34.0625,34.9375
