Tylouw/Master_Thesis_Code/training_data/batch_1/small_rod_t0.2/sample_15_session_1.csv
timestamp[s],tcp_force_x[N],tcp_force_y[N],tcp_force_z[N],tcp_force_rx[Nm?],tcp_force_ry[Nm?],tcp_force_rz[Nm?],tcp_pose_x[m],tcp_pose_y[m],tcp_pose_z[m],tcp_pose_rx[rot_vec_x],tcp_pose_ry[rot_vec_y],tcp_pose_rz[rot_vec_z],tcp_velo_x[m/s],tcp_velo_y[m/s],tcp_velo_z[m/s],tcp_velo_rx[rot_vec_x/s],tcp_velo_ry[rot_vec_y/s],tcp_velo_rz[rot_vec_z/s],q1[rad],q2[rad],q3[rad],q4[rad],q5[rad],q6[rad],qd1[rad/s],qd2[rad/s],qd3[rad/s],qd4[rad/s],qd5[rad/s],qd6[rad/s],tool_acc_x,tool_acc_y,tool_acc_z,current_of_whole_robot[A],voltage_of_whole_robot[V],current_J1[A],current_J2[A],current_J3[A],current_J4[A],current_J5[A],current_J6[A],temp_J1[C],temp_J2[C],temp_J3[C],temp_J4[C],temp_J5[C],temp_J6[C]
8.9401146e-07,-0.08340961,0.5503354,1.262142,-0.028011065,0.004846401,-0.014522761,-0.38105857,-0.34851882,0.059963804,-3.0784953,0.6248728,-0.00016669054,0.0017174389,0.00089645374,-0.0016967091,0.001531345,-0.0032157528,4.54098e-05,0.47779807,-1.425934,1.9577278,-2.1008332,-1.5707816,2.452752,-8.4796564e-05,-9.4292955e-06,0.00398189,-0.00041316648,0.0001264131,-0.00013236007,0.038307227,0.19153613,-8.7532015,0.679228,47.751366,0.079652734,-2.7554312,-2.5795455,-0.44979167,0.15793252,0.031377718,27.75,28.875,28.0,31.9375,33.9375,34.75
0.002051991,0.28273815,0.6243082,1.1421595,-0.022244431,0.012686881,-0.01744015,-0.3810477,-0.34853512,0.059953764,-3.0785284,0.62491786,-0.00023660628,-0.0008483692,-0.00044395094,-0.002651827,-0.0015020556,0.0025785917,4.689378e-05,0.47779807,-1.4259206,1.9577392,-2.1008494,-1.5707215,2.452776,-8.3485524e-05,0.0037534637,0.004291377,-0.0110258525,0.00013193922,-0.00012997063,0.05746084,0.11492168,-8.714894,0.7642693,47.716442,0.05753219,-2.7306123,-2.4358857,-0.40908748,0.16042322,0.049347896,27.75,28.875,28.0,31.9375,33.9375,34.75
0.004052572,0.012149152,0.034570996,1.0523123,-0.0034541318,0.0043015457,-0.013821464,-0.3810688,-0.34852657,0.05995625,-3.0784988,0.6248924,-0.0001226492,-0.0018699188,-0.00097631896,-0.0024629987,-0.002835145,0.005139643,4.678965e-05,0.4778101,-1.4259084,1.9577278,-2.1008852,-1.5707935,2.452776,-8.2214545e-05,0.0043525235,0.0038761538,-0.014096928,0.00013006793,-0.00012766603,0.076614454,0.19153613,-8.7532015,0.75755644,47.72719,0.075936064,-3.139278,-2.685629,-0.30140674,0.1780929,0.047044072,27.75,28.875,28.0,31.9375,33.9375,34.75
0.006052477,0.474124,0.57264733,0.8802188,-0.0026537385,0.003029166,-0.013720359,-0.3810672,-0.34853423,0.059958767,-3.0785408,0.62495935,-0.00016729912,-0.0010959513,-0.0005726678,-0.001718343,-0.0016956044,0.002964091,4.5165852e-05,0.47778615,-1.425921,1.9577388,-2.1008956,-1.5707334,2.4527884,-8.098171e-05,0.0029117032,0.0026509154,-0.008974939,0.00012779271,-0.00012544182,0.0,0.22984336,-8.734048,0.7418897,47.719128,0.069305435,-3.0766735,-2.5879302,-0.32581678,0.15265478,0.03631753,27.75,28.875,28.0,31.9375,33.9375,34.75
0.008052436,1.003155,1.5058175,0.50478035,0.016091313,-0.014513914,-0.026089245,-0.3810754,-0.34850734,0.059941415,-3.0785043,0.6249132,-0.0001343072,-0.00053665915,-0.00028032876,-0.0002692739,-0.0013797763,0.0023771648,4.3390315e-05,0.47776207,-1.42591,1.9577736,-2.1009295,-1.5707816,2.4527402,-7.978516e-05,5.1248262e-05,0.0015451671,-0.0043422985,0.00012556628,-0.00012329365,-0.019153614,0.15322891,-8.7532015,0.76874626,47.733456,0.07686606,-2.9073577,-2.506161,-0.36007208,0.16306409,0.016474377,27.75,28.875,28.0,31.9375,33.9375,34.75
0.010052324,1.1554412,1.4367172,0.23949261,0.023429535,-0.018089486,-0.023301903,-0.38106206,-0.34852502,0.059937935,-3.0784864,0.62489015,-0.00020685678,-9.577654e-05,-5.065144e-05,-0.00024250546,-0.0005270067,0.000744423,4.225698e-05,0.47779807,-1.4258741,1.9577268,-2.100869,-1.5707697,2.452764,-7.8623554e-05,6.875608e-07,0.0009828616,-0.0018874072,0.00012341407,-0.00012121781,0.095768064,0.11492168,-9.174581,0.6344689,47.75316,-0.14078897,-2.210316,-3.3116446,-0.35360575,0.13223515,0.0036328402,27.75,28.875,28.0,31.9375,33.9375,34.75
0.012052465,0.5188781,0.7466622,-0.026225325,0.00048681223,-0.011172499,-0.018141711,-0.38107246,-0.34851938,0.059922256,-3.078455,0.6249616,-0.00020987421,-0.0023937423,-0.0012376099,-0.00096766,0.00034899684,-0.00096931314,1.662011e-05,0.47778615,-1.4258357,1.9577245,-2.1008928,-1.5707816,2.4528008,-0.0001013676,0.007712455,-0.0065454007,-0.00014629436,0.00012133427,-0.00011364045,0.095768064,0.05746084,-9.32781,0.75084364,47.71286,-0.25420326,-2.1948707,-3.4605694,-0.36528146,0.11488632,0.014276217,27.75,28.875,28.0,31.9375,33.9375,34.75
0.01405258,-0.07973507,-0.21956237,-0.3166638,-0.024176458,0.008912774,-0.024288729,-0.38103718,-0.34852952,0.059905637,-3.0784545,0.6248278,-0.00032307094,-0.0048718196,-0.00034140373,-0.0035757653,0.0030743245,-0.0062202355,-0.00384489,0.477821,-1.42582,1.9577335,-2.1008446,-1.5707573,2.452752,-0.0039877743,0.017290529,-0.011882487,0.0015287948,0.00010825091,-0.00013463687,-0.019153614,0.11492168,-9.442732,0.74413085,47.701214,-0.37726206,-2.8561964,-3.0268683,-0.34848595,0.12425684,-0.03840195,27.75,28.875,28.0,31.9375,33.9375,34.75
0.016052427,-0.6852163,-1.0482644,-0.6305619,-0.05841921,0.042361606,-0.019580292,-0.38102436,-0.3484882,0.05987624,-3.0783687,0.62486887,-0.0004708362,-0.004902109,0.0017594862,-0.0038295405,0.0046725636,-0.009277889,-0.005281794,0.47775945,-1.4257964,1.9577569,-2.1007707,-1.5707573,2.452727,-0.007746319,0.01646546,-0.011172582,0.005093765,0.00010295679,-0.002457486,-0.28730422,0.38307226,-9.615114,0.7597976,47.779133,-0.08966305,-2.6412997,-3.341342,-0.37631232,0.0896723,-0.02078757,27.75,28.875,28.0,31.9375,33.9375,34.75
0.018051768,-1.2052149,-1.3612874,-0.69040376,-0.08627572,0.07254044,-0.023914268,-0.3810474,-0.3485004,0.059886098,-3.078387,0.62488854,-0.00042803877,-0.0047219796,0.001297419,-0.0034240526,0.0048694815,-0.009657248,0.00081219815,0.47775978,-1.4257723,1.9577097,-2.1007826,-1.5707573,2.4527373,-0.0067569455,0.016596694,-0.012653774,0.00687035,0.00010107476,-0.007561685,-0.38307226,0.34476504,-9.730036,0.7665104,47.73525,-0.20713678,-2.4302251,-3.497473,-0.3874081,0.08912541,-0.0023984725,27.75,28.875,28.0,31.9375,33.9375,34.75
0.02005274,-1.4962826,-1.4494168,-0.4777612,-0.08614478,0.083578505,-0.03505137,-0.38103652,-0.34849477,0.059859797,-3.0783505,0.62484246,-0.0005156959,-0.0053730495,0.00082146924,-0.003794482,0.005080267,-0.009978493,0.002519811,0.4777598,-1.4257234,1.9577087,-2.1007588,-1.5707573,2.4527133,-0.006486292,0.019121515,-0.014652308,0.0067261877,5.563473e-05,-0.008997121,-0.51714754,0.4213795,-9.844957,0.7665104,47.758533,-0.3369467,-2.4400015,-3.5390816,-0.37318823,0.07440023,0.005525824,27.75,28.875,28.0,31.9375,33.9375,34.75
0.022051696,-1.0762398,-0.8504575,-0.54266316,-0.07971211,0.09674727,-0.039131418,-0.3810477,-0.3484938,0.05985566,-3.0783365,0.62483907,-0.0005441055,-0.007292532,0.00019860415,-0.0025205605,0.0036883657,-0.007219332,0.0024289365,0.4777477,-1.4256874,1.9576715,-2.1007345,-1.5707573,2.4527009,-0.007130111,0.019850861,-0.018373773,0.0066281673,1.4188143e-05,-0.009547967,-0.6512229,0.53630114,-9.864111,0.79560274,47.73256,-0.41496533,-2.3433914,-3.4869905,-0.36988187,0.045541357,0.019891575,27.75,28.875,28.0,31.9375,33.9375,34.75
0.024052422,-0.92110723,-0.663696,-0.6960753,-0.064038895,0.09220173,-0.054650366,-0.38107604,-0.34850556,0.059861813,-3.0783596,0.6248063,-0.0005413414,-0.008620535,0.0009803027,-0.0026107265,0.0037948797,-0.007401679,0.00032295665,0.47773486,-1.4256389,1.9575995,-2.1007226,-1.5707458,2.4526646,-0.009740848,0.021117093,-0.019666001,0.0068651508,9.2638436e-07,-0.010051892,-0.51714754,0.45968673,-9.844957,0.7866488,47.73256,-0.3968293,-2.367828,-3.5384116,-0.37491077,0.036811657,0.016667975,27.75,28.875,28.0,31.9375,33.9375,34.75
0.026051868,-1.204774,-0.5443254,-0.69189817,-0.05807969,0.06389979,-0.05615326,-0.38109404,-0.34851733,0.059854105,-3.0783472,0.6248228,-0.0005305326,-0.009471721,0.0008860747,-0.002562736,0.0038455813,-0.00750507,0.00045991055,0.47774652,-1.4255786,1.9575509,-2.100734,-1.5707573,2.4526882,-0.010361867,0.022688918,-0.021700036,0.007442253,6.0486286e-08,-0.0108087035,-0.53630114,0.40222588,-9.902418,0.7150385,47.694946,-0.40600687,-2.3311677,-3.5368795,-0.35975707,0.014621234,0.026637834,27.75,28.875,28.0,31.9375,33.9375,34.75
0.028051728,-1.4015325,-0.68545467,-0.5134217,-0.044565864,0.047213033,-0.06545521,-0.38112003,-0.34849903,0.05983313,-3.0783045,0.6248341,-0.0005753956,-0.0107441535,0.0009177361,-0.0020747122,0.0041780355,-0.0065533705,-7.915292e-05,0.47769824,-1.4255062,1.9575137,-2.100722,-1.5707701,2.4526525,-0.011116805,0.023877222,-0.024346009,0.008210109,-0.00073768426,-0.011021676,-0.68953013,0.3256114,-9.787497,0.8090337,47.72002,-0.38994816,-2.2868352,-3.528566,-0.33417356,0.016054302,0.0090348115,27.75,28.875,28.0,31.9375,33.9375,34.75
0.030052649,-0.98550177,-0.07239206,-0.508036,-0.03565634,0.057498105,-0.07717383,-0.381148,-0.34850168,0.05984488,-3.0783072,0.6249503,-0.00058408437,-0.012521523,0.0013131667,-0.0015101164,0.004999343,-0.004805467,-0.001713856,0.47766185,-1.4254819,1.9574536,-2.1006982,-1.5707468,2.4526882,-0.012465331,0.025127005,-0.02714905,0.008594528,-0.002275721,-0.010730793,-0.6895301,0.21068975,-9.864111,0.7284641,47.74062,-0.49499637,-2.2331524,-3.4611924,-0.32532638,-0.0034648234,0.011850679,27.75,28.875,28.0,31.9375,33.9375,34.75
0.0320527,-0.85994273,0.060796965,-0.52601296,-0.013411236,0.062228378,-0.087153174,-0.38117793,-0.3484996,0.05985033,-3.0782897,0.6248526,-0.0005360543,-0.013624705,0.0014031874,-0.0013957806,0.0047094496,-0.004591692,-0.0039575947,0.47766137,-1.4254335,1.9573807,-2.1006744,-1.5707945,2.452629,-0.013748318,0.026468711,-0.028978474,0.008758237,-0.0021195277,-0.009769264,-0.47884035,0.1340753,-9.710882,0.84708,47.73077,-0.478085,-2.2158606,-3.5306997,-0.31956953,-0.015104259,-0.029542483,27.75,28.875,28.0,31.9375,33.9375,34.75
0.034052312,-0.7502575,0.7119878,-0.18054895,-0.007556102,0.05962813,-0.09999162,-0.3811919,-0.34851116,0.059818577,-3.0782762,0.6248115,-0.0006082622,-0.014523215,0.0013345336,-0.0011925369,0.0049476945,-0.005095228,-0.004517692,0.4776612,-1.4253252,1.957332,-2.100685,-1.5707825,2.452605,-0.014470077,0.02813361,-0.03171418,0.010385764,-0.0021023548,-0.009929542,-0.4405331,0.05746084,-9.672575,0.779936,47.73256,-0.5474434,-2.2639542,-3.4531703,-0.30856788,-0.038829017,-0.03632509,27.75,28.875,28.0,31.9375,33.9375,34.75
0.036052346,-0.99346983,0.51233304,-0.2440043,0.018585244,0.038748253,-0.099390395,-0.38125703,-0.3485173,0.059843954,-3.078322,0.6249559,-0.0005549641,-0.016661623,0.0012785032,-0.00019254565,0.0045233974,-0.003173326,-0.0054050535,0.47758856,-1.4252887,1.9572352,-2.1006973,-1.5707468,2.4526167,-0.016013596,0.029498832,-0.03572809,0.011134551,-0.0026159782,-0.010582713,-0.36391866,-0.076614454,-9.576807,0.7150385,47.698532,-0.40828985,-2.2587328,-3.3812442,-0.31992126,-0.05238953,-0.031665333,27.75,28.875,28.0,31.9375,33.9375,34.75
0.038052406,-0.7637819,0.86247057,-0.5462247,0.029523853,0.032798395,-0.10691183,-0.3812824,-0.34851274,0.05983871,-3.0782871,0.62492853,-0.00060223514,-0.017560834,0.0011035674,-0.00014321902,0.005270226,-0.0026000491,-0.00492658,0.4775647,-1.4252161,1.9571508,-2.1006372,-1.5707587,2.4525802,-0.015929552,0.031287324,-0.03794151,0.011396739,-0.0035477758,-0.010973725,-0.2681506,-0.1340753,-9.5385,0.779936,47.704796,-0.5423119,-2.272247,-3.4163601,-0.29297245,-0.053247847,-0.0697735,27.75,28.875,28.0,31.9375,33.9375,34.75
0.040052276,-0.12894088,1.1308421,-0.34887928,0.019093223,0.041120283,-0.12552701,-0.38131052,-0.34852034,0.059841253,-3.078298,0.62491214,-0.00058694155,-0.018730821,0.0011723862,0.00026583968,0.0057886527,-0.00159704,-0.0051983492,0.4775524,-1.4251678,1.9570898,-2.1006367,-1.5707592,2.4525564,-0.01653297,0.03240804,-0.040286537,0.01197179,-0.004473046,-0.011302251,-0.19153613,-0.095768064,-9.500193,0.7396539,47.709274,-0.5026855,-2.2419543,-3.3809085,-0.31790558,-0.07201925,-0.054429032,27.75,28.875,28.0,31.9375,33.9375,34.75
0.042052288,-0.53503627,0.37069762,-0.28705412,0.0139292125,0.03246393,-0.1258081,-0.38133934,-0.34848574,0.05981743,-3.0782053,0.625047,-0.0006508788,-0.02022273,0.0015531817,0.000321916,0.006700728,-0.00042897413,-0.005744208,0.47748002,-1.4250954,1.9570535,-2.100601,-1.5707835,2.45258,-0.017709438,0.034147684,-0.042329818,0.011661353,-0.005826546,-0.011928264,-0.19153613,0.019153614,-9.461885,0.7463667,47.704796,-0.48558176,-2.21069,-3.3832674,-0.3109889,-0.07621551,-0.07573204,27.75,28.875,28.0,31.9375,33.9375,34.75
0.044052355,-0.38519624,0.2740965,-0.32796064,-0.005562068,0.036853857,-0.13739425,-0.3814254,-0.3485079,0.05986722,-3.078272,0.6250036,-0.000479238,-0.021775339,0.001788024,0.0012008449,0.007863933,0.0017945968,-0.0060550184,0.47745588,-1.4250472,1.9568847,-2.100601,-1.5708083,2.4525204,-0.01822284,0.03480903,-0.04529059,0.012527407,-0.007884592,-0.01212596,-0.28730422,0.095768064,-9.5385,0.71951014,47.705692,-0.48934683,-2.2359986,-3.3626752,-0.31964162,-0.06921055,-0.066299886,27.75,28.875,28.0,31.9375,33.9375,34.75
0.046051662,-0.19279702,0.23619938,-0.15474197,-0.020134486,0.042976584,-0.14203443,-0.38145044,-0.34849817,0.059866924,-3.0782158,0.62503064,-0.000513265,-0.022684691,0.0021925748,0.0016306491,0.009488762,0.0026447333,-0.0060782568,0.47743174,-1.424987,1.9568003,-2.1005285,-1.5708336,2.4525204,-0.018589446,0.035503656,-0.04738375,0.013923588,-0.009720511,-0.0124642495,-0.17238252,0.114921674,-9.519346,0.77545905,47.687782,-0.4604053,-2.0669441,-3.3452044,-0.30911398,-0.04782959,-0.06449059,27.75,28.875,28.0,31.9375,33.9375,34.75
0.04805246,-0.45965755,0.060281433,-0.232162,-0.02112407,0.038277198,-0.15646426,-0.38148797,-0.3484884,0.059865847,-3.078186,0.625043,-0.0005044081,-0.023953352,0.0028834613,0.00079172396,0.012001381,0.002327457,-0.0074626724,0.47739542,-1.424926,1.9567279,-2.1005046,-1.5708579,2.4524956,-0.019632665,0.03888504,-0.049324837,0.0139266,-0.011810629,-0.012117053,-0.22984336,0.17238252,-9.576807,0.7709874,47.70211,-0.50127685,-2.1355562,-3.4046903,-0.31649768,-0.053575143,-0.08364077,27.75,28.875,28.0,31.9375,33.9375,34.75
0.050051834,-0.820821,-0.50534135,-0.3776352,-0.020409869,0.025204055,-0.14732665,-0.3815592,-0.34848264,0.05987898,-3.0781739,0.62508,-0.0004518558,-0.02508538,0.0034632243,0.0007114306,0.014562126,0.003116806,-0.008702172,0.4773354,-1.4248414,1.9565958,-2.1004803,-1.5708827,2.4524603,-0.019992085,0.04077772,-0.051469427,0.014662686,-0.014450119,-0.011230562,-0.1340753,0.38307226,-9.595961,0.7642693,47.719128,-0.48730373,-2.2519417,-3.320007,-0.32522446,-0.005993501,-0.09642141,27.75,28.875,28.0,31.9375,33.9375,34.75
0.052052632,-0.5526383,-0.8671216,-0.32142562,-0.03273277,0.02869753,-0.16519399,-0.3815827,-0.34847006,0.059846357,-3.078088,0.62515897,-0.00055585336,-0.026337909,0.0029240947,0.0023077168,0.012351355,0.0057921824,-0.009650621,0.47729897,-1.424722,1.9565233,-2.1004326,-1.5708946,2.4524841,-0.02066304,0.03952695,-0.05372032,0.0147691555,-0.013721055,-0.010952375,-0.19153614,0.47884035,-9.615114,0.87617236,47.7254,-0.46566436,-2.0570018,-3.3676915,-0.33335656,-0.0061133713,-0.10032876,27.75,28.875,28.0,31.9375,33.9375,34.75
0.054052502,-0.51989555,-1.2937887,-0.48748225,-0.041667562,0.022085303,-0.1659657,-0.38162753,-0.34847572,0.05987711,-3.0781097,0.62512535,-0.00050001044,-0.027056998,0.0026673358,0.001958356,0.01172439,0.0048220297,-0.010041196,0.47727472,-1.4246974,1.9564141,-2.100385,-1.5709056,2.4524362,-0.02151931,0.041717052,-0.055444624,0.014872861,-0.012721881,-0.011419508,-0.19153614,0.40222588,-9.634268,0.7777002,47.703903,-0.46986908,-1.9693131,-3.4048445,-0.32550496,-0.027332406,-0.11509171,27.75,28.875,28.0,31.9375,33.9375,34.75
0.056051783,-0.36891696,-1.25106,-0.45307434,-0.06412098,0.015316253,-0.16934985,-0.3817101,-0.34846053,0.059891533,-3.0780764,0.6252144,-0.00040946333,-0.029056685,0.0015087893,0.0030003819,0.009743909,0.0064168777,-0.009888917,0.4772026,-1.4246125,1.9562815,-2.1003726,-1.5709537,2.452424,-0.02196574,0.043944877,-0.06047909,0.015347818,-0.0117049385,-0.012018006,-0.11492168,0.49799395,-9.672575,0.784413,47.66987,-0.5453354,-2.0671453,-3.2348478,-0.32800454,-0.027044911,-0.12276022,27.75,28.875,28.0,31.9375,33.9375,34.75
0.058051962,-0.028007733,-1.3876982,-0.32749102,-0.06810274,0.01518557,-0.18441387,-0.38172805,-0.34846318,0.059862763,-3.078028,0.6251843,-0.00051423046,-0.027957346,0.0020560608,0.00050891633,0.011943086,0.0013330915,-0.009578613,0.4771906,-1.4244918,1.9561986,-2.1003249,-1.5709537,2.4523995,-0.02217248,0.047617942,-0.059084892,0.015804762,-0.01132086,-0.0125351045,-0.21068975,0.4405331,-9.653421,0.8314132,47.71017,-0.49908817,-2.0931823,-3.4158769,-0.32256317,-0.04074382,-0.128652,27.75,28.875,28.0,31.9375,33.9375,34.75
0.06005196,-0.39547187,-1.2494452,-0.33985594,-0.0640616,0.009805877,-0.18729614,-0.38180786,-0.3484732,0.059879728,-3.0780406,0.625188,-0.00045958813,-0.029567242,0.0018142571,0.00080746645,0.012171143,0.002435213,-0.010279911,0.47714233,-1.424383,1.9560302,-2.1003006,-1.5709656,2.452352,-0.022762388,0.04992419,-0.062444516,0.015985794,-0.012036097,-0.012420574,-0.1340753,0.40222588,-9.576807,0.7597976,47.71017,-0.46943796,-2.1871347,-3.3774877,-0.30534106,-0.068615794,-0.1392346,27.75,28.875,28.0,31.9375,33.9375,34.75
0.062052142,-0.59858257,-1.0980412,-0.101314634,-0.04980824,0.015819848,-0.1960651,-0.381875,-0.3484764,0.059916854,-3.0780544,0.6252681,-0.00037141936,-0.032395497,0.00090379536,0.0037083963,0.009407944,0.008351309,-0.011037974,0.47709402,-1.4243475,1.9558967,-2.1002648,-1.570978,2.452352,-0.023575315,0.04857053,-0.06750582,0.015876671,-0.012308696,-0.012473276,-0.15322891,0.4213795,-9.442732,0.8112748,47.70211,-0.4910066,-2.124018,-3.3368022,-0.315848,-0.06154385,-0.15913764,27.75,28.875,28.0,31.9375,33.9375,34.75
0.06405207,-0.63352305,-0.91291034,-0.23206115,-0.024900164,0.02207343,-0.20456909,-0.3819453,-0.348488,0.05992731,-3.0780702,0.62528956,-0.00030133838,-0.033018816,0.0017956082,0.0024652677,0.012684764,0.0075924816,-0.011022524,0.477058,-1.4242506,1.9557651,-2.1002772,-1.5709909,2.4523275,-0.024067428,0.05160851,-0.06806953,0.015589657,-0.014872709,-0.0129754,-0.038307227,0.45968673,-9.442732,0.78217715,47.705692,-0.46805385,-2.0040383,-3.2426214,-0.2823544,-0.049180105,-0.15616272,27.75,28.875,28.0,31.9375,33.9375,34.75
0.06603373,-0.17294167,-0.56039405,-0.016126923,-0.020874219,0.046588987,-0.20859726,-0.38199753,-0.34846595,0.05991659,-3.0779686,0.62532634,-0.00033002274,-0.03404054,0.0017119568,0.0019524012,0.013550918,0.007235495,-0.011012089,0.4770098,-1.4241297,1.9556326,-2.1001933,-1.5710515,2.4523153,-0.024463281,0.054638263,-0.07035357,0.015559295,-0.015484417,-0.013377707,-0.11492168,0.4213795,-9.385271,0.75084364,47.717335,-0.5703664,-2.1501267,-3.3279111,-0.27965534,-0.028083336,-0.16962224,27.75,28.875,28.0,31.9375,33.9375,34.75
0.068052754,-0.2262703,-0.6218876,-0.040548757,-0.025313096,0.046311475,-0.20517965,-0.38207334,-0.3484494,0.0598885,-3.0779173,0.6254114,-0.00033624176,-0.03493123,0.0015687328,0.0022171428,0.01384035,0.00749046,-0.010179881,0.4769258,-1.4239736,1.9555238,-2.1002166,-1.5710753,2.452291,-0.024779534,0.056023955,-0.072758816,0.01648443,-0.015862703,-0.014523766,-0.095768064,0.36391866,-9.270349,0.7486078,47.703903,-0.5510691,-2.1403916,-3.2168317,-0.2748483,-0.015606705,-0.17939162,27.75,28.875,28.0,31.9375,33.9375,34.75
0.070052125,-0.27948505,-0.20484541,0.24951608,-0.03019317,0.03300538,-0.20541027,-0.3821519,-0.3484768,0.05992882,-3.0779731,0.6254041,-0.00023432967,-0.036047507,0.00074016134,0.0026940592,0.011983199,0.008010614,-0.010230137,0.47690156,-1.4239011,1.9553436,-2.1001928,-1.5710748,2.4522552,-0.025246885,0.05751163,-0.07554608,0.016463723,-0.014456584,-0.014943436,-0.1340753,0.3256114,-9.270349,0.78217715,47.717335,-0.51733005,-2.1035838,-3.1749856,-0.25725958,-0.020934999,-0.17992057,27.75,28.875,28.0,31.9375,33.9375,34.75
0.07205221,-0.20888604,-0.25582445,0.15843695,-0.020269098,0.017506845,-0.1872913,-0.3822593,-0.34847918,0.059946846,-3.0779643,0.6254972,-0.00012657657,-0.036655035,0.0004204723,0.0029227647,0.012458365,0.008303169,-0.008873006,0.47682977,-1.423769,1.9551514,-2.1001923,-1.5711106,2.4522429,-0.024869686,0.058806386,-0.07775023,0.017331261,-0.015015267,-0.015921997,-0.22984336,0.2681506,-9.289502,0.82022345,47.71823,-0.60841155,-2.0561943,-3.1459956,-0.23515743,-0.027319744,-0.18676482,27.75,28.875,28.0,31.9375,33.9375,34.75
0.07405192,0.23026481,0.13439202,0.39311188,-0.016246317,0.0328153,-0.18357997,-0.38230526,-0.34848282,0.05994847,-3.0779178,0.6254678,-0.00013517083,-0.037763786,0.00027509895,0.0031141376,0.012760509,0.008628524,-0.0084402915,0.47681755,-1.4236604,1.9550074,-2.1001203,-1.5711473,2.4522183,-0.025358757,0.06062924,-0.08043621,0.018044263,-0.015438243,-0.0168409,-0.2681506,0.28730422,-9.232041,0.7642693,47.69763,-0.62965196,-2.057801,-3.0871763,-0.23520648,-0.03236552,-0.20773743,27.75,28.875,28.0,31.9375,33.9375,34.75
0.07605255,-0.39904356,0.28803715,0.34721762,0.00047761097,0.02643534,-0.18743484,-0.38235885,-0.34851024,0.059947554,-3.07795,0.62541664,-0.00018512268,-0.038876902,0.00019202965,0.0031014234,0.013092036,0.00831511,-0.008221281,0.4767932,-1.423528,1.9548501,-2.100084,-1.5711111,2.452158,-0.026134586,0.06291281,-0.08323858,0.01899398,-0.015593515,-0.017833687,-0.19153613,0.19153613,-9.212888,0.7553206,47.66987,-0.635206,-2.0108306,-3.0980678,-0.2100002,-0.016458374,-0.21858957,27.75,28.875,28.0,31.9375,33.9375,34.75
0.07805261,-0.3357207,0.65548086,0.47449395,0.0059963893,0.036481112,-0.19215818,-0.3824272,-0.3484878,0.059949137,-3.0778687,0.6255145,-0.00018344833,-0.039444637,-0.00025614287,0.0031596501,0.012563036,0.007056182,-0.007568221,0.47672117,-1.4234195,1.9547061,-2.1000116,-1.5711588,2.4521575,-0.026534725,0.064784415,-0.085890464,0.020643728,-0.0145489015,-0.018887185,-0.22984336,0.15322891,-9.155427,0.82022345,47.70032,-0.60313064,-2.0913155,-3.0732036,-0.21188979,-0.033645097,-0.2144574,27.75,28.875,28.0,31.9375,33.9375,34.75
0.0800526,-0.25016415,0.76131713,0.46886072,0.0035633887,0.04968558,-0.19436541,-0.38254184,-0.34851393,0.05997546,-3.0779073,0.62544525,-4.826714e-05,-0.040100433,-0.00045815797,0.0026490837,0.0129344715,0.005488611,-0.007399143,0.47668493,-1.4232626,1.9544667,-2.100011,-1.5711945,2.4520733,-0.02702612,0.06768273,-0.08828275,0.021697957,-0.014161163,-0.019548193,-0.2681506,0.076614454,-9.097966,0.7665104,47.71017,-0.6882312,-2.0318556,-3.0670369,-0.20375519,-0.019219788,-0.22482485,27.75,28.875,28.0,31.9375,33.9375,34.75
0.08205227,-0.5475125,0.34755638,0.34634376,0.004401478,0.04397182,-0.18610461,-0.38261512,-0.34850964,0.059976853,-3.0778596,0.62551177,-5.4348882e-05,-0.04061208,-0.0008869809,0.0028387136,0.01249905,0.005503506,-0.00663217,0.4766251,-1.4231299,1.9542984,-2.0999515,-1.5712184,2.4520612,-0.02697457,0.06875428,-0.09005954,0.02218709,-0.013784721,-0.020263089,-0.22984336,0.1340753,-9.174581,0.7777002,47.70211,-0.7420285,-2.236158,-3.100891,-0.20203474,-0.052226916,-0.22662696,27.75,28.875,28.0,31.9375,33.9375,34.75
0.0840522,-0.23075655,0.41558063,0.27820626,-0.017201334,0.04798298,-0.18744455,-0.3827109,-0.34850302,0.059989743,-3.0778368,0.62556446,-1.76721e-05,-0.04126414,-0.00040594256,0.0030577728,0.013417711,0.0057727345,-0.0068000373,0.47654074,-1.422998,1.9541072,-2.0999029,-1.5712427,2.4520128,-0.027809639,0.069118805,-0.0912025,0.023149047,-0.0147249885,-0.020928135,-0.28730422,0.21068975,-9.212888,0.83589023,47.703903,-0.7107942,-1.9803784,-3.0401313,-0.18836483,-0.05895928,-0.22367272,27.75,28.875,28.0,31.9375,33.9375,34.75
0.0860524,-0.62646294,-0.25456542,0.061534315,-0.02200378,0.03890196,-0.18827146,-0.38277838,-0.3485157,0.060002178,-3.077822,0.62554204,5.564477e-06,-0.042104825,-0.00059305906,0.0028697927,0.013938751,0.005274894,-0.006610881,0.47651672,-1.422877,1.9539269,-2.0998433,-1.571267,2.4519768,-0.028094226,0.07149398,-0.09366946,0.023921905,-0.014963449,-0.021399956,-0.2681506,0.28730422,-9.289502,0.779936,47.684196,-0.7882631,-2.0208156,-3.0429559,-0.18689615,-0.033013266,-0.21078992,27.75,28.875,28.0,31.9375,33.9375,34.75
0.088052295,-0.57348084,-0.45241812,-0.037534416,-0.021340718,0.04050147,-0.17719817,-0.38285354,-0.34852064,0.059999224,-3.0778055,0.62557703,-1.18842345e-05,-0.042450298,-0.0002743252,0.0015349068,0.015867792,0.0027414707,-0.006615624,0.47645646,-1.4227314,1.9537591,-2.0998065,-1.5712675,2.4519405,-0.0286133,0.07523085,-0.09508415,0.024736501,-0.015517601,-0.021911835,-0.15322891,0.24899697,-9.308656,0.8179876,47.686886,-0.84722984,-2.180676,-3.1951437,-0.17926928,-0.055867974,-0.25242087,27.75,28.875,28.0,31.9375,33.9375,34.75
0.09005213,-0.70169604,-0.24867497,0.13308725,-0.021131873,0.040081926,-0.17805733,-0.38295808,-0.3485169,0.06001088,-3.077781,0.6255513,4.9533195e-05,-0.042788856,-0.00011868476,0.0015419022,0.016331198,0.0026047374,-0.0058733816,0.47638434,-1.4225751,1.9535431,-2.0997589,-1.5713152,2.4518557,-0.028964467,0.075814135,-0.09590669,0.025308125,-0.015867831,-0.023004364,-0.3256114,0.21068975,-9.385271,0.7329411,47.71823,-0.7848418,-2.032176,-3.1067758,-0.15914091,-0.05162981,-0.24503256,27.75,28.875,28.0,31.9375,33.9375,34.75
0.09205209,-0.13120049,0.05589254,0.014101156,-0.019308385,0.056813214,-0.19165792,-0.3830207,-0.34851784,0.059986584,-3.0777297,0.6255979,7.438835e-08,-0.042537294,0.00036349444,0.00036371878,0.017735265,0.00027975423,-0.0052433577,0.47633624,-1.4224062,1.9534,-2.0997345,-1.5713276,2.4518433,-0.029464714,0.07778048,-0.09556561,0.02570949,-0.01604994,-0.024133427,-0.21068975,0.24899697,-9.3661175,0.8403672,47.701214,-0.90704685,-2.0989206,-3.3811479,-0.15602948,-0.036278144,-0.23146209,27.75,28.875,28.0,31.9375,33.9375,34.75
0.09405178,-0.03852452,0.2622569,0.094058685,-0.024688391,0.051613756,-0.19089419,-0.38310388,-0.3484897,0.059972093,-3.0776002,0.6255711,-4.8566766e-05,-0.045162436,-0.0005148957,0.0014693211,0.016693816,0.00295759,-0.005401429,0.476264,-1.4222132,1.9531826,-2.099603,-1.5714115,2.451771,-0.030111218,0.08048987,-0.10122118,0.025795965,-0.016367555,-0.024616256,-0.1340753,0.24899697,-9.346964,0.7553206,47.705692,-0.90910244,-2.1515758,-3.1235754,-0.13626899,-0.06318349,-0.2528901,27.75,28.875,28.0,31.9375,33.9375,34.75
0.096051894,-0.5257528,-0.27447227,-0.08405383,-0.014788526,0.02967671,-0.17836468,-0.38321745,-0.34850356,0.059993543,-3.0776155,0.62567073,4.8147343e-05,-0.04460962,4.5799152e-05,-0.0002995256,0.018227588,-0.00025712157,-0.0054781195,0.4761917,-1.4220679,1.9529675,-2.099603,-1.5714234,2.451759,-0.030660182,0.083033524,-0.10006697,0.025655987,-0.01625385,-0.025090076,-0.21068975,0.22984336,-9.346964,0.86498255,47.689575,-0.92269444,-2.1621518,-3.410472,-0.11150196,-0.053343415,-0.2650038,27.75,28.875,28.0,31.9375,33.9375,34.75
0.0980522,-0.030009745,-0.19265364,-0.18300949,-0.023549134,0.03574483,-0.1868058,-0.3832844,-0.34849805,0.059977546,-3.0775435,0.6256169,-2.0561356e-05,-0.045386475,4.4851462e-05,4.5240206e-05,0.018898914,3.1063944e-05,-0.005070826,0.4761437,-1.4218874,1.9527758,-2.0995066,-1.5714597,2.4516869,-0.030892007,0.08406025,-0.10233553,0.026949849,-0.016987506,-0.025725204,-0.11492168,0.28730422,-9.289503,0.7978386,47.690468,-0.9249231,-2.053613,-3.349855,-0.09262211,-0.040832497,-0.26842085,27.75,28.875,28.0,31.9375,33.9375,34.75
0.100052424,0.09777347,-0.11754485,-0.08271372,-0.03626376,0.030377587,-0.18681934,-0.38339096,-0.3484995,0.059981484,-3.0775194,0.6256696,4.361233e-05,-0.04538686,0.00019516028,-0.00028877042,0.019827286,-0.0019966306,-0.004936437,0.47607157,-1.4217188,1.9525713,-2.0994942,-1.5714959,2.4516509,-0.031217434,0.085537404,-0.103770904,0.029132834,-0.016881758,-0.026185147,-0.13407528,0.28730422,-9.32781,0.81351066,47.71017,-0.9801159,-2.1589463,-3.4228797,-0.07913596,-0.048875276,-0.27807224,27.75,28.875,28.0,31.9375,33.9375,34.75
0.102052346,0.37779295,-0.14879094,7.0560396e-05,-0.028951544,0.02519572,-0.1895379,-0.38349557,-0.34851533,0.059996873,-3.0775127,0.6257259,8.298783e-05,-0.045886945,0.00087130687,-0.0007293163,0.021383727,-0.0026261364,-0.0052137366,0.47601137,-1.4215502,1.9523324,-2.0994465,-1.5715083,2.4516268,-0.032156598,0.08685964,-0.10442762,0.029742133,-0.017977227,-0.02684467,-0.11492168,0.34476504,-9.346964,0.7038487,47.683304,-0.93024194,-2.0995634,-3.490543,-0.088632435,-0.040686868,-0.2811926,27.75,28.875,28.0,31.9375,33.9375,34.75
0.10405232,0.20223355,-0.08929251,-0.1157832,-0.024888383,0.021292938,-0.18220586,-0.38358068,-0.3484902,0.059995674,-3.0774271,0.6257648,8.419307e-05,-0.047901742,2.1256722e-06,0.0007659102,0.020654725,5.5769786e-05,-0.0050964695,0.47592738,-1.4214057,1.9521507,-2.0993621,-1.5715684,2.4515781,-0.03207623,0.088169724,-0.10961592,0.030901505,-0.018568812,-0.026876897,-0.076614454,0.24899697,-9.346964,0.81351066,47.690468,-1.0507443,-2.0628052,-3.4052932,-0.07207316,-0.046073705,-0.2678305,27.75,28.875,28.0,31.9375,33.9375,34.75
0.10605194,0.049195465,0.064038016,-0.14312448,-0.025343055,0.019383583,-0.17423467,-0.38368022,-0.3485106,0.059993513,-3.0774388,0.6256521,8.98078e-05,-0.046273697,0.0005249695,-0.0011511189,0.022083642,-0.0050883708,-0.005317218,0.4758793,-1.4212008,1.9519128,-2.099325,-1.5715798,2.4514585,-0.032205824,0.08993991,-0.10760716,0.032344688,-0.017475173,-0.026789075,-0.05746084,0.21068975,-9.346964,0.8224646,47.678825,-1.0878954,-2.026228,-3.5874114,-0.067201644,-0.050583467,-0.2938525,27.75,28.875,28.0,31.9375,33.9375,34.75
0.10805163,0.2310987,-0.0734929,-0.1816187,-0.026745126,0.022135075,-0.18336119,-0.3837981,-0.34851107,0.060019888,-3.0773876,0.6257378,0.00020583543,-0.049298007,0.00049113657,0.0006925389,0.021115858,-0.0015865848,-0.0060085664,0.4758186,-1.4210443,1.95166,-2.0992653,-1.5716523,2.451458,-0.034425613,0.090765536,-0.113006026,0.03335998,-0.018229164,-0.028313957,-0.038307227,0.2681506,-9.404425,0.80456203,47.70032,-1.0302866,-1.9959316,-3.4819155,-0.061820097,-0.06370667,-0.3152259,27.75,28.875,28.0,31.9375,33.9375,34.75
0.11005248,0.0624433,-0.36901984,-0.19194481,-0.017743746,0.020570997,-0.18076546,-0.38387352,-0.34851176,0.059986368,-3.0773513,0.62567264,4.7764122e-05,-0.049722783,0.0004648675,0.00018099144,0.021274941,-0.0031146437,-0.0054674987,0.47573435,-1.4208155,1.9514555,-2.099181,-1.5716275,2.4513378,-0.035116695,0.09289752,-0.114469945,0.034119077,-0.017677132,-0.029544491,0.019153614,0.22984336,-9.385271,0.779936,47.71554,-1.0252972,-1.942359,-3.499312,-0.041205674,-0.07231113,-0.2922969,27.75,28.875,28.0,31.9375,33.9375,34.75
0.11205245,0.33315226,0.043386552,-0.260645,-0.026808273,0.01709635,-0.17765203,-0.38399953,-0.3485053,0.06001219,-3.077295,0.6258726,0.00013789629,-0.050950654,-0.00021930749,0.0013066317,0.019970298,-0.0016434804,-0.005918237,0.4756382,-1.420659,1.9512037,-2.0991209,-1.5716757,2.4513738,-0.03532872,0.0933553,-0.11779666,0.03507815,-0.017195897,-0.02930596,0.0,0.24899697,-9.423578,0.8090337,47.70032,-1.0037378,-2.1087875,-3.4523568,-0.038096953,-0.07528655,-0.30103344,27.75,28.875,28.0,31.9375,33.9375,34.75
0.11405255,0.44332853,-0.18139686,-0.38428745,-0.02103885,0.025707984,-0.18849511,-0.3840759,-0.34850514,0.059995834,-3.0772142,0.62575907,0.000119611504,-0.05091728,-0.00030561557,0.0010998524,0.021697259,-0.0026209166,-0.0063132807,0.4756146,-1.4204543,1.9509877,-2.0990365,-1.5717481,2.45129,-0.03443581,0.09486493,-0.11948681,0.036921293,-0.018284375,-0.028013568,-0.095768064,0.3256114,-9.500193,0.7933669,47.696735,-1.2122015,-1.8938951,-3.4651408,-0.04404095,-0.08680408,-0.33539978,27.75,28.875,28.0,31.9375,33.9375,34.75
0.116051964,0.3412991,-0.39347994,-0.46472758,-0.022501176,0.030404434,-0.18198143,-0.38417518,-0.3485087,0.05999602,-3.077188,0.6257739,7.3973075e-05,-0.052116107,0.00044591178,0.00087579497,0.022410108,-0.0042502517,-0.008108735,0.4755296,-1.4202615,1.9507474,-2.098952,-1.5717481,2.4512177,-0.036925558,0.09703008,-0.12193845,0.03897998,-0.01817542,-0.028706314,-0.05746084,0.38307226,-9.557653,0.81351066,47.683304,-1.1078882,-2.0129185,-3.4730477,-0.054233752,-0.09819195,-0.3425188,27.75,28.875,28.0,31.9375,33.9375,34.75
0.11805187,-0.20499235,-0.5189604,-0.6330813,-0.033108592,0.034257602,-0.17243935,-0.3843064,-0.34850302,0.060002234,-3.077126,0.6257984,0.00014425577,-0.053713642,0.0003199807,0.0017033116,0.021908244,-0.0014459996,-0.0068743066,0.47544563,-1.4200449,1.9504718,-2.098893,-1.5718201,2.451157,-0.03760502,0.0974133,-0.124061726,0.03799429,-0.019022495,-0.030616982,-0.076614454,0.24899697,-9.615114,0.83589023,47.70211,-1.0970709,-1.8589377,-3.4972591,-0.036240865,-0.09372716,-0.32295096,27.75,28.875,28.0,31.9375,33.9375,34.75
0.1200518,-0.47270986,-0.29196978,-0.46456206,-0.053748313,0.044886306,-0.18100893,-0.38438982,-0.34849882,0.060011376,-3.0770757,0.62575054,0.000119356264,-0.05534586,0.00067916093,0.0016473234,0.022589548,-0.0014628884,-0.0075414064,0.47538498,-1.4198879,1.9502438,-2.0987728,-1.5718564,2.4510732,-0.039337106,0.09997888,-0.12705588,0.038748346,-0.019628398,-0.031677883,-0.11492168,0.2681506,-9.634268,0.784413,47.716442,-1.0866175,-1.8521006,-3.4267926,-0.00835763,-0.06404598,-0.35042524,27.75,28.875,28.0,31.9375,33.9375,34.75
0.12205177,-0.5401866,-0.52044547,-0.39617792,-0.047025297,0.05846118,-0.18530157,-0.38447747,-0.34851068,0.059994563,-3.0770154,0.62571704,7.9222256e-05,-0.055643857,0.00056141,0.0016158344,0.022405677,-0.00297479,-0.0064529986,0.47534862,-1.4196593,1.950004,-2.0987003,-1.5718921,2.4510238,-0.039943736,0.10126388,-0.12888604,0.04054654,-0.018776786,-0.033373076,-0.24899697,0.24899697,-9.653421,0.84708,47.72092,-1.0328852,-1.873846,-3.4512246,-0.029294815,-0.1092252,-0.3461309,27.75,28.875,28.0,31.9375,33.9375,34.75
0.124051794,-1.1670717,-0.41897428,-0.43448028,-0.042232424,0.047750283,-0.17825621,-0.38460526,-0.3485181,0.060020577,-3.0770302,0.6257751,6.895821e-05,-0.056794286,-0.00031067358,0.0021300418,0.022052305,-0.0021139309,-0.0030703533,0.47522902,-1.4194784,1.9497155,-2.098604,-1.5718683,2.4509387,-0.039378274,0.10333689,-0.13261762,0.041273333,-0.018866671,-0.036188263,-0.3256114,0.28730422,-9.615114,0.7978386,47.689575,-1.1784781,-1.7906238,-3.3778338,-0.026854403,-0.12204912,-0.30862907,27.75,28.875,28.0,31.9375,33.9375,34.75
0.12605198,-0.46461073,-0.24945565,-0.47033995,-0.028334232,0.06943493,-0.18189858,-0.38473392,-0.34853065,0.060029086,-3.0770128,0.625792,0.00013184255,-0.058896873,-0.00081754517,0.0030892142,0.021888042,-0.0008433308,-0.00407591,0.47515666,-1.4192613,1.9494389,-2.0985672,-1.5719045,2.4508793,-0.040107433,0.10578251,-0.1380317,0.043036137,-0.019309275,-0.035908554,-0.2681506,0.30645782,-9.672575,0.8157518,47.68062,-1.2154787,-1.9131727,-3.3784742,-0.02936498,-0.12453211,-0.32044777,27.75,28.875,28.0,31.9375,33.9375,34.75
0.12805206,-0.71706915,0.14032501,-0.35950828,-0.018016905,0.05502176,-0.17567673,-0.38486513,-0.3485421,0.060052764,-3.077001,0.62579095,0.00016735765,-0.05924329,0.0001385722,0.0012369001,0.023326907,-0.003863617,-0.006867207,0.47507197,-1.419056,1.949128,-2.0984719,-1.5719284,2.4507957,-0.042166356,0.109213196,-0.13764334,0.04255918,-0.019207453,-0.03517622,-0.24899697,0.22984336,-9.730036,0.8873621,47.698532,-1.1728256,-1.8227475,-3.3183358,-0.019206792,-0.1276757,-0.34481263,27.75,28.875,28.0,31.9375,33.9375,34.75
0.13005185,-0.4764737,0.28442875,-0.4960673,-0.020081904,0.054961473,-0.17657563,-0.38496673,-0.34851187,0.060036536,-3.076873,0.62582016,0.00017403849,-0.06135574,-0.00017930871,0.0023371263,0.022193355,-0.0010862395,-0.005860068,0.47498754,-1.4188514,1.9489115,-2.0983884,-1.5720247,2.450746,-0.04334549,0.11013932,-0.14114124,0.042135574,-0.019483957,-0.037358545,-0.34476504,0.22984336,-9.653421,0.7038487,47.713753,-1.0966041,-1.9666047,-3.162931,0.023393136,-0.13943738,-0.31450993,27.75,28.875,28.0,31.9375,33.9375,34.75
0.13205206,-0.5792499,0.11988031,-0.44048244,-0.020555697,0.0613809,-0.18242954,-0.38508135,-0.34851903,0.060038593,-3.0768683,0.6258179,0.00010309626,-0.061155073,0.0001522062,0.00034016068,0.025258262,-0.0061703753,-0.0038835264,0.47487974,-1.4186333,1.948635,-2.0982916,-1.5720009,2.4506376,-0.04347164,0.1153777,-0.1432378,0.044914085,-0.01988801,-0.03945819,-0.30645782,0.21068975,-9.691729,0.84708,47.689575,-1.154105,-1.9184883,-3.2543633,0.0028061164,-0.1818129,-0.30821547,27.75,28.875,28.0,31.9375,33.9375,34.75
0.13405184,-0.42923936,0.29595894,-0.3102041,-0.0341079,0.06888641,-0.18584593,-0.38519478,-0.3485509,0.06004302,-3.0768516,0.6257568,0.00013546812,-0.061825976,0.00042816668,0.0012113664,0.025416452,-0.0064635137,-0.003856724,0.47485518,-1.4183931,1.9483355,-2.0982306,-1.5720366,2.4505773,-0.044556916,0.11515863,-0.14568117,0.047906134,-0.019894678,-0.04056966,-0.5363012,0.24899697,-9.595961,0.81351066,47.691364,-1.1659225,-2.0414011,-3.2002115,-0.013782333,-0.16300362,-0.3097064,27.75,28.875,28.0,31.9375,33.9375,34.75
0.13605197,-1.0879714,-0.05251342,-0.19640885,-0.035079543,0.067816265,-0.18141115,-0.38533866,-0.3485335,0.060068782,-3.0767646,0.6258158,0.00020096119,-0.06262733,0.0008275567,0.0007774151,0.027100854,-0.008632654,-0.0036622193,0.47474688,-1.4181879,1.9480113,-2.098098,-1.5721205,2.4505172,-0.04564751,0.1181228,-0.148742,0.05069643,-0.020405188,-0.0418518,-0.57460845,0.2681506,-9.634268,0.80679786,47.689575,-1.2055392,-1.9824564,-3.2019649,-0.033556946,-0.16633317,-0.2754567,27.75,28.875,28.0,31.9375,33.9375,34.75
0.13805182,-0.9689303,-0.1464302,-0.060344376,-0.039919034,0.07557386,-0.18645525,-0.38547376,-0.3485336,0.06006026,-3.0767057,0.62578315,0.00022587198,-0.062670566,0.0017131903,0.00013095274,0.029333526,-0.01100703,-0.0029443018,0.47466242,-1.4179231,1.9477133,-2.098037,-1.5721811,2.4504201,-0.046652924,0.1196704,-0.14962749,0.053163,-0.021306783,-0.04357211,-0.57460845,0.24899697,-9.5385,0.8179876,47.711063,-1.1745219,-1.983361,-3.421673,-0.06734721,-0.17018628,-0.2544756,27.75,28.875,28.0,31.9375,33.9375,34.75
0.14005211,-0.9073682,-0.5288309,-0.07743048,-0.03243887,0.07712563,-0.17954053,-0.3856182,-0.34854943,0.0600956,-3.0767033,0.6257814,0.00025029003,-0.063323185,0.002231583,2.5313084e-05,0.030901635,-0.011947703,-0.0019516754,0.47456622,-1.4177063,1.9473537,-2.097905,-1.5721935,2.4503233,-0.04751999,0.121203445,-0.15162417,0.055177964,-0.022275168,-0.04542877,-0.5363012,0.34476504,-9.442732,0.7709874,47.73256,-1.1455736,-1.9048809,-3.304567,-0.08756423,-0.18594825,-0.24609813,27.75,28.875,28.0,31.9375,33.9375,34.75
0.14201643,-0.9904425,-0.3103407,0.2664138,-0.022330135,0.06482246,-0.17807509,-0.3857788,-0.3485538,0.060126726,-3.0766928,0.6257981,0.00035453885,-0.06374328,0.0025555294,-0.0008812859,0.0321428,-0.014510896,-0.001416291,0.4744579,-1.4174889,1.9470171,-2.097833,-1.5722412,2.450227,-0.04849583,0.124222934,-0.15340629,0.056780476,-0.022210423,-0.046940207,-0.47884035,0.28730422,-9.32781,0.8873621,47.703903,-1.1977825,-1.8707128,-3.300251,-0.1202439,-0.18974346,-0.18021202,27.75,28.875,28.0,31.9375,33.9375,34.75
0.14405282,-0.19524074,0.35690722,0.4508406,-0.02220859,0.06501786,-0.18540111,-0.3858933,-0.34853375,0.06009792,-3.0766125,0.62579995,0.00022988171,-0.0638659,0.0029695036,-0.0013524166,0.03279977,-0.016914254,-0.0010089619,0.47432542,-1.4172242,1.9467543,-2.0977242,-1.5722531,2.4501061,-0.04964429,0.1257274,-0.15455838,0.058858354,-0.02170546,-0.048494495,-0.34476504,0.24899697,-9.232041,0.7530795,47.696735,-1.1568917,-1.8864602,-3.4111068,-0.1444832,-0.19857995,-0.17360836,27.75,28.875,28.0,31.9375,33.9375,34.75
0.14605236,-0.37223855,0.5050371,0.37700164,-0.009261348,0.039026156,-0.17469409,-0.38603354,-0.3485389,0.06011046,-3.0765572,0.6257879,0.00029927553,-0.065164715,0.0032902812,-0.0011802525,0.033887427,-0.01695365,-0.0009871424,0.4742531,-1.4169834,1.9464301,-2.0976398,-1.5723256,2.4500337,-0.05076175,0.12768787,-0.15759102,0.06045878,-0.02266144,-0.04962983,-0.2681506,0.17238252,-9.040505,0.82694155,47.698532,-1.1342762,-1.8633981,-3.3731596,-0.14838809,-0.23006165,-0.16228923,27.75,28.875,28.0,31.9375,33.9375,34.75
0.14805238,0.16290969,0.622202,0.78199863,0.008235273,0.03171064,-0.18449312,-0.38619444,-0.34854305,0.06013864,-3.0765405,0.625785,0.0003868487,-0.06534959,0.0041879057,-0.0026995728,0.03676299,-0.020285768,-0.0013548079,0.4741448,-1.4167536,1.946083,-2.0975554,-1.5723742,2.449926,-0.0518242,0.13126738,-0.15865593,0.06221939,-0.023699075,-0.050321985,-0.22984336,0.095768064,-8.887277,0.8717007,47.698532,-1.1525233,-1.9544644,-3.4059358,-0.17255807,-0.23720577,-0.10833271,27.75,28.875,28.0,31.9375,33.9375,34.75
0.15005232,0.585471,1.158617,0.9638152,0.021352869,0.019782823,-0.18764897,-0.38631433,-0.3485239,0.060117368,-3.0764294,0.6258193,0.00027539246,-0.067287035,0.00377124,9.0340196e-05,0.034197286,-0.015566636,-0.0022389644,0.47402447,-1.4164786,1.945783,-2.0974114,-1.57241,2.4498415,-0.052903865,0.12844189,-0.16199206,0.06300569,-0.02358623,-0.050514013,-0.3256114,0.076614454,-8.848969,0.84708,47.72002,-1.168258,-1.6827664,-3.3938036,-0.20811838,-0.23268092,-0.06900503,27.75,28.875,28.0,31.9375,33.9375,34.75
0.15205222,0.76396704,1.4617413,0.90044916,0.022841778,0.018322222,-0.18285212,-0.3864459,-0.34850165,0.06012056,-3.0763428,0.6258228,0.00025878128,-0.06882678,0.004501216,-0.00012164775,0.034416635,-0.016836464,-0.0063688196,0.47390348,-1.4162494,1.9454826,-2.0972793,-1.5724696,2.449734,-0.055817306,0.13084188,-0.16461994,0.06445863,-0.023209307,-0.04929586,-0.21068975,0.1340753,-8.7532015,0.88960326,47.704796,-1.0045562,-1.8645109,-3.347406,-0.23554406,-0.25377145,-0.08773318,27.75,28.875,28.0,31.9375,33.9375,34.75
0.15405229,0.0801058,0.9875771,0.8972129,0.026869385,0.008557789,-0.18448964,-0.38659266,-0.34850803,0.060120318,-3.0762944,0.62581253,0.00022006311,-0.06955099,0.0032103208,-0.00014909676,0.03444199,-0.016759228,-0.005592313,0.47379616,-1.4159601,1.9451236,-2.0971596,-1.5724934,2.4496267,-0.05412973,0.13402453,-0.16836154,0.06495878,-0.0232786,-0.048381276,-0.11492168,-0.019153614,-8.7532015,0.8605109,47.711063,-1.0745689,-1.7488031,-3.2621663,-0.24247411,-0.28680646,-0.093805015,27.75,28.875,28.0,31.9375,33.9375,34.75
0.15605223,0.22366388,0.7229558,0.8413895,0.018088099,0.02190255,-0.18253152,-0.38676545,-0.3485,0.060156416,-3.0762599,0.62582386,0.00030807,-0.07104555,0.0036538765,-0.00022723112,0.034879845,-0.016360713,-0.006702838,0.47366348,-1.4157313,1.9447511,-2.09704,-1.572554,2.4495058,-0.055871222,0.13598803,-0.1704599,0.064933665,-0.023858344,-0.04900992,-0.17238252,-0.019153614,-8.791509,0.8672237,47.719128,-1.1374218,-1.7748342,-3.4294133,-0.27620125,-0.27068147,-0.049221195,27.75,28.875,28.0,31.9375,33.9375,34.75
0.15805216,0.23510069,0.7851952,0.8069064,-0.006131937,0.031722482,-0.18323284,-0.3868359,-0.34849072,0.060102534,-3.0761135,0.62581486,5.4605436e-05,-0.07272226,0.004180012,-0.00045069028,0.035767857,-0.015462997,-0.009923094,0.473591,-1.4154301,1.9444875,-2.0968606,-1.5725669,2.4494467,-0.057530176,0.1382861,-0.17247117,0.06425812,-0.025074454,-0.04743843,-0.11492168,0.076614454,-8.868123,0.8493211,47.71286,-1.0278285,-1.8041161,-3.2711682,-0.27029562,-0.2831191,-0.04284449,27.75,28.875,28.0,31.9375,33.9375,34.75
0.16005215,0.39482045,0.5845359,0.6769769,-0.015693491,0.046280883,-0.18651463,-0.38701105,-0.3484732,0.060129933,-3.076019,0.6258564,0.00015837754,-0.07528949,0.004521261,-0.0001301545,0.034714326,-0.013091362,-0.015545475,0.47346988,-1.4151772,1.9441046,-2.0967295,-1.5726746,2.449364,-0.060340315,0.14020081,-0.17498192,0.062261295,-0.025227703,-0.044623893,-0.05746084,0.15322891,-8.963891,0.81351066,47.70032,-0.88957655,-1.7810185,-3.2615016,-0.2614649,-0.31675905,-0.08923383,27.75,28.875,28.0,31.9375,33.9375,34.75
0.16205214,-0.5414779,-0.098045565,0.3690348,-0.029945405,0.036287393,-0.18188946,-0.38714236,-0.34845838,0.060106676,-3.0759068,0.6258311,8.2218176e-05,-0.07506398,0.0035880606,-0.0016773843,0.03616533,-0.015527086,-0.014121428,0.47336274,-1.4148749,1.9437803,-2.096598,-1.5727347,2.4492557,-0.058342963,0.14488705,-0.17688353,0.062302638,-0.025419684,-0.044045657,-0.17238252,0.22984336,-9.059659,0.83589023,47.703007,-1.0465952,-1.9555479,-3.1705112,-0.27282435,-0.31035823,-0.087004006,27.75,28.875,28.0,31.9375,33.9375,34.75
0.16405202,-0.66157174,-0.93441516,-0.030083282,-0.03695348,0.0475537,-0.17684217,-0.38730484,-0.3484468,0.060115688,-3.0758393,0.6259534,8.972684e-05,-0.07820777,0.0034938718,0.00080032134,0.032947473,-0.008502618,-0.016808622,0.4732177,-1.4146119,1.9434332,-2.0964916,-1.572771,2.4491959,-0.060771745,0.14272895,-0.17940512,0.059259877,-0.02577431,-0.043784235,-0.22984336,0.38307226,-9.232041,0.8717007,47.7254,-0.9695655,-1.6325204,-3.2337365,-0.2678641,-0.3193385,-0.08554214,27.75,28.875,28.0,31.9375,33.9375,34.75
0.16605246,-0.81840616,-1.2299567,-0.309598,-0.05474833,0.056012448,-0.1749547,-0.38744152,-0.34841618,0.06009525,-3.0756931,0.62590384,-3.2607553e-05,-0.07979965,0.0034170405,0.00030076868,0.032148782,-0.0073168864,-0.018243901,0.4730853,-1.4142987,1.9430736,-2.096289,-1.5728425,2.4490516,-0.06215299,0.14530183,-0.18063647,0.056492012,-0.02562241,-0.04372528,-0.30645782,0.45968673,-9.3661175,0.842603,47.709274,-0.92872393,-1.8147984,-3.4092,-0.21987852,-0.32362366,-0.08615465,27.75,28.875,28.0,31.9375,33.9375,34.75
0.1680525,-1.0406922,-2.456539,-0.5592479,-0.06331537,0.07143098,-0.17252512,-0.3875845,-0.34842908,0.060090043,-3.0756278,0.62593067,-5.850562e-05,-0.081067815,0.0032959897,-0.00019867742,0.03255601,-0.0069055445,-0.021749213,0.47300124,-1.4139974,1.9427146,-2.0961816,-1.5728787,2.448993,-0.06270927,0.14824979,-0.18268362,0.05541555,-0.026177734,-0.040771566,-0.4405331,0.49799395,-9.500193,0.90527004,47.71465,-0.9470911,-1.7036657,-3.3639321,-0.21666175,-0.35661542,-0.123105705,27.75,28.875,28.0,31.9375,33.9375,34.75
0.17005263,-1.2600245,-1.9573195,-0.7274584,-0.09490981,0.079030216,-0.17958993,-0.38775578,-0.34842476,0.060098194,-3.0755494,0.6260115,-5.8873986e-05,-0.08196436,0.0037651658,-0.00070135616,0.03377184,-0.007881415,-0.024678968,0.4728689,-1.413696,1.9423193,-2.0960495,-1.5729269,2.4489214,-0.063904814,0.15064341,-0.18452752,0.05628934,-0.026818728,-0.03903317,-0.5554548,0.59376204,-9.634268,0.81351066,47.72002,-0.86941123,-1.8255992,-3.4345038,-0.21685846,-0.34731108,-0.14797065,27.75,28.875,28.0,31.9375,33.9375,34.75
0.17205253,-1.2330039,-2.2302368,-0.8171661,-0.0794101,0.09009627,-0.17641667,-0.38794604,-0.3484185,0.060095165,-3.0754938,0.6261535,-5.127052e-05,-0.083906636,0.003138001,-0.00045358462,0.0322421,-0.0049986895,-0.024852011,0.4727006,-1.413371,1.9419359,-2.095979,-1.5729512,2.4488492,-0.06454104,0.15263338,-0.18674152,0.053243697,-0.026786195,-0.039494324,-0.59376204,0.57460845,-9.653421,0.8784135,47.703007,-0.96098936,-1.8557593,-3.4335947,-0.19604148,-0.36260796,-0.16401964,27.75,28.875,28.0,31.9375,33.9375,34.75
0.17405261,-1.2880654,-1.5189769,-0.84059817,-0.082185656,0.09363953,-0.18443762,-0.3880956,-0.34838733,0.060082726,-3.0753653,0.6262037,-9.803771e-05,-0.085194565,0.003195431,-0.00037833548,0.031939168,-0.0032868208,-0.025455719,0.47255638,-1.4130824,1.9415997,-2.095836,-1.5730237,2.448753,-0.06544087,0.15375057,-0.1878614,0.051578797,-0.027309049,-0.03978517,-0.51714754,0.4405331,-9.902418,0.8224646,47.698532,-0.8635315,-1.8336457,-3.4434314,-0.14374003,-0.37172532,-0.19062588,27.75,28.875,28.0,31.9375,33.9375,34.75
0.17605199,-0.85141116,-1.3765879,-0.75335056,-0.05602481,0.09714208,-0.18465255,-0.3882956,-0.3484001,0.06008264,-3.07531,0.62626904,-3.067613e-05,-0.085351914,0.0038358779,-0.0020561665,0.034246895,-0.0065558697,-0.026768196,0.47243592,-1.412721,1.9411701,-2.0957754,-1.5730838,2.4486809,-0.066310346,0.15759866,-0.18873505,0.052563045,-0.02787694,-0.03933966,-0.4405331,0.4213795,-9.864111,0.8537928,47.703903,-0.8633517,-1.7074289,-3.5561259,-0.12648216,-0.40186042,-0.17104653,27.75,28.875,28.0,31.9375,33.9375,34.75
0.17805178,-0.97082096,-1.1822897,-0.71068716,-0.035710715,0.077118285,-0.17420372,-0.38846195,-0.34841123,0.060089614,-3.075268,0.6262991,-1.145973e-05,-0.08689624,0.003932395,-0.0009975482,0.03328368,-0.003851458,-0.027994754,0.47232762,-1.4124205,1.9407862,-2.09568,-1.5731195,2.448597,-0.06760004,0.15711708,-0.19050586,0.05196577,-0.028257733,-0.03940036,-0.51714754,0.34476507,-9.883265,0.8537928,47.709274,-0.8377552,-1.8842263,-3.574048,-0.0952096,-0.38698643,-0.22372228,27.75,28.875,28.0,31.9375,33.9375,34.75
0.18005264,-0.2577099,0.24613667,-0.5804225,-0.037867796,0.07204803,-0.18617657,-0.38863003,-0.3483825,0.06007092,-3.0751455,0.626351,-4.698444e-05,-0.08868149,0.0041354485,-0.0018827033,0.034527067,-0.004674002,-0.028903954,0.4721711,-1.4120946,1.9404262,-2.0955598,-1.573192,2.448489,-0.06905777,0.16183382,-0.19397618,0.052011546,-0.029005816,-0.039941512,-0.47884035,0.24899697,-9.825804,0.88289046,47.704796,-0.81198335,-2.100881,-3.5534358,-0.08580584,-0.419971,-0.230816,27.75,28.875,28.0,31.9375,33.9375,34.75
0.18205172,-0.33290434,0.5343115,-0.5107572,-0.0145908,0.055940803,-0.18617903,-0.38884524,-0.3484047,0.060092997,-3.0751493,0.6264472,8.797173e-05,-0.08957705,0.0048620855,-0.002910321,0.036788695,-0.0060009817,-0.029700309,0.47203878,-1.411769,1.9399952,-2.095536,-1.5732287,2.4484165,-0.070197254,0.16510618,-0.1955685,0.05254081,-0.030419033,-0.040281,-0.36391866,0.095768064,-9.710882,0.85826975,47.698532,-0.76659214,-2.041944,-3.670596,-0.043898128,-0.413974,-0.23914328,27.75,28.875,28.0,31.9375,33.9375,34.75
0.18405282,0.19354735,1.0643641,-0.22113349,-0.0017979698,0.06254819,-0.19642954,-0.3890148,-0.3483724,0.060083497,-3.0750031,0.6265707,6.5204935e-05,-0.09089994,0.0053623756,-0.0031642998,0.03862815,-0.0061127753,-0.02990069,0.47188246,-1.4114559,1.9396232,-2.095392,-1.5733131,2.4483564,-0.07120944,0.1677492,-0.19831249,0.053573113,-0.03201879,-0.04108307,-0.34476504,-0.038307227,-9.653421,0.89631605,47.682407,-0.7190386,-2.1444855,-3.526945,-0.02314214,-0.41412607,-0.24895719,27.75,28.875,28.0,31.9375,33.9375,34.75
0.18605238,-0.10861074,1.7893975,0.0031617726,-0.0016341561,0.04721524,-0.18928954,-0.38919914,-0.3483721,0.06007835,-3.0749454,0.6266357,6.833635e-05,-0.09263534,0.005428051,-0.002388376,0.03940653,-0.0044112103,-0.03057657,0.47173834,-1.4111191,1.9392275,-2.0953076,-1.5733494,2.4482605,-0.071904294,0.16918296,-0.20204507,0.054709274,-0.033495273,-0.041094236,-0.22984336,-0.11492168,-9.442732,0.8314132,47.682407,-0.77973056,-2.1516538,-3.4410853,0.003780061,-0.40280706,-0.28949526,27.75,28.875,28.0,31.9375,33.9375,34.75
0.1880522,-0.07488093,1.8037435,-0.037468646,0.017802162,0.045560684,-0.18466471,-0.38938066,-0.3483811,0.060082793,-3.074896,0.6267412,7.342577e-05,-0.094706595,0.0055742897,-0.0020450323,0.039510977,-0.0043656793,-0.031900827,0.47160554,-1.4107938,1.9388202,-2.0952113,-1.5733737,2.4482002,-0.07391264,0.17203416,-0.20654276,0.05635587,-0.03361988,-0.041775208,-0.24899697,-0.15322891,-9.3661175,0.9231726,47.705692,-0.6090019,-2.103005,-3.416871,0.030764244,-0.4180388,-0.2899366,27.75,28.875,28.0,31.9375,33.9375,34.75
0.19005215,-0.25710714,1.4508054,-0.0130452635,0.03416558,0.037404515,-0.17657967,-0.38959408,-0.34836975,0.06010658,-3.0748098,0.6267784,0.00019288532,-0.095168814,0.00452095,-0.000751454,0.040478174,-0.0022758392,-0.028622314,0.4714623,-1.4104695,1.9383649,-2.0950916,-1.5734824,2.4480917,-0.07126348,0.17227323,-0.2102886,0.058435675,-0.035438027,-0.042397063,-0.30645782,-0.17238252,-9.270349,0.7978386,47.705692,-0.8619854,-2.0855527,-3.366779,0.034344595,-0.43402606,-0.27791312,27.75,28.875,28.0,31.9375,33.9375,34.75
0.19205214,-0.29336324,1.2243135,0.030551601,0.03295899,0.047562286,-0.17922354,-0.38979203,-0.34834278,0.060101397,-3.0746791,0.6268286,0.00023333289,-0.09458702,0.0064958143,-0.0020248771,0.04593579,-0.007830166,-0.029722743,0.471306,-1.4101201,1.9379457,-2.0949686,-1.5735916,2.447984,-0.07267244,0.17471471,-0.21168979,0.06481977,-0.03777309,-0.042695343,-0.24899697,0.095768064,-9.251195,0.82022345,47.687782,-0.8028004,-2.209875,-3.3765445,0.0009493794,-0.3882488,-0.33393815,27.75,28.875,28.0,31.9375,33.9375,34.75
0.19405255,-0.24441482,0.83654517,-0.10168027,0.017842112,0.050637916,-0.18517247,-0.38998544,-0.34831536,0.060085926,-3.0745444,0.6269362,0.00022611869,-0.09629214,0.007608575,-0.0017223713,0.04841116,-0.0073322826,-0.03158254,0.47113717,-1.4097594,1.9375376,-2.0948489,-1.573676,2.4479,-0.074556835,0.17638601,-0.21485154,0.06698915,-0.040214453,-0.04270686,-0.21068975,0.05746084,-9.404425,0.83589023,47.70211,-0.6186425,-2.0382237,-3.3654332,-0.020976437,-0.36066824,-0.35715336,27.75,28.875,28.0,31.9375,33.9375,34.75
0.19605207,-0.6723574,-0.1897675,-0.02880427,-0.0051753125,0.04131858,-0.1756615,-0.3901721,-0.3482968,0.060073894,-3.0744133,0.62698174,0.00017220822,-0.09417645,0.007492952,-0.00240382,0.052957118,-0.01090418,-0.027480094,0.47098273,-1.4093864,1.937096,-2.094679,-1.573749,2.4477913,-0.07084589,0.17738372,-0.2156361,0.07202026,-0.042644396,-0.04308545,-0.28730422,0.11492168,-9.3661175,0.8314132,47.729877,-0.9263996,-2.0807157,-3.3345563,-0.055197936,-0.3334326,-0.351169,27.75,28.875,28.0,31.9375,33.9375,34.75
0.19805193,-0.67655045,-0.60527694,-0.025323074,-0.030215776,0.043669797,-0.17757085,-0.3903732,-0.34831858,0.060125027,-3.0743625,0.62704873,0.0002809734,-0.09313889,0.009236817,-0.0024996593,0.05699178,-0.016686976,-0.028470779,0.47088608,-1.4090861,1.9365939,-2.094509,-1.5738214,2.4477434,-0.07232411,0.17739785,-0.217464,0.0808127,-0.04360307,-0.043571398,-0.28730422,0.2681506,-9.270349,0.85155696,47.71286,-0.97599757,-1.9710207,-3.3071694,-0.13958248,-0.31520763,-0.37605888,27.75,28.875,28.0,31.9375,33.9375,34.75
0.20005213,-0.24786489,-0.8633941,-0.07923037,-0.037714727,0.047243763,-0.18152869,-0.39054275,-0.3482415,0.06005507,-3.074088,0.627202,0.00014229637,-0.09333588,0.008955338,-0.002752533,0.057807095,-0.017945591,-0.027696816,0.47068226,-1.4086775,1.9362463,-2.0943525,-1.5739535,2.4476712,-0.07185148,0.1793805,-0.21960782,0.08245049,-0.043778364,-0.043861654,-0.21068975,0.3256114,-9.289502,0.8493211,47.73256,-0.93819845,-1.8544255,-3.4008808,-0.17205381,-0.2932196,-0.40938252,27.75,28.875,28.0,31.9375,33.9375,34.75
0.20205234,0.30356324,-1.0018479,-0.21617223,-0.032784894,0.048671775,-0.17971216,-0.39075425,-0.34824377,0.060091224,-3.0740116,0.6272049,0.00020666709,-0.09436038,0.009978561,-0.0020339433,0.060379427,-0.017432692,-0.027457131,0.47055,-1.4083409,1.9357313,-2.0941598,-1.5740384,2.447551,-0.07290498,0.17955333,-0.2221991,0.08557349,-0.04631155,-0.04514343,-0.038307227,0.30645782,-9.32781,0.8873621,47.698532,-0.9553486,-1.8862135,-3.4898648,-0.22763899,-0.25729305,-0.42475265,27.75,28.875,28.0,31.9375,33.9375,34.75
0.20405237,-0.736555,-1.0343808,0.15109994,-0.02780901,0.016858894,-0.17809224,-0.39094844,-0.3482263,0.060081664,-3.073867,0.62730706,0.00020803587,-0.094955325,0.009928423,-0.0021898164,0.06173166,-0.017762566,-0.025578491,0.4704061,-1.4079677,1.9352893,-2.0940163,-1.5741347,2.44749,-0.072623655,0.18155685,-0.22447948,0.086744726,-0.047383364,-0.046731845,-0.1340753,0.2681506,-9.251195,0.8247004,47.711964,-1.0001881,-2.0026126,-3.349134,-0.2683966,-0.23349215,-0.43234953,27.75,28.875,28.0,31.9375,33.9375,34.75
0.20605274,0.46893728,-0.22011827,0.12185931,-0.025185362,0.028317811,-0.1794587,-0.39115506,-0.34820828,0.060082015,-3.0737379,0.6273758,0.00022482518,-0.09667873,0.009978869,-0.0017846493,0.06157274,-0.016215743,-0.025577135,0.47024974,-1.4075947,1.934822,-2.0938604,-1.5742306,2.4473937,-0.07384446,0.18313512,-0.22721897,0.086440966,-0.047962222,-0.04794725,-0.076614454,0.36391866,-9.251195,0.8851263,47.70211,-0.9577317,-1.869159,-3.4041672,-0.2839462,-0.193787,-0.44594002,27.75,28.875,28.0,31.9375,33.9375,34.75
0.20805253,0.029745923,-0.24279134,0.09677645,-0.008625727,0.011067653,-0.17984444,-0.3913344,-0.34818986,0.06007158,-3.0735877,0.62743723,0.00019939481,-0.09796236,0.009588945,-0.0014144663,0.061059073,-0.014463741,-0.021269923,0.47011763,-1.407234,1.9343909,-2.0936935,-1.5743269,2.4473197,-0.074038684,0.18442784,-0.22940655,0.08551507,-0.04832752,-0.052441314,0.095768064,0.34476504,-9.174581,0.91198283,47.70211,-0.90550125,-1.7272937,-3.4432654,-0.29707327,-0.15070245,-0.41539454,27.75,28.875,28.0,31.9375,33.9375,34.75
0.21005186,0.6762418,0.58888197,0.38692993,-0.039786458,0.017506517,-0.18850783,-0.3915422,-0.34817058,0.060058374,-3.0734522,0.62736887,0.00020923576,-0.09949048,0.008692857,-0.00090236135,0.058566745,-0.012840385,-0.019907558,0.46997347,-1.4068251,1.9339131,-2.0935385,-1.5744466,2.447151,-0.07472568,0.18591753,-0.23204109,0.08405759,-0.04686587,-0.054491356,0.24899697,0.24899697,-9.155427,0.86945957,47.704796,-0.97438467,-1.8014698,-3.444135,-0.30332395,-0.14577991,-0.40077546,27.75,28.875,28.0,31.9375,33.9375,34.75
0.21205182,0.4233744,-0.59112364,0.1938509,-0.029587217,0.0040389784,-0.17621428,-0.39174616,-0.34816018,0.060055982,-3.0733309,0.627457,0.00018706883,-0.10056512,0.0077291,-0.0015761103,0.057887282,-0.012252743,-0.017697219,0.46981767,-1.4064388,1.9334339,-2.0933716,-1.5745181,2.4470663,-0.07415221,0.18947713,-0.23417486,0.081781596,-0.046550713,-0.056124408,0.17238252,0.28730422,-9.11712,0.9410752,47.741516,-0.985294,-1.9611647,-3.4006543,-0.28182772,-0.13669841,-0.41816404,27.75,28.875,28.0,31.9375,33.9375,34.75
0.21405193,0.33038795,-0.38164547,0.23683298,-0.045940816,-0.003246982,-0.18073659,-0.39194494,-0.34814656,0.060058523,-3.0732038,0.62743026,0.00020116584,-0.10337141,0.008316535,-0.0014797982,0.05695222,-0.0095223915,-0.017292684,0.46968442,-1.406066,1.9329561,-2.0931933,-1.5746263,2.4469333,-0.07737809,0.19161205,-0.23626745,0.078856304,-0.046983983,-0.059747886,0.17238252,0.3256114,-9.136273,0.85826975,47.719128,-0.94063836,-1.92411,-3.4242883,-0.24639808,-0.12213425,-0.36039138,27.75,28.875,28.0,31.9375,33.9375,34.75
0.21605211,0.8224014,-0.6678034,0.12398766,-0.051414896,0.015114186,-0.19289754,-0.39213905,-0.34812713,0.060046013,-3.073075,0.6274365,0.00016200703,-0.10416557,0.0064027365,-0.0012932753,0.054672983,-0.007294699,-0.009120318,0.4695294,-1.4056814,1.9325017,-2.0930264,-1.5747098,2.4467993,-0.0753116,0.19362147,-0.23843598,0.07595691,-0.04600084,-0.06585219,0.15322891,0.3256114,-9.193734,0.8873621,47.709274,-0.9546069,-1.9126925,-3.3791277,-0.21565194,-0.09546314,-0.3039824,27.75,28.875,28.0,31.9375,33.9375,34.75
0.21805245,0.55721575,-0.6101248,-0.031093232,-0.0535577,0.013433224,-0.17739917,-0.39235756,-0.34810138,0.060038824,-3.0729506,0.6274486,0.00016362741,-0.10572215,0.0054747034,-0.0016361639,0.052640945,-0.0062752212,-0.009208714,0.46934912,-1.4052836,1.9320225,-2.092872,-1.5748051,2.446643,-0.07587159,0.1967534,-0.24075535,0.07329476,-0.044672795,-0.06632481,0.1340753,0.2681506,-9.289502,0.8672237,47.71286,-0.998403,-1.9376318,-3.486215,-0.18359885,-0.08970727,-0.2760164,27.75,28.875,28.0,31.9375,33.9375,34.75
0.22005238,0.61826324,-0.7413679,-0.19633079,-0.05068874,0.013697693,-0.18393204,-0.39255008,-0.34809336,0.06002244,-3.0728357,0.62742376,0.00013896673,-0.10800938,0.005916139,-0.0018644205,0.05011525,-0.0057653193,-0.010625757,0.46921578,-1.4048865,1.9315675,-2.0927289,-1.5748886,2.4465096,-0.07992123,0.19892392,-0.242325,0.07106713,-0.04267737,-0.06896188,0.0,0.30645782,-9.32781,0.8537928,47.7245,-0.89703816,-2.0770116,-3.541291,-0.1461887,-0.103099205,-0.25287333,27.75,28.875,28.0,31.9375,33.9375,34.75
0.2220524,0.36026922,-0.93286747,-0.027972871,-0.058439046,0.027337695,-0.18114616,-0.39278254,-0.34808245,0.060017027,-3.0727375,0.62741846,0.00018380703,-0.10764298,0.0032839829,-0.0012705269,0.047624417,-0.004425773,-0.0038674683,0.46904927,-1.4044659,1.9310654,-2.0926096,-1.574984,2.446353,-0.075936146,0.1998339,-0.24459425,0.070074156,-0.041084677,-0.07173999,0.0,0.3256114,-9.404425,0.9186956,47.69763,-1.1463904,-2.0214572,-3.472477,-0.11156034,-0.10009974,-0.18190464,27.75,28.875,28.0,31.9375,33.9375,34.75
0.22405247,0.06453259,-1.3769014,-0.29384083,-0.043779958,0.023617957,-0.18006843,-0.39298797,-0.3480968,0.060032595,-3.0726802,0.627387,0.00020930154,-0.10933917,0.0025567058,-0.00028616693,0.04528379,-0.0030419473,-0.0044111493,0.4689288,-1.4040931,1.9305624,-2.0924537,-1.575044,2.4462206,-0.077053666,0.20092532,-0.24823561,0.070314884,-0.039636265,-0.07231811,-0.038307227,0.36391866,-9.3661175,0.8873621,47.69763,-1.1676314,-2.1669822,-3.5153465,-0.055635534,-0.12491822,-0.1572158,27.75,28.875,28.0,31.9375,33.9375,34.75
0.2260519,0.09325299,-0.9107879,-0.38462666,-0.049572233,0.031520903,-0.18318081,-0.39318818,-0.3480839,0.060011394,-3.072551,0.6273995,0.0001401718,-0.109271325,0.0028351243,-0.0018043291,0.046135794,-0.007900402,-0.005777044,0.46877238,-1.4036714,1.9300836,-2.0922854,-1.5751151,2.4460893,-0.07834057,0.20479505,-0.2499038,0.072816566,-0.038210593,-0.072240934,-0.095768064,0.4405331,-9.404425,0.8717007,47.68062,-1.0729244,-2.0377314,-3.5487556,-0.06426368,-0.11569338,-0.14125371,27.75,28.875,28.0,31.875,33.9375,34.8125
0.22805186,-0.8055183,-1.398835,-0.4108793,-0.052335683,0.026443537,-0.17806932,-0.39341393,-0.34807345,0.060002506,-3.0724225,0.6273714,0.00017884785,-0.110248365,0.0021993543,-0.0020400467,0.045598608,-0.007593395,-0.006546911,0.4686285,-1.4032383,1.9295691,-2.0921419,-1.5752348,2.445945,-0.0782551,0.20732453,-0.25221476,0.07207025,-0.037882246,-0.0713835,-0.28730422,0.51714754,-9.404425,0.9365982,47.677036,-1.2005203,-2.1554117,-3.4909472,-0.044746246,-0.14165515,-0.110319406,27.75,28.875,28.0,31.875,33.9375,34.8125
0.23005186,-0.30513084,-1.0680586,-0.4997764,-0.070957676,0.05329466,-0.1825267,-0.39364526,-0.34808406,0.059999783,-3.0723708,0.6274578,0.00014084105,-0.11067758,0.0021124403,-0.0018085625,0.045344852,-0.008753738,-0.008384482,0.46844828,-1.4028054,1.9290427,-2.0920093,-1.5752472,2.4458258,-0.0788994,0.2082887,-0.2544395,0.074246824,-0.03713524,-0.07019182,-0.2681506,0.4213795,-9.481039,0.8717007,47.704796,-1.2086579,-2.0294023,-3.5567598,-0.024926927,-0.13844314,-0.09867125,27.75,28.875,28.0,31.875,33.9375,34.8125
0.23205177,-0.84108776,-1.4219751,-0.421641,-0.06367211,0.05548309,-0.17615844,-0.3938626,-0.34808227,0.059989784,-3.0722737,0.62738,0.00012915557,-0.11115899,0.0015327279,-0.0019678578,0.045061555,-0.010908017,-0.010625557,0.46830425,-1.4023718,1.9285268,-2.091853,-1.5753306,2.4456463,-0.07903933,0.21098422,-0.25785944,0.07676003,-0.035913356,-0.068092726,-0.36391866,0.36391866,-9.519346,0.8806493,47.684196,-1.2125214,-2.16959,-3.523777,-0.056474566,-0.14674488,-0.091716506,27.75,28.875,28.0,31.875,33.9375,34.8125
0.23405178,-0.8041661,-0.68327373,-0.18368243,-0.055622607,0.06210458,-0.1804738,-0.39408317,-0.34807912,0.059993524,-3.072177,0.6274579,0.00015075003,-0.11266389,0.0015282307,-0.0018261037,0.044111043,-0.00969041,-0.014755562,0.46814772,-1.401975,1.9280251,-2.0917099,-1.5754026,2.4455514,-0.08050311,0.21242134,-0.2596748,0.075624,-0.035618715,-0.06542557,-0.47884035,0.21068975,-9.404425,0.93436235,47.682407,-1.2088447,-2.0977705,-3.5061831,-0.017074646,-0.15816101,-0.12295328,27.75,28.875,28.0,31.875,33.9375,34.8125
0.23605195,-0.5606576,0.4483548,-0.37184882,-0.032907467,0.062463775,-0.18509284,-0.39429116,-0.34808305,0.059969593,-3.0720756,0.62747616,4.7218673e-05,-0.11375161,0.0014349346,-0.0007199285,0.043497242,-0.008662773,-0.019563433,0.46799156,-1.4015187,1.9275116,-2.091542,-1.5754379,2.4454203,-0.08130575,0.21229617,-0.26255575,0.077447295,-0.03553318,-0.061415974,-0.40222588,0.15322891,-9.461885,0.8918391,47.691364,-1.2632251,-1.9630742,-3.522543,0.011355408,-0.1805467,-0.14280568,27.75,28.875,28.0,31.875,33.9375,34.8125
0.23801747,-0.59168196,0.46077895,-0.47597903,0.0034857087,0.06441847,-0.1731351,-0.3945495,-0.34807894,0.059990793,-3.0719907,0.6275367,0.00017648884,-0.114206165,0.0017130424,-0.0009928,0.04400454,-0.011119089,-0.022266408,0.4678231,-1.4011096,1.9269603,-2.091421,-1.5755461,2.445301,-0.08255107,0.21429345,-0.26497364,0.080281325,-0.034874864,-0.059961677,-0.49799395,0.038307227,-9.500193,0.9388393,47.694054,-1.2011611,-2.140879,-3.4928598,0.023362964,-0.19502819,-0.17658015,27.75,28.875,28.0,31.875,33.9375,34.8125
0.240053,-0.652779,0.8557262,-0.24908644,0.020459237,0.059605155,-0.17395106,-0.39476576,-0.3480667,0.059968572,-3.0718677,0.62755036,0.000121806916,-0.11369009,0.0022233927,-0.0014655932,0.04549506,-0.014609334,-0.025789151,0.46765482,-1.4006649,1.9264587,-2.091264,-1.5756181,2.4451578,-0.08308488,0.21543239,-0.26617184,0.084131934,-0.034625195,-0.0569706,-0.47884035,0.038307227,-9.461885,0.8672237,47.71465,-1.2493118,-1.9964576,-3.4910092,0.0007242197,-0.21661136,-0.20603937,27.75,28.875,28.0,31.875,33.9375,34.8125
0.24205197,-0.77583176,1.5631877,-0.34759256,0.02741796,0.047088638,-0.1782119,-0.39495322,-0.3480757,0.05994018,-3.0717525,0.6275465,1.5448595e-05,-0.11443193,0.003278615,-0.0011322438,0.047499724,-0.016271232,-0.029365566,0.46753424,-1.4002203,1.925968,-2.0910947,-1.5756663,2.4450502,-0.08487948,0.21627735,-0.26897895,0.08848712,-0.03566576,-0.055178266,-0.34476504,-0.13407528,-9.481039,0.9455522,47.683304,-1.0772706,-1.9719915,-3.6503503,-0.04627288,-0.22993311,-0.25809455,27.75,28.875,28.0,31.875,33.9375,34.8125
0.24405187,-0.3739568,1.4998574,-0.33914605,0.039983973,0.049366076,-0.17825128,-0.39522186,-0.34806684,0.05995714,-3.0716438,0.62775314,3.5703186e-05,-0.113638856,0.0043324474,-0.0020676234,0.05266739,-0.022395382,-0.028317539,0.4673184,-1.3997747,1.9253696,-2.090912,-1.5757269,2.444978,-0.08476324,0.21944754,-0.27242562,0.09655039,-0.037522353,-0.05609816,-0.4405331,-0.22984336,-9.423578,0.9388393,47.688675,-1.1580434,-2.1153052,-3.6000175,-0.10962375,-0.22378013,-0.26197186,27.75,28.875,28.0,31.875,33.9375,34.8125
0.24605204,-0.5476793,1.4210404,-0.06278441,0.035201132,0.046028316,-0.18469018,-0.3954384,-0.3480448,0.05992887,-3.0714786,0.627738,-5.1424122e-05,-0.11579637,0.0059912805,-0.0023442307,0.053246718,-0.024189241,-0.030108804,0.4671486,-1.3993055,1.9248422,-2.0907085,-1.5758232,2.444821,-0.08968485,0.22199956,-0.27535483,0.09876138,-0.037261523,-0.05922343,-0.40222588,-0.24899697,-9.270349,0.89631605,47.68062,-1.0361645,-2.0644326,-3.4376836,-0.14291087,-0.22916448,-0.24667087,27.75,28.875,28.0,31.875,33.9375,34.8125
0.24805206,0.32638177,1.3974829,-0.06531795,0.03284436,0.052755293,-0.18258886,-0.3956588,-0.34802842,0.059904765,-3.0713189,0.62781864,-0.00015235197,-0.11528842,0.0048646606,-0.0017271405,0.05370611,-0.026656814,-0.030028021,0.46696958,-1.398836,1.9243044,-2.090503,-1.5758947,2.4447136,-0.08764485,0.22332247,-0.27959833,0.10408916,-0.036565654,-0.05726196,-0.40222588,-0.24899697,-9.2703495,0.96569055,47.66987,-1.0666759,-2.0877001,-3.6655245,-0.19805694,-0.25679618,-0.26661417,27.75,28.875,28.0,31.875,33.9375,34.8125
0.25005195,-0.4981937,1.0088383,-0.34038985,0.041284345,0.02277762,-0.1790132,-0.3958878,-0.34800792,0.05991149,-3.071201,0.62785274,-0.00018780383,-0.117883466,0.005745319,-0.0010937902,0.054656878,-0.025727559,-0.033045482,0.46677655,-1.3984275,1.9237646,-2.0902874,-1.5759672,2.4445577,-0.090599835,0.2256111,-0.28422067,0.10601493,-0.037852272,-0.057186928,-0.34476504,-0.11492168,-9.461885,0.84708,47.688675,-1.0449723,-2.0766926,-3.5025296,-0.2633108,-0.26819122,-0.29459447,27.75,28.875,28.0,31.875,33.9375,34.8125
0.25205216,-0.25682527,0.6589031,-0.21895175,0.013356742,0.046890594,-0.17611416,-0.39611843,-0.3479959,0.05989593,-3.071021,0.62793064,-0.00023654343,-0.11950295,0.0067549297,-0.001426976,0.056316532,-0.02615877,-0.034605265,0.46661967,-1.397946,1.9231905,-2.090071,-1.5760754,2.4444735,-0.09290423,0.22816703,-0.2867822,0.10714113,-0.039161354,-0.057917926,-0.34476504,-0.076614454,-9.346964,0.9097417,47.705692,-0.86290985,-2.085398,-3.3861237,-0.2998191,-0.26511225,-0.28798556,27.75,28.875,28.0,31.875,33.9375,34.8125
0.2540506,-0.23652431,0.2682429,-0.5441215,-0.006512435,0.056281947,-0.17896989,-0.3963721,-0.34797248,0.05991641,-3.070866,0.6280514,-0.00024879663,-0.12211887,0.0061415597,-0.0005502493,0.054970406,-0.022650534,-0.0353004,0.46641544,-1.3975127,1.9225796,-2.0898087,-1.5761722,2.4443655,-0.09381634,0.23029901,-0.29097712,0.105452105,-0.039565504,-0.058126923,-0.38307226,0.038307227,-9.423578,0.8672237,47.68062,-0.83269334,-2.1694412,-3.3676298,-0.30541927,-0.26750612,-0.31187773,27.75,28.875,28.0,31.875,33.9375,34.8125
0.25605267,-0.6738947,-1.1817504,-0.7258032,-0.028158974,0.07767636,-0.17551994,-0.3966061,-0.34797764,0.059918445,-3.0707636,0.628106,-0.0003104263,-0.12303204,0.0061099357,-0.0012855431,0.054333325,-0.021715749,-0.03636833,0.4662471,-1.3970556,1.9219936,-2.0895941,-1.5762194,2.444245,-0.09458252,0.23214251,-0.29084578,0.10234784,-0.039434753,-0.057822138,-0.34476504,0.11492168,-9.576807,0.9321212,47.7254,-0.7846762,-2.1893697,-3.453803,-0.29363257,-0.28447062,-0.3336453,27.75,28.875,28.0,31.875,33.9375,34.8125
0.25805223,-1.7448853,-2.0874348,-0.5721125,-0.075960256,0.09307304,-0.17352757,-0.39682016,-0.34793934,0.05987477,-3.07054,0.6281355,-0.00043322652,-0.12440152,0.0055453274,-0.0010642182,0.051649608,-0.018714767,-0.03658854,0.46606693,-1.396563,1.9214681,-2.089368,-1.5763396,2.4441133,-0.09538637,0.23256393,-0.2910141,0.09818691,-0.038417805,-0.058404196,-0.5554548,0.30645782,-9.595961,0.9030289,47.698532,-0.8131505,-2.124374,-3.544632,-0.27663568,-0.30533618,-0.35786456,27.75,28.875,28.0,31.875,33.9375,34.8125
0.2600523,-2.4074259,-2.682467,-0.522242,-0.09874106,0.09411774,-0.16455333,-0.3970976,-0.3479326,0.05989872,-3.0704315,0.62826395,-0.00038528687,-0.12592433,0.004832343,-0.000546371,0.04976122,-0.014483911,-0.03446836,0.46586305,-1.3961062,1.9208349,-2.0891664,-1.5764235,2.4440043,-0.09524765,0.23289992,-0.2917241,0.09390959,-0.038661897,-0.060382456,-0.59376204,0.4405331,-9.730036,0.96569055,47.71017,-0.83582807,-2.0304794,-3.7399254,-0.24152416,-0.32102895,-0.348875,27.75,28.875,28.0,31.875,33.9375,34.8125
0.2620526,-1.9083067,-2.4215133,-0.7509344,-0.09864044,0.1076938,-0.1659021,-0.39734626,-0.347938,0.05989494,-3.070343,0.6283582,-0.0004020823,-0.12787372,0.0040465607,0.0007294142,0.04830496,-0.008730321,-0.032173976,0.46568322,-1.3956374,1.9202613,-2.089012,-1.5764717,2.4438953,-0.094687715,0.23261905,-0.29358202,0.09023867,-0.03997473,-0.062105585,-0.4213795,0.4213795,-9.749189,0.8784135,47.693153,-0.9224423,-2.0983076,-3.755546,-0.1746318,-0.3404736,-0.35001057,27.75,28.875,28.0,31.875,33.9375,34.8125
0.26405263,-1.5470942,-1.7771776,-0.6036808,-0.08273464,0.10265677,-0.18115433,-0.3976165,-0.34792188,0.059888296,-3.0702245,0.62848645,-0.00043407927,-0.13085681,0.0036869477,0.00226946,0.045958903,-0.003335913,-0.03127235,0.46545455,-1.3951457,1.9196619,-2.088833,-1.5765318,2.4437628,-0.09637194,0.2329041,-0.29689255,0.08736414,-0.040337373,-0.0646847,-0.4213795,0.51714754,-9.710882,0.8672237,47.690468,-0.80592704,-1.8756309,-3.723847,-0.12985277,-0.3322831,-0.33452636,27.75,28.875,28.0,31.875,33.9375,34.8125
0.2660525,-0.57194394,-0.8402506,-0.75864774,-0.056534838,0.082574494,-0.18318495,-0.39788988,-0.34789753,0.059884526,-3.0701153,0.6285555,-0.000350096,-0.1315257,0.0020624143,0.0026544065,0.044877358,-0.0012335595,-0.02644593,0.46523952,-1.3946882,1.9191121,-2.0887258,-1.57664,2.4436057,-0.09404028,0.23457885,-0.2994992,0.08590158,-0.040341567,-0.06717756,-0.3256114,0.51714754,-9.653421,0.9365982,47.675243,-1.0287311,-1.7903783,-3.7332842,-0.08023042,-0.36392978,-0.31608593,27.75,28.875,28.0,31.875,33.9375,34.8125
0.26805252,0.31680667,-0.04208819,-0.7364311,-0.045230992,0.0648407,-0.18582384,-0.3981563,-0.34790263,0.059905574,-3.0700288,0.62851673,-0.00026461983,-0.13389584,0.003657228,0.00165678,0.04639953,-0.0018923688,-0.026823277,0.46508208,-1.394231,1.9184893,-2.0885465,-1.5767483,2.443436,-0.09813916,0.2384142,-0.30170974,0.08551624,-0.041435227,-0.070890166,-0.40222588,0.51714754,-9.710882,0.9321212,47.694946,-0.8086412,-1.7164648,-3.7075043,-0.034258865,-0.365975,-0.2848032,27.75,28.875,28.0,31.875,33.9375,34.8125
0.27005225,-0.40800315,-1.0001446,-0.97753626,-0.029017363,0.032218695,-0.17374644,-0.39843047,-0.34790266,0.05989455,-3.069916,0.6286053,-0.00030023837,-0.13563937,0.0020370951,0.0025637217,0.046410277,0.00069463736,-0.021693079,0.46487892,-1.3937012,1.9178547,-2.0883672,-1.5768088,2.4433033,-0.09599998,0.24147974,-0.30758694,0.08599387,-0.04264137,-0.073867574,-0.24899697,0.34476507,-9.672575,0.8403672,47.711964,-0.9951907,-1.8070042,-3.6376917,-0.0017147174,-0.37244964,-0.23996976,27.75,28.875,28.0,31.875,33.9375,34.8125
0.27205208,0.2784985,-0.6892628,-0.71785814,-0.047188003,0.040377773,-0.18498802,-0.39872915,-0.34790596,0.05991841,-3.0698404,0.62860584,-0.00014557251,-0.13714363,0.0029044072,0.0034042853,0.048802085,0.00083439494,-0.019723173,0.46469843,-1.3932202,1.9172076,-2.0882337,-1.5769299,2.4431336,-0.09734156,0.24265029,-0.3118747,0.09002908,-0.044860084,-0.077164784,-0.21068975,0.28730422,-9.768343,0.92764956,47.691364,-0.9273267,-1.9700093,-3.3932123,0.005684739,-0.35555825,-0.20400071,27.75,28.875,28.0,31.875,33.9375,34.8125
0.27405238,-0.0027980073,-0.7224738,-0.70931023,-0.03981632,0.03491795,-0.1788358,-0.399013,-0.347872,0.05992536,-3.0696921,0.6287466,-0.00010905241,-0.13748795,0.003768278,0.0017642564,0.05230824,-0.0027648,-0.017546799,0.46445817,-1.3927501,1.9165987,-2.0880415,-1.5770382,2.4430013,-0.098077714,0.24709448,-0.31396398,0.09243096,-0.04640562,-0.08006382,-0.13407528,0.24899697,-9.691729,0.8806493,47.698532,-0.9054687,-2.0083506,-3.4823687,0.011064294,-0.33690238,-0.13898459,27.75,28.875,28.0,31.875,33.9375,34.8125
0.27605236,0.12530285,0.051438767,-1.0338271,-0.016741132,0.028247317,-0.175429,-0.39928043,-0.34788138,0.05992595,-3.0696142,0.6287297,-0.0001192675,-0.13694875,0.005453891,0.00019552348,0.057431176,-0.008673789,-0.018622179,0.46427777,-1.3922446,1.9159645,-2.0878594,-1.5770987,2.442821,-0.09923434,0.2504397,-0.31574866,0.09844155,-0.048339665,-0.08012949,-0.019153614,0.3256114,-9.672575,0.900793,47.703007,-0.840484,-2.2639701,-3.4627087,0.0013538795,-0.33667842,-0.12025468,27.75,28.875,28.0,31.875,33.9375,34.8125
0.27805254,0.3711777,0.17839517,-0.5884153,-0.011286069,0.036987238,-0.18134914,-0.3995679,-0.34787932,0.05992624,-3.069479,0.62871784,-8.674735e-05,-0.13478863,0.006733321,-0.0013396895,0.0620477,-0.015418899,-0.015798137,0.464098,-1.3917034,1.915284,-2.0876539,-1.5772194,2.4426522,-0.098776065,0.25175303,-0.3153083,0.1047565,-0.049456727,-0.082485765,0.11492168,0.21068975,-9.653421,0.9186956,47.704796,-0.9669617,-2.135103,-3.601283,-0.07887758,-0.3238919,-0.09236951,27.75,28.875,28.0,31.875,33.9375,34.8125
0.28005266,0.15102457,0.3710008,-0.03285775,-0.009757737,0.021993158,-0.17615408,-0.39985627,-0.3478568,0.059953544,-3.0693629,0.628733,-8.087264e-06,-0.13416493,0.007919398,-0.0022755018,0.066148795,-0.020518752,-0.01885074,0.46388176,-1.3912466,1.9146379,-2.0874364,-1.5773395,2.4424613,-0.09933543,0.254135,-0.3174299,0.11089339,-0.050831176,-0.07998155,0.038307227,0.13407528,-9.442732,0.9186956,47.72092,-0.94025564,-2.1189573,-3.66917,-0.13640523,-0.30670607,-0.04827255,27.75,28.875,28.0,31.875,33.9375,34.8125
0.28205177,1.5546659,0.82232153,-0.13191326,0.027925834,0.0073625804,-0.18411644,-0.400126,-0.34783763,0.059917603,-3.069187,0.6288491,-9.327806e-05,-0.13569185,0.0080636265,-0.0004693289,0.067552894,-0.018467747,-0.02079248,0.4636658,-1.3906821,1.9140152,-2.0872443,-1.5774249,2.4423416,-0.09945419,0.25395826,-0.32233354,0.11477025,-0.05301721,-0.07813541,0.095768064,-0.038307227,-9.32781,0.8605109,47.696735,-0.97934806,-2.0592494,-3.5749764,-0.19892228,-0.28823382,-0.07164133,27.75,28.875,28.0,31.875,33.9375,34.8125
0.28405175,2.102519,1.8468992,0.14926398,0.019535959,-0.0007648007,-0.19049603,-0.40040213,-0.3478315,0.059929855,-3.0690753,0.6289017,-4.9443497e-05,-0.13673125,0.007671334,0.0005928652,0.06898978,-0.015657078,-0.021057451,0.46347442,-1.3902013,1.9133805,-2.087052,-1.5775217,2.4421983,-0.09798685,0.2543637,-0.32553855,0.115701936,-0.05556638,-0.07638233,0.17238253,-0.1340753,-9.270349,0.8784135,47.689575,-1.0592445,-2.0809724,-3.5279279,-0.19883287,-0.26262635,-0.0753166,27.75,28.875,28.0,31.875,33.9375,34.8125
0.28605163,2.0902865,2.1613302,0.08349888,0.032802463,-0.025777606,-0.19240324,-0.4006883,-0.34782338,0.05994076,-3.0689363,0.62887526,-1.7428811e-06,-0.13886768,0.008229969,0.0012332223,0.06898094,-0.015313515,-0.026467545,0.46329322,-1.3896842,1.9126981,-2.0868242,-1.5776538,2.4420195,-0.10064628,0.2562237,-0.3297559,0.117747866,-0.05571425,-0.073625535,0.24899697,-0.17238252,-9.155427,0.89631605,47.67345,-0.950771,-1.9934912,-3.4365945,-0.23502657,-0.23539315,-0.0936093,27.75,28.875,28.0,31.875,33.9375,34.8125
0.2880522,1.1629001,1.0521644,-0.0726729,0.047469653,-0.03973381,-0.17385794,-0.4009762,-0.3478173,0.059972398,-3.068805,0.628961,0.00010783834,-0.1400062,0.0068366854,0.0024716365,0.068867505,-0.010364545,-0.026021404,0.46311453,-1.3892156,1.9120282,-2.0866096,-1.5777863,2.4419122,-0.097799264,0.25645682,-0.3325144,0.11580039,-0.057829905,-0.071207866,0.19153613,-0.11492168,-9.097966,0.9321212,47.681515,-1.2205994,-1.9525814,-3.2566948,-0.21440658,-0.20957151,-0.12617102,27.75,28.875,28.0,31.875,33.9375,34.8125
0.2900106,0.68983316,0.45924556,-0.1609162,0.03284509,-0.01003039,-0.17165835,-0.4012353,-0.34780967,0.059970878,-3.068671,0.62899345,3.913414e-05,-0.14334491,0.008964262,0.003051532,0.07005627,-0.006856304,-0.033414766,0.4629208,-1.3887107,1.9113826,-2.0863583,-1.5778593,2.441757,-0.10265792,0.2572485,-0.33457002,0.11446811,-0.06046921,-0.068647064,0.038307227,-0.095768064,-9.174581,0.86945957,47.67614,-1.0355763,-1.8677425,-3.3744175,-0.22028725,-0.17328341,-0.15621574,27.75,28.875,28.0,31.875,33.9375,34.8125
0.29205227,-0.39446592,-0.09009956,-0.42808142,-0.0020378302,0.021061346,-0.17375696,-0.40152285,-0.34776843,0.059978645,-3.068463,0.6290823,-1.6487793e-07,-0.14473553,0.0071175913,0.004474115,0.06812982,-0.0015824534,-0.03315534,0.4626817,-1.3881944,1.9106892,-2.086048,-1.5779918,2.4416015,-0.10015648,0.25744036,-0.33752275,0.111645356,-0.061117545,-0.06639093,0.019153614,0.05746084,-9.346964,0.9388393,47.696735,-1.1973801,-1.7393818,-3.3795607,-0.19176632,-0.11771466,-0.18449216,27.75,28.875,28.0,31.875,33.9375,34.8125
0.29405215,-1.1464483,-0.8811709,-0.36241066,-0.055378247,0.062011115,-0.17806181,-0.4017626,-0.34773663,0.059947032,-3.0682244,0.62920517,-0.00017979006,-0.14524947,0.0070462194,0.003483954,0.06687971,-0.0025746524,-0.035823703,0.46247736,-1.387653,1.910056,-2.0857375,-1.5780872,2.4415061,-0.10136999,0.25957558,-0.33748695,0.109791115,-0.05957273,-0.06493404,-0.076614454,0.17238252,-9.481039,0.9254084,47.668976,-1.162945,-1.7776214,-3.3649707,-0.15901,-0.12407997,-0.21562296,27.75,28.875,28.0,31.875,33.9375,34.8125
0.29605246,-1.3766234,-1.592011,-0.44505197,-0.082604036,0.09672889,-0.17852975,-0.4020647,-0.34774342,0.059982102,-3.0681298,0.6291848,-4.3360975e-05,-0.14590786,0.007306721,0.0015474812,0.067734264,-0.0040257764,-0.03742038,0.46230897,-1.3871591,1.9093503,-2.0855353,-1.5782193,2.441338,-0.10222828,0.2637404,-0.33752254,0.10732948,-0.059696585,-0.0641946,-0.36391866,0.34476504,-9.461885,0.96569055,47.70211,-1.0959909,-1.8491342,-3.6572022,-0.1351903,-0.11688971,-0.24457711,27.75,28.875,28.0,31.875,33.9375,34.8125
0.29805246,-2.1362562,-2.709516,-0.6890959,-0.07302361,0.101055354,-0.16946429,-0.40234387,-0.34771654,0.059978127,-3.067917,0.6292742,-3.3480126e-05,-0.14694935,0.006797964,0.0008285411,0.06699101,-0.0048209936,-0.0392885,0.46211702,-1.3866296,1.9086808,-2.0852835,-1.5783747,2.4412308,-0.10279744,0.2671969,-0.33991924,0.10663523,-0.058689415,-0.06289527,-0.38307226,0.40222588,-9.557653,1.0149267,47.677036,-1.1332133,-1.9486301,-3.7065558,-0.1012575,-0.102953136,-0.27541438,27.75,28.875,28.0,31.875,33.9375,34.8125
0.30005258,-1.6534922,-1.8814358,-0.66497,-0.08054195,0.10187369,-0.17720594,-0.40263423,-0.34772182,0.05997422,-3.067781,0.62932074,1.640853e-05,-0.1469338,0.00698371,-0.00041685865,0.066998735,-0.007529975,-0.03905985,0.46194845,-1.3860763,1.9079989,-2.0851042,-1.578494,2.44111,-0.1037621,0.2696485,-0.34013498,0.10679697,-0.057505347,-0.064094566,-0.4405331,0.49799395,-9.634268,0.9545008,47.668976,-1.1407077,-1.8216867,-3.7421162,-0.08724238,-0.11150908,-0.29693276,27.75,28.875,28.0,31.875,33.9375,34.8125
0.30205256,-1.731141,-2.2928002,-0.5973529,-0.06150952,0.0788545,-0.17156635,-0.40291864,-0.34770462,0.05997313,-3.0676534,0.62944704,-3.7869835e-05,-0.1492526,0.0054008123,0.0014467969,0.06278476,-0.003990064,-0.040093265,0.46170858,-1.3855588,1.9073414,-2.0848768,-1.5785531,2.4409664,-0.10429339,0.27025154,-0.3450785,0.10606956,-0.055333354,-0.0636022,-0.63206923,0.5363012,-9.595961,0.900793,47.682407,-1.1371064,-1.8716314,-3.7003558,-0.07385756,-0.11074867,-0.29950508,27.75,28.875,28.0,31.875,33.9375,34.8125
0.3040524,-0.85840255,-1.3077954,-0.59193516,-0.04461097,0.050693683,-0.16906406,-0.40324134,-0.34770697,0.059993014,-3.0675447,0.6295024,0.00010003679,-0.15258712,0.0055812695,0.0030174193,0.059202604,-0.00021167201,-0.045774728,0.46151504,-1.3850186,1.9066228,-2.08471,-1.5786847,2.4408224,-0.10834776,0.27052867,-0.34878245,0.104506694,-0.053815566,-0.061985902,-0.63206923,0.49799395,-9.500193,0.9567419,47.670765,-1.0270503,-1.7548882,-3.621251,-0.006087988,-0.13745275,-0.3780004,27.75,28.875,28.0,31.875,33.9375,34.8125
0.30605263,-0.8982371,-1.002664,-0.6485609,-0.035081673,0.028633958,-0.17093495,-0.40355372,-0.3476803,0.059991483,-3.0673594,0.62965316,0.00015667756,-0.15226726,0.0041601085,0.0026560093,0.058711544,-0.00185139,-0.04360133,0.4612879,-1.3844655,1.9059294,-2.0845058,-1.5788282,2.4407146,-0.10622864,0.27304718,-0.35134897,0.10577891,-0.052658994,-0.06204478,-0.7278373,0.45968673,-9.519346,0.9164598,47.65912,-1.0714396,-1.779738,-3.5444813,-0.004477256,-0.14065942,-0.41474095,27.75,28.875,28.0,31.875,33.9375,34.8125
0.3080517,-0.9760782,-1.16456,-0.5476213,-0.030330068,0.029619405,-0.17360108,-0.40384045,-0.34766808,0.06000012,-3.0671933,0.6298282,0.00011012864,-0.15256488,0.005698631,0.002128163,0.05999779,-0.0070948745,-0.04430006,0.46107075,-1.3839362,1.9052242,-2.0842288,-1.5789121,2.4406295,-0.10977624,0.27483007,-0.353664,0.111535154,-0.05150014,-0.06489735,-0.7086837,0.36391866,-9.519346,0.9858343,47.677036,-1.0502454,-1.8414376,-3.596292,-0.022945344,-0.17737532,-0.40336654,27.75,28.875,28.0,31.875,33.9375,34.8125
0.31005275,-0.92921823,-0.6660282,-0.5448062,-0.035456836,0.037189003,-0.17044055,-0.4041687,-0.3476864,0.06003195,-3.0671375,0.6299312,0.00018669796,-0.15096614,0.004945548,0.0021007152,0.061025918,-0.012256642,-0.044154756,0.46085528,-1.3833953,1.9044703,-2.0840347,-1.5789713,2.4404862,-0.10784969,0.2759938,-0.35665572,0.11843857,-0.050110582,-0.06312752,-0.49799395,0.28730422,-9.615114,0.96569055,47.67614,-1.0736836,-1.7563393,-3.6266108,-0.06632005,-0.18128018,-0.44768906,27.75,28.875,28.0,31.875,33.9375,34.8125
0.3120526,-0.893205,-0.7135479,-0.24915594,-0.031450808,0.04915712,-0.17834368,-0.40449592,-0.3476589,0.060016878,-3.0669663,0.62996995,0.00022600676,-0.14965822,0.006124285,-0.00025243324,0.064426236,-0.021492483,-0.04254668,0.46061477,-1.3827934,1.9037517,-2.0838406,-1.5791153,2.4402933,-0.109299496,0.28049347,-0.35827562,0.12529305,-0.049072444,-0.06618969,-0.5746084,0.17238253,-9.385271,0.9835985,47.690468,-1.0588436,-1.7461436,-3.575301,-0.15900925,-0.19166972,-0.47368187,27.75,28.875,28.0,31.875,33.9375,34.8125
0.3140525,-0.5278117,0.14243603,-0.021082617,-0.01058484,0.06531508,-0.17420729,-0.40478417,-0.34766516,0.060013723,-3.0668373,0.63015044,0.00013160401,-0.14935473,0.006010856,0.0004911478,0.06444388,-0.02514741,-0.039620657,0.46039873,-1.3822281,1.903035,-2.0835874,-1.579151,2.4402077,-0.1097261,0.28084764,-0.36202082,0.13191934,-0.04749604,-0.06954962,-0.4405331,0.019153614,-9.270349,0.9567419,47.686886,-1.0430197,-1.8599231,-3.5696244,-0.20627066,-0.22711676,-0.4652683,27.75,28.875,28.0,31.875,33.9375,34.8125
0.31605265,-0.40260172,0.79817724,-0.0540902,0.02465669,0.044709258,-0.18026511,-0.40510747,-0.34765166,0.06004169,-3.0667043,0.63025326,0.00020926647,-0.14953338,0.0058545833,0.000100640864,0.06486095,-0.027049286,-0.035778034,0.4601708,-1.3816993,1.9022936,-2.0833476,-1.5792702,2.4400623,-0.109770395,0.28289232,-0.36409208,0.13378137,-0.047064263,-0.07343832,-0.24899697,0.019153614,-9.270349,0.9186956,47.682407,-1.0554063,-1.8900987,-3.6318855,-0.26333782,-0.2558171,-0.43868884,27.75,28.875,28.0,31.875,33.9375,34.8125
0.31805182,-0.4390735,1.023701,0.38964683,0.031970933,0.04222236,-0.18152452,-0.4054182,-0.34767228,0.06003382,-3.0665677,0.63029766,0.00016546877,-0.15266182,0.0045955065,0.0026938894,0.061027747,-0.02152265,-0.03205332,0.45999047,-1.381063,1.9015039,-2.0830963,-1.5793537,2.4399285,-0.110763125,0.2827483,-0.3698247,0.13294546,-0.04614555,-0.078156926,-0.24899697,-0.30645782,-9.174581,0.9947882,47.68062,-1.0196984,-1.5525184,-3.5114732,-0.2807899,-0.2746351,-0.41447604,27.75,28.875,28.0,31.875,33.9375,34.8125
0.32005185,0.033940807,1.7242686,0.3448838,0.02829201,0.028609429,-0.18283717,-0.40572378,-0.3476366,0.06002659,-3.0664055,0.6303769,0.000117662996,-0.15454288,0.0049070227,0.0013557224,0.060574804,-0.021540944,-0.02991465,0.45972562,-1.3805083,1.9008092,-2.082846,-1.57945,2.4397354,-0.11302694,0.28696874,-0.37121636,0.12987283,-0.04579237,-0.08255636,-0.17238252,-0.36391866,-9.078813,0.89631605,47.70211,-0.93715215,-1.7674037,-3.4888358,-0.2619007,-0.29889286,-0.35934317,27.75,28.875,28.0,31.875,33.9375,34.8125
0.32205176,0.082557045,1.5252644,0.32651544,0.041882996,0.016202152,-0.17386411,-0.40607804,-0.34764352,0.060072683,-3.0663366,0.630455,0.00022205974,-0.15770963,0.0044532306,0.00100929,0.058570597,-0.016598728,-0.027172487,0.45948523,-1.3799547,1.8999966,-2.0826094,-1.5795344,2.4395535,-0.11455747,0.29041252,-0.3730925,0.122933,-0.046246137,-0.086824924,-0.17238252,-0.3256114,-9.021352,0.947788,47.655537,-0.91243905,-1.863507,-3.4195852,-0.20378894,-0.33600605,-0.31510717,27.75,28.875,28.0,31.875,33.9375,34.8125
0.32405248,-0.1530812,0.96142226,0.2289046,0.017171437,0.030042553,-0.17473252,-0.4064045,-0.34761676,0.060069,-3.066167,0.63054985,0.00022661741,-0.1598001,0.0034667857,0.0011478737,0.05715338,-0.013478599,-0.023207858,0.45923322,-1.3793654,1.8992552,-2.0823705,-1.5796546,2.439384,-0.11442266,0.29325148,-0.3762071,0.1197282,-0.046416983,-0.09064799,-0.24899697,-0.21068975,-8.925584,0.9567419,47.65912,-0.94319403,-2.0096817,-3.475875,-0.10166923,-0.3604054,-0.26385292,27.75,28.875,28.0,31.875,33.9375,34.8125
0.32605255,-0.3738588,0.20482212,0.3393051,0.016208759,0.03322135,-0.17759871,-0.4066952,-0.347592,0.06003673,-3.0660052,0.6305319,0.00010904771,-0.16260386,0.0026021514,0.0024202908,0.055338882,-0.007047886,-0.020951891,0.45899326,-1.3787638,1.8985614,-2.0821211,-1.579739,2.439155,-0.11442439,0.29409105,-0.37928614,0.115364626,-0.04769528,-0.0928864,-0.076614454,-0.15322891,-8.944737,0.9388393,47.675243,-0.7733564,-2.1160007,-3.4041142,-0.05715488,-0.36056513,-0.21222338,27.75,28.875,28.0,31.875,33.9375,34.8125
0.3280525,-0.71200716,0.15918142,0.3100038,-0.008298676,0.049669635,-0.17382964,-0.40700185,-0.3475778,0.060034186,-3.0658329,0.63062924,4.7757294e-05,-0.1634084,0.0028690486,0.001980496,0.05586338,-0.0076493747,-0.022054333,0.4587652,-1.3781754,1.8978065,-2.0818336,-1.5798348,2.4390116,-0.11532003,0.29612225,-0.38091972,0.115721956,-0.047918778,-0.09267144,-0.30645782,0.076614454,-9.136273,1.005978,47.70211,-0.9849776,-2.0089557,-3.5204308,-0.008274724,-0.39277983,-0.19146737,27.75,28.875,28.0,31.875,33.9375,34.8125
0.33005267,-0.8501298,-0.6261771,0.32707435,-0.021646664,0.072693355,-0.17793332,-0.40730864,-0.3475705,0.060026,-3.0656886,0.63061374,-3.866302e-06,-0.16422695,0.0026039975,0.0033493852,0.056457426,-0.0054347175,-0.019337738,0.45854944,-1.3775743,1.8970546,-2.0815694,-1.5799311,2.438806,-0.11448422,0.29548842,-0.3838432,0.117525935,-0.04946481,-0.094533086,-0.47884032,0.19153614,-9.040505,0.9030289,47.705692,-0.8770286,-1.9247458,-3.4949245,0.0028996933,-0.40719175,-0.13184702,27.75,28.875,28.0,31.875,33.9375,34.8125
0.3320518,-1.2688065,-0.95196056,0.018071907,-0.03719562,0.062309273,-0.1734665,-0.40766788,-0.34757292,0.060043834,-3.065574,0.63068837,0.00010242539,-0.1642847,0.003624534,0.0018108981,0.059983175,-0.00798365,-0.02457424,0.4583212,-1.3769611,1.896242,-2.0813653,-1.5800523,2.4386404,-0.11491481,0.29865897,-0.38455135,0.11893956,-0.051469814,-0.08970896,-0.19153613,0.28730422,-9.11712,0.9858343,47.73614,-0.9273878,-1.8207115,-3.5213459,0.008179922,-0.4165746,-0.1657751,27.75,28.875,28.0,31.875,33.9375,34.8125
0.33405182,-0.98166895,-1.5289651,-0.29538947,-0.03618655,0.050075117,-0.16650634,-0.40796584,-0.3475255,0.060000107,-3.0653124,0.6307281,-6.8429345e-06,-0.1644883,0.0034902333,0.002306744,0.06005268,-0.008793306,-0.026370376,0.45808122,-1.3763245,1.8955234,-2.0810773,-1.5802077,2.438461,-0.11492005,0.29900336,-0.38686582,0.121656746,-0.051186167,-0.08790977,-0.5363012,0.51714754,-9.251195,0.91198283,47.689575,-0.9810202,-1.7517356,-3.6315389,0.018694416,-0.41580027,-0.17568302,27.75,28.875,28.0,31.875,33.9375,34.8125
0.33605185,-1.0132228,-1.6716536,-0.28296423,-0.056489512,0.041781124,-0.1701217,-0.40830812,-0.34752095,0.060020246,-3.0651903,0.6308201,3.1001826e-05,-0.16322966,0.005305425,0.0012589875,0.06483703,-0.0135190245,-0.032520965,0.45784113,-1.3757358,1.8947228,-2.0808241,-1.580305,2.4382954,-0.115497984,0.29969358,-0.38665098,0.12714674,-0.053346038,-0.08231619,-0.4405331,0.47884035,-9.251195,0.947788,47.683304,-0.9744613,-1.6338365,-3.7202125,-0.01927539,-0.4424879,-0.19928265,27.75,28.875,28.0,31.875,33.9375,34.8125
0.33805206,-0.31237242,-1.6287313,-0.16235434,-0.05731894,0.026500374,-0.17363466,-0.40860668,-0.34750593,0.059990045,-3.0650122,0.6308208,-0.000108724584,-0.16328774,0.0062209107,0.001457405,0.06984537,-0.016320797,-0.03595637,0.45761317,-1.375098,1.8939704,-2.0805337,-1.5803903,2.4380925,-0.114991404,0.30159792,-0.3911434,0.13449277,-0.056587543,-0.07833407,-0.21068975,0.45968673,-9.212888,0.9925471,47.690468,-1.0690902,-1.6052748,-3.7802997,-0.089300215,-0.41858506,-0.28261793,27.75,28.875,28.0,31.875,33.9375,34.8125
0.34005225,-0.24044286,-1.2144603,-0.1016796,-0.04533522,0.0045609092,-0.16539653,-0.40892705,-0.3475033,0.0599626,-3.064847,0.6309775,-0.00022173897,-0.16382161,0.008420421,0.00040778093,0.07647658,-0.020403307,-0.03874017,0.45737296,-1.3744366,1.8931912,-2.0802805,-1.5804514,2.437973,-0.11652699,0.30522802,-0.39464572,0.14096607,-0.060738705,-0.07703876,-0.24899697,0.34476504,-9.270349,0.92764956,47.70838,-1.1401207,-1.7938416,-3.5878634,-0.17979452,-0.38482887,-0.3000647,27.75,28.875,28.0,31.875,33.9375,34.8125
0.34205213,0.54690826,-0.39497486,-0.12799291,-0.01733838,0.011913652,-0.17601465,-0.40928808,-0.3474579,0.05997997,-3.0645983,0.631076,-0.00012734997,-0.16396324,0.007442307,0.0001908697,0.07784063,-0.022006573,-0.036694124,0.45712155,-1.3738227,1.8923539,-2.0799687,-1.5806679,2.4378173,-0.11450219,0.3084645,-0.3988029,0.14389782,-0.061277367,-0.07704827,-0.095768064,0.38307226,-9.232041,0.9947882,47.67614,-1.0334289,-1.9037495,-3.5261443,-0.22703445,-0.36752078,-0.31285295,27.75,28.875,28.0,31.875,33.9375,34.8125
0.34405184,0.32065067,0.5765889,-0.081195205,-0.00088210916,0.008337975,-0.17265338,-0.4096154,-0.34746313,0.059994143,-3.0644944,0.6310928,-0.00011581233,-0.16671939,0.009196953,0.00068094017,0.08009507,-0.020550357,-0.040367153,0.45690438,-1.3732331,1.8915647,-2.0797164,-1.5807527,2.4376252,-0.11807641,0.3103349,-0.40265566,0.1455596,-0.06396252,-0.07691973,0.019153614,0.2873042,-9.212888,0.9455522,47.657326,-1.0682943,-2.008279,-3.4333737,-0.25322798,-0.35404956,-0.31837636,27.75,28.875,28.0,31.875,33.9375,34.8125
0.3460518,-0.11358184,0.42232618,-0.50031316,0.022643609,0.0061086747,-0.16895084,-0.4099408,-0.34742734,0.059959084,-3.0642526,0.63128847,-0.00021119558,-0.16995852,0.007790644,0.0010539801,0.07959244,-0.014447424,-0.039519522,0.45664102,-1.3725717,1.890798,-2.0794432,-1.5808738,2.4375174,-0.11686399,0.31450424,-0.40752116,0.1405432,-0.06624887,-0.076519854,-0.019153614,0.2681506,-9.174581,0.9298854,47.685097,-1.0156224,-1.9432691,-3.3557131,-0.22398327,-0.32480443,-0.3421185,27.75,28.875,28.0,31.875,33.9375,34.8125
0.34805194,-0.040673967,0.40841496,-0.24759963,0.0044698603,0.03783904,-0.17636159,-0.41028398,-0.3474232,0.059959076,-3.0640862,0.631311,-0.00019932466,-0.17095824,0.009195273,-0.0012880454,0.0823079,-0.014012543,-0.04118061,0.45642433,-1.3719214,1.889964,-2.07917,-1.5810064,2.4373379,-0.118356004,0.3180248,-0.40546107,0.13575666,-0.06890061,-0.076319575,-0.019153614,0.24899697,-9.174581,1.0104496,47.677036,-1.0177472,-2.1740975,-3.6456313,-0.19059764,-0.2837766,-0.37065697,27.75,28.875,28.0,31.875,33.9375,34.8125
0.35005176,-0.7425379,-0.69580984,-0.26262403,-0.023472745,0.058253262,-0.16491553,-0.41063532,-0.3474246,0.05996354,-3.0639286,0.6313907,-0.0002069221,-0.17270395,0.009962404,-0.0017221048,0.08312707,-0.010531327,-0.04217562,0.45619595,-1.3712603,1.8891033,-2.0788834,-1.5811156,2.4371812,-0.11959684,0.319243,-0.40512696,0.1314225,-0.07119886,-0.07653711,-0.019153614,0.19153613,-9.308657,0.947788,47.698532,-1.0094132,-2.1078012,-3.7556126,-0.11900405,-0.25611565,-0.3875239,27.75,28.875,27.9375,31.875,33.9375,34.8125
0.35205168,-1.3933972,-1.5619092,-0.46286768,-0.047018822,0.060544968,-0.1648185,-0.41095912,-0.34737498,0.059936196,-3.0636427,0.6314825,-0.0002490697,-0.17612387,0.009906138,-0.00047752762,0.08257071,-0.004305734,-0.04258463,0.4559554,-1.370611,1.8883246,-2.078574,-1.5813082,2.4370375,-0.12085329,0.32063264,-0.4090465,0.12808618,-0.07348895,-0.0773477,-0.038307227,0.17238252,-9.3661175,1.0037369,47.70211,-0.8660619,-2.0461998,-3.7283072,-0.053747192,-0.2165679,-0.41327655,27.75,28.875,27.9375,31.875,33.9375,34.8125
0.35405257,-1.0691886,-1.4755945,-0.6302638,-0.056918826,0.0590851,-0.17640881,-0.41133004,-0.34734097,0.05994192,-3.063445,0.63164705,-0.00018075443,-0.1779304,0.009693972,0.0012291141,0.08219837,-0.00038764247,-0.038458932,0.45567954,-1.369975,1.8874983,-2.0783217,-1.5814646,2.4368918,-0.12097256,0.32004064,-0.41245896,0.1283364,-0.07493762,-0.081573404,-0.095768064,0.22984336,-9.481039,0.97464454,47.67345,-0.901451,-2.0952308,-3.6744118,-0.032438956,-0.16858713,-0.3656942,27.75,28.875,27.9375,31.875,33.9375,34.8125
0.35605243,-1.3522868,-1.9209162,-0.84334487,-0.042734448,0.039438456,-0.15630686,-0.41168308,-0.34733447,0.059947845,-3.0632677,0.63176143,-0.00015246181,-0.17958088,0.009702385,0.0021253005,0.08414102,0.0015545465,-0.0372967,0.45545176,-1.3693256,1.88665,-2.078046,-1.5815977,2.4367602,-0.12062183,0.32170445,-0.41710928,0.1304069,-0.07756335,-0.0823515,-0.32561144,0.2681506,-9.5385,0.95897776,47.687782,-0.9359923,-1.9758825,-3.5943904,-0.0115531245,-0.1306189,-0.37464747,27.75,28.875,27.9375,31.875,33.9375,34.8125
0.3580525,-0.35832316,-0.83132577,-0.8288924,-0.045250136,0.056861833,-0.17735973,-0.41204813,-0.34731913,0.059946172,-3.0630987,0.6317951,-8.775803e-05,-0.17990519,0.008069955,0.00120832,0.081477344,-0.0013347755,-0.030474389,0.45521194,-1.3686637,1.8858117,-2.0778072,-1.5817517,2.436565,-0.12018406,0.3258842,-0.42029023,0.13071719,-0.07397575,-0.08876691,-0.34476504,0.24899697,-9.595961,0.92764956,47.689575,-1.0645964,-2.1016335,-3.5165682,0.01182648,-0.12477152,-0.33407968,27.75,28.875,27.9375,31.875,33.9375,34.8125
0.36005238,-0.7331933,-0.7302694,-1.2545124,-0.017561657,0.037658956,-0.16772884,-0.41239047,-0.34730503,0.059939913,-3.062939,0.63181573,-9.735327e-05,-0.1787587,0.0073412596,0.0007961819,0.080681264,-0.004279343,-0.026469206,0.45497245,-1.3680193,1.8849987,-2.0775425,-1.5818714,2.4363606,-0.11905426,0.32647702,-0.42071265,0.13277459,-0.07200538,-0.09165615,-0.21068975,0.24899697,-9.768343,0.93436235,47.68599,-1.1538925,-2.019194,-3.605724,0.014772879,-0.1342856,-0.280819,27.75,28.875,27.9375,31.875,33.9375,34.8125
0.36205247,-0.83994776,-0.6338872,-1.1762404,0.0017435157,0.030890921,-0.16189642,-0.4127411,-0.34731528,0.059933737,-3.0627778,0.6318169,-0.000116277755,-0.17743368,0.008110285,-0.00067083654,0.08364074,-0.010288071,-0.023328269,0.4547682,-1.3673214,1.8841156,-2.077253,-1.5819916,2.4361796,-0.1190947,0.32882446,-0.4214875,0.1378391,-0.07206025,-0.09483015,-0.49799395,0.34476504,-9.787497,0.99031126,47.684196,-1.0837644,-2.1037724,-3.7912974,-0.014577767,-0.12355572,-0.24243352,27.75,28.875,27.9375,31.875,33.9375,34.8125
0.36405253,-0.60501367,-0.18600127,-1.0541557,-0.021675002,0.035671372,-0.17229034,-0.4130962,-0.34727308,0.05992073,-3.0625777,0.6318285,-0.00012293774,-0.17521589,0.009368629,-0.003319461,0.08472565,-0.022654241,-0.021772077,0.4544916,-1.3666674,1.883303,-2.076975,-1.5821456,2.4359381,-0.12197113,0.3324598,-0.42181858,0.14602056,-0.06765163,-0.0993013,-0.30645782,0.22984336,-9.768343,0.9791215,47.65464,-1.1979352,-2.2102237,-3.9182587,-0.08201073,-0.12925759,-0.17923361,27.75,28.875,27.9375,31.875,33.9375,34.8125
0.3660524,-0.44787875,-0.55465525,-1.0531288,-0.010313289,0.014465328,-0.16063702,-0.41344768,-0.34724092,0.05990293,-3.0623298,0.63192606,-0.00012213514,-0.17372432,0.009962664,-0.0045870035,0.08795496,-0.031186873,-0.019616079,0.45425144,-1.365986,1.8824657,-2.0766847,-1.5823253,2.4357934,-0.1221028,0.3357776,-0.42507598,0.15498134,-0.06684354,-0.101588316,-0.1340753,0.05746084,-9.710882,0.9992599,47.65912,-1.0113931,-2.3675947,-4.0027647,-0.18293616,-0.15993804,-0.11837279,27.75,28.875,27.9375,31.875,33.9375,34.8125
0.3680525,0.45989448,-0.12975557,-0.82069933,-0.0138802035,0.0026171184,-0.16160852,-0.41381934,-0.34723827,0.059932943,-3.0621686,0.6319501,-7.259677e-05,-0.17596757,0.009963324,-0.00238748,0.08687406,-0.030798605,-0.022864537,0.45402268,-1.3653326,1.8815416,-2.0763476,-1.5824689,2.4356022,-0.12433928,0.33632064,-0.43221608,0.16073503,-0.066057354,-0.10057844,-0.1340753,-0.019153614,-9.500193,0.98807013,47.695843,-0.9981371,-2.2292774,-3.6922188,-0.25757968,-0.14910391,-0.09292522,27.75,28.875,27.9375,31.875,33.9375,34.8125
0.37005237,1.0429268,0.3757291,-0.8659194,0.0005515016,-0.021935238,-0.17233855,-0.4141786,-0.34720317,0.059915073,-3.0619574,0.63203883,-0.00015800302,-0.17786475,0.009151151,-0.0018242848,0.08472132,-0.02965994,-0.02580468,0.4537343,-1.3646398,1.8806823,-2.0760248,-1.5825886,2.4353988,-0.12526701,0.33866307,-0.43651906,0.16071667,-0.06464708,-0.098569445,-0.21068975,-0.076614454,-9.481039,0.94331104,47.72002,-0.9051229,-2.341792,-3.609307,-0.29294622,-0.1742135,-0.093079515,27.75,28.875,27.9375,31.875,33.9375,34.8125
0.37205225,0.86253405,0.3879307,-0.92289764,0.004357899,-0.021332573,-0.16716202,-0.4144973,-0.34720674,0.05990681,-3.0617754,0.63196206,-0.00021940752,-0.18061838,0.007894493,0.0004825786,0.080104254,-0.022322917,-0.029765436,0.45355412,-1.3639753,1.8798326,-2.075692,-1.5827206,2.4351962,-0.12588091,0.33717686,-0.4392369,0.156315,-0.06372241,-0.09522241,-0.11492168,-0.05746084,-9.557653,1.0104496,47.704796,-0.92620087,-2.1619415,-3.5560474,-0.27493495,-0.177701,-0.108705856,27.75,28.875,27.9375,31.875,33.9375,34.8125
0.37405208,0.37407017,-0.392166,-0.8776548,-0.012157402,0.013252152,-0.16826963,-0.4148767,-0.34719253,0.059918236,-3.0616007,0.63209873,-0.00024451246,-0.18395317,0.00716293,0.0017128566,0.07477472,-0.015136447,-0.03584334,0.45327753,-1.3632902,1.8789123,-2.0753586,-1.5828279,2.4350295,-0.12827733,0.3370426,-0.44046384,0.1488927,-0.062087823,-0.09155202,-0.19153613,-0.05746084,-9.557653,0.9768804,47.67793,-0.8902167,-1.9353321,-3.5408692,-0.22759232,-0.22558305,-0.1418906,27.75,28.875,27.9375,31.875,33.9375,34.8125
0.37605187,-0.8462224,-0.7403479,-0.771556,-0.041556206,0.0429513,-0.16390844,-0.41523823,-0.34717572,0.05992635,-3.0614223,0.6321743,-0.00023989398,-0.18523829,0.0044850064,0.002810857,0.07079802,-0.009915181,-0.03726469,0.4530265,-1.3626338,1.8780392,-2.0750492,-1.582959,2.4348507,-0.12542942,0.33778724,-0.4430632,0.1443326,-0.060793027,-0.08729019,-0.095768064,-0.11492168,-9.710882,0.9791215,47.683304,-0.95215565,-1.9505532,-3.6351068,-0.14732468,-0.2227565,-0.15459341,27.75,28.875,27.9375,31.875,33.9375,34.8125
