Tylouw/Master_Thesis_Code/training_data/batch_1/small_rod_t0.2/sample_8_session_1.csv
timestamp[s],tcp_force_x[N],tcp_force_y[N],tcp_force_z[N],tcp_force_rx[Nm?],tcp_force_ry[Nm?],tcp_force_rz[Nm?],tcp_pose_x[m],tcp_pose_y[m],tcp_pose_z[m],tcp_pose_rx[rot_vec_x],tcp_pose_ry[rot_vec_y],tcp_pose_rz[rot_vec_z],tcp_velo_x[m/s],tcp_velo_y[m/s],tcp_velo_z[m/s],tcp_velo_rx[rot_vec_x/s],tcp_velo_ry[rot_vec_y/s],tcp_velo_rz[rot_vec_z/s],q1[rad],q2[rad],q3[rad],q4[rad],q5[rad],q6[rad],qd1[rad/s],qd2[rad/s],qd3[rad/s],qd4[rad/s],qd5[rad/s],qd6[rad/s],tool_acc_x,tool_acc_y,tool_acc_z,current_of_whole_robot[A],voltage_of_whole_robot[V],current_J1[A],current_J2[A],current_J3[A],current_J4[A],current_J5[A],current_J6[A],temp_J1[C],temp_J2[C],temp_J3[C],temp_J4[C],temp_J5[C],temp_J6[C]
7.970084e-07,0.053358693,-0.61187065,1.0226581,-0.0031147695,0.005795085,-0.022017818,-0.3810552,-0.34852386,0.059961617,-3.0784912,0.62485266,-0.00018239589,0.0022715442,0.0011818578,-0.0026306384,0.0026528987,-0.005375863,6.413777e-05,0.4778101,-1.4259216,1.9577159,-2.1008208,-1.5707816,2.452752,-7.9771744e-05,0.0012471647,0.0045440323,0.00020201372,0.00012642771,-0.00014627268,0.1340753,0.1340753,-8.810662,0.7978386,47.68062,0.0892746,-2.845111,-2.4699473,-0.45193636,0.16571742,0.06573482,27.6875,28.8125,28.0,31.875,33.875,34.75
0.0020530461,-0.52824193,-1.1762565,0.7933773,0.014507364,-0.009286469,-0.015820669,-0.3810802,-0.3485297,0.059985135,-3.0785422,0.6249399,-0.00014074841,-0.00025236513,-0.00013337092,-0.0033306251,-0.0008547945,0.0013508782,6.362003e-05,0.4777741,-1.4259446,1.957692,-2.100837,-1.5707458,2.452764,-7.861053e-05,0.0039649517,0.0056407214,-0.0111988075,0.00012424593,-0.00014241452,0.11492168,0.17238252,-8.676587,0.7777002,47.69763,0.021617092,-2.8416276,-2.5128067,-0.39547828,0.1491498,0.05659359,27.6875,28.8125,28.0,31.875,33.875,34.75
0.004051705,-0.5960756,-0.7244857,0.888908,0.011015665,-0.020975798,-0.021830188,-0.38106108,-0.34852234,0.059946332,-3.0785198,0.62485874,-0.00018622585,-0.0017217458,-0.000898688,-0.002367287,-0.0027656006,0.0050255447,6.239744e-05,0.47778615,-1.4259086,1.9577507,-2.1008852,-1.5707573,2.4527283,-7.74827e-05,0.0039419914,0.0040384526,-0.013715359,0.00012213826,-0.00013875506,0.038307227,0.095768064,-8.695741,0.784413,47.704796,0.022242386,-3.1370878,-2.6907563,-0.28432325,0.15134254,0.08179322,27.6875,28.8125,28.0,31.875,33.875,34.75
0.006051851,0.1331927,-0.22196247,0.46618047,0.024964686,-0.027243452,-0.025992123,-0.38104808,-0.34852225,0.059931483,-3.0784976,0.6248924,-0.00021584347,-0.0011245414,-0.0005871788,-0.0014225884,-0.0018564067,0.0032920826,5.9535334e-05,0.47779807,-1.4258972,1.957774,-2.1008956,-1.5707573,2.452764,-7.638654e-05,0.0023897786,0.002499718,-0.008666995,0.000120100885,-0.00013527882,0.019153614,0.15322891,-8.695741,0.784413,47.696735,0.10229945,-2.9881737,-2.5446105,-0.30336124,0.16418768,0.05558078,27.6875,28.8125,28.0,31.875,33.875,34.75
0.008052593,0.6802698,0.2721168,0.10375603,0.058207657,-0.04080544,-0.020835385,-0.38104394,-0.34851798,0.05993085,-3.07849,0.62479514,-0.00020717298,-0.0007494302,-0.00039515915,-7.00965e-05,-0.0014687921,0.0025394124,5.6838988e-05,0.4778101,-1.425898,1.9577731,-2.1008813,-1.5707816,2.4527164,-7.53212e-05,0.00021753846,0.0008139106,-0.003962363,0.00012916535,-0.00013197248,0.05746084,0.11492168,-8.925584,0.7665104,47.68599,0.065516174,-2.9774427,-2.474653,-0.35100487,0.17527011,0.062683195,27.6875,28.8125,28.0,31.875,33.875,34.75
0.010052148,0.22179979,0.015075727,-0.2956203,0.05586517,-0.0412829,-0.017809149,-0.3810637,-0.34853262,0.05995128,-3.07852,0.6248394,-0.000162415,-0.00039158188,-0.00020935379,5.570345e-05,-0.0008096696,0.0012749428,5.4533284e-05,0.4778101,-1.4258981,1.9577264,-2.1008809,-1.5707697,2.4527402,-7.428505e-05,2.918556e-06,0.0002751298,-0.0017830137,0.00012917734,-0.0001288239,0.095768064,0.15322891,-9.136273,0.69041777,47.71017,-0.2556554,-2.2773438,-3.1118183,-0.39410096,0.14742035,0.015501581,27.6875,28.8125,28.0,31.875,33.875,34.75
0.012052122,-0.24477087,-0.56812555,-0.39193985,0.01539336,-0.02656698,-0.021749057,-0.38105655,-0.34851778,0.05992758,-3.0784838,0.62481314,-0.00021214692,0.0006069624,0.0003207657,-0.0047614304,0.0039355895,-0.007878715,6.6242195e-05,0.47779807,-1.4258705,1.9577492,-2.1008809,-1.5707816,2.4527164,-9.630486e-05,0.0097293975,3.6912174e-06,-0.00092752103,0.00012580864,-0.00016104063,0.076614454,0.17238252,-9.270349,0.7329411,47.668976,-0.3884142,-2.4174309,-3.3304768,-0.3718319,0.15618028,-0.020149902,27.6875,28.8125,28.0,31.875,33.875,34.75
0.014051875,-0.64758766,-1.3990595,-0.3622674,-0.022869399,0.004457196,-0.038068354,-0.3810505,-0.3484956,0.05991616,-3.0784268,0.6248224,-0.0002869524,-0.0052877245,0.00027390334,-0.0033125952,0.0025067723,-0.0051584234,-0.0019809264,0.47777197,-1.4258565,1.9577454,-2.1008203,-1.5707935,2.4527032,-0.005474373,0.016002793,-0.010784973,0.00051444396,0.00012240255,-0.0034857814,-0.019153614,0.24899697,-9.442732,0.8314132,47.703007,-0.34157473,-2.8692408,-3.118063,-0.4054004,0.14243753,-0.073552884,27.6875,28.8125,28.0,31.875,33.875,34.75
0.016051833,-1.768454,-2.590019,-0.7911465,-0.03230959,0.013586009,-0.020221207,-0.38106787,-0.34851095,0.059914697,-3.0784354,0.62482,-0.0002718374,-0.0063434555,0.0015386944,-0.002519277,0.0021980514,-0.0045568063,0.0027217218,0.4777831,-1.4258093,1.9576977,-2.1008322,-1.5707935,2.4527118,-0.008696712,0.014417747,-0.011061602,0.0016983966,0.000119161814,-0.011411112,-0.17238252,0.3256114,-9.576807,0.78888994,47.69763,-0.14638764,-2.5945563,-3.1580184,-0.39947748,0.13091806,0.009968379,27.6875,28.8125,28.0,31.875,33.875,34.75
0.018051773,-1.1099219,-1.9244472,-0.7300152,-0.059174396,0.05849772,-0.0452559,-0.38105226,-0.3485027,0.059876572,-3.0783958,0.62484866,-0.00042686373,-0.0054964754,0.0017138408,-0.003359885,0.0033438797,-0.0067615383,0.0067402865,0.4777593,-1.425749,1.9577106,-2.100808,-1.5707573,2.4527109,-0.008222487,0.015263708,-0.0103057,0.0025811093,0.000116087416,-0.014955884,-0.30645782,0.40222588,-9.80665,0.7597976,47.67614,-0.27962804,-2.4720578,-3.518705,-0.43270645,0.15256125,0.029853893,27.6875,28.8125,28.0,31.875,33.875,34.75
0.0200517,-2.295555,-2.3810692,-0.6554688,-0.052034773,0.05259185,-0.056588512,-0.38105413,-0.3484989,0.059867807,-3.0783887,0.6248665,-0.00049327675,-0.006393004,0.0012340259,-0.003190473,0.0031119813,-0.006319482,0.0070505957,0.47773537,-1.4257245,1.9576973,-2.100784,-1.5707334,2.452699,-0.00819905,0.016988384,-0.012697111,0.0027489886,0.00011316796,-0.015241306,-0.4213795,0.45968673,-9.844957,0.73069996,47.66808,-0.44043228,-2.3727772,-3.5228176,-0.4245509,0.13629517,0.045441054,27.6875,28.8125,28.0,31.875,33.875,34.75
0.022051888,-1.6591194,-2.0438135,-0.8137582,-0.039343014,0.07616593,-0.07908077,-0.38104773,-0.34849745,0.05986061,-3.0783756,0.62480694,-0.00051063846,-0.007923834,0.0012378476,-0.0032867237,0.0029384573,-0.005992018,0.0053986404,0.47774675,-1.4257116,1.9576963,-2.1007717,-1.5707458,2.4526749,-0.009623519,0.019450622,-0.015211272,0.002430176,0.0001103917,-0.015012092,-0.61291564,0.4405331,-9.787497,0.7777002,47.69763,-0.5052675,-2.4460828,-3.5164723,-0.39390308,0.14687091,0.019060303,27.6875,28.8125,28.0,31.875,33.875,34.75
0.024052283,-1.6692667,-1.7267789,-0.8234364,-0.027043061,0.07124971,-0.086260855,-0.38107836,-0.3484954,0.059844933,-3.0783558,0.624785,-0.00052842416,-0.009660154,0.0013939636,-0.0027544056,0.0021265238,-0.004431714,0.0032932789,0.4777221,-1.4256275,1.9576362,-2.1007721,-1.5707573,2.452639,-0.011506874,0.020405743,-0.017398372,0.001903114,0.00010774822,-0.014788724,-0.6895301,0.40222588,-9.959879,0.779936,47.690468,-0.5185777,-2.3631866,-3.4452121,-0.38289344,0.120326065,0.0018615837,27.6875,28.8125,28.0,31.875,33.875,34.75
0.02605222,-1.6058211,-1.240467,-0.8529747,-0.035298306,0.06479262,-0.11060794,-0.3811059,-0.34849802,0.05984252,-3.0783784,0.62477034,-0.0005506956,-0.011081523,0.0013046232,-0.0020292446,0.0012455223,-0.0027364278,0.002536677,0.47768575,-1.4255795,1.9575871,-2.1007721,-1.5707334,2.4525907,-0.0126616815,0.02087324,-0.01953499,0.0016620094,0.00010522876,-0.015185724,-0.7086837,0.3256114,-9.959879,0.7172743,47.71017,-0.5940685,-2.349112,-3.4856772,-0.3855255,0.1316537,-0.020187013,27.6875,28.8125,28.0,31.875,33.875,34.75
0.028051987,-1.9219292,-1.8690091,-0.9039288,-0.011934605,0.043278586,-0.101581,-0.38111433,-0.34848663,0.059825785,-3.0783381,0.62480175,-0.0005559656,-0.012402749,0.001722178,-0.0018719763,0.00096031703,-0.0021896786,0.0012960797,0.47767314,-1.4255431,1.9575866,-2.1007845,-1.5707573,2.4526029,-0.014625915,0.021882713,-0.021011945,0.0015123591,0.00010282408,-0.015908424,-0.8236054,0.34476504,-9.883265,0.78217715,47.672558,-0.55659276,-2.363918,-3.4904826,-0.3691514,0.13098268,-0.024953758,27.6875,28.8125,28.0,31.875,33.875,34.75
0.030052003,-1.4027758,-0.81940615,-0.6422455,-0.021046305,0.057601135,-0.12989053,-0.38115498,-0.3484808,0.05982834,-3.078331,0.6248773,-0.00054067536,-0.013406495,0.0014623131,-0.0016722472,0.00069775945,-0.0016874799,0.0013700287,0.4776251,-1.4254947,1.9575256,-2.1007845,-1.5707573,2.4526029,-0.015091021,0.023372207,-0.023196965,0.0016411266,0.00010052692,-0.01644616,-0.80445176,0.22984336,-9.710882,0.7016076,47.688675,-0.62690574,-2.3557606,-3.5022943,-0.37008327,0.11993883,-0.016633915,27.6875,28.8125,28.0,31.875,33.875,34.75
0.032052018,-1.4067955,-0.72603524,-0.40141204,0.0052126586,0.05769251,-0.13832375,-0.38117918,-0.34849307,0.059828307,-3.0783486,0.6247862,-0.0005427526,-0.014840312,0.0015906354,-0.001230281,0.00040450858,-0.0011233578,-0.001380496,0.4776245,-1.4254345,1.9574541,-2.1007717,-1.5707573,2.4525433,-0.016644996,0.02463404,-0.025809987,0.0023567178,9.83302e-05,-0.0152482325,-0.6703765,0.095768064,-9.710882,0.8314132,47.71286,-0.57350636,-2.292243,-3.392217,-0.35382563,0.12603009,-0.02527447,27.6875,28.8125,28.0,31.875,33.875,34.75
0.034052372,-1.3524202,-0.14987653,-0.48459113,0.02571979,0.04986127,-0.14507143,-0.38122517,-0.34850752,0.059838433,-3.0784001,0.6248739,-0.0005305404,-0.01527488,0.0011952798,-0.0014045783,0.0006364174,-0.0015707228,-0.0017982502,0.47757658,-1.4253858,1.9573811,-2.100796,-1.5707096,2.4525435,-0.016342023,0.026484119,-0.027630188,0.002831564,9.622746e-05,-0.014526381,-0.59376204,-0.076614454,-9.749189,0.80456203,47.71286,-0.62824047,-2.2926302,-3.453969,-0.35269466,0.1202001,-0.072285935,27.6875,28.8125,28.0,31.875,33.875,34.75
0.036052167,-1.4783378,0.08233244,-0.5214851,0.05047177,0.034797024,-0.15898614,-0.38126943,-0.3484946,0.059850145,-3.0784013,0.62481636,-0.0004911438,-0.016655682,0.0011531622,-0.00072882045,-6.244659e-05,-0.00022527362,-0.003231994,0.47752813,-1.4253498,1.9573077,-2.1007717,-1.5707334,2.452459,-0.017541913,0.027106058,-0.02991902,0.002982028,9.4212795e-05,-0.0142913,-0.4213795,-0.095768064,-9.595961,0.7777002,47.711063,-0.59087884,-2.2952762,-3.4191694,-0.34823796,0.11064258,-0.079496965,27.6875,28.8125,28.0,31.875,33.875,34.75
0.03805214,-1.0979071,-0.24955575,-0.5047858,0.06465489,0.03523148,-0.1661931,-0.38129738,-0.34850442,0.059847612,-3.0783994,0.6248161,-0.00046406692,-0.018507333,0.0008257969,0.00032337185,-0.0012517106,0.0020615226,-0.003956619,0.47752774,-1.4252895,1.9572476,-2.100784,-1.5707458,2.4524589,-0.018671757,0.027847081,-0.033150658,0.0028948584,9.228073e-05,-0.014694752,-0.2681506,-0.076614454,-9.557653,0.7620334,47.67793,-0.55871665,-2.2827616,-3.301218,-0.33214816,0.12756634,-0.08167787,27.6875,28.8125,28.0,31.875,33.875,34.75
0.040052056,-0.9915469,-0.15116371,-0.5333138,0.051796958,0.020616509,-0.17687112,-0.38135728,-0.34851062,0.059843786,-3.0784247,0.62486047,-0.00046001395,-0.019345393,0.0008682424,9.160624e-05,-0.0011538774,0.0018700475,-0.004603487,0.4774675,-1.4251931,1.9571518,-2.100808,-1.5707215,2.452423,-0.019518733,0.02960864,-0.034613263,0.002811272,9.042629e-05,-0.014893827,-0.3256114,0.0,-9.481039,0.73741806,47.661808,-0.54536563,-2.2724657,-3.3896918,-0.3023877,0.116478965,-0.09723507,27.6875,28.8125,28.0,31.875,33.875,34.75
0.042052023,-0.8713499,-0.8569525,-0.5053402,0.043264676,0.0133285215,-0.17613749,-0.38138843,-0.34847727,0.059832424,-3.0783546,0.6249616,-0.0004942011,-0.02050189,0.0006742115,0.00067341374,-0.0015869631,0.0027341566,-0.004738414,0.47739518,-1.425145,1.9571146,-2.1007712,-1.5707458,2.4524229,-0.020230724,0.030532034,-0.037143078,0.003450832,7.32403e-05,-0.01546957,-0.19153613,-0.019153614,-9.500193,0.7642693,47.67345,-0.5568571,-2.2653039,-3.3000555,-0.29655707,0.10348997,-0.10867389,27.6875,28.8125,28.0,31.875,33.875,34.75
0.0440522,-0.34207824,-0.784734,-0.5855159,0.021368109,0.017741669,-0.18929327,-0.38142323,-0.34848645,0.059851747,-3.0783653,0.6249644,-0.00041301196,-0.021155711,0.0010324726,0.0007700504,-0.0011816362,0.0019598987,-0.005706551,0.47739476,-1.4251207,1.9570426,-2.1007707,-1.5707697,2.4524229,-0.021469098,0.031463355,-0.038787406,0.005037367,6.969783e-05,-0.015739137,-0.21068975,0.05746084,-9.576807,0.842603,47.705692,-0.53858143,-2.203741,-3.366582,-0.29976287,0.08246556,-0.12353495,27.6875,28.8125,28.0,31.875,33.875,34.75
0.046052154,-0.34843734,-0.8538268,-0.5313766,0.010370735,0.010783813,-0.20456378,-0.38146165,-0.34848386,0.059855126,-3.078375,0.6249279,-0.00043983557,-0.021694047,0.0011957317,0.00083101756,-0.00060729915,0.0008522034,-0.005779685,0.4773465,-1.4250603,1.9569577,-2.1007345,-1.5707573,2.4523506,-0.022254307,0.03276318,-0.04087367,0.007071642,6.823784e-05,-0.016450362,-0.15322891,0.076614454,-9.500193,0.78888994,47.704796,-0.5362377,-2.2152572,-3.3358064,-0.31034222,0.09578686,-0.13658506,27.6875,28.8125,28.0,31.875,33.875,34.75
0.04805206,-0.5516409,-1.0232519,-0.51165116,0.00011050333,0.009662876,-0.1926888,-0.3815249,-0.34848484,0.0598627,-3.078401,0.6250091,-0.00041930575,-0.022646228,0.0011712847,0.0015911474,-0.0010743873,0.001754048,-0.0057377624,0.47727427,-1.4249883,1.9568609,-2.100746,-1.5707334,2.4523258,-0.02308576,0.032825503,-0.042899948,0.008020265,6.6959554e-05,-0.017322896,-0.05746084,0.15322891,-9.500193,0.73069996,47.68599,-0.58545804,-2.1450472,-3.330419,-0.31335548,0.10548954,-0.1277448,27.6875,28.8125,28.0,31.875,33.875,34.75
0.05005246,-0.18427604,-1.3516105,-0.42451018,-0.007145178,0.018016454,-0.1957262,-0.38156924,-0.34848973,0.05987591,-3.0783947,0.62502724,-0.0003936712,-0.023351843,0.0013114319,0.0012947095,-0.0007713443,0.0011831819,-0.005926994,0.47724992,-1.4249278,1.9567536,-2.1007102,-1.5707458,2.4523137,-0.023979476,0.034552086,-0.044256188,0.008295922,5.7647576e-05,-0.018026464,-0.05746084,0.2681506,-9.519346,0.7597976,47.7254,-0.5348338,-2.1543703,-3.3392391,-0.32417867,0.094761446,-0.15242507,27.6875,28.8125,28.0,31.875,33.875,34.75
0.05205243,-0.36440042,-1.6745538,-0.56419736,-0.010346205,0.010407434,-0.17748646,-0.38162652,-0.3484836,0.059892535,-3.0783985,0.6250283,-0.00032668147,-0.024496188,0.001296191,0.00089438417,-0.0005398765,0.00074442325,-0.005808786,0.47720152,-1.4248791,1.9566573,-2.1006982,-1.5707697,2.4522655,-0.025002394,0.03729715,-0.04646441,0.00825455,4.8962906e-05,-0.019166019,-0.038307227,0.38307226,-9.5385,0.73069996,47.677036,-0.53553635,-2.1777134,-3.3032348,-0.31088382,0.07737644,-0.18019488,27.6875,28.8125,27.9375,31.875,33.875,34.75
0.05405188,-0.4528475,-2.191695,-0.57441944,-0.01248154,0.006377207,-0.17781669,-0.38164705,-0.3484628,0.059856027,-3.0783226,0.6250512,-0.00043314224,-0.025344009,0.0013938682,0.0013618675,-0.00064677437,0.0009455826,-0.005424418,0.47715324,-1.4247711,1.9566091,-2.1006615,-1.5707816,2.4522412,-0.025956942,0.037831366,-0.048417196,0.009444876,4.760067e-05,-0.020504115,0.0,0.4213795,-9.481039,0.77545905,47.72629,-0.5345565,-2.0837786,-3.3803992,-0.31565034,0.086703256,-0.18698369,27.6875,28.75,27.9375,31.875,33.875,34.75
0.05605188,-0.48237118,-1.9571136,-0.6285751,-0.036529727,0.006867867,-0.18056685,-0.38169998,-0.34847668,0.05987444,-3.078342,0.6250347,-0.0004033133,-0.026267273,0.0015482702,0.0020607552,-0.0010118954,0.0018778514,-0.0050334213,0.47712895,-1.4246993,1.956477,-2.1006258,-1.5707816,2.4522042,-0.027012074,0.0376819,-0.05001778,0.010199233,-5.8046007e-05,-0.021949412,-0.019153614,0.45968673,-9.5385,0.78217715,47.72629,-0.5284748,-2.0045676,-3.300084,-0.32853884,0.08964867,-0.1838271,27.6875,28.75,27.9375,31.875,33.875,34.75
0.058051817,-0.75886434,-2.1450543,-0.40390107,-0.031393386,-0.007428799,-0.17314889,-0.38177696,-0.34847146,0.05989576,-3.0783827,0.62508047,-0.0003692219,-0.027001316,0.0015292811,0.0013833572,-0.00037734158,0.000670478,-0.0042668986,0.47703278,-1.4246383,1.9563559,-2.1006134,-1.5707573,2.4521315,-0.02764347,0.040610947,-0.051881116,0.010497822,-7.006805e-05,-0.023345971,-0.019153614,0.47884035,-9.519346,0.78888994,47.696735,-0.5424198,-2.0135539,-3.3529923,-0.32825255,0.07482476,-0.19125356,27.6875,28.75,27.9375,31.875,33.875,34.75
0.06005176,-0.5313372,-2.1082587,-0.5354858,-0.025681635,0.0003705843,-0.1712333,-0.38182417,-0.34846887,0.05989363,-3.078357,0.6251717,-0.00038333476,-0.02949584,0.0006685292,0.0028050435,-0.0019792763,0.003740401,-0.0032573394,0.47698447,-1.424554,1.9562591,-2.1005895,-1.5707573,2.4521434,-0.028416863,0.04225382,-0.057013836,0.01052466,-6.834097e-05,-0.025126098,-0.038307227,0.4405331,-9.442732,0.7933669,47.690468,-0.5852723,-2.0742507,-3.2124627,-0.33513856,0.06395941,-0.21582326,27.6875,28.75,27.9375,31.875,33.875,34.75
0.062052585,-0.7996818,-1.6966829,-0.41457325,-0.022661705,0.0051455544,-0.17097461,-0.38188308,-0.34849003,0.05990264,-3.07841,0.6250662,-0.00035258484,-0.028859802,0.0014682682,0.00039533194,0.00015295873,-0.0003180416,-0.003065093,0.47696015,-1.424457,1.956128,-2.10059,-1.5707458,2.4520466,-0.029229084,0.04574371,-0.055367384,0.009972939,-9.6618554e-05,-0.026130687,0.019153614,0.40222588,-9.442732,0.8090337,47.690468,-0.5650556,-2.173541,-3.3570023,-0.31427613,0.070687965,-0.22319886,27.6875,28.75,27.9375,31.875,33.875,34.75
0.06405175,-0.71302164,-1.596802,-0.33589655,-0.008976584,0.010889436,-0.17537288,-0.38192776,-0.34848827,0.05989857,-3.078425,0.62508893,-0.00037614073,-0.030046526,0.0011925752,0.0009535236,-0.00026732805,0.000481991,-0.0026700934,0.47689995,-1.4243846,1.9560546,-2.1005895,-1.5707215,2.4519987,-0.029832223,0.046906967,-0.058132466,0.010671588,-9.521794e-05,-0.0271274,-0.019153614,0.38307226,-9.423578,0.74413085,47.66091,-0.5711046,-2.1816216,-3.3645725,-0.32211924,0.05775328,-0.23010553,27.6875,28.75,27.9375,31.875,33.875,34.75
0.06605224,-0.6724831,-1.1161944,-0.069394544,-0.0064872256,0.009876195,-0.16964208,-0.38201034,-0.34847087,0.05991833,-3.0784132,0.6251239,-0.00029599827,-0.032158487,0.00020419387,0.0033592342,-0.002561629,0.0048991647,-0.0016309001,0.47681597,-1.4243131,1.9559225,-2.1005657,-1.5707573,2.4519382,-0.030020459,0.04596096,-0.06266723,0.011173724,-9.210069e-05,-0.028352818,-0.076614454,0.3256114,-9.308657,0.82694155,47.72002,-0.64878637,-2.0513456,-3.2830973,-0.3110248,0.0641576,-0.22995146,27.6875,28.75,27.9375,31.875,33.875,34.75
0.06805198,-0.54665434,-1.079823,-0.14738019,0.0051428066,0.014724521,-0.17569965,-0.38208756,-0.3484746,0.05992487,-3.0784326,0.6252231,-0.00025004207,-0.03296085,2.77892e-05,0.0025904006,-0.0021219149,0.0040332032,-0.00017145436,0.47674382,-1.4242162,1.9558023,-2.1005895,-1.5707458,2.4519255,-0.030444015,0.049129076,-0.064431615,0.010741225,-8.9070694e-05,-0.030234365,-0.11492168,0.28730422,-9.308657,0.7777002,47.683304,-0.6837818,-2.089432,-3.0549865,-0.31826335,0.05218915,-0.23989329,27.6875,28.75,27.9375,31.875,33.875,34.75
0.070051916,-0.528839,-1.172805,-0.178091,0.012872766,0.023112515,-0.1736778,-0.3821293,-0.348476,0.05991483,-3.0784066,0.6251583,-0.00032548144,-0.032496713,0.0004777143,0.0011016012,-0.0005457387,0.0010287794,0.0012698814,0.47670767,-1.4240955,1.9556712,-2.1005175,-1.5707458,2.4518523,-0.030797852,0.05155915,-0.0639092,0.011181272,-0.00011116477,-0.03202947,-0.11492168,0.30645782,-9.32781,0.779936,47.71286,-0.6231917,-2.1478386,-3.3086514,-0.30767936,0.045279335,-0.26378608,27.6875,28.75,27.9375,31.875,33.875,34.75
0.07205173,-0.95398676,-0.6286716,0.17883626,-0.004971295,0.017642304,-0.17380422,-0.38220832,-0.34847912,0.05993517,-3.0784357,0.62512535,-0.0002542744,-0.034016352,-0.00024997024,0.0018516093,-0.0013692635,0.0026103554,0.002303376,0.47664768,-1.4240112,1.9555258,-2.1005056,-1.5707573,2.4517682,-0.03090164,0.05321269,-0.06756351,0.011398374,-0.00011116201,-0.033164714,-0.1340753,0.15322891,-9.32781,0.7777002,47.70211,-0.74380255,-2.1764145,-3.1225622,-0.29909134,0.05033388,-0.25230432,27.6875,28.75,27.9375,31.875,33.875,34.75
0.07405191,-1.3801658,-1.1880912,-0.052622315,0.013285721,0.009955526,-0.16538747,-0.38227123,-0.34849152,0.059941918,-3.0784624,0.6250341,-0.0002394738,-0.034982525,-0.0006303094,0.0020593095,-0.0018945797,0.003653372,0.0032238998,0.47661158,-1.4239029,1.9553813,-2.1004817,-1.5707573,2.4516718,-0.03110171,0.05446703,-0.06932487,0.010737513,-0.00012805656,-0.034284078,-0.21068975,0.095768064,-9.32781,0.79560274,47.655537,-0.7555864,-2.108884,-3.1603947,-0.30355167,0.039738912,-0.24234971,27.6875,28.75,27.9375,31.875,33.875,34.75
0.076052554,-1.1530683,-0.9348343,0.081678346,0.013592503,0.021350496,-0.16933441,-0.38235968,-0.34848756,0.059942782,-3.0784485,0.6251848,-0.000237063,-0.036053143,-0.0009552058,0.0024219605,-0.0024607854,0.004746028,0.0037146383,0.4765155,-1.4237708,1.9552258,-2.1004698,-1.5707458,2.4516716,-0.031501163,0.055575635,-0.07135574,0.01042941,-0.00013068606,-0.03517303,-0.22984336,0.095768064,-9.193734,0.7396539,47.694946,-0.8062713,-2.0784142,-3.090311,-0.29971573,0.03380994,-0.27051577,27.6875,28.75,27.9375,31.875,33.875,34.75
0.07805256,-0.6968239,-0.76207536,0.194909,0.018122202,0.037844643,-0.174928,-0.3824177,-0.34848383,0.05994384,-3.0784533,0.6251269,-0.00025094155,-0.037281837,-0.0013662237,0.0026627555,-0.0027771671,0.0056115715,0.0045027686,0.47645533,-1.4236743,1.9551052,-2.1004345,-1.5707458,2.4515748,-0.031819742,0.057442065,-0.07401417,0.010307456,-0.00025293932,-0.03627788,-0.3256114,0.17238252,-9.212888,0.7978386,47.647476,-0.82148015,-2.0951252,-3.0945754,-0.29356802,0.029389787,-0.29299015,27.6875,28.75,27.9375,31.875,33.875,34.75
0.08005187,-0.4651079,-0.5933044,0.34814164,0.021978278,0.03669866,-0.17952383,-0.38247955,-0.34850025,0.059931576,-3.078459,0.6250704,-0.00029367232,-0.037849907,-0.0013165534,0.0024798291,-0.0024143283,0.005112551,0.00429747,0.47641927,-1.4235181,1.9549493,-2.1004102,-1.5707334,2.4515028,-0.032364078,0.058924247,-0.07541871,0.010840423,-0.00034911174,-0.036615923,-0.2681506,0.1340753,-9.174581,0.7083204,47.655537,-0.8898777,-2.118967,-3.0660386,-0.29291135,0.014086641,-0.31308085,27.6875,28.75,27.9375,31.875,33.875,34.75
0.08205235,-0.46343124,-0.23095366,0.12908368,0.010351931,0.031525996,-0.18017183,-0.38257158,-0.34849194,0.059961427,-3.0784857,0.62503624,-0.00019688711,-0.038605254,-0.001436813,0.0023223967,-0.0021616658,0.0047154985,0.006162291,0.4763351,-1.4234456,1.9547929,-2.1003864,-1.5707573,2.451394,-0.03280973,0.06086036,-0.07738694,0.011340168,-0.00039265445,-0.038925156,-0.24899697,0.15322891,-9.136273,0.80456203,47.655537,-0.95676625,-2.1167874,-3.0910869,-0.28987387,0.016879711,-0.29643157,27.6875,28.75,27.9375,31.875,33.875,34.75
0.084051736,-0.5030469,-0.39284626,0.16550931,0.0078120427,0.033400312,-0.17160429,-0.38266137,-0.3485001,0.059982862,-3.0785203,0.6250434,-9.754028e-05,-0.03990799,-0.0017168976,0.0029571648,-0.0029093719,0.0062265988,0.0069264197,0.47627485,-1.4233496,1.9546369,-2.1003978,-1.5707697,2.451334,-0.033484094,0.061680447,-0.07974466,0.0111914575,-0.00042359118,-0.0403623,-0.24899697,0.17238252,-9.212888,0.7172743,47.67793,-1.0145828,-1.9859052,-3.0647578,-0.29797384,0.008632733,-0.27608895,27.6875,28.75,27.9375,31.875,33.875,34.75
0.086051725,-1.0339404,-1.0508789,-0.08516014,0.012653247,0.027922304,-0.16783643,-0.38273326,-0.3485013,0.059966527,-3.0784879,0.62509435,-0.00017172097,-0.040041585,-0.0013763576,0.0010004917,-0.0007309804,0.0020658206,0.0052191205,0.4762026,-1.4231796,1.9544691,-2.1003497,-1.5707573,2.4512978,-0.034186307,0.06663764,-0.08122473,0.0124115385,-0.00045394443,-0.039355874,-0.2873042,0.17238252,-9.251195,0.7083204,47.684196,-0.9932654,-2.2838972,-3.058238,-0.3028254,0.0049146004,-0.33223855,27.6875,28.75,27.9375,31.875,33.875,34.75
0.088051945,-1.1345162,-1.0390283,0.00089220854,-0.0042081815,0.025354834,-0.16896686,-0.38279587,-0.34848866,0.059946217,-3.0784538,0.62499154,-0.00024632507,-0.04103802,-0.0016240336,0.0028748328,-0.002334434,0.0055625304,0.005212243,0.4761305,-1.4230244,1.9543246,-2.1002896,-1.5707697,2.451166,-0.034535956,0.064074256,-0.08261364,0.012521217,-0.00063701434,-0.039698042,-0.3256114,0.19153613,-9.251195,0.7284641,47.650166,-1.0222048,-2.0145283,-3.0412219,-0.3145088,0.003981513,-0.37387276,27.6875,28.75,27.9375,31.875,33.875,34.75
0.09005249,-1.4131697,-1.252494,-0.034344003,-0.007447243,0.021480067,-0.16777717,-0.38291788,-0.34847784,0.059975512,-3.0784624,0.6250684,-0.00011043526,-0.041372012,-0.0014854649,0.0019216726,-0.0012321923,0.003766856,0.007326458,0.4760224,-1.4229153,1.9541329,-2.100289,-1.5708059,2.4511049,-0.03497648,0.06690516,-0.08377357,0.012949957,-0.0007920921,-0.042251635,-0.28730422,0.2681506,-9.270349,0.7620334,47.677036,-1.055689,-2.1380115,-3.07254,-0.3004431,0.0002369844,-0.3520972,27.6875,28.75,27.9375,31.875,33.875,34.75
0.09205237,-0.6273969,-1.1347471,-0.16999564,-0.012146774,0.04109001,-0.17799288,-0.3829692,-0.34848356,0.059961997,-3.0784676,0.6250298,-0.00020557476,-0.042117324,-0.0014074647,0.00053589954,-5.0344366e-05,0.0013785086,0.008967193,0.475962,-1.4227818,1.9540004,-2.1002414,-1.5707701,2.4510198,-0.035820674,0.071356915,-0.08574522,0.013135196,-0.00075464894,-0.04473496,-0.21068975,0.24899697,-9.32781,0.7866488,47.684196,-1.062212,-2.1874936,-3.0875597,-0.30098885,0.0024818014,-0.33226156,27.6875,28.75,27.9375,31.875,33.875,34.75
0.09405256,-1.2059993,-1.0521374,-0.2275341,-0.011279912,0.015398429,-0.16745913,-0.3830661,-0.34849805,0.0599797,-3.0785124,0.6249029,-0.00010995759,-0.042649485,-0.0013231172,0.0015145916,-0.0009871919,0.0032300008,0.011389136,0.47591394,-1.4226502,1.9538096,-2.1002414,-1.570794,2.450887,-0.036439493,0.069659695,-0.08602808,0.0130387135,-0.0007690272,-0.047775872,-0.1340753,0.22984336,-9.3661175,0.8157518,47.681515,-1.1460533,-2.1268332,-3.2125075,-0.2897481,-0.020265933,-0.31596318,27.6875,28.75,27.9375,31.875,33.875,34.75
0.096052624,-0.5228607,-1.0406992,-0.22579277,-0.008377731,0.026585614,-0.17370395,-0.38315886,-0.34850046,0.05997758,-3.0785115,0.6250001,-0.00013477035,-0.04449753,-0.0013774425,0.0012867192,-0.00091238593,0.0031173353,0.0092244735,0.47581732,-1.4224926,1.9536289,-2.1002176,-1.5707701,2.4508512,-0.038018435,0.07321415,-0.08961949,0.013211349,-0.0007908372,-0.047187816,-0.17238252,0.21068975,-9.404425,0.83813137,47.71554,-1.1426272,-2.1698601,-3.0744352,-0.28163415,-0.035265587,-0.3488747,27.6875,28.75,27.9375,31.875,33.875,34.75
0.098051846,-0.7724947,-1.2662501,-0.30456895,-0.00010828559,0.011582097,-0.17367527,-0.3832102,-0.34850433,0.05995305,-3.0785062,0.6248825,-0.00022231448,-0.044491842,-0.00044119282,-0.00013629935,0.00048469225,0.0011808458,0.009847242,0.47576883,-1.422336,1.9534978,-2.1001818,-1.5707577,2.45073,-0.039436184,0.075046785,-0.08829364,0.012415746,-0.0011481477,-0.049227893,-0.095768064,0.21068975,-9.442732,0.7777002,47.653748,-1.0763704,-2.229104,-3.2731767,-0.2792348,-0.023738675,-0.3709967,27.6875,28.75,27.9375,31.875,33.875,34.75
0.10005177,-0.65692973,-1.1860504,-0.16219379,-0.0017533251,0.0116840005,-0.16864216,-0.38330093,-0.34850168,0.059945494,-3.0784848,0.6248572,-0.000212318,-0.047209892,-0.0009624805,0.0011391015,8.733622e-05,0.004298296,0.0123355705,0.47569665,-1.4221672,1.9533166,-2.100158,-1.5707825,2.450645,-0.040296655,0.077241965,-0.09381351,0.012789217,-0.0022351665,-0.052571744,-0.038307227,0.22984336,-9.442732,0.79560274,47.66091,-1.0925595,-2.2531538,-3.2025483,-0.26968583,-0.01893787,-0.31990188,27.6875,28.75,27.9375,31.875,33.875,34.75
0.10205229,-0.4903364,-0.97105056,-0.2536346,-0.005019109,0.010370034,-0.17481206,-0.3834196,-0.34849817,0.059956577,-3.0785046,0.6247817,-0.00017467097,-0.045899455,-0.00071054045,-0.0003895521,0.00187796,0.0012759734,0.016244108,0.47558898,-1.4219984,1.9530901,-2.1001217,-1.5707945,2.4504879,-0.039392482,0.078710176,-0.09208173,0.013095362,-0.0024381776,-0.055576514,-0.038307227,0.28730422,-9.442732,0.8493211,47.67614,-1.267404,-2.2013404,-3.2717535,-0.24433823,-0.026727568,-0.28388622,27.6875,28.75,27.9375,31.875,33.875,34.75
0.10405172,-0.44416338,-0.99700797,-0.18245003,-0.0022032883,0.009445884,-0.17232317,-0.38350916,-0.3485053,0.05996973,-3.078538,0.6247503,-0.00018361158,-0.047885403,4.1680076e-05,0.00033414215,0.0012665264,0.0024089802,0.015785675,0.47550377,-1.421866,1.9528979,-2.100074,-1.5707706,2.450379,-0.0425517,0.07921274,-0.094451256,0.013675733,-0.0024170822,-0.058276244,0.0,0.22984336,-9.404425,0.8247004,47.723602,-1.189518,-2.1485367,-3.3226979,-0.25859317,-0.024214055,-0.28291494,27.6875,28.75,27.9375,31.875,33.875,34.75
0.10605211,-0.38328922,-1.1142666,-0.1188639,-0.007834535,0.003354455,-0.16859357,-0.3836253,-0.34852058,0.059986975,-3.0785882,0.6246827,-8.5772626e-05,-0.04823617,0.00014921757,-4.1661417e-05,0.0012534924,0.0015676107,0.017603697,0.47543153,-1.4217097,1.9526824,-2.100086,-1.5707821,2.4502583,-0.04330907,0.08047776,-0.095072925,0.013771773,-0.0020177849,-0.060852014,-0.038307227,0.21068975,-9.308657,0.79560274,47.70032,-1.1597081,-2.1702352,-3.369354,-0.2605585,-0.026074588,-0.26187992,27.6875,28.75,27.9375,31.875,33.875,34.75
0.108052,-0.3280657,-1.0160348,-0.3907699,-0.0076661254,0.0071624736,-0.16952546,-0.3837277,-0.3485324,0.05999666,-3.0786176,0.6246502,-4.325509e-05,-0.04987415,0.001085333,-0.000119373704,0.0011603051,0.0009719166,0.017058283,0.4753584,-1.421553,1.9524783,-2.1000736,-1.5707821,2.4501612,-0.046688817,0.08211488,-0.096943215,0.014490047,-0.0016629836,-0.063685976,-0.11492168,0.17238252,-9.442732,0.784413,47.704796,-1.0561327,-2.0624874,-3.4461708,-0.25831926,-0.026455615,-0.20782988,27.6875,28.75,27.9375,31.875,33.875,34.75
0.110051975,-0.32247505,-0.8506589,-0.23672274,-0.0017574363,0.01358175,-0.17887428,-0.38380542,-0.34851635,0.05997739,-3.0786052,0.6246061,-0.0001150503,-0.04927646,0.00060133956,-0.0006429864,0.0012317128,-1.2843017e-05,0.0209014,0.47525075,-1.4213965,1.9523352,-2.1000383,-1.5707701,2.4500277,-0.04551751,0.08298119,-0.09670611,0.014293719,-0.0012795043,-0.06635833,-0.15322891,0.095768064,-9.385271,0.78888994,47.68062,-1.1289275,-2.0935197,-3.4835224,-0.2213799,-0.0550808,-0.15329316,27.6875,28.75,27.9375,31.875,33.875,34.75
0.11205189,-0.39162827,-0.77654004,-0.17085354,0.0068667894,0.026647223,-0.17547059,-0.38391492,-0.3485257,0.059981365,-3.0786202,0.62453145,-0.0001163719,-0.050877094,-0.00015345206,0.0004220697,0.0003103233,0.0016622397,0.02310443,0.47516674,-1.4212036,1.9520944,-2.0999897,-1.5707701,2.4498954,-0.045663442,0.08432513,-0.100906365,0.015238392,-0.0012340181,-0.06870528,-0.1340753,0.1340753,-9.423578,0.80456203,47.672558,-1.224974,-2.1395347,-3.3326943,-0.22148386,-0.0680596,-0.12780601,27.6875,28.75,27.9375,31.875,33.875,34.75
0.11405229,-0.37347674,0.010802526,-0.22811653,-0.0037351684,0.034285028,-0.17730002,-0.38403815,-0.34852624,0.05999583,-3.078642,0.62440145,-6.657316e-05,-0.051047977,0.0012687264,-0.00067558885,0.0016662736,-0.00031865775,0.021375265,0.47506994,-1.4210232,1.9518441,-2.0999415,-1.570794,2.449715,-0.048131887,0.08530328,-0.099541105,0.0152759645,-0.0015292454,-0.06944466,-0.17238252,0.17238252,-9.346964,0.82022345,47.68599,-1.2011104,-2.0082898,-3.5926948,-0.22581479,-0.06531155,-0.10948365,27.6875,28.75,27.9375,31.875,33.875,34.75
0.116052166,-0.31767315,-0.38307187,-0.1590013,0.0016598442,0.041315697,-0.17918696,-0.38412315,-0.34849784,0.059964806,-3.0786078,0.6243765,-0.00011264712,-0.05401506,0.00091043103,0.0010203552,0.00027067613,0.0029647576,0.019174045,0.47494927,-1.4208548,1.951722,-2.099941,-1.5708059,2.449583,-0.050025634,0.086628705,-0.10509903,0.015950346,-0.0018033382,-0.06913384,-0.22984336,0.19153613,-9.385271,0.800085,47.691364,-1.0735731,-1.956276,-3.421556,-0.2238703,-0.06818582,-0.09038656,27.6875,28.75,27.9375,31.875,33.875,34.75
0.11805215,-0.5693559,-0.5921936,-0.17880498,0.0067057637,0.032890618,-0.17377889,-0.38423544,-0.34852397,0.059995387,-3.0786695,0.62431103,-7.912327e-05,-0.054115742,0.001262156,8.629564e-05,0.002132664,0.001533054,0.019765228,0.47487742,-1.4206977,1.9514588,-2.0998814,-1.5707825,2.4494627,-0.050079864,0.088890366,-0.10566489,0.016384238,-0.002801653,-0.06977714,-0.34476504,0.17238252,-9.404425,0.73741806,47.678825,-1.1269014,-2.1320117,-3.50824,-0.20568228,-0.064386815,-0.048101164,27.6875,28.75,27.9375,31.875,33.875,34.75
0.120052144,-1.2096034,-1.0973319,-0.35604352,0.013957948,0.024987973,-0.16500211,-0.3843275,-0.34851766,0.059988916,-3.078639,0.6242126,-8.691447e-05,-0.05628606,0.0009970344,0.0021404661,0.00037033428,0.0055351816,0.014273102,0.47480485,-1.4205179,1.9512542,-2.0998218,-1.5708183,2.4493327,-0.051409118,0.087810256,-0.10918931,0.016622854,-0.0030723657,-0.06561222,-0.4213795,0.19153613,-9.442732,0.81351066,47.64479,-1.1828865,-1.9492033,-3.4155345,-0.203863,-0.06567494,-0.0683999,27.6875,28.75,27.9375,31.875,33.875,34.75
0.1220522,-0.63328797,-0.6331511,-0.20840405,0.0036516483,0.048636798,-0.17936516,-0.38445562,-0.34852043,0.059999466,-3.0786986,0.62414783,-2.9108485e-05,-0.056760527,0.0012314273,0.00042622696,0.0020350278,0.0023643875,0.012419447,0.47468463,-1.420348,1.9510382,-2.0998328,-1.5708064,2.4491646,-0.05222101,0.09254186,-0.11081308,0.017096885,-0.0031016788,-0.06456915,-0.45968673,0.19153613,-9.404425,0.8493211,47.694946,-1.1693499,-1.9853178,-3.4171066,-0.20424607,-0.06776255,-0.11118871,27.6875,28.75,27.9375,31.875,33.875,34.75
0.12405247,-1.4413307,-1.0256768,-0.4064037,0.004670133,0.040615298,-0.16835597,-0.38456988,-0.3485252,0.059993446,-3.0786693,0.62418026,-7.375102e-05,-0.058103442,0.0012392298,0.002385969,0.0005648558,0.0057712714,0.012084929,0.47458827,-1.4201208,1.9507755,-2.0997612,-1.5708064,2.4490924,-0.05327919,0.09016708,-0.11272151,0.017678434,-0.0033559974,-0.06529187,-0.30645782,0.11492168,-9.423578,0.800085,47.677036,-1.1929934,-1.8668089,-3.4567633,-0.187545,-0.08637336,-0.10172555,27.6875,28.75,27.9375,31.875,33.875,34.75
0.12605242,-1.5149841,-0.76970637,-0.3968453,-0.009442597,0.055582725,-0.16640432,-0.38469562,-0.34850183,0.06000666,-3.0786865,0.62416726,-4.5662237e-05,-0.058732335,0.0015695619,0.001970967,0.0018383625,0.004846463,0.0065832394,0.47443202,-1.4199759,1.950571,-2.0997245,-1.5708069,2.448926,-0.053958762,0.09221428,-0.114356324,0.018673517,-0.0040644235,-0.06046773,-0.4213795,0.21068975,-9.557653,0.7978386,47.690468,-1.2349424,-1.8491617,-3.4257526,-0.19784397,-0.07051647,-0.11682995,27.6875,28.75,27.9375,31.875,33.875,34.75
0.12805219,-2.0157092,-1.1443278,-0.46420237,-0.0027516147,0.044867143,-0.16942005,-0.384808,-0.34850314,0.06001234,-3.0786786,0.6241478,-6.994943e-06,-0.06027209,0.0020745022,0.0021248176,0.0024905656,0.0057412134,0.0034619514,0.4743474,-1.4197952,1.950343,-2.0996892,-1.5708317,2.4488304,-0.05560289,0.09373376,-0.11649011,0.018791895,-0.005056357,-0.058987748,-0.49799395,0.17238252,-9.595961,0.8023209,47.68599,-1.172256,-1.8932254,-3.4564466,-0.17841965,-0.05753061,-0.1532526,27.6875,28.75,27.9375,31.875,33.875,34.75
0.13005243,-1.4486443,-1.2093842,-0.5779666,-0.0076786387,0.06356451,-0.16895226,-0.38489562,-0.34853423,0.059998903,-3.078732,0.6240243,-4.373868e-05,-0.061640017,0.002606316,0.0018607547,0.0041355556,0.006045854,0.0021348917,0.47429907,-1.4195902,1.9501389,-2.0996892,-1.5707959,2.4486983,-0.056744374,0.09613906,-0.11873532,0.01911987,-0.0066628363,-0.05879813,-0.4405331,0.21068975,-9.672575,0.8291774,47.68599,-1.174163,-1.8302937,-3.455976,-0.17824307,-0.04315956,-0.18224132,27.6875,28.75,27.9375,31.875,33.875,34.75
0.13205214,-1.4541548,-1.1666753,-0.53917444,-0.0069852085,0.059281923,-0.17118418,-0.38504443,-0.3485139,0.060030967,-3.0787203,0.62406105,8.397963e-06,-0.06307437,0.0029958824,0.0022769053,0.004948028,0.007362139,0.00029180976,0.4741426,-1.4194219,1.9498509,-2.099593,-1.5708202,2.4485664,-0.057861008,0.09721883,-0.121031806,0.019539028,-0.007988629,-0.05806849,-0.36391866,0.21068975,-9.634268,0.80679786,47.679718,-1.1537637,-1.7339486,-3.4760652,-0.1612155,-0.017104542,-0.2082199,27.6875,28.75,27.9375,31.875,33.875,34.75
0.13405249,-1.3484396,-1.1054633,-0.5825283,-0.002322493,0.049007136,-0.17333944,-0.38516352,-0.34847185,0.060008105,-3.0786176,0.6241748,6.4280575e-06,-0.064853266,0.0034818405,0.0020291514,0.006090707,0.00825308,-0.0012136657,0.47399834,-1.4192165,1.9496597,-2.0995572,-1.5708808,2.4485064,-0.05939961,0.099901594,-0.123433515,0.018987415,-0.009420745,-0.05809715,-0.4213795,0.21068975,-9.595961,0.7665104,47.695843,-1.1883032,-1.8163424,-3.3262646,-0.15654914,-0.027198214,-0.2488066,27.6875,28.75,27.9375,31.875,33.875,34.75
0.13605246,-1.3472697,-1.2887477,-0.48227733,0.00041837877,0.041727163,-0.16839118,-0.385303,-0.34848443,0.060028855,-3.078692,0.62405646,4.087286e-05,-0.06756839,0.0031979498,0.0018805756,0.004951427,0.008233917,-0.003534892,0.47387737,-1.4190228,1.9493822,-2.0995214,-1.5708565,2.4483023,-0.062008027,0.104597434,-0.12845282,0.01880459,-0.008406217,-0.05838325,-0.36391866,0.22984336,-9.557653,0.8291774,47.682407,-1.0613996,-1.8929672,-3.1981583,-0.1368975,0.0063419417,-0.2766037,27.6875,28.75,27.9375,31.875,33.875,34.75
0.13805248,-0.82486,-1.1255242,-0.8193614,-0.001581352,0.04598412,-0.1725494,-0.3854479,-0.3484945,0.060053714,-3.0787196,0.62413776,0.00015353067,-0.066672325,0.0019296432,0.002117435,0.0034398537,0.007635807,-0.0010614662,0.47377017,-1.4188427,1.949119,-2.0995214,-1.5708679,2.4482424,-0.05996709,0.10432605,-0.12880406,0.01926226,-0.0067825885,-0.058818948,-0.4405331,0.21068975,-9.615114,0.7486078,47.65464,-1.2189528,-1.9458151,-3.40379,-0.13041231,-0.010376463,-0.27705815,27.6875,28.75,27.9375,31.875,33.875,34.75
0.14005229,-0.71042764,-0.94296885,-0.57073873,-0.014548919,0.048913203,-0.17751563,-0.3855989,-0.34847096,0.060051143,-3.0786774,0.6241292,0.0001562348,-0.06807933,0.0018751163,0.0008378208,0.0032373318,0.005038195,-0.0023507758,0.4736133,-1.4186006,1.948831,-2.0994499,-1.5709032,2.4480858,-0.06200375,0.109447435,-0.1317974,0.019345284,-0.0054246048,-0.059566054,-0.4213795,0.21068975,-9.634268,0.82022345,47.670765,-1.1646374,-1.8747119,-3.185574,-0.13193564,-0.04314373,-0.29992482,27.6875,28.75,27.9375,31.875,33.875,34.75
0.14205226,-0.45069683,-1.1697001,-0.6036674,-0.013892157,0.050364386,-0.17000891,-0.3857197,-0.34847584,0.060054164,-3.0786824,0.6241513,0.00014355747,-0.070440255,0.0024129588,0.0019214196,0.0008540939,0.006687096,-0.0057130493,0.47350392,-1.4183966,1.9485792,-2.0994017,-1.5708913,2.4479897,-0.065963365,0.109468706,-0.13429946,0.019266838,-0.00406083,-0.060164347,-0.34476504,0.2681506,-9.615114,0.8314132,47.668976,-1.0443506,-1.8724102,-3.1850567,-0.12448943,-0.03243898,-0.34100628,27.6875,28.75,27.9375,31.875,33.875,34.75
0.14405236,-0.91453755,-1.6244928,-0.5805387,-0.018488195,0.038787827,-0.16134167,-0.38586566,-0.34847078,0.0600592,-3.0786693,0.62418646,0.00021925101,-0.070186414,0.0016872621,0.0009173847,0.0011809518,0.004124852,-0.004890568,0.4733845,-1.418179,1.9483155,-2.0993893,-1.5709265,2.447894,-0.06498835,0.11268089,-0.13589817,0.02007716,-0.003182481,-0.060012218,-0.4405331,0.24899697,-9.5385,0.83589023,47.677036,-1.0951481,-2.0209098,-3.2148364,-0.09620087,-0.06156326,-0.36948252,27.6875,28.75,27.9375,31.875,33.875,34.75
0.14605165,-1.2391982,-2.0288959,-0.47933692,-0.015784169,0.03664044,-0.16466527,-0.38601753,-0.34847608,0.060080346,-3.0787144,0.62413824,0.00022487358,-0.071387954,0.0020355233,0.0010817876,0.0015056253,0.003441721,-0.0061021596,0.47323966,-1.4179623,1.9480022,-2.0993173,-1.5709022,2.4477136,-0.06668162,0.11440462,-0.13868803,0.02190016,-0.0031600436,-0.06049276,-0.4213795,0.3256114,-9.461885,0.8537928,47.71465,-1.161821,-2.013456,-3.1293309,-0.09654619,-0.0566302,-0.39478928,27.6875,28.75,27.9375,31.875,33.875,34.75
0.14805251,-1.2135476,-1.6693195,-0.19123426,-0.02381891,0.03853965,-0.16881876,-0.3861704,-0.34846672,0.060086973,-3.0786808,0.62422776,0.00028501204,-0.07148553,0.003136544,0.0003560753,0.0024690935,0.0012792795,-0.0073614647,0.4731071,-1.4177338,1.9477166,-2.0992806,-1.5709385,2.4476414,-0.06877153,0.115188636,-0.13820387,0.022992618,-0.0030272673,-0.061324,-0.3256114,0.36391866,-9.442732,0.7933669,47.67793,-1.0347767,-1.9731771,-3.3160133,-0.101968154,-0.048204515,-0.42176804,27.6875,28.75,27.9375,31.875,33.875,34.75
0.15005264,-1.5111271,-1.7965008,-0.0925481,-0.011488355,0.028061675,-0.16158336,-0.38634196,-0.34849083,0.060115583,-3.0787866,0.6242289,0.00036817795,-0.07281359,0.0033901858,0.0003290026,0.0026163876,0.0013761246,-0.0070692617,0.4729626,-1.4175171,1.9474052,-2.0992925,-1.5708908,2.4474843,-0.07028091,0.117100894,-0.14042631,0.023286376,-0.003199968,-0.06312438,-0.30645782,0.3256114,-9.346964,0.8224646,47.698532,-0.99345344,-1.877389,-3.2018068,-0.08601537,-0.05127217,-0.43978298,27.6875,28.75,27.9375,31.875,33.875,34.75
0.15205257,-0.77563983,-1.2516575,0.100901246,-0.0123059675,0.037310652,-0.17459828,-0.3864989,-0.34846774,0.06011496,-3.078758,0.62424153,0.0003763879,-0.07393734,0.0034843541,0.0006402947,0.002348222,0.002056607,-0.006415385,0.4727942,-1.4172766,1.9471172,-2.099233,-1.5709146,2.4473276,-0.071385555,0.118049964,-0.14229585,0.02347668,-0.0032753285,-0.064881794,-0.36391866,0.30645782,-9.308657,0.77545905,47.677036,-0.9319323,-1.9429054,-3.2712276,-0.07773134,-0.06730093,-0.48512763,27.6875,28.75,27.9375,31.875,33.875,34.75
0.15405253,-0.70704764,-0.99904495,0.23667185,0.0017601441,0.038035423,-0.1716469,-0.38663936,-0.34844965,0.06009517,-3.078721,0.6242499,0.00036716147,-0.07468569,0.003952856,-0.00014874601,0.0031140028,0.0005836617,-0.0018547864,0.47264966,-1.4170235,1.9468664,-2.099209,-1.5709385,2.4471931,-0.07285398,0.120579824,-0.14350387,0.023811096,-0.0032897657,-0.07090985,-0.28730422,0.24899697,-9.193734,0.8224646,47.66271,-0.8854918,-1.8785049,-3.4305556,-0.028358879,-0.08937341,-0.45285457,27.6875,28.75,27.9375,31.875,33.875,34.75
0.1560522,-0.72592974,-0.45292282,0.48641747,0.011525678,0.028805407,-0.16861793,-0.386797,-0.3484578,0.060119137,-3.0787754,0.6243377,0.00044548526,-0.07572357,0.00406903,-0.00068773533,0.003557235,-0.00014247274,-0.000595422,0.47250533,-1.4168303,1.9465898,-2.099209,-1.5709146,2.4470968,-0.07392754,0.12335192,-0.14549327,0.023877524,-0.0033520383,-0.073241614,-0.24899697,0.17238252,-9.059659,0.84708,47.69763,-0.93363535,-1.8562376,-3.3790965,-0.033644736,-0.06981461,-0.44435537,27.6875,28.75,27.9375,31.875,33.875,34.75
0.1580524,-0.14810756,-0.020941488,0.52726865,0.029577654,0.02224868,-0.17744204,-0.38695624,-0.34844932,0.06011991,-3.0787833,0.6242399,0.00048194124,-0.07686619,0.0041961065,0.0008219064,0.0024666225,0.0025075926,0.0033742522,0.47236112,-1.4165787,1.9462909,-2.0991724,-1.570939,2.4468908,-0.07500069,0.12154474,-0.14699471,0.024327112,-0.0035875896,-0.07828387,-0.21068975,0.076614454,-9.078813,0.8247004,47.674347,-0.8946967,-1.8399324,-3.3522522,-0.026432946,-0.074634105,-0.41788334,27.6875,28.75,27.9375,31.875,33.875,34.75
0.16005231,-0.06405243,0.5590368,0.80603075,0.04118678,0.014569363,-0.17871647,-0.38711467,-0.34844887,0.060123887,-3.0788016,0.62418205,0.0004936372,-0.07804459,0.0047633243,-0.0007525416,0.004190745,-0.00027150364,0.010071071,0.47221628,-1.4163245,1.945979,-2.0991247,-1.570939,2.4467077,-0.07686269,0.12662935,-0.14940302,0.024907839,-0.003860587,-0.08684056,-0.15322891,-0.05746084,-8.848969,0.78888994,47.66987,-0.8590088,-1.841521,-3.3897126,-0.00737717,-0.0663958,-0.33256248,27.6875,28.75,27.9375,31.875,33.875,34.75
0.16205242,0.08055372,0.48839784,0.6147775,0.052911732,0.014785107,-0.18139166,-0.38727275,-0.3484417,0.06012983,-3.078802,0.6242191,0.0005078586,-0.07910613,0.0050196243,0.0002809624,0.0035022148,0.0012447688,0.010884493,0.47206,-1.4160848,1.9456791,-2.0990765,-1.570939,2.4465747,-0.07818976,0.12576596,-0.15097314,0.025676897,-0.0039374195,-0.08898058,-0.15322891,0.0,-8.848969,0.9030289,47.705692,-0.78525144,-1.7992537,-3.33113,0.012654964,-0.06797127,-0.31356385,27.6875,28.75,27.9375,31.875,33.875,34.75
0.16405377,-0.11982598,0.40844172,0.38904816,0.052692715,0.007899385,-0.17400451,-0.38742048,-0.34842902,0.060131587,-3.078799,0.6241584,0.0004767441,-0.079659045,0.0056944597,-0.0003790514,0.0048611723,-0.00022490878,0.015214327,0.47190347,-1.4158438,1.9453791,-2.0989926,-1.570939,2.4463809,-0.07949662,0.12775145,-0.15199597,0.026640706,-0.004481291,-0.09461588,-0.19153613,-0.038307227,-8.868123,0.7933669,47.64479,-0.82065696,-1.7934008,-3.3341174,0.019612998,-0.06963702,-0.2359089,27.6875,28.75,27.9375,31.875,33.875,34.75
0.16605182,-0.39010823,0.055413138,0.3240238,0.040884055,0.017513216,-0.17399704,-0.38757035,-0.34841985,0.060114384,-3.0787928,0.62405944,0.00045604722,-0.081598766,0.005682428,-0.00013334511,0.0048777466,0.0007255764,0.016939102,0.4717592,-1.4155668,1.9450916,-2.0989559,-1.5709513,2.4461758,-0.08090453,0.13031839,-0.1555811,0.026818667,-0.0049378453,-0.09774578,-0.095768064,-0.05746084,-8.963891,0.7732232,47.71465,-0.75013864,-1.7976867,-3.2821264,0.039931204,-0.079826795,-0.16983235,27.6875,28.75,27.9375,31.875,33.875,34.75
0.1680517,-0.5645695,-0.34315684,0.12280672,0.03061871,0.028065803,-0.17544356,-0.38774344,-0.34839958,0.060125224,-3.078786,0.62405753,0.00044181643,-0.0833411,0.005784843,0.0008273826,0.0052893865,0.0021085057,0.017336793,0.47156668,-1.415314,1.9447545,-2.09886,-1.5709518,2.4459832,-0.08197481,0.13146271,-0.1595172,0.028567718,-0.005938563,-0.09921063,-0.21068975,0.0,-9.021352,0.7597976,47.67345,-0.6353065,-1.8890629,-3.3072987,0.042767443,-0.06901838,-0.1306854,27.6875,28.75,27.9375,31.875,33.875,34.75
0.17005171,-0.6486856,-0.69370633,0.26559407,0.022463929,0.046506476,-0.18229839,-0.38789526,-0.34836748,0.060115878,-3.0787344,0.62394947,0.0004512903,-0.08239966,0.0058999225,-2.7684673e-05,0.008337339,-0.0003431813,0.018156687,0.47141132,-1.4150611,1.9444684,-2.0987866,-1.5710124,2.4457672,-0.0802584,0.13318577,-0.16013873,0.03103402,-0.007540429,-0.09831154,-0.30645782,0.1340753,-9.040505,0.83813137,47.690468,-0.92451376,-1.8649346,-3.3067274,0.003982744,-0.04794539,-0.10936548,27.6875,28.75,27.9375,31.875,33.875,34.75
0.1720516,-0.8817935,-0.5954302,0.006573029,0.021387134,0.042908195,-0.17506908,-0.38806188,-0.34835446,0.060098786,-3.078726,0.62402844,0.00034311658,-0.084114425,0.007156416,-0.00067357195,0.009834814,-0.0012756094,0.0126752835,0.47120634,-1.4147599,1.9441446,-2.098715,-1.5709642,2.4456127,-0.08339086,0.13606122,-0.16216111,0.031699017,-0.008459983,-0.095959656,-0.30645782,0.1340753,-9.212888,0.8672237,47.707485,-0.81952536,-2.022855,-3.288203,0.01019971,-0.033943333,-0.13178813,27.6875,28.75,27.9375,31.875,33.875,34.75
0.17405163,-1.0345925,-1.1411755,-0.2605238,0.02264455,0.043288246,-0.17076743,-0.3882388,-0.3483398,0.06011278,-3.0787222,0.6239316,0.00041810807,-0.083912626,0.0060934927,-0.00056482747,0.010323356,-0.001377603,0.010441901,0.47105125,-1.4145073,1.9438084,-2.0986545,-1.5710124,2.4453979,-0.08103971,0.13745613,-0.16428095,0.032733906,-0.008850023,-0.09137377,-0.2873042,0.2681506,-9.385271,0.7777002,47.70032,-0.81456983,-1.7068949,-3.1587524,-0.014954876,-0.014609259,-0.14900067,27.6875,28.75,27.9375,31.875,33.875,34.75
0.17605245,-1.0835102,-2.1363332,-0.37603042,0.0068083145,0.041017003,-0.16523302,-0.38840666,-0.34833312,0.060126204,-3.0787091,0.6239105,0.0004129878,-0.08456687,0.0054075234,0.0003572513,0.009304094,-0.0012676194,0.008824946,0.47089517,-1.4142429,1.9434489,-2.0985463,-1.5710243,2.4452305,-0.08092814,0.13794085,-0.1674614,0.03486439,-0.007995707,-0.089645214,-0.47884035,0.36391866,-9.3661175,0.8493211,47.670765,-0.9811382,-1.851687,-3.3092594,-0.018500248,-0.021716792,-0.18786603,27.6875,28.75,27.9375,31.875,33.875,34.75
0.17805248,-1.2391865,-2.1235769,-0.6353849,-0.03127769,0.040835917,-0.16445161,-0.38856974,-0.3483214,0.060103912,-3.0786934,0.6238339,0.00035123434,-0.084723145,0.0056193513,-0.00064678164,0.010193565,-0.0032986263,0.0024013026,0.47072694,-1.4139295,1.9431256,-2.0984867,-1.5710243,2.4450166,-0.08148035,0.14043804,-0.16818586,0.035305835,-0.007873048,-0.08377299,-0.45968673,0.4405331,-9.5385,0.82022345,47.6636,-0.96784866,-1.8187065,-3.3510342,-0.03007286,-0.01958756,-0.24412164,27.75,28.75,27.9375,31.875,33.875,34.75
0.18005237,-1.0027741,-2.250815,-1.0137612,-0.049261406,0.040321544,-0.17102574,-0.3887335,-0.34830132,0.060112555,-3.0786493,0.62388116,0.0003428534,-0.085626036,0.0052460167,-0.0008461998,0.009389897,-0.0031960907,0.0022469398,0.4705588,-1.4136766,1.9427904,-2.098379,-1.5710481,2.4448838,-0.08202022,0.14239746,-0.16984658,0.034545552,-0.007211985,-0.084158145,-0.40222588,0.53630114,-9.634268,0.83589023,47.68062,-1.0138175,-1.8274529,-3.3366184,-0.016244236,-0.024513472,-0.27821139,27.75,28.75,27.9375,31.875,33.875,34.75
0.18205234,-0.76634353,-2.295446,-0.8356885,-0.07541787,0.05104229,-0.1778418,-0.38889825,-0.34829065,0.06011135,-3.0786302,0.62389666,0.00031064224,-0.08593676,0.004655858,-0.0008794204,0.009096097,-0.0038979715,0.0029069376,0.47039106,-1.4133997,1.9424552,-2.098295,-1.5710481,2.4447284,-0.08158603,0.1440411,-0.17190644,0.035450954,-0.0066377237,-0.08438365,-0.24899697,0.49799395,-9.576807,0.8291774,47.67345,-0.9831759,-1.8607509,-3.3544173,-0.024114009,-0.022025427,-0.259918,27.75,28.75,27.9375,31.875,33.875,34.75
0.18405238,-0.9444283,-2.508782,-0.89214665,-0.05476365,0.030120041,-0.16844523,-0.38907275,-0.34830084,0.0600921,-3.078639,0.6238021,0.000317554,-0.08609453,0.0046691187,-0.0010707092,0.008815424,-0.005668342,0.0014030825,0.47025877,-1.413063,1.9421085,-2.098282,-1.5710596,2.4445362,-0.08238569,0.14517999,-0.17319015,0.037041523,-0.005585629,-0.08368065,-0.21068975,0.51714754,-9.634268,0.8179876,47.683304,-1.0746267,-1.8646127,-3.3835268,-0.05148281,-0.019880848,-0.31114715,27.75,28.75,27.9375,31.875,33.875,34.75
0.18605241,-0.3096131,-2.0673397,-0.81419516,-0.03759079,0.029908359,-0.17450057,-0.38925704,-0.3482773,0.060094792,-3.0786028,0.62381446,0.00031110182,-0.08751326,0.0048495117,-0.0011314632,0.008725015,-0.0055947714,0.0007406563,0.47006625,-1.4127742,1.941748,-2.0981867,-1.5710834,2.4443562,-0.083959185,0.14731745,-0.17558692,0.037190765,-0.0055470206,-0.08459028,-0.19153613,0.59376204,-9.691729,0.92764956,47.704796,-1.0508244,-1.65677,-3.3028772,-0.05935343,-0.029153667,-0.32100213,27.75,28.75,27.9375,31.875,33.875,34.75
0.18805234,-0.048510637,-1.5046388,-0.9311913,-0.025811587,0.02985502,-0.1741654,-0.38942987,-0.3482796,0.060096025,-3.078604,0.6237949,0.00033422039,-0.087976456,0.0052404767,-0.00143964,0.009092413,-0.0057691135,-0.00039653026,0.469922,-1.4124856,1.9414018,-2.098139,-1.5710953,2.4441998,-0.08486111,0.14814559,-0.17581429,0.036911115,-0.005797241,-0.084354475,-0.095768064,0.4405331,-9.672575,0.8403672,47.705692,-1.0294433,-1.8887146,-3.450898,-0.061825447,-0.013737417,-0.3414467,27.75,28.75,27.9375,31.875,33.875,34.75
0.19005229,-0.06190863,-1.0240532,-0.87509835,-0.016662914,0.008504535,-0.17424573,-0.3896118,-0.34827033,0.060094226,-3.0785923,0.62381107,0.00031620284,-0.08940835,0.005435606,-0.002594276,0.010415707,-0.0077343686,-0.0009846314,0.46974164,-1.4121835,1.9410414,-2.0980666,-1.5710953,2.4440312,-0.08625586,0.1531626,-0.17915833,0.037589304,-0.0060962485,-0.08515839,0.076614454,0.4405331,-9.634268,0.87393653,47.670765,-1.0667063,-2.045762,-3.5193753,-0.054867733,-0.014400128,-0.3641569,27.75,28.75,27.9375,31.875,33.875,34.75
0.19205232,-0.13585731,-1.0339819,-0.8094729,-0.009451065,-0.009008294,-0.17159331,-0.3897988,-0.34827033,0.06009646,-3.078602,0.623755,0.0003116337,-0.08903932,0.005991791,-0.0039576027,0.012081534,-0.011148908,0.00063496776,0.46957314,-1.4118705,1.9406589,-2.097994,-1.5710953,2.4438267,-0.08689375,0.15564796,-0.17928499,0.039027166,-0.0060361247,-0.087415844,0.038307227,0.3256114,-9.615114,0.8873621,47.666286,-0.88605773,-1.9570616,-3.5535452,-0.057629205,-0.022333417,-0.3756705,27.75,28.75,27.9375,31.875,33.875,34.75
0.19405256,0.2910631,-1.1642562,-0.7864581,-0.00032888548,-0.006055736,-0.1773422,-0.3899762,-0.3482502,0.060085446,-3.0785692,0.6237446,0.00030333636,-0.08966175,0.005419403,-0.0039672484,0.012302943,-0.011383911,0.005252041,0.46939352,-1.4115695,1.9403232,-2.097934,-1.5711197,2.443645,-0.08633349,0.15777642,-0.18195371,0.039872453,-0.006136682,-0.09147097,0.076614454,0.22984336,-9.615114,0.86498255,47.655537,-1.1236742,-2.1072626,-3.4871113,-0.06671287,-0.004607807,-0.36530662,27.75,28.75,27.9375,31.875,33.875,34.75
0.19605236,0.20596835,-1.1693841,-0.49667397,0.015736612,-0.008912282,-0.17465906,-0.39017498,-0.3482464,0.060095154,-3.0786004,0.6237107,0.00031732995,-0.090833455,0.007346666,-0.004874288,0.013341134,-0.014127329,0.0060458397,0.46920002,-1.4112685,1.9399403,-2.097874,-1.5711073,2.4434266,-0.09092858,0.15965694,-0.18244466,0.041395612,-0.005821423,-0.09686031,0.19153613,0.15322891,-9.557653,0.90750587,47.66808,-0.9038477,-2.0604272,-3.5003505,-0.10497364,-0.0076514417,-0.31778502,27.75,28.75,27.9375,31.875,33.875,34.75
0.19805232,0.31892487,-0.85530204,-0.40788606,0.01861191,-0.007020258,-0.17006677,-0.39034727,-0.3482466,0.060093228,-3.078604,0.62364936,0.000298659,-0.09005336,0.0056558447,-0.00456994,0.01360791,-0.014445187,0.014121083,0.46904543,-1.4109678,1.9395813,-2.097801,-1.5711073,2.4432335,-0.08713995,0.16075784,-0.18483987,0.043091584,-0.0059218477,-0.10114575,0.17238252,0.17238252,-9.461885,0.842603,47.68599,-1.1452056,-2.0807788,-3.4946036,-0.1286048,-1.7845203e-05,-0.26669592,27.75,28.75,27.9375,31.875,33.875,34.75
0.20005204,0.38007462,-0.33599323,-0.0038270962,0.010065235,0.0011716189,-0.1721511,-0.39054754,-0.3482531,0.060095113,-3.0786264,0.623573,0.00031041144,-0.09132707,0.0055749384,-0.0052635656,0.013665481,-0.016251795,0.020136261,0.46887684,-1.41063,1.9391736,-2.0977414,-1.5711073,2.4430146,-0.08857504,0.16471924,-0.1880898,0.044010587,-0.0051648393,-0.108595386,0.11492168,0.095768064,-9.32781,0.9030289,47.68599,-1.1636202,-2.264597,-3.3974504,-0.1529262,0.0075236456,-0.19363976,27.75,28.75,27.9375,31.875,33.875,34.75
0.20205227,0.19527435,-0.26610687,0.034543518,0.026273362,-0.0028351992,-0.17318386,-0.390727,-0.34820688,0.060094643,-3.0785637,0.6235408,0.0003251945,-0.09340049,0.0050015496,-0.0037481547,0.011772339,-0.014212064,0.0205728,0.46867245,-1.4103658,1.9388479,-2.097645,-1.5711669,2.4427984,-0.08985629,0.16546455,-0.19272092,0.04521039,-0.004412691,-0.1103122,0.076614454,0.019153614,-9.232041,0.9030289,47.696735,-1.1316592,-2.0063515,-3.3834176,-0.1807568,-0.009999998,-0.15273683,27.75,28.75,27.9375,31.875,33.875,34.75
0.20405227,0.42988902,-0.3832593,-0.17692097,0.03414913,0.004537559,-0.17340301,-0.3909353,-0.3482241,0.060092915,-3.0786102,0.62345034,0.00028634557,-0.094532974,0.004384259,-0.0023484158,0.010837838,-0.012544699,0.02507218,0.4684926,-1.4099933,1.9384054,-2.097573,-1.5711306,2.4425564,-0.08977297,0.16540448,-0.19629548,0.046936236,-0.0043397127,-0.1147271,0.038307227,0.11492168,-9.174581,0.83589023,47.684196,-1.158502,-2.1094,-3.270862,-0.1930763,-0.001310582,-0.09338061,27.75,28.75,27.9375,31.875,33.875,34.75
0.20605227,-0.5015542,-0.56741893,-0.13889137,0.022500928,-0.009986489,-0.16371645,-0.3911236,-0.34822226,0.060109127,-3.0785868,0.62339044,0.00027704667,-0.09488159,0.004840567,-0.0027118456,0.011404443,-0.014115479,0.02195463,0.46833602,-1.4096805,1.9379743,-2.0974286,-1.571155,2.4423656,-0.0909652,0.16670763,-0.1973352,0.048327133,-0.0041404683,-0.112801634,-0.076614454,0.24899697,-9.232041,0.8851263,47.70211,-1.2070832,-2.03862,-3.2713985,-0.21912375,-0.019056372,-0.0813244,27.75,28.75,27.9375,31.875,33.875,34.75
0.20805219,-0.9778206,-1.2062482,-0.23461387,0.008589872,-0.0013608459,-0.1576637,-0.39130777,-0.34820935,0.060097035,-3.0785704,0.62327254,0.00022694201,-0.0958949,0.005155613,-0.0023784372,0.011532589,-0.013881175,0.01888079,0.46815574,-1.409344,1.9375914,-2.0973327,-1.5711669,2.442114,-0.09222615,0.16748624,-0.19927764,0.049339548,-0.0043707886,-0.11098739,-0.2681506,0.30645782,-9.097966,0.8090337,47.687782,-1.1963515,-2.0034504,-3.2705743,-0.26332605,-0.02647326,-0.0712488,27.75,28.75,27.9375,31.875,33.875,34.75
0.21005209,-1.0778035,-1.5132129,-0.21838705,-0.015505247,0.02104301,-0.16790196,-0.39148283,-0.3482051,0.06008731,-3.0785608,0.62315625,0.00019307254,-0.09678878,0.0051585734,-0.0015499339,0.01134187,-0.012605511,0.014882227,0.46799964,-1.4090198,1.93722,-2.0972483,-1.5711797,2.441887,-0.09271661,0.16731255,-0.2012206,0.050233096,-0.0047840932,-0.10747778,-0.22984336,0.30645782,-9.174581,0.800085,47.68599,-1.2475165,-1.8069898,-3.2768683,-0.28977525,-0.03313525,-0.10341264,27.75,28.75,27.9375,31.875,33.875,34.75
0.21205208,-1.3923743,-1.5300223,-0.07225467,-0.040667914,0.05007,-0.17208602,-0.3916528,-0.34817806,0.06006265,-3.07847,0.62318003,5.319422e-05,-0.09801293,0.0051928293,-0.00220064,0.011919962,-0.013451968,0.010061887,0.46780714,-1.4086704,1.9368371,-2.0970929,-1.5711912,2.441721,-0.0937222,0.17077957,-0.20383477,0.05039708,-0.0049384395,-0.103660524,-0.40222588,0.34476504,-9.270349,0.9030289,47.705692,-1.2558457,-1.8687227,-3.2704058,-0.30573273,-0.025763895,-0.13643181,27.75,28.75,27.9375,31.875,33.875,34.75
0.21405227,-1.8397624,-2.2288582,-0.03017044,-0.030017996,0.07194601,-0.16628984,-0.39186847,-0.3481844,0.0600901,-3.0785048,0.6231889,3.1982385e-05,-0.09975041,0.0057447064,-0.00073482376,0.010309785,-0.010272275,0.0039734985,0.46760243,-1.4083465,1.9363703,-2.0969617,-1.5711554,2.4415176,-0.09617746,0.1689754,-0.20501277,0.049819835,-0.004939217,-0.100027196,-0.59376204,0.30645782,-9.346964,0.8179876,47.71017,-1.1839954,-1.8262925,-3.344088,-0.3270863,-0.026254721,-0.19188502,27.75,28.75,27.9375,31.875,33.875,34.75
0.21605211,-2.4318092,-1.4714015,-0.077200375,-0.024408653,0.07522854,-0.17098421,-0.39204654,-0.3481865,0.06007646,-3.0784936,0.6230915,-3.1698924e-05,-0.10045644,0.0051031252,-0.0011630268,0.009845245,-0.00988944,0.0017803486,0.4674465,-1.4079975,1.9359759,-2.096866,-1.571155,2.4413025,-0.09577536,0.17131408,-0.20647094,0.04838813,-0.004709612,-0.09743097,-0.61291564,0.21068975,-9.346964,0.8672237,47.651955,-1.2198197,-1.8893876,-3.336222,-0.3501415,-0.03883823,-0.2427948,27.75,28.75,27.9375,31.875,33.875,34.75
0.21805231,-2.1496081,-1.0815532,0.03969052,-0.013255893,0.09092794,-0.17733653,-0.39226305,-0.3481647,0.060062263,-3.0784645,0.62310505,-2.3642748e-05,-0.10340877,0.0041738707,-2.3960776e-05,0.0067162355,-0.005677312,-0.0007741142,0.46723026,-1.4076365,1.9355801,-2.0968192,-1.5711793,2.4410987,-0.09727161,0.17308259,-0.21051626,0.045489036,-0.0038322236,-0.09637187,-0.7086837,0.2681506,-9.385271,0.842603,47.664497,-1.2620504,-1.7998376,-3.3826509,-0.34906766,-0.013847807,-0.2926126,27.75,28.75,27.9375,31.875,33.875,34.75
0.22005193,-2.10774,-1.1883594,-0.04077136,0.0064234743,0.085147604,-0.16762763,-0.39245698,-0.3481599,0.06003297,-3.0784557,0.62310576,-0.00013554002,-0.10546816,0.0044882176,0.00011292664,0.005007474,-0.0031030646,-0.0049223173,0.46702516,-1.4072518,1.9351858,-2.0967486,-1.5711426,2.4408953,-0.09982039,0.1740765,-0.21129815,0.04221152,-0.003481514,-0.094771996,-0.7852981,0.24899697,-9.289502,0.93436235,47.681515,-1.004342,-1.7390575,-3.4534144,-0.32498622,-0.049506694,-0.32551754,27.75,28.75,27.9375,31.875,33.875,34.75
0.22205171,-1.762209,-0.8104594,0.01887024,0.020504026,0.07355624,-0.16450088,-0.39269346,-0.34814182,0.06006179,-3.078412,0.62319374,-3.452814e-05,-0.10654103,0.004299521,-0.00053491903,0.0045455857,-0.0019350892,-0.0074787717,0.46682107,-1.4069265,1.9347194,-2.0966423,-1.5712031,2.440752,-0.10029898,0.17630959,-0.21177259,0.039197292,-0.0035994693,-0.09269308,-0.80445176,0.21068975,-9.251195,0.95226496,47.698532,-1.1949201,-1.7950318,-3.3884974,-0.2920103,-0.055863634,-0.40217084,27.75,28.75,27.9375,31.875,33.875,34.75
0.22405185,-1.5662172,-0.6890962,-0.17984661,0.019951344,0.07101023,-0.16739051,-0.3928995,-0.3481606,0.060042415,-3.0784724,0.62310994,-7.3233634e-05,-0.108553395,0.00597303,-0.002136077,0.006739148,-0.0036995371,-0.009885323,0.4666398,-1.4065404,1.9343137,-2.0966299,-1.5711554,2.440511,-0.104218885,0.1809448,-0.21346763,0.03882719,-0.004770016,-0.09420276,-0.7469909,0.17238252,-9.270349,0.8291774,47.67345,-1.0083439,-1.9620214,-3.480295,-0.27291307,-0.060996383,-0.40798086,27.75,28.75,27.9375,31.875,33.875,34.75
0.22605193,-1.0101366,0.0024756584,-0.15888847,0.011700311,0.07028401,-0.17048372,-0.39312428,-0.34812957,0.060045563,-3.0783892,0.6231703,-6.14628e-05,-0.11014705,0.006109176,-0.0024563707,0.0069391686,-0.0025829275,-0.011209548,0.4664234,-1.4061798,1.9338592,-2.0964987,-1.5712155,2.4403431,-0.10536225,0.18345805,-0.21536063,0.037295647,-0.005463258,-0.09401897,-0.5554548,-0.076614454,-9.32781,0.83365434,47.691364,-0.9117162,-1.7919202,-3.5116014,-0.26927325,-0.06594261,-0.47480786,27.75,28.75,27.9375,31.875,33.875,34.75
0.22805165,-0.9674435,-0.2687853,-0.2493692,0.012268816,0.06390284,-0.17665483,-0.39337054,-0.34813106,0.06007069,-3.0784295,0.6232336,4.126235e-05,-0.11274239,0.0058032707,-0.00093404326,0.004977008,0.0028706905,-0.008017843,0.4662071,-1.4058435,1.9334043,-2.096464,-1.571216,2.4401615,-0.10660083,0.18317865,-0.21789989,0.034359682,-0.0061694006,-0.09844691,-0.53630114,-0.019153614,-9.481039,0.8918391,47.682407,-0.85542494,-1.9363732,-3.4952135,-0.24425578,-0.02406968,-0.48039752,27.75,28.75,27.9375,31.875,33.875,34.75
0.23005246,-1.7373002,-0.43870604,-0.16910587,0.0034408232,0.057165142,-0.17488344,-0.3935883,-0.3480987,0.060029805,-3.0783443,0.6232123,-4.6545607e-05,-0.11337358,0.0057208687,-0.001875396,0.005232157,0.0020751127,-0.0021496862,0.46597898,-1.40541,1.9329737,-2.0963686,-1.5712513,2.4399312,-0.10701482,0.18602987,-0.21889776,0.03332278,-0.006057324,-0.10472778,-0.59376204,-0.095768064,-9.3661175,0.84484416,47.682407,-0.90519935,-2.0088377,-3.4756994,-0.19669235,-0.04608463,-0.4482003,27.75,28.75,27.9375,31.875,33.875,34.75
0.23205255,-0.97571206,-0.20060745,-0.23508206,0.0046053054,0.07009488,-0.1711265,-0.3937992,-0.34810737,0.060019694,-3.0783675,0.623174,-4.8816986e-05,-0.11338065,0.0052310484,-0.002848625,0.005694365,-0.00040555594,0.0056328843,0.4657991,-1.4050366,1.9325556,-2.0963323,-1.5712394,2.4397247,-0.106537774,0.18929106,-0.22075513,0.034336366,-0.0053607575,-0.11203367,-0.49799395,-0.038307227,-9.404425,0.92093146,47.692257,-0.91127133,-2.0748,-3.4839067,-0.19499797,-0.062463976,-0.38828826,27.75,28.75,27.9375,31.875,33.875,34.75
0.23405258,-1.3237863,-0.576955,-0.3716627,0.024058508,0.0570755,-0.16653988,-0.3940333,-0.3481066,0.060023706,-3.0783987,0.6231387,-3.452253e-05,-0.11581818,0.005869441,-0.0021371483,0.00537259,0.0009815625,0.009862522,0.4655821,-1.4046636,1.9321002,-2.0962718,-1.5712274,2.439482,-0.10952222,0.19082849,-0.2243882,0.035045482,-0.005703926,-0.11924555,-0.3256114,0.095768064,-9.423578,0.8851263,47.690468,-0.9245335,-2.1407099,-3.4211116,-0.15930355,-0.0402022,-0.33568445,27.75,28.75,27.9375,31.875,33.875,34.75
0.23605268,-0.85148335,-0.15894659,-0.16346695,0.010794514,0.05009719,-0.1794619,-0.39428195,-0.34806916,0.060012106,-3.078375,0.62310946,-2.9201556e-06,-0.115031265,0.0051192534,-0.0031642276,0.0070797484,-0.0016828111,0.018676754,0.46531883,-1.4042782,1.9316686,-2.0962236,-1.5712637,2.4392037,-0.10721006,0.19383171,-0.22599418,0.03678695,-0.006037343,-0.12574618,-0.3256114,0.11492168,-9.404425,0.8806493,47.723602,-1.0275092,-2.2017512,-3.5559192,-0.15047958,-0.048373863,-0.2623507,27.75,28.75,27.9375,31.875,33.875,34.75
0.23805195,-0.14000103,-0.27556983,-0.48963872,0.00559694,0.04228183,-0.1777966,-0.39449152,-0.34806055,0.05998947,-3.0783217,0.62305933,-9.7999095e-05,-0.117217906,0.006450309,-0.0032673914,0.007558225,-0.0011947671,0.017595107,0.46512565,-1.4038575,1.9312023,-2.096092,-1.5712761,2.4389863,-0.1109873,0.19567505,-0.22794929,0.036675323,-0.00670169,-0.12843886,-0.19153613,0.1340753,-9.481039,0.8224646,47.691364,-0.9825086,-2.065415,-3.412609,-0.14978178,-0.038222812,-0.20035931,27.75,28.75,27.9375,31.875,33.875,34.75
0.24005264,-0.09707377,-0.71956444,-0.50692445,-0.014220101,0.02385217,-0.1661684,-0.3947538,-0.34804997,0.06001397,-3.078362,0.6230459,-2.678498e-05,-0.11794438,0.004785918,-0.002025845,0.006219371,0.002139861,0.022230407,0.46487468,-1.4034964,1.9307112,-2.0960205,-1.5712761,2.4387221,-0.108427614,0.19581674,-0.2308166,0.03581831,-0.007002769,-0.13051295,-0.1340753,0.21068975,-9.423578,0.86945957,47.685097,-1.0006247,-2.232023,-3.47434,-0.12397313,-0.01430927,-0.1420955,27.75,28.75,27.9375,31.875,33.875,34.75
0.24205261,-0.13521725,-1.048668,-0.5637811,-0.022025025,0.016964033,-0.16631177,-0.3949816,-0.34801027,0.059965186,-3.0782847,0.62297374,-8.702495e-05,-0.11995536,0.0050412873,-0.001659147,0.0058733155,0.0035770887,0.018527249,0.464634,-1.4030516,1.9302925,-2.0959609,-1.5713242,2.4384465,-0.11034876,0.19761236,-0.23375213,0.035513025,-0.007354847,-0.12872814,-0.15322891,0.2681506,-9.385271,0.9679317,47.70659,-1.0268275,-2.2326972,-3.3851557,-0.09485553,-0.017151317,-0.17129377,27.75,28.75,27.9375,31.875,33.875,34.75
0.24405248,-0.38990682,-1.724099,-0.73225415,-0.011729692,0.0154787935,-0.15726298,-0.39520797,-0.34802845,0.059969064,-3.078323,0.6228896,-4.6986424e-05,-0.120823465,0.005304769,-0.00074734946,0.0062022423,0.003864932,0.011544181,0.46446577,-1.4026673,1.9298261,-2.0959117,-1.5713247,2.4382212,-0.11123822,0.19756359,-0.23644412,0.038148314,-0.007769842,-0.12263326,-0.17238252,0.36391866,-9.481039,0.74413085,47.681515,-0.99628377,-2.2223158,-3.3944142,-0.08721676,-0.002865257,-0.20048037,27.75,28.75,27.9375,31.875,33.875,34.75
0.24605228,-0.53712285,-1.2516221,-0.6137167,-0.030567806,0.023877045,-0.16790122,-0.3954566,-0.34800985,0.05997116,-3.0783176,0.6228723,-6.624636e-05,-0.12118387,0.005789618,-0.000789009,0.006726294,0.0027226533,0.0057929624,0.46421337,-1.4022702,1.9293355,-2.0958035,-1.5713247,2.437959,-0.11234364,0.19825682,-0.23762369,0.03989192,-0.007724494,-0.11798723,-0.15322891,0.36391866,-9.519346,0.8403672,47.707485,-0.94948,-2.267027,-3.5023055,-0.09682751,-0.001185075,-0.25910178,27.75,28.75,27.9375,31.875,33.875,34.75
0.24805228,-0.52157056,-1.392837,-0.76751024,-0.021100251,0.02093809,-0.15844946,-0.39571548,-0.3480035,0.059975773,-3.0783353,0.6228564,-4.1824052e-05,-0.121571034,0.0054823547,-0.0009021237,0.0058446676,0.0019020409,0.0038178691,0.46397325,-1.4018618,1.9288338,-2.0957315,-1.5713242,2.437707,-0.11279041,0.19952019,-0.23901598,0.0403554,-0.006567615,-0.11646084,-0.076614454,0.34476504,-9.557653,0.8291774,47.66808,-0.9971724,-2.1793387,-3.4990816,-0.07476848,-0.032335736,-0.31161967,27.75,28.75,27.9375,31.875,33.875,34.75
0.2500524,-0.38494676,-1.8182198,-0.5417069,-0.023561375,0.027720103,-0.16708224,-0.3959418,-0.3479702,0.059945963,-3.07824,0.62291485,-8.812279e-05,-0.122596525,0.0052035805,-0.00095119857,0.0054444685,0.0014671187,0.0024675059,0.46374506,-1.4014409,1.9283909,-2.0956357,-1.5713714,2.4375277,-0.11346853,0.2017672,-0.24175404,0.041048124,-0.0060278596,-0.11578794,-0.05746084,0.34476504,-9.5385,0.85826975,47.695843,-1.0084591,-2.0887203,-3.5515046,-0.06711799,-0.025121553,-0.3255018,27.75,28.75,27.9375,31.875,33.875,34.75
0.25205252,0.07618923,-1.1187344,-0.79140705,-0.014938146,0.022923844,-0.1706299,-0.39619786,-0.3479716,0.059961006,-3.0782633,0.6228619,-3.5579516e-05,-0.123172924,0.004461579,-0.00059487566,0.005043875,0.0016344232,0.0024649885,0.46352923,-1.401044,1.9278759,-2.0955517,-1.5713834,2.4372761,-0.11276864,0.20317249,-0.24450612,0.04206317,-0.0057438593,-0.115085185,0.0,0.34476504,-9.557653,0.8605109,47.689575,-1.0577507,-2.1324277,-3.4513083,-0.04833512,-0.030487511,-0.35847855,27.75,28.75,27.9375,31.875,33.875,34.75
0.25405252,-0.036675885,-0.7158556,-0.8842698,0.003332953,0.00019019967,-0.165043,-0.39645863,-0.3479492,0.059962474,-3.0782576,0.6228626,1.4050541e-05,-0.12456817,0.0058769262,-0.00043471294,0.005551864,0.0020098423,-0.0005210218,0.46327603,-1.4006474,1.9273976,-2.0954916,-1.5714082,2.4370244,-0.115983754,0.20331296,-0.24521312,0.04251888,-0.006364429,-0.11531304,0.019153614,0.3256114,-9.519346,0.8806493,47.689575,-0.9530135,-2.0025775,-3.4677925,-0.04681582,-0.025184885,-0.40012518,27.75,28.75,27.9375,31.875,33.875,34.75
0.2560525,0.39096013,-0.79405034,-0.6762774,0.0006941089,0.010560413,-0.16586122,-0.3966932,-0.34797403,0.059956208,-3.07828,0.622805,-3.091811e-05,-0.12379068,0.004702798,-0.0007835869,0.005842976,0.0010289211,0.005449065,0.46309707,-1.4002029,1.9268726,-2.0953953,-1.5713834,2.436807,-0.11327386,0.20474435,-0.24632448,0.043205403,-0.0061914567,-0.118573055,0.076614454,0.3256114,-9.5385,0.8224646,47.66808,-1.2116574,-2.041865,-3.4899826,-0.020833291,-0.012052626,-0.3619513,27.75,28.75,27.9375,31.875,33.875,34.75
0.25805244,-0.065685526,-1.0694556,-0.7383137,-0.006016805,-0.008438093,-0.17095467,-0.39695197,-0.34794006,0.05993537,-3.0782135,0.62280875,2.0794485e-05,-0.12576465,0.006005403,-0.0012138766,0.0061085625,-0.00024972248,0.0069422005,0.46285564,-1.3997695,1.9264048,-2.0953472,-1.5714554,2.4365766,-0.117402405,0.20738399,-0.24873085,0.044219337,-0.0058665075,-0.124194175,0.17238252,0.36391866,-9.5385,0.91198283,47.660015,-0.96979094,-2.1446629,-3.608833,-0.011571066,-0.0358995,-0.37049693,27.75,28.75,27.9375,31.875,33.875,34.75
0.2600521,-0.12222014,-1.2665642,-0.56533,-0.022324026,-0.0040024766,-0.17348345,-0.39721042,-0.34792876,0.05995391,-3.0782304,0.62275064,5.871896e-05,-0.12623577,0.0052557085,-0.0008948703,0.0063048843,-0.0002647368,0.014589238,0.46261624,-1.3993846,1.9258898,-2.0952394,-1.5714673,2.436299,-0.11629971,0.20900543,-0.2517614,0.04572217,-0.006040386,-0.13073707,0.13407528,0.3256114,-9.519346,0.88960326,47.664497,-1.0718844,-2.0815825,-3.5547256,-0.007193901,-0.017653136,-0.27522543,27.75,28.75,27.9375,31.875,33.875,34.75
0.26205203,0.009758259,-1.8053945,-0.5986383,-0.022679146,0.006759578,-0.16711022,-0.39743602,-0.3479312,0.059932996,-3.0782402,0.6226906,-3.99096e-05,-0.12782098,0.0054571335,-0.00024520277,0.0059070326,0.000451188,0.019744966,0.46239957,-1.3989515,1.9254111,-2.095143,-1.5714315,2.436044,-0.11796983,0.21010306,-0.25487965,0.046922777,-0.006019363,-0.13756146,0.11492168,0.30645782,-9.423578,0.90750587,47.685097,-1.0769202,-2.0686078,-3.6089048,-0.01314981,-0.024895197,-0.23251444,27.75,28.75,27.9375,31.875,33.875,34.75
0.2640521,0.33676276,-1.1661446,-0.44915769,-0.022976305,0.007111663,-0.16735762,-0.39770114,-0.34789762,0.05992575,-3.0782037,0.6226613,-6.54023e-05,-0.12925674,0.0054486743,0.00016644198,0.006121385,0.00010404811,0.025252722,0.46212327,-1.3985184,1.9248956,-2.0950224,-1.5714554,2.4357543,-0.11907921,0.21229553,-0.2589818,0.04922897,-0.006070379,-0.1441766,0.095768064,0.2681506,-9.423578,0.83365434,47.65912,-1.0404229,-2.1370528,-3.47643,-0.01613504,-0.037247773,-0.108383805,27.75,28.75,27.9375,31.875,33.875,34.75
0.26605198,-0.07682426,-0.91956455,-0.5842193,-0.008388191,0.0010198139,-0.16171478,-0.3979277,-0.34790564,0.059915677,-3.078234,0.62247384,-0.00011338708,-0.12933971,0.005725362,0.00012028887,0.007045183,-0.0023358488,0.026411049,0.46193105,-1.3980976,1.9244059,-2.0949252,-1.5714434,2.4354415,-0.119715475,0.21355835,-0.26124913,0.052827813,-0.005812431,-0.14597107,-0.038307227,0.2681506,-9.461885,0.9365982,47.691364,-0.993726,-2.1712904,-3.4028099,-0.04653567,-0.023250416,-0.06430348,27.75,28.75,27.9375,31.875,33.875,34.75
0.26805213,-0.5987653,-0.67795956,-0.69809246,0.00014264755,-0.0037708164,-0.1573677,-0.39818102,-0.34789345,0.059915572,-3.0782228,0.622397,-0.00010790475,-0.13068359,0.005350869,-0.00030096553,0.0066363765,-0.0026610282,0.022999492,0.46170285,-1.3976762,1.9238905,-2.0948179,-1.5714673,2.435167,-0.12046235,0.21690819,-0.26421705,0.05255067,-0.0053098993,-0.14330572,-0.11492168,0.24899697,-9.442732,0.8940802,47.677036,-1.0516953,-2.2485216,-3.4439883,-0.030766916,-0.014567527,-0.0517651,27.75,28.75,27.9375,31.875,33.875,34.75
0.27005202,-0.4345999,-0.49436146,-0.43921867,-0.007375326,0.021157445,-0.16771083,-0.39844492,-0.3478926,0.059916254,-3.0782096,0.62232196,-0.00010601712,-0.13226658,0.006524064,0.00020732681,0.0065416945,-0.0043587647,0.013871144,0.4614854,-1.3972195,1.9233288,-2.0946968,-1.5714911,2.4349048,-0.124332495,0.21793845,-0.26752082,0.056299124,-0.004467265,-0.1380484,-0.21068975,0.17238252,-9.423578,0.85155696,47.688675,-0.9253793,-2.1405935,-3.3767853,-0.07799728,-0.04214924,-0.09259941,27.75,28.75,27.9375,31.875,33.875,34.75
0.27205262,-0.571672,-0.9393534,-0.47302684,0.007259285,0.03242872,-0.16664326,-0.3987168,-0.34788033,0.059920233,-3.0782156,0.62238127,-0.00013550895,-0.13072942,0.005686902,-0.00059966836,0.0088191265,-0.009183764,0.012708788,0.4612107,-1.3967862,1.922789,-2.0945866,-1.5714668,2.4346666,-0.12149256,0.22069742,-0.27017623,0.061535187,-0.0043525584,-0.13404565,-0.4405331,0.19153613,-9.442732,0.9321212,47.668976,-1.1074483,-2.1990623,-3.2956028,-0.11848387,-0.060495913,-0.1470283,27.75,28.75,27.9375,31.875,33.875,34.75
0.27405173,-1.1323092,-0.44150552,-0.36460513,-0.0039693904,0.058470428,-0.16805184,-0.39895973,-0.34785473,0.059896957,-3.0781615,0.62228143,-0.00022269887,-0.13140862,0.0076164887,-0.0008751167,0.01039577,-0.012119715,0.0016834016,0.460969,-1.3963293,1.9222759,-2.0944421,-1.5714911,2.4343698,-0.12529062,0.22132674,-0.27122846,0.06529124,-0.0044610966,-0.12681785,-0.5554548,0.17238252,-9.442732,0.88289046,47.647476,-0.86859655,-2.176578,-3.337202,-0.19076961,-0.052185588,-0.22262661,27.75,28.75,27.9375,31.875,33.875,34.75
0.27605197,-1.4141757,-0.60847276,-0.3648161,-0.008534997,0.07930903,-0.16302502,-0.39923677,-0.34786248,0.059903435,-3.0782073,0.6223082,-0.00021604917,-0.13139738,0.0068873926,-0.0009633847,0.010707815,-0.011494983,0.0021649476,0.460718,-1.395885,1.9217261,-2.094371,-1.5714554,2.43413,-0.12354607,0.2223856,-0.27225423,0.06484401,-0.0050202184,-0.12555325,-0.61291564,0.19153613,-9.481039,0.83813137,47.682407,-1.0858707,-1.978246,-3.5159984,-0.20408481,-0.057798855,-0.2578214,27.75,28.75,27.9375,31.875,33.875,34.75
0.27805215,-2.0575256,-0.7382602,-0.12701946,-0.014839367,0.09804499,-0.1634838,-0.3994935,-0.34787145,0.05992497,-3.078208,0.6222722,-0.00026234562,-0.13105524,0.007305138,-0.0013284712,0.0121288,-0.013418977,-0.0018175062,0.4605021,-1.3954521,1.9211277,-2.0941784,-1.5714434,2.4338918,-0.12361583,0.22312349,-0.2728816,0.06709377,-0.0054378025,-0.12163957,-0.7661445,0.1340753,-9.461885,0.8672237,47.675243,-1.126648,-1.9928207,-3.5948668,-0.23484947,-0.05118835,-0.32095683,27.75,28.75,27.9375,31.875,33.875,34.75
0.28005224,-1.2646449,-0.13953544,-0.13120092,0.002933276,0.11241661,-0.16981113,-0.39975613,-0.34782866,0.059905875,-3.0781345,0.6223539,-0.00031647467,-0.13233641,0.0072030867,0.00018719553,0.010502734,-0.010977316,-0.005095098,0.46021354,-1.395008,1.9206251,-2.0940588,-1.5714673,2.4336638,-0.12467148,0.22182363,-0.2750318,0.06763026,-0.005079334,-0.11941768,-0.8619126,0.15322891,-9.289502,0.85826975,47.68599,-1.0451831,-1.8609774,-3.6892095,-0.26934695,-0.06185532,-0.3949581,27.75,28.75,27.9375,31.875,33.875,34.75
0.28205222,-1.4411674,0.05210019,-0.30380073,0.028573483,0.09164296,-0.16831176,-0.4000226,-0.34781468,0.059891727,-3.0781112,0.622331,-0.00040671462,-0.13434269,0.0068621323,0.0013370309,0.008864134,-0.008506867,-0.006882949,0.45994923,-1.3945274,1.9200629,-2.0939152,-1.5714549,2.4333885,-0.12593731,0.22253613,-0.27855644,0.06750081,-0.004726419,-0.11889475,-0.7469909,-0.05746084,-9.32781,0.97464454,47.694946,-1.1066335,-1.8365257,-3.5421932,-0.3043096,-0.09136802,-0.46014798,27.75,28.75,27.9375,31.875,33.875,34.75
0.2840522,-1.1782665,0.25388235,-0.32129255,0.042260293,0.078143276,-0.1596167,-0.40031388,-0.34779328,0.059898004,-3.0780525,0.62241244,-0.000338423,-0.13565558,0.007272423,0.0003332879,0.009397016,-0.008779936,-0.0042973976,0.4596967,-1.3940691,1.9194883,-2.093808,-1.5715154,2.4331946,-0.12745118,0.22579266,-0.2798288,0.065987505,-0.005094806,-0.12299227,-0.5554548,-0.17238252,-9.404425,0.800085,47.67166,-1.0317681,-1.9576192,-3.5382102,-0.31278253,-0.090040065,-0.47136122,27.75,28.75,27.9375,31.875,33.875,34.75
0.28605208,-0.51452816,1.0029249,-0.53920853,0.046773016,0.055700924,-0.17615227,-0.40058792,-0.34777355,0.05989962,-3.078025,0.62238336,-0.00037577338,-0.13802175,0.007975811,0.00069016987,0.0094374735,-0.0062249335,0.0022854814,0.4594319,-1.3936127,1.9189156,-2.093653,-1.5715278,2.4329154,-0.12986626,0.22724976,-0.28211284,0.06453635,-0.0062891105,-0.13198592,-0.49799395,-0.095768064,-9.481039,0.8672237,47.684196,-0.9672874,-1.9869764,-3.5273833,-0.31252855,-0.06951454,-0.42183524,27.75,28.75,27.9375,31.875,33.875,34.75
0.2880521,-0.49405128,0.36796427,-0.3842642,0.035843603,0.056135535,-0.17569368,-0.40086743,-0.34777752,0.059907682,-3.0780458,0.62230635,-0.0003382815,-0.1403834,0.0080781,0.0010533198,0.009267741,-0.0037120169,0.008726796,0.45920354,-1.3931557,1.9183406,-2.0935571,-1.5715398,2.4326367,-0.13136633,0.2294967,-0.28536558,0.06320824,-0.0072678137,-0.13992335,-0.53630114,0.038307227,-9.557653,0.9298854,47.67345,-0.96699023,-1.9256291,-3.6030114,-0.31166553,-0.08501047,-0.34450907,27.75,28.75,27.9375,31.875,33.875,34.75
0.2900521,-1.310059,-0.44465744,-0.6626843,0.014770388,0.04878919,-0.16301975,-0.40116677,-0.34776324,0.059913307,-3.0780644,0.62226564,-0.00038202858,-0.14152534,0.006834886,0.00038405135,0.009236675,-0.0035249684,0.020267813,0.4589039,-1.3926734,1.9177307,-2.093414,-1.5715159,2.4323096,-0.13001448,0.23403761,-0.28901577,0.062129196,-0.0073475246,-0.15011,-0.30645782,0.0,-9.5385,0.88289046,47.689575,-1.0025544,-2.0831127,-3.4184794,-0.31199446,-0.059408866,-0.24427664,27.75,28.75,27.9375,31.875,33.875,34.75
0.29205203,-0.8154967,-0.43433198,-0.8080896,-0.013148173,0.06534006,-0.1706898,-0.40144762,-0.3477309,0.059911333,-3.0780153,0.6222542,-0.0003942197,-0.14385726,0.006910824,0.0002506074,0.007971857,-0.0026939258,0.022664765,0.45862696,-1.392216,1.9171671,-2.093271,-1.5715522,2.432032,-0.13251819,0.23718245,-0.29220733,0.060856566,-0.0066036917,-0.15501043,-0.24899697,0.019153614,-9.710882,0.87617236,47.66091,-0.91033816,-2.1563199,-3.293802,-0.29250425,-0.05981437,-0.16824791,27.75,28.75,27.9375,31.875,33.875,34.75
0.29405195,-0.9407226,-1.3430371,-0.6361284,-0.032365393,0.07488389,-0.16469453,-0.40173033,-0.34772006,0.059907146,-3.078026,0.6221975,-0.00039927577,-0.14467952,0.006618818,0.0006079351,0.007733026,-0.0008609225,0.024296563,0.4583632,-1.3917472,1.9166058,-2.0931756,-1.5715522,2.431732,-0.13221976,0.23768908,-0.29350057,0.059893332,-0.0072090435,-0.15634176,-0.38307226,0.13407528,-9.730036,0.88289046,47.68599,-0.9450497,-2.1642275,-3.4057498,-0.29335374,-0.053721935,-0.113295734,27.75,28.75,27.9375,31.875,33.875,34.75
0.29605186,-1.3830824,-1.4978321,-1.0046339,-0.040852148,0.06056839,-0.16319935,-0.40201798,-0.3476959,0.05990873,-3.0780067,0.62211853,-0.000410175,-0.14546147,0.006215938,0.00051974447,0.0074372273,0.00078988046,0.021276787,0.4580876,-1.3912789,1.9160208,-2.0930326,-1.5715765,2.4314098,-0.13177451,0.23890974,-0.29439428,0.05795437,-0.0076820105,-0.15287478,-0.4405331,0.28730422,-9.730036,0.9186956,47.677036,-1.0463867,-2.1067243,-3.496467,-0.28506362,-0.044806585,-0.12654197,27.75,28.75,27.9375,31.875,33.875,34.75
0.298052,-1.4132568,-2.215377,-1.0678988,-0.039999034,0.05062919,-0.15352415,-0.40230158,-0.34766746,0.05990236,-3.0779655,0.6220567,-0.00039775713,-0.14608938,0.006723211,-0.00034836447,0.007867524,0.0010451836,0.013436261,0.45782304,-1.3908097,1.9154581,-2.0929134,-1.5716242,2.4311123,-0.13276638,0.24042779,-0.29381666,0.05581921,-0.008181996,-0.14602464,-0.4213795,0.36391866,-9.749189,0.9298854,47.691364,-0.9783459,-2.0982013,-3.7127347,-0.26513952,-0.06264249,-0.20127928,27.75,28.75,27.9375,31.875,33.875,34.75
0.300052,-0.41389203,-2.1347976,-0.85526055,-0.06876458,0.063802406,-0.17020969,-0.40262443,-0.34763816,0.0599215,-3.0779412,0.6220912,-0.00031218294,-0.14672984,0.005993159,-0.00037711367,0.0067787343,0.002867806,0.00899621,0.45752364,-1.3903408,1.9148377,-2.0927947,-1.5716723,2.4308379,-0.1320229,0.2414129,-0.29445118,0.053347923,-0.00800813,-0.14084132,-0.28730422,0.34476504,-9.672575,0.89631605,47.685097,-1.0197315,-2.1571426,-3.7510457,-0.22403379,-0.062179156,-0.26201025,27.75,28.75,27.9375,31.875,33.875,34.75
0.3020519,-0.54520816,-2.1607096,-0.87145525,-0.05258131,0.022882026,-0.14619069,-0.40288356,-0.347646,0.059880596,-3.0779219,0.62201387,-0.00041569187,-0.1499225,0.006330092,0.0011698424,0.004509803,0.0075889113,0.003726591,0.45730615,-1.3898002,1.914275,-2.0926998,-1.5716604,2.430575,-0.13520756,0.24139038,-0.29760885,0.051292837,-0.00807666,-0.1387543,-0.11492168,0.4213795,-9.653421,0.92093146,47.660015,-0.9675294,-2.0712779,-3.7431443,-0.18582708,-0.036527604,-0.2916617,27.75,28.75,27.9375,31.875,33.875,34.75
0.30405188,0.07447783,-1.8102661,-0.91874206,-0.034591176,0.012621972,-0.16009253,-0.40322912,-0.34762818,0.059923355,-3.0779502,0.622056,-0.00022222777,-0.15072252,0.0044238106,0.0019938422,0.0030482206,0.010674698,0.004917134,0.45700768,-1.3893559,1.9136399,-2.0926287,-1.5717086,2.4302995,-0.13241194,0.24258979,-0.30062908,0.04969267,-0.008117432,-0.13714863,-0.19153613,0.4213795,-9.481039,0.8672237,47.661808,-1.1340184,-1.9209929,-3.7424502,-0.13839713,-0.06540412,-0.33871204,27.75,28.75,27.9375,31.875,33.875,34.75
0.30605173,-0.12863788,-1.6003538,-0.80928224,-0.020496493,-0.001245302,-0.15563725,-0.40356874,-0.34761384,0.05994226,-3.0780127,0.6220495,-0.0001358741,-0.1532993,0.0042739087,0.003245891,0.0006680307,0.0135245295,0.0051809778,0.45668268,-1.3888747,1.9130181,-2.0925686,-1.5716962,2.4299629,-0.13477051,0.24341522,-0.30441004,0.049034353,-0.007236306,-0.13977222,-0.05746084,0.45968673,-9.442732,0.9835985,47.678825,-1.0005016,-1.9286807,-3.6787262,-0.083618306,-0.05183582,-0.38776225,27.75,28.75,27.9375,31.875,33.875,34.75
0.30805248,0.5496289,-0.9882298,-1.0881284,-0.0031964153,-0.00030549953,-0.15957475,-0.40385118,-0.34760234,0.059934147,-3.0779672,0.6220582,-0.00013453444,-0.15539388,0.0038733054,0.0049222433,-0.0011042428,0.016143056,0.005296488,0.45644224,-1.3883824,1.9124311,-2.0924485,-1.5717319,2.429734,-0.13602194,0.24359542,-0.30879337,0.05009643,-0.0068086693,-0.14113852,0.15322891,0.47884035,-9.5385,0.9791215,47.664497,-1.06425,-1.7518661,-3.589408,-0.050257087,-0.057306916,-0.3860864,27.75,28.75,27.9375,31.875,33.875,34.75
0.31005245,0.71292984,-0.7793596,-0.8933207,-0.013823451,0.019722773,-0.1609513,-0.4041651,-0.34760264,0.05993837,-3.0780122,0.6219872,-0.00010724477,-0.1560198,0.005068446,0.004155354,0.0007559584,0.013172031,0.010326104,0.45616558,-1.3878771,1.9118084,-2.0923636,-1.57172,2.4294076,-0.13827403,0.24599162,-0.31064,0.05302743,-0.0071648867,-0.14841908,-0.019153614,0.38307226,-9.481039,0.9231726,47.647476,-0.918227,-1.7433438,-3.505278,-0.07631298,-0.057916157,-0.32755,27.75,28.75,27.9375,31.875,33.875,34.75
0.31205243,-0.120939635,-1.2442794,-1.16345,-0.018805183,0.019982062,-0.15450972,-0.404498,-0.3475879,0.05994812,-3.077997,0.622018,-3.722692e-05,-0.15711072,0.0058443276,0.0017565914,0.0025274854,0.009212201,0.01738992,0.45587674,-1.3873583,1.9111518,-2.0922558,-1.5717558,2.4291403,-0.14050774,0.2522232,-0.31264162,0.053115267,-0.007016575,-0.15771565,-0.019153614,0.45968673,-9.500193,0.9925471,47.66539,-0.81735283,-1.9033661,-3.4632325,-0.053127572,-0.062173225,-0.24480781,27.75,28.75,27.9375,31.875,33.875,34.75
0.3140524,-0.23733312,-1.4863229,-1.0515407,-0.023351707,0.02874645,-0.16647948,-0.40480483,-0.34757945,0.05995974,-3.0780463,0.62194735,-6.242254e-05,-0.15708108,0.006131581,0.0012351332,0.0032401122,0.0067876414,0.024849672,0.4555766,-1.3868773,1.9105295,-2.0921233,-1.57172,2.42879,-0.14110586,0.25381488,-0.31393337,0.055300135,-0.0065908725,-0.1657743,0.076614454,0.3256114,-9.730036,0.87393653,47.675243,-0.765587,-2.074676,-3.4438465,-0.030228637,-0.065164864,-0.1541833,27.75,28.75,27.9375,31.875,33.875,34.75
0.31605238,0.15474498,-1.6185423,-0.75473577,-0.038678028,0.047351584,-0.16064066,-0.40509865,-0.347562,0.059962627,-3.0780234,0.62178814,-5.1849012e-05,-0.15703356,0.00571326,0.0016426105,0.0034791157,0.005296877,0.025446963,0.4553248,-1.3863845,1.9099077,-2.0919669,-1.5717682,2.4284422,-0.14048776,0.2546275,-0.31670073,0.058687966,-0.0061514685,-0.16575374,-0.076614454,0.28730422,-9.634268,0.91198283,47.681515,-0.93029994,-2.1629493,-3.4901853,-0.030643098,-0.0687534,-0.08001357,27.75,28.75,27.9375,31.875,33.875,34.75
0.31805208,-0.20936747,-1.4351593,-0.44328687,-0.034851626,0.032886147,-0.15485069,-0.4054603,-0.3475634,0.060016032,-3.078087,0.62185967,0.00013148368,-0.1560666,0.005474846,0.000854606,0.004834598,0.002916381,0.02464258,0.45502537,-1.385915,1.9092144,-2.0918825,-1.5717801,2.4281797,-0.13900255,0.2559873,-0.31699115,0.06035224,-0.006293881,-0.16346478,-0.019153614,0.38307226,-9.500193,0.92093146,47.694946,-0.93888456,-2.1357512,-3.5644445,-0.0356495,-0.06042645,-0.062193997,27.75,28.75,27.9375,31.875,33.875,34.75
0.32005215,0.21917066,-1.0192447,-0.5682549,-0.022020258,0.041693393,-0.16517922,-0.40575284,-0.34757775,0.059985273,-3.0781288,0.62167984,7.59948e-05,-0.15796088,0.00540502,0.0012582915,0.0039451797,0.0062363986,0.018015709,0.45478496,-1.385351,1.908604,-2.091812,-1.5717558,2.427822,-0.13995114,0.25699815,-0.3186141,0.05760241,-0.0069628493,-0.15778401,-0.05746084,0.2873042,-9.461885,0.8985519,47.690468,-0.86948216,-2.0921588,-3.6422079,0.0021292951,-0.084641054,-0.13477813,27.75,28.75,27.9375,31.875,33.875,34.75
0.322052,0.4616079,-0.8384812,-0.47338423,-0.017645327,0.03243165,-0.1587446,-0.40608945,-0.34755304,0.060000747,-3.0780993,0.62173414,0.00015980654,-0.158074,0.0062307054,0.00014833588,0.0051142094,0.0031756547,0.010196147,0.45448494,-1.3848455,1.907946,-2.0916908,-1.5718039,2.42756,-0.14152324,0.2592598,-0.31923857,0.059225053,-0.006656479,-0.1515373,0.0,0.22984336,-9.481039,0.9030289,47.701214,-1.0697827,-1.9935596,-3.6421237,0.01136658,-0.08003042,-0.20979469,27.75,28.75,27.9375,31.875,33.875,34.75
0.32405198,0.34643245,-0.8850165,-0.054973047,-0.019678125,0.015548399,-0.16249624,-0.40640008,-0.34756213,0.06000586,-3.0781417,0.62168753,0.00016092238,-0.16025703,0.005116796,0.0022729032,0.0034216023,0.005994193,0.005856534,0.4542208,-1.3843287,1.9073008,-2.091583,-1.5717801,2.4272618,-0.14149052,0.26003143,-0.32564542,0.0615908,-0.0063743065,-0.14716348,0.0,0.17238252,-9.32781,0.900793,47.67614,-1.0183796,-1.9791987,-3.5639796,0.024728945,-0.06559302,-0.26723015,27.75,28.75,27.9375,31.875,33.875,34.75
0.32605183,0.4554281,-0.59596866,-0.26792902,0.0035573891,-0.006186375,-0.15599588,-0.40671766,-0.34754068,0.06001012,-3.0781353,0.62167,0.00016721734,-0.16171932,0.0054494347,0.0028775572,0.0033392296,0.0059582936,-0.0002942635,0.4539202,-1.3838236,1.9066657,-2.0914505,-1.5717915,2.4269514,-0.14322177,0.26131153,-0.32915753,0.06382026,-0.0062831,-0.14274299,-0.13407528,0.19153613,-9.174581,0.9567419,47.71286,-0.92849886,-1.8929307,-3.5076337,0.02738731,-0.09265907,-0.33423156,27.75,28.75,27.9375,31.875,33.875,34.75
0.3280518,0.545765,0.020415876,-0.18467726,0.02331913,-0.013726603,-0.16276246,-0.4070313,-0.34751862,0.059989434,-3.0780847,0.62181497,9.131076e-05,-0.16170414,0.0064544594,0.0021632942,0.0056953137,0.0029548244,-0.004480444,0.4536079,-1.3832712,1.906031,-2.0913174,-1.5717801,2.4267364,-0.14430001,0.26306707,-0.33048663,0.06713238,-0.0070837014,-0.1396328,-0.17238252,0.21068975,-9.021352,0.8717007,47.68599,-0.93093294,-1.8567705,-3.3124688,0.0019240731,-0.07697201,-0.42233866,27.75,28.75,27.9375,31.875,33.875,34.75
0.33005172,0.49131465,0.07593529,-0.13065152,0.030654736,-0.0067322967,-0.16653796,-0.40739086,-0.3475187,0.060046438,-3.0781348,0.6217283,0.00027634113,-0.16114561,0.0061863884,0.0015568883,0.0072593438,-0.0011051598,-0.003482477,0.45333225,-1.3827894,1.9053024,-2.091184,-1.5718278,2.4264007,-0.1434539,0.2657526,-0.33342588,0.07171112,-0.0066916365,-0.13978542,-0.05746084,0.076614454,-9.136273,0.8873621,47.688675,-1.0101304,-1.8892236,-3.4895308,-0.025812112,-0.091787115,-0.51250327,27.75,28.75,27.9375,31.875,33.875,34.75
0.33205178,-0.698062,-0.10090948,-0.22723536,0.032261573,-0.010498914,-0.15083784,-0.40771008,-0.34751093,0.06002872,-3.0781107,0.62168205,0.00023764501,-0.16127877,0.0067336224,0.0020242168,0.007769111,-0.0029387635,0.0016724622,0.45305538,-1.3822128,1.904632,-2.0910509,-1.5718402,2.4260983,-0.14458111,0.2656603,-0.33541614,0.07565377,-0.006353538,-0.146068,-0.19153613,0.076614454,-9.136273,1.0216395,47.67345,-0.8301077,-1.8748479,-3.4404137,-0.067299016,-0.083328195,-0.46097708,27.75,28.75,27.9375,31.875,33.875,34.75
0.3340517,-1.1398472,-0.3881255,0.30489966,0.016021706,0.03212479,-0.16609094,-0.40801948,-0.34751353,0.0600353,-3.0781481,0.6216042,0.00015218585,-0.16122466,0.008115673,0.0020220322,0.009267723,-0.007816021,0.011533285,0.45276698,-1.3816842,1.9039515,-2.0908692,-1.5717915,2.425757,-0.1472687,0.2663827,-0.3379407,0.082486294,-0.005572313,-0.15861782,-0.40222588,0.038307227,-9.078813,0.8314132,47.698532,-0.9875512,-1.8799025,-3.5225992,-0.15765816,-0.10744578,-0.37322545,27.75,28.75,27.9375,31.875,33.875,34.75
0.33605173,-1.2319572,-0.5072416,0.12224624,0.031468514,0.054614168,-0.16780715,-0.40831578,-0.3474799,0.0600206,-3.0780747,0.6215645,7.762021e-05,-0.16024858,0.0070452187,0.0023036061,0.00936189,-0.008084903,0.023303771,0.45248002,-1.3811562,1.9033178,-2.0906775,-1.5718273,2.4254549,-0.14445959,0.2661253,-0.33869627,0.08376514,-0.005562171,-0.16757894,-0.34476504,0.05746084,-9.11712,1.0283576,47.667187,-1.0991998,-1.5374317,-3.5303206,-0.19367601,-0.1262035,-0.27451834,27.75,28.75,27.9375,31.875,33.875,34.75
0.33805174,-1.0382557,0.17430598,0.23537138,0.027180826,0.0725461,-0.17443992,-0.40865013,-0.34747747,0.060034394,-3.078088,0.6214096,0.00013290712,-0.16006912,0.008044729,0.000294884,0.013014945,-0.013990445,0.029146934,0.4522156,-1.3806136,1.9026121,-2.090532,-1.571864,2.4250925,-0.14545357,0.27102295,-0.3410254,0.088092156,-0.0062679937,-0.17441362,-0.3256114,-0.05746084,-9.155427,0.9298854,47.707485,-1.0767231,-1.7759955,-3.5219474,-0.23604539,-0.13271816,-0.18163961,27.75,28.75,27.9375,31.875,33.875,34.75
0.34005252,-1.0732281,-0.06392934,0.2131964,0.035064075,0.066101246,-0.15929323,-0.40898126,-0.34747973,0.060054593,-3.078113,0.6212796,0.00012681693,-0.16071348,0.008013338,-0.0005496962,0.013791379,-0.01563104,0.030958295,0.45193952,-1.3800718,1.901882,-2.0903404,-1.571864,2.4247324,-0.14580224,0.27430147,-0.34329665,0.08889593,-0.0062605017,-0.17657259,-0.40222588,-0.019153614,-9.212888,0.92764956,47.70211,-1.0988691,-1.8941627,-3.4907,-0.29658717,-0.11621722,-0.13606554,27.75,28.75,27.9375,31.875,33.875,34.75
0.34205234,-1.1082917,-0.28971508,0.23059776,0.025900217,0.056238033,-0.17119199,-0.40931228,-0.34745404,0.060049627,-3.0780973,0.6212419,7.609751e-05,-0.162299,0.0074565522,-0.0005972508,0.013322729,-0.014203944,0.024036227,0.45161545,-1.3795185,1.9012011,-2.0901735,-1.571864,2.4243872,-0.14588685,0.27709267,-0.3463563,0.087683,-0.006478997,-0.16973288,-0.47884035,-0.05746084,-9.040505,0.90527004,47.668976,-1.1935992,-1.9750388,-3.5067947,-0.30899888,-0.13651687,-0.1596748,27.75,28.75,27.9375,31.875,33.875,34.75
0.34405228,-0.71585023,-0.8031454,0.077870205,0.028204411,0.049553838,-0.15874305,-0.4096309,-0.34742567,0.060016163,-3.0780132,0.6211321,-1.8914781e-05,-0.16409232,0.007247544,-0.0010615458,0.012814935,-0.012873581,0.016555306,0.45132723,-1.3789048,1.9005078,-2.0899827,-1.5719117,2.4240415,-0.14679861,0.28026295,-0.3487028,0.08543951,-0.006630771,-0.16316132,-0.38307226,-0.019153614,-9.059659,0.9455522,47.655537,-1.1900426,-2.0059674,-3.4470344,-0.31720522,-0.13427493,-0.23081346,27.75,28.75,27.9375,31.875,33.875,34.75
0.34605235,-0.6222003,-0.5884853,0.06411009,0.00936794,0.04518074,-0.16658884,-0.40995654,-0.34741238,0.060018152,-3.077999,0.62122726,-7.376187e-05,-0.16650555,0.007117485,0.00019944555,0.011037453,-0.007324784,0.0116254585,0.45101488,-1.3783641,1.8998255,-2.0898168,-1.5718879,2.4237907,-0.14792688,0.27986607,-0.35041568,0.081790365,-0.0074676536,-0.15935686,-0.49799395,0.1340753,-9.174581,0.90750587,47.69763,-1.1469432,-2.0128396,-3.6076412,-0.3031693,-0.1327138,-0.29358664,27.75,28.75,27.9375,31.875,33.875,34.75
0.3480524,-1.255886,-1.647744,0.19914646,-0.012852738,0.04595758,-0.15686314,-0.41029185,-0.34738854,0.060016558,-3.077956,0.6211814,-8.719791e-05,-0.16937609,0.0072453762,0.00077696325,0.010390098,-0.0027607188,0.008402985,0.45071456,-1.377799,1.8991193,-2.089638,-1.571925,2.4234676,-0.14951669,0.2816184,-0.3531878,0.07841936,-0.008894882,-0.157719,-0.51714754,0.28730422,-9.059659,0.93436235,47.705692,-1.2406458,-1.9126688,-3.453263,-0.27204075,-0.109506935,-0.3225257,27.75,28.75,27.9375,31.875,33.875,34.75
0.35005227,-0.95473546,-1.8941537,0.29171258,-0.034132037,0.0669009,-0.1742569,-0.41063002,-0.34736717,0.060024407,-3.0779436,0.62110144,-5.7010733e-05,-0.17082687,0.005275356,0.0018799044,0.008005414,0.002426626,0.0097001605,0.45041516,-1.3772584,1.8984259,-2.089484,-1.5719603,2.4231203,-0.14709821,0.2823355,-0.35583034,0.0746307,-0.009022136,-0.15659617,-0.45968673,0.30645782,-9.174581,0.90750587,47.677036,-1.2163253,-1.849422,-3.3880768,-0.23370694,-0.10408677,-0.3635968,27.75,28.75,27.9375,31.875,33.875,34.75
0.35205242,-1.3588237,-2.47233,-0.13679533,-0.034540165,0.05257067,-0.16270931,-0.41092294,-0.34734774,0.059969194,-3.077861,0.62104416,-0.00018840218,-0.17286995,0.005174929,0.002375966,0.0057106237,0.005415505,0.011307329,0.45015058,-1.376646,1.8977932,-2.0893414,-1.5719846,2.4228308,-0.14895514,0.28310138,-0.35736963,0.071701534,-0.008290076,-0.16006045,-0.40222588,0.34476504,-9.136273,0.91421866,47.672558,-1.0860484,-1.874723,-3.4681792,-0.20768593,-0.108279094,-0.36640853,27.75,28.75,27.9375,31.875,33.875,34.75
0.35405228,-1.3895675,-2.3473325,-0.09845093,-0.058604106,0.060854077,-0.1735266,-0.41130233,-0.3473448,0.05999047,-3.0778832,0.6210049,-0.00016350282,-0.17463897,0.0041031125,0.0035125515,0.0037870456,0.009712581,0.019469723,0.44982708,-1.3760449,1.8969911,-2.089162,-1.5719846,2.4224803,-0.14831494,0.2836105,-0.36016524,0.06927073,-0.008442185,-0.1675814,-0.34476504,0.4405331,-9.270349,0.9321212,47.655537,-1.3170404,-1.7863613,-3.4913392,-0.16154957,-0.119124316,-0.3167787,27.75,28.75,27.9375,31.875,33.875,34.75
0.3560522,-1.100218,-2.0193198,-0.045505114,-0.056656297,0.056230407,-0.18231232,-0.41165164,-0.34735262,0.06001285,-3.0779376,0.62085694,-5.615208e-05,-0.17586122,0.0046196645,0.0031579859,0.0038091175,0.010564879,0.028056666,0.44956258,-1.3755039,1.896274,-2.0890553,-1.5720085,2.422117,-0.1498257,0.28506172,-0.3608777,0.06775643,-0.008834547,-0.1776784,-0.2681506,0.38307226,-9.193734,0.9947882,47.66271,-1.3337324,-1.6609873,-3.5666184,-0.12562008,-0.11870037,-0.2227185,27.75,28.75,27.9375,31.875,33.875,34.75
0.35805207,-0.960286,-1.5557419,-0.15554099,-0.03969766,0.04088788,-0.17366743,-0.4119874,-0.34732488,0.059978515,-3.0779045,0.62084705,-0.00016238743,-0.17765342,0.0044764997,0.0023352583,0.003037815,0.009991374,0.03226667,0.44922614,-1.3748903,1.8955911,-2.0889118,-1.5719966,2.421779,-0.15147829,0.28931415,-0.36400595,0.06680259,-0.007916907,-0.18354112,-0.34476504,0.38307226,-9.232041,0.97464454,47.687782,-1.3710995,-1.792743,-3.5779445,-0.09233379,-0.1173022,-0.12172073,27.75,28.75,27.9375,31.875,33.875,34.75
0.3600522,-0.7829469,-1.2944735,-0.37115937,-0.022263654,0.020606298,-0.17574953,-0.41237545,-0.34730586,0.059983477,-3.0778828,0.6208048,-4.161079e-05,-0.17737193,0.005125795,0.0007242775,0.0043658502,0.0073764347,0.03251598,0.44891354,-1.3742768,1.8948268,-2.0888045,-1.5720686,2.4214432,-0.15214969,0.29164946,-0.3632359,0.06661319,-0.007967918,-0.18446237,-0.24899697,0.4213795,-9.289502,0.95897776,47.684196,-1.1815889,-1.8201227,-3.6551752,-0.06778427,-0.1309748,-0.061318137,27.75,28.75,27.9375,31.875,33.875,34.75
0.3620523,-0.40791002,-1.678096,-0.4436279,-0.011185177,0.016034398,-0.16585702,-0.41273308,-0.34729192,0.059974845,-3.077921,0.620741,-5.6384346e-05,-0.17986442,0.006610952,0.0011255809,0.0040616756,0.008039902,0.022923024,0.44857594,-1.3736873,1.8941215,-2.0886967,-1.5720447,2.4210613,-0.15659863,0.29291165,-0.36598092,0.06737542,-0.00797737,-0.17931755,-0.17238252,0.2873042,-9.3661175,0.93436235,47.66271,-1.0295117,-1.9646893,-3.6434917,-0.028730307,-0.12181188,-0.08580975,27.75,28.75,27.9375,31.875,33.875,34.75
0.3640522,-0.13764162,-1.2535769,-0.15326229,-0.017084697,0.01651714,-0.17387138,-0.41306564,-0.34725666,0.059938908,-3.07787,0.6206378,-0.00014453134,-0.18185914,0.005401268,0.0012447225,0.0035983503,0.008699778,0.017132552,0.4482525,-1.3730739,1.8934387,-2.0885403,-1.5720686,2.4206803,-0.15608093,0.2974602,-0.3719783,0.068030536,-0.0078640515,-0.17300639,-0.34476504,0.3256114,-9.232041,0.8672237,47.655537,-1.0722955,-1.984341,-3.5624628,-0.0139956195,-0.13957596,-0.16863368,27.75,28.75,27.9375,31.875,33.875,34.75
0.36605176,-0.65006936,-0.89770436,-0.36088657,-0.0010267374,0.008835126,-0.16767707,-0.41344476,-0.34728393,0.059962094,-3.077923,0.6206341,-7.462456e-05,-0.18310586,0.0059090056,0.0013951384,0.0038129864,0.008527382,0.0074363104,0.44797578,-1.37246,1.8926257,-2.0884082,-1.5720562,2.420395,-0.15775092,0.29888976,-0.3744912,0.069373846,-0.007963339,-0.1649797,-0.19153613,0.22984336,-9.32781,0.9567419,47.691364,-1.0136603,-2.1672008,-3.5024352,0.013391132,-0.1324765,-0.24677992,27.75,28.75,27.9375,31.875,33.875,34.75
0.36805168,-0.10028552,-0.555246,-0.26688868,0.010206619,0.022525344,-0.17489521,-0.41381586,-0.34725338,0.05994754,-3.077889,0.6205142,-4.1239302e-05,-0.18365236,0.0061657107,0.00046013764,0.005148446,0.0054914947,0.0018186496,0.4476515,-1.3718344,1.8918842,-2.0882752,-1.5721163,2.4200006,-0.15853527,0.30255413,-0.37749973,0.07202715,-0.007849153,-0.16014545,-0.076614454,0.17238252,-9.308657,0.8605109,47.678825,-1.0045531,-2.147352,-3.4875412,0.036873925,-0.15081388,-0.31283754,27.75,28.75,27.9375,31.875,33.875,34.75
0.37005365,-0.42692846,-0.8910876,-0.16950263,0.022116086,0.02245064,-0.16966237,-0.41418886,-0.34725472,0.059949182,-3.0778697,0.62062883,-6.974154e-06,-0.1843253,0.0066095036,0.0009044175,0.0053358767,0.00372121,-0.0043039946,0.44735107,-1.3712096,1.8911065,-2.0881422,-1.5721282,2.4197745,-0.16005035,0.3034343,-0.38061777,0.07594265,-0.0072411406,-0.15553898,-0.19153613,0.15322891,-9.289502,1.0015011,47.69763,-1.0132726,-2.2408662,-3.3083286,0.0100722555,-0.15098363,-0.41888827,27.75,28.75,27.9375,31.875,33.875,34.75
0.37205252,-0.21279307,-0.36249384,-0.4712319,0.025757596,0.010966243,-0.17793983,-0.4145519,-0.34722772,0.0599523,-3.077854,0.62070113,-1.3093156e-05,-0.18425478,0.0069725364,0.00012632989,0.0062075965,0.0011134133,-0.0043262597,0.4470032,-1.3706328,1.8903769,-2.0879862,-1.5721282,2.4194741,-0.16063818,0.30533463,-0.3817057,0.07785456,-0.0068986905,-0.15610522,-0.30645782,0.11492168,-9.3661175,0.9410752,47.70211,-0.9847271,-2.132044,-3.443615,0.004188046,-0.15000969,-0.47321677,27.75,28.75,27.9375,31.875,33.875,34.75
0.37405172,-0.48909414,-0.15489389,-0.64309275,0.01809654,0.00430821,-0.18449154,-0.41492695,-0.34722868,0.0599504,-3.077885,0.6205881,-6.4428605e-05,-0.18185075,0.008775945,-0.0010338654,0.009751294,-0.006572254,0.002174177,0.44667864,-1.3699836,1.8895663,-2.087804,-1.5721039,2.4190755,-0.16163579,0.30500627,-0.38059008,0.085520856,-0.00676644,-0.163605,-0.114921674,0.076614454,-9.423578,0.9701675,47.703007,-0.9330978,-2.1502414,-3.6144524,-0.03545037,-0.16040294,-0.45410568,27.75,28.75,27.9375,31.875,33.875,34.75
