Tylouw/Master_Thesis_Code/training_data/batch_1/small_rod_t0.2/sample_88_session_3.csv
timestamp[s],tcp_force_x[N],tcp_force_y[N],tcp_force_z[N],tcp_force_rx[Nm?],tcp_force_ry[Nm?],tcp_force_rz[Nm?],tcp_pose_x[m],tcp_pose_y[m],tcp_pose_z[m],tcp_pose_rx[rot_vec_x],tcp_pose_ry[rot_vec_y],tcp_pose_rz[rot_vec_z],tcp_velo_x[m/s],tcp_velo_y[m/s],tcp_velo_z[m/s],tcp_velo_rx[rot_vec_x/s],tcp_velo_ry[rot_vec_y/s],tcp_velo_rz[rot_vec_z/s],q1[rad],q2[rad],q3[rad],q4[rad],q5[rad],q6[rad],qd1[rad/s],qd2[rad/s],qd3[rad/s],qd4[rad/s],qd5[rad/s],qd6[rad/s],tool_acc_x,tool_acc_y,tool_acc_z,current_of_whole_robot[A],voltage_of_whole_robot[V],current_J1[A],current_J2[A],current_J3[A],current_J4[A],current_J5[A],current_J6[A],temp_J1[C],temp_J2[C],temp_J3[C],temp_J4[C],temp_J5[C],temp_J6[C]
8.029747e-07,-0.02011607,0.48298204,1.3583562,-0.021276517,0.0064737247,-0.009294713,-0.381045,-0.3485316,0.059965003,-3.078527,0.62486005,-0.00020074751,0.0011464814,0.00059654465,-0.0011449165,0.00093401276,-0.0020670404,4.605953e-05,0.4778101,-1.425946,1.9577388,-2.1008332,-1.5707458,2.452752,-8.019595e-05,-6.0312177e-05,0.002791032,-0.0004661588,0.00012598772,-0.00012780365,-0.019153614,0.11492168,-8.810662,0.7329411,47.70211,0.035173833,-2.792252,-2.46932,-0.44357568,0.06903055,0.031051371,28.125,29.3125,28.4375,32.375,34.5625,35.5625
0.00205016,-0.57704437,-0.10846933,1.0898955,0.0023497331,-0.012269635,0.0020121576,-0.38106546,-0.34852007,0.059982024,-3.0785139,0.62495375,-0.00012999169,-0.0015276753,-0.0008163627,-0.0014773785,-0.0026831187,0.0049293423,9.86488e-05,0.47778618,-1.4259692,1.9577273,-2.100837,-1.5707697,2.4527884,-2.7067756e-05,0.002421551,0.003164768,-0.011197782,9.705545e-05,-0.00012484846,0.019153614,0.15322891,-8.734048,0.6769922,47.675243,0.027363207,-2.6405387,-2.4424992,-0.39171886,0.07486066,0.02242401,28.125,29.3125,28.4375,32.375,34.5625,35.5625
0.004049737,0.08152106,0.42435867,1.1839715,-0.0055603283,0.0009973277,-0.006404063,-0.38106763,-0.34853244,0.059956465,-3.078523,0.6249166,-0.00015837373,-0.0019631882,-0.0010550993,-0.0020773066,-0.0027789618,0.005127091,0.00012328326,0.4777981,-1.4259086,1.9577273,-2.1008847,-1.5707573,2.452776,-3.6314847e-07,0.0041619423,0.0029492371,-0.012942283,8.668515e-05,-0.00012202677,0.05746084,0.21068975,-8.791509,0.7217513,47.689575,0.049733732,-3.145352,-2.6423445,-0.29533136,0.08371844,0.040655144,28.125,29.3125,28.4375,32.375,34.5625,35.5625
0.006049718,-0.19926544,0.48841417,1.1804816,0.0028859742,-0.019973274,-0.0055700303,-0.3810522,-0.34852666,0.05995789,-3.0784981,0.62487316,-0.00019104643,-0.0011801395,-0.0006460559,-0.0011133229,-0.001905031,0.0034641568,0.00012010753,0.47781014,-1.4259213,1.9577273,-2.100835,-1.5707697,2.452764,-4.8721005e-09,0.0020789616,0.0020032837,-0.008034776,8.4501924e-05,-0.00011933029,-0.038307227,0.17238252,-8.829816,0.72622824,47.704796,0.034154113,-3.0561924,-2.583527,-0.31493336,0.08162044,0.017266508,28.125,29.3125,28.4375,32.375,34.5625,35.5625
0.008049913,0.20462193,0.7897521,0.6843744,0.024182288,-0.028524773,-0.0062966445,-0.3810203,-0.3485213,0.05991303,-3.0784712,0.6248296,-0.0002901667,-0.00063153607,-0.00035907925,4.604175e-05,-0.0014123112,0.0025328633,0.00011684817,0.47782207,-1.4258859,1.9577974,-2.1008694,-1.5707573,2.452752,-6.536545e-11,-0.0001571046,0.0009031843,-0.0036450324,8.290869e-05,-0.00011675039,-0.019153614,0.19153613,-8.848969,0.78217715,47.723602,0.012111269,-3.042617,-2.554222,-0.36862773,0.07263842,0.018543769,28.125,29.3125,28.4375,32.375,34.5625,35.5625
0.010049657,0.4879316,0.9164445,0.3511413,0.022242088,-0.016720422,-0.006236616,-0.3810467,-0.34852794,0.059932187,-3.078517,0.6249347,-0.00025169182,-0.00039310433,-0.00020605452,0.00036715547,-0.0009918464,0.0017316787,7.351772e-05,0.47778618,-1.4258983,1.9577731,-2.1008933,-1.5707215,2.452776,-5.005014e-05,-0.00067649456,0.00030005132,-0.0016176937,8.140655e-05,-0.0001236469,0.019153614,0.11492168,-9.155427,0.7597976,47.690468,-0.37764502,-2.3600423,-3.0191488,-0.4448217,0.08615816,-0.05866108,28.125,29.3125,28.4375,32.375,34.5625,35.5625
0.012050552,-0.10890266,0.24250315,0.05520584,0.0014393127,-0.013744511,-0.013626997,-0.38101763,-0.34850642,0.059886858,-3.078416,0.6248759,-0.00037758207,-0.00021000118,-8.90083e-05,-0.00058481214,4.410083e-05,-0.00029509512,0.00019067225,0.47779807,-1.4258379,1.9577969,-2.1008456,-1.5707573,2.452764,-9.809845e-05,0.0013870932,9.182396e-06,-0.0011143397,9.385821e-05,-0.00028851017,0.05746084,0.11492168,-9.404425,0.7329411,47.67614,-0.6050872,-2.2943563,-3.171022,-0.44127995,0.11818024,-0.121162675,28.125,29.3125,28.4375,32.375,34.5625,35.5625
0.014049589,-0.2028561,-0.07446364,0.064398795,-0.03698491,0.012227433,-0.021379376,-0.38103315,-0.34850332,0.059894226,-3.0784264,0.62489504,-0.00037921517,-0.00427167,0.003067872,-0.0054351124,0.0043177907,-0.008638176,0.00297914,0.47777075,-1.4258329,1.9577717,-2.1008332,-1.5707458,2.4527473,-0.009497407,0.015048999,-0.0045340443,-0.0008610158,0.00012047067,-0.012471919,0.0,0.19153613,-9.423578,0.7530795,47.6421,-0.32216537,-2.972917,-3.2478962,-0.45340544,0.12744191,-0.09595172,28.125,29.3125,28.4375,32.375,34.5625,35.5625
0.016050639,-1.3306592,-1.4426404,-0.10575025,-0.044909444,0.009051733,-0.024653362,-0.38103858,-0.34849706,0.059875567,-3.0784206,0.62483233,-0.00044688425,-0.006955412,0.0024072276,-0.0029786995,0.000681124,-0.0031894622,0.010188308,0.47774622,-1.4257857,1.9577578,-2.1008217,-1.570733,2.4526844,-0.01126753,0.013456692,-0.008003537,-0.002313543,0.0008289026,-0.021450803,-0.21068975,0.2681506,-9.519346,0.6725152,47.723602,-0.28054953,-2.8946676,-3.0909386,-0.4570235,0.12513503,-0.0032956526,28.125,29.3125,28.4375,32.375,34.5625,35.5625
0.018049616,-1.1705266,-0.9242849,-0.12693478,-0.07543515,0.05131832,-0.060121078,-0.38102746,-0.34849852,0.059856523,-3.078404,0.62477005,-0.00050625426,-0.0062407837,0.001080047,-0.0025985227,-0.0041581476,-0.0040131793,0.013451652,0.47775817,-1.4257501,1.9577583,-2.1008103,-1.5707315,2.4526596,-0.011283068,0.012040412,-0.007012884,-0.0033988995,0.0055020293,-0.02473954,-0.34476504,0.3256114,-9.576807,0.7396539,47.71286,-0.4714256,-2.6399186,-3.2526116,-0.4598548,0.115344234,0.006521292,28.125,29.3125,28.4375,32.375,34.5625,35.5625
0.020049531,-2.0532842,-1.1273685,-0.34851742,-0.05163216,0.049693804,-0.07333937,-0.38106054,-0.3484999,0.05986732,-3.0784528,0.6248003,-0.0004326181,-0.0062294714,0.000858287,-0.0027673773,-0.0054544504,-0.005200249,0.012680912,0.47772187,-1.42575,1.9577469,-2.1008694,-1.5707191,2.452636,-0.0119817825,0.012521477,-0.007215367,-0.0032249575,0.007200658,-0.024670245,-0.38307226,0.34476504,-9.749189,0.800085,47.723602,-0.6285716,-2.4459038,-3.5347972,-0.46297294,0.074372634,-0.010426499,28.125,29.3125,28.4375,32.375,34.5625,35.5625
0.022049528,-1.4700706,-0.595971,-0.3787467,-0.023837201,0.06373093,-0.103197545,-0.3810314,-0.3484888,0.059826434,-3.0783963,0.6247138,-0.0006049574,-0.007501411,0.0012578977,-0.0033041798,-0.005307007,-0.006686189,0.00884842,0.47772107,-1.4256891,1.9577574,-2.1008098,-1.5707067,2.4525883,-0.014228167,0.015432088,-0.009473254,-0.0024918271,0.0077474155,-0.023084749,-0.38307226,0.2681506,-9.768343,0.8314132,47.72629,-0.60722804,-2.522076,-3.5698624,-0.47945854,0.086052984,0.00049282145,28.125,29.3125,28.4375,32.375,34.5625,35.5625
0.024050362,-0.90407836,0.07404785,-0.40480372,-0.009870818,0.07234671,-0.12540194,-0.38104895,-0.34849074,0.059817582,-3.078411,0.6246811,-0.0005893725,-0.009723101,0.0012211509,-0.0022000999,-0.0065450594,-0.004576473,0.0045726434,0.47770825,-1.4256529,1.9577445,-2.100846,-1.5707067,2.4525533,-0.016300721,0.016334804,-0.013087825,-0.0022228165,0.007871284,-0.020879764,-0.45968673,0.30645782,-9.80665,0.7620334,47.71017,-0.5718108,-2.4106808,-3.4497333,-0.50535804,0.07779987,-0.03439379,28.125,29.3125,28.4375,32.375,34.5625,35.5625
0.026049528,-1.4222325,-0.106141776,-0.35277793,0.002186167,0.06360382,-0.1328361,-0.38109037,-0.3485141,0.05983912,-3.078493,0.6247375,-0.00056299707,-0.010433162,0.0009602141,-0.0025844215,-0.0074920426,-0.0049906415,0.0024554452,0.47767207,-1.4256282,1.9576725,-2.1008694,-1.5706462,2.4525418,-0.017162358,0.018181602,-0.014112023,-0.0031150852,0.008900475,-0.019624682,-0.51714754,0.21068975,-9.749189,0.7553206,47.71465,-0.5556211,-2.4385712,-3.5242372,-0.50880146,0.08671714,-0.054566383,28.125,29.3125,28.4375,32.375,34.5625,35.5625
0.02804954,-1.9759796,-0.60342085,-0.42997858,-0.009771627,0.05901797,-0.1353282,-0.38112527,-0.34850514,0.059852988,-3.0785124,0.6247217,-0.0005325894,-0.0121664805,0.00023120931,-0.0017940713,-0.010005345,-0.0022867022,0.0011032718,0.4776238,-1.4256159,1.9576243,-2.1008584,-1.5706462,2.4524813,-0.0181069,0.018920137,-0.016275173,-0.0052502267,0.009880662,-0.019217096,-0.7278373,0.21068975,-9.844957,0.6971306,47.699425,-0.6217593,-2.4286566,-3.4223697,-0.5024626,0.062371437,-0.087048486,28.125,29.3125,28.4375,32.375,34.5625,35.5625
0.030049453,-1.88259,-0.46391836,-0.17204025,-0.034114186,0.07584263,-0.15725991,-0.38112113,-0.34848934,0.059812136,-3.0784595,0.6247495,-0.000713342,-0.012701918,-0.0005625593,-0.0011902476,-0.011686774,-0.00076556794,0.001744289,0.47757596,-1.4255322,1.9576114,-2.1008108,-1.5706099,2.4524574,-0.01770272,0.018865017,-0.017372996,-0.006222756,0.010667912,-0.019455992,-0.7086837,0.19153613,-9.80665,0.7777002,47.723602,-0.7728198,-2.3940616,-3.509237,-0.49634784,0.06724677,-0.112349495,28.125,29.3125,28.4375,32.375,34.5625,35.5625
0.032050367,-1.54927,-0.3432725,-0.13825202,-0.031999037,0.08762831,-0.17769675,-0.38118044,-0.34849083,0.059824392,-3.0784779,0.62479204,-0.0006019106,-0.0139555065,-0.00043104298,-0.0010391397,-0.011457979,-0.0004575489,0.0011995273,0.47753948,-1.4254837,1.957539,-2.1008584,-1.5706342,2.4524453,-0.018869614,0.02053461,-0.019744188,-0.005688403,0.010320516,-0.020075316,-0.7086837,0.076614454,-9.672575,0.8112748,47.704796,-0.7426826,-2.4360464,-3.4057486,-0.49977538,0.06474315,-0.11282917,28.125,29.3125,28.4375,32.375,34.5625,35.5625
0.03404958,-1.6246974,-0.14969452,-0.2967183,0.0030156365,0.07115128,-0.18201247,-0.38118544,-0.34850365,0.059814926,-3.0785496,0.624769,-0.00068528194,-0.015238935,-0.00010229375,-0.00075830164,-0.011982442,0.0005788662,0.00018516512,0.47750276,-1.4254596,1.9575385,-2.1008823,-1.5705498,2.452385,-0.02063137,0.021144018,-0.020953476,-0.0062478688,0.010305914,-0.02082186,-0.61291564,0.038307227,-9.787497,0.7396539,47.68062,-0.6952734,-2.316936,-3.3943853,-0.51675224,0.07287756,-0.13885371,28.125,29.3125,28.4375,32.375,34.5625,35.5625
0.03604964,-1.3965242,0.3019114,-0.2736861,0.026344867,0.053394638,-0.19805945,-0.38124734,-0.34848672,0.05982485,-3.0785224,0.62482095,-0.00056708296,-0.017023895,-0.00040840026,0.00017565947,-0.013845518,0.0031854578,-0.00011440144,0.47745436,-1.4254115,1.9574665,-2.1009066,-1.5706099,2.4523726,-0.0220284,0.021463512,-0.023161449,-0.007533003,0.010755932,-0.021918282,-0.45968673,-0.076614454,-9.710882,0.7777002,47.71823,-0.6775019,-2.3696675,-3.396159,-0.514051,0.0637292,-0.15578309,28.125,29.3125,28.4375,32.375,34.5625,35.5625
0.038049527,-0.76495,0.6793589,-0.27024484,0.03782712,0.045535382,-0.21312518,-0.38128525,-0.34850797,0.059840053,-3.0786061,0.6247987,-0.00056538294,-0.017751671,-0.00036852236,0.00014727043,-0.0137967635,0.0041252263,0.0006320763,0.4774183,-1.4253753,1.9573935,-2.1009195,-1.5705503,2.452312,-0.022459744,0.022276325,-0.023799334,-0.008516722,0.010278094,-0.023094019,-0.38307226,-0.076614454,-9.672575,0.7418897,47.71017,-0.68214536,-2.3517358,-3.4153862,-0.49475092,0.06331739,-0.1908221,28.125,29.3125,28.4375,32.375,34.5625,35.5625
0.04005027,-0.6791878,0.72807497,-0.08578217,0.03152744,0.044699445,-0.22120272,-0.38130054,-0.34849992,0.059814237,-3.0785823,0.62481356,-0.00063750934,-0.018810853,-0.00051249267,0.0001678253,-0.015703594,0.0042185565,0.0007423786,0.4773815,-1.4253031,1.9573702,-2.10092,-1.5705374,2.4522874,-0.024251364,0.023369674,-0.024870735,-0.00950286,0.01192265,-0.024998726,-0.40222588,-0.05746084,-9.519346,0.7732232,47.711964,-0.72588205,-2.4047284,-3.4001453,-0.4798844,0.084025346,-0.17628054,28.125,29.3125,28.4375,32.375,34.5625,35.5625
0.042049654,-0.79240525,0.29539645,-0.10470555,0.015936138,0.03584982,-0.21316716,-0.38133192,-0.34849095,0.059820265,-3.0786116,0.62483925,-0.0006314029,-0.02023721,-0.0003447386,0.00053866307,-0.0159163,0.0053201406,0.0007840824,0.47732103,-1.4252907,1.9573449,-2.1009314,-1.5705136,2.4522393,-0.025658041,0.024458217,-0.026937757,-0.009597942,0.011601465,-0.026444968,-0.19153614,-0.05746084,-9.615114,0.74413085,47.689575,-0.6749631,-2.296528,-3.3542032,-0.47866023,0.065042205,-0.20628661,28.125,29.3125,28.4375,32.375,34.5625,35.5625
0.04405031,-0.6479184,0.13574803,-0.10052667,-0.0044321027,0.025607226,-0.19406137,-0.38141888,-0.3484798,0.05983498,-3.078634,0.6248617,-0.0005198677,-0.021792298,-0.00019344091,0.0010421004,-0.016335001,0.006360049,0.0011347737,0.47723654,-1.4252185,1.9572371,-2.1009676,-1.5705379,2.452166,-0.027289107,0.025554383,-0.029395659,-0.009351378,0.011493178,-0.028424334,-0.019153614,0.0,-9.653421,0.6971306,47.690468,-0.6678097,-2.3190353,-3.2774787,-0.496683,0.07767856,-0.24350896,28.125,29.3125,28.4375,32.375,34.5625,35.5625
0.04605005,-0.42769295,-0.8914379,-0.22098006,0.0049359575,0.024102125,-0.19287762,-0.38144326,-0.34848356,0.059832036,-3.0786476,0.6248442,-0.00053314975,-0.022304913,-7.938626e-05,0.0012662867,-0.016686931,0.006046041,0.002764261,0.47721225,-1.4251704,1.957189,-2.1009672,-1.570525,2.4521291,-0.028260099,0.025930854,-0.030539619,-0.008467416,0.011948926,-0.031025201,-0.05746084,0.095768064,-9.5385,0.7329411,47.684196,-0.7300358,-2.3383675,-3.3548687,-0.50583684,0.0863028,-0.2270063,28.125,29.3125,28.4375,32.375,34.5625,35.5625
0.048050202,-0.28073767,-0.5067409,-0.3324314,-0.008646461,0.01952385,-0.18816918,-0.3814736,-0.3484827,0.059825446,-3.0786738,0.6249073,-0.0005784437,-0.023550674,0.00012931105,0.0016034984,-0.01722268,0.007452978,0.0035016674,0.47715166,-1.4251225,1.9571522,-2.10098,-1.5704774,2.4521046,-0.029665954,0.026426537,-0.031684402,-0.009311043,0.011774325,-0.033167303,-0.076614454,0.1340753,-9.5385,0.784413,47.72719,-0.6738887,-2.2588603,-3.3310483,-0.4894919,0.08847548,-0.2270798,28.125,29.3125,28.4375,32.375,34.5625,35.5625
0.050049584,-0.24033225,-0.8315498,-0.26646,-0.0058658654,0.010431375,-0.18662246,-0.38152942,-0.34848464,0.059837304,-3.078719,0.6248007,-0.00053560437,-0.024486236,-0.00018285148,0.0018563303,-0.018814258,0.0075196642,0.0046560843,0.47710317,-1.4250622,1.9570564,-2.10098,-1.5704769,2.451984,-0.030868625,0.02742251,-0.033377085,-0.0094085755,0.013154778,-0.03552544,0.019153614,0.22984336,-9.634268,0.7620334,47.716442,-0.6895399,-2.236123,-3.391819,-0.48760724,0.085054874,-0.24214654,28.125,29.3125,28.4375,32.375,34.5625,35.5625
0.052049525,-0.68977535,-0.95108366,-0.26771846,-0.0105290795,-0.005940758,-0.17947425,-0.38156012,-0.34849104,0.059829157,-3.0787747,0.6247925,-0.0005528539,-0.025584156,-0.00032736833,0.0024677168,-0.020007735,0.008832064,0.005220758,0.47705486,-1.4250141,1.9570311,-2.1010277,-1.5704287,2.4519234,-0.03191823,0.027610805,-0.03490466,-0.009782194,0.013609366,-0.037139334,0.0,0.2681506,-9.615114,0.784413,47.683304,-0.68269455,-2.1713982,-3.3324175,-0.5048594,0.084166005,-0.26521733,28.125,29.3125,28.4375,32.375,34.5625,35.5625
0.054049596,-0.5550609,-1.2094803,-0.30294067,-0.012546513,-0.003335358,-0.17105709,-0.38161305,-0.3484752,0.05983443,-3.078797,0.6248726,-0.0006000742,-0.026814848,-0.0005086044,0.0030017989,-0.021213386,0.009782328,0.005842155,0.47694647,-1.424966,1.9569587,-2.101004,-1.5703806,2.451862,-0.033137336,0.02833027,-0.036924765,-0.009877864,0.014240948,-0.03897981,0.038307227,0.3256114,-9.5385,0.800085,47.693153,-0.6808082,-2.1412647,-3.275855,-0.5055608,0.06204512,-0.25894308,28.125,29.3125,28.4375,32.375,34.5625,35.5625
0.05605016,-0.09545995,-0.83881587,-0.32113174,-0.024103034,0.01279509,-0.18461253,-0.3816978,-0.34848794,0.05987426,3.0788186,-0.6247419,0.0003792358,-0.027594531,-7.8785e-05,0.0024480254,-0.020414261,0.009146642,0.0068183253,0.4769221,-1.4249294,1.9568394,-2.101063,-1.5704287,2.4517536,-0.034346808,0.030316692,-0.037908047,-0.009949042,0.013826127,-0.04116193,0.019153614,0.34476504,-9.519346,0.7418897,47.66091,-0.6512275,-2.1366735,-3.294722,-0.50621486,0.074749954,-0.27735335,28.125,29.3125,28.4375,32.375,34.5625,35.5625
0.058049653,-0.6433007,-1.341357,-0.35548237,-0.017160673,0.007689158,-0.17589253,-0.38176414,-0.34848124,0.05987056,3.0787365,-0.6248211,0.00043518725,-0.028674403,-0.00038554228,0.0025856514,-0.021188436,0.009438099,0.008555199,0.47680178,-1.4248451,1.9567546,-2.1010754,-1.5703562,2.451693,-0.035149556,0.031958595,-0.040078033,-0.010031931,0.014377564,-0.043700907,-0.095768064,0.38307226,-9.519346,0.80679786,47.709274,-0.66379505,-2.1315963,-3.2510424,-0.49381405,0.053006012,-0.30229816,28.125,29.3125,28.4375,32.375,34.5625,35.5625
0.06004948,-0.6401795,-1.1134863,-0.2522001,-0.023578573,0.015055521,-0.18069093,-0.3817885,-0.34848648,0.05986165,3.0787275,-0.6247615,0.0004847493,-0.02977818,-0.00027174305,0.0030141028,-0.021600638,0.010896382,0.009092307,0.47676536,-1.424785,1.9567064,-2.101076,-1.5703205,2.4516206,-0.03616845,0.0322761,-0.041286573,-0.010622074,0.014070503,-0.045255803,-0.095768064,0.4213795,-9.500193,0.7933669,47.73077,-0.72669363,-2.1090288,-3.2910004,-0.4960807,0.060286924,-0.30499986,28.125,29.3125,28.4375,32.375,34.5625,35.5625
0.062049482,-0.31835103,-1.1316322,-0.20435148,-0.023815697,0.030035472,-0.17879386,-0.381868,-0.34847602,0.059863515,3.078718,-0.62473977,0.0004289333,-0.030430494,-0.00053400034,0.0033275532,-0.02254943,0.011342228,0.009540115,0.47668108,-1.424689,1.9565982,-2.1010997,-1.5703324,2.451524,-0.03671129,0.03276386,-0.04254834,-0.01068094,0.014709265,-0.046246253,-0.076614454,0.40222588,-9.404425,0.7665104,47.716442,-0.7606231,-2.0175705,-3.2718368,-0.5019257,0.07194872,-0.33161277,28.125,29.3125,28.4375,32.375,34.5625,35.5625
0.064050026,-0.33899212,-0.75625885,-0.18901005,-0.023631884,0.032679733,-0.18609582,-0.38194057,-0.34848878,0.059909075,3.0786338,-0.6246442,0.00029087075,-0.030965367,-0.00064527773,0.0028504299,-0.021795938,0.010934022,0.012034189,0.47662127,-1.4246882,1.9565014,-2.101136,-1.5703086,2.4514153,-0.036690585,0.034953646,-0.043932598,-0.010773602,0.014231156,-0.04871591,-0.11492168,0.40222588,-9.3661175,0.80679786,47.701214,-0.78039265,-2.1235566,-3.2684422,-0.5075426,0.055672042,-0.35434872,28.125,29.3125,28.4375,32.375,34.5625,35.5625
0.06604974,-0.9572991,-0.96236515,-0.06128982,-0.006783716,0.021690862,-0.17333049,-0.38196304,-0.34850836,0.059893105,3.0785866,-0.62457657,0.00041630145,-0.03212803,-0.0009320356,0.0031805416,-0.023320846,0.0115688965,0.013626091,0.47657275,-1.4246039,1.9564418,-2.101136,-1.5702122,2.4513304,-0.03793736,0.03597789,-0.04575122,-0.011240239,0.01528959,-0.051555365,-0.076614454,0.34476504,-9.423578,0.784413,47.71465,-0.8075614,-2.1743546,-3.2681541,-0.4980591,0.06719732,-0.34189552,28.125,29.3125,28.4375,32.375,34.5625,35.5625
0.06804949,-0.6400514,-0.4084931,0.11238884,-0.0058154776,0.034463175,-0.18001771,-0.38203004,-0.34848037,0.05986744,3.0786188,-0.62458336,0.00042098318,-0.033760164,-0.0016551526,0.0037837157,-0.024393255,0.013270464,0.012561613,0.4764766,-1.4244838,1.9563688,-2.1011603,-1.5702361,2.4512346,-0.038258877,0.037842114,-0.049155653,-0.011704556,0.0154546,-0.05081092,-0.076614454,0.30645782,-9.5385,0.779936,47.686886,-0.8963136,-2.0921004,-3.168387,-0.503799,0.042503156,-0.3716201,28.125,29.3125,28.4375,32.375,34.5625,35.5625
0.0700495,-0.8178017,-0.32186717,0.16296381,-0.0027160663,0.029275304,-0.17328452,-0.38211995,-0.34850883,0.059925262,3.0785244,-0.624466,0.00025666822,-0.03372052,-0.0014000795,0.0019769857,-0.023614332,0.01051205,0.014299593,0.47642842,-1.4244586,1.9562134,-2.1011841,-1.5702118,2.4511251,-0.03904463,0.041243292,-0.048658192,-0.012793862,0.016035205,-0.05333256,-0.19153613,0.15322891,-9.519346,0.75084364,47.681515,-0.899571,-2.2762594,-3.097821,-0.4778509,0.04107317,-0.38756078,28.125,29.3125,28.4375,32.375,34.5625,35.5625
0.07205021,-1.1018692,-0.17449263,0.24221605,-0.0016335415,0.0233989,-0.18177746,-0.3821889,-0.34850782,0.05991377,3.0784888,-0.6244564,0.000303673,-0.034340918,-0.0014157273,0.0025083655,-0.024023253,0.011760522,0.017597014,0.47633237,-1.4243387,1.9561056,-2.101196,-1.5701646,2.4510276,-0.03944348,0.040913016,-0.049464364,-0.012947944,0.015826365,-0.057028186,-0.24899697,0.15322891,-9.346964,0.7038487,47.691364,-1.0269418,-2.2233524,-3.2901165,-0.47460854,0.04815237,-0.396724,28.125,29.3125,28.4375,32.375,34.5625,35.5625
0.074049644,-0.8937366,0.009617365,0.28044683,-0.004734598,0.030860197,-0.17889301,-0.38225538,-0.34852594,0.059921917,3.0784054,-0.6243801,0.0003274386,-0.035377834,-0.002007175,0.0033440334,-0.0256379,0.013081993,0.021588363,0.4762481,-1.4242549,1.9559969,-2.1012204,-1.5700797,2.4509063,-0.039877854,0.041212022,-0.051728502,-0.012891968,0.016656045,-0.06145306,-0.21068975,0.15322891,-9.289502,0.76874626,47.68599,-1.0749477,-2.0592763,-3.222795,-0.4929072,0.039900348,-0.3617096,28.125,29.3125,28.4375,32.375,34.5625,35.5625
0.07604946,-1.0119791,-0.23161921,0.18073413,0.010778494,0.028390616,-0.17238244,-0.38234344,-0.34851503,0.05994058,3.0783334,-0.62438565,0.00022238608,-0.03739299,-0.0025205791,0.0037607474,-0.026392378,0.014771929,0.020793302,0.47613984,-1.424206,1.955912,-2.10128,-1.5700678,2.4508107,-0.040744893,0.04378616,-0.055461675,-0.013577738,0.016550813,-0.061520908,-0.30645782,0.095768064,-9.346964,0.69041777,47.685097,-1.0691693,-2.1883647,-3.0028386,-0.4851834,0.03561215,-0.3555733,28.125,29.3125,28.4375,32.375,34.5625,35.5625
0.07804947,-0.95376235,0.3810448,0.2625677,0.0030971197,0.027873471,-0.18567064,-0.38240233,-0.3485161,0.059942234,3.0783703,-0.6241594,0.00023547385,-0.03699714,-0.0021133388,0.0025006258,-0.025536327,0.012379833,0.024852479,0.47607964,-1.4241096,1.9557928,-2.1012561,-1.5700558,2.4506047,-0.041316956,0.045528356,-0.05454401,-0.013716124,0.016890507,-0.06615275,-0.30645782,0.17238252,-9.270349,0.8224646,47.70032,-1.1234355,-2.1924462,-3.027567,-0.47160554,0.038448825,-0.36569375,28.125,29.3125,28.4375,32.375,34.5625,35.5625
0.080050185,-1.2182006,-0.46652642,0.21513245,0.012973754,0.026892193,-0.169241,-0.38248104,-0.3485254,0.059941184,3.0783415,-0.6240161,0.00018760165,-0.036844395,-0.0017560972,0.001685188,-0.025024718,0.010945571,0.028627189,0.47600752,-1.4240015,1.9556855,-2.1013162,-1.570031,2.4504468,-0.041937336,0.0466212,-0.053876024,-0.013963049,0.017100768,-0.070547216,-0.3256114,0.17238252,-9.32781,0.8314132,47.70211,-1.185915,-2.2273662,-3.2754574,-0.45751363,0.035714764,-0.3507754,28.125,29.3125,28.4375,32.375,34.5625,35.5625
0.08204943,-0.46589065,0.3630192,0.365121,-0.0066425675,0.0389794,-0.18218802,-0.38256755,-0.34854203,0.05996307,3.0782392,-0.6239353,0.0001391143,-0.038572043,-0.0023169017,0.0027951435,-0.02613073,0.0131188175,0.032686796,0.47591126,-1.4239292,1.9555639,-2.101364,-1.56996,2.450313,-0.04251491,0.047535565,-0.057524983,-0.0136572085,0.017091788,-0.07518083,-0.22984336,0.038307227,-9.346964,0.7642693,47.683304,-1.2893465,-2.1993966,-3.0862513,-0.46933186,0.035180725,-0.2957321,28.125,29.3125,28.4375,32.375,34.5625,35.5625
0.08404943,-0.84156525,-0.21274316,0.218323,0.011662559,0.026752226,-0.17743273,-0.38266218,-0.34856346,0.059992354,3.0781717,-0.62378687,4.4780576e-05,-0.03987686,-0.0018237582,0.0024747732,-0.026511854,0.01295929,0.034609854,0.47583836,-1.4238448,1.9554089,-2.1014001,-1.5699233,2.4501562,-0.044852164,0.04929082,-0.058647666,-0.014317145,0.017511623,-0.07943877,-0.21068975,0.095768064,-9.174581,0.7620334,47.685097,-1.2642697,-2.154881,-3.0946074,-0.4586599,0.025779944,-0.24393389,28.125,29.3125,28.4375,32.375,34.5625,35.5625
0.086049564,-0.59220785,0.052626032,0.20141222,0.0077803577,0.03462622,-0.18438385,-0.3827183,-0.34855184,0.05997274,3.0782125,-0.62362,5.842244e-05,-0.04095761,-0.0016637215,0.0029125982,-0.026693432,0.013800873,0.037938885,0.47576597,-1.4237369,1.955336,-2.101424,-1.5699233,2.4499745,-0.045977626,0.04985714,-0.060376126,-0.013981142,0.017287677,-0.08389237,-0.24899697,0.1340753,-9.232041,0.800085,47.7245,-1.2498729,-2.167094,-3.1052446,-0.4439786,0.04965528,-0.22473338,28.125,29.3125,28.4375,32.375,34.5625,35.5625
0.08805009,-0.12891965,-0.012769909,0.27714235,0.0009821089,0.048818316,-0.18986262,-0.3828036,-0.34852624,0.059963748,3.0782228,-0.62356097,8.574798e-05,-0.041359697,-0.0021714661,0.002872207,-0.02684296,0.013932012,0.04270662,0.47563428,-1.4236164,1.9552163,-2.101412,-1.5699114,2.4498048,-0.045481075,0.051244244,-0.061853096,-0.014070322,0.017361404,-0.088162884,-0.19153613,0.15322891,-9.232041,0.84708,47.70838,-1.3222563,-2.1434426,-3.0782413,-0.43824142,0.018510137,-0.17222506,28.125,29.3125,28.4375,32.375,34.5625,35.5625
0.090049475,-0.9094486,-0.28600743,0.17404947,0.0054632407,0.037586372,-0.17555167,-0.38289946,-0.34853852,0.0599874,3.0781252,-0.62344646,6.5353386e-05,-0.042458653,-0.001478899,0.0028748233,-0.026853848,0.01346258,0.04154144,0.4755134,-1.4235324,1.9550718,-2.101436,-1.5698274,2.4496248,-0.04785756,0.052233603,-0.06315806,-0.013332721,0.017595954,-0.08937229,-0.22984336,0.15322891,-9.289502,0.8157518,47.71823,-1.4328816,-2.1371481,-3.0706553,-0.446414,0.054274514,-0.12038467,28.125,29.3125,28.4375,32.375,34.5625,35.5625
0.09204944,-0.9614462,-0.16767396,0.29349148,-0.0034677337,0.037669223,-0.18292275,-0.38298026,-0.348553,0.059988417,3.0780976,-0.62332416,-3.457573e-05,-0.04328241,-0.00086780783,0.0022820325,-0.0263702,0.012228824,0.042462025,0.47546476,-1.4234239,1.9549645,-2.1015189,-1.5698274,2.4495034,-0.049783137,0.054188218,-0.06411396,-0.013010545,0.017739726,-0.09221643,-0.22984336,0.21068975,-9.289502,0.7777002,47.65912,-1.3570328,-2.2230182,-3.0418346,-0.45737332,0.05026026,-0.07783694,28.125,29.3125,28.4375,32.375,34.5625,35.5625
0.09404986,-0.96777946,-0.56781554,0.0042765997,-0.0066563403,0.037772264,-0.17426628,-0.3830812,-0.3485412,0.0599998,3.078102,-0.6231762,-5.2946783e-05,-0.045267556,0.0003015614,0.0026721086,-0.026795307,0.012775898,0.03476327,0.47534326,-1.4233041,1.9547962,-2.101495,-1.5698155,2.449289,-0.053749084,0.05481708,-0.06581802,-0.012616448,0.017867098,-0.08848243,-0.19153613,0.17238252,-9.346964,0.80456203,47.652847,-1.1937932,-2.0419044,-3.0420363,-0.45196056,0.057408344,-0.11179234,28.125,29.3125,28.4375,32.375,34.5625,35.5625
0.096050434,-0.7087359,-0.53893775,0.07575585,-0.012374017,0.039598312,-0.1759532,-0.3831635,-0.3485587,0.06003158,3.0780203,-0.6230047,-0.00012547684,-0.045432307,-0.00019616517,0.0012274082,-0.025458533,0.010587987,0.03520334,0.47525966,-1.4232543,1.9546751,-2.1015313,-1.5697554,2.4491088,-0.052889366,0.059239138,-0.067538425,-0.012753859,0.017686708,-0.08805917,-0.36391866,0.24899697,-9.308657,0.7105615,47.66271,-1.2585741,-2.3169327,-3.0365376,-0.44122893,0.08201344,-0.1232977,28.125,29.3125,28.4375,32.375,34.5625,35.5625
0.09804944,-0.7961083,-0.4506842,0.0025521896,-0.014007631,0.043450095,-0.17145799,-0.38324243,-0.3485296,0.060003005,3.0780509,-0.62291664,-6.953132e-05,-0.04627541,-0.00036654185,0.0029913182,-0.027457483,0.013574735,0.031506263,0.47512746,-1.4231112,1.9545797,-2.1015432,-1.569743,2.4489179,-0.053608324,0.05649768,-0.06846481,-0.012656955,0.01809358,-0.08508199,-0.40222588,0.22984336,-9.346964,0.7418897,47.7245,-1.3299544,-2.0549357,-3.0102224,-0.43178865,0.09153132,-0.12129241,28.125,29.3125,28.4375,32.375,34.5625,35.5625
0.100049466,-1.0220493,-0.2968474,-0.022411006,-0.012329218,0.037469666,-0.1752569,-0.38333267,-0.34852982,0.059994437,3.0780015,-0.6228916,-2.2818298e-05,-0.047873348,0.00067185966,0.0023782186,-0.027916295,0.011824542,0.024648855,0.47500592,-1.4229661,1.9544362,-2.101555,-1.569683,2.448787,-0.05768469,0.058941588,-0.06995221,-0.01226649,0.019301472,-0.08230059,-0.24899697,0.24899697,-9.519346,0.7777002,47.705692,-1.2490338,-2.124494,-3.0404906,-0.45487198,0.08393762,-0.18703258,28.125,29.3125,28.4375,32.375,34.5625,35.5625
0.10205045,-0.8205289,-0.3916233,0.026250543,-0.012022087,0.043465197,-0.180287,-0.3834368,-0.34854227,0.059995145,3.0779212,-0.62281764,-2.403597e-05,-0.048519596,0.00067732297,0.0019162641,-0.028100437,0.011416913,0.022871442,0.47488573,-1.4228214,1.9542803,-2.1016028,-1.569611,2.4486308,-0.058498025,0.0607149,-0.07077817,-0.0129294805,0.019655148,-0.081334814,-0.30645782,0.17238252,-9.461885,0.68818194,47.69763,-1.184107,-2.1146715,-3.068677,-0.44573,0.08812188,-0.22675943,28.125,29.3125,28.4375,32.375,34.5625,35.5625
0.10405003,-1.2124345,-0.8739931,-0.13199043,-0.0036188234,0.040154792,-0.17583406,-0.38351828,-0.3485413,0.05999348,3.0779233,-0.6226849,-4.0062187e-05,-0.04918693,0.0014583096,0.00050892564,-0.02619181,0.009291763,0.020899277,0.47480115,-1.4227,1.9541482,-2.1016152,-1.5695986,2.4484632,-0.060014684,0.06420126,-0.071573086,-0.012853419,0.018931068,-0.08087749,-0.36391866,0.22984336,-9.423578,0.784413,47.690468,-1.2878937,-2.2796519,-3.1146522,-0.4436878,0.09753819,-0.2632775,28.125,29.3125,28.4375,32.375,34.5625,35.5625
0.1060496,-1.3349485,-0.80473673,-0.086938545,-0.0043212683,0.04080692,-0.16551937,-0.38361338,-0.348529,0.059991878,3.0778844,-0.6225814,-6.473524e-05,-0.05066479,0.0012418884,0.001958587,-0.028416622,0.0122341085,0.019034257,0.47466886,-1.4225924,1.9540399,-2.1016634,-1.5695628,2.4482713,-0.061377738,0.06292384,-0.073280014,-0.013500369,0.019566132,-0.08037422,-0.45968673,0.15322891,-9.3661175,0.8112748,47.70211,-1.2551403,-2.123023,-3.077835,-0.4292292,0.10476982,-0.27571154,28.125,29.3125,28.4375,32.375,34.5625,35.5625
0.1080495,-1.0231798,0.042031843,-0.23991549,-0.0084992545,0.049145788,-0.1849608,-0.38373524,-0.34853044,0.06001605,3.077825,-0.6224736,-0.00012910702,-0.051012922,0.0017099481,0.0008193403,-0.027832558,0.01000545,0.017973786,0.47453615,-1.4224714,1.9538492,-2.1016753,-1.5695266,2.4480789,-0.06283472,0.06548312,-0.07361586,-0.013470399,0.020074379,-0.080768846,-0.28730422,0.076614454,-9.346964,0.74413085,47.707485,-1.1824889,-2.176178,-3.1682074,-0.42536023,0.121520415,-0.32005027,28.125,29.3125,28.4375,32.375,34.5625,35.5625
0.11004951,-1.300031,-0.30207118,-0.1309539,0.002209659,0.03027061,-0.17060903,-0.3838178,-0.34853593,0.06000906,3.0777607,-0.62242234,-6.140907e-05,-0.052853156,0.0010144827,0.0014816489,-0.029871263,0.011438531,0.017390225,0.47441578,-1.4223386,1.9537162,-2.1016872,-1.5694426,2.4479346,-0.064017974,0.06728395,-0.07706611,-0.014021388,0.021228714,-0.08136678,-0.2681506,0.076614454,-9.442732,0.7709874,47.67166,-1.2541293,-2.204708,-3.0283217,-0.4268465,0.1281674,-0.3675602,28.125,29.3125,28.4375,32.375,34.5625,35.5625
0.112050295,-0.90128946,-0.220703,-0.10713885,0.001860447,0.035460602,-0.17640838,-0.3839206,-0.34852374,0.06000386,3.0777628,-0.622423,-8.546731e-05,-0.052347958,0.0020503718,-1.9269008e-05,-0.028962834,0.008450894,0.015607038,0.47430727,-1.4221822,1.9535493,-2.1016872,-1.5694541,2.4478264,-0.065738365,0.068476334,-0.07496154,-0.014246315,0.021792477,-0.08130487,-0.2681506,0.1340753,-9.404425,0.83365434,47.698532,-1.2739129,-2.2088213,-3.2115345,-0.42329025,0.14094248,-0.3997516,28.125,29.3125,28.4375,32.375,34.5625,35.5625
0.11404955,-1.0948765,-0.38708824,-0.19157784,0.012917676,0.025799777,-0.16923851,-0.38404158,-0.34852237,0.060002737,3.0776858,-0.6223507,-0.00014010366,-0.053262353,0.0023218363,-0.00030910337,-0.029123904,0.008451992,0.014222966,0.4741628,-1.4220376,1.9534057,-2.1017716,-1.5694059,2.4476466,-0.067129724,0.06991113,-0.07579476,-0.014915841,0.021941686,-0.08130967,-0.24899697,0.038307227,-9.3661175,0.8090337,47.704796,-1.2712362,-2.2734795,-3.291171,-0.40684968,0.14605524,-0.44943315,28.125,29.3125,28.4375,32.375,34.5625,35.5625
0.11605001,-0.82738227,0.23694736,-0.020031339,-0.0010854565,0.03601528,-0.18267469,-0.38416412,-0.34850827,0.060009837,3.0776339,-0.62230086,-0.00013802132,-0.056018684,0.0017433384,0.0016500555,-0.030873643,0.01258099,0.01508753,0.47399437,-1.4218932,1.9532245,-2.1017716,-1.5693578,2.4474537,-0.06838763,0.070376955,-0.08083245,-0.014804909,0.021612102,-0.083428696,-0.22984336,0.1340753,-9.385271,0.7665104,47.690468,-1.3078463,-2.1435323,-3.0105867,-0.39622298,0.16965169,-0.48809832,28.125,29.3125,28.4375,32.375,34.5625,35.5625
0.1180495,-1.0798491,0.17324923,0.0011416965,0.0071107736,0.026306821,-0.17817713,-0.3842719,-0.34851977,0.060026117,3.0775726,-0.62215346,-0.00019165584,-0.05597236,0.0038492195,-5.334337e-05,-0.029592302,0.009161956,0.01599691,0.47388494,-1.4217728,1.9530581,-2.1018078,-1.5693096,2.4472601,-0.07234171,0.07132495,-0.07800244,-0.014944757,0.022053428,-0.08829177,-0.19153613,0.019153614,-9.481039,0.842603,47.70211,-1.1177286,-2.2314146,-3.2899795,-0.39433098,0.17011955,-0.50390464,28.125,29.3125,28.4375,32.375,34.5625,35.5625
0.12005013,-0.82854587,-0.090229355,0.099992864,0.012735526,0.038809728,-0.17796795,-0.38437545,-0.34851,0.06002836,3.0775366,-0.6220652,-0.0001740447,-0.05627257,0.0022298126,0.0005832185,-0.031102255,0.009980237,0.02289142,0.47374162,-1.4216402,1.9529012,-2.1018078,-1.5692614,2.4470663,-0.070354395,0.07248252,-0.08085075,-0.014660523,0.023029486,-0.093197174,-0.3256114,0.038307227,-9.461885,0.83813137,47.704796,-1.309165,-2.1269886,-3.2822413,-0.41121787,0.1964289,-0.46123925,28.125,29.3125,28.4375,32.375,34.5625,35.5625
0.122049384,-1.4514413,-0.00081577664,0.11200399,0.005196849,0.035254817,-0.17579204,-0.38450098,-0.34849724,0.06003507,3.0774674,-0.6219901,-0.00021352698,-0.057292584,0.0028882874,0.0005121067,-0.032369092,0.009545146,0.02654689,0.47357273,-1.4215081,1.9527458,-2.1018555,-1.5692128,2.4468594,-0.073294565,0.072942056,-0.08114058,-0.015007977,0.024372913,-0.099791184,-0.22984336,0.05746084,-9.404425,0.80456203,47.677036,-1.3073138,-2.0762703,-3.2225795,-0.39211768,0.19678974,-0.46911156,28.125,29.3125,28.4375,32.375,34.5625,35.5625
0.124049395,-1.0326918,0.24960358,0.04265423,0.0046711075,0.04798422,-0.17672457,-0.38463625,-0.34848925,0.060041245,3.077427,-0.621883,-0.00030276712,-0.058559924,0.0042560124,-4.1260108e-05,-0.031963892,0.008095573,0.0322231,0.47342715,-1.4213513,1.952566,-2.1019146,-1.5692009,2.4466522,-0.07705867,0.07451818,-0.081827335,-0.014405517,0.024697633,-0.10922912,-0.24899697,-0.019153614,-9.3661175,0.84708,47.682407,-1.0614134,-2.0781746,-3.2975082,-0.40714678,0.19876635,-0.3614723,28.125,29.3125,28.4375,32.375,34.5625,35.5625
0.12604941,-1.5023487,-0.2866467,-0.22688346,0.024827836,0.033079926,-0.17532407,-0.38472247,-0.34847924,0.060012832,3.0774245,-0.62176234,-0.00017316337,-0.05822356,0.0034574235,0.00010514924,-0.032568526,0.008212858,0.040690005,0.47328398,-1.4211711,1.952422,-2.1019027,-1.5691289,2.446434,-0.07563124,0.074684754,-0.08236698,-0.014392333,0.025188351,-0.11626961,-0.1340753,0.019153614,-9.270349,0.8179876,47.733456,-1.2813332,-2.032616,-3.3049903,-0.4066241,0.22354376,-0.30372933,28.125,29.3125,28.4375,32.375,34.5625,35.5625
0.12805022,-0.79056066,-0.054085642,-0.13397506,0.008268499,0.051966146,-0.17474896,-0.3848502,-0.3484846,0.060017914,3.0773373,-0.62158996,-0.00016575116,-0.060137905,0.0045556733,0.000106411004,-0.03289394,0.008016695,0.0430629,0.47311446,-1.4210145,1.9522423,-2.1019504,-1.5690325,2.446168,-0.079551004,0.07619245,-0.08418505,-0.0140315965,0.025585033,-0.12255952,-0.22984336,0.11492168,-9.32781,0.7866488,47.711063,-1.1393052,-1.9599836,-3.4008722,-0.4025632,0.22210732,-0.22545213,28.125,29.3125,28.4375,32.375,34.5625,35.5625
0.13004948,-1.0086981,-0.09768917,-0.12737283,0.0077847205,0.036929805,-0.17838094,-0.38497403,-0.3484625,0.06002917,3.0773218,-0.6214888,-0.00026488578,-0.060858797,0.0051220525,-0.00020321869,-0.032767907,0.007820248,0.04530396,0.47296995,-1.4208939,1.9520868,-2.1019866,-1.5690445,2.4459624,-0.08118088,0.07709603,-0.08442323,-0.01445631,0.0255784,-0.12642834,-0.24899697,0.15322891,-9.385271,0.7709874,47.698532,-1.1103628,-1.906517,-3.341854,-0.4143219,0.24215536,-0.16911659,28.125,29.3125,28.4375,32.375,34.5625,35.5625
0.1320495,-0.5793811,0.25449684,-0.16560504,-0.008570223,0.04777296,-0.18550402,-0.38511437,-0.3484591,0.060047947,3.0772572,-0.6212647,-0.0002953424,-0.06079346,0.005726907,-0.0014513101,-0.03206295,0.004983741,0.044668525,0.4727893,-1.420749,1.9518837,-2.1020105,-1.5689725,2.44565,-0.08259979,0.07921774,-0.08410734,-0.014034956,0.026259596,-0.12720962,-0.2873042,0.076614454,-9.385271,0.83589023,47.677036,-1.0415376,-2.1260948,-3.5434995,-0.42548445,0.2397598,-0.13880382,28.125,29.3125,28.4375,32.375,34.5625,35.5625
0.13404942,-1.264815,-0.7415318,-0.14339754,0.0017873911,0.03706102,-0.16842115,-0.38523597,-0.34845296,0.0600337,3.077208,-0.6211803,-0.0002414797,-0.063699685,0.00473708,0.0014649152,-0.035505436,0.010687946,0.040304758,0.4726209,-1.4205574,1.9517025,-2.1020343,-1.5689005,2.4454353,-0.083758436,0.077925906,-0.08924639,-0.014243603,0.02671635,-0.12400178,-0.3256114,0.076614454,-9.500193,0.7665104,47.693153,-0.98558915,-1.8717747,-3.3903487,-0.42786258,0.27020323,-0.14090027,28.125,29.3125,28.4375,32.375,34.5625,35.5625
0.13605015,-1.1792423,-0.81416893,-0.17655607,0.0051359823,0.038624197,-0.16680604,-0.3853713,-0.3484209,0.06003342,3.0771983,-0.6210456,-0.00031163517,-0.06351998,0.0054223803,-0.0005344545,-0.034493327,0.006318265,0.03588768,0.47244042,-1.420412,1.9515475,-2.102082,-1.5689,2.445172,-0.08548601,0.08148623,-0.08886138,-0.013841011,0.027812703,-0.121310316,-0.40222588,0.095768064,-9.442732,0.83589023,47.733456,-1.0068703,-1.9488426,-3.4450657,-0.42786914,0.27039942,-0.17348036,28.125,29.3125,28.4375,32.375,34.5625,35.5625
0.13804942,-1.5260448,-0.5520401,-0.11657701,0.00928573,0.032187954,-0.1711097,-0.38549647,-0.3484344,0.06006499,3.077114,-0.6208994,-0.00031834503,-0.065426335,0.005004186,0.0011182342,-0.037601084,0.008992458,0.026806273,0.4722957,-1.42028,1.9513191,-2.1020582,-1.5688156,2.4449468,-0.08744548,0.08071896,-0.091717966,-0.014016557,0.029356923,-0.11418473,-0.4213795,0.076614454,-9.442732,0.86498255,47.716442,-1.0105863,-1.9423198,-3.3607917,-0.44024515,0.26727748,-0.2622277,28.125,29.3125,28.4375,32.375,34.5625,35.5625
0.14004944,-0.5612278,0.031074014,-0.3909976,-0.009439169,0.04834759,-0.18035097,-0.38562047,-0.34840265,0.0600566,3.0770965,-0.6207995,-0.00029884724,-0.06683103,0.005052885,0.001787938,-0.03940761,0.00962235,0.025768664,0.4721028,-1.4201237,1.9511622,-2.1020706,-1.5687789,2.4446938,-0.089633495,0.08111437,-0.09377264,-0.013732644,0.03068389,-0.11533346,-0.3256114,0.11492168,-9.481039,0.8179876,47.711063,-0.9477386,-1.794097,-3.3390079,-0.43147033,0.26537704,-0.27986202,28.125,29.3125,28.4375,32.375,34.5625,35.5625
0.14204986,-0.77006066,-0.33873945,-0.17888796,-0.009210913,0.051933657,-0.18008913,-0.38576278,-0.34840035,0.060070224,3.077013,-0.62066895,-0.00032811982,-0.06770951,0.005385708,0.00087439653,-0.039428104,0.008176499,0.022985896,0.47192237,-1.4199667,1.9509596,-2.1021063,-1.5687064,2.4444425,-0.09142701,0.083892494,-0.09476404,-0.014231314,0.03136849,-0.11434054,-0.38307226,0.21068975,-9.634268,0.79560274,47.69763,-0.8896649,-1.814162,-3.432978,-0.444328,0.272893,-0.3243835,28.125,29.3125,28.4375,32.375,34.5625,35.5625
0.14405033,-0.9232599,-0.5882371,-0.38576415,-0.016323894,0.05292727,-0.17515485,-0.38586578,-0.34838006,0.06002121,3.077015,-0.6206112,-0.0001955173,-0.068832025,0.005757578,0.00079617376,-0.03995648,0.00776786,0.021455985,0.47175384,-1.419738,1.9508151,-2.1021302,-1.5686463,2.4442377,-0.09349754,0.08527833,-0.09624248,-0.014003936,0.032020446,-0.11488202,-0.4213795,0.30645782,-9.634268,0.7777002,47.709274,-0.91980344,-1.7981386,-3.4049735,-0.45412642,0.29490727,-0.3475298,28.125,29.3125,28.4375,32.375,34.5625,35.5625
0.14605007,-1.264171,-0.7150987,-0.4102023,-0.023016466,0.055253554,-0.17843543,-0.3860149,-0.34835446,0.06004344,3.0769434,-0.6205201,-0.00027826088,-0.0694721,0.0051404145,0.00087168574,-0.04118498,0.007783504,0.021522196,0.4715495,-1.4196173,1.9506344,-2.102166,-1.5686101,2.4439857,-0.09365559,0.08668168,-0.09797333,-0.014241242,0.033120003,-0.11510177,-0.36391866,0.17238252,-9.481039,0.7911258,47.73256,-0.7790128,-1.8352045,-3.356645,-0.47228473,0.28956503,-0.3706769,28.125,29.3125,28.4375,32.375,34.5625,35.5625
0.14804946,-1.2214558,-0.7886152,-0.3334262,-0.02072113,0.06338638,-0.17842132,-0.3861602,-0.34835362,0.060040426,3.0768323,-0.6204573,-0.00024319644,-0.06985201,0.0045019276,0.00076798943,-0.041881766,0.0074990164,0.024513856,0.47134575,-1.4194248,1.9504317,-2.1022136,-1.5685014,2.4437568,-0.09332066,0.088269904,-0.099557035,-0.014286537,0.03388327,-0.11775532,-0.40222588,0.24899697,-9.500193,0.87393653,47.687782,-0.93912375,-1.8230326,-3.4030988,-0.47893512,0.29697406,-0.3876961,28.125,29.3125,28.4375,32.375,34.5625,35.5625
0.15004951,-1.5752723,-0.968585,-0.43683085,-0.011974943,0.059582092,-0.1679338,-0.3863293,-0.348344,0.060064524,3.0767577,-0.62034506,-0.00034125271,-0.07229166,0.005536739,0.0005890753,-0.042525653,0.0077569457,0.025410865,0.47115207,-1.4192556,1.9501914,-2.1022503,-1.5684656,2.4435027,-0.09763102,0.09067105,-0.10174739,-0.014999119,0.034361534,-0.1229573,-0.4213795,0.24899697,-9.557653,0.784413,47.703903,-0.7585493,-1.8872068,-3.3528078,-0.4889852,0.2974833,-0.36130565,28.125,29.3125,28.4375,32.375,34.5625,35.5625
0.15205018,-1.0585365,-0.9248032,-0.3815563,-0.00030816195,0.06443696,-0.17371283,-0.3864627,-0.3483268,0.060050555,3.076728,-0.62025636,-0.00028011273,-0.07140371,0.0038818007,-0.001016351,-0.04202055,0.0051140715,0.035242327,0.47096142,-1.41905,1.9499878,-2.1022503,-1.568405,2.4432604,-0.09435116,0.09512893,-0.103095785,-0.015498504,0.035124246,-0.1295072,-0.28730422,0.22984336,-9.576807,0.81351066,47.687782,-1.0381331,-1.8523139,-3.395863,-0.49253577,0.31630695,-0.31789833,28.125,29.3125,28.4375,32.375,34.5625,35.5625
0.15404956,-1.1617975,-0.65931076,-0.3341362,-0.008951021,0.050788496,-0.17043199,-0.38661054,-0.34832203,0.060066268,3.0766408,-0.6201181,-0.00026147036,-0.073680684,0.003164218,0.0010944991,-0.045176085,0.009857368,0.044185165,0.47075698,-1.4188821,1.9497598,-2.1022508,-1.5683092,2.4429808,-0.09554119,0.093967855,-0.1063028,-0.016748434,0.035808668,-0.13963605,-0.24899697,0.22984336,-9.461885,0.7911258,47.68062,-1.0076474,-1.9650309,-3.2632105,-0.47700697,0.31046596,-0.22301641,28.125,29.3125,28.4375,32.375,34.5625,35.5625
0.15604949,-0.84033054,-0.48505116,-0.12033238,-0.008460426,0.045318548,-0.17785262,-0.38680547,-0.34831533,0.060089495,3.0765615,-0.619926,-0.00042897358,-0.074257076,0.0030864787,0.00016979565,-0.045400973,0.00798115,0.048861932,0.47055265,-1.4186891,1.9495076,-2.1023467,-1.5682849,2.4426668,-0.09657598,0.096983105,-0.10764273,-0.016833236,0.03689681,-0.14534025,-0.3256114,0.28730422,-9.442732,0.8247004,47.690468,-1.038856,-1.8019072,-3.2754564,-0.47639516,0.32910275,-0.16101645,28.125,29.3125,28.4375,32.375,34.5625,35.5625
0.15804935,-0.29196778,-0.47814494,-0.07082455,-0.004522992,0.03894018,-0.17982984,-0.3869404,-0.34830236,0.060079105,3.076514,-0.61979985,-0.00038736535,-0.07566466,0.002498548,0.0003292613,-0.04555033,0.009322787,0.05117521,0.4703607,-1.4184959,1.9493154,-2.102371,-1.5682124,2.4424021,-0.09646737,0.09941775,-0.110664435,-0.017485136,0.036427412,-0.14754252,-0.11492168,0.24899697,-9.442732,0.87393653,47.679718,-1.1311338,-2.0878558,-3.0662374,-0.4731567,0.34215134,-0.09527706,28.125,29.3125,28.4375,32.375,34.5625,35.5625
0.1600502,-0.21914367,-0.36172312,-0.16439177,-0.022616401,0.021466961,-0.17468484,-0.3870893,-0.34831157,0.060084466,3.0764441,-0.6195755,-0.0003686852,-0.07665328,0.0024286269,0.000672608,-0.04698733,0.009723941,0.04904758,0.47018027,-1.4182916,1.9490746,-2.1023948,-1.5681165,2.4420905,-0.09790745,0.09997755,-0.11206834,-0.017634673,0.037535857,-0.14685117,-0.15322891,0.2873042,-9.442732,0.8112748,47.709274,-1.140549,-1.9457909,-3.194374,-0.48385546,0.36217755,-0.09740104,28.125,29.3125,28.4375,32.375,34.5625,35.5625
0.16204952,-0.02426397,-0.79942536,-0.11061614,-0.030101378,0.020649198,-0.1728906,-0.3872382,-0.34829468,0.060100272,3.0764153,-0.61932224,-0.00046150576,-0.077834785,0.0023760435,0.00038970224,-0.048364647,0.008715872,0.043681897,0.46999964,-1.4181466,1.9488834,-2.102443,-1.5680918,2.4417555,-0.09993047,0.10226767,-0.1140487,-0.017673599,0.03922732,-0.14350215,-0.21068975,0.40222588,-9.385271,0.8560339,47.705692,-1.1001165,-2.005669,-3.0221868,-0.5037552,0.33972362,-0.112682775,28.125,29.3125,28.4375,32.375,34.5625,35.5625
0.16404942,-0.45576748,-0.9662303,0.00075338886,-0.03380527,-0.001183055,-0.17430414,-0.3874258,-0.34829643,0.060117256,3.07628,-0.61927754,-0.0005007369,-0.078752935,0.0020883945,0.0008909566,-0.04867939,0.010392613,0.038926944,0.4697716,-1.4179304,1.9486078,-2.1024907,-1.5679964,2.4415169,-0.0998889,0.10277388,-0.115671806,-0.018182464,0.03875441,-0.13870104,-0.05746084,0.36391866,-9.3661175,0.7665104,47.698532,-1.1911937,-2.0024924,-3.0861483,-0.49824065,0.35262942,-0.16605541,28.125,29.3125,28.4375,32.375,34.5625,35.5625
0.1660494,0.16093013,-0.8975211,0.17971042,-0.04236438,0.015869584,-0.1773795,-0.387578,-0.34830004,0.060124062,3.0761836,-0.61914814,-0.00049561047,-0.08034827,0.002962986,0.0007010176,-0.048755627,0.009601367,0.030514536,0.46957833,-1.4177374,1.9483794,-2.102527,-1.5679001,2.441255,-0.10310353,0.10470764,-0.11763159,-0.017480146,0.039180487,-0.13349897,-0.038307227,0.36391866,-9.270349,0.82022345,47.68599,-0.9784845,-1.9119368,-3.0642624,-0.5027534,0.37614572,-0.23987189,28.125,29.3125,28.4375,32.375,34.5625,35.5625
0.16805026,-0.19397773,-0.7542426,0.12091514,-0.042430382,0.0017754533,-0.17576896,-0.38769588,-0.34827226,0.060063362,3.0762017,-0.6190731,-0.0003040641,-0.078961186,0.0011997498,-0.00011934341,-0.05052564,0.0064224824,0.03178075,0.46937528,-1.4174606,1.9482001,-2.1025264,-1.5678266,2.4410028,-0.100628935,0.1067187,-0.11823655,-0.016848324,0.042187247,-0.132291,-0.095768064,0.38307226,-9.32781,0.8537928,47.675243,-1.173423,-2.0255556,-3.0275846,-0.5173821,0.34868592,-0.288788,28.125,29.3125,28.4375,32.375,34.5625,35.5625
0.17004955,-0.30469912,-0.91785884,0.17354213,-0.03708246,-0.00035473402,-0.17303166,-0.38790515,-0.34828857,0.060114887,3.076017,-0.618964,-0.0004328505,-0.08065687,0.0023000701,-9.035122e-05,-0.05245095,0.0059408634,0.02271392,0.46914554,-1.4172802,1.9478897,-2.102586,-1.5677184,2.4407287,-0.105296664,0.107283086,-0.118873335,-0.01721266,0.04414004,-0.12788124,-0.019153614,0.38307226,-9.212888,0.8179876,47.701214,-0.98798203,-1.9100556,-3.0401175,-0.53029644,0.33734965,-0.3803485,28.125,29.3125,28.4375,32.375,34.5625,35.5625
0.17204939,-0.17922294,-1.0144949,0.2952857,-0.03373578,0.0074394536,-0.16195932,-0.38804862,-0.34828722,0.06011904,3.075958,-0.6188158,-0.00041994223,-0.08036007,-8.438042e-05,-0.00013517254,-0.05613005,0.0043624057,0.024309302,0.4689664,-1.4170873,1.9476618,-2.102598,-1.567645,2.4404645,-0.10334246,0.10956425,-0.12139441,-0.017225867,0.048140068,-0.12751393,0.019153614,0.36391866,-9.193734,0.8224646,47.684196,-1.178591,-2.024945,-3.1773987,-0.5304579,0.3028739,-0.4414394,28.125,29.3125,28.4375,32.375,34.5625,35.5625
0.17404948,-0.428439,-1.1731309,0.35603637,-0.019944254,0.0010136048,-0.16262233,-0.3882216,-0.3483014,0.060131326,3.0758302,-0.6187317,-0.00045787008,-0.081124656,0.00082521996,-0.0011411636,-0.055970374,0.0032603783,0.022999782,0.46877345,-1.4168706,1.947399,-2.1026585,-1.5675486,2.4402354,-0.10582708,0.11133896,-0.120877385,-0.018438444,0.04851626,-0.1286833,0.0,0.30645782,-9.212888,0.800085,47.68062,-1.2138028,-1.9171743,-3.1502395,-0.5224655,0.27633,-0.5038368,28.125,29.3125,28.4375,32.375,34.5625,35.5625
0.1760502,-0.1412967,-0.14175597,0.41526446,-0.027792133,0.00263537,-0.16826004,-0.38838774,-0.34828773,0.06012222,3.0757697,-0.61861974,-0.0004061593,-0.08232512,0.00041687168,-0.00034846846,-0.05785517,0.0049219606,0.028428633,0.46854523,-1.4166298,1.9471463,-2.1026704,-1.5674642,2.439945,-0.10674335,0.11147325,-0.12272423,-0.01902099,0.04946958,-0.13502511,0.05746084,0.3256114,-9.155427,0.784413,47.719128,-1.2012529,-2.1068368,-3.1331382,-0.51990205,0.25551337,-0.5070635,28.125,29.3125,28.4375,32.375,34.5625,35.5625
0.1780495,0.27273273,-0.0040433127,0.53102195,-0.022000754,0.012800912,-0.18804984,-0.38856608,-0.34828892,0.06013771,3.0756366,-0.61847234,-0.00044850245,-0.08255312,1.7362685e-05,-0.0009860798,-0.06023244,0.0030096783,0.037522458,0.46831676,-1.4164374,1.9469069,-2.102743,-1.5673555,2.4396415,-0.108135365,0.113128886,-0.12302555,-0.019692732,0.0525057,-0.14550027,0.019153614,0.2873042,-9.155427,0.900793,47.711964,-1.1608357,-1.8467808,-3.1935108,-0.5261747,0.22905219,-0.43489355,28.125,29.3125,28.4375,32.375,34.5625,35.5625
0.18004957,0.37832895,-0.06165538,0.49761388,-0.00670336,0.008502235,-0.18201159,-0.388749,-0.3482994,0.06014396,3.0755146,-0.61834514,-0.00046043086,-0.08308354,-0.000321497,-0.00046436704,-0.0629425,0.0032036689,0.047467664,0.46810043,-1.4161974,1.9466308,-2.102802,-1.5672463,2.4393613,-0.109484084,0.11266705,-0.12363655,-0.019958984,0.05488926,-0.15678546,0.076614454,0.15322891,-9.136273,0.83813137,47.69763,-1.1990075,-1.9710498,-3.346066,-0.54841,0.20240758,-0.34727794,28.125,29.3125,28.4375,32.375,34.5625,35.5625
0.18204942,0.5722349,0.52512157,0.5517706,0.0024045007,0.007938773,-0.18651782,-0.38887227,-0.34829473,0.06012157,3.075459,-0.6181001,-0.00032990554,-0.08349523,-0.00028308248,-0.0016217311,-0.063211225,0.00037689606,0.053420138,0.467896,-1.4159919,1.9464515,-2.1028259,-1.5671138,2.4390109,-0.110867225,0.115927875,-0.12485274,-0.01954969,0.056430478,-0.16411796,0.13407528,0.038307227,-9.097966,0.83813137,47.690468,-1.1951159,-1.9624197,-3.3454623,-0.5367592,0.15155664,-0.2575256,28.125,29.3125,28.4375,32.375,34.5625,35.5625
0.18405004,-0.15296051,0.5704544,0.41400826,0.018090501,-0.008755597,-0.1720144,-0.3890325,-0.348302,0.060117494,3.0753694,-0.61790645,-0.00024675013,-0.08398351,-0.00059055915,-0.0015762497,-0.0639599,0.00021016462,0.057896763,0.4676799,-1.4157515,1.9461879,-2.1028383,-1.5669817,2.4386852,-0.111198805,0.11694717,-0.12618558,-0.019376181,0.057198174,-0.16892236,-0.019153614,0.0,-9.136273,0.81351066,47.677036,-1.2150038,-1.9418032,-3.2902164,-0.5386371,0.11016618,-0.1854292,28.125,29.3125,28.4375,32.375,34.5625,35.5625
0.18604958,-0.07759267,0.6246171,0.6978635,0.025304114,0.015142648,-0.17785767,-0.38922346,-0.34830448,0.060126666,3.0752935,-0.6176044,-0.00027024632,-0.085488,-0.00016005934,-0.0018584428,-0.06460023,0.00011393202,0.055730954,0.4674509,-1.4155104,1.9459013,-2.1028864,-1.5668854,2.4382772,-0.11365221,0.11899529,-0.12776877,-0.020015575,0.057831567,-0.1692025,-0.13407528,0.038307227,-9.078813,0.84484416,47.73256,-1.1148778,-1.9757644,-3.3090286,-0.54348344,0.08453521,-0.16908664,28.125,29.3125,28.4375,32.375,34.5625,35.5625
0.18804929,-0.6129215,0.98593116,0.55691147,0.02767597,0.03332589,-0.18108645,-0.38939077,-0.3483238,0.060125265,3.0751367,-0.61746335,-0.00023675337,-0.08623669,0.00046696397,-0.0020179024,-0.06368328,-0.0002095252,0.04729663,0.46723458,-1.4152819,1.9456614,-2.10297,-1.5667294,2.4379928,-0.11493661,0.120072395,-0.12882105,-0.019325104,0.057156883,-0.1620479,-0.34476504,0.038307227,-9.11712,0.9030289,47.719128,-1.2353221,-1.9720407,-3.391109,-0.55115604,0.05724436,-0.22726247,28.125,29.3125,28.4375,32.375,34.5625,35.5625
0.19004984,-1.288636,0.82661307,0.49714407,0.03366973,0.051427037,-0.17196824,-0.3895357,-0.3483026,0.060096525,3.075115,-0.61730796,-9.946921e-05,-0.086772755,0.0016061992,-0.002514024,-0.06238835,-0.0018795453,0.041258257,0.46700585,-1.4150294,1.945434,-2.1029575,-1.566634,2.4376698,-0.11710877,0.12119639,-0.12935367,-0.01782766,0.056742717,-0.15818445,-0.30645782,-0.019153614,-9.155427,0.84708,47.694946,-1.069704,-1.9467177,-3.3392258,-0.59149575,0.04249586,-0.304142,28.125,29.3125,28.4375,32.375,34.5625,35.5625
0.19205022,-0.9286657,0.9981732,0.54813266,0.018300526,0.08351703,-0.18985987,-0.3897207,-0.348297,0.06011394,3.0750048,-0.61715287,-7.30835e-05,-0.089215636,0.0018314972,-0.0015321402,-0.062353108,0.0002834942,0.038134962,0.4667532,-1.4148123,1.945145,-2.102957,-1.5665144,2.4373343,-0.11898593,0.12283575,-0.1336806,-0.01702411,0.05574419,-0.15693405,-0.30645782,-0.038307227,-9.155427,0.7866488,47.64121,-1.1679152,-2.06068,-3.2619362,-0.60707474,0.03085716,-0.36059475,28.125,29.3125,28.4375,32.375,34.5625,35.5625
0.19404952,-1.5699499,0.7975331,0.27789518,0.012316094,0.08529729,-0.18818831,-0.38989887,-0.3482941,0.060117602,3.074881,-0.61707246,-4.4885226e-05,-0.08971783,0.0045073554,-0.0028439702,-0.058561556,-0.0016519935,0.033388205,0.466512,-1.414584,1.9448828,-2.1029928,-1.5663952,2.4370587,-0.12249057,0.12382889,-0.13205907,-0.01616871,0.05324731,-0.15569374,-0.53630114,-0.038307227,-9.251195,0.7866488,47.68062,-0.94242716,-1.8354533,-3.533111,-0.6376887,0.017789353,-0.39640304,28.125,29.3125,28.4375,32.375,34.5625,35.5625
0.19604948,-1.5556296,0.8190156,0.35289413,0.005878855,0.0999446,-0.1836482,-0.39007863,-0.34827945,0.060097855,3.074824,-0.61694527,4.6098407e-06,-0.09188368,0.0050613997,-0.0017288273,-0.0574662,0.002037794,0.034844704,0.46627158,-1.4143078,1.9446186,-2.103029,-1.5663117,2.4367461,-0.12365415,0.1241351,-0.13494779,-0.016342934,0.050621975,-0.15831631,-0.5554548,0.076614454,-9.442732,0.85155696,47.71286,-0.8972486,-1.8290056,-3.2925003,-0.6500045,0.035107598,-0.41695613,28.125,29.3125,28.4375,32.375,34.5625,35.5625
0.19804947,-1.7512686,0.50978845,0.16951375,0.0055143945,0.09619491,-0.18113211,-0.3902172,-0.34826377,0.060059007,3.0747995,-0.61674315,0.00017871206,-0.093774654,0.0054975254,-0.0016458299,-0.055649947,0.004067743,0.042644817,0.46604338,-1.4140425,1.9444021,-2.103029,-1.5661925,2.4363947,-0.12444481,0.12650912,-0.13780376,-0.01678051,0.048107147,-0.16691273,-0.59376204,0.05746084,-9.461885,0.88960326,47.694946,-0.9707683,-1.8908138,-3.3970613,-0.6732278,0.05682908,-0.36569804,28.125,29.3125,28.4375,32.375,34.5625,35.5625
0.20005016,-2.4413598,-0.04261522,0.1296593,0.0055446303,0.09964519,-0.17442535,-0.390424,-0.34826264,0.06008188,3.0747051,-0.6165465,0.00012596998,-0.09450778,0.005818331,-0.0014758284,-0.05409424,0.0058065737,0.051401284,0.4658033,-1.4138021,1.9440793,-2.1030529,-1.5661095,2.436044,-0.1242303,0.1270175,-0.13871993,-0.017155735,0.04598726,-0.17545353,-0.9576807,0.15322891,-9.442732,0.8157518,47.705692,-1.0570941,-1.8660476,-3.397483,-0.6861713,0.086037904,-0.30634862,28.125,29.3125,28.4375,32.375,34.5625,35.5625
0.20204951,-2.6662087,-0.18694848,-0.23222029,0.0004067217,0.115666226,-0.17637852,-0.39060253,-0.34823772,0.060052022,3.0746477,-0.616415,0.000203232,-0.09624333,0.00718898,-0.0021716652,-0.051738504,0.0065847095,0.059546065,0.46553862,-1.4135247,1.9438394,-2.103101,-1.5660142,2.4357045,-0.12658134,0.12950501,-0.13982138,-0.018093372,0.043574117,-0.18595293,-0.90021986,0.2681506,-9.500193,0.76874626,47.684196,-1.032254,-1.8633952,-3.3081093,-0.69145215,0.10256028,-0.17052199,28.125,29.3125,28.4375,32.375,34.5625,35.5625
0.2040503,-2.657595,-0.3536658,-0.2800832,-0.011747999,0.1286203,-0.17139515,-0.39078835,-0.34821117,0.06004323,3.0746207,-0.6161948,0.00021393778,-0.09699874,0.005510849,-0.0006611995,-0.052303538,0.0100686,0.06683699,0.46528766,-1.4132726,1.9435748,-2.1031249,-1.5659546,2.4353194,-0.12355808,0.12967116,-0.14353639,-0.017865757,0.042537272,-0.1902196,-0.7852981,0.28730422,-9.730036,0.8717007,47.68062,-1.2481189,-1.8016092,-3.41126,-0.7267895,0.13451576,-0.1045074,28.125,29.3125,28.4375,32.375,34.5625,35.5625
0.20604941,-2.4777951,-0.257299,-0.30189067,-0.0327105,0.12277358,-0.17319252,-0.3910157,-0.34822592,0.060080763,3.0744784,-0.61597854,0.00015233902,-0.09824268,0.007204033,-0.0015481787,-0.051647548,0.0086961165,0.06054192,0.4650342,-1.4130198,1.9432043,-2.1031492,-1.5658349,2.4349492,-0.12760507,0.13127512,-0.14332454,-0.018138057,0.04259325,-0.1879654,-0.80445176,0.2681506,-9.80665,0.91421866,47.690468,-1.0405786,-1.8133605,-3.4022932,-0.75718045,0.16867271,-0.08042445,28.125,29.3125,28.4375,32.375,34.5625,35.5625
0.20805022,-1.3799125,-0.17490205,-0.32504377,-0.03634504,0.11824482,-0.1816499,-0.39119536,-0.34818906,0.06004933,3.0744622,-0.6158232,0.00020995863,-0.09939174,0.006670425,-0.0021621473,-0.05036252,0.009506248,0.0562763,0.4647708,-1.4127424,1.9429649,-2.1031854,-1.5657753,2.4345908,-0.12663634,0.13502458,-0.1460042,-0.019353498,0.041061584,-0.18273242,-0.80445176,0.28730422,-9.825804,0.8605109,47.694946,-1.2262635,-1.9148793,-3.3783617,-0.7693374,0.16793242,-0.15737054,28.125,29.3125,28.4375,32.375,34.5625,35.5625
0.21004944,-1.3332783,-0.7577101,-0.391909,-0.028909883,0.08166853,-0.16566578,-0.39141583,-0.34816736,0.06005763,3.0744033,-0.6156246,0.00013473857,-0.10182921,0.007616287,-0.00083122443,-0.049732883,0.014260313,0.047251526,0.46450594,-1.4124783,1.9426531,-2.1032336,-1.5657281,2.4342096,-0.12865949,0.13425952,-0.14788835,-0.020677533,0.03836145,-0.17573203,-0.7661445,0.28730422,-9.959879,0.83589023,47.698532,-1.2208501,-1.9155817,-3.3086376,-0.7680924,0.22382672,-0.244804,28.125,29.3125,28.4375,32.375,34.5625,35.5625
0.21204938,-0.8281148,-0.21920447,-0.4650286,-0.03744942,0.06320101,-0.1769054,-0.39164555,-0.3481553,0.060066592,3.0742877,-0.6155862,4.5298588e-05,-0.103371195,0.0075124293,-0.0018452171,-0.0501607,0.013452493,0.03995877,0.46424147,-1.4122003,1.9423293,-2.103306,-1.5656675,2.433936,-0.1302383,0.13850956,-0.15017313,-0.022122331,0.039105453,-0.17000988,-0.57460845,0.1340753,-9.825804,0.8403672,47.67345,-1.1589087,-2.0469692,-3.2777758,-0.77187914,0.2702646,-0.33676383,28.125,29.3125,28.4375,32.375,34.5625,35.5625
0.21404938,-0.5220236,-0.16636835,-0.75405675,-0.020037571,0.039816357,-0.17291884,-0.3918625,-0.34812722,0.060058005,3.0742357,-0.6154434,6.8443005e-05,-0.10454829,0.007348666,-0.0021345536,-0.051108133,0.0140493065,0.0351786,0.463953,-1.4118998,1.9420055,-2.1033185,-1.5655955,2.4335651,-0.13127665,0.14048822,-0.15144847,-0.02378078,0.0396805,-0.1662642,-0.40222588,0.17238252,-9.80665,0.82022345,47.666286,-1.2125162,-2.0685024,-3.3395913,-0.73840106,0.28334314,-0.40938187,28.125,29.3125,28.4375,32.375,34.5625,35.5625
0.2160501,0.15307108,0.30496144,-0.32523742,-0.031420648,0.047991633,-0.18401761,-0.39206743,-0.3481208,0.060054712,3.0741477,-0.6152531,5.1037564e-06,-0.105464965,0.006813999,-0.0024376048,-0.053161617,0.013794703,0.03387387,0.46371293,-1.4116348,1.9417299,-2.1034143,-1.5655226,2.4332175,-0.13232803,0.14249872,-0.15279043,-0.025126891,0.041650113,-0.1660007,-0.22984336,0.11492168,-9.672575,0.9186956,47.701214,-1.1643221,-2.0916681,-3.2323585,-0.7389879,0.28659263,-0.48048156,28.125,29.3125,28.4375,32.375,34.5625,35.5625
0.21804954,0.11330717,-0.28662035,-0.3538879,-0.020758247,0.03333981,-0.17911822,-0.39228094,-0.34810913,0.060039166,3.0740662,-0.61513466,1.1770938e-05,-0.105881706,0.006384011,-0.0026699996,-0.054788865,0.01354603,0.041464124,0.4634488,-1.4113221,1.941419,-2.1034749,-1.5654382,2.43289,-0.13288696,0.14362004,-0.15335761,-0.026124502,0.043265436,-0.17414305,-0.095768064,0.21068975,-9.576807,0.9545008,47.682407,-1.2648932,-2.1328976,-3.384728,-0.7415934,0.30520603,-0.48267668,28.125,29.3125,28.4375,32.375,34.5625,35.5625
0.22004996,-0.1433511,-0.6420716,-0.5319896,-0.006299133,0.018160107,-0.1730316,-0.39252037,-0.3481006,0.060068972,3.0739255,-0.6150039,-7.5834585e-05,-0.10677342,0.0062373346,-0.0023008126,-0.05485555,0.014485084,0.052498627,0.46316046,-1.4110695,1.9410714,-2.103523,-1.5653428,2.432538,-0.13314216,0.14451848,-0.15532987,-0.025830645,0.042984545,-0.18542683,0.114921674,0.2681506,-9.576807,0.8605109,47.690468,-1.2221931,-2.0976198,-3.4007063,-0.7491203,0.33082354,-0.40595365,28.125,29.3125,28.4375,32.375,34.5625,35.5625
0.22204936,0.28711978,-0.4516653,-0.27827308,-0.0215328,0.027092738,-0.1791202,-0.39273757,-0.34807244,0.060077034,3.0738816,-0.6147797,-0.00015917004,-0.108226165,0.008008781,-0.003691117,-0.054707345,0.0117339995,0.060243316,0.46289492,-1.4108167,1.9407724,-2.1035707,-1.5653061,2.4321382,-0.13821678,0.14742292,-0.15551871,-0.02593617,0.044161785,-0.19823873,0.21068975,0.19153613,-9.500193,0.88289046,47.703903,-1.1283913,-2.0582185,-3.3684285,-0.7674463,0.36286145,-0.24623609,28.125,29.3125,28.4375,32.375,34.5625,35.5625
0.22405007,0.52854663,-0.23271737,-0.1647459,-0.024176463,0.015002831,-0.18065399,-0.39294356,-0.34806344,0.060058862,3.0737855,-0.6145839,-0.00011900476,-0.10948152,0.0063127056,-0.001655922,-0.058744606,0.015321695,0.06778304,0.4626192,-1.4105164,1.9404844,-2.1036427,-1.565185,2.4317524,-0.13756163,0.14628182,-0.1587241,-0.026535837,0.04621636,-0.20511378,0.24899697,0.19153613,-9.385271,0.8537928,47.687782,-1.1721697,-2.089495,-3.260621,-0.75503576,0.35741857,-0.16235489,28.125,29.3125,28.4375,32.375,34.5625,35.5625
0.22604951,0.38046417,-0.39025134,-0.010005443,-0.015206635,-0.0072590173,-0.17306867,-0.3931699,-0.3480579,0.06005247,3.073761,-0.61425465,-0.0001765211,-0.109781586,0.006936804,-0.0032185672,-0.058687024,0.0119844405,0.06417211,0.4623784,-1.4101908,1.9401373,-2.1037028,-1.5651368,2.4313092,-0.13976859,0.14935517,-0.15874347,-0.026569342,0.04767346,-0.20370144,0.22984336,0.26815057,-9.3661175,0.87617236,47.711063,-1.0665816,-2.205843,-3.3541193,-0.7471211,0.38418913,-0.16874781,28.125,29.3125,28.4375,32.375,34.5625,35.5625
0.22804976,0.4191371,-0.6940934,0.1735432,-0.020634886,-0.0151370745,-0.16543713,-0.39339638,-0.3480569,0.060080785,3.0735576,-0.61412257,-0.00014223254,-0.11147883,0.006791712,-0.0023173098,-0.06089731,0.013845161,0.05525697,0.46205375,-1.4099506,1.939802,-2.103727,-1.5649446,2.430928,-0.14163938,0.14959712,-0.16093278,-0.027262699,0.048820335,-0.19664691,0.11492168,0.28730422,-9.251195,0.88960326,47.689575,-1.0903968,-2.1150243,-3.4824739,-0.75234103,0.38611463,-0.2320985,28.125,29.3125,28.4375,32.375,34.5625,35.5625
0.23004872,0.27848512,-0.5318504,0.44205636,-0.029498182,-0.013483218,-0.1637366,-0.39361134,-0.34803426,0.060048703,3.073513,-0.61394393,-0.000116728384,-0.11172664,0.0069282576,-0.0029975171,-0.061791446,0.012533384,0.048769705,0.4617774,-1.409614,1.9395031,-2.1037986,-1.5648717,2.4305458,-0.14288561,0.15090321,-0.16077156,-0.027961463,0.05019754,-0.1913998,-0.076614454,0.34476504,-9.212888,0.85155696,47.668976,-1.0416182,-2.095542,-3.480669,-0.7329516,0.3922547,-0.31059903,28.125,29.3125,28.4375,32.375,34.5625,35.5625
0.23205017,0.5359938,-0.46276078,0.4053567,-0.022213472,-0.0021046633,-0.16791984,-0.39385885,-0.34801617,0.060056597,3.0734117,-0.6138303,-0.00020940228,-0.11408579,0.0071061864,-0.0018576141,-0.06431023,0.014359382,0.04208297,0.46148852,-1.4093134,1.939155,-2.1038706,-1.5648111,2.4301991,-0.14610119,0.15135759,-0.1639024,-0.028041068,0.051650524,-0.18791658,-0.05746084,0.3256114,-9.193734,0.8717007,47.658226,-1.0873742,-2.0128698,-3.3519802,-0.7387768,0.39814866,-0.38466606,28.125,29.3125,28.4375,32.375,34.5625,35.5625
0.23404819,0.13398924,-0.23342279,0.40770352,-0.020636957,0.008663442,-0.1724425,-0.39407364,-0.34800333,0.060059883,3.0732884,-0.6136311,-0.0001352781,-0.1152079,0.0053465497,-0.0005005398,-0.06778538,0.016164815,0.04471702,0.4611767,-1.4090371,1.9388317,-2.1038826,-1.5646547,2.4297786,-0.14537908,0.1519629,-0.1677366,-0.027927116,0.053984076,-0.18981631,-0.1340753,0.30645782,-9.174581,0.90750587,47.68599,-0.9654278,-1.9105592,-3.287447,-0.74386376,0.41269758,-0.413822,28.125,29.3125,28.4375,32.375,34.5625,35.5625
0.23604853,0.14427228,-0.10572298,0.3611703,-0.019767798,0.04048228,-0.17086951,-0.39430895,-0.34799424,0.06006026,3.073195,-0.6134563,-0.00017431655,-0.11680089,0.005392252,-0.00029452573,-0.070264466,0.015774745,0.049014617,0.4608993,-1.4087243,1.9384836,-2.1039422,-1.5645698,2.429404,-0.14832412,0.15351559,-0.17004241,-0.027861128,0.056438446,-0.19704472,-0.11492168,0.2681506,-9.11712,0.8627467,47.737934,-0.7941786,-1.9290075,-3.2220216,-0.7344519,0.39651227,-0.35414445,28.125,29.3125,28.4375,32.375,34.5625,35.5625
0.23804818,-0.6577206,0.0033690382,0.34157404,-0.018959215,0.04664756,-0.17921308,-0.39454088,-0.34800673,0.06007533,3.0730808,-0.6131374,-0.00025013817,-0.11683447,0.004279067,0.0003495877,-0.073066495,0.016174845,0.06132634,0.46064755,-1.4084361,1.938136,-2.104026,-1.5644606,2.4289677,-0.14784038,0.1531373,-0.17106909,-0.02796014,0.058866523,-0.20885637,-0.22984336,0.30645782,-9.155427,0.9321212,47.711063,-0.9709531,-1.9668609,-3.2702975,-0.7458079,0.37477005,-0.27217764,28.125,29.3125,28.4375,32.375,34.5625,35.5625
0.24004851,-0.79608387,-0.44517785,0.03340738,-0.024568042,0.07986823,-0.16919808,-0.39477453,-0.34799626,0.060063362,3.0729592,-0.6128972,-0.00018851085,-0.117004685,0.0033477517,-0.0006247754,-0.07487783,0.013429631,0.06966233,0.46032363,-1.4081104,1.9378012,-2.1040857,-1.5643038,2.4285092,-0.14809783,0.15656543,-0.17286977,-0.027837176,0.061777987,-0.21743461,-0.38307226,0.28730422,-9.289502,0.8851263,47.703903,-1.0602973,-1.9793255,-3.282652,-0.753782,0.34191012,-0.15524614,28.125,29.3125,28.4375,32.375,34.5625,35.5625
0.24204807,-1.1260859,-0.7831281,-0.045150034,-0.029336,0.08779453,-0.16918582,-0.39498508,-0.3479703,0.0600386,3.0729191,-0.61269647,-7.158878e-05,-0.11735599,0.0022900668,0.000340022,-0.07795142,0.014003428,0.07288721,0.4600237,-1.4077743,1.937467,-2.1040742,-1.564195,2.428089,-0.14805281,0.1560255,-0.17456874,-0.027423637,0.06430118,-0.22060598,-0.45968673,0.3256114,-9.32781,0.8537928,47.675243,-1.0905704,-1.9468656,-3.2477207,-0.74265003,0.33010042,-0.08991265,28.125,29.3125,28.4375,32.375,34.5625,35.5625
0.2440485,-1.4033296,-1.0053766,-0.04961123,-0.04153903,0.075719975,-0.16587122,-0.39522484,-0.34797156,0.06004386,3.0727644,-0.6125542,-6.688681e-05,-0.11778864,0.0021283824,-7.689761e-05,-0.08024121,0.012329894,0.06506467,0.45972314,-1.4074619,1.9371079,-2.1041334,-1.5640501,2.4277194,-0.14981954,0.15733388,-0.1750859,-0.027730089,0.06710012,-0.2145328,-0.6703764,0.30645782,-9.385271,0.8537928,47.698532,-1.1278341,-1.8490132,-3.2620544,-0.7373962,0.2838292,-0.14339873,28.125,29.3125,28.4375,32.375,34.5625,35.5625
0.24604817,-1.183904,-0.6048649,-0.13736019,-0.039612673,0.07414733,-0.15412177,-0.39545572,-0.34798703,0.060025036,3.072688,-0.61221784,-4.272979e-05,-0.119317494,0.0014237127,0.00021874758,-0.084561184,0.012852442,0.05518212,0.45947036,-1.4070886,1.9367365,-2.1042068,-1.5639285,2.4272661,-0.15212037,0.15856898,-0.17676525,-0.029691257,0.070719615,-0.20693149,-0.842759,0.22984336,-9.423578,0.8560339,47.71823,-1.108296,-1.9066889,-3.177652,-0.71156836,0.22373965,-0.2554974,28.125,29.3125,28.4375,32.375,34.5625,35.5625
0.24804975,-0.81227624,-0.09553627,-0.32020324,-0.031627122,0.06712464,-0.16673052,-0.39569566,-0.34795594,0.060018584,3.0725348,-0.61215365,-3.7805225e-05,-0.12120897,0.0015409669,0.00037354667,-0.0862452,0.014297144,0.045427185,0.45912144,-1.4068002,1.9364375,-2.1042912,-1.5637964,2.4268968,-0.15440953,0.16011149,-0.1785056,-0.031537257,0.07157793,-0.19945447,-0.63206923,0.19153614,-9.519346,0.92764956,47.71286,-1.047545,-1.8620405,-3.2439618,-0.70046556,0.20872252,-0.35696393,28.125,29.3125,28.4375,32.375,34.5625,35.5625
0.25004828,-0.9301361,0.047951903,0.1141395,-0.016642163,0.0637046,-0.16740088,-0.39595595,-0.34798244,0.06003716,3.0723176,-0.61197704,-1.9427396e-05,-0.12071116,0.0005471559,-0.00059037557,-0.086229056,0.012773588,0.041950252,0.4588103,-1.4064627,1.9360193,-2.1043503,-1.5635923,2.4265032,-0.15252979,0.16269521,-0.17922954,-0.0320013,0.07224994,-0.19408466,-0.63206923,0.076614454,-9.442732,0.8784135,47.67614,-1.1582584,-2.0883815,-3.3345356,-0.680212,0.20067742,-0.44781667,28.125,29.3125,28.4375,32.375,34.5625,35.5625
0.25204858,-0.7332286,0.5458159,0.19414482,0.00032600245,0.069187865,-0.17908075,-0.39619562,-0.347979,0.060037903,3.072184,-0.61177415,-2.7844171e-05,-0.121295765,-0.000118697644,-0.0013338716,-0.08789488,0.010316828,0.043738868,0.4585101,-1.4061493,1.9356722,-2.1044228,-1.5634593,2.4260933,-0.15342891,0.16605291,-0.1815669,-0.031498857,0.074877456,-0.19675295,-0.59376204,0.0,-9.32781,0.86945957,47.68062,-1.1080892,-2.0544538,-3.320855,-0.6943731,0.1292575,-0.49832296,28.125,29.3125,28.4375,32.375,34.5625,35.5625
0.25404823,-0.76781386,1.6283464,0.08225173,0.0094669815,0.074911185,-0.19304934,-0.3964634,-0.34797952,0.06002876,3.0720391,-0.6116226,-1.1922588e-05,-0.1220186,8.812413e-05,-0.0013736758,-0.08822548,0.011575496,0.055916797,0.4581858,-1.405765,1.9352654,-2.1044948,-1.5633157,2.425693,-0.15419483,0.16644296,-0.18164676,-0.032936063,0.07472084,-0.20969109,-0.38307226,0.0,-9.442732,0.85826975,47.689575,-1.1583244,-2.0190551,-3.3090568,-0.6708938,0.09089796,-0.4333199,28.125,29.3125,28.4375,32.375,34.5625,35.5625
0.25604844,-1.1150408,1.2624037,0.13307592,0.02323815,0.08712188,-0.17767733,-0.39672735,-0.34797776,0.060050923,3.0718813,-0.611353,-6.900093e-05,-0.123981364,0.00042217216,-0.0015138441,-0.08759224,0.013623851,0.06873011,0.45786119,-1.4054637,1.9348835,-2.1045668,-1.5631722,2.4252203,-0.15550555,0.168943,-0.18388298,-0.03459243,0.07336847,-0.2238091,-0.3256114,-0.095768064,-9.500193,0.8851263,47.71554,-1.1876923,-2.2048998,-3.2901125,-0.6345062,0.105752856,-0.31128305,28.125,29.3125,28.4375,32.375,34.5625,35.5625
0.25804818,-1.6433922,1.0776426,0.19399074,0.018384118,0.078768685,-0.17991278,-0.3969486,-0.3479707,0.060022317,3.0717819,-0.6110598,4.187032e-05,-0.12428319,0.00040524077,-0.0017658562,-0.08625817,0.013805078,0.07843245,0.4575495,-1.405115,1.9345592,-2.104627,-1.5630049,2.424738,-0.15486094,0.1703774,-0.18510523,-0.03424386,0.07216622,-0.23286967,-0.28730422,-0.05746084,-9.442732,0.8985519,47.71017,-1.2024765,-2.120832,-3.391943,-0.60087895,0.07814159,-0.20021026,28.125,29.3125,28.4375,32.375,34.5625,35.5625
0.26004842,-0.7146357,0.7568677,0.008254559,0.016100802,0.08900833,-0.180569,-0.39719412,-0.3479685,0.060002796,3.0716853,-0.6107938,7.6544486e-05,-0.12665272,0.0022462008,-0.0016977945,-0.082931995,0.01630918,0.074794345,0.45724845,-1.4047421,1.9341887,-2.1046984,-1.5628737,2.424283,-0.15744914,0.17194198,-0.18707411,-0.034558974,0.068096206,-0.23183218,-0.2873042,0.0,-9.423578,0.83589023,47.690468,-1.1401484,-2.2415576,-3.424195,-0.5941733,0.085205615,-0.16412331,28.125,29.3125,28.4375,32.375,34.5625,35.5625
0.2620482,-1.0625387,0.18683866,-0.016414726,0.015290841,0.061031636,-0.16797335,-0.3974702,-0.34793615,0.060002178,3.0715358,-0.61072904,5.2152656e-05,-0.12818952,0.0038933589,-0.0019607076,-0.07919157,0.017242918,0.064975284,0.45687643,-1.4044052,1.9338168,-2.10477,-1.5627555,2.4238899,-0.15914041,0.1736554,-0.18869656,-0.033835586,0.06432049,-0.22371358,-0.4213795,0.019153614,-9.519346,0.9097417,47.686886,-1.3310344,-2.0854192,-3.3563423,-0.5717562,0.14179748,-0.2503508,28.125,29.3125,28.4375,32.375,34.5625,35.5625
0.26404846,-0.2571862,0.53977305,-0.10297503,0.0035820543,0.06541013,-0.1805653,-0.39775476,-0.34791553,0.059990082,3.0714414,-0.6105011,-1.7883418e-05,-0.12872595,0.004659939,-0.0015855584,-0.0765614,0.018427186,0.060866494,0.4565403,-1.4040209,1.9334239,-2.1048772,-1.5626725,2.4234235,-0.15899512,0.17359707,-0.18986157,-0.03249906,0.061454896,-0.21946542,-0.24899697,0.1340753,-9.442732,0.86498255,47.699425,-1.2632654,-2.2313862,-3.4390163,-0.56697524,0.17256126,-0.33391836,28.125,29.3125,28.4375,32.375,34.5625,35.5625
0.26604828,-0.43141776,0.32266653,-0.038439374,0.00015699238,0.04387548,-0.18617268,-0.39798334,-0.3479132,0.059983116,3.071329,-0.61028904,6.760901e-05,-0.13050114,0.00650393,-0.0020927675,-0.07350914,0.018659845,0.05615073,0.45623934,-1.4036839,1.9330524,-2.1048892,-1.5625175,2.4230044,-0.1618571,0.17575556,-0.19140851,-0.03192697,0.058624025,-0.21762161,-0.11492168,0.19153613,-9.557653,0.91198283,47.71465,-1.1563927,-2.2433758,-3.4536295,-0.56110805,0.21654865,-0.37636706,28.125,29.3125,28.4375,32.375,34.5625,35.5625
0.26804906,-0.34352174,-0.11521866,0.0063204565,-0.005248746,0.03391462,-0.17396057,-0.39825225,-0.3478961,0.05998026,3.0712588,-0.6100614,-1.2759248e-05,-0.13281442,0.007630405,-0.002066564,-0.072915904,0.020321704,0.05889881,0.455938,-1.4033228,1.9326571,-2.1049616,-1.5624574,2.42257,-0.16495043,0.17758508,-0.19343108,-0.032881837,0.057427656,-0.22346193,-0.19153613,0.30645782,-9.500193,0.85826975,47.711964,-1.0250999,-2.351331,-3.2952876,-0.5381294,0.25722972,-0.37024596,28.125,29.3125,28.4375,32.375,34.5625,35.5625
0.27004862,-0.4142337,-0.35454234,-0.026655355,-0.0132349925,0.031570725,-0.18905017,-0.39851215,-0.34787363,0.059973903,3.0711346,-0.60985607,-9.639343e-06,-0.13399276,0.008211089,-0.0019513576,-0.07180076,0.021207105,0.07087821,0.45558995,-1.402986,1.9322981,-2.1050332,-1.5623258,2.4221096,-0.16604675,0.17878434,-0.1952507,-0.03240294,0.056155458,-0.23653884,-0.095768064,0.32561144,-9.346964,0.8493211,47.689575,-1.0140281,-2.2803712,-3.3036318,-0.5336831,0.28802288,-0.2857514,28.125,29.3125,28.4375,32.375,34.5625,35.5625
0.27204862,-0.62194216,-0.533785,-0.18619668,-0.024252616,0.025328176,-0.18991849,-0.3987754,-0.3478512,0.059941024,3.071079,-0.609551,3.145435e-05,-0.13413094,0.00830615,-0.0017484133,-0.07151045,0.020902183,0.08129135,0.45525405,-1.4025776,1.9319156,-2.1051042,-1.5622176,2.42159,-0.16617851,0.17898424,-0.19633575,-0.030982753,0.056124844,-0.24708213,0.019153614,0.40222588,-9.385271,0.8314132,47.68599,-1.0361605,-2.162856,-3.4589834,-0.5277069,0.3192477,-0.13550992,28.125,29.3125,28.4375,32.375,34.5625,35.5625
0.27404854,-0.5151478,-1.1903253,0.0025721602,-0.025365815,0.030826958,-0.17841096,-0.39906105,-0.34784368,0.059961263,3.0709512,-0.60921997,-5.251474e-05,-0.1349926,0.008223523,-0.00085543736,-0.07315241,0.021425514,0.079419516,0.4549178,-1.4022413,1.9314965,-2.1051757,-1.5620974,2.4210634,-0.16745357,0.17859718,-0.19820818,-0.029876355,0.057419304,-0.24647006,-0.076614454,0.40222588,-9.346964,0.8627467,47.679718,-1.216524,-2.1645443,-3.419383,-0.5135619,0.31620347,-0.09730517,28.125,29.3125,28.4375,32.375,34.5625,35.5625
0.27604848,-0.32878762,-0.5613588,-0.103071325,-0.035684377,0.022473868,-0.17911616,-0.39931446,-0.34783867,0.059958477,3.0708568,-0.60893446,-1.8631024e-05,-0.13445081,0.007288627,-0.001190879,-0.07380025,0.02012831,0.074922435,0.45460615,-1.4018803,1.9310898,-2.1051996,-1.5619649,2.4205854,-0.16594157,0.17982736,-0.19902879,-0.02941108,0.058563333,-0.24045075,-0.17238252,0.45968673,-9.423578,0.8560339,47.716442,-1.2082102,-2.214149,-3.4370747,-0.49655467,0.34104767,-0.1471385,28.125,29.3125,28.4375,32.375,34.5625,35.5625
0.2780483,0.11624142,-0.6489392,-0.38370878,-0.022732541,0.017521717,-0.18419003,-0.39962608,-0.34780967,0.059970506,3.0707266,-0.6087993,-0.00012167428,-0.13656814,0.0074178413,-0.00085582415,-0.07576799,0.019759815,0.063379444,0.45423305,-1.4015077,1.9306468,-2.1052716,-1.5618805,2.4201448,-0.16905323,0.18219152,-0.2027639,-0.028611694,0.060482733,-0.23199897,-0.11492168,0.4213795,-9.461885,0.97464454,47.711964,-1.0199513,-2.122151,-3.3643255,-0.50950974,0.36466295,-0.25924125,28.125,29.3125,28.4375,32.375,34.5625,35.5625
0.2800485,0.29877764,-0.42769057,-0.18574637,-0.0210078,0.0060669836,-0.17944366,-0.39986426,-0.34779814,0.059934016,3.070612,-0.60863036,-1.9372688e-05,-0.13799547,0.0073966943,-0.0004211517,-0.07830572,0.01927306,0.050556276,0.45390818,-1.4011227,1.9302996,-2.1053426,-1.5617236,2.419729,-0.17166281,0.18327501,-0.20519975,-0.02797918,0.06292759,-0.22176898,-0.095768064,0.3256114,-9.442732,0.92093146,47.719128,-1.0448587,-2.1115918,-3.282796,-0.49743754,0.34149057,-0.39817,28.125,29.3125,28.4375,32.375,34.5625,35.5625
0.28204823,-0.19481824,-0.61571145,-0.21748492,-0.013372968,-0.015773563,-0.1803786,-0.40019327,-0.34777033,0.05996871,3.0704553,-0.608484,-0.00018338296,-0.13981672,0.008086345,0.00077855296,-0.078328915,0.021558087,0.046581,0.45352352,-1.4007746,1.9298333,-2.1054146,-1.5616401,2.4192734,-0.17367616,0.18291049,-0.20775957,-0.027090814,0.06199198,-0.21979983,-0.095768064,0.28730422,-9.423578,0.92093146,47.68062,-0.9448855,-2.0922806,-3.4728048,-0.50978136,0.3937036,-0.48682898,28.125,29.3125,28.4375,32.375,34.5625,35.5625
0.2840485,-0.82560253,-0.88185865,-0.3552935,-0.014567058,-0.018833557,-0.17770088,-0.40041548,-0.34774852,0.059929617,3.0704086,-0.6082595,-2.9533052e-05,-0.14065239,0.009088592,-0.0002623521,-0.07864289,0.01861746,0.052954648,0.4532103,-1.4003892,1.9294747,-2.1054142,-1.5615076,2.4188256,-0.17706971,0.18542467,-0.20859392,-0.026132569,0.06364098,-0.22956002,0.019153614,0.2681506,-9.461885,0.8672237,47.682407,-0.9392434,-2.0891378,-3.470408,-0.5144384,0.3859336,-0.4695968,28.125,29.3125,28.4375,32.375,34.5625,35.5625
0.28604823,-0.50975794,-1.0437018,-0.20463754,-0.023083078,0.012149923,-0.1946279,-0.40070653,-0.34774393,0.059937242,3.0702863,-0.6079356,-9.692023e-05,-0.13980539,0.0071385475,-0.0011363106,-0.08072959,0.015303849,0.07105937,0.45287532,-1.4000155,1.9290427,-2.1054971,-1.561386,2.418304,-0.17498186,0.18868327,-0.21068284,-0.02505089,0.06712845,-0.24554858,-0.019153614,0.21068975,-9.423578,0.8851263,47.756744,-1.0239315,-2.185386,-3.422192,-0.5329846,0.3644846,-0.32660097,28.125,29.3125,28.4375,32.375,34.5625,35.5625
0.28804848,-0.28145182,-0.6492495,-0.031789497,-0.03422807,0.037874717,-0.20079894,-0.4009796,-0.34772584,0.059927717,3.0701578,-0.6077136,-1.7115415e-05,-0.14108466,0.0064370395,-0.00029337627,-0.081693,0.016436068,0.08112561,0.45250317,-1.399631,1.9286236,-2.1055205,-1.5612181,2.4178095,-0.17499533,0.19005494,-0.21452233,-0.023863083,0.06759888,-0.2556213,-0.038307227,0.2873042,-9.481039,0.9388393,47.717335,-0.9598045,-2.1009378,-3.307893,-0.53589964,0.3677572,-0.21926025,28.125,29.3125,28.4375,32.375,34.5625,35.5625
0.2900482,-0.92370784,-0.7016726,0.023195239,-0.01824028,0.032587647,-0.18243854,-0.40124705,-0.34773326,0.05991399,3.0700514,-0.60736907,-3.0731528e-05,-0.1415933,0.006157273,0.00063998526,-0.083820574,0.017189367,0.07707606,0.45220283,-1.3992349,1.9282168,-2.1056168,-1.5610851,2.4173074,-0.1758109,0.18899274,-0.21557581,-0.023337469,0.06920111,-0.252371,-0.15322891,0.30645782,-9.500193,0.8851263,47.690468,-1.0816622,-2.107308,-3.2939596,-0.54799235,0.38312572,-0.17752416,28.125,29.3125,28.4375,32.375,34.5625,35.5625
0.29204845,-1.3016204,-0.7437078,-0.11465423,-0.0020688036,0.023762474,-0.185278,-0.4015739,-0.3477279,0.05996035,3.069836,-0.60717565,-0.000113211536,-0.14170346,0.0049769995,0.0002530815,-0.0869743,0.015127723,0.06863178,0.45180702,-1.398886,1.9277147,-2.105652,-1.5609163,2.4168186,-0.17602561,0.1910618,-0.21710657,-0.023422496,0.0729414,-0.24410515,-0.3256114,0.2681506,-9.576807,0.79560274,47.675243,-1.0829136,-2.0794265,-3.33643,-0.5304558,0.33414063,-0.29005826,28.125,29.3125,28.4375,32.375,34.5625,35.5625
0.29404822,-0.85652655,-0.06951291,-0.14137688,0.0006499996,0.028563254,-0.18212308,-0.40183592,-0.34770957,0.0599355,3.0697381,-0.606928,-3.816103e-05,-0.14124382,0.0040046945,-7.387e-05,-0.0899057,0.012971736,0.06361621,0.45145872,-1.3984892,1.9273213,-2.1057003,-1.5607704,2.416328,-0.17603895,0.19190483,-0.21741202,-0.023301063,0.07651042,-0.23907796,-0.15322891,0.2681506,-9.461885,0.84708,47.65106,-1.184064,-2.1633835,-3.4267144,-0.5337398,0.32058764,-0.37500426,28.125,29.3125,28.4375,32.375,34.5625,35.5625
0.29604852,-1.0493413,-0.5744641,-0.28593305,0.0019884366,0.017743664,-0.1838212,-0.4021085,-0.34768903,0.059908226,3.0696445,-0.60669774,4.9268856e-05,-0.14177933,0.0037627427,-0.00035834016,-0.09208234,0.011658546,0.064085595,0.45109838,-1.3980683,1.9269022,-2.105736,-1.5606254,2.4158356,-0.17754337,0.19328965,-0.21841002,-0.02338274,0.07908056,-0.24103357,-0.15322891,0.21068975,-9.461885,0.91198283,47.704796,-1.1397722,-2.212812,-3.4664903,-0.53284216,0.28979716,-0.38835824,28.125,29.3125,28.4375,32.375,34.5625,35.5625
0.2980481,-1.151138,-0.6365334,-0.024422279,-0.020387804,0.015339813,-0.18678203,-0.40240303,-0.3476746,0.059914924,3.0695336,-0.60638124,3.4642497e-05,-0.1425772,0.00329997,-0.0008969731,-0.09393867,0.009929499,0.07330825,0.4507382,-1.397683,1.9264473,-2.1057723,-1.5604929,2.4152918,-0.17885993,0.19612306,-0.22058834,-0.023132142,0.081624664,-0.2515488,-0.21068975,0.19153613,-9.404425,0.9835985,47.694946,-1.2187494,-2.31676,-3.499229,-0.5492817,0.24045,-0.34635434,28.125,29.3125,28.4375,32.375,34.5625,35.5625
0.3000488,-0.762553,-0.54321826,-0.0127212275,-0.02725975,0.025853021,-0.18652704,-0.40267354,-0.34769282,0.059911747,3.0693648,-0.60605025,0.00011575575,-0.14217816,0.0016419512,-0.0013297016,-0.09658792,0.008041689,0.08864471,0.45040262,-1.397286,1.9260043,-2.1058195,-1.5602759,2.4147708,-0.17758228,0.19829829,-0.222227,-0.022907002,0.08497714,-0.26557994,-0.24899697,0.15322891,-9.3661175,0.8560339,47.68062,-1.2105743,-2.2716837,-3.4691455,-0.567844,0.19716953,-0.18936297,28.125,29.3125,28.4375,32.375,34.5625,35.5625
0.30204856,-0.9644746,-0.49496728,-0.1672449,-0.014838671,0.02127659,-0.18626241,-0.4029622,-0.34767708,0.059897978,3.0692482,-0.60573745,0.00015353334,-0.1433655,0.0009122138,-0.00086656894,-0.09926544,0.008063214,0.09228855,0.45003042,-1.396877,1.9255737,-2.1058795,-1.560119,2.414218,-0.17871392,0.19979356,-0.2251496,-0.022549637,0.08745029,-0.27033243,-0.17238252,0.17238252,-9.3661175,0.84484416,47.683304,-1.220247,-2.206837,-3.4229932,-0.56087077,0.15207352,-0.09779802,28.125,29.3125,28.4375,32.375,34.5625,35.5625
0.30404922,-0.7448066,-0.25943086,0.1026245,-0.004738975,0.025984073,-0.18127126,-0.40326533,-0.34768325,0.05991716,3.0690684,-0.6054565,0.00013684596,-0.14488088,0.00037362383,-0.00017071726,-0.100654796,0.009803727,0.085565075,0.44966984,-1.3964924,1.925094,-2.1059277,-1.5599388,2.4137049,-0.17920259,0.20101103,-0.22810034,-0.022976762,0.08794453,-0.2640808,-0.22984336,0.19153613,-9.3661175,0.8493211,47.68599,-1.3285966,-2.2065651,-3.38345,-0.56571454,0.11440824,-0.13065399,28.125,29.3125,28.4375,32.375,34.5625,35.5625
0.30604827,-0.8310266,0.07488772,0.14117885,0.0033592165,0.027472347,-0.1805758,-0.40354177,-0.34767678,0.05990436,3.0689354,-0.60512805,0.00019652289,-0.14587884,-0.0006884978,0.0010438595,-0.1043372,0.011238159,0.075546324,0.4493099,-1.3960959,1.9246758,-2.1059878,-1.5597581,2.4131565,-0.17970328,0.20062466,-0.2303843,-0.02323282,0.09059649,-0.25453705,-0.28730422,0.2681506,-9.346964,0.8985519,47.70211,-1.3336767,-2.1381721,-3.367805,-0.57274556,0.042322583,-0.24963373,28.125,29.3125,28.4375,32.375,34.5625,35.5625
0.3080486,-1.2756124,-0.08601891,-0.050211683,0.016953368,0.021353843,-0.1671358,-0.4038517,-0.34769112,0.05990566,3.0687258,-0.6049024,0.00023004961,-0.14798819,0.0010414758,0.0014419615,-0.10187848,0.013462089,0.061103426,0.44893685,-1.3956627,1.9241856,-2.1060593,-1.5595435,2.4126694,-0.18230367,0.20126326,-0.23215967,-0.023064386,0.087369144,-0.24270377,-0.24899697,0.22984336,-9.346964,0.9567419,47.687782,-1.1827899,-2.2075377,-3.387568,-0.55608517,0.049785066,-0.40517497,28.125,29.3125,28.4375,32.375,34.5625,35.5625
0.31004825,-0.77937293,0.51070666,-0.20132408,0.00038890284,0.03299615,-0.18340197,-0.40412748,-0.3476716,0.05989135,3.068606,-0.60470736,0.00033714916,-0.150098,0.0028950525,0.0021309385,-0.100784294,0.015234277,0.05418162,0.44856334,-1.3952549,1.9237431,-2.1060588,-1.5593756,2.4121892,-0.1860598,0.2010262,-0.23368262,-0.022382967,0.08561611,-0.2395469,-0.15322891,0.24899697,-9.346964,0.89631605,47.66091,-1.0431714,-2.0861087,-3.3453617,-0.56920826,0.074845955,-0.4976768,28.125,29.3125,28.4375,32.375,34.5625,35.5625
0.3120484,-1.2069534,-0.1614452,-0.04735521,0.0014755457,0.035806596,-0.18444274,-0.4044255,-0.34765616,0.05988998,3.0684752,-0.6044244,0.0003811587,-0.15210843,0.004491339,0.002925878,-0.096662395,0.019076819,0.06488231,0.4481797,-1.3948466,1.9232763,-2.1060827,-1.5592097,2.4116454,-0.18707205,0.20129277,-0.23605464,-0.021728171,0.080371365,-0.25128978,-0.15322891,0.24899697,-9.385271,0.8940802,47.67345,-1.1716797,-1.9442375,-3.293548,-0.5749864,0.070281036,-0.43711287,28.125,29.3125,28.4375,32.375,34.5625,35.5625
0.31404832,-1.6288471,-0.2077719,-0.25018874,0.0049038962,0.046360306,-0.1802314,-0.40472433,-0.3476542,0.059880212,3.0683403,-0.6041208,0.0004095317,-0.1543657,0.005986741,0.0037654825,-0.09412344,0.02281384,0.07814333,0.44781893,-1.3944141,1.9228085,-2.1061428,-1.5590433,2.411112,-0.18906352,0.201477,-0.23828085,-0.021693317,0.07663289,-0.2665621,-0.15322891,0.24899697,-9.461885,0.8873621,47.655537,-1.0990396,-1.9113824,-3.075224,-0.60064334,0.1175382,-0.30894324,28.125,29.3125,28.4375,32.375,34.5625,35.5625
0.31604835,-1.3908132,0.38684863,-0.37406197,0.007630952,0.07312791,-0.18871295,-0.40501803,-0.34761906,0.059872553,3.0682583,-0.60383356,0.00042857532,-0.15491785,0.007578934,0.002473622,-0.08990638,0.021918919,0.08382318,0.44743466,-1.3940164,1.9223675,-2.1061661,-1.5589241,2.4105587,-0.19005151,0.2039867,-0.23849197,-0.021208895,0.07331639,-0.27324915,-0.21068975,0.21068975,-9.5385,0.89631605,47.71823,-1.1345093,-1.9364712,-3.206061,-0.60503525,0.1547612,-0.2025679,28.125,29.3125,28.4375,32.375,34.5625,35.5625
0.31804866,-1.7893898,0.38901454,-0.26426813,0.0011056078,0.08694601,-0.18209814,-0.40535253,-0.34761032,0.05990027,3.0680778,-0.60362816,0.0002815684,-0.15547687,0.00898206,0.0015353245,-0.08696627,0.020940349,0.07660056,0.44706216,-1.3936317,1.9218782,-2.106262,-1.5588044,2.4100814,-0.19139948,0.20578694,-0.23867,-0.020679677,0.07111478,-0.26737586,-0.24899697,0.22984336,-9.730036,1.005978,47.72271,-1.0966607,-2.0164363,-3.4561071,-0.6295963,0.19467902,-0.2296569,28.125,29.3125,28.4375,32.375,34.5625,35.5625
0.3200487,-1.7942607,-0.015149501,-0.22637211,-0.00071293913,0.09041621,-0.17472133,-0.40565237,-0.3475905,0.059890043,3.0679717,-0.603343,0.000344356,-0.1561456,0.010356373,0.00062706775,-0.08337341,0.02078312,0.06844863,0.44667792,-1.393199,1.9213995,-2.106274,-1.5586499,2.4095323,-0.19217224,0.20767763,-0.23893858,-0.020616649,0.06791472,-0.26001552,-0.4213795,0.1340753,-9.615114,0.95002913,47.694054,-1.0338552,-1.9376793,-3.5575976,-0.63354224,0.24426338,-0.34759676,28.125,29.3125,28.4375,32.375,34.5625,35.5625
0.32204816,-1.7139201,0.420712,-0.40803415,-0.0053991103,0.08008058,-0.18777451,-0.40601295,-0.34755087,0.059922606,3.0678282,-0.6032001,0.00023393166,-0.15665618,0.010457851,-0.0011647897,-0.0819588,0.018654296,0.06566974,0.4462453,-1.3927889,1.9208497,-2.1062863,-1.558554,2.4090292,-0.1923725,0.21227507,-0.24013028,-0.021467883,0.06759304,-0.25742817,-0.47884035,0.11492168,-9.615114,1.0104496,47.696735,-0.95457023,-2.0920684,-3.5484471,-0.65150166,0.2924953,-0.46050942,28.125,29.3125,28.4375,32.375,34.5625,35.5625
0.32404864,-1.1241055,0.47601256,-0.34715664,4.6512916e-05,0.083886266,-0.19346085,-0.40626344,-0.3475416,0.0598852,3.0677764,-0.6028224,0.00037482817,-0.1579925,0.011611923,-0.0022290903,-0.08123655,0.01761664,0.068980575,0.44592074,-1.3923554,1.9204315,-2.1062982,-1.5583981,2.4084747,-0.19527033,0.21507496,-0.24093485,-0.022076908,0.06745664,-0.26363865,-0.4213795,0.095768064,-9.595961,0.92764956,47.642998,-0.9773146,-2.2208352,-3.600804,-0.6361579,0.33090997,-0.43959856,28.125,29.3125,28.4375,32.375,34.5625,35.5625
0.32604825,-1.3282466,0.19406521,-0.1700109,0.003712912,0.06771468,-0.18435514,-0.40659162,-0.3475271,0.059890226,3.0676513,-0.6025001,0.00032576334,-0.15940022,0.011167893,-0.0013402235,-0.08262923,0.01965761,0.08199158,0.4455368,-1.391923,1.9199289,-2.1063583,-1.5582656,2.4079053,-0.19582742,0.21571222,-0.24375968,-0.022104288,0.06800315,-0.2771951,-0.38307226,0.095768064,-9.557653,0.8851263,47.691364,-1.0872982,-2.1565795,-3.516295,-0.6430526,0.3492845,-0.29106426,28.125,29.3125,28.4375,32.375,34.5625,35.5625
0.3280487,-0.5146813,0.16451621,-0.5604407,0.0064914967,0.058575623,-0.1898018,-0.40693057,-0.34750122,0.059894636,3.067488,-0.6023283,0.00028978204,-0.1597949,0.01026531,-0.0018421425,-0.08360202,0.018901505,0.091880694,0.44511703,-1.3914889,1.9194258,-2.106418,-1.5581211,2.4073994,-0.19522457,0.21842694,-0.24581555,-0.022319822,0.0693441,-0.28646314,-0.24899697,0.19153613,-9.576807,0.9835985,47.67345,-1.1211202,-2.3516467,-3.6066995,-0.6631938,0.37345457,-0.17308179,28.125,29.3125,28.4375,32.375,34.5625,35.5625
0.3300482,-1.001053,-0.0018627484,-0.4007684,-0.0072686095,0.029662492,-0.17333792,-0.40725058,-0.34748936,0.059898145,3.0673792,-0.60196245,0.0002547773,-0.1604837,0.008528423,-0.00032867707,-0.0862271,0.02205193,0.0904897,0.44474563,-1.3910571,1.9189247,-2.1064665,-1.557989,2.4068131,-0.19323018,0.21784884,-0.24846464,-0.023049798,0.07037296,-0.28306103,-0.49799395,0.28730422,-9.672575,0.9992599,47.683304,-1.3158369,-2.175759,-3.545876,-0.658305,0.3965008,-0.19402239,28.125,29.3125,28.4375,32.375,34.5625,35.5625
0.3320487,-1.2937788,-0.8543959,-0.170411,-0.04015493,0.039855536,-0.16751434,-0.40755564,-0.34745887,0.05988691,3.067292,-0.6016442,0.0002541668,-0.16179216,0.007651815,0.00060879294,-0.08888256,0.023546312,0.08082346,0.44436154,-1.3906368,1.9184698,-2.1065142,-1.5578679,2.4062412,-0.19368233,0.2184798,-0.25130892,-0.023391185,0.07208024,-0.27382606,-0.51714754,0.24899697,-9.481039,0.9567419,47.68062,-1.4471527,-2.1098552,-3.6245136,-0.6763283,0.4079245,-0.27993113,28.125,29.3125,28.4375,32.375,34.5625,35.5625
0.33404848,-1.034553,-1.2322133,-0.5626098,-0.043856483,0.037938938,-0.17821556,-0.407886,-0.3474517,0.059890695,3.067109,-0.6014025,0.00027272457,-0.16350408,0.007195901,0.0020090754,-0.09061285,0.025272805,0.069617145,0.44395313,-1.3901922,1.9179529,-2.1065614,-1.5576762,2.4057052,-0.1945991,0.21888755,-0.25531527,-0.022150502,0.07285508,-0.26352,-0.24899697,0.17238252,-9.615114,0.9455522,47.661808,-1.4807104,-2.0124948,-3.383955,-0.6980313,0.43103576,-0.41776356,28.125,29.3125,28.4375,32.375,34.5625,35.5625
0.3360488,0.11526057,-0.7917534,-0.5647996,-0.055110082,0.03762262,-0.18681934,-0.40823755,-0.3474518,0.059911873,3.0669186,-0.6012083,0.00017619097,-0.16492036,0.0061396454,0.003323694,-0.09652617,0.024778614,0.06624944,0.44356853,-1.389748,1.9174021,-2.106633,-1.5575298,2.405224,-0.19724448,0.21908075,-0.2588361,-0.020878952,0.078466795,-0.2627385,-0.17238252,0.36391866,-9.672575,0.947788,47.734352,-1.3710978,-1.9224087,-3.17828,-0.7186989,0.4140662,-0.5313383,28.125,29.3125,28.4375,32.375,34.5625,35.5625
0.33804834,0.2146112,-0.96136,-0.14237669,-0.050413113,0.019021815,-0.18709074,-0.4085679,-0.3474367,0.059928462,3.0667763,-0.60090405,9.723099e-05,-0.16569659,0.0060772947,0.00330182,-0.09799356,0.024668109,0.078726456,0.44318414,-1.389339,1.9169,-2.1066926,-1.5573972,2.4046679,-0.1985641,0.22016136,-0.26007867,-0.021004358,0.08003585,-0.27651232,-0.1340753,0.45968673,-9.385271,0.97464454,47.704796,-1.3816495,-1.919838,-3.2371967,-0.7196221,0.40791458,-0.451392,28.125,29.3125,28.4375,32.375,34.5625,35.5625
0.34004834,-0.04881716,-0.5227173,-0.54504687,-0.03383178,-0.010135578,-0.19005679,-0.4089311,-0.34742454,0.059946742,3.066584,-0.6006653,0.000102284896,-0.1662542,0.005324838,0.0033429514,-0.10301234,0.023470068,0.093003646,0.44273952,-1.3888702,1.9163135,-2.1067054,-1.5572032,2.4040987,-0.20078778,0.2208541,-0.2608491,-0.021702899,0.085308075,-0.29296124,0.019153614,0.4405331,-9.423578,0.98135734,47.704796,-1.255482,-1.8902395,-3.2345495,-0.7360536,0.3813113,-0.28113362,28.125,29.3125,28.4375,32.375,34.5625,35.5625
0.34204823,-0.6239681,-0.9386284,-0.7978109,-0.026534695,-0.02274126,-0.17121479,-0.40926412,-0.34741044,0.05996397,3.066452,-0.6002727,9.3912195e-06,-0.16519147,0.0044651725,0.002660875,-0.10841397,0.019852014,0.09559529,0.44235498,-1.388462,1.9158133,-2.106777,-1.5570697,2.4034858,-0.20229836,0.22066192,-0.25892758,-0.022372292,0.091854915,-0.2969956,-0.076614454,0.40222588,-9.615114,0.9388393,47.67614,-1.2270181,-1.7477095,-3.389627,-0.7201668,0.29367703,-0.18735212,28.125,29.3125,28.4375,32.375,34.5625,35.5625
0.3440484,-0.5103301,-1.3794054,-0.5361842,-0.04808377,-0.003210812,-0.17405593,-0.4095761,-0.3474041,0.059945997,3.0662665,-0.6000299,0.00015041012,-0.16590849,0.0038711748,0.0021980389,-0.11110264,0.018468643,0.08657131,0.44193435,-1.3879927,1.9153112,-2.1068013,-1.5568284,2.402937,-0.20351729,0.22291236,-0.26041466,-0.023045171,0.094836794,-0.2891586,-0.038307227,0.36391866,-9.5385,0.900793,47.655537,-1.2277284,-1.7805142,-3.5364397,-0.72451794,0.27689064,-0.2559448,28.125,29.3125,28.4375,32.375,34.5625,35.5625
0.34604812,0.031234464,-1.1403381,-0.4739268,-0.047071084,0.020002525,-0.178819,-0.40991893,-0.34740314,0.05996854,3.0660756,-0.5997233,0.00012688695,-0.1666733,0.004573698,0.0007907145,-0.11271809,0.014225693,0.07701387,0.44152802,-1.3875593,1.9147614,-2.106837,-1.5566353,2.4023635,-0.20720737,0.22625613,-0.26137024,-0.022289058,0.09811951,-0.28324756,-0.038307227,0.30645782,-9.5385,0.98135734,47.674347,-1.1402957,-1.8093674,-3.574203,-0.74090385,0.20509674,-0.3548987,28.125,29.3125,28.4375,32.375,34.5625,35.5625
0.34804845,0.148844,0.041645303,-0.06294036,-0.034373615,0.029544238,-0.1874447,-0.4102342,-0.34738252,0.059938326,3.0658793,-0.59953475,0.00026587525,-0.16842012,0.0036457144,0.0008421354,-0.11547225,0.014271459,0.07663554,0.44108102,-1.3870897,1.9142946,-2.1068976,-1.5563945,2.4018238,-0.20839381,0.22950704,-0.2652509,-0.022763228,0.10063248,-0.28402698,-0.076614454,0.24899697,-9.461885,0.9612189,47.664497,-1.0089867,-1.9243586,-3.5740263,-0.7503253,0.16270691,-0.4013508,28.125,29.3125,28.4375,32.375,34.5625,35.5625
0.35004824,-0.6483667,0.6664968,-0.08159674,0.0046289423,0.01324917,-0.18538399,-0.4106061,-0.34739974,0.059970148,3.0656748,-0.5990825,0.00014984135,-0.16992402,0.004005739,0.00042779034,-0.115540385,0.01494883,0.088405,0.4406841,-1.3866321,1.913709,-2.106993,-1.5562028,2.4011705,-0.2100276,0.23196109,-0.26703238,-0.023789482,0.10062797,-0.29741043,0.114921674,0.19153613,-9.404425,0.9254084,47.68599,-0.88826036,-2.078718,-3.5551014,-0.75057596,0.14391018,-0.323433,28.125,29.3125,28.4375,32.375,34.5625,35.5625
0.35204837,-0.73437655,0.6355771,-0.026888777,0.039905496,0.026822304,-0.18713866,-0.41094622,-0.34740373,0.059996724,3.0654824,-0.5987122,0.00015733016,-0.17255177,0.0046697217,0.001495269,-0.11629988,0.018740686,0.09661055,0.44027543,-1.3861998,1.9131459,-2.1070054,-1.5559863,2.400555,-0.21265407,0.23238271,-0.26974103,-0.024989408,0.09987399,-0.30823714,0.095768064,0.19153613,-9.308656,0.9254084,47.67614,-0.8067818,-1.9558638,-3.421067,-0.7442133,0.09156118,-0.13174242,28.125,29.3125,28.4375,32.375,34.5625,35.5625
0.3540482,-0.96982294,0.7326539,0.18093246,0.039227847,0.048897453,-0.17152211,-0.4113004,-0.34738415,0.06000058,3.0652997,-0.59840786,0.00014096247,-0.17417718,0.005374492,0.002229885,-0.11291195,0.022085132,0.09633494,0.43983135,-1.3857433,1.912619,-2.107077,-1.5557965,2.399944,-0.21222216,0.23326504,-0.2727086,-0.024379617,0.095444955,-0.3075573,-0.36391866,0.28730422,-9.212888,0.8605109,47.674347,-0.9813781,-1.88099,-3.3411462,-0.7387915,0.11982737,-0.1058498,28.125,29.3125,28.4375,32.375,34.5625,35.5625
0.35604855,-1.0859957,0.8710655,0.26018274,0.028529236,0.07731122,-0.1782254,-0.4116404,-0.34735495,0.05999921,3.0651636,-0.5981354,0.0002083112,-0.17399526,0.0049135922,0.0021837156,-0.11076555,0.022102272,0.088500336,0.4393888,-1.3852743,1.9120692,-2.107064,-1.5556167,2.3993485,-0.20979333,0.23460713,-0.27462247,-0.022961007,0.09343328,-0.2973052,-0.4213795,0.22984336,-9.078813,0.95002913,47.694054,-1.1459095,-1.909773,-3.3212662,-0.74888384,0.14665173,-0.20198521,28.125,29.3125,28.4375,32.375,34.5625,35.5625
0.3580482,-2.0113227,0.07918772,0.23931146,0.018969648,0.08869493,-0.17300066,-0.41195872,-0.3473681,0.060009025,3.0649898,-0.59776264,0.0002462056,-0.17484024,0.006184866,0.0018449511,-0.104206316,0.023354847,0.07542724,0.43901706,-1.3848289,1.9115309,-2.1070879,-1.5554031,2.3987658,-0.2083963,0.23677339,-0.27695835,-0.021236245,0.08686302,-0.28288513,-0.34476504,0.38307226,-9.308657,0.97464454,47.68599,-1.3437223,-1.9703197,-3.4098496,-0.7940544,0.1793544,-0.3984152,28.125,29.3125,28.4375,32.375,34.5625,35.5625
0.36004862,-2.1141608,-0.32702187,0.27688336,-0.02101119,0.111294724,-0.17739777,-0.41234004,-0.3473552,0.060017474,3.0647845,-0.5976049,0.00015310242,-0.17602317,0.00689161,0.0020695666,-0.10293572,0.02458158,0.07228709,0.438585,-1.3843362,1.9109558,-2.1071837,-1.5552477,2.398262,-0.20934328,0.23758768,-0.2786077,-0.020919379,0.08524283,-0.2806927,-0.45968673,0.34476504,-9.3661175,0.9835985,47.709274,-1.3644912,-1.8290393,-3.3375587,-0.80213976,0.26072556,-0.49088895,28.125,29.3125,28.4375,32.375,34.5625,35.5625
0.3620484,-1.5677133,-0.9722731,0.22743046,-0.038780868,0.115100265,-0.18042363,-0.41268367,-0.34732932,0.059997756,3.064693,-0.5972712,0.00015881735,-0.17691171,0.0077056424,0.0015552364,-0.099776074,0.025985941,0.086312376,0.43817723,-1.383831,1.9104179,-2.1072314,-1.555117,2.3976572,-0.20923974,0.23945366,-0.27968186,-0.021341987,0.08198873,-0.2946426,-0.28730422,0.34476504,-9.404425,0.9791215,47.668976,-1.4521894,-1.8611977,-3.3737597,-0.8114829,0.2618618,-0.41019672,28.125,29.3125,28.4375,32.375,34.5625,35.5625
0.36404884,-1.220719,-0.52738863,0.23311041,-0.05193126,0.08637544,-0.18397842,-0.41302875,-0.3472918,0.05999689,3.06458,-0.5969708,0.00019858389,-0.17857873,0.007658351,0.002417921,-0.10041175,0.029052492,0.1016797,0.43773276,-1.3833627,1.9098672,-2.10722,-1.5549611,2.3970392,-0.20998198,0.23993395,-0.28211927,-0.022094533,0.081490085,-0.31075442,-0.3256114,0.3256114,-9.3661175,0.94331104,47.661808,-1.4574575,-1.7635814,-3.4456472,-0.8115518,0.31117824,-0.2581358,28.125,29.3125,28.4375,32.375,34.5625,35.5625
0.3660485,-0.5918073,-0.72888047,0.10791057,-0.038697023,0.058694128,-0.17100225,-0.41343188,-0.34729555,0.0600415,3.0643797,-0.59656805,1.6445767e-05,-0.17880587,0.0082028555,0.00023392812,-0.10047276,0.02566407,0.099838845,0.4373124,-1.3828931,1.9092344,-2.1073043,-1.5548042,2.396393,-0.2118521,0.2438729,-0.28157213,-0.023460584,0.0830842,-0.31074873,-0.4596867,0.34476504,-9.32781,0.9410752,47.661808,-1.4040265,-1.7978446,-3.4815881,-0.81572795,0.33952072,-0.19908443,28.125,29.3125,28.4375,32.375,34.5625,35.5625
0.36804864,-0.2980128,-0.5365803,0.15722358,-0.029097619,0.027915604,-0.17512502,-0.41378576,-0.34728217,0.06002069,3.0642402,-0.596258,-2.3615005e-06,-0.18081234,0.008335077,0.001296667,-0.10297799,0.028712586,0.08982973,0.43690354,-1.3823763,1.9086965,-2.1074011,-1.5546483,2.3958082,-0.21407269,0.24350305,-0.28318995,-0.025342472,0.08402831,-0.3029399,-0.21068975,0.36391866,-9.289502,0.96569055,47.682407,-1.4454777,-1.7974218,-3.513854,-0.7947197,0.35069573,-0.296063,28.125,29.3125,28.4375,32.375,34.5625,35.5625
0.37004817,-0.5918567,-0.47865367,0.1040817,-0.024195937,0.018293763,-0.17131256,-0.41415903,-0.3472642,0.060033854,3.0640638,-0.5960319,-6.308773e-05,-0.18243471,0.008208488,0.0007315915,-0.10429419,0.02877894,0.08410423,0.43647113,-1.3818944,1.9081115,-2.1074493,-1.5544919,2.3952575,-0.21566549,0.24671327,-0.2854041,-0.02694408,0.08521108,-0.29878134,-0.30645782,0.36391866,-9.308656,0.9925471,47.66808,-1.3975685,-1.8476518,-3.5352812,-0.77476007,0.34804064,-0.3882431,28.125,29.3125,28.4375,32.375,34.5625,35.5625
0.37204856,-0.43250394,-0.33314943,0.5226649,-0.020973848,0.032240458,-0.19404598,-0.41450554,-0.347228,0.06000671,3.0639427,-0.59573776,2.8073606e-05,-0.18474875,0.0076879906,0.003979505,-0.1092405,0.034574144,0.08734624,0.43601397,-1.3813792,1.9075726,-2.1074731,-1.5543107,2.3946316,-0.21772836,0.24299623,-0.28830552,-0.027496664,0.08734848,-0.3040616,-0.21068975,0.28730422,-9.11712,0.97464454,47.668976,-1.2945218,-1.8087933,-3.444858,-0.7540842,0.3870247,-0.37624186,28.125,29.3125,28.4375,32.375,34.5625,35.5625
0.37404823,-0.22681129,0.008300621,0.56871516,-0.0065887915,0.050941028,-0.19176263,-0.41492155,-0.3472424,0.06006801,3.063674,-0.5953475,-0.00019896751,-0.18665598,0.0075765178,0.0030782733,-0.110753104,0.03309862,0.10007623,0.43558124,-1.3809332,1.906938,-2.1075928,-1.5541176,2.39399,-0.22023973,0.2478477,-0.29201594,-0.027598603,0.08964686,-0.31925455,-0.05746084,0.22984336,-9.021352,0.99031126,47.66091,-1.1394873,-1.7009414,-3.3158624,-0.7585845,0.37076968,-0.25547743,28.125,29.3125,28.4375,32.375,34.5625,35.5625
