Tylouw/Master_Thesis_Code/training_data/batch_1/small_rod_t0.2/sample_19_session_1.csv
timestamp[s],tcp_force_x[N],tcp_force_y[N],tcp_force_z[N],tcp_force_rx[Nm?],tcp_force_ry[Nm?],tcp_force_rz[Nm?],tcp_pose_x[m],tcp_pose_y[m],tcp_pose_z[m],tcp_pose_rx[rot_vec_x],tcp_pose_ry[rot_vec_y],tcp_pose_rz[rot_vec_z],tcp_velo_x[m/s],tcp_velo_y[m/s],tcp_velo_z[m/s],tcp_velo_rx[rot_vec_x/s],tcp_velo_ry[rot_vec_y/s],tcp_velo_rz[rot_vec_z/s],q1[rad],q2[rad],q3[rad],q4[rad],q5[rad],q6[rad],qd1[rad/s],qd2[rad/s],qd3[rad/s],qd4[rad/s],qd5[rad/s],qd6[rad/s],tool_acc_x,tool_acc_y,tool_acc_z,current_of_whole_robot[A],voltage_of_whole_robot[V],current_J1[A],current_J2[A],current_J3[A],current_J4[A],current_J5[A],current_J6[A],temp_J1[C],temp_J2[C],temp_J3[C],temp_J4[C],temp_J5[C],temp_J6[C]
7.869967e-07,-1.5713334,-1.6531028,-0.2627666,-0.029608572,0.006932964,0.0023283677,-0.38106376,-0.34853265,0.059972927,-3.0785406,0.6248436,-0.00012164678,0.002497313,0.001310941,-0.0033679341,0.0036640314,-0.007310723,4.035325e-05,0.4778101,-1.4259452,1.9577278,-2.1008685,-1.5707697,2.4527402,-9.689266e-05,0.002893465,0.0041377232,0.00114517,0.0001195636,-0.00013931222,0.019153614,0.15322891,-8.734048,0.7530795,47.703903,0.01638964,-2.785995,-2.4439821,-0.44165027,0.08078991,0.06848692,27.75,28.875,28.0625,31.9375,33.9375,34.875
0.002052243,-1.3854483,-1.3758366,-0.39916113,-0.02900302,0.0077111586,0.0027027982,-0.38105032,-0.3485234,0.059958115,-3.0784965,0.6249312,-0.00020272705,-0.00013470414,-6.0252984e-05,-0.00359203,-0.0002219008,0.0001472522,4.0717587e-05,0.47779807,-1.4259322,1.9577397,-2.100837,-1.5707573,2.4527884,-9.5606236e-05,0.0047864127,0.005043665,-0.010063336,0.0001169733,-0.00013629814,0.0,0.13407528,-8.829816,0.82022345,47.71017,0.05841045,-2.8950057,-2.521422,-0.4098206,0.08377287,0.060159538,27.75,28.875,28.0625,31.9375,33.9375,34.875
0.004052563,-0.99519956,-1.132357,-0.19687167,-0.03349126,0.020270953,0.0013623817,-0.38105732,-0.34851554,0.05994027,-3.0785053,0.6249518,-0.00023754721,-0.0022076005,-0.0011391644,-0.0018519323,-0.0036702678,0.00678304,4.042289e-05,0.47776207,-1.4259088,1.9577621,-2.1008737,-1.5707334,2.452764,-9.435332e-05,0.0033093402,0.0038430996,-0.014863985,0.00011449301,-0.00013341161,0.076614454,0.095768064,-8.791509,0.7665104,47.71823,0.064035505,-3.1264195,-2.6415973,-0.2881152,0.08946412,0.057051588,27.75,28.875,28.0625,31.9375,33.9375,34.875
0.006052494,-0.7516251,-0.9007188,-0.3023862,-0.014145079,0.0032646505,-0.0028310379,-0.38106576,-0.34853822,0.059960164,-3.0785487,0.6248644,-0.00012911246,-0.0013602243,-0.00069733226,-0.0009013634,-0.0024142023,0.004384589,3.8192637e-05,0.4778101,-1.4259214,1.9577388,-2.100907,-1.5707573,2.452752,-9.3132854e-05,0.0015684736,0.0022891127,-0.008861702,0.00011211593,-0.00013064496,0.05746084,0.1340753,-8.829816,0.7553206,47.69763,0.055834297,-2.9822197,-2.5651274,-0.3063048,0.09232078,0.074908204,27.75,28.875,28.0625,31.9375,33.9375,34.875
0.008052565,-0.632134,-0.2675211,-0.74805045,0.015742531,-0.02509432,0.00058976363,-0.38107806,-0.34854206,0.0599559,-3.078553,0.6249228,-0.00012724371,-0.00069824373,-0.0003576725,-6.4885106e-05,-0.0016524682,0.0029013914,3.6025405e-05,0.47779807,-1.425898,1.9577268,-2.1009295,-1.5707458,2.452776,-9.194361e-05,-0.0001674951,0.0013729881,-0.0045422874,0.00012574023,-0.00012799076,-0.05746084,0.22984336,-8.887277,0.7418897,47.690468,0.038384866,-2.9260776,-2.496036,-0.3457467,0.08775147,0.0576289,27.75,28.875,28.0625,31.9375,33.9375,34.875
0.010051664,-0.41682422,-0.0022080115,-1.2387028,0.011513403,-0.026497995,-0.00580475,-0.38104552,-0.3485319,0.059908688,-3.0784914,0.6248528,-0.00027185533,-0.00035966345,-0.00018187013,3.9360584e-05,-0.0010352314,0.0017177877,3.4428896e-05,0.4778101,-1.4258384,1.9577612,-2.1009052,-1.5707458,2.452752,-9.078435e-05,-0.00035995658,0.0008983065,-0.002540268,0.00012543002,-0.0001254421,0.05746084,0.19153613,-9.174581,0.7217513,47.64927,-0.22543848,-2.3068497,-3.1711493,-0.37220043,0.05909943,0.023677034,27.75,28.875,28.0625,31.9375,33.9375,34.875
0.01205183,-0.62494254,-1.0186383,-1.5828648,-0.0145447645,-0.006421526,-0.0047073006,-0.38106245,-0.34851417,0.05992574,-3.0784848,0.6248515,-0.00019546288,0.00015826678,9.813462e-05,-0.0033407325,0.002807975,-0.0055765365,5.619375e-05,0.47778615,-1.4258718,1.9577602,-2.1009042,-1.5707816,2.4527283,-7.7022865e-05,0.007509409,-0.00082305,-0.00044343722,6.781459e-05,-0.0001316377,0.19153613,0.11492168,-9.308657,0.78888994,47.703903,-0.34538433,-2.1293304,-3.3720489,-0.36830997,0.057664275,0.023679169,27.75,28.875,28.0625,31.9375,33.9375,34.875
0.014051984,-1.1253184,-1.576607,-1.441536,-0.05541959,0.021895722,-0.0024808114,-0.3810465,-0.3485161,0.05990749,-3.078456,0.6248098,-0.00029640298,-0.004663293,-0.00018731754,-0.0044070776,0.003384629,-0.006712682,-0.0039117415,0.47779664,-1.4258318,1.9577454,-2.1008565,-1.5707697,2.4527164,-0.0040361313,0.018124586,-0.010578627,-2.8953284e-05,5.8192636e-05,-0.000116261974,-0.05746084,0.22984336,-9.346964,0.7777002,47.71823,-0.30356523,-3.0384102,-3.0427976,-0.37326717,0.0526642,-0.016401993,27.75,28.875,28.0625,31.9375,33.9375,34.875
0.01605168,-1.8616115,-2.4415803,-1.5116314,-0.08086317,0.045822352,-0.008260528,-0.38104397,-0.34851393,0.05990086,-3.0784452,0.6248468,-0.00039317977,-0.0051223957,0.0015491835,-0.003862906,0.003958079,-0.0078022317,-0.0052101943,0.4777715,-1.4258087,1.957723,-2.1008074,-1.5707334,2.4527156,-0.0075451112,0.01625266,-0.01034067,0.0028359606,5.589936e-05,-0.002327781,-0.3256114,0.28730422,-9.595961,0.7105615,47.721813,-0.27516174,-2.6787086,-3.2046967,-0.36842203,0.04604814,-0.03403426,27.75,28.875,28.0625,31.9375,33.9375,34.875
0.018051868,-2.3769054,-2.811697,-1.7978228,-0.09481702,0.06704704,-0.008582015,-0.38103932,-0.34850067,0.059876047,-3.0783763,0.62481004,-0.00041842405,-0.005199374,0.0017595713,-0.0033066322,0.004130903,-0.00808899,-0.00017493754,0.4777835,-1.425761,1.9577225,-2.100795,-1.5707816,2.4527135,-0.007976185,0.015541294,-0.011244748,0.004784491,3.4121742e-05,-0.0077941203,-0.2681506,0.45968673,-9.710882,0.7709874,47.686886,-0.2802269,-2.507903,-3.5441608,-0.39506456,0.04559376,0.0014770709,27.75,28.875,28.0625,31.9375,33.9375,34.875
0.020051735,-2.5580947,-2.3525474,-1.6001887,-0.099933796,0.0813439,-0.01646863,-0.3810268,-0.34850502,0.059839107,-3.0783584,0.62482345,-0.00056771265,-0.0062675877,0.0010247037,-0.0031746519,0.0037308214,-0.0073212464,0.0039075934,0.47777152,-1.4256884,1.9577216,-2.1007836,-1.5707334,2.452712,-0.007656108,0.017778309,-0.014022934,0.004459822,2.675856e-05,-0.01155474,-0.4213795,0.45968673,-9.730036,0.7777002,47.703007,-0.4466315,-2.3214936,-3.443754,-0.38519984,0.039244875,0.038785916,27.75,28.875,28.0625,31.9375,33.9375,34.875
0.022051679,-2.189193,-2.2489836,-1.7816168,-0.08179688,0.08998017,-0.03276898,-0.38109013,-0.34849083,0.05988069,-3.0783672,0.62490344,-0.00042945013,-0.0077759936,0.000738793,-0.0027807858,0.0030079908,-0.005935612,0.00250496,0.47771117,-1.4256997,1.9576367,-2.1007712,-1.5707697,2.4527006,-0.008543605,0.019320805,-0.016550345,0.0038815767,2.5582716e-05,-0.011037961,-0.5746084,0.49799395,-9.787497,0.8112748,47.707485,-0.5052431,-2.406535,-3.4694443,-0.3795701,0.031331882,0.027662523,27.75,28.875,28.0625,31.9375,33.9375,34.875
0.02405264,-2.307505,-1.9056545,-1.8172016,-0.066531025,0.079355575,-0.044077262,-0.38109088,-0.34850433,0.059847876,-3.0783608,0.62482655,-0.00047215534,-0.009045133,0.0013255237,-0.0028963087,0.0028328036,-0.0056019477,-0.0010890067,0.47773445,-1.4256153,1.9576238,-2.100808,-1.5707697,2.4526768,-0.010761922,0.020474788,-0.017462393,0.0032630214,2.4849232e-05,-0.009661545,-0.6512229,0.47884035,-9.787497,0.74413085,47.72002,-0.5170553,-2.4996154,-3.503872,-0.37250605,0.020960554,-4.230207e-05,27.75,28.875,28.0625,31.9375,33.9375,34.875
0.026051942,-2.585284,-1.9649489,-1.9634507,-0.06501769,0.06488248,-0.036211874,-0.3811027,-0.34847453,0.059826035,-3.0782912,0.62485147,-0.00053558144,-0.010769015,0.0011731884,-0.0023287856,0.0020731948,-0.0041046753,-0.0020136891,0.47768596,-1.425567,1.9576105,-2.1007717,-1.5707935,2.4526527,-0.012073649,0.02188625,-0.020315288,0.003025341,3.1874324e-06,-0.010046836,-0.53630114,0.38307226,-9.864111,0.7463667,47.664497,-0.53943014,-2.4230871,-3.4701033,-0.36071852,0.018242704,-0.020408086,27.75,28.875,28.0625,31.9375,33.9375,34.875
0.028052019,-2.5439832,-2.1099255,-1.7990053,-0.06156744,0.06301042,-0.05209564,-0.38110757,-0.3485011,0.05981923,-3.0783389,0.6248043,-0.0005823698,-0.011780792,0.0012462881,-0.0020772489,0.0019222,-0.0038126418,-0.0031620366,0.47769764,-1.4255189,1.9575738,-2.1007836,-1.5707458,2.4526289,-0.013138988,0.022950491,-0.022221383,0.003538935,2.0811657e-07,-0.009962794,-0.59376204,0.3256114,-9.825804,0.75755644,47.694946,-0.63563657,-2.3164926,-3.5091524,-0.34160954,0.013220858,-0.034459975,27.75,28.875,28.0625,31.9375,33.9375,34.875
0.030051898,-2.060426,-1.5909375,-1.7802807,-0.049391042,0.082873724,-0.06707535,-0.3811427,-0.34849012,0.05981435,-3.078298,0.62487394,-0.00057397556,-0.013235538,0.0012888646,-0.0013043794,0.0013285127,-0.0026745899,-0.0045946366,0.4776611,-1.4254588,1.9575137,-2.1007712,-1.5707697,2.452641,-0.014560542,0.02357514,-0.024869848,0.004278922,1.3588525e-08,-0.009950463,-0.57460845,0.22984336,-9.768343,0.7978386,47.677036,-0.58664393,-2.3135474,-3.516499,-0.33656263,0.0004790441,-0.06058772,27.75,28.875,28.0625,31.9375,33.9375,34.875
0.032051682,-2.1116002,-1.2501884,-1.7342782,-0.03156437,0.081789896,-0.073547736,-0.38116372,-0.34849417,0.05980525,-3.0782905,0.6248722,-0.00058961543,-0.01410789,0.0015320538,-0.0012152209,0.0013942063,-0.0028069953,-0.005003126,0.47764876,-1.4253985,1.9574655,-2.1007707,-1.5707697,2.4526286,-0.015800264,0.024632754,-0.026428362,0.0049274666,8.872337e-10,-0.010780873,-0.51714754,0.038307227,-9.749189,0.7911258,47.71823,-0.56252635,-2.3256376,-3.4382012,-0.33711675,-0.004565271,-0.06227403,27.75,28.875,28.0625,31.9375,33.9375,34.875
0.034051675,-2.0386302,-0.64490515,-1.7565608,-0.013383184,0.06931856,-0.08499775,-0.38121298,-0.34850392,0.05984405,-3.0783482,0.62494177,-0.00048382618,-0.014934962,0.0013688513,-0.0012796898,0.0013684885,-0.0027645763,-0.004441735,0.47761244,-1.4254098,1.9573926,-2.100783,-1.5707573,2.4526284,-0.016274692,0.026320467,-0.028216787,0.0049786554,5.7930022e-11,-0.011815531,-0.51714754,-0.038307227,-9.634268,0.7933669,47.719128,-0.5448351,-2.4295669,-3.5683136,-0.328723,-0.008949497,-0.057434566,27.75,28.875,28.0625,31.9375,33.9375,34.875
0.036052063,-1.8995966,-0.3742074,-1.445054,0.00030651988,0.05745184,-0.09365013,-0.38124385,-0.34849724,0.05982267,-3.0783172,0.6249152,-0.00058200595,-0.016326765,0.0007559127,-0.00050773623,0.000573503,-0.0012460464,-0.0034081487,0.4775645,-1.4253017,1.9573072,-2.100735,-1.5707458,2.4525678,-0.016472649,0.027592406,-0.031502444,0.005278305,3.7824162e-12,-0.01304528,-0.47884035,-0.11492168,-9.576807,0.7732232,47.741516,-0.6365239,-2.3411613,-3.4623666,-0.31159595,-0.015175266,-0.07540291,27.75,28.875,28.0625,31.9375,33.9375,34.875
0.03805194,-1.8090097,-0.4041252,-1.6033806,0.0070343334,0.044652484,-0.10212339,-0.38130012,-0.34849307,0.05981969,-3.0782936,0.624968,-0.0005177387,-0.017952103,0.00039151683,0.00013491351,-0.00018730975,0.00020939091,-0.0036815077,0.4775282,-1.4252172,1.9572233,-2.1007593,-1.5707816,2.4525676,-0.017327668,0.029083688,-0.034685355,0.0053270785,2.4696478e-13,-0.013625113,-0.45968673,-0.15322891,-9.557653,0.7530795,47.709274,-0.6009641,-2.3416414,-3.3555572,-0.29844975,-0.032794308,-0.06563136,27.75,28.875,28.0625,31.9375,33.9375,34.875
0.040051892,-1.4909291,-0.32865107,-1.4465462,0.00055033993,0.044854857,-0.114684895,-0.3813297,-0.34851903,0.059828404,-3.0783591,0.62494457,-0.0005225515,-0.018980881,0.0006700185,0.0004086494,-0.00019479732,0.0002211731,-0.0054582916,0.47751567,-1.425169,1.9571508,-2.1007702,-1.5707334,2.452532,-0.01877346,0.030017588,-0.036596622,0.006291242,1.6125036e-14,-0.013293205,-0.21068975,-0.15322891,-9.615114,0.7665104,47.704796,-0.5945173,-2.3191514,-3.3572865,-0.29509646,-0.039593443,-0.071626805,27.75,28.875,28.0625,31.9375,33.9375,34.875
0.042052034,-1.2639223,-0.74800473,-1.6491214,-0.0062913247,0.047692955,-0.12225639,-0.3813613,-0.34848797,0.05981688,-3.078307,0.6250501,-0.00058033195,-0.019696914,0.0010546013,0.0005911688,0.00073764607,0.00023481411,-0.006900012,0.47743148,-1.4251208,1.9571141,-2.100734,-1.5707339,2.4525204,-0.019574411,0.030795537,-0.038181033,0.00751717,-0.0008352722,-0.012650046,-0.21068975,-0.11492168,-9.615114,0.800085,47.723602,-0.567316,-2.271227,-3.3283937,-0.28044146,-0.034891896,-0.078233674,27.75,28.875,28.0625,31.9375,33.9375,34.875
0.04405203,-1.3612868,-1.1507071,-1.5346911,-0.016485995,0.040613927,-0.12999438,-0.3814281,-0.34849122,0.059845105,-3.0783136,0.6250501,-0.00044525706,-0.020321064,0.0015524718,0.00056785304,0.0031107336,0.00030513603,-0.0072743385,0.47740737,-1.4250726,1.9569944,-2.1007335,-1.570783,2.4524956,-0.019644683,0.032116182,-0.03997824,0.00902886,-0.0029746846,-0.012340999,-0.19153613,0.0,-9.576807,0.8403672,47.705692,-0.57053035,-2.2204022,-3.3616276,-0.3039161,-0.046797182,-0.10335972,27.75,28.875,28.0625,31.9375,33.9375,34.875
0.046052486,-1.6861287,-1.3893437,-1.5805767,-0.01930386,0.029685803,-0.12926908,-0.38143766,-0.34848204,0.059818838,-3.078275,0.6250818,-0.00059639267,-0.021729972,0.001852565,0.0013930912,0.003352066,0.001075735,-0.008710454,0.4773589,-1.4249884,1.9569448,-2.1006734,-1.5707473,2.4524717,-0.02110847,0.032725867,-0.042975597,0.010845331,-0.0035465925,-0.012365962,-0.076614454,0.15322891,-9.481039,0.800085,47.70838,-0.54321826,-2.1759162,-3.3407898,-0.3240972,-0.027494937,-0.10688521,27.75,28.875,28.0625,31.9375,33.9375,34.875
0.04805281,-1.1115817,-1.2729018,-1.551028,-0.036717307,0.03003298,-0.15105538,-0.3815139,-0.34847292,0.059855532,-3.0782545,0.62517387,-0.0004522352,-0.022235407,0.0018828098,0.0010683669,0.0034321803,-0.00029654865,-0.009523275,0.4773106,-1.4249518,1.9568137,-2.100649,-1.5708064,2.4524837,-0.021989767,0.034570575,-0.044565115,0.011842907,-0.0029876486,-0.012434915,-0.05746084,0.22984336,-9.576807,0.7642693,47.647476,-0.5951792,-2.1071627,-3.3429594,-0.32502115,-0.04315694,-0.123206824,27.75,28.875,28.0625,31.9375,33.9375,34.875
0.050052222,-1.1183301,-2.0239713,-1.6045172,-0.041484725,0.019601611,-0.14554831,-0.38153258,-0.34847835,0.059830587,-3.0782275,0.6250729,-0.0005146157,-0.022867426,0.0016706334,0.00030321264,0.003181241,-0.0019121907,-0.009989955,0.4773103,-1.4248431,1.9567412,-2.1006253,-1.5708178,2.4524238,-0.022822237,0.03752027,-0.04618081,0.011824974,-0.0020270224,-0.012801232,-0.076614454,0.30645782,-9.500193,0.7933669,47.67345,-0.58465564,-2.219719,-3.32802,-0.30558038,-0.036958158,-0.15290472,27.75,28.875,28.0625,31.9375,33.9375,34.875
0.052052043,-1.0482453,-2.4372432,-1.7292558,-0.05439769,0.018424507,-0.14822051,-0.38158172,-0.34847897,0.05985244,-3.0782406,0.62507546,-0.00045817712,-0.023971338,0.0014320608,0.0009055629,0.0022349893,-0.0010557964,-0.010476822,0.47727403,-1.4248068,1.9566444,-2.100601,-1.5708302,2.4523876,-0.023704138,0.038176887,-0.048388265,0.012178514,-0.0015837102,-0.013196097,-0.1340753,0.30645782,-9.576807,0.8179876,47.716442,-0.57308877,-2.2000184,-3.3752594,-0.30154994,-0.06203054,-0.13394436,27.75,28.875,28.0625,31.9375,33.9375,34.875
0.054052,-1.3595996,-2.7760553,-1.6475897,-0.05684024,0.016170565,-0.1624457,-0.38160786,-0.3484718,0.05983843,-3.0782259,0.62524515,-0.0006022754,-0.02485227,0.0011486652,0.0020603905,0.001313804,0.0006232458,-0.010298852,0.47718996,-1.4247353,1.9565839,-2.1005528,-1.5707577,2.4524112,-0.024038853,0.037475016,-0.050415147,0.012993296,-0.001540342,-0.013708039,-0.076614454,0.2681506,-9.653421,0.8112748,47.704796,-0.59763694,-1.9962939,-3.3631082,-0.33382004,-0.06744174,-0.15555903,27.75,28.875,28.0625,31.9375,33.9375,34.875
0.056052323,-1.5529478,-2.8791122,-1.7234112,-0.049453836,0.01823764,-0.1654784,-0.38169098,-0.34847015,0.059859116,-3.078229,0.62522775,-0.0004830068,-0.025539063,0.0015486672,0.0014888694,0.002168222,-0.00080242986,-0.011331957,0.47714144,-1.4246505,1.9564399,-2.1005523,-1.5708059,2.4523516,-0.02531238,0.03973654,-0.051889844,0.013864903,-0.0016450974,-0.013947418,-0.095768064,0.51714754,-9.615114,0.7597976,47.716442,-0.5507273,-2.0466666,-3.399417,-0.33652383,-0.08809525,-0.18370643,27.75,28.875,28.0625,31.9375,33.9375,34.875
0.05805238,-1.6674136,-2.6833138,-1.4534718,-0.054271806,0.02642613,-0.16990042,-0.38171402,-0.34845683,0.059841704,-3.0781846,0.6252755,-0.0006078623,-0.027885534,0.0011386494,0.0023775075,0.0018031484,0.0023768994,-0.011267475,0.47708124,-1.424566,1.9563669,-2.1004808,-1.5707825,2.4523268,-0.026005004,0.04162132,-0.055871896,0.012974477,-0.0027930806,-0.01469949,-0.038307227,0.4405331,-9.519346,0.7732232,47.704796,-0.6045575,-2.07729,-3.275248,-0.34715545,-0.075738296,-0.18533778,27.75,28.875,28.0625,31.9375,33.9375,34.875
0.060052484,-1.0760905,-1.991678,-1.286595,-0.07391584,0.049836732,-0.18186569,-0.38178447,-0.34847116,0.05986456,-3.0782073,0.6252992,-0.00049641455,-0.028184151,0.0015839484,0.00081385975,0.003434821,0.00019479817,-0.011316749,0.47705704,-1.4244932,1.9562343,-2.1004932,-1.5708064,2.4523146,-0.026778206,0.04510481,-0.0561599,0.012467743,-0.003241742,-0.01542191,-0.11492168,0.40222588,-9.385271,0.7396539,47.694946,-0.5328099,-2.0801175,-3.3192277,-0.31043774,-0.08893143,-0.18687609,27.75,28.875,28.0625,31.9375,33.9375,34.875
0.062052514,-1.6569988,-2.0734396,-1.3159782,-0.07728501,0.033695843,-0.17448223,-0.3818618,-0.34848422,0.059880808,-3.078221,0.6253402,-0.00045509692,-0.029278925,0.0013075658,0.0007023244,0.002885554,0.00067433843,-0.010698795,0.47700876,-1.4243846,1.9560679,-2.1004694,-1.5708064,2.4522903,-0.027463634,0.04705848,-0.05794633,0.01162094,-0.002979995,-0.016724562,-0.038307227,0.36391866,-9.423578,0.8627467,47.7254,-0.52342224,-2.179984,-3.3805714,-0.32241392,-0.080933034,-0.18560505,27.75,28.875,28.0625,31.9375,33.9375,34.875
0.06405166,-1.4273278,-2.3725276,-1.400978,-0.05935402,0.03093375,-0.15495692,-0.38191566,-0.34847626,0.059891727,-3.0782082,0.62535703,-0.00041250905,-0.031022009,0.0005766064,0.002639235,0.00056967244,0.0045125773,-0.010428923,0.47696057,-1.4243251,1.9559697,-2.100446,-1.5708307,2.4522543,-0.02795678,0.045942053,-0.06104152,0.011357736,-0.0026920838,-0.017486777,0.0,0.4213795,-9.346964,0.7620334,47.721813,-0.57759684,-2.116382,-3.4080648,-0.3337794,-0.09993483,-0.2138342,27.75,28.875,28.0625,31.9375,33.9375,34.875
0.066052325,-1.3014667,-1.9609759,-1.228862,-0.05253735,0.025875913,-0.14661643,-0.38199785,-0.34846708,0.059894253,-3.0782197,0.62543494,-0.0004222878,-0.03323264,-0.00033489912,0.003286384,-0.00043582747,0.0064316946,-0.009884483,0.47685257,-1.4242164,1.9558371,-2.100434,-1.5708064,2.4521935,-0.028372975,0.048941236,-0.06587167,0.011022106,-0.0026906498,-0.018444492,-0.11492168,0.4213795,-9.32781,0.7665104,47.728977,-0.631662,-2.0787587,-3.1558795,-0.31488574,-0.12182765,-0.21789259,27.75,28.875,28.0625,31.9375,33.9375,34.875
0.06805245,-1.5760164,-2.0548747,-1.3389491,-0.0329836,0.028488832,-0.14773993,-0.38206232,-0.34850055,0.059927683,-3.0782743,0.62546486,-0.00030686974,-0.03271312,0.00040879173,0.0013349996,0.0016491396,0.0036953734,-0.009655906,0.47685242,-1.4241555,1.9556941,-2.1004465,-1.5708064,2.4522052,-0.02882629,0.051533397,-0.06416632,0.010114662,-0.00328406,-0.019125791,-0.095768064,0.34476504,-9.308657,0.79560274,47.716442,-0.67105865,-2.1262202,-3.2845144,-0.29908717,-0.11280601,-0.22856289,27.75,28.875,28.0625,31.9375,33.9375,34.875
0.07005231,-1.092533,-1.7752216,-1.2176391,-0.027126042,0.056004956,-0.15403439,-0.38212165,-0.3484795,0.059913743,-3.0782468,0.62544006,-0.00033853724,-0.034678835,-0.0001337529,0.0025642253,0.0012071982,0.0063593253,-0.009020887,0.47676826,-1.4240472,1.9555968,-2.1004217,-1.5708188,2.452109,-0.029126996,0.05273506,-0.06847475,0.010654082,-0.004122849,-0.020057553,-0.11492168,0.24899697,-9.289502,0.7351769,47.72271,-0.7280799,-2.1311681,-3.2655602,-0.29095796,-0.12734412,-0.22808427,27.75,28.875,28.0625,31.9375,33.9375,34.875
0.07205236,-1.8536792,-1.3767828,-0.90417963,-0.025410274,0.047323253,-0.1447305,-0.38219014,-0.34847867,0.059904642,-3.0782142,0.6255288,-0.00039562426,-0.035830088,0.00017422394,0.0026022522,0.0026233036,0.00685596,-0.008258046,0.47669604,-1.4239028,1.9554418,-2.100374,-1.5708073,2.4520965,-0.029762775,0.054548375,-0.07080467,0.011384281,-0.0056133694,-0.021451807,-0.17238252,0.24899697,-9.212888,0.7038487,47.73525,-0.7364635,-2.1546419,-3.115529,-0.28444076,-0.09182455,-0.24618757,27.75,28.875,28.0625,31.9375,33.9375,34.875
0.07405226,-1.5409092,-1.6178169,-0.9133419,-0.01163107,0.059122693,-0.14381887,-0.38223886,-0.34847707,0.059917554,-3.0782084,0.6255273,-0.0003154764,-0.03661847,0.00022805367,0.002653163,0.003908919,0.007293873,-0.007188803,0.47667205,-1.4238544,1.955357,-2.1003735,-1.570844,2.4520724,-0.029709963,0.05609435,-0.07284677,0.01208492,-0.0069589578,-0.022464728,-0.34476507,0.21068975,-9.232041,0.81351066,47.688675,-0.7414507,-2.107614,-3.1562343,-0.28985196,-0.0939762,-0.23884171,27.75,28.875,28.0625,31.9375,33.9375,34.875
0.07605245,-1.9549797,-1.3788967,-1.0308971,-0.01866971,0.054612245,-0.14186816,-0.38232937,-0.34847644,0.059927844,-3.0781934,0.62556213,-0.00032915722,-0.037241273,0.0006779003,0.0024207311,0.0061719175,0.007032827,-0.006660996,0.47658798,-1.4237101,1.9551524,-2.1003015,-1.570845,2.452012,-0.029847328,0.057851225,-0.07462287,0.013380391,-0.008851059,-0.023125263,-0.38307226,0.17238252,-9.155427,0.76874626,47.74331,-0.8365009,-2.1126955,-3.1466131,-0.28711548,-0.082766786,-0.2343685,27.75,28.875,28.0625,31.9375,33.9375,34.875
0.07805235,-1.8089741,-1.434696,-0.9845781,-0.01705269,0.05545546,-0.14787504,-0.38242072,-0.3485014,0.059957646,-3.0782268,0.6255689,-0.00020294363,-0.03895284,0.00092163385,0.002780444,0.0072933687,0.008963762,-0.0069457954,0.47656375,-1.4236017,1.9549607,-2.100302,-1.5708693,2.451988,-0.030628573,0.059542846,-0.077342555,0.013213082,-0.010737752,-0.02361731,-0.2681506,0.19153613,-9.155427,0.800085,47.72002,-0.79771984,-2.1161075,-3.1170468,-0.29068944,-0.07250651,-0.24636135,27.75,28.875,28.0625,31.9375,33.9375,34.875
0.08005228,-1.8555131,-1.0425228,-0.9009982,-0.025102606,0.042487163,-0.1421156,-0.38247377,-0.3484931,0.059942804,-3.0781791,0.62559694,-0.00022270375,-0.039626528,0.00088269106,0.0024926607,0.00835786,0.008872461,-0.0057739294,0.4765158,-1.4234813,1.9548515,-2.1002777,-1.5708936,2.4519637,-0.0305874,0.061603453,-0.079107344,0.013488563,-0.011646042,-0.024744768,-0.22984336,0.1340753,-9.212888,0.8023209,47.73077,-0.877822,-2.0845034,-3.1138506,-0.26955357,-0.048326917,-0.26705986,27.75,28.875,28.0625,31.9375,33.9375,34.875
0.082053155,-0.88705695,-1.2299178,-0.97633046,-0.01920591,0.0643593,-0.14420629,-0.38256028,-0.3484907,0.059940778,-3.0781927,0.6256375,-0.00027473137,-0.040447336,3.4985603e-06,0.0031941102,0.0054867333,0.00933166,-0.0055151246,0.47640756,-1.4233375,1.9546837,-2.1002414,-1.5708565,2.451879,-0.031287294,0.06197108,-0.08111907,0.013398855,-0.009310006,-0.025706697,-0.3256114,0.17238252,-9.193734,0.8112748,47.709274,-0.91655594,-2.1144154,-3.0781007,-0.26329398,-0.032173254,-0.27717453,27.75,28.875,28.0625,31.9375,33.9375,34.875
0.08405213,-1.7833453,-1.5618776,-1.1244297,-0.019920941,0.033803385,-0.14462608,-0.3826767,-0.3484955,0.05996189,-3.0781903,0.6256359,-0.00013188098,-0.04032342,-0.000750824,0.0013280669,0.0052374927,0.004488777,-0.004149166,0.47634742,-1.4231914,1.9544686,-2.1002414,-1.570916,2.4518185,-0.031410836,0.067287415,-0.083136566,0.014278058,-0.0068685845,-0.027199645,-0.30645782,0.11492168,-9.232041,0.83589023,47.71823,-0.96601546,-2.2181191,-3.0776691,-0.2571966,-0.0735656,-0.25494072,27.75,28.875,28.0625,31.9375,33.9375,34.875
0.08605231,-1.0760952,-1.2134755,-1.0598966,-0.03268385,0.04808146,-0.14847729,-0.38273898,-0.34850585,0.05997831,-3.0781965,0.6255596,-9.1684284e-05,-0.041283786,-0.001578995,0.0034028399,0.0022866474,0.007928187,-0.0035423394,0.47632346,-1.4230964,1.9543117,-2.1001937,-1.5709394,2.4517462,-0.031494267,0.064728536,-0.08495002,0.014236012,-0.0058270367,-0.027891397,-0.36391866,0.1340753,-9.251195,0.7978386,47.719128,-0.9901379,-2.1152644,-3.0885694,-0.25934613,-0.120789155,-0.24949971,27.75,28.875,28.0625,31.9375,33.9375,34.875
0.08805235,-1.6209707,-1.5884299,-1.1743574,-0.031230904,0.039613962,-0.14967687,-0.3828336,-0.34849364,0.05996629,-3.0781739,0.6257668,-0.0001462314,-0.041638438,-0.0012817129,0.0024784706,0.003146615,0.0055395183,-0.0037939206,0.47619104,-1.4229393,1.9541568,-2.1001809,-1.5709032,2.451746,-0.03255062,0.06746199,-0.08620782,0.015276314,-0.0054966034,-0.028695852,-0.30645782,0.17238252,-9.270349,0.7642693,47.698532,-1.0060326,-2.0728142,-3.0657792,-0.26339525,-0.11111677,-0.26332167,27.75,28.875,28.0625,31.9375,33.9375,34.875
0.090052254,-1.1767119,-1.5025499,-1.3237984,-0.03787404,0.053951364,-0.1482452,-0.38289124,-0.34849432,0.059958138,-3.078133,0.6257586,-0.00016702074,-0.042423576,-0.001072491,0.0014244051,0.004456756,0.0036779984,-0.004409158,0.47615486,-1.4228055,1.9540118,-2.1001332,-1.5709275,2.45171,-0.033437088,0.07118243,-0.08817261,0.015775807,-0.005811866,-0.028964838,-0.3256114,0.24899697,-9.3661175,0.8224646,47.694946,-1.0498247,-2.1829765,-3.096823,-0.24943288,-0.102210626,-0.29070592,27.75,28.875,28.0625,31.9375,33.9375,34.875
0.09205222,-1.7636951,-1.4159479,-1.0966055,-0.038253065,0.04203741,-0.15110175,-0.38295612,-0.34850514,0.059939753,-3.0781345,0.62568104,-0.00022374422,-0.042666342,-0.0007116529,0.0015618341,0.005010177,0.0037351882,-0.0043198424,0.4761068,-1.4226377,1.9538563,-2.1001089,-1.570916,2.4516134,-0.03395708,0.07107774,-0.08853005,0.016442522,-0.0063304664,-0.029572938,-0.21068975,0.24899697,-9.3661175,0.8314132,47.731667,-1.0642531,-2.1498544,-3.208911,-0.26650208,-0.13263313,-0.2976995,27.75,28.875,28.0625,31.9375,33.9375,34.875
0.09405187,-1.2962013,-1.7609327,-1.2623205,-0.033948805,0.05166735,-0.1443975,-0.3830668,-0.34850436,0.059964597,-3.0781245,0.6256981,-0.00011815192,-0.044558994,-0.00069591927,0.0018866872,0.005541131,0.0046807113,-0.0046221786,0.47603434,-1.4225045,1.9536394,-2.100073,-1.5709637,2.451553,-0.03512671,0.07363376,-0.09235404,0.017114563,-0.00724121,-0.030436685,-0.15322891,0.24899697,-9.423578,0.82022345,47.68062,-1.1029129,-2.1417212,-3.0856986,-0.23532248,-0.11934445,-0.2858957,27.75,28.875,28.0625,31.9375,33.9375,34.875
0.096052065,-1.5164963,-1.646156,-1.368191,-0.032511137,0.03996715,-0.14066167,-0.38314033,-0.3485193,0.05996086,-3.0781167,0.62573576,-0.00014661059,-0.044034254,0.00045984727,0.00012485827,0.0088220835,0.0019545734,-0.0050416314,0.47598594,-1.4223479,1.9534606,-2.1000369,-1.5709528,2.4515293,-0.035608757,0.07585806,-0.090951085,0.017419845,-0.008904972,-0.030496499,-0.1340753,0.30645782,-9.3661175,0.7777002,47.685097,-1.0655496,-2.1595569,-3.2386494,-0.2260513,-0.08582451,-0.2860011,27.75,28.875,28.0625,31.9375,33.9375,34.875
0.09805224,-0.9887535,-1.7671957,-1.3761705,-0.039073825,0.04579747,-0.1473914,-0.38328,-0.3485109,0.059997145,-3.078137,0.6257583,-9.587153e-06,-0.046794128,-0.0003798356,0.0016608236,0.008215127,0.0056762802,-0.0038535506,0.475866,-1.422215,1.9532202,-2.1000125,-1.570989,2.451421,-0.035880975,0.07792834,-0.09690201,0.017715799,-0.010080741,-0.031952225,-0.1340753,0.3256114,-9.385271,0.784413,47.705692,-1.1856431,-2.2010763,-3.1974597,-0.22148865,-0.07842476,-0.32080492,27.75,28.875,28.0625,31.9375,33.9375,34.875
0.10005222,-1.0843338,-1.7561111,-1.542692,-0.03867341,0.036192477,-0.13884586,-0.3833323,-0.34849915,0.059971232,-3.0780642,0.625725,-0.00013112006,-0.04662295,0.0019619446,-0.00023559394,0.011266378,0.0025708885,-0.005538681,0.47580498,-1.4220463,1.9530648,-2.0999167,-1.5710014,2.4513485,-0.03903487,0.079174355,-0.094012044,0.017741038,-0.0113683995,-0.033418722,-0.095768064,0.2681506,-9.3661175,0.76874626,47.704796,-1.103106,-2.2610934,-3.3222237,-0.22209996,-0.07125512,-0.3327904,27.75,28.875,28.0625,31.9375,33.9375,34.875
0.10205217,-1.1764063,-1.8583295,-1.4524885,-0.03201589,0.035941686,-0.14432712,-0.3834387,-0.34849384,0.05996707,-3.0780442,0.625758,-6.6625194e-05,-0.047904696,0.0015689522,0.00068705995,0.011419447,0.0047525293,-0.0053171962,0.47572112,-1.421878,1.9528846,-2.0999286,-1.5710377,2.451288,-0.038765408,0.079865396,-0.097025424,0.018196115,-0.0125084985,-0.03336739,-0.05746084,0.24899697,-9.308656,0.85826975,47.71823,-1.0993598,-2.1177,-3.3057904,-0.21917728,-0.0601788,-0.31138608,27.75,28.875,28.0625,31.9375,33.9375,34.875
0.104052134,-1.4379253,-1.483738,-1.3861152,-0.0476989,0.033833686,-0.14750597,-0.3835275,-0.34849507,0.059965726,-3.0780013,0.62584543,-8.566988e-05,-0.047909208,0.00096475263,0.00013959737,0.011273536,0.0032910667,-0.0055091875,0.4756493,-1.4217091,1.952681,-2.099869,-1.5710496,2.4512763,-0.038204294,0.08206213,-0.09839016,0.018592693,-0.011712167,-0.032614563,-0.11492168,0.21068975,-9.3661175,0.8493211,47.698532,-1.1787802,-2.1553898,-3.3865173,-0.20885623,-0.04127208,-0.34803128,27.75,28.875,28.0625,31.9375,33.9375,34.875
0.106052555,-1.1886203,-1.661376,-1.425966,-0.04106176,0.03460313,-0.13512896,-0.38364208,-0.34850028,0.059974235,-3.0780346,0.62579405,-4.445859e-05,-0.048193898,0.0010585873,-0.0004265297,0.010697793,0.0016830518,-0.0052458923,0.47555286,-1.4215404,1.9524659,-2.099857,-1.5710491,2.4511437,-0.039425638,0.08356712,-0.09886035,0.018717613,-0.010464505,-0.03410151,-0.076614454,0.22984336,-9.346964,0.7709874,47.71286,-1.3274696,-2.097518,-3.4509947,-0.18879223,-0.0647694,-0.36385593,27.75,28.875,28.0625,31.9375,33.9375,34.875
0.10805168,-0.9315,-1.3728902,-1.4342911,-0.04230352,0.039449614,-0.14663431,-0.38374484,-0.34849513,0.05997275,-3.0780091,0.6257703,1.5942926e-05,-0.04939201,0.0010996554,-3.429886e-05,0.009395215,0.0018986195,-0.0052661183,0.4754801,-1.4213718,1.9522737,-2.0998447,-1.5710968,2.4510596,-0.04126978,0.08435042,-0.100732915,0.019011844,-0.009409,-0.03592653,-0.038307227,0.28730422,-9.308657,0.7732232,47.705692,-1.180338,-2.1087382,-3.4771848,-0.17721552,-0.060405545,-0.35404378,27.75,28.875,28.0625,31.9375,33.9375,34.875
0.11005162,-0.7105191,-1.4322932,-1.3679708,-0.043406796,0.038253225,-0.15139775,-0.38383105,-0.34851474,0.059975047,-3.0780132,0.6257698,-3.825226e-05,-0.05016981,0.0012198506,-0.0001880254,0.009031583,0.0011223167,-0.0050755604,0.47541982,-1.4211911,1.9520453,-2.0997727,-1.5710725,2.4509985,-0.04262293,0.08584372,-0.10222269,0.019529248,-0.008734049,-0.03747043,-0.15322891,0.17238252,-9.404425,0.7620334,47.716442,-1.2099658,-2.125293,-3.3869386,-0.17224014,-0.08624757,-0.3497632,27.75,28.875,28.0625,31.9375,33.9375,34.875
0.11205263,-1.2328663,-1.9354241,-1.5105836,-0.036912855,0.026936624,-0.13451047,-0.3839358,-0.3485123,0.059985977,-3.0779898,0.62582165,-2.483013e-06,-0.05155289,0.0021430363,-0.0002801135,0.009890466,0.0015161735,-0.004573557,0.47533497,-1.4210347,1.9518303,-2.099724,-1.5710968,2.4509492,-0.04490116,0.087082185,-0.103448205,0.019559635,-0.009681527,-0.04024821,-0.17238252,0.24899697,-9.423578,0.8851263,47.70211,-1.0520153,-2.0663283,-3.6299844,-0.15806636,-0.07385978,-0.30681854,27.75,28.875,28.0625,31.9375,33.9375,34.875
0.11405175,-0.9418808,-1.6573617,-1.252786,-0.037227005,0.046596795,-0.14650634,-0.38403368,-0.34850678,0.05998831,-3.0779717,0.625818,2.239825e-05,-0.052621093,0.0014812966,0.00038884688,0.010503371,0.0031984376,-0.0039293203,0.47525135,-1.4208779,1.9516376,-2.0996888,-1.5711216,2.4508657,-0.04384164,0.08856565,-0.10684543,0.02026125,-0.0110020405,-0.03982872,-0.076614454,0.19153613,-9.423578,0.83365434,47.72808,-1.1655316,-1.9790835,-3.4143863,-0.14897671,-0.033932466,-0.34891868,27.75,28.875,28.0625,31.9375,33.9375,34.875
0.11605185,-1.6136241,-1.3876976,-1.3196548,-0.028819358,0.04278261,-0.1415698,-0.38414928,-0.34849915,0.05997197,-3.0779536,0.6258338,-8.464556e-06,-0.05319403,0.0011319042,0.00017147225,0.010017248,0.0021949112,-0.004661046,0.4751313,-1.420661,1.9514211,-2.099665,-1.5711211,2.450758,-0.044305272,0.09055936,-0.10879008,0.02087781,-0.010114564,-0.039560914,-0.11492168,0.22984336,-9.385271,0.7463667,47.68062,-1.256971,-2.1289165,-3.475678,-0.13382526,-0.0573723,-0.3636378,27.75,28.875,28.0625,31.9375,33.9375,34.875
0.11805171,-1.8359498,-1.4369757,-1.2704811,-0.02480449,0.045529056,-0.14469236,-0.3842288,-0.3484793,0.059957597,-3.07789,0.6258586,-3.170937e-05,-0.055511147,0.0013186174,0.0020258029,0.007815051,0.005410634,-0.0043426,0.4750463,-1.4205052,1.9512647,-2.0996168,-1.5711569,2.4506967,-0.047056265,0.08944113,-0.111822575,0.021155981,-0.009636438,-0.042629562,-0.1340753,0.2681506,-9.404425,0.7911258,47.696735,-1.2457932,-1.9262669,-3.4483995,-0.13419467,-0.048388936,-0.3302472,27.75,28.875,28.0625,31.9375,33.9375,34.875
0.12005254,-1.4254462,-1.5131773,-1.4044067,-0.032880917,0.056601357,-0.14903986,-0.38435766,-0.3485031,0.059993833,-3.07793,0.6257885,7.755147e-05,-0.05630209,0.0013116067,0.0009070152,0.008297102,0.0033794248,-0.0029083178,0.474986,-1.4203359,1.9509772,-2.0995686,-1.5711812,2.4505877,-0.048076667,0.09329834,-0.11370827,0.021206474,-0.009138053,-0.04508435,-0.24899697,0.17238252,-9.423578,0.8179876,47.72002,-1.1069758,-2.018634,-3.4500742,-0.12625559,-0.07595171,-0.29981893,27.75,28.875,28.0625,31.9375,33.9375,34.875
0.12205225,-1.3178548,-1.6083573,-1.5321892,-0.046510853,0.054704193,-0.15148194,-0.38448864,-0.3485078,0.060025405,-3.0779622,0.6258331,0.00012302955,-0.05703149,0.00075553305,0.0024891112,0.006743697,0.0049493685,-0.0017292598,0.47486582,-1.4201802,1.950713,-2.099508,-1.5711683,2.4504914,-0.048167035,0.09199486,-0.11623329,0.022924889,-0.00847419,-0.046354737,-0.4213795,0.21068975,-9.481039,0.8605109,47.711063,-1.2045796,-1.8557248,-3.427504,-0.12335111,-0.07868737,-0.29404837,27.75,28.875,28.0625,31.9375,33.9375,34.875
0.12405221,-1.197819,-1.46867,-1.5217179,-0.05687804,0.066503376,-0.14471608,-0.3845935,-0.34850556,0.060019087,-3.0779314,0.6258453,0.00012891697,-0.057781775,0.0014980445,0.0017139529,0.008510467,0.0029827233,-0.0014682569,0.4747814,-1.419987,1.950498,-2.0994718,-1.5711926,2.4504187,-0.049718987,0.09473367,-0.11796902,0.024478195,-0.00914788,-0.048165377,-0.4405331,0.2681506,-9.5385,0.81351066,47.711964,-1.1997131,-1.8362842,-3.4511325,-0.120381445,-0.07644555,-0.29041904,27.75,28.875,28.0625,31.9375,33.9375,34.875
0.12605241,-2.2117405,-1.7744769,-1.599479,-0.042229846,0.056708295,-0.14293575,-0.3847,-0.3484752,0.05998566,-3.0778244,0.62588036,5.706074e-05,-0.058982585,0.0016896832,0.002031341,0.0090967845,0.003551345,-0.00034014802,0.47466105,-1.4197464,1.9502825,-2.0993998,-1.5712408,2.450334,-0.0506291,0.096061006,-0.12044153,0.0253838,-0.009938266,-0.05019998,-0.36391866,0.17238252,-9.615114,0.73069996,47.683304,-1.1975056,-1.8494533,-3.4384475,-0.10906303,-0.0888521,-0.24024972,27.75,28.875,28.0625,31.9375,33.9375,34.875
0.1280524,-1.9578342,-1.5741885,-1.4944566,-0.043770045,0.080288485,-0.1455227,-0.38480926,-0.34850392,0.059996046,-3.0778704,0.6258699,5.0420134e-05,-0.06003665,0.0017087366,0.0024201209,0.008522414,0.003568069,0.00018922421,0.4745887,-1.4195538,1.9500297,-2.0993636,-1.571205,2.4502494,-0.051934253,0.0970457,-0.12270189,0.026380321,-0.009437275,-0.052034654,-0.34476504,0.21068975,-9.691729,0.8090337,47.687782,-1.1388141,-1.8071057,-3.4017832,-0.10351095,-0.074537545,-0.2009981,27.75,28.875,28.0625,31.9375,33.9375,34.875
0.13005246,-1.8696017,-1.384304,-1.6610639,-0.042957276,0.092170544,-0.15353286,-0.38494417,-0.34850585,0.060023002,-3.0778966,0.6258157,7.815757e-05,-0.061026067,0.0015477781,0.0020557216,0.008786333,0.0028078463,0.0016115034,0.4744686,-1.4193727,1.9497417,-2.0992796,-1.571205,2.4500923,-0.052603036,0.09986506,-0.12523027,0.02688344,-0.009328761,-0.05412458,-0.34476504,0.22984336,-9.653421,0.8112748,47.684196,-1.2492399,-1.8134468,-3.4154477,-0.11086224,-0.09590064,-0.17383263,27.75,28.875,28.0625,31.9375,33.9375,34.875
0.13205244,-2.2824051,-1.5342208,-1.7073946,-0.02925907,0.07709877,-0.1446599,-0.38508213,-0.34849644,0.060033504,-3.0778496,0.62576777,0.00014892666,-0.063576706,0.0011645529,0.0034762674,0.007758793,0.0059889713,0.0018227308,0.4743721,-1.4191561,1.9494532,-2.099208,-1.571277,2.4499722,-0.05388163,0.101091586,-0.12994024,0.027063917,-0.009878237,-0.055610944,-0.30645782,0.21068975,-9.595961,0.87393653,47.737038,-1.230495,-1.8327334,-3.374736,-0.08840648,-0.08410287,-0.1568226,27.75,28.875,28.0625,31.9375,33.9375,34.875
0.13405225,-1.6654745,-1.2508203,-1.6191819,-0.03292529,0.07906443,-0.14546719,-0.3852112,-0.34849736,0.060037266,-3.0778885,0.6258133,0.0001775452,-0.06367085,0.0016127697,0.00054757844,0.009786774,0.0003466105,0.0015935199,0.47423956,-1.4189733,1.9492377,-2.099219,-1.5712522,2.4498632,-0.05523936,0.10763637,-0.13083912,0.02736038,-0.009104765,-0.05673993,-0.38307226,0.19153613,-9.595961,0.87393653,47.703903,-1.2138618,-2.0236223,-3.2280817,-0.08164702,-0.09860207,-0.10790689,27.75,28.875,28.0625,31.9375,33.9375,34.875
0.13605165,-2.0039957,-1.4727296,-1.7272184,-0.028080132,0.06270352,-0.13572888,-0.38535357,-0.34848955,0.0600466,-3.0778432,0.6258624,0.00020099209,-0.06664298,0.0009179755,0.003509504,0.0072237574,0.0065756794,0.00010112032,0.47411925,-1.418746,1.9489368,-2.0991356,-1.571289,2.4497795,-0.05632739,0.10609344,-0.1358112,0.02716249,-0.009680473,-0.05633223,-0.45968673,0.17238252,-9.615114,0.779936,47.71286,-1.2265521,-1.9124179,-3.145975,-0.07561557,-0.098003484,-0.07852688,27.75,28.875,28.0625,31.9375,33.9375,34.875
0.13805248,-1.6727831,-1.5879545,-1.6440432,-0.04169172,0.058879472,-0.14514561,-0.3854691,-0.34848818,0.06005508,-3.0778244,0.62584066,0.00024751952,-0.06655088,0.0018449749,0.00070998806,0.0107886335,0.0015461008,-0.002189507,0.47403488,-1.4185636,1.9486974,-2.0990875,-1.5713257,2.4496841,-0.05730277,0.1118342,-0.13618515,0.02789925,-0.010554283,-0.055014543,-0.4213795,0.21068975,-9.653421,0.8157518,47.696735,-1.2199048,-2.1047916,-3.2594671,-0.060636543,-0.08198548,-0.08801747,27.75,28.875,28.0625,31.9375,33.9375,34.875
0.14005247,-1.8008963,-1.6190974,-1.5776814,-0.046525523,0.06226008,-0.14948416,-0.38561398,-0.3484811,0.060054563,-3.077802,0.6259138,0.00023167372,-0.06823817,0.0027144135,0.0017646285,0.010318896,0.0027056255,-0.0042201187,0.47388992,-1.4183238,1.9484099,-2.0990274,-1.5713257,2.4495878,-0.06027758,0.111300915,-0.13833274,0.029332288,-0.010668356,-0.055957757,-0.49799395,0.19153613,-9.500193,0.79560274,47.661808,-1.060389,-1.9170111,-3.2086027,-0.041368306,-0.107349694,-0.07852294,27.75,28.875,28.0625,31.9375,33.9375,34.875
0.14205234,-1.8227884,-1.7647647,-1.3879007,-0.054407276,0.06624007,-0.14530608,-0.38578466,-0.3484727,0.06009706,-3.0778306,0.6259764,0.00036953998,-0.06762912,0.0018351811,0.00119867,0.01104167,0.0006830513,-0.0033186069,0.47373462,-1.4181548,1.9481109,-2.0989912,-1.5713495,2.4494681,-0.058319185,0.11353535,-0.13996702,0.030858522,-0.010383615,-0.05490154,-0.5554548,0.3256114,-9.442732,0.90527004,47.674347,-1.2314367,-2.0409327,-3.2416918,-0.063922025,-0.08363141,-0.06584662,27.75,28.875,28.0625,31.9375,33.9375,34.875
0.14405243,-1.8334057,-2.1781976,-1.4320261,-0.04767341,0.07782959,-0.13828811,-0.38588935,-0.3484969,0.06009754,-3.0778613,0.6258315,0.00034081616,-0.06860905,0.0025923147,0.00048898126,0.011923119,-0.0001848927,-0.008340074,0.47367406,-1.4179379,1.9478472,-2.098931,-1.5713376,2.4493134,-0.060282413,0.11569712,-0.14081967,0.030727552,-0.010774348,-0.051841736,-0.4405331,0.2681506,-9.423578,0.83813137,47.68599,-1.214454,-1.852172,-3.2403083,-0.068772286,-0.0972683,-0.07311653,27.75,28.875,28.0625,31.9375,33.9375,34.875
0.14605159,-2.2727334,-2.1928742,-1.1983111,-0.05542351,0.075734995,-0.14070949,-0.386046,-0.34848073,0.060100064,-3.077801,0.625859,0.00038380173,-0.07154736,0.0027730332,0.0012971568,0.010480122,0.0021061858,-0.012271341,0.47354093,-1.4176848,1.9475349,-2.0988595,-1.5713972,2.4492054,-0.06339883,0.117714256,-0.14484984,0.030038888,-0.01054638,-0.05102481,-0.34476504,0.3256114,-9.3661175,0.7978386,47.684196,-1.0807146,-1.9952359,-3.1400719,-0.026409674,-0.120039895,-0.085011266,27.75,28.875,28.0625,31.9375,33.9375,34.875
0.14805265,-1.9769461,-2.0501332,-0.9677003,-0.0542037,0.07450634,-0.14564672,-0.38618428,-0.3484776,0.060113966,-3.0777652,0.62589025,0.00041748982,-0.07164789,0.0034402427,9.943139e-05,0.01241463,5.1137954e-06,-0.013009485,0.47343254,-1.4174681,1.9472355,-2.0987756,-1.5714334,2.4491212,-0.06415213,0.12015542,-0.14505723,0.030556954,-0.011309782,-0.05103825,-0.3256114,0.38307226,-9.232041,0.7732232,47.67614,-0.98992693,-1.8799752,-3.277956,-0.020418122,-0.083385974,-0.10910989,27.75,28.875,28.0625,31.9375,33.9375,34.875
0.15005244,-1.6430951,-1.720836,-0.92368287,-0.045983538,0.057919614,-0.14390977,-0.3863606,-0.34847605,0.060115952,-3.0777726,0.6260265,0.00051321776,-0.07189978,0.0032930204,0.0003085456,0.012621844,8.863051e-05,-0.014304777,0.47327676,-1.4172153,1.9469489,-2.098811,-1.5714453,2.4490497,-0.06394323,0.120597556,-0.14624494,0.031322394,-0.0115300855,-0.049534015,-0.36391866,0.30645782,-9.174581,0.82694155,47.71286,-1.1807218,-1.9104149,-3.3031769,-0.020057283,-0.07510086,-0.1004174,27.75,28.875,28.0625,31.9375,33.9375,34.875
0.15205245,-0.8207354,-1.0362036,-0.5918396,-0.042375345,0.059644226,-0.1458598,-0.38649383,-0.34846073,0.060122687,-3.077736,0.62600404,0.0004925995,-0.073728986,0.0040376,0.00026376665,0.01224411,0.0005701227,-0.021044785,0.47314358,-1.4169986,1.9466604,-2.0987036,-1.5714692,2.4489074,-0.06696735,0.12223797,-0.14792168,0.030758083,-0.011419672,-0.04581679,-0.30645782,0.21068975,-9.136273,0.83365434,47.73077,-1.02119,-1.9197056,-3.406015,0.015598873,-0.10101117,-0.13322796,27.75,28.875,28.0625,31.9375,33.9375,34.875
0.15405239,-0.41778466,-0.89231026,-0.551429,-0.025183145,0.041990984,-0.14404282,-0.38666826,-0.3484602,0.060131747,-3.0777113,0.62613297,0.00055512984,-0.07426571,0.0042203083,-0.001271699,0.013632269,-0.0026154958,-0.022121709,0.47299942,-1.4167327,1.9463261,-2.0986674,-1.5714935,2.448847,-0.067883104,0.12680767,-0.14989102,0.03162263,-0.01120567,-0.045654893,-0.28730422,0.17238252,-9.078813,0.9388393,47.72719,-0.9934955,-1.9742868,-3.400713,0.019332975,-0.09991859,-0.17816103,27.75,28.875,28.0625,31.9375,33.9375,34.875
0.15605253,-0.8166684,-0.7462537,-0.39384344,-0.010031706,0.020674242,-0.14212383,-0.38681993,-0.34845477,0.060134593,-3.0776868,0.6262053,0.0005950009,-0.07557992,0.0041022925,0.0009967397,0.0112515185,0.00090446696,-0.023245249,0.47286704,-1.4164939,1.9460372,-2.0986311,-1.5715173,2.4487631,-0.069165945,0.12375555,-0.15174888,0.03231009,-0.010692264,-0.045814995,-0.19153613,0.019153614,-8.963891,0.81351066,47.703903,-0.97437334,-1.756285,-3.4120064,0.026935874,-0.08461474,-0.20322461,27.75,28.875,28.0625,31.9375,33.9375,34.875
0.15805268,-0.5903635,-0.49038523,-0.45051342,-0.007995757,0.030295573,-0.14052185,-0.38697666,-0.3484314,0.060124073,-3.0776565,0.6262182,0.00060015765,-0.07682597,0.00443687,0.0005189785,0.012119999,0.00029919247,-0.024960749,0.47269854,-1.4162402,1.9457616,-2.098595,-1.5715412,2.4486067,-0.07053064,0.12659986,-0.15404184,0.032692384,-0.011195315,-0.04546174,-0.19153613,0.05746084,-8.848969,0.80456203,47.696735,-0.91462886,-1.9505892,-3.3320842,0.054212064,-0.10551455,-0.18354282,27.75,28.875,28.0625,31.9375,33.9375,34.875
0.16005187,-1.2084186,-0.22135492,-0.4455446,-0.00075054035,0.027178556,-0.14106621,-0.387139,-0.34844235,0.06013965,-3.0776274,0.6263479,0.00062460906,-0.07738673,0.0045653027,-0.00051747094,0.012715876,-0.0020271225,-0.026171098,0.47257817,-1.4159751,1.9454025,-2.0985115,-1.5715536,2.4485712,-0.071573265,0.12993973,-0.15569285,0.03334248,-0.010669171,-0.045293894,-0.15322891,0.076614454,-8.810662,0.83589023,47.693153,-0.96833575,-1.8414822,-3.3602462,0.07255872,-0.10814032,-0.20784903,27.75,28.875,28.0625,31.9375,33.9375,34.875
0.162052,-1.1098146,-0.53022337,-0.432712,0.0055736764,0.0401458,-0.14025076,-0.3873065,-0.34842712,0.060153548,-3.077596,0.6263997,0.00067188294,-0.07860875,0.0043153334,0.000612839,0.011598597,-0.0022141312,-0.027147302,0.4724217,-1.4157346,1.9450778,-2.098438,-1.5715889,2.4484513,-0.072897814,0.13053675,-0.1596799,0.03638317,-0.00959153,-0.04564277,-0.15322891,0.038307227,-8.848969,0.9186956,47.704796,-0.86650324,-1.869768,-3.242651,0.060225956,-0.12514389,-0.24648753,27.75,28.875,28.0625,31.9375,33.9375,34.875
0.16405202,-0.8031171,-0.4987559,-0.42710236,-0.0026367432,0.048544973,-0.14937551,-0.38744065,-0.3484077,0.06013238,-3.077521,0.62653756,0.0005806347,-0.07900845,0.0049116407,-0.00029146502,0.013859954,-0.0056915153,-0.027929118,0.47226545,-1.415469,1.9448017,-2.0983536,-1.5715889,2.4483907,-0.07400205,0.1339479,-0.16233505,0.03975247,-0.01002605,-0.04596256,-0.15322891,0.095768064,-8.887277,0.8314132,47.674347,-0.9091698,-1.9183474,-3.4519618,0.032010242,-0.11113994,-0.2684575,27.75,28.875,28.0625,31.9375,33.9375,34.875
0.16605186,-0.8404598,-0.5502988,-0.6049793,-0.01380097,0.042107046,-0.14869386,-0.38759297,-0.34840888,0.060137253,-3.077494,0.62653226,0.0005855147,-0.07945337,0.0058755046,-0.0006994256,0.015236154,-0.007701415,-0.029027058,0.47214487,-1.4152048,1.9444674,-2.0982687,-1.5716132,2.4482706,-0.07587363,0.13523057,-0.16341332,0.041962057,-0.010337128,-0.046735235,-0.15322891,0.095768064,-8.983045,0.79560274,47.703903,-0.8465917,-1.8034885,-3.2781518,0.013904724,-0.1253376,-0.26395315,27.75,28.875,28.0625,31.9375,33.9375,34.875
0.16805191,-1.180785,-0.81960654,-0.73030055,-0.024253398,0.04128517,-0.14413401,-0.38776445,-0.3483975,0.060143493,-3.077465,0.62662333,0.0005932067,-0.07978769,0.006110526,-0.0019420012,0.016703222,-0.011739305,-0.029720487,0.47197643,-1.4149388,1.9441308,-2.0981958,-1.5716246,2.4481628,-0.07689207,0.13941208,-0.16603287,0.044659086,-0.009809953,-0.04705979,-0.28730422,0.11492168,-9.097966,0.8090337,47.698532,-0.78000724,-1.9239883,-3.239873,-0.0031582476,-0.12357571,-0.28332844,27.75,28.875,28.0625,31.9375,33.9375,34.875
0.17005186,-1.4144546,-1.2351646,-1.1183157,-0.020531889,0.03715648,-0.13845143,-0.38789335,-0.34837317,0.060107876,-3.077347,0.6267322,0.0004696313,-0.08086832,0.0061185933,0.00032289707,0.016217168,-0.008575665,-0.029670872,0.47183245,-1.4146395,1.9438432,-2.0980875,-1.5716494,2.448102,-0.07719936,0.13675797,-0.16870788,0.046950124,-0.010823854,-0.047413204,-0.30645782,0.19153613,-9.174581,0.8090337,47.695843,-0.7633393,-1.8203473,-3.1474247,-0.03566908,-0.12590425,-0.32531267,27.75,28.875,28.0625,31.9375,33.9375,34.875
0.17205213,-1.4911504,-1.2148162,-1.183897,-0.037643887,0.049468637,-0.14090237,-0.38806006,-0.34836727,0.06012389,-3.0773096,0.6268033,0.00039376033,-0.08216709,0.0073800865,-0.0010764811,0.018335579,-0.012406635,-0.032143425,0.47166318,-1.4143614,1.9434484,-2.0979192,-1.5716375,2.447982,-0.0804643,0.14140467,-0.17145652,0.049425837,-0.010975901,-0.048203185,-0.34476504,0.24899697,-9.232041,0.92093146,47.71823,-0.68060696,-2.032682,-3.2543876,-0.07069008,-0.099078104,-0.32131362,27.75,28.875,28.0625,31.9375,33.9375,34.875
0.17405213,-1.4815344,-2.014189,-1.2198251,-0.044107366,0.08029273,-0.14200042,-0.38821977,-0.34834635,0.060118154,-3.0772343,0.62682414,0.00040650854,-0.08076814,0.006415908,-0.001481506,0.018948145,-0.0148608135,-0.029487506,0.4715201,-1.4140849,1.9431242,-2.0978343,-1.5716976,2.447862,-0.077825785,0.14236158,-0.17217346,0.05164401,-0.010407832,-0.048221286,-0.4213795,0.28730422,-9.385271,0.88289046,47.684196,-0.7656386,-1.8701239,-3.3377845,-0.102058455,-0.13885553,-0.34464735,27.75,28.875,28.0625,31.9375,33.9375,34.875
0.17605229,-2.2158716,-2.3195853,-1.3370242,-0.051749542,0.08164962,-0.13937148,-0.38838828,-0.34832212,0.06012451,-3.0771594,0.6269804,0.0003820603,-0.081103645,0.0066452506,-0.0019201974,0.020524774,-0.016935851,-0.02932665,0.4713401,-1.4138199,1.9427775,-2.0977142,-1.5717214,2.4477892,-0.078192614,0.1447316,-0.17450798,0.05417139,-0.01087561,-0.048746638,-0.51714754,0.3256114,-9.442732,0.8090337,47.707485,-0.799888,-1.9021816,-3.2894378,-0.15740167,-0.1266692,-0.38478905,27.75,28.875,28.0625,31.9375,33.9375,34.875
0.1780521,-2.342394,-2.6142137,-1.6015741,-0.05394015,0.085223384,-0.13505158,-0.38853544,-0.34831095,0.06009772,-3.0770724,0.6269843,0.0002438048,-0.08273451,0.007883151,-0.0022615094,0.020953406,-0.018369056,-0.032634765,0.4711947,-1.4134829,1.942418,-2.0975702,-1.5717334,2.4476576,-0.081980504,0.14685369,-0.17652646,0.055535816,-0.010617953,-0.049224675,-0.40222588,0.34476504,-9.5385,0.842603,47.682407,-0.6838803,-1.9288287,-3.2389398,-0.20168377,-0.13075663,-0.41792414,27.75,28.875,28.0625,31.9375,33.9375,34.875
0.18005203,-2.048974,-2.0721557,-1.5581757,-0.067072,0.08233646,-0.13719127,-0.38871595,-0.34828234,0.06010912,-3.0770075,0.6271598,0.00027743375,-0.081888855,0.006365656,-0.0021169917,0.021418462,-0.018076655,-0.027996726,0.47100422,-1.4132302,1.9420818,-2.0974858,-1.5717696,2.447585,-0.078139156,0.14762715,-0.17790662,0.056090374,-0.011172292,-0.05001954,-0.34476504,0.30645782,-9.5385,0.842603,47.682407,-0.8638414,-1.8871408,-3.3106244,-0.23543647,-0.14458889,-0.4143257,27.75,28.875,28.0625,31.9375,33.9375,34.875
0.18205205,-1.4992933,-1.6975023,-1.4952066,-0.07217203,0.084231816,-0.13982187,-0.3888749,-0.3482751,0.06008829,-3.076945,0.62724185,0.00018860424,-0.08354957,0.006340438,-0.0009895702,0.021008892,-0.014971886,-0.02719552,0.470848,-1.4129059,1.9417342,-2.0973904,-1.5717701,2.4474883,-0.078874506,0.14750902,-0.18028359,0.055633157,-0.012230769,-0.051551823,-0.3256114,0.38307226,-9.5385,0.87617236,47.72002,-0.9265367,-1.8529787,-3.2965097,-0.27973634,-0.13079433,-0.42629206,27.75,28.875,28.0625,31.9375,33.9375,34.875
0.18405212,-1.6247137,-1.8552197,-1.6095457,-0.049292337,0.05702574,-0.14179018,-0.38904697,-0.3482485,0.06007292,-3.0768428,0.6273352,0.00011515589,-0.08309316,0.005911011,-0.0027894136,0.021856707,-0.01786341,-0.024720509,0.4706682,-1.4125803,1.9413642,-2.0972588,-1.5718054,2.44738,-0.078013524,0.15130918,-0.18044148,0.054944657,-0.011687066,-0.053165343,-0.24899697,0.3256114,-9.519346,0.8560339,47.68062,-0.9730036,-1.9413362,-3.4246402,-0.28552833,-0.129323,-0.45953357,27.75,28.875,28.0625,31.9375,33.9375,34.875
0.18605238,-1.280276,-1.5621518,-1.6745278,-0.04894791,0.042020902,-0.13891327,-0.38922232,-0.34823692,0.060073752,-3.0767925,0.6273018,0.00018561064,-0.08516394,0.005692936,-0.003061063,0.021984866,-0.017467234,-0.021479867,0.47053587,-1.4122909,1.9410156,-2.0971997,-1.5718778,2.4472337,-0.079261184,0.15535247,-0.1844431,0.05459815,-0.011997555,-0.057650406,-0.11492168,0.34476504,-9.5385,0.84484416,47.688675,-0.9925529,-1.8956869,-3.4117513,-0.2989175,-0.130442,-0.45874774,27.75,28.875,28.0625,31.9375,33.9375,34.875
0.18805233,-1.3002614,-2.0289626,-1.6889194,-0.043903466,0.030610539,-0.13557227,-0.38941333,-0.34823903,0.060091436,-3.0768008,0.6274371,0.0001618443,-0.08546989,0.0055007488,-0.0032486506,0.02141373,-0.016967993,-0.018855516,0.4703439,-1.4120023,1.9406208,-2.0971038,-1.5718416,2.4471252,-0.07932327,0.15594798,-0.18444934,0.05330064,-0.011724275,-0.06033736,-0.038307227,0.30645782,-9.595961,0.83589023,47.703007,-1.0436242,-2.01181,-3.5243635,-0.31204784,-0.14110515,-0.4169634,27.75,28.875,28.0625,31.9375,33.9375,34.875
0.19005233,-0.8354387,-1.8228301,-1.6620919,-0.04648212,0.023778724,-0.13226537,-0.389612,-0.34822324,0.060089886,-3.0767288,0.62747985,0.00018869202,-0.08687985,0.0055799587,-0.0043956623,0.021806493,-0.017333515,-0.017837878,0.47017536,-1.4116647,1.9402136,-2.097009,-1.5719017,2.4469929,-0.080559336,0.15999623,-0.18612097,0.051420175,-0.011924443,-0.06258865,0.05746084,0.19153613,-9.5385,0.8090337,47.674347,-1.0256004,-2.0689757,-3.5133643,-0.32647666,-0.13093829,-0.40605545,27.75,28.875,28.0625,31.9375,33.9375,34.875
0.19205254,-0.45423964,-1.6008453,-1.6195229,-0.054403584,0.0272559,-0.14136288,-0.38978663,-0.34824434,0.060100224,-3.076721,0.62751365,0.00018514924,-0.088019334,0.0058117504,-0.004799692,0.021635737,-0.01664942,-0.014655439,0.47005504,-1.4113517,1.9398073,-2.0969136,-1.5719017,2.446895,-0.081843704,0.16171142,-0.18684047,0.04973082,-0.012094571,-0.06705423,0.11492168,0.17238252,-9.5385,0.8918391,47.70838,-0.9993853,-2.1881413,-3.5612416,-0.32183003,-0.12792394,-0.38621488,27.75,28.875,28.0625,31.9375,33.9375,34.875
0.19405252,-0.65840757,-1.801493,-1.5857755,-0.054481328,0.019750105,-0.14542334,-0.38997236,-0.34820357,0.06009365,-3.076639,0.6275893,0.00014474582,-0.089348756,0.0052555166,-0.0048855483,0.020556474,-0.01526675,-0.00868327,0.4698388,-1.4110508,1.9394482,-2.0967948,-1.5719374,2.4467366,-0.0822104,0.16384433,-0.18869281,0.04771443,-0.011782161,-0.07339165,0.19153613,0.19153613,-9.481039,0.85826975,47.69763,-0.93943864,-2.114189,-3.6228352,-0.3011878,-0.14723915,-0.29829794,27.75,28.875,28.0625,31.9375,33.9375,34.875
0.19605258,-0.59378123,-1.9051638,-1.5693886,-0.048621133,0.013530882,-0.13430102,-0.3901437,-0.34819785,0.060068704,-3.0765715,0.6276134,5.285908e-05,-0.09237586,0.004907526,-0.0049365056,0.019762985,-0.012872439,-0.009508006,0.46968228,-1.4106889,1.9390634,-2.096688,-1.5719498,2.446604,-0.08401994,0.16814867,-0.19304276,0.045263376,-0.012184103,-0.074371435,0.19153613,0.19153613,-9.500193,0.8224646,47.693153,-1.0596504,-2.1544638,-3.5386212,-0.28845534,-0.14762303,-0.2884361,27.75,28.875,28.0625,31.9375,33.9375,34.875
0.19805244,-0.61224127,-1.9517732,-1.5992179,-0.043788776,0.006602942,-0.1384464,-0.39030296,-0.3481845,0.060041152,-3.076505,0.6276165,1.3872274e-05,-0.09434955,0.0036348891,-0.0021637678,0.016425211,-0.0074687595,-0.0049228934,0.4695383,-1.4103652,1.9387392,-2.096628,-1.5719856,2.4464707,-0.08383704,0.1660816,-0.19695607,0.044902463,-0.011673935,-0.07877276,0.076614454,0.30645782,-9.404425,0.88960326,47.681515,-0.9121522,-2.1072822,-3.4392853,-0.27194566,-0.15593255,-0.20779434,27.75,28.875,28.0625,31.9375,33.9375,34.875
0.2000524,-0.4734301,-1.7666603,-1.586819,-0.052190557,0.012001745,-0.14154364,-0.39051563,-0.34820706,0.060085945,-3.076569,0.6275126,0.00012602932,-0.0952998,0.002974445,-0.0019283128,0.01598101,-0.006217151,-0.0026344412,0.46939462,-1.4100766,1.9382848,-2.0965445,-1.571998,2.4462543,-0.083364666,0.16764985,-0.19920258,0.04425918,-0.0118476255,-0.08058805,0.019153614,0.40222588,-9.346964,0.88960326,47.694946,-1.1184405,-2.0596015,-3.3292704,-0.25317946,-0.13657774,-0.18291706,27.75,28.875,28.0625,31.9375,33.9375,34.875
0.20205237,-0.8324311,-2.277522,-1.5997413,-0.042865455,0.017332748,-0.13889092,-0.39069065,-0.34818736,0.06005022,-3.0764756,0.62753266,4.0018618e-05,-0.09832221,0.0038753026,-0.0015695388,0.014405584,-0.003397542,-0.005661603,0.46922514,-1.4097037,1.9379143,-2.0964496,-1.5720333,2.4461095,-0.08768447,0.16903625,-0.20105381,0.041489795,-0.01173932,-0.0818784,0.076614454,0.40222588,-9.423578,0.92093146,47.696735,-0.9469242,-2.095306,-3.349082,-0.23023704,-0.16706163,-0.14410071,27.75,28.875,28.0625,31.9375,33.9375,34.875
0.20405246,-1.1559224,-2.6075387,-1.5522808,-0.06706385,0.037373535,-0.13833134,-0.3908683,-0.3481834,0.060047228,-3.076443,0.6275423,-2.1672615e-05,-0.09818083,0.0016394432,-0.0010548434,0.013139871,-0.002193708,-0.0022122383,0.4690585,-1.4093789,1.9375185,-2.0963295,-1.5720333,2.4459534,-0.08394048,0.17044228,-0.20384528,0.041225735,-0.011166471,-0.08158323,-0.1340753,0.5363012,-9.461885,0.9186956,47.703007,-1.1676351,-2.0418031,-3.3731155,-0.20140186,-0.16174698,-0.1196209,27.75,28.875,28.0625,31.9375,33.9375,34.875
0.20605254,-1.9260046,-3.0934699,-1.4200455,-0.08596218,0.046597518,-0.13407566,-0.3910806,-0.34818947,0.06006891,-3.0764482,0.6274869,5.7000823e-05,-0.099091955,0.00235409,-0.00078020676,0.013957689,-0.0013100686,-0.005080128,0.46890205,-1.4090545,1.9370755,-2.0962465,-1.57207,2.445762,-0.08523801,0.17053807,-0.20471302,0.041580766,-0.01229303,-0.08001012,-0.21068975,0.6895301,-9.519346,0.78217715,47.71823,-1.2469978,-1.9715732,-3.372404,-0.20270412,-0.16668998,-0.09323309,27.75,28.875,28.0625,31.9375,33.9375,34.875
0.20805255,-2.066803,-3.0727806,-1.548458,-0.095096655,0.072552785,-0.14347343,-0.39128846,-0.34819058,0.060057018,-3.0764406,0.62752604,2.411396e-05,-0.099476054,0.0028363662,-0.0015326459,0.014668456,-0.0036485335,-0.009066389,0.4687095,-1.4086815,1.9366578,-2.096186,-1.5720576,2.445595,-0.086642385,0.17274958,-0.2059343,0.042998787,-0.011870017,-0.07742857,-0.36391866,0.59376204,-9.461885,0.82694155,47.683304,-1.1624928,-1.9027417,-3.3643875,-0.19370356,-0.17872897,-0.11021556,27.75,28.875,28.0625,31.9375,33.9375,34.875
0.21005255,-2.7946136,-3.0382648,-1.5669783,-0.084457606,0.06270754,-0.13292259,-0.3914948,-0.34816098,0.060053483,-3.0763166,0.62759787,8.337952e-05,-0.100582,0.0022983805,-0.00054175995,0.01387676,-0.0013792572,-0.012640352,0.46854162,-1.4083331,1.9362386,-2.0960782,-1.5721658,2.4454882,-0.08642536,0.17285086,-0.20835264,0.04293035,-0.012194006,-0.073635265,-0.36391866,0.45968673,-9.500193,0.9254084,47.70032,-1.2137499,-1.9816506,-3.463101,-0.196017,-0.18204671,-0.13367619,27.75,28.875,28.0625,31.9375,33.9375,34.875
0.21205164,-1.7061794,-2.4197693,-1.3460702,-0.07895394,0.08746211,-0.14498544,-0.39171347,-0.34819186,0.060082134,-3.0764098,0.62760055,0.00010966044,-0.10273245,0.0016735609,-2.5089275e-05,0.0118131675,0.0013843636,-0.017098324,0.46836123,-1.408008,1.9357837,-2.096019,-1.5721053,2.4452977,-0.08756624,0.17468289,-0.21115515,0.040508382,-0.011604509,-0.07031865,-0.28730422,0.4213795,-9.500193,0.93436235,47.703007,-1.2474463,-1.9933527,-3.483275,-0.15573317,-0.17412135,-0.161449,27.75,28.875,28.0625,31.9375,33.9375,34.875
0.21405168,-2.431743,-2.083724,-1.2118561,-0.05341475,0.059274357,-0.13489898,-0.39187753,-0.3481894,0.060056195,-3.0763369,0.62758595,8.300088e-05,-0.104628064,0.0012325107,0.0005619702,0.010690066,0.0038525672,-0.019854482,0.468241,-1.4076594,1.9354237,-2.095948,-1.5721539,2.445178,-0.088364504,0.17623979,-0.21404035,0.039125975,-0.011728167,-0.068358056,-0.4405331,0.30645782,-9.385271,0.90750587,47.71017,-1.1978493,-1.9035637,-3.2771063,-0.117961496,-0.19580534,-0.18595329,27.75,28.875,28.0625,31.9375,33.9375,34.875
0.21605176,-1.3861418,-1.1289083,-1.3199106,-0.030563738,0.06730067,-0.14118616,-0.39211154,-0.3481706,0.06002968,-3.0762446,0.6276841,9.196496e-05,-0.104896635,0.0015553806,0.0005302928,0.011342464,0.0031075638,-0.02437913,0.4680369,-1.4072266,1.9349698,-2.0958874,-1.572214,2.4450474,-0.08894912,0.17686772,-0.21507677,0.04049442,-0.011971768,-0.06441672,-0.45968673,0.30645782,-9.404425,0.8493211,47.689575,-1.2826104,-1.8073249,-3.3962817,-0.07670112,-0.20616186,-0.24395844,27.75,28.875,28.0625,31.9375,33.9375,34.875
0.21805176,-1.3467884,-0.38175556,-1.3194215,-0.020940753,0.060284242,-0.14954083,-0.39229432,-0.3481905,0.060040627,-3.0762582,0.627745,7.784274e-05,-0.10589828,0.0015955537,0.0002578987,0.011119192,0.0019886054,-0.025545482,0.46789247,-1.4069134,1.934563,-2.095803,-1.5721892,2.4449394,-0.09031058,0.17923826,-0.21745709,0.041399304,-0.011270902,-0.06461257,-0.3256114,0.17238252,-9.3661175,0.8627467,47.682407,-1.2542624,-1.8117044,-3.4810562,-0.06494894,-0.20724384,-0.27556205,27.75,28.875,28.0625,31.9375,33.9375,34.875
0.2200517,-1.6311313,-0.8560128,-1.2309703,-0.0064697806,0.059086844,-0.13985632,-0.39256114,-0.34819207,0.060066216,-3.0762727,0.6278792,0.00018676204,-0.106159024,0.0015663336,-0.0013804603,0.0129529415,-0.0011506071,-0.022027913,0.4676644,-1.4065392,1.9340605,-2.0957549,-1.5722011,2.4447935,-0.090273395,0.18396345,-0.21945436,0.042292394,-0.011494201,-0.06809189,-0.47884032,0.0,-9.308657,0.8806493,47.71465,-1.3165103,-2.0126176,-3.463965,-0.03498439,-0.21827029,-0.24089864,27.75,28.875,28.0625,31.9375,33.9375,34.875
0.22205259,-1.181046,0.060600623,-1.1145475,-0.017360372,0.0759004,-0.1510042,-0.3927633,-0.3481855,0.060042582,-3.0761893,0.6279238,0.00013159352,-0.10829284,0.002311586,-0.0013565007,0.013121648,-0.0014634981,-0.027713401,0.46749538,-1.4061303,1.9336165,-2.095647,-1.5722374,2.4446633,-0.09341646,0.18662982,-0.22293317,0.043460023,-0.011511826,-0.0655469,-0.51714754,-0.076614454,-9.251195,0.92093146,47.733456,-1.0461531,-1.9298685,-3.367042,-0.023006544,-0.23761019,-0.27188107,27.75,28.875,28.0,31.9375,33.9375,34.875
0.2240527,-1.436479,0.15994444,-0.9545799,-0.011047835,0.08136696,-0.14777172,-0.39298186,-0.34818968,0.060066808,-3.076197,0.6280198,0.00021334703,-0.108726755,0.0022008454,-0.00043298825,0.01342952,-0.00058714097,-0.026901761,0.46731555,-1.4058183,1.9331859,-2.095586,-1.5722498,2.4445426,-0.09311677,0.18612592,-0.22493052,0.045316443,-0.012179622,-0.06605736,-0.4405331,-0.15322891,-9.251195,1.005978,47.707485,-1.1945035,-1.9680266,-3.4176893,-0.017999087,-0.2695966,-0.3042076,27.75,28.875,28.0,31.9375,33.9375,34.875
0.22605258,-1.3958626,-0.35112444,-0.98634607,0.004321745,0.09379638,-0.1539948,-0.39323664,-0.34819746,0.060077347,-3.0761895,0.6281167,0.00026471762,-0.11177989,0.004144361,-0.00037177472,0.014353972,-0.00090727536,-0.031628244,0.46710956,-1.4054087,1.932671,-2.095514,-1.5722617,2.4443984,-0.09873386,0.18884148,-0.22868128,0.047051694,-0.012865119,-0.066944905,-0.36391866,-0.15322891,-9.289502,0.9030289,47.701214,-1.0385752,-2.0270338,-3.3843374,-0.015633784,-0.26180303,-0.31029865,27.75,28.875,28.0,31.9375,33.9375,34.875
0.22805266,-2.0503743,-0.1115716,-1.1153342,0.0068422565,0.06751195,-0.1357843,-0.39341813,-0.34817904,0.060038548,-3.0760791,0.62814885,0.00012098246,-0.11099697,0.003254021,-0.0009499727,0.015523095,-0.0028102174,-0.029642504,0.46693057,-1.4049994,1.9322523,-2.09537,-1.5722855,2.444254,-0.09629172,0.19091806,-0.2302253,0.048742343,-0.013061727,-0.06648564,-0.38307226,-0.1340753,-9.270349,0.842603,47.685097,-1.0835057,-2.117916,-3.413168,-0.010083092,-0.2504974,-0.33966583,27.75,28.875,28.0,31.9375,33.9375,34.875
0.2300517,-1.4962547,-0.21131472,-1.0419041,0.010861933,0.065811664,-0.14025794,-0.39364654,-0.34816208,0.06005555,-3.076043,0.62825894,0.00015478986,-0.112080686,0.005268466,-0.0020654176,0.01785555,-0.005026901,-0.032796383,0.4667132,-1.4046625,1.9317983,-2.0952618,-1.5723103,2.4441102,-0.100024216,0.19313727,-0.23057382,0.049899437,-0.014147603,-0.06706128,-0.4213795,-0.15322891,-9.232041,0.80456203,47.685097,-1.0308378,-2.0420632,-3.408269,0.0068941545,-0.26902133,-0.34892052,27.75,28.875,28.0,31.9375,33.9375,34.875
0.23205164,-1.5545342,-0.34055838,-1.299493,-0.00547284,0.06254857,-0.1439616,-0.39386132,-0.34813523,0.060022593,-3.0759134,0.62830746,0.00010205082,-0.11351246,0.0054120454,-0.0022190714,0.017904729,-0.005883479,-0.03241785,0.46652076,-1.4042289,1.9313434,-2.0951416,-1.5723823,2.443965,-0.10169055,0.1959341,-0.23382528,0.051129077,-0.013822149,-0.0691041,-0.4405331,-0.11492168,-9.251195,0.88960326,47.71286,-0.91413236,-2.2262876,-3.4763052,0.020754805,-0.2753315,-0.35100675,27.75,28.875,28.0,31.9375,33.9375,34.875
0.23405255,-0.8919669,-0.4210198,-1.2043457,-0.0134585025,0.06641923,-0.15497938,-0.39408657,-0.34813085,0.06002752,-3.075878,0.6283774,0.00011972726,-0.114256635,0.006280339,-0.0021902274,0.019912286,-0.006869513,-0.03166018,0.46632826,-1.4038559,1.9308776,-2.0950449,-1.5724066,2.443821,-0.102939926,0.19716142,-0.23599927,0.053856343,-0.015175868,-0.071106724,-0.4213795,-0.05746084,-9.270349,0.9567419,47.71823,-0.82749796,-2.1570182,-3.5532124,-0.012818807,-0.25719708,-0.35523605,27.75,28.875,28.0,31.9375,33.9375,34.875
0.2360526,-1.5548455,-1.4541614,-1.1425201,-0.02718897,0.0597555,-0.14602529,-0.39433643,-0.3481011,0.060032785,-3.0757926,0.6285108,0.0001861725,-0.114293024,0.0068098363,-0.0016943172,0.02103572,-0.008944613,-0.029443396,0.46609992,-1.4034721,1.9303979,-2.094947,-1.5724787,2.4436872,-0.103773564,0.19721399,-0.23830256,0.058451947,-0.01524879,-0.074156724,-0.49799395,0.076614454,-9.289502,0.9186956,47.688675,-0.8248043,-2.1364174,-3.409269,-0.048723876,-0.27022952,-0.3310559,27.75,28.875,28.0,31.9375,33.9375,34.875
0.23805258,-1.9037762,-1.5849317,-1.188444,-0.042569745,0.07099463,-0.13953315,-0.3945519,-0.3480965,0.060038496,-3.075754,0.6285386,0.0001496817,-0.11528919,0.006377124,-0.0012373731,0.021067545,-0.007957561,-0.025531942,0.46590802,-1.4030993,1.9299196,-2.0948036,-1.5724906,2.443518,-0.10351812,0.19855979,-0.24110694,0.05903436,-0.015736438,-0.07780954,-0.61291564,0.2681506,-9.270349,0.8537928,47.690468,-0.9108178,-2.0974684,-3.401854,-0.04144954,-0.27240703,-0.29803044,27.75,28.875,28.0,31.9375,33.9375,34.875
0.24005266,-2.3037305,-1.6407437,-1.4039583,-0.04529122,0.0779495,-0.14378175,-0.39475882,-0.3480919,0.060006414,-3.0757022,0.6285245,4.0490235e-05,-0.114184715,0.006571603,-0.0014528169,0.021963844,-0.011563471,-0.021257162,0.4657163,-1.4026667,1.9294657,-2.0946949,-1.5724906,2.4433243,-0.10332728,0.19864176,-0.24173333,0.0631898,-0.014925543,-0.08189498,-0.5363012,0.2681506,-9.346964,0.8314132,47.717335,-0.9784535,-2.0384374,-3.4253347,-0.067944705,-0.28684115,-0.2579485,27.75,28.875,28.0,31.9375,33.9375,34.875
0.24205177,-1.8620387,-1.9020772,-1.1954134,-0.04846332,0.093822464,-0.14539246,-0.39498135,-0.34808075,0.06000161,-3.0756223,0.628681,-5.5149605e-05,-0.11358755,0.007981977,-0.0017603275,0.02459299,-0.016720396,-0.020224007,0.46549937,-1.4022583,1.9289635,-2.0945246,-1.5724906,2.4432156,-0.10517054,0.19931208,-0.24342464,0.06999093,-0.014963041,-0.08477046,-0.45968673,0.30645782,-9.423578,0.9254084,47.72092,-0.83737123,-2.0172915,-3.5238078,-0.15902519,-0.28314662,-0.22763944,27.75,28.875,28.0,31.9375,33.9375,34.875
0.2440526,-1.835197,-1.7976613,-1.0957495,-0.0514696,0.08344429,-0.14172591,-0.39521456,-0.34805602,0.059971303,-3.0755336,0.6286767,-0.00014083793,-0.113600686,0.0067333663,-0.001654544,0.024415432,-0.016534451,-0.012491968,0.46527237,-1.4018013,1.9284719,-2.094393,-1.5725268,2.4429977,-0.10294949,0.20091376,-0.2457069,0.07040885,-0.014914688,-0.09027913,-0.36391866,0.30645782,-9.32781,0.9231726,47.689575,-1.0773829,-1.9712938,-3.374042,-0.21286994,-0.3135754,-0.14058591,27.75,28.875,28.0,31.9375,33.9375,34.875
0.24605253,-1.3093861,-1.5085161,-1.350588,-0.03450214,0.061486367,-0.13804783,-0.39546105,-0.3480318,0.059984207,-3.0754797,0.62874436,-9.847405e-05,-0.116810806,0.0083784,-0.0017531004,0.025393624,-0.01584346,-0.017139794,0.46504265,-1.401428,1.9279813,-2.0942729,-1.5725754,2.4428174,-0.10782695,0.20415136,-0.24936853,0.070650265,-0.016112816,-0.09050305,-0.24899697,0.22984336,-9.212888,0.84708,47.711964,-0.88590634,-1.9266887,-3.419967,-0.22655433,-0.3080501,-0.124590635,27.75,28.875,28.0,31.9375,33.9375,34.875
0.24805237,-0.48741126,-1.0667788,-1.4014719,-0.020416448,0.041960943,-0.14335746,-0.39569548,-0.34799463,0.05996022,-3.0753627,0.6287739,-0.00013687971,-0.11619245,0.0071660243,-0.0018309555,0.025443094,-0.01662663,-0.010869674,0.4648156,-1.400995,1.9275025,-2.0941408,-1.572647,2.4426243,-0.10526223,0.20538783,-0.25094768,0.07169681,-0.015826846,-0.09420741,-0.17238252,0.24899697,-9.289502,0.8560339,47.66987,-1.0816491,-2.015135,-3.4452176,-0.2518293,-0.2994245,-0.072763376,27.75,28.875,28.0,31.9375,33.9375,34.875
0.2500523,-0.52547115,-1.2067877,-1.5504962,-0.016693335,0.0195072,-0.12792912,-0.39593214,-0.3480047,0.059988916,-3.075342,0.62873286,-0.00010456762,-0.117731,0.0076677287,-0.0014408294,0.025192466,-0.015616991,-0.016170627,0.46464702,-1.4006103,1.9269518,-2.0939734,-1.5726832,2.442433,-0.10727846,0.20622298,-0.25290588,0.07180656,-0.016058244,-0.09092109,-0.076614454,0.2681506,-9.308657,0.8918391,47.6636,-0.9501707,-1.8966243,-3.4113712,-0.2750297,-0.28756014,-0.06658161,27.75,28.875,28.0,31.9375,33.9375,34.875
0.25205216,-0.22189665,-1.2681534,-1.4684974,-0.03088011,0.01768779,-0.13971005,-0.3961706,-0.34798336,0.059963807,-3.0752835,0.6288179,-0.00015738815,-0.11873815,0.008061345,-0.002142066,0.026183482,-0.016243491,-0.019059535,0.4644066,-1.4001771,1.9264859,-2.09389,-1.5726951,2.4422536,-0.10838127,0.2089412,-0.25453326,0.071720906,-0.016675066,-0.08913119,0.0,0.21068975,-9.289502,0.99031126,47.705692,-0.9150636,-1.887858,-3.501112,-0.28174204,-0.30961388,-0.058007374,27.75,28.875,28.0,31.9375,33.9375,34.875
0.2540521,-0.85373414,-2.1083775,-1.537709,-0.03362574,0.018566225,-0.13118437,-0.39641795,-0.34796974,0.059958987,-3.0751848,0.628837,-0.00019314565,-0.12006461,0.0076033953,-0.0018546392,0.025475442,-0.015208212,-0.021806695,0.46420252,-1.3997201,1.9259242,-2.0937102,-1.5727552,2.4420745,-0.1087681,0.21076526,-0.2573411,0.07145778,-0.016519966,-0.086768724,-0.038307227,0.24899697,-9.289502,0.94331104,47.703007,-0.9484603,-2.022823,-3.4930377,-0.29497564,-0.30144262,-0.066918105,27.75,28.875,28.0,31.9375,33.9375,34.875
0.25605217,-1.2882518,-2.371367,-1.5228006,-0.047803104,0.017453725,-0.13496573,-0.39665806,-0.34793365,0.05992428,-3.075069,0.6289683,-0.0002782168,-0.12171024,0.006982131,-0.0011056646,0.024631234,-0.012710643,-0.02499315,0.46395054,-1.3992629,1.925444,-2.093591,-1.5727915,2.4419198,-0.10880393,0.21209711,-0.26051757,0.070692115,-0.016899973,-0.08361367,0.038307227,0.2681506,-9.423578,0.8403672,47.704796,-1.019882,-2.0068994,-3.452908,-0.3004549,-0.31268382,-0.11761661,27.75,28.875,28.0,31.9375,33.9375,34.875
0.2580523,-0.95964414,-2.1182897,-1.311347,-0.06013813,0.039770532,-0.13609451,-0.39692163,-0.34792474,0.059948344,-3.0750396,0.6290984,-0.00025668764,-0.12339389,0.006387573,-0.001288969,0.023490937,-0.012191538,-0.028684381,0.46371028,-1.3988656,1.9248937,-2.0934474,-1.5728034,2.4417648,-0.10965006,0.21537061,-0.26376653,0.06969167,-0.01612087,-0.0807694,0.15322891,0.22984336,-9.385271,0.8940802,47.707485,-0.99232614,-2.0988562,-3.3614821,-0.31564105,-0.3125574,-0.13012654,27.75,28.875,28.0,31.9375,33.9375,34.875
0.26005226,-0.8143696,-2.1427557,-1.5660044,-0.048906144,0.026974974,-0.13527209,-0.3971486,-0.34789395,0.059952896,-3.0749345,0.62915343,-0.000290187,-0.12385999,0.005492035,-0.0015187627,0.022522084,-0.010590781,-0.030274395,0.4634947,-1.3984809,1.9243921,-2.0932572,-1.5728635,2.4415975,-0.10850319,0.21669252,-0.26424563,0.066981226,-0.015982402,-0.078031175,0.1340753,0.24899697,-9.461885,0.8247004,47.728977,-1.0404953,-2.0622046,-3.304274,-0.2983634,-0.32223204,-0.17582119,27.75,28.875,28.0,31.9375,33.9375,34.875
0.26205206,-0.9685261,-2.5745828,-1.7070245,-0.052636035,0.016177138,-0.12979521,-0.39739105,-0.34790194,0.059920914,-3.0748527,0.62917817,-0.000322716,-0.1270624,0.005684262,-0.0013741606,0.02099629,-0.00780972,-0.035375103,0.46332547,-1.3979753,1.9238542,-2.0931623,-1.5729111,2.4414546,-0.11164206,0.21977787,-0.26762658,0.06410485,-0.015878662,-0.076066524,0.17238252,0.36391866,-9.595961,0.90750587,47.709274,-0.9481225,-2.0572126,-3.4242256,-0.27815694,-0.3448075,-0.200904,27.75,28.875,28.0,31.9375,33.9375,34.875
0.26405206,-1.1173716,-3.0280066,-2.0643177,-0.052904096,0.01275275,-0.12776381,-0.39761865,-0.34786633,0.059899144,-3.0747542,0.62932795,-0.00045820803,-0.12830587,0.0032507856,-0.0003772308,0.019164959,-0.0032280423,-0.033268012,0.4630631,-1.397554,1.923375,-2.092996,-1.5729111,2.4412987,-0.108118504,0.22146986,-0.27129707,0.061166935,-0.016311133,-0.074644655,0.038307227,0.3256114,-9.461885,1.0104496,47.698532,-1.2251713,-2.1653538,-3.5059147,-0.24641845,-0.31635788,-0.2484875,27.75,28.875,28.0,31.9375,33.9375,34.875
0.2660527,-1.227315,-3.0373268,-2.208779,-0.055145826,0.017346216,-0.12522827,-0.39788127,-0.3478949,0.05990985,-3.074745,0.6293476,-0.000380236,-0.13213672,0.004135328,0.0007728418,0.017662592,0.00091967045,-0.038276356,0.46290523,-1.397097,1.9227985,-2.0929124,-1.5729474,2.4411547,-0.11261246,0.2227483,-0.2750823,0.059289612,-0.016829692,-0.07412706,0.0,0.4213795,-9.653421,0.85826975,47.745995,-1.0109258,-2.1288047,-3.304691,-0.20754564,-0.3321753,-0.30279243,27.75,28.875,28.0,31.9375,33.9375,34.875
0.26805186,-1.6447053,-3.210005,-2.3860784,-0.06889465,0.023188652,-0.120715745,-0.39814055,-0.34787956,0.059910852,-3.074685,0.62946725,-0.00039199714,-0.1322243,0.0030546691,0.0003970252,0.016997917,0.0008641411,-0.03591507,0.4626659,-1.3966639,1.9222611,-2.0927813,-1.5729712,2.440998,-0.11109256,0.2247332,-0.27643073,0.0583964,-0.01622063,-0.07496937,-0.05746084,0.45968673,-9.787497,0.86498255,47.65464,-1.1559155,-2.1675596,-3.337943,-0.18642248,-0.35781586,-0.28960192,27.75,28.875,28.0,31.9375,33.9375,34.875
0.27005187,-2.409166,-3.6361473,-2.3830764,-0.0902317,0.035576805,-0.11993451,-0.39837295,-0.34784383,0.059869044,-3.074531,0.6295716,-0.00050223165,-0.13297167,0.0036915396,-9.023101e-05,0.01774405,0.00086572306,-0.039482318,0.46243763,-1.396183,1.92176,-2.0926259,-1.5730313,2.4408553,-0.11234351,0.22600572,-0.276769,0.057793606,-0.016897732,-0.07264816,-0.15322891,0.5554548,-9.844957,0.86945957,47.67345,-1.1210675,-2.1594062,-3.5943642,-0.14178923,-0.3496377,-0.36074257,27.75,28.875,28.0,31.9375,33.9375,34.875
0.27205187,-2.1618924,-3.458415,-1.9755042,-0.11360521,0.0715156,-0.1344974,-0.39866778,-0.34784976,0.05987687,-3.074494,0.62973666,-0.0004825661,-0.1330634,0.0043749446,-0.001059907,0.018438486,-0.001006685,-0.040867947,0.46219712,-1.3956895,1.9211386,-2.0925062,-1.5730432,2.440723,-0.11364584,0.22751069,-0.2764551,0.057955053,-0.016684309,-0.07256595,-0.24899697,0.57460845,-9.844957,0.93436235,47.703903,-1.0994376,-2.2462554,-3.7105327,-0.15063334,-0.35955426,-0.39921546,27.75,28.875,28.0,31.9375,33.9375,34.875
0.27405187,-2.5741184,-3.3948128,-2.0809863,-0.096746236,0.07481988,-0.12990521,-0.39892408,-0.34784567,0.059894238,-3.074471,0.629828,-0.00043343203,-0.13452093,0.0042755962,0.0005070975,0.01720721,0.0015030063,-0.039711453,0.4619807,-1.3952938,1.9206122,-2.092398,-1.5730671,2.4405668,-0.114636384,0.2265592,-0.2792034,0.058849193,-0.016709797,-0.07471254,-0.36391866,0.4213795,-9.691729,0.96569055,47.67345,-1.052563,-2.0837255,-3.7455046,-0.13566014,-0.36598164,-0.4045999,27.75,28.875,28.0,31.9375,33.9375,34.875
0.27605188,-1.3348264,-2.2193747,-2.1206584,-0.07989876,0.10273957,-0.14749277,-0.3991757,-0.347853,0.0598617,-3.0743935,0.6299258,-0.0004877298,-0.1358218,0.0038136207,0.0017559559,0.016003804,0.0033234477,-0.040694535,0.46178865,-1.3947778,1.9200615,-2.0923016,-1.5730914,2.4404461,-0.11503992,0.226575,-0.28241348,0.059873194,-0.016452674,-0.07413192,-0.4405331,0.3256114,-9.768343,0.9992599,47.661808,-1.1264777,-1.992054,-3.6674652,-0.13499103,-0.38896126,-0.46000028,27.75,28.875,28.0,31.9375,33.9375,34.875
0.27805194,-1.8111864,-2.0233872,-1.8270892,-0.03932668,0.089661464,-0.13780127,-0.39946395,-0.3478536,0.059892368,-3.0743954,0.6299627,-0.00038281662,-0.13815492,0.0038577816,0.0024215786,0.013892818,0.0064736684,-0.039569538,0.46156,-1.394357,1.9194754,-2.0921953,-1.5731267,2.4402406,-0.117347375,0.22737724,-0.28436476,0.057245187,-0.015980167,-0.07756598,-0.47884035,0.3256114,-9.691729,0.88289046,47.70659,-1.1128029,-1.9110337,-3.6633897,-0.04776895,-0.39095068,-0.46255028,27.75,28.875,28.0,31.9375,33.9375,34.875
0.28005207,-1.8350688,-0.6105697,-2.1466422,-0.019736297,0.07980988,-0.13866462,-0.39976367,-0.34782794,0.05988598,-3.0743167,0.6301164,-0.0003554802,-0.13929321,0.0030479936,0.0022088662,0.0140451845,0.006649946,-0.03420981,0.46128425,-1.3938638,1.9188889,-2.0920875,-1.5731753,2.4400713,-0.11666666,0.23077337,-0.28798234,0.057357788,-0.016214466,-0.08224207,-0.47884035,0.17238252,-9.787497,0.7978386,47.666286,-1.0182284,-1.9048467,-3.6515374,-0.047266692,-0.40612486,-0.45170647,27.75,28.875,28.0,31.9375,33.9375,34.875
0.28205207,-1.7843598,-0.54995507,-1.9777634,0.008000236,0.07899763,-0.13885307,-0.40003607,-0.347851,0.05990787,-3.0743313,0.63019454,-0.000329402,-0.14098449,0.004485405,0.002354728,0.015388373,0.005272073,-0.03268884,0.46107924,-1.3934186,1.9182905,-2.0919664,-1.5731634,2.4399135,-0.12016731,0.2325243,-0.29119933,0.06064296,-0.016812332,-0.08726099,-0.51714754,0.05746084,-9.710882,0.91421866,47.72719,-1.0682266,-1.9574599,-3.6809392,-0.015179602,-0.42143756,-0.4042555,27.75,28.875,28.0,31.9375,33.9375,34.875
0.2840521,-2.1156204,-0.64746433,-1.741957,-0.0032158797,0.08813509,-0.13430572,-0.40032053,-0.34785116,0.059895918,-3.0742874,0.63031644,-0.00033759326,-0.14208837,0.0037064168,0.0019790404,0.017103031,0.0056005386,-0.02607887,0.46083957,-1.3929124,1.9177035,-2.0918705,-1.5731763,2.439756,-0.118588656,0.23660226,-0.2953419,0.06116462,-0.018515103,-0.092283644,-0.53630114,-0.095768064,-9.595961,0.8985519,47.709274,-1.0168564,-2.0488925,-3.4504604,-0.023685696,-0.4145571,-0.36345452,27.75,28.875,28.0,31.9375,33.9375,34.875
0.28605208,-1.8346401,-0.18860666,-1.8098861,-0.0043710996,0.09604034,-0.14100528,-0.4005837,-0.34783605,0.05988928,-3.0742466,0.63030416,-0.00036456095,-0.14363065,0.0036888758,0.0019815334,0.017608872,0.0061666374,-0.02118113,0.46059936,-1.392455,1.9171532,-2.0917385,-1.5732006,2.4395137,-0.11933716,0.23921862,-0.29858512,0.06149113,-0.01924326,-0.097924925,-0.49799395,-0.21068975,-9.615114,0.9231726,47.719128,-1.0862269,-2.2138872,-3.3967934,0.023109548,-0.39898983,-0.30841583,27.75,28.875,28.0,31.9375,33.9375,34.875
0.28805217,-1.9567587,-0.4767438,-1.7491246,-0.005822889,0.09840383,-0.14629395,-0.4008753,-0.34782213,0.05988403,-3.074174,0.6303435,-0.0003435585,-0.14393422,0.004357916,0.0013840533,0.01974456,0.0031814366,-0.017324764,0.46035898,-1.3919497,1.9165434,-2.091606,-1.5732602,2.4393077,-0.120278716,0.24172705,-0.301083,0.06508341,-0.019841827,-0.102719344,-0.5746084,-0.076614454,-9.653421,0.84708,47.68062,-1.0820775,-2.159271,-3.4107306,0.02647301,-0.41101146,-0.23987281,27.75,28.875,28.0,31.9375,33.9375,34.875
0.2900522,-2.0426521,-1.0002836,-1.8225794,-0.017861864,0.10043457,-0.13927634,-0.40119022,-0.3478488,0.05994011,-3.0742118,0.6304074,-0.00015237698,-0.14314155,0.0052694087,-4.2850024e-05,0.023712955,-0.0009859446,-0.014263328,0.4601551,-1.3915161,1.9158853,-2.0915086,-1.5732974,2.4391391,-0.119998895,0.24436176,-0.30181757,0.06867081,-0.021534255,-0.10549724,-0.7469909,-0.15322891,-9.653421,0.8940802,47.68062,-1.1560841,-2.3367412,-3.423533,0.0043460745,-0.41408432,-0.1874577,27.75,28.875,28.0,31.9375,33.9375,34.875
0.2920522,-1.8469989,-0.59709233,-1.9173399,-0.025542788,0.08634625,-0.14032169,-0.40148997,-0.34781542,0.059939332,-3.0741298,0.6304278,-0.000188284,-0.14285272,0.00683423,-6.6153325e-06,0.025623908,-0.0031924467,-0.014437118,0.4598667,-1.391012,1.9152526,-2.0913155,-1.5733451,2.4388745,-0.121884145,0.24334553,-0.3016449,0.07232699,-0.022272464,-0.10720556,-0.4405331,-0.05746084,-9.653421,0.947788,47.741516,-1.122202,-2.2165427,-3.5832977,-0.02231878,-0.40598997,-0.15825546,27.75,28.875,28.0,31.9375,33.9375,34.875
0.29405203,-2.054891,-1.1328872,-1.4882946,-0.02140125,0.064942904,-0.13116026,-0.40175796,-0.34779316,0.059921455,-3.0740433,0.6305072,-0.00020607597,-0.14280763,0.00804026,-0.0006886946,0.027947426,-0.00673766,-0.018178852,0.45962602,-1.3905315,1.9147028,-2.0911953,-1.5733937,2.438695,-0.123518825,0.24491714,-0.30292317,0.076239005,-0.022779912,-0.10509541,-0.34476504,-0.11492168,-9.615114,0.8985519,47.709274,-1.0113367,-2.1732311,-3.632269,-0.04858485,-0.40232396,-0.13486765,27.75,28.875,28.0,31.9375,33.9375,34.875
0.2960522,-1.343297,-0.8705719,-1.338089,-0.01096702,0.051423635,-0.13278298,-0.40207955,-0.34777805,0.059954457,-3.0739868,0.63059366,-7.232693e-05,-0.14446421,0.0082772365,5.401035e-05,0.028833719,-0.006233004,-0.021901194,0.4593738,-1.3900622,1.9140443,-2.0910504,-1.5734776,2.4385045,-0.124605805,0.24663782,-0.30732998,0.07886263,-0.023795668,-0.10245567,-0.49799395,-0.19153614,-9.385271,0.90750587,47.71286,-0.94682795,-2.0239322,-3.582334,-0.08365086,-0.38452697,-0.14310066,27.75,28.875,28.0,31.9375,33.9375,34.875
0.29805234,-0.70927507,-0.13054074,-1.406381,0.016796911,0.0347883,-0.13724624,-0.40236923,-0.3477548,0.059955575,-3.0738974,0.63071346,-4.9260456e-05,-0.14518529,0.010127981,0.00059942517,0.031740267,-0.008778541,-0.02968705,0.45912063,-1.3895817,1.9134449,-2.0909045,-1.5735382,2.438338,-0.12741025,0.24684879,-0.3103725,0.0852719,-0.025260987,-0.0974678,-0.34476504,-0.22984336,-9.270349,0.88960326,47.704796,-0.8770597,-2.1358604,-3.5421348,-0.12396133,-0.36191994,-0.18251005,27.75,28.875,28.0,31.9375,33.9375,34.875
0.30005243,-0.9487172,-0.24398708,-1.3591317,0.034366027,0.022361994,-0.1340682,-0.40266865,-0.34774467,0.05995055,-3.0738547,0.6306478,-1.1263712e-05,-0.14611042,0.008377572,0.002332944,0.030126395,-0.004844556,-0.032208815,0.45888168,-1.3890654,1.9128231,-2.0907848,-1.5735983,2.438064,-0.12486407,0.24644221,-0.31389463,0.084963046,-0.025560087,-0.09239714,-0.30645782,-0.114921674,-9.193734,0.900793,47.698532,-1.0173507,-1.8408444,-3.4231472,-0.14812283,-0.37052703,-0.2308536,27.75,28.875,28.0,31.9375,33.9375,34.875
0.30205238,-0.8528856,-0.02673947,-1.3947479,0.03836702,0.020975946,-0.13413768,-0.40294608,-0.34769747,0.059946097,-3.073694,0.6308842,-5.0501578e-05,-0.14683701,0.008871419,0.0029094,0.03092385,-0.005965207,-0.035040244,0.45860538,-1.3885965,1.9122366,-2.0905802,-1.5736707,2.4379566,-0.12609313,0.24710245,-0.3169283,0.08868652,-0.025786102,-0.090791,-0.11492168,-0.076614454,-9.11712,0.9455522,47.731667,-0.91899085,-1.8512999,-3.2757344,-0.18122378,-0.32936805,-0.27025855,27.75,28.875,28.0,31.9375,33.9375,34.875
0.30405235,-0.9669155,-0.2246084,-1.5870605,0.014102521,0.030070778,-0.13714263,-0.40326867,-0.3476812,0.05998218,-3.0736434,0.6309693,3.0335318e-06,-0.1472197,0.009733514,0.0030661453,0.032777857,-0.007612943,-0.03635257,0.4583288,-1.3881159,1.9115433,-2.0903752,-1.5737189,2.43774,-0.12720534,0.24784788,-0.31910485,0.09240846,-0.026719933,-0.09058715,-0.22984336,0.17238252,-9.232041,0.9298854,47.695843,-1.0067916,-1.6818877,-3.4023137,-0.25579238,-0.33710802,-0.2947426,27.75,28.875,28.0,31.9375,33.9375,34.875
0.30605227,-1.9533486,-1.4561571,-1.4650939,-0.016645046,0.046425506,-0.12971723,-0.40357772,-0.34766018,0.05998928,-3.0735648,0.63110673,-3.875389e-05,-0.1481183,0.0098647075,0.0032348707,0.0336812,-0.007595694,-0.03710214,0.45804095,-1.3875992,1.9108738,-2.0901716,-1.5737432,2.4375486,-0.12755875,0.24938463,-0.3217447,0.093890235,-0.027549919,-0.090185486,-0.2873042,0.2681506,-9.270349,0.91198283,47.741516,-1.0328157,-1.6615312,-3.304123,-0.28021398,-0.31770253,-0.30382052,27.75,28.875,28.0,31.9375,33.9375,34.875
0.30805215,-1.6839825,-2.016796,-1.4970943,-0.06595436,0.082436554,-0.14262284,-0.40386218,-0.34765026,0.059983533,-3.0734668,0.6311827,-0.000113791524,-0.14880316,0.0097588925,0.0015887388,0.03533129,-0.010101326,-0.03750064,0.4578009,-1.3870691,1.9102148,-2.089956,-1.573779,2.437369,-0.12760922,0.25457382,-0.32428843,0.09421462,-0.027939659,-0.08983195,-0.19153613,0.19153613,-9.404425,0.98135734,47.690468,-0.98968947,-1.8302921,-3.3791614,-0.32298318,-0.27943546,-0.3213374,27.75,28.875,28.0,31.9375,33.9375,34.875
0.3100523,-2.023849,-2.964608,-1.7699279,-0.07959759,0.074103974,-0.13596621,-0.40414602,-0.34761995,0.060004536,-3.073373,0.631239,-9.5741285e-05,-0.14876741,0.009441009,7.9809215e-05,0.034895994,-0.011092584,-0.03740402,0.45754907,-1.3866235,1.9095944,-2.0897415,-1.573851,2.437165,-0.12742528,0.2571558,-0.32334948,0.091374725,-0.02712542,-0.0897467,-0.11492168,0.2681506,-9.461885,0.88289046,47.660015,-1.043642,-1.937491,-3.4301353,-0.33786845,-0.28700456,-0.35362816,27.75,28.875,28.0,31.9375,33.9375,34.875
0.312052,-1.9720784,-3.338699,-1.518563,-0.09786173,0.07417436,-0.13186975,-0.40446004,-0.34757692,0.05999403,-3.073223,0.6313996,-5.469998e-05,-0.15152737,0.009817852,-0.00023631446,0.033748668,-0.00782967,-0.038527757,0.4572722,-1.386094,1.9089607,-2.089588,-1.5739592,2.4370084,-0.1300491,0.2598012,-0.3248236,0.08674897,-0.027565913,-0.09124239,-0.11492168,0.40222588,-9.404425,1.0731167,47.70659,-0.98499817,-1.8689559,-3.585105,-0.314548,-0.2691342,-0.3808409,27.75,28.875,28.0,31.9375,33.9375,34.875
0.31405216,-1.9436375,-3.0055797,-1.5010709,-0.10174148,0.06800704,-0.13808456,-0.40476516,-0.34757474,0.060000174,-3.0731714,0.6315207,-4.990505e-05,-0.15282317,0.008050505,0.00026958802,0.032411188,-0.0019855902,-0.033275936,0.4570214,-1.3855768,1.9083031,-2.0894344,-1.5739836,2.4368403,-0.1270899,0.26084328,-0.3260478,0.08108537,-0.02897315,-0.093527876,-0.095768064,0.53630114,-9.346964,1.0104496,47.71286,-1.1619916,-1.916508,-3.5823407,-0.2539421,-0.24293883,-0.34428567,27.75,28.875,28.0,31.9375,33.9375,34.875
0.31605217,-1.684089,-2.862253,-1.6335715,-0.08328016,0.04271288,-0.1332944,-0.40509802,-0.34752876,0.060011867,-3.0730739,0.6316327,1.3023372e-05,-0.15679212,0.0074151563,0.0023844729,0.028588507,0.00596482,-0.032118738,0.45670852,-1.3850728,1.9076456,-2.0892684,-1.5740675,2.4366105,-0.12918195,0.26081496,-0.32981586,0.076033205,-0.029083058,-0.0967745,-0.038307227,0.6512228,-9.385271,0.8918391,47.70659,-1.0011593,-1.8364029,-3.628274,-0.18782653,-0.21957761,-0.35335535,27.75,28.875,28.0,31.9375,33.9375,34.875
0.3180521,-0.9840513,-2.675442,-1.4692212,-0.07693863,0.030587152,-0.1359293,-0.40540937,-0.34753358,0.060005046,-3.0730004,0.6317293,2.5918729e-05,-0.15954494,0.0070572654,0.002998699,0.026450317,0.00985936,-0.02690153,0.45647994,-1.3845074,1.9069628,-2.0891259,-1.5741156,2.4364522,-0.13090035,0.26264572,-0.3327515,0.07266439,-0.02891718,-0.10370857,-0.038307227,0.6895301,-9.404425,0.8560339,47.694946,-0.9968106,-1.7852077,-3.5197897,-0.14805292,-0.20481266,-0.26863772,27.75,28.875,28.0,31.9375,33.9375,34.875
0.32005212,-0.5734847,-2.4202156,-1.5866683,-0.0694849,0.016593501,-0.13203911,-0.4057432,-0.34752882,0.06002422,-3.072972,0.6318183,0.00012360916,-0.16165134,0.006824599,0.0030439303,0.025153525,0.011457953,-0.024977101,0.4562155,-1.38399,1.9062823,-2.0890067,-1.5741633,2.4362473,-0.132441,0.2652886,-0.33570915,0.07094681,-0.02847296,-0.10717522,-0.05746084,0.7469909,-9.212888,0.90527004,47.67614,-1.0279582,-1.8535675,-3.575688,-0.09608666,-0.19088411,-0.23339352,27.75,28.875,28.0,31.9375,33.9375,34.875
0.32205182,-0.65592736,-2.226513,-1.7486306,-0.067547865,0.0044420725,-0.1334348,-0.40607014,-0.34750012,0.06002311,-3.072885,0.6319128,0.00020119177,-0.16335526,0.007455166,0.0035337543,0.02483022,0.012459371,-0.021766031,0.45593876,-1.3834614,1.9056343,-2.0888865,-1.5742477,2.4360414,-0.13474487,0.2661123,-0.3380166,0.07135349,-0.028642362,-0.112688795,-0.038307227,0.53630114,-9.404425,0.90527004,47.716442,-0.84125483,-1.8329582,-3.5058408,-0.05038152,-0.17285037,-0.15645067,27.75,28.875,28.0,31.9375,33.9375,34.875
0.32405174,-0.8926798,-2.4706984,-1.8072488,-0.08043783,0.009563378,-0.13543993,-0.40637833,-0.34749117,0.060001895,-3.07284,0.63184345,0.00013976466,-0.16335571,0.0075976183,0.00246417,0.026020676,0.009773756,-0.018118437,0.45567462,-1.382884,1.9049662,-2.08873,-1.5742716,2.4357402,-0.13491873,0.26893952,-0.33938682,0.07280801,-0.028546663,-0.11650832,0.0,0.49799395,-9.519346,0.9679317,47.72092,-0.8883225,-1.7812314,-3.5017047,-0.025931636,-0.13906968,-0.08614764,27.75,28.875,28.0,31.9375,33.9375,34.875
0.32605195,-0.9421948,-2.5573947,-1.5476897,-0.10052544,0.03310931,-0.1306563,-0.4067128,-0.34746414,0.060029477,-3.0727649,0.6320004,0.00023335821,-0.16362032,0.0070669283,0.0026323325,0.025666328,0.009077896,-0.017971322,0.4553869,-1.3823911,1.9042839,-2.0885627,-1.5743431,2.4355607,-0.13447358,0.2701605,-0.3416744,0.07432634,-0.02792127,-0.11621282,-0.15322891,0.47884035,-9.346964,0.92093146,47.684196,-0.99513745,-1.8513393,-3.4968543,-0.022253036,-0.14148602,-0.04380727,27.75,28.875,28.0,31.9375,33.9375,34.875
0.3280518,-1.2516,-2.5727074,-1.1821026,-0.0886083,0.052218758,-0.13822593,-0.4070053,-0.34746137,0.05999052,-3.0726907,0.6319665,0.00012780263,-0.16389363,0.0066308933,0.0019759852,0.025422245,0.006766694,-0.020108515,0.45514694,-1.381789,1.9036263,-2.0884063,-1.5743665,2.4353096,-0.13459492,0.2730096,-0.34403157,0.07579687,-0.02669479,-0.11419844,-0.24899697,0.47884035,-9.3661175,0.82022345,47.684196,-1.010273,-1.9065471,-3.5752068,-0.006613899,-0.13170284,-0.06061814,27.75,28.875,28.0,31.9375,33.9375,34.875
0.3300519,-1.6176386,-2.1622207,-1.1477968,-0.065298595,0.0718964,-0.12536001,-0.40736502,-0.34746668,0.06003327,-3.072692,0.63200766,0.00032682304,-0.1649115,0.0067112395,0.0040627997,0.023121057,0.008572903,-0.02579992,0.4548945,-1.381274,1.9028963,-2.088298,-1.5744385,2.4350832,-0.13626206,0.2703321,-0.3462635,0.07806843,-0.025399284,-0.110182375,-0.2873042,0.30645782,-9.289502,0.8672237,47.66271,-1.0570796,-1.7471788,-3.499763,-0.0089438725,-0.13821253,-0.07089438,27.75,28.875,28.0,31.9375,33.9375,34.875
0.3320522,-1.4233705,-1.0962358,-1.3800681,-0.03363752,0.07023734,-0.13518025,-0.40770337,-0.34745464,0.06003755,-3.0726318,0.6321107,0.00033658725,-0.16336788,0.0048398306,0.0018459209,0.02491314,0.0028934765,-0.026907196,0.45460784,-1.3807071,1.9021786,-2.0881298,-1.5744742,2.434869,-0.1321301,0.27646586,-0.34921944,0.08078581,-0.024504367,-0.104944795,-0.22984336,0.19153613,-9.32781,0.9388393,47.686886,-1.1554956,-1.7510014,-3.6109467,-0.009236921,-0.13690989,-0.11430676,27.75,28.875,28.0,31.9375,33.9375,34.875
0.33405256,-1.5429083,-0.5168505,-1.1790711,-0.0029096291,0.04361203,-0.12909642,-0.4080447,-0.34744146,0.06003849,-3.0725255,0.6322453,0.00042008611,-0.16523483,0.005980511,0.00097299577,0.025057917,0.00068572495,-0.033521786,0.45435426,-1.3801295,1.901461,-2.0879853,-1.5745696,2.4347138,-0.1360744,0.2801385,-0.35197616,0.08190859,-0.023664447,-0.10227662,-0.22984336,0.15322891,-9.346964,1.0507371,47.66808,-0.9874996,-1.988996,-3.4901624,0.007948146,-0.14320943,-0.1489018,27.75,28.875,28.0,31.9375,33.9375,34.875
0.3360517,-0.7860636,-0.0857109,-0.8422583,-0.0012208093,0.04518264,-0.13523433,-0.40837345,-0.34744242,0.060032293,-3.072512,0.63236135,0.0003438614,-0.16431864,0.007274387,-0.00021753056,0.028746448,-0.0061705816,-0.039656408,0.45405415,-1.3795518,1.9007558,-2.0878265,-1.5745338,2.4344883,-0.13720308,0.2827939,-0.35421777,0.08929147,-0.02395259,-0.097268455,-0.2681506,0.05746084,-9.232041,0.91421866,47.71286,-1.037667,-2.003659,-3.4762883,-0.018322617,-0.13335386,-0.20178108,27.75,28.875,28.0,31.9375,33.9375,34.875
0.33805177,-0.366011,0.71784604,-0.94519603,0.017567178,0.023947982,-0.13974681,-0.40871271,-0.347423,0.060039178,-3.0724242,0.6324967,0.0004062425,-0.16484356,0.008130795,-0.0012895155,0.030867256,-0.009666519,-0.042044777,0.4537778,-1.3789984,1.90005,-2.0876706,-1.5746063,2.4343083,-0.13874969,0.2862432,-0.35669753,0.09238513,-0.024327615,-0.09642414,-0.21068975,-0.11492168,-9.193734,0.8291774,47.70032,-1.024177,-2.1293635,-3.4479368,-0.060100302,-0.119271204,-0.25101197,27.75,28.875,28.0,31.9375,33.9375,34.875
0.34005168,-0.011611103,0.9772543,-1.0062746,0.023829252,0.013091106,-0.13184576,-0.40901712,-0.34740272,0.06000762,-3.0722878,0.6325642,0.00027902072,-0.16417031,0.008143797,-0.0012849523,0.03204134,-0.013544066,-0.043646302,0.45351395,-1.3783852,1.8993443,-2.0874412,-1.5746535,2.434105,-0.13846576,0.28730884,-0.3594004,0.09801681,-0.023690695,-0.094537795,-0.095768064,-0.11492168,-9.212888,0.9612189,47.733456,-0.9834758,-2.1475134,-3.5241263,-0.11556561,-0.12200333,-0.27837452,27.75,28.875,28.0,31.9375,33.9375,34.875
0.3420526,-0.6172844,-0.13236783,-0.7129283,0.012253484,0.01741279,-0.14050779,-0.4093687,-0.34739736,0.06004197,-3.0722508,0.6326938,0.0003778093,-0.16580664,0.009019021,-0.00018417,0.032036506,-0.014119585,-0.048790656,0.45323688,-1.3778567,1.8986019,-2.087272,-1.5747017,2.433914,-0.14137182,0.2877706,-0.36353543,0.10220263,-0.023430446,-0.09230062,-0.17238252,-0.15322891,-9.097966,1.048496,47.71017,-0.99424374,-2.048332,-3.4233937,-0.17454842,-0.12500083,-0.33534828,27.75,28.875,28.0,31.9375,33.9375,34.875
0.34405252,-0.90186644,-0.25608978,-0.7476909,-0.014449289,0.03603984,-0.13377,-0.40968713,-0.3473882,0.060019657,-3.0721157,0.6328748,0.00027130672,-0.16478834,0.007656945,-0.00022513964,0.0324537,-0.015322253,-0.046781346,0.45297414,-1.3772315,1.8978604,-2.087044,-1.5747379,2.4337823,-0.13810904,0.28879458,-0.3652624,0.10416496,-0.023292195,-0.09104487,-0.24899697,-0.076614454,-8.925584,0.9298854,47.705692,-1.0617259,-1.954179,-3.44732,-0.21517923,-0.11020401,-0.38444257,27.75,28.875,28.0,31.9375,33.9375,34.875
0.3460527,-1.4041952,-0.9022363,-0.9003983,-0.015596362,0.05327067,-0.13148966,-0.40998447,-0.34737426,0.0599988,-3.07201,0.6328738,0.0001476177,-0.16531165,0.008604132,1.0668275e-05,0.032993607,-0.017456783,-0.049568743,0.45272088,-1.3766431,1.8971561,-2.0868032,-1.5747737,2.4335427,-0.14032465,0.28923026,-0.36731976,0.1079342,-0.022856519,-0.09047198,-0.38307226,-0.038307227,-9.021352,0.842603,47.691364,-0.89834154,-1.9991117,-3.3869371,-0.27290642,-0.12392247,-0.43015712,27.75,28.875,28.0,31.9375,33.9375,34.875
0.3480517,-2.4006283,-1.4480376,-0.917869,-0.03287782,0.068991,-0.12645075,-0.4103173,-0.34735054,0.06000079,-3.0719018,0.63304067,8.890896e-05,-0.1668885,0.0075785946,0.0011393164,0.030803775,-0.013044754,-0.047183935,0.4524214,-1.3760667,1.8964142,-2.0865648,-1.5748099,2.433362,-0.13974106,0.28918287,-0.3693387,0.10505789,-0.022848073,-0.092270896,-0.26815057,-0.05746084,-9.097966,0.89631605,47.698532,-1.157982,-1.8548505,-3.4623191,-0.28499305,-0.111180276,-0.45905805,27.75,28.875,28.0,31.9375,33.9375,34.875
0.35005262,-1.5916708,-1.1483517,-0.84654236,-0.05005949,0.0951832,-0.13850653,-0.41066283,-0.34733105,0.059998184,-3.0717928,0.63318706,7.961099e-05,-0.1684163,0.0070007215,0.0017359322,0.029175334,-0.011357171,-0.0432965,0.45213333,-1.3754653,1.8956608,-2.0863616,-1.5748695,2.43318,-0.14031225,0.2904905,-0.37226626,0.1044155,-0.022154469,-0.09673058,-0.2873042,0.019153614,-9.11712,0.900793,47.690468,-1.1489412,-1.8305099,-3.44845,-0.294643,-0.11856351,-0.45531029,27.75,28.875,28.0,31.9375,33.9375,34.875
0.3520526,-2.0131023,-1.4353832,-0.9777646,-0.046339933,0.090411924,-0.13857973,-0.41098538,-0.34732127,0.05997579,-3.0716822,0.6332754,4.2431737e-05,-0.1697972,0.0061145388,0.0005604514,0.027243556,-0.009095388,-0.036833744,0.45188132,-1.3748518,1.8949436,-2.0861847,-1.5749286,2.4329982,-0.14024612,0.29378125,-0.3722686,0.09820819,-0.02145223,-0.103128284,-0.4213795,0.11492168,-9.155427,0.9634547,47.66539,-1.1755756,-1.7211602,-3.5136654,-0.25195462,-0.13238463,-0.40125188,27.75,28.875,28.0,31.9375,33.9375,34.875
0.3540526,-1.9327155,-1.4876672,-1.3611809,-0.052937202,0.084640734,-0.13768445,-0.4113228,-0.3473034,0.05997012,-3.07159,0.6334052,-3.0707426e-05,-0.17156906,0.005432143,0.00036553643,0.025432311,-0.005551011,-0.029969273,0.4515815,-1.3742503,1.8941911,-2.0859587,-1.574953,2.432792,-0.14042598,0.29573005,-0.37316236,0.09313506,-0.02142009,-0.110170536,-0.26815057,0.15322891,-9.251195,1.0686398,47.717335,-1.2247411,-1.87519,-3.542726,-0.20535456,-0.12830445,-0.33936048,27.75,28.875,28.0,31.9375,33.9375,34.875
0.35605255,-1.1441917,-1.4186782,-1.2683215,-0.066641346,0.09179196,-0.14567424,-0.41168085,-0.34729165,0.059972554,-3.071524,0.63344485,3.4598987e-05,-0.17504619,0.0045271944,0.0021546981,0.02266448,0.0011742087,-0.02436811,0.45130518,-1.3736494,1.8934368,-2.0858047,-1.5750254,2.4325495,-0.14132942,0.29664427,-0.37764862,0.08940825,-0.021906996,-0.11667106,-0.19153613,0.22984336,-9.212888,0.96569055,47.719128,-1.1973784,-1.9728502,-3.5847297,-0.14267972,-0.1246881,-0.29036015,27.75,28.875,28.0,31.9375,33.9375,34.875
0.3580525,-1.9526558,-2.0412679,-1.2860608,-0.07119407,0.06992266,-0.12522249,-0.41201684,-0.34725356,0.059949156,-3.0713658,0.6335056,-1.5000871e-05,-0.17703842,0.0043026875,0.0012466718,0.022671863,0.0015803463,-0.019794699,0.4510168,-1.3730237,1.8926953,-2.0855777,-1.5751213,2.4323204,-0.14232129,0.30132383,-0.38090673,0.08758369,-0.022136541,-0.12223118,-0.53630114,0.28730422,-9.3661175,0.8985519,47.72719,-1.2245927,-1.944732,-3.5303595,-0.097782716,-0.1366991,-0.1942732,27.75,28.875,28.0,31.9375,33.9375,34.875
0.3600525,-1.2115592,-1.9080622,-1.3412595,-0.07240897,0.083076514,-0.142101,-0.41238165,-0.34724513,0.059960037,-3.0713615,0.63358116,3.245979e-05,-0.17874447,0.0052878307,0.0015399588,0.02237234,0.0019719133,-0.020145504,0.45070362,-1.3724463,1.8919538,-2.0854456,-1.5751332,2.4320552,-0.14532824,0.30220395,-0.38292456,0.08821847,-0.02204818,-0.124887995,-0.49799395,0.3256114,-9.423578,0.8627467,47.70211,-1.2119505,-2.065257,-3.5217314,-0.061068647,-0.13003673,-0.1335732,27.75,28.875,28.0,31.9375,33.9375,34.875
0.36205274,-1.7048671,-1.8656405,-1.6051991,-0.058410875,0.06576864,-0.12957337,-0.41270754,-0.34723577,0.05994427,-3.0712814,0.63361907,-5.5823282e-05,-0.17821762,0.0037051665,0.0007221918,0.023030823,0.0002728811,-0.017064922,0.4504291,-1.3718327,1.8912109,-2.0852296,-1.575157,2.4318154,-0.14209658,0.30564094,-0.38554904,0.08921382,-0.021917282,-0.12473462,-0.30645782,0.47884035,-9.423578,0.9634547,47.705692,-1.3186469,-2.0476863,-3.429223,-0.051542763,-0.13182168,-0.12494522,27.75,28.875,28.0,31.9375,33.9375,34.875
0.3640518,-1.4906534,-2.0583193,-1.7052623,-0.06250488,0.07487471,-0.12893096,-0.41307735,-0.34723476,0.05994759,-3.071242,0.63369113,-1.7251057e-05,-0.1790324,0.004501362,0.00044935892,0.023685526,-0.0011199578,-0.022221847,0.45014015,-1.3712075,1.8904237,-2.0850737,-1.5751933,2.431577,-0.14399517,0.3071608,-0.3873153,0.09100332,-0.021891344,-0.121476136,-0.4213795,0.49799395,-9.461885,0.98135734,47.69763,-1.1425233,-2.1502225,-3.5746856,-0.05427777,-0.12996973,-0.107502885,27.75,28.875,28.0,31.9375,33.9375,34.875
0.36605194,-1.1970749,-2.5136826,-1.6327349,-0.07047881,0.0853488,-0.13076915,-0.41344076,-0.34721744,0.059940375,-3.0711648,0.6337733,-5.170756e-05,-0.17783292,0.005080054,-0.0015560897,0.025406078,-0.0047096643,-0.028196884,0.4498286,-1.3705696,1.8896345,-2.08487,-1.575229,2.4313273,-0.1438348,0.3091206,-0.3852595,0.0909854,-0.021863922,-0.11534056,-0.36391866,0.57460845,-9.615114,0.87393653,47.684196,-1.249682,-2.136248,-3.728786,-0.02447182,-0.13010171,-0.14791074,27.75,28.875,28.0,31.9375,33.9375,34.875
0.3680519,-1.446325,-2.467067,-1.8177654,-0.09477408,0.084593005,-0.12611076,-0.41379282,-0.34719068,0.059921425,-3.0710225,0.6338807,-8.2815706e-05,-0.17909232,0.0050370777,-5.2944022e-05,0.024183169,-0.0030711696,-0.03479491,0.44954014,-1.3699219,1.8888572,-2.084654,-1.5753125,2.4311252,-0.14489327,0.30830154,-0.388311,0.09285738,-0.021471387,-0.10980062,-0.4213795,0.57460845,-9.576807,0.9925471,47.695843,-1.2416852,-2.1054738,-3.876032,-0.011349559,-0.13890043,-0.23081562,27.75,28.875,28.0,31.9375,33.9375,34.875
0.3700518,-1.7539405,-3.053768,-2.0145736,-0.08489884,0.066334195,-0.11963255,-0.41416696,-0.34718028,0.059939086,-3.0709746,0.63402504,4.1276957e-07,-0.18000847,0.005056397,0.000298123,0.024614265,-0.0038735229,-0.038190883,0.4492402,-1.3693329,1.8880795,-2.0844977,-1.5753611,2.430922,-0.14549908,0.30999345,-0.39193144,0.09569765,-0.021503104,-0.10700991,-0.24899697,0.4213795,-9.595961,0.947788,47.682407,-1.2708801,-1.976902,-3.761451,-0.023728874,-0.13370024,-0.28665018,27.75,28.875,28.0,31.9375,33.9375,34.875
0.37205225,-1.0593104,-2.1779518,-1.997509,-0.06920868,0.04034648,-0.12619871,-0.41453594,-0.34715548,0.059917517,-3.0708594,0.63411736,-4.3493365e-05,-0.18117183,0.0061796303,-0.00010532165,0.026957244,-0.0070003862,-0.04150953,0.44892728,-1.368659,1.8872784,-2.0842922,-1.5754212,2.4306824,-0.1477528,0.31326473,-0.39618644,0.100510396,-0.022263933,-0.10593812,-0.076614454,0.36391866,-9.672575,0.97464454,47.683304,-1.1321372,-2.083108,-3.6707988,-0.056037314,-0.13580577,-0.29139566,27.75,28.875,28.0,31.9375,33.9375,34.875
0.37405184,-0.33349442,-1.4626774,-2.0148795,-0.046218626,0.019590609,-0.13026255,-0.41492978,-0.34715343,0.0599383,-3.070805,0.6342615,2.5857746e-05,-0.18342805,0.0077148243,0.0007047757,0.027485635,-0.007445737,-0.045000322,0.44862565,-1.3680222,1.8864278,-2.0841,-1.5754694,2.4304783,-0.15190168,0.314393,-0.40038568,0.104198396,-0.022553002,-0.10659416,-0.17238252,0.2681506,-9.768343,0.96569055,47.67166,-1.0454698,-2.0234036,-3.558862,-0.07704686,-0.14351115,-0.31744215,27.75,28.875,28.0,31.9375,33.9375,34.875
