Tylouw/Master_Thesis_Code/training_data/batch_1/small_rod_t0.2/sample_72_session_2.csv
timestamp[s],tcp_force_x[N],tcp_force_y[N],tcp_force_z[N],tcp_force_rx[Nm?],tcp_force_ry[Nm?],tcp_force_rz[Nm?],tcp_pose_x[m],tcp_pose_y[m],tcp_pose_z[m],tcp_pose_rx[rot_vec_x],tcp_pose_ry[rot_vec_y],tcp_pose_rz[rot_vec_z],tcp_velo_x[m/s],tcp_velo_y[m/s],tcp_velo_z[m/s],tcp_velo_rx[rot_vec_x/s],tcp_velo_ry[rot_vec_y/s],tcp_velo_rz[rot_vec_z/s],q1[rad],q2[rad],q3[rad],q4[rad],q5[rad],q6[rad],qd1[rad/s],qd2[rad/s],qd3[rad/s],qd4[rad/s],qd5[rad/s],qd6[rad/s],tool_acc_x,tool_acc_y,tool_acc_z,current_of_whole_robot[A],voltage_of_whole_robot[V],current_J1[A],current_J2[A],current_J3[A],current_J4[A],current_J5[A],current_J6[A],temp_J1[C],temp_J2[C],temp_J3[C],temp_J4[C],temp_J5[C],temp_J6[C]
1.2460223e-06,-1.0576327,-1.1952227,-0.11435121,-0.019407779,0.012557376,-0.0061632013,-0.38106513,-0.34852466,0.059979137,-3.078516,0.62480026,-0.00012574162,0.0021067215,0.0010971898,-0.0026189939,0.002701957,-0.005197937,0.00025304483,0.47781014,-1.4259454,1.957703,-2.1008208,-1.5707935,2.4527164,-2.254146e-12,0.0015821758,0.004153557,0.00012247324,0.0,-0.00025491815,-0.019153614,0.095768064,-8.810662,0.72622824,47.716442,-0.002404771,-2.8367152,-2.5188372,-0.4372859,0.0076872837,0.13842231,28.0625,29.1875,28.3125,32.25,34.375,35.3125
0.002054356,-0.56135416,-0.6453694,-0.05523052,-0.024186866,0.01831832,-0.0130905565,-0.38107806,-0.34854013,0.05999653,-3.0785654,0.62481034,-8.737905e-05,-0.00058734807,-0.00030668138,-0.002888724,-0.001125248,0.0021403374,0.0002453768,0.47781014,-1.4259565,1.9576796,-2.100837,-1.5707697,2.4527164,-3.0242244e-14,0.0037641125,0.0048137233,-0.010995952,0.0,-0.00024500338,-0.05746084,0.095768064,-8.734048,0.65908957,47.71286,-0.009953506,-2.9330268,-2.4926348,-0.4070689,0.0071258303,0.116141215,28.0625,29.1875,28.3125,32.25,34.375,35.3125
0.004054115,-0.9789769,-0.53375345,0.09308718,-0.026019024,0.0063990154,-0.013951106,-0.38106054,-0.3485397,0.059959482,-3.0785322,0.6248801,-0.00018336084,-0.0017286085,-0.00090104225,-0.0021253657,-0.0028722903,0.0054972055,0.00023718947,0.47781014,-1.4259088,1.9577154,-2.1008613,-1.5707458,2.452764,-4.057383e-16,0.0033961742,0.0041049286,-0.013703486,0.0,-0.00023597335,0.05746084,0.1340753,-8.619126,0.7665104,47.709274,0.01577798,-3.112982,-2.7279434,-0.29056004,-0.0067249183,0.12440921,28.0625,29.1875,28.3125,32.25,34.375,35.3125
0.00605425,-0.7315158,-0.2664877,-0.061724704,-0.009948452,-0.0053553632,-0.0070103984,-0.38106462,-0.3485309,0.059955027,-3.0785527,0.6248081,-0.00014340921,-0.0009366442,-0.0004882991,-0.0014748208,-0.0015695933,0.0030020494,8.1988874e-05,0.4777981,-1.4259212,1.9577502,-2.100907,-1.5707573,2.4527044,-5.443497e-18,0.0022411658,0.00271503,-0.008343811,0.0,-8.132972e-05,0.038307227,0.1340753,-8.676587,0.7597976,47.70032,-0.0069900937,-3.0892286,-2.5516524,-0.30808958,0.0040767444,0.12294389,28.0625,29.1875,28.3125,32.25,34.375,35.3125
0.008053842,0.012643631,0.24635293,-0.5098858,0.01785118,-0.01448505,-0.014060709,-0.38107812,-0.3485358,0.05995894,-3.078541,0.6248054,-0.00010586564,-0.00043174185,-0.00022470849,-0.0004389211,-0.0011486098,0.0022041122,6.875966e-05,0.47781014,-1.425898,1.9577144,-2.1009057,-1.5707816,2.4527164,-7.303146e-20,0.0001844839,0.0018130506,-0.004482987,0.0,-6.8746966e-05,0.019153614,0.15322891,-8.7532015,0.800085,47.67614,0.009354502,-2.904337,-2.55267,-0.35947382,-0.006623228,0.13096824,28.0625,29.1875,28.3125,32.25,34.375,35.3125
0.010053886,-0.34293312,0.1250863,-0.9279662,0.022860387,-0.024349978,-0.010453099,-0.38105,-0.34852326,0.059936095,-3.0785084,0.6248373,-0.00021661259,-8.341062e-05,-4.327131e-05,-0.00035644314,-0.00052585657,0.001009315,6.5427026e-05,0.4777981,-1.4258981,1.9577612,-2.1008813,-1.5707573,2.4527283,-9.798102e-22,2.475087e-06,0.0013868974,-0.0025274695,0.0,-6.562043e-05,0.05746084,0.17238252,-9.021352,0.7284641,47.655537,-0.3075965,-2.3357258,-3.131415,-0.3867535,0.002053806,0.059093636,28.0625,29.1875,28.3125,32.25,34.375,35.3125
0.0120538995,-0.38963372,-0.8054658,-1.0826119,-0.006800459,-0.0034972953,-0.0111903045,-0.38103467,-0.3485153,0.05990258,-3.0784492,0.6248253,-0.00033400193,-0.0016928565,-0.00084228907,-0.0007780136,0.00013812847,-0.00029049127,4.534728e-05,0.47779807,-1.4258368,1.9577597,-2.100845,-1.5707573,2.4527283,-7.432154e-05,0.005307753,-0.004060686,-0.00092562375,0.0,-0.00011658648,0.15322891,0.076614454,-9.289503,0.7172743,47.716442,-0.47015744,-2.1195438,-3.2674322,-0.39115822,-0.0006983348,0.0425362,28.0625,29.1875,28.3125,32.25,34.375,35.3125
0.014053608,-1.9110514,-1.8321053,-1.3906217,-0.037472043,-0.0013308635,0.004337106,-0.38104522,-0.34851035,0.05990294,-3.078448,0.6248266,-0.00036446087,-0.0044770036,0.00063855364,-0.0046488238,0.0036667928,-0.007127368,-0.0022517494,0.4777721,-1.4258202,1.9577345,-2.1008208,-1.5707458,2.4527032,-0.0052928044,0.017162539,-0.008873903,-0.0002738471,0.0,-0.0030337856,0.0,0.17238252,-9.404425,0.784413,47.705692,-0.39093277,-3.0111384,-3.0416188,-0.40182853,-0.0018339101,0.024318036,28.0625,29.1875,28.3125,32.25,34.375,35.3125
0.016053943,-1.9278198,-2.5015259,-1.6774349,-0.07290922,0.040526655,-0.007440051,-0.38104084,-0.34847826,0.05988056,-3.0783787,0.62488943,-0.00041270885,-0.0062582484,0.0024869281,-0.0036489994,0.0028417134,-0.0055374145,-0.002798736,0.47773454,-1.4258091,1.9577702,-2.1008089,-1.5707697,2.4527137,-0.010226282,0.014984069,-0.008731269,-3.0114617e-05,0.0,-0.007420745,-0.17238252,0.34476504,-9.557653,0.7463667,47.711964,-0.14694439,-2.8188982,-3.205553,-0.41354185,0.021829346,0.044112645,28.0625,29.1875,28.3125,32.25,34.375,35.3125
0.018053483,-2.2118046,-2.7206829,-1.6540005,-0.08424815,0.070816256,-0.02193746,-0.3810551,-0.34849045,0.059871197,-3.0783882,0.62485063,-0.00044103392,-0.0060340213,0.002113702,-0.003337253,0.0025590523,-0.0049938457,-8.202504e-05,0.47773492,-1.4257493,1.9577235,-2.1008089,-1.5707573,2.4526887,-0.009354513,0.014421277,-0.008809492,-1.9662693e-06,0.0,-0.009265744,-0.28730422,0.34476504,-9.672575,0.75084364,47.72719,-0.33850545,-2.572884,-3.5148616,-0.4149171,0.012145963,0.05862263,28.0625,29.1875,28.3125,32.25,34.375,35.3125
0.02005421,-3.1078491,-2.17143,-1.4207904,-0.08231865,0.06433092,-0.028441165,-0.38104573,-0.3485011,0.059868734,-3.0784075,0.6247779,-0.0004919153,-0.007186325,0.0013564869,-0.0026790644,0.0017810919,-0.0035056504,0.00049576274,0.47774702,-1.425737,1.9577097,-2.100785,-1.5707334,2.452653,-0.009076747,0.015680015,-0.011749152,-1.2838335e-07,0.0,-0.009564081,-0.4213795,0.4213795,-9.749189,0.7396539,47.682407,-0.47316235,-2.4049397,-3.5078669,-0.40445364,0.021574171,0.029717736,28.0625,29.1875,28.3125,32.25,34.375,35.3125
0.022053631,-2.8440616,-1.6618211,-1.7534318,-0.053688362,0.0699739,-0.037053738,-0.38107,-0.34850866,0.059862673,-3.078425,0.6248204,-0.00050212606,-0.008153775,0.0017740753,-0.0032432012,0.002647802,-0.005184078,-0.000691771,0.47772247,-1.425688,1.957673,-2.1008084,-1.5707096,2.4526527,-0.010716203,0.018485308,-0.013950533,0.0012851339,0.0,-0.0100147035,-0.8619126,0.4213795,-9.768343,0.7105615,47.69763,-0.584731,-2.51418,-3.455914,-0.41494846,0.020407584,0.0007080162,28.0625,29.1875,28.3125,32.25,34.375,35.3125
0.024054023,-1.6738372,-1.0905843,-1.8577675,-0.040804718,0.09096505,-0.06544097,-0.38106325,-0.3485114,0.05984491,-3.0784066,0.62479883,-0.0005455395,-0.009922891,0.0022578554,-0.002981862,0.002405191,-0.0047265007,-0.00258445,0.47773358,-1.4256516,1.957672,-2.1008084,-1.5707096,2.4526527,-0.013215596,0.020064877,-0.016437477,0.0016745443,0.0,-0.01061999,-0.51714754,0.4213795,-9.80665,0.7709874,47.684196,-0.5634477,-2.4415452,-3.4312563,-0.42440146,0.042640712,-0.022980312,28.0625,29.1875,28.3125,32.25,34.375,35.3125
0.026054254,-2.5337722,-1.910596,-1.8360492,-0.03130448,0.061840642,-0.051133383,-0.3810831,-0.34849688,0.05984329,-3.0783644,0.62484795,-0.00057718105,-0.011040892,0.002483226,-0.0025038046,0.0017138137,-0.0034008913,-0.0029612419,0.4776971,-1.4256155,1.9576238,-2.1007607,-1.5707215,2.4526522,-0.014650569,0.020103823,-0.017458463,0.0011612608,0.0,-0.011677548,-0.7086837,0.3256114,-9.902418,0.6769922,47.664497,-0.59652007,-2.456685,-3.5016012,-0.4135603,0.03728708,-0.053915888,28.0625,29.1875,28.3125,32.25,34.375,35.3125
0.028054055,-2.7484035,-1.7259879,-1.8040526,-0.05148105,0.06079268,-0.059738796,-0.3811303,-0.3484987,0.059837606,-3.078378,0.6249078,-0.0005584999,-0.012611593,0.002208902,-0.0017607836,0.00072894903,-0.0015145313,-0.0018499052,0.47764882,-1.4255434,1.9575628,-2.100797,-1.5707096,2.4526396,-0.015615756,0.02095399,-0.020036492,0.0007610619,0.0,-0.013752557,-0.6703765,0.24899697,-9.921572,0.75084364,47.691364,-0.5719705,-2.4361527,-3.416058,-0.41504544,0.036036067,-0.034259297,28.0625,29.1875,28.3125,32.25,34.375,35.3125
0.030054078,-2.657123,-1.4944179,-1.6085744,-0.047798764,0.07468,-0.079581395,-0.38116246,-0.34849307,0.059846446,-3.0783858,0.62485147,-0.0005061288,-0.013741626,0.0021987841,-0.0017614526,0.00055724557,-0.001192502,-0.0023214472,0.47762454,-1.4255189,1.9575146,-2.100797,-1.5707334,2.4525793,-0.016643764,0.022647848,-0.02192857,0.00059395854,0.0,-0.014307767,-0.59376204,0.17238252,-9.883265,0.8112748,47.681515,-0.6134753,-2.4376173,-3.4538655,-0.41404068,0.032862358,-0.04640595,28.0625,29.1875,28.3125,32.25,34.375,35.3125
0.03205352,-2.4675376,-0.8382441,-1.5449976,-0.034484085,0.075123556,-0.09345031,-0.38117573,-0.34845972,0.05980751,-3.0782952,0.6248527,-0.0005877287,-0.015094239,0.0015237044,-0.0009872087,-0.000447284,0.0007299828,-0.0021666207,0.47757646,-1.4254347,1.9575022,-2.1007726,-1.5707697,2.4525435,-0.016695878,0.023681747,-0.024804452,0.00026629338,0.0,-0.014513031,-0.57460845,0.1340753,-9.749189,0.7038487,47.68062,-0.60251737,-2.3409398,-3.3463607,-0.41330487,0.04552465,-0.03219957,28.0625,29.1875,28.3125,32.25,34.375,35.3125
0.034053646,-1.7445142,-0.5990432,-1.4170268,-0.0025597508,0.08356775,-0.10838214,-0.38122618,-0.34850347,0.059840616,-3.0784028,0.6248559,-0.000502656,-0.015740473,0.0016360962,-0.00095491804,-0.00056851463,0.00096336205,-0.003246209,0.4775762,-1.4253986,1.9573935,-2.1008089,-1.5707215,2.4525316,-0.017491985,0.02439609,-0.025667649,0.00015289441,0.0,-0.014228979,-0.47884035,-0.019153614,-9.749189,0.7777002,47.687782,-0.6534786,-2.3972306,-3.4409308,-0.39051515,0.06310731,-0.053545404,28.0625,29.1875,28.3125,32.25,34.375,35.3125
0.036053963,-2.4331048,-0.3754142,-1.4912803,0.024802707,0.045027975,-0.106915906,-0.38125554,-0.3485094,0.059828043,-3.0784042,0.6248953,-0.00051485293,-0.016561976,0.0017693093,-0.0010124226,-0.00059865863,0.0010155888,-0.0041326373,0.4775518,-1.4253263,1.9573454,-2.1008327,-1.5707096,2.4525316,-0.018488213,0.02560515,-0.026910562,0.00012666835,0.0,-0.014337959,-0.38307226,-0.15322891,-9.710882,0.74413085,47.677036,-0.6986159,-2.344592,-3.4484205,-0.38514733,0.07034299,-0.06051363,28.0625,29.1875,28.3125,32.25,34.375,35.3125
0.038053654,-1.4942106,-0.14422071,-1.6648022,0.021311799,0.042377807,-0.123434946,-0.3812936,-0.34849972,0.059833646,-3.0784183,0.6249561,-0.0004957,-0.01830771,0.0012423209,-2.2114406e-05,-0.002746063,0.0025952125,-0.0056713885,0.47749132,-1.4253021,1.9573077,-2.100845,-1.5706972,2.4525073,-0.019928379,0.026440738,-0.030124092,0.00011073043,0.0011748439,-0.014239913,-0.36391866,-0.15322891,-9.634268,0.800085,47.67614,-0.6166446,-2.307517,-3.4345846,-0.39077148,0.056211993,-0.091531545,28.0625,29.1875,28.3125,32.25,34.375,35.3125
0.040053286,-1.5760366,-0.68165,-1.5498394,0.023321299,0.026227482,-0.123097844,-0.38133797,-0.3484714,0.05982516,-3.0783403,0.6250366,-0.0004941652,-0.019837398,0.00092768756,0.000494577,-0.004189495,0.0034074592,-0.0065296963,0.47743085,-1.4252295,1.9572362,-2.1008089,-1.5707449,2.452507,-0.021368857,0.027837377,-0.03289721,9.855817e-05,0.0020770384,-0.014822306,-0.22984336,-0.15322891,-9.634268,0.7911258,47.690468,-0.61739767,-2.3280177,-3.3415303,-0.3808188,0.047374316,-0.08903999,28.0625,29.1875,28.3125,32.25,34.375,35.3125
0.042054344,-1.517434,-0.8268784,-1.4767162,0.0047595752,0.023770798,-0.1361338,-0.38138473,-0.34848192,0.0598393,-3.0783737,0.6250237,-0.00043485514,-0.020708274,0.0009764601,0.00092771807,-0.004380395,0.0044438113,-0.0065863887,0.47740656,-1.4251815,1.9571518,-2.1008208,-1.5707453,2.4524705,-0.022057947,0.028134484,-0.034234464,0.00013159061,0.0017681464,-0.015453291,-0.095768064,-0.05746084,-9.595961,0.7150385,47.674347,-0.61495334,-2.2920153,-3.3040729,-0.36031014,0.06403073,-0.110344395,28.0625,29.1875,28.3125,32.25,34.375,35.3125
0.04405407,-1.6464558,-1.1949345,-1.4871433,-0.008099441,0.026816256,-0.1516914,-0.38140544,-0.34847015,0.05982894,-3.078369,0.6249842,-0.00049040804,-0.021631343,0.001051275,0.0009486191,-0.004169739,0.0047667515,-0.0062357876,0.47735837,-1.4251333,1.957115,-2.100797,-1.570733,2.4523983,-0.022822939,0.029491775,-0.035846528,0.00019767313,0.0014285243,-0.016567264,-0.15322891,0.0,-9.634268,0.7553206,47.635834,-0.6784828,-2.2622838,-3.3935099,-0.3626479,0.06359834,-0.12000937,28.0625,29.1875,28.3125,32.25,34.375,35.3125
0.046053495,-1.8565428,-1.5014197,-1.4540129,-0.015278039,0.020618172,-0.15102234,-0.38148603,-0.34846687,0.059843417,-3.0783958,0.6250282,-0.00039179964,-0.022424333,0.0011817642,0.0010773188,-0.0040748487,0.005204065,-0.0060387845,0.47728607,-1.4250611,1.9570078,-2.1008327,-1.5707453,2.4523501,-0.023597065,0.03030976,-0.037094723,0.00028384238,0.0011420539,-0.017537009,-0.11492168,0.1340753,-9.557653,0.7486078,47.709274,-0.6002686,-2.2461164,-3.3575344,-0.3610093,0.07679341,-0.14056778,28.0625,29.1875,28.3125,32.25,34.375,35.3125
0.048053287,-1.263746,-1.2392642,-1.3497919,-0.029303337,0.033756103,-0.17600338,-0.38150597,-0.34847236,0.059848905,-3.0783892,0.6251235,-0.00042859127,-0.024010958,0.0012860908,0.001969819,-0.0046466333,0.0068668793,-0.0072062383,0.47726154,-1.425025,1.9569458,-2.1007965,-1.570721,2.452386,-0.025078712,0.030692402,-0.03967679,0.00074497476,0.0008814727,-0.017849447,-0.038307227,0.21068975,-9.519346,0.7418897,47.687782,-0.55997014,-2.2014024,-3.3672247,-0.35684246,0.0967062,-0.13719037,28.0625,29.1875,28.3125,32.25,34.375,35.3125
0.050053358,-1.2035794,-1.5630558,-1.4105937,-0.028253598,0.017359478,-0.18121846,-0.38158584,-0.34846893,0.059871957,-3.0784233,0.62512994,-0.00033149612,-0.024304021,0.0015669925,0.0017415921,-0.0039200718,0.0053415056,-0.0070006987,0.4771893,-1.4249648,1.956827,-2.100808,-1.570733,2.4523134,-0.025881246,0.03202274,-0.041072704,0.0024987436,0.00093915587,-0.018857004,-0.038307227,0.28730422,-9.557653,0.80679786,47.704796,-0.5522255,-2.0991704,-3.3990638,-0.35371596,0.096459955,-0.14797169,28.0625,29.1875,28.3125,32.25,34.375,35.3125
0.052053966,-1.2722826,-1.802881,-1.4658736,-0.035193156,0.0039005699,-0.18150982,-0.38161856,-0.34846982,0.05985344,-3.0784173,0.6251676,-0.0003585549,-0.024949633,0.0019920187,0.00091432873,-0.002944677,0.0033314219,-0.0074391193,0.47715285,-1.42488,1.9567779,-2.1008313,-1.570721,2.4523013,-0.02726813,0.03480781,-0.042578857,0.0034533008,0.0009944338,-0.019804578,-0.038307227,0.34476504,-9.519346,0.72622824,47.711063,-0.55993444,-2.1382585,-3.3307855,-0.3643285,0.08337273,-0.17617041,28.0625,29.1875,28.3125,32.25,34.375,35.3125
0.054053362,-1.0309286,-2.0055265,-1.4748888,-0.052089684,0.015088183,-0.17276502,-0.38166928,-0.34847334,0.05987308,-3.078449,0.6251357,-0.00034060277,-0.026194029,0.0016973639,0.0012126773,-0.0038927041,0.004276843,-0.0072347624,0.47710449,-1.4248315,1.9566697,-2.100796,-1.5707091,2.452229,-0.028152639,0.03613867,-0.044660598,0.0029276975,0.0013970535,-0.020892799,-0.095768064,0.3256114,-9.576807,0.7911258,47.694946,-0.62973297,-2.2581863,-3.4223707,-0.37194386,0.09283663,-0.19302171,28.0625,29.1875,28.3125,32.25,34.375,35.3125
0.056054223,-1.5275815,-2.4023497,-1.526152,-0.056169007,0.011177024,-0.14447106,-0.3817302,-0.34845594,0.059883103,-3.0784168,0.6252434,-0.000302381,-0.027471501,0.0010887921,0.0027421487,-0.0063047926,0.007137542,-0.00639049,0.4770324,-1.424772,1.9565734,-2.1007717,-1.5707325,2.4522283,-0.028780743,0.03495901,-0.046717655,0.0025120038,0.0022211515,-0.022365736,-0.13407528,0.45968673,-9.595961,0.7620334,47.690468,-0.5765923,-2.1665134,-3.3700774,-0.34938985,0.10736142,-0.18022764,28.0625,29.1875,28.3125,32.25,34.375,35.3125
0.058054384,-1.3777984,-2.5512383,-1.5557488,-0.0585678,0.02820488,-0.15274197,-0.38175872,-0.3484323,0.059847794,-3.0783596,0.62521267,-0.00039285488,-0.028246684,0.0010443045,0.0025170958,-0.0064965035,0.0069188233,-0.0060726767,0.476972,-1.4246638,1.9565252,-2.1007478,-1.5707449,2.452156,-0.029588053,0.03662464,-0.048058093,0.0022918398,0.0024866767,-0.02349058,-0.1340753,0.45968673,-9.595961,0.779936,47.688675,-0.6278892,-2.0351527,-3.3133082,-0.32802922,0.109369054,-0.2007527,28.0625,29.1875,28.3125,32.25,34.375,35.3125
0.06005357,-1.5387622,-2.1673353,-1.329171,-0.05816339,0.028819509,-0.155346,-0.38184157,-0.34845468,0.05988466,-3.078446,0.62530655,-0.00028321522,-0.028813507,0.001153793,0.0015964813,-0.0057755895,0.0048806565,-0.005344924,0.47691172,-1.4246147,1.9563931,-2.100784,-1.5707086,2.4521434,-0.030492837,0.03978494,-0.049702797,0.0029176748,0.0027825322,-0.025122147,-0.15322891,0.4405331,-9.576807,0.76874626,47.690468,-0.55392057,-2.1201246,-3.3970819,-0.3201298,0.110545255,-0.21483353,28.0625,29.1875,28.3125,32.25,34.375,35.3125
0.062054165,-1.0514075,-1.8359694,-1.3986089,-0.04798558,0.03801868,-0.14499038,-0.38186327,-0.3484632,0.059871607,-3.0784578,0.62528956,-0.0003876499,-0.031050827,0.00032972803,0.003495124,-0.0075531304,0.008228071,-0.004744812,0.47687548,-1.4245306,1.9563187,-2.1007473,-1.5706605,2.452095,-0.031113748,0.040130313,-0.054616474,0.003697241,0.0028151374,-0.026340997,-0.019153614,0.4213795,-9.404425,0.71279734,47.68062,-0.6143621,-2.1439261,-3.1728168,-0.33323774,0.109087065,-0.23009035,28.0625,29.1875,28.3125,32.25,34.375,35.3125
0.064053714,-1.6541284,-1.790515,-1.4151157,-0.028592508,0.0130579,-0.14171961,-0.38196442,-0.34847546,0.059904106,-3.0785232,0.62530154,-0.00026042774,-0.029817987,0.00080597046,0.00076301914,-0.0053388663,0.0027825614,-0.0030248754,0.47680348,-1.4244455,1.9561528,-2.1007712,-1.57066,2.4520223,-0.031164682,0.044165682,-0.053033516,0.003931461,0.0033540304,-0.028112713,-0.019153614,0.4213795,-9.346964,0.76874626,47.689575,-0.63922465,-2.168912,-3.3460808,-0.33483928,0.11326221,-0.2256436,28.0625,29.1875,28.3125,32.25,34.375,35.3125
0.06605384,-1.185431,-1.6269398,-1.1975088,-0.030391136,0.020689756,-0.14776471,-0.38200873,-0.34845808,0.059885852,-3.0784967,0.6252572,-0.00023787547,-0.031369146,0.0001198683,0.0018869593,-0.00748529,0.0050128247,-0.0025836444,0.4767552,-1.4243613,1.9561042,-2.100796,-1.5706962,2.4519498,-0.031942654,0.044469733,-0.055848032,0.003471214,0.004230137,-0.029331934,-0.11492168,0.3256114,-9.404425,0.784413,47.6636,-0.70794576,-2.2046812,-3.3323417,-0.32726032,0.102560535,-0.23096067,28.0625,29.1875,28.3125,32.25,34.375,35.3125
0.068053484,-1.2550594,-1.5023139,-1.1102841,-0.025622403,0.026458481,-0.14947648,-0.3820925,-0.34846786,0.059917536,-3.078527,0.6253396,-0.00014846647,-0.033172388,-0.00056420604,0.0033972636,-0.009152465,0.008287357,-0.0015490832,0.47669515,-1.4242897,1.9559473,-2.100784,-1.5706962,2.4519374,-0.032366645,0.04445912,-0.059223227,0.0031827951,0.00420335,-0.030788388,-0.11492168,0.2681506,-9.289502,0.7933669,47.698532,-0.72105974,-2.0320058,-3.2081132,-0.30521536,0.10175227,-0.25611156,28.0625,29.1875,28.3125,32.25,34.375,35.3125
0.07005412,-1.2222205,-1.3111843,-0.9031448,-0.020366384,0.032108024,-0.14992663,-0.38213965,-0.3484653,0.059928555,-3.078559,0.62528706,-0.00020027875,-0.034317058,-0.0014242261,0.0031732882,-0.009670238,0.007913273,-0.00029636722,0.47662327,-1.4242285,1.9558386,-2.100724,-1.5706595,2.4518287,-0.032297067,0.047914416,-0.06267861,0.0032768284,0.0048280153,-0.03197037,-0.17238252,0.22984336,-9.346964,0.800085,47.704796,-0.7388402,-2.1235476,-3.1372359,-0.2902304,0.108864635,-0.25132236,28.0625,29.1875,28.3125,32.25,34.375,35.3125
0.07205374,-1.8658746,-1.1588854,-0.9235254,-0.019160833,0.02327512,-0.14420907,-0.3822388,-0.34846285,0.05993646,-3.0785482,0.6253426,-0.00010904542,-0.033449404,-0.0007374514,0.0016033084,-0.008530989,0.0041002408,0.00022680289,0.47655085,-1.4240962,1.9556721,-2.1007354,-1.5706958,2.4517925,-0.033190385,0.049571324,-0.061153732,0.004002205,0.005571817,-0.033388514,-0.15322891,0.22984336,-9.270349,0.68818194,47.72092,-0.8034773,-2.2498202,-3.1939454,-0.313125,0.10214549,-0.24098545,28.0625,29.1875,28.3125,32.25,34.375,35.3125
0.07405356,-1.6041973,-0.87028766,-0.68980163,-0.014061176,0.03331627,-0.14568804,-0.3822948,-0.34847564,0.05993652,-3.0785823,0.6254067,-0.00014048774,-0.034626186,-0.0011580717,0.0021703753,-0.009246007,0.004274725,0.000824687,0.47649065,-1.4239999,1.955562,-2.100735,-1.5706476,2.451768,-0.033881288,0.0510687,-0.064465925,0.0053339093,0.006123801,-0.034676496,-0.2681506,0.19153613,-9.308657,0.779936,47.717335,-0.91825384,-2.1367245,-3.1066113,-0.31567994,0.097927526,-0.26173282,28.0625,29.1875,28.3125,32.25,34.375,35.3125
0.07605397,-1.0690188,-0.4987704,-0.7163539,-0.011070988,0.044536535,-0.15454443,-0.3823641,-0.34846425,0.0599294,-3.0785818,0.6254065,-0.0001418999,-0.035319563,-0.0010141949,0.002036463,-0.008618494,0.0041849,0.0010838235,0.47640646,-1.4238917,1.9554547,-2.100735,-1.5706476,2.4516838,-0.034432508,0.052497305,-0.065876015,0.0056853713,0.005605643,-0.035485167,-0.19153613,0.19153613,-9.155427,0.75084364,47.72271,-0.93897045,-2.1500962,-3.0899334,-0.3025748,0.09164666,-0.26411223,28.0625,29.1875,28.3125,32.25,34.375,35.3125
0.07805377,-1.2785778,-0.47661152,-0.79375577,-0.008092005,0.036494214,-0.16024575,-0.38244772,-0.34848937,0.05996105,-3.078671,0.6253273,-6.269872e-05,-0.036217097,-0.0015288081,0.0025066477,-0.009319696,0.0052733435,0.0021186671,0.4763584,-1.4238076,1.9552864,-2.100735,-1.5706238,2.451575,-0.03441787,0.053410374,-0.06797161,0.005579759,0.005728208,-0.036503885,-0.22984336,0.15322891,-9.155427,0.72622824,47.67345,-0.9407835,-2.1227117,-3.0617604,-0.30146015,0.090780474,-0.2753107,28.0625,29.1875,28.3125,32.25,34.375,35.3125
0.080053225,-2.1018317,-1.7019124,-0.9469166,0.013960457,0.020999836,-0.12997478,-0.38251004,-0.3484947,0.059960287,-3.0786672,0.62530774,-7.798262e-05,-0.03702317,-0.001874302,0.0024058467,-0.009591674,0.0051000477,0.0019022487,0.47631043,-1.4236871,1.9551424,-2.1006992,-1.5706238,2.4515154,-0.034747675,0.055373706,-0.07001345,0.0056866976,0.0060451906,-0.036616534,-0.24899697,0.05746084,-9.155427,0.8112748,47.683304,-1.004055,-2.1482625,-3.1005075,-0.31125617,0.078191414,-0.2958545,28.0625,29.1875,28.3125,32.25,34.375,35.3125
0.08205377,-1.7175552,-0.4377385,-0.81438255,-0.013002358,0.02776079,-0.14466844,-0.382559,-0.34847963,0.059938043,-3.0786498,0.6252843,-0.00012248676,-0.03759433,-0.0017804757,0.0022621946,-0.009773949,0.004029868,0.0026007264,0.47623813,-1.4235787,1.9550694,-2.1006987,-1.5706233,2.4514308,-0.035856698,0.056753352,-0.07148491,0.006644112,0.006695961,-0.03842453,-0.19153613,0.05746084,-9.155427,0.7083204,47.698532,-1.0674412,-2.134238,-3.083139,-0.291108,0.07989807,-0.31918067,28.0625,29.1875,28.3125,32.25,34.375,35.3125
0.08405344,-1.7352684,-1.3280414,-0.9407067,-0.0021043606,0.027475052,-0.1316936,-0.38266864,-0.34846005,0.059955865,-3.0786452,0.6253596,-4.27677e-05,-0.03853561,-0.0018127168,0.002325604,-0.009569399,0.0037029597,0.0040047956,0.47611776,-1.4234704,1.954902,-2.1006858,-1.5706471,2.451358,-0.036633383,0.058532923,-0.07389925,0.007663124,0.0066637355,-0.04060365,-0.2681506,0.11492168,-9.136273,0.7665104,47.711063,-1.0568341,-2.0831766,-3.075364,-0.29213932,0.08144584,-0.28511935,28.0625,29.1875,28.3125,32.25,34.375,35.3125
0.08605352,-1.6518722,-1.4174501,-0.85972595,-0.0064949407,0.032850366,-0.1408503,-0.3827288,-0.3484794,0.05995083,-3.0786881,0.62534916,-0.00011608477,-0.03891098,-0.001857557,0.002645144,-0.009387152,0.0039492184,0.0027795793,0.47605768,-1.4233385,1.9547576,-2.100662,-1.570587,2.451286,-0.036712945,0.05879409,-0.0751239,0.008495092,0.006388261,-0.03945717,-0.24899697,0.19153613,-9.212888,0.76874626,47.696735,-1.0460242,-2.0511444,-3.1039312,-0.3053301,0.08070159,-0.29686084,28.0625,29.1875,28.3125,32.25,34.375,35.3125
0.088053934,-1.618757,-1.3971215,-0.9204985,-0.016014582,0.03868705,-0.14758432,-0.38284907,-0.34850544,0.06000155,3.0786757,-0.62530875,-3.0659103e-05,-0.039453655,-0.0016282281,0.00065737613,-0.007299507,0.0005218132,0.001957191,0.47598538,-1.4232404,1.9545296,-2.100662,-1.5705751,2.4511902,-0.037426803,0.06429574,-0.07694503,0.008819566,0.006105659,-0.0393457,-0.19153613,0.22984336,-9.251195,0.784413,47.674347,-1.1139276,-2.2627192,-3.0778093,-0.3046528,0.086656384,-0.36139476,28.0625,29.1875,28.3125,32.25,34.375,35.3125
0.09005373,-1.3588126,-1.2936345,-1.1939796,-0.02960436,0.04771064,-0.14676233,-0.38288203,-0.34847307,0.059961595,-3.078697,0.6252924,-9.116921e-05,-0.04061708,-0.0019593742,0.002842122,-0.009513145,0.0043030432,0.0040710354,0.47591332,-1.4231095,1.9544576,-2.100602,-1.5705994,2.4511054,-0.038049966,0.061352454,-0.07864266,0.009083942,0.00633329,-0.042083476,-0.17238252,0.30645782,-9.346964,0.7642693,47.686886,-1.1912835,-2.0884256,-3.0895565,-0.32814756,0.084393516,-0.36347222,28.0625,29.1875,28.3125,32.25,34.375,35.3125
0.09205366,-1.566323,-1.5084548,-1.1696537,-0.029894633,0.041449767,-0.14778207,-0.38298452,-0.34848747,0.05998791,3.078713,-0.6253138,4.3401527e-05,-0.041450083,-0.0013212183,0.0021517777,-0.008749788,0.0030226929,0.004141151,0.47582868,-1.4229887,1.954254,-2.100578,-1.5705751,2.4510322,-0.039878506,0.06355002,-0.079650626,0.009384115,0.0062428913,-0.043980848,-0.24899697,0.21068975,-9.404425,0.7396539,47.71286,-1.2013619,-2.0489795,-3.0817132,-0.3266036,0.08052088,-0.33988458,28.0625,29.1875,28.3125,32.25,34.375,35.3125
0.09405415,-1.3755033,-1.4364352,-1.1781127,-0.0328464,0.045603085,-0.14901146,-0.38304374,-0.34849694,0.05996576,3.0787203,-0.62525654,0.00012433676,-0.04205379,-0.0005101351,0.000892689,-0.006941837,0.00060902647,0.006288017,0.47576803,-1.4228315,1.9541224,-2.1005661,-1.5705398,2.450935,-0.041540157,0.066768266,-0.08062939,0.010122361,0.0057393955,-0.047788,-0.19153613,0.21068975,-9.442732,0.7217513,47.70032,-1.1106684,-2.0662537,-3.1059735,-0.33042878,0.094772644,-0.3204595,28.0625,29.1875,28.3125,32.25,34.375,35.3125
0.096053466,-1.5917826,-1.495062,-1.1698906,-0.035148542,0.036550026,-0.14061834,-0.3831456,-0.34849766,0.059976734,3.0786874,-0.62521267,0.00010647896,-0.04294976,-0.0007341883,0.00092498894,-0.0072964756,0.0009042502,0.0056990213,0.47565982,-1.4226986,1.9539427,-2.1005538,-1.5705155,2.4508035,-0.04206833,0.068293154,-0.08241699,0.009961377,0.0059172953,-0.0477261,-0.22984336,0.2681506,-9.32781,0.779936,47.693153,-1.15755,-2.2129488,-3.1761763,-0.3350034,0.10799442,-0.34147334,28.0625,29.1875,28.3125,32.25,34.375,35.3125
0.09805402,-1.4554859,-1.7902913,-1.2988636,-0.03111465,0.04014484,-0.14233881,-0.38322732,-0.34850007,0.05996534,3.0787258,-0.62519854,8.434177e-05,-0.043622643,-0.0014494067,0.001476855,-0.0079401275,0.0025426762,0.007506428,0.4756123,-1.4225304,1.9537739,-2.1005423,-1.5705518,2.4507425,-0.041290633,0.06881636,-0.08416708,0.009436259,0.005733974,-0.04875457,-0.19153613,0.24899697,-9.423578,0.7642693,47.711964,-1.3402326,-2.090992,-3.218502,-0.31766814,0.09834972,-0.3413684,28.0625,29.1875,28.3125,32.25,34.375,35.3125
0.10005408,-0.7898254,-1.6017655,-1.4763995,-0.03108986,0.05400742,-0.14831628,-0.38333097,-0.34848776,0.059973974,3.0786927,-0.62523025,9.5979085e-05,-0.044883627,-0.00038453226,0.0007045865,-0.0074716685,0.00081226195,0.008053503,0.47547904,-1.4223976,1.9535941,-2.100506,-1.570527,2.4506333,-0.044566467,0.071254216,-0.085300095,0.009885275,0.0061094444,-0.05257713,-0.17238252,0.17238252,-9.423578,0.7620334,47.675243,-1.2375544,-2.105717,-3.0760727,-0.33293557,0.08172354,-0.33227938,28.0625,29.1875,28.3125,32.25,34.375,35.3125
0.10205351,-1.2640542,-1.693362,-1.4684111,-0.025548058,0.0321268,-0.14352186,-0.38342446,-0.34849766,0.05998655,3.0787072,-0.6251365,5.7310855e-05,-0.044844102,8.481302e-05,-0.0005499677,-0.006943333,-0.0017310767,0.009748318,0.47541863,-1.4222525,1.9533914,-2.1004703,-1.5705394,2.4505126,-0.045802977,0.07341091,-0.08489595,0.009824957,0.006805969,-0.05550921,-0.095768064,0.24899697,-9.461885,0.7016076,47.689575,-1.1924578,-2.210063,-3.2663682,-0.33439195,0.09738484,-0.31238532,28.0625,29.1875,28.3125,32.25,34.375,35.3125
0.104054034,-1.2090715,-1.88253,-1.4129137,-0.020042608,0.026327888,-0.13574244,-0.3835059,-0.3484849,0.059981678,3.0786636,-0.62516594,7.664668e-05,-0.048750788,-0.0002438224,0.0013264858,-0.009308041,0.0026970983,0.009214279,0.47529766,-1.422144,1.9532813,-2.1004822,-1.5705031,2.4504156,-0.048835192,0.07511997,-0.09100166,0.009205052,0.0068686325,-0.058003973,-0.15322891,0.21068975,-9.385271,0.76874626,47.678825,-1.0968274,-2.1968315,-3.1673899,-0.32613584,0.09729001,-0.27719885,28.0625,29.1875,28.3125,32.25,34.375,35.3125
0.1060537,-1.3730644,-1.230153,-1.4366872,-0.031240834,0.024589507,-0.13595632,-0.38361844,-0.34849417,0.05999091,3.0786805,-0.6250323,-1.9313131e-06,-0.04693716,0.00012783986,-0.0007381294,-0.007216729,-0.0009516409,0.013103745,0.4752261,-1.4219753,1.9530672,-2.1004822,-1.570527,2.4502587,-0.047697473,0.07664913,-0.08796318,0.00883873,0.006687484,-0.06075638,-0.21068975,0.24899697,-9.385271,0.8023209,47.693153,-1.2034013,-2.200102,-3.3172524,-0.30627,0.09131788,-0.2308736,28.0625,29.1875,28.3125,32.25,34.375,35.3125
0.10805315,-1.0561635,-1.0534121,-1.2795255,-0.02963346,0.039156377,-0.14784192,-0.3837024,-0.34849644,0.059977744,3.078668,-0.6250286,6.346492e-05,-0.04817625,-6.932421e-05,0.00019736479,-0.008057062,0.00035872633,0.015348772,0.47512978,-1.4218069,1.9528993,-2.1004584,-1.5704912,2.4501617,-0.0485639,0.07689907,-0.09058575,0.009664425,0.006830434,-0.06386705,-0.19153613,0.21068975,-9.3661175,0.7642693,47.694946,-1.2981515,-2.1407037,-3.3663661,-0.31866536,0.08782479,-0.20077851,28.0625,29.1875,28.3125,32.25,34.375,35.3125
0.11005344,-1.8277856,-1.2905688,-1.3206968,-0.014707694,0.0292937,-0.13994774,-0.38378608,-0.34850073,0.059977587,3.0786827,-0.6249351,0.00011796804,-0.049378812,0.00059203344,-0.00022848643,-0.009533861,-0.00082136225,0.014547267,0.47504446,-1.4216505,1.9527072,-2.1003983,-1.5704664,2.4500163,-0.052023787,0.07832465,-0.091141,0.009163889,0.008679945,-0.06652771,-0.095768064,0.05746084,-9.385271,0.8560339,47.696735,-1.1547824,-2.1851642,-3.341363,-0.29853857,0.087283775,-0.17609616,28.0625,29.1875,28.3125,32.25,34.375,35.3125
0.112053856,-1.8571093,-1.3774215,-1.3860749,-0.012077818,0.025760828,-0.13320357,-0.38391095,-0.3485107,0.05999661,3.0786157,-0.624862,5.1874602e-05,-0.05035507,0.00061396684,-0.0002790708,-0.009254891,-0.0004254046,0.016248543,0.47492436,-1.4215056,1.9525036,-2.1004226,-1.5704306,2.4498591,-0.052661944,0.079951145,-0.09286915,0.009046418,0.008252973,-0.068864726,-0.1340753,-0.019153614,-9.442732,0.70608455,47.70838,-1.1016114,-2.0993516,-3.3931155,-0.30379024,0.0754105,-0.121685535,28.0625,29.1875,28.3125,32.25,34.375,35.3125
0.114053875,-1.5210311,-1.0365477,-1.2866304,-0.019778721,0.040700853,-0.13574415,-0.3840166,-0.34850195,0.060004584,3.0786068,-0.6248223,4.9951697e-05,-0.050705444,0.0010324686,-0.0006857398,-0.008470149,-0.0010010891,0.016385289,0.47480416,-1.4213611,1.9523119,-2.1003869,-1.5704187,2.4497154,-0.05342642,0.081020296,-0.09320671,0.009189198,0.007819155,-0.06976498,-0.2681506,0.11492168,-9.32781,0.82022345,47.698532,-1.2866216,-2.1487112,-3.44885,-0.30745476,0.07705741,-0.084732614,28.0625,29.1875,28.3125,32.25,34.375,35.3125
0.116054215,-2.4981112,-1.6096365,-1.3810377,0.000821507,0.026150314,-0.123188645,-0.38412154,-0.34848842,0.05999244,3.078633,-0.6248093,9.6297896e-05,-0.052513998,0.0006959565,0.00027961377,-0.0092105735,0.00084095,0.014354856,0.47468385,-1.4211686,1.9521083,-2.1003382,-1.5704187,2.4495838,-0.05434549,0.08221569,-0.0969166,0.009728363,0.007626692,-0.06865175,-0.36391866,0.11492168,-9.423578,0.7351769,47.711063,-1.2687489,-2.0703645,-3.4136324,-0.31393707,0.072190054,-0.089180276,28.0625,29.1875,28.3125,32.25,34.375,35.3125
0.11805372,-1.340431,-1.1814173,-1.2461169,-0.0060911914,0.060830325,-0.14484915,-0.3842112,-0.34851184,0.059997894,3.0786173,-0.62472856,6.553997e-05,-0.052270543,0.001603062,-0.00065037893,-0.0084183365,-0.0009239592,0.013945235,0.47463536,-1.4210123,1.951917,-2.1003382,-1.5704068,2.449487,-0.055786025,0.08272748,-0.0953595,0.009592395,0.0077344025,-0.06968324,-0.3256114,0.21068975,-9.461885,0.8157518,47.690468,-1.2082397,-2.1008065,-3.4983368,-0.30887932,0.07150152,-0.07503889,28.0625,29.1875,28.3125,32.25,34.375,35.3125
0.12005418,-1.5343578,-1.0194397,-1.246551,-0.016503083,0.054313663,-0.14373586,-0.38435158,-0.3485095,0.06003076,3.078525,-0.62477094,-3.0742294e-06,-0.05487966,0.00071296695,0.00067846995,-0.009937653,0.0017738214,0.009102858,0.47447914,-1.4208794,1.9516872,-2.1003268,-1.5703706,2.449369,-0.05664727,0.08493991,-0.10101513,0.009944102,0.007847587,-0.065698534,-0.3256114,0.13407528,-9.442732,0.8314132,47.690468,-1.2426493,-1.9848502,-3.4774733,-0.3062486,0.06131497,-0.07996273,28.0625,29.1875,28.3125,32.25,34.375,35.3125
0.12205367,-1.8807535,-1.0480173,-1.1931642,-0.017325616,0.0467391,-0.14155169,-0.38444316,-0.34849325,0.05999356,3.078571,-0.6247229,9.7374905e-05,-0.05519402,0.0012778196,0.0006463506,-0.009860412,0.0016515837,0.006651934,0.47435868,-1.4206632,1.9515194,-2.100303,-1.5703586,2.4492128,-0.05790677,0.08474082,-0.10075031,0.010023931,0.0078313,-0.06450787,-0.40222588,0.076614454,-9.423578,0.7665104,47.687782,-1.1712053,-2.1044383,-3.459785,-0.2954186,0.0731435,-0.08479296,28.0625,29.1875,28.3125,32.25,34.375,35.3125
0.12405417,-1.7387533,-1.2342807,-1.4250897,-0.01331011,0.04946558,-0.13656515,-0.38453534,-0.34850895,0.060000245,3.078545,-0.6246409,7.7383185e-05,-0.057216223,0.00053346483,0.0022075,-0.012565186,0.0046876566,0.006400321,0.47428632,-1.420519,1.9513391,-2.100303,-1.5703343,2.4490926,-0.05907802,0.08478288,-0.10426937,0.00956342,0.008845187,-0.06542675,-0.38307226,0.1340753,-9.442732,0.8493211,47.687782,-1.1833068,-1.8441163,-3.4466105,-0.3043877,0.07520203,-0.10582833,28.0625,29.1875,28.3125,32.25,34.375,35.3125
0.1260535,-1.7819705,-1.290787,-1.5231357,-0.011069565,0.05072937,-0.13852666,-0.3846539,-0.34848422,0.059989788,3.0785806,-0.6246696,0.00012640997,-0.057983402,0.0009114226,0.0009903962,-0.010916008,0.0025485938,0.001364921,0.47414187,-1.4203134,1.9511112,-2.100231,-1.5703467,2.4489617,-0.060108203,0.08870038,-0.10612883,0.010162701,0.008349683,-0.061419915,-0.28730422,0.11492168,-9.5385,0.7642693,47.66987,-1.2696168,-1.9785601,-3.3736978,-0.30256933,0.05803954,-0.12568527,28.0625,29.1875,28.3125,32.25,34.375,35.3125
0.12805407,-1.9822018,-1.3819425,-1.4310462,-0.021879513,0.052015122,-0.14294729,-0.38478404,-0.34848997,0.060007468,3.0785046,-0.6246754,7.445967e-05,-0.059047565,0.0010551717,0.0021252993,-0.011953237,0.0044908184,-0.0019760851,0.47400954,-1.4201578,1.9508952,-2.1002424,-1.5703105,2.4488428,-0.06133462,0.087535396,-0.10746771,0.010467631,0.008388794,-0.059304394,-0.47884035,0.15322891,-9.519346,0.81351066,47.689575,-1.2571167,-1.8136721,-3.455649,-0.30908963,0.06956076,-0.16304639,28.0625,29.1875,28.3125,32.25,34.375,35.3125
0.1300539,-2.0932019,-1.5367085,-1.5027531,-0.031474885,0.055974253,-0.13383871,-0.3849031,-0.3484674,0.05999929,3.0785232,-0.6246814,5.2334555e-05,-0.06112094,0.0019111097,0.0018832076,-0.012127487,0.0043748077,-0.0060313153,0.47387636,-1.4199767,1.950704,-2.100231,-1.5703348,2.4487112,-0.064855024,0.09000611,-0.10971369,0.010265427,0.00859256,-0.05876834,-0.49799395,0.17238252,-9.576807,0.7486078,47.63315,-1.1175984,-1.8516762,-3.3994436,-0.3205186,0.05194545,-0.18241383,28.0625,29.1875,28.3125,32.25,34.375,35.3125
0.13205343,-1.7933652,-1.6218,-1.6099917,-0.036722817,0.06840761,-0.14124587,-0.38502574,-0.3484811,0.06000368,3.0784755,-0.6246887,8.5702595e-05,-0.060810305,0.00062582607,0.00194083,-0.012354603,0.004345955,-0.0040023862,0.47375724,-1.419772,1.9504513,-2.1001947,-1.5702866,2.4486027,-0.06240942,0.09128416,-0.11140244,0.010601166,0.008806673,-0.05835091,-0.4405331,0.21068975,-9.557653,0.7150385,47.703007,-1.2723222,-1.8188853,-3.4012728,-0.30162162,0.055653676,-0.22226088,28.0625,29.1875,28.3125,32.25,34.375,35.3125
0.13405396,-1.8297052,-1.5593097,-1.5028075,-0.04752995,0.07747108,-0.14198467,-0.38516167,-0.34849426,0.060031727,3.07843,-0.6246425,1.2218341e-05,-0.06247257,0.001160995,0.0017746931,-0.012249853,0.0043997555,-0.0063213753,0.4736483,-1.4196033,1.9501885,-2.1001709,-1.5702742,2.4484708,-0.06477454,0.09350423,-0.11356771,0.010548447,0.008689252,-0.058394894,-0.4405331,0.19153613,-9.634268,0.800085,47.690468,-1.2054604,-1.8149908,-3.4506822,-0.30841723,0.053606447,-0.24689919,28.0625,29.1875,28.3125,32.25,34.375,35.3125
0.13605411,-2.180579,-1.8808488,-1.7781202,-0.035342947,0.062768914,-0.13708624,-0.38527623,-0.34846914,0.060034744,3.0784626,-0.6246511,1.8134684e-05,-0.06500034,0.0023569996,0.0021273226,-0.012744419,0.0057693305,-0.010578892,0.47351485,-1.4194347,1.949972,-2.1000988,-1.5702986,2.4483387,-0.06905246,0.09468417,-0.11560637,0.009963228,0.00849896,-0.058414005,-0.40222588,0.21068975,-9.634268,0.7933669,47.684196,-1.0965873,-1.6654556,-3.365003,-0.31110752,0.058336493,-0.25523525,28.0625,29.1875,28.3125,32.25,34.375,35.3125
0.13805366,-2.120278,-1.7386721,-1.7238237,-0.029953973,0.05289228,-0.13861062,-0.38541374,-0.34845614,0.060025442,3.0783784,-0.6247678,2.2552518e-05,-0.06546056,0.001436215,0.0014976329,-0.012530768,0.004934685,-0.009054408,0.47333544,-1.4192412,1.9497799,-2.100135,-1.5702509,2.448243,-0.06793388,0.0981252,-0.11810698,0.009866918,0.008687759,-0.05881809,-0.28730422,0.2681506,-9.576807,0.82022345,47.66987,-1.1082833,-1.8302929,-3.3366747,-0.3036988,0.04460693,-0.2962538,28.0625,29.1875,28.3125,32.25,34.375,35.3125
0.1400537,-1.7598754,-1.8174331,-1.8386035,-0.030825736,0.05374503,-0.13792248,-0.38556278,-0.34846473,0.060047645,3.0783353,-0.6247587,-6.264677e-05,-0.06693485,0.0019123693,-0.00022662523,-0.010944097,0.0025292472,-0.010241848,0.4732146,-1.4190474,1.9495043,-2.1001232,-1.5702509,2.448122,-0.06989003,0.1038185,-0.120648,0.009581388,0.008371162,-0.05958368,-0.36391866,0.24899697,-9.595961,0.88289046,47.674347,-1.1495934,-1.9117996,-3.3726397,-0.29684678,0.054769702,-0.31039625,28.0625,29.1875,28.3125,32.25,34.375,35.3125
0.14205371,-1.3209226,-1.319099,-1.7441462,-0.0326538,0.05923896,-0.13812459,-0.3856877,-0.34846735,0.060053095,3.0782955,-0.6247711,-4.250678e-05,-0.06929798,0.0020468913,0.0016744706,-0.012873892,0.006483735,-0.01189718,0.4730818,-1.4188552,1.9492635,-2.1000874,-1.5702146,2.448002,-0.072194815,0.102615595,-0.12356406,0.009304818,0.008282226,-0.060231682,-0.40222588,0.30645782,-9.576807,0.68818194,47.695843,-1.0601983,-1.9606403,-3.191034,-0.29466987,0.06247197,-0.3273801,28.0625,29.1875,28.3125,32.25,34.375,35.3125
0.14405325,-1.4684205,-1.1738278,-1.4724239,-0.034199063,0.056772362,-0.14702538,-0.385846,-0.34844053,0.060067542,3.0782835,-0.62486553,-0.00011872677,-0.07114286,0.001678793,0.001170656,-0.013115765,0.005811823,-0.013430805,0.47291338,-1.4186615,1.9490002,-2.1000512,-1.5702509,2.4478943,-0.073524915,0.10711441,-0.12759365,0.009320903,0.008798828,-0.0600258,-0.4213795,0.22984336,-9.615114,0.7172743,47.640312,-1.0396096,-1.9400585,-3.2285244,-0.26778445,0.060462676,-0.37417927,28.0625,29.1875,28.3125,32.25,34.375,35.3125
0.1460539,-1.353861,-1.2799401,-1.3999457,-0.04211729,0.06834049,-0.15164626,-0.3859569,-0.3484543,0.060053535,3.0782614,-0.6247833,-7.012435e-05,-0.0715279,0.00197074,0.0012355135,-0.0132687865,0.0061870213,-0.013574355,0.4728052,-1.4184457,1.9487847,-2.1000512,-1.5702022,2.4477377,-0.074343234,0.10701378,-0.1275761,0.009004589,0.00876493,-0.060700558,-0.4213795,0.22984336,-9.519346,0.8179876,47.684196,-1.0189816,-2.0051079,-3.2291093,-0.27002707,0.051432062,-0.41842794,28.0625,29.1875,28.3125,32.25,34.375,35.3125
0.1480538,-2.0368207,-1.8258073,-1.2533389,-0.041556567,0.06518437,-0.14448074,-0.38611844,-0.34843722,0.06006158,3.078203,-0.6249069,-7.4561525e-05,-0.07282363,0.0020832608,0.0011845041,-0.01305886,0.0060864063,-0.014381692,0.47261274,-1.4182284,1.9485091,-2.1000154,-1.5701789,2.44763,-0.075591244,0.10923484,-0.13015226,0.009548714,0.00862327,-0.061139427,-0.4213795,0.3256114,-9.404425,0.8179876,47.67614,-1.0215509,-1.9431908,-3.1755319,-0.26185328,0.05333808,-0.42413056,28.0625,29.1875,28.3125,32.25,34.375,35.3125
0.15005341,-1.9607483,-1.6197985,-1.2536972,-0.03666126,0.07679442,-0.1448625,-0.38628292,-0.3484534,0.06008405,3.0781133,-0.62494475,-0.00014005128,-0.07341045,0.0028278637,0.0007046915,-0.01233931,0.0045079365,-0.01382808,0.4724682,-1.4180117,1.9482092,-2.100015,-1.5701426,2.4475205,-0.07745986,0.11071203,-0.13103244,0.010689081,0.008709492,-0.06356063,-0.4405331,0.38307226,-9.461885,0.7777002,47.67614,-1.0171746,-1.940119,-3.1581316,-0.27832633,0.061665647,-0.4510035,28.0625,29.1875,28.3125,32.25,34.375,35.3125
0.15205407,-1.9221755,-1.7451069,-1.3752155,-0.031247443,0.075212486,-0.14182448,-0.38642868,-0.34845996,0.060095854,3.0780556,-0.6249332,-0.00016324504,-0.07493685,0.0026098771,0.0014142287,-0.013849477,0.006041005,-0.013669281,0.47232375,-1.4178072,1.947945,-2.1000035,-1.5701064,2.4473763,-0.078843415,0.11139602,-0.13336527,0.010287698,0.009356147,-0.0651019,-0.45968673,0.2873042,-9.423578,0.75084364,47.694054,-1.0027053,-1.887763,-3.065186,-0.26664263,0.034143925,-0.46889582,28.0625,29.1875,28.3125,32.25,34.375,35.3125
0.15405403,-2.6078343,-1.8956736,-0.9978306,-0.029689189,0.05396111,-0.13902348,-0.38658506,-0.34843385,0.06010721,3.0780592,-0.62493056,-0.00018664356,-0.07638253,0.0031055077,0.0012133638,-0.0137223955,0.006324475,-0.009950875,0.47214302,-1.4176023,1.9476703,-2.0999434,-1.5701183,2.4471936,-0.08083941,0.11328235,-0.13498954,0.009835697,0.009115374,-0.07081487,-0.45968673,0.21068975,-9.308657,0.7978386,47.694946,-0.895334,-1.8514975,-3.326443,-0.25250828,0.047272004,-0.43334264,28.0625,29.1875,28.3125,32.25,34.375,35.3125
0.15605395,-1.8730079,-1.1504589,-0.9147116,-0.0349146,0.060465794,-0.1404946,-0.3867446,-0.3484341,0.060101572,3.0780075,-0.624997,-0.00026009607,-0.076838374,0.003898949,0.00045333302,-0.012051507,0.0054222886,-0.009016852,0.47199872,-1.4173617,1.9474181,-2.0999916,-1.5701188,2.4470975,-0.08192797,0.11494322,-0.13521841,0.009973213,0.008044352,-0.072835706,-0.53630114,0.17238252,-9.232041,0.77545905,47.690468,-0.85404444,-1.9239936,-3.2323675,-0.23980379,0.063746504,-0.4317022,28.0625,29.1875,28.3125,32.25,34.375,35.3125
0.15805337,-1.8694608,-1.2386742,-0.9176266,-0.012303596,0.05210559,-0.14550546,-0.38688588,-0.34842235,0.06009311,3.0779827,-0.6249701,-0.00019641223,-0.07786065,0.0036803416,0.00036736333,-0.01227243,0.0056561143,-0.0052041495,0.47181848,-1.4171331,1.9471668,-2.0999558,-1.5700706,2.4469037,-0.08248852,0.11692085,-0.13726375,0.009739331,0.008133391,-0.077207856,-0.4405331,0.11492168,-9.174581,0.8224646,47.698532,-0.8305686,-1.8849235,-3.2842817,-0.22423443,0.06464299,-0.42404073,28.0625,29.1875,28.3125,32.25,34.375,35.3125
0.16005372,-1.4494969,-0.97162026,-0.7600548,0.0030231217,0.04756843,-0.1469362,-0.3870789,-0.34844127,0.060136404,3.077885,-0.6249465,-0.00033325903,-0.07946717,0.0046417746,0.00034931218,-0.012940576,0.005644413,-0.00014549273,0.47166133,-1.4169163,1.9468192,-2.0999558,-1.5700468,2.4467444,-0.0859944,0.11792512,-0.1383506,0.009534642,0.008749069,-0.08577113,-0.28730422,0.05746084,-9.136273,0.83589023,47.675243,-0.7455307,-1.871619,-3.2563992,-0.21694952,0.051670518,-0.34294426,28.0625,29.1875,28.3125,32.25,34.375,35.3125
0.16205354,-1.2934808,-0.35169703,-0.56176585,0.0054795896,0.044885974,-0.14777336,-0.3872352,-0.34841156,0.06011819,3.0779042,-0.62498564,-0.0003396476,-0.07948702,0.003288929,0.0002755397,-0.013007322,0.005606467,0.004864077,0.47148225,-1.4166633,1.9465674,-2.0999434,-1.5700706,2.4465876,-0.08363003,0.120101094,-0.14076513,0.009777467,0.008823779,-0.0884151,-0.21068975,0.038307227,-9.040505,0.81351066,47.684196,-0.8383475,-2.0006666,-3.2936747,-0.19276842,0.06491146,-0.30251318,28.0625,29.1875,28.3125,32.25,34.375,35.3125
0.16405396,-1.658166,-0.24378856,-0.43329978,0.015194178,0.03027689,-0.13135388,-0.3874061,-0.34840783,0.06013262,3.0778534,-0.62497324,-0.0003198549,-0.08019806,0.0036756787,-6.216459e-05,-0.013497826,0.004260689,0.00884907,0.4712896,-1.4164226,1.9462446,-2.0998838,-1.5700225,2.4463937,-0.08559082,0.121533066,-0.1417985,0.010360984,0.00987941,-0.0943609,-0.22984336,-0.038307227,-9.002198,0.75084364,47.666286,-0.89229935,-1.8035954,-3.3467143,-0.1978265,0.04686295,-0.25386038,28.0625,29.1875,28.3125,32.25,34.375,35.3125
0.16605377,-1.2443743,-0.36921963,-0.480048,0.03230947,0.033997383,-0.14219528,-0.38758075,-0.34840184,0.060142815,3.0777898,-0.62488264,-0.00038509959,-0.081403375,0.0037917462,0.00069342076,-0.014160571,0.0052471086,0.010170467,0.4710971,-1.4162064,1.9459809,-2.099919,-1.5699857,2.446153,-0.08693681,0.12172684,-0.14394663,0.011142189,0.010031294,-0.09702671,-0.1340753,-0.076614454,-8.963891,0.77545905,47.701214,-0.7259814,-1.8417587,-3.3624167,-0.16546315,0.04397928,-0.18891463,28.0625,29.1875,28.3125,32.25,34.375,35.3125
0.16805336,-1.3459537,-0.11309414,-0.5953131,0.027830306,0.018404273,-0.14091328,-0.38773915,-0.34838864,0.06012409,3.0778224,-0.6248675,-0.0004190601,-0.08113281,0.0031473096,-0.00045132366,-0.012412417,0.0034911295,0.013186381,0.47095385,-1.4159288,1.9457048,-2.099919,-1.5700225,2.4459963,-0.085026436,0.1252296,-0.14548211,0.011534321,0.009270137,-0.09813062,-0.19153613,-0.1340753,-8.944737,0.7777002,47.691364,-0.9883511,-1.8766322,-3.2685814,-0.16717187,0.042002544,-0.13863884,28.0625,29.1875,28.3125,32.25,34.375,35.3125
0.17005382,-1.0333277,-0.4701275,-0.61384565,0.016281417,0.025028314,-0.1411911,-0.3879027,-0.34838092,0.060137443,3.077772,-0.62481844,-0.0004152609,-0.08203042,0.0039157984,-0.00062732294,-0.010916749,0.0038826722,0.011998555,0.47076145,-1.4157121,1.9454173,-2.0998833,-1.5699748,2.4457798,-0.086179696,0.12629946,-0.14637218,0.011695994,0.007763077,-0.0980943,-0.11492168,-0.05746084,-8.887277,0.83365434,47.661808,-0.9986086,-1.912401,-3.3460045,-0.1557379,0.06753862,-0.124038376,28.0625,29.1875,28.3125,32.25,34.375,35.3125
0.17205365,-0.9230016,-1.1145301,-0.9138079,0.01802478,0.018040271,-0.12707195,-0.3880416,-0.34834558,0.060110226,3.0778224,-0.62481153,-0.00035079368,-0.08324972,0.0037960599,-0.000261662,-0.010435307,0.003895646,0.009234935,0.4705813,-1.4154592,1.9451774,-2.0998342,-1.5699872,2.445589,-0.08674603,0.12827794,-0.14991575,0.013468278,0.0073181824,-0.09589555,-0.076614454,0.076614454,-9.040505,0.76874626,47.698532,-1.0360825,-1.8739389,-3.2160187,-0.15081865,0.07675889,-0.1215093,28.0625,29.1875,28.3125,32.25,34.375,35.3125
0.17405386,-0.7642686,-1.0323089,-1.0394425,-0.005972737,0.022418845,-0.14022079,-0.3882276,-0.3483527,0.060124785,3.0777998,-0.62477046,-0.00040817706,-0.0833912,0.0035238785,-0.0008612209,-0.010216919,0.0021809582,0.004892005,0.47042525,-1.4151824,1.9448179,-2.099799,-1.5699867,2.4454105,-0.086722255,0.13053972,-0.15136653,0.01428107,0.007901613,-0.091528036,-0.019153614,0.11492168,-9.232041,0.8291774,47.675243,-1.0576794,-1.941112,-3.4257536,-0.15296179,0.058924794,-0.14139551,28.0625,29.1875,28.3125,32.25,34.375,35.3125
0.17605352,-1.0549743,-1.7511452,-1.2022436,-0.022982575,0.009380105,-0.12888144,-0.3883796,-0.34834844,0.060112037,3.0777664,-0.62476456,-0.00038241243,-0.08361412,0.0038324415,-0.0024368402,-0.008635553,-0.0015764134,0.0025697385,0.47025698,-1.4149287,1.9445552,-2.099798,-1.5699505,2.445243,-0.087616414,0.13477716,-0.15301365,0.015759498,0.008194895,-0.09009892,-0.05746084,0.30645782,-9.212888,0.800085,47.66808,-1.0708168,-1.9080901,-3.4069073,-0.1769923,0.07202393,-0.1692779,28.0625,29.1875,28.3125,32.25,34.375,35.3125
0.17805323,-1.2556272,-2.243411,-1.4059359,-0.03592942,0.0026332368,-0.1286972,-0.38853487,-0.348319,0.060101833,3.0777926,-0.6248131,-0.00031066706,-0.08568635,0.003379472,0.00083560584,-0.012423061,0.004079165,-0.0052632056,0.4700644,-1.4146658,1.9442543,-2.0997021,-1.56995,2.4450774,-0.08915297,0.13071103,-0.15587156,0.015920354,0.008994442,-0.083802916,-0.038307227,0.38307226,-9.232041,0.83589023,47.640312,-0.9512683,-1.7606809,-3.274713,-0.15680031,0.06912342,-0.24722248,28.0625,29.1875,28.3125,32.25,34.375,35.3125
0.18005392,-0.919416,-2.1791992,-1.6664938,-0.054795664,0.017003413,-0.14266181,-0.3886973,-0.3483107,0.060091276,3.077765,-0.624768,-0.00026025268,-0.08622541,0.002950794,-0.00053856854,-0.011742053,0.0009340625,-0.0056985556,0.46987242,-1.4143994,1.9439663,-2.0996778,-1.5699023,2.444861,-0.08936056,0.13568504,-0.15871663,0.016906695,0.00980872,-0.08357383,-0.038307227,0.47884035,-9.423578,0.7978386,47.693153,-1.0262355,-2.0158634,-3.23358,-0.17594951,0.08283852,-0.26893157,28.0625,29.1875,28.3125,32.25,34.375,35.3125
0.18205336,-1.513958,-2.9809868,-2.0269315,-0.05901599,0.014074195,-0.12711568,-0.38888127,-0.3482956,0.060085226,3.0777507,-0.6248035,-0.0002731495,-0.0867358,0.0038613214,-0.00062928203,-0.011382779,0.00053003343,-0.00630906,0.46967968,-1.4141116,1.9436435,-2.0996535,-1.5699023,2.4446924,-0.09128942,0.13563626,-0.15859368,0.017358849,0.009675631,-0.084892236,-0.019153614,0.59376204,-9.557653,0.79560274,47.689575,-1.0485504,-1.8723195,-3.4763951,-0.16822828,0.07649033,-0.2530916,28.0625,29.1875,28.3125,32.25,34.375,35.3125
0.18405378,-1.783655,-3.3518214,-1.9519802,-0.06504822,0.023147203,-0.12622367,-0.38905412,-0.34830686,0.060114115,3.077705,-0.62483233,-0.00031896518,-0.08693036,0.0034060741,-0.0008643515,-0.0109800445,1.388935e-06,-0.006819377,0.46953604,-1.4138706,1.9432839,-2.099582,-1.5698904,2.4445727,-0.09053993,0.13736577,-0.16019908,0.017890368,0.009557149,-0.083631024,0.05746084,0.6703765,-9.672575,0.784413,47.675243,-1.049023,-1.8707042,-3.386126,-0.16525802,0.07890421,-0.3011234,28.0625,29.1875,28.3125,32.25,34.375,35.3125
0.18605429,-1.552993,-3.2382834,-1.9823136,-0.07503232,0.039668113,-0.13227762,-0.38923287,-0.34829158,0.060094275,3.0777013,-0.6248317,-0.0002624818,-0.088026814,0.0028909817,-0.00087071466,-0.011937478,-0.00017227903,-0.0067594927,0.46933195,-1.4135575,1.9429606,-2.0995457,-1.5698656,2.4443688,-0.09116161,0.13967405,-0.16291152,0.018017638,0.010483411,-0.08431189,-0.076614454,0.63206923,-9.691729,0.8157518,47.689575,-1.1689339,-1.9132249,-3.3742986,-0.18288949,0.09136839,-0.3113147,28.0625,29.1875,28.3125,32.25,34.375,35.3125
0.18805443,-1.4335954,-3.0717676,-1.9892485,-0.08440674,0.05407083,-0.13958539,-0.38941416,-0.34828356,0.06010851,3.0777102,-0.62483484,-0.00027563432,-0.08995654,0.0037556058,-0.0005691623,-0.011627215,0.0013918828,-0.009623339,0.4691628,-1.4132812,1.9425882,-2.0994503,-1.5698785,2.4442008,-0.09373816,0.14070944,-0.16471875,0.017538765,0.009495122,-0.08402292,-0.076614454,0.7278373,-9.710882,0.8493211,47.71554,-0.94072473,-1.8165985,-3.3408618,-0.16147107,0.09080112,-0.34166262,28.0625,29.1875,28.3125,32.25,34.375,35.3125
0.19005424,-1.4239701,-2.8139842,-2.107842,-0.07643169,0.05596692,-0.1367653,-0.3895965,-0.34828824,0.060101356,3.077643,-0.62487656,-0.00029668858,-0.09050461,0.002682071,-7.632721e-05,-0.012349899,0.0028702605,-0.0073367436,0.46898356,-1.4129922,1.9422773,-2.0994747,-1.5698422,2.4440563,-0.09226971,0.14168467,-0.16690676,0.017111735,0.009471585,-0.08483943,-0.038307227,0.6895301,-9.768343,0.8247004,47.698532,-1.1685618,-1.8253177,-3.3419707,-0.16663115,0.09442015,-0.36998788,28.0625,29.1875,28.3125,32.25,34.375,35.3125
0.19205411,-1.5174435,-2.350346,-2.0261729,-0.06707184,0.04333945,-0.12924613,-0.3897599,-0.3482625,0.060086053,3.0776808,-0.6248075,-0.00024799956,-0.0920236,0.0029571063,-0.0014325319,-0.012603721,0.00084713445,-0.007639826,0.4687908,-1.4127142,1.9419783,-2.0994146,-1.5698417,2.4438157,-0.09479993,0.146339,-0.16901843,0.016258825,0.010605626,-0.08706586,-0.038307227,0.4405331,-9.710882,0.85826975,47.72002,-1.1341451,-1.8530233,-3.3125257,-0.16015229,0.10546392,-0.3623308,28.0625,29.1875,28.3125,32.25,34.375,35.3125
0.1940536,-1.5186,-1.8981948,-2.0092146,-0.040114928,0.029552542,-0.13356617,-0.38996089,-0.3482733,0.06008121,3.0776002,-0.624865,-0.00025969394,-0.09306095,0.0030304866,-0.00026809005,-0.013639978,0.003834937,-0.004754499,0.46859857,-1.4123906,1.9416193,-2.099427,-1.569794,2.4436698,-0.095529765,0.14477326,-0.16971901,0.015402268,0.010185784,-0.09068015,-0.095768064,0.3256114,-9.768343,0.8023209,47.687782,-1.1736064,-1.7841681,-3.3415213,-0.12574477,0.09063241,-0.3678633,28.0625,29.1875,28.3125,32.25,34.375,35.3125
0.19605346,-1.0241587,-1.5804027,-2.0390463,-0.025246844,0.034552697,-0.134014,-0.39016843,-0.3482857,0.060118895,3.0775244,-0.624809,-0.0003662753,-0.093213424,0.0028434345,-0.0015899712,-0.013173533,0.0017491222,-3.126201e-05,0.4684184,-1.4121372,1.9412359,-2.0994031,-1.5697697,2.4434645,-0.09562404,0.14812079,-0.1704794,0.014893192,0.0107244905,-0.09549596,-0.11492168,0.22984336,-9.749189,0.8493211,47.689575,-1.1994056,-2.0366926,-3.447144,-0.10681976,0.08146186,-0.3230005,28.0625,29.1875,28.3125,32.25,34.375,35.3125
0.19805446,-1.6334537,-1.2763286,-1.862578,-0.014868116,0.02115588,-0.12708896,-0.39034238,-0.34826458,0.060098697,3.0775125,-0.62484217,-0.00028529012,-0.095057644,0.0026883841,-0.0017335676,-0.013546137,0.0018146057,0.0037848807,0.46820197,-1.4118358,1.9409236,-2.099355,-1.569734,2.4432704,-0.0971409,0.15147348,-0.17406245,0.014906496,0.01102278,-0.100827396,-0.1340753,0.19153613,-9.576807,0.90750587,47.709274,-1.1891332,-2.061167,-3.2620316,-0.107483655,0.09454855,-0.2712183,28.0625,29.1875,28.3125,32.25,34.375,35.3125
0.20005387,-1.1092424,-0.9868195,-1.842702,-0.00015184746,0.041401137,-0.14030877,-0.39056122,-0.34828055,0.06012123,3.0774703,-0.62471265,-0.00041672433,-0.096115,0.0027696195,-0.0020978348,-0.012937288,0.0011006406,0.0108685745,0.46803373,-1.4115347,1.9405278,-2.0993674,-1.569734,2.443027,-0.09803987,0.15418422,-0.17656186,0.0156169245,0.010818168,-0.10880742,-0.076614454,0.076614454,-9.634268,0.83589023,47.70211,-1.1615417,-2.1125133,-3.4425611,-0.11226185,0.08054085,-0.20408168,28.0625,29.1875,28.3125,32.25,34.375,35.3125
0.20205382,-1.7014897,-0.76449716,-1.686244,0.007621582,0.033970203,-0.13062102,-0.39072725,-0.34829402,0.060109094,3.0774536,-0.6245744,-0.00037981797,-0.096072026,0.003244655,-0.0029460664,-0.012607709,-0.0005590303,0.011522226,0.46787742,-1.4112339,1.9402059,-2.099355,-1.5696853,2.4427867,-0.09908094,0.15535264,-0.17599711,0.015520719,0.011277274,-0.110502414,-0.1340753,0.019153614,-9.519346,0.7597976,47.675243,-1.1798279,-2.1713212,-3.4580219,-0.08471148,0.085874446,-0.14978182,28.0625,29.1875,28.3125,32.25,34.375,35.3125
0.2040534,-1.3860437,-0.35541588,-1.2646633,-0.0018392486,0.052834034,-0.13938726,-0.39091554,-0.3482464,0.06007176,3.0774975,-0.62465775,-0.00026146113,-0.09693652,0.0036496301,-0.0027114095,-0.012532528,-0.00029821557,0.014503822,0.46762505,-1.4108853,1.9398698,-2.099271,-1.5696858,2.442581,-0.10038149,0.15584816,-0.17729576,0.01613259,0.011085942,-0.114785075,-0.28730422,-0.1340753,-9.423578,0.87617236,47.704796,-1.2629868,-2.0730321,-3.5702605,-0.070436314,0.09726472,-0.09929629,28.0625,29.1875,28.3125,32.25,34.375,35.3125
0.2060532,-2.19048,-0.59754044,-1.2107325,0.0072223116,0.044397093,-0.13123178,-0.39114133,-0.3482652,0.06011807,3.0773792,-0.62461674,-0.00041471608,-0.0969551,0.004095451,-0.0037541608,-0.010645403,-0.002801181,0.011958956,0.46743277,-1.410632,1.9394745,-2.0992825,-1.5696496,2.4423783,-0.10077078,0.15845285,-0.17830002,0.017623236,0.01054655,-0.112627074,-0.40222588,-0.11492168,-9.3661175,0.8112748,47.69763,-1.1487418,-2.2721832,-3.576662,-0.055152707,0.089836404,-0.06407364,28.0625,29.1875,28.3125,32.25,34.375,35.3125
0.20805407,-1.674295,-0.41233015,-0.9789796,0.010116974,0.06697571,-0.13811845,-0.39133382,-0.34825563,0.06011263,3.077365,-0.6245952,-0.00038954275,-0.09844586,0.004366123,-0.0035205386,-0.010334186,-0.0031808629,0.008532155,0.4672284,-1.4103192,1.9391149,-2.0992343,-1.5696257,2.4421625,-0.10244741,0.16057713,-0.181742,0.019423688,0.0104347505,-0.11087533,-0.51714754,-0.095768064,-9.3661175,0.8784135,47.696735,-1.2252687,-1.9823464,-3.512535,-0.077141695,0.08960453,-0.07636396,28.0625,29.1875,28.3125,32.25,34.375,35.3125
0.21005403,-2.0491126,-0.45968187,-0.9025045,0.010274722,0.065745145,-0.13962515,-0.39150774,-0.3482567,0.060095347,3.077361,-0.6245207,-0.00036508703,-0.10118897,0.0044205817,-0.0015714001,-0.011742333,0.00079173385,0.002923454,0.46705943,-1.410007,1.9387912,-2.099222,-1.5696019,2.4419477,-0.10458956,0.1603262,-0.1860246,0.019778982,0.009891251,-0.10740678,-0.5746084,-0.05746084,-9.212888,0.88289046,47.666286,-1.0042717,-2.000987,-3.4366932,-0.07308893,0.1058664,-0.106699154,28.0625,29.1875,28.3125,32.25,34.375,35.3125
0.21205343,-2.3813062,-0.67014694,-1.1112695,0.009623727,0.06248581,-0.12934777,-0.39174935,-0.3482387,0.06011841,3.077333,-0.62455565,-0.00043520564,-0.10232777,0.0040060324,-0.0011938909,-0.012572544,0.0015081031,-0.001396529,0.46681944,-1.4096823,1.9383472,-2.0991504,-1.5696138,2.4417334,-0.105065346,0.16174887,-0.188609,0.019923123,0.010307047,-0.10356094,-0.6703764,0.05746084,-9.174581,0.8403672,47.691364,-1.1616988,-1.9897692,-3.3215294,-0.057597734,0.102204144,-0.15458907,28.0625,29.1875,28.3125,32.25,34.375,35.3125
0.21405382,-2.2408152,-0.96627486,-0.99865246,-0.0076535316,0.077406295,-0.13476673,-0.391937,-0.3482434,0.060106494,3.0772598,-0.6245644,-0.00039044203,-0.10387218,0.005464164,-0.0011153924,-0.01241077,0.001065279,-0.009309682,0.46661407,-1.4093697,1.9380134,-2.09915,-1.5695418,2.4415429,-0.108976535,0.16234921,-0.18976302,0.020950178,0.010360477,-0.09955843,-0.7661445,0.17238252,-9.270349,0.8403672,47.687782,-1.0392923,-1.981245,-3.3391025,-0.05387407,0.10280091,-0.1874904,28.0625,29.1875,28.3125,32.25,34.375,35.3125
0.21605352,-2.7835512,-1.5062919,-1.1981735,-0.019661443,0.07331801,-0.13468137,-0.39214358,-0.3482257,0.06012325,3.0772877,-0.62453294,-0.00043815747,-0.10517474,0.005892297,-0.00054263504,-0.012399732,0.0015105559,-0.014017649,0.46642146,-1.4090694,1.9376062,-2.0990536,-1.5695776,2.4413273,-0.11068774,0.16301113,-0.19219138,0.022319997,0.0101470165,-0.09656058,-0.7469909,0.24899697,-9.251195,0.83365434,47.695843,-0.9069999,-1.8507011,-3.3784666,-0.064411245,0.10864589,-0.24234697,28.0625,29.1875,28.3125,32.25,34.375,35.3125
0.21805364,-2.0594387,-1.8108537,-1.1506201,-0.04115838,0.10274459,-0.14404604,-0.39233506,-0.34821278,0.06009905,3.0772834,-0.62453234,-0.00035626628,-0.10577701,0.00624554,-0.0013833216,-0.010654925,-0.0003413717,-0.016143078,0.46620533,-1.4087201,1.9372467,-2.099005,-1.5695423,2.4411116,-0.11131142,0.16613486,-0.19425632,0.023706527,0.009415605,-0.09505788,-0.82360536,0.22984336,-9.289503,0.90527004,47.704796,-0.9012768,-1.8252228,-3.345494,-0.078211665,0.1186313,-0.2978919,28.0625,29.1875,28.3125,32.25,34.375,35.3125
0.22005406,-2.9398556,-2.2458189,-0.8507306,-0.043781605,0.09118069,-0.1303694,-0.3925764,-0.34818244,0.060106494,3.0772183,-0.624731,-0.00037316236,-0.107300945,0.005640506,0.00068852864,-0.012876685,0.003310952,-0.016996857,0.46592933,-1.4083843,1.936828,-2.0989454,-1.5695304,2.440968,-0.11173465,0.164482,-0.1971955,0.02403958,0.009757038,-0.094626285,-0.8810662,0.30645782,-9.308657,0.8090337,47.668976,-0.9627018,-1.8398956,-3.2601342,-0.078264244,0.120787136,-0.31310463,28.0625,29.1875,28.3125,32.25,34.375,35.3125
0.22205342,-3.136488,-1.83755,-0.9476529,-0.045704573,0.095326565,-0.13373668,-0.3927743,-0.34820035,0.060109105,3.077184,-0.6246864,-0.00036445365,-0.10795124,0.0051278025,0.00034990386,-0.013018239,0.0036292016,-0.019163596,0.4657614,-1.4080471,1.9364213,-2.0988977,-1.5694941,2.4407768,-0.11133262,0.16659287,-0.19869895,0.023086548,0.009735535,-0.09205623,-0.80445176,0.28730422,-9.2703495,0.83589023,47.687782,-1.0448608,-1.9100507,-3.3792758,-0.070432656,0.13337523,-0.3878469,28.0625,29.1875,28.3125,32.25,34.375,35.3125
0.22405364,-2.665234,-1.5695283,-0.987596,-0.027657349,0.098383434,-0.1346504,-0.3930278,-0.34818396,0.060101718,3.07712,-0.6247501,-0.00037207993,-0.10938431,0.006146505,-0.0004266361,-0.013199262,0.003144542,-0.020130383,0.46548417,-1.407662,1.9359902,-2.0988863,-1.5694584,2.4405477,-0.11455099,0.16864195,-0.19905521,0.021752961,0.010119403,-0.09430702,-0.68953013,0.2681506,-9.251195,0.8179876,47.734352,-0.9116955,-1.8121716,-3.345059,-0.051165808,0.14660172,-0.41462177,28.0625,29.1875,28.3125,32.25,34.375,35.3125
0.22605328,-1.8030216,-1.1720141,-0.829868,-0.017603245,0.09501091,-0.13761552,-0.3932105,-0.3481637,0.06008321,3.0771515,-0.62475425,-0.00033670067,-0.10987103,0.0040353173,0.00072070217,-0.015207247,0.005408039,-0.017948523,0.46529344,-1.4073373,1.9356431,-2.0988262,-1.5694698,2.4403558,-0.11169986,0.16934054,-0.20248577,0.021558478,0.010887741,-0.093636714,-0.63206923,0.19153613,-9.212888,0.8314132,47.69763,-1.0535854,-1.7834384,-3.4398532,-0.045688733,0.1338845,-0.483685,28.0625,29.1875,28.3125,32.25,34.375,35.3125
0.22805397,-1.4521668,-0.35382968,-0.9329852,-0.016582621,0.06312901,-0.1373521,-0.393475,-0.34816158,0.060105253,3.0770466,-0.62484807,-0.00044377494,-0.11169489,0.005632647,-4.3307275e-05,-0.014220456,0.004805737,-0.018554121,0.46503985,-1.4069884,1.9351891,-2.0988266,-1.5694464,2.4401743,-0.11565119,0.17172065,-0.20345911,0.02114387,0.010289905,-0.09698046,-0.38307226,0.24899697,-9.078813,0.86498255,47.67614,-0.8956344,-1.7459494,-3.452841,-0.02185208,0.14860411,-0.48555398,28.0625,29.1875,28.3125,32.25,34.375,35.3125
0.23005337,-0.7820489,-0.8405176,-1.1955124,0.0070127733,0.038815767,-0.14151607,-0.3937104,-0.34814876,0.060088493,3.0770245,-0.62491584,-0.00042724115,-0.11173272,0.0052756704,-0.002161051,-0.012115247,0.0016635548,-0.011045549,0.46480042,-1.4065901,1.9347581,-2.0987904,-1.569434,2.4399803,-0.11467875,0.17729248,-0.20511506,0.020993894,0.009823204,-0.10351504,-0.21068975,0.11492168,-9.11712,0.8873621,47.682407,-1.1041101,-1.8810906,-3.3911996,-0.002463796,0.16656746,-0.45836955,28.0625,29.1875,28.3125,32.25,34.375,35.3125
0.2320539,-0.67008114,-0.6983333,-1.1547941,-0.005064617,0.014716992,-0.13874955,-0.3939178,-0.3481139,0.060073186,3.0770266,-0.62497103,-0.00036990552,-0.113082126,0.005880451,-0.001431067,-0.012631982,0.0032321475,-0.0057586506,0.46454763,-1.406254,1.9343876,-2.098719,-1.5694221,2.4397619,-0.11670568,0.17687652,-0.20636366,0.021038244,0.009586892,-0.11082882,-0.038307227,0.095768064,-9.174581,0.8023209,47.70211,-1.0443202,-1.911606,-3.4082885,-0.010563178,0.1693913,-0.3979473,28.0625,29.1875,28.3125,32.25,34.375,35.3125
0.23405357,-0.73027,-1.2343552,-1.2958136,-0.00664822,0.009907703,-0.13761386,-0.39415726,-0.34812266,0.06006479,3.0769873,-0.624901,-0.00044322407,-0.114015564,0.00635572,-0.0018902752,-0.011956141,0.0022537978,0.00016337998,0.46434313,-1.4058691,1.9339689,-2.0987542,-1.5694102,2.439519,-0.118189275,0.17906302,-0.20807837,0.021757001,0.00943788,-0.11823291,0.0,0.17238252,-9.232041,0.8605109,47.677036,-1.0081868,-1.94571,-3.3971062,0.031698573,0.19996563,-0.34389573,28.0625,29.1875,28.3125,32.25,34.375,35.3125
0.23605411,-1.0136144,-1.4170499,-1.3714387,-0.008722376,0.004951082,-0.13077298,-0.39434296,-0.34808618,0.060036246,3.0770113,-0.62490135,-0.00030158128,-0.11443586,0.0059158057,-0.0022018165,-0.011842181,0.00065227563,0.006927148,0.4640912,-1.4055315,1.9336208,-2.0986578,-1.5693735,2.4392643,-0.11810529,0.18159945,-0.21073313,0.023371572,0.010050769,-0.12491241,0.095768064,0.17238252,-9.193734,0.8851263,47.707485,-0.9964769,-2.0671241,-3.3296976,0.021813631,0.20456493,-0.26496795,28.0625,29.1875,28.3125,32.25,34.375,35.3125
0.2380537,-0.6378553,-1.1939948,-1.2851582,-0.023136785,0.016243495,-0.13209908,-0.39462087,-0.3480852,0.06005618,3.076975,-0.62487304,-0.0004128555,-0.114772074,0.005662723,-0.002495291,-0.012550216,-0.0013896286,0.009531699,0.4638512,-1.4051347,1.9331073,-2.098622,-1.5693854,2.4390116,-0.11885774,0.18353404,-0.21273153,0.024944391,0.011612772,-0.12826802,0.095768064,0.21068975,-9.136273,0.83813137,47.658226,-1.0881817,-2.124588,-3.3830576,0.019368218,0.18018654,-0.20532483,28.0625,29.1875,28.3125,32.25,34.375,35.3125
0.24005339,-0.7204129,-1.347456,-1.3336743,-0.02525287,0.008310897,-0.13684624,-0.3948457,-0.3480771,0.060057357,3.0769591,-0.6247912,-0.00041481288,-0.116017774,0.0056360983,-0.0024310676,-0.012319135,-0.0013271712,0.011732623,0.463623,-1.4047854,1.9326886,-2.098573,-1.5693616,2.4387345,-0.11968103,0.18569559,-0.21562426,0.02573364,0.011381336,-0.13129057,0.21068975,0.21068975,-9.289503,0.83813137,47.655537,-1.0296036,-2.1662805,-3.3370304,0.010965429,0.20070773,-0.13485679,28.0625,29.1875,28.3125,32.25,34.375,35.3125
0.24205422,-0.59124815,-1.1874423,-1.6433374,-0.028409252,0.0013398416,-0.13067585,-0.395079,-0.34805912,0.060045104,3.0769508,-0.6247737,-0.00037654524,-0.117194146,0.006245505,-0.0025998366,-0.012376464,-0.0013761561,0.0068541104,0.46337014,-1.4044008,1.932257,-2.0985138,-1.5693377,2.438472,-0.121741086,0.1870165,-0.2168138,0.025622694,0.011447367,-0.12847164,0.15322891,0.24899697,-9.289502,0.87393653,47.687782,-1.151201,-2.152022,-3.3802807,0.004575419,0.20576927,-0.15363142,28.0625,29.1875,28.3125,32.25,34.375,35.3125
0.24405381,-0.2622774,-1.3178211,-1.419589,-0.028617091,0.008410829,-0.13496312,-0.39532608,-0.34803367,0.06002428,3.0769548,-0.6248322,-0.0003435978,-0.116107084,0.0053374763,-0.003045686,-0.011793175,-0.0020911542,0.004526577,0.4631074,-1.4039804,1.9318031,-2.0984538,-1.5693377,2.4382455,-0.118962616,0.18768501,-0.21666734,0.025705226,0.011236448,-0.12336604,0.19153613,0.2873042,-9.404425,0.8291774,47.684196,-1.1397886,-2.0363114,-3.4303985,0.022165768,0.2130889,-0.17247209,28.0625,29.1875,28.3125,32.25,34.375,35.3125
0.24605362,-0.8571408,-1.7666585,-1.3485157,-0.042818602,-0.0029740897,-0.1306886,-0.3955334,-0.34802857,0.060020186,3.076912,-0.6248105,-0.0002827086,-0.118987545,0.006851282,-0.0025621662,-0.0120509565,-0.0018758202,-0.0055640293,0.46287736,-1.4036431,1.9314073,-2.0983932,-1.5692776,2.4380076,-0.12415251,0.18950929,-0.22028448,0.027193258,0.011360653,-0.1184638,0.11492168,0.3256114,-9.346964,0.8247004,47.682407,-1.0109781,-2.2517102,-3.5400798,0.015200443,0.24144247,-0.24360314,28.0625,29.1875,28.3125,32.25,34.375,35.3125
0.24805418,-0.43182957,-1.6940445,-1.5103768,-0.048885778,0.014295043,-0.13646917,-0.39574414,-0.34800756,0.05998386,3.0769625,-0.62480074,-0.00021486927,-0.1180427,0.0060510836,-0.0032711,-0.011431026,-0.0049284576,-0.0056516924,0.46266198,-1.4032341,1.9310015,-2.0983326,-1.5692891,2.43778,-0.12234914,0.19161084,-0.22171459,0.029525943,0.012161563,-0.1165732,0.076614454,0.30645782,-9.500193,0.88289046,47.67345,-1.1192027,-2.1272814,-3.4670248,-0.016320128,0.22896057,-0.29790094,28.0625,29.1875,28.3125,32.25,34.375,35.3125
0.25005388,-1.0194391,-2.1243823,-1.6909561,-0.04436348,0.0068795895,-0.12832876,-0.39600304,-0.34801054,0.06001643,3.07684,-0.6248144,-0.00023523395,-0.11911387,0.006207394,-0.0028116656,-0.011449287,-0.0045563993,-0.0072570825,0.46238592,-1.4028974,1.9305228,-2.098273,-1.5692052,2.4375281,-0.123371825,0.19247861,-0.22409894,0.03071438,0.012018472,-0.11598859,0.11492168,0.38307226,-9.557653,0.8179876,47.696735,-1.1186799,-2.2103443,-3.4654021,-0.026735315,0.24222656,-0.3147329,28.0625,29.1875,28.3125,32.25,34.375,35.3125
0.25205383,-0.7048131,-1.8397115,-1.6110998,-0.059646603,0.03151461,-0.13419458,-0.39623865,-0.34798914,0.059984114,3.0768561,-0.6248391,-0.00016075445,-0.11995456,0.0064285807,-0.003379691,-0.011490796,-0.006446991,-0.009310942,0.46213317,-1.402464,1.9300793,-2.0982125,-1.5691928,2.437289,-0.1249621,0.19512142,-0.2262153,0.03186247,0.0128904125,-0.11552475,-0.019153614,0.45968673,-9.519346,0.7284641,47.70838,-1.071213,-2.0993319,-3.429493,-0.03387679,0.24644691,-0.34012112,28.0625,29.1875,28.3125,32.25,34.375,35.3125
0.25405368,-0.9265382,-1.8828783,-1.9407382,-0.05418954,0.040985283,-0.13889962,-0.39647517,-0.34797326,0.05997216,3.076873,-0.6248808,-0.00013953404,-0.12074566,0.006497002,-0.0025941092,-0.012148197,-0.0056325994,-0.011473804,0.46190497,-1.4020562,1.9296135,-2.098128,-1.5692047,2.437085,-0.12582631,0.19475824,-0.22788925,0.03287662,0.013109859,-0.1142261,-0.05746084,0.40222588,-9.557653,0.8179876,47.684196,-1.0248059,-1.9976108,-3.413461,-0.05168829,0.24339052,-0.37411058,28.0625,29.1875,28.3125,32.25,34.375,35.3125
0.2560539,-1.7148663,-1.8992591,-1.7601676,-0.04997397,0.038716357,-0.13162334,-0.39670593,-0.34795395,0.059953466,3.0768733,-0.62493664,-5.366875e-05,-0.12092251,0.0060637,-0.0022795387,-0.013365468,-0.0065833833,-0.007938108,0.46165296,-1.4016473,1.929159,-2.0980322,-1.5691804,2.436868,-0.12609105,0.1952345,-0.22958264,0.034409087,0.01462193,-0.118027166,-0.17238252,0.38307226,-9.634268,0.8493211,47.698532,-1.052728,-2.0200245,-3.480523,-0.07266921,0.24029529,-0.3679096,28.0625,29.1875,28.3125,32.25,34.375,35.3125
0.25805476,-1.9974511,-1.7579954,-1.6220165,-0.054160252,0.056944877,-0.12970029,-0.39696217,-0.34794635,0.059950937,3.0768666,-0.62487763,-2.6997608e-05,-0.123726815,0.007194905,-0.0017895964,-0.01388248,-0.005902679,-0.008545662,0.46139926,-1.4012263,1.928656,-2.0979478,-1.569156,2.4365785,-0.13053112,0.19719814,-0.23326115,0.035296187,0.014780138,-0.121858105,-0.22984336,0.30645782,-9.634268,0.8717007,47.690468,-0.875845,-2.1329856,-3.5244455,-0.11092414,0.24218783,-0.37494367,28.0625,29.1875,28.3125,32.25,34.375,35.3125
0.2600537,-1.7536707,-1.3773023,-1.645067,-0.04314082,0.07385728,-0.14086008,-0.39719337,-0.34793603,0.05995848,3.0768015,-0.62489694,-2.427294e-05,-0.12407126,0.005771524,-0.0008431236,-0.015138576,-0.00405081,0.00084235845,0.4611482,-1.4008899,1.9282368,-2.0979002,-1.5691084,2.436348,-0.12844102,0.19739766,-0.23572578,0.035363767,0.015089186,-0.12915462,-0.2681506,0.24899697,-9.634268,0.900793,47.672558,-1.0640234,-2.0818257,-3.5119262,-0.11182674,0.23758705,-0.28400087,28.0625,29.1875,28.3125,32.25,34.375,35.3125
0.26205382,-2.448308,-1.085254,-1.6838847,-0.012756565,0.066818155,-0.13007875,-0.3974509,-0.34794667,0.059952643,3.076745,-0.6248251,2.0604726e-05,-0.124932095,0.0067132125,-0.0013992616,-0.0144907385,-0.005132418,0.0048030233,0.46089548,-1.400457,1.9277357,-2.097852,-1.5690364,2.4360578,-0.13068272,0.19894496,-0.23644117,0.03581242,0.0150005035,-0.13535638,-0.38307226,0.21068975,-9.595961,0.8537928,47.684196,-0.885979,-2.0527043,-3.4272642,-0.14375739,0.24100643,-0.23716247,28.0625,29.1875,28.3125,32.25,34.375,35.3125
0.26405436,-1.9750181,0.0095059415,-1.5586475,-0.0017074835,0.08391515,-0.13810547,-0.3976836,-0.34792608,0.059936717,3.0767646,-0.62480575,5.4183467e-05,-0.12479332,0.0064633433,-0.0029824462,-0.013928138,-0.008507107,0.011988196,0.46065542,-1.4000593,1.9272927,-2.09778,-1.5690359,2.4358034,-0.13066764,0.20282352,-0.23753753,0.03631504,0.01600102,-0.14252627,-0.47884035,0.1340753,-9.595961,0.8873621,47.73614,-1.0089715,-2.0543478,-3.5008688,-0.15203562,0.2327216,-0.1475965,28.0625,29.1875,28.3125,32.25,34.375,35.3125
0.26605466,-2.1889598,-0.32042423,-1.4315829,0.013993085,0.08180153,-0.13295121,-0.3979466,-0.34791017,0.059938308,3.076713,-0.6247959,7.271074e-05,-0.12590154,0.006744681,-0.002749651,-0.014096581,-0.0078999195,0.012680515,0.46036702,-1.3996629,1.926814,-2.0977204,-1.5689877,2.4355156,-0.13194412,0.20369709,-0.2392028,0.03650332,0.015884172,-0.14449401,-0.49799395,0.0,-9.653421,0.87617236,47.709274,-1.0879384,-2.0498843,-3.5950303,-0.17321126,0.24527651,-0.06404357,28.0625,29.1875,28.3125,32.25,34.375,35.3125
0.268054,-1.9574525,-0.14890896,-1.4108801,0.0047461907,0.087371774,-0.14105792,-0.39820167,-0.34791797,0.059920717,3.0766954,-0.6246964,0.00012247189,-0.12675983,0.0060979784,-0.0021080133,-0.014706637,-0.0065292954,0.01189225,0.4601272,-1.3992059,1.9263109,-2.0976717,-1.5689396,2.4352162,-0.13141549,0.20446779,-0.24170436,0.036744148,0.015815001,-0.14317614,-0.5363012,0.05746084,-9.653421,0.8851263,47.704796,-1.1239309,-2.1361384,-3.6284108,-0.19017524,0.23604676,-0.082944125,28.0625,29.1875,28.3125,32.25,34.375,35.3125
0.27005446,-1.7604853,-0.43398944,-1.1444646,-0.006339293,0.09080936,-0.13714623,-0.39845756,-0.34789768,0.05991914,3.076644,-0.6247667,0.00017129752,-0.1285819,0.0067498055,-0.0019508027,-0.01430229,-0.005987401,0.00531049,0.4598384,-1.398809,1.9258331,-2.0975883,-1.5688924,2.434978,-0.13364711,0.20636247,-0.24447806,0.037323073,0.015201861,-0.13882463,-0.7278373,-0.11492168,-9.5385,0.900793,47.696735,-1.079188,-2.1613426,-3.5842004,-0.2055074,0.24121563,-0.077636495,28.0625,29.1875,28.3125,32.25,34.375,35.3125
0.27205434,-1.8559963,-0.42643997,-1.4661543,-0.00476842,0.070324965,-0.13067852,-0.3987014,-0.3478597,0.059897497,3.0766804,-0.62479484,0.00019478623,-0.13011682,0.006726036,-0.0017776943,-0.014223738,-0.0059346086,-0.0002426101,0.45957437,-1.3983998,1.9253892,-2.0975158,-1.5689162,2.4347272,-0.13477354,0.20881744,-0.24806836,0.038439482,0.015092542,-0.13439682,-0.7086837,-0.019153614,-9.442732,0.89631605,47.716442,-1.0796444,-2.0957954,-3.5331397,-0.23035493,0.2475867,-0.13633873,28.0625,29.1875,28.3125,32.25,34.375,35.3125
0.27405444,-1.8941191,-0.58235097,-1.3413932,-0.006380506,0.06257426,-0.13579239,-0.39896938,-0.34785035,0.059916627,3.0766087,-0.62480384,0.00021159873,-0.13053451,0.006553614,-0.0017050109,-0.014217665,-0.005984381,-0.0069538746,0.45928642,-1.3980154,1.9248756,-2.09742,-1.5688561,2.4344542,-0.13472748,0.20975395,-0.24952981,0.039012093,0.015103677,-0.12763846,-0.59376204,0.019153614,-9.385271,0.86945957,47.674347,-1.0319597,-2.1075115,-3.419908,-0.24824083,0.26784217,-0.19157743,28.0625,29.1875,28.3125,32.25,34.375,35.3125
0.27605367,-1.6231982,-0.4977875,-1.4837295,-0.014335947,0.06252198,-0.13385475,-0.39920902,-0.3478339,0.05987229,3.076648,-0.62477434,0.00034110545,-0.1315433,0.006592346,-0.0019345019,-0.0145818945,-0.0065382165,-0.009124258,0.45903355,-1.3975341,1.9243964,-2.0973365,-1.5688318,2.434178,-0.13592367,0.21180892,-0.25157392,0.039339628,0.01566006,-0.12666476,-0.63206923,0.076614454,-9.404425,0.86945957,47.677036,-0.92447937,-2.2102308,-3.4452581,-0.26923466,0.2609185,-0.2618177,28.0625,29.1875,28.3125,32.25,34.375,35.3125
0.2780536,-1.7482895,-0.95872295,-1.5280473,-0.019478137,0.069397025,-0.12615363,-0.39951265,-0.34782147,0.05989587,3.0765572,-0.62491375,0.00028006555,-0.13408679,0.0074424157,-0.001276413,-0.015046091,-0.00538206,-0.017430613,0.4587327,-1.3971127,1.9238347,-2.097264,-1.568808,2.4339762,-0.13942853,0.21337667,-0.2551611,0.040116273,0.015561213,-0.12186064,-0.6703765,0.11492168,-9.3661175,0.86945957,47.68599,-1.022599,-2.1915128,-3.4868433,-0.3060908,0.26744142,-0.3231766,28.0625,29.1875,28.3125,32.25,34.375,35.3125
0.28005445,-2.2785964,-1.4585357,-1.4573556,-0.021518074,0.072462074,-0.12531926,-0.399798,-0.34779194,0.05990779,3.0765057,-0.62501776,0.0002205002,-0.1354872,0.0060913526,0.000120407945,-0.015985884,-0.001473269,-0.018247616,0.45843348,-1.3967164,1.9233316,-2.097205,-1.5688084,2.4337487,-0.13759527,0.2139244,-0.25889364,0.039383125,0.014667308,-0.1192078,-0.5746084,0.19153613,-9.461885,0.8918391,47.681515,-1.1069839,-2.2061894,-3.3271065,-0.3279422,0.27771607,-0.39815515,28.0625,29.1875,28.3125,32.25,34.375,35.3125
0.28205442,-1.6629705,-1.302914,-1.3356225,-0.03689297,0.10180659,-0.1337322,-0.4000439,-0.34776968,0.0598826,3.0765533,-0.62500894,0.0003113932,-0.1373589,0.0055016433,0.0007866279,-0.016696773,0.0012838475,-0.019149931,0.45818135,-1.3962593,1.9228281,-2.0970848,-1.5688089,2.4334853,-0.13770352,0.2156514,-0.26225975,0.03823958,0.01406705,-0.11841294,-0.49799395,0.24899697,-9.404425,0.79560274,47.695843,-0.9970609,-2.121964,-3.1859517,-0.32717815,0.2953973,-0.4455279,28.0625,29.1875,28.3125,32.25,34.375,35.3125
0.28405422,-1.8950795,-1.4586995,-1.4340159,-0.04413479,0.09958048,-0.13388847,-0.40031484,-0.34776098,0.05986986,3.0764928,-0.6250341,0.00035853803,-0.137716,0.005969225,-0.00017523004,-0.016683513,1.1511592e-05,-0.01746377,0.45789286,-1.3958144,1.9223269,-2.0970376,-1.5687484,2.4332204,-0.13905998,0.21738681,-0.261994,0.037400782,0.014623324,-0.12145554,-0.4405331,0.28730422,-9.385271,0.83589023,47.677036,-1.0251336,-2.0733805,-3.2666566,-0.33005434,0.3003434,-0.4822423,28.0625,29.1875,28.3125,32.25,34.375,35.3125
0.28605402,-1.842792,-1.8848532,-1.6790392,-0.048130307,0.08590546,-0.13670674,-0.40057874,-0.34773335,0.05986416,3.0764608,-0.6251196,0.00042507614,-0.13805617,0.0053717904,0.000105603634,-0.018950526,0.0006073589,-0.01040575,0.45759273,-1.395394,1.9218243,-2.0969303,-1.5687116,2.432978,-0.13931194,0.21733192,-0.2624145,0.036356922,0.016398177,-0.12876633,-0.17238252,0.28730422,-9.519346,0.86945957,47.694946,-1.0452993,-1.9854821,-3.4873304,-0.3517574,0.29053813,-0.44381106,28.0625,29.1875,28.3125,32.25,34.375,35.3125
0.28805405,-1.225307,-2.0581422,-1.7816418,-0.062154215,0.07387651,-0.14000916,-0.40087008,-0.3477281,0.059854373,3.076429,-0.6251087,0.00042108583,-0.13948531,0.006031779,0.0009564046,-0.02126458,0.0027831784,-0.003818142,0.45731598,-1.394914,1.921275,-2.096883,-1.5686873,2.4326987,-0.14228459,0.2158427,-0.26236233,0.034842715,0.017526966,-0.13832685,-0.11492168,0.36391866,-9.5385,0.8717007,47.664497,-1.058446,-1.9192888,-3.5785813,-0.34492683,0.26565424,-0.33775473,28.0625,29.1875,28.3125,32.25,34.375,35.3125
0.2900543,-1.1453145,-2.210014,-1.8153845,-0.064493634,0.04864314,-0.12868929,-0.40116426,-0.3477224,0.05987679,3.07636,-0.6251241,0.00038384908,-0.13931642,0.004582836,0.0007738615,-0.021354206,0.0041006044,0.0105268285,0.45702907,-1.394493,1.9207128,-2.0967996,-1.5686516,2.4324305,-0.13917789,0.2173632,-0.26343518,0.03320795,0.01704526,-0.14956334,-0.15322891,0.30645782,-9.576807,0.9388393,47.66987,-1.1728206,-1.9177635,-3.6701927,-0.3308075,0.28060347,-0.25521472,28.0625,29.1875,28.3125,32.25,34.375,35.3125
0.29205382,-1.3746649,-2.1532378,-1.9971374,-0.0447419,0.023318011,-0.1236851,-0.4014684,-0.34768727,0.059876293,3.076386,-0.6250711,0.00032149025,-0.14253917,0.00536709,0.001298938,-0.02090515,0.0072387313,0.012331871,0.45672822,-1.3940353,1.9201626,-2.0967286,-1.5686883,2.4320936,-0.1420696,0.21988025,-0.26740867,0.032061655,0.01526006,-0.15425733,-0.05746084,0.24899697,-9.634268,0.84708,47.679718,-1.0420874,-2.0549111,-3.6578815,-0.32512012,0.3190092,-0.17979509,28.0625,29.1875,28.3125,32.25,34.375,35.3125
0.29405445,-0.85407686,-1.1924484,-1.8165913,-0.03818293,0.0279382,-0.12873763,-0.40176353,-0.34767812,0.059895437,3.0762887,-0.624994,0.00022051095,-0.14451128,0.0055860355,0.0012017916,-0.021629678,0.008538393,0.01241016,0.4564275,-1.3936503,1.9196714,-2.0967405,-1.5686406,2.4317575,-0.14407724,0.22220752,-0.26962662,0.030482467,0.015354867,-0.15634017,0.0,0.24899697,-9.634268,0.9634547,47.684196,-1.0451794,-2.00173,-3.6397069,-0.29233035,0.3341797,-0.10980345,28.0625,29.1875,28.3125,32.25,34.375,35.3125
0.29605404,-0.551841,-1.4744833,-1.7951978,-0.023521382,0.031085765,-0.122974865,-0.40204343,-0.3476617,0.059868842,3.0762827,-0.62505287,0.00035995568,-0.14653817,0.0058971443,0.0013831218,-0.023230148,0.009126955,0.006669939,0.45612657,-1.3931335,1.9190973,-2.0966089,-1.5685915,2.4314942,-0.1469653,0.22407268,-0.27221322,0.029972889,0.016515382,-0.15348808,-0.038307227,0.36391866,-9.500193,0.8873621,47.70211,-0.9422769,-1.9534717,-3.561354,-0.28757593,0.32013658,-0.12472184,28.0625,29.1875,28.3125,32.25,34.375,35.3125
0.29805455,-0.614626,-1.3835412,-2.1351593,-0.031470653,0.027218405,-0.12105139,-0.4023637,-0.34763297,0.05989704,3.0761826,-0.6250764,0.0002647847,-0.14684519,0.0062556933,-0.00028991463,-0.022719683,0.005482243,-0.0018097275,0.4557779,-1.3927358,1.9185594,-2.096573,-1.5685552,2.4311733,-0.14843354,0.22803873,-0.27325612,0.030539576,0.017672757,-0.1464742,-0.076614454,0.36391866,-9.519346,0.8806493,47.67614,-0.81253004,-2.1345227,-3.482134,-0.27808005,0.30903822,-0.18757264,28.0625,29.1875,28.3125,32.25,34.375,35.3125
0.30005366,-0.07935746,-1.2646837,-2.1398983,-0.052963685,0.033316437,-0.1336879,-0.4026265,-0.34763795,0.05986689,3.0761988,-0.62496704,0.00034615948,-0.14966655,0.0053937575,0.0010387058,-0.024203593,0.008889032,-0.00823031,0.45553783,-1.3922306,1.9180201,-2.096501,-1.5685195,2.4308631,-0.14911805,0.23032662,-0.27901328,0.030294621,0.017483482,-0.14073615,0.076614454,0.38307226,-9.768343,0.9321212,47.684196,-0.77736473,-2.2010531,-3.4363918,-0.2819464,0.30521166,-0.25735041,28.0625,29.1875,28.3125,32.25,34.375,35.3125
0.30205387,-0.6978459,-2.7774584,-1.9259516,-0.06420996,0.028103666,-0.12452869,-0.40294608,-0.34761834,0.059876435,3.076121,-0.62510616,0.00031031392,-0.15176287,0.004657135,0.0024892788,-0.025100553,0.0134101175,-0.011271403,0.455214,-1.3917619,1.9174331,-2.09643,-1.5684956,2.4306364,-0.14873675,0.23084031,-0.28273454,0.029053297,0.01629811,-0.1373113,0.076614454,0.36391866,-9.691729,0.80679786,47.687782,-0.88410807,-2.2284234,-3.2927582,-0.25968117,0.32972664,-0.3074953,28.0625,29.1875,28.3125,32.25,34.375,35.3125
0.3040544,-1.0941588,-2.640855,-1.8196684,-0.07065669,0.025180576,-0.119652696,-0.40326136,-0.34761986,0.059912436,3.0760334,-0.62512565,0.0001756837,-0.15235487,0.0041134,0.0026055127,-0.025930664,0.014173147,-0.0112462705,0.4549385,-1.391341,1.9168471,-2.0963824,-1.5684837,2.4303846,-0.14842428,0.2318683,-0.28413662,0.028381385,0.016725866,-0.13702142,-0.038307227,0.34476504,-9.634268,0.89631605,47.70659,-1.0191153,-2.19126,-3.288217,-0.25218838,0.35428905,-0.3577355,28.0625,29.1875,28.3125,32.25,34.375,35.3125
0.306054,-0.84547704,-2.3203318,-2.3410692,-0.047012664,0.028362878,-0.1313838,-0.4035555,-0.34761447,0.059901707,3.0759733,-0.62511235,0.00020737761,-0.15162547,0.0037308075,0.0017470283,-0.025297314,0.011952856,-0.009415398,0.45463872,-1.3908604,1.9162973,-2.0963342,-1.5684232,2.4300845,-0.14725602,0.23355341,-0.28447613,0.02932218,0.017144378,-0.13768363,0.019153614,0.4213795,-9.730036,0.86945957,47.684196,-1.018023,-2.1747355,-3.3331108,-0.23348536,0.3515814,-0.39352268,28.0625,29.1875,28.3125,32.25,34.375,35.3125
0.30805376,-0.9439518,-1.9075309,-2.0928423,-0.06399784,0.045962937,-0.13235918,-0.4038645,-0.34760642,0.059918214,3.0758998,-0.62511724,0.00015732896,-0.15230364,0.0051080235,0.0008523462,-0.025527017,0.009706759,-0.010892601,0.45433724,-1.3904153,1.9157242,-2.0962741,-1.5683869,2.4297957,-0.15085046,0.23476128,-0.28400722,0.029573642,0.01835745,-0.13979982,0.019153614,0.40222588,-9.768343,0.9612189,47.70032,-0.88076806,-2.0413592,-3.5082917,-0.21894014,0.34022456,-0.36671913,28.0625,29.1875,28.3125,32.25,34.375,35.3125
0.3100538,-0.9983422,-1.7511599,-1.9851735,-0.05880739,0.04695814,-0.13207424,-0.4041579,-0.3475976,0.05989665,3.0758271,-0.6251562,0.00021595335,-0.152944,0.004735118,0.0011240632,-0.027087003,0.010406394,-0.0050994093,0.45402518,-1.3899223,1.9151868,-2.0962384,-1.5683144,2.4295175,-0.1513009,0.23515244,-0.28504482,0.028933955,0.019466367,-0.14604284,-0.05746084,0.2681506,-9.691729,0.92764956,47.65912,-0.9772711,-2.134255,-3.6188676,-0.21594119,0.33951497,-0.3588817,28.0625,29.1875,28.3125,32.25,34.375,35.3125
0.3120539,-0.66997874,-1.0688905,-1.4615809,-0.068674766,0.058452625,-0.14213474,-0.4044822,-0.34759775,0.05991839,3.075779,-0.6251029,9.8386445e-05,-0.15462671,0.0051697134,0.0018100078,-0.027680885,0.012005093,0.0017194069,0.45374846,-1.389454,1.9145769,-2.0961907,-1.5683149,2.429214,-0.15326001,0.2356286,-0.2872861,0.02902867,0.019329492,-0.15481827,-0.019153614,0.24899697,-9.576807,0.8806493,47.668976,-0.84082407,-2.028678,-3.7212377,-0.17866568,0.318194,-0.27652034,28.0625,29.1875,28.3125,32.25,34.375,35.3125
0.31405395,-1.0566394,-1.467015,-1.3140695,-0.04002343,0.054853637,-0.12685122,-0.40479997,-0.34759617,0.05992092,3.0756972,-0.6250444,6.724106e-05,-0.15614474,0.0043163667,0.0024763686,-0.028936785,0.013984926,0.0096357055,0.4534366,-1.3889729,1.9140009,-2.0961668,-1.5682548,2.4288764,-0.15309618,0.23728807,-0.29073873,0.028525276,0.019614559,-0.16256782,-0.21068975,0.095768064,-9.461885,0.93436235,47.689575,-0.86823606,-1.9389437,-3.5599155,-0.16965738,0.32607895,-0.16039766,28.0625,29.1875,28.3125,32.25,34.375,35.3125
0.31605402,-1.1281807,-0.53598034,-1.5166876,-0.011427353,0.03366142,-0.12480611,-0.4051112,-0.3475776,0.059937317,3.075665,-0.6249998,4.811606e-05,-0.15833686,0.004803583,0.003636504,-0.030477326,0.0161847,0.009010384,0.4531236,-1.3885168,1.9134034,-2.096059,-1.5682305,2.42854,-0.15592997,0.23730683,-0.2935273,0.028657058,0.02004822,-0.16477458,-0.095768064,0.038307227,-9.481039,0.8717007,47.70032,-0.72396153,-1.9058257,-3.5537906,-0.124550804,0.3318802,-0.10220625,28.0625,29.1875,28.3125,32.25,34.375,35.3125
0.3180539,-0.93809795,-0.72519773,-1.4799337,0.011256685,0.04477613,-0.12785414,-0.40543926,-0.34759742,0.059961893,3.0755463,-0.62491643,-9.786234e-05,-0.15970683,0.0034792006,0.0049929908,-0.032548636,0.018599166,0.00925727,0.4528483,-1.38806,1.9128164,-2.096083,-1.5681823,2.4282281,-0.15516068,0.23799771,-0.29758698,0.02895787,0.02087815,-0.16424718,-0.21068975,0.095768064,-9.385271,0.8784135,47.637623,-0.9981828,-1.7408385,-3.4571297,-0.10028416,0.32255587,-0.070557125,28.0625,29.1875,28.3125,32.25,34.375,35.3125
0.3200537,-0.33878747,0.44897205,-1.2305397,0.0021796403,0.06261577,-0.13700883,-0.40575656,-0.3475885,0.059969325,3.0754714,-0.62498015,-6.488694e-05,-0.16012965,0.0026313819,0.004606584,-0.03241255,0.017586479,0.00455183,0.45252472,-1.3875667,1.9121951,-2.0959747,-1.5681218,2.4279542,-0.1540886,0.24098764,-0.3005432,0.02989537,0.021195803,-0.15846775,-0.28730422,0.05746084,-9.404425,0.9567419,47.68599,-1.0110651,-1.780783,-3.310268,-0.06938569,0.3210576,-0.11325974,28.0625,29.1875,28.3125,32.25,34.375,35.3125
0.3220539,-0.7191882,0.6891914,-1.5022007,0.0078624245,0.059375018,-0.1379296,-0.40605557,-0.34758356,0.05997412,3.0753965,-0.6249699,-6.281406e-05,-0.15954356,0.0031987969,0.0027137583,-0.0302885,0.012356346,-0.0021822825,0.45222422,-1.3871092,1.9116324,-2.0959136,-1.5680617,2.4276571,-0.15466833,0.2447577,-0.30139008,0.03260331,0.021578355,-0.15231185,-0.28730422,0.095768064,-9.481039,0.83589023,47.694946,-0.9989408,-1.9258611,-3.3732743,-0.07594831,0.29671025,-0.18383142,28.0625,29.1875,28.3125,32.25,34.375,35.3125
0.32405406,-1.1644113,-0.1527098,-1.385871,-0.016875084,0.08500705,-0.13216414,-0.40638334,-0.34757984,0.059986413,3.0753665,-0.62488824,-9.382761e-05,-0.15933299,0.0031626602,0.0016120479,-0.028518697,0.009220034,-0.00617511,0.45192438,-1.386603,1.9109873,-2.0958173,-1.5680379,2.4273105,-0.15413556,0.24798903,-0.30332404,0.03489941,0.02136119,-0.1477847,-0.4213795,0.1340753,-9.481039,0.8873621,47.678825,-1.04246,-2.03199,-3.4775143,-0.08780086,0.29297197,-0.26880983,28.0625,29.1875,28.3125,32.25,34.375,35.3125
0.32605445,-2.33229,-1.3082778,-1.3922049,-0.03348738,0.08350083,-0.13332538,-0.40671557,-0.34756157,0.06000469,3.0752747,-0.62498605,-0.00014612591,-0.15995947,0.003393696,0.001811508,-0.02772692,0.009363885,-0.010602555,0.45158872,-1.3861347,1.9103783,-2.0957453,-1.5680026,2.427048,-0.15442154,0.24879639,-0.30510718,0.0360956,0.02059294,-0.14364186,-0.4405331,0.24899697,-9.481039,0.8851263,47.694946,-1.1567944,-1.9861355,-3.5341094,-0.09179369,0.3128116,-0.3226107,28.0625,29.1875,28.3125,32.25,34.375,35.3125
0.32805368,-2.0382695,-1.7989218,-1.4937154,-0.052485548,0.10695582,-0.12347209,-0.40702558,-0.3475459,0.059993785,3.0752404,-0.62498164,-0.00012338927,-0.16040881,0.003719404,0.0014104679,-0.026413696,0.008391878,-0.014957518,0.45127642,-1.3856294,1.9097918,-2.0956728,-1.5679668,2.4267375,-0.15473813,0.25060806,-0.30673587,0.037363634,0.019833256,-0.13960332,-0.5746084,0.24899697,-9.519346,0.88960326,47.674347,-1.1525463,-1.9611602,-3.4616494,-0.09519169,0.31981665,-0.39940172,28.0625,29.1875,28.3125,32.25,34.375,35.3125
0.33005372,-1.996644,-1.7644883,-1.4733099,-0.062221408,0.0976018,-0.12858436,-0.40734053,-0.3475621,0.060006935,3.075154,-0.62502277,-0.00012236685,-0.16089904,0.0042254752,0.0015371679,-0.026692813,0.007922492,-0.018186182,0.451,-1.3851249,1.9091462,-2.095577,-1.5679063,2.4264982,-0.15616848,0.25068858,-0.30744708,0.038302563,0.020297192,-0.13780387,-0.6512228,0.22984336,-9.461885,0.9186956,47.651955,-1.1751792,-1.8785911,-3.553155,-0.09609115,0.3169616,-0.4641124,28.0625,29.1875,28.3125,32.25,34.375,35.3125
0.33205453,-2.4564266,-2.1046576,-1.3364664,-0.053025953,0.07023659,-0.11947419,-0.40767968,-0.34753317,0.06002292,3.0751085,-0.6250687,-0.00019432427,-0.16276628,0.0048509957,0.0019454221,-0.027423833,0.008769588,-0.015317716,0.45066303,-1.3846442,1.9085244,-2.095493,-1.5679063,2.426196,-0.15885682,0.25184706,-0.3099038,0.03854131,0.02060826,-0.14335842,-0.49799395,0.21068975,-9.481039,0.8672237,47.703007,-1.1451435,-1.8919736,-3.6162722,-0.077258684,0.31317565,-0.4754916,28.0625,29.1875,28.3125,32.25,34.375,35.3125
0.33405453,-1.366841,-1.3068613,-1.1530117,-0.046331543,0.06796286,-0.1399327,-0.40800408,-0.34753975,0.060021486,3.0750012,-0.62500083,-0.00018831092,-0.16206515,0.0036635627,0.0011818331,-0.027480597,0.0076059857,-0.0031537637,0.45034024,-1.3841388,1.9079269,-2.0954692,-1.5678099,2.425845,-0.15641403,0.25388607,-0.31063145,0.038299404,0.021202592,-0.15307742,-0.34476504,0.22984336,-9.442732,0.99702406,47.704796,-1.2932719,-1.8844138,-3.546008,-0.06036843,0.31431675,-0.45198065,28.0625,29.1875,28.3125,32.25,34.375,35.3125
0.33605403,-0.93060803,-1.0238051,-1.3862641,-0.014803168,0.04268303,-0.12742913,-0.4083563,-0.34752944,0.060051948,3.0749419,-0.6250203,-0.00035992378,-0.16413556,0.002563041,0.0024773974,-0.029474538,0.01070265,0.0074345707,0.45004013,-1.3836578,1.9072798,-2.095422,-1.5678338,2.425565,-0.15639122,0.25527334,-0.31522486,0.037881248,0.021689802,-0.16363816,-0.21068975,0.21068975,-9.308657,0.9791215,47.683304,-1.2541354,-1.829069,-3.5402136,-0.048687123,0.2874388,-0.31671852,28.0625,29.1875,28.3125,32.25,34.375,35.3125
0.338054,-1.101813,-0.46059796,-0.8067618,-0.011694272,0.019867117,-0.13496938,-0.4087068,-0.34754896,0.060075663,3.074791,-0.6249276,-0.0003917588,-0.16575138,0.0022364517,0.0032726643,-0.03068439,0.012550791,0.015332519,0.44970384,-1.3831524,1.9066218,-2.0953858,-1.5677141,2.4251904,-0.15721156,0.25626996,-0.31830937,0.037830774,0.022018094,-0.1723526,-0.22984336,0.2681506,-9.212888,0.92093146,47.716442,-1.340966,-1.8972975,-3.336542,-0.015053045,0.2868348,-0.20564559,28.0625,29.1875,28.3125,32.25,34.375,35.3125
0.34005424,-0.6262039,-0.49353445,-1.1226956,-0.0058252043,0.0349923,-0.1306502,-0.40902394,-0.347529,0.060049687,3.0747952,-0.62490886,-0.00029485868,-0.1664299,0.0026368727,0.002951796,-0.0309852,0.011381118,0.01630828,0.4493794,-1.382588,1.9059876,-2.0952656,-1.5676774,2.424854,-0.1588017,0.25769302,-0.31957206,0.03861186,0.022801932,-0.17491847,-0.22984336,0.2681506,-9.193734,0.9455522,47.672558,-1.2744789,-1.7705379,-3.3761177,-0.0066077793,0.28645772,-0.14758852,28.0625,29.1875,28.3125,32.25,34.375,35.3125
0.34205404,-0.5682754,-0.63528126,-1.1772208,-0.014529257,0.032487717,-0.13528742,-0.40937394,-0.34751529,0.060072307,3.074748,-0.62488365,-0.00036903948,-0.16815956,0.0037829573,0.0022831943,-0.030456569,0.00907634,0.009334834,0.44905397,-1.3820827,1.9053177,-2.0951688,-1.5676655,2.4245193,-0.16239695,0.26110488,-0.32264662,0.04057787,0.023334831,-0.17153685,-0.076614454,0.22984336,-9.174581,0.8873621,47.67614,-1.1147066,-1.6988785,-3.4388876,-0.008037158,0.26737982,-0.13307542,28.0625,29.1875,28.3125,32.25,34.375,35.3125
0.3440539,-1.1522659,-1.9373784,-0.9094966,-0.04744625,0.04139243,-0.13063394,-0.40971407,-0.34751055,0.06008646,3.074665,-0.6248891,-0.00040878885,-0.16853018,0.0042594955,0.0018162505,-0.02931521,0.0074044154,0.00253933,0.44873014,-1.3815769,1.904672,-2.0950968,-1.5676173,2.4242098,-0.16317165,0.26289272,-0.32422704,0.0423706,0.023034923,-0.1655144,-0.30645782,0.24899697,-9.212888,0.97464454,47.67345,-1.2516336,-1.728241,-3.386736,0.0031600096,0.25424314,-0.18720086,28.0625,29.1875,28.3125,32.25,34.375,35.3125
0.34605405,-1.7100407,-2.1523929,-0.86124086,-0.072853714,0.042079713,-0.13224997,-0.41004348,-0.34749392,0.060083143,3.074664,-0.62485355,-0.00039352447,-0.16938384,0.0045692967,0.0034530875,-0.029287973,0.0073540015,-0.0040530963,0.44841763,-1.381037,1.904014,-2.0949748,-1.5676054,2.4238756,-0.16424862,0.26194918,-0.32806382,0.04720052,0.023025772,-0.15999842,-0.4213795,0.2681506,-9.059659,0.9545008,47.645687,-1.0970974,-1.63901,-3.4017024,-0.025787877,0.25168428,-0.27503854,28.0625,29.1875,28.3125,32.25,34.375,35.3125
0.348054,-1.6239032,-1.3953818,-0.8557332,-0.056190856,0.03748373,-0.13166387,-0.41037005,-0.34749195,0.060087524,3.0745647,-0.6248933,-0.00032902355,-0.16976671,0.0056268354,0.001799902,-0.027545834,0.0034889884,-0.0077609243,0.44808087,-1.3805194,1.9033679,-2.094867,-1.5675095,2.4235766,-0.16629295,0.265614,-0.32914588,0.048873585,0.023136836,-0.15833382,-0.24899697,0.30645782,-9.040505,0.94331104,47.683304,-1.004413,-1.7166688,-3.3875651,-0.053476464,0.24152163,-0.32591334,28.0625,29.1875,28.3125,32.25,34.375,35.3125
0.3500539,-1.1929537,-1.1344141,-0.8848935,-0.027872534,0.052110318,-0.13425103,-0.41072443,-0.34748384,0.060074996,3.074487,-0.6249363,-0.00031068674,-0.17007962,0.0056786803,0.00047201497,-0.027389916,0.0012408346,-0.009760922,0.4477326,-1.3799416,1.9026998,-2.0948074,-1.567449,2.4232655,-0.16698024,0.26883915,-0.33002993,0.048637103,0.023973508,-0.15701884,-0.19153613,0.30645782,-9.212888,0.9567419,47.65464,-0.97336185,-1.8384634,-3.4729757,-0.05431531,0.23717734,-0.35682717,28.0625,29.1875,28.3125,32.25,34.375,35.3125
0.35205427,-1.1762606,-0.7598887,-0.6338083,-0.010046598,0.044667907,-0.13565113,-0.41106588,-0.34748137,0.06007363,3.0744426,-0.6249059,-0.0003181429,-0.17085423,0.005949757,3.5854442e-05,-0.027094696,-0.001146238,-0.009460989,0.44742036,-1.3793885,1.9020294,-2.094723,-1.5674127,2.4229403,-0.16840678,0.2715425,-0.33294556,0.05114545,0.024753429,-0.15874256,-0.11492168,0.19153613,-9.155427,0.9298854,47.70211,-0.95406044,-1.9264203,-3.395763,-0.087439544,0.21893445,-0.36803982,28.0625,29.1875,28.3125,32.25,34.375,35.3125
0.35405445,-0.97082967,-0.36098993,-0.63965833,0.004755729,0.026707696,-0.14303964,-0.41143447,-0.34746823,0.060087614,3.0743363,-0.6249572,-0.00038651924,-0.1703758,0.006646963,-0.0007327712,-0.025738679,-0.0053958674,-0.004282415,0.44706005,-1.3788586,1.9013594,-2.0946734,-1.5673646,2.422626,-0.16942753,0.2731921,-0.3342119,0.055215515,0.025410298,-0.16493882,-0.05746084,0.24899697,-8.944737,0.8851263,47.68062,-0.9347759,-2.0149689,-3.420575,-0.123908535,0.18492264,-0.32988662,28.0625,29.1875,28.3125,32.25,34.375,35.3125
0.35605377,-1.4755292,-1.1342496,-0.63961625,0.015591257,0.0038399382,-0.1285705,-0.41174993,-0.3474557,0.06007598,3.074294,-0.624945,-0.00026035853,-0.17167802,0.007061271,-0.00035289148,-0.025435098,-0.005224232,0.0025308249,0.4467235,-1.3783184,1.9007138,-2.0945294,-1.5672811,2.4222875,-0.17084828,0.2744704,-0.33709764,0.05685132,0.025078556,-0.17317347,-0.15322891,0.22984336,-8.90643,0.8537928,47.713753,-0.8978329,-1.9904686,-3.3900182,-0.15251695,0.17156169,-0.24627137,28.0625,29.1875,28.3125,32.25,34.375,35.3125
0.35805374,-1.1879052,-0.8771833,-0.4686821,-0.008366211,0.010358969,-0.14399244,-0.41208768,-0.347442,0.060045198,3.0743341,-0.6248144,-0.00019983927,-0.17279594,0.007721076,-0.0012551423,-0.02455003,-0.0057577076,0.009844215,0.44641078,-1.3777047,1.9000324,-2.0944216,-1.5672687,2.4218884,-0.17239982,0.27721214,-0.33831474,0.056232736,0.02452583,-0.18203959,-0.11492168,0.21068975,-8.983045,0.97240865,47.688675,-0.77228045,-1.8687038,-3.418291,-0.14307855,0.17197546,-0.11607922,28.0625,29.1875,28.3125,32.25,34.375,35.3125
0.3600537,-1.4401213,-1.4777004,-0.548404,-0.007745245,0.011414409,-0.13261811,-0.41244957,-0.34742072,0.060069248,3.074276,-0.62478155,-0.00023841512,-0.17387018,0.007820764,0.0005197697,-0.025178744,-0.0044215135,0.012151274,0.44605082,-1.3771884,1.8993386,-2.094301,-1.567233,2.4215157,-0.17327684,0.27594042,-0.3416986,0.059438232,0.024537846,-0.18522182,-0.21068975,0.19153613,-8.90643,1.005978,47.67793,-0.98771393,-1.8392179,-3.5285816,-0.1937364,0.17081544,-0.043308802,28.0625,29.1875,28.3125,32.25,34.375,35.3125
0.36205357,-1.2542822,-1.2651756,-0.4310411,-0.026772004,0.03230915,-0.13779296,-0.4127799,-0.34741127,0.060036127,3.074263,-0.62474364,-9.0810725e-05,-0.17462276,0.0070254044,0.0007022633,-0.025601488,-0.0049169576,0.00781581,0.445715,-1.3765752,1.8986567,-2.0941684,-1.5671605,2.421158,-0.17270209,0.27823642,-0.34536472,0.06107553,0.025105504,-0.18031111,-0.2681506,0.17238252,-8.90643,0.80456203,47.698532,-0.9853282,-1.8221412,-3.3150232,-0.23251241,0.15869185,-0.07404308,28.0625,29.1875,28.3125,32.25,34.375,35.3125
0.3640546,-1.9755566,-1.7299787,-0.79663146,-0.0066450043,0.019365883,-0.12765475,-0.41313538,-0.34740657,0.060053002,3.0741854,-0.624771,-4.9415525e-05,-0.17528395,0.0067323516,0.0012536371,-0.026394444,-0.0044656065,-5.4469354e-05,0.44536722,-1.3760226,1.8979276,-2.0940125,-1.5670885,2.4208376,-0.1728644,0.27864346,-0.34744617,0.061993193,0.025608776,-0.17260149,-0.30645782,0.17238252,-9.040505,0.9567419,47.689575,-0.9272306,-1.7478933,-3.301558,-0.25706425,0.12435754,-0.13819939,28.0625,29.1875,28.3125,32.25,34.375,35.3125
0.36605376,-1.4059261,-1.1007735,-0.8430266,-0.016552173,0.043437224,-0.13405481,-0.4134716,-0.34737155,0.060011916,3.0742505,-0.6247294,4.4702488e-06,-0.17578207,0.007154678,0.00074313994,-0.025913833,-0.0054380787,-0.007295686,0.4450429,-1.3754097,1.8972691,-2.0939047,-1.5671123,2.4204793,-0.1738025,0.28019392,-0.3483945,0.062457595,0.025567142,-0.1662997,-0.34476504,0.095768064,-9.078813,0.92764956,47.68062,-1.0347171,-1.6916115,-3.296799,-0.2933096,0.12957561,-0.20281434,28.0625,29.1875,28.3125,32.25,34.375,35.3125
0.36805364,-1.7934955,-1.1634957,-0.33126765,-0.02928796,0.06354234,-0.13855763,-0.4138146,-0.34735405,0.060003176,3.0741913,-0.6247744,9.076971e-05,-0.17528415,0.005368448,-0.00040341474,-0.025353767,-0.006327543,-0.0071559427,0.44468415,-1.374844,1.8965877,-2.0937736,-1.5670403,2.4201565,-0.17003863,0.2840101,-0.35026437,0.061563727,0.025427772,-0.16267507,-0.2681506,0.095768064,-8.887277,0.9388393,47.694946,-1.222766,-1.8214638,-3.3948376,-0.32636857,0.10145575,-0.26962525,28.0625,29.1875,28.3125,32.25,34.375,35.3125
0.3700538,-1.8401405,-0.60881925,-0.6406619,-0.0003419558,0.056299936,-0.14319296,-0.41415203,-0.34737355,0.06001336,3.074089,-0.62481505,0.00017988803,-0.17659526,0.0048505263,-0.00035110416,-0.02599167,-0.00449348,-0.01386756,0.44437218,-1.3742787,1.8958582,-2.0936186,-1.566933,2.4198833,-0.16990232,0.285904,-0.35239094,0.05986683,0.025191128,-0.15582627,-0.30645782,0.11492168,-8.983045,0.98135734,47.65464,-1.320287,-1.9013491,-3.406623,-0.3302403,0.08599757,-0.38268477,28.0625,29.1875,28.3125,32.25,34.375,35.3125
0.3720539,-2.2460344,-0.93944,-0.7809639,0.009633555,0.04670106,-0.13938487,-0.41450828,-0.3473344,0.059989296,3.074064,-0.6248681,0.00024614515,-0.17783822,0.004800045,-0.00025793354,-0.026366541,-0.0025094457,-0.015639732,0.44398817,-1.3736893,1.8951882,-2.0935113,-1.5668968,2.4195359,-0.17031763,0.2870261,-0.35369167,0.058105063,0.024665287,-0.15447025,-0.30645782,0.095768064,-9.212888,0.9030289,47.711063,-1.3573236,-1.9557309,-3.5148156,-0.31586722,0.07193497,-0.45409507,28.0625,29.1875,28.3125,32.25,34.375,35.3125
0.3740541,-1.5648208,-0.6509861,-0.9208625,-0.023186965,0.057584874,-0.15113215,-0.4148556,-0.34732348,0.059960846,3.0740638,-0.62490416,0.0002928625,-0.17900589,0.005749966,-0.0023011444,-0.0251385,-0.004215359,-0.013623229,0.4436754,-1.3730637,1.8944849,-2.0934045,-1.5668849,2.419246,-0.17250462,0.29150206,-0.3540928,0.05612545,0.024292285,-0.1586743,-0.076614454,0.17238252,-9.212888,0.95897776,47.685097,-1.3157363,-2.0007935,-3.5779352,-0.30716974,0.07181638,-0.47646117,28.0625,29.1875,28.3125,32.25,34.375,35.3125
