Tylouw/Master_Thesis_Code/training_data/batch_1/small_rod_t0.2/sample_49_session_1.csv
timestamp[s],tcp_force_x[N],tcp_force_y[N],tcp_force_z[N],tcp_force_rx[Nm?],tcp_force_ry[Nm?],tcp_force_rz[Nm?],tcp_pose_x[m],tcp_pose_y[m],tcp_pose_z[m],tcp_pose_rx[rot_vec_x],tcp_pose_ry[rot_vec_y],tcp_pose_rz[rot_vec_z],tcp_velo_x[m/s],tcp_velo_y[m/s],tcp_velo_z[m/s],tcp_velo_rx[rot_vec_x/s],tcp_velo_ry[rot_vec_y/s],tcp_velo_rz[rot_vec_z/s],q1[rad],q2[rad],q3[rad],q4[rad],q5[rad],q6[rad],qd1[rad/s],qd2[rad/s],qd3[rad/s],qd4[rad/s],qd5[rad/s],qd6[rad/s],tool_acc_x,tool_acc_y,tool_acc_z,current_of_whole_robot[A],voltage_of_whole_robot[V],current_J1[A],current_J2[A],current_J3[A],current_J4[A],current_J5[A],current_J6[A],temp_J1[C],temp_J2[C],temp_J3[C],temp_J4[C],temp_J5[C],temp_J6[C]
6.0300226e-07,-0.5691089,-1.1391711,-0.12662274,-0.027488906,0.023858046,-0.004077974,-0.38104492,-0.34853408,0.059974097,-3.078524,0.62485945,-0.00017767152,0.0022258053,0.0011318846,-0.0025110266,0.0025593888,-0.005259289,5.5744982e-05,0.47782204,-1.4259574,1.9577283,-2.1008208,-1.5707573,2.452764,-5.2333693e-05,0.0011549351,0.0043421104,0.00034954754,0.00015584835,-0.00011043272,0.076614454,0.15322891,-8.791509,0.65684843,47.711063,-0.0047931904,-2.789843,-2.55769,-0.42969218,0.14811516,0.099575475,27.9375,29.0625,28.125,32.125,34.1875,35.125
0.002052017,-0.05572564,-0.8187809,-0.107897,-0.026905274,0.035192773,-0.013566547,-0.38104868,-0.34852254,0.059953626,-3.078519,0.6248968,-0.00017285546,-0.000340099,-0.00020449518,-0.0027398712,-0.0010366272,0.0016418659,5.6603738e-05,0.47779807,-1.4259448,1.957775,-2.1008842,-1.5707573,2.452764,-5.1732073e-05,0.0032556832,0.004831692,-0.010022623,0.00015284665,-0.00010851402,0.1340753,0.1340753,-8.619126,0.73069996,47.67614,-0.020976087,-2.8011632,-2.499842,-0.3834452,0.1388207,0.10716263,27.9375,29.0625,28.125,32.125,34.1875,35.125
0.004052725,0.36438847,-0.6174119,-0.11792189,-0.026294295,0.0404434,-0.020170517,-0.3810792,-0.34853634,0.059965137,-3.0785232,0.6248591,-0.00011941038,-0.0011965976,-0.0006498839,-0.0022974194,-0.0021884104,0.0038601935,5.6102203e-05,0.4778101,-1.4258969,1.9576916,-2.1008728,-1.5707816,2.452752,-5.1144194e-05,0.0033446164,0.004153935,-0.011933314,0.00014968912,-0.000106675594,0.076614454,0.15322891,-8.7532015,0.7486078,47.692257,-0.008224219,-3.1020012,-2.720975,-0.31114095,0.1405028,0.10504161,27.9375,29.0625,28.125,32.125,34.1875,35.125
0.006051949,0.35373464,-0.0018178688,-0.33141804,-0.012214434,0.014265584,-0.016787315,-0.38107467,-0.34854504,0.059962828,-3.0785508,0.6248074,-0.00011660287,-0.00079918635,-0.0004417653,-0.0013599456,-0.0016039484,0.0027521267,5.4562784e-05,0.47782204,-1.4258974,1.9577025,-2.1008952,-1.5707697,2.4527283,-5.0569422e-05,0.0018840677,0.0027361084,-0.007802196,0.00014664166,-0.00010489927,0.076614454,0.1340753,-8.714894,0.7911258,47.661808,0.021374213,-3.016427,-2.5556087,-0.31396842,0.1443643,0.10309391,27.9375,29.0625,28.125,32.125,34.1875,35.125
0.008052057,0.6122432,0.24502379,-0.7349232,0.018885206,-0.0019870354,-0.014308907,-0.3810606,-0.34851986,0.059955116,-3.0785084,0.6248946,-0.00013330956,-0.00030936187,-0.00018562755,-0.00080821355,-0.0008706008,0.0013556452,5.3009175e-05,0.47779807,-1.4259336,1.9577612,-2.1008942,-1.5707816,2.452764,-5.0007486e-05,0.0008812464,0.0018232574,-0.0043092025,0.00014371467,-0.000103181155,-0.038307227,0.05746084,-8.829816,0.7597976,47.66808,0.014114039,-2.9815288,-2.5399306,-0.3562248,0.15335104,0.1060244,27.9375,29.0625,28.125,32.125,34.1875,35.125
0.010051963,0.7742475,0.020196147,-1.2544537,0.01685716,0.006206477,-0.018576238,-0.38106072,-0.34852433,0.05994222,-3.078506,0.62487495,-0.0001755179,6.626748e-06,-3.8667695e-05,-0.0007189267,-0.00029537114,0.00025797012,8.431461e-05,0.4777981,-1.4258978,1.9577497,-2.1008937,-1.5707697,2.452752,-1.6878283e-05,0.000734924,0.0013667208,-0.002467077,0.00014090209,-0.00010151851,0.095768064,0.095768064,-9.174581,0.6926589,47.6636,-0.41410294,-2.3810213,-3.1507506,-0.38026607,0.14133194,0.037070498,27.9375,29.0625,28.125,32.125,34.1875,35.125
0.012051864,0.0040467,-0.76274997,-1.4681317,-0.016748678,0.011070501,-0.018937908,-0.3810475,-0.34850636,0.05990606,-3.0784478,0.624844,-0.00026890702,0.00029005276,0.00015297285,-0.0029509196,0.0022626985,-0.0046749134,8.6419095e-06,0.47778615,-1.4258485,1.9577731,-2.1008804,-1.5707816,2.4527283,-9.713567e-05,0.006078104,2.3865574e-05,-0.0009106793,0.00013819759,-0.00010489414,0.13407528,0.1340753,-9.270349,0.77545905,47.667187,-0.56614476,-2.2538838,-3.2240644,-0.40451247,0.14953056,0.012244006,27.9375,29.0625,28.125,32.125,34.1875,35.125
0.014051916,-0.4551866,-1.4238992,-1.3803427,-0.055353835,0.0423876,-0.019225108,-0.38106036,-0.34850898,0.05991257,-3.078444,0.6249044,-0.00028238833,-0.0055287112,0.0016678972,-0.0038399652,0.0028053455,-0.005756587,-0.0059932615,0.47777113,-1.4258327,1.957735,-2.1008565,-1.5707697,2.4527514,-0.008182925,0.015340005,-0.0086395955,-0.00029941948,0.00013559479,-0.0021830464,-0.038307227,0.21068975,-9.32781,0.7709874,47.687782,-0.47510433,-2.950294,-3.0246096,-0.3992788,0.16393045,0.0007889406,27.9375,29.0625,28.125,32.125,34.1875,35.125
0.016052067,-1.2578207,-2.3738217,-1.59563,-0.075966485,0.06960245,-0.016834032,-0.38104233,-0.3485015,0.05988823,-3.0783803,0.6248713,-0.00038673932,-0.0065664304,0.00284573,-0.0033435563,0.0024421986,-0.005028468,-0.005623076,0.47778225,-1.4257854,1.957723,-2.100797,-1.5707816,2.45275,-0.0112284105,0.014163189,-0.008478941,-9.741837e-05,0.00012237218,-0.005599015,-0.28730422,0.3256114,-9.576807,0.7732232,47.68599,-0.06397048,-2.7183757,-3.1205778,-0.41297323,0.1683034,0.033765223,27.9375,29.0625,28.125,32.125,34.1875,35.125
0.018051699,-1.6128119,-2.1340437,-1.6637352,-0.10167011,0.09567454,-0.0275994,-0.3810402,-0.34849617,0.059877064,-3.0783846,0.62486994,-0.00043995975,-0.0056315484,0.0022537326,-0.0033896805,0.0025428445,-0.00524728,-0.00014999774,0.4777589,-1.4257735,1.957735,-2.100797,-1.5707573,2.4527252,-0.009317053,0.013702799,-0.007869482,-6.3607235e-06,0.00013312616,-0.009161159,-0.40222588,0.36391866,-9.634268,0.8090337,47.695843,-0.3401625,-2.5603638,-3.4140835,-0.40941226,0.1644477,0.039826192,27.9375,29.0625,28.125,32.125,34.1875,35.125
0.020051612,-1.5665389,-1.9395083,-1.4734919,-0.09089266,0.11549068,-0.041636635,-0.38105917,-0.3485016,0.059876274,-3.0783947,0.6248125,-0.0004125704,-0.0064746384,0.0016635924,-0.0029241592,0.0019510515,-0.004202297,0.0016170553,0.47775903,-1.4257374,1.9576982,-2.1008089,-1.5707697,2.4526882,-0.009075055,0.014708623,-0.010081848,-4.1530978e-07,0.000172828,-0.010685015,-0.49799395,0.45968673,-9.730036,0.71279734,47.703007,-0.57297736,-2.3329363,-3.5243196,-0.4238355,0.18717913,0.055397764,27.9375,29.0625,28.125,32.125,34.1875,35.125
0.022051608,-1.6594802,-1.1047459,-1.651468,-0.07042532,0.114105135,-0.051500924,-0.38108674,-0.34850183,0.059878133,-3.0784185,0.6248386,-0.00044873872,-0.008466292,0.0015716465,-0.0027680085,0.0001583342,-0.0043333485,-0.0010151156,0.47771004,-1.4257003,1.9576491,-2.100797,-1.570733,2.4526525,-0.011825726,0.01725266,-0.0133396955,-2.7116762e-08,0.0018178236,-0.010804665,-0.5746084,0.40222588,-9.653421,0.7777002,47.688675,-0.5307543,-2.4553533,-3.494168,-0.41943485,0.15409218,0.03857281,27.9375,29.0625,28.125,32.125,34.1875,35.125
0.02405168,-2.3552427,-1.6937923,-1.9598802,-0.029087542,0.073562145,-0.044348855,-0.38111037,-0.34849834,0.059861183,-3.0783947,0.6249698,-0.00047609158,-0.009646309,0.0012090077,-0.0027806133,-0.0015571851,-0.0049357675,-0.0029806711,0.47767356,-1.4256399,1.9576243,-2.1008208,-1.5707201,2.4527009,-0.013440996,0.019306645,-0.015653657,-1.7705308e-09,0.0036131935,-0.010456421,-0.5363012,0.30645782,-9.768343,0.75755644,47.70032,-0.5971576,-2.4200623,-3.4918535,-0.41947487,0.14374553,0.022103991,27.9375,29.0625,28.125,32.125,34.1875,35.125
0.026052283,-1.7384831,-1.4021449,-1.7564553,-0.038720686,0.08414482,-0.064912,-0.38112202,-0.34849295,0.05985842,-3.0783892,0.6249117,-0.00047921008,-0.010418086,0.0017758585,-0.002695491,-0.0017183165,-0.004772522,-0.004715996,0.4776609,-1.4256158,1.9576005,-2.1008089,-1.570732,2.4526527,-0.015206271,0.019480625,-0.016047012,-1.15603e-10,0.0036802115,-0.0104863215,-0.7278373,0.2681506,-9.787497,0.77545905,47.682407,-0.66298103,-2.4548259,-3.4861462,-0.438469,0.14759019,0.013344067,27.9375,29.0625,28.125,32.125,34.1875,35.125
0.02805232,-1.6755087,-1.0075101,-1.5868593,-0.055829983,0.08897289,-0.07050587,-0.38110852,-0.34848115,0.05982526,-3.0783243,0.62487966,-0.00058306125,-0.0120809525,0.0015510669,-0.0017395874,-0.0019697503,-0.0023226016,-0.005041292,0.47766072,-1.4255557,1.9575995,-2.1007726,-1.5707449,2.4526408,-0.015755566,0.02021262,-0.01906716,-7.54805e-12,0.0027696295,-0.010707153,-0.6703765,0.15322891,-9.710882,0.78888994,47.642998,-0.6689472,-2.400894,-3.4328203,-0.4139917,0.17129306,-0.01778554,27.9375,29.0625,28.125,32.125,34.1875,35.125
0.030052513,-1.6219856,-1.3075265,-1.6194935,-0.048057314,0.10595756,-0.081923604,-0.38115627,-0.34850317,0.059839725,-3.0784094,0.6249163,-0.00052751636,-0.013412877,0.0018205276,-0.0016312654,-0.0018307891,-0.0017347536,-0.0058815717,0.47762436,-1.4255192,1.9575385,-2.1008327,-1.5706967,2.4526165,-0.01720805,0.021697776,-0.021008499,-4.9283375e-13,0.002372373,-0.011317121,-0.7086837,0.17238252,-9.710882,0.67475104,47.682407,-0.6295326,-2.4197016,-3.4075313,-0.43735987,0.16970406,-0.0254757,27.9375,29.0625,28.125,32.125,34.1875,35.125
0.032052197,-1.9819102,-1.1931263,-1.730125,-0.033715904,0.10219839,-0.09132233,-0.38120332,-0.34850073,0.05985348,-3.0784323,0.62492007,-0.00048307737,-0.014442421,0.0011304098,-0.000759703,-0.0026897697,0.000140072,-0.0046530096,0.47757646,-1.4254832,1.957466,-2.1008327,-1.5706967,2.452568,-0.01686478,0.022173528,-0.02354371,-3.217852e-14,0.002268026,-0.012200771,-0.7086837,0.15322891,-9.634268,0.79560274,47.685097,-0.69180346,-2.342022,-3.3408997,-0.42274243,0.17381497,-0.037578553,27.9375,29.0625,28.125,32.125,34.1875,35.125
0.03405265,-1.4852232,-0.4555299,-1.529816,-0.020293988,0.0997965,-0.104785405,-0.38120654,-0.34849313,0.059819452,-3.0783823,0.6249486,-0.00059855724,-0.015047783,0.0010698237,-0.0010212419,-0.003721519,-0.0008466676,-0.004825111,0.47755182,-1.4253988,1.9574422,-2.1008089,-1.5706843,2.4525676,-0.01820544,0.023588363,-0.024561262,-2.1010275e-15,0.0036340302,-0.013371557,-0.57460845,0.05746084,-9.691729,0.779936,47.67793,-0.71339977,-2.3159473,-3.386024,-0.42342266,0.16689453,-0.05674866,27.9375,29.0625,28.125,32.125,34.1875,35.125
0.036051877,-1.1290424,0.40792862,-1.4343427,-0.0095905885,0.078605026,-0.1276492,-0.38127524,-0.34848872,0.059841033,-3.0784218,0.6249578,-0.00043189654,-0.015792796,0.00069905655,-0.0007555512,-0.0058994647,-0.0011919612,-0.0058367886,0.47750333,-1.4253746,1.9573816,-2.1008804,-1.5707196,2.45252,-0.019592004,0.024257552,-0.025932632,-1.3718208e-16,0.005725434,-0.013749269,-0.38307226,-0.019153614,-9.653421,0.8023209,47.683304,-0.6827405,-2.334281,-3.4103088,-0.4142963,0.13801405,-0.020519646,27.9375,29.0625,28.125,32.125,34.1875,35.125
0.03805187,-1.0650837,-0.08513661,-1.5414025,0.012801075,0.057125036,-0.11803438,-0.38126335,-0.34850195,0.059803154,-3.0784173,0.6249962,-0.00060582435,-0.017116208,0.00052921404,-0.00041195843,-0.0066543133,-0.00047629044,-0.007264794,0.47749105,-1.4252902,1.9573692,-2.1008685,-1.5706476,2.452532,-0.020733533,0.025650421,-0.02830817,-8.9570095e-18,0.0060608713,-0.013462531,-0.34476504,0.05746084,-9.5385,0.81351066,47.699425,-0.6637625,-2.3581254,-3.3524494,-0.42297947,0.13074481,-0.046628073,27.9375,29.0625,28.125,32.125,34.1875,35.125
0.040052205,-0.3854322,-0.1056876,-1.4647055,0.00811632,0.055433508,-0.13423058,-0.38133648,-0.34847066,0.059834108,-3.078372,0.6251028,-0.0005009016,-0.018712187,7.262521e-05,0.0005055101,-0.0077843135,0.0015215557,-0.0084982375,0.47740674,-1.425266,1.95726,-2.1008208,-1.5707077,2.4525201,-0.021446913,0.026488394,-0.031338215,-0.00010213624,0.0061407904,-0.012940719,-0.22984336,-0.076614454,-9.557653,0.72622824,47.691364,-0.6603987,-2.3369892,-3.325547,-0.4222417,0.1316528,-0.04395144,27.9375,29.0625,28.125,32.125,34.1875,35.125
0.04205223,-1.2454386,-1.112118,-1.4507282,0.009377457,0.03494041,-0.1313181,-0.38137162,-0.3484752,0.05982929,-3.0783792,0.6250658,-0.00050211506,-0.01968559,0.0006013097,0.00035738706,-0.0071704336,0.0016973899,-0.010503213,0.47738227,-1.4251937,1.9571885,-2.1008208,-1.5707077,2.4524717,-0.02287751,0.027692465,-0.03236278,-0.00015326818,0.0055128196,-0.012364397,-0.26815057,-0.05746084,-9.519346,0.784413,47.67793,-0.6690698,-2.3166742,-3.3149033,-0.41016465,0.13056499,-0.07600086,27.9375,29.0625,28.125,32.125,34.1875,35.125
0.044052046,-0.8699104,-1.0365908,-1.3219857,-0.01713322,0.05184468,-0.14799623,-0.38141885,-0.34850803,0.05985024,-3.078459,0.6251399,-0.00047198168,-0.021115487,0.00072372094,0.0007914528,-0.0073636654,0.0028336602,-0.011347808,0.4773579,-1.4251455,1.9570912,-2.100845,-1.5706476,2.4524834,-0.024184773,0.028767068,-0.03459493,-9.1603295e-05,0.0051585706,-0.012824708,-0.21068975,-0.019153614,-9.442732,0.75755644,47.67345,-0.6739825,-2.2682748,-3.3812132,-0.39998454,0.13923669,-0.07287964,27.9375,29.0625,28.125,32.125,34.1875,35.125
0.04605248,-0.7323976,-1.1258268,-1.2683012,-0.03488955,0.052030828,-0.15379013,-0.38145018,-0.34849468,0.059850745,-3.078449,0.6251965,-0.0004991567,-0.022302054,0.0008035944,0.0010996679,-0.007543321,0.0036519105,-0.011954815,0.47729743,-1.4251091,1.957043,-2.1008208,-1.5706357,2.4524596,-0.025278665,0.029805265,-0.036496975,-3.583851e-05,0.004938276,-0.013310128,-0.11492168,0.17238252,-9.576807,0.7597976,47.690468,-0.5843611,-2.2642658,-3.339315,-0.40522417,0.1470741,-0.09203362,27.9375,29.0625,28.125,32.125,34.1875,35.125
0.04805238,-0.64849097,-1.5993565,-1.3122241,-0.031512123,0.04929804,-0.16568069,-0.3815153,-0.34847447,0.059853643,-3.078434,0.6253472,-0.00046965986,-0.023106145,0.0008835509,0.0012862663,-0.0076768314,0.004149546,-0.012475758,0.47720125,-1.4250491,1.9569706,-2.1008327,-1.5706357,2.4524593,-0.026086468,0.030519633,-0.037747324,-2.3399984e-06,0.004826545,-0.013595926,-0.11492168,0.21068975,-9.404425,0.8023209,47.690468,-0.638953,-2.2403507,-3.3015165,-0.4079944,0.14305983,-0.09587984,27.9375,29.0625,28.125,32.125,34.1875,35.125
0.050052702,-0.5474989,-1.376117,-1.1825329,-0.045129824,0.033834282,-0.1783402,-0.38155937,-0.34848613,0.059876718,-3.0784736,0.62525946,-0.0003986417,-0.024255402,0.0008254717,0.002151168,-0.008705517,0.0058000097,-0.013277551,0.47718894,-1.4250132,1.9568743,-2.1008208,-1.5706476,2.4523873,-0.027141927,0.030261092,-0.03943019,-1.5278516e-07,0.0049793255,-0.013848834,-0.05746084,0.22984336,-9.519346,0.7105615,47.66808,-0.66716063,-2.0817297,-3.3416955,-0.4019413,0.15607542,-0.11841136,27.9375,29.0625,28.125,32.125,34.1875,35.125
0.052051656,-0.6195054,-1.9091882,-1.5039068,-0.036556017,0.023457298,-0.17708355,-0.38162026,-0.3484906,0.059879158,-3.0784886,0.6253013,-0.00035458937,-0.025196189,0.00071515393,0.0020594755,-0.009103266,0.0056377347,-0.013376505,0.47714058,-1.4249288,1.9567779,-2.100845,-1.5706476,2.4523633,-0.028087625,0.032019805,-0.041228898,-9.975779e-09,0.005403971,-0.014694982,-0.019153614,0.40222588,-9.481039,0.7597976,47.681515,-0.6498545,-2.0967774,-3.3431818,-0.40851188,0.14186822,-0.13180035,27.9375,29.0625,28.125,32.125,34.1875,35.125
0.054052647,-0.54284644,-1.9290974,-1.464386,-0.04207822,0.028087629,-0.19327894,-0.381666,-0.34850028,0.05989259,-3.0785153,0.6253456,-0.0003763566,-0.025887508,0.001012259,0.0011764788,-0.007902723,0.004446907,-0.013551469,0.47709224,-1.424868,1.9566697,-2.1008089,-1.5706118,2.4523392,-0.02891294,0.034896843,-0.042494122,-6.513471e-10,0.0048819873,-0.015343251,-0.095768064,0.3256114,-9.576807,0.7463667,47.690468,-0.6278169,-2.223947,-3.3632293,-0.39167118,0.16641095,-0.15822396,27.9375,29.0625,28.125,32.125,34.1875,35.125
0.05605182,-0.6248976,-2.336865,-1.5491251,-0.045563772,0.03455515,-0.20490262,-0.38170147,-0.3484891,0.059869014,-3.078487,0.6254549,-0.0004167185,-0.027079487,0.0008546986,0.0016856993,-0.008418257,0.005629098,-0.013493554,0.47703212,-1.4247838,1.956633,-2.1008327,-1.5706004,2.4523509,-0.02967296,0.03574499,-0.04462839,-4.2528307e-11,0.004792391,-0.016159939,-0.019153614,0.4405331,-9.500193,0.7418897,47.677036,-0.63205886,-2.1015592,-3.3505802,-0.38925004,0.15887305,-0.15103078,27.9375,29.0625,28.125,32.125,34.1875,35.125
0.058051728,-0.7833667,-2.170018,-1.3807563,-0.059870835,0.039115172,-0.21046399,-0.38177383,-0.3484596,0.059875764,-3.0784638,0.62550783,-0.00035281046,-0.02816492,0.00068922667,0.002428838,-0.00964884,0.006909641,-0.014245933,0.4769357,-1.4247237,1.956549,-2.1008327,-1.5706357,2.4522905,-0.030701261,0.03577509,-0.04636298,-2.7767944e-12,0.0052952273,-0.016435772,0.019153614,0.38307226,-9.519346,0.77545905,47.674347,-0.6414179,-2.0374482,-3.3151274,-0.3877348,0.16384001,-0.15950961,27.9375,29.0625,28.125,32.125,34.1875,35.125
0.060051944,-0.7284083,-2.1454277,-1.6161896,-0.05733616,0.04274552,-0.20887579,-0.38182727,-0.34846446,0.059889697,-3.0784876,0.6255899,-0.00030576452,-0.028941521,0.0008642371,0.0020425213,-0.009596753,0.006235965,-0.0144730965,0.47688726,-1.4246752,1.9564646,-2.100845,-1.5706238,2.4522903,-0.031895183,0.037619524,-0.047585506,-1.8130484e-13,0.005556595,-0.017401826,-0.05746084,0.38307226,-9.5385,0.7396539,47.698532,-0.65301895,-2.097724,-3.3515735,-0.36615753,0.16207823,-0.16932,27.9375,29.0625,28.125,32.125,34.1875,35.125
0.06205179,-0.09818531,-1.9226575,-1.2742357,-0.056720458,0.0577409,-0.2116626,-0.38186926,-0.34847945,0.05988704,-3.078505,0.6256123,-0.0003560837,-0.030615734,-2.3322329e-05,0.0029058075,-0.011432139,0.007761569,-0.014232053,0.47685117,-1.424579,1.9563555,-2.1008208,-1.570587,2.452266,-0.03246005,0.03921026,-0.051376577,-1.18379105e-14,0.006478787,-0.018207261,-0.11492168,0.38307226,-9.519346,0.7486078,47.67614,-0.69501233,-2.0594072,-3.311918,-0.38405257,0.14775123,-0.19745797,27.9375,29.0625,28.125,32.125,34.1875,35.125
0.06405185,-0.45017803,-1.7866402,-1.1426365,-0.039068036,0.049798213,-0.18801916,-0.38193876,-0.34846818,0.059887696,-3.0785155,0.6256328,-0.0003285566,-0.031181637,-0.00018292585,0.0019241932,-0.010993478,0.0060060197,-0.013740102,0.47676694,-1.424494,1.9562596,-2.1008327,-1.570587,2.4521933,-0.03296221,0.042613722,-0.053019892,-7.7293096e-16,0.006892326,-0.019200584,-0.019153614,0.3256114,-9.442732,0.82022345,47.688675,-0.7336187,-2.1489847,-3.2487755,-0.3741433,0.14291133,-0.20370844,27.9375,29.0625,28.125,32.125,34.1875,35.125
0.066052556,-0.6566131,-1.6820006,-1.2160554,-0.022725953,0.051100902,-0.17917141,-0.38200644,-0.34847578,0.0598978,-3.0785496,0.6257165,-0.00032130216,-0.030873999,0.00014524187,0.000659524,-0.010031846,0.0035834135,-0.012959535,0.4766947,-1.4244094,1.9561399,-2.1008327,-1.5705513,2.452169,-0.033423305,0.04468876,-0.052500848,-5.0466868e-17,0.007151763,-0.020442382,-0.076614454,0.28730422,-9.404425,0.74413085,47.66987,-0.6744216,-2.1871727,-3.3384962,-0.37366778,0.14643745,-0.19245625,27.9375,29.0625,28.125,32.125,34.1875,35.125
0.06805246,-0.82595164,-0.85026014,-0.82022274,-0.03472458,0.056874957,-0.18278068,-0.3820702,-0.34849307,0.059916023,-3.0786042,0.6256881,-0.0002583014,-0.032417145,-0.0006228805,0.0024259742,-0.011755901,0.007114703,-0.011563826,0.47665876,-1.4243376,1.9560193,-2.100845,-1.5705394,2.4521084,-0.03341587,0.04390457,-0.055644408,-3.2951259e-18,0.007057982,-0.021828618,-0.095768064,0.2681506,-9.346964,0.7620334,47.651955,-0.768749,-2.1789355,-3.2722955,-0.36534816,0.15159446,-0.20563291,27.9375,29.0625,28.125,32.125,34.1875,35.125
0.07005251,-1.162224,-1.4272153,-0.98683006,-0.01095227,0.05104425,-0.1792098,-0.38215923,-0.34849846,0.059926745,3.078626,-0.6257888,0.00023494441,-0.03420101,-0.0013852837,0.0032986158,-0.01282472,0.008639884,-0.011083603,0.47656262,-1.4242294,1.9558738,-2.1008565,-1.5705031,2.4520724,-0.033857275,0.045814686,-0.05994624,0.00054686,0.0073021473,-0.022747947,-0.15322891,0.19153613,-9.385271,0.7150385,47.677036,-0.8688729,-2.0644243,-3.1317368,-0.35265473,0.13938215,-0.2260627,27.9375,29.0625,28.125,32.125,34.1875,35.125
0.07205257,-0.80509686,-0.9431024,-0.9245026,-0.011263908,0.06273296,-0.1800908,-0.38221335,-0.3484842,0.059931472,-3.0786433,0.62573427,-0.00019906207,-0.03414595,-0.001260089,0.0019575357,-0.012421322,0.0058558136,-0.010680494,0.47650245,-1.4241685,1.9557909,-2.100845,-1.5705265,2.451976,-0.034621015,0.04863185,-0.060098007,0.00053709216,0.008221263,-0.023915645,-0.19153613,0.21068975,-9.251195,0.79560274,47.64479,-0.871806,-2.1948857,-3.0482192,-0.3462155,0.13308582,-0.2260004,27.9375,29.0625,28.125,32.125,34.1875,35.125
0.07405261,-0.54445183,-1.029075,-0.78816587,-0.01707769,0.070411235,-0.18515503,-0.38227686,-0.34849396,0.059921816,3.07859,-0.625877,0.0002623002,-0.03426479,-0.0010821418,0.0012258295,-0.012150283,0.004313126,-0.010171533,0.4764302,-1.4240363,1.9556593,-2.1008327,-1.5704788,2.4519997,-0.035342354,0.050283376,-0.060336065,0.00061901944,0.008687908,-0.025146442,-0.21068975,0.15322891,-9.232041,0.73741806,47.675243,-0.92616856,-2.2496262,-3.3008404,-0.32950395,0.1339378,-0.20546493,27.9375,29.0625,28.125,32.125,34.1875,35.125
0.07605206,-0.55866396,-0.86646867,-0.6535916,-0.019467607,0.07156605,-0.1860249,-0.38235238,-0.34850383,0.059942164,3.0785577,-0.62583077,0.00021458318,-0.03572165,-0.0017077269,0.0021667706,-0.012981112,0.006410897,-0.009314816,0.47637004,-1.423952,1.9555138,-2.1008208,-1.5704664,2.4519148,-0.035418835,0.051206533,-0.063554585,0.00067098695,0.008459219,-0.02607712,-0.21068975,0.11492168,-9.193734,0.7709874,47.655537,-0.9402096,-2.1545634,-3.0962796,-0.34530354,0.13136965,-0.23321006,27.9375,29.0625,28.125,32.125,34.1875,35.125
0.07805233,-1.1068398,-1.2359787,-0.7641532,-0.006540743,0.05556878,-0.17349921,-0.38240173,-0.34850928,0.05992522,3.0785618,-0.6258501,0.00023055586,-0.036174186,-0.0019227274,0.002113239,-0.012859837,0.0062327352,-0.008136487,0.47633412,-1.4238318,1.955418,-2.1008322,-1.5704664,2.4518905,-0.035431545,0.052490342,-0.064986624,0.0010337326,0.008430874,-0.02726739,-0.30645782,0.15322891,-9.251195,0.83589023,47.672558,-1.0268583,-2.1569388,-3.106649,-0.33381486,0.12782125,-0.24688002,27.9375,29.0625,28.125,32.125,34.1875,35.125
0.08005225,-0.57301277,-0.8033253,-0.7172732,-0.007526922,0.066533476,-0.18264565,-0.38249418,-0.34852487,0.05995209,3.078439,-0.6259594,0.00018826572,-0.03723181,-0.00200613,0.0022446336,-0.013265118,0.0064569027,-0.007874852,0.47623792,-1.4237474,1.955263,-2.1008446,-1.5704068,2.451878,-0.03641376,0.053952124,-0.0669958,0.001197872,0.008687703,-0.028509721,-0.3256114,0.095768064,-9.174581,0.7665104,47.690468,-1.0211583,-2.1342268,-3.1463826,-0.33396557,0.117279,-0.22105557,27.9375,29.0625,28.125,32.125,34.1875,35.125
0.0820521,-0.67367816,-0.809384,-0.70187366,-0.005470684,0.06332831,-0.17351083,-0.3825546,-0.34850878,0.059939932,3.078491,-0.62585515,0.00024752444,-0.037816063,-0.001840933,0.002021142,-0.012894468,0.005607782,-0.008019543,0.47615358,-1.423627,1.9551424,-2.100796,-1.5704068,2.4517221,-0.037275735,0.05549466,-0.068441845,0.0020266217,0.008745871,-0.029226724,-0.34476504,0.076614454,-9.251195,0.79560274,47.67166,-1.0956416,-2.177505,-3.074563,-0.32358143,0.107659765,-0.23612858,27.9375,29.0625,28.125,32.125,34.1875,35.125
0.08405221,-1.0017685,-1.3451393,-0.7800456,-0.00057999225,0.06065436,-0.1725305,-0.3826667,-0.34852389,0.059976462,3.0783815,-0.6259283,9.736163e-05,-0.038690533,-0.0020518552,0.0021536266,-0.012818469,0.0060701366,-0.0069847126,0.4760694,-1.4235427,1.9549736,-2.1008441,-1.5703949,2.4516976,-0.03751425,0.05695087,-0.07045085,0.0022056883,0.008467415,-0.030497337,-0.24899697,0.1340753,-9.251195,0.7486078,47.67793,-1.173339,-2.1909165,-3.134942,-0.33337054,0.13474143,-0.2535794,27.9375,29.0625,28.125,32.125,34.1875,35.125
0.086052336,-0.8038911,-1.2097402,-0.9663338,-0.016960852,0.0684197,-0.16619542,-0.3827337,-0.34850466,0.059959557,3.0783803,-0.6260821,0.00015656977,-0.039321043,-0.0022174139,0.00206008,-0.013354129,0.0056176325,-0.007181369,0.4759732,-1.4234105,1.9548529,-2.100808,-1.5703944,2.4516976,-0.038233362,0.05834361,-0.071878724,0.0023960646,0.009147885,-0.03102029,-0.30645782,0.17238252,-9.270349,0.83589023,47.645687,-1.1739928,-2.1297781,-3.0824223,-0.31683466,0.12038788,-0.25865814,27.9375,29.0625,28.125,32.125,34.1875,35.125
0.08805258,-1.2389284,-1.5739042,-1.2087048,-0.020696972,0.060638897,-0.160643,-0.38282266,-0.34849265,0.059960112,3.0784216,-0.62603116,9.592978e-05,-0.040365182,-0.0022363954,0.0017729285,-0.012780492,0.005396606,-0.007406504,0.47590113,-1.4232779,1.9546975,-2.100796,-1.5704426,2.4515886,-0.038885366,0.06083796,-0.07412812,0.0026111326,0.008736062,-0.031445015,-0.2681506,0.17238252,-9.289503,0.80456203,47.661808,-1.2428898,-2.1355972,-3.0915089,-0.31377843,0.1004976,-0.27666965,27.9375,29.0625,28.125,32.125,34.1875,35.125
0.09005192,-0.6835399,-1.815821,-1.0335975,-0.021632401,0.07066931,-0.17128368,-0.38288411,-0.34852535,0.059964426,3.0783231,-0.6260321,0.00014856723,-0.04116493,-0.0014866133,0.0010242494,-0.011436826,0.0042921286,-0.008711451,0.4758404,-1.4231689,1.9545659,-2.100808,-1.5703467,2.451541,-0.040497903,0.06305844,-0.07502293,0.0028888972,0.008048062,-0.031750623,-0.2681506,0.17238252,-9.32781,0.73069996,47.66987,-1.197718,-2.2658484,-3.0670364,-0.31869927,0.12782076,-0.28048903,27.9375,29.0625,28.125,32.125,34.1875,35.125
0.0920518,-0.660955,-1.2739503,-1.0611603,-0.04393677,0.06566106,-0.17901632,-0.38299176,-0.34851375,0.05997561,3.0783126,-0.62603045,3.9361526e-05,-0.042430136,-0.0013930744,0.0026345125,-0.013368799,0.006385893,-0.009762127,0.47574386,-1.4230492,1.954409,-2.1008313,-1.5703825,2.4514449,-0.042305164,0.061229747,-0.07681776,0.003763393,0.008807616,-0.032507308,-0.2681506,0.3256114,-9.385271,0.7978386,47.660015,-1.1844456,-2.0945027,-3.1214342,-0.3260309,0.12211201,-0.30084363,27.9375,29.0625,28.125,32.125,34.1875,35.125
0.09405163,-0.6554775,-1.2068965,-1.0864486,-0.04007584,0.06337903,-0.17474252,-0.38305634,-0.34853074,0.059988722,3.0782695,-0.62605894,8.783761e-05,-0.042749546,-0.0015549669,0.0018958541,-0.012718898,0.0048914705,-0.007816383,0.47568363,-1.4229405,1.9542412,-2.1007712,-1.5703348,2.451408,-0.042372443,0.06388901,-0.07827049,0.0041852463,0.00891304,-0.03451943,-0.19153613,0.28730422,-9.385271,0.8314132,47.655537,-1.2050402,-2.1650887,-3.0975327,-0.3203134,0.10560115,-0.30359024,27.9375,29.0625,28.125,32.125,34.1875,35.125
0.09605191,-0.6684311,-1.670954,-1.2935911,-0.03655687,0.0647608,-0.16777791,-0.38314113,-0.34852755,0.05997375,3.078282,-0.62600255,9.076714e-05,-0.04267368,-0.0014646947,1.7490634e-06,-0.010939374,0.0017292568,-0.0071047936,0.4755999,-1.4227829,1.9540981,-2.1007836,-1.5703348,2.4512875,-0.04236668,0.06819468,-0.0788518,0.004088398,0.008778294,-0.03522413,-0.17238252,0.3256114,-9.481039,0.79560274,47.705692,-1.3825557,-2.212039,-3.1270862,-0.33216783,0.12148476,-0.29769206,27.9375,29.0625,28.125,32.125,34.1875,35.125
0.098052226,-0.56329346,-1.5895714,-1.0883422,-0.03441684,0.07096703,-0.17038622,-0.3832292,-0.34852105,0.059966855,3.0782788,-0.62610066,9.441976e-05,-0.044567186,-0.00080600835,0.0014940301,-0.012777016,0.004254009,-0.011419893,0.47551477,-1.4226273,1.9539307,-2.1007597,-1.5703462,2.4512641,-0.04556963,0.06656356,-0.08043529,0.0042154402,0.009253109,-0.034112237,-0.24899697,0.28730422,-9.481039,0.7866488,47.689575,-1.237611,-2.225965,-3.1307924,-0.32645297,0.12203087,-0.2999305,27.9375,29.0625,28.125,32.125,34.1875,35.125
0.10005237,-0.22307827,-1.2263712,-1.2823457,-0.038717963,0.06671188,-0.1893234,-0.38331476,-0.34851015,0.059973992,3.0781975,-0.6261816,0.0001516915,-0.045726277,-0.0003484598,0.0007099582,-0.01231286,0.0028327,-0.013325865,0.47537008,-1.42253,1.9537977,-2.1007354,-1.5702742,2.4511802,-0.0475848,0.069637135,-0.082201645,0.004387366,0.009489283,-0.034220323,-0.11492168,0.2873042,-9.461885,0.6948948,47.668976,-1.2613466,-2.192996,-3.2340732,-0.3190369,0.11584814,-0.34741023,27.9375,29.0625,28.125,32.125,34.1875,35.125
0.10205221,-0.80407107,-1.2029476,-1.078273,-0.04043705,0.04688103,-0.17286602,-0.3834278,-0.3485167,0.05997417,3.0781698,-0.6262517,9.6952215e-05,-0.046752322,0.00019021853,0.000373499,-0.012069759,0.002174959,-0.013047634,0.47528547,-1.4223495,1.9535936,-2.1007473,-1.5702862,2.451143,-0.04952289,0.07136061,-0.083470024,0.0046291747,0.0095742205,-0.036435593,-0.19153613,0.22984336,-9.500193,0.78217715,47.67614,-1.1302327,-2.2487087,-3.1284547,-0.31245172,0.103647575,-0.343575,27.9375,29.0625,28.125,32.125,34.1875,35.125
0.10405233,-0.34348905,-1.1517867,-1.1769935,-0.036296874,0.060693532,-0.18549398,-0.38352317,-0.34851846,0.059977766,3.0781248,-0.6262997,0.0001196343,-0.046028286,-0.00018116798,-0.0006059925,-0.011581842,0.00027627422,-0.010698819,0.47517774,-1.4222046,1.9534143,-2.1007235,-1.5702504,2.451071,-0.048467617,0.07300596,-0.08309999,0.004526582,0.010010984,-0.03772952,-0.19153613,0.19153613,-9.576807,0.7553206,47.66091,-1.289026,-2.2823865,-3.3134007,-0.3084669,0.12517351,-0.3417415,27.9375,29.0625,28.125,32.125,34.1875,35.125
0.106051736,-0.32240352,-1.0278031,-1.1780431,-0.025119629,0.065181665,-0.16857377,-0.38362727,-0.34852737,0.059989154,3.0780885,-0.62629044,1.9247222e-05,-0.049030613,-0.001057755,0.00075164955,-0.013867214,0.0033349302,-0.009614087,0.47510535,-1.4220716,1.9532446,-2.1007597,-1.5702618,2.4509976,-0.05005997,0.07532215,-0.088761,0.0041050673,0.010634803,-0.040403385,-0.19153613,0.15322891,-9.500193,0.82022345,47.647476,-1.3147761,-2.242136,-3.170269,-0.3150087,0.09773761,-0.33306724,27.9375,29.0625,28.125,32.125,34.1875,35.125
0.10805175,-0.57470375,-1.3611457,-1.3063391,-0.010094042,0.062064786,-0.16891596,-0.38368174,-0.34851593,0.05996865,3.0780842,-0.6263104,0.00016964404,-0.048920818,0.0008400656,-0.00045083085,-0.012863663,0.00058438326,-0.0112979,0.47499606,-1.4219396,1.9531268,-2.1006997,-1.5702018,2.4509013,-0.053550966,0.07541855,-0.08618944,0.004345126,0.011004708,-0.042213164,-0.11492168,0.17238252,-9.404425,0.8537928,47.67166,-1.196639,-2.2371027,-3.288869,-0.29438993,0.10593976,-0.33187163,27.9375,29.0625,28.125,32.125,34.1875,35.125
0.11005187,-0.75952923,-0.6635998,-1.2470788,-0.023669805,0.05542126,-0.17224373,-0.383807,-0.3485354,0.059983756,3.0780284,-0.6262995,0.000119613556,-0.0499492,0.00024249515,0.00029775364,-0.013989272,0.0017177307,-0.0122744115,0.47490007,-1.4217591,1.952886,-2.1006997,-1.5701779,2.4508057,-0.053726997,0.07611852,-0.08879984,0.004732934,0.011485756,-0.041411307,-0.22984336,0.15322891,-9.423578,0.7642693,47.691364,-1.2477753,-2.202458,-3.3555207,-0.31270802,0.0824103,-0.33972952,27.9375,29.0625,28.125,32.125,34.1875,35.125
0.11205193,-0.18196473,-0.5851426,-1.0479048,-0.024399484,0.07634645,-0.17741948,-0.38390383,-0.34852865,0.059974086,3.0780137,-0.6262952,0.00012030104,-0.050440915,0.0011111713,-0.0004710358,-0.012145002,0.00029753344,-0.011239297,0.47479156,-1.4216025,1.9527315,-2.100711,-1.570166,2.4506965,-0.055062264,0.07802631,-0.08942725,0.005565197,0.010497136,-0.043779958,-0.24899697,0.019153614,-9.404425,0.83813137,47.645687,-1.2320793,-2.1613417,-3.364881,-0.29588446,0.09117626,-0.3238329,27.9375,29.0625,28.125,32.125,34.1875,35.125
0.11405229,-0.972094,-0.9299163,-1.0870614,-0.01191198,0.06747064,-0.1724052,-0.38403028,-0.34853065,0.059998475,3.0779343,-0.626374,2.9564102e-05,-0.05115238,0.0014723861,-0.00042675872,-0.011634663,0.00055745133,-0.009657926,0.4746714,-1.4214699,1.9525269,-2.100723,-1.5701541,2.4506357,-0.055965528,0.078731894,-0.090409145,0.005848603,0.00992817,-0.04626255,-0.19153613,0.038307227,-9.3661175,0.81351066,47.639416,-1.2425609,-2.1435854,-3.3863037,-0.31879878,0.10618733,-0.31468478,27.9375,29.0625,28.125,32.125,34.1875,35.125
0.116051614,-0.8222574,-0.94628114,-1.0084232,-0.00895063,0.077885814,-0.17775418,-0.3841183,-0.3485458,0.05999395,3.0778747,-0.62638104,0.00013029444,-0.051361002,0.0016303551,-0.0007784276,-0.012333626,-0.0008904303,-0.009133552,0.47456285,-1.4213014,1.9523362,-2.1006868,-1.5700697,2.450539,-0.05725034,0.07961805,-0.09072202,0.0062451237,0.0112123,-0.048073154,-0.22984336,0.095768064,-9.308656,0.8224646,47.684196,-1.2293091,-2.1815608,-3.4409337,-0.29869774,0.0875086,-0.29349738,27.9375,29.0625,28.125,32.125,34.1875,35.125
0.11805243,-0.73507935,-0.03676539,-1.0827435,-0.027632946,0.07864921,-0.1765672,-0.38421583,-0.34852877,0.05999341,3.0778978,-0.6264036,9.336662e-05,-0.053524904,0.0010312365,0.0005678709,-0.013989757,0.0020017724,-0.008054585,0.47446668,-1.4211571,1.9521669,-2.100663,-1.5701059,2.4504542,-0.058248047,0.08047104,-0.094747186,0.006087838,0.011356311,-0.050147846,-0.21068975,0.19153613,-9.308657,0.7866488,47.661808,-1.2692716,-2.0710597,-3.383975,-0.3220212,0.09019388,-0.28488103,27.9375,29.0625,28.125,32.125,34.1875,35.125
0.120052435,-0.8797171,-0.63791704,-1.1536947,-0.020054605,0.07567225,-0.17824033,-0.38433427,-0.34850836,0.059970487,3.077913,-0.626368,0.00010990381,-0.053588517,0.0020666295,-0.000329828,-0.012805988,0.00057336583,-0.0074451584,0.47432193,-1.4209526,1.9519881,-2.1006753,-1.5701059,2.4502854,-0.05986187,0.081293486,-0.0936254,0.0059592477,0.010958955,-0.052371226,-0.30645782,0.15322891,-9.32781,0.7530795,47.64837,-1.2572442,-2.0442991,-3.5245967,-0.31930333,0.08249519,-0.23403294,27.9375,29.0625,28.125,32.125,34.1875,35.125
0.1220525,-1.1309667,-0.76094085,-1.1078508,-0.015941244,0.0694736,-0.17406407,-0.38441354,-0.34852174,0.05997536,3.0778859,-0.6263232,0.00013163999,-0.0550981,0.0020688558,-0.0008589046,-0.012185554,-0.00033107447,-0.006093338,0.47424954,-1.4208192,1.9518188,-2.100651,-1.5700697,2.4501886,-0.061142933,0.08516226,-0.09698844,0.0065461327,0.010816044,-0.05500168,-0.17238252,0.076614454,-9.346964,0.8247004,47.66987,-1.2178197,-2.05134,-3.5858746,-0.30052042,0.07897335,-0.20480412,27.9375,29.0625,28.125,32.125,34.1875,35.125
0.12405233,-1.0003488,-0.66605425,-1.1873707,-0.018466413,0.074648686,-0.17422676,-0.3845786,-0.34852314,0.06001175,3.0777884,-0.6264173,1.23318505e-05,-0.056170877,0.0022653264,0.0005445468,-0.013156895,0.0026368422,-0.0050960695,0.4740932,-1.4206518,1.9515442,-2.100651,-1.5700577,2.4501035,-0.062126506,0.08317757,-0.09788962,0.0063532484,0.010330482,-0.05698073,-0.2681506,0.11492168,-9.404425,0.80679786,47.67166,-1.2735693,-2.033627,-3.448007,-0.31664887,0.08748206,-0.1832655,27.9375,29.0625,28.125,32.125,34.1875,35.125
0.12605166,-1.3396485,-0.67149323,-1.171876,-0.022596117,0.06795119,-0.17256647,-0.38466588,-0.3485261,0.060007624,3.0777404,-0.626447,0.000112376714,-0.05861386,0.002820668,0.0014021938,-0.013877975,0.004568386,-0.006575362,0.47397223,-1.4204953,1.9513634,-2.1006029,-1.5699862,2.4500072,-0.06516577,0.08419393,-0.101045616,0.006452378,0.010084153,-0.05853902,-0.36391866,0.1340753,-9.385271,0.81351066,47.650166,-1.2068956,-1.8764634,-3.4440475,-0.30752462,0.08145869,-0.16095646,27.9375,29.0625,28.125,32.125,34.1875,35.125
0.12805252,-0.97542685,-0.64459145,-1.3996298,-0.023425343,0.08196788,-0.17739496,-0.3847919,-0.3485233,0.060019456,3.077704,-0.6264395,4.032852e-05,-0.059156887,0.002676558,0.00047330777,-0.012912056,0.0030613146,-0.0049804016,0.47385198,-1.4203378,1.9511589,-2.1006148,-1.5699862,2.449887,-0.06527503,0.08759248,-0.102877624,0.006670559,0.009914411,-0.060241103,-0.38307226,0.21068975,-9.461885,0.8537928,47.67345,-1.1677227,-2.0133834,-3.4117687,-0.3266326,0.07228665,-0.10349033,27.9375,29.0625,28.125,32.125,34.1875,35.125
0.13005204,-1.4533949,-0.9829338,-1.3040903,-0.027225126,0.07927456,-0.16023043,-0.38489026,-0.34849718,0.059993006,3.0777318,-0.6264442,0.000126007,-0.060113136,0.0025876958,0.0017201963,-0.014022389,0.005300746,-0.0055292086,0.473708,-1.420146,1.9509915,-2.100579,-1.5699743,2.4497426,-0.06594353,0.08629582,-0.10430866,0.006901301,0.00987597,-0.06036094,-0.38307226,0.24899697,-9.461885,0.7709874,47.66987,-1.2503438,-1.8269107,-3.4993901,-0.32673213,0.091094956,-0.07101095,27.9375,29.0625,28.125,32.125,34.1875,35.125
0.13205194,-1.1134053,-1.1790357,-1.4245245,-0.036543258,0.097010374,-0.17766875,-0.38504553,-0.34849536,0.060009874,3.0776372,-0.6265043,6.1006805e-05,-0.061478723,0.0031397664,0.0015187684,-0.013800579,0.0042030844,-0.009469934,0.47353914,-1.4199651,1.9507512,-2.1006024,-1.5699376,2.4496233,-0.06833528,0.088589,-0.1067737,0.008152971,0.010182813,-0.05881014,-0.51714754,0.19153613,-9.519346,0.8023209,47.66987,-1.2446177,-1.827282,-3.4251919,-0.33144274,0.078374304,-0.09605479,27.9375,29.0625,28.125,32.125,34.1875,35.125
0.13405192,-1.0287613,-1.5734876,-1.6877818,-0.03481859,0.10106034,-0.17069012,-0.38515648,-0.34849095,0.060018823,3.077638,-0.6265049,6.211102e-05,-0.062462676,0.0042174947,0.001057424,-0.012774406,0.0034182065,-0.011009621,0.47343025,-1.4197966,1.9505242,-2.1005428,-1.5699381,2.4495149,-0.07076165,0.08998729,-0.10743485,0.008585989,0.009628388,-0.059695862,-0.28730422,0.22984336,-9.5385,0.8090337,47.693153,-1.0545442,-1.8678051,-3.464559,-0.34222007,0.09214983,-0.07258453,27.9375,29.0625,28.125,32.125,34.1875,35.125
0.13605243,-1.0880928,-1.8578637,-1.6520051,-0.042875692,0.09889464,-0.17396867,-0.3852622,-0.34847978,0.05999759,3.077635,-0.62654305,0.00013127345,-0.0631819,0.0036186492,0.0011761262,-0.012474755,0.0041970834,-0.012830849,0.47329876,-1.4195918,1.9503325,-2.1005185,-1.5699147,2.4494076,-0.069928534,0.091752194,-0.10974344,0.008576145,0.008999352,-0.057039864,-0.38307226,0.24899697,-9.634268,0.86945957,47.661808,-1.2017848,-1.7881663,-3.4669962,-0.3452734,0.107720084,-0.050993606,27.9375,29.0625,28.125,32.125,34.1875,35.125
0.13805248,-1.6400347,-1.9026631,-1.7862111,-0.044643115,0.08342379,-0.160155,-0.38543305,-0.3484632,0.060041726,3.0775287,-0.62663907,-3.5027344e-06,-0.065703,0.004267914,0.0017243944,-0.013823673,0.0056675766,-0.01833194,0.47310546,-1.4194591,1.9500798,-2.1005185,-1.5699023,2.449288,-0.073682964,0.093097486,-0.11240769,0.00797082,0.009530587,-0.055290993,-0.45968673,0.22984336,-9.634268,0.8560339,47.66987,-1.0197363,-1.8582681,-3.4051042,-0.34190112,0.1072414,-0.08422191,27.9375,29.0625,28.125,32.125,34.1875,35.125
0.14005259,-0.91106033,-1.3127966,-1.79582,-0.04234375,0.08821187,-0.17331782,-0.385535,-0.34845647,0.06001245,3.0775359,-0.6266996,9.464628e-05,-0.066613264,0.004093505,0.0012377809,-0.014325378,0.0048933243,-0.020616166,0.47298503,-1.4192301,1.9498762,-2.1004832,-1.5698785,2.4492044,-0.074693,0.09563509,-0.114148624,0.0076335277,0.010322731,-0.05401687,-0.36391866,0.2681506,-9.615114,0.77545905,47.68062,-1.0218744,-1.9130764,-3.423264,-0.35737538,0.09873717,-0.10450118,27.9375,29.0625,28.125,32.125,34.1875,35.125
0.1420526,-0.7452102,-1.451013,-1.4907186,-0.043873847,0.08680154,-0.17218229,-0.3856656,-0.34844214,0.06001559,3.07754,-0.62668157,9.646296e-05,-0.06811733,0.004793215,-0.00033863218,-0.012276125,0.00334776,-0.021954529,0.47284055,-1.4190361,1.9496359,-2.1004355,-1.5698785,2.4490483,-0.07654904,0.10068342,-0.11619825,0.006950078,0.009197947,-0.05453159,-0.36391866,0.22984336,-9.557653,0.83365434,47.66091,-1.0301318,-1.8421093,-3.4088523,-0.32858223,0.11656076,-0.08604814,27.9375,29.0625,28.125,32.125,34.1875,35.125
0.14405243,-0.8763054,-1.5373353,-1.4035051,-0.03102883,0.08533964,-0.16567741,-0.3858093,-0.34844765,0.06003162,3.0774446,-0.626781,4.400952e-05,-0.071153246,0.0037178583,0.0022980396,-0.015567971,0.0087746605,-0.026824938,0.47269592,-1.418856,1.9493955,-2.1004474,-1.5698422,2.448978,-0.07766714,0.100279406,-0.12166363,0.0064877276,0.009648135,-0.05077636,-0.38307226,0.22984336,-9.442732,0.8717007,47.688675,-1.0016063,-1.885942,-3.1480336,-0.33045208,0.11000294,-0.11756989,27.9375,29.0625,28.125,32.125,34.1875,35.125
0.14605194,-0.929019,-1.0477611,-1.3748529,-0.037858125,0.08636805,-0.16948208,-0.38595214,-0.34843943,0.060032275,3.0773833,-0.62686515,5.2421514e-05,-0.07074738,0.0043938193,-0.0008922522,-0.01370672,0.002979951,-0.029878575,0.47252747,-1.4186499,1.9491552,-2.100436,-1.5698055,2.44887,-0.079095796,0.10597716,-0.12080835,0.005940193,0.010631481,-0.04915147,-0.49799395,0.19153613,-9.442732,0.80679786,47.655537,-0.9791124,-1.9721909,-3.2666416,-0.31762943,0.12956445,-0.17128325,27.9375,29.0625,28.125,32.125,34.1875,35.125
0.14805184,-1.4151102,-1.3718936,-1.3893023,-0.035184022,0.08122044,-0.16439903,-0.38611612,-0.34841752,0.06003707,3.0773337,-0.6269707,-3.169751e-05,-0.07281027,0.004026036,0.0010213394,-0.0153383715,0.006632441,-0.030720493,0.47234738,-1.4184461,1.9489158,-2.1004593,-1.5698179,2.4487622,-0.08014543,0.105284415,-0.124487944,0.006319916,0.0104202265,-0.049356826,-0.36391866,0.21068975,-9.481039,0.84708,47.660015,-1.000391,-2.0030005,-3.133635,-0.3086105,0.111573294,-0.17901355,27.9375,29.0625,28.125,32.125,34.1875,35.125
0.15005209,-1.2470697,-0.878922,-1.1697791,-0.0513916,0.08382135,-0.18023242,-0.3862782,-0.3484209,0.060070492,3.0772445,-0.6270497,-0.00011147507,-0.07405803,0.0042253,0.0009085967,-0.016244404,0.00596582,-0.033487856,0.47219047,-1.4182652,1.9486269,-2.1004355,-1.569794,2.448666,-0.08231128,0.107134864,-0.1264306,0.006592019,0.011532484,-0.048754085,-0.30645782,0.17238252,-9.481039,0.7777002,47.684196,-0.9169061,-2.0388112,-3.2337523,-0.33708656,0.110970065,-0.19212538,27.9375,29.0625,28.125,32.125,34.1875,35.125
0.15205193,-1.108484,-1.4377877,-1.164487,-0.041965112,0.08854601,-0.16784513,-0.38642654,-0.34840646,0.06006774,3.0772126,-0.627159,-9.819606e-05,-0.07567046,0.0043650335,0.0012763832,-0.01656725,0.0068956814,-0.035079665,0.47202197,-1.4180367,1.9483627,-2.1003993,-1.5697817,2.44857,-0.08389695,0.10863478,-0.12904611,0.0067357407,0.011394001,-0.048746422,-0.40222588,0.19153613,-9.404425,0.79560274,47.64927,-0.849566,-1.9483757,-3.1145716,-0.31679875,0.11834666,-0.21221672,27.9375,29.0625,28.125,32.125,34.1875,35.125
0.15405218,-1.6723071,-1.7405121,-1.2514439,-0.04020255,0.07502712,-0.16212575,-0.3865953,-0.3484068,0.060083356,3.0771177,-0.6272363,-0.00018942908,-0.07613391,0.0047402238,0.0008212369,-0.016120737,0.006248242,-0.035543464,0.4718537,-1.4178319,1.9481004,-2.1004355,-1.5697578,2.4484622,-0.08487624,0.10991864,-0.12948647,0.00667583,0.011296757,-0.049260415,-0.57460845,0.24899697,-9.32781,0.8291774,47.684196,-0.8331091,-1.9919245,-3.1888947,-0.32191232,0.1153795,-0.23866299,27.9375,29.0625,28.125,32.125,34.1875,35.125
0.15605196,-0.95081365,-1.37902,-1.0277458,-0.04966998,0.0983336,-0.17409177,-0.3867336,-0.34839764,0.060072206,3.0770698,-0.62738085,-0.0001640886,-0.07763715,0.005645692,0.00063418143,-0.016199462,0.006168213,-0.038210902,0.4716965,-1.4176031,1.9478606,-2.100423,-1.569734,2.4484015,-0.08787364,0.1113271,-0.13065311,0.0064724423,0.011402479,-0.049589686,-0.53630114,0.2681506,-9.270349,0.8403672,47.687782,-0.82501906,-1.8464817,-3.2056909,-0.3086623,0.12847915,-0.25105822,27.9375,29.0625,28.125,32.125,34.1875,35.125
0.15805194,-1.473532,-1.1251544,-0.8724112,-0.045615636,0.08300101,-0.16683885,-0.38689733,-0.34839633,0.06009898,3.0769958,-0.62742186,-0.0002267394,-0.07825484,0.0040680687,0.0014033262,-0.017216494,0.0073787402,-0.03561282,0.4715295,-1.4174105,1.9475731,-2.1003993,-1.5697092,2.4482696,-0.085831866,0.11282495,-0.13428022,0.0070636827,0.011758346,-0.050143544,-0.4213795,0.24899697,-9.32781,0.83589023,47.685097,-0.8096485,-2.0205822,-3.2031994,-0.31287757,0.12471901,-0.25415915,27.9375,29.0625,28.125,32.125,34.1875,35.125
0.1600519,-1.2429782,-1.4425386,-0.7608668,-0.020303668,0.07878073,-0.17345847,-0.38707918,-0.34838033,0.060095903,3.07692,-0.6275802,-0.00021984802,-0.07829918,0.0044836747,0.00043104545,-0.016809702,0.0056525012,-0.036136586,0.47131306,-1.4171457,1.9472736,-2.1003878,-1.5696734,2.4481618,-0.086831704,0.11445699,-0.13389693,0.0067744064,0.0121845715,-0.05061952,-0.47884035,0.1340753,-9.155427,0.7933669,47.675243,-0.9815287,-1.8751537,-3.2280178,-0.30800453,0.124476045,-0.27917945,27.9375,29.0625,28.125,32.125,34.1875,35.125
0.1620522,-1.2306614,-0.8153578,-0.65436524,-0.009720211,0.07557693,-0.16948816,-0.38723937,-0.34836888,0.06009047,3.0768716,-0.62764776,-0.00022418734,-0.080239244,0.005415719,0.0008306434,-0.017210675,0.006827789,-0.03864187,0.47113183,-1.4169052,1.9470099,-2.1003878,-1.5696491,2.448029,-0.09007971,0.11513453,-0.13555703,0.006532579,0.0120084165,-0.05136098,-0.4405331,0.13407528,-9.059659,0.8605109,47.647476,-0.7497307,-1.9677466,-3.241991,-0.29265115,0.13272831,-0.32191333,27.9375,29.0625,28.125,32.125,34.1875,35.125
0.16405217,-0.5359712,-0.106052026,-0.708588,-0.0051265615,0.0726617,-0.17154792,-0.38739914,-0.3483741,0.06010714,3.0767627,-0.627777,-0.00026114145,-0.0791,0.004355981,-0.00097107573,-0.015636325,0.004113425,-0.035686087,0.47096518,-1.4166994,1.9467357,-2.1003883,-1.5696009,2.447957,-0.08702571,0.11899379,-0.13578759,0.006042142,0.01184119,-0.051261112,-0.21068975,-0.038307227,-9.11712,0.8157518,47.65912,-1.041634,-2.0353756,-3.318709,-0.2895018,0.14008209,-0.33758876,27.9375,29.0625,28.125,32.125,34.1875,35.125
0.16605252,-0.6785514,-0.37590337,-0.48904797,0.007556255,0.048566557,-0.17020759,-0.3875632,-0.34832925,0.060105994,3.076763,-0.6279119,-0.00029829444,-0.080551155,0.0041578966,0.0007837891,-0.01796859,0.0071740076,-0.03687181,0.4707606,-1.4164842,1.946483,-2.100352,-1.5696372,2.4478369,-0.08838614,0.117185235,-0.13772924,0.006005141,0.012529756,-0.051435504,-0.11492168,0.0,-9.021352,0.88289046,47.652847,-1.0379297,-1.8497369,-3.2804127,-0.27295545,0.1418187,-0.36084616,27.9375,29.0625,28.125,32.125,34.1875,35.125
0.16805243,-0.3146892,-0.34117886,-0.420465,0.00689649,0.042299416,-0.16030611,-0.38773718,-0.34834525,0.06012472,3.076652,-0.62800425,-0.00032321393,-0.080834895,0.0042784973,-1.0900275e-05,-0.016813336,0.005847168,-0.03654847,0.47059265,-1.4162428,1.9461602,-2.1003392,-1.5695771,2.4477408,-0.0885374,0.119583756,-0.13878067,0.006371768,0.0121067185,-0.05190834,-0.17238252,-0.05746084,-8.944737,0.8291774,47.65912,-1.0323913,-2.006659,-3.3434944,-0.269961,0.15355647,-0.39662316,27.9375,29.0625,28.125,32.125,34.1875,35.125
0.17005253,0.12967332,0.0060505103,-0.6565098,0.0073190383,0.028532712,-0.16933236,-0.38789472,-0.34833327,0.060110353,3.0766354,-0.628058,-0.00036423528,-0.08155527,0.0035403136,-0.00033604848,-0.017092612,0.004837959,-0.035806995,0.47043684,-1.4159895,1.9459075,-2.1003635,-1.5695895,2.4476209,-0.08829898,0.12265291,-0.14174625,0.007040437,0.012812027,-0.052409615,-0.038307227,-0.11492168,-8.944737,0.8314132,47.684196,-1.0922565,-1.9538308,-3.2788076,-0.2647308,0.17406681,-0.44085497,27.9375,29.0625,28.125,32.125,34.1875,35.125
0.17205253,0.58182836,-0.08966976,-0.69358176,-0.00013723328,0.024356032,-0.17671953,-0.38809127,-0.34831595,0.0601167,3.0765371,-0.62826806,-0.00043879586,-0.08221899,0.0038038383,-0.0004855572,-0.01675921,0.004841556,-0.035218287,0.47022054,-1.4157372,1.9456085,-2.1003878,-1.5695771,2.4475484,-0.08912153,0.123728395,-0.1426704,0.007042994,0.012519164,-0.05381935,0.13407528,0.0,-9.002198,0.8224646,47.660015,-1.0861622,-1.9395039,-3.3455234,-0.25017083,0.17010383,-0.43511015,27.9375,29.0625,28.125,32.125,34.1875,35.125
0.17405258,0.39846477,-0.80892015,-0.86878896,-0.0019837855,0.01074294,-0.16921294,-0.38823882,-0.34830227,0.060116243,3.076499,-0.62835497,-0.0003872857,-0.08275145,0.004488936,-0.0012825913,-0.015930662,0.0033699474,-0.034677174,0.47004,-1.4155083,1.9453329,-2.1003277,-1.5695413,2.447427,-0.09072568,0.12561919,-0.14310715,0.0072830566,0.0124505395,-0.055964366,0.11492168,0.11492168,-9.078813,0.8403672,47.693153,-1.0646715,-1.9997809,-3.3633747,-0.25106892,0.18297997,-0.44861352,27.9375,29.0625,28.125,32.125,34.1875,35.125
0.17605235,0.26859275,-0.5317594,-0.9639359,-0.028917357,0.010322029,-0.16904235,-0.38839078,-0.348289,0.06010535,3.0764797,-0.62836915,-0.00038826538,-0.083467096,0.004559448,-0.0014468012,-0.015370192,0.0021600786,-0.0319195,0.4698716,-1.4152673,1.9450806,-2.1003268,-1.5695294,2.4472702,-0.09148855,0.12770608,-0.14554629,0.008974315,0.012503704,-0.05948366,0.095768064,0.24899697,-9.136273,0.8851263,47.674347,-0.988703,-1.8794822,-3.2750914,-0.25113648,0.2043767,-0.45381665,27.9375,29.0625,28.125,32.125,34.1875,35.125
0.17805243,0.31509843,-1.5776148,-1.1201445,-0.027682627,0.02203495,-0.1644588,-0.3885452,-0.3482701,0.06008998,3.0764813,-0.6284639,-0.00031550566,-0.085825026,0.005019564,-0.00048858,-0.015957676,0.0033812993,-0.030895775,0.4696907,-1.4149908,1.9447812,-2.1002548,-1.569517,2.4471483,-0.09436317,0.1289906,-0.14955714,0.010353269,0.012472445,-0.0633808,0.114921674,0.24899697,-9.193734,0.8090337,47.62419,-1.0455464,-1.9407327,-3.4406,-0.27630547,0.20910883,-0.42083544,27.9375,29.0625,28.125,32.125,34.1875,35.125
0.1800524,0.25773743,-1.6278732,-1.3773242,-0.047901765,0.03338235,-0.17038509,-0.38871464,-0.34825033,0.060087837,3.0764232,-0.62858486,-0.00031806913,-0.08468407,0.0043791495,-0.0010918796,-0.016032537,0.0011494699,-0.027805056,0.46948728,-1.4147501,1.9445065,-2.1002424,-1.5694927,2.447028,-0.09285069,0.12976244,-0.14931211,0.011294872,0.013556919,-0.06495935,0.1340753,0.3256114,-9.308657,0.7597976,47.67614,-1.0123643,-1.947155,-3.3476405,-0.2760297,0.20629513,-0.4055721,27.9375,29.0625,28.125,32.125,34.1875,35.125
0.18205242,0.23043202,-1.8555145,-1.3981241,-0.059843753,0.044472683,-0.16831197,-0.38887116,-0.34825483,0.06007721,3.0763967,-0.62857664,-0.00028115106,-0.085521966,0.0046531693,-0.0021870679,-0.014549843,-0.0011763439,-0.024289567,0.46933106,-1.4144726,1.9442061,-2.100218,-1.5694569,2.44687,-0.09387565,0.13381341,-0.15177491,0.012462433,0.0132902935,-0.069498196,0.095768064,0.4405331,-9.404425,0.82022345,47.652847,-1.144923,-1.9434477,-3.3363981,-0.29600322,0.22077902,-0.38835055,27.9375,29.0625,28.125,32.125,34.1875,35.125
0.1840524,-0.951664,-2.5205576,-1.665741,-0.07052768,0.038241718,-0.15307255,-0.38905212,-0.3482531,0.06007741,3.0763137,-0.6286721,-0.0002510666,-0.08775924,0.0041685654,-0.0004582643,-0.01718044,0.002175993,-0.018539023,0.46912628,-1.4141963,1.9438823,-2.1001942,-1.5693969,2.4467356,-0.095514864,0.13354462,-0.15537359,0.01216345,0.014124077,-0.076886244,-0.038307227,0.49799395,-9.423578,0.8314132,47.642998,-0.936885,-1.9341857,-3.301506,-0.30473393,0.21698534,-0.32355145,27.9375,29.0625,28.125,32.125,34.1875,35.125
0.18605171,-1.5222825,-3.1539457,-1.9007704,-0.07291758,0.04454794,-0.15648587,-0.38922116,-0.3482221,0.06009227,3.076314,-0.6287284,-0.00028790056,-0.08759434,0.0041751903,-0.0009796231,-0.016392764,0.0011321165,-0.017029919,0.4689346,-1.4139798,1.9435829,-2.1001222,-1.5694207,2.4465792,-0.09518361,0.13473694,-0.1556752,0.012563117,0.013897561,-0.07806368,-0.11492168,0.61291564,-9.557653,0.87393653,47.650166,-1.2161174,-1.9128478,-3.4805055,-0.29940975,0.22788787,-0.29090387,27.9375,29.0625,28.125,32.125,34.1875,35.125
0.18805245,-0.8036933,-3.12901,-2.070841,-0.081442036,0.079197,-0.16640478,-0.3893768,-0.34823662,0.060060475,3.0762944,-0.6286455,-0.00014443413,-0.0887443,0.0044565336,-0.001104296,-0.016984383,0.00079803105,-0.014248458,0.46876583,-1.4136429,1.9432596,-2.1000865,-1.5693363,2.4463613,-0.097101815,0.1363115,-0.15725753,0.012614255,0.014575885,-0.08276337,-0.095768064,0.6703765,-9.749189,0.842603,47.617924,-1.1563612,-1.923653,-3.447505,-0.3225353,0.23611763,-0.21140361,27.9375,29.0625,28.125,32.125,34.1875,35.125
0.19005243,-1.324183,-3.0576503,-2.0002627,-0.09093662,0.07802252,-0.16019383,-0.38953257,-0.34821603,0.060054876,3.076261,-0.62875336,-0.00010438903,-0.089647494,0.004093302,-0.0011634039,-0.017554257,0.0007645791,-0.01281642,0.46857372,-1.4134018,1.942984,-2.1000388,-1.569312,2.446241,-0.09755946,0.13824435,-0.15936863,0.012570473,0.01509741,-0.08465217,-0.19153613,0.6703765,-9.80665,0.81351066,47.687782,-1.1767539,-1.9660246,-3.3787918,-0.32515788,0.24249864,-0.1814684,27.9375,29.0625,28.125,32.125,34.1875,35.125
0.19205244,-0.86289793,-2.7471366,-2.0108547,-0.09406275,0.094939016,-0.17253733,-0.38974664,-0.34821635,0.060071565,3.076187,-0.628776,-0.00023636587,-0.091091946,0.0036271706,-0.0005835673,-0.019667512,0.0022993335,-0.013033601,0.46838152,-1.4131254,1.9426359,-2.100075,-1.5693115,2.4460726,-0.098741844,0.13908896,-0.16144955,0.011483246,0.016295167,-0.0856148,-0.30645782,0.5554548,-9.768343,0.86945957,47.660015,-1.1987072,-1.8758848,-3.3953083,-0.3169308,0.24072129,-0.14310707,27.9375,29.0625,28.125,32.125,34.1875,35.125
0.19405241,-1.0810574,-2.5963774,-1.8736918,-0.07225331,0.0850957,-0.1639282,-0.38990885,-0.34821847,0.06005885,3.0761523,-0.62875015,-0.00016210818,-0.09242943,0.0035143488,-0.00019310055,-0.020412836,0.0035730207,-0.014282847,0.4682012,-1.4128369,1.9423245,-2.1000392,-1.5692519,2.4458807,-0.09974638,0.14015813,-0.16349792,0.010996953,0.016380461,-0.085369185,-0.28730422,0.51714754,-9.768343,0.79560274,47.664497,-1.1662992,-1.7975156,-3.3394132,-0.30034178,0.25051647,-0.119886935,27.9375,29.0625,28.125,32.125,34.1875,35.125
0.19605242,-1.1041381,-1.4037594,-1.9335798,-0.060695935,0.07587898,-0.1641742,-0.39009875,-0.3482255,0.06006863,3.0760534,-0.628808,-0.00014806274,-0.0939725,0.0032560416,-0.00033496344,-0.021308899,0.0045603504,-0.01671605,0.46799684,-1.4125596,1.9419774,-2.1000154,-1.5691799,2.4457252,-0.10083989,0.14253543,-0.16559163,0.009434332,0.016731363,-0.08402727,-0.2681506,0.2681506,-9.691729,0.8112748,47.65912,-1.2214618,-1.9196299,-3.3371797,-0.29328638,0.24061352,-0.10182905,27.9375,29.0625,28.125,32.125,34.1875,35.125
0.19805248,-0.79443264,-0.9524089,-1.5685854,-0.03523491,0.075429454,-0.17994273,-0.39029494,-0.34821856,0.060055364,3.0760195,-0.6288419,-0.00013658094,-0.09459082,0.0029873908,-0.0018019386,-0.021422036,0.0025137903,-0.02032086,0.4677926,-1.412234,1.9416298,-2.100004,-1.5691551,2.4455466,-0.101514034,0.1467047,-0.16683048,0.00827714,0.01774971,-0.08109527,-0.34476507,0.15322891,-9.749189,0.83813137,47.645687,-1.2541463,-1.9917951,-3.3654113,-0.28424212,0.2430959,-0.118236795,27.9375,29.0625,28.125,32.125,34.1875,35.125
0.20005241,-1.2007921,-0.74334043,-1.5553334,-0.021348469,0.073777065,-0.16929933,-0.39049435,-0.34821662,0.06006688,3.075947,-0.62886894,-0.00017481594,-0.09651985,0.0040391735,-0.0018028448,-0.021900356,0.003433328,-0.02824347,0.46758744,-1.4119574,1.9412822,-2.0999925,-1.5691193,2.4453678,-0.10503779,0.14779353,-0.16787367,0.007195015,0.017758802,-0.07669461,-0.36391866,0.019153614,-9.595961,0.82022345,47.64837,-1.2069659,-1.9916062,-3.4304857,-0.26743615,0.24155459,-0.14088216,27.9375,29.0625,28.125,32.125,34.1875,35.125
0.20205231,-0.96301883,-0.06201919,-1.1657118,-0.013029641,0.09780958,-0.17629033,-0.39069304,-0.34822395,0.06007132,3.0758345,-0.62903774,-0.00017350308,-0.09751075,0.0025464993,-0.0016142677,-0.02309073,0.0042982143,-0.028229753,0.4673838,-1.4116561,1.9409221,-2.0999806,-1.5690593,2.4452841,-0.10365889,0.15059862,-0.17145787,0.006669408,0.018427161,-0.07532652,-0.40222588,0.0,-9.557653,0.81351066,47.655537,-1.2278695,-2.1009622,-3.3269727,-0.2476875,0.2419537,-0.16379331,27.9375,29.0625,28.125,32.125,34.1875,35.125
0.20405228,-1.0639553,0.3214407,-1.1799546,-0.0077522984,0.10487746,-0.17885011,-0.3908787,-0.3482086,0.060061608,3.075812,-0.6290763,-0.00020063265,-0.099324286,0.004171908,-0.0017259519,-0.02287128,0.003932767,-0.037774928,0.46719047,-1.4113673,1.9406112,-2.0999806,-1.5690593,2.445118,-0.108062215,0.15162647,-0.17253777,0.007142263,0.018391723,-0.070183754,-0.47884035,-0.1340753,-9.519346,0.8672237,47.647476,-1.2172915,-2.1521587,-3.4571187,-0.24268284,0.2338427,-0.21939392,27.9375,29.0625,28.125,32.125,34.1875,35.125
0.20605211,-0.9651793,0.25393063,-1.0251006,0.003946163,0.1101411,-0.17050868,-0.3910997,-0.34821543,0.060071725,3.075674,-0.6292011,-0.00020571986,-0.09901066,0.0037686676,-0.0021981285,-0.022211136,0.0034019756,-0.037928812,0.46695098,-1.4110548,1.9402279,-2.0999806,-1.5689753,2.4449742,-0.106774405,0.15284516,-0.17289098,0.00705719,0.018046327,-0.06874051,-0.61291564,-0.24899697,-9.500193,0.86945957,47.647476,-1.1098412,-2.1002011,-3.4617922,-0.23697321,0.24981147,-0.2583702,27.9375,29.0625,28.125,32.125,34.1875,35.125
0.20805196,-0.8952753,0.32309917,-0.85465735,0.00072488794,0.115739785,-0.17404374,-0.39129838,-0.348211,0.060088,3.075608,-0.62926364,-0.00027761175,-0.09959977,0.0052607087,-0.004173673,-0.020460278,-0.000506628,-0.038043406,0.46675783,-1.4107895,1.9398817,-2.0999677,-1.5689634,2.4448287,-0.10999938,0.15658352,-0.17285575,0.0075708283,0.01825483,-0.07184927,-0.59376204,-0.19153613,-9.385271,0.8493211,47.63315,-1.0634634,-2.0603256,-3.5240912,-0.2361526,0.24537247,-0.25454012,27.9375,29.0625,28.125,32.125,34.1875,35.125
0.21005195,-1.1566762,0.2964942,-0.8997891,0.0014736103,0.10000518,-0.16108237,-0.39148656,-0.34819406,0.06007,3.0755432,-0.62942576,-0.00021640096,-0.101237915,0.0057091345,-0.0022917467,-0.022296144,0.0027147739,-0.04207666,0.466529,-1.4104776,1.9395574,-2.0999439,-1.5689152,2.4447095,-0.11230129,0.15412153,-0.1744257,0.007903943,0.018441409,-0.07011794,-0.5746084,-0.15322891,-9.32781,0.779936,47.677036,-0.94900554,-2.073613,-3.5160782,-0.22917867,0.2515922,-0.2664512,27.9375,29.0625,28.125,32.125,34.1875,35.125
0.21205202,-1.1959509,0.09242263,-0.72860277,0.00027414842,0.089236364,-0.1680552,-0.39172715,-0.34818593,0.06007897,3.075428,-0.6295168,-0.00031132356,-0.102939285,0.0055938493,-0.0023614478,-0.02245039,0.0027731103,-0.04293807,0.46627668,-1.4101644,1.9391865,-2.099992,-1.568879,2.444529,-0.1136086,0.15719113,-0.17792681,0.008221663,0.018557379,-0.07055991,-0.5746084,-0.22984336,-9.289502,0.8873621,47.6636,-0.949569,-2.1666598,-3.40504,-0.21466807,0.25224006,-0.30114633,27.9375,29.0625,28.125,32.125,34.1875,35.125
0.21405216,-1.3047947,-0.13637723,-0.6631055,-0.007470601,0.07826662,-0.15949748,-0.39189517,-0.34817564,0.06006518,3.0754373,-0.6296152,-0.00025180422,-0.10494109,0.0053054243,-0.0011628597,-0.02350953,0.004906307,-0.043354023,0.4661083,-1.4098518,1.9388379,-2.099908,-1.5688785,2.444421,-0.11481568,0.15811211,-0.18192998,0.008926911,0.018537788,-0.07135013,-0.7278373,-0.095768064,-9.193734,0.8493211,47.683304,-0.9209423,-2.0846548,-3.344017,-0.19360211,0.25708967,-0.31012756,27.9375,29.0625,28.125,32.125,34.1875,35.125
0.21605223,-0.7431393,-0.10934807,-0.7023527,-0.020190598,0.106473655,-0.17708497,-0.3921297,-0.34819517,0.060096465,3.0752788,-0.629698,-0.0003148055,-0.106417105,0.0049626995,-0.00067165546,-0.023505822,0.00642096,-0.04360888,0.46588016,-1.409551,1.9384192,-2.0999076,-1.5687951,2.4442651,-0.115010366,0.15986459,-0.18514374,0.009049284,0.01785903,-0.07128631,-0.7661445,0.076614454,-9.11712,0.8023209,47.647476,-1.0009907,-2.0788455,-3.325456,-0.19543597,0.2673992,-0.33519095,27.9375,29.0625,28.125,32.125,34.1875,35.125
0.21805233,-1.2814748,-0.39445576,-0.85470384,-0.018948995,0.10919866,-0.17125511,-0.39235246,-0.34815082,0.060088404,3.075241,-0.6298445,-0.00032896493,-0.10702373,0.0053074653,-0.0002578742,-0.024048476,0.006011717,-0.04460416,0.46560368,-1.4092386,1.9380711,-2.0998833,-1.5687951,2.4440851,-0.11650573,0.15982996,-0.18642145,0.0104871895,0.01853436,-0.071785785,-0.57460845,0.13407528,-9.270349,0.83813137,47.655537,-1.0532597,-1.9663267,-3.2866106,-0.20909165,0.279209,-0.35172683,27.9375,29.0625,28.125,32.125,34.1875,35.125
0.22005247,-1.7673159,-1.5186929,-0.9886981,-0.0238358,0.114769734,-0.1705075,-0.39254194,-0.34813064,0.060068116,3.075217,-0.6299714,-0.00023267718,-0.10688722,0.0041021532,-0.00024220547,-0.024495816,0.005417321,-0.041200224,0.4653763,-1.4089019,1.9377121,-2.0998113,-1.5687588,2.4439402,-0.114619724,0.16147585,-0.1886107,0.011368315,0.019200789,-0.07330348,-0.6512228,0.24899697,-9.251195,0.78888994,47.6636,-1.1082206,-1.8890162,-3.2666163,-0.20980641,0.27379885,-0.34673318,27.9375,29.0625,28.125,32.125,34.1875,35.125
0.22205248,-1.6102003,-2.0180058,-0.95407176,-0.04275786,0.11676105,-0.16268505,-0.39277515,-0.34812245,0.060082223,3.0751476,-0.6300144,-0.00032088294,-0.108552136,0.005546866,-0.0012354216,-0.023037922,0.0034597942,-0.042402584,0.4651471,-1.4085882,1.9373173,-2.0998108,-1.5687474,2.443747,-0.11829634,0.16488972,-0.19055662,0.012315396,0.018787656,-0.075775154,-0.5554548,0.36391866,-9.193734,0.8247004,47.63136,-1.1167799,-2.0399284,-3.283526,-0.20554876,0.2851644,-0.36066914,27.9375,29.0625,28.125,32.125,34.1875,35.125
0.22405212,-1.4908363,-2.0065532,-1.0014526,-0.058897562,0.09767538,-0.16169062,-0.39298055,-0.3481011,0.06005964,3.075076,-0.6302465,-0.00024286943,-0.10920496,0.0041625067,8.86564e-05,-0.02459353,0.006276217,-0.037316084,0.4648959,-1.4082401,1.9369582,-2.099775,-1.5686988,2.44365,-0.11644398,0.16452491,-0.19315071,0.012073692,0.018916335,-0.079008676,-0.34476504,0.4213795,-9.308657,0.81351066,47.645687,-1.1559368,-1.8720977,-3.3557112,-0.22340456,0.29958686,-0.32941705,27.9375,29.0625,28.125,32.125,34.1875,35.125
0.2260522,-1.1105299,-1.9021261,-1.1459883,-0.060138572,0.0810615,-0.16640206,-0.3932118,-0.34809405,0.060079042,3.0749607,-0.6304136,-0.0003093395,-0.11006281,0.004885806,-2.801488e-06,-0.024650436,0.006545334,-0.03538143,0.46465522,-1.4079399,1.9365643,-2.0997636,-1.568663,2.4435287,-0.118357636,0.16490668,-0.1933233,0.011613736,0.01886259,-0.08285539,-0.36391866,0.47884035,-9.346964,0.8672237,47.63852,-1.1524266,-1.8485026,-3.4081464,-0.19957566,0.3098579,-0.3124485,27.9375,29.0625,28.125,32.125,34.1875,35.125
0.22805215,-0.5351977,-1.6887423,-1.0944656,-0.06760609,0.067101374,-0.1759236,-0.39345494,-0.34808448,0.06008179,3.0749054,-0.63041866,-0.0003842718,-0.1114067,0.005003155,5.8149435e-05,-0.024697663,0.0072352584,-0.032156587,0.46441504,-1.4075909,1.9361571,-2.0997756,-1.5686511,2.443299,-0.11950628,0.16663814,-0.19547147,0.011407723,0.01860871,-0.08722651,-0.24899697,0.34476504,-9.270349,0.9097417,47.62688,-1.081738,-1.8993561,-3.338401,-0.21732086,0.30945015,-0.25539392,27.9375,29.0625,28.125,32.125,34.1875,35.125
0.23009704,-0.7131813,-1.6302092,-1.1280396,-0.047642156,0.03855991,-0.16287225,-0.3936715,-0.34808993,0.060079843,3.0748174,-0.6304931,-0.0003425241,-0.11265555,0.0047555463,0.0003788468,-0.026043989,0.008622113,-0.02759152,0.4641866,-1.407242,1.9357499,-2.0997403,-1.5685791,2.4431286,-0.12047337,0.1675667,-0.19706441,0.010249156,0.019202027,-0.09275708,-0.038307227,0.2681506,-9.270349,0.83365434,47.675243,-1.0565208,-1.8638728,-3.2963095,-0.18054761,0.3311375,-0.21423279,27.9375,29.0625,28.125,32.125,34.1875,35.125
0.23205708,0.28308013,-1.0186573,-1.1257211,-0.037948422,0.051700886,-0.17719778,-0.39389345,-0.34805617,0.06004984,3.074801,-0.63052815,-0.00032689347,-0.11311979,0.004790226,-0.0003825084,-0.026229393,0.0073722103,-0.02640991,0.46392238,-1.406881,1.9354032,-2.0997517,-1.5685662,2.4428885,-0.12132666,0.1697637,-0.1978441,0.00987463,0.01993324,-0.09479111,0.019153614,0.36391866,-9.270349,0.82694155,47.65106,-1.0506818,-1.8969535,-3.225067,-0.15741637,0.33431447,-0.14972396,27.9375,29.0625,28.125,32.125,34.1875,35.125
0.234058,0.61112905,-0.82082903,-1.0948411,-0.03376565,0.05466321,-0.17351969,-0.39415756,-0.3480456,0.060062222,3.074729,-0.6306658,-0.00041126634,-0.113591105,0.004978477,-0.001986428,-0.025056444,0.0041141016,-0.024797913,0.46367002,-1.4065069,1.9349364,-2.0997274,-1.5685662,2.4427316,-0.12224985,0.17426418,-0.1996256,0.010603232,0.020355154,-0.09732346,0.019153614,0.3256114,-9.289502,0.87617236,47.66091,-1.038501,-2.065608,-3.2626853,-0.15126662,0.32427996,-0.10665201,27.9375,29.0625,28.125,32.125,34.1875,35.125
0.2360574,-0.093500815,-0.8214177,-1.2716486,-0.0336606,0.027825788,-0.16817705,-0.39437476,-0.34804463,0.060057852,3.0746374,-0.6307228,-0.0003837175,-0.113935135,0.0043995352,-0.0025515112,-0.02539233,0.0027219944,-0.023906598,0.4634303,-1.4061698,1.9345535,-2.099716,-1.5684942,2.4425395,-0.1220445,0.17691705,-0.20154949,0.010979471,0.021282839,-0.09800714,0.11492168,0.2681506,-9.308656,0.8873621,47.67614,-1.1845843,-1.9304788,-3.4183795,-0.15439923,0.33100498,-0.05217331,27.9375,29.0625,28.125,32.125,34.1875,35.125
0.2380532,0.3189166,-1.0775348,-1.27683,-0.034194358,0.03036435,-0.16920486,-0.39461565,-0.34802416,0.060060844,3.0745785,-0.6308084,-0.00040168467,-0.114630096,0.003754374,-0.0013361973,-0.026932523,0.004150085,-0.02616927,0.4631659,-1.4058218,1.9341353,-2.0996792,-1.5684699,2.4423363,-0.12190283,0.17627059,-0.2038489,0.011959776,0.022021998,-0.095601,0.15322891,0.24899697,-9.251195,0.8224646,47.666286,-1.0581815,-2.113682,-3.3769567,-0.13938573,0.32379067,-0.062285513,27.9375,29.0625,28.125,32.125,34.1875,35.125
0.24005227,0.6784183,-1.418019,-1.3886194,-0.04006555,0.034425773,-0.16522872,-0.39484647,-0.34800902,0.06004161,3.074532,-0.6308971,-0.0003656376,-0.11709407,0.004940378,-0.0013383883,-0.027270086,0.004076665,-0.03262538,0.46291268,-1.4054368,1.9337276,-2.0996554,-1.5684341,2.4421446,-0.12627897,0.17858557,-0.20669188,0.012406028,0.022351284,-0.09351941,0.15322891,0.30645782,-9.2703495,0.9388393,47.690468,-1.187999,-2.1514132,-3.3525527,-0.14348534,0.34017956,-0.07579785,27.9375,29.0625,28.125,32.125,34.1875,35.125
0.24205253,0.7265025,-0.9830008,-1.3917623,-0.04234692,0.02675225,-0.1716342,-0.39506096,-0.34802735,0.06003337,3.0744584,-0.6309014,-0.00032244125,-0.1170193,0.0042772484,-0.0017848448,-0.02669615,0.0033952564,-0.034305055,0.46270937,-1.4050635,1.9333085,-2.0996315,-1.5683616,2.4419537,-0.12483117,0.18057223,-0.20810853,0.012707036,0.02213827,-0.09039082,0.3256114,0.21068975,-9.385271,0.8717007,47.660015,-1.146229,-2.1945648,-3.3840566,-0.13304576,0.34186038,-0.08877144,27.9375,29.0625,28.125,32.125,34.1875,35.125
0.24405284,0.7363873,-1.401854,-1.4538563,-0.040272456,0.025200188,-0.1632128,-0.39527234,-0.34800878,0.060006328,3.0744073,-0.63099015,-0.00020454961,-0.11741146,0.0046483134,-0.0023190011,-0.026477272,0.0019023529,-0.038772684,0.46244484,-1.4046907,1.932927,-2.0995834,-1.5682901,2.4417512,-0.12603495,0.18213086,-0.20891926,0.013395923,0.022602005,-0.087127216,0.21068975,0.2681506,-9.3661175,0.9186956,47.668976,-1.1641941,-2.1199398,-3.4428883,-0.117899075,0.335195,-0.1260485,27.9375,29.0625,28.125,32.125,34.1875,35.125
0.2460522,0.5083736,-1.0339501,-1.2026317,-0.049253874,0.029910149,-0.16548921,-0.39553353,-0.34801167,0.060016893,3.0742972,-0.6311419,-0.00029456202,-0.11836036,0.005348753,-0.0036025953,-0.025864251,-0.0004238521,-0.044375017,0.46220404,-1.4043174,1.9324726,-2.0995948,-1.5682653,2.4416196,-0.12831403,0.1856203,-0.2101198,0.0134605225,0.023092411,-0.08380063,0.05746084,0.22984336,-9.385271,0.8112748,47.65464,-1.1137211,-2.1179857,-3.4365623,-0.10348807,0.33230513,-0.17330946,27.9375,29.0625,28.125,32.125,34.1875,35.125
0.24805228,0.3017212,-0.6056064,-1.2406949,-0.039068013,0.03197968,-0.17216682,-0.3957808,-0.34799144,0.060022023,3.0742207,-0.63130116,-0.0002889061,-0.119575344,0.004842712,-0.0024561577,-0.026886595,0.0013900538,-0.046975505,0.46192813,-1.4039569,1.9320291,-2.0995352,-1.5682296,2.4414532,-0.12845902,0.18578845,-0.21317221,0.014268514,0.0231942,-0.081343375,0.038307227,0.22984336,-9.3661175,0.83589023,47.64389,-1.0940784,-2.1445425,-3.4500809,-0.124751285,0.35599285,-0.22386223,27.9375,29.0625,28.125,32.125,34.1875,35.125
0.25005236,0.27141106,-0.96707124,-1.2210795,-0.03611538,0.051264025,-0.17125762,-0.3960044,-0.3479842,0.060010996,3.0741537,-0.63144135,-0.00023909028,-0.11996572,0.004852422,-0.002758171,-0.027838646,0.00023300372,-0.049560938,0.46168777,-1.4035841,1.931611,-2.0994875,-1.5681809,2.4413092,-0.12959778,0.18694606,-0.21394174,0.014493314,0.02456071,-0.079895504,-0.019153614,0.3256114,-9.442732,0.8493211,47.681515,-1.1461524,-2.2562714,-3.5105023,-0.11244425,0.34859148,-0.25510406,27.9375,29.0625,28.125,32.125,34.1875,35.125
0.2520523,-0.42753443,-1.3797084,-1.0047455,-0.036547758,0.06031057,-0.16538313,-0.39624766,-0.34795243,0.059997234,3.0741034,-0.6316053,-0.00023905792,-0.12156237,0.005753762,-0.0026456937,-0.028879559,-0.00040773363,-0.053584438,0.46141043,-1.4032111,1.9312037,-2.0994627,-1.5681685,2.441141,-0.13325506,0.18804142,-0.21571364,0.015282725,0.02577945,-0.07952753,-0.19153613,0.2681506,-9.270349,0.8493211,47.67345,-0.9798016,-2.1940918,-3.3992214,-0.11185255,0.3274886,-0.30174372,27.9375,29.0625,28.125,32.125,34.1875,35.125
0.2540525,-0.5777884,-0.93809265,-1.1173978,-0.043319248,0.07753288,-0.16990249,-0.3964724,-0.34795466,0.059985716,3.0740294,-0.6316846,-0.00016790348,-0.12195411,0.0046308595,-0.00195906,-0.029461615,0.0008631356,-0.05139263,0.46117124,-1.4028265,1.9307727,-2.099415,-1.5680965,2.440961,-0.13150786,0.1887321,-0.2182524,0.015747003,0.025734514,-0.07997118,-0.19153613,0.28730422,-9.442732,0.86498255,47.66987,-1.1495154,-2.1656892,-3.4529376,-0.114140674,0.3465222,-0.2906497,27.9375,29.0625,28.125,32.125,34.1875,35.125
0.2560519,-1.4639043,-1.0493417,-1.1769048,-0.043678097,0.083577104,-0.16760975,-0.3967198,-0.34795538,0.05998823,3.0739005,-0.63187134,-0.00010114565,-0.12315147,0.0048525874,-0.0026236158,-0.029302359,-0.0007997319,-0.055953056,0.46089455,-1.4024409,1.9303054,-2.0993545,-1.5680007,2.4408176,-0.1332182,0.1920932,-0.22090437,0.016603235,0.026326977,-0.0771187,-0.40222588,0.21068975,-9.5385,0.8560339,47.66987,-0.961853,-2.1734776,-3.411448,-0.10122896,0.31275493,-0.36330512,27.9375,29.0625,28.125,32.125,34.1875,35.125
0.2580524,-1.6039745,-1.2869425,-1.3742826,-0.034964964,0.111218505,-0.16613223,-0.39694208,-0.34795317,0.05996923,3.0738206,-0.6320082,1.1903721e-05,-0.12382183,0.004516549,-0.0013211458,-0.030349785,0.0010677305,-0.054450657,0.46064252,-1.4020455,1.9298757,-2.0992944,-1.5679168,2.4406614,-0.13318929,0.19085546,-0.22271374,0.01752879,0.026437504,-0.07859251,-0.6895301,0.21068975,-9.442732,0.91421866,47.661808,-1.1451904,-2.0216618,-3.4933126,-0.11859669,0.30525222,-0.40850264,27.9375,29.0625,28.125,32.125,34.1875,35.125
0.26005244,-1.7014282,-0.7843191,-1.3336148,-0.035578318,0.12575878,-0.16613151,-0.39715865,-0.34794202,0.059939962,3.073764,-0.63213074,7.551629e-05,-0.12426588,0.004523323,-0.0013071571,-0.031244772,0.0006368882,-0.055537064,0.4604024,-1.4016606,1.9294924,-2.0992825,-1.5678681,2.4405053,-0.13412893,0.19141826,-0.22352205,0.017768878,0.027431568,-0.0784452,-0.59376204,0.21068975,-9.5385,0.80679786,47.678825,-1.1937014,-2.0140517,-3.5493798,-0.12722492,0.30090654,-0.4210862,27.9375,29.0625,28.125,32.125,34.1875,35.125
0.26205257,-1.900642,-1.0615082,-1.4855767,-0.02955746,0.13100372,-0.16984826,-0.39743665,-0.34793591,0.059952125,3.0736022,-0.6323845,4.55999e-05,-0.12490156,0.0035877193,-0.00128277,-0.032657642,0.00044843132,-0.053421866,0.46010247,-1.4012756,1.9290146,-2.0992706,-1.5677956,2.4403849,-0.13379113,0.19338185,-0.22592296,0.017761854,0.028790493,-0.080218196,-0.6703765,0.19153613,-9.576807,0.8940802,47.65464,-1.2588198,-2.1237197,-3.450025,-0.124721825,0.2888949,-0.45529976,27.9375,29.0625,28.125,32.125,34.1875,35.125
0.26405275,-1.8024081,-1.0832871,-1.4330877,-0.03682262,0.13170259,-0.16770919,-0.39770523,-0.3479312,0.05994585,3.0735059,-0.6324585,7.077869e-05,-0.12674396,0.0036823917,-0.000316642,-0.03400657,0.0028952942,-0.051603556,0.45981374,-1.400855,1.9285344,-2.0992467,-1.5677236,2.440155,-0.13553363,0.19354792,-0.22825201,0.01715768,0.028922036,-0.08377694,-0.7469909,0.095768064,-9.5385,0.8918391,47.684196,-1.1814306,-2.0472379,-3.4086843,-0.10890445,0.24464093,-0.46186242,27.9375,29.0625,28.125,32.125,34.1875,35.125
0.2660518,-1.926254,-0.7956508,-1.5596807,-0.019663056,0.11542029,-0.16756785,-0.39796856,-0.34792635,0.05996642,3.07338,-0.6326226,4.354783e-05,-0.12838772,0.0040950016,-0.00031820478,-0.0342802,0.0037530672,-0.048330333,0.45953718,-1.4004941,1.9280571,-2.099199,-1.5676636,2.4399974,-0.13750248,0.19528411,-0.23017766,0.016486285,0.028803749,-0.08901611,-0.6703765,0.019153614,-9.576807,0.86498255,47.653748,-1.1846714,-1.9227811,-3.3903213,-0.11712276,0.25581,-0.43987843,27.9375,29.0625,28.125,32.125,34.1875,35.125
0.26805183,-1.2415686,0.061459776,-1.4259763,-0.010417926,0.104908,-0.17578857,-0.39821708,-0.3479076,0.059927206,3.0733035,-0.63283336,0.00013365677,-0.12907647,0.0037112294,-0.0015490544,-0.034668826,0.001764418,-0.043025162,0.45924914,-1.4000489,1.9276255,-2.0991871,-1.567603,2.439851,-0.13810916,0.19931827,-0.23202477,0.015936932,0.030044792,-0.0949264,-0.63206923,-0.019153614,-9.653421,0.9030289,47.647476,-1.16981,-2.0038087,-3.4572096,-0.094293475,0.21998584,-0.38158768,27.9375,29.0625,28.125,32.125,34.1875,35.125
0.27005175,-1.3238285,-0.27438986,-1.4731632,0.0010911116,0.09644857,-0.1663795,-0.39846304,-0.34790117,0.059920613,3.0732753,-0.6328053,0.00012748019,-0.13085602,0.0034053102,-0.00060207397,-0.035382617,0.0042231935,-0.03800598,0.45900863,-1.399652,1.9271706,-2.0991518,-1.5675796,2.439597,-0.13874225,0.20025499,-0.23531364,0.015797146,0.029607031,-0.10057695,-0.6703765,-0.038307227,-9.481039,0.8493211,47.696735,-1.1192486,-2.0158088,-3.5207567,-0.06271276,0.21539304,-0.3376842,27.9375,29.0625,28.125,32.125,34.1875,35.125
0.2720518,-1.1758177,-0.32224336,-1.3618126,-0.0075289924,0.10432797,-0.16860867,-0.39872834,-0.3478829,0.059912477,3.073194,-0.6329018,0.00015944462,-0.13237841,0.0048918473,-0.00038783235,-0.034393664,0.004536932,-0.03534318,0.45870784,-1.3992431,1.9267048,-2.0991151,-1.56752,2.439367,-0.1419111,0.20070106,-0.23664519,0.016876286,0.028602341,-0.10640862,-0.7086837,0.05746084,-9.461885,0.89631605,47.693153,-1.1079469,-2.12757,-3.552871,-0.06409566,0.20520267,-0.27128083,27.9375,29.0625,28.125,32.125,34.1875,35.125
0.27405214,-1.2499751,-0.5194105,-1.3837159,-0.01629627,0.10941589,-0.17756696,-0.39900225,-0.3478787,0.059921265,3.0730598,-0.6330434,0.00016975602,-0.1315545,0.0045395927,-0.0013773104,-0.033245247,0.0021842322,-0.030051729,0.45840845,-1.3988463,1.9262146,-2.0990794,-1.5674351,2.4391737,-0.1404778,0.20264065,-0.23695776,0.017897349,0.028636286,-0.110265054,-0.49799395,-0.019153614,-9.481039,0.8851263,47.682407,-1.2001958,-2.0856216,-3.6560764,-0.07724695,0.21527216,-0.20263472,27.9375,29.0625,28.125,32.125,34.1875,35.125
0.2760523,-1.5384305,-0.79854614,-1.5897355,-0.014457531,0.08969634,-0.16383797,-0.3992806,-0.34785575,0.05992503,3.0729759,-0.6331221,0.00015851,-0.13286157,0.0042596734,-0.0008172533,-0.03409061,0.0026347437,-0.029515939,0.45809618,-1.3984494,1.9257354,-2.0990427,-1.5673875,2.4389217,-0.14135833,0.20406066,-0.240203,0.018961573,0.029204283,-0.11167822,-0.4213795,0.095768064,-9.5385,0.8851263,47.66808,-1.2033868,-2.1222396,-3.5834332,-0.08691417,0.19758078,-0.17795958,27.9375,29.0625,28.125,32.125,34.1875,35.125
0.27805248,-0.96357316,-0.70599216,-1.2873827,-0.036072444,0.089324825,-0.16409616,-0.3995405,-0.3478561,0.059915084,3.072917,-0.6331665,0.00012345536,-0.1345704,0.0037747235,-0.00014392867,-0.035401177,0.0036929012,-0.029848149,0.45785573,-1.3980286,1.9252676,-2.0990427,-1.5673631,2.438717,-0.14233325,0.20584126,-0.24400392,0.019462818,0.029916007,-0.11231717,-0.40222588,0.15322891,-9.385271,0.9545008,47.66808,-1.1047058,-2.1601229,-3.5659003,-0.0758043,0.17464468,-0.110357724,27.9375,29.0625,28.125,32.125,34.1875,35.125
0.2800525,-0.9221785,-1.1234584,-1.5378331,-0.025109608,0.06397342,-0.1648738,-0.39983597,-0.34781256,0.0599227,3.072839,-0.6333828,0.000120323006,-0.13519904,0.0030067144,-0.00037482232,-0.03559627,0.004096188,-0.03212306,0.45750794,-1.3976194,1.924754,-2.0989592,-1.5673388,2.4385145,-0.14139569,0.20812747,-0.24606985,0.01879718,0.029907731,-0.10910289,-0.24899697,0.11492168,-9.385271,0.7866488,47.65464,-1.136692,-2.2166455,-3.415362,-0.070138045,0.17661351,-0.14874691,27.9375,29.0625,28.125,32.125,34.1875,35.125
0.2820522,-0.32106143,-1.0801455,-1.3158456,-0.033353917,0.053934496,-0.16028921,-0.40010327,-0.34781256,0.059916,3.0727394,-0.63344365,0.0001334412,-0.13765934,0.0037830425,0.00020107413,-0.03636252,0.00520912,-0.04014559,0.45723075,-1.3971981,1.9242753,-2.0989468,-1.5672668,2.4382885,-0.1448805,0.20965251,-0.24933024,0.01919581,0.030096507,-0.10456219,-0.076614454,0.19153613,-9.576807,0.85826975,47.691364,-1.0854328,-2.2652454,-3.5258412,-0.06788752,0.16335684,-0.14941128,27.9375,29.0625,28.125,32.125,34.1875,35.125
0.2840523,-0.37642166,-1.5087465,-1.3945521,-0.045838136,0.046281565,-0.16409814,-0.4003664,-0.34780383,0.059890892,3.072622,-0.6335934,0.000238798,-0.13826188,0.003228264,-0.00012951004,-0.03620574,0.005060592,-0.045033433,0.45691952,-1.396753,1.923808,-2.098923,-1.567159,2.438086,-0.14425066,0.21207383,-0.25147262,0.019121084,0.030008717,-0.09904352,-0.21068975,0.34476504,-9.461885,0.8806493,47.703007,-1.2519968,-2.2561994,-3.3826098,-0.05100232,0.16069828,-0.23870379,27.9375,29.0625,28.125,32.125,34.1875,35.125
0.28605244,0.012947518,-1.3884497,-1.463056,-0.061187956,0.056884766,-0.16920803,-0.40065303,-0.347796,0.059918694,3.0725117,-0.6337066,0.00012866683,-0.1403088,0.0032595925,0.0011162126,-0.037716627,0.007709093,-0.048655376,0.4566429,-1.3963808,1.9233049,-2.0988991,-1.5671352,2.4378948,-0.14606778,0.2121856,-0.25447303,0.0189701,0.03020155,-0.0972341,-0.095768064,0.3256114,-9.3661175,0.8873621,47.69763,-1.1811545,-2.181153,-3.3142161,-0.034304477,0.1557789,-0.2729528,27.9375,29.0625,28.125,32.125,34.1875,35.125
0.28805256,-0.2153403,-1.7092085,-1.3823055,-0.058381084,0.0483209,-0.16472667,-0.40094495,-0.34777445,0.059921913,3.0724251,-0.63388175,0.0001220767,-0.14149311,0.0038968837,0.0014842242,-0.03771408,0.007834118,-0.05146478,0.45633015,-1.3959483,1.922779,-2.0988386,-1.567099,2.437703,-0.14803502,0.2127921,-0.25637636,0.020166133,0.030151056,-0.09639046,-0.095768064,0.34476504,-9.3661175,0.90527004,47.667187,-1.0485489,-2.0629036,-3.1929889,-0.032633383,0.14213896,-0.285563,27.9375,29.0625,28.125,32.125,34.1875,35.125
0.29005256,-0.41117296,-1.792784,-1.523926,-0.063881755,0.055624023,-0.17380375,-0.4012222,-0.34775424,0.059923798,3.0723336,-0.6340563,0.0001677619,-0.1426056,0.0045680543,0.0020650874,-0.03887611,0.007784994,-0.054262284,0.45601737,-1.3955278,1.9222645,-2.0987542,-1.5670384,2.4375112,-0.15070891,0.21255046,-0.2577626,0.021337446,0.0312236,-0.09626508,-0.05746084,0.45968673,-9.404425,0.8493211,47.68599,-0.9708153,-2.0240715,-3.2937784,-0.046488225,0.1159208,-0.313353,27.9375,29.0625,28.125,32.125,34.1875,35.125
0.29205248,-0.4130136,-1.8281201,-1.6970766,-0.06795493,0.060197826,-0.16261496,-0.40150234,-0.34777135,0.05991123,3.0722396,-0.63407624,0.00020597047,-0.14340533,0.005155715,0.0026348413,-0.03936607,0.00852176,-0.056162443,0.4557526,-1.3950477,1.9217271,-2.0987308,-1.5669545,2.4372714,-0.15237044,0.21184073,-0.2584434,0.021865897,0.031347927,-0.09602539,0.019153614,0.5554548,-9.461885,0.8672237,47.705692,-0.8607222,-1.9105705,-3.4517708,-0.03777657,0.11237646,-0.33909142,27.9375,29.0625,28.125,32.125,34.1875,35.125
0.2940526,-0.61939824,-2.1089165,-1.6939366,-0.06551432,0.05174258,-0.15342633,-0.40179324,-0.3477416,0.059913274,3.0721257,-0.63428366,0.00024953386,-0.14326653,0.005274331,0.0013857909,-0.038921863,0.0067304545,-0.05774855,0.45540473,-1.3946261,1.9212135,-2.0986588,-1.5668825,2.437068,-0.15256315,0.21403551,-0.258077,0.021120101,0.031742632,-0.094630815,0.076614454,0.49799395,-9.500193,0.9186956,47.687782,-0.9111074,-1.9537842,-3.524295,-0.028324692,0.09792563,-0.35695213,27.9375,29.0625,28.125,32.125,34.1875,35.125
0.29605198,-0.75105965,-1.828498,-1.6401143,-0.07041157,0.053044017,-0.15745328,-0.40208116,-0.3477429,0.05991025,3.0720096,-0.6344477,0.00021127169,-0.1433827,0.0051824194,0.00027445823,-0.0377183,0.004927666,-0.05256408,0.45512885,-1.394181,1.9207,-2.0986583,-1.5668343,2.43691,-0.15220457,0.21711138,-0.2593113,0.021459829,0.031478416,-0.09945424,0.019153614,0.38307226,-9.481039,0.95897776,47.69763,-1.0063298,-1.858681,-3.6422548,-0.04020575,0.07047533,-0.35311797,27.9375,29.0625,28.125,32.125,34.1875,35.125
0.29805204,-0.5701091,-1.5528703,-1.4763507,-0.046527635,0.051460333,-0.15741421,-0.40240282,-0.3477213,0.05992932,3.0718794,-0.63461393,0.000113466034,-0.1451606,0.0054288767,0.00026086066,-0.03757504,0.005321176,-0.05363097,0.45479223,-1.3937595,1.9201611,-2.0986469,-1.5667986,2.4366944,-0.1538278,0.21973602,-0.26250005,0.02175089,0.031189743,-0.10000616,0.11492168,0.3256114,-9.442732,0.8605109,47.675243,-0.9848392,-1.9143274,-3.6483607,-0.010839086,0.07555841,-0.36047027,27.9375,29.0625,28.125,32.125,34.1875,35.125
0.3000521,0.06635531,-0.71170145,-1.570687,-0.033566717,0.05665842,-0.16359918,-0.40265924,-0.34773058,0.059909776,3.071748,-0.6347723,0.00025689596,-0.14584747,0.0047851563,0.0013055193,-0.03859098,0.007301774,-0.04521352,0.45450494,-1.3933034,1.9196585,-2.0985868,-1.5666665,2.4365232,-0.15320638,0.2192988,-0.26452103,0.022036903,0.0312565,-0.10780213,0.076614454,0.24899697,-9.557653,0.7911258,47.66539,-1.2193536,-1.9591742,-3.6230278,-0.035617273,0.06688454,-0.3226341,27.9375,29.0625,28.125,32.125,34.1875,35.125
0.30205214,0.15264504,-0.51509833,-1.5916581,-0.019286213,0.05344336,-0.16917588,-0.40298173,-0.347734,0.059937533,3.0716226,-0.6348032,0.0001437627,-0.1472089,0.0048117936,9.850195e-06,-0.037437413,0.005856293,-0.04251485,0.45420426,-1.392869,1.9190844,-2.0985744,-1.5666188,2.4362586,-0.15403403,0.22437422,-0.26755363,0.021829516,0.030878382,-0.11132325,0.17238252,0.28730422,-9.557653,0.8672237,47.668976,-1.0395105,-2.073179,-3.4818964,-0.0124764,0.048644237,-0.2585836,27.9375,29.0625,28.125,32.125,34.1875,35.125
0.3040522,0.22428079,-0.10341488,-1.7230946,-0.022679126,0.048432186,-0.1706183,-0.4032557,-0.34768137,0.059896395,3.0715888,-0.63508224,0.00028203518,-0.14845544,0.0061157052,-0.0009835628,-0.035636354,0.0045220614,-0.039434813,0.45385554,-1.3923877,1.9185928,-2.098479,-1.5665835,2.4360886,-0.15659083,0.22723106,-0.26885432,0.022303862,0.029857468,-0.11696359,0.019153614,0.2681506,-9.653421,0.8224646,47.68062,-1.0229274,-2.2742696,-3.4829967,0.0026614754,0.05107733,-0.18395044,27.9375,29.0625,28.125,32.125,34.1875,35.125
0.3060523,-0.70412713,-1.3479923,-1.7030584,-0.028636394,0.045460664,-0.16811106,-0.403554,-0.34769768,0.05992956,3.0714645,-0.6350923,0.00019290984,-0.15101224,0.006125611,0.000352469,-0.035616767,0.0076609305,-0.035443954,0.45359114,-1.3919786,1.9180301,-2.0984428,-1.5665239,2.435847,-0.15779403,0.22857293,-0.27372304,0.02305943,0.028490284,-0.12215446,-0.019153614,0.24899697,-9.576807,0.89631605,47.66539,-0.90641665,-2.1833904,-3.3868492,-0.00028669275,0.052537277,-0.12655534,27.9375,29.0625,28.125,32.125,34.1875,35.125
0.30805227,-0.30855304,-1.1882243,-1.4474959,-0.057525292,0.071707554,-0.16794924,-0.40386513,-0.34768608,0.05992757,3.071353,-0.6352221,0.00017924298,-0.15289639,0.0064576534,0.0008061711,-0.03480656,0.008545129,-0.03577997,0.4532671,-1.3915093,1.9174794,-2.098418,-1.5664638,2.4356189,-0.15913379,0.23072653,-0.27770212,0.024469828,0.027386557,-0.12315686,-0.076614454,0.2681506,-9.500193,0.8314132,47.664497,-0.9870826,-2.3655434,-3.34194,-0.006647432,0.0609191,-0.06438711,27.9375,29.0625,28.125,32.125,34.1875,35.125
0.3100524,-0.93733543,-1.3213521,-1.8025964,-0.0357748,0.0626748,-0.14988506,-0.4041728,-0.3476854,0.059947964,3.0712361,-0.63523644,0.00019774781,-0.15265597,0.0060382374,0.0013533899,-0.034338143,0.008752862,-0.035677686,0.45294318,-1.391065,1.9168934,-2.098334,-1.5663685,2.4353194,-0.15772767,0.23041157,-0.27906126,0.026179116,0.026885785,-0.121852286,-0.13407528,0.2681506,-9.519346,0.7620334,47.686886,-0.9969169,-2.2485836,-3.291433,-0.012267683,0.065087914,-0.050950214,27.9375,29.0625,28.125,32.125,34.1875,35.125
0.31205228,-1.198152,-1.2975433,-1.5799494,-0.04471573,0.07768384,-0.15308845,-0.4044465,-0.34768257,0.059937842,3.0711598,-0.63533914,0.00024316284,-0.1532487,0.006390913,0.0015648055,-0.03416186,0.008750916,-0.040627316,0.45266694,-1.3906087,1.9163679,-2.098274,-1.5663084,2.4351175,-0.15860832,0.2307527,-0.28025123,0.027104517,0.026722087,-0.117783114,-0.34476507,0.28730422,-9.634268,0.8179876,47.66271,-0.96538,-2.1043708,-3.306527,-0.02726683,0.058605485,-0.06772548,27.9375,29.0625,28.125,32.125,34.1875,35.125
0.31405252,-1.1974337,-0.96579,-1.6817772,-0.04304768,0.097954355,-0.15750405,-0.40476876,-0.3476561,0.05993928,3.0710688,-0.63551307,0.0001948886,-0.15184219,0.006932483,-0.0005269364,-0.032011494,0.004487033,-0.045345582,0.45233124,-1.3901396,1.9158062,-2.0982378,-1.5662845,2.4349027,-0.15815367,0.23301551,-0.27839968,0.027754525,0.026654597,-0.11260954,-0.53630114,0.30645782,-9.5385,0.9567419,47.66271,-1.1241417,-2.0322294,-3.4103935,-0.03137322,0.07117953,-0.10286027,27.9375,29.0625,28.125,32.125,34.1875,35.125
0.31605187,-1.2477098,-0.5517324,-1.4801606,-0.045364335,0.115672454,-0.16164792,-0.40508023,-0.34766644,0.059945494,3.0709305,-0.6356399,0.00018953119,-0.15254197,0.0071677393,-0.0002685646,-0.031555124,0.0046414854,-0.04869695,0.45203105,-1.389659,1.9152201,-2.098201,-1.5662001,2.4347,-0.15870742,0.23370814,-0.28016347,0.028892951,0.026179226,-0.10981054,-0.45968673,0.24899697,-9.576807,0.9231726,47.689575,-1.1306152,-1.9834917,-3.5972872,-0.053735644,0.08628921,-0.16215406,27.9375,29.0625,28.125,32.125,34.1875,35.125
0.31805182,-1.7416068,-0.76961595,-0.98692596,-0.043501697,0.11544389,-0.15551288,-0.4053885,-0.34765753,0.059956335,3.0708437,-0.63573986,0.00015036497,-0.15335672,0.0070208088,0.0008155973,-0.031849395,0.0066903704,-0.054192226,0.45173094,-1.3892027,1.9146465,-2.098142,-1.5661644,2.434474,-0.15859273,0.23297618,-0.28200194,0.029480482,0.025539814,-0.10419987,-0.4213795,0.038307227,-9.385271,0.90750587,47.653748,-1.1840715,-1.9481568,-3.6752057,-0.07196571,0.095417365,-0.18982953,27.9375,29.0625,28.125,32.125,34.1875,35.125
0.3200518,-1.4882398,-0.4023595,-0.93057746,-0.011473957,0.10978726,-0.16164756,-0.40572342,-0.34762007,0.05996446,3.0707319,-0.63592726,9.664097e-05,-0.15541962,0.0064525083,0.0021481963,-0.033097208,0.009397947,-0.05513038,0.45135888,-1.3887458,1.9140834,-2.0981052,-1.5661286,2.434234,-0.15915242,0.23400892,-0.28643978,0.029916726,0.025486285,-0.10381802,-0.4213795,-0.076614454,-9.32781,0.8672237,47.66091,-1.2563047,-1.887054,-3.5128922,-0.07361926,0.08862598,-0.25507125,27.9375,29.0625,28.125,32.125,34.1875,35.125
0.32205185,-0.5484189,0.3373894,-1.0394782,0.015990548,0.09511402,-0.16929115,-0.40602544,-0.34762144,0.05996158,3.0706525,-0.63606757,8.9054134e-05,-0.15669382,0.0066292877,0.0027683964,-0.033437748,0.010993205,-0.059700187,0.4510825,-1.3882533,1.9134978,-2.098045,-1.5660928,2.4340558,-0.16014554,0.23434316,-0.2883449,0.029899385,0.02509042,-0.10024067,-0.40222588,-0.095768064,-9.346964,0.9388393,47.642998,-1.2303958,-1.8335261,-3.4860232,-0.07511709,0.090433106,-0.29775912,27.9375,29.0625,28.125,32.125,34.1875,35.125
0.32405213,-0.7976384,0.5955977,-1.1447629,0.026313066,0.07574525,-0.16189136,-0.40635622,-0.3476056,0.05998173,3.0704913,-0.63630396,8.021612e-05,-0.15910192,0.0071208808,0.0030406944,-0.03308842,0.012269621,-0.06345335,0.4507223,-1.3877958,1.9128984,-2.0979736,-1.5660094,2.4338646,-0.16232379,0.23703545,-0.29228663,0.030165441,0.024222195,-0.09866403,-0.49799395,-0.17238252,-9.270349,0.9791215,47.64927,-1.3016043,-1.8514814,-3.4300117,-0.07035986,0.11463751,-0.34992707,27.9375,29.0625,28.125,32.125,34.1875,35.125
0.32605234,-0.24078622,0.89577425,-1.3159271,0.031326547,0.06984339,-0.1711106,-0.40667126,-0.34757024,0.05995822,3.0704277,-0.6365397,8.15646e-05,-0.1588895,0.0060785515,0.0017668549,-0.03139868,0.0096997125,-0.06232929,0.4503867,-1.3872893,1.9123482,-2.0979369,-1.5659975,2.4336848,-0.15992546,0.24166545,-0.2952728,0.03157577,0.023821104,-0.09738887,-0.30645782,-0.13407528,-9.3661175,0.87393653,47.670765,-1.2956927,-2.105144,-3.3990097,-0.076628126,0.1300071,-0.40697074,27.9375,29.0625,28.125,32.125,34.1875,35.125
0.32805237,-0.57858187,0.44489786,-1.4212754,0.021011617,0.06640572,-0.15776417,-0.40698224,-0.34756362,0.05998071,3.0702899,-0.6367222,3.809195e-05,-0.15897782,0.006847035,0.0005652318,-0.030342717,0.0065050106,-0.06344237,0.45007434,-1.3868564,1.9117745,-2.0978768,-1.5659369,2.4335048,-0.16146521,0.24410574,-0.2958445,0.033056963,0.024278613,-0.09781248,-0.45968673,0.019153614,-9.442732,0.92764956,47.657326,-1.2268405,-2.1834252,-3.339867,-0.093278006,0.12109516,-0.4486326,27.9375,29.0625,28.125,32.125,34.1875,35.125
0.33005214,-1.0269411,-0.4235822,-1.434078,-0.021750735,0.08041999,-0.16207726,-0.40729883,-0.3475396,0.059976917,3.070246,-0.63684565,6.3278756e-05,-0.15914182,0.0070986655,0.00051441905,-0.029178442,0.0050775213,-0.060431574,0.44975024,-1.3863516,1.9111646,-2.0977685,-1.5659131,2.4332638,-0.16162592,0.24525821,-0.29780135,0.035680067,0.023869805,-0.10098461,-0.40222588,0.15322891,-9.461885,0.80679786,47.668976,-1.4405873,-2.1604147,-3.3906875,-0.121787034,0.15077625,-0.45067772,27.9375,29.0625,28.125,32.125,34.1875,35.125
0.33205217,-1.3016661,-1.6697569,-1.4701262,-0.046506245,0.1000955,-0.161205,-0.40762237,-0.34752288,0.0599967,3.07015,-0.63703364,4.1637977e-05,-0.15938273,0.008000251,0.00072760455,-0.02822766,0.004364331,-0.056694906,0.44942588,-1.3858829,1.9105433,-2.0976598,-1.5658773,2.4330697,-0.16290863,0.24487926,-0.2984259,0.037776615,0.023355115,-0.10600451,-0.24899697,0.24899697,-9.442732,0.85155696,47.62419,-1.4292419,-2.0730433,-3.3699484,-0.18724053,0.16568929,-0.44088686,27.9375,29.0625,28.125,32.125,34.1875,35.125
0.33405223,-1.0822618,-1.794305,-1.4975307,-0.079165824,0.11495054,-0.16084673,-0.40794387,-0.34750596,0.059991766,3.0700521,-0.63720167,6.934579e-05,-0.1617715,0.00976336,0.001127765,-0.027561072,0.004807441,-0.051261213,0.44908825,-1.3853788,1.9099449,-2.0975878,-1.5658177,2.4328501,-0.16734259,0.24605364,-0.3011867,0.039318524,0.022603894,-0.11587266,-0.24899697,0.34476504,-9.423578,0.8717007,47.666286,-1.2843941,-2.0233142,-3.489009,-0.21887748,0.18822205,-0.35584855,27.9375,29.0625,28.125,32.125,34.1875,35.125
0.33605245,-0.87810016,-1.8624882,-1.5019641,-0.08586645,0.098530605,-0.16468199,-0.4082666,-0.3474958,0.06000294,3.0699685,-0.6372963,3.3717788e-05,-0.16205779,0.010098542,7.879253e-05,-0.026234942,0.0032467784,-0.0467238,0.44877654,-1.3848972,1.909336,-2.0975153,-1.565782,2.4326088,-0.16769668,0.2486731,-0.3020627,0.03959372,0.02211455,-0.120763704,-0.1340753,0.34476504,-9.500193,0.86498255,47.68062,-1.3324008,-1.9230068,-3.5253673,-0.25259048,0.21594828,-0.3019453,27.9375,29.0625,28.125,32.125,34.1875,35.125
0.33805242,-0.42620194,-1.7427291,-1.1779437,-0.094558075,0.08581211,-0.17226993,-0.40860078,-0.34747002,0.060002502,3.0698888,-0.63743013,2.4738765e-05,-0.16320519,0.010192572,0.00043000985,-0.02794837,0.0036887645,-0.04086277,0.44842786,-1.3843924,1.9087261,-2.0974443,-1.5657452,2.4323545,-0.16951582,0.24923961,-0.30361277,0.039481387,0.023501266,-0.12843964,-0.19153613,0.38307226,-9.519346,0.8918391,47.661808,-1.1070902,-1.9115396,-3.519434,-0.25863546,0.23323154,-0.21049826,27.9375,29.0625,28.125,32.125,34.1875,35.125
0.3400522,0.00024529296,-1.8186815,-1.3132857,-0.070777655,0.072825044,-0.15615168,-0.40894827,-0.3474546,0.06001307,3.0697765,-0.63750094,-4.6978323e-05,-0.16442496,0.010334516,-3.2384178e-05,-0.029040022,0.002904803,-0.039334986,0.44807926,-1.3838995,1.9081157,-2.09742,-1.5656971,2.4320652,-0.17144805,0.25166374,-0.30545342,0.039158415,0.024850627,-0.13189346,-0.21068975,0.45968673,-9.500193,0.89631605,47.66987,-1.1158264,-1.9498539,-3.6210744,-0.2844637,0.2438821,-0.17585178,27.9375,29.0625,28.125,32.125,34.1875,35.125
0.34205222,0.5281187,-0.9800868,-1.3284928,-0.050979163,0.059129804,-0.15851822,-0.40928444,-0.34744754,0.060038257,3.0696845,-0.63754076,-8.942381e-05,-0.16675095,0.00975273,0.0012403585,-0.03167689,0.007128513,-0.040204063,0.44775465,-1.3834186,1.9074701,-2.097325,-1.5656484,2.431778,-0.17255788,0.25201014,-0.30830026,0.036723714,0.02540205,-0.13212995,-0.15322891,0.3256114,-9.346964,0.91421866,47.65912,-1.0758207,-1.9226391,-3.5258443,-0.28166342,0.25668785,-0.12172584,27.9375,29.0625,28.125,32.125,34.1875,35.125
0.34405237,0.29732537,-0.74125564,-1.2799866,-0.030779129,0.05260432,-0.15761365,-0.40958875,-0.34743175,0.060019642,3.0696352,-0.6376291,-2.773923e-05,-0.16858207,0.009638312,0.0009100973,-0.03261849,0.0076064924,-0.044936627,0.44744217,-1.3829015,1.9068836,-2.0972416,-1.5656003,2.4315274,-0.17412081,0.25515947,-0.31111467,0.035546448,0.026027193,-0.12895761,-0.095768064,0.24899697,-9.32781,0.95226496,47.640312,-1.0199578,-1.8174036,-3.413249,-0.28369385,0.25562194,-0.10432155,27.9375,29.0625,28.125,32.125,34.1875,35.125
0.34605166,0.11660888,-0.060657073,-1.2571607,-0.025914276,0.052569907,-0.15957344,-0.409962,-0.3473888,0.059995543,3.0694957,-0.63794786,1.2489838e-05,-0.17026703,0.008773043,0.0020176366,-0.0357906,0.009782776,-0.05188136,0.44701022,-1.3823243,1.9062494,-2.0972064,-1.5655278,2.431313,-0.17500472,0.25571218,-0.3142298,0.034757603,0.027926095,-0.12289032,-0.17238252,0.2681506,-9.32781,0.9030289,47.672558,-1.0233302,-1.8688631,-3.4552424,-0.3023026,0.26369974,-0.16601528,27.9375,29.0625,28.125,32.125,34.1875,35.125
0.3480517,-0.26373643,-0.6642923,-1.2049434,-0.025559464,0.06641483,-0.1500338,-0.41028437,-0.34737885,0.060011998,3.0693824,-0.63808143,-2.6413418e-06,-0.17078513,0.008654207,0.0012582944,-0.036177296,0.008378987,-0.05802481,0.4466858,-1.3818547,1.9056386,-2.0971224,-1.5654672,2.4310873,-0.17564681,0.25823084,-0.31556025,0.034652792,0.028870927,-0.11738424,-0.3256114,0.28730422,-9.270349,0.83365434,47.64927,-1.0335474,-1.9726214,-3.3937864,-0.28997374,0.27567622,-0.23308125,27.9375,29.0625,28.125,32.125,34.1875,35.125
0.35005173,-0.7554533,-0.90606207,-0.8473171,-0.053871125,0.08984595,-0.1537919,-0.4106393,-0.3473675,0.0600237,3.0692494,-0.6382664,-6.698712e-06,-0.17203961,0.008842085,0.0030389521,-0.03800431,0.011421189,-0.06213584,0.446325,-1.3813274,1.9049705,-2.0970385,-1.5653952,2.4308598,-0.17703122,0.2558685,-0.31699398,0.03491937,0.029207164,-0.11465525,-0.36391866,0.30645782,-9.251195,0.800085,47.670765,-0.85407263,-1.701885,-3.4496624,-0.31637776,0.2740233,-0.2733779,27.9375,29.0625,28.125,32.125,34.1875,35.125
0.35205173,-0.91277844,-1.2510827,-0.79681915,-0.07026479,0.123752944,-0.16167098,-0.41099766,-0.34737,0.060054336,3.0691216,-0.6383753,-9.49456e-05,-0.17368856,0.009432739,0.0016977969,-0.036922984,0.009767679,-0.06612539,0.4460008,-1.3808216,1.9042872,-2.096967,-1.5653476,2.430621,-0.17907964,0.26073846,-0.31979677,0.03481603,0.028951144,-0.11271013,-0.30645782,0.30645782,-9.289502,0.83589023,47.664497,-0.94236386,-1.7253416,-3.40419,-0.3340903,0.28555202,-0.3171628,27.9375,29.0625,28.125,32.125,34.1875,35.125
0.35405192,-0.8073587,-0.93980646,-0.9541019,-0.06966679,0.13695094,-0.16765992,-0.41133198,-0.34733605,0.06003351,3.0690534,-0.6385712,-5.651613e-05,-0.17366116,0.008861226,0.000103140716,-0.036280625,0.007539522,-0.06478246,0.4456411,-1.3802794,1.9036773,-2.0968945,-1.5653113,2.4303927,-0.17812468,0.26481676,-0.32099727,0.034240987,0.02933785,-0.11309637,-0.22984336,0.21068975,-9.308657,0.8605109,47.651955,-1.0044427,-1.8720578,-3.3071566,-0.33138937,0.2982186,-0.30572852,27.9375,29.0625,28.125,32.125,34.1875,35.125
0.35605207,-1.3403895,-1.1219157,-0.9203698,-0.044281702,0.10578159,-0.15680474,-0.41170362,-0.34731027,0.060034074,3.0689237,-0.63883233,-8.330575e-05,-0.1745349,0.008155064,-0.0004997774,-0.03723297,0.0074237282,-0.06657545,0.44525746,-1.3797259,1.9030083,-2.0968359,-1.5652632,2.4301896,-0.17799096,0.2678117,-0.323006,0.03295217,0.030246627,-0.11116441,-0.2873042,0.21068975,-9.385271,0.9567419,47.660015,-1.0746782,-1.9380972,-3.4680262,-0.31949776,0.29395342,-0.36228138,27.9375,29.0625,28.125,32.125,34.1875,35.125
0.35805237,-0.25153327,-0.43924505,-0.874852,-0.03902643,0.106219985,-0.16369416,-0.41206774,-0.34730476,0.060036074,3.0687575,-0.63904566,-7.833534e-05,-0.1749826,0.0071829255,-0.00036252194,-0.039049126,0.008588413,-0.0626107,0.44488525,-1.379173,1.9023393,-2.0967882,-1.5651664,2.429973,-0.17720081,0.26863325,-0.32406,0.03138721,0.03140834,-0.114333466,-0.3256114,0.2681506,-9.232041,0.97240865,47.64479,-1.0318564,-2.046451,-3.5312061,-0.30655473,0.29523742,-0.37667626,27.9375,29.0625,28.125,32.125,34.1875,35.125
0.36005238,-0.30136034,-0.7490357,-0.97479886,-0.01883223,0.08611285,-0.16132933,-0.4123944,-0.34729424,0.060024615,3.0686975,-0.63908714,-8.934749e-05,-0.17622453,0.006194823,-0.00063703733,-0.039672934,0.010020643,-0.058952775,0.44457382,-1.3786439,1.9017285,-2.096741,-1.5651306,2.4296956,-0.17632316,0.27169374,-0.32675594,0.02949106,0.031368714,-0.11711146,-0.28730422,0.28730422,-9.232041,0.9254084,47.666286,-1.3228276,-1.9752703,-3.6072369,-0.29089707,0.30356857,-0.37168288,27.9375,29.0625,28.125,32.125,34.1875,35.125
0.3620524,-0.015150517,-0.2907142,-0.69521207,-0.029321888,0.084384166,-0.16675174,-0.4127377,-0.34727514,0.06002503,3.068606,-0.6392358,-8.71027e-05,-0.17708912,0.0049843793,0.00035000677,-0.041094776,0.012876474,-0.050532788,0.44422638,-1.378115,1.9010824,-2.096657,-1.5650824,2.4294534,-0.17481528,0.27193224,-0.32919383,0.028556017,0.03146063,-0.12402172,-0.17238252,0.28730422,-9.097966,0.9634547,47.635834,-1.401706,-2.0070243,-3.5117898,-0.2568931,0.31445962,-0.30375034,27.9375,29.0625,28.125,32.125,34.1875,35.125
0.36405247,-0.19722249,-0.6792243,-0.7022711,-0.03275897,0.063219614,-0.15588398,-0.41310704,-0.34726503,0.060010783,3.0684867,-0.6393981,-0.00010375648,-0.1783465,0.0055143144,0.0012782951,-0.041533716,0.01464644,-0.044775452,0.44386595,-1.3775264,1.9004124,-2.0966332,-1.5650223,2.4292104,-0.17636965,0.27129707,-0.3308172,0.029089374,0.031144422,-0.1313327,-0.05746084,0.30645782,-9.021352,0.9388393,47.65912,-1.3918309,-2.0592155,-3.520273,-0.25511292,0.3405792,-0.24396159,27.9375,29.0625,28.125,32.125,34.1875,35.125
0.3660527,0.85479516,-0.53254145,-0.8659706,-0.06035549,0.073411494,-0.16901818,-0.41346,-0.34726143,0.05999401,3.0683432,-0.6395207,-3.107186e-05,-0.17986698,0.006063918,0.0005184809,-0.041439317,0.013641054,-0.0427406,0.44349337,-1.376949,1.8997558,-2.0965855,-1.5649022,2.4289336,-0.17860465,0.27461198,-0.33317283,0.029129723,0.031519998,-0.13559958,-0.095768064,0.36391866,-9.155427,0.90750587,47.651955,-1.2801251,-1.8997517,-3.5139704,-0.24454638,0.34288108,-0.17346162,27.9375,29.0,28.125,32.125,34.1875,35.125
0.36805257,0.26030198,-1.1804839,-0.8618617,-0.06803178,0.055831417,-0.16443671,-0.4138129,-0.34725085,0.060000192,3.0682738,-0.6395812,-8.4257445e-05,-0.18153742,0.005672324,0.0015990592,-0.0434909,0.016100211,-0.041106764,0.44316894,-1.3764086,1.8990849,-2.096514,-1.5648783,2.4286566,-0.17962348,0.27484116,-0.3358927,0.028545177,0.032341167,-0.1382472,-0.13407528,0.30645782,-9.136273,0.98135734,47.647476,-1.3275151,-1.9528456,-3.444815,-0.23126078,0.3451991,-0.07849425,27.9375,29.0,28.125,32.125,34.1875,35.125
0.37005264,0.63150936,-0.8197067,-0.8238039,-0.077740215,0.06329335,-0.16565901,-0.41417792,-0.34723532,0.05999154,3.0681598,-0.6396729,-9.019311e-05,-0.18386467,0.005789416,0.0028956158,-0.044866327,0.019451343,-0.042324845,0.44279656,-1.3758438,1.8984269,-2.0964782,-1.5648063,2.428357,-0.18142165,0.27508235,-0.3391225,0.027942773,0.032162443,-0.1388251,-0.038307227,0.30645782,-9.097966,0.9097417,47.67166,-1.3203416,-1.8331449,-3.3842485,-0.2146993,0.3635604,-0.075550646,27.9375,29.0,28.125,32.125,34.1875,35.125
0.37205273,0.34533334,-1.4655954,-1.0639597,-0.0570779,0.06539389,-0.15337637,-0.41452724,-0.34720397,0.0599522,3.0681055,-0.6398568,3.2316111e-06,-0.18381535,0.0053144116,0.00199336,-0.045041513,0.017444942,-0.047573514,0.44242465,-1.3752304,1.8977693,-2.0963943,-1.5647577,2.4281073,-0.18097849,0.27766725,-0.34039038,0.028345242,0.033160295,-0.1331309,-0.15322891,0.36391866,-9.212888,0.9097417,47.661808,-1.2587848,-1.8697462,-3.3389745,-0.20530766,0.3646517,-0.10043524,27.9375,29.0,28.125,32.125,34.1875,35.125
0.3740519,0.3270339,-0.77191645,-0.99708736,-0.064821206,0.07876119,-0.16288811,-0.4149188,-0.3471988,0.059995353,3.0679457,-0.6400184,-0.00012695584,-0.18468136,0.005472244,0.0009363489,-0.04542085,0.014646678,-0.054946132,0.44206393,-1.3747119,1.8970398,-2.0963223,-1.5647095,2.427869,-0.18270083,0.2813865,-0.34275594,0.02933743,0.03470219,-0.12746994,0.19153614,0.3256114,-9.289502,0.9388393,47.661808,-1.1956769,-2.042078,-3.4356408,-0.20564675,0.3594498,-0.14246395,27.9375,29.0,28.125,32.125,34.1875,35.125
