Tylouw/Master_Thesis_Code/training_data/batch_1/small_rod_t0.2/sample_25_session_1.csv
timestamp[s],tcp_force_x[N],tcp_force_y[N],tcp_force_z[N],tcp_force_rx[Nm?],tcp_force_ry[Nm?],tcp_force_rz[Nm?],tcp_pose_x[m],tcp_pose_y[m],tcp_pose_z[m],tcp_pose_rx[rot_vec_x],tcp_pose_ry[rot_vec_y],tcp_pose_rz[rot_vec_z],tcp_velo_x[m/s],tcp_velo_y[m/s],tcp_velo_z[m/s],tcp_velo_rx[rot_vec_x/s],tcp_velo_ry[rot_vec_y/s],tcp_velo_rz[rot_vec_z/s],q1[rad],q2[rad],q3[rad],q4[rad],q5[rad],q6[rad],qd1[rad/s],qd2[rad/s],qd3[rad/s],qd4[rad/s],qd5[rad/s],qd6[rad/s],tool_acc_x,tool_acc_y,tool_acc_z,current_of_whole_robot[A],voltage_of_whole_robot[V],current_J1[A],current_J2[A],current_J3[A],current_J4[A],current_J5[A],current_J6[A],temp_J1[C],temp_J2[C],temp_J3[C],temp_J4[C],temp_J5[C],temp_J6[C]
9.580108e-07,-0.12965947,-0.2488981,0.58017105,-0.038135406,0.036155988,-0.026339853,-0.3810464,-0.34853485,0.05996375,-3.0785136,0.6248764,-0.00019133018,0.002084009,0.0010675828,-0.0018940453,0.0020276755,-0.0041481475,0.00010886597,0.47782204,-1.425934,1.9577278,-2.1008327,-1.5707573,2.452776,-4.327119e-05,-1.3317506e-05,0.0042590904,0.00036975645,0.00011690878,-0.00015457228,0.095768064,0.15322891,-8.676587,0.68146914,47.71286,0.028363038,-2.7736099,-2.4515052,-0.44412756,0.094852224,0.09304771,27.75,28.875,28.0625,32.0,34.0,34.9375
0.002052761,-0.65284675,-0.6866543,0.43632466,-0.028928753,0.018659702,-0.0070123193,-0.38107076,-0.34851846,0.05997378,-3.0785227,0.6248975,-0.00010486075,-0.0005401835,-0.00030043142,-0.0031737743,-0.0012327387,0.0020951831,0.00010838338,0.47778615,-1.4259564,1.9577397,-2.1008732,-1.5707816,2.452752,-4.2588643e-05,0.0040158615,0.0053628194,-0.011806533,0.00011560541,-0.00015087042,0.13407528,0.15322891,-8.7532015,0.7530795,47.683304,0.07642842,-2.75169,-2.4734566,-0.38634762,0.10204859,0.08276795,27.75,28.875,28.0625,32.0,34.0,34.9375
0.00405228,-0.24338396,-0.5226581,0.7567746,-0.027793176,0.026765466,-0.018255465,-0.38105673,-0.34852222,0.059959035,-3.0785215,0.6248781,-0.0001444866,-0.0013708367,-0.00073305756,-0.0031404903,-0.0019968387,0.003562595,0.00010648352,0.4777981,-1.4259441,1.9577621,-2.1008852,-1.5707697,2.452752,-4.192731e-05,0.0050613475,0.004517467,-0.013661092,0.000113259026,-0.00014734178,0.05746084,0.17238253,-8.63828,0.7172743,47.687782,0.023070414,-3.181251,-2.7464461,-0.28333896,0.08663773,0.08846619,27.75,28.875,28.0625,32.0,34.0,34.9375
0.00605235,0.2788974,0.29477397,0.6814099,-0.017511977,0.019008143,-0.019677885,-0.38106632,-0.34852722,0.059946954,-3.0785248,0.6248214,-0.0001604258,-0.0010472095,-0.0005632521,-0.0013837668,-0.0017798833,0.003165619,0.000103277576,0.4777981,-1.4258972,1.9577388,-2.1008956,-1.5707697,2.4527164,-4.1286166e-05,0.0022613741,0.0024930504,-0.008384404,0.00011093728,-0.00014397425,-0.038307227,0.11492168,-8.695741,0.7486078,47.694946,0.00909343,-3.0191293,-2.56382,-0.31193072,0.08935511,0.09692917,27.75,28.875,28.0625,32.0,34.0,34.9375
0.008052222,0.6092172,0.7505999,0.08768158,0.017356979,-0.005282005,-0.028612603,-0.38107646,-0.3485168,0.059941128,-3.0785272,0.62489873,-0.00015723759,-0.0007985168,-0.0004321466,0.00044586606,-0.0020964069,0.0037959008,9.9981124e-05,0.4777621,-1.4258986,1.9577612,-2.1009295,-1.5707573,2.4527283,-4.0664356e-05,-0.001121724,0.0012828088,-0.004496284,0.00010870436,-0.0001407575,0.019153614,0.17238252,-8.791509,0.7933669,47.685097,0.08263498,-2.8445306,-2.5091746,-0.35566056,0.08548323,0.08303129,27.75,28.875,28.0625,32.0,34.0,34.9375
0.010052277,0.3762863,0.38915747,-0.3818305,0.02158641,-0.011325623,-0.015748931,-0.38105693,-0.3485176,0.05991955,-3.078484,0.62492806,-0.00025639773,-0.0004693043,-0.00026041263,0.00035614328,-0.0013515512,0.002368916,9.7417054e-05,0.47777414,-1.4258624,1.9577612,-2.1008937,-1.5707458,2.452764,-4.006106e-05,-0.000882179,0.00079093967,-0.002634268,0.00010655919,-0.00013768127,0.05746084,0.21068975,-9.136273,0.75755644,47.661808,-0.22084956,-2.1468728,-3.1763988,-0.35784593,0.06587,0.047291514,27.75,28.875,28.0625,32.0,34.0,34.9375
0.012052212,0.047579896,-0.5137408,-0.62872064,-0.012290403,0.00909942,-0.019545646,-0.3810497,-0.34850073,0.059918243,-3.0784469,0.6249205,-0.00024064448,-0.0017944209,-0.0009262403,-0.0024396616,0.0016222433,-0.0033699663,7.1549315e-05,0.4777741,-1.4258825,1.957784,-2.1008804,-1.5707816,2.452764,-8.449682e-05,0.009717091,-0.005357544,-0.00062142557,9.5927e-05,-0.00015184148,0.095768064,0.076614454,-9.32781,0.7418897,47.66271,-0.40400934,-2.3970065,-3.3464208,-0.36134177,0.048261136,0.032677665,27.75,28.875,28.0625,32.0,34.0,34.9375
0.014052344,-0.9063907,-1.3976749,-0.80627704,-0.04361984,0.023598643,-0.019110184,-0.38105267,-0.3485148,0.059906766,-3.078443,0.6248268,-0.00028468028,-0.004869883,9.6342055e-06,-0.0037871446,0.0027991955,-0.005641476,-0.0044039413,0.4777963,-1.4258204,1.957734,-2.1008565,-1.5707816,2.4527283,-0.004594514,0.016654529,-0.010317501,-4.057465e-05,8.600542e-05,-0.00018286056,-0.038307227,0.2681506,-9.404425,0.7418897,47.68599,-0.35988003,-2.9190025,-3.0913513,-0.37079677,0.047760442,0.01884732,27.75,28.875,28.0625,32.0,34.0,34.9375
0.01605402,-0.96262705,-1.779468,-0.93408346,-0.074470274,0.06710903,-0.02857434,-0.38105458,-0.3484973,0.059899323,-3.078393,0.6248343,-0.0003472415,-0.0050378214,0.0019455141,-0.003763726,0.0042641447,-0.008451228,-0.002845798,0.47777116,-1.4257966,1.9577101,-2.1007955,-1.5707935,2.4527142,-0.008189191,0.01578934,-0.010298044,0.003972885,8.387401e-05,-0.0053366353,-0.2873042,0.30645782,-9.576807,0.7486078,47.675243,-0.100971825,-2.5942984,-3.2915359,-0.39107832,0.031764783,0.035338633,27.75,28.875,28.0625,32.0,34.0,34.9375
0.018052809,-2.1644893,-2.5975096,-1.1273222,-0.07849358,0.070223555,-0.019420369,-0.38102886,-0.34851286,0.05987493,-3.0784094,0.62479734,-0.00048039254,-0.0048545003,0.0016051676,-0.0034524063,0.00461672,-0.009096076,0.0009208359,0.47778356,-1.4257607,1.9577221,-2.100783,-1.5707334,2.4527013,-0.0074042296,0.016032863,-0.011723049,0.0058891024,6.6939545e-05,-0.0083179055,-0.2681506,0.34476504,-9.691729,0.75755644,47.674347,-0.26175517,-2.4372425,-3.5027795,-0.40369818,0.04296472,0.04661151,27.75,28.875,28.0625,32.0,34.0,34.9375
0.020051846,-1.4279449,-1.4937253,-0.9342512,-0.100065194,0.10410761,-0.035923526,-0.38104764,-0.34850043,0.059853476,-3.078373,0.6247316,-0.0005161272,-0.0056790435,0.001053446,-0.0036836585,0.0045230286,-0.008925178,0.0020652504,0.47775954,-1.4256879,1.9576854,-2.1007707,-1.5707573,2.452641,-0.0071870703,0.018440135,-0.013825433,0.0053890347,6.4731365e-05,-0.009243616,-0.51714754,0.4405331,-9.730036,0.7172743,47.65464,-0.4053583,-2.3749213,-3.5297527,-0.39428467,0.024218775,0.05890815,27.75,28.875,28.0625,32.0,34.0,34.9375
0.022051863,-2.0992746,-1.9374945,-0.9983233,-0.07274294,0.09873476,-0.047481216,-0.38105828,-0.3485145,0.059851654,-3.0783617,0.6248836,-0.0005381836,-0.00788423,0.00054149155,-0.0027752575,0.0029563822,-0.0059024883,0.0010623283,0.47775918,-1.4256516,1.9576482,-2.1007712,-1.5707334,2.4527369,-0.008313871,0.019759128,-0.017069606,0.00390988,5.5706158e-05,-0.009365332,-0.68953013,0.53630114,-9.768343,0.73741806,47.683304,-0.48523653,-2.385274,-3.4801724,-0.3778987,0.013792943,0.05227734,27.75,28.875,28.0625,32.0,34.0,34.9375
0.024051718,-1.5119677,-1.6055347,-1.1753292,-0.07353072,0.10761806,-0.054297335,-0.38108525,-0.34851217,0.059861545,-3.0783932,0.62485313,-0.0005203122,-0.0090988,0.0010521241,-0.0028072903,0.0028168554,-0.005621167,-0.0013322044,0.4777223,-1.4256392,1.9576114,-2.1007712,-1.5707215,2.452677,-0.010340523,0.020869434,-0.018194357,0.0036105379,4.7339865e-05,-0.008996629,-0.49799395,0.4405331,-9.844957,0.69937176,47.699425,-0.4083991,-2.3605409,-3.4960876,-0.37153298,0.004138037,0.014354983,27.75,28.875,28.0625,32.0,34.0,34.9375
0.026052065,-1.4657598,-1.6018369,-1.1773721,-0.07236632,0.09094619,-0.062009968,-0.3811046,-0.34849098,0.05985611,-3.0783386,0.62482315,-0.00051544595,-0.010356036,0.0010832156,-0.0024366232,0.002716392,-0.005208936,-0.0019910452,0.477698,-1.4256028,1.9575742,-2.1007354,-1.5707697,2.452641,-0.011492379,0.022226632,-0.020773413,0.0044199876,-5.7386642e-05,-0.009488079,-0.61291564,0.34476504,-9.864111,0.7553206,47.678825,-0.4767692,-2.3401303,-3.4903283,-0.35919297,-0.014174852,0.0075496943,27.75,28.875,28.0625,32.0,34.0,34.9375
0.028052352,-1.6284481,-1.4789882,-1.1487575,-0.056100708,0.07751581,-0.07224736,-0.3810941,-0.34847865,0.059803687,-3.0782497,0.6248435,-0.00067765254,-0.011078405,0.0013127183,-0.0024777988,0.003123949,-0.0059052454,-0.002368701,0.4776857,-1.4254944,1.9575623,-2.1006992,-1.5707697,2.4526527,-0.012541372,0.023613684,-0.022529405,0.0055947034,-0.000102080165,-0.010158445,-0.6512228,0.36391866,-9.844957,0.784413,47.701214,-0.5504619,-2.4009266,-3.520465,-0.36324546,-0.0022689234,-0.00776805,27.75,28.875,28.0625,32.0,34.0,34.9375
0.030052343,-1.7086885,-1.04844,-1.0727243,-0.046170752,0.07718192,-0.08181679,-0.38112894,-0.34848967,0.059825387,-3.078283,0.6248705,-0.0006038181,-0.013050064,0.0013810431,-0.0013896417,0.0020923037,-0.003857442,-0.00397619,0.47767305,-1.4254825,1.9575018,-2.100711,-1.5707697,2.4526527,-0.014467459,0.024074985,-0.025619853,0.005931055,-0.00013285861,-0.0104754185,-0.6703765,0.21068975,-9.883265,0.7530795,47.711964,-0.5260637,-2.3726974,-3.4994411,-0.35995048,-0.0075223558,-0.021174643,27.75,28.875,28.0625,32.0,34.0,34.9375
0.03205197,-1.4846913,-0.58824414,-1.0669403,-0.036822923,0.088625155,-0.092781484,-0.38115248,-0.3484903,0.05981324,-3.078275,0.6248883,-0.000672,-0.013970899,0.0012710365,-0.0013843494,0.002052098,-0.0037338443,-0.004135315,0.47763684,-1.4254098,1.9574412,-2.1006868,-1.5707458,2.4526286,-0.01510754,0.025706254,-0.027527092,0.0060790447,-0.00015859328,-0.010955126,-0.51714754,0.038307227,-9.80665,0.7396539,47.686886,-0.5966697,-2.2873545,-3.5164359,-0.35030723,-0.04165837,-0.014138468,27.75,28.875,28.0625,32.0,34.0,34.9375
0.034052633,-1.254367,0.07492029,-0.69838065,-0.028139265,0.092672266,-0.10204569,-0.38118842,-0.34848884,0.059810974,-3.0782592,0.6248662,-0.00062063575,-0.015376318,0.001571198,-0.00105811,0.0024011866,-0.0025725204,-0.0051931813,0.47762445,-1.4253497,1.9573807,-2.1006992,-1.5707821,2.4526045,-0.016390348,0.026831718,-0.029568186,0.006126426,-0.0010067892,-0.01117707,-0.45968673,0.0,-9.730036,0.7329411,47.645687,-0.5441344,-2.2966974,-3.5285294,-0.3207596,-0.043543346,-0.048370622,27.75,28.875,28.0625,32.0,34.0,34.9375
0.036051873,-1.3028369,0.07102929,-0.8169392,-0.0032545726,0.07843686,-0.11223793,-0.38124564,-0.34850273,0.05983358,-3.0783203,0.62487745,-0.0005298871,-0.016849073,0.0008040383,-0.00029322685,0.00170503,-0.0007475047,-0.0040138597,0.47758842,-1.4253131,1.9572953,-2.1007345,-1.5707701,2.4525678,-0.016240492,0.028396005,-0.03310972,0.006163635,-0.001234682,-0.01220413,-0.38307226,-0.076614454,-9.595961,0.8247004,47.705692,-0.57929415,-2.3337865,-3.5009875,-0.3282169,-0.05592154,-0.0499719,27.75,28.875,28.0625,32.0,34.0,34.9375
0.038051695,-0.61353004,0.69309694,-0.7181734,-0.0041248,0.07893104,-0.12781061,-0.3812927,-0.3484844,0.059829775,-3.078287,0.6249477,-0.0005062717,-0.018117815,0.0009478746,5.2884523e-05,0.0021613385,9.5195785e-05,-0.0037550584,0.47752807,-1.4252528,1.9572352,-2.1007345,-1.5707945,2.4525557,-0.017150572,0.029691285,-0.035508133,0.006730355,-0.0020318553,-0.013370085,-0.40222588,-0.17238252,-9.576807,0.72622824,47.698532,-0.56957775,-2.3307118,-3.36123,-0.3118233,-0.061403617,-0.047572836,27.75,28.875,28.0625,32.0,34.0,34.9375
0.040052433,-0.9265379,0.5117939,-0.7412708,-0.0009360842,0.04973282,-0.13068457,-0.38132593,-0.34850368,0.05983193,-3.0782983,0.62495077,-0.00054425513,-0.018755315,0.0011552329,0.00020358716,0.002410492,-0.00045570615,-0.0048701735,0.4775157,-1.4251686,1.957126,-2.1006982,-1.5707701,2.4525437,-0.018128397,0.030591313,-0.03719845,0.008124637,-0.0020004674,-0.013232124,-0.24899697,-0.21068975,-9.557653,0.784413,47.705692,-0.5902614,-2.2916522,-3.3480632,-0.3067312,-0.061092284,-0.05120048,27.75,28.875,28.0625,32.0,34.0,34.9375
0.04205261,-0.6766335,-0.35295364,-0.6910214,0.008240333,0.04185166,-0.13339722,-0.38136724,-0.3484868,0.05982666,-3.0782692,0.6250034,-0.0005486703,-0.019449137,0.0012347655,0.00034635788,0.002910729,-0.0011807638,-0.0059740874,0.47745553,-1.4251083,1.9570664,-2.1006854,-1.5707825,2.4525201,-0.018837322,0.031977233,-0.039518204,0.009932512,-0.002112446,-0.012835851,-0.15322891,-0.05746084,-9.5385,0.7083204,47.705692,-0.5993123,-2.2220955,-3.433247,-0.30322468,-0.06682489,-0.06272439,27.75,28.875,28.0625,32.0,34.0,34.9375
0.0440525,-0.8327394,-0.40496078,-0.7324552,-0.016388526,0.033367418,-0.14688665,-0.38139242,-0.3484863,0.059827745,-3.0782478,0.62499845,-0.0005916635,-0.02053427,0.0011239699,0.00070104224,0.0028942325,-0.00067286787,-0.0072516208,0.47743127,-1.425048,1.9569815,-2.1006258,-1.5707825,2.4524956,-0.019499142,0.033280052,-0.041974705,0.010628381,-0.0023349777,-0.012218294,-0.1340753,0.038307227,-9.595961,0.79560274,47.69763,-0.5098728,-2.2656121,-3.384951,-0.3135894,-0.07569075,-0.058244687,27.75,28.875,28.0625,32.0,34.0,34.9375
0.04605202,-0.94966817,-1.0084311,-0.8826354,-0.015607736,0.034340806,-0.14751275,-0.3814629,-0.34849137,0.0598476,-3.0782757,0.62504345,-0.0004917724,-0.021648202,0.0012827655,0.0011474085,0.002823059,-0.00025439443,-0.008332173,0.4773828,-1.4249877,1.9568728,-2.1006496,-1.5707945,2.4524717,-0.020723145,0.034116734,-0.0441675,0.0115803,-0.0024658488,-0.012360604,-0.21068975,0.038307227,-9.576807,0.7620334,47.65464,-0.5410267,-2.1210227,-3.3779993,-0.32825983,-0.09156358,-0.07749539,27.75,28.875,28.0625,32.0,34.0,34.9375
0.048052106,-0.479276,-0.7555552,-0.8763991,-0.029885534,0.046562992,-0.16003345,-0.38149297,-0.3484848,0.059852187,-3.0782387,0.6250169,-0.00051355,-0.022437718,0.0012888116,0.0011859185,0.003372102,-9.950682e-05,-0.00879586,0.4773588,-1.4249274,1.956777,-2.100577,-1.5708183,2.452436,-0.021098275,0.03555279,-0.046015106,0.012108238,-0.0030278815,-0.012269745,-0.076614454,0.19153613,-9.595961,0.7620334,47.64837,-0.6002743,-2.1600282,-3.3711133,-0.31692958,-0.12181582,-0.09298937,27.75,28.875,28.0625,32.0,34.0,34.9375
0.0500526,-0.8390122,-1.5418242,-0.8242415,-0.029430404,0.037746202,-0.16568199,-0.38153598,-0.34847075,0.059830643,-3.0781882,0.6251985,-0.00056861725,-0.02346818,0.0013358857,0.00094700075,0.0041995514,-0.00055746874,-0.009155314,0.47728652,-1.4248307,1.956716,-2.100577,-1.5708069,2.4524834,-0.021789212,0.038071316,-0.048521843,0.012885119,-0.0035568606,-0.012598507,-0.095768064,0.22984336,-9.595961,0.75755644,47.658226,-0.53945607,-2.1883764,-3.34971,-0.32339302,-0.09096746,-0.109124124,27.75,28.875,28.0625,32.0,34.0,34.9375
0.05205232,-0.80290425,-1.5746269,-0.95640385,-0.047873765,0.03590676,-0.16396895,-0.38157856,-0.3484568,0.059844863,-3.078177,0.6251583,-0.0005446654,-0.024523754,0.0015903028,0.0013785489,0.0042903363,-9.112875e-05,-0.010065075,0.47723812,-1.4247944,1.9566311,-2.1005285,-1.5708312,2.4524114,-0.02302149,0.038734436,-0.050474185,0.013802339,-0.003854115,-0.012919497,-0.1340753,0.4405331,-9.557653,0.6926589,47.64121,-0.50163734,-2.1050084,-3.3665562,-0.34697783,-0.09652321,-0.10889195,27.75,28.875,28.0625,32.0,34.0,34.9375
0.054052293,-0.09518694,-1.4918398,-0.9061184,-0.06192481,0.046489738,-0.1924359,-0.3816145,-0.3484866,0.05985998,-3.0781944,0.62512326,-0.0005567522,-0.025720334,0.0014873828,0.0022347316,0.0032619757,0.0019137745,-0.010213124,0.4772497,-1.4247108,1.9564875,-2.1004689,-1.5708188,2.452399,-0.023934841,0.03848087,-0.05204785,0.0133764045,-0.0038664145,-0.013683946,0.019153614,0.34476504,-9.519346,0.7329411,47.691364,-0.51054543,-2.0092719,-3.3206472,-0.34261847,-0.128617,-0.116732255,27.75,28.875,28.0625,32.0,34.0,34.9375
0.056051645,-0.485223,-1.647748,-0.8392527,-0.07004087,0.031635366,-0.19411357,-0.38167238,-0.34846044,0.05986028,-3.078161,0.62519395,-0.0005328064,-0.026722314,0.0016180491,0.0016486873,0.0045576873,0.0014467897,-0.010442551,0.47716552,-1.4246498,1.9564146,-2.100457,-1.5708431,2.4523633,-0.024478976,0.041481555,-0.054162275,0.013502738,-0.0048073735,-0.013995166,0.019153614,0.45968673,-9.557653,0.7553206,47.688675,-0.54024804,-2.0573692,-3.355432,-0.34114024,-0.11105295,-0.14345945,27.75,28.875,28.0625,32.0,34.0,34.9375
0.058052357,-0.46416256,-1.7516086,-0.7607512,-0.07463698,0.04011118,-0.19927111,-0.3817638,-0.34846964,0.05988912,-3.0781858,0.62521803,-0.000445753,-0.029540999,0.0009430745,0.0031612911,0.0038097866,0.0057720877,-0.010752001,0.47710538,-1.4245534,1.9562334,-2.1004336,-1.5708555,2.452315,-0.025012996,0.043100975,-0.05932467,0.012864321,-0.0061411196,-0.014214341,0.0,0.4405331,-9.519346,0.81351066,47.696735,-0.5528704,-2.1017113,-3.286964,-0.33944285,-0.10526616,-0.15074477,27.75,28.875,28.0625,32.0,34.0,34.9375
0.06005216,-0.52916676,-2.2940319,-0.63156515,-0.056703813,0.052549396,-0.19496918,-0.38180196,-0.34847996,0.05988856,-3.0781925,0.6252572,-0.0004457535,-0.028735517,0.0024510566,0.00047694286,0.008502961,0.0019313286,-0.010261799,0.47708127,-1.4244804,1.9561514,-2.1004336,-1.5708445,2.4523146,-0.025387546,0.046603203,-0.05716935,0.012782272,-0.008542463,-0.015074789,-0.076614454,0.47884035,-9.423578,0.7732232,47.690468,-0.544265,-2.1316,-3.4366202,-0.33506566,-0.108523175,-0.15871526,27.75,28.875,28.0625,32.0,34.0,34.9375
0.062052205,-1.1808468,-1.748418,-0.56314415,-0.062472217,0.052042726,-0.19023302,-0.38183472,-0.3484742,0.059861775,-3.0781531,0.62526804,-0.0005455808,-0.03065748,0.0020626872,0.001470773,0.0082619665,0.0052301907,-0.009253148,0.47703326,-1.42436,1.956067,-2.1003973,-1.5708331,2.4522784,-0.025619073,0.047611002,-0.06041407,0.011982205,-0.00985385,-0.016309656,-0.11492168,0.49799395,-9.423578,0.77545905,47.684196,-0.5712848,-2.1855245,-3.3623748,-0.33273822,-0.061258942,-0.18071252,27.75,28.875,28.0625,32.0,34.0,34.9375
0.064052135,-0.6532732,-1.1053542,-0.48364717,-0.061976768,0.065900065,-0.18591389,-0.3819141,-0.3484638,0.059877403,-3.0781364,0.6252838,-0.0004505092,-0.033516932,0.0016211768,0.0038632003,0.007598098,0.0107902065,-0.009238507,0.47697297,-1.4242766,1.9559335,-2.100386,-1.5708817,2.4522302,-0.026188739,0.047316335,-0.06560397,0.012228177,-0.0118269175,-0.01688777,-0.11492168,0.4405331,-9.404425,0.73741806,47.661808,-0.5974735,-2.032888,-3.2719126,-0.3304131,-0.059284117,-0.18231645,27.75,28.875,28.0625,32.0,34.0,34.9375
0.06605194,-1.0547876,-1.8307163,-0.55598694,-0.025667366,0.0539543,-0.17185701,-0.38199553,-0.34846097,0.05989972,-3.078115,0.625452,-0.00039564684,-0.033720963,0.002159572,0.002507641,0.009696702,0.008536154,-0.008470551,0.47690073,-1.4241915,1.955777,-2.1003497,-1.5708941,2.4522657,-0.026789363,0.050467823,-0.066198975,0.012639132,-0.012656762,-0.018254371,-0.11492168,0.4405331,-9.346964,0.75755644,47.66987,-0.59243935,-2.1170254,-3.1362767,-0.3179515,-0.043459557,-0.16994539,27.75,28.875,28.0625,32.0,34.0,34.9375
0.06805187,-1.0215998,-1.2209134,-0.39606065,-0.03413556,0.043980528,-0.16749483,-0.38206294,-0.3484826,0.05990346,-3.0781596,0.62534493,-0.0003539062,-0.034406338,0.0015002178,0.002276944,0.008217827,0.0074969903,-0.008303246,0.47687656,-1.4240708,1.9556335,-2.1003616,-1.5708936,2.4521692,-0.027407415,0.052719135,-0.06825803,0.012684267,-0.0108699165,-0.019042363,-0.076614454,0.34476504,-9.32781,0.85155696,47.713753,-0.5698975,-2.1806006,-3.3254035,-0.30129436,-0.047668263,-0.19156477,27.75,28.875,28.0625,32.0,34.0,34.9375
0.07005179,-0.38591564,-0.8864798,-0.22823873,-0.042089853,0.052180804,-0.17274816,-0.38213435,-0.34848005,0.05992021,-3.0781517,0.6254005,-0.00026085004,-0.035099044,0.00045270243,0.002587565,0.0064005563,0.007011042,-0.0074782805,0.4768286,-1.4239984,1.9555124,-2.100361,-1.5709285,2.452157,-0.02737219,0.054496128,-0.0711632,0.013402012,-0.009036224,-0.019834608,-0.05746084,0.38307226,-9.308656,0.7777002,47.677036,-0.6275424,-2.1673055,-3.126454,-0.30256072,-0.07007009,-0.19504046,27.75,28.875,28.0625,32.0,34.0,34.9375
0.0720516,-0.18099244,-1.017963,-0.27472264,-0.036601555,0.048618965,-0.18254626,-0.3822061,-0.34849226,0.059926882,-3.0781596,0.62542117,-0.00029950318,-0.03583169,0.00016003048,0.0023880424,0.0053119664,0.0066203526,-0.0072490694,0.47676823,-1.4238659,1.9553326,-2.100302,-1.5709041,2.4521086,-0.028263452,0.056120064,-0.07245777,0.012915651,-0.007894224,-0.020956224,-0.17238252,0.2681506,-9.251195,0.74413085,47.675243,-0.7093704,-2.0869298,-3.1426263,-0.28504127,-0.083786994,-0.2101537,27.75,28.875,28.0625,32.0,34.0,34.9375
0.07405242,-0.61408406,-0.96651244,-0.22227986,-0.032360397,0.046141863,-0.17298877,-0.38229084,-0.34850296,0.059949312,-3.078162,0.62542146,-0.00020603483,-0.036696527,-0.0005696765,0.0028352037,0.004019201,0.0067619407,-0.0069084545,0.47673216,-1.4237578,1.9551524,-2.1002777,-1.5709399,2.4520726,-0.028461173,0.057483125,-0.07518721,0.013557873,-0.006814073,-0.021495556,-0.21068975,0.22984336,-9.193734,0.7530795,47.657326,-0.6722286,-2.0995228,-3.135538,-0.26521176,-0.10423617,-0.20503515,27.75,28.875,28.0625,32.0,34.0,34.9375
0.0760517,-1.0450904,-0.9113101,-0.17140982,-0.020377962,0.052119024,-0.16684699,-0.3823579,-0.3485084,0.05994375,-3.0781527,0.625476,-0.00023320792,-0.037640534,-0.0009568547,0.0029351932,0.0038150272,0.0068220454,-0.0062213433,0.4766721,-1.4236253,1.9550084,-2.1002538,-1.570928,2.4520478,-0.028735626,0.05941106,-0.07773077,0.014025411,-0.0066650887,-0.022455852,-0.19153613,0.095768064,-9.232041,0.82022345,47.70211,-0.7642184,-2.1538684,-3.1269526,-0.25135076,-0.10526575,-0.2245684,27.75,28.875,28.0625,32.0,34.0,34.9375
0.07805258,-1.0114977,-0.54305524,-0.17593542,-0.007775176,0.060980376,-0.17083213,-0.38242844,-0.34849116,0.05994701,-3.0781066,0.62548625,-0.00022695918,-0.038434673,-0.00064648426,0.002813155,0.0051960996,0.00666413,-0.005932606,0.4765999,-1.423517,1.9548634,-2.1001933,-1.5709642,2.451988,-0.029262021,0.06109635,-0.07960012,0.0149860075,-0.0078222435,-0.023267573,-0.21068975,0.17238252,-9.136273,0.8157518,47.705692,-0.791518,-2.0335202,-3.033887,-0.26292172,-0.121372305,-0.23165157,27.75,28.875,28.0625,32.0,34.0,34.9375
0.08005252,-0.911042,-0.26886922,-0.07405813,0.0010124816,0.065785766,-0.17433114,-0.3825134,-0.34849405,0.05995561,-3.0781443,0.6255509,-0.0002192899,-0.039705478,-0.00053006184,0.0030067465,0.0058997413,0.007922554,-0.005326954,0.47650373,-1.4234085,1.9547199,-2.1001933,-1.5709289,2.4519274,-0.029848104,0.06256664,-0.081687614,0.014811813,-0.009028991,-0.024455978,-0.24899697,0.19153613,-9.174581,0.81351066,47.703903,-0.7930043,-2.1424434,-3.0710974,-0.25957966,-0.12408918,-0.2491283,27.75,28.875,28.0625,32.0,34.0,34.9375
0.08205202,-1.0612792,-0.39153892,-0.17480882,0.0006944555,0.06023396,-0.16901541,-0.38257834,-0.34850776,0.059941996,-3.0780935,0.62557805,-0.00021547436,-0.04036819,-0.00022989049,0.0022054487,0.008206798,0.006736916,-0.004263915,0.47649163,-1.4232395,1.9545525,-2.100169,-1.5709652,2.4519389,-0.030010441,0.06576067,-0.08373456,0.015780525,-0.010538595,-0.025676878,-0.21068975,0.13407528,-9.193734,0.82694155,47.67614,-0.8092873,-2.116053,-3.0694046,-0.24959785,-0.123424515,-0.22286466,27.75,28.875,28.0625,32.0,34.0,34.9375
0.0840517,-1.0171795,-0.25129655,-0.219888,-0.011023724,0.05522183,-0.16779934,-0.38268057,-0.34851336,0.05996884,-3.078149,0.6255691,-0.00011278304,-0.041365724,0.0001932262,0.0025766091,0.009647865,0.007839913,-0.0034990697,0.4764076,-1.4231431,1.9543837,-2.1001804,-1.5709656,2.4518423,-0.030511564,0.06646658,-0.08558153,0.016607454,-0.012325249,-0.026939558,-0.2873042,0.17238252,-9.308656,0.80456203,47.6636,-0.85734713,-2.2798705,-3.0748081,-0.25195044,-0.08655953,-0.24029636,27.75,28.875,28.0625,32.0,34.0,34.9375
0.08605169,-1.0231313,-0.9556592,-0.35004705,-0.0074629076,0.055963498,-0.16362798,-0.38274068,-0.34849542,0.059951086,-3.0780406,0.6256039,-0.00015542835,-0.04210431,0.00046641965,0.0029708692,0.011166291,0.008729386,-0.0026422194,0.47635955,-1.4229871,1.9542269,-2.100096,-1.5710262,2.45183,-0.030529711,0.06705902,-0.087433845,0.017776981,-0.014086339,-0.027809348,-0.34476504,0.19153613,-9.289502,0.8247004,47.66987,-0.922263,-2.0266194,-3.0778308,-0.24780625,-0.07709639,-0.25088108,27.75,28.875,28.0625,32.0,34.0,34.9375
0.08805176,-0.98517406,-1.0378994,-0.3619968,-0.022189206,0.059427824,-0.16722612,-0.38282508,-0.3485011,0.05997441,-3.0780532,0.6255673,-0.00011615049,-0.04241505,0.00052189064,0.0026033306,0.011897043,0.0071308846,-0.0019513252,0.47629946,-1.4228783,1.9540356,-2.1000364,-1.5710381,2.4517455,-0.030961296,0.06897516,-0.08914071,0.01932139,-0.014002676,-0.028931467,-0.34476504,0.2681506,-9.289502,0.7732232,47.687782,-0.9512997,-2.0388243,-3.1008425,-0.23251733,-0.06442271,-0.2280536,27.75,28.875,28.0625,32.0,34.0,34.9375
0.09005163,-0.9329559,-1.0945585,-0.51676226,-0.030474614,0.05882281,-0.16126794,-0.38290757,-0.34850565,0.05997653,-3.0780392,0.62558436,-0.000107606036,-0.042151354,0.0007979123,0.00044654688,0.01326008,0.0025488005,-0.002237426,0.4762392,-1.4227324,1.9538559,-2.1000001,-1.57105,2.4516978,-0.031778973,0.07344817,-0.08945546,0.019855564,-0.013113126,-0.029463973,-0.30645782,0.22984336,-9.423578,0.7933669,47.694946,-0.97858083,-2.2612972,-3.136283,-0.25099355,-0.06044475,-0.24336477,27.75,28.875,28.0625,32.0,34.0,34.9375
0.09205241,-0.32127813,-0.61509717,-0.52279115,-0.04620543,0.07077631,-0.17401409,-0.38300332,-0.34849682,0.05997225,-3.0780208,0.62556034,-0.00012448964,-0.0446657,-0.0004366491,0.003083201,0.009348742,0.0071153743,-0.002771384,0.47614276,-1.4225647,1.9536632,-2.0999525,-1.5710615,2.4515889,-0.032780122,0.07248789,-0.09440617,0.019908352,-0.011741747,-0.029931247,-0.24899697,0.24899697,-9.3661175,0.8112748,47.65912,-0.99406123,-2.0571349,-3.055129,-0.25274724,-0.08388877,-0.28208694,27.75,28.875,28.0625,32.0,34.0,34.9375
0.09405222,-1.0019667,-0.79701877,-0.6326786,-0.041616544,0.050822977,-0.17108302,-0.38308755,-0.34849346,0.05996167,-3.0779774,0.6256282,-9.1173955e-05,-0.04387781,0.0005424343,0.0007802736,0.012169868,0.0031600266,-0.0028002248,0.47608262,-1.4224075,1.9535078,-2.0999525,-1.5710977,2.4515767,-0.03333664,0.07556463,-0.09267089,0.019905247,-0.012432872,-0.030457962,-0.24899697,0.2681506,-9.289502,0.8179876,47.63315,-1.0365986,-2.177217,-3.2751975,-0.22828051,-0.08644071,-0.27105218,27.75,28.875,28.0625,32.0,34.0,34.9375
0.096052386,-0.4524346,-1.0451858,-0.6240637,-0.034723196,0.07128562,-0.1640474,-0.38317022,-0.34850708,0.05997661,-3.077977,0.62553275,-6.8886555e-05,-0.045364264,0.00032286803,0.00091984414,0.012448652,0.0038941428,-0.0035985794,0.47604635,-1.4222624,1.9532913,-2.09988,-1.571122,2.451481,-0.03392614,0.07801503,-0.095845975,0.020106278,-0.013023501,-0.03024604,-0.11492168,0.2681506,-9.346964,0.7597976,47.71465,-1.0429254,-2.1636467,-3.341846,-0.22242615,-0.08351572,-0.27204823,27.75,28.875,28.0625,32.0,34.0,34.9375
0.09805258,-0.9018216,-0.7713045,-0.670613,-0.030361257,0.0644399,-0.16565254,-0.38325378,-0.34848255,0.05995027,-3.0778873,0.6256679,-0.00018751372,-0.045144938,0.00088676775,-0.00015632831,0.013857788,0.0019768956,-0.0033235243,0.4759262,-1.4220695,1.953112,-2.0997965,-1.5711225,2.4514568,-0.034468893,0.07961158,-0.095265895,0.020278845,-0.013399664,-0.031061918,-0.076614454,0.3256114,-9.385271,0.7597976,47.693153,-1.0487247,-2.2696016,-3.2313056,-0.2086024,-0.06466992,-0.28792349,27.75,28.875,28.0625,32.0,34.0,34.9375
0.100052446,0.040479757,-0.936301,-0.61557776,-0.035794508,0.07328466,-0.17399944,-0.38333955,-0.3484782,0.059952132,-3.0778604,0.6256422,-0.00010065006,-0.04632809,0.00014173437,0.0004693526,0.012592883,0.0031064602,-0.0018758989,0.4758781,-1.4219372,1.9529566,-2.0997965,-1.5711821,2.4513962,-0.034617126,0.08088784,-0.09817433,0.020321898,-0.012799304,-0.03265768,0.038307227,0.30645782,-9.3661175,0.8605109,47.696735,-1.1395608,-2.1437864,-3.388273,-0.20078443,-0.0783048,-0.29997033,27.75,28.875,28.0625,32.0,34.0,34.9375
0.10205233,-0.41009042,-1.42022,-0.8293285,-0.04296727,0.04348376,-0.16163296,-0.38345623,-0.3484752,0.059980217,-3.0778625,0.6256815,-2.1250597e-05,-0.04714927,0.0013241516,-0.00017180672,0.013589128,0.0016980807,-0.004140799,0.47578117,-1.4218045,1.9527296,-2.099748,-1.5712065,2.4513237,-0.03730009,0.08233066,-0.098503724,0.020915357,-0.013038172,-0.0330756,-0.11492168,0.3256114,-9.442732,0.8537928,47.698532,-1.054167,-2.12965,-3.3956413,-0.18938455,-0.0777023,-0.2976684,27.75,28.875,28.0625,32.0,34.0,34.9375
0.104052275,-0.5994193,-1.6134484,-0.7851338,-0.04924685,0.021912599,-0.15857099,-0.38354862,-0.34847876,0.05997595,-3.0778234,0.62565565,1.1379353e-05,-0.04812977,0.0010807863,3.2594824e-05,0.013424013,0.00213326,-0.005693339,0.47573304,-1.4216237,1.9525245,-2.0997126,-1.5712537,2.4512646,-0.037724342,0.08382183,-0.1007578,0.021214547,-0.013094888,-0.031945787,-0.076614454,0.2681506,-9.461885,0.68146914,47.69763,-1.1277729,-2.2047935,-3.4030247,-0.16959834,-0.06573465,-0.30563703,27.75,28.875,28.0625,32.0,34.0,34.9375
0.10605224,-0.5383751,-1.6496038,-0.83850306,-0.043007214,0.017743925,-0.16088344,-0.38366902,-0.34848484,0.059978638,-3.0778255,0.62565506,7.6245684e-05,-0.047774043,0.0011779411,-0.0006877238,0.014416066,0.0006008849,-0.004833665,0.47564912,-1.4214312,1.952298,-2.0997121,-1.5712785,2.4511802,-0.037440598,0.08509494,-0.100691736,0.021690331,-0.013273451,-0.032521762,-0.15322891,0.24899697,-9.461885,0.8247004,47.682407,-1.1145549,-2.0549,-3.560309,-0.17013943,-0.063360654,-0.34668362,27.75,28.875,28.0625,32.0,34.0,34.9375
0.108051926,-0.2736933,-1.6242046,-0.71239454,-0.030115891,0.0297646,-0.15617058,-0.38376948,-0.34848964,0.059993096,-3.07783,0.625635,7.578939e-05,-0.04967115,0.0003181773,0.00029332307,0.0136147905,0.0028956062,-0.0021584344,0.47556522,-1.4212742,1.9520692,-2.0996401,-1.5712785,2.4510834,-0.037421495,0.086987995,-0.10514518,0.021842182,-0.013622733,-0.035174757,-0.076614454,0.19153613,-9.461885,0.8537928,47.703903,-1.2835342,-2.1195705,-3.3825054,-0.14784348,-0.06328109,-0.34044933,27.75,28.875,28.0625,32.0,34.0,34.9375
0.11005181,-0.14971264,-1.1574825,-0.8050357,-0.027355842,0.046435826,-0.17001686,-0.3838718,-0.34849536,0.0599967,-3.0778139,0.62565106,0.00013865548,-0.049829464,0.0013511875,-0.00060177286,0.013141151,0.00046046928,-0.0040336456,0.47550413,-1.4211059,1.9518656,-2.0996282,-1.5713137,2.4510345,-0.04038126,0.08767283,-0.103901125,0.02185304,-0.012084045,-0.03626313,0.0,0.22984336,-9.442732,0.7709874,47.688675,-1.1062231,-2.0231063,-3.617405,-0.1317675,-0.07433091,-0.3439839,27.75,28.875,28.0625,32.0,34.0,34.9375
0.1120516,-0.14913835,-1.1081315,-0.73094845,-0.02860748,0.053189266,-0.16676426,-0.38395593,-0.34848714,0.05999041,-3.0777612,0.6256394,6.234451e-05,-0.052245248,0.00023271384,0.001363177,0.010777659,0.004109959,-0.0027359782,0.47541994,-1.4209255,1.9516491,-2.0995204,-1.5713257,2.45095,-0.0408746,0.08830351,-0.10920403,0.022194475,-0.011667728,-0.03805148,0.019153614,0.22984336,-9.461885,0.77545905,47.694946,-1.1358116,-1.9872063,-3.4578543,-0.10417016,-0.07365565,-0.32609275,27.75,28.875,28.0625,32.0,34.0,34.9375
0.114051834,-0.51667416,-1.1539091,-0.8433589,-0.02587266,0.046041712,-0.16344765,-0.38407898,-0.3485054,0.060010426,-3.0777948,0.62564754,0.00015866464,-0.05304404,0.0011471157,-0.00041356258,0.012276679,-0.0005535458,-0.0040324973,0.47534695,-1.4207556,1.9514087,-2.0995195,-1.5713376,2.450878,-0.04373471,0.09318987,-0.111190684,0.02412193,-0.010864312,-0.039616067,0.0,0.19153613,-9.385271,0.8247004,47.661808,-1.0903594,-2.041582,-3.4682093,-0.10250524,-0.08616261,-0.3124222,27.75,28.875,28.0625,32.0,34.0,34.9375
0.116052054,-0.59523606,-0.9725594,-0.8982515,-0.025040647,0.04686579,-0.15571012,-0.38417733,-0.34849805,0.06000815,-3.0777497,0.625715,0.00012720605,-0.053866483,5.6179117e-05,0.0021563605,0.010102801,0.0033878693,-0.0040994505,0.4752513,-1.4205767,1.9511927,-2.0994475,-1.5713495,2.4508302,-0.04262072,0.09029361,-0.1140455,0.025372645,-0.010739455,-0.038434308,-0.11492168,0.22984336,-9.385271,0.8224646,47.67614,-1.1017337,-1.9025502,-3.4275403,-0.09809603,-0.08720187,-0.34494,27.75,28.875,28.0625,32.0,34.0,34.9375
0.11805198,-0.99004585,-1.083684,-1.0141163,-0.016389068,0.040102,-0.15839334,-0.3842917,-0.34849688,0.060019296,-3.077744,0.62567306,0.00018844966,-0.053874925,0.00020261545,0.00096366595,0.011945092,0.00059933966,-0.0022652731,0.47516736,-1.420407,1.9509648,-2.0994108,-1.5713853,2.450721,-0.042640194,0.093617626,-0.11546128,0.026784485,-0.011101903,-0.040286563,-0.22984336,0.21068975,-9.423578,0.82022345,47.694946,-1.2512741,-1.9191251,-3.42147,-0.08696084,-0.07235314,-0.34193316,27.75,28.875,28.0625,32.0,34.0,34.9375
0.12005187,-0.90379363,-0.68731666,-0.7942952,-0.037471853,0.05493703,-0.16998662,-0.3844021,-0.3484997,0.0600145,-3.0777078,0.6257417,0.00014381067,-0.055432238,0.00020272286,0.0023441908,0.010402361,0.0021585848,-0.0009515346,0.47507066,-1.4201912,1.9507121,-2.0993383,-1.5713848,2.450672,-0.044472344,0.093117066,-0.118355654,0.028081365,-0.010449962,-0.043432284,-0.2681506,0.22984336,-9.461885,0.80456203,47.685097,-1.2415236,-1.9632357,-3.4007635,-0.094552055,-0.113082066,-0.2953877,27.75,28.875,28.0625,32.0,34.0,34.9375
0.1220517,-1.328247,-1.3534175,-0.9395403,-0.03514845,0.064978234,-0.15476055,-0.3844841,-0.3484901,0.05999631,-3.077637,0.62563145,8.6183674e-05,-0.0567227,0.0013353409,0.0017536659,0.012322895,0.0011346943,-0.0015648406,0.47500983,-1.4199861,1.950497,-2.0992424,-1.5714334,2.4505515,-0.046845052,0.095590204,-0.12009592,0.029137753,-0.011695862,-0.045187213,-0.2681506,0.15322891,-9.557653,0.8314132,47.71823,-1.0934812,-1.8453414,-3.4746566,-0.09789644,-0.10707855,-0.30128747,27.75,28.875,28.0625,32.0,34.0,34.9375
0.12405159,-1.7011663,-1.3421981,-0.9716399,-0.03763705,0.066573925,-0.16145067,-0.3846005,-0.34850273,0.06001606,-3.0776758,0.62565655,7.831518e-05,-0.05753581,0.00087029504,0.0022827263,0.011963121,0.0017073213,0.00039594027,0.474902,-1.4198176,1.9502453,-2.0991824,-1.5713972,2.4504545,-0.046782758,0.09658341,-0.12266078,0.030034363,-0.0116417315,-0.04708486,-0.24899697,0.24899697,-9.500193,0.83365434,47.690468,-1.1654446,-1.7882307,-3.350862,-0.08998665,-0.09138492,-0.28718346,27.75,28.875,28.0625,32.0,34.0,34.9375
0.1260522,-1.8470627,-1.6232948,-1.0547082,-0.029646434,0.0776701,-0.15439628,-0.38472325,-0.34849852,0.060013134,-3.0776372,0.62566745,9.834984e-05,-0.05847981,0.0008982032,0.0020158605,0.011851631,0.0008447069,0.001207793,0.47480544,-1.4196007,1.9499925,-2.0991342,-1.5714334,2.4503698,-0.04799493,0.09879024,-0.124729045,0.030605791,-0.011153492,-0.049108528,-0.38307226,0.24899697,-9.576807,0.7709874,47.713753,-1.1823587,-1.8273022,-3.4782317,-0.099324465,-0.104546204,-0.25481805,27.75,28.875,28.0625,32.0,34.0,34.9375
0.12805197,-1.4827713,-1.1633232,-1.0572183,-0.03931178,0.08531094,-0.16365844,-0.38484654,-0.34850404,0.060026973,-3.0776262,0.6256066,0.0001728071,-0.05999561,0.0007753053,0.0023602017,0.012115046,0.0018168818,0.0025555652,0.47473332,-1.4194076,1.9497288,-2.099086,-1.5714816,2.4502614,-0.04870648,0.10077373,-0.1279065,0.031053076,-0.011838358,-0.05116496,-0.3256114,0.19153613,-9.634268,0.8023209,47.698532,-1.1892109,-1.7862226,-3.3852878,-0.078953855,-0.1157098,-0.21621037,27.75,28.875,28.0625,32.0,34.0,34.9375
0.13005248,-1.2048886,-0.7771103,-0.9629735,-0.03985101,0.083581425,-0.16643351,-0.38496244,-0.3484874,0.060018428,-3.0775754,0.62565386,0.0001515818,-0.06201433,5.2611562e-05,0.0032022556,0.010215031,0.0025139733,0.002802706,0.4746128,-1.4192027,1.9495,-2.0990264,-1.571505,2.450177,-0.050134424,0.103054464,-0.13269313,0.032061595,-0.010478195,-0.05283995,-0.4213795,0.17238252,-9.595961,0.800085,47.71286,-1.1892788,-1.8472044,-3.3206062,-0.056262158,-0.13509724,-0.20739275,27.75,28.875,28.0625,32.0,34.0,34.9375
0.13205239,-1.40792,-1.1998975,-1.071817,-0.022068106,0.074477695,-0.15549372,-0.38510668,-0.34848958,0.06004379,-3.0776012,0.6256578,0.00023235338,-0.062040985,0.00066283933,0.0009660754,0.012960846,-0.0017300943,0.00395046,0.47449258,-1.4190208,1.9492253,-2.0989902,-1.5715173,2.450056,-0.0508935,0.10806297,-0.13353975,0.032927696,-0.010979768,-0.054745354,-0.40222588,0.17238252,-9.615114,0.7911258,47.684196,-1.2187635,-1.9059687,-3.2255359,-0.06851887,-0.13284741,-0.17611915,27.75,28.875,28.0625,32.0,34.0,34.9375
0.13405216,-0.90470684,-0.75214165,-0.9713159,-0.022271726,0.07466584,-0.17119922,-0.38521728,-0.34848818,0.06005417,-3.0775661,0.62557286,0.0002528412,-0.06447001,0.00020923968,0.003075205,0.011536627,0.003499558,0.004755896,0.47442025,-1.418829,1.9489602,-2.0988948,-1.571566,2.4499354,-0.051561616,0.10725488,-0.13727517,0.032167822,-0.012114247,-0.056214564,-0.49799395,0.19153613,-9.557653,0.8784135,47.670765,-1.1724163,-1.9200268,-3.159219,-0.06360765,-0.123242676,-0.14331385,27.75,28.875,28.0625,32.0,34.0,34.9375
0.1360525,-1.4314173,-1.0491589,-1.0058901,-0.02333553,0.06342948,-0.1515074,-0.38535592,-0.34848994,0.060062476,-3.0775428,0.6255867,0.00027207256,-0.06517028,0.00086184795,0.00062398217,0.013920201,-0.00020814687,0.004246499,0.4743119,-1.4185987,1.9486607,-2.0988228,-1.5715898,2.4498389,-0.053057615,0.11321191,-0.13843608,0.03175675,-0.012545701,-0.057198714,-0.4213795,0.2681506,-9.5385,0.784413,47.690468,-1.2091209,-1.9743431,-3.1936457,-0.029918805,-0.13570882,-0.08245288,27.75,28.875,28.0625,32.0,34.0,34.9375
0.1380525,-1.256302,-1.1325883,-0.8407944,-0.04112872,0.072948135,-0.16010216,-0.38546592,-0.3484831,0.0600539,-3.0775259,0.62560415,0.0002150534,-0.06642916,0.00093962,0.0021369988,0.013312041,0.0019804602,0.0021078954,0.47419143,-1.4183948,1.9484328,-2.0987623,-1.5715779,2.4497316,-0.054023724,0.11206761,-0.14092001,0.033162203,-0.013008313,-0.05602408,-0.49799395,0.22984336,-9.5385,0.87393653,47.70032,-1.1981065,-1.8771238,-3.2109761,-0.01840807,-0.13475376,-0.09731585,27.75,28.875,28.0625,32.0,34.0,34.9375
0.14005242,-1.3936936,-1.7360908,-0.83376306,-0.039910916,0.08226366,-0.1668783,-0.38563138,-0.3484963,0.060103543,-3.0775857,0.625558,0.00034075882,-0.06715661,0.0009109863,0.0011953157,0.013923174,-0.00028064803,0.00056416413,0.47407123,-1.4182132,1.9480976,-2.0987022,-1.5715898,2.4495752,-0.054927647,0.11578485,-0.1432575,0.034069847,-0.012517727,-0.05538493,-0.5554548,0.2681506,-9.442732,0.8179876,47.698532,-1.1969178,-1.8448524,-3.231905,-0.022262312,-0.11760116,-0.08339432,27.75,28.875,28.0625,32.0,34.0,34.9375
0.14205226,-1.3488194,-1.8155733,-0.75371253,-0.048681434,0.08767276,-0.16015494,-0.38576546,-0.34849766,0.06009235,-3.0775316,0.62552863,0.0003147922,-0.06743225,0.0025525515,-0.00014149275,0.016661275,-0.0029285436,-0.0012556537,0.47397444,-1.4179364,1.9477867,-2.0986183,-1.5716261,2.4494672,-0.057267487,0.11779945,-0.14280304,0.03520732,-0.013745512,-0.055902023,-0.45968673,0.24899697,-9.519346,0.7709874,47.660015,-1.1505882,-2.004528,-3.320982,-0.008299318,-0.12363312,-0.037704512,27.75,28.875,28.0625,32.0,34.0,34.9375
0.14405209,-1.1063458,-1.7750314,-0.54635394,-0.06012968,0.09650864,-0.17029817,-0.3859162,-0.3484788,0.06009771,-3.0774703,0.6255964,0.0003717149,-0.06860671,0.0023726136,0.000539327,0.015946556,-0.0029696142,-0.0058983024,0.47384185,-1.4177077,1.9474982,-2.0985577,-1.5716857,2.449385,-0.05841481,0.11888844,-0.14605789,0.03707986,-0.013092969,-0.052406643,-0.51714754,0.28730422,-9.423578,0.7709874,47.658226,-1.0451329,-1.8628006,-3.2137237,-0.015323473,-0.14699513,-0.05287972,27.75,28.875,28.0625,32.0,34.0,34.9375
0.14605255,-0.9409412,-0.9372481,-0.3429579,-0.06563984,0.09780791,-0.17176339,-0.3860649,-0.3484858,0.06010205,-3.0774658,0.625556,0.00040804464,-0.0684272,0.002024758,-0.00022949927,0.017335065,-0.0041989717,-0.005812693,0.47373444,-1.4174547,1.9471873,-2.09851,-1.5717105,2.449253,-0.057175286,0.1212332,-0.14712249,0.0375282,-0.013768891,-0.051250752,-0.47884035,0.34476504,-9.32781,0.7933669,47.64837,-1.251291,-1.98925,-3.3297024,-0.024446517,-0.13623399,-0.09102909,27.75,28.875,28.0625,32.0,34.0,34.9375
0.14805242,-0.81403714,-1.0211265,-0.12850416,-0.035551768,0.0848439,-0.16714515,-0.38618296,-0.3484741,0.060093187,-3.0774045,0.62562215,0.00034504352,-0.07012089,0.002289502,-0.00011265587,0.016338652,-0.0027365778,-0.009076906,0.47361365,-1.417226,1.9469231,-2.0984142,-1.5717224,2.4491816,-0.0592983,0.1224684,-0.14845596,0.035868857,-0.013559705,-0.05010806,-0.36391866,0.38307226,-9.136273,0.8560339,47.684196,-1.1342393,-1.8527583,-3.34275,0.0063485564,-0.12220259,-0.09521341,27.75,28.875,28.0625,32.0,34.0,34.9375
0.1500521,-0.7056007,-0.38525578,-0.02692312,-0.0333454,0.07199231,-0.16803269,-0.3863409,-0.34848458,0.06011085,-3.077427,0.6257051,0.00038921039,-0.07221999,0.0034519676,-0.00013864122,0.016729025,-0.002672113,-0.012623617,0.47348043,-1.4169971,1.9466118,-2.098378,-1.5717105,2.4490974,-0.06298946,0.12441246,-0.15076491,0.036354456,-0.013939487,-0.050251074,-0.32561144,0.26815057,-9.097966,0.8537928,47.691364,-1.0165217,-1.9171627,-3.3630471,0.027624175,-0.13291153,-0.067609265,27.75,28.875,28.0625,32.0,34.0,34.9375
0.15205199,-0.8548449,-0.42930436,0.22215933,-0.009139475,0.04417275,-0.16571759,-0.38652372,-0.3484715,0.060134422,-3.0774038,0.62575907,0.0005438369,-0.07154145,0.0030087056,-0.0015289666,0.018148907,-0.006974739,-0.015059694,0.47333673,-1.4167674,1.946289,-2.098354,-1.571782,2.4489906,-0.062009633,0.12820356,-0.15252572,0.038796887,-0.013236312,-0.04683656,-0.19153613,0.15322891,-8.944737,0.76874626,47.681515,-0.9852369,-2.019857,-3.38838,0.031111218,-0.15958315,-0.10678747,27.75,28.875,28.0625,32.0,34.0,34.9375
0.15405253,0.08255369,0.19174117,0.32619163,-0.0012560729,0.04393269,-0.17137958,-0.3866381,-0.34848928,0.06013841,-3.0774045,0.62568337,0.00051570963,-0.073213585,0.0032956942,0.0008152294,0.017019348,-0.0032144461,-0.018261708,0.47326422,-1.4165405,1.946,-2.0982692,-1.5717825,2.448871,-0.06355654,0.12547311,-0.15509565,0.040239014,-0.01394834,-0.045179237,-0.30645782,0.05746084,-8.810662,0.81351066,47.67614,-1.0570664,-1.787353,-3.3821993,0.026899792,-0.14741576,-0.16982184,27.75,28.875,28.0625,32.0,34.0,34.9375
0.15605241,-0.10227201,0.40843412,0.11825242,0.011847998,0.026933808,-0.16098459,-0.38680643,-0.34848535,0.060136706,-3.0773733,0.625774,0.0005493566,-0.07415747,0.004314627,-3.670338e-05,0.01852296,-0.005864928,-0.020440513,0.47311926,-1.4162629,1.9456767,-2.0982325,-1.5718063,2.4487867,-0.06609729,0.12840551,-0.157012,0.042264458,-0.014079836,-0.04554009,-0.2873042,-0.019153614,-8.810662,0.90750587,47.67345,-0.9740875,-1.9834204,-3.3557591,0.028898489,-0.16385733,-0.17771801,27.75,28.875,28.0625,32.0,34.0,34.9375
0.15805237,-0.02358593,0.04473656,0.07356674,0.027931035,0.022792159,-0.16259316,-0.38696858,-0.34847414,0.060159475,-3.0773144,0.62587786,0.00056641886,-0.07408842,0.0048076394,-0.0012577677,0.02077141,-0.009481062,-0.020895673,0.4729752,-1.4160218,1.9453176,-2.0981,-1.5718426,2.4487152,-0.0666451,0.13164791,-0.15855445,0.044805467,-0.014434314,-0.04563109,-0.095768064,-0.05746084,-8.887277,0.88960326,47.67614,-0.93786275,-1.8281928,-3.3328547,0.015675098,-0.17582342,-0.18769088,27.75,28.875,28.0625,32.0,34.0,34.9375
0.16005209,0.5158436,0.40188113,0.40904218,0.0018105091,0.04181881,-0.17289253,-0.38710597,-0.34846556,0.060128897,-3.0772653,0.62584877,0.0004888157,-0.07510438,0.0054357126,-0.00061449275,0.021558734,-0.010208564,-0.023054097,0.47284263,-1.4157212,1.9450282,-2.098039,-1.5718545,2.448571,-0.06840718,0.13224149,-0.16150586,0.048169006,-0.014807987,-0.045232087,-0.24899697,-0.076614454,-8.810662,0.7911258,47.71465,-0.9200036,-1.881441,-3.2607148,-0.03070683,-0.15323995,-0.19341019,27.75,28.875,28.0625,32.0,34.0,34.9375
0.16205205,-0.07398718,0.03863008,0.25692916,-0.0034889227,0.040021088,-0.1653047,-0.3872619,-0.34844217,0.060138144,-3.0771768,0.6259651,0.000513766,-0.07615049,0.005635352,-0.00071480987,0.023085369,-0.0121128755,-0.02372458,0.47269818,-1.4154798,1.9447049,-2.0979297,-1.5719146,2.4485106,-0.06935886,0.13531685,-0.1656175,0.051592488,-0.015305313,-0.045510046,-0.19153613,-0.038307227,-8.848969,0.90750587,47.704796,-0.8833862,-1.8577077,-3.2280664,-0.06041719,-0.14403105,-0.23501146,27.75,28.875,28.0625,32.0,34.0,34.9375
0.164052,-0.6116602,-0.45393607,-0.038883917,0.0063094534,0.03446491,-0.166217,-0.38743058,-0.34842068,0.0601401,-3.0771077,0.6260468,0.00050083746,-0.075893044,0.0059196344,-0.0013005974,0.024128234,-0.015950676,-0.02421198,0.4725299,-1.4152029,1.9443573,-2.0978205,-1.5719503,2.4484024,-0.070116594,0.13732299,-0.16746859,0.055321876,-0.01448806,-0.04578105,-0.17238252,-0.019153614,-8.944737,0.8247004,47.68599,-0.8815595,-1.8717337,-3.2663019,-0.11328763,-0.15460508,-0.24458617,27.75,28.875,28.0625,32.0,34.0,34.9375
0.16605186,-0.6832075,-0.5445925,-0.1475544,0.0035504259,0.04059698,-0.16144311,-0.38755,-0.34839842,0.060104612,-3.0769808,0.6261166,0.00034405582,-0.076464,0.006289374,-0.0025724869,0.026122646,-0.019698184,-0.024811538,0.47239769,-1.4149011,1.9440588,-2.097677,-1.5719746,2.4483302,-0.07121017,0.1418305,-0.17038743,0.057974443,-0.014569476,-0.046271183,-0.13407528,0.11492168,-9.002198,0.7978386,47.68062,-0.852726,-1.8911736,-3.2359445,-0.15759355,-0.18769251,-0.24493851,27.75,28.875,28.0625,32.0,34.0,34.9375
0.1680538,-0.7700626,-0.7833842,-0.4600755,-0.0054777386,0.04384844,-0.1526475,-0.38769808,-0.34839773,0.06010429,-3.0769188,0.62614256,0.0002929706,-0.07666865,0.0068969927,-0.0009830212,0.025520867,-0.018497193,-0.02555549,0.4722772,-1.4146141,1.9436992,-2.0975444,-1.5719985,2.448234,-0.072425865,0.13846004,-0.17070797,0.060318764,-0.014581942,-0.046742894,-0.11492168,0.17238252,-9.059659,0.84484416,47.685097,-0.8249581,-1.7821989,-3.2249432,-0.18995562,-0.19188309,-0.2763091,27.75,28.875,28.0625,32.0,34.0,34.9375
0.17005193,-0.93293124,-1.3507843,-0.51779115,-0.022284897,0.056626648,-0.15474387,-0.38785744,-0.34838465,0.060107727,-3.076856,0.62622625,0.00029418574,-0.07739082,0.0076785022,-0.0020755497,0.027611976,-0.021332063,-0.026599463,0.47213277,-1.4143482,1.9433635,-2.0974472,-1.5720347,2.4481502,-0.07405409,0.1420249,-0.1728024,0.062321633,-0.015160784,-0.04732423,-0.21068975,0.22984336,-9.174581,0.8023209,47.678825,-0.83030325,-2.007576,-3.2472258,-0.24592814,-0.19880274,-0.30916402,27.75,28.875,28.0625,32.0,34.0,34.9375
0.17205171,-1.2349137,-1.2507452,-0.6108998,-0.04773784,0.06314947,-0.16227908,-0.38800004,-0.34833196,0.060080457,-3.0766857,0.62624836,0.00018485791,-0.07853906,0.007612655,-0.0018866163,0.027758472,-0.021188091,-0.026814567,0.47196436,-1.4140476,1.9430393,-2.0972679,-1.5721186,2.4480176,-0.07480895,0.14382666,-0.1755402,0.063189544,-0.015373876,-0.04785972,-0.28730422,0.30645782,-9.385271,0.81351066,47.66808,-0.73492587,-1.828074,-3.3226743,-0.286443,-0.1944016,-0.31547797,27.75,28.875,28.0625,32.0,34.0,34.9375
0.17405266,-1.4672238,-1.7718639,-0.90816915,-0.060402002,0.08158053,-0.1588515,-0.3881851,-0.34832713,0.060091905,-3.076627,0.62637085,0.00015001964,-0.07948886,0.0076943287,-0.0020155213,0.028688807,-0.021123407,-0.026734456,0.47179624,-1.4137346,1.9426202,-2.0971239,-1.5721315,2.4479337,-0.07521271,0.14584981,-0.17773637,0.0637271,-0.016243128,-0.04833959,-0.4213795,0.34476504,-9.461885,0.8247004,47.675243,-0.75573105,-1.9175687,-3.2655535,-0.3490054,-0.20584416,-0.31646207,27.75,28.875,28.0625,32.0,34.0,34.9375
0.17605177,-1.8627032,-2.0924752,-0.7876018,-0.07431748,0.094114445,-0.16544726,-0.3883192,-0.3483056,0.060081854,-3.076534,0.6263336,0.000104780454,-0.08159259,0.008423617,-0.0023783895,0.028221827,-0.020724986,-0.02974015,0.471675,-1.4134694,1.9423083,-2.0969932,-1.5721911,2.4478014,-0.07851555,0.14838202,-0.17956895,0.062454294,-0.016023345,-0.04863453,-0.4405331,0.38307226,-9.500193,0.8806493,47.711964,-0.69829404,-1.8331258,-3.3281946,-0.3584358,-0.19889241,-0.35910118,27.75,28.875,28.0625,32.0,34.0,34.9375
0.1780521,-1.803277,-2.20394,-1.0044751,-0.08013597,0.10811426,-0.16432582,-0.38848346,-0.34831938,0.060084213,-3.076519,0.6264445,-2.5664738e-06,-0.082445264,0.006863877,-0.0016879637,0.026828391,-0.017383559,-0.027018145,0.47151977,-1.4131567,1.941913,-2.096862,-1.5721434,2.4477174,-0.076306485,0.14924768,-0.18163987,0.060049992,-0.016317677,-0.049144432,-0.51714754,0.36391866,-9.672575,0.8851263,47.71017,-0.70063573,-1.7840643,-3.3420115,-0.37808508,-0.19229057,-0.41067773,27.75,28.875,28.0625,32.0,34.0,34.9375
0.18005225,-1.6613151,-1.7595769,-0.79843754,-0.077097625,0.11792936,-0.16598187,-0.38863945,-0.34830502,0.06008799,-3.07643,0.62655985,-4.1537278e-05,-0.0833913,0.00605588,-0.0012461642,0.024360059,-0.014997493,-0.02658133,0.47137585,-1.4128804,1.941554,-2.09672,-1.5721787,2.447657,-0.07640693,0.14940687,-0.18222998,0.057225294,-0.015217467,-0.049683034,-0.59376204,0.36391866,-9.672575,0.8493211,47.7254,-0.8519236,-1.8150594,-3.4071813,-0.3844291,-0.21899241,-0.40783542,27.75,28.875,28.0625,32.0,34.0,34.9375
0.18205224,-1.4960324,-1.6116428,-1.1777656,-0.05966533,0.10765908,-0.16451806,-0.3888235,-0.34826598,0.06006522,-3.0762947,0.6266676,-5.1095914e-05,-0.08594075,0.006990172,-0.0021627133,0.023305284,-0.01378686,-0.029286945,0.47119436,-1.4125427,1.9411954,-2.096625,-1.5722626,2.4475605,-0.08055211,0.15248527,-0.18280883,0.053157665,-0.014847918,-0.05112115,-0.47884035,0.24899697,-9.634268,0.80456203,47.709274,-0.66763496,-1.8983655,-3.5200217,-0.3574863,-0.23453507,-0.43437028,27.75,28.875,28.0625,32.0,34.0,34.9375
0.18405217,-1.5443183,-1.4226378,-1.2573302,-0.04738523,0.08205993,-0.16046295,-0.3890043,-0.34827122,0.060065024,-3.0762699,0.6267162,-8.188423e-05,-0.085636675,0.0049452092,-0.0034457569,0.023938065,-0.014003382,-0.023639824,0.47104,-1.4122171,1.9407991,-2.0965302,-1.5722626,2.44744,-0.076322414,0.15705815,-0.18469477,0.050948054,-0.015329444,-0.052534938,-0.36391866,0.28730422,-9.768343,0.80456203,47.709274,-0.7830198,-1.9214052,-3.4651377,-0.32756114,-0.2554073,-0.45785052,27.75,28.875,28.0625,32.0,34.0,34.9375
0.18605253,-0.9642241,-0.9452021,-1.0624022,-0.053854544,0.08699131,-0.16933168,-0.38918796,-0.3482585,0.060063396,-3.0762346,0.62680316,-8.550819e-05,-0.08809485,0.004362448,-0.002679339,0.022958467,-0.009485688,-0.02142562,0.47085986,-1.4119164,1.94044,-2.0964596,-1.5722755,2.4473188,-0.07669894,0.1587231,-0.18769623,0.047810856,-0.016528111,-0.055119917,-0.34476504,0.2681506,-9.710882,0.9254084,47.707485,-0.8652687,-2.003205,-3.4748874,-0.31173158,-0.24229619,-0.46674478,27.75,28.875,28.0625,32.0,34.0,34.9375
0.18805262,-1.1509898,-1.3100226,-1.1917742,-0.04130539,0.07139192,-0.1570371,-0.38937214,-0.348252,0.060059372,-3.0761614,0.626842,-3.3521792e-05,-0.0895527,0.003932015,-0.0039919177,0.022667995,-0.00813409,-0.016820831,0.4707279,-1.4115905,1.9400576,-2.096389,-1.572347,2.4472208,-0.07697449,0.16278267,-0.18835063,0.04305629,-0.016904723,-0.059997298,-0.3256114,0.21068975,-9.653421,0.8918391,47.681515,-0.8897011,-2.0675864,-3.5720522,-0.2503988,-0.24633613,-0.41284752,27.75,28.875,28.0625,32.0,34.0,34.9375
0.19005254,-0.79578525,-1.5422269,-1.2075795,-0.03234997,0.06067447,-0.15750307,-0.38956445,-0.34825504,0.06006959,-3.0761647,0.6269008,-5.9719027e-06,-0.09131991,0.0031623687,-0.0031653533,0.021002501,-0.0058091497,-0.016503718,0.4705596,-1.4112897,1.9396738,-2.0963295,-1.572347,2.447089,-0.07743264,0.16414417,-0.19165348,0.04216466,-0.016486168,-0.06077231,-0.019153614,0.19153613,-9.730036,0.842603,47.70211,-0.9210676,-2.1708405,-3.5674858,-0.21608561,-0.25845838,-0.41893977,27.75,28.875,28.0625,32.0,34.0,34.9375
0.19205244,0.19208391,-0.9251752,-1.0204055,-0.051602826,0.06108778,-0.17312439,-0.38975513,-0.34823975,0.060065713,-3.0761073,0.6269236,1.2063219e-05,-0.09310203,0.0025454073,-0.0024274373,0.021007538,-0.0029088832,-0.01235163,0.47039178,-1.4109651,1.9392895,-2.0962465,-1.5723957,2.446943,-0.077047005,0.16588153,-0.19521762,0.04140108,-0.017823786,-0.06453257,-0.019153614,0.24899697,-9.557653,0.9388393,47.692257,-0.9147916,-2.1223388,-3.5074573,-0.16751833,-0.26978043,-0.41415504,27.75,28.875,28.0625,32.0,34.0,34.9375
0.19405231,-0.36619276,-1.2971358,-1.0227996,-0.034110744,0.02010426,-0.15608263,-0.38994807,-0.34823033,0.06007804,-3.0760477,0.62696534,9.2999595e-05,-0.093984365,0.0029979034,-0.0034816025,0.022655793,-0.005150029,-0.006810514,0.47024742,-1.410663,1.9388937,-2.096162,-1.5724677,2.4468327,-0.078295596,0.1697086,-0.1975527,0.042635918,-0.018290406,-0.07131973,0.0,0.24899697,-9.461885,0.8605109,47.685097,-0.98146176,-2.359927,-3.4580693,-0.15219808,-0.25300002,-0.35163403,27.75,28.875,28.0625,32.0,34.0,34.9375
0.196052,0.26032105,-0.9215026,-0.9763566,-0.037681766,0.0145379845,-0.15937933,-0.390123,-0.34822926,0.060063675,-3.0760114,0.62693846,7.015675e-05,-0.0962385,0.0026843306,-0.0022557846,0.021333216,-0.0021396228,-0.006101069,0.47010309,-1.4103268,1.9385222,-2.09609,-1.5724915,2.4466765,-0.07959921,0.17054133,-0.20127557,0.04223587,-0.018491566,-0.0733297,0.019153614,0.30645782,-9.423578,0.88960326,47.711964,-0.9166696,-2.119873,-3.384612,-0.13041402,-0.25981963,-0.28186122,27.75,28.875,28.0625,32.0,34.0,34.9375
0.1980519,0.4469309,-0.8929702,-0.98516375,-0.04804914,0.018027572,-0.1698362,-0.3903597,-0.34823024,0.06007962,-3.0759926,0.62698954,0.00017382008,-0.097964056,0.0023050923,-0.001194272,0.019786738,0.0012515521,-0.0033016843,0.4699228,-1.4099663,1.9380563,-2.0960314,-1.5725402,2.4465308,-0.08031583,0.1705388,-0.20338506,0.040611174,-0.018660137,-0.07684496,0.076614454,0.36391866,-9.404425,0.88289046,47.704796,-0.94598365,-2.1176794,-3.3464386,-0.09563503,-0.26752272,-0.2475295,27.75,28.875,28.0625,32.0,34.0,34.9375
0.2000518,-0.18830495,-1.9843125,-0.9745289,-0.04647655,0.0136871,-0.1547205,-0.39054447,-0.34823436,0.060075473,-3.07597,0.62688565,0.00014693504,-0.09774344,0.001891631,-0.0014627337,0.020532856,-0.000826275,0.0005750257,0.46977895,-1.4096171,1.9376377,-2.0959222,-1.572564,2.4463253,-0.07951542,0.17235316,-0.20548147,0.0430724,-0.018392218,-0.07992057,0.11492168,0.4213795,-9.481039,0.8493211,47.7245,-0.9881664,-2.088868,-3.3379257,-0.07894551,-0.26820976,-0.19761938,27.75,28.875,28.0625,32.0,34.0,34.9375
0.20205261,-0.420473,-2.2194386,-0.94165874,-0.07325897,0.027403185,-0.1582315,-0.39077312,-0.3482107,0.0601044,-3.0759192,0.6269539,0.0002859351,-0.099373624,0.0031460319,-0.0008715747,0.02125648,-0.0015553645,-0.0018061415,0.46958575,-1.4093168,1.9372057,-2.0958374,-1.5726484,2.4461815,-0.08292626,0.17310856,-0.2084765,0.046278577,-0.018706245,-0.08094933,0.05746084,0.51714754,-9.461885,0.84708,47.686886,-0.931131,-2.0837092,-3.3733997,-0.0811912,-0.2607088,-0.16512743,27.75,28.875,28.0625,32.0,34.0,34.9375
0.20405252,-0.60847825,-2.4862459,-0.96647656,-0.07812774,0.044903778,-0.15992719,-0.39094192,-0.34821156,0.06008127,-3.075856,0.6269189,0.00017671517,-0.09973776,0.0015335527,0.0002500087,0.019863114,-0.000310592,0.00050845766,0.46944278,-1.4089442,1.936798,-2.0957053,-1.5726599,2.4460251,-0.08079782,0.17357917,-0.21192022,0.047504935,-0.01804107,-0.08113429,-0.019153614,0.61291564,-9.442732,0.83589023,47.690468,-1.0785915,-1.9688208,-3.3560405,-0.084204316,-0.3034992,-0.12890562,27.75,28.875,28.0625,32.0,34.0,34.9375
0.20605257,-0.88086206,-2.8451593,-0.9476826,-0.07792703,0.05636741,-0.15688764,-0.39113015,-0.34820542,0.06008113,-3.0758188,0.6268366,0.00015995637,-0.10004187,0.002802647,-0.0017672491,0.021787265,-0.0050561586,-0.0027020453,0.46928573,-1.4086065,1.9363807,-2.0955846,-1.5726956,2.4458218,-0.08352852,0.17764333,-0.21241367,0.049030777,-0.017612642,-0.080654524,-0.11492168,0.63206923,-9.442732,0.9410752,47.705692,-1.109825,-1.9880512,-3.4201984,-0.074182406,-0.31332582,-0.10551446,27.75,28.875,28.0625,32.0,34.0,34.9375
0.20805235,-0.86600107,-2.1292722,-0.7736144,-0.07622059,0.061610006,-0.16088465,-0.39132366,-0.34820938,0.060065325,-3.0757694,0.626864,0.00016448306,-0.10052687,0.002098312,-0.0002811548,0.021070905,-0.0025291797,-0.0034745557,0.46914208,-1.4082348,1.9359735,-2.095525,-1.5727319,2.4457018,-0.08234963,0.17623232,-0.21442781,0.049878716,-0.018119631,-0.07870073,-0.05746084,0.5554548,-9.346964,0.8940802,47.688675,-0.9628891,-1.9408435,-3.411396,-0.06093707,-0.3110315,-0.09266995,27.75,28.875,28.0625,32.0,34.0,34.9375
0.21005222,-1.0597762,-2.248407,-0.69162315,-0.04346517,0.052826315,-0.15094838,-0.39153826,-0.34822586,0.060072456,-3.0757701,0.62684745,0.00018665721,-0.102126956,0.0010700655,0.0009282835,0.019329727,-0.0003549247,-0.0068484186,0.46898603,-1.4078621,1.9355072,-2.095441,-1.5727438,2.4455357,-0.0822833,0.17724967,-0.21850345,0.050212078,-0.017553097,-0.07526053,-0.038307227,0.4213795,-9.32781,0.93436235,47.679718,-1.1262034,-1.8707843,-3.441433,-0.05090884,-0.31216186,-0.10796693,27.75,28.875,28.0625,32.0,34.0,34.9375
0.2120521,-0.8004985,-0.93017757,-0.43619972,-0.03277598,0.048314326,-0.16014132,-0.3917386,-0.34822416,0.060074184,-3.0757196,0.62689656,0.00025638475,-0.10327032,0.001304524,0.0009848231,0.018890642,-0.00042814208,-0.012760574,0.46884152,-1.4075252,1.9351,-2.095381,-1.5728034,2.4454286,-0.08394171,0.17860702,-0.22033696,0.05055592,-0.017125612,-0.07100734,-0.21068975,0.28730422,-9.251195,0.83813137,47.690468,-1.104779,-1.9215868,-3.4095545,-0.028413562,-0.33795148,-0.1604371,27.75,28.875,28.0625,32.0,34.0,34.9375
0.2140519,-0.1328621,-0.0659632,-0.60733956,-0.0131009845,0.051795624,-0.16768791,-0.3919608,-0.34822822,0.060072098,-3.075693,0.62694925,0.00022379213,-0.102913745,0.0016354682,0.00010208043,0.020304762,-0.0021707832,-0.014130808,0.46864974,-1.4071281,1.9346207,-2.0952733,-1.5728039,2.4452734,-0.083838396,0.18000795,-0.22014524,0.05115851,-0.017599646,-0.06953203,-0.19153613,0.19153613,-9.212888,0.8717007,47.67614,-1.112114,-1.7738092,-3.3918068,-0.008301645,-0.35970628,-0.17255753,27.75,28.875,28.0625,32.0,34.0,34.9375
0.2160518,-0.2380376,-0.055847082,-0.46602294,0.0016133394,0.04138467,-0.16569096,-0.39215893,-0.3481954,0.060048852,-3.0755842,0.6270256,0.00016217044,-0.10380833,0.0016141934,0.0003003274,0.020411782,-0.0021201018,-0.019360222,0.46844542,-1.4067552,1.934215,-2.095153,-1.572852,2.445131,-0.0844651,0.18133636,-0.2224121,0.052103892,-0.01772164,-0.06492643,-0.15322891,0.11492168,-9.212888,0.9545008,47.694946,-1.1524783,-1.8847148,-3.4241567,0.015105939,-0.35972884,-0.2127037,27.75,28.875,28.0625,32.0,34.0,34.9375
0.21805196,-0.05780749,-0.08084145,-0.39723372,-0.0016706365,0.04812614,-0.1692526,-0.39236477,-0.34822062,0.060064472,-3.0755765,0.62704307,0.00018315436,-0.10473988,0.0019410793,0.00020891329,0.022325452,-0.0035048546,-0.020756928,0.46831337,-1.4063939,1.9337362,-2.095044,-1.5728644,2.4450111,-0.085128285,0.18395892,-0.22599185,0.055163108,-0.018804658,-0.06418825,-0.21068975,0.076614454,-9.155427,0.8784135,47.69763,-1.163276,-2.0271587,-3.426475,0.025565188,-0.35339493,-0.26512888,27.75,28.875,28.0625,32.0,34.0,34.9375
0.2200518,-0.6894314,-0.22567083,-0.33761525,0.00303019,0.04262383,-0.15737243,-0.39259827,-0.34822622,0.06008614,-3.0755832,0.6270047,0.00029882079,-0.10466736,0.0030419612,-0.00039428077,0.02509087,-0.007190239,-0.01945648,0.46814477,-1.406045,1.9332689,-2.0949829,-1.5729121,2.444818,-0.08642357,0.18575215,-0.22777218,0.059677854,-0.019605571,-0.06678238,-0.17238252,0.11492168,-9.136273,0.86945957,47.691364,-1.1821492,-1.9775338,-3.451631,-0.019667264,-0.37816873,-0.260145,27.75,28.875,28.0625,32.0,34.0,34.9375
0.2220517,-0.60492367,0.16882372,-0.39947668,-0.004539884,0.052461103,-0.16365226,-0.3928022,-0.3482031,0.060068157,-3.0754492,0.62716943,0.00022321499,-0.10534896,0.0031111273,-0.00094192376,0.025815275,-0.008754178,-0.020092556,0.4679526,-1.4056478,1.9328145,-2.094827,-1.5729603,2.4447463,-0.08712538,0.18849124,-0.23004737,0.060929354,-0.019558832,-0.0668452,-0.17238252,-0.114921674,-9.251195,0.89631605,47.688675,-1.1356337,-1.9921991,-3.4605484,-0.02076769,-0.39768296,-0.2409943,27.75,28.875,28.0625,32.0,34.0,34.9375
0.22405249,-0.5433942,0.15605848,-0.24922629,-0.0052933614,0.055010382,-0.16988939,-0.39302048,-0.34819388,0.060078003,-3.0753846,0.6271754,0.00021954959,-0.10556014,0.0039467406,-0.0013999644,0.028326537,-0.012067637,-0.02235322,0.46777216,-1.4052749,1.9323243,-2.0946696,-1.5730084,2.4445782,-0.08824345,0.19070952,-0.23264736,0.065399736,-0.020305837,-0.06569874,-0.21068975,-0.11492168,-9.212888,0.8672237,47.686886,-1.1304312,-1.9648457,-3.483191,-0.060333308,-0.38793826,-0.28492787,27.75,28.875,28.0625,32.0,34.0,34.9375
0.22605239,-0.7566315,-0.1882653,-0.31454057,0.015322212,0.051873546,-0.15641128,-0.39319813,-0.34819055,0.06003457,-3.0753067,0.62719893,0.000105997024,-0.1046116,0.005969877,-0.003044088,0.033106074,-0.019595832,-0.024198996,0.46761554,-1.4048654,1.931929,-2.0945828,-1.5730208,2.4444466,-0.0903423,0.19349319,-0.23384142,0.07268328,-0.021175394,-0.06594723,-0.40222588,-0.095768064,-9.136273,0.8806493,47.719128,-1.1597403,-2.0545382,-3.3890042,-0.14165123,-0.39952755,-0.29950485,27.75,28.875,28.0625,32.0,34.0,34.9375
0.22805238,-0.96874166,0.11343989,-0.42644602,0.018213466,0.050054144,-0.16044083,-0.39339787,-0.34816968,0.060022548,-3.0751762,0.6273244,-9.578289e-06,-0.105274916,0.005219192,-0.002534793,0.032141987,-0.018570848,-0.023388121,0.46742353,-1.4044685,1.9314502,-2.0943797,-1.5730566,2.44435,-0.089799516,0.19424284,-0.23594137,0.07267581,-0.020795893,-0.066213116,-0.4213795,0.019153614,-9.155427,0.90750587,47.655537,-1.1075006,-2.0363243,-3.4794803,-0.15867491,-0.41634405,-0.31830588,27.75,28.875,28.0625,32.0,34.0,34.9375
0.23005226,-1.03831,0.17647065,-0.5704642,0.013392052,0.054561295,-0.15970924,-0.39361763,-0.3481791,0.060043193,-3.075159,0.6272248,6.582737e-06,-0.10585646,0.005773504,-0.0023195064,0.03316138,-0.019929001,-0.02484562,0.4672672,-1.4040961,1.9309357,-2.0942233,-1.5730928,2.444134,-0.09103769,0.19516335,-0.2382592,0.07574099,-0.021097552,-0.06599187,-0.4405331,0.076614454,-9.174581,0.86945957,47.684196,-1.2055796,-2.1718287,-3.558627,-0.19707215,-0.4224361,-0.34839496,27.75,28.875,28.0625,32.0,34.0,34.9375
0.23205215,-1.4292047,-0.53376204,-0.43602008,0.005550784,0.060886864,-0.15558885,-0.39383444,-0.34814954,0.060018003,-3.0750246,0.6274481,-0.00010764528,-0.10806329,0.007325726,-0.0023443112,0.03476428,-0.020523561,-0.02733916,0.46703768,-1.4036747,1.9304689,-2.0940669,-1.5731171,2.4440615,-0.09490072,0.19755998,-0.24153851,0.07787092,-0.022280924,-0.06735347,-0.4213795,0.11492168,-9.270349,0.8493211,47.694054,-0.9263157,-2.0548713,-3.3932042,-0.24663858,-0.4163528,-0.35126066,27.75,28.875,28.0625,32.0,34.0,34.9375
0.23405209,-1.7921561,-0.9538114,-0.47801146,-0.01999589,0.07744886,-0.15749969,-0.3940363,-0.3481325,0.06000475,-3.0748997,0.62745804,-0.00013300193,-0.108204655,0.007300358,-0.0028207095,0.037260283,-0.021170888,-0.024631063,0.4668824,-1.4032776,1.930003,-2.093911,-1.5732025,2.443929,-0.09368246,0.19979563,-0.24341519,0.079207726,-0.024233742,-0.06883349,-0.57460845,0.15322891,-9.193734,0.78217715,47.66987,-1.0834864,-2.1189725,-3.4283705,-0.28070718,-0.4088378,-0.36531186,27.75,28.875,28.0625,32.0,34.0,34.9375
0.2360521,-1.8491708,-1.2562317,-0.4613614,-0.033015456,0.095672436,-0.16547503,-0.39425597,-0.3481093,0.0600235,-3.0748181,0.6275184,-0.00014833489,-0.11058606,0.008700646,-0.0024320653,0.037881196,-0.019792449,-0.02546076,0.466677,-1.4029288,1.9295119,-2.0937192,-1.5732507,2.443772,-0.09742321,0.2009203,-0.24571624,0.07942109,-0.025430027,-0.07173794,-0.63206923,0.095768064,-9.289502,0.9612189,47.705692,-0.94915366,-2.0732753,-3.3798542,-0.32033682,-0.41462278,-0.35977823,27.75,28.875,28.0625,32.0,34.0,34.9375
0.23805198,-1.6458817,-1.2826936,-0.6464401,-0.044119954,0.113438204,-0.16814809,-0.39446938,-0.3480946,0.05999923,-3.074706,0.6275506,-0.0002647075,-0.11171129,0.009359,-0.0034382958,0.038817864,-0.0206877,-0.02411009,0.46648452,-1.4024837,1.9290098,-2.0935404,-1.5732869,2.4436145,-0.09921774,0.20390801,-0.24681658,0.07874061,-0.025890635,-0.074877426,-0.51714754,0.19153613,-9.3661175,0.8403672,47.675243,-0.91874874,-2.0054061,-3.5036395,-0.34799686,-0.41674066,-0.32119375,27.75,28.875,28.0625,32.0,34.0,34.9375
0.24005158,-1.7946763,-1.6064504,-0.61134094,-0.0652956,0.11617016,-0.16410041,-0.39470768,-0.3480641,0.05998548,-3.074571,0.62761647,-0.0002622496,-0.11386644,0.008960452,-0.0021529498,0.037413906,-0.016125325,-0.020491114,0.4662803,-1.4020511,1.9285063,-2.093397,-1.5733827,2.4434693,-0.0998307,0.20393944,-0.24936639,0.07653166,-0.026721124,-0.07910301,-0.59376204,0.19153613,-9.3661175,0.87393653,47.693153,-0.83962405,-1.9523927,-3.3907738,-0.34539527,-0.4038905,-0.2909059,27.75,28.875,28.0625,32.0,34.0,34.9375
0.2420524,-1.8174547,-1.7374711,-0.60679096,-0.05869067,0.11486089,-0.1608975,-0.39491978,-0.34805554,0.05996362,-3.0744927,0.6276366,-0.00031914326,-0.11622246,0.00840726,-0.0013041775,0.034657996,-0.011741427,-0.018099153,0.4660997,-1.4016303,1.9280404,-2.0932786,-1.5734185,2.4433117,-0.10117569,0.20458493,-0.25124487,0.07259034,-0.02626314,-0.08283846,-0.7278373,0.21068975,-9.404425,0.87393653,47.707485,-0.7969184,-1.8623221,-3.3705711,-0.3355226,-0.4086218,-0.2600973,27.75,28.875,28.0625,32.0,34.0,34.9375
0.24405225,-1.7065662,-1.0635561,-0.79549354,-0.04234678,0.10923134,-0.16414268,-0.39515585,-0.34804124,0.05997218,-3.074424,0.6275985,-0.0003489951,-0.11816412,0.00756133,-0.0012714685,0.033576116,-0.008441863,-0.012232111,0.46589586,-1.401221,1.927502,-2.0930889,-1.5734667,2.4430933,-0.10098839,0.20718887,-0.25358194,0.06886642,-0.026817119,-0.0885126,-0.7278373,0.24899697,-9.481039,0.8873621,47.70211,-0.84010977,-2.0035217,-3.5297756,-0.2972809,-0.4186117,-0.19623438,27.75,28.875,28.0625,32.0,34.0,34.9375
0.2460522,-1.350931,-0.59152776,-0.9583257,-0.029236663,0.11429339,-0.1593307,-0.39539763,-0.34803823,0.0599709,-3.0744019,0.6276124,-0.00032645525,-0.12022912,0.006797502,-0.0004120638,0.033118058,-0.003387055,-0.010003535,0.4656923,-1.4008123,1.9270109,-2.0930064,-1.5734919,2.4429016,-0.10020493,0.20833836,-0.25622663,0.0656347,-0.028699161,-0.08994854,-0.51714754,0.28730422,-9.5385,0.8985519,47.719128,-0.9939543,-1.9327016,-3.4543664,-0.2427051,-0.39913386,-0.13045453,27.75,28.875,28.0625,32.0,34.0,34.9375
0.24805199,-1.9586393,-0.9246139,-1.0868539,-0.026419204,0.098989464,-0.16746196,-0.3956682,-0.34799403,0.05995451,-3.0742655,0.6276215,-0.00028894914,-0.12174476,0.00747031,-0.0008687687,0.033222057,-0.0019055036,-0.010317502,0.46545136,-1.4003435,1.9264735,-2.0928752,-1.5736116,2.4426844,-0.1021416,0.20989306,-0.25649822,0.06305493,-0.029477743,-0.0915658,-0.47884035,0.19153613,-9.5385,0.8851263,47.690468,-0.82719153,-1.8789637,-3.550335,-0.20193449,-0.3641928,-0.11253117,27.75,28.875,28.0625,32.0,34.0,34.9375
0.25005168,-1.5936636,-1.2228129,-1.1894077,-0.038946602,0.0987804,-0.1525972,-0.39586088,-0.34796467,0.05991558,-3.0741472,0.6276325,-0.0003950857,-0.12252412,0.0063464306,-0.0012411464,0.03396428,-0.00025141853,-0.0070602037,0.4652603,-1.3999333,1.9260553,-2.092744,-1.5736603,2.4425159,-0.09988985,0.21294837,-0.25886688,0.061215352,-0.030909788,-0.09256016,-0.5363012,0.2681506,-9.557653,0.8940802,47.703007,-1.0441594,-2.1437244,-3.6620684,-0.18487278,-0.3501883,-0.056322694,27.75,28.875,28.0625,32.0,34.0,34.9375
0.25205258,-0.846332,-1.2999103,-1.2503693,-0.052343633,0.09969905,-0.15979409,-0.39615557,-0.3479759,0.0599435,-3.0741324,0.62771016,-0.00030365327,-0.12586147,0.0079053305,-0.0010569906,0.034716073,0.0023992842,-0.014290935,0.46504265,-1.3994763,1.9254326,-2.0926254,-1.573697,2.442349,-0.104288906,0.21522386,-0.26168892,0.05973542,-0.03277161,-0.089720584,-0.4213795,0.24899697,-9.557653,0.8851263,47.664497,-0.79185367,-2.1094966,-3.6732612,-0.12902057,-0.33329904,-0.06498658,27.75,28.875,28.0625,32.0,34.0,34.9375
0.25405273,-0.5386899,-1.2719512,-1.2284409,-0.053547256,0.07402204,-0.16319844,-0.39638364,-0.34793773,0.0599118,-3.0739944,0.6277958,-0.000328183,-0.12696885,0.0063551627,7.0679176e-05,0.03441382,0.005906858,-0.013565302,0.46482787,-1.399044,1.9249772,-2.0925171,-1.5737814,2.442206,-0.10164194,0.21632823,-0.26550624,0.059173923,-0.03408865,-0.08778917,-0.2681506,0.21068975,-9.710882,0.8851263,47.690468,-1.1025013,-2.0909863,-3.553306,-0.11265865,-0.30803704,-0.07278256,27.75,28.875,28.0625,32.0,34.0,34.9375
0.25605175,-0.51231873,-1.4331198,-1.2694715,-0.04392706,0.03839091,-0.1563613,-0.3966417,-0.34792048,0.059901584,-3.0739138,0.6278201,-0.00026678445,-0.12757239,0.00711138,-0.001083822,0.035384,0.0025415535,-0.018450266,0.46462306,-1.3985982,1.9244622,-2.0924332,-1.5738653,2.442027,-0.10382448,0.21958138,-0.26716882,0.061018832,-0.033443343,-0.08508818,-0.11492168,0.2681506,-9.691729,1.0216395,47.68599,-0.9566833,-2.1028385,-3.5893228,-0.07926755,-0.2899657,-0.08646017,27.75,28.875,28.0625,32.0,34.0,34.9375
0.2580526,-0.4284724,-1.2775428,-1.0889646,-0.05375392,0.025434561,-0.14872934,-0.39691606,-0.34790304,0.05990572,-3.0738218,0.6278774,-0.00015299392,-0.12960318,0.006205544,-0.00013886219,0.03475134,0.0046430393,-0.021035884,0.46441922,-1.3981524,1.9239115,-2.092337,-1.5739735,2.4418714,-0.10370415,0.22199382,-0.27236652,0.061636407,-0.03382346,-0.0823785,-0.21068975,0.36391866,-9.595961,0.8672237,47.70838,-0.98999834,-2.3183818,-3.5188231,-0.06826133,-0.26292247,-0.11540255,27.75,28.875,28.0625,32.0,34.0,34.9375
0.2600516,-0.18089394,-1.5999717,-1.4295945,-0.03260156,0.024035482,-0.15365128,-0.3971701,-0.34788364,0.059904575,-3.0737126,0.6279337,-0.0001341159,-0.1319958,0.0062602265,0.0007522758,0.034486994,0.007458602,-0.025574433,0.46421456,-1.3977078,1.9233607,-2.0921814,-1.5740575,2.4417164,-0.10516851,0.22351164,-0.27618223,0.061298978,-0.03485461,-0.07929647,-0.095768064,0.40222588,-9.595961,0.8672237,47.677036,-0.95543855,-2.3037758,-3.5056057,-0.03335962,-0.23524249,-0.13715465,27.75,28.875,28.0625,32.0,34.0,34.9375
0.26205248,-0.5859888,-1.4820443,-1.4971545,-0.03397334,0.018327584,-0.1542412,-0.39743587,-0.34787855,0.059902627,-3.0736644,0.6279628,-0.00015998448,-0.13248071,0.005986537,0.00079260377,0.03488223,0.0063257637,-0.027837873,0.46398664,-1.3972389,1.9227856,-2.0920374,-1.5740813,2.4415133,-0.10512249,0.2253699,-0.27903137,0.063477546,-0.03470075,-0.076985314,0.0,0.36391866,-9.710882,0.88960326,47.67614,-0.97392726,-2.2545893,-3.3085828,-0.017552212,-0.22074181,-0.18967372,27.75,28.875,28.0625,32.0,34.0,34.9375
0.26405224,-0.7538817,-2.3263586,-1.38078,-0.049393486,0.03593313,-0.1491673,-0.39768693,-0.3478553,0.05989237,-3.0735552,0.62805593,-0.00015730328,-0.13163026,0.0063042585,-0.00034893063,0.03682019,0.0011466847,-0.029715804,0.46377063,-1.3967935,1.9222592,-2.0919034,-1.5741533,2.44137,-0.10521852,0.22800764,-0.2805932,0.06789181,-0.03411156,-0.075203866,-0.038307227,0.40222588,-9.615114,0.9186956,47.677036,-1.0301087,-2.2609422,-3.4480195,-0.03342464,-0.20409974,-0.22266605,27.75,28.875,28.0625,32.0,34.0,34.9375
0.26605228,-0.45801887,-2.2798486,-1.2525564,-0.07355799,0.06025778,-0.15627278,-0.39794418,-0.34785366,0.059893988,-3.0734324,0.62816536,-0.00011235378,-0.13240176,0.006121225,-0.0002645996,0.03627684,0.0020009915,-0.031478252,0.4636025,-1.3963249,1.9216737,-2.0917485,-1.5742496,2.4412866,-0.105559036,0.2288872,-0.28174153,0.06714545,-0.034013163,-0.07378055,-0.038307227,0.4213795,-9.615114,0.98807013,47.71823,-0.9837209,-2.2637424,-3.5801136,-0.00044596824,-0.17387593,-0.26914218,27.75,28.875,28.0625,32.0,34.0,34.9375
0.26805204,-0.7147442,-2.9795637,-1.6920147,-0.07557831,0.05526607,-0.15354267,-0.3982284,-0.3478174,0.059896603,-3.0733194,0.62825596,-5.79646e-05,-0.1322583,0.0069966917,-0.000918966,0.03763905,-0.00080509443,-0.031748455,0.46335012,-1.3958682,1.9211019,-2.091604,-1.5743455,2.4411058,-0.10688238,0.23000935,-0.282203,0.069584414,-0.03398185,-0.074833035,-0.019153614,0.4405331,-9.749189,0.98807013,47.696735,-1.1094601,-2.0808692,-3.6807926,-0.005992825,-0.15902987,-0.30011725,27.75,28.875,28.0625,32.0,34.0,34.9375
0.2700519,-0.7873898,-2.2034428,-1.1677532,-0.09151497,0.050561395,-0.1515781,-0.39846888,-0.34783223,0.05989233,-3.0732565,0.62829936,-4.6120167e-05,-0.13176405,0.005538489,-3.118842e-05,0.037573136,-0.0010683966,-0.030343281,0.46319503,-1.3954116,1.9205512,-2.0914834,-1.5743932,2.4409864,-0.103941,0.23030752,-0.28536662,0.07265242,-0.03380515,-0.07329591,-0.019153614,0.38307226,-9.80665,0.8851263,47.696735,-1.1656002,-2.066777,-3.7114015,-0.023742873,-0.14704818,-0.30500185,27.75,28.875,28.0625,32.0,34.0,34.9375
0.2720518,-0.50135285,-1.9247018,-1.1706003,-0.0648815,0.042132795,-0.15631443,-0.39875686,-0.347824,0.0599152,-3.0732064,0.62831044,7.6133074e-06,-0.13369298,0.0067227157,0.0010540044,0.03657473,-0.00032197539,-0.035923973,0.4629657,-1.3949554,1.919928,-2.091315,-1.5744528,2.4407709,-0.1079524,0.2297401,-0.28767118,0.07440267,-0.033245675,-0.071728595,-0.05746084,0.3256114,-9.672575,0.8873621,47.705692,-1.1873708,-1.9854131,-3.5825253,-0.027396865,-0.13289893,-0.36362955,27.75,28.875,28.0625,32.0,34.0,34.9375
0.27405167,-0.3406533,-1.2109811,-1.3055503,-0.020064475,0.008665672,-0.14841692,-0.39902738,-0.34780526,0.05989895,-3.073116,0.62844276,2.2046465e-06,-0.1334792,0.006275682,0.0013483108,0.036946166,-0.0018495194,-0.033227846,0.46272627,-1.3944745,1.9193782,-2.0912058,-1.5745009,2.4406261,-0.107104346,0.23051296,-0.29005367,0.07752549,-0.032906562,-0.07357637,-0.019153614,0.24899697,-9.519346,0.8873621,47.686886,-1.1237439,-1.9647882,-3.6499717,-0.05350217,-0.12489742,-0.40450808,27.75,28.875,28.0625,32.0,34.0,34.9375
0.27605182,0.36585376,0.001860604,-1.1945261,0.0016628405,0.0058635203,-0.15889515,-0.3992916,-0.3478209,0.05989948,-3.0730925,0.6285537,-4.537844e-06,-0.13459808,0.0060487646,0.0019202121,0.03641595,-0.0026160916,-0.034504272,0.4625218,-1.3940048,1.9188031,-2.091097,-1.5745004,2.4404943,-0.10810984,0.2321461,-0.2939915,0.08027122,-0.032095358,-0.073307574,0.095768064,0.21068975,-9.481039,0.9634547,47.705692,-1.1163661,-2.0137122,-3.6246386,-0.05330847,-0.11180979,-0.41416702,27.75,28.875,28.0625,32.0,34.0,34.9375
0.27805194,0.1797544,-0.2537648,-1.1932392,0.0145210605,0.010605414,-0.15496507,-0.39958462,-0.34779337,0.059918147,-3.0729537,0.6286776,7.486038e-05,-0.13445431,0.006773569,0.0019285132,0.038286477,-0.0074780355,-0.034745824,0.46229336,-1.3935363,1.9181689,-2.090903,-1.5746206,2.4403617,-0.10946187,0.23377398,-0.29762945,0.087445036,-0.03160204,-0.074418746,0.038307227,0.2681506,-9.481039,0.9567419,47.686886,-1.0991385,-1.9918215,-3.5203924,-0.101770066,-0.11811658,-0.4740932,27.75,28.875,28.0625,32.0,34.0,34.9375
0.28005186,-0.7948172,-0.48486337,-1.0169868,0.0012825619,0.0061976453,-0.14322537,-0.39983413,-0.34779546,0.059919234,-3.0728905,0.62870073,4.6079018e-05,-0.13602483,0.006233913,0.001919798,0.037650246,-0.008531291,-0.031893544,0.462101,-1.393079,1.9175934,-2.0907357,-1.5746559,2.4401925,-0.11044897,0.23743254,-0.3023824,0.08917102,-0.030589396,-0.078259066,0.076614454,0.17238252,-9.404425,0.9164598,47.701214,-1.1062768,-1.9455147,-3.3916235,-0.14843373,-0.12092624,-0.45982546,27.75,28.875,28.0625,32.0,34.0,34.9375
0.28205168,-0.46195346,-0.4147711,-1.073781,-0.0068144985,0.027248386,-0.15120813,-0.40009606,-0.34776893,0.059900206,-3.0727694,0.6287679,-7.62192e-05,-0.13584034,0.0066808304,0.0008624286,0.03959985,-0.013629602,-0.027600814,0.46184883,-1.392573,1.9169954,-2.0905182,-1.5746921,2.4399984,-0.111284986,0.24086046,-0.3051657,0.093926534,-0.030090395,-0.08338553,0.038307227,0.038307227,-9.500193,0.8672237,47.699425,-1.074749,-2.1891725,-3.2931912,-0.196738,-0.10887985,-0.42332047,27.75,28.875,28.0625,32.0,34.0,34.9375
0.2840525,-0.73400676,-0.630604,-1.0626724,-0.0040101022,0.034242313,-0.1534323,-0.40035814,-0.34775963,0.059904892,-3.072654,0.62877893,-8.98913e-05,-0.13604613,0.006757273,0.00073457265,0.039957963,-0.016273731,-0.022772178,0.46165645,-1.392092,1.9163727,-2.0903018,-1.5747756,2.4398284,-0.11203334,0.2425764,-0.3077449,0.097278126,-0.02926138,-0.08896361,-0.1340753,-0.076614454,-9.500193,0.85826975,47.707485,-1.0515709,-2.028098,-3.236401,-0.2895179,-0.121801615,-0.3976487,27.75,28.875,28.0625,32.0,34.0,34.9375
0.28605253,-1.2440293,-0.8151208,-0.94609326,-0.020359704,0.04505002,-0.15834846,-0.4006768,-0.34776565,0.059950154,-3.0726185,0.6288853,3.1804164e-05,-0.13579483,0.009049463,-0.0022491242,0.042466693,-0.022460805,-0.021420933,0.46142694,-1.3916224,1.9156812,-2.0901334,-1.5748357,2.4396703,-0.116008505,0.24631572,-0.30558583,0.09800091,-0.028766641,-0.09429465,-0.22984336,0.05746084,-9.404425,0.9365982,47.682407,-0.89838946,-2.1865764,-3.3653407,-0.30390644,-0.118000425,-0.34023884,27.75,28.875,28.0625,32.0,34.0,34.9375
0.28805238,-1.1642048,-1.0882957,-0.92554915,-0.032912254,0.06912181,-0.15357567,-0.4009433,-0.3477439,0.05995853,-3.0725634,0.6289263,-3.515835e-05,-0.13575171,0.0074832584,-0.0018501437,0.040967774,-0.021007268,-0.0138266925,0.46116403,-1.3911777,1.9150952,-2.0899312,-1.5748471,2.4394405,-0.11355698,0.24679855,-0.30690047,0.09683174,-0.028109677,-0.099438265,-0.1340753,0.0,-9.404425,0.9567419,47.688675,-1.0390853,-2.0846012,-3.5223525,-0.32547015,-0.1266805,-0.27382016,27.75,28.875,28.0625,32.0,34.0,34.9375
0.2900523,-1.5546259,-1.4733571,-0.50403076,-0.042813383,0.08119617,-0.15481304,-0.40119508,-0.3477343,0.059941173,-3.0724611,0.62890476,-0.00012594729,-0.13918245,0.007847171,-0.00046109248,0.037779372,-0.01577383,-0.014145515,0.46095842,-1.3906732,1.9144977,-2.089729,-1.5748953,2.4392352,-0.11738629,0.24670334,-0.30924135,0.093135454,-0.027626079,-0.10294693,-0.30645782,0.0,-9.346964,0.8627467,47.672558,-0.8686725,-2.0560813,-3.6298428,-0.32053542,-0.122437954,-0.22809651,27.75,28.875,28.0625,32.0,34.0,34.9375
0.29205218,-1.644077,-1.4747784,-0.7169206,-0.038816687,0.089361414,-0.14975144,-0.40146047,-0.34772417,0.059945192,-3.0723672,0.6289391,-0.00011748618,-0.14080402,0.0059903366,5.901525e-05,0.03487526,-0.010947313,-0.010562699,0.4607553,-1.3902045,1.9138988,-2.0895512,-1.5749673,2.4390662,-0.1157372,0.248195,-0.31109905,0.08786442,-0.027204996,-0.10488003,-0.51714754,0.038307227,-9.32781,0.9186956,47.677036,-1.1068592,-1.93606,-3.5319772,-0.2643551,-0.14857769,-0.1672121,27.75,28.875,28.0625,32.0,34.0,34.9375
0.29405198,-1.8376327,-0.95764625,-0.8047439,-0.023475131,0.08254823,-0.15615338,-0.40176073,-0.34769917,0.059938755,-3.0722713,0.6288968,-0.00011511829,-0.14397846,0.004479137,0.0017841063,0.031091433,-0.003773006,-0.008001088,0.46050337,-1.3896759,1.9132532,-2.0893734,-1.5750507,2.4388008,-0.1158544,0.24890321,-0.31483945,0.08276052,-0.027045805,-0.10755599,-0.4213795,0.038307227,-9.404425,0.9298854,47.70659,-1.0742227,-1.8879259,-3.5629883,-0.21787688,-0.13811854,-0.142177,27.75,28.875,28.0625,32.0,34.0,34.9375
0.29605186,-1.7208891,-0.9164425,-0.8103746,-0.025199259,0.090075955,-0.15605208,-0.40204656,-0.34772265,0.059960626,-3.0722632,0.62891823,-6.612635e-05,-0.14667097,0.003399304,0.0034540573,0.027421681,0.0018347958,-0.012882549,0.46031094,-1.3891953,1.9126071,-2.0892308,-1.5750746,2.4386232,-0.116710864,0.24897532,-0.31805986,0.07926182,-0.026251137,-0.103533946,-0.4405331,0.11492168,-9.404425,0.9612189,47.68062,-1.0442897,-1.8240149,-3.4583788,-0.15558687,-0.15557802,-0.12561013,27.75,28.875,28.0625,32.0,34.0,34.875
0.29805174,-2.6410184,-1.1090754,-0.9077911,-0.024320034,0.064680696,-0.1379721,-0.4023143,-0.3476914,0.0599321,-3.0721476,0.6290473,-0.00015384523,-0.14855084,0.0023367382,0.004992448,0.025054758,0.0064090174,-0.013920679,0.46004704,-1.3886906,1.9120444,-2.0890758,-1.5751108,2.4384553,-0.11642777,0.2488159,-0.3210493,0.077256404,-0.026180534,-0.10220934,-0.6895301,0.26815057,-9.308657,0.9768804,47.71465,-1.1321534,-1.7234932,-3.4932804,-0.12156842,-0.15966845,-0.15811987,27.75,28.875,28.0625,32.0,34.0,34.875
0.30005163,-1.4821714,-1.424881,-1.0119616,-0.031842902,0.095989116,-0.15798286,-0.40264145,-0.3476751,0.059960138,-3.0720627,0.6290162,-1.6191651e-06,-0.15031923,0.0028882145,0.0054367175,0.024750208,0.008166436,-0.023793906,0.45981833,-1.388186,1.9113501,-2.0889084,-1.5752429,2.4382188,-0.11849544,0.24959916,-0.32296836,0.07670046,-0.026664171,-0.094401106,-0.8236054,0.34476504,-9.3661175,0.9298854,47.71286,-1.0675452,-1.5965672,-3.407215,-0.09433445,-0.16608289,-0.19536145,27.75,28.875,28.0625,32.0,34.0,34.875
0.30205256,-2.0493174,-1.6480902,-1.2134762,-0.05793091,0.09836753,-0.15187731,-0.4029218,-0.34767744,0.059978418,-3.0720186,0.6290477,1.090047e-05,-0.1512663,0.0031527933,0.0048939004,0.025250856,0.006688696,-0.028634937,0.45960203,-1.3877164,1.9107159,-2.0887282,-1.5752786,2.4380283,-0.11980306,0.25238723,-0.32537937,0.0778765,-0.026449533,-0.09086726,-0.78529817,0.2681506,-9.615114,0.9388393,47.694946,-1.0267855,-1.7090342,-3.384594,-0.05717518,-0.16719314,-0.2512114,27.75,28.875,28.0625,32.0,34.0,34.875
0.3040517,-1.9519368,-1.8003848,-1.2843977,-0.076018386,0.10431293,-0.15681952,-0.40323737,-0.34765822,0.059992805,-3.0719264,0.6292585,3.25102e-05,-0.15089732,0.0036888008,0.0029714939,0.027573286,0.0020931177,-0.03015951,0.45932588,-1.3872102,1.9100474,-2.088548,-1.5753268,2.4378963,-0.12026458,0.25641242,-0.326303,0.079917595,-0.026490372,-0.08980302,-0.5554548,0.28730422,-9.595961,0.91198283,47.667187,-0.9319451,-1.8367811,-3.5588307,-0.05993533,-0.15511546,-0.28913978,27.75,28.875,28.0625,32.0,34.0,34.875
0.30605182,-2.332019,-1.995134,-1.2490877,-0.07719947,0.09939664,-0.14821038,-0.40354925,-0.34764332,0.0599916,-3.071861,0.6293803,7.0762784e-05,-0.1514101,0.0054457104,0.0001689192,0.030669944,-0.0030144067,-0.033105273,0.45906067,-1.3866924,1.9094142,-2.0884283,-1.575375,2.437716,-0.12331064,0.26178533,-0.32653224,0.080715224,-0.027005432,-0.089900024,-0.6512228,0.3256114,-9.672575,0.95897776,47.719128,-0.8722943,-1.963024,-3.6712952,-0.04239838,-0.1648339,-0.28319988,27.75,28.875,28.0625,32.0,34.0,34.875
0.30805165,-2.293118,-1.7677552,-1.1216148,-0.0621634,0.104032375,-0.14976507,-0.40384546,-0.3476453,0.059980575,-3.0717812,0.62934285,4.5390523e-05,-0.15156186,0.004043155,0.00020651669,0.030208169,-0.0027002092,-0.031169124,0.4588457,-1.3861271,1.9087337,-2.0882485,-1.5754346,2.4374886,-0.121062346,0.26372764,-0.32906237,0.08080647,-0.026744097,-0.08958647,-0.6512228,0.34476504,-9.653421,0.98135734,47.686886,-1.0674126,-1.898907,-3.7108793,-0.031747513,-0.18623802,-0.32446018,27.75,28.875,28.0625,32.0,34.0,34.875
0.3100516,-1.8570818,-1.5361211,-1.1233184,-0.04426203,0.10536094,-0.15243591,-0.40419498,-0.34762493,0.060012043,-3.0717201,0.6294452,0.00020701245,-0.1517538,0.004654177,-0.00011249124,0.03162008,-0.005299963,-0.032285582,0.45856932,-1.3856217,1.9080371,-2.0881155,-1.5755309,2.4372845,-0.122084215,0.26533815,-0.3311111,0.084186055,-0.026854752,-0.08949244,-0.4213795,0.2681506,-9.615114,0.8717007,47.682407,-0.92814404,-1.9064524,-3.8104172,-0.052058183,-0.18532534,-0.3405974,27.75,28.875,28.0625,32.0,34.0,34.875
0.31205246,-1.379614,-0.8797296,-0.9861859,-0.03331468,0.07690387,-0.1526076,-0.4045199,-0.34761986,0.060020216,-3.0716586,0.62970173,0.0001860877,-0.15423328,0.0043726107,0.001776954,0.029974315,-0.0015064271,-0.033988312,0.4582808,-1.3850813,1.9073442,-2.087948,-1.5755314,2.4371645,-0.12345918,0.2652767,-0.33556503,0.08456619,-0.027071519,-0.08916166,-0.40222588,0.22984336,-9.519346,0.9388393,47.67793,-0.9878404,-1.9550889,-3.646603,-0.017571222,-0.1892103,-0.36213255,27.75,28.875,28.0625,32.0,34.0,34.875
0.3140525,-0.4768173,-0.4693838,-0.7123349,-0.016675252,0.054704186,-0.15958169,-0.40482405,-0.34762487,0.060011078,-3.0715966,0.6297241,0.00021977237,-0.15413639,0.004582138,0.0013706784,0.032361183,-0.0058771055,-0.030319586,0.45806494,-1.384528,1.9066857,-2.087826,-1.575591,2.4369712,-0.12348704,0.26824573,-0.3396311,0.09061067,-0.02729246,-0.09285557,-0.21068975,0.24899697,-9.32781,0.95897776,47.660015,-1.0140216,-1.924224,-3.5195389,-0.02736637,-0.1986303,-0.3577072,27.75,28.875,28.0625,32.0,34.0,34.875
0.31605247,-0.24887437,0.0081480015,-0.808959,0.0031441194,0.010624249,-0.15163127,-0.40513098,-0.3476056,0.060018655,-3.0714989,0.6297994,0.00023758439,-0.15403818,0.0052526616,0.0007524313,0.03530127,-0.008920454,-0.029519394,0.45781296,-1.3840107,1.9060153,-2.0876334,-1.5756634,2.4367795,-0.1236289,0.27047646,-0.3418783,0.094643384,-0.028592272,-0.09378934,-0.1340753,0.114921674,-9.174581,1.0552088,47.689575,-1.0624909,-1.968025,-3.3748298,-0.07473655,-0.19554,-0.34458235,27.75,28.875,28.0625,32.0,34.0,34.875
0.31805232,0.22460353,-0.017735861,-1.1917919,0.026660217,-0.01597455,-0.15507747,-0.40546826,-0.3476011,0.060035568,-3.0714328,0.6298581,0.00031201798,-0.15396717,0.0058514704,0.001542914,0.037805524,-0.010298468,-0.024240818,0.45756102,-1.3834583,1.9052871,-2.0874636,-1.5757364,2.4365733,-0.12343775,0.27018395,-0.34467807,0.10004492,-0.030247768,-0.09886831,-0.076614454,0.076614454,-9.155427,0.9186956,47.67793,-1.0733563,-1.9853548,-3.4852238,-0.115725696,-0.182188,-0.3357349,27.75,28.875,28.0625,32.0,34.0,34.875
0.32005227,0.01162303,-0.25443283,-0.8548602,0.007155528,-0.030413248,-0.15244412,-0.40577593,-0.34756762,0.06003461,-3.0712996,0.6300024,0.00028549606,-0.15470882,0.0072404193,0.00087220705,0.039411064,-0.014290541,-0.02252911,0.45728377,-1.3829292,1.9046167,-2.0872476,-1.5758079,2.436404,-0.12653662,0.27271432,-0.3472227,0.10430911,-0.029954012,-0.10367763,0.038307227,0.11492168,-9.232041,0.900793,47.690468,-1.0022658,-1.8534656,-3.4515972,-0.19395763,-0.17092824,-0.26901215,27.75,28.875,28.0625,32.0,34.0,34.875
0.32205245,0.748152,-0.56257147,-0.43389076,-0.025052983,0.00642319,-0.15687494,-0.40609348,-0.34757698,0.06004292,-3.0712326,0.63005984,0.00029313785,-0.1541126,0.0052252817,0.0013290406,0.03901783,-0.014943277,-0.014461953,0.45705745,-1.3823638,1.9038872,-2.087055,-1.5758556,2.4362228,-0.12280256,0.2742002,-0.35069108,0.106667764,-0.02934132,-0.10801212,0.0,0.0,-9.078813,0.9298854,47.695843,-1.1603119,-1.9263731,-3.358344,-0.21263555,-0.18952486,-0.20663625,27.75,28.875,28.0625,32.0,34.0,34.875
0.3240524,0.023835482,-0.76841086,-0.45881322,-0.022030666,0.0068387305,-0.15930994,-0.40639758,-0.34755844,0.060031008,-3.0711575,0.6300235,0.00018528223,-0.15408246,0.0072972192,-8.121812e-05,0.040921945,-0.02077786,-0.012654221,0.4567797,-1.3817978,1.9031943,-2.0868256,-1.5758795,2.4359326,-0.12675482,0.2762823,-0.35104537,0.11097286,-0.028509513,-0.113774024,0.076614454,0.05746084,-9.097966,0.99031126,47.666286,-0.9430455,-1.8902463,-3.367756,-0.26701602,-0.21014516,-0.14642358,27.75,28.875,28.0625,32.0,34.0,34.875
0.3260523,0.2458835,-0.62959844,-0.54357153,-0.028782131,0.046287727,-0.15946093,-0.4067028,-0.34754732,0.06003006,-3.0710583,0.63000005,0.00019000424,-0.15611506,0.006334648,0.0025845673,0.037405647,-0.013818954,-0.009920805,0.45655194,-1.3812469,1.9025005,-2.0866234,-1.5759639,2.4357038,-0.1267398,0.27330923,-0.35312483,0.10819876,-0.028458059,-0.11649077,0.15322891,0.11492168,-9.136273,0.947788,47.674347,-1.064692,-1.7840986,-3.4722805,-0.26635575,-0.20978752,-0.058264807,27.75,28.875,28.0625,32.0,34.0,34.875
0.3280522,-0.80972403,-0.9900009,-0.36055475,-0.03117267,0.046315815,-0.15230556,-0.40703213,-0.3475333,0.06005101,-3.07098,0.63008034,0.00018333447,-0.15781635,0.006235664,0.0013001192,0.037581835,-0.015153569,-0.012274238,0.45627558,-1.3807046,1.9017581,-2.086384,-1.5760111,2.4354882,-0.12814687,0.27863392,-0.35646552,0.10748103,-0.028045971,-0.115543574,0.095768064,0.19153613,-9.136273,0.93436235,47.67614,-1.0261414,-1.7682039,-3.4280186,-0.28274983,-0.21631438,-0.042233557,27.75,28.875,28.0625,32.0,34.0,34.875
0.330052,-0.5177296,-0.88739336,-0.39290878,-0.04056219,0.06310169,-0.16093336,-0.40735486,-0.3474977,0.060043026,-3.0708404,0.6300925,0.00015244748,-0.16146295,0.0062088477,0.0010198883,0.035331372,-0.010685436,-0.01849298,0.4559985,-1.3801268,1.90104,-2.086147,-1.5761074,2.4352376,-0.13109565,0.28234044,-0.35896277,0.1012683,-0.028019253,-0.11226914,0.05746084,0.19153613,-9.136273,0.9164598,47.68599,-0.9400008,-1.9021881,-3.4346375,-0.22852373,-0.24988091,-0.040159006,27.75,28.875,28.0625,32.0,34.0,34.875
0.3320519,-0.9904403,-1.1701908,-0.5094191,-0.047954485,0.05218336,-0.1503847,-0.40766913,-0.3474872,0.060020957,-3.0707266,0.6302436,7.477934e-05,-0.16297513,0.005593165,0.0005708761,0.03418779,-0.008121938,-0.022552092,0.45573452,-1.3795254,1.9003361,-2.0859568,-1.5761431,2.4350834,-0.13111743,0.28478342,-0.3600571,0.09712587,-0.02813248,-0.10822777,-0.17238252,0.21068975,-9.136273,0.9231726,47.719128,-0.8771235,-1.900165,-3.4803443,-0.17142628,-0.25092605,-0.061072435,27.75,28.875,28.0625,32.0,34.0,34.875
0.33405197,-0.7279961,-1.3782424,-0.7866729,-0.042619027,0.047293108,-0.1387717,-0.40802372,-0.34747884,0.060053837,-3.0706723,0.6302916,0.00019721565,-0.16515334,0.0050192047,0.00039366202,0.033929896,-0.0050150934,-0.02740404,0.45547047,-1.3789839,1.8995804,-2.085779,-1.5762275,2.434857,-0.13113227,0.28810355,-0.362982,0.09384191,-0.029263653,-0.103383526,-0.1340753,0.3256114,-9.212888,0.9164598,47.71017,-0.9121827,-2.0176952,-3.5017579,-0.116124436,-0.24898916,-0.11870065,27.75,28.875,28.0625,32.0,34.0,34.875
0.33605203,-0.94251996,-1.9033176,-0.73085713,-0.0537331,0.046034593,-0.15098332,-0.40831664,-0.34747687,0.06004013,-3.0705814,0.63027155,0.00015740751,-0.16604216,0.0042088744,0.0011494724,0.032629877,-0.0024162782,-0.028167207,0.45525503,-1.378419,1.8988999,-2.0855873,-1.5762876,2.4346414,-0.13037771,0.28818616,-0.36465663,0.09252446,-0.029251188,-0.10186318,-0.11492168,0.38307226,-9.270349,0.9925471,47.70659,-1.0012227,-1.9832842,-3.5780697,-0.07184236,-0.28252986,-0.14460096,27.75,28.875,28.0625,32.0,34.0,34.875
0.33805194,-1.2125267,-2.632391,-0.6215346,-0.07011952,0.053356595,-0.14097223,-0.40861392,-0.34747076,0.060008124,-3.0704777,0.6303676,-1.4832779e-05,-0.16588433,0.0035286758,0.0011187034,0.032259986,-0.0033969658,-0.032884628,0.45499143,-1.3778061,1.8981956,-2.0853598,-1.5762876,2.4344518,-0.1294183,0.28925705,-0.36632138,0.0938583,-0.028482191,-0.09618642,-0.4405331,0.5554548,-9.174581,0.9925471,47.67614,-1.1492682,-1.9039904,-3.5246034,-0.07269319,-0.28382537,-0.21042761,27.75,28.875,28.0625,32.0,34.0,34.875
0.34005174,-1.3515085,-2.1113575,-0.8661514,-0.0765956,0.0580259,-0.14469717,-0.40895143,-0.3474544,0.06002432,-3.0703514,0.63043576,6.460513e-05,-0.16694394,0.0030889346,0.0018875068,0.032158386,-0.0022760876,-0.03240816,0.45475122,-1.3772414,1.8974413,-2.0851438,-1.5764078,2.4342713,-0.12916856,0.29023874,-0.36967453,0.09516037,-0.028895222,-0.09640903,-0.40222588,0.6512229,-9.270349,0.9567419,47.69763,-1.0803207,-1.8703525,-3.5318956,-0.044347815,-0.29294333,-0.25878516,27.75,28.875,28.0625,32.0,34.0,34.875
0.34205252,-1.4279917,-2.050163,-0.7663902,-0.07652902,0.06826441,-0.14626563,-0.40929288,-0.34745994,0.060019266,-3.0702856,0.63057953,4.9474573e-05,-0.1688598,0.0050076894,0.0019636133,0.03328365,-0.0022333397,-0.040023454,0.45448595,-1.3766282,1.8966879,-2.0849755,-1.5764321,2.434105,-0.1333198,0.29112196,-0.37133408,0.09640633,-0.029917618,-0.092937775,-0.36391866,0.5746084,-9.32781,0.9254084,47.660015,-1.1534166,-1.8921723,-3.5783505,-0.046387024,-0.30688405,-0.28123558,27.75,28.875,28.0625,32.0,34.0,34.875
0.3440523,-1.8979119,-2.3860476,-0.7938533,-0.07415508,0.061778624,-0.13762708,-0.4096171,-0.34743112,0.060002506,-3.07017,0.630651,-3.1799186e-06,-0.1695647,0.0039574066,0.002625837,0.03286554,-0.00042749947,-0.03969521,0.45419863,-1.3760393,1.8959821,-2.0847728,-1.5764922,2.433878,-0.1316958,0.2920852,-0.37415177,0.09644992,-0.030347262,-0.09163602,-0.40222588,0.45968673,-9.32781,0.9791215,47.660015,-1.1271684,-1.7166568,-3.5934057,-0.029600792,-0.30709526,-0.3471722,27.75,28.875,28.0625,32.0,34.0,34.875
0.34605214,-0.8198432,-1.7245951,-0.5949064,-0.06987552,0.08150857,-0.15556012,-0.4099591,-0.3474258,0.059997663,-3.07008,0.63086265,-9.0542035e-06,-0.17043549,0.0045614853,0.002166197,0.03319629,-0.0021457388,-0.04280307,0.45392188,-1.375438,1.8952416,-2.084604,-1.576528,2.4337456,-0.13360891,0.29419762,-0.37611994,0.09798896,-0.029893285,-0.09044247,-0.4405331,0.40222588,-9.270349,1.0216395,47.72002,-1.025301,-1.7311523,-3.5853567,-0.018319087,-0.32192492,-0.38690192,27.75,28.875,28.0625,32.0,34.0,34.875
0.34805223,-1.1714619,-1.0207479,-0.6658476,-0.053674046,0.0631476,-0.15126681,-0.41029406,-0.34743196,0.059992675,-3.0699904,0.63086367,-9.302005e-06,-0.17023431,0.0055755186,0.0003816635,0.035547882,-0.007474467,-0.044332877,0.4536934,-1.3748122,1.8944644,-2.0844,-1.5765995,2.43353,-0.13518675,0.2979564,-0.37743953,0.10135606,-0.029675275,-0.09048989,-0.3256114,0.3256114,-9.289502,1.0149267,47.667187,-0.94553137,-1.8388374,-3.7382483,-0.023515904,-0.35265124,-0.42876488,27.75,28.875,28.0625,32.0,34.0,34.875
0.3500522,-0.4396418,-0.32910344,-0.6597515,-0.024703283,0.055524766,-0.14803264,-0.4106617,-0.3474077,0.059986066,-3.0698748,0.63108695,6.364336e-05,-0.17019264,0.005654381,0.0002049536,0.037710562,-0.010162847,-0.041886054,0.45339355,-1.3741986,1.8937205,-2.084266,-1.5766844,2.4333854,-0.13464563,0.3001145,-0.38077757,0.105875395,-0.030454377,-0.092389986,-0.2681506,0.019153614,-9.270349,0.99031126,47.688675,-0.9881134,-1.9015918,-3.5567157,-0.05823676,-0.34052432,-0.46142125,27.75,28.875,28.0625,32.0,34.0,34.875
0.352052,0.11073434,0.509286,-0.38700485,0.0033677723,0.044690832,-0.15026346,-0.41100088,-0.3473932,0.059977785,-3.069761,0.6311563,-4.774935e-05,-0.1707022,0.006891853,-4.1235697e-05,0.040848617,-0.014970113,-0.038650926,0.4531046,-1.3735615,1.8929199,-2.083988,-1.5767206,2.4331553,-0.13658904,0.30295998,-0.3854429,0.11335107,-0.0312063,-0.09755939,-0.2681506,-0.05746084,-9.097966,0.9298854,47.684196,-0.88721067,-1.9930604,-3.5915322,-0.11390594,-0.36274076,-0.4456124,27.75,28.875,28.0625,32.0,34.0,34.875
0.35405198,-0.34940594,0.96612716,-0.4579613,0.037899107,0.029066578,-0.15112285,-0.41132718,-0.34739408,0.05996437,-3.0696824,0.6312117,-9.5708754e-05,-0.17195101,0.0069149756,-0.00027967212,0.042119045,-0.015402794,-0.031663667,0.45285293,-1.3729477,1.8921775,-2.0837963,-1.5767564,2.432949,-0.13691697,0.30606943,-0.38908306,0.11477519,-0.032212723,-0.104865186,-0.22984336,-0.095768064,-9.021352,0.9634547,47.672558,-1.1266605,-2.118062,-3.4389656,-0.14999187,-0.36697638,-0.40292108,27.75,28.875,28.0625,32.0,34.0,34.875
0.35605192,-0.027979307,1.4996712,-0.40785393,0.05758004,0.041072987,-0.1529616,-0.41168773,-0.34737715,0.05996398,-3.0695837,0.6312823,-8.251745e-05,-0.17153208,0.007017486,1.36275585e-05,0.044758867,-0.019155186,-0.024547564,0.45256522,-1.3723227,1.8913888,-2.0835903,-1.5768293,2.432719,-0.13610812,0.30763045,-0.3933967,0.12200455,-0.03298237,-0.11116558,-0.1340753,-0.24899697,-9.040505,1.0238806,47.703903,-1.0542761,-2.1151032,-3.4289193,-0.21169108,-0.37182736,-0.33793908,27.75,28.875,28.0625,32.0,34.0,34.875
0.35805193,-0.3364932,1.8023127,-0.6145823,0.044170994,0.047880135,-0.1602962,-0.41200855,-0.34736854,0.059960954,-3.0694542,0.6312884,-0.00015890613,-0.17135668,0.007945408,-0.0016735932,0.04797957,-0.022914724,-0.01720093,0.4523249,-1.3717085,1.8906001,-2.0833018,-1.5769013,2.4325001,-0.13660935,0.3110895,-0.39432368,0.1242023,-0.03429287,-0.11900132,-0.24899697,-0.2681506,-9.097966,1.0283576,47.66987,-1.1499429,-2.2385144,-3.2774096,-0.24391185,-0.37411556,-0.26091516,27.75,28.875,28.0625,32.0,34.0,34.875
0.3600519,-0.6978557,0.6566193,-0.3398397,0.013201921,0.08078804,-0.15821661,-0.41235802,-0.34735975,0.05996042,-3.0693395,0.63133836,-0.00018596463,-0.17111112,0.008811398,-0.002461774,0.050577335,-0.024305426,-0.0137755945,0.45206106,-1.3710715,1.8897866,-2.0830505,-1.5769743,2.4322832,-0.13665017,0.312123,-0.39419374,0.12539218,-0.036056258,-0.12245411,-0.38307226,-0.22984336,-9.078813,0.99702406,47.684196,-1.1429522,-2.248331,-3.6151972,-0.2902637,-0.37307042,-0.15873572,27.75,28.875,28.0625,32.0,34.0,34.875
0.36205187,-0.9207138,-0.074814536,-0.60701996,-0.014276359,0.09991419,-0.1601517,-0.41270074,-0.34731892,0.059940793,-3.069166,0.6312607,-0.00023034142,-0.17245577,0.008901026,-0.0010507847,0.05024426,-0.019599333,-0.011352445,0.45178506,-1.3704232,1.8889979,-2.0827758,-1.5771068,2.4319823,-0.13666816,0.31036127,-0.3950875,0.123633735,-0.037858255,-0.124878965,-0.24899697,-0.21068975,-9.212888,1.0037369,47.65643,-1.170946,-2.1385527,-3.6670642,-0.2780307,-0.3441977,-0.11445136,27.75,28.875,28.0625,32.0,34.0,34.875
0.36405182,-1.6008383,-0.6668975,-0.70265144,-0.03958642,0.09657731,-0.15409887,-0.41301924,-0.3472988,0.059917413,-3.069004,0.6313049,-0.0003855183,-0.17596018,0.008261507,-0.0002850372,0.048382238,-0.012345943,-0.01325438,0.45152062,-1.3697748,1.8882092,-2.0824673,-1.5771674,2.4317675,-0.13741545,0.31234595,-0.39792264,0.11714131,-0.039394587,-0.12370614,-0.30645782,-0.15322891,-9.423578,1.0194036,47.6636,-1.2015142,-2.0217416,-3.6407099,-0.26421085,-0.3459992,-0.09863171,27.75,28.875,28.0625,32.0,34.0,34.875
0.36605185,-1.46746,-1.6590068,-1.0939248,-0.0519972,0.10796188,-0.1514734,-0.4133836,-0.34725752,0.059916373,-3.0688617,0.631411,-0.00041636798,-0.17811364,0.008218712,-8.222588e-05,0.048305456,-0.00881985,-0.017597448,0.45119652,-1.3691494,1.8874072,-2.0822046,-1.5772518,2.431529,-0.138062,0.31428993,-0.40024143,0.11431649,-0.04087604,-0.11999504,-0.34476504,0.0,-9.557653,1.044019,47.71017,-1.1562281,-2.0277863,-3.5867338,-0.21259628,-0.31432003,-0.103713386,27.75,28.875,28.0625,32.0,34.0,34.875
0.36805248,-1.4018921,-1.49548,-1.3906753,-0.076092884,0.11116476,-0.14895928,-0.41371873,-0.3472484,0.05990408,-3.0687597,0.6314107,-0.00044175005,-0.18273552,0.0064381105,0.002108126,0.044345364,0.0013220476,-0.024002006,0.45094472,-1.368524,1.8866414,-2.081992,-1.5773238,2.431291,-0.13819067,0.31591928,-0.4058181,0.10743614,-0.04174211,-0.11370755,-0.53630114,0.15322891,-9.710882,0.9858343,47.70032,-1.2091355,-2.0623016,-3.5336778,-0.16969788,-0.31389764,-0.15404418,27.75,28.875,28.0625,32.0,34.0,34.875
0.3700524,-1.4117703,-1.9397727,-1.8580868,-0.06595497,0.11553065,-0.14824362,-0.41410965,-0.3472414,0.05990465,-3.0686762,0.63153225,-0.00040881225,-0.18527496,0.008131671,0.0020963822,0.046184905,0.0042274906,-0.0321997,0.4506434,-1.3678507,1.8857936,-2.0818007,-1.5773848,2.4310772,-0.14124276,0.31736854,-0.40731177,0.10569257,-0.044650223,-0.10854045,-0.59376204,0.2873042,-9.80665,0.91421866,47.709274,-1.0598371,-2.0775857,-3.556322,-0.11700234,-0.2768672,-0.22863817,27.75,28.875,28.0625,32.0,34.0,34.875
0.37205234,-1.7530429,-1.930671,-1.9584353,-0.07928318,0.1023774,-0.1511507,-0.4144751,-0.34721568,0.059916615,-3.0685453,0.63157916,-0.00034766525,-0.18424316,0.007429763,0.0005898447,0.04840735,0.0019961188,-0.031779908,0.4503685,-1.3672371,1.8849801,-2.0815609,-1.5775055,2.4308496,-0.13838604,0.32042426,-0.40778396,0.106080845,-0.045675382,-0.10609438,-0.4213795,0.36391866,-9.998186,0.8314132,47.66987,-1.2178599,-2.0166054,-3.5809608,-0.087038904,-0.23266102,-0.2878728,27.75,28.875,28.0625,32.0,34.0,34.875
0.3740525,-0.973187,-2.0281684,-2.1005223,-0.078898385,0.1027148,-0.15023352,-0.41485545,-0.34718794,0.059919756,-3.0683978,0.6316836,-0.00023685388,-0.18396857,0.007821448,-0.0019209194,0.049630426,-0.0026561627,-0.03434248,0.45009217,-1.366599,1.884168,-2.0813692,-1.577649,2.4306586,-0.13923956,0.3250928,-0.40785447,0.10618493,-0.04475045,-0.1043907,-0.4213795,0.45968673,-10.055647,0.98135734,47.695843,-1.143873,-2.1645467,-3.8044147,-0.0778632,-0.24277699,-0.29841924,27.75,28.875,28.0625,32.0,34.0,34.875
0.3760519,-1.174455,-2.6165981,-2.0397646,-0.07868881,0.09274205,-0.14409727,-0.41523173,-0.34715128,0.059906904,-3.0682578,0.63180614,-0.00025556242,-0.18407086,0.008774114,-0.0031917444,0.05222364,-0.004484023,-0.03349693,0.4497681,-1.3659372,1.8833555,-2.0811422,-1.5777339,2.4304302,-0.13981806,0.32739347,-0.408037,0.10681332,-0.04631374,-0.105800495,-0.4405331,0.47884035,-10.036493,1.0015011,47.690468,-1.2458096,-2.2744863,-4.019811,-0.06355005,-0.19942512,-0.30518198,27.75,28.875,28.0625,32.0,34.0,34.875
0.3780516,-0.7655347,-2.6193755,-1.7688309,-0.09240419,0.09926624,-0.14755078,-0.41558608,-0.34713903,0.05989491,-3.0681067,0.63190997,-0.00030576505,-0.18454236,0.009476715,-0.0026780448,0.05371119,-0.005580932,-0.03729154,0.44950375,-1.3652645,1.8825191,-2.080877,-1.5778178,2.4302514,-0.14072609,0.3277146,-0.4106658,0.11075842,-0.047174882,-0.10290274,-0.15322891,0.4405331,-9.959879,1.044019,47.701214,-1.2478939,-2.258867,-4.0744944,-0.064304695,-0.17554486,-0.36756104,27.75,28.875,28.0625,32.0,34.0,34.875
