Tylouw/Master_Thesis_Code/training_data/batch_1/small_rod_t0.2/sample_90_session_3.csv
timestamp[s],tcp_force_x[N],tcp_force_y[N],tcp_force_z[N],tcp_force_rx[Nm?],tcp_force_ry[Nm?],tcp_force_rz[Nm?],tcp_pose_x[m],tcp_pose_y[m],tcp_pose_z[m],tcp_pose_rx[rot_vec_x],tcp_pose_ry[rot_vec_y],tcp_pose_rz[rot_vec_z],tcp_velo_x[m/s],tcp_velo_y[m/s],tcp_velo_z[m/s],tcp_velo_rx[rot_vec_x/s],tcp_velo_ry[rot_vec_y/s],tcp_velo_rz[rot_vec_z/s],q1[rad],q2[rad],q3[rad],q4[rad],q5[rad],q6[rad],qd1[rad/s],qd2[rad/s],qd3[rad/s],qd4[rad/s],qd5[rad/s],qd6[rad/s],tool_acc_x,tool_acc_y,tool_acc_z,current_of_whole_robot[A],voltage_of_whole_robot[V],current_J1[A],current_J2[A],current_J3[A],current_J4[A],current_J5[A],current_J6[A],temp_J1[C],temp_J2[C],temp_J3[C],temp_J4[C],temp_J5[C],temp_J6[C]
8.1400503e-07,-0.29259458,-0.005968528,0.995099,-0.016693514,0.004925822,-0.0030115373,-0.38102055,-0.34849706,0.059925746,-3.0784225,0.6248387,-0.00025897694,0.0018368234,0.0009662232,-0.0015526968,0.0019216078,-0.003970897,-7.7242885e-06,0.4778101,-1.425922,1.9577984,-2.1008208,-1.5708054,2.452752,-0.00010021172,-6.505814e-06,0.0033025243,0.0011132989,0.00012919892,-9.4620744e-05,0.076614454,0.1340753,-8.714894,0.6725152,47.7245,0.035427608,-2.7655702,-2.5274007,-0.45639673,0.07888989,0.052097723,28.125,29.3125,28.4375,32.375,34.5625,35.5625
0.002052157,-0.31880715,0.153913,0.91123086,-0.010919698,0.0055405856,-0.009795214,-0.38107806,-0.34852663,0.05998161,-3.078525,0.62493616,-0.0001153105,-0.0012575756,-0.0006497833,-0.0023031868,-0.001978062,0.0034855756,-4.8102524e-06,0.47778615,-1.4259447,1.957703,-2.1008494,-1.5707697,2.452776,-9.883613e-05,0.0037063027,0.003617502,-0.01132912,0.00013549956,-9.322069e-05,0.019153614,0.15322891,-8.7532015,0.80679786,47.73525,0.015216185,-2.8053327,-2.4126682,-0.4011004,0.0999727,0.04838267,28.125,29.3125,28.4375,32.375,34.5625,35.5625
0.004052577,-0.8301614,0.28630352,1.0521482,-0.017074658,-0.007923415,-0.003145391,-0.38106072,-0.34852672,0.05997006,-3.0785232,0.6248974,-0.000103960665,-0.0018943291,-0.0009847569,-0.0026429358,-0.0026246717,0.004708599,-4.1235985e-06,0.4778101,-1.4259561,1.9577507,-2.1008852,-1.5707816,2.452776,-9.749781e-05,0.004914942,0.003603388,-0.013907062,0.00014123836,-9.1861475e-05,0.0,0.24899697,-8.887277,0.7777002,47.699425,0.03552622,-3.1662214,-2.6566377,-0.31126297,0.09588816,0.036669973,28.125,29.3125,28.4375,32.375,34.5625,35.5625
0.006052232,0.15343751,0.35397092,0.96633464,-0.005135919,-0.002992275,-0.0082788635,-0.38105643,-0.34851575,0.05995347,-3.0784826,0.6248891,-0.00012500833,-0.0007450232,-0.0003854177,-0.0017938917,-0.0012147088,0.0020168412,-5.271828e-06,0.4778101,-1.425933,1.9577616,-2.1008828,-1.5708054,2.452776,-9.619526e-05,0.0027519902,0.0027500058,-0.007852064,0.0001390589,-9.054119e-05,0.019153614,0.17238252,-8.848969,0.68146914,47.703903,0.000855363,-3.0907326,-2.6418502,-0.34169775,0.0949771,0.036827274,28.125,29.3125,28.4375,32.375,34.5625,35.5625
0.008051799,-0.08908835,0.8833792,0.3897818,0.0261177,-0.03216237,-0.0026988797,-0.3810669,-0.34852317,0.059941363,-3.0784895,0.6249098,-0.00016366606,-0.00035502957,-0.0001812522,-0.0004672285,-0.0011033171,0.0018216209,-5.941949e-06,0.47779807,-1.4258859,1.9577383,-2.1008942,-1.5707816,2.452776,-9.492695e-05,0.00020998683,0.0017604906,-0.0040959464,0.00013645923,-8.9258465e-05,0.0,0.1340753,-8.90643,0.75084364,47.70211,0.051296365,-2.9308968,-2.5582647,-0.37912259,0.10121821,0.02287395,28.125,29.3125,28.4375,32.375,34.5625,35.5625
0.010052419,0.27935082,1.0191318,-0.07425924,0.03252516,-0.0277948,-0.002363526,-0.38106024,-0.34853956,0.059951324,-3.0785387,0.62484324,-0.00018542974,-0.000521198,-0.0002802312,4.926641e-05,-0.0011032092,0.001753831,3.636005e-06,0.4778101,-1.4258981,1.9577264,-2.1008813,-1.5707458,2.4527402,-9.3695846e-05,2.8172412e-06,0.00045938877,-0.0025275424,0.0001683223,-9.734918e-05,0.095768064,0.15322891,-9.174581,0.7597976,47.675243,-0.35245258,-2.4452345,-2.9848924,-0.4240967,0.10877521,-0.008370204,28.125,29.3125,28.4375,32.375,34.5625,35.5625
0.012052145,0.22869101,0.37198576,-0.07358193,0.002791205,-0.011010407,-0.0088256495,-0.38105443,-0.34851432,0.059938148,-3.0784717,0.6249254,-0.00022129028,0.000248035,0.000101091035,-0.002749941,0.0019828898,-0.0043299105,5.121523e-05,0.47778615,-1.4258965,1.9577492,-2.100857,-1.5707697,2.452776,-0.0001018655,0.0056980257,6.1632863e-06,-0.00094825996,0.0002279009,-0.00015239492,0.095768064,0.038307227,-9.32781,0.7038487,47.675243,-0.5534797,-2.2815127,-3.079853,-0.46087724,0.1175419,-0.059031054,28.125,29.3125,28.4375,32.375,34.5625,35.5625
0.0140518,-1.0294489,-0.50982386,-0.23919909,-0.033134215,-0.0049939575,-0.0075696944,-0.3810581,-0.34851232,0.05990424,-3.0784395,0.624901,-0.00032470957,-0.004490326,0.0024651617,-0.004870644,0.0026750597,-0.008076059,-0.003194628,0.47777078,-1.4258091,1.9577245,-2.1008456,-1.5707568,2.4527495,-0.009408667,0.014649829,-0.00536352,-0.00089039747,0.0013218493,-0.0062112827,0.05746084,0.15322891,-9.404425,0.7463667,47.70211,-0.33451504,-2.9823895,-3.028063,-0.46946168,0.13652955,-0.092862666,28.125,29.3125,28.4375,32.375,34.5625,35.5625
0.016052067,-1.2506517,-1.146053,-0.3446921,-0.06828216,0.024649126,-0.021371637,-0.38104317,-0.34852007,0.059906565,-3.078443,0.62476486,-0.00034071002,-0.0057565304,0.0021842169,-0.003450014,-0.00062605756,-0.005940231,0.0019418731,0.47780612,-1.4258097,1.9577116,-2.1008093,-1.5707687,2.4526994,-0.01134359,0.013007261,-0.0066193235,-0.0014150048,0.003264467,-0.013285923,-0.22984336,0.30645782,-9.595961,0.7239871,47.67345,-0.24719587,-2.886857,-3.0710497,-0.48391062,0.13238236,-0.014018425,28.125,29.3125,28.4375,32.375,34.5625,35.5625
0.018052388,-1.4043471,-1.149126,-0.4527137,-0.08219626,0.05630707,-0.029238336,-0.3810586,-0.34849885,0.059886623,-3.0784552,0.62482285,-0.000418104,-0.005459219,0.0016451483,-0.003310877,-0.0026637467,-0.005484281,0.006024192,0.47772217,-1.4257861,1.9577359,-2.1008337,-1.5707196,2.45265,-0.0111462595,0.012070982,-0.005529053,-0.0029160923,0.004860863,-0.017174436,-0.38307226,0.2873042,-9.730036,0.7597976,47.707485,-0.42960107,-2.5669227,-3.32646,-0.47895944,0.1328498,0.018066144,28.125,29.3125,28.4375,32.375,34.5625,35.5625
0.020052101,-1.9511491,-0.74426234,-0.4811698,-0.06643064,0.06460234,-0.046357576,-0.38105622,-0.3485046,0.059877876,-3.0784094,0.6248332,-0.00041172715,-0.0062628146,0.0016159166,-0.0035559137,-0.0034740635,-0.005809727,0.0063075116,0.47775778,-1.4257495,1.9577116,-2.1008222,-1.5707554,2.452698,-0.012401595,0.01356053,-0.0065383012,-0.0034841402,0.0057256245,-0.018714018,-0.51714754,0.22984336,-9.80665,0.7777002,47.694946,-0.562153,-2.5384715,-3.4106374,-0.49466562,0.12281333,0.011974978,28.125,29.3125,28.4375,32.375,34.5625,35.5625
0.022051614,-1.4895993,0.10280398,-0.5956117,-0.032697905,0.07580145,-0.07469339,-0.38106066,-0.3484816,0.059847552,-3.078384,0.62482977,-0.0005240147,-0.008673019,0.0014362092,-0.002625401,-0.0062539047,-0.0044661416,0.0035003247,0.47769666,-1.4257013,1.957723,-2.1008103,-1.5707306,2.452638,-0.015511125,0.0148777645,-0.010118718,-0.0036980617,0.007566682,-0.019018404,-0.4405331,0.22984336,-9.844957,0.7239871,47.690468,-0.54241294,-2.5126624,-3.429478,-0.5039289,0.13571244,0.019699184,28.125,29.3125,28.4375,32.375,34.5625,35.5625
0.024052018,-1.8716816,0.05017748,-0.6090339,-0.010668338,0.050919063,-0.08193589,-0.38108394,-0.34848437,0.059856568,-3.0784307,0.624802,-0.00047681617,-0.009797698,0.0013383026,-0.0030703307,-0.0078067672,-0.0056432635,0.0005887767,0.47767198,-1.4257003,1.9577097,-2.1008465,-1.5707182,2.45259,-0.01762487,0.017309124,-0.011770258,-0.0041528502,0.0094835665,-0.01822267,-0.49799395,0.22984336,-9.844957,0.7620334,47.713753,-0.557329,-2.500663,-3.4636903,-0.5182678,0.11027512,-0.009002588,28.125,29.3125,28.4375,32.375,34.5625,35.5625
0.026052084,-2.2563875,-0.48091128,-0.59999555,-0.0047539338,0.038939815,-0.09214327,-0.38107422,-0.34849924,0.059830982,-3.078446,0.6248249,-0.0006214896,-0.010815444,-0.00012382418,-0.0024913456,-0.011220768,-0.0042954874,0.00010241168,0.47765997,-1.4256401,1.9576968,-2.1008346,-1.5706452,2.4525902,-0.017530434,0.01843209,-0.013994198,-0.005825509,0.011886469,-0.017645638,-0.7086837,0.19153614,-9.768343,0.73069996,47.695843,-0.5748521,-2.5205083,-3.3776927,-0.5104993,0.0865317,-0.039958816,28.125,29.3125,28.4375,32.375,34.5625,35.5625
0.028051661,-2.3825514,-0.5452685,-0.5592235,-0.031367913,0.047559395,-0.10393196,-0.38111517,-0.34849587,0.059827976,-3.0784633,0.62481,-0.0005646089,-0.011990595,-0.00026383298,-0.0018423013,-0.01260866,-0.0021926544,-0.0015334587,0.47762376,-1.4255923,1.9576601,-2.1008828,-1.5706571,2.4525425,-0.018537536,0.018267402,-0.014983357,-0.007177837,0.012148213,-0.017016206,-0.7086837,0.05746084,-9.80665,0.800085,47.67614,-0.65359306,-2.4821048,-3.3717804,-0.50958824,0.08325331,-0.029129349,28.125,29.3125,28.4375,32.375,34.5625,35.5625
0.030052353,-2.176911,-0.34934336,-0.3858179,-0.04749419,0.068344995,-0.13004711,-0.3811252,-0.34850487,0.05982607,-3.0784912,0.624855,-0.00061207317,-0.013083698,-0.0006426004,-0.0014203817,-0.012536174,-0.0004018132,-0.0024749686,0.47759977,-1.4255679,1.9576367,-2.1008832,-1.5706099,2.452543,-0.018295921,0.019395057,-0.01710633,-0.007735297,0.011255502,-0.01582996,-0.6895301,0.05746084,-9.883265,0.7418897,47.639416,-0.700976,-2.4756637,-3.4596376,-0.49832475,0.10837126,-0.055224765,28.125,29.3125,28.4375,32.375,34.5625,35.5625
0.032051995,-2.2787485,-0.43735662,-0.62129724,-0.033836883,0.071669996,-0.13561642,-0.3811745,-0.34851214,0.059837315,-3.0785213,0.62488115,-0.0006058767,-0.014081507,-0.00045210283,-0.0010687119,-0.013004555,0.00027727708,-0.004184455,0.47755122,-1.4255079,1.9575399,-2.1008713,-1.5705856,2.452507,-0.019621942,0.019824542,-0.018414486,-0.0076744556,0.011357534,-0.0154457,-0.63206923,0.11492168,-9.864111,0.7105615,47.667187,-0.70336396,-2.445755,-3.33514,-0.53011274,0.10003536,-0.06516181,28.125,29.3125,28.4375,32.375,34.5625,35.5625
0.034051836,-1.7415823,0.3157747,-0.108287394,-0.024960823,0.06699087,-0.15096898,-0.38120073,-0.34850952,0.059832677,-3.078531,0.6249217,-0.0006016221,-0.015558246,-0.00018647642,-0.00022362734,-0.013968875,0.0019185519,-0.005925395,0.47751454,-1.425472,1.9575151,-2.1008956,-1.5705737,2.4524944,-0.021523105,0.019674744,-0.020178927,-0.007660829,0.01145629,-0.015605102,-0.61291564,0.05746084,-9.825804,0.7665104,47.68599,-0.68933654,-2.3968968,-3.429881,-0.53024083,0.103199705,-0.07300472,28.125,29.3125,28.4375,32.375,34.5625,35.5625
0.03605252,-1.472165,0.32020593,-0.46441093,0.013682836,0.04700311,-0.15831298,-0.38123778,-0.34852153,0.059847277,-3.0786068,0.6249192,-0.0005491947,-0.017359952,-0.00069321116,0.00016826049,-0.016133258,0.0036628544,-0.0070695034,0.47747803,-1.4254595,1.9574784,-2.1009438,-1.5705374,2.4524467,-0.02301112,0.021266317,-0.022467982,-0.009510233,0.012569132,-0.015948482,-0.5554548,-0.019153614,-9.691729,0.75084364,47.655537,-0.6807698,-2.3635695,-3.3282537,-0.5234903,0.10272679,-0.07551358,28.125,29.3125,28.4375,32.375,34.5625,35.5625
0.03805222,-1.1414465,0.98195827,-0.3817538,0.026254527,0.030833416,-0.17571658,-0.3812681,-0.34851044,0.059820235,-3.0785706,0.62495023,-0.00060799316,-0.018141355,-0.0010321795,-9.8064855e-05,-0.017521337,0.004294412,-0.0073847566,0.47742993,-1.4253633,1.9574307,-2.1009448,-1.570537,2.4524226,-0.023738537,0.022558594,-0.022856137,-0.011615883,0.013505685,-0.016362224,-0.2681506,0.019153614,-9.710882,0.7597976,47.70211,-0.72709113,-2.4358232,-3.387527,-0.49284577,0.086143374,-0.11781874,28.125,29.3125,28.4375,32.375,34.5625,35.5625
0.040051676,-1.3739345,0.44761735,-0.3387444,0.023180667,0.017893637,-0.17417575,-0.3813037,-0.3485193,0.059825674,-3.0786293,0.6249628,-0.00061187736,-0.019053765,-0.0008191061,7.9020545e-05,-0.017854586,0.0050148778,-0.008255612,0.4773814,-1.4253272,1.9573826,-2.1009686,-1.5704888,2.4523745,-0.02493455,0.023077965,-0.023760611,-0.0120221935,0.013468799,-0.01668621,-0.17238252,-0.11492168,-9.595961,0.784413,47.70211,-0.6991645,-2.3893437,-3.3765602,-0.48132908,0.09626821,-0.1221437,28.125,29.3125,28.4375,32.375,34.5625,35.5625
0.042052146,-0.8209637,0.49522278,-0.13473266,0.008328509,0.019440765,-0.19684455,-0.38135862,-0.34850466,0.0598373,-3.0786269,0.6251742,-0.00056465133,-0.020327039,-0.000861041,0.00060993934,-0.01891654,0.006189985,-0.008520333,0.47729686,-1.4253031,1.9573339,-2.1009924,-1.5704769,2.4524221,-0.026293604,0.02362346,-0.0255248,-0.012335097,0.013869214,-0.017779587,-0.15322891,0.038307227,-9.481039,0.73069996,47.690468,-0.62978506,-2.3197346,-3.3267808,-0.5015052,0.096003644,-0.1067626,28.125,29.3125,28.4375,32.375,34.5625,35.5625
0.044051763,-0.6908107,-0.0078250915,-0.36558023,0.004757765,0.019294651,-0.20715542,-0.38141108,-0.34852228,0.059849538,-3.07873,0.6250801,-0.0005250132,-0.02189084,-0.0006983521,0.0013854859,-0.019568417,0.0074966988,-0.009352,0.4772483,-1.425255,1.9572619,-2.1010401,-1.5704287,2.4523017,-0.02800941,0.024148649,-0.028010048,-0.011833402,0.013845538,-0.018661458,-0.095768064,0.0,-9.576807,0.7642693,47.675243,-0.6084808,-2.3167715,-3.2953324,-0.4975435,0.10717995,-0.13499418,28.125,29.3125,28.4375,32.375,34.5625,35.5625
0.04605234,-0.70117384,-0.53302807,-0.33147615,0.001163119,0.011422083,-0.2077699,-0.38144916,-0.34849927,0.059848305,-3.0786748,0.6251842,-0.0005299436,-0.02239887,-0.0004818383,0.0011714342,-0.019703647,0.0068055685,-0.009677503,0.47718796,-1.4252064,1.9572014,-2.1010044,-1.570453,2.4523134,-0.029145056,0.025183115,-0.02876354,-0.011563644,0.014282337,-0.019472223,-0.019153614,0.05746084,-9.5385,0.7777002,47.655537,-0.62116444,-2.3214345,-3.2364974,-0.51524615,0.08859295,-0.15253809,28.125,29.3125,28.4375,32.375,34.5625,35.5625
0.048051827,-1.0725411,-0.5663819,-0.31063563,-0.0068512866,-0.005609875,-0.21857657,-0.38148257,-0.34850502,0.0598332,-3.0787013,0.6251899,-0.0005385277,-0.023612361,-0.00019167115,0.0013278255,-0.019811403,0.007926921,-0.010118861,0.47715148,-1.4251344,1.9571646,-2.1010525,-1.5704287,2.4522772,-0.030505134,0.026041314,-0.029934952,-0.012293329,0.01385939,-0.020389145,0.24899699,0.15322891,-9.576807,0.7418897,47.658226,-0.6328552,-2.2567563,-3.290009,-0.49145412,0.0950937,-0.16510974,28.125,29.3125,28.4375,32.375,34.5625,35.5625
0.050051812,-0.22551599,-0.29874247,-0.14599551,-0.015367462,0.01245257,-0.2331336,-0.38155937,-0.34849268,0.05985305,3.0787122,-0.62528825,0.00044631277,-0.024611495,-7.548209e-05,0.00141499,-0.01999201,0.008028524,-0.01056592,0.4770431,-1.42511,1.957105,-2.1011121,-1.5704049,2.4522288,-0.03170253,0.027306536,-0.031636465,-0.012028492,0.013973656,-0.021137355,-0.038307227,0.17238252,-9.5385,0.7777002,47.691364,-0.65802765,-2.281933,-3.2642741,-0.49581218,0.085494,-0.16908431,28.125,29.3125,28.4375,32.375,34.5625,35.5625
0.052052286,-0.23879395,-0.4732259,-0.35604832,-0.01859551,0.010815002,-0.22075029,-0.38160515,-0.34848726,0.059860997,3.0787036,-0.62534446,0.00039241195,-0.0257539,0.0003335722,0.0016916232,-0.019959694,0.009249877,-0.010836654,0.4770066,-1.425062,1.9570321,-2.1011121,-1.5704287,2.4522285,-0.033097073,0.027728796,-0.03264069,-0.012514349,0.013381829,-0.022259174,0.05746084,0.19153613,-9.576807,0.7239871,47.695843,-0.6403566,-2.173378,-3.2896175,-0.48018056,0.08765249,-0.2045674,28.125,29.3125,28.4375,32.375,34.5625,35.5625
0.05405174,-0.5913196,-0.6076264,-0.41282764,-0.01862716,0.0026924396,-0.19354898,-0.38164446,-0.34850875,0.059862062,3.0786302,-0.625291,0.00047201506,-0.02712169,0.00026273172,0.0026236668,-0.021286545,0.01070874,-0.010633653,0.47694615,-1.42499,1.9569477,-2.1011121,-1.5703329,2.452144,-0.034558292,0.027722472,-0.034830667,-0.012221668,0.013887892,-0.023923019,0.05746084,0.21068975,-9.576807,0.79560274,47.698532,-0.62845576,-2.1439507,-3.3083096,-0.49852288,0.09799793,-0.23130745,28.125,29.3125,28.4375,32.375,34.5625,35.5625
0.05605195,-0.21641181,-0.6441035,-0.17620678,-0.025996288,0.013302753,-0.20010112,-0.38172585,-0.34849247,0.059876334,3.0785763,-0.62541336,0.00038718616,-0.02798756,0.00031084422,0.0026206286,-0.021399423,0.01090303,-0.00926455,0.47684976,-1.4249299,1.9568518,-2.1011364,-1.5703448,2.4521308,-0.03544322,0.028975222,-0.036237728,-0.012290176,0.013898859,-0.02617532,0.038307227,0.24899697,-9.519346,0.7217513,47.691364,-0.6648529,-2.107117,-3.2338994,-0.5104932,0.085431606,-0.21648574,28.125,29.3125,28.4375,32.375,34.5625,35.5625
0.058052503,-0.65678,-0.837165,-0.16168398,-0.028531639,0.0069897003,-0.19004904,-0.38175496,-0.34850022,0.059879065,3.0785217,-0.6253633,0.00044496948,-0.028370315,3.945697e-05,0.0018904514,-0.021739496,0.009785502,-0.007733431,0.47678953,-1.424893,1.9568037,-2.1011364,-1.5702723,2.4520462,-0.035839394,0.031305432,-0.037078753,-0.012942121,0.01471184,-0.02810281,-0.038307227,0.2681506,-9.404425,0.79560274,47.719128,-0.67715156,-2.1856973,-3.259972,-0.5011334,0.079810545,-0.20959839,28.125,29.3125,28.4375,32.375,34.5625,35.5625
0.06005202,-0.47411203,-1.2682793,-0.3607929,-0.027430048,0.01615203,-0.1899192,-0.38183162,-0.34849486,0.05988689,3.0784862,-0.6254328,0.00037362383,-0.029497622,0.00035996572,0.0021583142,-0.021919208,0.010648311,-0.0077343667,0.47671723,-1.424809,1.9566954,-2.1011608,-1.5702847,2.4520218,-0.03728849,0.031913172,-0.038342427,-0.013133212,0.014475077,-0.029549137,-0.095768064,0.36391866,-9.519346,0.8247004,47.70211,-0.70401216,-2.1613524,-3.2726886,-0.5003191,0.08616653,-0.23369959,28.125,29.3125,28.4375,32.375,34.5625,35.5625
0.06205253,-0.6977788,-0.31437415,-0.003983599,-0.043120675,0.015789742,-0.1969933,-0.3818625,-0.3484835,0.05987263,3.0784693,-0.6254493,0.00043906926,-0.030705053,-0.00014613706,0.0032121567,-0.023922572,0.012500989,-0.0075376187,0.476645,-1.424749,1.9566597,-2.1011608,-1.5702485,2.451962,-0.03809995,0.031683557,-0.040434502,-0.013377735,0.015400693,-0.030558063,-0.1340753,0.38307226,-9.595961,0.78888994,47.682407,-0.7311701,-2.1196425,-3.2309065,-0.49073023,0.08361804,-0.25867122,28.125,29.3125,28.4375,32.375,34.5625,35.5625
0.06405202,-0.78457433,-0.74134916,-0.114473835,-0.026967132,0.019291107,-0.18637447,-0.3819461,-0.3485021,0.059910838,3.0783591,-0.625406,0.00027401012,-0.03106452,-0.0005118065,0.0033143146,-0.024702586,0.012746641,-0.006099816,0.47658476,-1.4247249,1.9565638,-2.1012442,-1.5702237,2.4518888,-0.03815261,0.032273185,-0.041260768,-0.013717066,0.015984723,-0.032046374,-0.11492168,0.34476504,-9.5385,0.7978386,47.67614,-0.7987047,-2.0127754,-3.2786684,-0.49674165,0.07174233,-0.23893288,28.125,29.3125,28.4375,32.375,34.5625,35.5625
0.06605179,-0.4447221,-0.51211697,-0.012608149,-0.018259062,0.031894445,-0.19927056,-0.38200605,-0.34850377,0.05991213,3.0783463,-0.62534493,0.00025604307,-0.031932242,-0.00085502776,0.002603365,-0.025318135,0.012112727,-0.0047265915,0.47652462,-1.4246402,1.956467,-2.1012566,-1.5702118,2.4517922,-0.03888002,0.03517281,-0.042671014,-0.014926365,0.016819017,-0.034146357,-0.19153613,0.3256114,-9.404425,0.7038487,47.679718,-0.79380286,-2.1475108,-3.1926708,-0.49738753,0.0564116,-0.25727803,28.125,29.3125,28.4375,32.375,34.5625,35.5625
0.068052664,-0.79388845,-0.11822947,-0.024634713,-0.016458219,0.028520929,-0.19192348,-0.38210425,-0.34852058,0.059942875,3.0782077,-0.6254319,0.00011657945,-0.03304101,-0.0010019934,0.002916801,-0.02622557,0.012822968,-0.0044205636,0.47644034,-1.4245801,1.9563473,-2.1013405,-1.5701755,2.4517798,-0.03994458,0.0361566,-0.04445147,-0.015175506,0.017302377,-0.03551403,-0.17238252,0.28730422,-9.346964,0.7530795,47.666286,-0.9037297,-2.120638,-3.2373605,-0.48152605,0.07561329,-0.2782439,28.125,29.3125,28.4375,32.375,34.5625,35.5625
0.07005191,-0.5548183,-0.018247284,-0.030735802,-0.010000373,0.03871862,-0.19580047,-0.38214538,-0.34851652,0.059936456,3.0781758,-0.62542546,0.00020391386,-0.03442203,-0.0017358842,0.0030708567,-0.026799122,0.013305494,-0.0036823566,0.4763562,-1.4245071,1.9562734,-2.1013167,-1.5701154,2.4516957,-0.040092982,0.038937394,-0.047994997,-0.015101582,0.017584713,-0.036399186,-0.19153613,0.2681506,-9.3661175,0.82022345,47.67166,-0.95619893,-2.1185489,-3.1032414,-0.46595252,0.05174049,-0.27498397,28.125,29.3125,28.4375,32.375,34.5625,35.5625
0.072051905,-0.90990686,0.14392298,0.082790494,-0.0066383993,0.027283495,-0.18380232,-0.38220578,-0.3485183,0.059930816,3.078129,-0.6254347,0.00024046698,-0.03304138,-0.0010883643,0.0013574793,-0.025762927,0.009120139,-0.0029761158,0.47627205,-1.4244108,1.956179,-2.1013281,-1.5700668,2.4516232,-0.040615685,0.040096283,-0.045538183,-0.014522383,0.018591976,-0.037630383,-0.2681506,0.13407528,-9.270349,0.7217513,47.689575,-1.0490875,-2.2399611,-3.1572876,-0.47872502,0.05033544,-0.28466427,28.125,29.3125,28.4375,32.375,34.5625,35.5625
0.07405182,-1.9158189,-0.37249726,0.06459891,0.012442345,0.002579904,-0.17052445,-0.38226354,-0.3485383,0.059942923,3.078059,-0.62536234,0.00019715616,-0.034160655,-0.0009942962,0.0018792438,-0.026035104,0.010460766,-0.003069021,0.47622365,-1.424351,1.9560941,-2.1013768,-1.5700196,2.4515386,-0.041565757,0.04046452,-0.0471308,-0.014609692,0.018219646,-0.038484883,-0.21068975,0.15322891,-9.32781,0.7933669,47.694946,-1.0169132,-2.147123,-3.244903,-0.44357094,0.07878798,-0.31082264,28.125,29.3125,28.4375,32.375,34.5625,35.5625
0.076052286,-0.7037467,0.09735411,0.13841757,0.003204628,0.035235036,-0.19234797,-0.3823658,-0.34852368,0.059951298,3.0779788,-0.6254225,0.00015980388,-0.035159755,-0.0014889225,0.0025292253,-0.027187433,0.011685707,-0.002051588,0.47607958,-1.4242549,1.9559735,-2.1014125,-1.5699829,2.4514422,-0.04189509,0.041036796,-0.049256787,-0.014669607,0.018683601,-0.039829906,-0.15322891,0.05746084,-9.346964,0.784413,47.698532,-1.0937278,-2.136826,-3.1767216,-0.45329505,0.05326146,-0.32154477,28.125,29.3125,28.4375,32.375,34.5625,35.5625
0.07805244,-1.5608943,-0.18317059,0.21702658,0.013097863,0.012773284,-0.1722544,-0.38243276,-0.3485423,0.059960935,3.0779338,-0.6253737,8.518122e-05,-0.036840476,-0.0018471691,0.0025841221,-0.027917543,0.0122284265,-0.00045472698,0.4760432,-1.4241701,1.9558657,-2.1014602,-1.569971,2.4513812,-0.04305919,0.04377958,-0.052425176,-0.015059502,0.019080963,-0.04258786,-0.17238252,0.05746084,-9.270349,0.784413,47.6636,-1.1706668,-2.2247362,-3.069425,-0.45086032,0.047633857,-0.3134367,28.125,29.3125,28.4375,32.375,34.5625,35.5625
0.08005209,-1.2921399,0.27271158,0.3114192,0.0038359815,0.019253932,-0.17901939,-0.38250673,-0.34853336,0.05996892,3.077912,-0.62533075,2.7473441e-05,-0.03659152,-0.0017657357,0.001784979,-0.02738041,0.010706938,-0.00066339836,0.47595915,-1.4240978,1.9557704,-2.1014845,-1.569971,2.4512732,-0.043110773,0.045159537,-0.05216869,-0.0150967445,0.01930505,-0.042430006,-0.28730422,0.05746084,-9.289502,0.7463667,47.688675,-1.2159991,-2.2376394,-3.0555086,-0.44324106,0.07200146,-0.32588905,28.125,29.3125,28.4375,32.375,34.5625,35.5625
0.08205239,-0.8558344,0.20193526,0.23631455,0.0076956935,0.02839011,-0.1824044,-0.38256493,-0.3485311,0.059958797,3.0778475,-0.6254156,8.7794666e-05,-0.03704664,-0.0009374308,0.0012476932,-0.026733542,0.009519189,-0.0032909843,0.4758625,-1.4240017,1.9556865,-2.101496,-1.5699109,2.4512377,-0.04497285,0.04614583,-0.05215111,-0.014744488,0.01927673,-0.041664418,-0.24899697,0.05746084,-9.251195,0.7105615,47.71823,-1.2402459,-2.1979141,-3.2101793,-0.43798092,0.057058245,-0.37319204,28.125,29.3125,28.4375,32.375,34.5625,35.5625
0.08405196,-0.78274703,0.22224918,0.27291504,0.0034140418,0.030419363,-0.18936415,-0.3826617,-0.34852877,0.059974574,3.077781,-0.6253817,7.3141587e-06,-0.039142482,-0.00091470586,0.0022038498,-0.028112857,0.011582138,-0.0027613642,0.47575375,-1.4239174,1.9555653,-2.1015441,-1.569887,2.4511163,-0.047111567,0.04691293,-0.05516241,-0.01496188,0.01955835,-0.04432971,-0.17238252,0.076614454,-9.251195,0.7620334,47.675243,-1.20039,-2.17595,-3.083099,-0.4567425,0.06727169,-0.35415724,28.125,29.3125,28.4375,32.375,34.5625,35.5625
0.08605203,-0.9608725,0.25669688,0.24592254,-0.0043284963,0.026279103,-0.18427272,-0.38276958,-0.34853286,0.059989262,3.0776968,-0.62540084,-8.457029e-05,-0.039418556,-0.0012804783,0.002093995,-0.028064033,0.011394435,0.00014187608,0.47564593,-1.4238092,1.9554218,-2.1016037,-1.5698627,2.4510312,-0.046733346,0.04818515,-0.056403883,-0.014798488,0.019606972,-0.04685214,-0.22984336,0.21068975,-9.174581,0.76874626,47.667187,-1.2507511,-2.2004366,-3.0460057,-0.4237191,0.08054086,-0.36316317,28.125,29.3125,28.4375,32.375,34.5625,35.5625
0.088052675,-0.6508929,0.0080165425,0.22050078,-0.01016784,0.040211152,-0.1927701,-0.38278863,-0.34851262,0.059955396,3.0777197,-0.62536556,6.501184e-05,-0.040520757,-0.00093341974,0.0019278248,-0.027813708,0.011579429,0.0028488692,0.4755615,-1.4237249,1.9553975,-2.10158,-1.569815,2.4509218,-0.048157394,0.049749527,-0.057757907,-0.015050404,0.019296635,-0.05098359,-0.17238252,0.19153613,-9.155427,0.7911258,47.677036,-1.4540114,-2.1861503,-3.15227,-0.43592235,0.09068094,-0.35233837,28.125,29.3125,28.4375,32.375,34.5625,35.5625
0.09005209,-0.6057062,-0.33351368,-0.011006357,-0.010941482,0.043397244,-0.18545026,-0.38290843,-0.34852678,0.059993804,3.0776248,-0.62531054,-4.51548e-05,-0.041880827,-0.00036143718,0.0019406121,-0.028430358,0.011510213,-0.00025258452,0.47545257,-1.4236286,1.9552053,-2.1016037,-1.5697783,2.4507906,-0.05078572,0.050910007,-0.059106316,-0.0150817195,0.019881867,-0.050507754,-0.19153613,0.17238252,-9.251195,0.7665104,47.677036,-1.2781793,-2.1671464,-3.1009526,-0.4143873,0.10442479,-0.33504236,28.125,29.3125,28.4375,32.375,34.5625,35.5625
0.092052765,-1.4237297,-0.64315224,-0.13126181,-0.009064362,0.017351383,-0.18098255,-0.3829753,-0.34852862,0.059975516,3.0775678,-0.6253179,-4.9174946e-07,-0.043653715,0.00055274146,0.0021250383,-0.028938264,0.0119189555,-0.0016722432,0.47535536,-1.4235085,1.9551209,-2.1016514,-1.5697182,2.4507053,-0.05419832,0.05185875,-0.06060671,-0.015120145,0.020147352,-0.05249977,-0.30645782,0.22984336,-9.423578,0.7396539,47.68599,-1.1842346,-2.1962054,-3.0877147,-0.4294072,0.10044454,-0.36574292,28.125,29.3125,28.4375,32.375,34.5625,35.5625
0.09405197,-0.6591713,-0.31079787,-0.057609774,-0.020159408,0.03190148,-0.19022258,-0.3830682,-0.34854245,0.060008302,3.0774975,-0.6252246,-8.1086444e-05,-0.04380738,0.0002089016,0.0016464865,-0.029198144,0.010753688,0.0021777318,0.4752713,-1.4234359,1.954966,-2.1016638,-1.5696825,2.450572,-0.054216344,0.053653017,-0.061588638,-0.015010923,0.020919861,-0.056365635,-0.28730422,0.19153613,-9.3661175,0.82022345,47.689575,-1.2214411,-2.142283,-3.1126833,-0.42701077,0.10887494,-0.34818113,28.125,29.3125,28.4375,32.375,34.5625,35.5625
0.09605217,-0.60884446,-0.37051624,0.012733809,-0.021369794,0.03929202,-0.18452376,-0.38313842,-0.34852687,0.05999365,3.077483,-0.6252001,-5.7415386e-05,-0.044680618,-0.00018565032,0.0018971201,-0.029704038,0.011877576,0.005683881,0.47516334,-1.4233279,1.9548815,-2.1016877,-1.5696582,2.4504507,-0.05426487,0.054700516,-0.06321533,-0.015655292,0.020855913,-0.05991918,-0.34476504,0.21068975,-9.308657,0.6926589,47.69763,-1.4039521,-2.1690226,-3.039318,-0.42127538,0.116879165,-0.28819707,28.125,29.3125,28.4375,32.375,34.5625,35.5625
0.098051935,-1.2976587,-0.38268912,-0.2129524,-0.012298368,0.033489883,-0.18019918,-0.38323212,-0.34851763,0.05998334,3.0774167,-0.62526447,-3.8894057e-05,-0.04635432,0.001166678,0.0004568991,-0.028789226,0.009365038,0.0041383584,0.4750299,-1.4231944,1.9547609,-2.101724,-1.5696105,2.4503658,-0.0584066,0.05878362,-0.06458391,-0.015710039,0.021195227,-0.0625138,-0.22984336,0.17238252,-9.385271,0.81351066,47.705692,-1.2868632,-2.3303561,-3.0738173,-0.43105322,0.14040712,-0.2804656,28.125,29.3125,28.4375,32.375,34.5625,35.5625
0.100052446,-1.5312492,-0.7336272,-0.17334369,-0.0025600912,0.030594142,-0.17767443,-0.38333276,-0.34853753,0.060011595,3.0773222,-0.62518716,-9.7548575e-05,-0.047496427,0.0008492534,0.0024819204,-0.03174978,0.012787392,0.0059242486,0.4749335,-1.4230995,1.9545935,-2.1017482,-1.5695499,2.4502332,-0.059568726,0.055830743,-0.065780334,-0.015953057,0.022270849,-0.0654602,-0.22984336,0.19153613,-9.423578,0.78217715,47.709274,-1.2165246,-2.100816,-2.9789414,-0.41129637,0.15055099,-0.2610182,28.125,29.3125,28.4375,32.375,34.5625,35.5625
0.102052025,-1.3198869,-0.5914481,-0.171531,-0.012679225,0.03993311,-0.18877049,-0.38343957,-0.3485224,0.059997376,3.077253,-0.6252285,-9.1372145e-05,-0.048330482,0.0008915074,0.0020024672,-0.032335147,0.011282784,0.007392361,0.474777,-1.4229543,1.9544739,-2.1018078,-1.5695013,2.4501114,-0.06117649,0.05818573,-0.06747713,-0.0155349625,0.02348583,-0.06853482,-0.24899697,0.15322891,-9.442732,0.7418897,47.691364,-1.2575469,-2.1540837,-2.9977934,-0.42133957,0.1354394,-0.19925517,28.125,29.3125,28.4375,32.375,34.5625,35.5625
0.1040528,-1.3348538,-0.65662736,-0.08016175,-0.007175362,0.045077935,-0.18199725,-0.3835453,-0.34852707,0.060012974,3.0772192,-0.62512463,-0.00016632705,-0.049077865,0.0013418737,0.0011773033,-0.031508885,0.010168875,0.009293875,0.47468054,-1.4228334,1.9543055,-2.1018312,-1.5694894,2.4499545,-0.06250325,0.060661063,-0.06838241,-0.015729088,0.023268204,-0.07176048,-0.3256114,0.21068975,-9.423578,0.7978386,47.672558,-1.2103294,-2.1890657,-3.0320888,-0.41899374,0.14585494,-0.15750742,28.125,29.3125,28.4375,32.375,34.5625,35.5625
0.10605256,-1.0917091,-0.15599191,-0.20632304,-0.0084560765,0.051394727,-0.18376479,-0.38363472,-0.34852734,0.06000669,3.0771701,-0.6250564,-0.00013618673,-0.05004657,0.001530653,0.00063253683,-0.03154409,0.009637064,0.010350708,0.47456,-1.4227003,1.9541734,-2.101856,-1.5694293,2.4497976,-0.06388914,0.06292166,-0.06959508,-0.016311038,0.02354566,-0.074201725,-0.3256114,0.22984336,-9.346964,0.7486078,47.6636,-1.2113671,-2.3341858,-3.0362537,-0.42335638,0.16058195,-0.12480317,28.125,29.3125,28.4375,32.375,34.5625,35.5625
0.108052164,-1.1273648,-0.5795878,-0.32810146,0.0073162736,0.04644255,-0.1857207,-0.3837116,-0.3485144,0.059984386,3.0771127,-0.625065,-9.182408e-05,-0.051242817,0.0016111855,0.001644189,-0.032799557,0.011727697,0.008529768,0.4744276,-1.4225808,1.9541014,-2.1019156,-1.5693692,2.449678,-0.06521524,0.062070154,-0.070868194,-0.016613288,0.023707354,-0.073706135,-0.2681506,0.1340753,-9.5385,0.7642693,47.694946,-1.250176,-2.1488724,-3.0628119,-0.424855,0.17868382,-0.09322616,28.125,29.3125,28.4375,32.375,34.5625,35.5625
0.11005172,-1.2943798,0.123049684,-0.24554983,-0.012168513,0.035849832,-0.18354426,-0.38383213,-0.34851456,0.059993476,3.0770447,-0.62501204,-6.3008774e-05,-0.051923733,0.0022266342,0.00050361315,-0.032222286,0.009856808,0.0076890574,0.474271,-1.4224236,1.9538983,-2.1019037,-1.5692977,2.449497,-0.06713155,0.06481036,-0.07132425,-0.016960233,0.024054071,-0.07478037,-0.30645782,0.076614454,-9.404425,0.81351066,47.672558,-1.2114799,-2.2776082,-3.098657,-0.42689207,0.20120841,-0.0634239,28.125,29.3125,28.4375,32.375,34.5625,35.5625
0.11205231,-0.97481346,-0.095697865,-0.24905181,-0.0022352915,0.04121171,-0.18089786,-0.38395464,-0.3484943,0.060001183,3.0769749,-0.6250785,-0.00013805547,-0.053100593,0.0021469716,0.0007271672,-0.03317789,0.010353195,0.0030034157,0.47411445,-1.422303,1.9537538,-2.1019514,-1.5692848,2.449391,-0.06844806,0.066001765,-0.073144205,-0.017211577,0.024678212,-0.07140858,-0.38307226,0.038307227,-9.500193,0.75755644,47.686886,-1.2048411,-2.2520247,-3.1199255,-0.4128518,0.20420168,-0.08182075,28.125,29.3125,28.4375,32.375,34.5625,35.5625
0.11405196,-1.301716,-0.08497032,-0.18656404,0.000990338,0.02963073,-0.17640023,-0.38403258,-0.34849736,0.059977762,3.07694,-0.62495714,-4.0340037e-05,-0.054388955,0.002321791,0.0006877548,-0.03434651,0.010517931,-0.00064038933,0.47399384,-1.4221464,1.9536341,-2.1019762,-1.5692004,2.449199,-0.07054116,0.067376904,-0.07446769,-0.01793987,0.025638528,-0.06985748,-0.36391866,0.05746084,-9.404425,0.7866488,47.652847,-1.2476338,-2.2336748,-2.9705696,-0.40652707,0.20730606,-0.100910455,28.125,29.3125,28.4375,32.375,34.5625,35.5625
0.11605201,-0.9863837,0.058415122,-0.11244263,0.0064170607,0.02985076,-0.18301085,-0.38417006,-0.3484822,0.06001069,3.0768576,-0.6249609,-0.00022666126,-0.054553587,0.0034507534,-0.0003428326,-0.033551883,0.008194834,-0.0017768407,0.47384876,-1.4220619,1.9534787,-2.1020477,-1.5692123,2.4490669,-0.072907075,0.06862061,-0.07361759,-0.01760063,0.02600931,-0.07108367,-0.36391866,0.05746084,-9.423578,0.7553206,47.705692,-1.0572382,-2.2765665,-3.1976366,-0.4174816,0.23449141,-0.081495546,28.125,29.3125,28.4375,32.375,34.5625,35.5625
0.11805251,-1.2222561,0.105432145,-0.04244537,0.0009595058,0.03007745,-0.17988253,-0.38429397,-0.34848234,0.060011204,3.0767484,-0.6249784,-0.00021842754,-0.055802137,0.0021679471,0.0011874774,-0.035759956,0.0107933115,-0.0055372245,0.47368127,-1.4219056,1.9533099,-2.1020958,-1.5691284,2.4489243,-0.07224729,0.06863738,-0.07718982,-0.017363815,0.026783817,-0.06666031,-0.36391866,0.05746084,-9.423578,0.8291774,47.668976,-1.309756,-2.2241583,-3.1875567,-0.4149325,0.22221778,-0.12834351,28.125,29.3125,28.4375,32.375,34.5625,35.5625
0.12005209,-1.1395681,-0.18547544,-0.013379041,0.012531053,0.040740702,-0.17905435,-0.38437095,-0.34848464,0.060014267,3.0766988,-0.6249322,-0.00011960569,-0.056602877,0.003184959,0.000507447,-0.035921704,0.0096505005,-0.010953455,0.4735603,-1.4217854,1.9531544,-2.1020477,-1.569044,2.4487808,-0.07519278,0.06973834,-0.076771624,-0.017937094,0.027447442,-0.06418994,-0.4405331,0.076614454,-9.3661175,0.800085,47.64389,-1.2178088,-2.1535716,-3.0430896,-0.4150855,0.24197555,-0.18834579,28.125,29.3125,28.4375,32.375,34.5625,35.5625
0.1220527,-1.2002753,0.3502409,-0.12882806,0.005853064,0.037853546,-0.18208615,-0.384495,-0.34848,0.060003396,3.0766337,-0.6249593,-0.00014204817,-0.057327464,0.004278348,-5.6483335e-05,-0.036006313,0.008219731,-0.014820695,0.4734151,-1.4216049,1.9529866,-2.1021078,-1.5690078,2.4486609,-0.07824084,0.07060763,-0.07651384,-0.017826963,0.028181387,-0.063369565,-0.38307226,0.076614454,-9.385271,0.7665104,47.701214,-1.0239543,-2.1595533,-3.3056312,-0.4317678,0.26494232,-0.1899775,28.125,29.3125,28.4375,32.375,34.5625,35.5625
0.12405231,-1.1851875,0.5479679,0.0038114563,-0.009495503,0.039027296,-0.18208632,-0.38462332,-0.34848258,0.06002062,3.0765269,-0.6249956,-0.0002116609,-0.05808059,0.0035760445,0.00038462665,-0.03719372,0.008790926,-0.015059293,0.47327122,-1.4214723,1.9528068,-2.102156,-1.5689596,2.4485533,-0.07817361,0.07162706,-0.07872479,-0.017681358,0.028982483,-0.06305983,-0.3256114,0.095768064,-9.461885,0.7709874,47.64389,-1.1605034,-2.092398,-3.2201452,-0.4537807,0.26235235,-0.24521673,28.125,29.3125,28.4375,32.375,34.5625,35.5625
0.12605248,-1.1477361,0.09454712,0.17420626,-0.0051563685,0.033939693,-0.17803675,-0.38474295,-0.3484777,0.06003522,3.0764074,-0.62504977,-0.00026796493,-0.058988117,0.004424231,0.000314402,-0.037982725,0.008169518,-0.017808318,0.4731141,-1.4213641,1.9526633,-2.102215,-1.568899,2.4484453,-0.081120454,0.07189405,-0.0788969,-0.01757748,0.029977983,-0.06325472,-0.24899697,0.095768064,-9.32781,0.81351066,47.67614,-1.0604213,-2.1016223,-3.294685,-0.44738904,0.26889348,-0.26589906,28.125,29.3125,28.4375,32.375,34.5625,35.5625
0.12805204,-0.94768244,0.18703325,-0.008054241,-0.0063755154,0.02925881,-0.17359884,-0.38486093,-0.34845605,0.060017094,3.076338,-0.6250745,-0.00021063496,-0.059886687,0.004847592,9.543699e-07,-0.038507823,0.007538616,-0.019415485,0.47292143,-1.4211956,1.9525203,-2.1022513,-1.568827,2.448277,-0.08315137,0.07322401,-0.07965773,-0.017815767,0.030736696,-0.06367746,-0.38307226,0.05746084,-9.346964,0.8090337,47.668976,-1.0211248,-2.062214,-3.3301268,-0.45275527,0.27628472,-0.2692992,28.125,29.3125,28.4375,32.375,34.5625,35.5625
0.13005257,-0.9039455,0.28327036,0.009876587,-0.012588572,0.026431922,-0.17695221,-0.3849819,-0.34843007,0.06001096,3.076266,-0.6251754,-0.00021684056,-0.060333017,0.0048596817,-2.937736e-05,-0.039597746,0.0074494816,-0.019981278,0.47274122,-1.4210511,1.9523772,-2.102287,-1.5687903,2.448169,-0.08420683,0.07357969,-0.079877816,-0.018363178,0.03175327,-0.06416567,-0.22984336,0.038307227,-9.481039,0.8291774,47.64658,-0.9936944,-2.0082219,-3.3492699,-0.45200714,0.28782594,-0.3020034,28.125,29.3125,28.4375,32.375,34.5625,35.5625
0.132052,-1.0469916,0.123552896,0.0851636,-0.0057039717,0.027624728,-0.17858562,-0.3851037,-0.34840646,0.06001892,3.0762134,-0.62522197,-0.00023878136,-0.06241179,0.004542596,0.0011450975,-0.041572165,0.009515574,-0.020966548,0.47257254,-1.4209191,1.9522079,-2.102287,-1.568766,2.4480362,-0.086039215,0.07431731,-0.083425805,-0.018285638,0.03257133,-0.06500962,-0.40222588,0.11492168,-9.461885,0.7463667,47.69763,-0.9838714,-1.9885595,-3.3934839,-0.46448195,0.3046486,-0.33253345,28.125,29.3125,28.4375,32.375,34.5625,35.5625
0.13405254,-1.1472105,0.04821637,-0.054037288,-0.007035838,0.0326048,-0.17739324,-0.38523173,-0.34841,0.060033876,3.076062,-0.62528837,-0.00023176285,-0.06175306,0.0053190133,-0.0015283827,-0.040142417,0.004044808,-0.022581516,0.47239205,-1.4207853,1.9520291,-2.1023228,-1.5686578,2.4479165,-0.087576784,0.07845895,-0.08208003,-0.018242545,0.033800494,-0.0649293,-0.28730422,0.11492168,-9.404425,0.78888994,47.70838,-0.9619181,-2.1093507,-3.406278,-0.47409666,0.3079724,-0.36216712,28.125,29.3125,28.4375,32.375,34.5625,35.5625
0.13605258,-1.0073929,-0.03163435,-0.24287334,-0.003630846,0.043770313,-0.17618854,-0.38534045,-0.34839272,0.06000793,3.0760214,-0.6253191,-0.00014538634,-0.063219555,0.0053348974,0.0007173614,-0.04346964,0.0076405904,-0.024522023,0.47222316,-1.4205943,1.9518727,-2.1023352,-1.5685972,2.447772,-0.08976632,0.07504371,-0.08328517,-0.018332524,0.035127845,-0.06517871,-0.3256114,0.11492168,-9.442732,0.75755644,47.655537,-0.90429413,-1.8637345,-3.5508194,-0.49571192,0.29196376,-0.39732164,28.125,29.3125,28.4375,32.375,34.5625,35.5625
0.1380521,-1.429911,-0.40747297,-0.18240191,0.004494151,0.037315138,-0.17268446,-0.38553214,-0.3484087,0.06007374,3.075793,-0.6254078,-0.00036873305,-0.065715805,0.0050485623,0.0012912744,-0.04519881,0.008992521,-0.02640679,0.47203043,-1.4204855,1.95162,-2.102431,-1.5685252,2.447664,-0.09208988,0.077631734,-0.087466955,-0.018720103,0.036064867,-0.06560612,-0.34476504,0.17238252,-9.442732,0.8112748,47.667187,-0.8859624,-1.85928,-3.3283267,-0.4920145,0.3046111,-0.44858,28.125,29.3125,28.4375,32.375,34.5625,35.5625
0.14005168,-0.9065712,0.19207045,-0.016579138,-0.010211681,0.046622124,-0.18126771,-0.3856051,-0.34837487,0.060019583,3.0757809,-0.62544316,-0.00016730823,-0.0663133,0.0057128896,8.792862e-05,-0.04427499,0.0072716065,-0.026127288,0.47184977,-1.4203042,1.951536,-2.102431,-1.5684413,2.447507,-0.09376141,0.08032882,-0.08771343,-0.019201498,0.036024954,-0.067560084,-0.34476504,0.15322891,-9.442732,0.8112748,47.647476,-0.86061203,-1.9599819,-3.4260356,-0.4877382,0.32524204,-0.46953887,28.125,29.3125,28.4375,32.375,34.5625,35.5625
0.14205228,-0.913453,0.044028256,-0.011672248,-0.013002207,0.044022933,-0.18849634,-0.3857618,-0.34837955,0.060047943,3.0756254,-0.6255084,-0.00025838046,-0.068744294,0.0060182805,0.0020544985,-0.04710843,0.011317416,-0.027373157,0.47166863,-1.4201605,1.951321,-2.1024916,-1.5683688,2.4473865,-0.09691863,0.07848494,-0.089898184,-0.020051135,0.03672157,-0.06946543,-0.38307226,0.17238252,-9.423578,0.74413085,47.666286,-0.78070223,-1.6850395,-3.3866243,-0.5027874,0.32330036,-0.49322677,28.125,29.3125,28.4375,32.375,34.5625,35.5625
0.14405183,-1.5078833,-0.44027132,-0.32590666,-0.00035582838,0.030385243,-0.17350411,-0.38590896,-0.34833172,0.06004751,3.0755725,-0.6255682,-0.00030473844,-0.06791878,0.0046191076,0.001042259,-0.047189698,0.008841121,-0.018456804,0.4714418,-1.4200156,1.9511641,-2.1025274,-1.5683559,2.4472039,-0.09443774,0.08158419,-0.091246076,-0.019613862,0.03794035,-0.07589743,-0.3256114,0.11492168,-9.5385,0.7777002,47.683304,-0.8468889,-1.7795761,-3.3164716,-0.5084835,0.328853,-0.4635533,28.125,29.3125,28.4375,32.375,34.5625,35.5625
0.14605206,-1.345885,-0.32202595,-0.4521713,-0.008317393,0.041640688,-0.17519285,-0.38605407,-0.3483388,0.06005908,3.075448,-0.6255819,-0.00029790954,-0.06898958,0.0057606595,0.00067956164,-0.047272693,0.00758404,-0.019711435,0.47126058,-1.4198351,1.9509367,-2.1025512,-1.5682601,2.4470472,-0.09781709,0.0826483,-0.0917754,-0.01904947,0.038600333,-0.07801879,-0.34476507,0.17238252,-9.500193,0.800085,47.661808,-0.85761034,-1.764564,-3.3705418,-0.5446353,0.33699667,-0.45963898,28.125,29.3125,28.4375,32.375,34.5625,35.5625
0.14805254,-1.4071053,-0.58013964,-0.3915777,-0.019081583,0.05243197,-0.1813272,-0.38617232,-0.34832013,0.06005073,3.0753775,-0.62562114,-0.00026596923,-0.069456026,0.004554144,0.00086425815,-0.04857375,0.00790982,-0.012118163,0.4710809,-1.4196782,1.9507817,-2.102575,-1.5681995,2.446901,-0.09673236,0.08434906,-0.09409955,-0.01928317,0.039626963,-0.084524415,-0.30645782,0.2681506,-9.595961,0.800085,47.691364,-0.8659359,-1.7419522,-3.384777,-0.5510612,0.35335505,-0.428785,28.125,29.3125,28.4375,32.375,34.5625,35.5625
0.15005198,-1.1115987,-0.60046107,-0.48243946,-0.02716942,0.06097161,-0.18367474,-0.38629296,-0.348298,0.06003499,3.075345,-0.62559164,-0.00021774675,-0.06975725,0.003900384,0.00063169637,-0.050096456,0.0070595895,-0.0047042565,0.4709008,-1.4194976,1.9506134,-2.1025865,-1.5681509,2.4467068,-0.09694969,0.08588149,-0.09527368,-0.019550912,0.041387994,-0.09215371,-0.19153613,0.24899697,-9.653421,0.8537928,47.703903,-0.9939467,-1.7292813,-3.3865495,-0.5767292,0.3324899,-0.33320522,28.125,29.3125,28.4375,32.375,34.5625,35.5625
0.15205254,-1.4981627,-0.84605527,-0.39870876,-0.03134389,0.04708999,-0.18100078,-0.3864574,-0.3482929,0.060053755,3.075193,-0.62561536,-0.00022941032,-0.07057817,0.003609402,0.00049419823,-0.05104194,0.0071355286,-0.00059054367,0.4706726,-1.4193289,1.9503859,-2.1026232,-1.5680426,2.446513,-0.09766573,0.08747342,-0.09662974,-0.020254353,0.04221784,-0.096977934,-0.28730422,0.21068975,-9.576807,0.76874626,47.704796,-1.059201,-1.713325,-3.424594,-0.56421053,0.33117115,-0.29156303,28.125,29.3125,28.4375,32.375,34.5625,35.5625
0.15405223,-0.9589516,-1.0686196,-0.34453753,-0.033233695,0.049543127,-0.17623904,-0.38659048,-0.3482874,0.060065985,3.0750725,-0.62556803,-0.00023949484,-0.07206145,0.0034130968,0.0006283778,-0.051602382,0.0087189125,0.0034518747,0.4704804,-1.4191961,1.9502171,-2.1026714,-1.5679468,2.4463067,-0.09849288,0.089199096,-0.09860148,-0.021642506,0.042017236,-0.10184273,-0.17238252,0.2681506,-9.5385,0.8493211,47.68599,-1.0596356,-1.8248324,-3.345716,-0.5796618,0.35449606,-0.21897805,28.125,29.3125,28.4375,32.375,34.5625,35.5625
0.1560525,-0.8565308,-0.54781646,-0.43507883,-0.03885273,0.024793131,-0.18190993,-0.38675508,-0.34829816,0.060055293,3.0749662,-0.6255264,-0.00021827496,-0.07294343,0.0025923082,-0.00066040363,-0.05279805,0.0067114388,0.0058205947,0.47028807,-1.4189421,1.9499644,-2.102732,-1.5678505,2.4461021,-0.09907415,0.09395257,-0.10083803,-0.022892838,0.044004045,-0.10478645,-0.13407528,0.36391866,-9.5385,0.784413,47.66271,-1.0880778,-2.0246239,-3.3072987,-0.5856134,0.3471369,-0.1780024,28.125,29.3125,28.4375,32.375,34.5625,35.5625
0.15805192,-0.33342388,-0.80447793,-0.32838523,-0.035598405,0.012013676,-0.18836549,-0.38690993,-0.34826428,0.060051605,3.0749147,-0.6254576,-0.00028229313,-0.074118026,0.0022004761,0.00060985837,-0.05524495,0.008652218,0.005486578,0.47007185,-1.4187744,1.949797,-2.1028035,-1.5678257,2.4458497,-0.100244336,0.0930297,-0.10266918,-0.02296772,0.04531829,-0.1056175,-0.11492168,0.3256114,-9.500193,0.8179876,47.67614,-1.0802011,-1.9166987,-3.2660837,-0.5765021,0.32726705,-0.13271624,28.125,29.3125,28.4375,32.375,34.5625,35.5625
0.16005245,0.30713785,-0.8621317,-0.18983155,-0.036457196,0.0060604997,-0.1860685,-0.3870792,-0.3482613,0.060073618,3.0747273,-0.62551653,-0.0002551478,-0.07412788,0.0013131311,-0.0019513665,-0.056759115,0.0032287585,0.0032840837,0.46981955,-1.4186039,1.9495572,-2.1028273,-1.5676802,2.4456582,-0.10109017,0.09939062,-0.10390022,-0.023938354,0.04913343,-0.1042508,-0.076614454,0.36391866,-9.500193,0.85155696,47.686886,-1.0108948,-2.0141935,-3.2196743,-0.6103349,0.31435636,-0.110526934,28.125,29.3125,28.4375,32.375,34.5625,35.5625
0.16205193,-0.11030828,-0.86359674,-0.28970897,-0.03510245,-0.011110291,-0.1794309,-0.3871904,-0.34826425,0.060049325,3.074659,-0.6254675,-0.00016490692,-0.07816417,0.0010256317,0.0016886086,-0.061170764,0.010847755,-0.003894345,0.46966234,-1.4184008,1.9493884,-2.102864,-1.5675844,2.4454792,-0.104492635,0.096776,-0.10896007,-0.02504999,0.04960076,-0.100472,-0.076614454,0.40222588,-9.404425,0.8314132,47.69763,-1.0417576,-1.9414308,-2.9903626,-0.58837676,0.28579837,-0.14084229,28.125,29.3125,28.4375,32.375,34.5625,35.5625
0.16405252,-0.27267778,-0.9553304,-0.1556732,-0.036419757,-0.016729087,-0.17446297,-0.38737258,-0.34826407,0.060083162,3.074498,-0.6254738,-0.00023027939,-0.07684164,0.0006858547,-0.00016792749,-0.060069434,0.0068785455,-0.0053984993,0.46943492,-1.4182315,1.9491256,-2.1029003,-1.5674876,2.4452765,-0.10317485,0.09966169,-0.10811671,-0.024731806,0.050430648,-0.09764273,0.019153614,0.4213795,-9.423578,0.800085,47.667187,-1.1173255,-1.9746149,-3.1424859,-0.6087769,0.27595437,-0.19131672,28.125,29.3125,28.4375,32.375,34.5625,35.5625
0.16605203,-0.2440403,-1.4360825,-0.20750144,-0.02895112,-0.0052694925,-0.17278565,-0.38753116,-0.3482666,0.060079474,3.074374,-0.6254536,-0.00026406738,-0.079191394,0.000741156,0.0008811957,-0.06369124,0.0072694756,-0.015422284,0.46924147,-1.418027,1.9489216,-2.1029952,-1.5674027,2.4450865,-0.10730684,0.100476325,-0.11160369,-0.024057964,0.053477563,-0.091740526,0.038307227,0.36391866,-9.32781,0.82694155,47.668976,-1.089808,-1.8862157,-3.0188475,-0.61638147,0.25239044,-0.22810179,28.125,29.3125,28.4375,32.375,34.5625,35.5625
0.16805254,-0.28754574,-1.3378437,-0.07348978,-0.033749472,-0.0018435817,-0.17490529,-0.38767433,-0.34827092,0.06009677,3.0742233,-0.62540156,-0.00021091365,-0.07801756,-0.00095036055,0.000539487,-0.06563916,0.004702488,-0.014152304,0.46902642,-1.4178704,1.9487056,-2.103007,-1.5672578,2.4448583,-0.105078705,0.101794735,-0.11258622,-0.022973575,0.056387182,-0.090774156,0.076614454,0.49799395,-9.193734,0.75755644,47.678825,-1.1579373,-1.9674056,-3.0311522,-0.65174407,0.2173172,-0.28638747,28.125,29.3125,28.4375,32.375,34.5625,35.5625
0.17005213,-0.17878512,-1.270521,0.030471774,-0.035900626,0.011542923,-0.1783165,-0.38782948,-0.34826705,0.060077637,3.0741057,-0.62551355,-0.00011996235,-0.07941301,-0.0010698037,0.0010911189,-0.06826258,0.0051430287,-0.015819829,0.4688095,-1.4176183,1.9484657,-2.1030314,-1.567149,2.4447265,-0.10745565,0.10232597,-0.11440443,-0.023248162,0.058534347,-0.09147901,0.019153614,0.4405331,-9.251195,0.8314132,47.684196,-1.2088507,-1.8748796,-3.0166316,-0.65510297,0.1789107,-0.26635903,28.125,29.3125,28.4375,32.375,34.5625,35.5625
0.17205253,-0.5367147,-0.9947929,-0.0274883,-0.027564745,0.0036739404,-0.17634451,-0.3880046,-0.34827968,0.060105007,3.0739012,-0.6255096,-0.00015477621,-0.07994038,-0.001086065,0.00014090301,-0.06864671,0.0036318242,-0.01757089,0.4685812,-1.417449,1.9482259,-2.103103,-1.567005,2.4445221,-0.108513385,0.1049761,-0.11511221,-0.023995437,0.05957524,-0.090775,0.038307227,0.34476504,-9.308656,0.7105615,47.728977,-1.1476964,-2.0469615,-3.008947,-0.680182,0.1283636,-0.31018722,28.125,29.3125,28.4375,32.375,34.5625,35.5625
0.17405193,-0.5733826,-0.7135182,-0.0047166403,-0.032022513,0.0108854165,-0.17415908,-0.3881907,-0.34828964,0.060137544,3.073745,-0.6254582,-0.00026498287,-0.08158316,-0.0015694917,0.0011501019,-0.07075582,0.005896256,-0.018190093,0.4683768,-1.4172688,1.9479617,-2.103175,-1.5669206,2.444306,-0.10964094,0.105328776,-0.11764664,-0.024767824,0.060450397,-0.09127128,0.0,0.36391866,-9.308656,0.75755644,47.6636,-1.2131085,-1.880872,-2.9585664,-0.67891514,0.12185351,-0.34069806,28.125,29.3125,28.4375,32.375,34.5625,35.5625
0.17605281,-0.8305921,-1.0571215,0.29643443,-0.022841273,0.019727997,-0.16931216,-0.38831845,-0.3482978,0.06009027,3.0736074,-0.6255472,-4.127318e-05,-0.08146875,-0.00021033539,-0.00048372493,-0.0689159,0.003490428,-0.020344246,0.4681601,-1.416992,1.9477605,-2.1032112,-1.5667404,2.4441624,-0.111537606,0.10702987,-0.115768395,-0.025339335,0.059900396,-0.09101775,-0.1340753,0.34476504,-9.193734,0.72622824,47.651955,-1.1614343,-1.9318626,-3.1437058,-0.6912359,0.09503269,-0.35188514,28.125,29.3125,28.4375,32.375,34.5625,35.5625
0.1780522,-0.16630742,0.037009712,0.304424,-0.02335933,0.03854673,-0.18700404,-0.38849142,-0.34830073,0.06010876,3.0734854,-0.6254823,-9.326662e-05,-0.08286164,-0.00027902442,-0.0014214222,-0.06807621,0.0027477585,-0.019601606,0.46795583,-1.4167982,1.9475073,-2.1032593,-1.566657,2.4439335,-0.11235653,0.11139178,-0.11853233,-0.025868224,0.059500515,-0.09257158,-0.05746084,0.22984336,-9.097966,0.8023209,47.677036,-1.1695923,-1.9652164,-2.9635353,-0.7003937,0.058275837,-0.38171268,28.125,29.3125,28.4375,32.375,34.5625,35.5625
0.18005179,-1.0191101,-0.06983058,0.08990361,0.008117263,0.0212154,-0.17513357,-0.38867432,-0.34830138,0.060120884,3.0733202,-0.6255232,-9.591104e-05,-0.084106274,0.00011883662,0.00030642468,-0.06885908,0.007064949,-0.01773049,0.4677155,-1.4165831,1.947244,-2.1033075,-1.5665373,2.4437401,-0.113324344,0.10851862,-0.118998505,-0.026693873,0.058276195,-0.095407315,-0.076614454,0.15322891,-9.174581,0.7732232,47.677036,-1.1268415,-1.9495983,-3.138626,-0.69544584,0.05723813,-0.37569392,28.125,29.3125,28.4375,32.375,34.5625,35.5625
0.1820524,-0.6144925,0.7308098,0.51401675,0.004874732,0.04575264,-0.18848437,-0.38884324,-0.34831008,0.060129218,3.0731704,-0.62551135,-0.0001218768,-0.08557506,0.0019350821,-0.001515926,-0.065373875,0.0052926084,-0.016353473,0.46751034,-1.4163772,1.9470056,-2.10338,-1.5664304,2.443547,-0.116329856,0.11288264,-0.119795546,-0.02705912,0.055993713,-0.09978725,-0.22984336,0.0,-9.11712,0.81351066,47.67614,-1.0864697,-1.9112188,-3.1705217,-0.70695406,0.06710769,-0.35592467,28.125,29.3125,28.4375,32.375,34.5625,35.5625
0.18405193,-1.3179275,0.98867863,0.4547646,0.02068169,0.04445665,-0.18114461,-0.38899857,-0.3483144,0.060107205,3.0730171,-0.625532,1.1349981e-05,-0.085990034,0.0019866882,-0.00043039536,-0.065097295,0.008807311,-0.009051483,0.4672708,-1.4161259,1.9467787,-2.1034276,-1.5662631,2.44334,-0.11557473,0.11076306,-0.11963063,-0.028052486,0.054194573,-0.10633687,-0.30645782,-0.17238252,-9.193734,0.81351066,47.657326,-1.2600682,-1.8017728,-3.261685,-0.71233773,0.05934322,-0.29161993,28.125,29.3125,28.4375,32.375,34.5625,35.5625
0.18605176,-0.92481875,1.6249642,0.43597418,0.028268717,0.06964489,-0.18706225,-0.38919565,-0.3483174,0.06014744,3.0728676,-0.6254998,-0.000110559486,-0.08859473,0.004019444,-0.0010636228,-0.06308951,0.008977493,-0.007239407,0.46705294,-1.4159443,1.9464897,-2.1034753,-1.5661911,2.4431217,-0.120264016,0.11373159,-0.1215633,-0.028281277,0.05236838,-0.11283253,-0.36391866,-0.076614454,-9.174581,0.8023209,47.68062,-0.9509759,-1.967448,-3.2614248,-0.7132573,0.06648235,-0.24961953,28.125,29.3125,28.4375,32.375,34.5625,35.5625
0.18805224,-1.2112703,1.5424614,0.56054366,0.03874853,0.07130522,-0.18622042,-0.38933486,-0.34831128,0.060115013,3.0727699,-0.62541896,2.8533994e-05,-0.08908225,0.0044250493,-0.0013134792,-0.061207663,0.009764329,-0.002468421,0.46682525,-1.415704,1.946299,-2.103524,-1.566048,2.442856,-0.12006924,0.114769004,-0.12215779,-0.028523488,0.05035644,-0.11741283,-0.3256114,-0.19153613,-9.11712,0.7709874,47.677036,-1.1552325,-1.8952856,-3.276743,-0.73877907,0.10673028,-0.17241564,28.125,29.3125,28.4375,32.375,34.5625,35.5625
0.19005185,-1.0683064,1.7420199,0.5870818,0.04137297,0.07904186,-0.19003022,-0.38951743,-0.34831065,0.06012854,3.0726209,-0.6253494,1.1488209e-05,-0.091179214,0.0063827983,-0.0019079541,-0.058960278,0.010506865,-0.0014978108,0.46658394,-1.415499,1.9460467,-2.1035836,-1.5659288,2.4425907,-0.12385774,0.1168037,-0.122979045,-0.029332153,0.04805042,-0.12217112,-0.40222588,-0.21068975,-9.136273,0.83813137,47.678825,-0.9765451,-1.9721906,-3.3051815,-0.745288,0.12006606,-0.10982071,28.125,29.3125,28.4375,32.375,34.5625,35.5625
0.19205226,-1.3762032,1.4480872,0.36070344,0.044504713,0.071660064,-0.18398574,-0.38969392,-0.34829256,0.06011213,3.0725272,-0.6254275,1.0732764e-05,-0.09249998,0.0068260008,-0.0017768013,-0.058669347,0.011603644,-0.004440644,0.46635556,-1.4152464,1.9458078,-2.1036441,-1.5658692,2.4424233,-0.12527761,0.11787636,-0.12443387,-0.029785067,0.047301374,-0.12064678,-0.61291564,-0.22984336,-9.193734,0.73741806,47.72002,-0.9252293,-1.8726448,-3.338824,-0.7433225,0.13306591,-0.07543543,28.125,29.3125,28.4375,32.375,34.5625,35.5625
0.19405173,-1.3975558,1.16738,0.2725616,0.04098217,0.07328515,-0.18157957,-0.3898694,-0.3482503,0.06009421,3.07243,-0.62544745,9.951123e-05,-0.09389999,0.007630417,-0.001766365,-0.05753256,0.012310923,-0.0077050026,0.4660549,-1.415018,1.9455918,-2.1036675,-1.5657619,2.4421477,-0.12702608,0.119235784,-0.12609343,-0.029581279,0.045971494,-0.11913257,-0.6703765,-0.28730422,-9.289503,0.8179876,47.687782,-0.88795996,-1.9010353,-3.3655365,-0.75387454,0.15641335,-0.091153935,28.125,29.3125,28.4375,32.375,34.5625,35.5625
0.19605231,-1.5968372,0.6046452,0.35027793,0.03254669,0.08382131,-0.18375781,-0.390049,-0.34822443,0.060067665,3.072339,-0.62550706,0.00012527025,-0.09469196,0.0084272,-0.0016113278,-0.05474535,0.014283898,-0.010947971,0.46580288,-1.4147534,1.9453648,-2.103739,-1.5656909,2.4419448,-0.12690437,0.1195449,-0.12682343,-0.029655518,0.04259387,-0.11577388,-0.7086837,-0.11492168,-9.32781,0.8605109,47.69763,-0.99643004,-1.965169,-3.4192867,-0.76654685,0.21516173,-0.09033645,28.125,29.3125,28.4375,32.375,34.5625,35.5625
0.19805172,-2.446091,0.2628265,0.053044487,0.01865166,0.07814987,-0.16721381,-0.3902559,-0.34821486,0.060098745,3.0721934,-0.62550026,-8.729684e-06,-0.09563651,0.008990952,-0.0027831094,-0.05483632,0.012204477,-0.017415814,0.46556222,-1.4145602,1.9450887,-2.1038115,-1.5656303,2.441719,-0.12932587,0.12268115,-0.12766251,-0.030142123,0.04361669,-0.11171747,-0.842759,-0.05746084,-9.3661175,0.8023209,47.687782,-1.0256411,-1.8335788,-3.4491425,-0.7747942,0.24366336,-0.15168661,28.125,29.3125,28.4375,32.375,34.5625,35.5625
0.20005226,-2.361762,-0.26654217,-0.2571316,0.0047221705,0.09942894,-0.17437792,-0.39044657,-0.34820652,0.060090046,3.0721028,-0.62546146,1.0987535e-05,-0.09698593,0.006467405,-0.00045474278,-0.05788868,0.016929915,-0.018147262,0.4653233,-1.4142843,1.9447998,-2.1038473,-1.5655464,2.4414678,-0.12638299,0.12245631,-0.13264103,-0.030532472,0.044211708,-0.10803717,-0.7661445,0.076614454,-9.3661175,0.8940802,47.68062,-1.1624382,-1.8589466,-3.3776798,-0.7897558,0.25331378,-0.21206538,28.125,29.3125,28.4375,32.375,34.5625,35.5625
0.20205174,-1.8025936,-0.056768358,-0.28025737,-0.024151921,0.104307935,-0.17790349,-0.39063594,-0.34816715,0.060080625,3.0720012,-0.62561667,2.712748e-05,-0.097526476,0.0075266594,-0.0016083756,-0.058521505,0.014392199,-0.024638694,0.46504593,-1.414043,1.9445494,-2.1038716,-1.5654858,2.4413006,-0.12975606,0.124114916,-0.13182953,-0.031021632,0.045918427,-0.10491305,-0.7086837,0.17238252,-9.442732,0.779936,47.674347,-1.0688258,-1.8701298,-3.437635,-0.78653455,0.2639025,-0.2551213,28.125,29.3125,28.4375,32.375,34.5625,35.5625
0.20405217,-1.8791622,-0.4693123,-0.45009464,-0.03135789,0.077758916,-0.18132763,-0.39082658,-0.34815127,0.06007111,3.0718899,-0.62561065,1.787418e-05,-0.09906991,0.0069428766,-0.0009326319,-0.05891184,0.017445276,-0.024019023,0.4647943,-1.4137906,1.9442977,-2.103944,-1.5654024,2.4410598,-0.12937856,0.1252859,-0.13440491,-0.032496087,0.044908177,-0.10515308,-0.6703765,0.2681506,-9.634268,0.8672237,47.65464,-1.2326062,-1.8703978,-3.3562567,-0.79381347,0.30384913,-0.2980452,28.125,29.3125,28.4375,32.375,34.5625,35.5625
0.20605175,-1.7628281,-0.9880381,-0.6056298,-0.042390175,0.060578775,-0.17068766,-0.3910373,-0.3481296,0.060078856,3.0717807,-0.62564856,-2.8501636e-05,-0.101331756,0.0070686047,-0.00072408415,-0.05891227,0.019589605,-0.029010797,0.46452978,-1.4135375,1.9439973,-2.1039803,-1.5653423,2.4408333,-0.13091575,0.1277545,-0.13744003,-0.033843413,0.043943614,-0.10169537,-0.61291564,0.34476504,-9.672575,0.78217715,47.63315,-1.1427004,-1.955271,-3.3737106,-0.7802193,0.3459382,-0.34894362,28.125,29.3125,28.4375,32.375,34.5625,35.5625
0.20805226,-1.7167512,-1.4219882,-0.72519743,-0.05280436,0.049033996,-0.16775368,-0.3912238,-0.3481066,0.06004475,3.0716493,-0.6257179,1.8181141e-05,-0.101193495,0.0074945847,-0.001389543,-0.060365103,0.017986828,-0.030399276,0.4642531,-1.4132613,1.9437822,-2.104088,-1.5652331,2.440617,-0.13277121,0.12785125,-0.13585538,-0.034723826,0.045980506,-0.10215544,-0.63206923,0.38307226,-9.749189,0.8560339,47.68599,-1.1168664,-1.8210527,-3.4657981,-0.78918874,0.372206,-0.4130456,28.125,29.3125,28.4375,32.375,34.5625,35.5625
0.21005175,-1.2015148,-1.9781342,-0.9552294,-0.052048687,0.051418114,-0.16887102,-0.39144292,-0.34809554,0.060067605,3.0714679,-0.6258151,-5.4304048e-05,-0.10347876,0.0061386144,-3.5746505e-06,-0.06441136,0.021314688,-0.03240117,0.4639769,-1.4130327,1.9434813,-2.104149,-1.5651368,2.4404254,-0.13369116,0.12885435,-0.13974023,-0.03662009,0.048117686,-0.10105898,-0.36391866,0.40222588,-9.959879,0.8717007,47.675243,-1.1384645,-1.7927439,-3.278195,-0.78312385,0.36738473,-0.4409755,28.125,29.3125,28.4375,32.375,34.5625,35.5625
0.21205227,-1.0366361,-1.9845237,-0.79935664,-0.073671356,0.054000854,-0.18265621,-0.3916628,-0.34809592,0.060063023,3.071302,-0.6258375,-9.4532385e-05,-0.10465076,0.005741312,-0.0012906549,-0.06594924,0.020655276,-0.0317302,0.46371248,-1.4127431,1.9431838,-2.1042578,-1.5650281,2.4401968,-0.13502906,0.13275222,-0.14060777,-0.03971971,0.04981241,-0.10305582,-0.30645782,0.51714754,-9.921572,0.8179876,47.719128,-1.170541,-1.7828697,-3.360444,-0.75312805,0.37853235,-0.49080408,28.125,29.3125,28.4375,32.375,34.5625,35.5625
0.21405168,-1.1250505,-1.4372714,-0.70515996,-0.08066455,0.045722224,-0.17900229,-0.39188474,-0.34806806,0.060075544,3.0711489,-0.6259941,-0.0001195987,-0.10624488,0.0048777894,0.00029231486,-0.06910851,0.02396718,-0.02656425,0.46341243,-1.4124912,1.942871,-2.1042817,-1.5649441,2.4400146,-0.13571505,0.13200635,-0.14312723,-0.040777337,0.051199883,-0.108898304,-0.24899697,0.6512228,-9.844957,0.87617236,47.687782,-1.1926917,-1.8790827,-3.2756834,-0.7337245,0.3967803,-0.47182247,28.125,29.3125,28.4375,32.375,34.5625,35.5625
0.21605234,-0.6095038,-1.1693993,-0.7445113,-0.061648645,0.03777672,-0.1864087,-0.39208978,-0.34807184,0.060067505,3.0709958,-0.62593913,-0.00013595392,-0.1064495,0.004406493,-0.0009599665,-0.06937043,0.0210476,-0.018791674,0.4631599,-1.4122132,1.9425944,-2.1043894,-1.5648235,2.4397478,-0.13600421,0.13587095,-0.14484614,-0.040360942,0.05279817,-0.11694855,-0.076614454,0.45968673,-9.883265,0.779936,47.672558,-1.1436541,-2.042407,-3.2758222,-0.73306215,0.41053092,-0.42513865,28.125,29.3125,28.4375,32.375,34.5625,35.5625
0.2180524,-0.7621783,-1.2502308,-0.8081881,-0.042164914,0.011841739,-0.1679822,-0.39231366,-0.3480487,0.06006228,3.0708447,-0.62600046,-0.00016182837,-0.10956875,0.0050104517,-0.0004779228,-0.07275276,0.02348901,-0.015383488,0.46285832,-1.4119368,1.9423078,-2.1044748,-1.5647262,2.4395044,-0.14101073,0.13719745,-0.14680173,-0.04335686,0.05478949,-0.12535045,0.05746084,0.4405331,-9.768343,0.8224646,47.672558,-1.0634586,-2.0152423,-3.274434,-0.6903603,0.4092003,-0.33956122,28.125,29.3125,28.4375,32.375,34.5625,35.5625
0.22005202,0.03400273,-0.3411787,-0.6074793,-0.044737853,0.010395499,-0.1825435,-0.39256892,-0.34805307,0.060089175,3.0706203,-0.62604487,-0.00030977832,-0.11022179,0.0035673855,-0.0010959778,-0.07497619,0.023796711,-0.0074204593,0.4625707,-1.4116713,1.9419717,-2.1046073,-1.564618,2.439274,-0.14016603,0.14024815,-0.1482887,-0.04612301,0.056708407,-0.13244976,0.076614454,0.4405331,-9.749189,0.8493211,47.668976,-1.1521956,-2.1546035,-3.2353387,-0.6397889,0.4028896,-0.27617082,28.125,29.3125,28.4375,32.375,34.5625,35.5625
0.22205253,-0.14793427,-0.6851562,-0.78472006,-0.025073234,-0.012394731,-0.17714524,-0.39276975,-0.3480303,0.060068958,3.0705218,-0.62602246,-0.00032804048,-0.11220041,0.0031449872,-0.000651927,-0.07801743,0.026042765,-0.0051223603,0.46230608,-1.4113947,1.9417213,-2.1047037,-1.564545,2.4390085,-0.14220613,0.14144966,-0.15007733,-0.04885793,0.05846394,-0.13677655,0.2681506,0.36391866,-9.5385,0.8247004,47.698532,-1.0433102,-2.1069582,-3.2414887,-0.58808506,0.42060935,-0.21181752,28.125,29.3125,28.4375,32.375,34.5625,35.5625
0.22405207,0.26267546,-0.9690082,-0.44895697,-0.027097173,-0.012009777,-0.17815284,-0.3929867,-0.34804362,0.060071543,3.0703318,-0.6258857,-0.0003270139,-0.1123687,0.003228207,-0.0010704974,-0.07996871,0.023433872,-0.003939922,0.46202946,-1.4111181,1.9414219,-2.1048105,-1.5643758,2.4386714,-0.14429569,0.14250655,-0.15057576,-0.04790191,0.061425265,-0.14003019,0.19153613,0.3256114,-9.461885,0.7978386,47.705692,-1.0845191,-2.0881345,-3.264257,-0.55861115,0.40020847,-0.13842887,28.125,29.3125,28.4375,32.375,34.5625,35.5625
0.22605175,-0.36687365,-0.96504027,-0.45269477,-0.03234548,-0.03622913,-0.17125195,-0.39323467,-0.34803256,0.06009956,3.070145,-0.6259058,-0.00044115016,-0.11239298,0.0028562127,-0.0012076846,-0.081768006,0.020832198,-0.005921656,0.46172902,-1.4108657,1.9410866,-2.104894,-1.564279,2.4384081,-0.14534707,0.14370027,-0.15207769,-0.046050295,0.06423142,-0.13907844,0.11492168,0.2681506,-9.442732,0.8806493,47.65643,-0.9844848,-2.035519,-3.372778,-0.55882806,0.38592076,-0.16439718,28.125,29.3125,28.4375,32.375,34.5625,35.5625
0.22805227,0.43711108,-0.76845926,-0.41583058,-0.03400954,-0.020276548,-0.17223912,-0.3934802,-0.3480347,0.06009866,3.0699062,-0.6259777,-0.00048133155,-0.11336147,0.0034539318,-0.0015821458,-0.08588784,0.018217858,-0.018173542,0.46141523,-1.4105649,1.9407758,-2.105038,-1.5641211,2.4381707,-0.15024045,0.14434873,-0.15190032,-0.04639317,0.06908218,-0.1316905,0.076614454,0.28730422,-9.346964,0.8717007,47.67614,-0.9565413,-2.1220574,-3.2278585,-0.5242279,0.34955114,-0.20117009,28.125,29.3125,28.4375,32.375,34.5625,35.5625
0.23005176,0.11049689,-0.79268396,-0.32543114,-0.025206404,-0.016593266,-0.17621574,-0.39371413,-0.34804824,0.060107738,3.0697076,-0.6259761,-0.00050480705,-0.112843096,0.0012265438,-0.0021427164,-0.08853275,0.015288419,-0.02054405,0.4611402,-1.4102634,1.9404272,-2.1051214,-1.5639762,2.4379208,-0.14810295,0.1477034,-0.15471633,-0.04549083,0.07275706,-0.12715665,-0.05746084,0.28730422,-9.289502,0.8717007,47.69763,-0.97026014,-2.1650395,-3.183074,-0.50093824,0.30524287,-0.26663637,28.125,29.3125,28.4375,32.375,34.5625,35.5625
0.23205239,-0.4262653,-0.5865022,-0.11852781,-0.015540084,-0.014207095,-0.17038867,-0.39392704,-0.34805024,0.060116395,3.0695279,-0.6259591,-0.0004968575,-0.112735815,0.0012016271,-0.0017589476,-0.091897584,0.013287283,-0.02426575,0.4608632,-1.4099994,1.9401172,-2.1051805,-1.5638307,2.4376569,-0.15037104,0.14656274,-0.15458247,-0.044173837,0.07668374,-0.12567934,-0.1340753,0.21068975,-9.155427,0.779936,47.707485,-0.81298494,-2.082024,-3.3596354,-0.49502555,0.23203257,-0.30313006,28.125,29.3125,28.4375,32.375,34.5625,35.5625
0.23405227,-0.55843323,0.08828804,0.0948485,-0.009619041,0.005077977,-0.17819983,-0.39415142,-0.34804627,0.060095645,3.0693116,-0.6259912,-0.00048244616,-0.1126974,0.0012267334,-0.0020939056,-0.091799185,0.011206997,-0.02539633,0.46055123,-1.4096988,1.939854,-2.1053355,-1.5636624,2.4373934,-0.15082668,0.14788714,-0.15579739,-0.042338915,0.077548936,-0.12499144,-0.15322891,0.21068975,-9.155427,0.8314132,47.688675,-0.883127,-2.0164855,-3.4599273,-0.48461318,0.21790272,-0.35103613,28.125,29.3125,28.4375,32.375,34.5625,35.5625
0.23605226,-0.74971557,0.7753476,0.3556792,-0.0039537996,0.027886007,-0.17599763,-0.39437866,-0.3480481,0.060093675,3.0690913,-0.6260608,-0.0004290191,-0.112286426,0.0007038435,-0.0020656637,-0.094321206,0.0088746315,-0.027058741,0.46023893,-1.4093986,1.9395293,-2.105407,-1.5634812,2.4371536,-0.15155366,0.14793804,-0.15625633,-0.040933505,0.08086891,-0.12403401,-0.22984336,0.11492168,-9.002198,0.8403672,47.68599,-1.0018317,-1.9980617,-3.3844838,-0.4770904,0.17040056,-0.35174173,28.125,29.3125,28.4375,32.375,34.5625,35.5625
0.23805186,-0.8357678,0.92712104,0.26318264,0.02104135,0.036575407,-0.17600694,-0.39459977,-0.3480532,0.060101923,3.0688663,-0.6261271,-0.0003894447,-0.11335013,0.000447466,-0.00094933016,-0.094693705,0.009909444,-0.02425242,0.45993894,-1.4091222,1.939206,-2.1054661,-1.5633014,2.4369247,-0.15187778,0.14815918,-0.15954596,-0.038887847,0.08078782,-0.1271555,-0.24899697,0.05746084,-9.040505,0.84708,47.703903,-1.0508572,-1.9129738,-3.280303,-0.49016804,0.10788649,-0.37895387,28.125,29.3125,28.4375,32.375,34.5625,35.5625
0.24005248,-1.4145031,0.76230633,0.52941674,0.03532475,0.036958285,-0.17369539,-0.39484876,-0.3480723,0.060122512,3.0686476,-0.6261196,-0.00045895102,-0.115095876,0.0008004694,-0.00036418225,-0.09443489,0.010543397,-0.02429817,0.45966244,-1.4088213,1.9388345,-2.1055615,-1.5631579,2.4366724,-0.15361702,0.1497363,-0.16308975,-0.037319582,0.08031614,-0.12883665,-0.3256114,0.076614454,-8.983045,0.84708,47.645687,-1.0307553,-1.9207779,-3.2510147,-0.47477758,0.10366731,-0.39529973,28.125,29.3125,28.4375,32.375,34.5625,35.5625
0.24205224,-1.1920482,0.82341486,0.3295605,0.043747596,0.043608915,-0.18755078,-0.39508268,-0.34804973,0.060107864,3.0684845,-0.6261377,-0.00041056573,-0.1161596,0.0013873945,-0.000766068,-0.09198221,0.0102582155,-0.016428562,0.4593261,-1.4085077,1.9385227,-2.105633,-1.5630144,2.436369,-0.15419728,0.15242322,-0.16562906,-0.03600686,0.07832076,-0.13728988,-0.38307226,0.019153614,-9.11712,0.8179876,47.67345,-0.97639215,-2.0286815,-3.205608,-0.49495572,0.08978218,-0.31569928,28.125,29.3125,28.4375,32.375,34.5625,35.5625
0.2440518,-1.4637781,1.1334993,0.2721509,0.028978672,0.055621505,-0.17806385,-0.39530236,-0.3480557,0.060113586,3.0682962,-0.62611455,-0.00036796884,-0.117078565,0.003301709,-0.0015469915,-0.08703145,0.009751986,-0.010720516,0.4590377,-1.4082191,1.938188,-2.1056798,-1.5628475,2.436091,-0.15562595,0.15451123,-0.16673033,-0.034229755,0.074181005,-0.14443988,-0.4213795,0.0,-9.11712,0.8291774,47.67614,-0.9654764,-1.9051723,-3.2001367,-0.50237024,0.10155584,-0.24636164,28.125,29.3125,28.4375,32.375,34.5625,35.5625
0.24605238,-1.9168515,0.617117,0.10041903,0.031753868,0.073767476,-0.17631704,-0.3955287,-0.34806883,0.060114037,3.0680833,-0.62608457,-0.0003479711,-0.11890701,0.005073288,-0.00025275847,-0.08465568,0.012761595,-0.0048376443,0.45874906,-1.4079195,1.9378637,-2.105775,-1.5626692,2.4358118,-0.15807782,0.15310493,-0.16847014,-0.03260392,0.07080303,-0.15278329,-0.6512229,0.019153614,-9.097966,0.8112748,47.674347,-1.0914549,-1.8679317,-3.2071793,-0.5413116,0.13304918,-0.16114832,28.125,29.3125,28.4375,32.375,34.5625,35.5625
0.24805209,-2.4375913,0.4411722,0.1025019,0.02625638,0.104737796,-0.18063267,-0.39574644,-0.34803563,0.06007026,3.0679753,-0.6260798,-0.00017113509,-0.11908868,0.005460096,-0.0005125392,-0.08107612,0.012883563,-0.000632236,0.45840147,-1.4075587,1.9375523,-2.1057985,-1.5625142,2.4354753,-0.15674734,0.15469801,-0.17017204,-0.03093693,0.067570716,-0.15567596,-0.7278373,0.019153614,-9.232041,0.84708,47.683304,-1.1216557,-1.8643376,-3.240241,-0.5516626,0.16382769,-0.06403214,28.125,29.3125,28.4375,32.375,34.5625,35.5625
0.25005174,-3.0299878,0.24261992,0.21446177,0.030473376,0.10324107,-0.1701463,-0.39600068,-0.34800714,0.060069717,3.0678115,-0.6261241,-0.00017595133,-0.11969901,0.0061699944,-0.00019299438,-0.07915947,0.013860438,-0.0028812543,0.4580533,-1.4072461,1.9372066,-2.1058586,-1.562395,2.4351766,-0.15704778,0.1547179,-0.1712059,-0.029917844,0.06543796,-0.15373193,-0.6895301,0.11492168,-9.270349,0.87617236,47.66539,-1.205037,-1.8369757,-3.1278696,-0.5660098,0.17796716,-0.06811596,28.125,29.3125,28.4375,32.375,34.5625,35.5625
0.25205222,-2.6307936,0.7358845,0.102469966,0.015194444,0.11874389,-0.1671445,-0.39626068,-0.3480179,0.060087174,3.0676544,-0.62599754,-0.0002678204,-0.12134399,0.006701879,-0.00045619023,-0.0768745,0.014739675,-0.008578525,0.45777726,-1.406921,1.9368109,-2.105942,-1.5622882,2.4348426,-0.15774727,0.15766776,-0.17411418,-0.029736688,0.06299701,-0.14873526,-0.7469909,0.095768064,-9.346964,0.784413,47.689575,-1.1836072,-1.8747742,-3.116549,-0.5886073,0.21423867,-0.08731933,28.125,29.3125,28.4375,32.375,34.5625,35.5625
0.25405204,-1.9199971,0.36092195,-0.1887991,0.018363658,0.10901006,-0.17142053,-0.3964641,-0.34796438,0.060047563,3.0675325,-0.6261667,-0.0001367831,-0.121275134,0.007618859,-0.0028115048,-0.07364289,0.011515367,-0.0138145005,0.45742926,-1.4066191,1.9365605,-2.1059778,-1.562168,2.4346163,-0.1582456,0.1619929,-0.17373,-0.030120973,0.061503902,-0.14400585,-0.59376204,0.17238252,-9.3661175,0.900793,47.66271,-1.3295808,-2.009512,-3.3818214,-0.5985464,0.27087253,-0.14522159,28.125,29.3125,28.4375,32.375,34.5625,35.5625
0.25605264,-1.7018687,0.16657539,-0.2193723,0.010462874,0.07135834,-0.1705275,-0.396736,-0.34795824,0.060044408,3.067364,-0.62619215,-0.00015692256,-0.12180401,0.007340819,-0.0021825896,-0.07413368,0.013424172,-0.020506214,0.45710546,-1.4062473,1.9361547,-2.1060498,-1.5620483,2.434331,-0.15781854,0.16150717,-0.17448191,-0.030835453,0.06107926,-0.13688244,-0.51714754,0.05746084,-9.32781,0.82022345,47.66808,-1.3094492,-1.8233758,-3.3093476,-0.59651995,0.27729252,-0.24411936,28.125,29.3125,28.4375,32.375,34.5625,35.5625
0.25805247,-1.248185,-0.38044226,-0.32510608,0.0010624299,0.04807958,-0.16712585,-0.39698443,-0.34791285,0.060035653,3.067222,-0.62629974,-0.00018313198,-0.1237224,0.008391264,-0.0021452603,-0.07415214,0.014176124,-0.02580314,0.45675606,-1.4059463,1.9358433,-2.1061223,-1.5619644,2.4340677,-0.16101687,0.16287893,-0.17609888,-0.031257648,0.060772166,-0.1347796,-0.4405331,0.15322891,-9.308656,0.8873621,47.67614,-1.1738372,-1.9867606,-3.288248,-0.5904043,0.31205222,-0.27074355,28.125,29.3125,28.4375,32.375,34.5625,35.5625
0.2600521,-0.6354731,0.054152586,-0.44820112,-0.017957443,0.030559279,-0.16648217,-0.39725184,-0.34790653,0.06004598,3.067067,-0.6263071,-0.00021389704,-0.1251354,0.008334885,-0.0024116903,-0.07567344,0.013824098,-0.031059556,0.45644364,-1.4055967,1.9354242,-2.106158,-1.5618562,2.4337807,-0.16298501,0.16526154,-0.17812403,-0.031970754,0.062292166,-0.13147525,-0.34476504,0.17238252,-9.404425,0.91421866,47.661808,-1.2442806,-2.0780342,-3.1851625,-0.6129399,0.35353237,-0.35461712,28.125,29.3125,28.4375,32.375,34.5625,35.5625
0.26205167,-0.43191907,-0.77400565,-0.70821774,-0.0008652122,0.015805816,-0.16050969,-0.39750582,-0.34788394,0.060032323,3.066885,-0.62642527,-0.0002195408,-0.12646234,0.00894142,-0.0029225647,-0.07704049,0.012499627,-0.036520973,0.4561064,-1.40526,1.935088,-2.1062539,-1.561735,2.4335415,-0.166232,0.16732173,-0.17932187,-0.03223583,0.06411178,-0.12924397,-0.30645782,0.22984336,-9.519346,0.8873621,47.703903,-1.1244909,-2.1893418,-3.3401003,-0.60904163,0.346003,-0.41886234,28.125,29.3125,28.4375,32.375,34.5625,35.5625
0.2640522,-0.46628147,-0.6279931,-0.63514125,-0.017936774,0.01923233,-0.16453862,-0.3977652,-0.34787834,0.060037136,3.0666533,-0.6264927,-0.0001954839,-0.12732409,0.010307365,-0.0036306635,-0.07593816,0.0115634175,-0.038050618,0.45575732,-1.4049351,1.9347185,-2.1063254,-1.5615553,2.4332654,-0.16890202,0.16860618,-0.17925198,-0.03220645,0.06357309,-0.13038036,-0.095768064,0.22984336,-9.481039,0.8224646,47.661808,-0.96836317,-2.1844163,-3.3662932,-0.6306875,0.38844734,-0.46867716,28.125,29.3125,28.4375,32.375,34.5625,35.5625
0.26605165,-0.5215827,-0.56816095,-0.7266573,-0.03297545,0.0115272235,-0.17049384,-0.39801756,-0.347849,0.06002636,3.0665305,-0.6265779,-0.00019049423,-0.12796979,0.009691059,-0.003129533,-0.07826269,0.011496926,-0.033000812,0.45543316,-1.4045866,1.934348,-2.1063616,-1.5614704,2.433011,-0.16963573,0.16912165,-0.18113421,-0.031725757,0.06575051,-0.13614736,0.0,0.3256114,-9.32781,0.9097417,47.65912,-1.0039935,-2.2252996,-3.4051332,-0.63643014,0.39842767,-0.4568957,28.125,29.3125,28.4375,32.375,34.5625,35.5625
0.2680523,-0.33193082,-1.009018,-0.771647,-0.030676529,0.013103928,-0.17215651,-0.3982857,-0.34780657,0.05998899,3.0663912,-0.62667733,-0.00011918652,-0.12749782,0.008383126,-0.0040353728,-0.08072404,0.007962232,-0.02204251,0.45504922,-1.4041888,1.9339889,-2.1064327,-1.5613488,2.4327078,-0.16924433,0.17203245,-0.18268251,-0.030869225,0.06961181,-0.14668967,0.095768064,0.34476504,-9.423578,0.8605109,47.65912,-1.0480365,-2.2222686,-3.4111202,-0.6646979,0.37683767,-0.36757636,28.125,29.3125,28.4375,32.375,34.5625,35.5625
0.27005175,-0.8488121,-1.5609329,-0.83869755,-0.029413037,0.0019286255,-0.15906179,-0.39853796,-0.34780675,0.060005486,3.0661728,-0.62668157,-0.00012513279,-0.12876925,0.008369137,-0.0043285554,-0.081013255,0.0083114775,-0.011088763,0.45472485,-1.403888,1.933618,-2.1064932,-1.561181,2.4324152,-0.17032997,0.17443019,-0.18467301,-0.03155687,0.06983437,-0.1587186,0.05746084,0.3256114,-9.3661175,0.842603,47.67345,-1.0306094,-2.3067153,-3.3385243,-0.68085724,0.38528857,-0.28585953,28.125,29.3125,28.4375,32.375,34.5625,35.5625
0.27205232,-0.025582181,-0.94427174,-0.6060066,-0.034063544,0.011349534,-0.17598487,-0.39877865,-0.34777012,0.059977405,3.0660677,-0.6266788,-2.9169576e-05,-0.13077018,0.008631384,-0.003366353,-0.084550984,0.01003668,-0.009253277,0.45437568,-1.4035279,1.9332703,-2.1065176,-1.5610598,2.4320784,-0.1739575,0.17407994,-0.1862302,-0.032665547,0.07230724,-0.16416594,0.05746084,0.3256114,-9.442732,0.83813137,47.707485,-0.99861664,-2.2322614,-3.3706393,-0.6678444,0.40084225,-0.18223831,28.125,29.3125,28.4375,32.375,34.5625,35.5625
0.27405205,-0.2821779,-0.4050392,-0.44085187,-0.048541985,-0.0012375261,-0.15856738,-0.39907947,-0.34777033,0.05998853,3.0658653,-0.62665325,-0.00013701212,-0.13074693,0.007509865,-0.0036289832,-0.08774149,0.008288413,-0.006740592,0.4540399,-1.4031551,1.9328412,-2.1066372,-1.5609392,2.4317539,-0.17416257,0.17554742,-0.18732749,-0.032807358,0.076003365,-0.16684824,0.11492168,0.30645782,-9.519346,0.88960326,47.694946,-1.004987,-2.2785661,-3.4191937,-0.6734816,0.37308586,-0.1384983,28.125,29.3125,28.4375,32.375,34.5625,35.5625
0.27605268,0.31327423,-0.8632037,-0.3790118,-0.035349958,0.0022947516,-0.1712463,-0.3992892,-0.3477798,0.05995854,3.0656583,-0.62659323,7.275702e-05,-0.13166709,0.0076056593,-0.0031499993,-0.09082107,0.006932113,-0.012248613,0.45371488,-1.4028069,1.9325179,-2.1066844,-1.5606855,2.4314187,-0.17713022,0.17571992,-0.1889457,-0.031463355,0.079364486,-0.16428526,-0.095768064,0.40222588,-9.385271,0.7777002,47.691364,-0.88586444,-2.2738194,-3.4039707,-0.6991826,0.30942413,-0.1271742,28.125,29.3125,28.4375,32.375,34.5625,35.5625
0.2780523,0.09875242,-0.6955773,-0.5607954,-0.028971726,-0.0058420445,-0.1627971,-0.3995904,-0.3477456,0.05996404,3.0654523,-0.626688,7.307471e-06,-0.13185441,0.006472476,-0.0040343655,-0.09390543,0.003732005,-0.019596634,0.4533187,-1.4024571,1.9321226,-2.1067803,-1.5605644,2.4311094,-0.17778222,0.17900056,-0.19077343,-0.031422235,0.08352425,-0.15755036,-0.038307227,0.4213795,-9.289502,0.8851263,47.661808,-0.83432376,-2.2134671,-3.361832,-0.73403573,0.2959022,-0.17616582,28.125,29.3125,28.4375,32.375,34.5625,35.5625
0.28005192,-0.38074556,-0.6070827,-0.57715756,-0.016199084,-0.016360443,-0.15579617,-0.39984795,-0.347733,0.05995231,3.0652838,-0.62675023,6.634282e-05,-0.13264807,0.0049678735,-0.0024170016,-0.099396884,0.0062388065,-0.025247445,0.4529828,-1.4020855,1.9317273,-2.106817,-1.560419,2.430835,-0.17810243,0.1771873,-0.19197732,-0.03308045,0.08734088,-0.1521899,-0.038307227,0.30645782,-9.442732,0.9455522,47.652847,-0.8520539,-2.0567093,-3.4128504,-0.72861946,0.26622236,-0.26427892,28.125,29.3125,28.4375,32.375,34.5625,35.5625
0.2820525,-0.23100135,-0.8801199,-0.57064366,-0.02833644,0.00970848,-0.16127114,-0.40012467,-0.34772593,0.05996215,3.065044,-0.6267597,8.387786e-05,-0.1341793,0.0036084426,-0.0010939806,-0.104453474,0.0070699565,-0.028378325,0.45261002,-1.4017494,1.9313325,-2.1068885,-1.5602254,2.4305003,-0.17953949,0.17772312,-0.19565952,-0.032864444,0.09154172,-0.1504561,0.076614454,0.28730422,-9.481039,0.8112748,47.67793,-0.830948,-2.114478,-3.3497205,-0.7525371,0.18585572,-0.31546956,28.125,29.3125,28.4375,32.375,34.5625,35.5625
0.28405207,-0.58135855,-0.835807,-0.46684203,-0.02538236,0.014848423,-0.17112607,-0.4003787,-0.3477104,0.05993719,3.0648458,-0.62683374,0.00017973954,-0.13423671,0.0030200933,-0.0019280412,-0.10611221,0.0047316467,-0.03251621,0.45224997,-1.401376,1.9309734,-2.1069605,-1.5600442,2.430213,-0.18000266,0.18013535,-0.19657502,-0.032971174,0.09405107,-0.14675902,0.019153614,0.2681506,-9.404425,0.8672237,47.66091,-1.0013231,-2.1429546,-3.4447749,-0.75894487,0.14605418,-0.3564769,28.125,29.3125,28.4375,32.375,34.5625,35.5625
0.28605172,-0.44865173,-0.17965469,-0.68647397,-0.019488774,0.030129202,-0.16311035,-0.40067607,-0.3477348,0.059962165,3.064521,-0.6268791,0.00019479409,-0.13507879,0.0019556803,-0.0014051385,-0.1094295,0.0055554323,-0.030838244,0.4518779,-1.4010153,1.930519,-2.1070445,-1.5597914,2.4299128,-0.18038695,0.18083298,-0.19834943,-0.033999767,0.09673094,-0.1487864,-0.038307227,0.3256114,-9.615114,0.83589023,47.684196,-1.0408851,-2.2135367,-3.3729038,-0.78214115,0.09772288,-0.38280556,28.125,29.3125,28.4375,32.375,34.5625,35.5625
0.28805214,-0.9412824,-0.07037923,-0.40761548,-0.019501213,0.042471327,-0.16999133,-0.40091687,-0.3477091,0.059911244,3.0643702,-0.6269018,0.0003876652,-0.13582745,0.002280271,-0.0009768822,-0.10832111,0.007226202,-0.02663983,0.45150584,-1.4006069,1.9301723,-2.1070921,-1.5596007,2.429575,-0.18039413,0.1809162,-0.19953492,-0.033800174,0.09505428,-0.15300502,-0.019153614,0.3256114,-9.576807,0.91198283,47.698532,-1.0793642,-2.0582213,-3.3114614,-0.80396163,0.025080405,-0.40165702,28.125,29.3125,28.4375,32.375,34.5625,35.5625
0.29005182,-0.8082011,0.3762779,-0.5662649,-0.012406171,0.053535547,-0.17589901,-0.4011648,-0.3476972,0.059902616,3.0642197,-0.62692225,0.00046118794,-0.13702987,0.0030196402,-0.0007406555,-0.106351614,0.008077381,-0.018233301,0.45118177,-1.400246,1.9297761,-2.1071036,-1.5594567,2.4292839,-0.18128803,0.18213734,-0.2018774,-0.03242145,0.093009695,-0.1623152,-0.05746084,0.24899697,-9.615114,0.9298854,47.672558,-1.0735345,-2.1042407,-3.292881,-0.8198385,0.046935797,-0.3150163,28.125,29.3125,28.4375,32.375,34.5625,35.5625
0.2920524,-0.80851346,0.13863039,-0.7454262,-0.0053588618,0.07125951,-0.16714625,-0.4014288,-0.34768036,0.05987745,3.06405,-0.62688136,0.00052657176,-0.13816047,0.003968984,-0.001204164,-0.10298279,0.010170107,-0.009689408,0.4508217,-1.3998609,1.929406,-2.107188,-1.5592908,2.428921,-0.18133688,0.18386365,-0.20263769,-0.033630908,0.089162804,-0.17092851,-0.076614454,0.2681506,-9.710882,0.8179876,47.694946,-1.151336,-2.2362523,-3.4676948,-0.84250826,0.0559785,-0.20451558,28.125,29.3125,28.4375,32.375,34.5625,35.5625
0.2940519,-1.314218,-0.20472959,-0.40697095,-0.019301536,0.09287986,-0.16299237,-0.40171888,-0.3476895,0.059889033,3.0638013,-0.62686276,0.000537633,-0.14033258,0.004873166,-0.0012966811,-0.098947726,0.014516813,-0.004281634,0.450462,-1.3994876,1.928964,-2.1072605,-1.5590881,2.4285831,-0.18117091,0.18624108,-0.20475973,-0.03589509,0.08371557,-0.17619547,-0.3256114,0.22984336,-9.691729,0.88960326,47.66808,-1.148546,-2.2402859,-3.4982119,-0.8325274,0.11380084,-0.13494222,28.125,29.3125,28.4375,32.375,34.5625,35.5625
0.29605278,-1.8489857,-0.15448369,-0.39714187,-0.019492367,0.093296975,-0.17044564,-0.40196934,-0.3476655,0.059870645,3.063624,-0.62688434,0.00061429426,-0.14309303,0.005616137,-1.1526918e-06,-0.097127035,0.01996602,-0.0042656884,0.4501012,-1.3991395,1.9286159,-2.107321,-1.5589217,2.4282596,-0.18216403,0.18667044,-0.20799659,-0.037115976,0.07973505,-0.17722657,-0.2681506,0.22984336,-9.557653,0.85826975,47.681515,-1.136366,-2.1898468,-3.2900515,-0.82153213,0.14193138,-0.07540971,28.125,29.3125,28.4375,32.375,34.5625,35.5625
0.2980518,-1.5850056,0.041872706,-0.41836387,-0.012361445,0.09242269,-0.164742,-0.4023314,-0.34766895,0.05990558,3.063341,-0.6268838,0.00047082285,-0.1445152,0.006190307,-0.00045457607,-0.09437063,0.02181893,-0.009961397,0.44969347,-1.3987302,1.9280895,-2.1074412,-1.5587548,2.42789,-0.18211493,0.18923187,-0.20972995,-0.03840911,0.076456904,-0.17148568,-0.3256114,0.17238252,-9.672575,0.88289046,47.65643,-1.3072686,-2.145966,-3.2720647,-0.83120394,0.2106303,-0.12798151,28.125,29.3125,28.4375,32.375,34.5625,35.5625
0.30005243,-1.3031241,0.20341323,-0.27973738,-0.00838406,0.09353704,-0.1591016,-0.40260234,-0.34765312,0.059906904,3.0631547,-0.6269054,0.0004685521,-0.14601976,0.0070335898,-0.0008444283,-0.09220752,0.024143152,-0.017406013,0.44934532,-1.3983814,1.9276956,-2.1075017,-1.5586122,2.4275806,-0.18283366,0.19097994,-0.21044455,-0.040615678,0.0734721,-0.16477276,-0.51714754,0.2681506,-9.557653,0.88289046,47.64389,-1.3897455,-2.1795392,-3.4030194,-0.83526915,0.25647268,-0.21900418,28.125,29.3125,28.4375,32.375,34.5625,35.5625
0.30205208,-1.2109259,0.11274818,-0.4367255,4.989466e-05,0.0844046,-0.16056637,-0.40289205,-0.347635,0.059898704,3.062981,-0.62687224,0.0004406421,-0.14805952,0.007896467,-0.0005361241,-0.09209514,0.02670785,-0.024878293,0.4489841,-1.3979969,1.9272898,-2.107598,-1.5584801,2.4272223,-0.18513915,0.19178142,-0.2117291,-0.04240476,0.0722461,-0.15960565,-0.47884035,0.22984336,-9.519346,0.8627467,47.683304,-1.2257962,-2.1323032,-3.4512124,-0.8020221,0.2802775,-0.29698718,28.125,29.3125,28.4375,32.375,34.5625,35.5625
0.30405176,-1.1674507,0.44891632,-0.50090796,-0.019527884,0.073361926,-0.16670074,-0.40315893,-0.34762362,0.059867896,3.062807,-0.62693596,0.00048330802,-0.14976838,0.009386898,-0.0015051396,-0.09161848,0.026297575,-0.034153845,0.44864705,-1.3975877,1.9269065,-2.1076944,-1.5583366,2.4269485,-0.18887137,0.19415243,-0.21200366,-0.043945152,0.07197313,-0.15405855,-0.45968673,0.24899697,-9.615114,0.842603,47.66808,-1.2063891,-2.255555,-3.5531607,-0.791702,0.34915882,-0.36795098,28.125,29.3125,28.4375,32.375,34.5625,35.5625
0.30605242,-1.1349823,-0.29358748,-0.38137418,-0.032788478,0.071933664,-0.16619977,-0.40348864,-0.34757134,0.059864987,3.062623,-0.62712705,0.00043457796,-0.15149567,0.008614248,-0.00029331044,-0.09348332,0.029750813,-0.037283707,0.44821537,-1.3971789,1.9264516,-2.107755,-1.5582403,2.4266615,-0.18891348,0.19450428,-0.21490702,-0.045307465,0.07216334,-0.15096031,-0.5554548,0.2681506,-9.595961,0.87617236,47.670765,-1.211274,-2.280446,-3.4977565,-0.76524144,0.35885602,-0.47635362,28.125,29.3125,28.4375,32.375,34.5625,35.5625
0.3080519,-1.1156877,-0.86918396,-0.2746205,-0.03070313,0.06895574,-0.15945035,-0.40377972,-0.34756693,0.05986811,3.0623963,-0.6271356,0.00041230564,-0.15284246,0.008651018,-0.0006639541,-0.09566076,0.02964109,-0.038052242,0.4478548,-1.3968059,1.9260334,-2.1078508,-1.5580715,2.426337,-0.19124724,0.1964595,-0.2159982,-0.046952296,0.07422716,-0.1524991,-0.61291564,0.24899697,-9.442732,0.8717007,47.66091,-1.2105025,-2.3519711,-3.5402741,-0.74617255,0.38552642,-0.51735187,28.125,29.3125,28.4375,32.375,34.5625,35.5625
0.31005245,-1.0960953,-0.22719228,-0.30151233,-0.02691417,0.06712686,-0.16899455,-0.4040743,-0.3475683,0.059871126,3.062156,-0.6271579,0.00039877585,-0.15453818,0.008103355,1.8365961e-05,-0.09851107,0.031578023,-0.03363408,0.44749418,-1.3964214,1.9256023,-2.107947,-1.5578908,2.426023,-0.19269675,0.19738747,-0.2183249,-0.048410878,0.07605151,-0.15834174,-0.45968673,0.28730422,-9.461885,0.94331104,47.65643,-1.143511,-2.2018921,-3.508262,-0.72937125,0.40565634,-0.49141866,28.125,29.3125,28.4375,32.375,34.5625,35.5625
0.31205228,-0.64269567,0.2289814,-0.19987358,-0.03184411,0.070334546,-0.1768075,-0.40442267,-0.34755445,0.0599,3.0618474,-0.6272561,0.0002784233,-0.15654893,0.0070984666,0.0016014123,-0.103057936,0.03529052,-0.02231932,0.44706193,-1.396049,1.925135,-2.1080801,-1.55771,2.4256942,-0.19411136,0.19697632,-0.2209812,-0.05044058,0.07872507,-0.17103305,-0.30645782,0.22984336,-9.595961,0.86945957,47.694946,-1.1470819,-2.2071965,-3.4374666,-0.6966269,0.3904299,-0.3989181,28.125,29.3125,28.4375,32.375,34.5625,35.5625
0.31405184,-0.2923594,0.2889058,-0.13016704,-0.023529598,0.06391718,-0.18530796,-0.40468454,-0.347538,0.059865747,3.0616841,-0.6272172,0.00033340554,-0.15815169,0.00570919,0.0029651127,-0.10839516,0.037348095,-0.012653627,0.44671318,-1.3956525,1.9247764,-2.1081874,-1.5575527,2.4253433,-0.19542637,0.19706218,-0.2239356,-0.051550385,0.08278529,-0.18197541,-0.21068975,0.19153613,-9.557653,0.88960326,47.674347,-1.0525936,-2.1623335,-3.4783978,-0.6498551,0.39277482,-0.29509544,28.125,29.3125,28.4375,32.375,34.5625,35.5625
0.31605232,-0.021477738,0.30106103,-0.107250705,-0.023345483,0.05573133,-0.17567539,-0.4050505,-0.3475192,0.05989186,3.0614367,-0.6272367,0.00021010733,-0.15946306,0.0048509035,0.004055149,-0.11158989,0.039527122,-0.0075264005,0.44628075,-1.3952323,1.9242505,-2.1082838,-1.5574077,2.424957,-0.19611035,0.19706188,-0.22622646,-0.05247265,0.0848483,-0.18775304,-0.51714754,0.22984336,-9.442732,0.85826975,47.667187,-1.0096565,-2.0580966,-3.438326,-0.6289427,0.3706414,-0.19244404,28.125,29.3125,28.4375,32.375,34.5625,35.5625
0.3180518,-0.58348435,0.29347837,0.027225185,-0.03268373,0.054060616,-0.17693725,-0.40536526,-0.34751335,0.05988378,3.0611973,-0.627206,0.0002074558,-0.16034518,0.00473159,0.004195917,-0.1152862,0.038164705,-0.010667183,0.44588396,-1.3948114,1.923807,-2.1084034,-1.5572141,2.4245737,-0.19894768,0.1977394,-0.22739752,-0.0522935,0.08882516,-0.18740362,-0.5363012,0.19153613,-9.385271,1.0015011,47.65643,-0.9589114,-1.9277188,-3.3887556,-0.5942501,0.37224907,-0.1542323,28.125,29.3125,28.4375,32.375,34.5625,35.5625
0.32005233,-1.0138415,-0.15132523,-0.26793006,-0.021174446,0.04254212,-0.16492754,-0.4056582,-0.3475042,0.059868794,3.0609705,-0.6272187,0.00025031532,-0.16151841,0.0024210743,0.0058411523,-0.1232831,0.03882331,-0.017841961,0.44549975,-1.3944032,1.9233884,-2.1084993,-1.5570201,2.4242282,-0.20005496,0.19752212,-0.23073703,-0.052816004,0.09573944,-0.18126494,-0.40222588,0.15322891,-9.442732,0.9410752,47.647476,-1.005488,-1.9157653,-3.2397532,-0.5635739,0.2777341,-0.20348634,28.125,29.3125,28.4375,32.375,34.5625,35.5625
0.32205182,-0.24174193,0.14866447,-0.8651117,-0.018841488,0.035652775,-0.17312978,-0.40599573,-0.34752718,0.059903722,3.060672,-0.6271763,0.00015312457,-0.1627823,0.0011008475,0.0063841147,-0.12697856,0.039247494,-0.024997674,0.44512773,-1.394006,1.9228724,-2.1086075,-1.556815,2.4238706,-0.2005819,0.19928473,-0.23389661,-0.053424742,0.09888868,-0.17458469,-0.22984336,0.11492168,-9.710882,0.84708,47.713753,-1.1426234,-2.0342824,-3.1361666,-0.52605265,0.23665951,-0.29921216,28.125,29.3125,28.4375,32.375,34.5625,35.5625
0.32405242,-0.47215626,-0.57018363,-0.46237263,-0.02471136,0.03218112,-0.17387146,-0.40630302,-0.34749725,0.059889648,3.0604231,-0.6272764,0.00018352347,-0.16032033,0.00024034988,0.0043981927,-0.12694597,0.03202679,-0.025203444,0.44469666,-1.393609,1.9224671,-2.1087139,-1.5566219,2.423536,-0.19877957,0.2021187,-0.23351836,-0.050068725,0.10201156,-0.17253771,-0.36391866,0.28730422,-9.576807,0.9097417,47.677036,-1.3153732,-2.013525,-3.220848,-0.5450151,0.19066787,-0.3427859,28.125,29.3125,28.4375,32.375,34.5625,35.5625
0.32605195,-0.21871553,-0.0977541,-0.21680427,-0.04120451,0.054735526,-0.18143354,-0.40663093,-0.34750038,0.05988892,3.0601225,-0.62732697,0.00021251917,-0.15941131,3.1427935e-05,0.0025928025,-0.12723006,0.027393317,-0.026828846,0.44427642,-1.3931754,1.9219893,-2.1088216,-1.5563811,2.4231884,-0.1988873,0.20516458,-0.23320027,-0.049317673,0.104306795,-0.17098404,-0.34476504,0.30645782,-9.404425,0.9612189,47.68062,-1.340857,-2.049538,-3.432559,-0.52378625,0.15083766,-0.3768227,28.125,29.3125,28.4375,32.375,34.5625,35.5625
0.32805252,-0.3515383,0.07375202,-0.7458727,-0.016027555,0.053559605,-0.18442242,-0.40696362,-0.34750152,0.059908275,3.0598547,-0.6273444,0.00016686757,-0.15903874,0.0010676392,0.00026920863,-0.12434067,0.022238335,-0.026024995,0.44387996,-1.3927658,1.9214877,-2.1089041,-1.5561894,2.4228396,-0.19998732,0.20951003,-0.23354891,-0.04731582,0.10399678,-0.1728734,-0.038307227,0.2681506,-9.615114,0.8806493,47.675243,-1.3597656,-2.1538534,-3.4130826,-0.50932574,0.122826055,-0.40350914,28.125,29.3125,28.4375,32.375,34.5625,35.5625
0.33005184,-1.0250136,-0.022760179,-0.54669863,-0.017415969,0.04537006,-0.18035239,-0.40727693,-0.3474858,0.05990314,3.059607,-0.62740266,0.00017668058,-0.1603918,0.0025782639,-0.00014983692,-0.122659765,0.02247684,-0.02130246,0.443471,-1.3923568,1.9210452,-2.109,-1.5559982,2.422501,-0.2026192,0.21088938,-0.23430678,-0.047242656,0.10250735,-0.1802302,0.095768064,0.34476504,-9.730036,0.92764956,47.653748,-1.2272152,-2.2348924,-3.551179,-0.49532035,0.121518046,-0.35076302,28.125,29.3125,28.4375,32.375,34.5625,35.5625
0.3320524,-0.77960217,-0.42801228,-0.09614997,-0.027098307,0.047225893,-0.1826861,-0.40762296,-0.34747162,0.059923228,3.0593555,-0.6273413,0.00012511901,-0.16168137,0.004813816,-0.00012797111,-0.11746467,0.022693712,-0.011225036,0.4430385,-1.391948,1.9205426,-2.1090825,-1.555808,2.4220648,-0.20450118,0.2120393,-0.23661873,-0.043775935,0.097920105,-0.19221845,0.15322891,0.38307226,-9.423578,0.87393653,47.684196,-1.1869711,-2.2119174,-3.5887504,-0.50655025,0.1375786,-0.25175598,28.125,29.3125,28.4375,32.375,34.5625,35.5625
0.3340519,-0.7432721,0.01664991,-0.26801348,-0.007240589,0.023986518,-0.18183136,-0.40795106,-0.34746453,0.0599146,3.0590672,-0.62742954,0.0001282939,-0.1632518,0.006333796,-0.00048042476,-0.11421335,0.021931276,-0.0064983848,0.4426178,-1.3915141,1.9200872,-2.1092136,-1.5555924,2.4217389,-0.20669879,0.214775,-0.23973691,-0.041115873,0.09544508,-0.19915314,0.11492168,0.4213795,-9.461885,0.8940802,47.66271,-1.1341591,-2.3377986,-3.5915995,-0.5427934,0.17561817,-0.14419375,28.125,29.3125,28.4375,32.375,34.5625,35.5625
0.33605242,-0.44774026,0.4495144,-0.5589305,0.013140075,0.0059397207,-0.18000661,-0.4082595,-0.34746945,0.059915718,3.0589094,-0.62724423,8.981164e-05,-0.16546755,0.009036881,-3.8076236e-05,-0.10926727,0.026106691,-0.010282507,0.4422811,-1.391082,1.919597,-2.109285,-1.5554508,2.421308,-0.20916468,0.2143552,-0.24022478,-0.04180145,0.089219294,-0.19788517,0.11492168,0.38307226,-9.461885,0.8985519,47.677036,-1.1421623,-2.2518716,-3.4761796,-0.5327185,0.24129689,-0.07998158,28.125,29.3125,28.4375,32.375,34.5625,35.5625
0.33805218,-0.6943829,-0.47194973,-0.37518457,0.012794538,-0.0048504807,-0.16970177,-0.40861857,-0.34745908,0.05994885,3.0585964,-0.62731326,4.201005e-06,-0.16746421,0.008901749,0.0011242775,-0.11043219,0.028280346,-0.017937653,0.44183677,-1.3906857,1.9190825,-2.1093814,-1.5552462,2.4209502,-0.21042909,0.21515971,-0.24395299,-0.041360695,0.089335054,-0.1914726,0.15322891,0.40222588,-9.461885,0.92093146,47.691364,-1.1308731,-2.118081,-3.4074254,-0.5388019,0.26711625,-0.1273182,28.125,29.3125,28.4375,32.375,34.5625,35.5625
0.3400518,-0.51633745,-0.7219358,-0.28902954,-0.0056037544,0.0035028094,-0.16792145,-0.40895498,-0.34740847,0.0599185,3.058427,-0.6273963,5.548571e-05,-0.16808616,0.010384069,0.0014830751,-0.10750979,0.029076785,-0.025849568,0.44138032,-1.3902055,1.9186038,-2.10944,-1.5551037,2.420569,-0.21142064,0.21453936,-0.24456087,-0.039633118,0.08631865,-0.18457764,-0.11492168,0.40222588,-9.32781,0.83813137,47.684196,-1.0008955,-2.0567884,-3.3458965,-0.5369618,0.33377647,-0.18895966,28.125,29.3125,28.4375,32.375,34.5625,35.5625
0.34205237,-0.5032547,-0.28824702,-0.1251609,-0.03493369,0.019869512,-0.17525871,-0.40928698,-0.3474018,0.059943233,3.0581958,-0.6273685,-2.8952245e-05,-0.16996968,0.010600828,0.0027129655,-0.10882843,0.029784562,-0.03295363,0.44099584,-1.3898091,1.9181017,-2.1095116,-1.5549473,2.4201992,-0.21370412,0.21512605,-0.24860263,-0.037398916,0.08720857,-0.17973109,-0.15322891,0.38307226,-9.385271,0.8493211,47.690468,-1.0303717,-1.9605186,-3.2710285,-0.56626517,0.35986453,-0.30541682,28.125,29.3125,28.4375,32.375,34.5625,35.5625
0.3440519,-1.1013232,-0.8287714,-0.31342652,-0.03176237,0.012001025,-0.16675477,-0.40962642,-0.34737703,0.05993552,3.0579298,-0.6275069,-1.9975208e-05,-0.17171934,0.010262451,0.0042542387,-0.11140638,0.031094078,-0.042963214,0.44055116,-1.3893647,1.9176224,-2.1096065,-1.5547541,2.4198778,-0.21541362,0.21510993,-0.25248098,-0.035854455,0.088933356,-0.17139946,-0.21068975,0.2681506,-9.404425,0.9164598,47.667187,-0.9821019,-1.9030182,-3.2847295,-0.58619845,0.35213122,-0.3844484,28.125,29.3125,28.4375,32.375,34.5625,35.5625
0.34605265,-0.68798286,-0.13014871,0.031926583,-0.029649915,0.022044417,-0.18012838,-0.40996203,-0.34736395,0.059949975,3.0576892,-0.62749386,-2.5640726e-05,-0.17183276,0.009823623,0.0036735567,-0.11258849,0.029073268,-0.045592427,0.44013104,-1.3889433,1.9171089,-2.1096542,-1.554562,2.4194827,-0.21574503,0.21718152,-0.25377357,-0.035283808,0.09088987,-0.1690681,-0.17238252,0.15322891,-9.442732,0.9030289,47.692257,-0.9435994,-1.8605676,-3.1657066,-0.6172992,0.37269884,-0.49972337,28.125,29.3125,28.4375,32.4375,34.5625,35.5625
0.34805226,-1.3848661,0.15330273,-0.22443315,-0.0074368063,0.019450512,-0.18591622,-0.4103184,-0.34734744,0.059964467,3.0574038,-0.62765646,-4.6154895e-05,-0.17127033,0.0085259285,0.0042110304,-0.114754885,0.029337818,-0.03898315,0.43968767,-1.388499,1.916571,-2.1097138,-1.5543689,2.4191806,-0.21401556,0.21659328,-0.25438684,-0.035099324,0.092855,-0.17391466,-0.38307226,0.17238252,-9.461885,0.9388393,47.66987,-1.0771996,-1.7718222,-3.2341702,-0.6194506,0.36387977,-0.49163896,28.125,29.3125,28.4375,32.4375,34.5625,35.5625
0.3500517,-1.6869168,0.30505925,-0.2524898,0.007988457,0.052694265,-0.17936757,-0.41065973,-0.3473304,0.059984922,3.0571275,-0.6277027,-9.77914e-05,-0.17026483,0.0072821598,0.0032779383,-0.116272144,0.026463848,-0.026095344,0.4392563,-1.388102,1.9160808,-2.1097977,-1.5541757,2.4188166,-0.2125485,0.21870032,-0.2549248,-0.034461476,0.09565568,-0.1852912,-0.38307226,0.21068975,-9.481039,0.95002913,47.660015,-1.2625301,-1.7327359,-3.3631518,-0.63005227,0.36076766,-0.41598666,28.125,29.3125,28.4375,32.4375,34.5625,35.5625
0.35205254,-1.762071,0.71866816,-0.20110661,0.015433032,0.07464995,-0.1865571,-0.41096255,-0.3473099,0.05995821,3.0569367,-0.6276364,3.7508842e-05,-0.1691894,0.0067548123,0.0022874868,-0.117308386,0.023382198,-0.013162976,0.43883637,-1.3876449,1.9156154,-2.1098335,-1.5539593,2.4183812,-0.21206643,0.22000232,-0.25446624,-0.033593778,0.09810006,-0.19771409,-0.2873042,0.019153614,-9.557653,0.9254084,47.685097,-1.417437,-1.7634197,-3.494286,-0.648423,0.343121,-0.28545523,28.125,29.3125,28.4375,32.4375,34.5625,35.5625
0.35405225,-1.8038621,-0.17233308,-0.1436111,0.013546251,0.07725838,-0.18206003,-0.41134414,-0.34729728,0.059980236,3.056638,-0.6277209,-4.3366552e-05,-0.16909185,0.0057348334,0.0011711831,-0.12069762,0.019530384,-0.008009646,0.43838015,-1.3871876,1.9150532,-2.1099288,-1.5537657,2.4180195,-0.21299358,0.22320585,-0.2557983,-0.0332498,0.10295016,-0.20372202,-0.21068975,-0.038307227,-9.557653,0.92764956,47.66987,-1.3630133,-2.0864196,-3.54428,-0.6846858,0.29252684,-0.18651083,28.125,29.3125,28.4375,32.4375,34.5625,35.5625
0.35605207,-1.2701691,-0.0062935427,0.08362406,-0.015786428,0.05359901,-0.18047266,-0.4116656,-0.347284,0.0599853,3.0564644,-0.6275518,-7.057958e-05,-0.17026313,0.0055294065,-0.00023901922,-0.12290288,0.015747027,-0.013791416,0.43799523,-1.3867657,1.9145621,-2.109989,-1.5536083,2.417553,-0.21564119,0.22812836,-0.2584823,-0.032994047,0.106558844,-0.20053194,-0.26815057,0.05746084,-9.32781,0.9612189,47.677036,-1.3610013,-2.120548,-3.5307653,-0.70007336,0.2680354,-0.16444254,28.125,29.3125,28.4375,32.4375,34.5625,35.5625
0.35805252,-0.79491144,-0.33094928,-0.10488784,-0.0070877965,-0.009928371,-0.18346722,-0.41201237,-0.347288,0.059994288,3.0561604,-0.6275846,-8.9627996e-05,-0.17100364,0.0038098225,0.00081852864,-0.12936695,0.015860748,-0.021948505,0.43757483,-1.3863208,1.9140471,-2.1100967,-1.5533785,2.4171953,-0.21662295,0.22795394,-0.26049563,-0.033705167,0.112329334,-0.19326979,-0.30645782,0.095768064,-9.3661175,0.88960326,47.67614,-1.4061306,-2.0426633,-3.4500191,-0.69973314,0.22070602,-0.26019722,28.125,29.3125,28.4375,32.4375,34.5625,35.5625
0.36005214,0.13204302,-0.34101674,-0.25192943,-0.020953653,-0.045228664,-0.18290606,-0.41238484,-0.34727883,0.06000265,3.0558743,-0.62762034,-0.00010582701,-0.17190994,0.0029804371,0.0016344172,-0.13163939,0.017327376,-0.027211936,0.437119,-1.3858405,1.9134859,-2.1101806,-1.5531615,2.4168017,-0.21656337,0.2282108,-0.26259065,-0.03416453,0.1137546,-0.18791074,-0.21068975,0.19153613,-9.289502,0.9186956,47.67614,-1.4792657,-2.0681307,-3.4624386,-0.70354044,0.15639406,-0.3314039,28.125,29.3125,28.4375,32.4375,34.5625,35.5625
0.3620526,-0.22351924,-0.99962366,-0.06328476,-0.029397573,-0.066787735,-0.18207428,-0.41271803,-0.34728643,0.06001202,3.0555866,-0.62763554,-6.9906244e-05,-0.17379281,0.0023464311,0.002025971,-0.13543816,0.017696122,-0.03118222,0.43670976,-1.3853955,1.9129585,-2.1102402,-1.5529202,2.416442,-0.21883447,0.23026755,-0.2657283,-0.034976535,0.11706494,-0.18615533,-0.1340753,0.21068975,-9.251195,0.900793,47.71286,-1.2916281,-1.9818997,-3.3600163,-0.7075815,0.13307698,-0.3729557,28.125,29.3125,28.4375,32.4375,34.5625,35.5625
0.36405227,-0.2345443,-0.6814158,-0.31513935,-0.025713224,-0.043466736,-0.18862693,-0.41308558,-0.34727266,0.060013905,3.0552878,-0.6276645,-2.5516054e-05,-0.17556566,0.002957965,0.002307626,-0.135718,0.01855378,-0.03147557,0.43622935,-1.3849143,1.9124082,-2.1103122,-1.5526685,2.416021,-0.22107132,0.23173834,-0.268235,-0.03469886,0.11703867,-0.18808338,-0.11492168,0.47884035,-9.32781,0.9254084,47.670765,-1.2314152,-1.8731673,-3.3461223,-0.7361871,0.074052766,-0.39291334,28.125,29.3125,28.4375,32.4375,34.5625,35.5625
0.36605176,-1.3431237,-0.83781654,-0.18092594,-0.02952959,0.004172416,-0.18867798,-0.4133951,-0.3472641,0.060015973,3.0550318,-0.62772256,5.68675e-05,-0.17701057,0.0044228337,0.002335561,-0.1349363,0.018383782,-0.030217076,0.43582085,-1.3844941,1.9119176,-2.110336,-1.552441,2.4156845,-0.22424388,0.2326172,-0.26969716,-0.03345855,0.11650924,-0.19251165,-0.17238252,0.5746084,-9.308656,0.9097417,47.67614,-1.208128,-1.8942366,-3.3898718,-0.7596073,0.07550408,-0.3935473,28.125,29.3125,28.4375,32.4375,34.5625,35.5625
0.3680523,-2.272359,-0.8338864,-0.13967307,-0.032882906,0.07359436,-0.18583284,-0.4137688,-0.34724063,0.060023565,3.0547562,-0.62773365,0.00010611656,-0.17867912,0.0066093425,0.0016438077,-0.1310909,0.018470228,-0.022014745,0.43532756,-1.3840125,1.9113449,-2.1103714,-1.5522021,2.4152365,-0.22707514,0.23495111,-0.27126256,-0.032364063,0.11319642,-0.20357461,-0.076614454,0.6703765,-9.423578,0.92093146,47.677036,-1.0714048,-1.7734039,-3.3158178,-0.79341686,0.0891642,-0.27362576,28.125,29.3125,28.4375,32.4375,34.5625,35.5625
0.37005192,-2.841512,-1.2487967,-0.2585453,-0.012085663,0.10842188,-0.17815101,-0.4141306,-0.34724757,0.06003393,3.054452,-0.6276428,0.00011464145,-0.18038622,0.009110932,0.0012604665,-0.1263878,0.01998897,-0.015216187,0.4348828,-1.3835435,1.9107951,-2.1104672,-1.5519398,2.4147773,-0.22962385,0.23620802,-0.272135,-0.03184781,0.108487844,-0.21296424,-0.1340753,0.7278373,-9.5385,0.9254084,47.666286,-0.989859,-1.8944107,-3.290456,-0.82326525,0.10525058,-0.14907761,28.125,29.3125,28.4375,32.4375,34.5625,35.5625
0.37205255,-2.8800054,-0.5085393,0.14237452,-0.027927268,0.12688155,-0.18618765,-0.41447803,-0.34721756,0.06004014,3.0542393,-0.627615,0.00011748797,-0.18286276,0.010945851,0.0021084342,-0.12196602,0.024843246,-0.0148257185,0.4344384,-1.3830985,1.9102677,-2.110503,-1.551762,2.4143453,-0.23085925,0.23655868,-0.2745388,-0.032197613,0.10250743,-0.21465302,-0.2873042,0.6512228,-9.461885,0.9097417,47.709274,-0.9309969,-1.8868575,-3.404252,-0.84772635,0.17622462,-0.07133246,28.125,29.3125,28.4375,32.4375,34.5625,35.5625
