Tylouw/Master_Thesis_Code/training_data/batch_1/small_rod_t0.2/sample_26_session_1.csv
timestamp[s],tcp_force_x[N],tcp_force_y[N],tcp_force_z[N],tcp_force_rx[Nm?],tcp_force_ry[Nm?],tcp_force_rz[Nm?],tcp_pose_x[m],tcp_pose_y[m],tcp_pose_z[m],tcp_pose_rx[rot_vec_x],tcp_pose_ry[rot_vec_y],tcp_pose_rz[rot_vec_z],tcp_velo_x[m/s],tcp_velo_y[m/s],tcp_velo_z[m/s],tcp_velo_rx[rot_vec_x/s],tcp_velo_ry[rot_vec_y/s],tcp_velo_rz[rot_vec_z/s],q1[rad],q2[rad],q3[rad],q4[rad],q5[rad],q6[rad],qd1[rad/s],qd2[rad/s],qd3[rad/s],qd4[rad/s],qd5[rad/s],qd6[rad/s],tool_acc_x,tool_acc_y,tool_acc_z,current_of_whole_robot[A],voltage_of_whole_robot[V],current_J1[A],current_J2[A],current_J3[A],current_J4[A],current_J5[A],current_J6[A],temp_J1[C],temp_J2[C],temp_J3[C],temp_J4[C],temp_J5[C],temp_J6[C]
9.580108e-07,-0.0390333,-0.42306212,0.39435112,-0.051340178,0.038369693,-0.016829109,-0.38104478,-0.3485382,0.059957534,-3.0785491,0.6247881,-0.00018622843,0.0007321625,0.00032223036,-0.0010162917,0.00089005,-0.002063072,0.000103054284,0.47782207,-1.4259336,1.9577497,-2.1008685,-1.5707458,2.4527164,0.0,0.0008657564,0.0013240892,5.0846746e-05,0.00016127173,-0.0001038771,0.019153614,0.1340753,-8.772355,0.7530795,47.693153,0.028345354,-2.824191,-2.4976668,-0.45086023,0.14495543,0.09584805,27.8125,28.875,28.0625,32.0,34.0625,34.9375
0.002055222,0.09759271,-0.60070795,0.19144793,-0.040099945,0.040819637,-0.011883769,-0.3810352,-0.3485265,0.059953272,-3.0785358,0.62482363,-0.00019791652,-0.0011645057,-0.00066519907,-0.0024730212,-0.0016432556,0.0027924636,0.00010309581,0.47781014,-1.4259564,1.9577864,-2.1008728,-1.5707458,2.4527283,0.0,0.0042370562,0.003266766,-0.010739777,0.0001574078,-0.000102192054,0.038307227,0.11492168,-8.772355,0.75084364,47.707485,0.02001779,-2.8812547,-2.3735466,-0.37819988,0.13948402,0.094142646,27.8125,28.875,28.0625,32.0,34.0625,34.9375
0.004054307,-0.48050255,-0.7913368,0.27122432,-0.03611446,0.022211518,-0.0022224844,-0.381066,-0.34853837,0.059959654,-3.0785565,0.62482774,-0.000128574,-0.0018279327,-0.001009108,-0.0022819487,-0.002739813,0.0049076597,0.00010191829,0.47781014,-1.4259205,1.9577392,-2.100909,-1.5707573,2.4527283,0.0,0.0042403843,0.003399545,-0.013258414,0.00015300237,-0.00010056096,0.05746084,0.15322891,-8.714894,0.70608455,47.692257,0.029306956,-3.1226063,-2.7425332,-0.30892634,0.12964007,0.10162778,27.8125,28.875,28.0625,32.0,34.0625,34.9375
0.006054157,-0.07266031,-0.44759625,0.27320597,-0.020631282,0.014304852,-0.010032876,-0.38104597,-0.34853262,0.059933823,-3.0785124,0.62479925,-0.0001627544,-0.0010938831,-0.00062480697,-0.001384117,-0.001752243,0.0030292291,9.966289e-05,0.47783422,-1.4258971,1.957774,-2.1009195,-1.5707816,2.4527402,0.0,0.0025047695,0.0021673376,-0.008168398,0.00014878967,-9.898097e-05,-0.019153614,0.1340753,-8.772355,0.7016076,47.711063,-0.0010930146,-3.0649996,-2.7015517,-0.32581025,0.14391562,0.097586446,27.8125,28.875,28.0625,32.0,34.0625,34.9375
0.008054596,-0.058633942,0.22592881,-0.36613762,0.008479665,-0.018095931,-0.0026997072,-0.3810474,-0.3485174,0.059936773,-3.0784914,0.624872,-0.00020443859,-0.0006627589,-0.00039821342,-0.00020522057,-0.0012743977,0.0021309198,9.765103e-05,0.4777981,-1.4259099,1.9577731,-2.1008813,-1.5707697,2.452752,0.0,0.0005115354,0.0007333591,-0.0037237233,0.00014479997,-9.7449876e-05,0.038307227,0.19153613,-8.90643,0.7150385,47.696735,0.016633863,-2.951823,-2.5834527,-0.38281938,0.14256673,0.10187989,27.8125,28.875,28.0625,32.0,34.0625,34.9375
0.010054889,0.1287134,0.5982326,-0.7718711,0.008662836,-0.015240862,-0.008145968,-0.38101885,-0.348516,0.05989397,-3.0784614,0.6247893,-0.00029378798,-0.0004527563,-0.00028735056,9.602058e-05,-0.00094983616,0.0015184116,9.599433e-05,0.47782207,-1.4258621,1.9578217,-2.1009047,-1.5707697,2.4527283,0.0,6.8629006e-06,0.0002337309,-0.002026254,0.00014101823,-9.596546e-05,0.05746084,0.22984336,-9.212888,0.6926589,47.711063,-0.3736722,-2.300617,-3.116182,-0.39698583,0.15036878,0.042250473,27.8125,28.875,28.0625,32.0,34.0625,34.9375
0.012053964,-0.09789369,-0.30642316,-0.8929961,-0.022564322,0.008652148,-0.0072534466,-0.38103005,-0.3485218,0.059914082,-3.0784616,0.6247894,-0.00029318174,8.0468e-05,9.0922964e-05,-0.0025786955,0.0017755658,-0.003734175,-9.0680514e-05,0.477822,-1.4258606,1.9577607,-2.1008456,-1.5707697,2.4527283,-0.00017994393,0.005427377,3.1357984e-06,-0.0012986019,0.00013742925,-8.839513e-05,0.1340753,0.1340753,-9.423578,0.7597976,47.72002,-0.5279339,-2.1958013,-3.3121896,-0.40161693,0.16984043,-0.00061201025,27.8125,28.875,28.0625,32.0,34.0625,34.9375
0.014054356,-0.60533077,-1.4684712,-0.856083,-0.05425582,0.028650545,-0.012415026,-0.3810302,-0.34852228,0.059883,-3.0784628,0.6247914,-0.00034976393,-0.005025916,0.0019954166,-0.0049168705,0.00360525,-0.00733842,-0.0041697146,0.47780716,-1.4258084,1.9577831,-2.1008933,-1.5707458,2.4527144,-0.008312151,0.016413992,-0.0072436314,-0.0009971741,0.00015341454,-0.0041362527,0.038307227,0.19153613,-9.423578,0.8224646,47.723602,-0.40834147,-2.9990664,-3.1734934,-0.41470987,0.16654573,-0.03422819,27.8125,28.875,28.0625,32.0,34.0625,34.9375
0.016054014,-0.93397427,-1.5809871,-1.0728731,-0.087334715,0.054869477,-0.020295616,-0.3810384,-0.34851295,0.059895154,-3.0784109,0.62479633,-0.0003577159,-0.0067457273,0.0028030088,-0.0034402786,0.0022531142,-0.004773054,0.0014343465,0.4778062,-1.4257972,1.9577235,-2.1008093,-1.5707816,2.4527233,-0.011348759,0.014460311,-0.008450803,-0.0007379148,0.00016853376,-0.01277671,-0.19153613,0.28730422,-9.5385,0.7150385,47.71286,-0.14343774,-2.7930532,-3.2117715,-0.43091947,0.17083064,0.013751583,27.8125,28.875,28.0625,32.0,34.0625,34.9375
0.018054292,-1.6616395,-2.3002148,-1.4453908,-0.07999187,0.07127753,-0.017947542,-0.38104403,-0.34851158,0.059884384,-3.0784333,0.62474114,-0.00039703777,-0.0062927897,0.002279835,-0.0032162047,0.0020770284,-0.0045946892,0.005702761,0.47778276,-1.4257734,1.9577235,-2.1008208,-1.5707573,2.4526625,-0.01004647,0.014061234,-0.008572152,-0.00045726338,0.00024164977,-0.015743038,-0.4213795,0.3256114,-9.653421,0.75084364,47.674347,-0.36305192,-2.557392,-3.4126747,-0.42975435,0.18066742,0.03146251,27.8125,28.875,28.0625,32.0,34.0625,34.9375
0.020053873,-1.8516469,-1.8417233,-1.3710696,-0.07327411,0.09205456,-0.045929063,-0.38104677,-0.34851065,0.05986773,-3.0784278,0.6247401,-0.00043797868,-0.00641507,0.0015779752,-0.0031561872,0.000894007,-0.0053709904,0.006077454,0.47777078,-1.4257371,1.957723,-2.1008327,-1.5707453,2.4526505,-0.009826147,0.015078387,-0.009993279,8.718203e-05,0.001646841,-0.015899379,-0.5554548,0.36391866,-9.730036,0.69041777,47.690468,-0.4988076,-2.4076512,-3.6334574,-0.42710876,0.19204164,0.006073981,27.8125,28.875,28.0625,32.0,34.0625,34.9375
0.02205468,-1.7799201,-1.7059859,-1.3201551,-0.05344137,0.09952711,-0.060195137,-0.38107252,-0.3484995,0.059856154,-3.0784214,0.6247019,-0.00044050574,-0.008768504,0.0012411834,-0.002462968,-0.0022617998,-0.005022294,0.0026808768,0.47773364,-1.4256885,1.9576968,-2.100845,-1.5707554,2.4525905,-0.013119204,0.017108195,-0.013922209,0.00021603574,0.004280564,-0.015798748,-0.6512229,0.30645782,-9.672575,0.7486078,47.70032,-0.52813447,-2.4113634,-3.4878783,-0.44545358,0.15889764,-0.014864914,27.8125,28.875,28.0625,32.0,34.0625,34.9375
0.024054207,-2.3908448,-1.5638554,-1.4033378,-0.03956891,0.07918314,-0.067812026,-0.38105783,-0.3484823,0.05981714,-3.078344,0.6247832,-0.000584681,-0.009338165,0.0013582956,-0.0029857736,-0.0022816798,-0.0059528416,0.0021260325,0.47770917,-1.425628,1.9577087,-2.1008089,-1.5707439,2.4526265,-0.014143115,0.018947002,-0.014788302,5.9164235e-05,0.0047217323,-0.016268432,-0.7086837,0.3256114,-9.825804,0.7709874,47.70032,-0.5325943,-2.4440057,-3.5628366,-0.4577999,0.13460065,-0.02335332,27.8125,28.875,28.0625,32.0,34.0625,34.9375
0.026054686,-1.7304726,-1.0877846,-1.4015894,-0.051044725,0.09621084,-0.09634343,-0.38107318,-0.3484829,0.059809826,-3.0783603,0.62480706,-0.0006344179,-0.011093649,0.0017073794,-0.0020838564,-0.0024877212,-0.0036589038,0.0005481478,0.47767276,-1.425592,1.9576844,-2.1008089,-1.5707082,2.4526029,-0.015818395,0.01911303,-0.017026989,3.863002e-06,0.0038448006,-0.016362894,-0.7661445,0.30645782,-9.80665,0.7239871,47.71286,-0.6524884,-2.424864,-3.4919934,-0.47259575,0.16021948,-0.045560658,27.8125,28.875,28.0625,32.0,34.0625,34.9375
0.028054414,-2.1523943,-1.1403702,-1.4541227,-0.06094234,0.09214252,-0.094182454,-0.3810997,-0.34847665,0.059800845,-3.0783365,0.6247445,-0.0006134805,-0.01166562,0.0017330151,-0.0021729507,-0.0021998086,-0.003558351,0.00012598876,0.47766057,-1.4255317,1.9576362,-2.1008089,-1.5707444,2.4525547,-0.016195634,0.02022804,-0.018094763,2.522264e-07,0.0035403867,-0.01631667,-0.8619126,0.22984336,-9.749189,0.76874626,47.71823,-0.57627046,-2.4348679,-3.554105,-0.46346417,0.16577777,-0.06154897,27.8125,28.875,28.0625,32.0,34.0625,34.9375
0.030054523,-2.2475467,-1.3497611,-1.2959032,-0.05112898,0.0918409,-0.10856057,-0.38113943,-0.34849247,0.059830613,-3.0783885,0.6247751,-0.0005636188,-0.013194006,0.0015700896,-0.0015957848,-0.0032657112,-0.0024483372,-0.0016263091,0.47763613,-1.4255193,1.9575514,-2.100797,-1.5707201,2.4525428,-0.017600644,0.021348132,-0.02069143,1.6468583e-08,0.003972289,-0.015968556,-0.7278373,0.17238252,-9.768343,0.7239871,47.66808,-0.6109434,-2.3342748,-3.4727564,-0.46166718,0.1653305,-0.056706883,27.8125,28.875,28.0625,32.0,34.0625,34.9375
0.03205421,-1.7394735,-0.7219282,-1.2954332,-0.04735989,0.09279226,-0.12625116,-0.38117424,-0.34850344,0.05983012,-3.0784512,0.6248258,-0.00060612505,-0.013789064,0.0007309746,-0.0009695597,-0.004860658,-0.0015986296,-0.0013312148,0.4775763,-1.4254713,1.9575032,-2.1008208,-1.5706476,2.4525065,-0.017322302,0.021759413,-0.022592738,1.0752809e-09,0.004994477,-0.015986238,-0.6895301,0.076614454,-9.710882,0.82022345,47.685097,-0.6434962,-2.300953,-3.4859486,-0.46494955,0.16345157,-0.072595194,27.8125,28.875,28.0625,32.0,34.0625,34.9375
0.034054376,-1.7028264,-0.60451156,-1.1294476,-0.02284952,0.07938897,-0.13970335,-0.3811796,-0.3484994,0.059797104,-3.0784304,0.6247835,-0.00066361565,-0.015167148,2.3780345e-05,-0.0001970907,-0.0074091665,-0.0007880278,-0.0022597322,0.47756377,-1.4253991,1.9575018,-2.100845,-1.5706471,2.4524703,-0.01856532,0.022688765,-0.025420142,7.020816e-11,0.006878299,-0.016303264,-0.51714754,-0.038307227,-9.768343,0.81351066,47.703903,-0.6955018,-2.4046504,-3.4387884,-0.45133895,0.1368716,-0.1002588,27.8125,28.875,28.0625,32.0,34.0625,34.9375
0.03605447,-1.3710617,-0.14260107,-1.1535465,-0.0049525714,0.066416375,-0.14871806,-0.38123637,-0.34850428,0.059817966,-3.0784543,0.6248462,-0.0005658743,-0.015721615,-6.0636776e-05,-0.00053667533,-0.008599809,-0.0020445639,-0.0031855062,0.47752732,-1.4253626,1.9574178,-2.1008685,-1.5706586,2.45247,-0.019988265,0.024203232,-0.026371745,4.584091e-12,0.008512199,-0.016802464,-0.45968673,0.019153614,-9.653421,0.67475104,47.668976,-0.66907376,-2.3750937,-3.5189176,-0.4675519,0.11679731,-0.10145581,27.8125,28.875,28.0625,32.0,34.0625,34.9375
0.038054354,-1.2579545,0.13071023,-1.0081521,0.002590234,0.05333292,-0.16054907,-0.38126576,-0.34848997,0.05981569,-3.0784304,0.6248996,-0.0006204085,-0.016985724,0.00018218571,-0.0003975683,-0.008701984,-0.00090170605,-0.0039748275,0.4774669,-1.4253143,1.9573573,-2.1008213,-1.5706466,2.452446,-0.021302154,0.025233738,-0.027690219,-0.00077173836,0.008072406,-0.017325463,-0.3256114,-0.095768064,-9.5385,0.72622824,47.67793,-0.62492204,-2.3746352,-3.4603994,-0.46742672,0.121095404,-0.13266209,27.8125,28.875,28.0625,32.0,34.0625,34.9375
0.040053997,-0.82032377,-0.81264067,-1.1709259,0.012184601,0.052831315,-0.17184913,-0.38131496,-0.34849706,0.059811275,-3.078464,0.62494475,-0.00059772003,-0.019384624,-0.0003319753,0.00046630643,-0.009549274,0.003043514,-0.0034072127,0.47741872,-1.4252418,1.9572958,-2.10087,-1.5706233,2.4524217,-0.021908814,0.026857726,-0.031021887,-0.0029527957,0.007000182,-0.018494945,-0.15322891,-0.11492168,-9.5385,0.7396539,47.647476,-0.59224486,-2.3237586,-3.4220586,-0.42850414,0.122866854,-0.14073499,27.8125,28.875,28.0625,32.0,34.0625,34.9375
0.04205439,-1.1884854,-0.7012473,-1.1361963,-0.00065031246,0.035750918,-0.1800162,-0.38136363,-0.34850857,0.059829194,-3.0785012,0.6249136,-0.00053956656,-0.02085792,-0.00010936014,0.0009550633,-0.009790494,0.004655801,-0.0033638251,0.47739416,-1.4251938,1.9571999,-2.10087,-1.5706233,2.452373,-0.023319773,0.027556192,-0.032840636,-0.0033732995,0.006469142,-0.019946825,-0.1340753,0.0,-9.634268,0.7038487,47.695843,-0.6489563,-2.3189473,-3.3802686,-0.42235714,0.1323792,-0.16933568,27.8125,28.875,28.0625,32.0,34.0625,34.9375
0.044054467,-0.7876728,-0.6619408,-1.0720758,-0.015085924,0.045761127,-0.20029938,-0.38140154,-0.34849182,0.059825033,-3.0784838,0.6250065,-0.0005665502,-0.021649051,0.000529692,0.0008183529,-0.00937067,0.0040686233,-0.0038078802,0.47732157,-1.4251456,1.9571518,-2.1008575,-1.5706114,2.4523606,-0.025116805,0.028516434,-0.03378326,-0.0026754218,0.0063653123,-0.021299195,-0.19153613,0.05746084,-9.615114,0.78217715,47.694946,-0.59596103,-2.303325,-3.4094114,-0.41877046,0.13534242,-0.18328515,27.8125,28.875,28.0625,32.0,34.0625,34.9375
0.04605369,-1.0583814,-1.3794364,-1.0878855,-0.010419155,0.032319434,-0.19830763,-0.38145116,-0.3485014,0.059830405,-3.0785263,0.62499577,-0.0005189259,-0.022185244,0.00087976886,0.00081617635,-0.008640193,0.003273754,-0.0039285147,0.47728524,-1.4250853,1.9570788,-2.1008933,-1.5705999,2.4523122,-0.02604849,0.029542455,-0.03529821,-0.0011433837,0.0060828477,-0.022108786,-0.038307227,0.076614454,-9.5385,0.71279734,47.690468,-0.5652208,-2.257385,-3.4079776,-0.44684112,0.1320873,-0.16794887,27.8125,28.875,28.0625,32.0,34.0625,34.9375
0.048054684,-0.8089534,-0.9710471,-1.1927482,-0.03390678,0.042428542,-0.1940804,-0.38149947,-0.3484791,0.059833393,-3.078526,0.6250345,-0.00050494383,-0.022976153,0.0012496248,0.0010083438,-0.007993505,0.0035072672,-0.0035868983,0.4772009,-1.4250492,1.9570307,-2.1008928,-1.5705999,2.4522521,-0.026989726,0.0302381,-0.036717255,-0.0003273811,0.005400281,-0.023389623,-0.11492168,0.11492168,-9.615114,0.8157518,47.705692,-0.648887,-2.259757,-3.381216,-0.4408543,0.14146656,-0.204452,27.8125,28.875,28.0625,32.0,34.0625,34.9375
0.05005434,-0.6782403,-1.7675812,-1.2013055,-0.033122353,0.036678456,-0.17127752,-0.3815291,-0.34847862,0.059837516,-3.0785246,0.62505233,-0.00053175044,-0.024750005,0.0008885024,0.0023319754,-0.009318779,0.0062290737,-0.002940257,0.47716454,-1.4250011,1.9569582,-2.1008565,-1.5705875,2.452227,-0.027933247,0.030307176,-0.039825648,-0.00031369788,0.005320137,-0.024978127,-0.038307227,0.21068975,-9.576807,0.78217715,47.711063,-0.64120424,-2.173165,-3.3540008,-0.45571736,0.15129212,-0.22814557,27.8125,28.875,28.0625,32.0,34.0625,34.9375
0.052060444,-0.53353804,-1.7914708,-1.2941005,-0.048611917,0.036662865,-0.1703064,-0.38161707,-0.34847477,0.0598741,-3.0785613,0.62511635,-0.0003769144,-0.025267769,0.0010721866,0.0019209323,-0.00946241,0.005442191,-0.002038117,0.47709218,-1.4249647,1.9568385,-2.1008804,-1.5706118,2.4521902,-0.029050343,0.031702083,-0.040444355,-0.00045885128,0.00581015,-0.026997108,0.095768064,0.34476504,-9.653421,0.80456203,47.689575,-0.5808207,-2.152376,-3.3863792,-0.46260357,0.1473234,-0.21955496,27.8125,28.875,28.0625,32.0,34.0625,34.9375
0.05404236,-0.769099,-2.1846375,-1.1366266,-0.05520317,0.031757146,-0.16992283,-0.38165203,-0.34846368,0.05985121,-3.0785527,0.6250565,-0.00044797,-0.026297256,0.000636218,0.0018485496,-0.010393694,0.00510076,-0.0010871945,0.47703207,-1.4248681,1.9567779,-2.1008685,-1.5705994,2.4520938,-0.029859755,0.033925414,-0.04282549,-0.0004281963,0.0067878007,-0.028757978,0.05746084,0.30645782,-9.5385,0.7978386,47.71823,-0.57997155,-2.2428792,-3.3324268,-0.4635591,0.14947662,-0.22228497,27.8125,28.875,28.0625,32.0,34.0625,34.9375
0.056050666,-0.56588364,-1.824517,-1.1980534,-0.06441945,0.034929857,-0.16887444,-0.38170424,-0.34848163,0.059866358,-3.0785956,0.6250066,-0.00041693918,-0.0272613,0.0007086066,0.0020551265,-0.010831981,0.005497405,-0.00025462225,0.47700757,-1.424796,1.9566582,-2.1008565,-1.570587,2.4520328,-0.031008352,0.034801885,-0.044312082,-0.00037185915,0.006992582,-0.030738404,-0.05746084,0.4213795,-9.500193,0.7418897,47.701214,-0.63423735,-2.1733806,-3.306704,-0.4507723,0.15825893,-0.2353857,27.8125,28.875,28.0625,32.0,34.0625,34.9375
0.058042094,-0.8442356,-1.9932181,-1.3418072,-0.056371376,0.031302758,-0.15578195,-0.38175634,-0.34846345,0.059858255,-3.0785718,0.6250787,-0.00040390174,-0.028409308,0.0006634992,0.0029292754,-0.011710698,0.0072156074,0.0005214553,0.4769352,-1.4247242,1.9565977,-2.1008685,-1.5705994,2.4520085,-0.031975746,0.034547783,-0.0460326,-0.00032690336,0.0069810497,-0.03248104,-0.05746084,0.4213795,-9.500193,0.8247004,47.71286,-0.6163537,-2.0266764,-3.3669434,-0.4607448,0.14920972,-0.25006318,27.8125,28.875,28.0625,32.0,34.0625,34.9375
0.060043532,-0.37239316,-2.025856,-1.3134968,-0.04962072,0.047363162,-0.1579949,-0.38180876,-0.34847438,0.05986108,-3.0786254,0.6251474,-0.00048762216,-0.02887111,0.0005712964,0.0023211504,-0.011672426,0.005999825,0.0013456634,0.47685105,-1.4246397,1.9564894,-2.100845,-1.5705146,2.4519603,-0.032572128,0.036786992,-0.047207866,-0.00029154425,0.007503152,-0.033901636,-0.038307227,0.36391866,-9.481039,0.75084364,47.721813,-0.6249906,-1.9924519,-3.3297725,-0.44973838,0.16322249,-0.24394947,27.8125,28.875,28.0625,32.0,34.0625,34.9375
0.06204272,-0.6269568,-1.5478346,-1.0448679,-0.06257112,0.045405634,-0.16496994,-0.38186374,-0.3484783,0.0598703,-3.0786688,0.62503856,-0.00041775094,-0.0296542,0.000112839225,0.0023873022,-0.012496526,0.0059693255,0.0029390673,0.47681493,-1.4245791,1.9564046,-2.1008685,-1.5705265,2.451851,-0.032959748,0.038368154,-0.049171288,-0.00026309086,0.008246622,-0.035882376,-0.076614454,0.34476504,-9.500193,0.71951014,47.66539,-0.62297714,-2.1891203,-3.3977401,-0.4490759,0.15411133,-0.24730048,27.8125,28.875,28.0625,32.0,34.0625,34.9375
0.06405429,-0.903217,-1.5121313,-0.97832084,-0.051458046,0.043958038,-0.16414648,-0.3819212,-0.34845158,0.05986071,-3.0786557,0.6251128,-0.00044403627,-0.031992737,-0.0005916283,0.0035289337,-0.013874493,0.00852751,0.0038324397,0.47670662,-1.4245068,1.956344,-2.1008685,-1.5705146,2.4517906,-0.033887397,0.04019276,-0.05385436,-0.00030854665,0.008287179,-0.03770092,-0.05746084,0.4213795,-9.3661175,0.68818194,47.705692,-0.6226271,-2.0396762,-3.1479468,-0.4684056,0.13175836,-0.28701627,27.8125,28.875,28.0625,32.0,34.0625,34.9375
0.066050194,-1.0105788,-1.5366118,-0.90001714,-0.03839315,0.041326266,-0.16531055,-0.38201147,-0.34848708,0.059900988,-3.0787733,0.6250396,-0.0003093856,-0.030836472,-5.665221e-05,0.0011016686,-0.012100561,0.003699686,0.0054868436,0.47667056,-1.4244337,1.9561766,-2.1009042,-1.5704902,2.451694,-0.034184918,0.04341606,-0.051990733,-0.0002927973,0.008935242,-0.03965326,-0.076614454,0.3256114,-9.404425,0.7351769,47.723602,-0.6808125,-2.2473094,-3.3866801,-0.45403048,0.14762914,-0.2903042,27.8125,28.875,28.0625,32.0,34.0625,34.9375
0.06804625,-1.2842536,-1.1145724,-0.83485997,-0.038745612,0.032915372,-0.15882169,-0.38205892,-0.34849146,0.05990616,-3.0787854,0.6250218,-0.00029352773,-0.032121476,-0.0008458864,0.0024215302,-0.014084452,0.005951103,0.0065900804,0.47663447,-1.4243618,1.9560803,-2.1008928,-1.5704902,2.4516454,-0.03443453,0.04324256,-0.054835178,-0.00018768359,0.009659846,-0.041005794,-0.05746084,0.34476504,-9.385271,0.800085,47.716442,-0.7948183,-2.1916325,-3.276741,-0.45444787,0.119737774,-0.27642733,27.8125,28.875,28.0625,32.0,34.0625,34.9375
0.0700425,-1.5511243,-1.3840357,-0.815953,-0.024662184,0.030335048,-0.14629747,-0.38212684,-0.34849703,0.059913885,3.0787506,-0.62501436,0.00032663697,-0.03355358,-0.0012750697,0.0033634407,-0.015643096,0.0076885265,0.006562593,0.47655007,-1.424266,1.9559478,-2.1008685,-1.5704416,2.4515607,-0.035364006,0.04366115,-0.05745544,-0.00024399132,0.010243447,-0.041907217,-0.15322891,0.24899697,-9.251195,0.80679786,47.709274,-0.81917924,-2.0353568,-3.2524786,-0.4585469,0.11735746,-0.28428665,27.8125,28.875,28.0625,32.0,34.0625,34.9375
0.072054125,-0.949004,-0.8439097,-0.704335,-0.019796925,0.047412533,-0.16594705,-0.3822062,-0.34849995,0.059932847,3.078738,-0.6248961,0.00022600389,-0.034989443,-0.0019786162,0.0034287444,-0.015841467,0.0083022835,0.0076063685,0.47649005,-1.424193,1.9558266,-2.1008928,-1.570454,2.4514287,-0.03536202,0.046708263,-0.061068323,-0.00031393615,0.01013408,-0.042945795,-0.19153613,0.22984336,-9.289502,0.7709874,47.683304,-0.8087237,-2.1580925,-2.996529,-0.45746797,0.12516363,-0.32472834,27.8125,28.875,28.0625,32.0,34.0625,34.9375
0.074048355,-0.6473409,-0.94291073,-0.6855123,-0.014085321,0.06185141,-0.16483685,-0.3822606,-0.3485028,0.059920043,3.0786893,-0.6249424,0.0003021643,-0.033939343,-0.0013340131,0.0014852387,-0.01496162,0.0049204165,0.009486487,0.47640592,-1.4240845,1.9557322,-2.1008933,-1.5703939,2.4513795,-0.036032725,0.048307378,-0.058222335,-0.0013490798,0.010907274,-0.045498937,-0.24899697,0.22984336,-9.289502,0.7217513,47.690468,-0.91581476,-2.1940725,-3.1425743,-0.43941712,0.12844492,-0.32208586,27.8125,28.875,28.0625,32.0,34.0625,34.9375
0.07604772,-0.6325552,-0.8313544,-0.48095393,-0.020583527,0.06878944,-0.17136122,-0.382319,-0.34852847,0.059927963,3.0786786,-0.62482446,0.0002972739,-0.035516683,-0.002044209,0.0022417803,-0.016099444,0.006582233,0.009704295,0.47638178,-1.4239763,1.9555877,-2.1008809,-1.5703696,2.4512832,-0.036378708,0.049849406,-0.061701443,-0.0014099343,0.011150047,-0.04606085,-0.19153613,0.095768064,-9.212888,0.73069996,47.694946,-0.9624946,-2.172821,-3.1417193,-0.4274864,0.10206499,-0.30437505,27.8125,28.875,28.0625,32.0,34.0625,34.9375
0.07804036,-0.646698,-0.65717584,-0.43677384,-0.016236559,0.065404214,-0.1726829,-0.3824044,-0.3485162,0.05993563,3.0786397,-0.6248176,0.00025070156,-0.036566384,-0.0019464237,0.002363291,-0.015671417,0.0072652674,0.00834374,0.47627354,-1.423892,1.9554795,-2.1009047,-1.5703577,2.4511757,-0.03705959,0.0511999,-0.06354328,-0.0013252359,0.010456364,-0.04537851,-0.19153613,0.19153613,-9.212888,0.7777002,47.709274,-1.0021074,-2.123901,-3.058437,-0.435646,0.12092322,-0.3371143,27.8125,28.875,28.0625,32.0,34.0625,34.9375
0.08005313,-1.0661846,-0.60164714,-0.543899,-0.008914689,0.053338196,-0.16297983,-0.38250068,-0.3484965,0.059957586,3.0786207,-0.62481296,0.0001534431,-0.037486695,-0.0022651753,0.0027357042,-0.016539555,0.007660781,0.010064454,0.47616524,-1.4238199,1.955347,-2.1009047,-1.5703815,2.451067,-0.037713736,0.052206557,-0.06561821,-0.0010079596,0.01104725,-0.047752447,-0.17238252,0.21068975,-9.193734,0.7463667,47.701214,-1.0372303,-2.1380312,-3.1270487,-0.4360806,0.093139164,-0.37239137,27.8125,28.875,28.0625,32.0,34.0625,34.9375
0.082052045,-1.0765084,-0.5712824,-0.6425118,-0.01086232,0.051097352,-0.15895346,-0.3825816,-0.3485002,0.05996109,3.078603,-0.62480646,0.00017874515,-0.037880335,-0.00272355,0.0024678274,-0.016996803,0.006903295,0.013235139,0.47608137,-1.4236875,1.9551796,-2.100869,-1.5703572,2.4509814,-0.037741113,0.054039817,-0.067140415,-0.00085515453,0.011799213,-0.05095058,-0.21068975,0.13407528,-9.193734,0.7642693,47.711964,-1.1255931,-2.1035044,-3.136902,-0.41892925,0.097592086,-0.35528278,27.8125,28.875,28.0625,32.0,34.0625,34.9375
0.08405196,-0.9683565,-0.89543205,-0.6389013,-0.018632503,0.052373163,-0.15710208,-0.3826245,-0.3485172,0.059949394,3.0785756,-0.62474155,0.00025219974,-0.038966462,-0.0025834483,0.0026579702,-0.017274853,0.007338239,0.015787477,0.47603306,-1.4235792,1.9550828,-2.100869,-1.5702971,2.450896,-0.039013267,0.05509438,-0.06880768,-0.0007518009,0.011843917,-0.054774303,-0.17238252,0.11492168,-9.193734,0.7597976,47.689575,-1.1946877,-2.166248,-2.9872115,-0.4234511,0.08304821,-0.32298934,27.8125,28.875,28.0625,32.0,34.0625,34.9375
0.08605218,-1.485376,-1.3902123,-0.72268414,-0.01965921,0.0399654,-0.15163828,-0.38273007,-0.34852892,0.059971973,3.0785155,-0.6246926,0.00014895109,-0.039734237,-0.0028494273,0.0025835994,-0.01718889,0.0074152607,0.0147891445,0.47594884,-1.4234709,1.9549154,-2.1009042,-1.5702852,2.450789,-0.039165486,0.056890678,-0.07071159,-0.0006714516,0.011734555,-0.053925723,-0.21068975,0.19153613,-9.289502,0.679228,47.66987,-1.1662501,-2.1232357,-3.0445569,-0.41825134,0.10138315,-0.37207347,27.8125,28.875,28.0625,32.0,34.0625,34.9375
0.088051915,-1.1043878,-1.4664042,-0.6975987,-0.025499763,0.054081306,-0.15340933,-0.3828099,-0.34853148,0.05996337,3.0785015,-0.6246675,0.00017134399,-0.04049177,-0.0025699078,0.0028764324,-0.016846165,0.008078635,0.017556036,0.47586465,-1.4233271,1.9547709,-2.1009042,-1.5702618,2.450691,-0.039953597,0.05722456,-0.07185702,-0.0002868583,0.01112616,-0.057479378,-0.11492168,0.28730422,-9.289502,0.7597976,47.70211,-1.2719766,-2.0913227,-3.0492063,-0.4255624,0.0872578,-0.36994094,27.8125,28.875,28.0625,32.0,34.0625,34.9375
0.0900518,-1.0175179,-1.3796768,-0.7048504,-0.03342599,0.056613304,-0.16115025,-0.38288385,-0.34853524,0.05997783,3.0784822,-0.6245865,0.00019533062,-0.041842267,-0.001706981,0.001059189,-0.015565685,0.004849308,0.018289713,0.47577944,-1.423229,1.954615,-2.1008565,-1.5702251,2.4505577,-0.04293993,0.06245788,-0.073705465,-0.00021130596,0.011465607,-0.061198,-0.19153613,0.22984336,-9.32781,0.7620334,47.70032,-1.1626595,-2.2285354,-3.0545492,-0.4345076,0.09509925,-0.31574738,27.8125,28.875,28.0625,32.0,34.0625,34.9375
0.09205175,-0.80076367,-1.1243906,-0.7309136,-0.048486903,0.060718093,-0.16202493,-0.38297728,-0.34852755,0.059988555,3.078486,-0.6245076,0.000111649664,-0.042919505,-0.0018883276,0.0029373358,-0.017276654,0.008310565,0.021203812,0.47569552,-1.4231219,1.954471,-2.1008685,-1.5702494,2.4504242,-0.04355466,0.059897207,-0.075097114,-0.000118513766,0.011403368,-0.064725935,-0.2681506,0.22984336,-9.251195,0.800085,47.67614,-1.1840705,-2.182989,-3.046329,-0.41059804,0.09533863,-0.28784257,27.8125,28.875,28.0625,32.0,34.0625,34.9375
0.09405172,-1.049164,-1.5575852,-0.9143948,-0.04249401,0.05506224,-0.15890808,-0.38305852,-0.3485488,0.059993513,3.0784135,-0.62443256,0.00012501798,-0.042814575,-0.0023817047,0.0022963907,-0.016679099,0.0072950646,0.025898486,0.4756118,-1.4230009,1.954327,-2.1008928,-1.5701774,2.4503028,-0.042530883,0.06199966,-0.07604814,-8.608096e-05,0.011340349,-0.068395436,-0.17238252,0.36391866,-9.251195,0.6725152,47.694946,-1.3604653,-2.0661397,-3.0633788,-0.4219973,0.08823931,-0.27601072,27.8125,28.875,28.0625,32.0,34.0625,34.9375
0.096051686,-0.6128224,-1.2917758,-1.0035117,-0.04689142,0.06556956,-0.16568767,-0.38316664,-0.34855258,0.060003012,3.0784197,-0.6243381,7.1349896e-05,-0.04428288,-0.0014327413,0.0018327341,-0.016477292,0.0065363585,0.026206704,0.4755267,-1.4228442,1.9541234,-2.1008804,-1.5701894,2.450158,-0.045660987,0.06402743,-0.07731678,-7.728652e-05,0.011510068,-0.07183264,-0.15322891,0.2681506,-9.32781,0.7620334,47.703007,-1.247301,-2.1227756,-3.090722,-0.4149418,0.08304176,-0.22638965,27.8125,28.875,28.0625,32.0,34.0625,34.9375
0.09805283,-1.1597365,-1.5895609,-1.0969788,-0.040934645,0.048826806,-0.16069146,-0.3832168,-0.34853953,0.059995636,3.0784585,-0.6242096,0.00015440866,-0.04523148,-0.0009251387,0.000498926,-0.014954419,0.004552145,0.028127553,0.47544226,-1.4227465,1.9540151,-2.1008208,-1.570166,2.4499886,-0.04713457,0.06807758,-0.07890612,-7.108415e-05,0.0110592935,-0.07522566,-0.076614454,0.28730422,-9.442732,0.72622824,47.677036,-1.1463143,-2.2889838,-3.1400216,-0.42436635,0.091686465,-0.17256461,27.8125,28.875,28.0625,32.0,34.0625,34.9375
0.10005189,-1.2831767,-1.503232,-0.9911757,-0.044129413,0.03913142,-0.15669997,-0.38332865,-0.3485516,0.060002923,3.078396,-0.6241588,7.691561e-05,-0.04638728,0.0002269817,0.0012472923,-0.015629832,0.0058275135,0.028158246,0.47534505,-1.4226032,1.9538482,-2.1008804,-1.5701417,2.4498677,-0.050238427,0.06646169,-0.07879106,-9.00379e-06,0.011084823,-0.07835967,-0.1340753,0.21068975,-9.519346,0.7709874,47.691364,-1.1522604,-2.1228085,-3.1867614,-0.42393926,0.08416918,-0.13160507,27.8125,28.875,28.0625,32.0,34.0625,34.9375
0.10205189,-1.1495278,-1.2728028,-0.94666576,-0.04182067,0.044332236,-0.15802437,-0.3834118,-0.3485403,0.059984762,3.078398,-0.62404263,0.00012603145,-0.047754504,-0.0008047485,0.001677178,-0.016045853,0.007139194,0.028789353,0.4752254,-1.422458,1.9537266,-2.1008928,-1.5701059,2.4496753,-0.049496707,0.069032736,-0.08272223,-5.8788316e-07,0.0108467,-0.07824656,-0.19153613,0.22984336,-9.385271,0.8627467,47.690468,-1.2129519,-2.200314,-3.1587372,-0.4162106,0.09580237,-0.11146862,27.8125,28.875,28.0625,32.0,34.0625,34.9375
0.104051836,-1.026505,-1.1020586,-1.085522,-0.03148644,0.056848425,-0.16134794,-0.38349423,-0.3485643,0.0599893,3.0783727,-0.62386304,0.00015915986,-0.047066774,-0.00016024272,-0.00021243774,-0.014268952,0.0036322565,0.030230824,0.47515324,-1.4223131,1.9535478,-2.1008804,-1.5700458,2.4494944,-0.05001614,0.071612135,-0.081364326,-3.8384567e-08,0.010877172,-0.080207564,-0.15322891,0.24899697,-9.461885,0.7866488,47.67614,-1.3005538,-2.2108061,-3.2083325,-0.4051971,0.09147845,-0.08007792,27.8125,28.875,28.0625,32.0,34.0625,34.9375
0.1060521,-0.6505415,-1.079113,-1.0119175,-0.020688958,0.07002363,-0.16561753,-0.38360855,-0.34855774,0.05999466,3.078374,-0.62379134,0.000105671454,-0.048733767,0.00081459444,-0.00016753387,-0.014777604,0.0036589757,0.023625785,0.47504398,-1.4221566,1.9533566,-2.1008804,-1.5700573,2.4493403,-0.053542364,0.07263589,-0.08264751,-2.5062379e-09,0.011317265,-0.07712809,-0.15322891,0.19153613,-9.481039,0.7351769,47.690468,-1.2000945,-2.2414875,-3.336145,-0.40680802,0.09274435,-0.06395918,27.8125,28.875,28.0625,32.0,34.0625,34.9375
0.10805269,-0.90217954,-0.8670153,-0.9245074,-0.02101959,0.06323461,-0.15967438,-0.38371438,-0.34855765,0.05999905,3.078342,-0.6237656,0.00012346578,-0.05110408,0.00013075012,0.0011193726,-0.016083445,0.006557633,0.020906992,0.47492382,-1.4219999,1.9531621,-2.1008565,-1.570022,2.4492083,-0.054374956,0.07418882,-0.08737179,-1.6363944e-10,0.011144506,-0.07523897,-0.1340753,0.19153613,-9.423578,0.82022345,47.71465,-1.1819122,-2.2167585,-3.0002367,-0.4076771,0.07448076,-0.10691503,27.8125,28.875,28.0625,32.0,34.0625,34.9375
0.11005173,-1.0263597,-0.3938578,-0.92827755,-0.028517764,0.052096963,-0.15781774,-0.38380295,-0.34854934,0.059991967,3.0783508,-0.623652,9.811669e-05,-0.05044432,0.00094303326,-2.3548985e-06,-0.0152838435,0.0041761566,0.020601546,0.47482744,-1.4218675,1.9530324,-2.1008804,-1.5700215,2.44904,-0.055443987,0.074665345,-0.08536453,-1.0684485e-11,0.011529623,-0.076003686,-0.15322891,0.17238252,-9.423578,0.78217715,47.691364,-1.200603,-2.2026873,-3.3347607,-0.40938115,0.08826096,-0.1187168,27.8125,28.875,28.0625,32.0,34.0625,34.9375
0.11205166,-1.1830288,-0.7146342,-0.9343977,-0.01813998,0.058243655,-0.15290403,-0.3839081,-0.34855834,0.05999796,3.0783277,-0.6235547,7.802834e-05,-0.051858097,0.00075665227,0.0004231291,-0.015836377,0.0052254144,0.014745002,0.47473112,-1.4217111,1.9528397,-2.1008804,-1.5699972,2.448886,-0.056397803,0.076085165,-0.087970175,-6.976205e-13,0.011537494,-0.07109906,-0.2681506,0.0,-9.481039,0.7597976,47.72002,-1.2515998,-2.1548238,-3.2512522,-0.3889579,0.072442934,-0.124638066,27.8125,28.875,28.0625,32.0,34.0625,34.9375
0.114052236,-1.0564111,-0.7829511,-0.8867559,-0.014490638,0.06562473,-0.16255613,-0.38400695,-0.34855443,0.059995733,3.0783083,-0.62351376,0.00011422127,-0.052810747,0.0012978849,0.00021618682,-0.015402645,0.005139885,0.011836118,0.47461063,-1.4215546,1.9526604,-2.1008565,-1.5699619,2.4487424,-0.057986826,0.07735686,-0.08896323,-4.554963e-14,0.011189425,-0.06977818,-0.28730422,-0.05746084,-9.423578,0.82022345,47.683304,-1.2179922,-2.1914942,-3.3640985,-0.3971085,0.08098557,-0.16970876,27.8125,28.875,28.0625,32.0,34.0625,34.9375
0.116052195,-1.1946357,-0.7861074,-0.7166875,-0.015891159,0.063888006,-0.15831415,-0.38413057,-0.34853956,0.059990246,3.078299,-0.62353146,7.546162e-05,-0.053341378,0.0013756321,0.00040914482,-0.016083274,0.005323682,0.009911978,0.47447833,-1.4213741,1.9524692,-2.1008685,-1.5699733,2.4486225,-0.05892683,0.07751404,-0.08959667,-2.9740652e-15,0.011712199,-0.06879402,-0.30645782,-0.05746084,-9.32781,0.7933669,47.692257,-1.2422285,-2.1218822,-3.3648605,-0.3980841,0.06300625,-0.21538502,27.8125,28.875,28.0625,32.0,34.0625,34.9375
0.1180527,-0.9758471,-0.69650745,-0.77125573,-0.014151375,0.07223727,-0.16316889,-0.38422972,-0.3485489,0.060001217,3.0782263,-0.6234987,0.00010330219,-0.05382796,0.0021944174,-0.0002859752,-0.014931829,0.004373638,0.00798468,0.47435772,-1.4212415,1.9522899,-2.1008565,-1.5699018,2.4484906,-0.060424466,0.078894876,-0.08959821,-1.9418524e-16,0.011125454,-0.06836318,-0.3256114,0.095768064,-9.3661175,0.7329411,47.689575,-1.2400104,-2.1452756,-3.4451752,-0.3907085,0.085818306,-0.24330187,27.8125,28.875,28.0625,32.0,34.0625,34.9375
0.120051846,-0.8406861,-0.71023947,-0.9541268,-0.0109163085,0.07756134,-0.1533282,-0.38434675,-0.34853476,0.059991114,3.0782187,-0.62349725,8.863352e-05,-0.05580672,0.0019139772,0.0007480526,-0.015948243,0.006683338,0.0066293897,0.47422543,-1.421061,1.9521092,-2.1008685,-1.5699018,2.4483585,-0.06161649,0.0798846,-0.093104936,-1.2678908e-17,0.010969577,-0.06819777,-0.3256114,0.095768064,-9.3661175,0.784413,47.684196,-1.2418631,-2.023332,-3.3107624,-0.3749013,0.08587332,-0.26804277,27.8125,28.875,28.0625,32.0,34.0625,34.9375
0.12205189,-1.4368225,-0.83581966,-0.8004416,-0.015548321,0.062367067,-0.1541759,-0.3844623,-0.34853584,0.06000972,3.078191,-0.623454,-9.196949e-06,-0.05544132,0.0027164544,-0.00026156247,-0.015483857,0.004442618,0.005421408,0.47412887,-1.4209287,1.951918,-2.1008804,-1.5699133,2.4482386,-0.06308438,0.08052208,-0.09153859,-8.2784205e-19,0.011589074,-0.06845816,-0.22984336,0.11492168,-9.404425,0.79560274,47.675243,-1.233478,-1.9691918,-3.4748929,-0.3848819,0.10124555,-0.2905727,27.8125,28.875,28.0625,32.0,34.0625,34.9375
0.12405169,-1.4540231,-1.2518314,-0.9335186,-0.02070075,0.062273417,-0.15686399,-0.38458556,-0.34851718,0.060002025,3.0781791,-0.6233749,2.6319494e-05,-0.058267597,0.0027517735,-2.7288765e-05,-0.01552101,0.005229578,0.0035482987,0.47396016,-1.4207469,1.9517249,-2.1008685,-1.569878,2.4480221,-0.065492235,0.08456351,-0.096836805,0.00054563663,0.011254894,-0.06898949,-0.3256114,0.019153614,-9.423578,0.73741806,47.67614,-1.2264179,-2.0876193,-3.4860187,-0.3754661,0.09221086,-0.3467574,27.8125,28.875,28.0625,32.0,34.0625,34.9375
0.12605245,-1.4223895,-1.028597,-0.9050269,-0.02960166,0.061972305,-0.15524386,-0.38465872,-0.34850276,0.05997352,3.0782034,-0.6233425,0.00012359412,-0.058606166,0.0031373189,0.0011866128,-0.016622677,0.0070305075,0.0027727166,0.47385156,-1.4205799,1.9515933,-2.1008446,-1.5698532,2.4478903,-0.06656791,0.081741974,-0.0964736,0.0009013792,0.011412304,-0.06929114,-0.34476504,0.076614454,-9.461885,0.7284641,47.687782,-1.0949994,-1.96531,-3.4602537,-0.37605116,0.089024305,-0.36076707,27.8125,28.875,28.0625,32.0,34.0625,34.9375
0.12805231,-1.4791859,-0.9273845,-1.0737275,-0.022531368,0.058230296,-0.15921152,-0.3848161,-0.3485271,0.060014207,3.078076,-0.6233337,-4.2654847e-06,-0.059680067,0.0024665222,0.0014932482,-0.016921567,0.0079144975,0.0035013487,0.47371992,-1.4204232,1.9513291,-2.10088,-1.5698055,2.4477694,-0.06624646,0.08367151,-0.099413276,0.0009941956,0.011280834,-0.06969488,-0.40222588,0.15322891,-9.481039,0.8560339,47.703007,-1.3034164,-1.8953674,-3.3923702,-0.38108125,0.10794309,-0.3912499,27.8125,28.875,28.0625,32.0,34.0625,34.9375
0.13005164,-1.6282964,-1.1110172,-1.0358863,-0.024264222,0.0650289,-0.15409061,-0.38494813,-0.34851593,0.060035244,3.0780592,-0.62327385,-8.919097e-05,-0.06142026,0.0029745467,0.0016946542,-0.017547697,0.008406209,0.001169455,0.47358713,-1.4202784,1.9511126,-2.100868,-1.5698174,2.4476016,-0.06892643,0.085089706,-0.10149293,0.0009322627,0.011615532,-0.07004131,-0.36391866,0.1340753,-9.461885,0.86498255,47.692257,-1.2426417,-1.9972925,-3.390936,-0.37370217,0.11807136,-0.43971625,27.8125,28.875,28.0625,32.0,34.0625,34.9375
0.13205262,-1.0718498,-1.1028025,-1.1368104,-0.033792354,0.08539166,-0.16071318,-0.38505,-0.34849286,0.06000377,3.0780492,-0.62336856,2.0537462e-05,-0.06316577,0.003729501,0.0021660698,-0.018436357,0.009147251,-0.00029687394,0.4734297,-1.4200741,1.9509453,-2.1008446,-1.5697812,2.4475045,-0.07212248,0.085573845,-0.103170864,0.0010655642,0.012064585,-0.07177126,-0.34476504,0.19153613,-9.595961,0.8157518,47.72002,-0.97620547,-1.8991978,-3.352048,-0.36195898,0.10347211,-0.47197476,27.8125,28.875,28.0625,32.0,34.0625,34.9375
0.13405235,-1.3002456,-1.2831484,-1.0646316,-0.044466622,0.07995566,-0.15792705,-0.3851913,-0.34847808,0.060018014,3.0780203,-0.623361,-3.748177e-05,-0.063214876,0.002985415,0.0020609277,-0.0184109,0.009032921,0.0028864956,0.47327444,-1.4199055,1.9507169,-2.1008322,-1.5697812,2.4473484,-0.07084176,0.08699642,-0.104601234,0.0011901134,0.012098526,-0.073672496,-0.34476504,0.21068975,-9.595961,0.7396539,47.672558,-1.2469087,-1.8751076,-3.3954332,-0.35661036,0.1130169,-0.4874445,27.8125,28.875,28.0625,32.0,34.0625,34.9375
0.13605231,-1.4269001,-1.5834938,-1.2179278,-0.047904365,0.081434876,-0.15416694,-0.38532865,-0.3484844,0.06003431,3.0779364,-0.62336004,-7.7338205e-05,-0.06505418,0.0037698885,0.0022141528,-0.019436063,0.00912224,0.0064919405,0.47312912,-1.419737,1.9504894,-2.1008446,-1.569733,2.4472132,-0.07444715,0.08822954,-0.10637601,0.0011936374,0.012979694,-0.080882065,-0.30645782,0.21068975,-9.5385,0.75084364,47.6421,-1.0948997,-1.8352835,-3.429279,-0.3698548,0.11561416,-0.46336865,27.8125,28.875,28.0625,32.0,34.0625,34.9375
0.13805193,-1.5763792,-1.730281,-1.2912511,-0.04069819,0.07017178,-0.15221563,-0.38542917,-0.34847885,0.060017023,3.077934,-0.6232244,-1.4292039e-05,-0.06620101,0.0040313397,0.001971636,-0.018741002,0.008867936,0.008458368,0.47299674,-1.4195559,1.9503216,-2.1008446,-1.5696853,2.4469965,-0.07560725,0.09048969,-0.10852874,0.0016395972,0.012476692,-0.084007114,-0.28730422,0.21068975,-9.710882,0.8247004,47.66091,-1.0390904,-1.8350906,-3.4411874,-0.37293917,0.112328485,-0.45982027,27.8125,28.875,28.0625,32.0,34.0625,34.9375
0.14005195,-1.4730763,-1.4143839,-1.266433,-0.04237254,0.06741533,-0.15402937,-0.38557184,-0.3484777,0.06005194,3.077888,-0.62319094,-0.00011433894,-0.067511834,0.004370289,0.0017497732,-0.018780816,0.008482791,0.014368398,0.47286424,-1.419411,1.9500703,-2.1008203,-1.5696849,2.446849,-0.0775154,0.092626125,-0.110524595,0.0018319869,0.012699272,-0.091823176,-0.28730422,0.22984336,-9.653421,0.8851263,47.65912,-1.0588355,-1.8305354,-3.397328,-0.36698878,0.13748686,-0.41146335,27.8125,28.875,28.0625,32.0,34.0625,34.9375
0.14205198,-1.247597,-1.1432834,-1.3260678,-0.048202187,0.06981403,-0.15746698,-0.38572234,-0.3484371,0.06002205,3.077875,-0.6232829,-7.364209e-05,-0.068793304,0.0044552926,0.001711449,-0.018421212,0.0088653015,0.019308923,0.47264773,-1.4191701,1.9498652,-2.1008322,-1.5696734,2.4466918,-0.07847768,0.094708525,-0.11286704,0.0019264029,0.012206176,-0.09772456,-0.4405331,0.21068975,-9.730036,0.8537928,47.637623,-0.99047506,-1.8324455,-3.3833642,-0.37343264,0.13433869,-0.31979117,27.8125,28.875,28.0625,32.0,34.0625,34.9375
0.1440519,-1.4668566,-1.3001796,-1.1239282,-0.03469181,0.07339061,-0.16751643,-0.38587707,-0.34842604,0.06004565,3.0778534,-0.6231209,-0.00014671135,-0.06977963,0.0047954554,8.117656e-06,-0.01744839,0.0060416004,0.02423565,0.47247916,-1.4190001,1.9496139,-2.1008203,-1.569661,2.446425,-0.080221064,0.099688664,-0.114647985,0.0016924241,0.012635994,-0.10439242,-0.34476507,0.21068975,-9.595961,0.8023209,47.678825,-0.9651669,-1.8593904,-3.3671181,-0.368972,0.14982033,-0.28147605,27.8125,28.875,28.0625,32.0,34.0625,34.9375
0.14605238,-1.3271935,-1.1409487,-1.3074983,-0.031202419,0.0714247,-0.16582482,-0.38601977,-0.34846056,0.060073964,3.0777662,-0.6229655,-0.00022122552,-0.07254143,0.003502631,0.0022480881,-0.021231169,0.01013904,0.027599365,0.47237092,-1.41882,1.9493483,-2.1008446,-1.5696,2.446231,-0.08138674,0.10002584,-0.1201036,0.0014478756,0.014145216,-0.10891843,-0.28730422,0.21068975,-9.481039,0.7709874,47.642998,-0.96184146,-1.8981782,-3.1693316,-0.36326087,0.15961397,-0.21264577,27.8125,28.875,28.0625,32.0,34.0625,34.9375
0.14805199,-1.597316,-1.2655534,-0.994662,-0.031774413,0.066713706,-0.15877324,-0.38615134,-0.34842554,0.060053196,3.0777855,-0.62289304,-0.000121567755,-0.07243146,0.004610089,-0.00066629186,-0.019384345,0.004732163,0.027928524,0.47216606,-1.4186019,1.9491347,-2.1007965,-1.5695642,2.4459784,-0.08373844,0.1050457,-0.11916098,0.0011473619,0.0149615165,-0.11160013,-0.38307226,0.3256114,-9.385271,0.7597976,47.674347,-0.87612826,-1.9957969,-3.2253551,-0.34319666,0.15865527,-0.16155855,27.8125,28.875,28.0625,32.0,34.0625,34.9375
0.15005204,-1.4387951,-1.7587634,-1.0314106,-0.036662463,0.071429506,-0.14789556,-0.38630864,-0.3484244,0.060077325,3.07772,-0.6227644,-0.00020631631,-0.07431781,0.0043296623,0.00093438674,-0.021425877,0.007827007,0.026781349,0.4719976,-1.4184343,1.948893,-2.1008203,-1.569528,2.445738,-0.08518538,0.10439104,-0.12204502,0.0010068301,0.015379579,-0.111897334,-0.4405331,0.22984336,-9.423578,0.7732232,47.687782,-0.86660695,-2.0184298,-3.0431068,-0.3466965,0.1377255,-0.12404328,27.8125,28.875,28.0625,32.0,34.0625,34.9375
0.15205202,-1.247875,-1.4868078,-1.021485,-0.04838508,0.07810556,-0.15358278,-0.3864575,-0.3484213,0.060092248,3.077677,-0.62266165,-0.00026859835,-0.07537756,0.0046302215,0.00061751105,-0.020600013,0.0077190627,0.02347028,0.47184134,-1.4182532,1.948654,-2.1008322,-1.5695041,2.4455233,-0.08620249,0.106540814,-0.1238298,0.0011184344,0.014697283,-0.10960092,-0.4213795,0.22984336,-9.423578,0.85826975,47.67166,-0.7937995,-1.9662175,-3.2008417,-0.33298904,0.15803598,-0.12380396,27.8125,28.875,28.0625,32.0,34.0625,34.9375
0.15405218,-1.3330163,-1.3377489,-1.0401212,-0.047534235,0.078892864,-0.15685306,-0.38661104,-0.34839344,0.06007965,3.0777073,-0.6225945,-0.00026582362,-0.07755576,0.0055686184,0.001250808,-0.02064918,0.008943577,0.015921596,0.47166017,-1.4180125,1.9484013,-2.1008084,-1.5695161,2.4452965,-0.08946447,0.107434206,-0.12646821,0.0017488936,0.014177415,-0.105312936,-0.5554548,0.24899697,-9.442732,0.82694155,47.705692,-0.78460073,-1.9563901,-3.1177742,-0.33502764,0.1738464,-0.16346714,27.8125,28.875,28.0625,32.0,34.0625,34.9375
0.15605216,-1.2164695,-1.6461148,-0.79591566,-0.03445509,0.08686348,-0.15343419,-0.38676155,-0.34840685,0.060098406,3.077607,-0.6225369,-0.00027021172,-0.07638467,0.004393272,0.00095544005,-0.02067299,0.0075060674,0.013614501,0.47149307,-1.4178205,1.9481381,-2.100808,-1.5694321,2.4451063,-0.08671934,0.10825121,-0.12696624,0.0027025796,0.014857111,-0.10025978,-0.47884035,0.24899697,-9.385271,0.7642693,47.701214,-0.84296167,-1.8362818,-3.170104,-0.35181618,0.17812103,-0.17844924,27.8125,28.875,28.0625,32.0,34.0625,34.9375
0.15805246,-1.0268601,-1.1714169,-0.6849948,-0.04905165,0.09873427,-0.16427907,-0.38691553,-0.34839097,0.06009286,3.077589,-0.6225546,-0.00029558042,-0.077078395,0.00451777,0.0004220124,-0.02071395,0.006397918,0.009145199,0.47132486,-1.4175912,1.9478878,-2.100808,-1.5694317,2.4449515,-0.0878761,0.11038597,-0.12824728,0.0028143018,0.015395152,-0.09694619,-0.49799395,0.30645782,-9.270349,0.8179876,47.69763,-1.0446433,-1.9361806,-3.1606596,-0.34390962,0.17233303,-0.2652175,27.8125,28.875,28.0625,32.0,34.0625,34.9375
0.16005251,-1.4987649,-1.2025032,-0.65716785,-0.033095427,0.08709329,-0.16044725,-0.38709074,-0.34837332,0.060105886,3.0775025,-0.6225559,-0.00031033956,-0.07945155,0.00443801,0.0013090996,-0.02209575,0.008462535,0.008537843,0.471096,-1.4173864,1.9476231,-2.100808,-1.5693716,2.4447346,-0.09002699,0.11189889,-0.13197006,0.0025675665,0.015691923,-0.09848684,-0.34476504,0.30645782,-9.232041,0.7777002,47.67345,-0.7502043,-1.8569801,-3.1936584,-0.33323327,0.19953434,-0.27213654,27.8125,28.875,28.0625,32.0,34.0625,34.9375
0.16205262,-1.2324837,-0.86388797,-0.3903378,-0.02748353,0.07166301,-0.15318751,-0.3872654,-0.34839308,0.06012181,3.0774615,-0.62245023,-0.00040020025,-0.07863516,0.0036054705,0.0005939437,-0.021837283,0.007384525,0.009611625,0.47096485,-1.4171339,1.9472998,-2.1008198,-1.5693597,2.444543,-0.08794489,0.11329087,-0.13186662,0.0021511435,0.015959093,-0.09747709,-0.2681506,0.19153614,-9.174581,0.80456203,47.66271,-1.0577439,-1.9429922,-3.2513037,-0.32879287,0.19528002,-0.3171897,27.8125,28.875,28.0625,32.0,34.0625,34.9375
0.16405259,-0.94975,-0.98435086,-0.1933776,-0.019158276,0.058842488,-0.15468816,-0.38739967,-0.348368,0.060092136,3.077434,-0.62242496,-0.00031199478,-0.07929021,0.0037216055,0.000571546,-0.022349285,0.0077396436,0.009263296,0.4707604,-1.4169055,1.9471081,-2.1008322,-1.5693,2.4443262,-0.088891104,0.11389122,-0.13238788,0.001532192,0.016253514,-0.098075025,-0.3256114,0.13407528,-9.002198,0.79560274,47.675243,-0.99145293,-1.8493965,-3.174929,-0.3136946,0.20418233,-0.34084418,27.8125,28.875,28.0625,32.0,34.0625,34.9375
0.16605255,-0.4737106,-0.27614605,-0.26971698,-0.016537674,0.05079969,-0.16211687,-0.38761693,-0.3483795,0.060159273,3.0773144,-0.62232447,-0.0005212604,-0.07986398,0.0040432494,-0.0010217609,-0.020688957,0.0054426338,0.008454285,0.47056833,-1.4167236,1.9467491,-2.1008446,-1.5692757,2.4440868,-0.089654215,0.118139856,-0.13359533,0.001298216,0.015833711,-0.09802483,-0.15322891,0.038307227,-9.059659,0.900793,47.70838,-1.0865554,-2.1186543,-3.2622561,-0.30798677,0.21066737,-0.3603106,27.8125,28.875,28.0625,32.0,34.0625,34.9375
0.16805287,-0.21185279,-0.011483881,-0.27522954,-0.008705423,0.03224771,-0.16284731,-0.3877793,-0.3483696,0.060166698,3.0772548,-0.6223684,-0.0005574737,-0.081063375,0.0032051983,0.0008686762,-0.023390342,0.008707081,0.009660554,0.47038823,-1.4165083,1.9464849,-2.1008446,-1.5692514,2.4439418,-0.08981146,0.116453424,-0.1359775,0.0012363398,0.016766295,-0.09938668,0.019153614,0.11492168,-9.078813,0.8493211,47.684196,-1.0814043,-1.8041794,-3.2913013,-0.29128063,0.21926793,-0.38659155,27.8125,28.875,28.0625,32.0,34.0625,34.9375
0.17005204,0.39879975,-0.08928739,-0.1019516,-0.007840113,0.026487077,-0.16363503,-0.38792428,-0.34835476,0.06013649,3.0772731,-0.6223322,-0.0004449826,-0.08159885,0.0041034846,-0.00026835542,-0.02200778,0.006991576,0.011188591,0.47020778,-1.4162188,1.9462103,-2.1007965,-1.5692157,2.4437366,-0.09154881,0.118804,-0.13610564,0.001182532,0.01631245,-0.102652766,0.076614454,0.038307227,-8.944737,0.7665104,47.678825,-1.0967727,-2.0562806,-3.2593374,-0.26490748,0.22410882,-0.38323164,27.8125,28.875,28.0625,32.0,34.0625,34.9375
0.17205195,0.3088559,-0.024943247,-0.10944074,-0.0065731276,0.009235294,-0.16260006,-0.38809952,-0.34833533,0.060132574,3.0772486,-0.6222293,-0.000532551,-0.08304058,0.004357844,-0.0005754852,-0.021898238,0.0065945964,0.014288807,0.47001505,-1.4159899,1.9459699,-2.100856,-1.5692157,2.4434829,-0.09331378,0.12147773,-0.1385423,0.0013587339,0.016407657,-0.107515305,0.19153613,0.095768064,-8.887277,0.80456203,47.701214,-1.0864589,-1.8784504,-3.284288,-0.2813791,0.2527215,-0.36796677,27.8125,28.875,28.0625,32.0,34.0625,34.9375
0.17405264,-0.14979592,-0.4867594,-0.23019965,-0.0031676341,-0.006535811,-0.15318458,-0.38826266,-0.34833014,0.060140975,3.077204,-0.62219656,-0.0005395328,-0.0828595,0.004055809,-0.0008860553,-0.021678034,0.0048590964,0.020847814,0.46983516,-1.4157611,1.9456824,-2.1008317,-1.5691794,2.4432883,-0.09296047,0.122893155,-0.13983725,0.0028990984,0.017014138,-0.11371988,0.21068975,0.11492168,-8.848969,0.93436235,47.70211,-1.1064315,-1.9278176,-3.2891006,-0.28380015,0.26616064,-0.30380517,27.8125,28.875,28.0625,32.0,34.0625,34.9375
0.17605262,0.44800505,-0.40430978,-0.49082673,-0.017840687,0.011251816,-0.1638603,-0.38844085,-0.34830713,0.060124442,3.0772052,-0.6221347,-0.0004994946,-0.08405977,0.005426479,-0.0015565506,-0.02108758,0.0026832006,0.026120553,0.46961796,-1.4154721,1.9453825,-2.1008074,-1.5691551,2.4430325,-0.09671678,0.12492178,-0.14097926,0.004238133,0.017488614,-0.122748576,0.22984336,0.11492168,-8.983045,0.8179876,47.699425,-1.0679058,-1.9386048,-3.2972865,-0.29109165,0.25714,-0.21888949,27.8125,28.875,28.0625,32.0,34.0625,34.9375
0.17805183,-0.0448229,-1.3582675,-0.7675764,-0.018886164,0.005596819,-0.14916289,-0.38857967,-0.34828532,0.06011056,3.0772398,-0.62194777,-0.0004442551,-0.08459768,0.0036802657,-0.0003980379,-0.022959154,0.004036283,0.030864038,0.4694385,-1.4152436,1.9451431,-2.1007707,-1.5691308,2.442732,-0.094753906,0.12561008,-0.14465241,0.005176092,0.018543083,-0.12552792,0.2873042,0.24899697,-9.11712,0.8157518,47.666286,-1.1271772,-1.9316386,-3.2210164,-0.28771287,0.2627596,-0.17903137,27.8125,28.875,28.0625,32.0,34.0625,34.9375
0.18005176,-0.23338433,-1.6547756,-0.88053954,-0.042666253,0.01703456,-0.15472002,-0.3887644,-0.34830788,0.060144342,3.0771215,-0.6218265,-0.00050868536,-0.08532105,0.004917121,-0.0014645961,-0.021901779,0.0018720708,0.031401895,0.46925777,-1.4150269,1.9448198,-2.100783,-1.5690469,2.4424908,-0.09757373,0.12774,-0.14479247,0.0056137578,0.0186024,-0.12888317,0.1340753,0.24899697,-9.251195,0.83589023,47.689575,-1.2170706,-1.9491067,-3.4449959,-0.29320443,0.2862426,-0.08771987,27.8125,28.875,28.0625,32.0,34.0625,34.9375
0.18205193,-0.6028487,-1.8141315,-1.0769254,-0.053186122,0.024004033,-0.1525143,-0.38888437,-0.3482879,0.060101006,3.0772033,-0.6216886,-0.00040341532,-0.08530079,0.0038821227,-0.0008059714,-0.022681596,0.002644377,0.03274149,0.4691143,-1.4147505,1.9445924,-2.1007464,-1.5690469,2.442251,-0.09590731,0.12776652,-0.14650713,0.0062614633,0.01893669,-0.12855725,-0.038307227,0.38307226,-9.32781,0.7597976,47.682407,-1.0969615,-2.0005586,-3.3568435,-0.3138762,0.26400924,-0.091646574,27.8125,28.875,28.0625,32.0,34.0625,34.9375
0.18405192,-0.65217,-2.1271956,-1.1912783,-0.054100726,0.038258422,-0.15291075,-0.3890987,-0.34828553,0.06011848,3.0771306,-0.62159884,-0.00045644792,-0.08633716,0.0040288917,-0.0023441324,-0.021780657,-0.00051031844,0.028559038,0.46888578,-1.4144725,1.9442328,-2.1007464,-1.5689982,2.4419758,-0.09744087,0.13302688,-0.14924265,0.0069620544,0.019563206,-0.12590477,-0.019153614,0.4405331,-9.423578,0.87617236,47.72002,-1.2349148,-1.8743112,-3.2976608,-0.32121387,0.30480087,-0.09611365,27.8125,28.875,28.0625,32.0,34.0625,34.9375
0.18605213,-1.0080172,-1.7655559,-1.4288456,-0.06703122,0.038135547,-0.15377547,-0.3892553,-0.34827146,0.06011922,3.077087,-0.6214976,-0.00042868903,-0.08808386,0.0036299904,-0.00031451316,-0.024340851,0.0029608544,0.02367089,0.46868137,-1.4142569,1.9439806,-2.1007345,-1.5689381,2.4417138,-0.09871112,0.13139911,-0.15206857,0.0071653496,0.02027264,-0.12228524,-0.038307227,0.4405331,-9.500193,0.7978386,47.668976,-1.1464807,-1.8322287,-3.3792844,-0.319626,0.30839252,-0.13358806,27.8125,28.875,28.0625,32.0,34.0625,34.9375
0.18805248,-0.88719934,-1.9405484,-1.5789574,-0.06867119,0.051290203,-0.15344314,-0.3894275,-0.3482549,0.060105287,3.0770903,-0.6214809,-0.00039684077,-0.086749904,0.0045939665,-0.002792468,-0.022359168,-0.0021467472,0.018513411,0.46848917,-1.4139676,1.9436711,-2.1006982,-1.5689257,2.441511,-0.09950752,0.13394238,-0.1494466,0.007448305,0.020810429,-0.11792536,-0.34476504,0.5363012,-9.710882,0.7732232,47.666286,-1.2042096,-1.9769766,-3.4751236,-0.33722657,0.29966247,-0.18709663,27.8125,28.875,28.0625,32.0,34.0625,34.9375
0.19005242,-1.3008852,-2.567399,-1.7278956,-0.08483056,0.06526789,-0.15004127,-0.3895747,-0.34824085,0.060082357,3.0771134,-0.6213725,-0.0003034229,-0.087910146,0.004080878,-0.0022983998,-0.023376562,-0.0021207724,0.013862794,0.46830904,-1.4136909,1.9433941,-2.10065,-1.56889,2.4412603,-0.10016445,0.13560289,-0.15279283,0.008649476,0.021691456,-0.11393095,-0.2681506,0.5746084,-9.80665,0.8157518,47.677036,-1.2537766,-1.8809655,-3.2687645,-0.36276644,0.30800626,-0.24261129,27.8125,28.875,28.0625,32.0,34.0625,34.9375
0.19205238,-1.9393245,-2.8509717,-1.5365335,-0.101807915,0.073074184,-0.14759465,-0.3897565,-0.34824133,0.060082518,3.07703,-0.6213749,-0.00025041233,-0.089068964,0.004111703,-0.0019731717,-0.024439942,-0.0021090982,0.011617317,0.46809232,-1.4134142,1.9430698,-2.1006262,-1.5688056,2.4410558,-0.101806134,0.13665548,-0.15491316,0.00923688,0.02263549,-0.1133255,-0.34476504,0.5363012,-9.787497,0.83813137,47.687782,-1.1736826,-1.901792,-3.4292886,-0.38835663,0.30935454,-0.3179364,27.8125,28.875,28.0625,32.0,34.0625,34.9375
0.19405234,-1.5726206,-2.5929239,-1.6952162,-0.096006975,0.083702505,-0.15217863,-0.3899462,-0.34824246,0.06007872,3.0769978,-0.62135214,-0.00022822928,-0.0907638,0.003413926,-0.0008642633,-0.026618864,0.0006770188,0.007011664,0.46790034,-1.4131019,1.9427108,-2.1005905,-1.5687689,2.4408538,-0.102470994,0.13702175,-0.15765055,0.008137401,0.023311634,-0.10938287,-0.38307226,0.49799395,-9.787497,0.8605109,47.71017,-1.2630165,-1.8609993,-3.311957,-0.36602372,0.28717315,-0.36873236,27.8125,28.875,28.0625,32.0,34.0625,34.9375
0.19605234,-1.7008094,-2.1695263,-1.3799474,-0.08609216,0.08558006,-0.15395612,-0.3901361,-0.34822306,0.060085583,3.076966,-0.6212866,-0.0003163184,-0.0919811,0.0032997418,-0.0004625652,-0.027253274,0.002417117,0.007487195,0.467696,-1.4128615,1.9424237,-2.1006148,-1.5687693,2.4406128,-0.10316622,0.13773274,-0.1591856,0.0071299775,0.023100097,-0.110551104,-0.47884035,0.38307226,-9.787497,0.7553206,47.72808,-1.2665488,-1.8285642,-3.2876964,-0.3529678,0.31021106,-0.4133228,27.8125,28.875,28.0625,32.0,34.0625,34.9375
0.19805266,-1.6094106,-1.2413572,-1.2799473,-0.069014795,0.09223206,-0.15799198,-0.39031878,-0.34823474,0.060096413,3.076859,-0.6212864,-0.00028039297,-0.09373021,0.0037749496,-0.0012081909,-0.027617238,0.002052666,0.0031529686,0.467491,-1.4125955,1.9420875,-2.1005914,-1.568673,2.4404213,-0.10582376,0.14094022,-0.1609141,0.0058227233,0.023587605,-0.108871736,-0.4405331,0.28730422,-9.691729,0.8179876,47.71017,-1.0489905,-1.9607918,-3.345136,-0.35452557,0.30092055,-0.4782055,27.8125,28.875,28.0625,32.0,34.0625,34.9375
0.20005177,-1.529499,-0.2076946,-1.1511104,-0.03526573,0.09055549,-0.16462588,-0.3905056,-0.348243,0.06006519,3.076836,-0.62112546,-0.00023423723,-0.09437592,0.002730891,-0.0022330466,-0.028472623,0.0009087828,0.007116279,0.46729922,-1.4122462,1.9417647,-2.1006281,-1.5686125,2.4401321,-0.10532404,0.14505036,-0.16305816,0.004506099,0.02486886,-0.11233292,-0.49799395,0.11492168,-9.576807,0.8672237,47.67345,-1.2616456,-1.8902603,-3.3312426,-0.34425405,0.2924784,-0.4957192,27.8125,28.875,28.0625,32.0,34.0625,34.9375
0.20205174,-1.4475332,0.3917635,-1.1601495,-0.011874666,0.09682678,-0.16247919,-0.3907198,-0.3482407,0.060102947,3.0767047,-0.6211928,-0.00028105624,-0.09660674,0.0044326447,-0.0021479607,-0.02950354,0.0014832674,0.008691875,0.46705723,-1.4120058,1.9413933,-2.100592,-1.5685405,2.439949,-0.11068511,0.14549597,-0.16359924,0.003650663,0.025554428,-0.11926662,-0.34476504,0.0,-9.710882,0.8224646,47.67345,-0.9877899,-1.9869837,-3.3784697,-0.33424145,0.26779664,-0.48832056,27.8125,28.875,28.0625,32.0,34.0625,34.9375
0.20405169,-1.662652,0.25578138,-1.1403304,-0.0009790796,0.08937141,-0.16355573,-0.39089468,-0.3482275,0.060086798,3.0767043,-0.6210519,-0.0002438776,-0.096939705,0.003394542,-0.002627341,-0.02990165,0.0009451796,0.018704187,0.4668539,-1.4117167,1.9410943,-2.1005805,-1.5685037,2.439658,-0.10948646,0.14831896,-0.16571249,0.003268458,0.026165912,-0.1280787,-0.4405331,-0.15322891,-9.557653,0.86945957,47.689575,-1.2101841,-2.1107268,-3.4614644,-0.3278289,0.2888618,-0.42518163,27.8125,28.875,28.0625,32.0,34.0625,34.9375
0.20605263,-2.054054,0.07628535,-1.0298247,0.0022252677,0.08230651,-0.14778827,-0.3911102,-0.34820172,0.060085792,3.0766616,-0.621059,-0.00026322893,-0.09846451,0.0049576405,-0.00308449,-0.029476658,0.00020180753,0.024090955,0.46660045,-1.4114156,1.9407467,-2.100568,-1.5684799,2.4394145,-0.11351567,0.14967076,-0.16629833,0.0033877539,0.026145676,-0.13749348,-0.57460845,-0.22984336,-9.442732,0.80456203,47.675243,-1.0558676,-2.1317222,-3.3445969,-0.31465268,0.27231333,-0.33890152,27.8125,28.875,28.0625,32.0,34.0625,34.9375
0.20805272,-1.4072953,0.120087944,-1.0051485,0.0015445371,0.095323496,-0.15652288,-0.39130083,-0.3482268,0.06010335,3.0766082,-0.6207954,-0.000351368,-0.10045617,0.0052240216,-0.0024195074,-0.029843383,0.0020828475,0.028956305,0.46644402,-1.4111512,1.94041,-2.1006043,-1.5684327,2.4391005,-0.115384206,0.15083487,-0.16916619,0.0032738217,0.02565135,-0.1442234,-0.51714754,-0.24899697,-9.385271,0.85826975,47.68062,-0.9029757,-2.1340895,-3.2736716,-0.31569016,0.28212887,-0.24775347,27.8125,28.875,28.0625,32.0,34.0625,34.9375
0.2100519,-1.6778764,-0.21264549,-0.77443457,0.010798413,0.07457739,-0.16037914,-0.3915266,-0.34820616,0.060110535,3.0765238,-0.6207564,-0.00037917227,-0.10117698,0.0055912714,-0.0027502181,-0.02927611,0.0016238575,0.033021823,0.46616757,-1.4108624,1.9400634,-2.1006157,-1.5683726,2.4388106,-0.116414174,0.15240636,-0.17033076,0.0035603126,0.02537384,-0.1493167,-0.5554548,-0.28730422,-9.461885,0.8403672,47.672558,-0.9488728,-2.0820076,-3.4617925,-0.29966724,0.29358327,-0.19598255,27.8125,28.875,28.0625,32.0,34.0625,34.9375
0.21205182,-1.9623771,0.028918844,-0.5887365,0.0013654046,0.064523086,-0.14546075,-0.3917219,-0.34821302,0.06010806,3.0764625,-0.62064934,-0.00032754912,-0.102308266,0.005289972,-0.0018331757,-0.029746225,0.0033388112,0.030733248,0.46595165,-1.4105498,1.9397029,-2.100592,-1.5682887,2.4385357,-0.11659488,0.15268072,-0.17291294,0.0041392404,0.025021315,-0.14720742,-0.6895301,-0.28730422,-9.2703495,0.8157518,47.711063,-0.97852767,-2.1394138,-3.4845831,-0.30020612,0.29362118,-0.16743627,27.8125,28.875,28.0625,32.0,34.0625,34.9375
0.21405192,-2.00615,-0.20524204,-0.646825,0.0021320716,0.07233813,-0.14166524,-0.3919073,-0.34819075,0.060078513,3.076465,-0.6205745,-0.00026019913,-0.10260576,0.0047768466,-0.0024548916,-0.029058738,0.002234242,0.027468171,0.4657239,-1.4102248,1.9393924,-2.10058,-1.5682524,2.438261,-0.11580641,0.15553708,-0.17495015,0.004617686,0.02489111,-0.14315338,-0.6703765,-0.17238252,-9.270349,0.83813137,47.687782,-1.0919604,-2.0768204,-3.5558858,-0.3006225,0.29052156,-0.19357322,27.8125,28.875,28.0625,32.0,34.0625,34.9375
0.21605216,-1.3745033,-0.13240002,-0.60570776,0.008371548,0.094005994,-0.14957318,-0.39213848,-0.3481841,0.06010003,3.0763898,-0.6204294,-0.0003723392,-0.104143344,0.005186118,-0.0016524714,-0.02970875,0.0034671023,0.020038478,0.46548307,-1.4099483,1.9390324,-2.1006153,-1.5682162,2.4379394,-0.117834456,0.15571402,-0.17716853,0.0052637737,0.02492399,-0.13774791,-0.57460845,-0.05746084,-9.174581,0.800085,47.703007,-0.9847598,-2.0150523,-3.4185786,-0.30029666,0.30307153,-0.2754067,27.8125,28.875,28.0625,32.0,34.0625,34.9375
0.21805246,-1.599866,-0.49510854,-0.6337984,0.0014315505,0.08788384,-0.15169851,-0.3923118,-0.34816867,0.060069337,3.0763934,-0.6203527,-0.00021323068,-0.104860894,0.0039294795,-0.0010086703,-0.030990852,0.0047561433,0.01909279,0.46525577,-1.4096115,1.9386972,-2.1005437,-1.5681447,2.4376638,-0.11654547,0.15690464,-0.18005322,0.0052386145,0.025474029,-0.13551326,-0.5554548,0.05746084,-9.232041,0.83365434,47.67614,-1.2003921,-2.00174,-3.3270085,-0.29496258,0.29412186,-0.31997114,27.8125,28.875,28.0625,32.0,34.0625,34.9375
0.2200521,-1.4469879,-1.0463077,-0.55714494,-0.014724768,0.07514775,-0.14888832,-0.3925881,-0.34814438,0.060100324,3.0762954,-0.6203541,-0.00040347208,-0.10592463,0.004245139,-0.0008251383,-0.031618707,0.0044580493,0.016287519,0.46496695,-1.409311,1.9382905,-2.1005914,-1.5681442,2.4373887,-0.11840701,0.15789792,-0.18183737,0.0060169874,0.026190748,-0.13456431,-0.40222588,0.076614454,-9.193734,0.84708,47.698532,-1.0351096,-1.8757246,-3.2600594,-0.28015062,0.30788866,-0.35037574,27.8125,28.875,28.0625,32.0,34.0625,34.9375
0.22205193,-1.780254,-1.5102925,-0.9514801,-0.04138383,0.050432827,-0.1371048,-0.39277077,-0.34814698,0.060091335,3.0762734,-0.6202538,-0.00030143454,-0.10670619,0.004236617,-0.00033210026,-0.03216264,0.0046538515,0.014410333,0.46476278,-1.4089864,1.9379195,-2.100519,-1.5680717,2.4371247,-0.11926913,0.1583104,-0.18372875,0.007088211,0.026585452,-0.13354897,-0.4405331,0.24899697,-9.136273,0.85155696,47.677036,-1.2130902,-1.8628681,-3.325211,-0.29815736,0.30982286,-0.3810547,27.8125,28.875,28.0625,32.0,34.0625,34.9375
0.22405176,-0.6019433,-1.3972255,-0.7042656,-0.08369905,0.06833953,-0.15854906,-0.3929866,-0.34810746,0.060072493,3.0762448,-0.6203037,-0.00027660342,-0.10724204,0.0049968655,-0.0018270817,-0.030050194,0.0016200972,0.016773853,0.4644863,-1.4086611,1.9375838,-2.1005065,-1.5680479,2.4368832,-0.12067111,0.16223502,-0.18518622,0.008301988,0.026068786,-0.13731398,-0.38307226,0.40222588,-9.174581,0.88289046,47.690468,-1.1215563,-1.8303704,-3.3100796,-0.32049134,0.34192884,-0.40275943,27.8125,28.875,28.0625,32.0,34.0625,34.9375
0.22605184,-0.9852135,-2.3326678,-0.9600977,-0.07864798,0.06427422,-0.15442055,-0.3931922,-0.34808546,0.060068846,3.0762663,-0.62019145,-0.00024971887,-0.10894861,0.005334611,0.00024438085,-0.031160252,0.005255354,0.01859547,0.4642578,-1.4083374,1.9372014,-2.1004345,-1.5680364,2.436582,-0.122298405,0.15996385,-0.1875332,0.009191536,0.025439855,-0.14076328,-0.15322891,0.5363012,-9.270349,0.81351066,47.71465,-1.0837166,-1.9010684,-3.3081665,-0.33717468,0.33361048,-0.4038133,27.8125,28.875,28.0625,32.0,34.0625,34.9375
0.22805196,-1.124456,-2.2952342,-1.0243664,-0.077640414,0.061900016,-0.14800109,-0.39341533,-0.34808517,0.060073942,3.0761747,-0.6200924,-0.00025502476,-0.11000893,0.004900035,3.641372e-05,-0.031392395,0.005378169,0.026252406,0.4640058,-1.4080241,1.9368304,-2.1004465,-1.5679525,2.43628,-0.1225024,0.16256,-0.19004686,0.008934162,0.025619006,-0.14862089,-0.19153613,0.5746084,-9.32781,0.86498255,47.689575,-1.1160896,-1.9207482,-3.203682,-0.33091378,0.3559106,-0.29317227,27.8125,28.875,28.0625,32.0,34.0625,34.9375
0.23005179,-1.1936759,-1.8634349,-0.9404136,-0.08709819,0.062875554,-0.14774957,-0.39365557,-0.3480911,0.06008306,3.0760508,-0.62006164,-0.00026412896,-0.11108111,0.004479386,4.4506614e-05,-0.033407018,0.005434133,0.033537697,0.46374154,-1.4076877,1.9364237,-2.1004589,-1.5678557,2.4360125,-0.12377311,0.16415603,-0.19177845,0.008157062,0.027427923,-0.15717216,-0.11492168,0.49799395,-9.32781,0.8112748,47.689575,-1.1279118,-1.8353561,-3.3980997,-0.3214255,0.34620225,-0.23107827,27.8125,28.875,28.0625,32.0,34.0625,34.9375
0.23205167,-0.25979897,-1.5706248,-0.7465953,-0.077096544,0.067468144,-0.1566254,-0.39388704,-0.34808022,0.06008785,3.076038,-0.61988235,-0.0002970519,-0.110782266,0.0035725567,-0.00029925624,-0.035560343,0.0043674535,0.041139293,0.46350166,-1.4073505,1.9360174,-2.100435,-1.5678309,2.4356625,-0.123378865,0.165033,-0.19188267,0.0073977415,0.029858343,-0.1643758,0.019153614,0.4405331,-9.270349,0.83813137,47.66808,-1.1747967,-1.8517464,-3.333951,-0.30914074,0.3210401,-0.12446177,27.8125,28.875,28.0625,32.0,34.0625,34.9375
0.2340525,0.27718395,-0.9152554,-0.88919085,-0.065396875,0.045964643,-0.15511322,-0.39408746,-0.34809065,0.06007808,3.0759861,-0.6196994,-0.00028620884,-0.11279279,0.0037141177,-0.00021477953,-0.03702418,0.0050522657,0.04049776,0.46329638,-1.4070256,1.9356693,-2.1004593,-1.5677584,2.4353497,-0.12597364,0.16721907,-0.19445443,0.006536709,0.030870894,-0.1663251,0.095768064,0.4213795,-9.232041,0.9254084,47.683304,-1.0124173,-1.8397155,-3.2816396,-0.31580824,0.31580102,-0.06569091,27.8125,28.875,28.0625,32.0,34.0625,34.9375
0.2360524,0.2547383,-1.1216701,-0.9029698,-0.051079236,0.018819809,-0.14489627,-0.39431623,-0.34806857,0.06004055,3.0759678,-0.6196207,-0.00016863286,-0.1126327,0.0031488878,-0.0023377691,-0.036779,0.0011363408,0.037394933,0.4630091,-1.4066159,1.9352754,-2.100436,-1.567686,2.4350157,-0.12571557,0.17232414,-0.1954872,0.0060830936,0.032388505,-0.16296272,0.038307227,0.3256114,-9.251195,0.8179876,47.696735,-1.3014406,-1.9099269,-3.3677607,-0.30312097,0.30360013,-0.08400655,27.8125,28.875,28.0625,32.0,34.0625,34.9375
0.23805274,0.53630906,-0.48838297,-0.8966187,-0.047703046,0.013764675,-0.15615362,-0.39461085,-0.34805435,0.060085904,3.0758548,-0.61960083,-0.00033700644,-0.11407685,0.0028176205,-0.00097470294,-0.039412703,0.0032908767,0.030861093,0.4627085,-1.4062916,1.9347967,-2.100436,-1.5676616,2.4347174,-0.12719117,0.17151792,-0.19767761,0.0059697106,0.03379574,-0.15789714,0.095768064,0.28730422,-9.212888,0.89631605,47.705692,-1.1139399,-1.9156737,-3.3732688,-0.28737533,0.26953563,-0.1417032,27.8125,28.875,28.0625,32.0,34.0625,34.9375
0.24005176,1.2516811,-0.5445021,-1.149154,-0.047066644,0.02623963,-0.15783267,-0.3947866,-0.34806126,0.060042474,3.0758536,-0.6193762,-0.00018281062,-0.114581496,0.0030194444,-0.0016269004,-0.038741615,0.001580139,0.021947317,0.4625041,-1.4059187,1.934461,-2.100423,-1.5675653,2.434373,-0.12800574,0.17393756,-0.1992875,0.0069871494,0.033932913,-0.14979863,0.21068975,0.17238252,-9.3661175,0.84484416,47.687782,-1.1843692,-2.0126662,-3.3040917,-0.29057342,0.25473824,-0.2238088,27.8125,28.875,28.0625,32.0,34.0625,34.9375
0.24205172,0.61674815,-0.5475494,-0.91370165,-0.062932834,0.026669385,-0.14659466,-0.3950102,-0.34804896,0.06002561,3.0757987,-0.6193285,-0.00012589245,-0.115908474,0.0039408933,-0.0022462925,-0.037872322,0.0004252444,0.016061602,0.46223944,-1.4055572,1.9340781,-2.1004112,-1.5674933,2.4340856,-0.1305307,0.17649637,-0.2010443,0.0076167514,0.03366523,-0.14643688,0.19153613,0.30645782,-9.289503,0.83365434,47.67793,-1.1286762,-2.0720024,-3.3169813,-0.2778346,0.2641741,-0.27400076,27.8125,28.875,28.0625,32.0,34.0625,34.9375
0.24405174,0.094833724,-1.0591193,-1.1196256,-0.047586262,0.028595753,-0.14597596,-0.3952403,-0.3480399,0.06002933,3.075714,-0.6193539,-9.905052e-05,-0.11669682,0.0035373957,-0.0023638234,-0.03914125,-0.0005132826,0.01109026,0.46197495,-1.4052202,1.9336709,-2.100375,-1.5674213,2.433848,-0.13140826,0.17848213,-0.20323928,0.008101197,0.035214677,-0.14233911,0.1340753,0.22984336,-9.346964,0.8627467,47.70659,-1.1242976,-2.1406832,-3.362797,-0.29180646,0.23743007,-0.36015874,27.8125,28.875,28.0625,32.0,34.0625,34.9375
0.2460517,-0.3290777,-0.9015067,-1.0254874,-0.04509433,0.028188631,-0.1459744,-0.39548203,-0.34806627,0.06002471,3.0756407,-0.6191861,-6.172631e-05,-0.11744591,0.0032779928,-0.0023144097,-0.041268416,-0.0013680517,0.0073704645,0.46174648,-1.4048113,1.933205,-2.100363,-1.567324,2.4335241,-0.13297077,0.17956929,-0.2047234,0.008322217,0.03750171,-0.14017694,0.19153613,0.15322891,-9.423578,0.8873621,47.705692,-1.0971557,-2.1646812,-3.428957,-0.29388964,0.20465505,-0.42710292,27.8125,28.875,28.0625,32.0,34.0625,34.9375
0.24805182,-0.41658425,-0.733277,-0.8145539,-0.051181026,0.04051427,-0.14463668,-0.3957103,-0.34804466,0.06002715,3.0755582,-0.6192093,-6.0803985e-05,-0.119470626,0.0041374257,-0.001443554,-0.042902835,-0.00045862424,0.0042232117,0.4614693,-1.4044988,1.9328345,-2.1003506,-1.5672635,2.4332721,-0.1368393,0.17956814,-0.20690295,0.008978388,0.038570054,-0.14089449,-0.05746084,0.21068975,-9.385271,0.8560339,47.689575,-1.0190892,-2.0927775,-3.4282746,-0.3060035,0.17899397,-0.4931957,27.8125,28.875,28.0625,32.0,34.0625,34.9375
0.2500518,-0.087133236,-0.28841108,-1.0239803,-0.047315832,0.062240966,-0.15958035,-0.3959548,-0.34802723,0.060012262,3.0754886,-0.619189,7.8810735e-06,-0.11834552,0.0030156376,-0.002183789,-0.042441785,-0.0020036246,0.014040633,0.4611704,-1.404114,1.9324168,-2.1003268,-1.5671796,2.4329696,-0.13396873,0.18119614,-0.20724948,0.009332188,0.038870204,-0.14784053,-0.13407528,0.1340753,-9.423578,0.8247004,47.687782,-1.0787892,-2.2493105,-3.4802446,-0.3015631,0.1601449,-0.47114408,27.8125,28.875,28.0625,32.0,34.0625,34.9375
0.25205263,-1.2485609,-0.6424827,-1.0336791,-0.03140245,0.05708922,-0.14718996,-0.39618886,-0.3480262,0.06001084,3.0754335,-0.619058,3.2031825e-05,-0.120520614,0.0035701855,-0.0020858792,-0.04371338,-0.0016047221,0.020845296,0.46091697,-1.4037528,1.9319957,-2.100303,-1.5671071,2.4326415,-0.13738257,0.18326776,-0.20985623,0.008997765,0.03986267,-0.15805511,-0.17238252,0.11492168,-9.442732,0.83589023,47.65912,-0.85560405,-2.2288172,-3.3388128,-0.29293382,0.11062458,-0.3941781,27.8125,28.875,28.0625,32.0,34.0625,34.9375
0.25405267,-1.328527,-0.47038156,-1.0583664,-0.034768183,0.08873328,-0.1539417,-0.39643058,-0.34801778,0.060005642,3.075352,-0.6190148,9.867828e-05,-0.12073574,0.0032116354,-0.0027687023,-0.043015793,-0.002517667,0.03408179,0.46062925,-1.4033798,1.9315666,-2.1002667,-1.5670112,2.4323373,-0.1367232,0.18578722,-0.21132165,0.009144823,0.039683495,-0.17063099,-0.38307226,0.11492168,-9.346964,0.8672237,47.70211,-1.1397852,-2.2108486,-3.4166932,-0.29522297,0.09877872,-0.26134938,27.8125,28.875,28.0625,32.0,34.0625,34.9375
0.2560525,-1.5933158,-0.34374723,-1.1369278,-0.03150027,0.11271819,-0.14521581,-0.39661223,-0.3480134,0.05995028,3.075381,-0.61878675,0.00031031715,-0.120805696,0.003259552,-0.0031388118,-0.0427994,-0.003345094,0.040670548,0.46040133,-1.402971,1.9312075,-2.100219,-1.5669154,2.4319632,-0.13690017,0.18679568,-0.21180345,0.009505735,0.039862096,-0.1774003,-0.40222588,0.11492168,-9.423578,0.82022345,47.691364,-1.2064936,-2.1339893,-3.401438,-0.29263297,0.07878046,-0.19004092,27.8125,28.875,28.0625,32.0,34.0625,34.9375
0.25805265,-1.9683921,-0.25989705,-0.89977914,-0.031578712,0.11441819,-0.14677499,-0.39688697,-0.34803063,0.059983432,3.0752378,-0.61864185,0.00018491349,-0.12224166,0.0025865978,-0.0014752714,-0.044172544,-0.00047856217,0.04228385,0.46013737,-1.4026347,1.9307526,-2.1002662,-1.566831,2.4316273,-0.13685556,0.1863373,-0.21529584,0.010310005,0.039851725,-0.1789613,-0.5363012,0.11492168,-9.442732,0.86945957,47.703007,-1.1587527,-2.1579826,-3.3716583,-0.3037914,0.047479525,-0.16109975,27.8125,28.875,28.0625,32.0,34.0625,34.9375
0.26005253,-2.024484,-0.2806569,-0.8081089,-0.024754241,0.12022144,-0.1416375,-0.39710316,-0.3479927,0.059934393,3.0752761,-0.61850077,0.0003861981,-0.12425564,0.0032585966,-0.0007517192,-0.044019233,0.0018208788,0.03542388,0.4598365,-1.4022143,1.9303569,-2.1001823,-1.56676,2.4312334,-0.13893698,0.18693155,-0.21766296,0.010100876,0.038661547,-0.1741875,-0.7469909,0.095768064,-9.481039,0.8851263,47.69763,-1.1776869,-2.1377797,-3.415781,-0.28881496,0.015942406,-0.15209156,27.8125,28.875,28.0625,32.0,34.0625,34.9375
0.26205245,-1.7666323,-0.47502393,-1.3487551,-0.014561327,0.121492356,-0.1407028,-0.3974006,-0.34800002,0.059980184,3.0751104,-0.61843246,0.00024529189,-0.12633128,0.0036179065,-0.0002553421,-0.04375209,0.0037659192,0.026719378,0.45953614,-1.401877,1.9298667,-2.100207,-1.566676,2.4309118,-0.14055859,0.18859296,-0.22072928,0.0098831775,0.037569076,-0.1670978,-0.7469909,0.076614454,-9.481039,0.8717007,47.68062,-1.1479815,-2.1078074,-3.3999996,-0.30369723,0.012270136,-0.21905166,27.8125,28.875,28.0625,32.0,34.0625,34.9375
0.26405248,-1.9522536,-0.452644,-1.3822193,-0.019027267,0.113364935,-0.14512697,-0.39761993,-0.3480009,0.059957996,3.0750933,-0.6183172,0.00031914952,-0.1265449,0.0042113126,-0.0013786833,-0.04243731,0.0024769537,0.021003237,0.459308,-1.4014803,1.929448,-2.1001713,-1.5666159,2.430614,-0.14129718,0.19063792,-0.22049817,0.009346246,0.036949772,-0.1621215,-0.7661445,0.11492168,-9.481039,0.8672237,47.694946,-1.145055,-2.0559123,-3.3934703,-0.28753975,0.020005368,-0.32272387,27.8125,28.875,28.0625,32.0,34.0625,34.9375
0.2660524,-1.8811244,-0.2311522,-1.0556072,-0.046958126,0.12647708,-0.14700972,-0.39789528,-0.34796995,0.05995023,3.0750513,-0.6182712,0.00033715012,-0.12725241,0.004784033,-0.0017923181,-0.0403696,0.0022405968,0.018512491,0.45898384,-1.4010715,1.9289821,-2.1001346,-1.5665692,2.4302666,-0.14168707,0.19253583,-0.22201583,0.010111438,0.035203226,-0.16002172,-0.7469909,0.038307227,-9.5385,0.8784135,47.690468,-1.0862237,-2.073017,-3.5102549,-0.29548132,0.0065612467,-0.3717695,27.8125,28.875,28.0625,32.0,34.0625,34.9375
0.26809496,-2.1901364,-0.82462686,-1.2295375,-0.029997189,0.12661982,-0.1422047,-0.3981415,-0.34795344,0.059930813,3.0750036,-0.6181844,0.00039064657,-0.12987141,0.0058748904,-0.0005499017,-0.040395852,0.005462675,0.017438073,0.45869493,-1.4006748,1.9285625,-2.1001227,-1.5664977,2.4299297,-0.14488001,0.19241942,-0.2247876,0.010134639,0.033807695,-0.1621409,-0.80445176,0.019153614,-9.5385,0.8493211,47.668976,-1.0930932,-1.9995885,-3.4195974,-0.28341046,0.012828255,-0.38591447,27.8125,28.875,28.0625,32.0,34.0625,34.9375
0.2700441,-1.682416,-0.12715474,-1.2696275,-0.026514327,0.13278927,-0.13815655,-0.39841366,-0.34792742,0.059936352,3.074911,-0.6181633,0.00041193856,-0.13064517,0.0055334405,-0.00014222653,-0.03970407,0.007396723,0.02156639,0.45835948,-1.4003022,1.9281086,-2.1000874,-1.5664142,2.429593,-0.14390445,0.19323556,-0.22665775,0.009804063,0.032351,-0.16529354,-0.6703765,-0.038307227,-9.576807,0.8112748,47.652847,-1.2396832,-1.9962671,-3.3773813,-0.2781755,0.03702798,-0.38952404,27.8125,28.875,28.0625,32.0,34.0625,34.9375
0.27204576,-1.1775703,0.2700651,-1.0640606,-0.012954428,0.13487126,-0.15950495,-0.39868817,-0.3479362,0.059936546,3.0748165,-0.618081,0.00040484793,-0.1316826,0.005638465,-0.00072335394,-0.0384766,0.007409378,0.030864948,0.45808318,-1.3998808,1.9276179,-2.1000874,-1.5663308,2.4292777,-0.14419493,0.1961465,-0.22874993,0.009585093,0.031286325,-0.174881,-0.40222588,0.019153614,-9.557653,0.8627467,47.66091,-1.174888,-2.1114085,-3.434854,-0.27795658,0.03236009,-0.32929444,27.8125,28.875,28.0625,32.0,34.0625,34.9375
0.27404743,-1.3367077,0.5039445,-1.0867708,-0.019679362,0.113063686,-0.14275102,-0.39896324,-0.3479116,0.05993913,3.0747817,-0.61795336,0.0004062881,-0.13365194,0.005633332,-0.00027977984,-0.03814677,0.009595723,0.039807178,0.45777082,-1.3994838,1.9271392,-2.1000397,-1.5662831,2.4288902,-0.14499351,0.19818735,-0.23211208,0.009156323,0.030058842,-0.18462119,-0.34476504,0.05746084,-9.519346,0.82022345,47.655537,-1.1997547,-2.1105747,-3.626616,-0.26729816,0.045268964,-0.21288618,27.8125,28.875,28.0625,32.0,34.0625,34.9375
0.27604404,-0.43558204,-0.104382165,-1.0617057,-0.016264528,0.11036243,-0.14724168,-0.39921677,-0.34788588,0.059914373,3.0747619,-0.61786926,0.00042501342,-0.13489562,0.005471925,-0.0001749667,-0.03732256,0.011356857,0.045405507,0.45748302,-1.3990749,1.9267195,-2.1000402,-1.5662473,2.4285526,-0.1447256,0.20003457,-0.23441967,0.008445127,0.028560452,-0.18995255,-0.30645782,0.05746084,-9.442732,0.82694155,47.65464,-1.245528,-2.0149765,-3.6713371,-0.27255207,0.055759564,-0.100725114,27.8125,28.875,28.0625,32.0,34.0625,34.9375
0.27804852,-0.6474869,-0.75007915,-1.2077233,-0.030572109,0.0755228,-0.1351296,-0.39947867,-0.34788612,0.059920646,3.0747187,-0.6176316,0.00039621905,-0.13583179,0.0067484183,-0.0010469324,-0.034900576,0.010469147,0.043607146,0.45721853,-1.3986895,1.9262537,-2.1000273,-1.5661877,2.4281454,-0.1465378,0.20228963,-0.23524365,0.008905314,0.026798258,-0.189967,-0.15322891,0.11492168,-9.442732,0.82022345,47.696735,-1.1159512,-2.1142714,-3.5793986,-0.23954897,0.08350724,-0.085545935,27.8125,28.875,28.0625,32.0,34.0625,34.9375
0.2800475,0.22696589,-0.75531024,-1.0491507,-0.062038574,0.0729246,-0.1452047,-0.39976397,-0.34784335,0.059917968,3.0746756,-0.61757004,0.00034503703,-0.13777235,0.007917353,-0.0017991398,-0.033223238,0.010070657,0.035196435,0.4568817,-1.3983041,1.9258107,-2.1000273,-1.5661644,2.4277759,-0.14928664,0.20572972,-0.23762484,0.0089369705,0.025464846,-0.18430446,-0.21068975,0.2681506,-9.442732,0.83813137,47.67614,-1.2160081,-2.1337538,-3.5518966,-0.24345532,0.10317694,-0.1455305,27.8125,28.875,28.0625,32.0,34.0625,34.9375
0.28204745,0.46392435,-1.2808466,-1.1218284,-0.059270285,0.05335453,-0.14537136,-0.4000557,-0.3478112,0.059909426,3.0746465,-0.6175096,0.000323878,-0.13888855,0.0070941085,-0.0015255876,-0.03366719,0.011109268,0.028758816,0.45655784,-1.397871,1.92532,-2.1000035,-1.5661405,2.4274182,-0.14863047,0.20789057,-0.24082461,0.0088288775,0.02538926,-0.1772083,-0.11492168,0.2681506,-9.423578,0.87393653,47.68062,-1.192052,-2.1425254,-3.467458,-0.247273,0.12714508,-0.22651719,27.8125,28.875,28.0625,32.0,34.0625,34.9375
0.2840484,0.08885863,-1.3934064,-1.1986337,-0.06345896,0.03423537,-0.14372775,-0.40031815,-0.34778816,0.05990542,3.0745904,-0.6174642,0.00037839462,-0.14015453,0.007972166,-0.00078401726,-0.034281604,0.012532711,0.020767935,0.45624512,-1.3974749,1.9248537,-2.0999434,-1.5660685,2.4270844,-0.15107656,0.20697618,-0.2415385,0.008904244,0.025303876,-0.17166342,0.0,0.38307226,-9.442732,0.8537928,47.68599,-1.0882684,-2.1915603,-3.4376643,-0.24501747,0.14765938,-0.29343057,27.8125,28.875,28.0625,32.0,34.0625,34.9375
0.28604835,0.2256444,-1.2116251,-1.1964426,-0.07402999,0.041510545,-0.14901724,-0.40059578,-0.34777483,0.059898842,3.0745149,-0.61745334,0.00037744493,-0.14246446,0.008695729,-0.0004948526,-0.034908496,0.012997825,0.012173064,0.455944,-1.3970537,1.9243749,-2.0999315,-1.5660084,2.4267864,-0.15442495,0.2090375,-0.24479231,0.009395437,0.025654534,-0.16641365,0.019153614,0.36391866,-9.423578,0.8179876,47.684196,-0.98330045,-2.1371362,-3.4736814,-0.24987677,0.16873929,-0.40506208,27.8125,28.875,28.0625,32.0,34.0625,34.9375
0.28804684,0.11328002,-1.3228284,-1.2197582,-0.07688042,0.043429904,-0.1430953,-0.40090135,-0.34774646,0.05989969,3.0744405,-0.6174213,0.0003095758,-0.14349902,0.008431384,-0.00038967916,-0.03612788,0.013014925,0.008533644,0.45560753,-1.3966328,1.9238847,-2.0999434,-1.5659717,2.4264398,-0.15540175,0.2105879,-0.2469238,0.009422982,0.026751041,-0.16374592,0.019153614,0.49799395,-9.500193,0.84708,47.675243,-0.8814381,-2.2506945,-3.4762473,-0.23402937,0.16367805,-0.4932704,27.8125,28.875,28.0625,32.0,34.0625,34.9375
0.2900451,0.15332875,-1.7317586,-0.9866797,-0.07199288,0.054659784,-0.1583548,-0.4012006,-0.347745,0.05992714,3.07438,-0.61725116,0.0001823477,-0.14499903,0.0072461544,0.0011503021,-0.03854444,0.0154612465,0.013696759,0.45533168,-1.3962363,1.9233569,-2.0999315,-1.5659474,2.4260657,-0.15520026,0.21091765,-0.25099993,0.009940359,0.027882256,-0.16870067,0.095768064,0.57460845,-9.461885,0.8985519,47.681515,-0.85176885,-2.1136181,-3.3319893,-0.21536666,0.18545842,-0.49094808,27.8125,28.875,28.0625,32.0,34.0625,34.9375
0.292046,-0.3889793,-1.9868833,-1.093226,-0.07798517,0.05349048,-0.15183784,-0.4014924,-0.34773073,0.05992295,3.0743437,-0.6171376,0.00015800916,-0.14596716,0.005965189,0.0020621764,-0.03978055,0.016753623,0.028053429,0.45503223,-1.3957913,1.9228414,-2.0999072,-1.5659107,2.4257002,-0.15403625,0.21229164,-0.25498787,0.010925477,0.028481552,-0.18188949,0.019153614,0.63206923,-9.3661175,0.8560339,47.66091,-1.0276289,-2.1424668,-3.242692,-0.22789378,0.21090287,-0.40136313,27.8125,28.875,28.0625,32.0,34.0625,34.9375
0.29404595,-0.03266996,-1.4995705,-1.0443988,-0.07882371,0.07293566,-0.1579141,-0.40178683,-0.34772012,0.059929784,3.0742462,-0.61707455,0.00015170891,-0.14593437,0.006638225,0.0018685332,-0.039008785,0.01646404,0.038720686,0.45470777,-1.395371,1.9223298,-2.0998833,-1.5658273,2.425349,-0.15472116,0.2120318,-0.25440833,0.0112863295,0.02798088,-0.19324169,0.076614454,0.47884035,-9.404425,0.8717007,47.640312,-0.95859015,-2.07722,-3.295072,-0.23651654,0.2226572,-0.28293806,27.8125,28.875,28.0625,32.0,34.0625,34.9375
0.296061,-0.42397597,-1.6447091,-1.3487537,-0.06929922,0.06125521,-0.14753416,-0.4020757,-0.34772027,0.05991882,3.074193,-0.61688805,0.00018679014,-0.14753628,0.007989547,0.0024637638,-0.04016268,0.017202675,0.042287804,0.4544065,-1.3949032,1.9218029,-2.099859,-1.5657429,2.4249382,-0.15878887,0.21128622,-0.25503954,0.011552735,0.028736554,-0.20087428,0.076614454,0.4405331,-9.615114,0.8247004,47.667187,-1.0281638,-1.8480662,-3.341608,-0.22569501,0.24205382,-0.19777787,27.8125,28.875,28.0625,32.0,34.0625,34.9375
0.29805103,-0.6112751,-1.8859167,-1.2156171,-0.0756861,0.054033395,-0.14934191,-0.4023844,-0.347686,0.059919782,3.0741417,-0.61681956,0.00014880135,-0.14697674,0.007529072,0.0022037688,-0.04138598,0.016120614,0.042746942,0.45405886,-1.3944707,1.9212898,-2.0998347,-1.5657066,2.4245546,-0.15835936,0.21137436,-0.25461406,0.011486649,0.03033411,-0.20089921,0.0,0.45968673,-9.519346,0.87617236,47.690468,-0.99611866,-1.8899822,-3.5301533,-0.2063129,0.24594991,-0.12423938,27.8125,28.875,28.0625,32.0,34.0625,34.9375
0.3000469,-0.47292775,-1.760432,-1.0803792,-0.06133399,0.04697797,-0.14740306,-0.4026663,-0.34767565,0.05990509,3.074069,-0.61673373,0.00018563909,-0.14858662,0.008202067,0.0011791218,-0.041425683,0.01506842,0.034157325,0.45374587,-1.3940243,1.9207991,-2.0998237,-1.5656222,2.4241974,-0.1610782,0.21489874,-0.2562748,0.010546432,0.030820226,-0.19502515,-0.095768064,0.30645782,-9.423578,0.90750587,47.666286,-0.9590073,-2.0341933,-3.5368848,-0.20310608,0.24229358,-0.1893778,27.8125,28.875,28.0625,32.0,34.0625,34.9375
0.30205375,-0.40948826,-1.1930681,-1.240528,-0.036476556,0.036899664,-0.15252244,-0.4029846,-0.34765732,0.059928365,3.074033,-0.61653715,6.220487e-05,-0.14918666,0.0077655255,0.0014947728,-0.041817423,0.015785418,0.028089963,0.45343408,-1.393604,1.9202493,-2.0997999,-1.5656108,2.4237678,-0.16070367,0.21573481,-0.25808153,0.010680125,0.030860541,-0.18857919,-0.05746084,0.28730422,-9.481039,0.8873621,47.690468,-0.93489736,-1.9223824,-3.5316634,-0.20989144,0.2677505,-0.2818486,27.8125,28.875,28.0625,32.0,34.0625,34.9375
0.30405182,-0.7242791,-0.52637607,-0.9184446,-0.028407268,0.029776862,-0.14975998,-0.40326884,-0.3476504,0.0599299,3.0739412,-0.61644423,2.7870343e-05,-0.15114038,0.008117804,0.00083571085,-0.04252693,0.014821827,0.022705905,0.4531328,-1.3931946,1.9197696,-2.0998113,-1.5655378,2.4234204,-0.16351904,0.21954311,-0.26105145,0.010403508,0.031928256,-0.18600373,-0.05746084,0.19153613,-9.404425,0.8851263,47.678825,-0.7728648,-2.018382,-3.5661154,-0.20314655,0.26630676,-0.32433307,27.8125,28.875,28.0625,32.0,34.0625,34.9375
0.30605218,-0.3418367,-0.20845498,-1.1527354,-0.0038908543,0.044448353,-0.1536331,-0.4035445,-0.34762272,0.0598826,3.0738773,-0.6164319,0.00020387449,-0.15203936,0.0077168117,-0.0001440457,-0.042745616,0.013201356,0.020978717,0.45277324,-1.3927007,1.9192914,-2.0997756,-1.5654176,2.4230614,-0.16400267,0.22356597,-0.2636151,0.010329926,0.032825045,-0.18475823,-0.05746084,0.11492168,-9.423578,0.83813137,47.66808,-1.0117997,-2.1133208,-3.5113106,-0.17809728,0.27218413,-0.38514167,27.8125,28.875,28.0625,32.0,34.0625,34.9375
0.30805174,-0.273639,0.2191124,-1.2098104,-0.0052928124,0.06321425,-0.16852687,-0.4038619,-0.3476349,0.059908755,3.073788,-0.6162742,0.00011315751,-0.15220219,0.006376074,-9.721108e-05,-0.042816058,0.0131462235,0.02829727,0.45248595,-1.3922554,1.9187053,-2.0997512,-1.565358,2.4226873,-0.16173631,0.22580911,-0.26662725,0.011164704,0.03295809,-0.18980521,-0.17238252,0.11492168,-9.557653,0.8717007,47.678825,-1.0708627,-2.236975,-3.5201242,-0.16818717,0.28342947,-0.36332086,27.8125,28.875,28.0625,32.0,34.0625,34.9375
0.31005192,-1.7222981,-0.68643284,-1.0175353,-0.027097862,0.061721016,-0.15377681,-0.40415686,-0.34763056,0.0599091,3.0737214,-0.61608267,0.00011862955,-0.15345114,0.00607343,0.0006417926,-0.043873236,0.014105519,0.036637943,0.45217368,-1.3918107,1.9181784,-2.099727,-1.5652736,2.422264,-0.16249019,0.22666757,-0.26959798,0.012025655,0.033542346,-0.19889563,-0.17238252,0.11492168,-9.576807,0.9410752,47.666286,-1.0626651,-2.1886709,-3.4295743,-0.16104846,0.30396163,-0.29764432,27.8125,28.875,28.0625,32.0,34.0625,34.9375
0.31205213,-1.7840505,-1.2693901,-0.920782,-0.04281393,0.07689513,-0.16397268,-0.40446436,-0.34761256,0.059911504,3.073682,-0.61593443,0.00010408532,-0.15455934,0.0052308664,0.0020180151,-0.045378003,0.01581489,0.047637496,0.45184976,-1.3913541,1.9176272,-2.0996788,-1.565225,2.4218528,-0.16222855,0.22676861,-0.27326795,0.013476557,0.034208216,-0.20962943,-0.076614454,0.05746084,-9.442732,0.9388393,47.658226,-1.136198,-2.298624,-3.329461,-0.16158113,0.31118426,-0.16973907,27.8125,28.875,28.0625,32.0,34.0625,34.9375
0.31405193,-1.4924103,-1.1682022,-1.0797645,-0.041121352,0.071141765,-0.15353116,-0.40478656,-0.3476081,0.059932254,3.0736084,-0.61578244,1.6056782e-05,-0.1548714,0.0048920335,0.0016962705,-0.045599766,0.014529946,0.052267637,0.4515378,-1.3909091,1.9170531,-2.0996544,-1.5651773,2.4214556,-0.16225445,0.22874424,-0.27517694,0.014512773,0.035018567,-0.21427919,-0.2873042,0.1340753,-9.595961,0.84708,47.64121,-1.2608391,-2.1442108,-3.2805495,-0.16995914,0.2992846,-0.076995224,27.8125,28.875,28.0625,32.0,34.0625,34.9375
0.3160522,-1.8974394,-1.2223234,-1.117495,-0.051242776,0.061433606,-0.15213808,-0.40511236,-0.34758458,0.059927974,3.0735514,-0.61561966,-4.173638e-05,-0.15554744,0.005244006,0.0014515349,-0.045279518,0.014282485,0.047201198,0.45118967,-1.3904402,1.9165162,-2.0996668,-1.5651292,2.4210134,-0.16316755,0.22998886,-0.276214,0.014667726,0.034847334,-0.21012318,-0.45968673,0.21068975,-9.519346,0.85155696,47.661808,-1.2182524,-2.2087152,-3.3731058,-0.17643791,0.30309755,-0.09053829,27.8125,28.875,28.0625,32.0,34.0625,34.9375
0.31805253,-1.5769573,-1.1110566,-1.3066449,-0.04384009,0.07219814,-0.14740832,-0.4054137,-0.34758043,0.059945088,3.0734773,-0.61541617,-2.4682566e-05,-0.15551937,0.0049590515,0.0010106731,-0.045611396,0.013496166,0.04013327,0.45086583,-1.390007,1.915953,-2.0995944,-1.5650324,2.420572,-0.16288713,0.23116975,-0.27663556,0.014459362,0.035478137,-0.20277086,-0.57460845,0.28730422,-9.557653,0.8717007,47.666286,-1.2432219,-2.0863328,-3.52081,-0.1655393,0.3206246,-0.16302061,27.8125,28.875,28.0625,32.0,34.0625,34.9375
0.32005236,-1.788612,-1.016241,-1.077688,-0.05695552,0.07569828,-0.14623708,-0.40570983,-0.3475681,0.059949286,3.073388,-0.61534655,-1.8665207e-05,-0.15534657,0.0055801948,0.0009094369,-0.046014976,0.012872169,0.03176446,0.4505408,-1.3895752,1.915429,-2.0995586,-1.5649489,2.4202151,-0.1640596,0.23025759,-0.275443,0.014549883,0.036106307,-0.19557156,-0.61291564,0.22984336,-9.595961,0.91421866,47.68062,-1.1634036,-2.0037236,-3.6267571,-0.1493161,0.33748806,-0.27831858,27.8125,28.875,28.0625,32.0,34.0625,34.9375
0.32205266,-1.924099,-0.99111754,-0.61787647,-0.068980895,0.0885318,-0.16699748,-0.40605327,-0.34757766,0.05997384,3.073288,-0.6151969,-0.00012599921,-0.15686353,0.0061981855,0.0010278147,-0.04721872,0.012910793,0.020246878,0.45022848,-1.3890946,1.9148067,-2.0995467,-1.5648884,2.4198225,-0.16691327,0.23131871,-0.2770379,0.0144941285,0.037165906,-0.18689911,-0.7086837,0.17238252,-9.461885,0.9388393,47.703903,-1.2777996,-1.869302,-3.5910282,-0.12737118,0.33782578,-0.3714782,27.8125,28.875,28.0625,32.0,34.0625,34.9375
0.32405257,-1.35557,-0.3009281,-0.7593409,-0.049586527,0.08701738,-0.16394489,-0.40638775,-0.3475323,0.05996336,3.073171,-0.6153066,-0.00013217004,-0.15739784,0.0048185177,0.0016327704,-0.048470635,0.014194652,0.019348208,0.4498211,-1.3886257,1.9142803,-2.0995467,-1.5648159,2.419499,-0.16514522,0.23247407,-0.2798588,0.014470164,0.03774046,-0.1842274,-0.36391866,0.17238252,-9.461885,0.93436235,47.66271,-1.3765225,-1.8592703,-3.5756106,-0.1284512,0.33320594,-0.46800536,27.8125,28.875,28.0625,32.0,34.0625,34.9375
0.32605264,-1.7637268,-0.26698664,-0.7064644,-0.024048746,0.059281353,-0.15770184,-0.40669113,-0.34755987,0.05999733,3.073064,-0.6150707,-0.00016502397,-0.15896922,0.004155789,0.0029318638,-0.05092424,0.01654815,0.023847098,0.4495448,-1.3881935,1.9136823,-2.099487,-1.5647076,2.419089,-0.16593876,0.23251271,-0.28290737,0.014351791,0.038974043,-0.18951118,-0.2681506,0.11492168,-9.3661175,0.86498255,47.682407,-1.4146706,-1.7899857,-3.6234884,-0.13099654,0.3444116,-0.47933254,27.8125,28.875,28.0625,32.0,34.0625,34.9375
0.32805187,-1.2473456,0.1346582,-0.7703394,-0.0071048513,0.05201249,-0.16473585,-0.40700388,-0.3475553,0.05996957,3.0730052,-0.6148792,-0.0001461449,-0.16132616,0.00439114,0.003007209,-0.05184816,0.01756191,0.03422494,0.44922018,-1.3876758,1.913143,-2.0995114,-1.5646237,2.4186525,-0.16846274,0.23535253,-0.28639457,0.013790012,0.03943836,-0.20240852,-0.11492168,0.095768064,-9.3661175,0.8672237,47.64837,-1.4059176,-1.7306817,-3.510643,-0.1060791,0.34102798,-0.41477433,27.8125,28.875,28.0625,32.0,34.0625,34.9375
0.3300518,-0.71344864,0.10651762,-1.062365,0.013841527,0.029927978,-0.15984169,-0.40734455,-0.34750754,0.059957135,3.0729218,-0.6148738,-0.00016252081,-0.16259928,0.004162106,0.0026658261,-0.052218173,0.017352086,0.04556999,0.448812,-1.3871939,1.9126052,-2.0995114,-1.5645632,2.418252,-0.1692654,0.2383358,-0.28922126,0.013762965,0.039941166,-0.21455148,0.05746084,0.05746084,-9.404425,0.8672237,47.66271,-1.2637639,-2.0975647,-3.3373258,-0.09100482,0.33588234,-0.25655478,27.8125,28.875,28.0625,32.0,34.0625,34.9375
0.33205214,-0.5968842,-0.2691616,-0.8421872,-0.011388139,0.015868414,-0.15827926,-0.40768754,-0.34751782,0.06000218,3.072834,-0.6146442,-0.00031074436,-0.16423392,0.0049690185,0.0016920721,-0.051568225,0.015600148,0.0488212,0.4485109,-1.3867488,1.9119714,-2.0994751,-1.564515,2.417819,-0.17202257,0.24228774,-0.2918957,0.01440464,0.04018444,-0.22055192,-0.1340753,0.19153613,-9.346964,0.8314132,47.666286,-1.0775447,-2.1270592,-3.460186,-0.07579102,0.34883407,-0.18589202,27.8125,28.875,28.0625,32.0,34.0625,34.9375
0.33405218,-0.898735,-1.6863745,-0.89247984,-0.029050013,0.021799637,-0.15678483,-0.4080112,-0.34747922,0.05999683,3.0727713,-0.6145587,-0.0002870087,-0.16506453,0.005654511,0.0016997097,-0.05172334,0.014543872,0.042239334,0.44812626,-1.38628,1.9114212,-2.0994265,-1.5644425,2.4173892,-0.17410165,0.24317098,-0.29339838,0.015909983,0.040780965,-0.21604542,-0.24899697,0.2681506,-9.289502,0.94331104,47.668976,-1.1648216,-2.0285397,-3.4283319,-0.08728828,0.34867275,-0.19681135,27.8125,28.875,28.0625,32.0,34.0625,34.9375
0.33605227,-1.133391,-2.0901601,-1.134203,-0.059466854,0.036342796,-0.1618433,-0.40831223,-0.34745973,0.059991565,3.072768,-0.6143337,-0.0002316345,-0.1656272,0.0060420665,0.0022712213,-0.05214048,0.013450592,0.0320623,0.44780186,-1.3857996,1.9108461,-2.0993297,-1.5643824,2.4169247,-0.17559378,0.24320686,-0.29549134,0.018740324,0.04160048,-0.20735727,-0.15322891,0.36391866,-9.3661175,0.8672237,47.67614,-1.0400282,-2.0348327,-3.4383607,-0.08283641,0.3471933,-0.31284353,27.8125,28.875,28.0625,32.0,34.0625,34.9375
0.33805174,-1.5604371,-2.447638,-1.1253176,-0.09381998,0.043638557,-0.16132155,-0.40867314,-0.34745035,0.059997473,3.0726318,-0.6143446,-0.00028514818,-0.16581653,0.0057333135,0.0015223501,-0.053388704,0.0100818025,0.028699137,0.4474296,-1.3852822,1.9102238,-2.0993292,-1.5642976,2.416577,-0.17664953,0.24595322,-0.2975413,0.02054983,0.044205826,-0.20503552,-0.19153613,0.4213795,-9.500193,0.8918391,47.65464,-1.0268013,-1.9555529,-3.427415,-0.0951532,0.31522343,-0.37691343,27.8125,28.875,28.0625,32.0,34.0625,34.9375
0.3400518,-1.2426214,-2.6253955,-1.0920153,-0.106181845,0.05187332,-0.16012312,-0.40900707,-0.34744465,0.06000186,3.0725272,-0.6141912,-0.00021855131,-0.16522487,0.0058156177,0.0007818242,-0.05455046,0.0072330018,0.026625328,0.44705704,-1.384777,1.909603,-2.0992572,-1.564165,2.4161222,-0.17754209,0.24660829,-0.29691973,0.021367302,0.046502974,-0.20384473,-0.15322891,0.53630114,-9.461885,0.8851263,47.666286,-1.0099769,-1.9106779,-3.4981005,-0.115193844,0.321392,-0.42671478,27.8125,28.875,28.0625,32.0,34.0625,34.9375
0.34205183,-1.3467096,-2.6924462,-0.98077476,-0.08509947,0.04074409,-0.16116443,-0.40934002,-0.3474533,0.06001963,3.072436,-0.6139974,-0.00023213091,-0.1662678,0.0055277343,0.0008025869,-0.056927476,0.0068025654,0.028736435,0.44673252,-1.3842845,1.9089693,-2.0991971,-1.5640677,2.4156885,-0.17921492,0.24807309,-0.29873356,0.021128936,0.04887387,-0.2076157,-0.22984336,0.51714754,-9.461885,0.8940802,47.674347,-1.0021797,-1.9744787,-3.534441,-0.116818935,0.2870747,-0.39570642,27.8125,28.875,28.0625,32.0,34.0625,34.9375
0.34405175,-1.6187623,-1.8126221,-0.9887292,-0.06866442,0.028848637,-0.16170421,-0.40970942,-0.3474244,0.060040213,3.0723214,-0.6138908,-0.00035483562,-0.16679434,0.005649609,-0.00027091568,-0.05818095,0.0049846964,0.038074575,0.4463358,-1.3838148,1.9083723,-2.09921,-1.5640072,2.4152403,-0.18091768,0.25054607,-0.29909596,0.020215536,0.05088605,-0.21864226,-0.11492168,0.4405331,-9.5385,0.97240865,47.67614,-0.8603872,-1.9232259,-3.6100519,-0.095251136,0.2548474,-0.32002324,27.8125,28.875,28.0625,32.0,34.0625,34.9375
0.34605208,-0.74291795,-1.1793718,-0.69005406,-0.060137045,0.051464155,-0.17404994,-0.41000557,-0.3474416,0.060014952,3.0722344,-0.613675,-0.00027701465,-0.16927262,0.0044563077,0.0012106337,-0.062637,0.007947914,0.04749265,0.44603556,-1.3832984,1.9078215,-2.0992105,-1.5638746,2.4148164,-0.18249902,0.25160602,-0.30355963,0.019132705,0.053690597,-0.22962782,-0.076614454,0.45968673,-9.385271,0.89631605,47.661808,-1.0737928,-1.871708,-3.5977473,-0.084385104,0.20577425,-0.1657171,27.8125,28.875,28.0625,32.0,34.0625,34.9375
0.34805232,-0.7838028,-0.5445592,-0.500061,-0.035935152,0.05315308,-0.16113366,-0.4103518,-0.34743008,0.060016703,3.0721421,-0.6135393,-0.00021046707,-0.17061932,0.003656512,0.0013748473,-0.06300648,0.009118021,0.050967157,0.4456518,-1.382769,1.9071745,-2.0991266,-1.5637544,2.4143598,-0.18194719,0.25428388,-0.30715737,0.018906537,0.053547624,-0.23254798,-0.21068975,0.30645782,-9.136273,0.9298854,47.67166,-0.96327555,-1.9154341,-3.398345,-0.07102044,0.18601455,-0.1026447,27.8125,28.875,28.0625,32.0,34.0625,34.9375
0.35005245,-0.20083372,0.17765723,-0.7907508,-0.007394584,0.053005353,-0.17542718,-0.41069055,-0.3474312,0.060009226,3.072063,-0.61327887,-0.00019794155,-0.17220947,0.0028132163,0.0027330285,-0.06509189,0.011667563,0.044611566,0.4453038,-1.38224,1.9065651,-2.0991142,-1.5636457,2.4138594,-0.1820974,0.25460187,-0.31074357,0.018972866,0.054318022,-0.22633472,-0.24899697,0.2681506,-9.251195,0.8784135,47.668976,-1.0229586,-1.9560347,-3.4024425,-0.04604474,0.15790534,-0.12073055,27.8125,28.875,28.0625,32.0,34.0625,34.9375
0.35205242,-1.0541675,-0.05524829,-0.690671,-0.0034712956,0.029099708,-0.16216756,-0.41104355,-0.34742594,0.060034856,3.071965,-0.6131104,-0.000281097,-0.17187144,0.00213879,0.002762335,-0.06615279,0.011028777,0.035415426,0.44495583,-1.3817589,1.9059314,-2.099079,-1.5635732,2.413419,-0.18120947,0.25486475,-0.3113077,0.019352952,0.05553399,-0.2162392,-0.22984336,0.28730422,-9.308657,0.9455522,47.674347,-1.0207204,-1.976932,-3.3223119,-0.03757901,0.113897055,-0.21662503,27.8125,28.875,28.0625,32.0,34.0625,34.9375
0.3540518,-1.5457332,-0.883565,-0.77083176,-0.019783342,0.04547561,-0.15088427,-0.4114045,-0.34741822,0.060044743,3.0718193,-0.6130835,-0.0002494254,-0.17204103,0.0014395496,0.0033787056,-0.06701737,0.011131782,0.028058399,0.4445606,-1.3812315,1.9052728,-2.0990179,-1.5634416,2.4130259,-0.18037759,0.2550648,-0.31337413,0.020742776,0.056253027,-0.20804293,-0.49799395,0.22984336,-9.174581,0.94331104,47.68599,-1.3110995,-1.7370193,-3.4425344,-0.04435544,0.08363545,-0.31867442,27.8125,28.875,28.0625,32.0,34.0625,34.9375
0.3560517,-1.7307469,-1.010908,-0.8942672,-0.031328395,0.05295219,-0.15787835,-0.4117241,-0.34742638,0.06003703,3.07169,-0.61292666,-0.00017671865,-0.1721016,0.0020406235,0.0017566677,-0.062140834,0.009117789,0.021709874,0.44421297,-1.380725,1.9046873,-2.0989935,-1.5632867,2.412597,-0.17907044,0.25925624,-0.31511968,0.022219233,0.052696135,-0.20039833,-0.2873042,0.21068975,-9.232041,0.8627467,47.661808,-1.3552356,-1.8496008,-3.3951821,-0.021509767,0.09172957,-0.4564842,27.8125,28.875,28.0625,32.0,34.0625,34.9375
0.35805184,-1.3891098,-0.8839133,-0.7638975,-0.05049258,0.08170531,-0.16517487,-0.41206205,-0.3474257,0.060032878,3.071604,-0.61281145,-0.000121115605,-0.17379808,0.002461858,0.0012733171,-0.060667362,0.00907168,0.022899676,0.4438646,-1.3801835,1.9040407,-2.0989215,-1.5631789,2.4121878,-0.18021472,0.2628511,-0.31853274,0.022774158,0.051411048,-0.2027349,-0.17238252,0.19153613,-9.346964,0.90527004,47.664497,-1.2918208,-1.935513,-3.4664326,-0.046002876,0.10857174,-0.49146557,27.8125,28.875,28.0625,32.0,34.0625,34.9375
0.36005196,-1.7271769,-1.187962,-0.7704028,-0.048289303,0.073868245,-0.15580094,-0.41242,-0.34741828,0.060044196,3.0715222,-0.61259675,-0.00016358042,-0.17469425,0.0038900971,0.00019626634,-0.058563665,0.008068383,0.03321236,0.44350383,-1.3796661,1.9033955,-2.0988858,-1.5630959,2.4117036,-0.18237494,0.26509467,-0.31888378,0.022826035,0.050044023,-0.2152097,-0.038307227,0.24899697,-9.212888,0.9321212,47.68062,-1.3025694,-2.0214562,-3.4178452,-0.038484916,0.08577825,-0.42000878,27.8125,28.875,28.0625,32.0,34.0625,34.9375
0.36205187,-0.99729437,-0.7105015,-0.8549916,-0.02929068,0.0649703,-0.1621745,-0.41277745,-0.34739274,0.0600168,3.0714693,-0.6125395,-0.00011122876,-0.17606129,0.004730719,0.00018776733,-0.057016645,0.009353279,0.045173075,0.44311965,-1.3790771,1.9027504,-2.0988376,-1.5630244,2.4112906,-0.1835953,0.26642337,-0.3205968,0.022855764,0.04818251,-0.22839873,-0.095768064,0.30645782,-9.251195,0.9388393,47.68599,-1.3081713,-2.1009624,-3.4530962,-0.030100562,0.10128465,-0.3133023,27.8125,28.875,28.0625,32.0,34.0625,34.9375
0.36405182,-0.611391,-0.48789886,-0.8892022,-0.01828687,0.055229865,-0.16039035,-0.41310433,-0.34738162,0.06002115,3.0714126,-0.6122954,-8.2132145e-05,-0.17775513,0.0059515773,-0.00040420363,-0.053885557,0.009738422,0.049522296,0.4427713,-1.3785837,1.9021405,-2.0987651,-1.562929,2.410797,-0.18508607,0.2695072,-0.32317138,0.023434931,0.04523964,-0.23424895,-0.095768064,0.30645782,-9.289503,0.92093146,47.66091,-1.3062366,-2.0741715,-3.4947248,-0.021361623,0.099365234,-0.20485677,27.8125,28.875,28.0625,32.0,34.0625,34.9375
0.36605176,-0.72970986,-0.7125808,-0.7622021,-0.02371953,0.052648086,-0.15562187,-0.4134819,-0.3473849,0.060029257,3.0712972,-0.6121407,-0.000105412786,-0.17907178,0.006476056,0.00040968365,-0.053479996,0.012390818,0.044926938,0.4423989,-1.3780189,1.9014462,-2.0987303,-1.5628217,2.4103432,-0.18593249,0.26906657,-0.32454813,0.023046823,0.043745264,-0.23050246,-0.076614454,0.24899697,-9.136273,0.8918391,47.667187,-1.2203038,-2.085563,-3.449942,-0.003277881,0.13518314,-0.19588426,27.8125,28.875,28.0625,32.0,34.0625,34.9375
0.36805183,-0.5928049,-0.7426802,-0.7049669,-0.03699445,0.04313429,-0.15437816,-0.41384834,-0.34736702,0.060049403,3.07118,-0.612025,-0.0001799561,-0.1807333,0.0068450007,0.0014966511,-0.05301575,0.01585307,0.037187897,0.44201475,-1.3775266,1.9008125,-2.098706,-1.5627388,2.409902,-0.18653794,0.26876292,-0.3266553,0.022512795,0.041835435,-0.22337201,-0.076614454,0.30645782,-9.059659,0.8851263,47.64479,-1.2017717,-2.073986,-3.4779158,0.009853439,0.16600123,-0.30986804,27.8125,28.875,28.0625,32.0,34.0625,34.9375
0.37005183,-0.36969545,-0.9761225,-0.6467406,-0.05056071,0.047265135,-0.15179057,-0.41421515,-0.3473333,0.060014017,3.07116,-0.6118909,-0.00012376218,-0.18238847,0.008294591,0.0008363021,-0.05131018,0.014902243,0.029909575,0.44161782,-1.3769134,1.9001554,-2.0986574,-1.5626792,2.409424,-0.18947186,0.27151668,-0.32880923,0.023500793,0.040684633,-0.21903221,-0.17238252,0.3256114,-9.059659,0.8918391,47.64658,-1.1487786,-1.9306527,-3.4559407,0.0011073686,0.17218973,-0.39319545,27.8125,28.875,28.0625,32.0,34.0625,34.9375
0.37205178,-1.0856253,-1.2655451,-0.6791412,-0.050106987,0.040778216,-0.15361895,-0.41456234,-0.3473257,0.05999566,3.0710702,-0.6118157,-2.773452e-05,-0.18320012,0.009755111,0.0005875586,-0.049567237,0.014163817,0.02689525,0.44124496,-1.3763361,1.8994969,-2.0985854,-1.562559,2.409016,-0.19167525,0.27223986,-0.329603,0.025022939,0.03943592,-0.21822697,-0.2681506,0.30645782,-9.059659,0.94331104,47.64479,-1.0966237,-1.9689245,-3.4521694,0.0094000995,0.19608814,-0.4461275,27.8125,28.875,28.0625,32.0,34.0625,34.9375
0.37405193,-0.8109465,-0.6444863,-0.76517683,-0.037399027,0.05131989,-0.16203499,-0.41493103,-0.3473045,0.06001682,3.0709963,-0.6116438,-0.00016251278,-0.1860078,0.009993147,0.002522152,-0.050940167,0.017738875,0.030824838,0.44088402,-1.375844,1.8988627,-2.0985725,-1.5625237,2.4085574,-0.19404185,0.27227792,-0.3343794,0.026016552,0.03922322,-0.22451816,-0.076614454,0.22984336,-9.251195,0.95002913,47.66091,-0.9478754,-1.8292701,-3.4579914,-0.008788913,0.23570965,-0.41361699,27.8125,28.875,28.0625,32.0,34.0625,34.9375
