Tylouw/Master_Thesis_Code/training_data/batch_1/small_rod_t0.2/sample_67_session_2.csv
timestamp[s],tcp_force_x[N],tcp_force_y[N],tcp_force_z[N],tcp_force_rx[Nm?],tcp_force_ry[Nm?],tcp_force_rz[Nm?],tcp_pose_x[m],tcp_pose_y[m],tcp_pose_z[m],tcp_pose_rx[rot_vec_x],tcp_pose_ry[rot_vec_y],tcp_pose_rz[rot_vec_z],tcp_velo_x[m/s],tcp_velo_y[m/s],tcp_velo_z[m/s],tcp_velo_rx[rot_vec_x/s],tcp_velo_ry[rot_vec_y/s],tcp_velo_rz[rot_vec_z/s],q1[rad],q2[rad],q3[rad],q4[rad],q5[rad],q6[rad],qd1[rad/s],qd2[rad/s],qd3[rad/s],qd4[rad/s],qd5[rad/s],qd6[rad/s],tool_acc_x,tool_acc_y,tool_acc_z,current_of_whole_robot[A],voltage_of_whole_robot[V],current_J1[A],current_J2[A],current_J3[A],current_J4[A],current_J5[A],current_J6[A],temp_J1[C],temp_J2[C],temp_J3[C],temp_J4[C],temp_J5[C],temp_J6[C]
6.0599996e-07,0.24649936,-0.46502823,0.997389,-0.0010899679,0.017766237,-0.021838445,-0.38105658,-0.34851995,0.059962485,-3.0785182,0.6248966,-0.0001748738,0.0011214879,0.00059036823,-0.0007322283,0.0013419548,-0.0028968616,-2.5198124e-05,0.47778615,-1.425946,1.9577497,-2.100856,-1.5707573,2.452752,-0.00010677062,-6.7320634e-06,0.0012345095,0.001961188,0.0001474943,-8.284855e-05,0.095768064,0.17238252,-8.695741,0.65013564,47.684196,0.055634033,-2.7738407,-2.4308147,-0.43782485,0.06518345,0.037007347,28.0,29.1875,28.3125,32.25,34.375,35.25
0.002052462,-0.23583321,-0.27797836,0.89083153,0.0023807003,-0.0020256261,-0.012487603,-0.3810629,-0.34851238,0.05994052,-3.0784793,0.62483126,-0.00015415835,-0.0008168265,-0.00041995628,-0.002240282,-0.0012116578,0.001995269,-2.3103607e-05,0.47779807,-1.4258968,1.9577502,-2.1008837,-1.5708054,2.4527283,-0.000105210514,0.0035108868,0.0031683722,-0.009008787,0.00014453352,-8.159665e-05,0.076614454,0.17238252,-8.695741,0.79560274,47.695843,0.06474872,-2.7675383,-2.4991336,-0.40903586,0.064894766,0.045001604,28.0,29.1875,28.3125,32.25,34.375,35.25
0.004052563,0.0023928136,-0.39435115,0.7922659,0.006081768,0.006393742,-0.01597728,-0.38103828,-0.34852788,0.059936516,-3.0785336,0.6248999,-0.00026322925,-0.0015481892,-0.0008009834,-0.0023543087,-0.0020759609,0.0036570348,-2.207307e-05,0.47778615,-1.4259204,1.9577864,-2.1008847,-1.5707096,2.452752,-0.00010369515,0.0043738633,0.0030387142,-0.011615184,0.00014168916,-8.038201e-05,0.095768064,0.17238252,-8.810662,0.78888994,47.703903,0.062296964,-3.1727173,-2.710454,-0.29843137,0.0721074,0.03831945,28.0,29.1875,28.3125,32.25,34.375,35.25
0.006052056,-0.18267606,0.06895271,0.859705,0.01196073,-0.015459954,-0.019050805,-0.381047,-0.34853718,0.05994282,-3.0785303,0.62489897,-0.00021026185,-0.0010096262,-0.00051958964,-0.001142595,-0.0017038912,0.002960699,-2.2517066e-05,0.4778101,-1.4259092,1.9577616,-2.1008952,-1.5707334,2.452776,-0.000102223006,0.0019420136,0.0020927861,-0.0074479533,0.00013895445,-7.920306e-05,0.11492168,0.15322891,-8.829816,0.7463667,47.71554,0.05672268,-3.1135178,-2.595124,-0.33116502,0.071655855,0.030226324,28.0,29.1875,28.3125,32.25,34.375,35.25
0.008052423,0.44219637,0.5841828,0.50277674,0.038440183,-0.019591987,-0.021283174,-0.38102993,-0.34850156,0.0599147,-3.0784323,0.62489825,-0.00030697195,-0.00072597,-0.00037118542,9.429074e-05,-0.0013868464,0.0023677205,-2.257001e-05,0.47778615,-1.425886,1.9577855,-2.1008337,-1.5707697,2.452764,-0.000100791935,3.9078473e-05,0.0004821011,-0.0032619599,0.00013632364,-7.8058154e-05,0.038307227,0.21068975,-8.963891,0.73069996,47.674347,0.078248344,-2.8943615,-2.58772,-0.3725282,0.058268,0.047429685,28.0,29.1875,28.3125,32.25,34.375,35.25
0.010052611,0.35896963,0.8548458,0.1076375,0.03216362,-0.025067987,-0.02125747,-0.38103917,-0.34852442,0.059917115,-3.0784826,0.6248128,-0.0002751986,-0.00035100474,-0.00017578347,5.054375e-05,-0.0007255997,0.001103553,-1.6188547e-05,0.4778101,-1.4258621,1.9577607,-2.100869,-1.5707573,2.4527283,-9.940052e-05,5.2428766e-07,0.00023689681,-0.0015515408,0.0001337904,-8.32642e-05,0.038307227,0.095768064,-9.174581,0.81351066,47.687782,-0.2627,-2.4001446,-3.0146432,-0.4069836,0.08392039,-0.04279616,28.0,29.1875,28.3125,32.25,34.375,35.25
0.012051891,0.06664452,0.35242024,0.05425461,-0.0033579187,-0.012011969,-0.027982725,-0.3810279,-0.34849828,0.05989815,-3.0784297,0.6248789,-0.00035036638,0.0003476935,0.00018696989,-0.0027611696,0.002232558,-0.004600788,0.00014936934,0.4777741,-1.4258605,1.9577969,-2.100845,-1.5707573,2.4527402,-9.964223e-05,0.005640399,3.1782731e-06,-0.0005319637,0.00013158093,-0.0002482573,0.095768064,0.095768064,-9.346964,0.8247004,47.689575,-0.4944085,-2.2767203,-3.2744823,-0.44195133,0.09714484,-0.09624231,28.0,29.1875,28.3125,32.25,34.375,35.25
0.014052501,0.2935845,-0.52770674,-0.22527663,-0.029724443,0.023948902,-0.031301953,-0.38104516,-0.34852132,0.059916943,-3.0784636,0.62480676,-0.00028297753,-0.0039907782,0.0023878424,-0.0053588883,0.0043058647,-0.008633824,0.002739921,0.47780713,-1.4258447,1.9577359,-2.100845,-1.5707697,2.452724,-0.008034809,0.015512929,-0.0053052586,-0.0005631272,0.0001298075,-0.010769707,0.05746084,0.095768064,-9.423578,0.7172743,47.65464,-0.24664922,-3.0043478,-3.116033,-0.4515048,0.11412583,-0.07684932,28.0,29.1875,28.3125,32.25,34.375,35.25
0.01605234,-1.1102027,-1.5417074,-0.42188203,-0.038096964,0.021562127,-0.03301449,-0.3810384,-0.3485153,0.0598887,-3.0784307,0.62483543,-0.00036566993,-0.005833435,0.0025237182,-0.0033671597,0.0022699265,-0.004816123,0.0086360965,0.47779462,-1.4257976,1.9577469,-2.1008456,-1.5707573,2.4527335,-0.01000989,0.013293457,-0.007302492,-0.00067402184,0.00017363552,-0.018640378,-0.38307226,0.2681506,-9.595961,0.8112748,47.69763,-0.29315078,-2.8340168,-3.1846166,-0.45247146,0.12790678,-0.009940379,28.0,29.1875,28.3125,32.25,34.375,35.25
0.018052436,-1.095384,-1.6350571,-0.39474195,-0.046896804,0.051014442,-0.05375344,-0.38103086,-0.34849146,0.05985532,-3.0783987,0.62477016,-0.00045427505,-0.0058619785,0.001836953,-0.0025608842,-0.00028136856,-0.004328389,0.011052333,0.4777586,-1.4257622,1.9577826,-2.100845,-1.5707563,2.4526608,-0.010139385,0.012029428,-0.007720762,-0.00060569687,0.002211479,-0.021190139,-0.34476504,0.3256114,-9.576807,0.79560274,47.704796,-0.42064863,-2.5821784,-3.3518066,-0.47632176,0.105670735,0.006387217,28.0,29.1875,28.3125,32.25,34.375,35.25
0.020052629,-1.3202358,-0.9340683,-0.53346515,-0.03965523,0.056748655,-0.08073907,-0.3810321,-0.34849855,0.059874643,-3.0784147,0.624793,-0.0005064839,-0.006119301,0.001482333,-0.0032430168,-0.0022305376,-0.006499788,0.010367437,0.4777462,-1.4257734,1.957735,-2.100773,-1.5707196,2.4526606,-0.011520575,0.013961553,-0.008286318,-0.0009493826,0.0049381014,-0.021891203,-0.38307226,0.34476504,-9.672575,0.80456203,47.71286,-0.5130514,-2.5196247,-3.4710448,-0.48582602,0.09747009,-0.0075569153,28.0,29.1875,28.3125,32.25,34.375,35.25
0.022046814,-1.5919476,-0.67429096,-0.6449272,-0.028024798,0.054727804,-0.096974194,-0.3810482,-0.3484861,0.059836578,-3.0783927,0.6247529,-0.0005643416,-0.007881067,0.0018359573,-0.0031635175,-0.0032354076,-0.0065171076,0.0069959783,0.47770905,-1.425689,1.957734,-2.1008093,-1.5707196,2.4526012,-0.014362696,0.015834052,-0.010602021,-0.0009557941,0.005832535,-0.021362446,-0.4213795,0.28730422,-9.864111,0.7933669,47.709274,-0.51871705,-2.4518123,-3.6047688,-0.48535365,0.09853694,-0.0280221,28.0,29.1875,28.3125,32.25,34.375,35.25
0.02405249,-1.4039284,-0.5779367,-0.543978,-0.016893256,0.063712284,-0.1171628,-0.38106865,-0.3484898,0.059828438,-3.0784032,0.62477595,-0.000535901,-0.009653014,0.0016142626,-0.0027304098,-0.004074558,-0.0054653613,0.0038375058,0.47769666,-1.4256523,1.9577216,-2.100857,-1.5707196,2.452602,-0.015776448,0.017760728,-0.013771211,-0.0010337312,0.006088606,-0.019616181,-0.6512228,0.34476504,-9.80665,0.80679786,47.716442,-0.5765649,-2.5036833,-3.4449556,-0.5017114,0.098775834,-0.03647233,28.0,29.1875,28.3125,32.25,34.375,35.25
0.026052544,-1.4288383,-0.5259835,-0.6637929,-0.015887823,0.06591269,-0.12639472,-0.38107717,-0.34849367,0.05983454,-3.0784307,0.6247441,-0.0005863832,-0.010355312,0.001678101,-0.0030095458,-0.004938358,-0.006054033,0.0012270381,0.47767213,-1.4256399,1.9576854,-2.1008213,-1.5706834,2.452554,-0.01721336,0.019073183,-0.014532079,-0.0014624503,0.007124054,-0.018444108,-0.7469909,0.2681506,-9.825804,0.800085,47.691364,-0.5043372,-2.5224576,-3.526984,-0.5236036,0.07697035,-0.057627417,28.0,29.1875,28.3125,32.25,34.375,35.25
0.028052615,-1.8000219,-1.1715468,-0.77267677,-0.019702999,0.07495425,-0.13438559,-0.38109374,-0.34848237,0.059812743,-3.0783923,0.6247563,-0.0006576581,-0.011836621,0.00052772503,-0.0018073965,-0.0084246,-0.0032910793,0.00014541957,0.47763604,-1.4255681,1.9576482,-2.1007984,-1.5706824,2.4525304,-0.017719392,0.01905277,-0.016871065,-0.0031656423,0.008940287,-0.017871184,-0.6703765,0.17238252,-9.883265,0.77545905,47.668976,-0.5604287,-2.43566,-3.5089388,-0.50974786,0.056066677,-0.08811386,28.0,29.1875,28.3125,32.25,34.375,35.25
0.030051932,-1.810781,-1.0343742,-0.6888596,-0.032418553,0.08063809,-0.15490362,-0.38110808,-0.3484983,0.059798673,-3.0784492,0.6247477,-0.00070281245,-0.012591681,-0.00012366858,-0.0015012713,-0.009650659,-0.0019691004,0.00056153856,0.47761202,-1.4255198,1.9576362,-2.1008465,-1.5706223,2.4524937,-0.017569017,0.019815046,-0.018166373,-0.0043706754,0.009415996,-0.01813679,-0.7469909,0.095768064,-9.959879,0.7642693,47.684196,-0.5950505,-2.4498756,-3.4651794,-0.48928556,0.071323544,-0.10221732,28.0,29.1875,28.3125,32.25,34.375,35.25
0.032052204,-1.8684422,-0.9543938,-0.64448357,-0.012814098,0.07280493,-0.15698269,-0.38115174,-0.34848946,0.059841074,-3.0784814,0.624774,-0.00060161564,-0.0137400525,-0.00027534584,-0.0012778883,-0.010605348,-0.0018532148,-0.00023158874,0.47756362,-1.4255553,1.9575742,-2.1008222,-1.5706342,2.4524577,-0.018875724,0.021214617,-0.0203196,-0.0041613905,0.010207656,-0.018649986,-0.7469909,0.038307227,-9.940725,0.8157518,47.67614,-0.654734,-2.4327893,-3.4556863,-0.49729764,0.051542483,-0.113455966,28.0,29.1875,28.3125,32.25,34.375,35.25
0.034052175,-1.3796614,-0.17892629,-0.55009496,0.0076816976,0.065705165,-0.17003964,-0.38120893,-0.34848285,0.05982997,-3.0784898,0.62485355,-0.00058525184,-0.014972605,-7.506651e-05,-0.00077308447,-0.010922845,-0.000826794,-0.0014559147,0.47749117,-1.4254713,1.9575146,-2.10087,-1.5706223,2.4524338,-0.020244384,0.021741956,-0.022127232,-0.0039369566,0.010015166,-0.018792758,-0.7086837,0.0,-9.883265,0.779936,47.67614,-0.67621386,-2.3547394,-3.4036484,-0.5270231,0.043267768,-0.12335572,28.0,29.1875,28.3125,32.25,34.375,35.25
0.036052212,-1.1586269,0.016241822,-0.4234505,0.035915677,0.05332174,-0.1899368,-0.38125205,-0.34849593,0.059832342,-3.0785146,0.6248584,-0.00056654925,-0.017079042,-0.00013981227,7.736799e-06,-0.011879079,0.002078233,-0.0023103936,0.47746667,-1.4253992,1.9574298,-2.1008823,-1.5706104,2.4524093,-0.021755474,0.022694763,-0.024676245,-0.0053580464,0.009521011,-0.01944644,-0.49799395,-0.076614454,-9.825804,0.8112748,47.66271,-0.5916015,-2.3461547,-3.3689976,-0.51804566,0.0609217,-0.13726965,28.0,29.1875,28.3125,32.25,34.375,35.25
0.03805262,-0.7121951,0.37201855,-0.390063,0.043566916,0.0439749,-0.21068737,-0.3812581,-0.3484965,0.05980862,-3.0785015,0.62485576,-0.0006222477,-0.017790137,-0.0002515889,3.35073e-05,-0.012702779,0.002774525,-0.0019462833,0.4774543,-1.425339,1.9574183,-2.1008952,-1.5705985,2.4523969,-0.02247879,0.023363326,-0.02525052,-0.006450395,0.009927727,-0.020534402,-0.3256114,-0.095768064,-9.710882,0.7866488,47.688675,-0.5931869,-2.3571126,-3.4530902,-0.4866687,0.0785344,-0.16256578,28.0,29.1875,28.3125,32.25,34.375,35.25
0.040051952,-0.5827453,0.30281386,-0.33411428,0.03139271,0.042713568,-0.22076167,-0.38128412,-0.34849167,0.05980066,-3.0785208,0.62482125,-0.0006599437,-0.018995114,-0.00035288656,0.00022421556,-0.013870038,0.0039971415,-0.0018678813,0.47740582,-1.4252907,1.9573816,-2.1008956,-1.5705742,2.4523244,-0.0237164,0.024255093,-0.026391992,-0.0078236265,0.010396587,-0.021850469,-0.28730422,-0.05746084,-9.576807,0.7933669,47.66808,-0.61812145,-2.3399954,-3.4623373,-0.48399973,0.05152349,-0.18102607,28.0,29.1875,28.3125,32.25,34.375,35.25
0.042052258,-0.52555025,0.0374135,-0.37064472,0.026194941,0.03919593,-0.23435378,-0.38135988,-0.34848794,0.059826925,-3.0785625,0.6249263,-0.0005702107,-0.020636665,0.00018437757,0.00047830527,-0.01285852,0.004837306,-0.0023481355,0.4773214,-1.4252542,1.9572853,-2.100919,-1.5705622,2.4523003,-0.025349522,0.025937146,-0.029049985,-0.0071233795,0.00911019,-0.022998555,-0.21068975,-0.038307227,-9.557653,0.70608455,47.666286,-0.64363915,-2.3463073,-3.4435916,-0.49038738,0.076382995,-0.17340426,28.0,29.1875,28.3125,32.25,34.375,35.25
0.04405259,-0.14782697,0.11905712,-0.49776495,0.007905084,0.04116942,-0.22374903,-0.3813962,-0.3484731,0.059824165,-3.0785277,0.6249577,-0.0005339267,-0.021751555,0.00016065383,0.0010699213,-0.013639339,0.0053055394,-0.0025397607,0.47728494,-1.4252061,1.9572366,-2.100919,-1.5705985,2.452288,-0.026645476,0.02653543,-0.031280603,-0.006267864,0.009585735,-0.02410274,-0.11492168,0.038307227,-9.5385,0.8090337,47.694946,-0.6395081,-2.2697978,-3.3312855,-0.4976148,0.07529726,-0.21021524,28.0,29.1875,28.3125,32.25,34.375,35.25
0.046052635,-0.42793435,-0.5780885,-0.49700725,0.013343401,0.018216759,-0.20804295,-0.38144714,-0.34848803,0.05983844,-3.0786095,0.62491643,-0.00045535568,-0.022506757,0.00034399983,0.0011639663,-0.014009174,0.0053736554,-0.0019766847,0.47724852,-1.42517,1.9571766,-2.100979,-1.5705742,2.4522154,-0.027859073,0.027208904,-0.032286886,-0.0061655287,0.009882831,-0.025878556,-0.076614454,0.1340753,-9.481039,0.74413085,47.65464,-0.6125963,-2.2555916,-3.3309608,-0.49866772,0.08326771,-0.22839585,28.0,29.1875,28.3125,32.25,34.375,35.25
0.048052493,-0.30243042,-0.89821565,-0.46270603,0.013909547,0.010343723,-0.19872674,-0.3814814,-0.34848285,0.059847195,-3.0786276,0.6249764,-0.0005182967,-0.02358524,0.00017512687,0.0014157677,-0.014574788,0.0061101224,-0.00047121788,0.47717628,-1.4251337,1.9571041,-2.1009305,-1.570526,2.4521782,-0.028656406,0.028387072,-0.034156237,-0.0063867606,0.010042138,-0.028180601,-0.114921674,0.15322891,-9.423578,0.7911258,47.68599,-0.62142456,-2.2854102,-3.2547078,-0.49998087,0.08641721,-0.24379975,28.0,29.1875,28.3125,32.25,34.375,35.25
0.050052166,-0.44927734,-1.1112754,-0.57383865,0.0015858165,0.0023871763,-0.19389836,-0.38152987,-0.3484718,0.059821945,-3.0786226,0.624975,-0.00055981084,-0.024368856,0.00022930712,0.0014724843,-0.015761433,0.0060708304,2.207088e-06,0.47710374,-1.4250256,1.957044,-2.1009548,-1.5705136,2.4521055,-0.030167041,0.02904326,-0.034952886,-0.006758942,0.011111189,-0.030166315,-0.15322891,0.15322891,-9.500193,0.80679786,47.709274,-0.6036526,-2.2711954,-3.392242,-0.49794573,0.0884801,-0.23220904,28.0,29.1875,28.3125,32.25,34.375,35.25
0.052052602,-0.037895903,-1.3330764,-0.5521973,-0.0048832204,0.012941388,-0.20051478,-0.3815956,-0.34847462,0.059851587,-3.0786626,0.6249631,-0.00045964995,-0.025485259,0.000112128684,0.0021241293,-0.016960764,0.0071111764,0.0010132402,0.4770554,-1.4249896,1.9569353,-2.1009548,-1.570525,2.4520447,-0.03136607,0.029284189,-0.03673094,-0.006698465,0.011697354,-0.032375693,0.038307227,0.24899697,-9.500193,0.842603,47.701214,-0.5885607,-2.1612642,-3.3698802,-0.50199866,0.09514593,-0.24844927,28.0,29.1875,28.3125,32.25,34.375,35.25
0.054052383,0.035401687,-1.4826441,-0.5984123,-0.012740198,0.012699973,-0.19144246,-0.3816374,-0.34846666,0.059855673,-3.0787015,0.6248944,-0.00044262232,-0.026596876,5.9388247e-05,0.002341173,-0.017496869,0.0076738526,0.0016436838,0.4769949,-1.4249532,1.9568871,-2.1009667,-1.5705131,2.4519365,-0.032435473,0.030472783,-0.03855917,-0.006804366,0.011912232,-0.034074515,0.0,0.30645782,-9.519346,0.7553206,47.694946,-0.59636116,-2.1001258,-3.296582,-0.5123784,0.09975319,-0.25715238,28.0,29.1875,28.3125,32.25,34.375,35.25
0.05605242,-0.53673923,-1.9081904,-0.69300103,-0.009882261,-0.002988538,-0.1850104,-0.38169882,-0.34845936,0.059855152,-3.0787463,0.6250181,-0.00045855116,-0.027244162,1.9853987e-05,0.0018307725,-0.01791276,0.006606866,0.002254853,0.47688648,-1.4248927,1.9568275,-2.101003,-1.5704535,2.4518995,-0.033514656,0.03255563,-0.039735544,-0.0069533326,0.01277099,-0.03576498,-0.019153614,0.36391866,-9.5385,0.7642693,47.691364,-0.6189917,-2.1457124,-3.383818,-0.51537406,0.09272571,-0.2848287,28.0,29.1875,28.3125,32.25,34.375,35.25
0.058051627,-0.6936446,-1.7115244,-0.45680794,-0.021261897,0.0020898692,-0.185543,-0.3817503,-0.3484771,0.059880547,3.0787907,-0.6249683,0.00038293615,-0.027825596,-0.000100123645,0.0019815853,-0.018223943,0.0067278272,0.0038807343,0.47686234,-1.4248564,1.9567307,-2.1010144,-1.5704411,2.4518387,-0.033978198,0.033332467,-0.041026436,-0.0066892863,0.0129922945,-0.037853133,0.0,0.38307226,-9.423578,0.800085,47.67614,-0.5484558,-2.1879473,-3.3437393,-0.51419973,0.09399761,-0.27011448,28.0,29.1875,28.3125,32.25,34.375,35.25
0.06005184,-0.22550346,-1.2142502,-0.47739896,-0.032059696,0.019733377,-0.19817258,-0.38179407,-0.34847927,0.05986675,3.0787842,-0.62496674,0.0004614908,-0.028996425,-0.0007188743,0.0031975538,-0.020697244,0.008754387,0.0051087914,0.47680217,-1.4247487,1.9566339,-2.1009905,-1.5704049,2.4517784,-0.03477352,0.03272426,-0.043043714,-0.007001464,0.014253718,-0.039878126,0.0,0.4213795,-9.461885,0.78888994,47.716442,-0.5856595,-2.0804057,-3.340189,-0.50931925,0.062492378,-0.28000376,28.0,29.1875,28.3125,32.25,34.375,35.25
0.062052373,-0.41369104,-1.4622209,-0.39087114,-0.022253454,0.020735817,-0.1897917,-0.38187364,-0.34847522,0.05988235,3.0787213,-0.62495303,0.00039708035,-0.030296704,-0.00037407066,0.0032242397,-0.02043886,0.009383309,0.0056642373,0.47670567,-1.4246886,1.9565381,-2.1010273,-1.5703806,2.4516814,-0.03624208,0.0341882,-0.044725776,-0.007218887,0.013735686,-0.041899145,-0.05746084,0.38307226,-9.519346,0.779936,47.70032,-0.6379791,-2.1103969,-3.2943578,-0.5219877,0.05475769,-0.31124225,28.0,29.1875,28.3125,32.25,34.375,35.25
0.06405206,-0.52627623,-1.3409803,-0.36988628,-0.011592558,0.027583579,-0.18707629,-0.38191614,-0.3484679,0.059867244,3.07872,-0.62495273,0.00042535583,-0.030670505,-0.00066645525,0.0023133215,-0.020237159,0.008026818,0.006896459,0.47664565,-1.4246037,1.9564785,-2.1010392,-1.5703686,2.4516213,-0.03635004,0.037106127,-0.045867413,-0.0076972954,0.014175557,-0.043239105,-0.1340753,0.36391866,-9.519346,0.7978386,47.703007,-0.68022037,-2.0887978,-3.275312,-0.5304281,0.046406277,-0.33145398,28.0,29.1875,28.3125,32.25,34.375,35.25
0.0660524,-0.7200513,-1.1438969,-0.22898352,-0.012181928,0.026363755,-0.18790768,-0.38197526,-0.34846884,0.0598841,3.0786724,-0.6248842,0.00042842005,-0.03242938,-0.0013956424,0.0031916762,-0.021525092,0.010891071,0.0075695096,0.4765615,-1.4245553,1.9563822,-2.1010277,-1.5703205,2.4515004,-0.036556557,0.038246572,-0.048892055,-0.008944849,0.013999533,-0.04411593,-0.076614454,0.30645782,-9.442732,0.7642693,47.695843,-0.7324624,-2.0816174,-3.2804906,-0.51349056,0.06537348,-0.33399633,28.0,29.1875,28.3125,32.25,34.375,35.25
0.06805264,-0.40387928,-0.61811966,-0.09233776,-0.008525962,0.037990898,-0.195268,-0.38205147,-0.34848788,0.05991017,3.0785902,-0.6248475,0.0003481774,-0.033262324,-0.0017737116,0.0028524206,-0.021802941,0.009959238,0.009667438,0.47650146,-1.4244944,1.956261,-2.1010625,-1.5702842,2.451428,-0.03708516,0.040938985,-0.05127932,-0.00854857,0.014674899,-0.046740603,-0.095768064,0.38307226,-9.404425,0.7553206,47.67345,-0.7831495,-2.1905997,-3.1197686,-0.51458144,0.043729544,-0.32999402,28.0,29.1875,28.3125,32.25,34.375,35.25
0.070051886,-0.43260542,-0.6677072,0.05753565,0.0018136896,0.039642043,-0.18945713,-0.38213852,-0.3485009,0.059926465,3.0785208,-0.6247946,0.0002541898,-0.03305755,-0.00090512744,0.0014874369,-0.020368332,0.00764238,0.010873216,0.47642905,-1.4244101,1.9561414,-2.101123,-1.5702609,2.4513314,-0.038297534,0.042652782,-0.050072618,-0.008748542,0.014470717,-0.049157366,-0.19153613,0.3256114,-9.423578,0.7777002,47.695843,-0.84579396,-2.2536426,-3.2906573,-0.50907737,0.047280893,-0.3368582,28.0,29.1875,28.3125,32.25,34.375,35.25
0.07205237,-0.7945444,-0.7068725,-0.08589412,0.010496234,0.033284217,-0.19083561,-0.38220128,-0.34849542,0.059936687,3.078537,-0.62468255,0.00021334765,-0.03456389,-0.0018931187,0.0033512593,-0.022946244,0.011602979,0.009775371,0.47636884,-1.4243385,1.9560336,-2.1011112,-1.5702723,2.4511993,-0.038228497,0.041462474,-0.052794334,-0.009540061,0.014939842,-0.047989454,-0.21068975,0.19153613,-9.32781,0.7418897,47.68062,-0.87574553,-2.1906807,-3.2540717,-0.49693057,0.024581097,-0.38198,28.0,29.1875,28.3125,32.25,34.375,35.25
0.07405168,-0.3977468,-0.15499575,0.053620752,0.0047900192,0.040869936,-0.19506082,-0.38226578,-0.348519,0.059948664,3.0784438,-0.62466186,0.00023662848,-0.035868,-0.0023715477,0.0033217396,-0.022895487,0.012301784,0.011674348,0.47629702,-1.424254,1.9559125,-2.101123,-1.5701889,2.4511263,-0.038334887,0.044141334,-0.055703428,-0.0099003175,0.014571328,-0.049991664,-0.22984336,0.19153613,-9.270349,0.8560339,47.71017,-0.9764404,-2.1578426,-3.0889335,-0.49376053,0.04538171,-0.38255906,28.0,29.1875,28.3125,32.25,34.375,35.25
0.076052524,-0.77518535,-0.3090548,-0.17006764,0.019137792,0.034906328,-0.18629614,-0.38232306,-0.34850338,0.059927404,3.078451,-0.6246045,0.00028973568,-0.036654636,-0.002136001,0.0030231213,-0.022906367,0.011076295,0.013164163,0.47620064,-1.4241453,1.95584,-2.1011355,-1.5701646,2.4509933,-0.039841227,0.046008922,-0.05735595,-0.009029346,0.015142445,-0.052987996,-0.19153613,0.15322891,-9.232041,0.75084364,47.681515,-1.004221,-2.1588342,-3.0104039,-0.4843321,0.025281793,-0.38264424,28.0,29.1875,28.3125,32.25,34.375,35.25
0.078051865,-0.7591823,-0.3674998,0.017752906,0.021279702,0.03690461,-0.18911156,-0.38241374,-0.34851378,0.059942923,3.0783463,-0.62463784,0.0002227453,-0.035702474,-0.0015120659,0.0012833663,-0.02087553,0.008323299,0.01830717,0.4761046,-1.424061,1.9557217,-2.101195,-1.5701169,2.4509313,-0.039715677,0.04777649,-0.055302024,-0.009464839,0.014610572,-0.058004048,-0.15322891,0.21068975,-9.251195,0.8224646,47.687782,-1.0350758,-2.244293,-3.189145,-0.49176013,0.04115907,-0.37419128,28.0,29.1875,28.3125,32.25,34.375,35.25
0.08005223,-1.022577,-0.5080336,0.10784846,0.017046379,0.031966865,-0.18995997,-0.38249585,-0.34854043,0.05995835,3.0783284,-0.6244819,0.00015964475,-0.037647143,-0.0021293582,0.002474352,-0.022746846,0.010757617,0.017055204,0.47606814,-1.423941,1.9555525,-2.1012075,-1.5701045,2.4508,-0.04075532,0.048583414,-0.058893465,-0.009702372,0.015154045,-0.057789516,-0.1340753,0.095768064,-9.212888,0.8179876,47.698532,-1.1132808,-2.1625419,-3.1385984,-0.48074684,0.020308752,-0.37376422,28.0,29.1875,28.3125,32.25,34.375,35.25
0.08205244,-0.8756074,-0.25281122,0.02483999,0.009784487,0.029061362,-0.18406233,-0.38258344,-0.3485425,0.05997514,3.0782516,-0.62448317,0.00013451415,-0.038531743,-0.0020694074,0.0024897875,-0.022365944,0.010939189,0.020215176,0.47595987,-1.4238565,1.9554204,-2.1012194,-1.5700563,2.4507022,-0.041393574,0.050049428,-0.06068321,-0.009357449,0.014736066,-0.06158532,-0.26815057,0.038307227,-9.212888,0.76874626,47.704796,-1.1595966,-2.1504471,-3.0553021,-0.48669434,0.029347876,-0.37383342,28.0,29.1875,28.3125,32.25,34.375,35.25
0.08405255,-0.31842867,-0.12779824,0.09803397,0.013707,0.03670401,-0.19258514,-0.3826465,-0.34853464,0.059973333,3.0782933,-0.6242777,0.00013472291,-0.039328426,-0.0024292755,0.0028322411,-0.023224335,0.011629726,0.024107061,0.47588778,-1.4237605,1.9553121,-2.101207,-1.5700563,2.4504967,-0.041769076,0.050826106,-0.062324345,-0.009498252,0.015181708,-0.065852255,-0.24899697,0.038307227,-9.270349,0.8224646,47.679718,-1.2623065,-2.1432705,-3.089391,-0.49373382,0.03021971,-0.33469808,28.0,29.1875,28.3125,32.25,34.375,35.25
0.08605231,-0.44732213,-0.16319305,0.09767334,0.013347385,0.034093384,-0.19280726,-0.38272148,-0.34853867,0.059970018,3.0782666,-0.6241565,0.00012680581,-0.040994298,-0.0012711758,0.0024634763,-0.022551695,0.011501025,0.025283488,0.47580263,-1.4236519,1.9552039,-2.1012428,-1.5700206,2.4503393,-0.045000162,0.052678138,-0.063558504,-0.009685407,0.014645357,-0.07025771,-0.17238252,0.05746084,-9.289502,0.80679786,47.686886,-1.1576343,-2.1837149,-3.0682216,-0.4880654,0.0296617,-0.318458,28.0,29.1875,28.3125,32.25,34.375,35.25
0.088051625,-0.34253222,-0.6441253,-0.10737246,0.0085921325,0.037979145,-0.18782023,-0.3828241,-0.34852412,0.059971385,3.078226,-0.62420404,6.853586e-05,-0.041809857,-0.0015546972,0.0025693537,-0.023454081,0.01157566,0.02854754,0.47568238,-1.4235319,1.9550718,-2.1012785,-1.5700206,2.450254,-0.045733362,0.053923428,-0.065211125,-0.00975634,0.015417139,-0.07425406,-0.21068975,0.114921674,-9.232041,0.7978386,47.67345,-1.1742957,-2.166574,-3.0156262,-0.48379534,0.029259939,-0.28015786,28.0,29.1875,28.3125,32.25,34.375,35.25
0.09005186,-0.60900044,-0.55899155,0.21147457,-0.0013873779,0.034318134,-0.18927568,-0.3829009,-0.34854814,0.059991118,3.07818,-0.62405586,4.3863045e-05,-0.04174427,-0.0022609935,0.0024190785,-0.023276571,0.0115340045,0.03381987,0.47562304,-1.4234354,1.9549168,-2.101279,-1.5699724,2.450108,-0.044322927,0.05518495,-0.066301405,-0.0098018125,0.015283391,-0.078114174,-0.2681506,0.19153613,-9.251195,0.7933669,47.690468,-1.3594699,-2.2138658,-3.0302653,-0.47731102,0.032704733,-0.21658209,28.0,29.1875,28.3125,32.25,34.375,35.25
0.09205231,-0.84920484,-0.99508816,0.067253165,0.0055288984,0.03629446,-0.18891916,-0.3829666,-0.34852952,0.05997024,3.0782204,-0.62391067,0.00012636,-0.043826945,-0.001330176,0.0030569294,-0.024213854,0.012724229,0.03416268,0.47551373,-1.4233038,1.9548086,-2.1012547,-1.5699481,2.449903,-0.04806287,0.055521466,-0.068158604,-0.009763148,0.015568181,-0.082197,-0.22984336,0.21068975,-9.289502,0.8717007,47.717335,-1.2618002,-2.1530197,-3.0161977,-0.48105013,0.03531035,-0.18282837,28.0,29.1875,28.3125,32.25,34.375,35.25
0.09405185,-0.7168013,-0.6007177,-0.10168668,-0.0076913293,0.03862699,-0.1932424,-0.38305855,-0.34853804,0.05998308,3.0781462,-0.62381744,9.900304e-05,-0.04419753,-0.0009708734,0.0012405857,-0.022715056,0.008859345,0.035581112,0.47540534,-1.4232059,1.9546756,-2.1012905,-1.569888,2.449746,-0.049317125,0.060251955,-0.069610946,-0.00891203,0.016012926,-0.08486773,-0.17238252,0.24899697,-9.32781,0.7933669,47.711964,-1.2446404,-2.2957919,-2.9901934,-0.49619457,0.03289781,-0.15964657,28.0,29.1875,28.3125,32.25,34.375,35.25
0.096052445,-0.5198354,-0.88110095,-0.14026101,-0.0020626907,0.04342111,-0.18594413,-0.3831369,-0.3485193,0.059968304,3.0781457,-0.6238001,0.00015282446,-0.046154305,-0.00021505861,0.003194448,-0.024811784,0.012430193,0.03282963,0.47528422,-1.4230747,1.9545568,-2.1012785,-1.5698637,2.449614,-0.052587755,0.057427105,-0.07083471,-0.0089943325,0.016240828,-0.08538734,-0.24899697,0.24899697,-9.385271,0.7597976,47.695843,-1.1361454,-2.1545875,-3.0854545,-0.4974282,0.049520515,-0.13700359,28.0,29.1875,28.3125,32.25,34.375,35.25
0.0980521,-0.6395619,-0.8937219,-0.18841937,-0.00910564,0.042742,-0.1888013,-0.3832444,-0.34853896,0.06000444,3.078093,-0.62359613,3.3607216e-06,-0.046139266,-0.0010526382,0.0027447839,-0.024911327,0.011863822,0.03465693,0.47521257,-1.42299,1.9543885,-2.1013267,-1.5698518,2.449422,-0.051305104,0.059463654,-0.072054684,-0.009351504,0.016598195,-0.08592918,-0.38307226,0.2681506,-9.404425,0.8112748,47.66987,-1.2835603,-2.071042,-3.0387182,-0.50986946,0.04949598,-0.061203483,28.0,29.1875,28.3125,32.25,34.375,35.25
0.100052305,-1.1533478,-0.8292355,-0.368528,-0.010884016,0.03892889,-0.18523398,-0.38329425,-0.34851682,0.059969172,3.0781362,-0.62354857,0.00015755433,-0.047282543,-0.0006004975,0.0024395518,-0.02458865,0.011862527,0.029638099,0.4751042,-1.4228452,1.9542927,-2.1012785,-1.569816,2.4492784,-0.05295449,0.061227687,-0.073299065,-0.009719098,0.016300634,-0.08256011,-0.3256114,0.2681506,-9.442732,0.7777002,47.694054,-1.3391731,-2.1218011,-3.0629377,-0.50289476,0.05286459,-0.103448726,28.0,29.1875,28.3125,32.25,34.375,35.25
0.10205175,-0.831017,-1.062938,-0.41365084,-0.00064981484,0.052560437,-0.18380384,-0.38341802,-0.34853247,0.059974384,3.0780942,-0.6233508,9.204755e-05,-0.04874073,0.0008464295,0.0008648005,-0.023399433,0.009600739,0.026073858,0.47499475,-1.4226757,1.954101,-2.101339,-1.5697798,2.449051,-0.056831162,0.06498836,-0.073863685,-0.010354737,0.01628416,-0.08287021,-0.24899697,0.17238252,-9.500193,0.842603,47.694946,-1.1263274,-2.3205733,-3.0986032,-0.4831589,0.0560641,-0.12964207,28.0,29.1875,28.3125,32.25,34.375,35.25
0.104051754,-1.0851973,-1.0705326,-0.28952193,0.0027579286,0.0437337,-0.18299758,-0.38349798,-0.34851968,0.05998149,3.0780928,-0.6232378,4.5866407e-05,-0.0499086,0.00044279403,0.0024437564,-0.02503272,0.012746282,0.021253757,0.47489864,-1.4225923,1.9539922,-2.1013515,-1.5697798,2.4488845,-0.057179518,0.06347456,-0.07569826,-0.010552794,0.016296173,-0.07839716,-0.34476504,0.24899697,-9.519346,0.8023209,47.67614,-1.16245,-2.1108365,-3.107679,-0.495894,0.0682217,-0.1341103,28.0,29.1875,28.3125,32.25,34.375,35.25
0.10605239,-0.30351633,-0.40025666,-0.15869796,-0.013816122,0.058266215,-0.19440192,-0.38360748,-0.34851673,0.05998349,3.0780256,-0.62322587,6.338766e-05,-0.049978826,0.0010331868,0.00075756107,-0.024292337,0.009412076,0.017335631,0.47475398,-1.4224471,1.9538244,-2.101363,-1.5697197,2.448741,-0.058835175,0.066625886,-0.07543136,-0.010665178,0.017166574,-0.07613448,-0.3256114,0.15322891,-9.442732,0.76874626,47.67345,-1.1578202,-2.2105455,-3.1740952,-0.4834262,0.06654821,-0.18841986,28.0,29.1875,28.3125,32.25,34.375,35.25
0.10805253,-0.7385422,-0.6504164,-0.238569,0.00026625302,0.05175894,-0.19540808,-0.3837324,-0.34852487,0.060002014,3.077957,-0.6231743,-5.655368e-05,-0.05209438,0.00031251772,0.001709458,-0.026415115,0.011685571,0.01505786,0.4746457,-1.4223143,1.9536442,-2.1014235,-1.5697073,2.4486094,-0.060026065,0.068154454,-0.07918154,-0.011437133,0.01801528,-0.07504411,-0.34476504,0.1340753,-9.461885,0.83813137,47.689575,-1.235123,-2.210306,-3.01794,-0.48463947,0.06683006,-0.21996129,28.0,29.1875,28.3125,32.25,34.375,35.25
0.11005213,-0.49687704,-0.08760121,-0.24010937,-0.0014786214,0.046582136,-0.1854462,-0.3838032,-0.34852007,0.05998206,3.0779557,-0.62311727,9.2292785e-06,-0.051970966,0.0010895272,0.00042305494,-0.025715262,0.009727268,0.01341737,0.47454906,-1.4221698,1.9535245,-2.1014235,-1.5696715,2.4484773,-0.061454065,0.06956999,-0.07767724,-0.012292002,0.018288981,-0.074832655,-0.24899697,0.019153614,-9.461885,0.81351066,47.70211,-1.2036184,-2.2149272,-3.2427816,-0.45417947,0.0832797,-0.28065774,28.0,29.1875,28.3125,32.25,34.375,35.25
0.11205238,-0.6196181,0.00033778627,-0.110662445,0.0014844572,0.045415662,-0.18891202,-0.3839287,-0.3485279,0.060011584,3.077876,-0.62302387,-5.8311296e-05,-0.05305028,0.0011537771,0.00046403566,-0.026096577,0.010020241,0.01247354,0.4744167,-1.422049,1.9533218,-2.1014354,-1.5696234,2.4482968,-0.062670544,0.07094967,-0.07931441,-0.01246376,0.018500354,-0.07510269,-0.21068975,0.11492168,-9.481039,0.8672237,47.741516,-1.1863114,-2.283667,-3.2688875,-0.4575624,0.0806816,-0.31127435,28.0,29.1875,28.3125,32.25,34.375,35.25
0.1140522,-0.06722582,-0.27747354,0.0045913793,0.006118202,0.053913943,-0.18609188,-0.3840439,-0.34852836,0.060021725,3.0778055,-0.6229726,-0.00015229743,-0.054796368,0.0014465563,0.0009847425,-0.026488293,0.011854991,0.010840383,0.47429612,-1.4219289,1.9531778,-2.101508,-1.569599,2.4481533,-0.06445307,0.07181428,-0.0813542,-0.013093677,0.018014893,-0.07524878,-0.3256114,0.05746084,-9.3661175,0.77545905,47.661808,-1.2481374,-2.180376,-3.0527165,-0.46004337,0.10435365,-0.30639338,28.0,29.1875,28.3125,32.25,34.375,35.25
0.11605211,-0.48373875,-0.24016719,-0.072506435,0.011723438,0.04711038,-0.18393762,-0.38415402,-0.34851223,0.060006857,3.07776,-0.622963,-9.1946815e-05,-0.054764837,0.001921907,0.00042796577,-0.026648661,0.010495832,0.010512537,0.47412777,-1.4217604,1.9530219,-2.1015193,-1.569539,2.4479847,-0.06573994,0.07228231,-0.08061371,-0.013160353,0.018784162,-0.07620855,-0.28730422,0.076614454,-9.404425,0.7911258,47.681515,-1.2468458,-2.2224202,-3.3547268,-0.4469821,0.11179642,-0.35457382,28.0,29.1875,28.3125,32.25,34.375,35.25
0.11805249,-0.6076307,-0.021980468,-0.14959385,0.010711807,0.037298802,-0.19727415,-0.38425994,-0.34852356,0.060003694,3.0777118,-0.6228958,-8.779435e-05,-0.05607294,0.001393144,0.00080169423,-0.028534962,0.010861535,0.009440245,0.4740193,-1.4215916,1.9528416,-2.1015437,-1.5694903,2.4478405,-0.06695647,0.0738323,-0.0832189,-0.013291129,0.020294817,-0.076351345,-0.19153613,0.076614454,-9.423578,0.75755644,47.64121,-1.2792473,-2.1226113,-3.2613947,-0.4419688,0.11135973,-0.3793506,28.0,29.1875,28.3125,32.25,34.375,35.25
0.120051816,-0.64705276,-0.29420665,-0.015372254,0.006613551,0.042518806,-0.19297405,-0.3843561,-0.3485004,0.06000505,3.0777256,-0.62284184,-0.00011331446,-0.057457153,0.0027640036,0.0007651433,-0.028207235,0.010621623,0.0059636286,0.4738982,-1.4214714,1.9526981,-2.1015313,-1.5695027,2.447684,-0.07051738,0.0743716,-0.08386964,-0.012814359,0.02011604,-0.076435044,-0.2681506,-0.019153614,-9.481039,0.77545905,47.67614,-1.0607278,-2.2125769,-3.3355784,-0.43977243,0.11712922,-0.4318888,28.0,29.1875,28.3125,32.25,34.375,35.25
0.12205224,-0.896307,-0.34698597,-0.0470826,0.008301353,0.04120702,-0.1801309,-0.3844981,-0.3485102,0.06002811,3.0776193,-0.6227996,-0.00021360286,-0.057090428,0.0019544787,0.0004703576,-0.027593289,0.010657438,0.009380638,0.47375482,-1.4213269,1.952494,-2.1015918,-1.569455,2.447528,-0.06836207,0.07563203,-0.08457969,-0.013106457,0.019564904,-0.07769356,-0.28730422,0.038307227,-9.423578,0.75755644,47.652847,-1.2762774,-2.1053832,-3.295772,-0.43411088,0.13592894,-0.46728435,28.0,29.1875,28.3125,32.25,34.375,35.25
0.1240528,-1.179821,-0.2914522,-0.10277057,0.008318928,0.04078964,-0.17693274,-0.3846161,-0.34852037,0.060045656,3.0774932,-0.62279284,-0.00024504974,-0.05794829,0.0029104776,0.00021895007,-0.02785518,0.009710035,0.008383684,0.47360998,-1.4212065,1.9523271,-2.101639,-1.5693702,2.4473948,-0.07125218,0.07625019,-0.08479347,-0.012777805,0.020243082,-0.07958497,-0.2681506,0.076614454,-9.385271,0.83813137,47.66539,-1.2444526,-2.0755877,-3.4259543,-0.4297164,0.1520665,-0.48862374,28.0,29.1875,28.3125,32.25,34.375,35.25
0.12605242,-1.0819604,-0.1529173,-0.11592847,0.008644673,0.04880039,-0.18533531,-0.38473743,-0.34848955,0.06002561,3.0775423,-0.62270486,-0.00021528393,-0.061258275,0.0035910634,0.0015729967,-0.02922469,0.012628754,0.011303573,0.4734524,-1.4210019,1.9521335,-2.1016157,-1.5693825,2.4471762,-0.07538365,0.07719596,-0.08899054,-0.012737283,0.020130951,-0.086634815,-0.2681506,0.15322891,-9.308657,0.84708,47.684196,-1.0221013,-2.0796406,-3.2930756,-0.42916316,0.17276786,-0.4783134,28.0,29.1875,28.3125,32.25,34.375,35.25
0.1280517,-1.249863,-0.5898632,-0.19936793,0.01400819,0.041397743,-0.18288712,-0.38485518,-0.34847343,0.060020242,3.0774593,-0.6227817,-0.00022356123,-0.05966563,0.003565894,-0.00014797947,-0.027831785,0.009282055,0.015738342,0.4732851,-1.4208574,1.9519914,-2.1016634,-1.5693344,2.4470675,-0.07405214,0.07883348,-0.08692908,-0.012812076,0.020432642,-0.08973803,-0.2681506,0.1340753,-9.346964,0.8291774,47.661808,-1.2794077,-1.9672093,-3.463676,-0.4230958,0.16191216,-0.47702396,28.0,29.1875,28.3125,32.25,34.375,35.25
0.1300528,-0.85671246,-0.15709752,-0.040570594,-0.0021056468,0.04812918,-0.19140372,-0.38499132,-0.34849033,0.060051974,3.0773823,-0.6225512,-0.0003103571,-0.061816957,0.0040531717,0.00028492487,-0.029090723,0.009573146,0.020706842,0.47315186,-1.4207245,1.951775,-2.1016986,-1.5692743,2.4468002,-0.077500604,0.08049544,-0.08994833,-0.012271814,0.021439897,-0.098151125,-0.3256114,0.19153613,-9.3661175,0.81351066,47.677036,-1.0683608,-2.1570556,-3.513608,-0.42572084,0.18541603,-0.42977232,28.0,29.1875,28.3125,32.25,34.375,35.25
0.13205238,-0.737095,-0.6713438,-0.18359274,0.010879129,0.04466684,-0.18465288,-0.3850876,-0.3484806,0.060033314,3.0773761,-0.62245053,-0.00020752879,-0.06278488,0.003928502,0.0014937278,-0.031318355,0.011215421,0.02587769,0.4730072,-1.420545,1.9516066,-2.1016748,-1.5692133,2.4465935,-0.07893858,0.079103336,-0.091157,-0.012133957,0.022680668,-0.10476063,-0.30645782,0.15322891,-9.3661175,0.8627467,47.704796,-1.0730108,-1.8926165,-3.3920708,-0.4231956,0.18423778,-0.34111285,28.0,29.1875,28.3125,32.25,34.375,35.25
0.13405187,-0.42274755,-0.45926064,-0.2595966,0.011783407,0.044759773,-0.19884752,-0.3852123,-0.34845582,0.06002112,3.077358,-0.6224056,-0.00017108739,-0.06388251,0.004307739,0.00066316186,-0.030799458,0.009925833,0.031667054,0.47282663,-1.4203635,1.9514269,-2.1016748,-1.569178,2.4463873,-0.08066938,0.08223676,-0.092854284,-0.012167529,0.022816086,-0.11227957,-0.22984336,0.19153613,-9.500193,0.94331104,47.70838,-1.0236745,-1.9922829,-3.4135885,-0.42110163,0.19016157,-0.29361033,28.0,29.1875,28.3125,32.25,34.375,35.25
0.13605234,-0.51938665,-0.29964173,-0.1912558,-0.003873185,0.04891175,-0.1924672,-0.385338,-0.34842768,0.06002015,3.077339,-0.62228435,-0.00019234627,-0.06553164,0.004246701,0.0023523967,-0.032524504,0.012803915,0.03500413,0.47264615,-1.4202203,1.9512705,-2.1016986,-1.5691532,2.4461336,-0.08218401,0.080966234,-0.09536611,-0.011719853,0.023052054,-0.11712957,-0.4213795,0.19153613,-9.500193,0.8112748,47.694946,-1.008853,-1.893657,-3.3531952,-0.42877036,0.2219297,-0.21858051,28.0,29.1875,28.3125,32.25,34.375,35.25
0.1380526,-1.0563912,-0.58810085,-0.20897703,-0.00013423091,0.05396615,-0.19127773,-0.3854912,-0.34843764,0.060045883,3.0772228,-0.6222021,-0.00026682395,-0.06624817,0.004712276,0.0016648112,-0.032326005,0.011035248,0.035906233,0.4724776,-1.4200633,1.951043,-2.1017463,-1.5690812,2.4459286,-0.08404364,0.083214544,-0.09651105,-0.011143724,0.023701262,-0.11988785,-0.49799395,0.24899697,-9.442732,0.8090337,47.67614,-0.9681783,-1.8090429,-3.3710065,-0.4322455,0.2176469,-0.17290524,28.0,29.1875,28.3125,32.25,34.375,35.25
0.14005245,-0.9948298,-0.38593858,-0.18604691,-0.0014245207,0.064719744,-0.18994924,-0.3856086,-0.34842288,0.060038876,3.0772073,-0.6220265,-0.00027371926,-0.066817544,0.004924892,0.001193446,-0.032333396,0.009574263,0.03479575,0.47232103,-1.4199064,1.9508876,-2.101782,-1.569045,2.4456644,-0.08534724,0.085095026,-0.09775137,-0.010480279,0.0243796,-0.12007942,-0.40222588,0.24899697,-9.576807,0.78217715,47.70032,-0.967463,-1.723896,-3.4138284,-0.44754228,0.21877292,-0.11242808,28.0,29.1875,28.3125,32.25,34.375,35.25
0.14205217,-0.49412242,-0.5337562,-0.3315028,-0.014735668,0.076581664,-0.19861056,-0.38577145,-0.34842005,0.06005304,3.077152,-0.6219798,-0.00033788482,-0.068374015,0.005366263,0.001027393,-0.032858197,0.009311014,0.02873373,0.4721523,-1.4197016,1.9506234,-2.101794,-1.5690211,2.4454737,-0.08788707,0.08715503,-0.09972533,-0.010571286,0.024969257,-0.116554186,-0.36391866,0.22984336,-9.595961,0.8493211,47.70211,-0.8717523,-1.714141,-3.364043,-0.42499083,0.24716891,-0.14308083,28.0,29.1875,28.3125,32.25,34.375,35.25
0.14405252,-0.9672649,-0.7156043,-0.25969848,-0.020768417,0.06607604,-0.18996833,-0.38590792,-0.34839916,0.06004678,3.077104,-0.62187624,-0.00034827343,-0.06914783,0.0057202806,0.0006860108,-0.03289863,0.008247694,0.024350403,0.4719597,-1.4195325,1.9504551,-2.1018417,-1.5689725,2.4452226,-0.08951908,0.08881595,-0.10098185,-0.010042892,0.025492748,-0.1138009,-0.5746084,0.24899697,-9.481039,0.8314132,47.687782,-0.8450718,-1.8002967,-3.427093,-0.4379521,0.24003722,-0.18345702,28.0,29.1875,28.3125,32.25,34.375,35.25
0.1460655,-1.1265684,-0.18332349,-0.29131764,-0.027073927,0.04844931,-0.18622163,-0.38605365,-0.34838074,0.060051568,3.0770648,-0.62179554,-0.00030406032,-0.07043688,0.005084226,0.0012124309,-0.034308825,0.009478668,0.017559106,0.47175568,-1.4193401,1.9502157,-2.1018064,-1.5689124,2.4449732,-0.08996735,0.09014974,-0.10362711,-0.010470032,0.026178483,-0.107455924,-0.6512228,0.17238252,-9.481039,0.8224646,47.666286,-0.8670707,-1.817806,-3.3549747,-0.43400767,0.24666494,-0.2534539,28.0,29.1875,28.3125,32.25,34.375,35.25
0.14805257,-0.7166095,-0.47070134,-0.4225472,-0.015947312,0.056521375,-0.19792454,-0.38619304,-0.3483899,0.06007294,3.0769513,-0.621734,-0.0003645258,-0.072238036,0.005607697,0.0012126591,-0.03570038,0.009837218,0.015873244,0.47159836,-1.4191953,1.9500121,-2.1018546,-1.5688399,2.444792,-0.09319545,0.091647565,-0.105139755,-0.011396087,0.027267715,-0.10899402,-0.40222588,0.15322891,-9.576807,0.7530795,47.682407,-0.68261325,-1.8111589,-3.3942358,-0.42179382,0.26544923,-0.2770688,28.0,29.1875,28.3125,32.25,34.375,35.25
0.15005173,-0.76819646,-0.63891906,-0.1933386,-0.012746966,0.056671947,-0.18464224,-0.38631967,-0.34835574,0.0600592,3.0769637,-0.6216211,-0.00032357074,-0.07208472,0.004267267,-0.0006742887,-0.035096444,0.0061586406,0.015689801,0.47140715,-1.4190131,1.9498318,-2.1018422,-1.5688156,2.4445288,-0.09137822,0.09770344,-0.107833974,-0.011205929,0.028394675,-0.10699127,-0.30645782,0.11492168,-9.557653,0.8493211,47.687782,-0.87821853,-2.0182858,-3.3286135,-0.41743785,0.27212146,-0.30305946,28.0,29.1875,28.3125,32.25,34.375,35.25
0.15205221,-0.6104888,-0.15923856,-0.12601627,-0.014857485,0.064545855,-0.1936914,-0.38651016,-0.3483524,0.060099795,3.0768287,-0.6215949,-0.0004430666,-0.07439363,0.0052701826,0.0007033915,-0.03755991,0.008871161,0.011885148,0.47118947,-1.4188457,1.9495558,-2.1018784,-1.5687555,2.444312,-0.09582676,0.096096635,-0.10896435,-0.011993661,0.029375415,-0.10763031,-0.38307226,0.15322891,-9.3661175,0.8605109,47.67793,-0.8221616,-1.8450842,-3.3132005,-0.43766677,0.25738814,-0.3353808,28.0,29.1875,28.3125,32.25,34.375,35.25
0.15405224,-0.8097612,-0.38395914,-0.34667942,0.0054198764,0.06155987,-0.18865815,-0.38663432,-0.34835067,0.06008055,3.076776,-0.6215445,-0.0004126019,-0.07478203,0.0030393398,0.00031748484,-0.03764268,0.0083688,0.014442208,0.4710349,-1.4186398,1.9493746,-2.101926,-1.5686954,2.4441328,-0.092389986,0.10081616,-0.113584295,-0.011674872,0.029672561,-0.10674692,-0.36391866,0.22984336,-9.442732,0.87393653,47.72629,-0.9400805,-2.0145698,-3.0779016,-0.4292981,0.27461663,-0.36357707,28.0,29.1875,28.3125,32.25,34.375,35.25
0.15605165,-0.9540008,-0.574199,-0.2536874,0.009477424,0.055620067,-0.19008,-0.38681242,-0.3483353,0.060095645,3.0767143,-0.6214933,-0.0004907266,-0.07502892,0.003251248,0.00043246654,-0.03872696,0.008330574,0.014500888,0.47083047,-1.4184358,1.9491118,-2.10195,-1.5686711,2.4439044,-0.09358346,0.100338876,-0.11324359,-0.011988555,0.030672463,-0.107996404,-0.36391866,0.22984336,-9.461885,0.7732232,47.666286,-1.0166311,-1.9348061,-3.2019749,-0.435966,0.28348312,-0.38906908,28.0,29.1875,28.3125,32.25,34.375,35.25
0.15805197,-0.6993105,-0.5177606,-0.011333385,-0.009117292,0.060675208,-0.19171819,-0.3869408,-0.34831455,0.060093705,3.0766692,-0.62144196,-0.00044644327,-0.0763347,0.0024068116,0.0009310941,-0.03980428,0.009612529,0.018636966,0.4706386,-1.418267,1.9489201,-2.1019385,-1.568611,2.4436862,-0.09348222,0.10218067,-0.11644981,-0.012236102,0.031057736,-0.112028874,-0.21068975,0.24899697,-9.289503,0.8403672,47.666286,-1.0643321,-1.9920436,-3.0136995,-0.41465968,0.28057483,-0.39708215,28.0,29.1875,28.3125,32.25,34.375,35.25
0.16005246,-0.37032545,-0.6961477,0.01813304,-0.017911986,0.048683852,-0.19194524,-0.3871012,-0.34832782,0.06010612,3.0765932,-0.6212313,-0.0004928119,-0.07717595,0.0026865427,0.0005879165,-0.039606173,0.008734986,0.023728851,0.47046995,-1.4180621,1.9486679,-2.1019862,-1.5685385,2.4433959,-0.09485343,0.10410107,-0.1180083,-0.01170002,0.03130516,-0.11848803,-0.21068975,0.2681506,-9.289502,0.87393653,47.688675,-1.0726767,-1.9430315,-3.0650969,-0.41711804,0.2923132,-0.35114896,28.0,29.1875,28.3125,32.25,34.375,35.25
0.16205202,-0.06397805,-0.72406685,-0.06616169,-0.027877726,0.03945346,-0.1967934,-0.38724795,-0.348323,0.06009143,3.076552,-0.6211627,-0.00044785475,-0.07821187,0.0024730093,0.0010987797,-0.040357616,0.01004825,0.030027676,0.47028977,-1.4178218,1.9484285,-2.101998,-1.5684785,2.4431782,-0.09542773,0.10464718,-0.11975739,-0.011981023,0.031395555,-0.12535988,-0.11492168,0.36391866,-9.289502,0.82022345,47.704796,-1.1120517,-1.9529128,-3.1113238,-0.4159733,0.311229,-0.30848444,28.0,29.1875,28.3125,32.25,34.375,35.25
0.1640524,-0.4710452,-0.9688344,-0.08748474,-0.03591522,0.012493146,-0.18919817,-0.38743722,-0.3483237,0.060111158,3.0764325,-0.6210575,-0.0005384507,-0.07870665,0.0031791618,0.0005780807,-0.03961705,0.009003054,0.035775952,0.47007337,-1.4176171,1.9481653,-2.10207,-1.5684065,2.4429114,-0.096973024,0.10588381,-0.120097436,-0.011577722,0.031247115,-0.13264932,-0.05746084,0.34476504,-9.308657,0.88289046,47.674347,-1.1047908,-1.885752,-3.1395278,-0.4221669,0.31512403,-0.20216505,28.0,29.1875,28.3125,32.25,34.375,35.25
0.16605225,-0.494629,-1.7299384,-0.26709354,-0.021989658,0.0036053923,-0.18114911,-0.38759,-0.34829918,0.060124546,3.076415,-0.6208583,-0.0005607375,-0.07961408,0.003234006,-0.00015155518,-0.039587058,0.0078015695,0.041106053,0.46986878,-1.4174478,1.9479378,-2.1020577,-1.5683707,2.4425848,-0.09819244,0.10882402,-0.12179044,-0.011716106,0.031786405,-0.13919577,0.038307227,0.36391866,-9.385271,0.8157518,47.684196,-1.0567169,-1.9721643,-3.0514345,-0.42566654,0.3459999,-0.13395739,28.0,29.1875,28.3125,32.25,34.375,35.25
0.16805252,-0.25477013,-1.3037895,-0.11402613,-0.026281934,0.0030722432,-0.18257768,-0.3877524,-0.3482928,0.060101926,3.0763512,-0.62080896,-0.00052047736,-0.08130132,0.003703975,0.00022755473,-0.041059498,0.008379975,0.038171444,0.46966392,-1.4171833,1.947697,-2.1021059,-1.5682982,2.4423573,-0.10117627,0.10960719,-0.12352819,-0.011930771,0.032841943,-0.13924247,0.0,0.3256114,-9.289503,0.88960326,47.68062,-1.0510442,-1.9904852,-3.1805725,-0.427635,0.34829903,-0.095539846,28.0,29.1875,28.3125,32.25,34.375,35.25
0.17005189,-0.060689196,-1.3239844,-0.06373032,-0.013751389,0.006221179,-0.18420483,-0.38792676,-0.34829795,0.060131628,3.0762873,-0.6206023,-0.0006036365,-0.080343775,0.0030613127,-0.00068049156,-0.040735796,0.0065635513,0.038346987,0.46948454,-1.4169906,1.947411,-2.1021178,-1.5682501,2.4420571,-0.09947877,0.11107681,-0.12314218,-0.012013003,0.033391394,-0.13771659,0.019153614,0.3256114,-9.270349,0.8291774,47.684196,-1.1201926,-1.9762675,-3.1922374,-0.42887837,0.33147353,-0.08942508,28.0,29.1875,28.3125,32.25,34.375,35.25
0.17205213,0.7665657,-0.56596464,0.011328518,-0.019730642,0.021620102,-0.18969546,-0.38809806,-0.34830463,0.06013914,3.0761995,-0.6204352,-0.0005951904,-0.08228719,0.0036112426,-0.0019318188,-0.041459672,0.004334291,0.030679498,0.46927938,-1.4167606,1.9471353,-2.1021416,-1.5681533,2.4417589,-0.10321543,0.115789406,-0.12557854,-0.012623854,0.03504341,-0.1337799,0.019153614,0.28730422,-9.232041,0.8403672,47.719128,-1.1774482,-2.0839808,-3.1948051,-0.42554933,0.35727328,-0.12310721,28.0,29.1875,28.3125,32.25,34.375,35.25
0.17405237,-0.00045405884,-0.63646644,0.1567078,-0.00026722864,-0.001742267,-0.1851453,-0.3882728,-0.34828296,0.060140204,3.0761123,-0.620477,-0.0006242041,-0.08188481,0.0021858213,9.98526e-05,-0.045457102,0.006564143,0.026848285,0.46905178,-1.416546,1.946895,-2.1021779,-1.5681041,2.4415686,-0.10192105,0.11201056,-0.12597077,-0.012256455,0.037601747,-0.12865002,0.0,0.24899697,-9.193734,0.8224646,47.688675,-1.0933818,-1.9306018,-3.2425904,-0.42671525,0.3426603,-0.1745305,28.0,29.1875,28.3125,32.25,34.375,35.25
0.17605183,0.5234592,-0.2706813,0.03326386,-0.0011962762,0.004617866,-0.18419293,-0.38842952,-0.3482826,0.060127497,3.076065,-0.62033516,-0.00062088243,-0.08226433,0.0025755714,-0.0022818549,-0.043921348,0.002633551,0.02110838,0.46887147,-1.4163035,1.9466566,-2.102226,-1.5680445,2.4413059,-0.10316481,0.117480054,-0.12673135,-0.012763557,0.038004022,-0.12415053,0.019153614,0.19153613,-9.193734,0.7777002,47.693153,-1.2495676,-2.1114151,-3.3397062,-0.41567606,0.3187253,-0.24907279,28.0,29.1875,28.3125,32.25,34.375,35.25
0.1780524,0.5802745,-0.19771849,0.07975738,0.01181224,0.0032570567,-0.19182438,-0.38860965,-0.34827983,0.060153663,3.0759544,-0.6201987,-0.00064735126,-0.08412166,0.0029182534,-0.00068840873,-0.04508315,0.0060810563,0.018688923,0.46864262,-1.4161122,1.94638,-2.1022375,-1.5679487,2.441006,-0.10505415,0.116096966,-0.12875076,-0.012940536,0.037494257,-0.123616666,0.11492168,0.22984336,-9.212888,0.83589023,47.682407,-1.1017824,-1.9271415,-3.2330256,-0.4235454,0.3476446,-0.31851247,28.0,29.1875,28.3125,32.25,34.375,35.25
0.18005274,0.29561257,-0.12559807,0.22272767,0.017647685,-0.0073836544,-0.18281546,-0.38875848,-0.34826434,0.060126975,3.0759082,-0.6201338,-0.00054845447,-0.08397181,0.0028267528,-0.0017425953,-0.04570582,0.0033423766,0.013431953,0.46842661,-1.4158591,1.946153,-2.1022499,-1.5678638,2.4407554,-0.10585443,0.11826702,-0.12889613,-0.012802858,0.03927845,-0.1191581,0.11492168,0.19153613,-9.059659,0.79560274,47.703903,-1.15033,-1.9599016,-3.4077215,-0.4127463,0.35051513,-0.37533635,28.0,29.1875,28.3125,32.25,34.375,35.25
0.18205212,0.59555435,0.06820466,0.22641529,0.012738425,0.0036884907,-0.19163264,-0.3889456,-0.3482723,0.06013598,3.07575,-0.62015957,-0.0006007426,-0.08534816,0.0021670714,-0.000877918,-0.048301276,0.0041024815,0.013123438,0.46821004,-1.4156306,1.9458894,-2.1023333,-1.567767,2.4405751,-0.10714424,0.11906086,-0.13187604,-0.012450747,0.041267812,-0.12013082,0.019153614,0.1340753,-8.944737,0.8672237,47.719128,-1.1336963,-1.9707057,-3.2920198,-0.44150442,0.29902315,-0.4211825,28.0,29.1875,28.3125,32.25,34.375,35.25
0.18405248,0.101207025,-0.15955481,0.09854897,0.020694612,-0.0045795576,-0.18299158,-0.38908076,-0.3482922,0.06013776,3.0756824,-0.62003106,-0.0005078001,-0.085000575,0.002089465,-0.0020021112,-0.04967417,0.0003909879,0.010538322,0.46805373,-1.4154017,1.9456142,-2.102297,-1.5676583,2.4403472,-0.10851521,0.12106213,-0.13176563,-0.011864128,0.044170868,-0.11891246,-0.019153614,0.05746084,-9.040505,0.89631605,47.716442,-1.1532675,-1.909303,-3.405293,-0.4258814,0.29370642,-0.49422383,28.0,29.1875,28.3125,32.25,34.375,35.25
0.1860522,0.04637943,-0.3102776,-0.19055611,0.014495339,0.0073986882,-0.18415472,-0.38926026,-0.348265,0.06013498,3.0756247,-0.61997956,-0.00051784096,-0.08528636,0.0022031975,-0.0026592265,-0.050332602,-0.0018358078,0.013759843,0.46781304,-1.4151728,1.9453629,-2.1023204,-1.5676097,2.4400818,-0.10995116,0.12292905,-0.13258933,-0.011192093,0.045786377,-0.123565316,0.0,0.1340753,-9.289502,0.84708,47.694946,-1.2134824,-2.0217865,-3.3462849,-0.42834157,0.2634269,-0.51909614,28.0,29.1875,28.3125,32.25,34.375,35.25
0.18805268,0.1752792,-0.35447884,0.05855386,0.00021671088,0.03771087,-0.20168588,-0.38943017,-0.34825933,0.060125403,3.0755584,-0.61986446,-0.00047985834,-0.086842954,0.0027309733,-0.0036246055,-0.049109474,-0.0035726058,0.020874659,0.4675965,-1.4149191,1.9450988,-2.1023448,-1.5675257,2.439802,-0.11204523,0.12730204,-0.1356333,-0.0103694815,0.045507573,-0.13277118,-0.095768064,0.17238252,-9.212888,0.8247004,47.678825,-1.2433333,-2.018057,-3.2503905,-0.4554727,0.24119888,-0.46457195,28.0,29.1875,28.3125,32.25,34.375,35.25
0.1900517,-0.9765304,-0.46101153,-0.14319217,-0.004857407,0.044274934,-0.18757284,-0.3895746,-0.34826314,0.060100347,3.0754995,-0.6196926,-0.0002967138,-0.08779848,0.0012521577,2.004393e-05,-0.053838186,0.0018193342,0.031656038,0.46738073,-1.4146448,1.9448351,-2.10232,-1.5673813,2.4394863,-0.11139895,0.12216815,-0.13825679,-0.009500944,0.047323775,-0.1429054,-0.24899697,0.22984336,-9.308657,0.8314132,47.688675,-1.2074081,-1.8424896,-3.49561,-0.46947092,0.23816183,-0.37717712,28.0,29.1875,28.3125,32.25,34.375,35.25
0.19205202,-1.2250898,-0.61287385,-0.2730409,-0.0037169438,0.06736545,-0.18958913,-0.38974935,-0.34826127,0.060106184,3.0754,-0.6195742,-0.00026254097,-0.0890215,0.0027792156,-0.0023727482,-0.054043043,-0.0036476827,0.03557476,0.46715084,-1.4144144,1.9445599,-2.1023324,-1.5672725,2.4391952,-0.11685455,0.12730774,-0.13878454,-0.009275636,0.050008886,-0.15227248,-0.36391866,0.21068975,-9.423578,0.89631605,47.703007,-1.0863535,-2.0371366,-3.3703482,-0.49986738,0.18469825,-0.30226815,28.0,29.1875,28.3125,32.25,34.375,35.25
0.19405238,-1.5366006,-0.7196252,-0.4672895,-0.00073979533,0.07008695,-0.19060765,-0.38994706,-0.34825456,0.060104832,3.0752928,-0.61949015,-0.00025970297,-0.0896721,0.0009780764,-0.0008496547,-0.056732163,-0.0011028713,0.043495957,0.46689963,-1.4141505,1.9442705,-2.10238,-1.5671757,2.4389052,-0.115010366,0.12696306,-0.1418826,-0.009272093,0.05129215,-0.15834275,-0.45968673,0.2681506,-9.442732,0.8851263,47.67614,-1.1119848,-1.8323122,-3.2918403,-0.512831,0.13500717,-0.22612068,28.0,29.1875,28.3125,32.25,34.375,35.25
0.19605218,-1.863702,-0.83620155,-0.6187491,-0.0058776317,0.07468291,-0.1820621,-0.39011893,-0.3482673,0.06012096,3.0752232,-0.619228,-0.00025523844,-0.09230368,0.0013695532,-5.0465667e-05,-0.05863002,0.001046817,0.041064452,0.4667063,-1.4139218,1.943971,-2.1023805,-1.5670794,2.4385571,-0.118469164,0.12807736,-0.1447859,-0.010230655,0.052030336,-0.15936369,-0.61291564,0.30645782,-9.519346,0.8157518,47.689575,-1.0577085,-1.7952602,-3.2945912,-0.51665604,0.12266521,-0.16104633,28.0,29.1875,28.3125,32.25,34.375,35.25
0.19805273,-2.1298857,-1.455207,-0.8838367,-0.00080757466,0.07747276,-0.1809284,-0.39025488,-0.34825084,0.060079664,3.0752208,-0.6190961,-9.832852e-05,-0.09193077,0.0028362623,-0.0020066095,-0.05691989,-0.0028070235,0.036243558,0.46650136,-1.413645,1.9437441,-2.1023686,-1.566995,2.43827,-0.12079932,0.13016455,-0.14279854,-0.010079615,0.052229285,-0.1568766,-0.8236054,0.28730422,-9.672575,0.8247004,47.67614,-0.9722648,-1.7979486,-3.3483837,-0.50578535,0.08316396,-0.16348195,28.0,29.1875,28.3125,32.25,34.375,35.25
0.2000527,-1.6400418,-0.51264554,-0.7476048,-0.03106403,0.09616008,-0.19352905,-0.3904666,-0.3482317,0.060094375,3.0751276,-0.6190045,-0.00010686163,-0.09379363,0.003013083,-0.0008123191,-0.057480555,-0.0001800092,0.02869814,0.46622494,-1.4133928,1.9434203,-2.102368,-1.566912,2.4379485,-0.12225712,0.13017252,-0.14560345,-0.009874004,0.051542792,-0.15078512,-0.82360536,0.22984336,-9.825804,0.842603,47.64927,-0.89889777,-1.8083763,-3.26925,-0.5448555,0.07666662,-0.2540108,28.0,29.1875,28.3125,32.25,34.375,35.25
0.20205207,-1.6755996,-0.9691501,-0.5829535,-0.032646816,0.10807352,-0.19472706,-0.39064923,-0.34821385,0.0600755,3.075038,-0.6189109,-4.5106062e-05,-0.095093764,0.0030097654,-0.0007715461,-0.057294205,0.0011028536,0.025185157,0.46596077,-1.4131278,1.9431695,-2.1024163,-1.5668038,2.4376373,-0.122862935,0.13187739,-0.14749338,-0.010729752,0.050796855,-0.14787619,-0.91937345,0.2681506,-9.787497,0.91421866,47.694054,-0.8836301,-1.8370368,-3.3218446,-0.5538168,0.04410145,-0.31309173,28.0,29.1875,28.3125,32.25,34.375,35.25
0.2040527,-2.1798856,-1.16963,-0.66812575,-0.024987636,0.11156226,-0.1859618,-0.39085343,-0.34822235,0.060090635,3.0749004,-0.61880636,-2.2036367e-05,-0.09636077,0.0023365528,3.3542798e-05,-0.05805087,0.003968138,0.024658475,0.46570897,-1.4128634,1.9428338,-2.1024287,-1.5666722,2.4373379,-0.12234134,0.13247454,-0.14976947,-0.01192039,0.050194323,-0.14682347,-0.9002198,0.24899697,-9.710882,0.8784135,47.66271,-0.9926203,-1.6221821,-3.318656,-0.55091023,0.03888325,-0.35651803,28.0,29.1875,28.3125,32.25,34.375,35.25
0.20605233,-2.290171,-0.7791392,-0.64945775,-0.009121295,0.111884676,-0.180914,-0.39104596,-0.3482071,0.060085632,3.0748029,-0.61880773,1.8092173e-07,-0.09808998,0.0025688217,0.00012683663,-0.058367923,0.004907232,0.02112886,0.46545643,-1.4125985,1.9425458,-2.1024525,-1.5665883,2.4370987,-0.12413254,0.13441618,-0.1521213,-0.012473185,0.050058577,-0.14508153,-0.78529817,0.15322891,-9.768343,0.85826975,47.640312,-0.92252123,-1.8884706,-3.3122368,-0.5590848,0.031800285,-0.38375545,28.0,29.1875,28.3125,32.25,34.375,35.25
0.20805255,-1.4636354,0.4044166,-0.7033348,-0.0033431419,0.118753076,-0.20068291,-0.39124048,-0.34821978,0.060072765,3.0747054,-0.61866945,5.7206016e-05,-0.098496765,0.002472831,-0.001920939,-0.055870514,0.0030398797,0.024955437,0.46522892,-1.4122844,1.942222,-2.1024892,-1.5664691,2.4367974,-0.12337203,0.13977185,-0.15337768,-0.013736631,0.04868214,-0.14814629,-0.51714754,0.11492168,-9.768343,0.85155696,47.67345,-1.1665498,-1.8274813,-3.278179,-0.5478816,0.003454872,-0.3955955,28.0,29.1875,28.3125,32.25,34.375,35.25
0.21005209,-0.89677596,0.32216677,-0.72343916,0.022395521,0.107458666,-0.19950533,-0.39146855,-0.34819964,0.06010282,3.0745916,-0.61858493,-4.942247e-05,-0.10076558,0.0033319874,-0.0013053436,-0.05451314,0.0062691737,0.030652482,0.4649523,-1.4120557,1.9418987,-2.102526,-1.56641,2.4364827,-0.12514523,0.14076638,-0.15577118,-0.014552114,0.046065908,-0.15561393,-0.40222588,-0.019153614,-9.787497,0.8493211,47.687782,-1.0227956,-1.9545033,-3.2604303,-0.54634273,0.03296149,-0.38230085,28.0,29.1875,28.3125,32.25,34.375,35.25
0.2120526,-0.7856174,0.5874112,-0.7233755,0.025665814,0.07880419,-0.19067636,-0.39166817,-0.3482007,0.060087916,3.0744982,-0.61839056,-6.3652196e-06,-0.10184756,0.003963955,-0.0023055763,-0.05248996,0.006673982,0.036914885,0.46469977,-1.4117544,1.9415992,-2.1025856,-1.5662903,2.4361207,-0.12589164,0.14365979,-0.15651807,-0.016085869,0.044110976,-0.16262315,-0.30645782,-0.019153614,-9.749189,0.8672237,47.69763,-1.1221992,-2.071855,-3.2748575,-0.54341966,0.05750981,-0.30973044,28.0,29.1875,28.3125,32.25,34.375,35.25
0.21405193,-0.42182612,0.1769315,-0.5554349,0.020373287,0.062224958,-0.18957129,-0.39187896,-0.34821013,0.060089834,3.0744348,-0.618199,-2.6383716e-05,-0.10299477,0.0052498477,-0.0029888279,-0.04994486,0.006968281,0.045562092,0.46448332,-1.4114417,1.9412402,-2.1026099,-1.5662192,2.435793,-0.12759204,0.1455499,-0.15710798,-0.016433556,0.04175533,-0.17297213,-0.28730422,0.076614454,-9.634268,0.84484416,47.685097,-1.0721935,-2.1271367,-3.3371425,-0.55604345,0.05907242,-0.20273805,28.0,29.1875,28.3125,32.25,34.375,35.25
0.21605264,-0.3295465,0.023645619,-0.45178244,0.0071729557,0.051200487,-0.18656316,-0.39210403,-0.3481771,0.060096476,3.0743554,-0.6181424,-8.519313e-05,-0.10557483,0.005559178,-0.0016460319,-0.049481813,0.011041211,0.04939598,0.46419483,-1.411177,1.9409283,-2.1026456,-1.566172,2.4354794,-0.12892905,0.14621854,-0.16092142,-0.016671978,0.03954995,-0.1781425,-0.17238252,0.076614454,-9.423578,0.86945957,47.688675,-1.0619428,-2.109528,-3.23734,-0.535349,0.095257595,-0.121468216,28.0,29.1875,28.3125,32.25,34.375,35.25
0.2180523,-0.43758386,-0.5447907,-0.44650912,0.015190388,0.03256254,-0.17936063,-0.3923234,-0.34816575,0.06009936,3.0742536,-0.6179696,-0.000112319394,-0.10622395,0.006351146,-0.0018112577,-0.04786612,0.01129421,0.047895387,0.46391892,-1.4109006,1.940617,-2.1027057,-1.5660766,2.4351087,-0.12982969,0.14696383,-0.16153386,-0.01627731,0.038014866,-0.17754206,-0.15322891,0.17238252,-9.461885,0.79560274,47.688675,-1.1592424,-2.0830674,-3.433044,-0.5444408,0.11724539,-0.081013665,28.0,29.1875,28.3125,32.25,34.375,35.25
0.2200524,-0.19537158,-0.42313996,-0.31403884,-0.001490502,0.031123692,-0.18284403,-0.39252728,-0.34816054,0.060101245,3.0742083,-0.61777216,-0.00012736236,-0.106989145,0.0070046647,-0.0021918789,-0.046490796,0.011344434,0.041664448,0.46369037,-1.4106115,1.9402822,-2.1027176,-1.5660166,2.4347627,-0.13077685,0.148353,-0.16229905,-0.016331514,0.036758296,-0.17225844,-0.076614454,0.17238252,-9.461885,0.82694155,47.67345,-1.0400233,-2.207984,-3.3920333,-0.5288251,0.14631188,-0.13510525,28.0,29.1875,28.3125,32.25,34.375,35.25
0.22205229,0.22792055,-0.5382642,-0.34019932,-0.0010470724,0.025023758,-0.18477735,-0.39277336,-0.3481351,0.060100067,3.0740836,-0.6177506,-0.00013852531,-0.10731033,0.0077221734,-0.0037028966,-0.045289367,0.008515227,0.033221915,0.4633661,-1.4102985,1.9399351,-2.1027658,-1.5659207,2.434441,-0.13234538,0.15152454,-0.16260421,-0.016134704,0.03694595,-0.16538048,-0.019153614,0.22984336,-9.193734,0.9186956,47.70032,-1.2218978,-2.0530992,-3.356869,-0.5277946,0.17049167,-0.19944468,28.0,29.1875,28.3125,32.25,34.375,35.25
0.22405203,0.6822818,-0.26863405,-0.24876387,0.0007438853,0.02043926,-0.1898472,-0.3929651,-0.34811798,0.060080152,3.074091,-0.61758035,-0.00013114187,-0.107169606,0.0061160573,-0.0026158027,-0.04704207,0.009733611,0.0314098,0.46315068,-1.4099864,1.9396228,-2.1027768,-1.5658969,2.4341185,-0.12996528,0.15105447,-0.16474307,-0.0154105155,0.037958585,-0.16118473,0.076614454,0.30645782,-9.193734,0.8672237,47.678825,-1.1098113,-1.9647825,-3.3499475,-0.53481877,0.19509828,-0.27149293,28.0,29.1875,28.3125,32.25,34.375,35.25
0.22605252,0.5932426,-0.19915959,0.10256077,-0.008243894,0.01515443,-0.19117811,-0.39321086,-0.34813207,0.060122825,3.0739186,-0.617455,-0.0002773258,-0.11081423,0.008006699,-0.0017929868,-0.046472337,0.012515645,0.020930724,0.46289673,-1.4097337,1.9392508,-2.1028492,-1.565801,2.4338086,-0.13530837,0.15240641,-0.16817756,-0.0155561725,0.036216583,-0.15604423,0.019153614,0.22984336,-9.11712,0.842603,47.67345,-1.0436198,-1.9438891,-3.2833357,-0.5543823,0.21446247,-0.3704991,28.0,29.1875,28.3125,32.25,34.375,35.25
0.2280522,0.7581953,-0.725316,0.13388768,0.0058117197,0.013868615,-0.1777012,-0.3934104,-0.34809965,0.060109843,3.0738585,-0.6173467,-0.00022603787,-0.11130351,0.006910758,-0.0008496347,-0.047380343,0.014591704,0.019969923,0.46260953,-1.4094572,1.9389642,-2.1028612,-1.5657171,2.4334614,-0.13364956,0.15242724,-0.17036673,-0.015639871,0.036099732,-0.1534232,0.019153614,0.28730422,-8.944737,0.94331104,47.687782,-1.1649187,-1.9705285,-3.3016586,-0.5396911,0.26190785,-0.45174053,28.0,29.1875,28.3125,32.25,34.375,35.25
0.23005262,0.77984244,-0.5081255,0.07278446,-0.008286659,0.0038965833,-0.18467534,-0.39365023,-0.34809434,0.0601119,3.0737767,-0.617291,-0.00028491174,-0.11281459,0.00664097,8.117186e-06,-0.050184082,0.015371351,0.019052196,0.4623568,-1.4091212,1.9385799,-2.1028974,-1.565668,2.4331846,-0.13580783,0.15280654,-0.17282812,-0.015491309,0.038282953,-0.15465398,0.11492168,0.36391866,-9.002198,0.83589023,47.70211,-1.0768218,-1.8293653,-3.2185748,-0.55683386,0.2575044,-0.5191078,28.0,29.1875,28.3125,32.25,34.375,35.25
0.2320877,0.2201197,-1.0744946,0.14811482,-0.025205182,0.0014259246,-0.18177864,-0.39387438,-0.3480575,0.060088817,3.0737302,-0.61725783,-0.00023922835,-0.11378484,0.007426759,-0.00022962413,-0.049727067,0.014144327,0.026773207,0.46205598,-1.408784,1.9382457,-2.102908,-1.5656084,2.4328692,-0.13807276,0.15437084,-0.17447582,-0.01403545,0.03847364,-0.16463874,0.038307227,0.45968673,-9.021352,0.8918391,47.71286,-1.0367675,-1.8581626,-3.1821792,-0.56784207,0.28279215,-0.4843076,28.0,29.1875,28.3125,32.25,34.375,35.25
0.23405789,0.4997135,-1.1066421,-0.02381429,-0.036330216,0.015387464,-0.19179216,-0.39409217,-0.34803623,0.06009257,3.0736618,-0.61708474,-0.00025818034,-0.114158966,0.007303268,-0.0004760639,-0.050398458,0.012769671,0.03655223,0.46177977,-1.408507,1.9379228,-2.1029322,-1.5655354,2.4324937,-0.13890795,0.1558846,-0.17590861,-0.013112628,0.039751604,-0.17524648,0.038307227,0.51714754,-9.174581,0.91421866,47.68599,-1.0860252,-1.9717574,-3.2241702,-0.5832024,0.29073966,-0.40041685,28.0,29.1875,28.3125,32.25,34.375,35.25
0.23605785,0.20564246,-0.6422623,0.05756366,-0.06245064,0.039662983,-0.1961947,-0.39430982,-0.3480366,0.060108285,3.0735676,-0.61694527,-0.00025528338,-0.11506961,0.007995032,-0.0015137141,-0.050274514,0.009722803,0.045510158,0.4615271,-1.4082179,1.9375504,-2.1029198,-1.5654391,2.432166,-0.14167508,0.15915707,-0.17767678,-0.011750449,0.041067436,-0.18696444,-0.13407528,0.51714754,-9.270349,0.82022345,47.687782,-1.0760672,-1.8485897,-3.2245598,-0.61788416,0.30390185,-0.24704581,28.0,29.1875,28.3125,32.25,34.375,35.25
0.23805726,-0.6199879,-1.2028564,-0.04387504,-0.04559272,0.039993506,-0.18031578,-0.39453682,-0.3480326,0.06009081,3.0734973,-0.6167551,-0.00019610638,-0.11552672,0.0074791233,-0.00019354097,-0.05140017,0.011987457,0.05130481,0.4612513,-1.407858,1.9371799,-2.1029432,-1.5653313,2.4317806,-0.14109175,0.15762195,-0.17905802,-0.011303988,0.04110269,-0.19217433,-0.11492168,0.49799395,-9.251195,0.83813137,47.66091,-1.0587912,-1.8069179,-3.2332993,-0.6254021,0.31871992,-0.18355164,28.0,29.1875,28.3125,32.25,34.375,35.25
0.24005309,-1.2074403,-0.87088156,-0.2754876,-0.03601768,0.050022077,-0.17576422,-0.39476162,-0.34800845,0.060075786,3.0734372,-0.6165553,-0.00014919622,-0.11782819,0.0082415,0.00018778238,-0.053441823,0.01241795,0.045985717,0.46094927,-1.4075334,1.9368447,-2.1029675,-1.5652345,2.4313614,-0.14540286,0.15889166,-0.18138203,-0.011523846,0.042746637,-0.19115913,-0.4213795,0.4213795,-9.232041,0.88960326,47.67345,-0.7831131,-1.7355199,-3.1572828,-0.63927376,0.34150162,-0.16075987,28.0,29.1875,28.3125,32.25,34.375,35.25
0.24205263,-1.0215839,-0.71466386,-0.33934817,-0.017039813,0.07675747,-0.17245512,-0.3950163,-0.34799907,0.060085326,3.0733461,-0.61642396,-0.00019624739,-0.11714202,0.0067749643,-0.00026597123,-0.05560368,0.010730287,0.040291265,0.4606623,-1.4071964,1.9364389,-2.1029913,-1.5651616,2.4310043,-0.14382075,0.16034853,-0.18199877,-0.011836805,0.04542686,-0.18387023,-0.53630114,0.30645782,-9.251195,0.97464454,47.68599,-1.0456526,-1.7504222,-3.4158804,-0.65657866,0.3209344,-0.21619886,28.0,29.1875,28.3125,32.25,34.375,35.25
0.24405196,-1.0815914,-0.27260503,-0.2586774,-0.006272911,0.084310785,-0.17543872,-0.39525214,-0.34799433,0.06009404,3.0732007,-0.6163199,-0.00018882347,-0.11764071,0.0065036733,-0.0010475321,-0.056614753,0.009402408,0.033799,0.46036237,-1.4068955,1.9360799,-2.103028,-1.565029,2.430658,-0.14462696,0.16278274,-0.18288507,-0.012643734,0.046920825,-0.17817457,-0.5554548,0.22984336,-9.270349,0.9321212,47.675243,-1.0911505,-1.790024,-3.3204648,-0.6552563,0.3135197,-0.28968197,28.0,29.1875,28.3125,32.25,34.375,35.25
0.24605197,-1.4406193,-0.19476399,-0.25684315,0.015843166,0.06993761,-0.17706473,-0.3954779,-0.34797236,0.06005304,3.0732236,-0.61611503,-0.00016421119,-0.11799033,0.0062679346,-0.0023059992,-0.056576002,0.0075255884,0.030836586,0.46011004,-1.4064975,1.9357208,-2.1030638,-1.5650047,2.430275,-0.14492917,0.166187,-0.18385105,-0.013384881,0.047711562,-0.17551112,-0.38307226,0.11492168,-9.346964,0.82694155,47.66987,-1.097188,-2.0008469,-3.2515385,-0.6688167,0.32789046,-0.35799238,28.0,29.1875,28.3125,32.25,34.375,35.25
0.24805218,-1.1741354,0.26709008,-0.2339089,0.021736449,0.06589418,-0.17860052,-0.39573002,-0.34797668,0.060080137,3.0730278,-0.6160944,-0.00016309464,-0.11930511,0.006462883,-0.0032054181,-0.05689229,0.0068044667,0.030657297,0.4597973,-1.4061964,1.935314,-2.1030762,-1.5648488,2.4299746,-0.14671348,0.16950937,-0.18541041,-0.014592749,0.048346765,-0.17710748,-0.38307226,0.019153614,-9.3661175,0.8851263,47.687782,-1.0629537,-1.9269232,-3.2407,-0.6541363,0.3423368,-0.40816027,28.0,29.1875,28.3125,32.25,34.375,35.25
0.25005236,-0.17910971,0.5371835,-0.30469176,0.026528483,0.07847783,-0.17658898,-0.39597645,-0.3479545,0.060067207,3.0729666,-0.6159661,-0.0001533994,-0.12101157,0.0066603143,-0.0020897232,-0.05875595,0.009104476,0.031606756,0.45949656,-1.4058361,1.9349321,-2.1031,-1.5647768,2.4296017,-0.14887328,0.16896242,-0.18726327,-0.015037829,0.04902391,-0.18021189,-0.3256114,0.019153614,-9.3661175,0.88960326,47.695843,-1.0032132,-1.9548705,-3.3095334,-0.6563232,0.34147945,-0.4197576,28.0,29.1875,28.3125,32.25,34.375,35.25
0.2520526,-0.61636186,0.8460366,-0.31033164,0.022599863,0.06343612,-0.18551935,-0.39621007,-0.34793732,0.060044393,3.0729039,-0.61575603,-0.00014758774,-0.12217999,0.0068305577,-0.0025668496,-0.059162512,0.008443682,0.040349368,0.45920813,-1.405487,1.9345964,-2.1031716,-1.5646924,2.4291902,-0.15054756,0.17148563,-0.18910967,-0.015213689,0.04974621,-0.19062288,-0.34476504,-0.05746084,-9.3661175,0.9567419,47.67614,-1.105108,-2.0296316,-3.327092,-0.64953196,0.33602896,-0.336739,28.0,29.1875,28.3125,32.25,34.375,35.25
0.2540522,-0.29627457,0.7453361,-0.28391972,0.016213616,0.07349177,-0.18743671,-0.39644682,-0.34790596,0.060019847,3.072846,-0.61562175,-7.165967e-05,-0.12173629,0.0057921824,-0.0032345292,-0.059395622,0.006769007,0.05374968,0.45888475,-1.4051261,1.9342374,-2.103184,-1.564596,2.4287903,-0.1488721,0.17384386,-0.19049665,-0.014685013,0.050763477,-0.20234357,-0.36391866,-0.076614454,-9.442732,0.88289046,47.67345,-1.0493441,-2.1370492,-3.3637962,-0.6812345,0.3427309,-0.22968377,28.0,29.1875,28.3125,32.25,34.375,35.25
0.2560521,-0.49188188,0.4437437,-0.20526831,0.009976919,0.07985494,-0.18332359,-0.39668673,-0.3479158,0.059994046,3.072749,-0.6154661,1.1386715e-05,-0.12296712,0.0057418616,-0.0032043555,-0.06017909,0.006962815,0.057571273,0.45860803,-1.404717,1.9338306,-2.1032197,-1.5644635,2.428429,-0.15016219,0.17561178,-0.19266145,-0.014738604,0.051415253,-0.20745064,-0.61291564,-0.019153614,-9.481039,0.87393653,47.674347,-0.9775219,-2.0965326,-3.3724465,-0.6861856,0.34736818,-0.16995743,28.0,29.1875,28.3125,32.25,34.375,35.25
0.25805172,-0.6498086,0.22575116,-0.22162576,0.005707354,0.087280735,-0.1777357,-0.39696983,-0.34788826,0.06002603,3.0726068,-0.6152854,-3.7100814e-05,-0.12329707,0.005275369,-0.0034175406,-0.062192902,0.0051875045,0.054502096,0.458236,-1.4044162,1.9334124,-2.1032312,-1.5643429,2.4279623,-0.15116124,0.17712899,-0.19411856,-0.0140759945,0.054033726,-0.20536442,-0.57460845,-0.05746084,-9.442732,0.89631605,47.66091,-1.0930262,-2.1807694,-3.4268236,-0.7078543,0.33871222,-0.11940647,28.0,29.1875,28.3125,32.25,34.375,35.25
0.26005185,-0.47039995,0.20670982,-0.32724038,-0.00097550073,0.088087305,-0.1835535,-0.3971657,-0.3478614,0.05997534,3.0726144,-0.615177,0.000120023666,-0.12380541,0.0046689,-0.0026205403,-0.06512381,0.005633038,0.04614845,0.45797166,-1.4040322,1.9330772,-2.1032073,-1.5642699,2.4276292,-0.15196143,0.17647375,-0.195235,-0.014027546,0.056420416,-0.1978064,-0.49799395,-0.05746084,-9.519346,0.8560339,47.653748,-1.084224,-2.1084323,-3.3471599,-0.727257,0.30998713,-0.1860112,28.0,29.1875,28.3125,32.25,34.375,35.25
0.26205212,-0.57941806,-0.30316776,-0.38534287,-0.0019575376,0.07386817,-0.17485508,-0.39746574,-0.3478711,0.060017396,3.0724094,-0.61498487,3.0347148e-06,-0.12438832,0.0040008132,-0.0028030332,-0.0669815,0.0046202536,0.039091367,0.45763552,-1.403707,1.9326218,-2.1032798,-1.5641254,2.4271996,-0.15250973,0.17839538,-0.19708535,-0.014013881,0.05854908,-0.19127774,-0.4213795,0.11492168,-9.423578,0.9455522,47.71286,-1.2001474,-2.2324812,-3.299388,-0.7372157,0.2755935,-0.2918896,28.0,29.1875,28.3125,32.25,34.375,35.25
0.26405236,-0.12525557,-0.5145754,-0.43617767,-0.011952952,0.059424322,-0.18030618,-0.39767158,-0.347837,0.05996272,3.0723736,-0.61496335,0.00017128992,-0.12578201,0.0042309132,-0.0033171386,-0.0686592,0.0035137003,0.029495744,0.45733473,-1.4033217,1.9322995,-2.1032798,-1.5640281,2.42689,-0.15526307,0.18087395,-0.19870308,-0.014639052,0.06050209,-0.18443106,-0.40222588,0.17238252,-9.461885,0.9545008,47.661808,-1.1540132,-2.2137582,-3.37237,-0.74192023,0.26317412,-0.40267527,28.0,29.1875,28.3125,32.25,34.375,35.25
0.26605222,0.21996589,-0.8719484,-0.5836638,-0.019017914,0.04604072,-0.17833237,-0.39794132,-0.34783718,0.059955,3.0722518,-0.61482507,0.0001806723,-0.1248146,0.0021835945,-0.003249848,-0.07153804,0.0023054066,0.027651202,0.4570239,-1.4029251,1.9318684,-2.103328,-1.5639075,2.4265084,-0.15268303,0.18154435,-0.19971596,-0.014482963,0.06362003,-0.17999,-0.38307226,0.2681506,-9.481039,0.8851263,47.664497,-1.2952492,-2.2375326,-3.4076438,-0.74226606,0.2411778,-0.5030694,28.0,29.1875,28.3125,32.25,34.375,35.25
0.26805237,-0.16403249,-1.1910789,-0.5278402,-0.03619325,0.028729444,-0.1813216,-0.3982094,-0.3478236,0.059963908,3.0721266,-0.61471987,0.00016406892,-0.12697902,0.002631364,-0.0021404503,-0.07327846,0.004874943,0.028603878,0.45669857,-1.4025769,1.9314498,-2.1033514,-1.5637993,2.4261336,-0.15551573,0.18137005,-0.20194575,-0.015088174,0.06408982,-0.18376711,-0.2873042,0.3256114,-9.423578,0.9231726,47.678825,-1.0790126,-2.0882149,-3.5088925,-0.75057787,0.19173613,-0.5136294,28.0,29.1875,28.3125,32.25,34.375,35.25
0.27005243,0.11487246,-1.4009311,-0.85714376,-0.03745992,0.02839805,-0.18720856,-0.39845914,-0.34780735,0.059939343,3.07201,-0.61461335,0.00025737577,-0.12855248,0.0035203637,-0.0014438424,-0.07417172,0.006425563,0.037749972,0.4563617,-1.4021927,1.9310683,-2.103387,-1.5636548,2.4257452,-0.15843563,0.18089218,-0.20300482,-0.015204859,0.06428633,-0.19583069,-0.038307227,0.34476504,-9.519346,0.92093146,47.68599,-1.1199156,-2.127453,-3.5301986,-0.75273395,0.21088116,-0.46025229,28.0,29.1875,28.3125,32.25,34.375,35.25
0.27205265,0.012981095,-1.4171915,-0.68574286,-0.037486125,0.031208983,-0.18150267,-0.3987102,-0.34776527,0.059927877,3.0719597,-0.6144254,0.00026351356,-0.13061468,0.0035407785,-0.0012346592,-0.07660878,0.0068084495,0.048231777,0.45602462,-1.4018556,1.9307088,-2.1034114,-1.5635828,2.4252973,-0.1614669,0.18301168,-0.20585583,-0.0157667,0.06639065,-0.20933194,0.05746084,0.3256114,-9.595961,0.9254084,47.705692,-0.9473126,-2.1439066,-3.4125855,-0.7395028,0.17841929,-0.3389355,28.0,29.1875,28.3125,32.25,34.375,35.25
0.2740521,0.038014423,-0.8812003,-0.65215313,-0.02802249,0.031506013,-0.18644314,-0.3989685,-0.34778,0.059927832,3.0718062,-0.61423767,0.00034456365,-0.13197649,0.0032407194,-0.0012680136,-0.079075485,0.0061376444,0.05478504,0.45571187,-1.4014707,1.9302653,-2.1034238,-1.5634016,2.424887,-0.16362096,0.18515854,-0.20830047,-0.015839774,0.06896843,-0.2180241,0.05746084,0.36391866,-9.5385,0.9791215,47.685097,-0.84620756,-2.120259,-3.4063196,-0.75970197,0.11071634,-0.21321866,28.0,29.1875,28.3125,32.25,34.375,35.25
0.2760527,0.22998667,-0.81556284,-0.7867587,-0.016951585,0.03077985,-0.1778566,-0.39924222,-0.34774825,0.0599166,3.071717,-0.6141057,0.00038523038,-0.1336708,0.0035711036,-0.000818581,-0.07761331,0.008563813,0.053785276,0.45535177,-1.4010856,1.9298466,-2.1034358,-1.5632948,2.424456,-0.1640249,0.1866042,-0.21102943,-0.016040048,0.06660303,-0.21743321,0.076614454,0.36391866,-9.576807,0.8851263,47.695843,-0.83881676,-2.082738,-3.3221445,-0.7753155,0.10871154,-0.16122112,28.0,29.1875,28.3125,32.25,34.375,35.25
0.27805197,-0.4790567,-1.2651443,-0.89977694,-0.019186573,0.012058124,-0.17765513,-0.39951488,-0.3477614,0.059908826,3.071568,-0.61392426,0.0004137888,-0.13361084,0.0032691602,-0.0005577735,-0.0776847,0.009398979,0.04793702,0.4550401,-1.4006773,1.9294041,-2.1034954,-1.5631384,2.42405,-0.16311045,0.18627125,-0.21124573,-0.016267398,0.066295706,-0.21066567,0.019153614,0.38307226,-9.595961,0.84708,47.664497,-0.9244875,-2.070356,-3.4399707,-0.77231145,0.118676305,-0.237951,28.0,29.1875,28.3125,32.25,34.375,35.25
0.2800522,-0.43999165,-1.1816072,-0.6644485,-0.03127566,0.030788217,-0.1768458,-0.39977676,-0.34775922,0.05992332,3.0714276,-0.6137655,0.00040246898,-0.13459797,0.0039880862,-0.0010291263,-0.07561058,0.009711946,0.042519342,0.45472753,-1.4003403,1.9289855,-2.1035197,-1.5630077,2.4236565,-0.16382608,0.18826786,-0.21254666,-0.01631374,0.06430146,-0.20596412,0.0,0.3256114,-9.500193,0.9231726,47.651955,-0.9005351,-1.9853199,-3.4627967,-0.77761227,0.11548554,-0.3219499,28.0,29.1875,28.3125,32.25,34.375,35.25
0.28205243,-0.1966691,-0.63198644,-0.66714156,-0.028349593,0.035954155,-0.19396651,-0.40008053,-0.3477527,0.059939977,3.0712535,-0.61367387,0.00032057913,-0.1376904,0.0056722695,-0.0009256932,-0.07361142,0.011871953,0.036168583,0.4543787,-1.3999666,1.9285301,-2.1035917,-1.5628885,2.423273,-0.16756545,0.19086222,-0.21578223,-0.016699333,0.061580505,-0.20335288,0.076614454,0.34476504,-9.576807,1.0462601,47.690468,-0.9496732,-2.2442725,-3.4783363,-0.7818154,0.11615297,-0.38648146,28.0,29.1875,28.3125,32.25,34.375,35.25
0.28405258,-0.7319836,-1.2601056,-0.7106103,-0.0029660151,0.02279556,-0.17716913,-0.4003144,-0.34774846,0.059889384,3.0712192,-0.61341614,0.0005150681,-0.13926843,0.005493751,-0.00036981024,-0.07255077,0.014472953,0.03837497,0.45407894,-1.3995101,1.9281119,-2.1035798,-1.562745,2.4228165,-0.16716434,0.192471,-0.21895209,-0.016940797,0.059491694,-0.20516877,0.076614454,0.3256114,-9.672575,0.95002913,47.682407,-0.8950753,-2.1192946,-3.3372855,-0.7720404,0.16403984,-0.41727793,28.0,29.1875,28.3125,32.25,34.375,35.25
0.2860522,-0.19750166,-0.82563615,-0.6503076,0.0018915788,0.03266773,-0.1939017,-0.40062186,-0.34773195,0.059919525,3.071052,-0.61326295,0.00038952014,-0.14132467,0.006776123,-0.00018805057,-0.07133819,0.016642312,0.044476267,0.45371798,-1.3991736,1.9276689,-2.1036518,-1.5626382,2.4223816,-0.16978985,0.1935196,-0.22045144,-0.017787876,0.05754905,-0.21389346,0.076614454,0.40222588,-9.5385,0.92093146,47.72002,-0.81903493,-2.1212978,-3.4125085,-0.773443,0.18077382,-0.36204144,28.0,29.1875,28.3125,32.25,34.375,35.25
0.2880525,-0.3949952,-0.78048795,-0.8761343,0.0145457825,0.023615604,-0.1896046,-0.40090048,-0.3477132,0.05988629,3.070965,-0.61310285,0.00045595522,-0.14268689,0.006700777,4.2040545e-05,-0.07011866,0.01854168,0.05692265,0.45337,-1.3987285,1.9272379,-2.1037,-1.5625185,2.4219449,-0.16951653,0.1954478,-0.22327793,-0.017911313,0.055708673,-0.22607216,0.095768064,0.4213795,-9.519346,0.86945957,47.705692,-0.8324845,-2.2015994,-3.4521608,-0.7705272,0.19237024,-0.21957996,28.0,29.1875,28.3125,32.25,34.375,35.25
0.29005182,-0.29372674,-0.70268553,-0.6597918,-0.0028342605,0.036970682,-0.1932473,-0.40116793,-0.34770903,0.05990838,3.0708535,-0.61284775,0.00043386203,-0.1435531,0.0076399394,-0.0006700381,-0.06826033,0.017830294,0.061815944,0.45305747,-1.3983915,1.9267958,-2.1037,-1.5623988,2.4214873,-0.17095113,0.19761983,-0.2243584,-0.017448345,0.054423947,-0.23240009,0.0,0.38307226,-9.615114,0.85826975,47.678825,-0.70399684,-2.1405413,-3.5012028,-0.76471555,0.23193634,-0.111384824,28.0,29.1875,28.3125,32.25,34.375,35.25
0.2920519,-1.3870047,-1.1703773,-0.3363939,-0.024069026,0.030154644,-0.18117447,-0.4014808,-0.34766653,0.059892777,3.0707965,-0.6126859,0.00037192236,-0.14448321,0.008712353,-0.00088663725,-0.0671306,0.018022971,0.057597917,0.4526849,-1.3979591,1.9263414,-2.103759,-1.5623516,2.4210212,-0.17278051,0.19835556,-0.22482139,-0.017384978,0.053344358,-0.23001197,-0.21068975,0.30645782,-9.5385,0.91421866,47.681515,-0.8153238,-2.1353111,-3.490211,-0.7785625,0.26227376,-0.12228507,28.0,29.1875,28.3125,32.25,34.375,35.25
0.29405203,-1.0737907,-1.0933552,-0.23436905,-0.016513139,0.041789412,-0.18534832,-0.40176353,-0.34765714,0.05990029,3.0706644,-0.61252546,0.0003493893,-0.14449005,0.00744904,-0.0010705908,-0.06725687,0.017999154,0.053037968,0.45235008,-1.3975859,1.9258984,-2.1037953,-1.562231,2.4206033,-0.17050122,0.20046628,-0.22690877,-0.017454775,0.053461187,-0.22316545,-0.19153613,0.19153613,-9.385271,0.9164598,47.690468,-0.9746785,-2.2152202,-3.541399,-0.7798259,0.27357742,-0.1831029,28.0,29.1875,28.3125,32.25,34.375,35.25
0.29605266,-1.076544,-0.8837476,-0.5079712,0.0032393322,0.03575025,-0.18440484,-0.4020417,-0.34768236,0.059912253,3.0705197,-0.6122706,0.00038670676,-0.14594439,0.006803869,-0.0003277726,-0.06906245,0.019677432,0.044778574,0.45204985,-1.3971772,1.9253958,-2.1037958,-1.5620626,2.4201624,-0.17101848,0.20150156,-0.2297458,-0.017967807,0.0543313,-0.21541286,-0.3256114,0.15322891,-9.461885,0.8851263,47.67614,-1.063854,-2.2390742,-3.4665165,-0.7748625,0.28545636,-0.2836582,28.0,29.1875,28.3125,32.25,34.375,35.25
0.2980519,-0.7442475,-0.12877814,-0.10301631,-0.0011226762,0.046917673,-0.18957694,-0.40230405,-0.34765324,0.059869207,3.070466,-0.612112,0.00045983607,-0.14712018,0.0058541885,0.00021148498,-0.0708733,0.020926088,0.035680905,0.45171386,-1.3967441,1.9250001,-2.1038435,-1.5619663,2.4197342,-0.17087442,0.202945,-0.23260003,-0.018516317,0.055368554,-0.20616391,-0.3256114,0.17238252,-9.500193,0.900793,47.65912,-1.1543236,-2.1907933,-3.366087,-0.7706366,0.30971986,-0.40288025,28.0,29.1875,28.3125,32.25,34.375,35.25
0.3000519,-0.9532138,-0.19555125,-0.32876256,0.02212244,0.03141428,-0.18845059,-0.40261117,-0.3476605,0.059893064,3.0702631,-0.6120122,0.00041072522,-0.14806725,0.005355691,0.0007351481,-0.07241373,0.022054708,0.033755545,0.4513657,-1.3963596,1.9245094,-2.1038916,-1.5618099,2.4193501,-0.17123112,0.20356917,-0.23448034,-0.01891365,0.05629632,-0.20458174,-0.40222588,0.15322891,-9.3661175,0.9030289,47.664497,-1.1832858,-2.2389936,-3.2954655,-0.7524811,0.30931133,-0.4922917,28.0,29.1875,28.3125,32.25,34.375,35.25
0.30205217,-1.0014566,-0.015477893,-0.15796748,0.015807908,0.04126108,-0.2025885,-0.4029179,-0.3476355,0.059888404,3.070196,-0.6118204,0.00032045046,-0.14871168,0.0046814578,0.0013895266,-0.07584498,0.022509009,0.041276745,0.45102936,-1.3959392,1.9240435,-2.1039512,-1.5617608,2.4189029,-0.17232223,0.20331162,-0.23562716,-0.01931914,0.059277553,-0.21317352,-0.4405331,0.11492168,-9.289502,1.0037369,47.686886,-1.245662,-2.0466104,-3.3591266,-0.7423393,0.28615463,-0.47215608,28.0,29.1875,28.3125,32.25,34.375,35.25
0.30405214,-1.5495951,-0.47950447,-0.1358412,0.009591233,0.05251099,-0.19609913,-0.40320924,-0.34763145,0.05989061,3.0700467,-0.6116298,0.00037092116,-0.15118079,0.0056269118,0.0027007565,-0.07567318,0.025746206,0.053663697,0.4506686,-1.3955309,1.9235657,-2.1039636,-1.5615934,2.4184422,-0.17500716,0.20327047,-0.2387539,-0.018791184,0.057842884,-0.22824824,-0.38307226,0.1340753,-9.270349,0.9925471,47.675243,-1.1912366,-2.06526,-3.355359,-0.7536456,0.31107873,-0.3439284,28.0,29.1875,28.3125,32.25,34.375,35.25
0.30605224,-1.9888885,-0.71986216,-0.32522026,0.01436584,0.058689345,-0.18817653,-0.4034955,-0.34762305,0.05987725,3.0699809,-0.6113217,0.00032615178,-0.15210432,0.0040827915,0.004206652,-0.07757117,0.02834121,0.06588835,0.45035738,-1.3951101,1.9231218,-2.1040351,-1.5615095,2.417947,-0.17337255,0.20339233,-0.24252608,-0.018171638,0.058524843,-0.23882888,-0.36391866,0.1340753,-9.404425,0.9097417,47.68599,-1.3640311,-1.9119008,-3.2898397,-0.75776744,0.33558166,-0.21622716,28.0,29.1875,28.3125,32.25,34.375,35.25
0.30805236,-1.2237966,-0.15856144,-0.5037591,0.0045669526,0.07891551,-0.1976005,-0.40379575,-0.34759927,0.059890088,3.0698483,-0.61116135,0.00039571855,-0.15256555,0.0029419914,0.004500912,-0.08008985,0.028332168,0.06601188,0.4499615,-1.3947134,1.9226192,-2.1039875,-1.5613521,2.417468,-0.17304955,0.20453243,-0.24453776,-0.018337265,0.060827773,-0.2386134,-0.4213795,0.19153613,-9.557653,0.8605109,47.65912,-1.3700079,-1.920457,-3.197607,-0.7355113,0.32607734,-0.18985295,28.0,29.1875,28.3125,32.25,34.375,35.25
0.31005257,-1.705975,-0.68853754,-0.46480203,-0.00907092,0.06777362,-0.18927841,-0.40413648,-0.3475935,0.05989296,3.069718,-0.6109856,0.00030693217,-0.15175036,0.0030379074,0.0028969366,-0.08056631,0.023986414,0.057258252,0.44960123,-1.3942446,1.9220818,-2.1040585,-1.5612553,2.417015,-0.17380694,0.20678166,-0.24373294,-0.01772364,0.063148685,-0.2305963,-0.63206923,0.19153613,-9.423578,0.9791215,47.682407,-1.4070284,-1.8210804,-3.3073435,-0.75734985,0.30048046,-0.24736385,28.0,29.1875,28.3125,32.25,34.375,35.25
0.31205165,-1.6886691,-0.6815049,-0.6269163,-0.008299076,0.055528354,-0.18135461,-0.40439004,-0.3475762,0.0598729,3.069661,-0.61068887,0.00034333376,-0.15265456,0.0039527975,0.00262669,-0.079135,0.024275422,0.051276565,0.44928876,-1.3938601,1.921687,-2.1040947,-1.5611485,2.4165244,-0.17513458,0.20783997,-0.24443834,-0.017710123,0.061728533,-0.22594683,-0.45968673,0.22984336,-9.5385,1.0104496,47.71286,-1.3915215,-1.8393748,-3.3914876,-0.7445328,0.3351621,-0.34524426,28.0,29.1875,28.3125,32.25,34.375,35.25
0.3140521,-1.1666148,-0.71186,-0.7937951,-0.0010149231,0.04636581,-0.1997133,-0.40473068,-0.34755877,0.059887186,3.0695298,-0.6105285,0.00022883696,-0.15265736,0.0045702136,0.001436112,-0.0797235,0.021558493,0.047576606,0.44891608,-1.3934269,1.9211625,-2.1041543,-1.5610632,2.4160688,-0.17713496,0.2094714,-0.24366201,-0.017906312,0.06348196,-0.22422867,-0.30645782,0.21068975,-9.634268,0.9455522,47.647476,-1.2520388,-1.9022567,-3.5842326,-0.74689287,0.3386506,-0.38622501,28.0,29.1875,28.3125,32.25,34.375,35.25
0.3160527,-1.1638086,-0.8374497,-0.5928188,-0.010679107,0.024992019,-0.19248249,-0.40502053,-0.34753296,0.059877913,3.069406,-0.6104277,0.00027623607,-0.15459667,0.0051775556,0.00073296187,-0.08185974,0.02007844,0.047379732,0.44854248,-1.3930172,1.9207081,-2.1041667,-1.5609306,2.4156482,-0.18131587,0.21263823,-0.24567139,-0.018574147,0.0661039,-0.22819361,-0.19153613,0.22984336,-9.595961,0.9186956,47.65106,-1.1085336,-2.050371,-3.6251864,-0.7269838,0.3173375,-0.39894876,28.0,29.1875,28.3125,32.25,34.375,35.25
0.31805176,-0.3953944,-0.62720454,-0.6325194,-0.012433061,0.016723692,-0.20282105,-0.405373,-0.34754696,0.059901383,3.069205,-0.6101673,0.00016524503,-0.1563381,0.0044439123,0.00034886593,-0.08451738,0.019738209,0.05854373,0.44817019,-1.3925716,1.9201568,-2.104263,-1.5607733,2.4151394,-0.18300499,0.21635686,-0.24894968,-0.019681752,0.06879663,-0.2410173,-0.11492168,0.22984336,-9.595961,0.90527004,47.655537,-1.1680918,-2.117452,-3.5972009,-0.71138227,0.3056544,-0.28036642,28.0,29.1875,28.3125,32.25,34.375,35.25
0.32005215,-0.6682114,-0.8154684,-0.85041064,-0.0071594743,0.00040103775,-0.18683134,-0.4056542,-0.3475284,0.059888992,3.0691197,-0.60989606,0.00025263848,-0.1571061,0.0044549736,-0.00018714616,-0.08665945,0.018516773,0.06715037,0.44780937,-1.3921506,1.9196905,-2.1042511,-1.5606283,2.41462,-0.18511505,0.2181085,-0.24968466,-0.020367086,0.07135939,-0.25171733,-0.076614454,0.28730422,-9.5385,0.8918391,47.66539,-1.0373831,-2.2273157,-3.5957355,-0.6966561,0.2706759,-0.14983204,28.0,29.1875,28.3125,32.25,34.375,35.25
0.3220525,-0.44168353,-1.1247132,-0.8131462,-0.011669376,0.009892067,-0.18637894,-0.4059929,-0.34752122,0.05990735,3.0689495,-0.6096702,0.00021483829,-0.1581666,0.0034696257,0.0007844186,-0.09030079,0.018599106,0.06662203,0.44741315,-1.391718,1.9191517,-2.104287,-1.5604719,2.4141047,-0.18616815,0.21869476,-0.25285473,-0.019372487,0.074662946,-0.25221157,-0.19153613,0.34476504,-9.500193,0.89631605,47.687782,-1.0450804,-2.0487165,-3.5478687,-0.6974238,0.21612382,-0.07008956,28.0,29.1875,28.3125,32.25,34.375,35.25
0.3240339,-0.882015,-1.4651239,-0.91671157,-0.015144803,-0.0015232855,-0.17975265,-0.40630335,-0.3475096,0.059902065,3.068827,-0.60943955,0.00024238563,-0.15871349,0.0031890199,0.0005249159,-0.09242537,0.016380237,0.05760394,0.4470405,-1.3912731,1.9186491,-2.1043103,-1.5603269,2.4136038,-0.18775083,0.22051556,-0.254712,-0.018277293,0.07752112,-0.24475178,-0.19153613,0.38307226,-9.595961,0.9925471,47.67614,-0.99190617,-2.1933677,-3.4412785,-0.6914589,0.18838356,-0.14555658,28.0,29.1875,28.3125,32.25,34.375,35.25
0.3260518,-0.47368425,-1.4492801,-0.72825366,-0.0481477,0.011592165,-0.19151407,-0.40665692,-0.34751627,0.059929922,3.0686061,-0.60928386,0.00013257278,-0.15988326,0.002583261,0.0014402113,-0.09501939,0.01688056,0.046982456,0.44665614,-1.3908403,1.9180993,-2.1043937,-1.5601696,2.413151,-0.18880086,0.2210109,-0.25760537,-0.017491622,0.07963547,-0.23515037,-0.15322891,0.4213795,-9.653421,0.9030289,47.70032,-0.92755616,-2.1171875,-3.4470167,-0.69963586,0.15901297,-0.25772282,28.0,29.1875,28.3125,32.25,34.375,35.25
0.3280425,-0.37969628,-1.736948,-0.75808036,-0.064055786,0.02181029,-0.19300601,-0.4069672,-0.34749532,0.059926186,3.06849,-0.60911435,0.00013380847,-0.16189507,0.0018744033,0.0029121225,-0.09738382,0.018824143,0.035241477,0.44628373,-1.3904077,1.9176072,-2.1044176,-1.5600494,2.4126878,-0.1898497,0.22183709,-0.26219535,-0.016562447,0.08087794,-0.22444141,-0.15322891,0.40222588,-9.461885,0.8851263,47.67345,-0.83250433,-2.1157079,-3.343151,-0.68419695,0.10973714,-0.39147383,28.0,29.1875,28.3125,32.25,34.375,35.25
0.33004764,-0.99401325,-1.5151631,-0.9556898,-0.03518244,0.0048107724,-0.18776481,-0.40729082,-0.34748754,0.059923694,3.068287,-0.6089958,0.000228307,-0.16320457,0.0018402908,0.0030412003,-0.099838465,0.01862227,0.031717185,0.44586307,-1.3899505,1.9170812,-2.1044295,-1.5598329,2.4122193,-0.19214444,0.22313929,-0.26400346,-0.016872704,0.08320786,-0.22318998,-0.15322891,0.34476504,-9.5385,0.95897776,47.67166,-0.9051883,-2.2022705,-3.2435188,-0.6620109,0.08704059,-0.47502458,28.0,29.1875,28.3125,32.25,34.375,35.25
0.33205214,-0.25276646,-0.88440716,-0.9339819,-0.020883605,0.038528655,-0.19620314,-0.40759373,-0.3474939,0.059917044,3.068145,-0.60876775,0.000276893,-0.16376369,0.001993916,0.0035876296,-0.099260055,0.020393934,0.042359512,0.44551516,-1.3894943,1.9165682,-2.1044538,-1.5596651,2.4117472,-0.19196703,0.22278588,-0.26494965,-0.016736595,0.08204336,-0.23365729,-0.038307227,0.45968673,-9.576807,0.95897776,47.707485,-0.9753194,-2.0277426,-3.318499,-0.673901,0.052345853,-0.43527973,28.0,29.1875,28.3125,32.25,34.375,35.25
0.3340423,-1.0526932,-1.0757121,-0.9866369,0.010760808,0.039508678,-0.18575904,-0.40792713,-0.34748527,0.059913494,3.0680087,-0.60857826,0.00028735396,-0.16419451,0.0025313925,0.0030178758,-0.096718624,0.021463072,0.056824073,0.44513163,-1.3890136,1.9160188,-2.1044776,-1.559522,2.411263,-0.19143729,0.22420026,-0.2652522,-0.017489042,0.079444736,-0.24760361,-0.11492168,0.38307226,-9.634268,0.9410752,47.686886,-1.0401485,-1.8951554,-3.4127295,-0.65563536,0.056803614,-0.29448158,28.0,29.1875,28.3125,32.25,34.375,35.25
0.33604214,-0.9593681,-0.10820508,-0.68033177,0.0026535837,0.06288971,-0.18979256,-0.40827885,-0.3474978,0.059945863,3.067744,-0.6083267,0.00019927029,-0.16300106,0.002193763,0.0020583973,-0.095441036,0.019986596,0.066484205,0.44472438,-1.3886049,1.9154924,-2.104585,-1.559306,2.410733,-0.18940826,0.22518991,-0.26434168,-0.017332962,0.07907282,-0.25522172,-0.1340753,0.4213795,-9.5385,0.88960326,47.664497,-1.1709349,-1.9292167,-3.540619,-0.644297,0.031179115,-0.18973847,28.0,29.1875,28.3125,32.25,34.375,35.25
0.33805266,-1.4458115,-0.3812116,-0.21602474,0.003721893,0.077914044,-0.1920242,-0.4086116,-0.34750226,0.059982073,3.067606,-0.6081084,9.7529984e-05,-0.16446447,0.00366354,0.0027061875,-0.09117716,0.023333438,0.06251794,0.44438824,-1.3881845,1.9149178,-2.104585,-1.5592002,2.4102786,-0.18970467,0.225098,-0.26594305,-0.016797641,0.07381007,-0.25157675,-0.2681506,0.22984336,-9.404425,0.97464454,47.65912,-1.2145402,-1.7083254,-3.5800862,-0.63542616,0.086615115,-0.200683,28.0,29.1875,28.3125,32.25,34.375,35.25
0.34005246,-1.2847598,0.4629315,-0.40711403,0.024333006,0.07702852,-0.19303589,-0.40896797,-0.34748435,0.059970077,3.0674484,-0.6078887,0.00011118821,-0.16670103,0.004241854,0.0028149758,-0.08868237,0.025860727,0.054595903,0.443956,-1.3876791,1.9143666,-2.104645,-1.5590338,2.4097295,-0.19025892,0.2279247,-0.2695259,-0.017252322,0.070451945,-0.24422345,-0.114921674,0.095768064,-9.3661175,0.8985519,47.666286,-1.3299952,-1.8259506,-3.5073042,-0.6223302,0.100130536,-0.31559104,28.0,29.1875,28.3125,32.25,34.375,35.25
0.3420526,-0.61086863,0.91634256,-0.33549124,0.047453366,0.061475478,-0.19624084,-0.40928355,-0.347485,0.059983537,3.0673187,-0.60769165,7.141524e-05,-0.1677352,0.005702773,0.0015749614,-0.085315466,0.02513002,0.048569646,0.44361967,-1.3872447,1.9138297,-2.1046574,-1.5589141,2.409287,-0.19177623,0.23089261,-0.2702876,-0.017343778,0.067732066,-0.23972577,0.019153614,-0.038307227,-9.500193,0.9992599,47.668976,-1.3370359,-2.1078622,-3.462357,-0.59447247,0.13141267,-0.37659067,28.0,29.1875,28.3125,32.25,34.375,35.25
0.34405196,-0.32881367,1.2138456,-0.078460485,0.046142925,0.03810833,-0.210137,-0.40962994,-0.34748334,0.0599844,3.0671623,-0.6074291,-2.3070694e-05,-0.17071922,0.006385072,0.0018513701,-0.08347799,0.028524889,0.047903694,0.4432471,-1.3867762,1.9133033,-2.1047652,-1.5587834,2.4087708,-0.19332805,0.23401326,-0.27441972,-0.018532844,0.06467397,-0.24062192,-0.076614454,0.019153614,-9.308657,1.0104496,47.709274,-1.2726911,-2.0975885,-3.424031,-0.5657214,0.198111,-0.4097028,28.0,29.1875,28.3125,32.25,34.375,35.25
0.34605184,-0.3311911,0.67726886,-0.35759506,0.04915328,0.009762245,-0.19190176,-0.4099853,-0.34744006,0.05997944,3.0670285,-0.6073578,-2.3230334e-05,-0.17341846,0.0072155166,0.002747348,-0.081747845,0.032435633,0.0564691,0.4428025,-1.3862951,1.9127525,-2.104777,-1.5586642,2.4082992,-0.19484836,0.23545596,-0.27820826,-0.018789142,0.06156335,-0.2507259,-0.019153614,0.095768064,-9.155427,0.9186956,47.688675,-1.2988907,-2.106,-3.3349042,-0.5365127,0.2377668,-0.36203456,28.0,29.1875,28.3125,32.25,34.375,35.25
0.34805244,-0.20590644,0.1933969,-0.60490644,0.0354799,0.0077178734,-0.19291162,-0.41031772,-0.3474458,0.059999827,3.066905,-0.6069992,-8.61238e-05,-0.1739781,0.007618445,0.0034068518,-0.08074462,0.03309991,0.069660254,0.44245437,-1.38585,1.9121894,-2.1048,-1.5585321,2.407743,-0.19518322,0.2352893,-0.2800854,-0.016693408,0.060553677,-0.26425302,-0.095768064,0.1340753,-9.136273,0.9030289,47.64658,-1.2166959,-2.077474,-3.2097921,-0.54020596,0.28371733,-0.26205933,28.0,29.1875,28.3125,32.25,34.375,35.25
0.35005274,-0.2774731,-0.15407065,-0.57059264,0.0012433585,0.022537075,-0.197789,-0.41065127,-0.3474179,0.06001929,3.066812,-0.60671073,-0.00015350131,-0.17427167,0.008214693,0.0029328016,-0.07970197,0.031291354,0.072067045,0.4420699,-1.38543,1.911652,-2.1047995,-1.5584363,2.4071903,-0.19620964,0.23686644,-0.2813923,-0.014792315,0.060473703,-0.26768047,-0.095768064,0.28730422,-9.385271,0.8940802,47.67166,-1.1760495,-1.9973016,-3.2547383,-0.55198145,0.32014605,-0.13259201,28.0,29.1875,28.3125,32.25,34.375,35.25
0.35205218,-0.7310148,-1.3174618,-0.46215698,-0.029332297,0.029235458,-0.18838748,-0.41100216,-0.3474006,0.060014084,3.0667126,-0.60654193,-0.0002145591,-0.17490457,0.009395217,0.0022830523,-0.079022914,0.028045276,0.06313758,0.44169736,-1.3849247,1.9110779,-2.1048348,-1.5583524,2.4067254,-0.19905488,0.23882023,-0.28297368,-0.011973417,0.061244756,-0.26158336,-0.13407528,0.34476504,-9.461885,0.9388393,47.684196,-1.1163108,-1.937958,-3.279874,-0.5698775,0.34763688,-0.15809083,28.0,29.1875,28.3125,32.25,34.375,35.25
0.35405236,-1.0235088,-2.2010334,-0.4597873,-0.0559613,0.048005637,-0.18323384,-0.41133824,-0.34737706,0.06001331,3.0665874,-0.6063304,-0.00018962887,-0.17515275,0.010486725,0.0013379715,-0.0782807,0.024920406,0.05077038,0.4412888,-1.3844557,1.9105285,-2.1048338,-1.5582079,2.406201,-0.20132646,0.2405832,-0.28340575,-0.010228029,0.061861273,-0.25147742,-0.38307226,0.49799395,-9.442732,0.9410752,47.647476,-1.196702,-1.9222832,-3.3464048,-0.59520745,0.3706774,-0.3086517,28.0,29.1875,28.3125,32.25,34.375,35.25
0.356053,-1.067748,-1.9931626,-0.7710571,-0.052091084,0.05512595,-0.18170443,-0.41171134,-0.3473645,0.060033478,3.0664423,-0.6061737,-0.00027493114,-0.17681101,0.010692219,0.00178177,-0.081181884,0.024699362,0.03780686,0.44089124,-1.3839629,1.9099063,-2.1048458,-1.5580987,2.4057245,-0.2044913,0.24153934,-0.2856502,-0.010060018,0.06453893,-0.24164699,-0.59376204,0.40222588,-9.5385,0.9947882,47.652847,-1.0249904,-1.9429567,-3.4189715,-0.5945239,0.39316154,-0.43848673,28.0,29.1875,28.3125,32.25,34.375,35.25
0.35805234,-1.4038898,-1.6486899,-0.82085603,-0.036590323,0.03887299,-0.18854684,-0.41205117,-0.3473448,0.06002905,3.066313,-0.60599273,-0.00027816763,-0.17706306,0.011467893,0.0018074029,-0.08275614,0.023381796,0.03561249,0.44049487,-1.3834825,1.909357,-2.1048696,-1.5579666,2.405232,-0.2070964,0.24087249,-0.28518197,-0.009286217,0.06657619,-0.24203639,-0.49799395,0.47884035,-9.634268,0.9298854,47.66091,-0.95200115,-1.7858858,-3.57303,-0.59041405,0.3961458,-0.5344831,28.0,29.1875,28.3125,32.25,34.375,35.25
0.36005247,-1.2938061,-1.0779753,-0.27833363,-0.04173583,0.04994564,-0.19293599,-0.4124154,-0.3473199,0.0600554,3.0660887,-0.6058997,-0.00031299854,-0.17696628,0.009626736,0.0017936013,-0.08577487,0.02335389,0.05009743,0.4400391,-1.3830498,1.9087948,-2.104894,-1.5577849,2.4047475,-0.20540854,0.24236967,-0.28674442,-0.010253465,0.0695013,-0.25480068,-0.5363012,0.4213795,-9.481039,0.947788,47.66091,-1.0508419,-1.8020844,-3.582068,-0.58348125,0.38576958,-0.4485054,28.0,29.1875,28.3125,32.25,34.375,35.25
0.3620517,-1.094931,-0.9554032,-0.3308791,-0.014773681,0.07083554,-0.19328214,-0.41276246,-0.3473348,0.060055085,3.065952,-0.6055558,-0.00027245466,-0.17736462,0.008354751,0.0013122404,-0.087993324,0.023235133,0.067006074,0.4396676,-1.3825208,1.9081734,-2.1048944,-1.5576047,2.4041786,-0.20471811,0.24483047,-0.28830206,-0.01171799,0.07175728,-0.27099556,-0.47884035,0.30645782,-9.404425,1.0552088,47.691364,-1.1921275,-1.7205031,-3.6713948,-0.5587258,0.3921679,-0.30590856,28.0,29.1875,28.3125,32.25,34.375,35.25
0.36405236,-1.3928618,-0.057601117,-0.06473632,-0.009352139,0.07794159,-0.19385791,-0.41313925,-0.3473347,0.060061377,3.0657647,-0.60530275,-0.00035931493,-0.17796853,0.0055562886,0.0010527167,-0.09271491,0.02200766,0.073411964,0.4392602,-1.3820146,1.907586,-2.1049902,-1.5574468,2.4036376,-0.2031815,0.24897633,-0.29248723,-0.012458244,0.076662056,-0.2758094,-0.4213795,0.24899697,-9.308657,1.0149267,47.696735,-1.3311496,-1.8206303,-3.4952044,-0.5522807,0.350982,-0.19172105,28.0,29.1875,28.3125,32.25,34.375,35.25
0.36605173,-1.2298198,0.16412662,0.2396639,0.006230658,0.08428247,-0.18518673,-0.4135046,-0.34733394,0.060074303,3.0655787,-0.60507715,-0.00034064852,-0.17970051,0.004633258,0.0025238388,-0.09576122,0.024552451,0.066831365,0.43883988,-1.38151,1.9069632,-2.1049907,-1.5572542,2.4031005,-0.20380005,0.24916255,-0.2960706,-0.012661002,0.07832682,-0.26982272,-0.6512229,0.28730422,-9.11712,0.88960326,47.667187,-1.4661527,-1.7010716,-3.346952,-0.5452404,0.33270904,-0.23937678,28.0,29.1875,28.3125,32.25,34.375,35.25
0.368052,-1.1755488,0.15400648,0.0060739317,0.029692769,0.0547426,-0.18278399,-0.41386306,-0.34729326,0.060047265,3.0654755,-0.60492486,-0.00033732102,-0.17985566,0.0031942402,0.0033179156,-0.101340406,0.02359211,0.059227664,0.43840775,-1.3809817,1.906413,-2.1050384,-1.557144,2.4025867,-0.20457761,0.24874087,-0.29749972,-0.01235938,0.0837593,-0.2629427,-0.3256114,0.1340753,-9.11712,0.97464454,47.65464,-1.430624,-1.6671202,-3.3256469,-0.52428037,0.27666026,-0.34335428,28.0,29.1875,28.3125,32.25,34.375,35.25
0.37005258,-0.2420275,0.764913,-0.096717335,0.02001396,0.045596033,-0.19526722,-0.414208,-0.34728625,0.060053274,3.0652723,-0.60475093,-0.0003027276,-0.18136884,0.00308568,0.002197887,-0.10322864,0.020899272,0.054457292,0.43798685,-1.3805116,1.9058517,-2.1050618,-1.5569395,2.4020836,-0.20718503,0.25341144,-0.30056506,-0.012279165,0.08663926,-0.2607435,-0.38307226,0.15322891,-9.193734,0.947788,47.670765,-1.3751571,-1.8481687,-3.352392,-0.5205109,0.2342538,-0.41008785,28.0,29.1875,28.3125,32.25,34.375,35.25
0.37205186,-0.43003476,-0.26518217,-0.34259614,0.021278167,0.020314815,-0.19390014,-0.41461685,-0.3473035,0.060097743,3.0650568,-0.6044912,-0.00042327095,-0.18132795,0.003399266,0.00066632597,-0.10304957,0.017337443,0.059981313,0.43757844,-1.379994,1.905147,-2.1050856,-1.5567707,2.4015412,-0.20837092,0.25660753,-0.30116913,-0.011402421,0.08813822,-0.26742333,-0.19153613,0.15322891,-9.251195,1.0104496,47.698532,-1.393224,-1.8622094,-3.3671534,-0.49802947,0.20576781,-0.3859731,28.0,29.1875,28.3125,32.25,34.375,35.25
0.374052,0.083283745,-0.6110091,-0.024690852,-0.010926885,0.027579984,-0.19318092,-0.41497502,-0.34728143,0.060085505,3.0649302,-0.60424477,-0.00041785874,-0.18139671,0.00247812,0.00010093148,-0.104049906,0.015534032,0.07381374,0.43715885,-1.3794765,1.9045728,-2.1051214,-1.5566262,2.400984,-0.2077537,0.25933546,-0.30344376,-0.010391197,0.08999542,-0.2806152,-0.17238252,0.21068975,-9.251195,0.97240865,47.668976,-1.349567,-2.0129418,-3.410923,-0.49153933,0.15623525,-0.24958897,28.0,29.1875,28.3125,32.25,34.375,35.25
0.37605244,-0.19164838,-0.96756095,-0.09422261,-0.019826267,0.03305636,-0.18904985,-0.41532153,-0.3472652,0.06007106,3.0648022,-0.6040077,-0.00031759334,-0.18305084,0.0038549975,-0.0010714763,-0.103600346,0.01275458,0.07718009,0.43673718,-1.3789462,1.9039744,-2.1050966,-1.556446,2.4004307,-0.21179585,0.2632246,-0.30582285,-0.00900226,0.09087729,-0.2880126,-0.038307227,0.24899697,-9.270349,0.9254084,47.690468,-1.1747303,-2.0561433,-3.2926216,-0.5137922,0.15372795,-0.13109106,28.0,29.1875,28.3125,32.25,34.375,35.25
0.37805182,-0.120574616,-0.8565063,-0.17928913,-0.013480894,0.03592378,-0.18179378,-0.415698,-0.34724537,0.060076784,3.064639,-0.60372925,-0.00034022718,-0.18339796,0.004603603,-0.000564734,-0.104004666,0.012597086,0.071048975,0.43629277,-1.3784425,1.903376,-2.1051328,-1.5562776,2.3998334,-0.21339905,0.2621292,-0.30609035,-0.0076465723,0.091325894,-0.28346947,-0.1340753,0.38307226,-9.270349,0.95897776,47.668976,-1.2031145,-2.1189358,-3.4604545,-0.514049,0.103804655,-0.13775413,28.0,29.1875,28.3125,32.25,34.375,35.25
