Tylouw/Master_Thesis_Code/training_data/batch_1/small_rod_t0.2/sample_29_session_1.csv
timestamp[s],tcp_force_x[N],tcp_force_y[N],tcp_force_z[N],tcp_force_rx[Nm?],tcp_force_ry[Nm?],tcp_force_rz[Nm?],tcp_pose_x[m],tcp_pose_y[m],tcp_pose_z[m],tcp_pose_rx[rot_vec_x],tcp_pose_ry[rot_vec_y],tcp_pose_rz[rot_vec_z],tcp_velo_x[m/s],tcp_velo_y[m/s],tcp_velo_z[m/s],tcp_velo_rx[rot_vec_x/s],tcp_velo_ry[rot_vec_y/s],tcp_velo_rz[rot_vec_z/s],q1[rad],q2[rad],q3[rad],q4[rad],q5[rad],q6[rad],qd1[rad/s],qd2[rad/s],qd3[rad/s],qd4[rad/s],qd5[rad/s],qd6[rad/s],tool_acc_x,tool_acc_y,tool_acc_z,current_of_whole_robot[A],voltage_of_whole_robot[V],current_J1[A],current_J2[A],current_J3[A],current_J4[A],current_J5[A],current_J6[A],temp_J1[C],temp_J2[C],temp_J3[C],temp_J4[C],temp_J5[C],temp_J6[C]
7.3297997e-07,0.11526213,-0.9441422,0.13933294,-0.020860536,0.037504304,-0.019436248,-0.3810569,-0.34854263,0.059962764,-3.078549,0.6247685,-0.0001348529,0.0014634099,0.0007812928,-0.0013389939,0.0014310408,-0.002997233,-4.645762e-06,0.4778342,-1.425922,1.9577273,-2.1008804,-1.5707697,2.4527164,-0.00010776767,-6.8851887e-06,0.0029913003,0.00033475377,0.000114725975,-0.00010489984,0.076614454,0.11492168,-8.63828,0.7463667,47.684196,-0.020162117,-2.7598827,-2.4304008,-0.4392591,0.14757806,0.14318623,27.8125,28.875,28.0625,32.0,34.0625,34.9375
0.002052295,-0.33667624,-0.8414705,0.04425927,-0.015454151,0.021712532,-0.011475525,-0.3810257,-0.34852406,0.059950773,-3.0785234,0.6247638,-0.00021608324,-0.0008674667,-0.00043436154,-0.0025165724,-0.0013394465,0.0023086634,-1.9266156e-06,0.47782204,-1.4259565,1.9577869,-2.100849,-1.5707573,2.4527044,-0.00010565918,0.0037833676,0.0037634568,-0.010213297,0.00011233904,-0.00010318172,0.17238252,0.095768064,-8.63828,0.75084364,47.70211,-0.014481934,-2.788742,-2.5289845,-0.3851763,0.15813306,0.1476031,27.8125,28.875,28.0625,32.0,34.0625,34.9375
0.004052315,0.02117572,-0.39286268,0.047473762,-0.015974035,0.026706351,-0.014069705,-0.38104138,-0.34851462,0.059934717,-3.0784724,0.62479144,-0.00018261894,-0.0016356691,-0.0008351603,-0.0024509383,-0.0021276511,0.0038232845,-7.206676e-07,0.47782204,-1.4259083,1.957774,-2.1008728,-1.5708054,2.4527283,-0.00010363147,0.0046030567,0.0031043133,-0.012081279,0.0001100496,-0.000101519225,0.095768064,0.1340753,-8.734048,0.784413,47.71823,0.016226996,-3.1439183,-2.6535244,-0.30465978,0.13966641,0.14392728,27.8125,28.875,28.0625,32.0,34.0625,34.9375
0.006052526,0.5641387,0.15173116,0.1445281,-0.009031698,0.021476027,-0.0152499685,-0.3810445,-0.34853852,0.059952512,-3.0785303,0.6247456,-0.00014925508,-0.000946602,-0.0004760661,-0.0015548584,-0.001274806,0.0021995306,-1.0525002e-06,0.47784612,-1.4259211,1.9577502,-2.1008828,-1.5707816,2.4527164,-0.00010168012,0.0028151653,0.0020241388,-0.007379127,0.000107851636,-9.9909186e-05,-0.038307227,0.21068975,-8.676587,0.7933669,47.723602,-0.054528542,-3.1085045,-2.5653012,-0.32984316,0.14362083,0.15790245,27.8125,28.875,28.0625,32.0,34.0625,34.9375
0.008051702,1.1471511,0.6287453,-0.2636215,0.01525362,0.013494703,-0.0272011,-0.38105267,-0.34854043,0.059949473,-3.0785322,0.62482244,-0.00014608227,-0.0007504284,-0.0003781033,-5.6807545e-05,-0.0014944226,0.0026113407,-6.123201e-05,0.4778342,-1.42591,1.9577497,-2.1009057,-1.5707697,2.452752,-9.9801124e-05,0.00013402406,0.0008956412,-0.004036186,0.00011881511,-3.83955e-05,-0.019153614,0.11492168,-8.772355,0.71279734,47.71823,-0.040638182,-2.847335,-2.5839596,-0.35849676,0.15286048,0.15154694,27.8125,28.875,28.0625,32.0,34.0625,34.9375
0.010051817,0.1771563,0.08875735,-0.7211013,0.016787147,-0.008649045,-0.016246399,-0.3810442,-0.34853372,0.059931487,-3.0785198,0.6247821,-0.0002162003,-0.00038589156,-0.00018391207,4.529262e-05,-0.0007765075,0.0012296415,-7.926697e-05,0.47782204,-1.425886,1.9577607,-2.1008933,-1.5707573,2.4527164,-0.00010873748,1.7981038e-06,0.00029085836,-0.0017420982,0.00012069686,-2.94818e-05,-0.076614454,0.1340753,-9.097966,0.75755644,47.705692,-0.47072807,-2.3183494,-3.057087,-0.40965125,0.14447935,0.0665016,27.8125,28.875,28.0625,32.0,34.0625,34.9375
0.012051835,0.77644795,-0.09042717,-0.87954485,-0.0273829,0.033714358,-0.030343937,-0.3810462,-0.34851453,0.059918094,-3.078485,0.6248327,-0.00026299732,0.00012793459,0.00021363526,-0.0028921263,0.0021464152,-0.004409016,-0.0002871716,0.47778606,-1.4258724,1.9577731,-2.1008809,-1.5707573,2.4527164,-0.00034234254,0.0060156747,8.911498e-06,-0.0011228042,0.00011869424,-5.4208507e-05,0.038307227,0.17238252,-9.232041,0.6769922,47.70211,-0.5895849,-2.211389,-3.2560277,-0.43124622,0.1727821,0.034668237,27.8125,28.875,28.0625,32.0,34.0625,34.9375
0.014051911,-0.32686615,-0.94056696,-1.1965567,-0.049274694,0.03940998,-0.020715378,-0.38104016,-0.34852502,0.059926104,-3.078494,0.6248763,-0.00028849105,-0.004687016,0.002620057,-0.005117869,0.004035676,-0.00810712,-0.0064100116,0.47779483,-1.4258804,1.9577583,-2.1008565,-1.5707334,2.4527512,-0.009091826,0.015667748,-0.006026794,-0.00058689166,0.00012886924,-0.0026763922,0.0,0.17238252,-9.346964,0.7418897,47.709274,-0.20504403,-2.9635916,-3.1606367,-0.43811846,0.17819482,-0.0051182564,27.8125,28.875,28.0625,32.0,34.0625,34.9375
0.016051888,-0.8780868,-1.7889515,-1.2572308,-0.06304862,0.049883377,-0.020712268,-0.3810394,-0.34852436,0.059895977,-3.078462,0.6248484,-0.00036062268,-0.0064679086,0.0026384792,-0.0029650503,0.0020764815,-0.0044021173,-0.0029795964,0.47779432,-1.4258096,1.9577464,-2.1008565,-1.5707334,2.4527373,-0.010791822,0.013398646,-0.008482438,-5.3910004e-05,0.00015873282,-0.0078060953,-0.19153613,0.21068975,-9.576807,0.7597976,47.687782,-0.20107178,-2.832992,-3.1607122,-0.43366957,0.1926394,0.0055460683,27.8125,28.875,28.0625,32.0,34.0625,34.9375
0.018052017,-0.8217452,-1.1926541,-1.2470678,-0.073723495,0.08453795,-0.041270446,-0.38106057,-0.34851375,0.059883017,-3.0784369,0.62484115,-0.00035529863,-0.0054558474,0.002199572,-0.0036951879,0.0006382558,-0.007014574,0.0012776034,0.4777704,-1.4257616,1.957724,-2.1008685,-1.5707558,2.452712,-0.010685489,0.013810853,-0.007296249,-3.519938e-06,0.002637854,-0.0119621875,-0.22984336,0.24899697,-9.672575,0.86498255,47.690468,-0.3874099,-2.567023,-3.403264,-0.45954567,0.18373969,-0.00019495029,27.8125,28.875,28.0625,32.0,34.0625,34.9375
0.020051902,-1.2320772,-1.2073886,-1.5925145,-0.059155483,0.09652926,-0.036312304,-0.3810457,-0.34850326,0.05985922,-3.0784037,0.6248914,-0.0005194686,-0.0060451156,0.0015307704,-0.0033054724,-0.0014279484,-0.0069967285,0.002743443,0.47773418,-1.4257253,1.9577235,-2.1008089,-1.5707077,2.4527113,-0.01122647,0.014407749,-0.008868435,-2.298268e-07,0.0044587525,-0.0139719825,-0.4405331,0.24899697,-9.768343,0.7217513,47.677036,-0.5430492,-2.486836,-3.565442,-0.46680343,0.17169535,0.022804562,27.8125,28.875,28.0625,32.0,34.0625,34.9375
0.022051927,-1.728719,-1.1800765,-1.4285896,-0.049364936,0.096711405,-0.05057319,-0.38105902,-0.34850296,0.059851043,-3.0784302,0.62480164,-0.0005039428,-0.008032068,0.0017288743,-0.003317646,-0.0022409507,-0.007027272,0.0009378136,0.4777213,-1.4257004,1.9577221,-2.100845,-1.5707077,2.452639,-0.013893866,0.01710174,-0.011911996,-1.5006046e-08,0.005187913,-0.0148331635,-0.45968673,0.2681506,-9.864111,0.75084364,47.667187,-0.5469732,-2.4572513,-3.5296574,-0.48787576,0.1584285,-0.02123556,27.8125,28.875,28.0625,32.0,34.0625,34.9375
0.024051871,-1.9791329,-0.8147603,-1.6294909,-0.039678454,0.083107136,-0.061769348,-0.38109174,-0.34849748,0.05986042,-3.0784235,0.6248205,-0.0004500978,-0.009561975,0.0020194205,-0.0029104976,-0.0028398272,-0.0061401296,-0.0009342227,0.4776967,-1.4256761,1.957673,-2.100845,-1.5707315,2.4526272,-0.01590438,0.01804944,-0.013923548,-9.797876e-10,0.005307747,-0.014970579,-0.57460845,0.24899697,-9.749189,0.78888994,47.687782,-0.57841766,-2.4223015,-3.5168014,-0.50163025,0.17476183,-0.03529562,27.8125,28.875,28.0625,32.0,34.0625,34.9375
0.026051981,-1.6161511,-1.1359576,-1.6300974,-0.031404804,0.09474315,-0.076707534,-0.3811039,-0.3485054,0.059846167,-3.078438,0.6247666,-0.00050329766,-0.011015447,0.0020552902,-0.0024550797,-0.0038287442,-0.0053218566,-0.0022176076,0.477684,-1.4256158,1.9576367,-2.100845,-1.5707077,2.452579,-0.01763671,0.019055685,-0.016112536,-6.397313e-11,0.0058044423,-0.015419368,-0.7278373,0.2681506,-9.80665,0.7642693,47.73256,-0.504409,-2.4609678,-3.4125655,-0.5005877,0.1703202,-0.039820004,27.8125,28.875,28.0625,32.0,34.0625,34.9375
0.028052354,-1.9917737,-1.469808,-1.7613785,-0.038255017,0.09149729,-0.0827069,-0.3811298,-0.34851256,0.05983691,-3.0784209,0.6248211,-0.00051743706,-0.011488943,0.0011500008,-0.0025107646,-0.005962513,-0.0049819094,-0.002170073,0.4776721,-1.4255435,1.9575757,-2.1008456,-1.5707067,2.4526033,-0.017591756,0.020226058,-0.016952973,-0.001618981,0.0075373687,-0.015424509,-0.6895301,0.28730422,-9.844957,0.77545905,47.690468,-0.60539854,-2.4739947,-3.444019,-0.50971115,0.13548864,-0.041822903,27.8125,28.875,28.0625,32.0,34.0625,34.9375
0.030052356,-1.7381762,-1.5962429,-1.5106314,-0.049910013,0.099906206,-0.10305596,-0.38113824,-0.34849843,0.05982768,-3.0784407,0.6249204,-0.0005914227,-0.012902989,-0.0001237964,-0.0013042928,-0.0089442795,-0.002116511,-0.0019012842,0.47760013,-1.4255437,1.9575995,-2.1008575,-1.5706466,2.4525907,-0.017494386,0.020454077,-0.019638088,-0.0030805697,0.00885887,-0.015596965,-0.6895301,0.22984336,-9.825804,0.77545905,47.689575,-0.65775317,-2.380487,-3.4578407,-0.49264246,0.13838291,-0.058930762,27.8125,28.875,28.0625,32.0,34.0625,34.9375
0.03205252,-1.5968924,-1.0679979,-1.5372288,-0.045756392,0.101066396,-0.11707927,-0.38116857,-0.34851864,0.05981411,-3.0784733,0.62481284,-0.0006024268,-0.0139172245,-0.00021067585,-0.000845481,-0.009863441,-0.0010036735,-0.0027995633,0.4775998,-1.4254476,1.9575266,-2.1008818,-1.5706342,2.4525192,-0.018473208,0.020812588,-0.021005914,-0.0034829606,0.009159771,-0.015677273,-0.7661445,0.15322891,-9.768343,0.7284641,47.69763,-0.65378773,-2.3554351,-3.3713913,-0.4826541,0.12513824,-0.07461288,27.8125,28.875,28.0625,32.0,34.0625,34.9375
0.034051962,-1.4545517,-0.71506476,-1.5424359,-0.024916211,0.08494748,-0.122032374,-0.38121405,-0.34849894,0.05983561,-3.0784848,0.62495023,-0.0005561367,-0.015371094,-0.000107199034,-0.00059995375,-0.009897481,-0.00037386658,-0.0035837889,0.4775153,-1.425459,1.9574903,-2.1008813,-1.5706228,2.452519,-0.019829867,0.0224872,-0.02354129,-0.0031952981,0.008896542,-0.016247274,-0.61291564,0.05746084,-9.730036,0.8090337,47.709274,-0.6714345,-2.424105,-3.4378815,-0.48940796,0.11233557,-0.07936798,27.8125,28.875,28.0625,32.0,34.0625,34.9375
0.036052193,-1.1518333,-0.13312797,-1.5930054,0.00886411,0.064385526,-0.1394884,-0.38122556,-0.3484866,0.0597992,-3.0784445,0.6250193,-0.0006675941,-0.015925607,0.0002876772,-0.0010102078,-0.009701945,-0.0013774195,-0.004238122,0.47746688,-1.4253747,1.9574775,-2.1008813,-1.5705985,2.4525187,-0.02122991,0.023856295,-0.024236314,-0.0028884055,0.009181888,-0.016993692,-0.51714754,-0.038307227,-9.653421,0.79560274,47.694946,-0.6895014,-2.3614783,-3.478197,-0.49465665,0.11838696,-0.11670862,27.8125,28.875,28.0625,32.0,34.0625,34.9375
0.038052604,-0.73909146,0.31199706,-1.3868474,0.023109965,0.059907142,-0.1650829,-0.3812696,-0.34849128,0.05981385,-3.0784836,0.6249307,-0.00059663615,-0.016961502,0.00055993366,-0.00096501963,-0.009821525,-0.000776074,-0.004597741,0.47744244,-1.4253385,1.9574054,-2.1008937,-1.5706109,2.452434,-0.022558026,0.024805272,-0.025318967,-0.0033431419,0.00900881,-0.017960621,-0.4405331,-0.1340753,-9.710882,0.7038487,47.723602,-0.62268794,-2.3522534,-3.3869061,-0.50443536,0.12031326,-0.13912202,27.8125,28.875,28.0625,32.0,34.0625,34.9375
0.040051714,-0.4471553,-0.04114933,-1.2419869,0.023791868,0.06771475,-0.17253396,-0.38130385,-0.3484887,0.059821278,-3.0784883,0.6249505,-0.00058110984,-0.019243352,0.00019323814,0.000241376,-0.011821648,0.0032822597,-0.004682484,0.47740585,-1.4253025,1.9573449,-2.1008823,-1.5706104,2.4524093,-0.0239507,0.02501471,-0.027805043,-0.005589406,0.008909809,-0.019266507,-0.22984336,-0.038307227,-9.5385,0.81351066,47.694946,-0.60803735,-2.3108964,-3.4013126,-0.4635711,0.11021896,-0.13829583,27.8125,28.875,28.0625,32.0,34.0625,34.9375
0.042051733,-0.8371061,-0.9998762,-1.5954243,0.019824132,0.055589445,-0.174871,-0.38135558,-0.34850365,0.059807774,-3.0785382,0.6249802,-0.0006257417,-0.021084957,-0.00018123309,0.001023069,-0.013174278,0.0053137154,-0.004842549,0.4773455,-1.4251943,1.9572605,-2.1009185,-1.5705503,2.452361,-0.025154393,0.02619959,-0.030806806,-0.006197528,0.009170327,-0.020308716,-0.095768064,-0.05746084,-9.500193,0.71279734,47.705692,-0.5818348,-2.302895,-3.3226993,-0.45695508,0.12914823,-0.14463902,27.8125,28.875,28.0625,32.0,34.0625,34.9375
0.044052716,-0.7161726,-1.0066445,-1.4917201,-0.0020379638,0.049147826,-0.19685277,-0.3813927,-0.34848705,0.05981571,-3.0785272,0.62497824,-0.00058808236,-0.021598376,0.00029943752,0.0010365398,-0.012528981,0.004667928,-0.0053241374,0.4772971,-1.4251701,1.9572119,-2.1009057,-1.5705742,2.452313,-0.026302282,0.02686714,-0.03189279,-0.0049080555,0.008894894,-0.020973984,-0.19153613,0.019153614,-9.481039,0.75084364,47.705692,-0.61920494,-2.288482,-3.3494484,-0.4717014,0.14146356,-0.17910305,27.8125,28.875,28.0625,32.0,34.0625,34.9375
0.046051815,-0.10153095,-1.1403725,-1.389864,-0.01619649,0.04863825,-0.20442945,-0.38144186,-0.34847382,0.05982693,-3.0785298,0.62509376,-0.000596691,-0.02239371,0.00069455535,0.001287499,-0.011649357,0.0045313537,-0.005127998,0.47721297,-1.4251338,1.9571394,-2.1008813,-1.5705508,2.4523005,-0.027269246,0.027716339,-0.03379538,-0.0033254134,0.00817638,-0.022134827,-0.076614454,0.0,-9.576807,0.87393653,47.716442,-0.6266763,-2.2560656,-3.3442988,-0.4852906,0.12636566,-0.19269873,27.8125,28.875,28.0625,32.0,34.0625,34.9375
0.04805257,-0.15727167,-1.3076638,-1.4834698,-0.016750699,0.03456073,-0.19131166,-0.38148394,-0.34849554,0.059816446,-3.0785525,0.6250977,-0.00055298297,-0.02332443,0.001006333,0.0014569974,-0.011268992,0.0048565394,-0.0043272492,0.47721258,-1.4250377,1.9570674,-2.1009414,-1.5705508,2.4522998,-0.028363964,0.028604744,-0.035316795,-0.0028046714,0.0076870895,-0.024028283,-0.019153614,0.095768064,-9.500193,0.8023209,47.711964,-0.6211885,-2.2390964,-3.3114762,-0.49497032,0.13959484,-0.19733019,27.8125,28.875,28.0625,32.0,34.0625,34.9375
0.05005214,0.25567323,-1.2249601,-1.5220447,-0.01744706,0.04021062,-0.17281353,-0.38154033,-0.34848168,0.05984971,-3.078576,0.6251798,-0.0005061031,-0.024171501,0.00084702333,0.0018385692,-0.012814064,0.005242685,-0.004012722,0.4771281,-1.4250376,1.956983,-2.1009052,-1.5705389,2.4522636,-0.029633965,0.02893842,-0.036528405,-0.0029826032,0.008880645,-0.025613932,-0.019153614,0.22984336,-9.404425,0.7486078,47.678825,-0.5677067,-2.206405,-3.3209696,-0.5199863,0.14045507,-0.20277286,27.8125,28.875,28.0625,32.0,34.0625,34.9375
0.05205213,0.17201695,-1.6233128,-1.5784425,-0.023411676,0.04189062,-0.17018944,-0.38158897,-0.34846622,0.05984206,-3.0785897,0.6252587,-0.000541439,-0.025456369,0.000763736,0.0024007394,-0.013720687,0.006951866,-0.0031082877,0.47703177,-1.4249774,1.9569348,-2.100918,-1.5705022,2.4522147,-0.030678328,0.029365841,-0.038129423,-0.00374171,0.008896426,-0.02756173,0.05746084,0.22984336,-9.595961,0.779936,47.689575,-0.56962246,-2.1476824,-3.2643054,-0.5120051,0.14493442,-0.22475037,27.8125,28.875,28.0625,32.0,34.0625,34.9375
0.05405247,0.016472172,-1.5469012,-1.6495048,-0.03985077,0.04816237,-0.16650225,-0.3816603,-0.34848085,0.05987866,-3.0786755,0.62508357,-0.00038656837,-0.026731018,0.00041224348,0.0022636123,-0.014894285,0.007385116,-0.0027220498,0.4770073,-1.424941,1.9568151,-2.1009424,-1.570526,2.4520702,-0.03177299,0.031517424,-0.039993655,-0.004956154,0.009736193,-0.029041601,0.0,0.2681506,-9.500193,0.81351066,47.70211,-0.5942717,-2.1427212,-3.260425,-0.50620663,0.14194311,-0.2449857,27.8125,28.875,28.0625,32.0,34.0625,34.9375
0.05605253,-0.85357183,-2.0511894,-1.5123807,-0.04250094,0.029423011,-0.16121899,-0.38169828,-0.34845766,0.059841607,-3.0786216,0.6252067,-0.0004730419,-0.02725905,0.00030389163,0.001619035,-0.015630167,0.0056346967,-0.0020398153,0.4769229,-1.4248323,1.9567784,-2.1009538,-1.5705136,2.4520695,-0.03300907,0.033829104,-0.041182287,-0.004865845,0.01118991,-0.030962165,0.05746084,0.3256114,-9.557653,0.83589023,47.709274,-0.6192483,-2.1408482,-3.2920432,-0.49814713,0.1553568,-0.24186753,27.8125,28.875,28.0625,32.0,34.0625,34.9375
0.05805184,-0.5918026,-2.057279,-1.6222503,-0.043734133,0.034025315,-0.15818852,-0.3817436,-0.34848914,0.059855137,-3.0787287,0.6252085,-0.00050858327,-0.02800043,0.00015418044,0.0022114918,-0.016189435,0.0060872943,-0.00073662895,0.47687465,-1.4247721,1.9566816,-2.1009657,-1.5704178,2.4520087,-0.03361018,0.034099825,-0.043062635,-0.003912211,0.011478761,-0.032865625,0.0,0.4405331,-9.461885,0.8023209,47.703007,-0.5874698,-2.1472974,-3.2933874,-0.50543296,0.1274659,-0.24977256,27.8125,28.875,28.0625,32.0,34.0625,34.9375
0.06005181,-0.027698964,-1.9309937,-1.5924405,-0.047341757,0.04207199,-0.16661718,-0.3818196,-0.34849286,0.0598829,3.0787528,-0.6251932,0.00039733274,-0.02859307,-4.8736532e-05,0.0027682702,-0.016811261,0.006953569,0.0004837446,0.47682658,-1.4247124,1.95655,-2.1009657,-1.5704416,2.4519482,-0.033891287,0.034045,-0.04433545,-0.003640156,0.011634213,-0.034365967,0.0,0.3256114,-9.461885,0.7329411,47.65912,-0.60021496,-2.076186,-3.254053,-0.50649524,0.13931176,-0.2564497,27.8125,28.875,28.0625,32.0,34.0625,34.9375
0.06205197,-0.78693366,-1.8980545,-1.5009277,-0.038652483,0.026124757,-0.16200806,-0.38188082,-0.34847698,0.059882104,3.0787144,-0.6252428,0.00043425392,-0.029458316,-6.4826745e-05,0.0023487383,-0.017161036,0.00653269,0.0008064924,0.47671825,-1.4246396,1.9564661,-2.1009538,-1.5704054,2.4518757,-0.03498031,0.036091227,-0.045579515,-0.0042278934,0.012135284,-0.03577752,-0.019153614,0.34476504,-9.5385,0.75755644,47.66987,-0.6457598,-2.1476753,-3.3436136,-0.5034272,0.13547835,-0.2653109,27.8125,28.875,28.0625,32.0,34.0625,34.9375
0.06405211,-1.0339106,-2.3955038,-1.5995802,-0.019867409,0.025109792,-0.15370381,-0.38193822,-0.34847972,0.05988351,3.0787067,-0.6252019,0.00040432406,-0.030759564,-0.0005214765,0.0026736525,-0.018017214,0.007849593,0.0023988618,0.47667006,-1.4245555,1.9563698,-2.1009662,-1.5704054,2.451803,-0.03546342,0.03761184,-0.047881674,-0.005008834,0.012286224,-0.037851404,-0.019153614,0.30645782,-9.557653,0.800085,47.711964,-0.71436226,-2.127305,-3.281021,-0.50694346,0.14005569,-0.2597707,27.8125,28.875,28.0625,32.0,34.0625,34.9375
0.06605167,-0.21369892,-1.7995012,-1.3073907,-0.026073022,0.059166245,-0.16038157,-0.38201168,-0.34849316,0.05990233,3.078655,-0.6251328,0.00034137035,-0.032332335,-0.0016405428,0.002904557,-0.019970918,0.00837168,0.003929222,0.47661,-1.4244827,1.9562491,-2.10099,-1.5703806,2.4517064,-0.035888728,0.040583774,-0.051679064,-0.0055468907,0.013776705,-0.039806053,-0.15322891,0.30645782,-9.385271,0.78217715,47.711063,-0.7942951,-2.0716484,-3.089818,-0.5190766,0.121067345,-0.27748063,27.8125,28.875,28.0625,32.0,34.0625,34.9375
0.068052135,-0.83771676,-1.4773296,-1.2252604,-0.020304184,0.047395952,-0.15604088,-0.3820595,-0.34850362,0.05991651,3.0785635,-0.6251523,0.00035494295,-0.031690873,-0.0008309234,0.0013527151,-0.018220855,0.005775954,0.0047372375,0.47653767,-1.424446,1.9561776,-2.1010025,-1.5703086,2.4516578,-0.036496405,0.042154226,-0.049863856,-0.0058176517,0.013418563,-0.041221164,-0.095768064,0.30645782,-9.404425,0.7933669,47.7245,-0.74262816,-2.267302,-3.3534088,-0.48207504,0.10928784,-0.29499748,27.8125,28.875,28.0625,32.0,34.0625,34.9375
0.070052154,-0.6122809,-1.0435877,-1.0685261,-0.0208204,0.057577725,-0.16734806,-0.38214886,-0.34850952,0.05992837,3.0785298,-0.62512463,0.00028050377,-0.032982793,-0.0016700662,0.0024681878,-0.02004147,0.007986249,0.0058672433,0.47646567,-1.4243382,1.9560331,-2.1010268,-1.5703086,2.451573,-0.036578525,0.042423278,-0.052660823,-0.006089711,0.014019517,-0.04243186,-0.17238252,0.21068975,-9.3661175,0.80456203,47.690468,-0.8412708,-2.1991084,-3.2555242,-0.48692113,0.095745504,-0.28526378,27.8125,28.875,28.0625,32.0,34.0625,34.9375
0.07205199,-0.50867313,-0.91491157,-1.0008359,-0.007729241,0.06116234,-0.15946865,-0.382206,-0.34851584,0.059940282,3.078475,-0.62509507,0.0002840676,-0.03437173,-0.0016985075,0.0030497324,-0.020399593,0.009585745,0.005543787,0.47639325,-1.4242781,1.9559373,-2.1010268,-1.5702609,2.451489,-0.037530687,0.043204855,-0.054841124,-0.0062718275,0.0136018675,-0.043058224,-0.15322891,0.22984336,-9.193734,0.779936,47.687782,-0.88735354,-2.1142442,-3.1591716,-0.4947069,0.09619804,-0.31313127,27.8125,28.875,28.0625,32.0,34.0625,34.9375
0.07405216,-0.27096722,-0.4932277,-0.8869597,-0.006520428,0.066245295,-0.16118872,-0.38224927,-0.34850436,0.059910793,3.0784843,-0.625095,0.00039328093,-0.035371672,-0.0021530984,0.0028364784,-0.020297723,0.009387029,0.008385828,0.4763094,-1.4241571,1.9558638,-2.1010144,-1.5702246,2.4514039,-0.037636463,0.045979626,-0.057567034,-0.0060935337,0.013595855,-0.04600509,-0.19153613,0.095768064,-9.174581,0.84484416,47.698532,-0.9590063,-2.2112358,-2.9878836,-0.4769625,0.10070877,-0.3346268,27.8125,28.875,28.0625,32.0,34.0625,34.9375
0.07605234,-0.6030697,-0.69028836,-0.79342514,0.0012746814,0.062159345,-0.1667278,-0.38233194,-0.3485175,0.0599464,3.0784137,-0.62506217,0.00027434644,-0.034846846,-0.0012854,0.0013734938,-0.01854667,0.0069005634,0.008594696,0.47624907,-1.4241089,1.9557327,-2.1010382,-1.5702132,2.451332,-0.03842099,0.04749577,-0.05592286,-0.0062380685,0.01318883,-0.046997037,-0.19153613,0.11492168,-9.136273,0.7911258,47.695843,-1.0075307,-2.181558,-3.1823301,-0.49977684,0.082007766,-0.32330087,27.8125,28.875,28.0625,32.0,34.0625,34.9375
0.07805172,-1.0181838,-0.94885916,-0.90474266,0.0038470582,0.055342913,-0.15528682,-0.3824227,-0.3485033,0.059928715,3.0783713,-0.62505364,0.00028016386,-0.03660302,-0.0017151167,0.0024099534,-0.019503092,0.009168492,0.006677315,0.4761169,-1.4239767,1.9556359,-2.1010978,-1.5701774,2.4512,-0.039138407,0.04837292,-0.059311025,-0.006177463,0.012995189,-0.04579468,-0.24899697,0.095768064,-9.155427,0.8314132,47.70838,-1.0731976,-2.226872,-3.1886148,-0.48246533,0.09377764,-0.3481062,27.8125,28.875,28.0625,32.0,34.0625,34.9375
0.0800518,-0.55075884,-0.44445178,-0.9554538,-0.008614812,0.06296945,-0.15270509,-0.38249424,-0.34852007,0.059950612,3.0783606,-0.6249923,0.00023670886,-0.037505385,-0.0019985589,0.002504945,-0.019529328,0.009461524,0.00872267,0.47608075,-1.4238803,1.9554676,-2.1010616,-1.5701774,2.451127,-0.039387017,0.050059605,-0.06151277,-0.0059330026,0.012882622,-0.048086725,-0.2681506,0.019153614,-9.174581,0.79560274,47.67614,-1.0631588,-2.2283869,-3.0503454,-0.4845649,0.09048462,-0.36917913,27.8125,28.875,28.0625,32.0,34.0625,34.9375
0.08205223,-0.5193687,-0.585992,-0.861608,-0.0015133005,0.06586084,-0.16164686,-0.3825572,-0.3485341,0.059955083,3.0783117,-0.624923,0.00026709572,-0.038014114,-0.0017873432,0.002512041,-0.0192908,0.009373255,0.01110291,0.47600862,-1.4237844,1.9553479,-2.1010616,-1.5701174,2.4510179,-0.040111847,0.050726656,-0.062385,-0.0055340924,0.012713019,-0.05119082,-0.24899697,0.076614454,-9.11712,0.7933669,47.675243,-1.1693205,-2.1092038,-3.1056492,-0.4852084,0.08730911,-0.3888862,27.8125,28.875,28.0625,32.0,34.0625,34.9375
0.08405247,-0.6936718,-0.9556191,-0.9300726,0.0073839165,0.055520043,-0.15321691,-0.38265565,-0.3485156,0.059962813,3.0782936,-0.6249169,0.00017113959,-0.03868457,-0.002045062,0.0022014554,-0.019545477,0.008861274,0.014932023,0.47590056,-1.4236878,1.9552282,-2.1010978,-1.5701412,2.4509084,-0.040560666,0.05275791,-0.06397548,-0.005635972,0.013176186,-0.055467445,-0.21068975,0.11492168,-9.212888,0.79560274,47.71286,-1.2088788,-2.165084,-3.0840254,-0.46821338,0.07525435,-0.34221047,27.8125,28.875,28.0625,32.0,34.0625,34.9375
0.08605257,-0.7447705,-0.8197708,-0.84468174,-0.0065426966,0.058614224,-0.16445327,-0.38271874,-0.34854278,0.059959978,3.0782545,-0.6248349,0.0002156763,-0.040479705,-0.0013354439,0.0024365643,-0.01913018,0.010177975,0.011767483,0.47585163,-1.4235556,1.9550837,-2.1010978,-1.5700811,2.4508133,-0.042831894,0.05399656,-0.06585781,-0.005965385,0.012200299,-0.054571595,-0.2681506,0.19153613,-9.155427,0.87393653,47.707485,-1.2031729,-2.1709518,-3.079404,-0.5006161,0.08391525,-0.34631485,27.8125,28.875,28.0625,32.0,34.0625,34.9375
0.08805179,-0.83135474,-1.2905279,-1.0948453,-0.012400014,0.052166805,-0.15612666,-0.38280138,-0.34852695,0.05995556,3.0782645,-0.62475675,0.0001750582,-0.041250598,-0.0010865903,0.0021523703,-0.019191235,0.009625478,0.014341263,0.47575516,-1.4234471,1.9549755,-2.1011217,-1.570093,2.450667,-0.04417264,0.055490263,-0.066929504,-0.0059227855,0.012509475,-0.058485456,-0.2681506,0.17238252,-9.212888,0.81351066,47.704796,-1.2131779,-2.2139432,-3.116734,-0.4835891,0.08176024,-0.37534618,27.8125,28.875,28.0625,32.0,34.0625,34.9375
0.09005175,-0.8608209,-1.4107581,-1.1934998,-0.020391887,0.055222336,-0.16537318,-0.3828805,-0.3485179,0.059973937,3.078202,-0.6247997,0.00019215386,-0.04171807,-0.0014640808,0.0026656883,-0.019241905,0.010724635,0.018775403,0.47563532,-1.4233754,1.9548434,-2.101086,-1.5700454,2.4505818,-0.043623943,0.05570376,-0.068411425,-0.0056465627,0.012053295,-0.062369347,-0.21068975,0.21068975,-9.251195,0.7978386,47.67614,-1.2222512,-2.0872307,-3.0230613,-0.48603213,0.09179124,-0.34878355,27.8125,28.875,28.0625,32.0,34.0625,34.9375
0.092052095,-0.05532864,-1.1023985,-1.1718761,-0.029893134,0.07570323,-0.16926414,-0.38295805,-0.34853768,0.0599657,3.0782335,-0.62457335,0.00016546322,-0.04241189,-0.0013401962,0.0011537373,-0.018221628,0.0076726605,0.0212032,0.47559905,-1.4232177,1.9546875,-2.1011097,-1.5700454,2.4504004,-0.04479375,0.060377546,-0.07042286,-0.005127804,0.012543692,-0.06596563,-0.1340753,0.21068975,-9.32781,0.8023209,47.645687,-1.3909512,-2.24396,-3.0877943,-0.49986154,0.11043692,-0.28741235,27.8125,28.875,28.0625,32.0,34.0625,34.9375
0.09405215,-0.9588553,-1.5015955,-1.2913806,-0.025845459,0.054289076,-0.15710299,-0.38303116,-0.34852502,0.05995505,3.0781927,-0.6245843,0.00021289324,-0.04380571,-0.0007040498,0.0022262721,-0.019468486,0.009562547,0.02206092,0.47547808,-1.42311,1.9545916,-2.1011217,-1.5699972,2.4502914,-0.04734815,0.059017,-0.07132886,-0.0051063513,0.012788123,-0.06937782,-0.21068975,0.22984336,-9.404425,0.83813137,47.651955,-1.2737235,-2.2545674,-3.05971,-0.49034598,0.09139024,-0.25674295,27.8125,28.875,28.0625,32.0,34.0625,34.9375
0.096052475,-0.69845325,-1.5610527,-1.3820788,-0.02764783,0.05833181,-0.16122925,-0.3831323,-0.3485471,0.059987172,3.0781267,-0.6244163,0.00014222083,-0.045495,0.000107973465,0.002309982,-0.019823976,0.009721735,0.022169635,0.47539303,-1.4230136,1.9544109,-2.101134,-1.569949,2.45011,-0.05048852,0.060286906,-0.07299647,-0.005007198,0.013037479,-0.07262494,-0.15322891,0.24899697,-9.32781,0.8672237,47.690468,-1.1874703,-2.0608916,-3.0856984,-0.50518525,0.098459795,-0.24048561,27.8125,28.875,28.0625,32.0,34.0625,34.9375
0.09805194,-0.20123713,-1.4242816,-1.2511253,-0.030074982,0.06994407,-0.16328512,-0.3832093,-0.34853715,0.059967816,3.078149,-0.6243045,0.00017215776,-0.04600079,0.000324937,0.0017062315,-0.019469766,0.008948241,0.024856219,0.4752968,-1.4228686,1.9542922,-2.1011455,-1.5699371,2.4499412,-0.051351614,0.062072176,-0.07358876,-0.0053459443,0.013076459,-0.07617423,-0.17238252,0.21068975,-9.32781,0.7463667,47.674347,-1.193325,-2.1771379,-3.0938444,-0.5032139,0.099722266,-0.17949295,27.8125,28.875,28.0625,32.0,34.0625,34.9375
0.10005203,-1.5654335,-1.8529108,-1.3226001,-0.019918043,0.047026917,-0.14312075,-0.38330224,-0.34851968,0.05995716,3.0781386,-0.62430006,0.00021103912,-0.0462112,2.689219e-05,0.00024116739,-0.018082172,0.0071914364,0.028606758,0.4751649,-1.4227232,1.9541477,-2.101134,-1.5699133,2.449808,-0.050722584,0.06612954,-0.07472432,-0.006063452,0.012644657,-0.07929411,-0.3256114,0.2681506,-9.3661175,0.76874626,47.6636,-1.3031025,-2.3025591,-3.16727,-0.50450647,0.12073733,-0.12419206,27.8125,28.875,28.0625,32.0,34.0625,34.9375
0.10205222,-0.90272546,-1.4508032,-1.313032,-0.025163855,0.07113443,-0.15177485,-0.3834273,-0.3485257,0.059983045,3.0781026,-0.6242172,8.164895e-05,-0.048139453,8.2204606e-05,0.0021568816,-0.021140622,0.010527962,0.025756625,0.4750681,-1.4225919,1.9539441,-2.1011584,-1.5699247,2.449664,-0.05334683,0.06405688,-0.07665269,-0.0064325463,0.013842268,-0.079067506,-0.24899697,0.2681506,-9.519346,0.7665104,47.704796,-1.2834367,-2.1730506,-3.0954285,-0.4959377,0.097873256,-0.113998376,27.8125,28.875,28.0625,32.0,34.0625,34.9375
0.10405225,-0.6106801,-0.8650765,-1.2364895,-0.032558467,0.07326815,-0.16038552,-0.38351905,-0.34853163,0.06001148,3.0780654,-0.6240746,4.507932e-05,-0.048575908,0.0012968233,0.00028305963,-0.019375348,0.006955021,0.025052067,0.47497115,-1.4225066,1.9537762,-2.1011345,-1.569889,2.449483,-0.05593496,0.067658715,-0.07656192,-0.006135132,0.013914717,-0.08094988,-0.22984336,0.21068975,-9.481039,0.83813137,47.689575,-1.1588625,-2.2377195,-3.2190502,-0.51229894,0.104862034,-0.08430249,27.8125,28.875,28.0625,32.0,34.0625,34.9375
0.1060527,-0.7492321,-0.67172503,-1.1115137,-0.023140358,0.067356795,-0.16030474,-0.38359842,-0.34850255,0.05995598,3.0780678,-0.62409776,0.00018131355,-0.05050185,0.00029495786,0.0015677952,-0.021589248,0.009423478,0.021060007,0.4748151,-1.4223139,1.9536909,-2.1011698,-1.5698403,2.449341,-0.05644332,0.06874397,-0.0807177,-0.0062716804,0.014740804,-0.07746577,-0.2681506,0.095768064,-9.442732,0.8314132,47.705692,-1.1945179,-2.2608628,-3.0262752,-0.5035792,0.113417394,-0.07469323,27.8125,28.875,28.0625,32.0,34.0625,34.9375
0.108052164,-0.48362613,-0.62007266,-1.055332,-0.014150717,0.06752065,-0.1603462,-0.3836908,-0.348547,0.05997648,3.0780075,-0.6239132,0.00011322285,-0.050317273,0.0013826983,-1.7561126e-05,-0.019991571,0.006836035,0.017531333,0.47477853,-1.4221812,1.9535006,-2.101206,-1.5697931,2.449197,-0.058041524,0.070625186,-0.07916407,-0.0066714073,0.014511915,-0.07553414,-0.3256114,0.11492168,-9.423578,0.7597976,47.69763,-1.2376398,-2.2834308,-3.247262,-0.49642003,0.1033854,-0.0884758,27.8125,28.875,28.0625,32.0,34.0625,34.9375
0.11005223,-0.6747817,-0.4719606,-1.1151657,-0.012625124,0.06432626,-0.16442849,-0.38380426,-0.34853116,0.05998985,3.0779848,-0.62387055,5.4765507e-05,-0.051981077,0.0012345174,0.00028361712,-0.021443203,0.008144388,0.01631434,0.474646,-1.4220606,1.9533323,-2.1012065,-1.5697926,2.449041,-0.05973235,0.07206967,-0.081236735,-0.007870515,0.015203837,-0.076006405,-0.30645782,0.019153614,-9.423578,0.82022345,47.68599,-1.2391593,-2.2543573,-3.2893372,-0.47849256,0.12026772,-0.09091835,27.8125,28.875,28.0625,32.0,34.0625,34.9375
0.112052575,-0.41825905,-0.5752431,-1.3302535,-0.011468703,0.07326633,-0.15516841,-0.3839099,-0.34852675,0.059978485,3.0779765,-0.623815,7.902938e-05,-0.052862637,0.0014423056,0.00055436767,-0.021552946,0.008751142,0.010240166,0.4745255,-1.4218802,1.9531521,-2.1012065,-1.5697683,2.4488869,-0.060770527,0.07258065,-0.082485065,-0.0077228765,0.015020829,-0.07096961,-0.19153613,0.05746084,-9.385271,0.7620334,47.660015,-1.2244531,-2.2544138,-2.9927554,-0.49503124,0.12250214,-0.16125847,27.8125,28.875,28.0625,32.0,34.0625,34.9375
0.11405165,-0.63289446,-0.34359634,-0.9913373,-0.010964522,0.06676347,-0.16599484,-0.38404164,-0.34852853,0.060009602,3.0778387,-0.6238458,-2.1985803e-05,-0.053084347,0.0019113909,0.0001639623,-0.021739377,0.0074755065,0.0072462712,0.47436908,-1.421784,1.9529847,-2.1012661,-1.5697082,2.4487672,-0.06227136,0.07322213,-0.08240683,-0.0073904176,0.01578121,-0.06947517,-0.30645782,0.11492168,-9.442732,0.842603,47.69763,-1.1582458,-2.1648471,-3.3438911,-0.49302053,0.116262645,-0.1882998,27.8125,28.875,28.0625,32.0,34.0625,34.9375
0.11605167,-0.53207314,-0.7814104,-1.2234373,-0.003797179,0.07117936,-0.16662057,-0.38409334,-0.3485208,0.05996978,3.077882,-0.62375915,0.00011802127,-0.05433422,0.0021452007,0.00019083571,-0.021720462,0.0074769347,0.0052973107,0.47428468,-1.4216151,1.9528769,-2.1012418,-1.5696725,2.4486232,-0.06380318,0.07493751,-0.08454059,-0.0069611236,0.015755296,-0.069058135,-0.22984336,-0.019153614,-9.423578,0.78888994,47.704796,-1.189348,-2.2170882,-3.2960567,-0.48071712,0.14173354,-0.20979725,27.8125,28.875,28.0625,32.0,34.0625,34.9375
0.118052214,-0.35766613,-0.6678821,-1.1693822,-0.004824582,0.07737148,-0.16055864,-0.38424534,-0.34850878,0.059983462,3.0778139,-0.62378436,2.864268e-05,-0.05511456,0.002596441,0.00031266428,-0.021653095,0.0081274565,0.0039445343,0.47411615,-1.4214468,1.9526614,-2.1012776,-1.5696601,2.4484792,-0.06506121,0.07516726,-0.08502703,-0.0072476924,0.0154050905,-0.06896153,-0.19153613,0.038307227,-9.423578,0.7665104,47.66539,-1.2204303,-2.166614,-3.3650897,-0.483766,0.13246636,-0.24202332,27.8125,28.875,28.0625,32.0,34.0625,34.9375
0.12005199,-0.7147266,-0.5882806,-0.95172185,-0.0076684947,0.06380812,-0.15774424,-0.38437763,-0.3485088,0.060013503,3.077731,-0.6237483,-5.3100197e-05,-0.056339674,0.003030571,7.113195e-05,-0.022069285,0.008119199,0.0017341516,0.4739716,-1.4213262,1.9524578,-2.1012905,-1.5696238,2.4483228,-0.06717102,0.07670857,-0.08609679,-0.007898561,0.015784346,-0.068858854,-0.30645782,0.076614454,-9.461885,0.784413,47.645687,-1.219646,-2.0462818,-3.413593,-0.4775701,0.15341824,-0.28745124,27.8125,28.875,28.0625,32.0,34.0625,34.9375
0.12205211,-0.71383643,-0.59508544,-1.1353465,-0.012438412,0.06526574,-0.15993819,-0.38447744,-0.3484898,0.059999842,3.0777404,-0.6237329,-1.0248419e-05,-0.056808483,0.0036037324,-0.00021981746,-0.022023935,0.007473003,0.00047917198,0.4738388,-1.4211578,1.9522909,-2.1012666,-1.5696119,2.4481792,-0.06875969,0.07730491,-0.08613689,-0.007856744,0.016039675,-0.069193035,-0.34476504,-0.019153614,-9.442732,0.80456203,47.694946,-1.0741689,-2.1089747,-3.4958107,-0.4841501,0.15075004,-0.28446412,27.8125,28.875,28.0625,32.0,34.0625,34.9375
0.12405223,-0.88721216,-0.9523731,-1.2715844,-0.008393339,0.06385161,-0.14920005,-0.38460362,-0.34849837,0.060005583,3.0776818,-0.623681,-2.0529491e-05,-0.057819076,0.002320077,0.0009109605,-0.024265956,0.008801901,0.0013989499,0.47370705,-1.4209775,1.9520739,-2.1012776,-1.5695633,2.4480226,-0.068281,0.07796573,-0.08962798,-0.0072308993,0.017428357,-0.069632545,-0.2681506,0.095768064,-9.404425,0.8493211,47.70032,-1.2827516,-2.079494,-3.2928305,-0.47867656,0.15588883,-0.32739797,27.8125,28.875,28.0625,32.0,34.0625,34.9375
0.12605229,-0.5137812,-0.5900554,-1.1941382,-0.014148835,0.07470897,-0.1577316,-0.3847155,-0.34847635,0.060012855,3.0776198,-0.62378496,-3.8697366e-05,-0.05776384,0.0037831112,-0.00075603795,-0.022695128,0.005580018,-0.0008892512,0.47355032,-1.420857,1.9519194,-2.1012776,-1.5695394,2.4479387,-0.07085098,0.0798721,-0.08803246,-0.007144637,0.017508928,-0.06991431,-0.36391866,0.1340753,-9.385271,0.88960326,47.693153,-1.1599189,-2.0122218,-3.5135512,-0.48614985,0.15821767,-0.36543882,27.8125,28.875,28.0625,32.0,34.0625,34.9375
0.12805183,-0.9827543,-0.92795956,-1.2669911,-0.01260726,0.06930288,-0.153709,-0.38481906,-0.34848127,0.060004327,3.0775912,-0.62362725,-6.368831e-05,-0.061128885,0.003878608,0.0008960267,-0.024831915,0.009129581,-0.004317814,0.47344092,-1.4207004,1.9517735,-2.1013377,-1.5695032,2.4477346,-0.07425137,0.080805615,-0.09281892,-0.0074216505,0.017786385,-0.069882885,-0.34476504,0.11492168,-9.461885,0.842603,47.687782,-1.0152667,-2.056896,-3.4686468,-0.4792527,0.16971573,-0.38905612,27.8125,28.875,28.0625,32.0,34.0625,34.9375
0.13005242,-1.1831908,-0.79023945,-1.2519289,-0.02349308,0.0674438,-0.15806964,-0.3849426,-0.34847715,0.06002587,3.0775127,-0.62368685,-0.00010085451,-0.060905315,0.003213505,0.0013422025,-0.025478253,0.009932238,-0.0022543902,0.47329763,-1.4205682,1.9515704,-2.1013258,-1.5694674,2.4476385,-0.07298023,0.08025841,-0.09320256,-0.0074946266,0.01800249,-0.070674144,-0.34476504,0.05746084,-9.461885,0.7486078,47.683304,-1.2273982,-1.8832076,-3.4130147,-0.4819802,0.1824709,-0.4334701,27.8125,28.875,28.0625,32.0,34.0625,34.9375
0.13205175,-1.232194,-1.1896249,-1.3644488,-0.010730551,0.06549691,-0.1487162,-0.38507655,-0.34845036,0.06000418,3.077478,-0.6237181,-6.397509e-05,-0.06310899,0.004471602,0.0005122563,-0.024425764,0.008949099,-0.0038383757,0.47310433,-1.4203626,1.9513901,-2.10135,-1.5694312,2.4474692,-0.07687457,0.08400623,-0.09562354,-0.0074561504,0.017514601,-0.07298255,-0.38307226,0.15322891,-9.346964,0.8157518,47.63136,-1.083034,-2.0183477,-3.4180536,-0.4761375,0.20927998,-0.4674071,27.8125,28.875,28.0625,32.0,34.0625,34.9375
0.13405183,-0.8708302,-1.0727042,-1.5739883,-0.013006503,0.06850792,-0.15908933,-0.38517538,-0.34843087,0.060002103,3.0774755,-0.62371737,-3.8053473e-05,-0.0646597,0.0040887455,0.0023896056,-0.02705966,0.012551351,-0.0024298425,0.47297186,-1.4202194,1.9512228,-2.1013143,-1.5694193,2.4473367,-0.07803965,0.082103305,-0.0976268,-0.007952848,0.018217139,-0.075555965,-0.30645782,0.24899697,-9.442732,0.85155696,47.685097,-1.0508032,-1.887363,-3.3420315,-0.4812413,0.19958821,-0.48342678,27.8125,28.875,28.0625,32.0,34.0625,34.9375
0.13605185,-1.0421854,-1.045191,-1.4959952,-0.026310757,0.06893016,-0.1523338,-0.38532114,-0.34844577,0.06001221,3.0773556,-0.6236317,-6.0640454e-05,-0.06545993,0.004221088,0.0021898916,-0.02712234,0.011703818,0.0026033972,0.47280332,-1.4200386,1.9510063,-2.101374,-1.5693234,2.44713,-0.079263896,0.08386008,-0.09935683,-0.007236785,0.018674685,-0.08181096,-0.3256114,0.24899697,-9.461885,0.947788,47.707485,-1.0570648,-1.8164434,-3.3834634,-0.4769203,0.21704134,-0.44042248,27.8125,28.875,28.0625,32.0,34.0625,34.9375
0.13805237,-0.8024443,-1.1389905,-1.4425002,-0.03229692,0.07816998,-0.15799141,-0.38546097,-0.34842294,0.06001278,3.077341,-0.6236663,-7.351706e-05,-0.06613178,0.0045390488,0.001779632,-0.026935792,0.01041727,0.0043452806,0.47263503,-1.4198458,1.9507788,-2.10135,-1.569323,2.4469852,-0.080682546,0.08568442,-0.10069622,-0.0064855376,0.019101268,-0.08497069,-0.38307226,0.21068975,-9.423578,0.8717007,47.7254,-1.0354391,-1.8548856,-3.4051352,-0.49671897,0.20910129,-0.44184953,27.8125,28.875,28.0625,32.0,34.0625,34.9375
0.14005235,-1.6533893,-1.5528818,-1.5527135,-0.031437285,0.07118281,-0.14696497,-0.38558736,-0.3484148,0.060015783,3.0772698,-0.62362796,-7.29705e-05,-0.0675875,0.004584001,0.0021487398,-0.028463937,0.0109717315,0.011295869,0.4724663,-1.4196892,1.9505981,-2.101374,-1.5692624,2.4468017,-0.082779706,0.0867092,-0.10267174,-0.00670737,0.020222882,-0.094016775,-0.30645782,0.3256114,-9.634268,0.8314132,47.70211,-0.9639852,-1.85735,-3.3995986,-0.4812778,0.22731237,-0.3993202,27.8125,28.875,28.0625,32.0,34.0625,34.9375
0.1420524,-1.0381012,-1.266325,-1.6227617,-0.038831692,0.08907246,-0.16278143,-0.38571215,-0.34843054,0.060033865,3.0772119,-0.6234794,-6.0894854e-05,-0.06875832,0.0046258844,0.002030028,-0.029002948,0.011307791,0.01460537,0.4723339,-1.4195205,1.9503583,-2.1013505,-1.5691904,2.446584,-0.084105104,0.088403456,-0.10419256,-0.007410414,0.020558028,-0.09864972,-0.26815057,0.21068975,-9.653421,0.83813137,47.707485,-0.93918425,-1.8138285,-3.380069,-0.4868131,0.22031176,-0.32142073,27.8125,28.875,28.0625,32.0,34.0625,34.9375
0.14405285,-1.1058491,-1.3329185,-1.560507,-0.032185733,0.08443041,-0.16218482,-0.3858485,-0.34838244,0.06000568,3.0772076,-0.62353384,-1.7429891e-05,-0.07030482,0.0052737994,0.001857648,-0.02884259,0.011122062,0.01906786,0.4721169,-1.4193156,1.9501904,-2.1013615,-1.5691785,2.4464016,-0.086589806,0.09041314,-0.10617058,-0.0071878633,0.020506438,-0.10559624,-0.2873042,0.19153613,-9.672575,0.7665104,47.709274,-0.9076509,-1.7480472,-3.3904881,-0.4945017,0.23020822,-0.2562126,27.8125,28.875,28.0625,32.0,34.0625,34.9375
0.14605212,-1.1500401,-1.3308636,-1.5908839,-0.028914243,0.079935506,-0.14982224,-0.3859883,-0.34839034,0.060015816,3.0771542,-0.62330985,-8.6370645e-05,-0.07166873,0.00527906,0.0012215021,-0.02891572,0.010540314,0.021711404,0.47197253,-1.4191461,1.9499868,-2.101422,-1.5691303,2.4461243,-0.08802602,0.09374867,-0.108418524,-0.0077776155,0.020848239,-0.10967245,-0.36391866,0.15322891,-9.653421,0.87393653,47.716442,-0.8413447,-1.8324744,-3.3069592,-0.47740173,0.2460531,-0.19446024,27.8125,28.875,28.0625,32.0,34.0625,34.9375
0.14805233,-0.65591085,-1.0035719,-1.5289085,-0.02469644,0.08377091,-0.15839255,-0.38616827,-0.3483699,0.06003885,3.0770905,-0.62333375,-0.0002291114,-0.072381385,0.0051122173,-0.0005381123,-0.027990406,0.007905232,0.023376128,0.4717803,-1.4189643,1.9497341,-2.1014578,-1.5691422,2.4459553,-0.08858607,0.099012315,-0.1103149,-0.008372483,0.021235162,-0.11189323,-0.38307226,0.19153613,-9.576807,0.82022345,47.703903,-0.8438195,-2.1135798,-3.2965298,-0.4859227,0.25916493,-0.15190572,27.8125,28.875,28.0625,32.0,34.0625,34.9375
0.15005252,-0.5015552,-0.7440121,-1.4991453,-0.024991188,0.08419474,-0.16132137,-0.38630736,-0.34837657,0.060041465,3.0770185,-0.62324387,-0.00019022748,-0.07536121,0.0051507573,0.0018715115,-0.031189842,0.012552985,0.020106304,0.47161117,-1.4187605,1.9494947,-2.1014578,-1.5690578,2.4457393,-0.091795556,0.09750502,-0.1140144,-0.008749335,0.021972114,-0.111830615,-0.4213795,0.13407528,-9.576807,0.79560274,47.689575,-0.72657275,-1.8676939,-3.307681,-0.46661258,0.2685623,-0.1187143,27.8125,28.875,28.0625,32.0,34.0625,34.9375
0.15205163,-0.8466935,-1.0415362,-1.1861719,-0.024441922,0.07969563,-0.15456483,-0.38644326,-0.3483557,0.060044684,3.0769825,-0.6231603,-0.00017201858,-0.074609615,0.0042815297,-0.0007066261,-0.029446019,0.008035468,0.019370731,0.47142002,-1.4185904,1.9492897,-2.101446,-1.5690101,2.4455006,-0.08986082,0.103582464,-0.11506809,-0.008952888,0.022470994,-0.10915835,-0.36391866,0.22984336,-9.5385,0.8179876,47.684196,-0.9388405,-2.1176472,-3.182571,-0.46733555,0.2644677,-0.14048947,27.8125,28.875,28.0625,32.0,34.0625,34.9375
0.15405211,-0.973377,-1.0103897,-1.2050968,-0.027296007,0.08352788,-0.1560834,-0.38663748,-0.34834164,0.060078837,3.076882,-0.6231434,-0.00031023315,-0.07782042,0.004276293,0.0019178852,-0.032930613,0.012755145,0.012220221,0.4712028,-1.4184107,1.9490141,-2.1014822,-1.5689853,2.4452858,-0.093333505,0.102109194,-0.11937721,-0.008959568,0.023437161,-0.105475664,-0.4405331,0.17238252,-9.404425,0.8493211,47.705692,-0.86365247,-1.9693335,-3.1248465,-0.46030182,0.27094132,-0.18031614,27.8125,28.875,28.0625,32.0,34.0625,34.9375
0.15605214,-0.80705404,-1.0615495,-1.3843385,-0.031320985,0.0888748,-0.15232573,-0.38679653,-0.3483577,0.060094874,3.0767925,-0.62304974,-0.00036660457,-0.07643788,0.0030198246,0.00089641195,-0.03314226,0.010584078,0.009018567,0.4710478,-1.4182059,1.9487509,-2.101518,-1.5689248,2.4450839,-0.090573624,0.103856325,-0.11900044,-0.0092492,0.02461535,-0.09951163,-0.4405331,0.24899697,-9.404425,0.86945957,47.705692,-0.9295087,-1.941072,-3.166703,-0.4519537,0.26599404,-0.22691548,27.8125,28.875,28.0625,32.0,34.0625,34.9375
0.15805236,-0.7326029,-1.5665264,-1.339551,-0.027885908,0.088883094,-0.15581548,-0.38694146,-0.34833404,0.060080666,3.076748,-0.62307966,-0.0003189418,-0.07761763,0.0029202795,0.0007339906,-0.03362586,0.010387594,0.0067621414,0.4708434,-1.4179888,1.9485344,-2.101518,-1.5688766,2.4449039,-0.09175856,0.10609415,-0.12119921,-0.009326408,0.025133686,-0.09843868,-0.34476504,0.30645782,-9.32781,0.81351066,47.709274,-1.0587355,-2.0613189,-3.1503296,-0.4488098,0.27358758,-0.2646321,27.8125,28.875,28.0625,32.0,34.0625,34.9375
0.16005239,-1.1506785,-1.4746175,-1.2443985,-0.03553372,0.07161419,-0.1467476,-0.387097,-0.34833178,0.060088605,3.0766916,-0.62295294,-0.00038719087,-0.07857258,0.0025261599,0.0014563103,-0.034347713,0.011952979,0.006794289,0.47067532,-1.4177965,1.9483069,-2.1015666,-1.5688409,2.444664,-0.09184533,0.106404066,-0.12321777,-0.009332051,0.02507534,-0.09855455,-0.36391866,0.30645782,-9.251195,0.79560274,47.690468,-1.0685949,-1.9293914,-3.0682888,-0.45227754,0.28862843,-0.27905098,27.8125,28.875,28.0625,32.0,34.0625,34.9375
0.16205254,-0.64634746,-1.300009,-1.2559234,-0.034906644,0.07089519,-0.15413493,-0.3872581,-0.34832314,0.06011498,3.0766113,-0.6229747,-0.00041244,-0.07981652,0.0022243347,0.001725823,-0.03499557,0.012422542,0.0055387067,0.47048306,-1.4176159,1.9480313,-2.1015303,-1.5687927,2.4444957,-0.092629455,0.10814839,-0.12590265,-0.009096304,0.025444655,-0.098080024,-0.38307226,0.3256114,-9.251195,0.7642693,47.694946,-1.0597793,-1.9718347,-3.100819,-0.45049927,0.3045172,-0.3141191,27.8125,28.875,28.0625,32.0,34.0625,34.9375
0.1640518,-0.52079314,-1.8083696,-1.2450916,-0.021499613,0.056732908,-0.15160376,-0.3874294,-0.3483222,0.060113624,3.0765526,-0.62290454,-0.00046266682,-0.078862734,0.00276702,-0.00021149694,-0.03350657,0.009351745,0.005836076,0.47030327,-1.4173747,1.9477686,-2.101578,-1.5687569,2.4442797,-0.09273005,0.110191934,-0.123653844,-0.009967882,0.025524033,-0.0984769,-0.19153613,0.3256114,-9.32781,0.83589023,47.71554,-1.1382384,-1.9680661,-3.2063198,-0.4277662,0.31305924,-0.3303489,27.8125,28.875,28.0625,32.0,34.0625,34.9375
0.1660529,-0.41569644,-1.4364936,-1.0043805,-0.035755564,0.04028914,-0.15892677,-0.38760653,-0.3483122,0.060106166,3.0764723,-0.6229094,-0.0004628682,-0.0809672,0.0028178345,0.00057443907,-0.034560066,0.010511104,0.0033190546,0.47008625,-1.417122,1.9475039,-2.1016142,-1.5686964,2.444076,-0.09493891,0.11171662,-0.12737983,-0.009267918,0.025940904,-0.09816549,-0.15322891,0.28730422,-9.193734,0.784413,47.70659,-1.1414428,-2.0293217,-3.0582912,-0.4240504,0.29476693,-0.36927807,27.8125,28.875,28.0625,32.0,34.0625,34.9375
0.1680521,0.16076201,-1.049854,-0.99180615,-0.03817601,0.038009256,-0.15810448,-0.38774967,-0.3482983,0.06009908,3.0764127,-0.62289566,-0.00043289657,-0.08174722,0.0031776493,0.0005296837,-0.035141107,0.01065042,0.0037624014,0.46989384,-1.4169178,1.9472884,-2.1016257,-1.5686368,2.4438827,-0.09653337,0.11225594,-0.1278048,-0.009756314,0.026404781,-0.100202195,-0.05746084,0.24899697,-9.078813,0.8112748,47.684196,-1.0597465,-2.006956,-3.1648953,-0.43645638,0.31641123,-0.37948838,27.8125,28.875,28.0625,32.0,34.0625,34.9375
0.17005217,0.08582447,-0.9636387,-0.949091,-0.02695895,0.024225403,-0.15546598,-0.3879372,-0.34831914,0.060122464,3.0763245,-0.6228175,-0.00054137805,-0.08229889,0.0032604346,-0.00089039846,-0.03513058,0.008480223,0.0061403452,0.46973756,-1.416676,1.946966,-2.1016624,-1.5686,2.443689,-0.09776663,0.11583845,-0.12848435,-0.010707798,0.02739714,-0.10380877,0.1340753,0.28730422,-9.040505,0.7665104,47.67614,-1.1136675,-2.1327813,-3.1891334,-0.4093058,0.33844674,-0.3858685,27.8125,28.875,28.0625,32.0,34.0625,34.9375
0.1720521,0.714472,-0.73871696,-0.82183695,-0.020622399,0.030212201,-0.1591804,-0.3880995,-0.34829733,0.06013131,3.0762658,-0.62276405,-0.00055444246,-0.08276723,0.0027175704,0.00041850272,-0.037103552,0.0105799455,0.0121603245,0.46952137,-1.4164847,1.9467262,-2.1016624,-1.5685519,2.443447,-0.09771132,0.114049904,-0.12942962,-0.010718845,0.028227046,-0.10977151,0.21068975,0.21068975,-9.097966,0.7933669,47.678825,-0.9956506,-1.8945376,-3.2804437,-0.389573,0.32754022,-0.3389679,27.8125,28.875,28.0625,32.0,34.0625,34.9375
0.17405218,0.44958737,-0.57663745,-0.58914393,-0.016246142,0.014464935,-0.15925038,-0.38828686,-0.34831065,0.060120914,3.0761943,-0.6226504,-0.00055532326,-0.08336549,0.002777124,-0.0002700521,-0.0365939,0.009580791,0.017109664,0.46932942,-1.4161834,1.9464148,-2.10171,-1.5684799,2.4431934,-0.098312825,0.116522886,-0.1307234,-0.010751164,0.028244771,-0.11531984,0.21068975,0.1340753,-9.040505,0.9097417,47.71286,-1.2123804,-2.1370697,-3.267627,-0.37958282,0.3424297,-0.28998154,27.8125,28.875,28.0625,32.0,34.0625,34.9375
0.17605257,0.6084891,-0.6164292,-0.5904411,0.0062627653,0.016875677,-0.16086158,-0.388425,-0.34828946,0.060118984,3.0761628,-0.62254447,-0.0005364616,-0.08433424,0.0033240106,-0.00093324034,-0.036761135,0.008261403,0.022801341,0.46913636,-1.4160026,1.9462117,-2.10171,-1.5684317,2.4429383,-0.10060222,0.118703745,-0.13172191,-0.010806507,0.029012889,-0.123299,0.19153613,0.22984336,-8.90643,0.8112748,47.64927,-0.87893945,-2.0308688,-3.2812471,-0.36141694,0.342867,-0.1841124,27.8125,28.875,28.0625,32.0,34.0625,34.9375
0.17805175,0.5550903,-0.4067394,-0.57089096,0.00954936,0.009058408,-0.153799,-0.38863117,-0.3483059,0.06015384,3.0760243,-0.62241673,-0.00067075546,-0.08467559,0.002509064,-0.00064479874,-0.03775594,0.0078093978,0.028007535,0.4689327,-1.415786,1.9458998,-2.1017816,-1.5683588,2.4426727,-0.100132406,0.11993829,-0.13406323,-0.009724481,0.030138483,-0.12802859,0.17238252,0.095768064,-8.983045,0.84708,47.690468,-1.2269666,-1.978992,-3.3285975,-0.36835486,0.34313196,-0.14345708,27.8125,28.875,28.0625,32.0,34.0625,34.9375
0.18005185,0.6780194,0.03397699,-0.7062395,0.0008095039,0.017811874,-0.16078325,-0.38876173,-0.34826544,0.060101338,3.076083,-0.6223331,-0.00052864203,-0.08523757,0.0032587422,-0.0016882122,-0.037812017,0.0051994505,0.02680817,0.46872786,-1.415509,1.9456958,-2.1017578,-1.5683345,2.4424083,-0.1027068,0.1222115,-0.13441929,-0.009330487,0.031363286,-0.12940519,0.17238252,0.15322891,-9.059659,0.842603,47.684196,-1.037424,-2.042029,-3.2902188,-0.36952385,0.3336019,-0.07748529,27.8125,28.875,28.0625,32.0,34.0625,34.9375
0.18205187,0.7930229,-0.59353375,-1.0486287,0.001216692,0.030360093,-0.15974677,-0.38892218,-0.34827545,0.060114864,3.0759628,-0.6222317,-0.0004980792,-0.08545722,0.0031861446,-0.0016664221,-0.037549045,0.004499341,0.025819512,0.46852383,-1.4153043,1.9454325,-2.1017692,-1.5682143,2.4421563,-0.1027819,0.12310536,-0.13580254,-0.008078215,0.031456012,-0.12848888,0.095768064,0.15322891,-9.193734,0.7978386,47.691364,-1.1651531,-1.9830203,-3.3479426,-0.35075033,0.32842875,-0.07277764,27.8125,28.875,28.0625,32.0,34.0625,34.9375
0.184052,0.11945124,-1.1335133,-1.1699451,-0.01690818,0.030484268,-0.15028329,-0.38908765,-0.34826133,0.06009281,3.0759401,-0.62215364,-0.00045188624,-0.08731245,0.0031584052,-0.00036673975,-0.03874828,0.0061558485,0.020658664,0.46831924,-1.4150281,1.9451679,-2.1017807,-1.5681666,2.441906,-0.10454908,0.123397745,-0.13943453,-0.0067549436,0.03176999,-0.12509347,-0.038307227,0.21068975,-9.212888,0.8851263,47.698532,-1.1351714,-1.9598948,-3.250538,-0.3818324,0.34949514,-0.105710566,27.8125,28.875,28.0625,32.0,34.0625,34.9375
0.18605228,0.13366884,-1.154485,-1.175992,-0.03220771,0.055443946,-0.15345879,-0.3892672,-0.34825724,0.060100153,3.0759025,-0.6220516,-0.0004721274,-0.08635078,0.0035112505,-0.0023778286,-0.037803765,0.00091473595,0.01611139,0.46812695,-1.4147747,1.944857,-2.1017683,-1.5681299,2.441655,-0.1052349,0.12650682,-0.13875109,-0.0054484764,0.03329739,-0.12122937,-0.1340753,0.24899697,-9.270349,0.8918391,47.703903,-1.1556461,-2.1823535,-3.4869962,-0.4005032,0.341699,-0.12649637,27.8125,28.875,28.0625,32.0,34.0625,34.9375
0.18805254,-0.6530597,-1.1894642,-1.3940622,-0.03587349,0.05169963,-0.15720162,-0.38940263,-0.34824365,0.06007942,3.075854,-0.6220453,-0.00038531816,-0.08718058,0.0034579886,-0.0020710237,-0.038696673,0.00076229364,0.010833646,0.46793467,-1.4145465,1.944642,-2.1017678,-1.5680574,2.441465,-0.10638869,0.12729326,-0.14055055,-0.0047006262,0.03415301,-0.11710432,-0.15322891,0.2681506,-9.423578,0.79560274,47.687782,-1.164914,-1.871599,-3.4015148,-0.4118369,0.31195438,-0.19688037,27.8125,28.875,28.0625,32.0,34.0625,34.9375
0.19005252,-0.77307194,-1.4064522,-1.3885292,-0.044003967,0.06927211,-0.15001114,-0.38958326,-0.34823236,0.060069975,3.075784,-0.6219941,-0.00036115016,-0.08849305,0.003277813,-0.0011916833,-0.039113756,0.0024014434,0.00604862,0.4677065,-1.4142821,1.9443649,-2.1017916,-1.5679859,2.4412138,-0.106948294,0.1277877,-0.14329144,-0.0040988997,0.033780083,-0.112876795,-0.32561144,0.21068975,-9.461885,0.7777002,47.639416,-1.2045851,-1.9260921,-3.3490622,-0.4193805,0.3313421,-0.25754064,27.8125,28.875,28.0625,32.0,34.0625,34.9375
0.19205178,-0.85284877,-1.5301889,-1.7055557,-0.041066285,0.08529121,-0.15196842,-0.38975364,-0.34822002,0.06005727,3.0757127,-0.622057,-0.0002610099,-0.089977264,0.003704761,-0.0014371726,-0.0398084,0.00162721,0.0036016956,0.46747756,-1.4140049,1.9440669,-2.1017559,-1.5679015,2.4410334,-0.10959586,0.13002285,-0.14539328,-0.0038397508,0.03474841,-0.11307586,-0.4405331,0.30645782,-9.519346,0.7978386,47.675243,-1.1277492,-1.9587133,-3.4586854,-0.4448607,0.34116048,-0.2893027,27.8125,28.875,28.0625,32.0,34.0625,34.9375
0.19405188,-1.847482,-1.8468521,-1.8407118,-0.04204804,0.092513606,-0.1491764,-0.38990813,-0.34821364,0.060034182,3.075638,-0.621986,-0.00012784479,-0.08901096,0.0028485884,-0.002144771,-0.041329816,-0.0008002792,0.0002810181,0.46724993,-1.4137402,1.9438151,-2.1017559,-1.5677804,2.4407709,-0.10873158,0.13100825,-0.14495338,-0.0037822404,0.03719431,-0.10888934,-0.6703765,0.34476504,-9.595961,0.8605109,47.677036,-1.3132205,-1.9425638,-3.4439836,-0.44347602,0.3212254,-0.38015997,27.8125,28.875,28.0625,32.0,34.0625,34.9375
0.19605194,-1.7792108,-1.9300416,-1.7932488,-0.05131342,0.1155731,-0.15126884,-0.3901174,-0.348232,0.060069103,3.075523,-0.62186724,-0.00024660255,-0.0921941,0.0034030497,-0.0013645284,-0.04368024,0.00071761385,-0.0028732205,0.46705619,-1.4134992,1.9434665,-2.1017916,-1.5677203,2.440518,-0.11341105,0.13290547,-0.14884533,-0.004188098,0.03862304,-0.11040567,-0.6895301,0.36391866,-9.634268,0.88289046,47.64927,-1.0157973,-2.006789,-3.288711,-0.4351151,0.2776553,-0.41273797,27.8125,28.875,28.0625,32.0,34.0625,34.9375
0.19805205,-2.016165,-2.00141,-1.7682501,-0.05815442,0.114245355,-0.14535044,-0.39030674,-0.34821627,0.06005287,3.0754354,-0.62196535,-0.0001634544,-0.09259082,0.0026867976,-0.0010640551,-0.045662984,0.00055874273,-0.004041795,0.46680436,-1.413199,1.9431552,-2.1017797,-1.5676354,2.4403386,-0.113615245,0.1335183,-0.15028784,-0.004099294,0.040464796,-0.10943878,-0.7661445,0.40222588,-9.710882,0.88960326,47.72002,-1.2230041,-1.850085,-3.4638643,-0.44809443,0.2628658,-0.48770666,27.8125,28.875,28.0625,32.0,34.0625,34.9375
0.20005207,-1.59194,-1.4673986,-1.7262442,-0.06386837,0.1289505,-0.16722265,-0.39049515,-0.34819937,0.060059015,3.0753658,-0.6219311,-0.00019076317,-0.09464301,0.0033414718,-0.0001541573,-0.047527757,0.0019739203,-0.003022233,0.46657497,-1.4129585,1.9428672,-2.1017916,-1.5675873,2.4400969,-0.117210105,0.13345987,-0.15232304,-0.0040835612,0.04151236,-0.11404884,-0.80445176,0.3256114,-9.710882,0.83589023,47.687782,-0.9628332,-1.8007345,-3.3087394,-0.46915877,0.23880652,-0.4885505,27.8125,28.875,28.0625,32.0,34.0625,34.9375
0.2020526,-1.5892687,-1.1931283,-1.6418886,-0.042857584,0.123590566,-0.16174522,-0.39067006,-0.34822074,0.06005721,3.0752764,-0.6218123,-0.00016746008,-0.09608572,0.0039561344,-0.0017152573,-0.04596209,0.00048642114,0.0031346877,0.46639442,-1.4126804,1.9425567,-2.101816,-1.5674909,2.4398537,-0.11907224,0.13830628,-0.1541712,-0.0050028255,0.04080813,-0.122064754,-0.6512228,0.21068975,-9.787497,0.83813137,47.687782,-0.92808604,-1.968395,-3.317091,-0.4783321,0.21499886,-0.44832712,27.8125,28.875,28.0625,32.0,34.0625,34.9375
0.20405166,-1.8515192,-0.65448457,-1.8922192,-0.025231332,0.09970305,-0.15242945,-0.39088959,-0.3482078,0.060066853,3.0751424,-0.6218177,-0.00015387118,-0.09783169,0.0033471156,-0.00022002647,-0.049161024,0.004181916,0.011038249,0.4661063,-1.412405,1.9422206,-2.1018283,-1.5673832,2.4395862,-0.1202595,0.137347,-0.15608518,-0.006818421,0.042035963,-0.13115026,-0.5363012,0.0,-9.80665,0.8717007,47.71286,-0.94309,-1.8387263,-3.354097,-0.46169046,0.20970157,-0.38526008,27.8125,28.875,28.0625,32.0,34.0625,34.9375
0.20605168,-1.5946499,-0.36248973,-1.6423953,-0.010511013,0.09626396,-0.154084,-0.39109197,-0.34822038,0.060064983,3.075032,-0.6217142,-0.00013458221,-0.098714024,0.0024477132,-0.0008875494,-0.050880145,0.0033738455,0.019108271,0.46587804,-1.4121034,1.9418858,-2.1018646,-1.5672745,2.4393075,-0.120623596,0.14069492,-0.1581602,-0.008096382,0.043965504,-0.1395775,-0.7852981,-0.076614454,-9.672575,0.88289046,47.682407,-0.9558646,-2.092,-3.3500662,-0.4497518,0.16260798,-0.28850773,27.8125,28.875,28.0625,32.0,34.0625,34.9375
0.2080521,-0.94186187,0.07456143,-1.5803646,-0.00041493314,0.11326168,-0.15757346,-0.39128268,-0.34819844,0.060074538,3.074988,-0.6216632,-0.00011788936,-0.09927542,0.0022776013,-0.0018305192,-0.051350605,0.002135898,0.023676088,0.465638,-1.4118502,1.9415616,-2.1018174,-1.5672258,2.4390414,-0.12139221,0.14347814,-0.15902153,-0.009091396,0.044961818,-0.14491072,-0.6703765,-0.095768064,-9.749189,0.8112748,47.67166,-1.056307,-2.078342,-3.3398194,-0.41950548,0.13706738,-0.21799149,27.8125,28.875,28.0625,32.0,34.0625,34.9375
0.21005231,-0.839823,0.1592787,-1.5826229,0.0069626113,0.113326296,-0.1665906,-0.3915075,-0.3482017,0.060093243,3.0748527,-0.6214984,-0.00017292637,-0.09906596,0.0020606013,-0.002951763,-0.05050179,0.00010252407,0.028465306,0.46537396,-1.4115851,1.9412273,-2.101877,-1.5671176,2.4386919,-0.12086143,0.14617133,-0.15964016,-0.008925972,0.04515231,-0.14916265,-0.4405331,-0.15322891,-9.653421,0.83365434,47.666286,-1.0403508,-2.100187,-3.4025886,-0.42889392,0.109659724,-0.15722102,27.8125,28.875,28.0625,32.0,34.0625,34.9375
0.21205246,-0.94430244,0.20003036,-1.4280602,-0.0005246514,0.10562396,-0.15963537,-0.3917023,-0.34820932,0.060068853,3.0747662,-0.621426,-9.848555e-05,-0.10174054,0.0025093367,-0.0021669115,-0.05145301,0.002022736,0.024650265,0.46514505,-1.411248,1.9409026,-2.1019127,-1.5670103,2.4384289,-0.12395049,0.14779985,-0.16333729,-0.008976411,0.045139514,-0.14843379,-0.36391866,-0.1340753,-9.576807,0.8672237,47.66091,-1.0865941,-2.1848397,-3.2558005,-0.4294724,0.086168855,-0.15785795,27.8125,28.875,28.0625,32.0,34.0625,34.9375
0.21405256,-0.30096334,-0.02451657,-1.3000827,-0.0016989631,0.09511388,-0.15079251,-0.3919103,-0.34818238,0.060083933,3.0747,-0.6213389,-0.00014096884,-0.101942025,0.0018438183,-0.002005662,-0.051005058,0.0029216795,0.01956127,0.4648816,-1.4110073,1.9405907,-2.1019127,-1.5669621,2.4381196,-0.122359246,0.14876571,-0.16483417,-0.009050615,0.044329736,-0.14175078,-0.40222588,-0.038307227,-9.385271,0.9545008,47.698532,-1.0849102,-2.1530616,-3.4292881,-0.41328096,0.078498654,-0.20008656,27.8125,28.875,28.0625,32.0,34.0625,34.9375
0.2160524,-0.2954741,-0.35478038,-1.3329619,0.0064430893,0.06479032,-0.15185566,-0.3921351,-0.34817368,0.060074046,3.0745647,-0.6213725,-0.00014932905,-0.10250604,0.0028504538,-0.0036350512,-0.049278088,0.00060253404,0.012621768,0.4646049,-1.4106936,1.9402684,-2.1019852,-1.5668663,2.4378815,-0.12422601,0.1520592,-0.16487329,-0.009449238,0.04382684,-0.13667479,-0.30645782,-0.038307227,-9.481039,0.8918391,47.67614,-1.1356016,-2.2240717,-3.3918018,-0.41319686,0.0805985,-0.28421646,27.8125,28.875,28.0625,32.0,34.0625,34.9375
0.21805172,0.4112012,0.13602324,-1.0953218,-0.0211691,0.064272426,-0.16069403,-0.39233938,-0.34818414,0.060095463,3.0744858,-0.6212039,-0.00015916677,-0.10350065,0.0040363083,-0.0025772117,-0.049020343,0.0030319192,0.009059955,0.46438837,-1.4104186,1.939897,-2.1019614,-1.5667828,2.4375699,-0.12628199,0.14970608,-0.16461995,-0.009386176,0.04251901,-0.13516866,-0.2681506,0.038307227,-9.32781,0.8291774,47.721813,-1.0633197,-2.0405402,-3.480506,-0.38864642,0.06349255,-0.31352898,27.8125,28.875,28.0625,32.0,34.0625,34.9375
0.22005177,-0.0050016926,-0.4629018,-1.0545393,-0.021072797,0.04520379,-0.15244652,-0.3925771,-0.34816256,0.06008926,3.0744069,-0.6212452,-0.00023816741,-0.10423176,0.0039778096,-0.0027575663,-0.048460864,0.002855342,0.008297975,0.4641243,-1.4100938,1.9395498,-2.1020205,-1.5667595,2.437342,-0.1264787,0.1516098,-0.16655613,-0.008931599,0.042110264,-0.13459967,-0.1340753,0.11492168,-9.251195,0.83365434,47.684196,-1.043735,-2.0299664,-3.4831898,-0.39215085,0.06322095,-0.35154969,27.8125,28.875,28.0625,32.0,34.0625,34.9375
0.22205187,-0.107745774,-0.8228149,-0.9367096,-0.0214346,0.035129774,-0.14391558,-0.3927927,-0.34815794,0.06009269,3.0742674,-0.62123656,-0.00021007686,-0.10601007,0.0036902437,-0.0019561616,-0.04869221,0.0047606938,0.0069454936,0.463848,-1.4098047,1.9392141,-2.1020443,-1.5666393,2.4370782,-0.12705314,0.15313792,-0.17027794,-0.008518366,0.04147115,-0.1338181,-0.095768064,0.24899697,-9.11712,0.91421866,47.705692,-1.0902892,-2.0475736,-3.2864263,-0.4132563,0.06933803,-0.37669545,27.8125,28.9375,28.0625,32.0,34.0625,34.9375
0.22405177,-0.22540976,-1.1464695,-0.7807987,-0.029723812,0.04330035,-0.15826143,-0.39295933,-0.34813142,0.06005345,3.0742702,-0.62112135,-6.876993e-05,-0.10749569,0.003981029,-0.0013983723,-0.04837622,0.0061955713,0.008967775,0.46360776,-1.4094924,1.9389375,-2.1020205,-1.5665678,2.4367657,-0.12822323,0.1540504,-0.17275399,-0.00806094,0.04055112,-0.13701352,-0.11492168,0.34476504,-9.11712,0.9097417,47.66987,-1.0626115,-2.0442019,-3.3493924,-0.40365905,0.07242573,-0.3751384,27.8125,28.9375,28.0625,32.0,34.0625,34.9375
0.2260519,-0.100198016,-1.1904535,-0.9812281,-0.019011773,0.04732177,-0.15489464,-0.39319196,-0.34813538,0.060092125,3.074145,-0.62103385,-0.00013664963,-0.10970768,0.0046026194,-0.00020137645,-0.04857713,0.008906144,0.014228874,0.46335503,-1.4092281,1.9385418,-2.1020086,-1.5664839,2.4364746,-0.1305518,0.15412964,-0.17569993,-0.007651801,0.039562564,-0.14459921,0.05746084,0.4405331,-9.11712,0.8314132,47.67345,-1.183617,-1.9181359,-3.261568,-0.3979348,0.06351547,-0.3516606,27.8125,28.9375,28.0625,32.0,34.0625,34.9375
0.22805198,0.25890857,-1.1695428,-0.8534711,-0.03576561,0.060008235,-0.15550499,-0.39339885,-0.348125,0.060061567,3.0740945,-0.62098145,-0.000106464235,-0.10938698,0.0040898933,-0.00041523413,-0.04651972,0.0087738205,0.022504373,0.46311578,-1.4088789,1.938219,-2.1020558,-1.5664247,2.4362092,-0.12816498,0.15560262,-0.17723258,-0.00650527,0.03781025,-0.15048994,0.038307227,0.45968673,-9.155427,0.8672237,47.684196,-1.2019552,-1.9291689,-3.263884,-0.41113442,0.07301429,-0.28497136,27.8125,28.9375,28.0625,32.0,34.0625,34.9375
0.23005208,0.07615273,-1.6147481,-1.0126028,-0.054446906,0.060416594,-0.15983735,-0.39364105,-0.3481395,0.060092427,3.0739393,-0.6209075,-0.00013547805,-0.1113148,0.005549181,-0.0012099921,-0.045294195,0.007196023,0.02769064,0.4628503,-1.4085776,1.9378008,-2.1020553,-1.5663046,2.4359176,-0.13212435,0.15895626,-0.17957044,-0.0054929396,0.0374724,-0.1596308,0.019153614,0.5363012,-9.155427,0.8940802,47.67345,-1.0896199,-2.007533,-3.3187022,-0.40450734,0.09443375,-0.18111111,27.8125,28.9375,28.0625,32.0,34.0625,34.9375
0.23205228,-0.4237223,-1.86854,-1.1408331,-0.06120949,0.051935453,-0.14686674,-0.39385727,-0.34810868,0.06007458,3.0738997,-0.62080055,-0.00013547318,-0.112369575,0.0054382365,-7.6872595e-05,-0.04564123,0.009730736,0.032951932,0.46257448,-1.4082657,1.9374894,-2.1020916,-1.5662569,2.4355803,-0.13226461,0.1582699,-0.18144578,-0.0053098164,0.03668026,-0.1650322,-0.019153614,0.59376204,-9.155427,0.8873621,47.677036,-1.1388248,-1.80955,-3.2565203,-0.42446953,0.1045571,-0.11224444,27.8125,28.9375,28.0625,32.0,34.0625,34.9375
0.23405235,-0.3052047,-2.0369365,-1.350877,-0.061233744,0.05266013,-0.14591198,-0.39406624,-0.34809864,0.06005798,3.0738835,-0.6206448,-7.676982e-05,-0.11309385,0.006337436,-0.00027552963,-0.044325132,0.009797939,0.031883977,0.4623339,-1.4079171,1.9371189,-2.1020677,-1.5661968,2.4352446,-0.13363388,0.15897186,-0.18193834,-0.004967791,0.035479747,-0.16533597,0.0,0.63206923,-9.232041,0.93436235,47.70211,-1.1357269,-1.8768035,-3.2582912,-0.43352956,0.12996873,-0.06891177,27.8125,28.9375,28.0625,32.0,34.0625,34.9375
0.23605235,-0.2453357,-1.8491555,-1.2456636,-0.070498094,0.055632714,-0.14489448,-0.39431208,-0.34809256,0.060065985,3.0737774,-0.6205686,-7.379654e-05,-0.11455203,0.0065715658,-0.0001355437,-0.044603225,0.010475819,0.02611429,0.4620454,-1.40758,1.9367112,-2.1020677,-1.5661014,2.4349222,-0.13519466,0.16053727,-0.18408029,-0.005114889,0.035426185,-0.16112357,-0.13407528,0.59376204,-9.289502,0.8672237,47.70838,-1.1118273,-1.8870809,-3.1614358,-0.43981266,0.13740343,-0.084118724,27.8125,28.9375,28.0625,32.0,34.0625,34.9375
0.23805255,-0.48477903,-1.4389215,-1.1685572,-0.055813063,0.042916596,-0.14532499,-0.3945444,-0.34807178,0.060067117,3.0737216,-0.6204827,-0.0001274435,-0.11596335,0.006964378,5.4989374e-05,-0.04454751,0.011975776,0.020057708,0.46178123,-1.4072675,1.9363526,-2.1020916,-1.5660657,2.4346118,-0.1365733,0.1615029,-0.18547289,-0.0060095526,0.03470468,-0.15644392,-0.1340753,0.47884035,-9.251195,0.8224646,47.71017,-1.0685316,-1.845855,-3.253697,-0.42851144,0.167285,-0.13066953,27.8125,28.9375,28.0625,32.0,34.0625,34.9375
0.24005264,-0.37043077,-0.6034634,-1.2088683,-0.040721823,0.05543759,-0.14520296,-0.39475846,-0.34805208,0.060033053,3.0736673,-0.6204202,-4.486856e-05,-0.11749318,0.007775491,-0.0004672624,-0.04526426,0.011281185,0.009544987,0.4615042,-1.4069065,1.9360183,-2.1021159,-1.5659813,2.4343028,-0.13984399,0.16356912,-0.18657,-0.006690231,0.035633262,-0.14919905,-0.17238252,0.34476507,-9.3661175,0.78217715,47.691364,-1.1189526,-1.8405685,-3.3287373,-0.42178684,0.17292884,-0.24020675,27.8125,28.9375,28.0625,32.0,34.0625,34.9375
0.24205187,-0.088443935,-0.17825869,-1.0224807,-0.023064148,0.07052894,-0.15470023,-0.39499956,-0.34806913,0.060052875,3.0735304,-0.62033534,-7.176455e-05,-0.11811188,0.006532567,-0.0015860418,-0.045402553,0.00928854,0.0068399413,0.46125263,-1.4065802,1.9355987,-2.1021278,-1.5658726,2.434016,-0.13874978,0.1687281,-0.19004759,-0.0066453796,0.036645435,-0.14539148,-0.19153613,0.13407528,-9.289502,0.79560274,47.690468,-1.0418599,-2.0154533,-3.3147786,-0.43527073,0.16075292,-0.29394296,27.8125,28.9375,28.0625,32.0,34.0625,34.9375
0.24405204,-0.16230696,0.47568575,-1.1439114,-0.010934859,0.08046646,-0.15251228,-0.39522517,-0.3480699,0.060056347,3.0734105,-0.62031525,-4.1951094e-05,-0.119749665,0.007988318,-0.0012687086,-0.046049066,0.010111803,-0.00040671672,0.46098694,-1.4062564,1.9352163,-2.1021278,-1.5657648,2.4337533,-0.14278318,0.1683358,-0.19026992,-0.007046683,0.036860533,-0.14217564,-0.3256114,0.1340753,-9.251195,0.8851263,47.69763,-0.88644373,-1.8748193,-3.363307,-0.42028242,0.17357302,-0.3719439,27.8125,28.9375,28.0625,32.0,34.0625,34.9375
0.24605209,-0.756475,0.12712905,-1.2928551,0.017560247,0.08323172,-0.14394581,-0.39547038,-0.3480257,0.060035292,3.073357,-0.62036175,-9.680513e-06,-0.119567856,0.007913924,-0.0018869744,-0.04385179,0.009831769,-0.001132778,0.46066377,-1.4058954,1.9348463,-2.1021278,-1.5657176,2.4334662,-0.14121136,0.17002614,-0.19093288,-0.0068323268,0.035017785,-0.13988143,-0.36391866,0.038307227,-9.32781,0.8627467,47.675243,-1.0159461,-2.0284874,-3.4324956,-0.424966,0.19908923,-0.44246984,27.8125,28.9375,28.0625,32.0,34.0625,34.9375
0.24805224,-1.0563052,0.3842223,-1.266003,0.008517478,0.0995702,-0.15085763,-0.39570594,-0.34802192,0.060022764,3.0732832,-0.620229,-5.483103e-05,-0.12007836,0.007668974,-0.0024514487,-0.044108234,0.008653285,0.0011329297,0.46041176,-1.405546,1.9344867,-2.1021998,-1.565657,2.433141,-0.14162658,0.17241988,-0.19250678,-0.0066824406,0.035797123,-0.14255677,-0.4213795,-0.15322891,-9.32781,0.79560274,47.70032,-1.1535892,-2.1030095,-3.4030266,-0.41648775,0.20000604,-0.4851728,27.8125,28.9375,28.0625,32.0,34.0625,34.9375
0.2500524,-1.3108301,0.3409487,-1.1539783,0.007674995,0.09592922,-0.14935513,-0.39596444,-0.3479926,0.060026646,3.0731785,-0.62031674,-4.339766e-05,-0.120528944,0.007394424,-0.002531268,-0.044375017,0.008039526,0.010749332,0.46008775,-1.4051973,1.9340686,-2.1021755,-1.565585,2.4328854,-0.14178398,0.1739235,-0.19430138,-0.00589059,0.036360584,-0.15232703,-0.28730422,-0.11492168,-9.423578,0.91198283,47.675243,-1.152236,-2.1328146,-3.3802962,-0.41466558,0.20626143,-0.43957007,27.8125,28.9375,28.0625,32.0,34.0625,34.9375
0.25205243,-1.7025045,0.45482624,-1.2014093,-0.010591443,0.095053904,-0.14709197,-0.39619046,-0.34795585,0.059993546,3.0731552,-0.6202697,4.40457e-05,-0.12192594,0.0076528913,-0.0024049468,-0.04468002,0.008184151,0.018247638,0.4597869,-1.4048243,1.933709,-2.102163,-1.5655249,2.4325583,-0.14351524,0.17561826,-0.19673805,-0.005347043,0.03660614,-0.161556,-0.47884035,-0.095768064,-9.385271,0.8247004,47.65643,-1.17334,-2.216901,-3.337313,-0.4578003,0.23767853,-0.3511846,27.8125,28.9375,28.0625,32.0,34.0625,34.9375
0.2540524,-1.1906158,-0.12654305,-1.3663285,-0.0038357577,0.10084855,-0.14779963,-0.3964269,-0.34796306,0.059999857,3.0730987,-0.6200419,2.5358158e-05,-0.122843474,0.008056082,-0.0021348505,-0.04559799,0.008294862,0.027586048,0.45954648,-1.4044757,1.9332908,-2.102163,-1.5654525,2.432183,-0.14545497,0.17586128,-0.19776738,-0.004990917,0.03744123,-0.17282951,-0.5554548,-0.05746084,-9.404425,0.9298854,47.68599,-1.1231999,-2.0919461,-3.4378881,-0.44772458,0.23666501,-0.24616686,27.8125,28.9375,28.0625,32.0,34.0625,34.9375
0.25605243,-1.2084045,-0.08707137,-1.4899789,-0.0014220057,0.088645004,-0.14699322,-0.39670214,-0.34794572,0.060015358,3.0729675,-0.61999327,-4.046789e-05,-0.123768575,0.008584484,-0.0024126833,-0.045111936,0.008105123,0.032117598,0.45922193,-1.4041386,1.9328731,-2.1021988,-1.5653685,2.4318452,-0.1468769,0.17735821,-0.19895485,-0.004855553,0.037140895,-0.17877911,-0.49799395,-0.019153614,-9.442732,0.92093146,47.686886,-1.1116879,-2.3531077,-3.4689422,-0.44918537,0.2540172,-0.16811843,27.8125,28.9375,28.0625,32.0,34.0625,34.9375
0.25805196,-1.04719,-0.16837771,-1.4843227,-0.008103017,0.09964421,-0.14343731,-0.39692798,-0.3479181,0.059994273,3.072964,-0.61989725,3.330964e-05,-0.1243224,0.008520851,-0.003155601,-0.04401013,0.007957411,0.032050885,0.45894608,-1.4037657,1.9324778,-2.1021516,-1.5653213,2.43151,-0.1465604,0.17990671,-0.20011544,-0.0056028566,0.036215723,-0.1783984,-0.7469909,-0.019153614,-9.481039,0.85155696,47.698532,-1.0798013,-2.250019,-3.458664,-0.4443562,0.28237414,-0.13119596,27.8125,28.9375,28.0625,32.0,34.0625,34.9375
0.26005185,-1.239779,-0.46582547,-1.4100542,-0.011430267,0.10380745,-0.13577935,-0.39719954,-0.34790996,0.059990495,3.0728388,-0.61979944,-7.406354e-06,-0.1256902,0.0088214595,-0.0031210128,-0.04506638,0.007643665,0.023490096,0.45863324,-1.4033928,1.9320706,-2.1022232,-1.5652245,2.4311523,-0.14884628,0.18146522,-0.20211366,-0.005358868,0.037298683,-0.17211574,-0.8810662,0.05746084,-9.423578,0.83365434,47.696735,-1.0007303,-2.2279358,-3.5135927,-0.44533634,0.30531448,-0.15763779,27.8125,28.9375,28.0625,32.0,34.0625,34.9375
0.2620522,-1.3342949,-0.40518895,-1.3811519,-0.016892793,0.11395635,-0.1430141,-0.39743343,-0.34789717,0.05997892,3.0727608,-0.6197286,5.632575e-05,-0.12605721,0.00803521,-0.0030058073,-0.047434963,0.007036658,0.01708688,0.45834526,-1.4030321,1.9316758,-2.1022108,-1.5651277,2.4308302,-0.14918636,0.18240902,-0.20350456,-0.00543023,0.039673924,-0.16604453,-0.7661445,0.1340753,-9.461885,0.91198283,47.668976,-1.157931,-2.2399747,-3.486168,-0.45498735,0.3039296,-0.25837907,27.8125,28.9375,28.0625,32.0,34.0625,34.9375
0.26405197,-1.2623426,-0.62175906,-1.3816319,-0.028640872,0.11877006,-0.13745007,-0.39770117,-0.34787214,0.059975624,3.0727005,-0.61966085,9.540415e-07,-0.12750687,0.007383938,-0.0017225891,-0.049180426,0.009229885,0.014211829,0.45804507,-1.4026598,1.9312567,-2.1022346,-1.5650915,2.4304957,-0.14956649,0.1825607,-0.20673738,-0.005086186,0.040272553,-0.16354385,-0.61291564,0.15322891,-9.500193,0.9455522,47.69763,-1.1460189,-2.2112908,-3.4121847,-0.4574809,0.30657306,-0.33043838,27.8125,28.9375,28.0625,32.0,34.0625,34.9375
0.266052,-0.836094,-0.77263,-1.3589549,-0.03399701,0.112992905,-0.14083885,-0.3979644,-0.34784585,0.059963375,3.0725977,-0.6196797,4.9313945e-05,-0.12874508,0.006962974,-0.0008489211,-0.050686598,0.010624275,0.009924786,0.45770875,-1.4022751,1.930838,-2.1022341,-1.5649952,2.4301846,-0.15024261,0.18298571,-0.20933902,-0.004819791,0.041002326,-0.15992847,-0.49799395,0.17238252,-9.385271,0.8672237,47.66091,-1.1950251,-2.2225547,-3.4615645,-0.4748577,0.33283496,-0.37717605,27.8125,28.9375,28.0625,32.0,34.0625,34.9375
0.26805195,-0.5819482,-1.0773526,-1.6758856,-0.02708408,0.09141482,-0.14172329,-0.39821145,-0.3478321,0.059960518,3.0724983,-0.61960036,6.531404e-05,-0.13001606,0.006890503,-0.0011060432,-0.051025603,0.010675054,0.011180767,0.4574087,-1.4019259,1.9304422,-2.102247,-1.5648988,2.429848,-0.15129699,0.1854676,-0.21160805,-0.005187987,0.0413074,-0.16223437,-0.4213795,0.21068975,-9.442732,0.900793,47.67345,-1.2571309,-2.1545079,-3.4422371,-0.47014275,0.3438747,-0.37815636,27.8125,28.9375,28.0625,32.0,34.0625,34.9375
0.27005205,0.07570285,-0.9152133,-1.5785047,-0.036658064,0.0818152,-0.14920004,-0.39848158,-0.34780827,0.05994115,3.0724652,-0.61951315,5.626642e-05,-0.13000104,0.006086658,-0.001019598,-0.05198322,0.010678461,0.017655488,0.45710918,-1.4015055,1.9300007,-2.102259,-1.5648626,2.4294984,-0.15032,0.18618408,-0.21270655,-0.0051847533,0.042202026,-0.16772786,-0.22984336,0.30645782,-9.5385,0.8717007,47.661808,-1.2447335,-2.064324,-3.4419036,-0.47359675,0.3590485,-0.37218195,27.8125,28.9375,28.0625,32.0,34.0625,34.9375
0.27205193,-0.022491012,-1.2818191,-1.848163,-0.048689306,0.0713439,-0.15000032,-0.39875743,-0.34776476,0.05994613,3.072371,-0.619508,4.9438877e-05,-0.13177773,0.0069215167,-0.001177992,-0.052310217,0.010745115,0.025559213,0.4567479,-1.4011563,1.929581,-2.102247,-1.5647906,2.4291463,-0.1533998,0.18809327,-0.21459007,-0.005323829,0.04253236,-0.17870732,-0.17238252,0.3256114,-9.557653,0.88289046,47.660015,-1.0937241,-2.1028454,-3.422877,-0.47360215,0.36160666,-0.29114503,27.8125,28.9375,28.0625,32.0,34.0625,34.9375
0.2740519,-0.23688641,-1.649953,-1.9129494,-0.05397967,0.060429182,-0.13811705,-0.39901593,-0.34773186,0.05991522,3.07235,-0.6194222,9.520605e-05,-0.13258705,0.006956302,-0.0007516416,-0.05384302,0.011338812,0.03441607,0.45643556,-1.4007361,1.9291629,-2.102247,-1.5647424,2.4287832,-0.15477823,0.18805414,-0.21555352,-0.00545149,0.043699756,-0.18893924,-0.05746084,0.34476504,-9.595961,1.005978,47.69763,-1.1464002,-2.0871618,-3.567758,-0.4760049,0.37638897,-0.19701761,27.8125,28.9375,28.0625,32.0,34.0625,34.9375
0.27605185,0.58605134,-1.9157072,-1.8277259,-0.061259177,0.07945472,-0.14622904,-0.39928937,-0.3477345,0.05992116,3.0722349,-0.6192637,7.9402445e-05,-0.1357064,0.0069422466,0.00021239405,-0.056229208,0.012859725,0.033973373,0.45613447,-1.400351,1.9287075,-2.1022708,-1.5646337,2.4283981,-0.1582749,0.19054312,-0.22078127,-0.0050825845,0.045203388,-0.1919822,0.019153614,0.36391866,-9.653421,0.8493211,47.67345,-0.9793019,-2.1095798,-3.5593355,-0.4856376,0.38089606,-0.11993538,27.8125,28.9375,28.0625,32.0,34.0625,34.9375
0.27805194,0.24769011,-1.6141887,-1.6214504,-0.057555206,0.052664883,-0.13503103,-0.3995608,-0.3477018,0.05992353,3.072122,-0.6192441,0.00012335874,-0.13766676,0.0068420996,0.00025847807,-0.058205932,0.012809742,0.028642144,0.45577347,-1.3999891,1.928276,-2.102247,-1.564525,2.4280396,-0.16079387,0.19321518,-0.22398236,-0.0053654416,0.0470015,-0.18916053,0.095768064,0.36391866,-9.710882,0.9321212,47.72629,-0.8332689,-2.1796534,-3.4388466,-0.48393077,0.3830524,-0.0803963,27.8125,28.9375,28.0625,32.0,34.0625,34.9375
0.28005186,0.7525323,-1.1358856,-1.8198738,-0.045615118,0.036904875,-0.13729912,-0.39984658,-0.34769776,0.05992839,3.0720057,-0.61912876,2.9847706e-05,-0.13765071,0.0065270956,-0.00051488663,-0.059419654,0.011111284,0.021200197,0.45547357,-1.3996048,1.9278344,-2.1023185,-1.5644525,2.4276829,-0.16125496,0.19490615,-0.22411256,-0.0059571075,0.04883921,-0.18216732,0.095768064,0.3256114,-9.653421,0.81351066,47.685097,-0.8658532,-2.1483774,-3.380499,-0.4779271,0.3719067,-0.16848221,27.8125,28.9375,28.0625,32.0,34.0625,34.9375
0.28205183,0.89997953,-1.301684,-1.6597695,-0.043701187,0.03180356,-0.14526838,-0.40012336,-0.34769094,0.059921827,3.071902,-0.61903393,3.1415682e-05,-0.13801993,0.0059135105,-0.0002041258,-0.06156571,0.011274659,0.01437641,0.45516136,-1.3991964,1.92738,-2.1023433,-1.5643557,2.427325,-0.16152947,0.19511938,-0.22503832,-0.006349958,0.05068454,-0.17560804,0.038307227,0.45968673,-9.5385,0.8403672,47.71286,-0.9134715,-2.1561208,-3.4404073,-0.47504225,0.3664589,-0.2527686,27.8125,28.9375,28.0625,32.0,34.0625,34.9375
0.28405198,0.80491537,-1.3902761,-1.5371959,-0.062049348,0.032288954,-0.14447837,-0.4003792,-0.34766397,0.059912637,3.0717924,-0.619073,0.00010589769,-0.13825898,0.005837792,-0.00096442614,-0.06363897,0.008865621,0.0069586327,0.4548247,-1.3988233,1.9269613,-2.102319,-1.564247,2.427027,-0.16330947,0.19683339,-0.225312,-0.0065476964,0.053593144,-0.16995905,0.076614454,0.49799395,-9.461885,0.8851263,47.67614,-0.87541544,-2.11194,-3.4190202,-0.46572798,0.32907766,-0.33100617,27.8125,28.9375,28.0625,32.0,34.0625,34.9375
0.2860519,0.76275015,-1.796883,-1.721661,-0.06619835,0.02929042,-0.15407392,-0.40065402,-0.3476678,0.059896525,3.0716941,-0.61897683,0.0001512149,-0.13828129,0.004065872,-0.00096858287,-0.06680982,0.007231875,0.0034806791,0.45452526,-1.3983781,1.9264826,-2.102331,-1.5641373,2.4266803,-0.16234277,0.19891421,-0.2279265,-0.0059456755,0.057151686,-0.16549857,0.24899697,0.49799395,-9.557653,0.9634547,47.66539,-1.0630348,-2.1823366,-3.4680345,-0.46327463,0.29731107,-0.42098612,27.8125,28.9375,28.0625,32.0,34.0625,34.9375
0.28805193,0.75987154,-2.0366411,-1.3996335,-0.07729004,0.03800612,-0.14639738,-0.40094095,-0.34765077,0.05990068,3.0715384,-0.6189647,0.00017244866,-0.13932265,0.0039400267,-0.00051886926,-0.06833038,0.0072555477,0.0021041306,0.45416495,-1.3979933,1.9260281,-2.1023428,-1.5640053,2.4263327,-0.16374014,0.19972754,-0.23012246,-0.0052138683,0.058531016,-0.16550928,0.19153613,0.4405331,-9.3661175,0.8940802,47.687782,-0.9262222,-2.1770363,-3.5123549,-0.47324473,0.28189465,-0.51367664,27.8125,28.9375,28.0625,32.0,34.0625,34.9375
0.29005185,0.6528213,-1.7602049,-1.2398909,-0.06675064,0.024428004,-0.15315439,-0.40121952,-0.34764123,0.0599132,3.0714014,-0.61887705,0.00014126296,-0.14039223,0.0036994992,-0.000821302,-0.07118976,0.0053697303,0.005386441,0.4538398,-1.3976322,1.9255847,-2.1023667,-1.5638961,2.4259708,-0.16627699,0.20199282,-0.23219046,-0.0049060294,0.061982717,-0.1713091,0.17238252,0.4213795,-9.3661175,0.8851263,47.678825,-0.9099827,-2.2099767,-3.5394087,-0.48819286,0.2395741,-0.48114067,27.8125,28.9375,28.0625,32.0,34.0625,34.9375
0.29205188,0.87481403,-1.0292431,-1.3512001,-0.04862275,0.027341377,-0.1586003,-0.4015016,-0.34765503,0.059908774,3.071245,-0.6187598,0.0002106729,-0.14220211,0.0033505398,8.4586914e-05,-0.072526105,0.007581092,0.018264016,0.4535156,-1.3971993,1.9250935,-2.1023786,-1.5637282,2.4255936,-0.16727307,0.20301934,-0.23547831,-0.005073954,0.062302366,-0.18517658,0.17238252,0.4405331,-9.423578,0.8940802,47.698532,-0.81759703,-2.1894393,-3.4330664,-0.4777841,0.20755121,-0.3674243,27.8125,28.9375,28.0625,32.0,34.0625,34.9375
0.29405192,0.47977823,-0.7277232,-1.3307985,-0.036505636,0.025143074,-0.15212908,-0.4017802,-0.34764004,0.059888028,3.071126,-0.6187112,0.0002917876,-0.1446041,0.0036638053,0.00040068972,-0.07424947,0.008658185,0.026605282,0.45316666,-1.3967664,1.9246391,-2.1023905,-1.5635957,2.4252298,-0.17045474,0.20515491,-0.23862219,-0.0056649274,0.06345107,-0.19669221,0.17238252,0.3256114,-9.442732,0.98135734,47.71465,-0.81893075,-2.2918963,-3.4292254,-0.4648105,0.19212884,-0.25951543,27.8125,28.9375,28.0625,32.0,34.0625,34.9375
0.29605198,-0.22177571,-0.9044356,-1.1701282,-0.02739619,0.034613766,-0.14309461,-0.40206495,-0.34763598,0.059895158,3.0710034,-0.618529,0.00031275215,-0.14440742,0.0015393513,0.0009528936,-0.077455334,0.009051427,0.03443624,0.45283154,-1.3963698,1.9241608,-2.1023905,-1.5634626,2.4247968,-0.16816561,0.20582843,-0.24063851,-0.0060011484,0.06621509,-0.202218,-0.019153614,0.40222588,-9.289503,0.90527004,47.675243,-0.9677805,-2.1780157,-3.380943,-0.46118492,0.13813226,-0.16576037,27.8125,28.9375,28.0625,32.0,34.0625,34.9375
0.2980525,0.18231805,-1.0049489,-0.9571451,-0.03593691,0.073881105,-0.15340964,-0.40234154,-0.34763366,0.059885845,3.0708883,-0.6183919,0.00036253352,-0.14484833,0.0012913414,0.0014882582,-0.077452295,0.01004168,0.031903412,0.45250764,-1.3959496,1.923695,-2.1024024,-1.563331,2.4244022,-0.16769114,0.20589474,-0.24213955,-0.0054281396,0.0657866,-0.1992083,-0.1340753,0.30645782,-9.32781,0.92093146,47.694946,-0.970917,-2.0961895,-3.3716908,-0.46311146,0.08948158,-0.15590096,27.8125,28.9375,28.0625,32.0,34.0625,34.9375
0.30005258,-0.8134232,-1.0170535,-1.2289858,-0.031343427,0.076275714,-0.14142308,-0.4026314,-0.34763578,0.059909195,3.0707505,-0.61830914,0.00032799673,-0.14625166,0.0015039714,0.0030607805,-0.077025265,0.013101988,0.024924006,0.45219553,-1.3955656,1.9231914,-2.10239,-1.5632232,2.4240565,-0.1680221,0.20487493,-0.24486554,-0.0042496924,0.06406075,-0.19255897,-0.34476504,0.3256114,-9.346964,0.94331104,47.66271,-1.0120583,-2.0337026,-3.3166552,-0.47929606,0.102151796,-0.2287735,27.8125,28.9375,28.0625,32.0,34.0625,34.9375
0.30205202,-0.76302093,-0.5511866,-1.0564815,-0.02898159,0.10009827,-0.15346478,-0.40289927,-0.34763512,0.059891425,3.070628,-0.6181714,0.00045632297,-0.1468566,0.0013951437,0.003600521,-0.07665024,0.013964033,0.020928895,0.4518597,-1.395133,1.9227246,-2.1023777,-1.5630554,2.4236505,-0.16774587,0.20521757,-0.24680227,-0.0032434554,0.06334115,-0.18828866,-0.38307226,0.30645782,-9.3661175,0.8157518,47.699425,-1.0904802,-1.9274273,-3.1315305,-0.501331,0.08284022,-0.30253452,27.8125,28.9375,28.0625,32.0,34.0625,34.9375
0.304052,-1.0950117,0.018993482,-1.1448091,-0.018832393,0.10717354,-0.16417538,-0.40319005,-0.34764072,0.059886806,3.0704627,-0.61811876,0.00050035544,-0.14747554,0.002150302,0.0032948514,-0.073903225,0.014362414,0.0187625,0.4515237,-1.3946999,1.9222354,-2.1024015,-1.5629004,2.4233031,-0.16778019,0.20658217,-0.2479427,-0.00258389,0.06071325,-0.18616204,-0.38307226,0.26815057,-9.5385,0.9186956,47.67614,-1.1511643,-1.9127111,-3.2963722,-0.497065,0.06716098,-0.35640803,27.8125,28.9375,28.0625,32.0,34.0625,34.9375
0.30605215,-1.6671635,0.33508784,-1.167368,-0.011086936,0.11061756,-0.15191701,-0.40348884,-0.34762824,0.059876278,3.0703619,-0.6180206,0.0005003449,-0.1480401,0.0035213113,0.0019241873,-0.070205085,0.013267377,0.018280149,0.45118743,-1.3942549,1.9217452,-2.1024253,-1.5628055,2.4229188,-0.16872256,0.209349,-0.2481904,-0.0024529286,0.057892904,-0.18662949,-0.47884035,0.095768064,-9.423578,1.0216395,47.698532,-1.1785711,-1.8365965,-3.4876132,-0.48817462,0.10669637,-0.38832486,27.8125,28.9375,28.0625,32.0,34.0625,34.9375
0.30805203,-1.994103,-0.045160845,-1.0466508,0.0015881159,0.11920674,-0.14937903,-0.40381867,-0.34763968,0.059929144,3.0701613,-0.6179171,0.000359222,-0.14819522,0.004412343,0.0011885412,-0.06713792,0.01379155,0.025278011,0.4508516,-1.393882,1.9211954,-2.1024492,-1.5626863,2.4225447,-0.16841555,0.21038958,-0.24767934,-0.003034034,0.054993905,-0.19332221,-0.59376204,0.038307227,-9.385271,0.97464454,47.71286,-1.2220074,-1.8694062,-3.603394,-0.5069426,0.11366163,-0.3461028,27.8125,28.9375,28.0625,32.0,34.0625,34.9375
0.31005198,-1.8630056,0.08463288,-1.0137919,0.002625993,0.12658377,-0.15782665,-0.4040922,-0.3476187,0.05989197,3.0700977,-0.6178411,0.0004736892,-0.1496133,0.0053929673,0.0009588716,-0.065114565,0.015411338,0.035159606,0.45051506,-1.3934131,1.9207295,-2.1024382,-1.5625795,2.422169,-0.1696379,0.21189287,-0.24884006,-0.0038155336,0.05253805,-0.20443767,-0.61291564,0.05746084,-9.481039,0.96569055,47.684196,-1.1936793,-1.9470305,-3.650859,-0.50039834,0.13455974,-0.26092228,27.8125,28.9375,28.0625,32.0,34.0625,34.9375
0.3120519,-1.3001513,0.5110442,-1.0715506,-0.0012581436,0.12852307,-0.16899171,-0.40440747,-0.34762475,0.059928432,3.0699718,-0.6176001,0.00039568858,-0.15140766,0.0063114897,-0.00011157639,-0.06267052,0.015351443,0.042768788,0.45019034,-1.393015,1.9201788,-2.1024258,-1.5624722,2.4217103,-0.17129083,0.21609764,-0.2512934,-0.00432684,0.050454035,-0.21370097,-0.45968673,-0.019153614,-9.442732,1.0305934,47.687782,-1.1813002,-2.0946705,-3.6391416,-0.48731324,0.16504559,-0.12465648,27.8125,28.9375,28.0625,32.0,34.0625,34.9375
0.31405184,-1.0012952,0.32768983,-1.3048679,0.010472994,0.09983632,-0.16314791,-0.40472236,-0.34759352,0.059921134,3.0698876,-0.6174854,0.00033001468,-0.15217029,0.0058065234,-0.00031469937,-0.06124968,0.015874177,0.044275958,0.4498312,-1.3925815,1.9196995,-2.102474,-1.5624126,2.4212906,-0.16996427,0.21882448,-0.25419995,-0.0039623077,0.048977576,-0.2138824,-0.38307226,-0.038307227,-9.557653,0.9545008,47.704796,-1.4186021,-2.128125,-3.5434494,-0.4960324,0.19958457,-0.070799455,27.8125,28.9375,28.0625,32.0,34.0625,34.9375
0.31605172,-1.1589354,-0.13797045,-1.3113815,0.0015917787,0.0780743,-0.14701575,-0.40500763,-0.34757516,0.05990611,3.0698178,-0.61736,0.0004418199,-0.15355675,0.006896532,-0.0006136512,-0.058835026,0.016314737,0.036213845,0.44948274,-1.3921247,1.9191855,-2.1024134,-1.5622939,2.420873,-0.17137653,0.22082323,-0.2560902,-0.003422999,0.046581976,-0.20724268,-0.49799395,-0.019153614,-9.500193,0.9365982,47.678825,-1.4139777,-2.2894955,-3.500742,-0.48722994,0.22875893,-0.11637376,27.8125,28.9375,28.0625,32.0,34.0625,34.9375
0.31805184,-1.4931594,-0.9256258,-1.349472,-0.005083547,0.061088018,-0.14442115,-0.40534183,-0.34758562,0.059934277,3.0696502,-0.6172161,0.0002906012,-0.15627305,0.008163819,7.064098e-05,-0.05866817,0.018124936,0.024183244,0.44915757,-1.391704,1.9186462,-2.1024854,-1.5621976,2.42048,-0.17511836,0.22205587,-0.25924703,-0.0030888277,0.045640737,-0.19894817,-0.49799395,0.24899697,-9.385271,0.9388393,47.687782,-1.3829397,-2.0648038,-3.4464083,-0.49585253,0.2579288,-0.19113716,27.8125,28.9375,28.0625,32.0,34.0625,34.9375
0.3200518,-0.5519498,-0.8278048,-1.657844,-0.037024368,0.07361825,-0.15365978,-0.40561616,-0.34754255,0.05990229,3.069639,-0.6170826,0.00042708014,-0.15732141,0.007547857,0.00070867455,-0.05974311,0.019317584,0.018092716,0.44879776,-1.391247,1.9181675,-2.1024134,-1.5621136,2.4200382,-0.17503384,0.2230198,-0.26195922,-0.0029029332,0.0460533,-0.19277218,-0.24899697,0.19153613,-9.557653,0.92093146,47.66987,-1.4251719,-2.155756,-3.389535,-0.4940011,0.28141364,-0.28015235,27.8125,28.9375,28.0625,32.0,34.0625,34.9375
0.32205185,-0.8799498,-1.7289865,-1.4143863,-0.05470551,0.057346795,-0.14776374,-0.40598902,-0.3474817,0.059921112,3.0695126,-0.61723435,0.0002297011,-0.1595205,0.00792194,0.0017537797,-0.06087324,0.021360455,0.008698369,0.4483769,-1.3908142,1.9176286,-2.1024616,-1.5621136,2.4197292,-0.1774236,0.22361635,-0.26516968,-0.0026611567,0.046183486,-0.18575846,-0.3256114,0.21068975,-9.653421,0.91421866,47.67614,-1.2422527,-2.0604062,-3.3046408,-0.5183294,0.3199649,-0.40743026,27.8125,28.9375,28.0625,32.0,34.0625,34.9375
0.32405195,-0.4089028,-1.5863535,-1.260392,-0.07720561,0.058383133,-0.16288875,-0.40629306,-0.34749463,0.059943717,3.0693552,-0.61710626,0.00023158113,-0.16083217,0.008069294,0.0020025875,-0.062413007,0.021382034,0.0069311857,0.448052,-1.3903933,1.9170793,-2.1024377,-1.5619687,2.419345,-0.17950134,0.22475609,-0.26719525,-0.002422449,0.047594108,-0.1860568,-0.40222588,0.30645782,-9.481039,0.92764956,47.664497,-1.1507158,-2.1853676,-3.2772315,-0.4950683,0.32749015,-0.48478705,27.8125,28.9375,28.0625,32.0,34.0625,34.9375
0.32605228,-0.7850302,-1.344597,-1.870448,-0.04738735,0.038505036,-0.16094574,-0.4066149,-0.3474783,0.059918668,3.0692651,-0.61698574,0.0002458387,-0.16162427,0.007659167,0.002930468,-0.06482944,0.0224798,0.01479354,0.44769195,-1.3898888,1.9165534,-2.1024735,-1.5618724,2.4189215,-0.18039209,0.22417113,-0.26875404,-0.0022087097,0.04937793,-0.19479872,-0.17238252,0.3256114,-9.634268,0.96569055,47.691364,-1.1363809,-2.1191618,-3.42416,-0.52617586,0.34710336,-0.45631474,27.8125,28.9375,28.0625,32.0,34.0625,34.9375
0.3280518,-0.14574164,-1.3005539,-1.5628531,-0.04984356,0.067646146,-0.16698064,-0.4069221,-0.34746158,0.059933152,3.0691671,-0.6167874,0.00021526475,-0.16181023,0.007655633,0.0024009696,-0.06766135,0.020208623,0.025663214,0.44734308,-1.3894805,1.9160393,-2.1024616,-1.5617746,2.4184616,-0.18266058,0.22512372,-0.2687196,-0.0022332114,0.053034592,-0.20791477,-0.11492168,0.34476504,-9.768343,0.84708,47.71017,-1.0821981,-1.996733,-3.4767778,-0.50644314,0.33679366,-0.33988726,27.8125,28.9375,28.0625,32.0,34.0625,34.9375
0.33005166,-0.61248434,-1.5341873,-1.2616354,-0.057768777,0.070187844,-0.16725492,-0.40727115,-0.3474385,0.059945576,3.0689988,-0.6167847,0.00017794764,-0.16164637,0.008269689,0.001323615,-0.066796534,0.018330665,0.034666885,0.44693485,-1.3890237,1.9154786,-2.102473,-1.5616554,2.418074,-0.18348095,0.22662592,-0.26815695,-0.002096206,0.053176586,-0.21773323,-0.19153613,0.34476504,-9.5385,1.0283576,47.660015,-1.1136823,-1.9322817,-3.5957823,-0.52363724,0.31796563,-0.21593425,27.8125,28.9375,28.0625,32.0,34.0625,34.9375
0.33205256,-1.2841258,-1.3123568,-1.4130061,-0.047437884,0.052818373,-0.16284084,-0.40758342,-0.34742117,0.05993832,3.0689118,-0.6166331,0.00021711776,-0.1629219,0.0084831705,0.0016750846,-0.06787749,0.019101199,0.033752326,0.44657442,-1.3885547,1.9149398,-2.1024492,-1.5615467,2.4176302,-0.18516229,0.22735403,-0.26986772,-0.0022281,0.053846076,-0.21849379,-0.2681506,0.30645782,-9.423578,0.9925471,47.686886,-1.0630118,-1.8592312,-3.6065578,-0.50627816,0.34924296,-0.15264344,27.8125,28.9375,28.0625,32.0,34.0625,34.9375
0.33405322,-0.911703,-0.6465863,-0.9853879,-0.047092278,0.07116396,-0.15853038,-0.407925,-0.3474179,0.05994733,3.068764,-0.6164524,0.00011942184,-0.16354045,0.0074528246,0.0020831102,-0.0698978,0.019614022,0.028080638,0.44621456,-1.388098,1.9144005,-2.1025217,-1.5614384,2.417177,-0.18470177,0.2284005,-0.2720478,-0.0024488184,0.055450346,-0.21234372,-0.36391866,0.19153613,-9.423578,0.91421866,47.696735,-0.9608308,-1.7661644,-3.5859346,-0.52726716,0.35506743,-0.2182838,27.8125,28.9375,28.0625,32.0,34.0625,34.9375
0.33605272,-1.1771051,-0.13394673,-1.0514485,-0.013684708,0.056542568,-0.15759225,-0.40828264,-0.34741086,0.059982248,3.0686035,-0.61642396,3.1506275e-05,-0.16530694,0.006986436,0.0024250734,-0.07335801,0.019750109,0.019422542,0.4458417,-1.3876411,1.9137796,-2.1024973,-1.5613407,2.4168077,-0.18708266,0.23024818,-0.27491644,-0.0030715743,0.058509257,-0.20604041,-0.1340753,0.19153614,-9.251195,0.9455522,47.687782,-0.95780504,-1.874811,-3.5428228,-0.50598395,0.31987542,-0.29092458,27.8125,28.9375,28.0625,32.0,34.0625,34.9375
0.33805174,-0.14418022,0.096152455,-1.2282585,0.02229952,0.053095207,-0.16779116,-0.4085885,-0.34739316,0.059958678,3.068457,-0.61637497,0.000113993876,-0.16723166,0.00652547,0.002510892,-0.074358664,0.020997457,0.016167799,0.4454576,-1.3871715,1.913288,-2.1025221,-1.5611848,2.416412,-0.18793419,0.23321031,-0.27846664,-0.004010064,0.058876384,-0.2036308,-0.019153614,0.15322891,-9.404425,1.0373062,47.709274,-1.0193268,-2.0542748,-3.4290843,-0.48974553,0.3221475,-0.36711818,27.8125,28.9375,28.0625,32.0,34.0625,34.9375
0.34005257,-0.25076607,0.34775335,-1.0326456,0.008559319,0.042906404,-0.17101964,-0.40890995,-0.3473976,0.059960578,3.0683308,-0.6161935,9.081517e-05,-0.16855364,0.005869962,0.0018714563,-0.07467803,0.020286718,0.017671071,0.44512165,-1.3867017,1.9127377,-2.102546,-1.5610646,2.4159794,-0.1881136,0.23748167,-0.2821137,-0.0040724124,0.05951277,-0.20530228,-0.076614454,0.21068975,-9.32781,0.9768804,47.704796,-1.11483,-2.158465,-3.3637714,-0.46060526,0.33587506,-0.36835703,27.8125,28.9375,28.0625,32.0,34.0625,34.9375
0.3420525,-0.7394554,-0.4379468,-1.3192015,0.0012073434,0.03204902,-0.165,-0.40926665,-0.34737357,0.059970193,3.0681798,-0.61617714,5.4713983e-05,-0.16757347,0.0043046926,0.0020990688,-0.07654847,0.019972622,0.026696974,0.4447144,-1.3862213,1.9121517,-2.102546,-1.5609559,2.415582,-0.1855632,0.23729423,-0.28253773,-0.003879663,0.061424945,-0.2117614,-0.1340753,0.24899697,-9.212888,0.92093146,47.67614,-1.2677164,-2.0735795,-3.2006063,-0.454758,0.30941808,-0.3467705,27.8125,28.9375,28.0625,32.0,34.0625,34.9375
0.3440523,-0.49663728,-0.9816394,-1.3512698,-0.02084554,0.053657148,-0.16889253,-0.4095968,-0.34736198,0.05999038,3.0681012,-0.61590296,-4.242144e-06,-0.16843492,0.003435445,0.0022827338,-0.07843482,0.019442258,0.038783625,0.44436648,-1.3857764,1.9115776,-2.1025217,-1.5608715,2.4150732,-0.1858688,0.23939046,-0.2857011,-0.00299132,0.063482255,-0.224135,-0.1340753,0.3256114,-9.308657,0.92764956,47.685097,-1.2999237,-1.9788384,-3.3500154,-0.46215278,0.29914725,-0.22051011,27.8125,28.9375,28.0625,32.0,34.0625,34.9375
0.34605247,-0.871169,-1.815212,-1.4452034,-0.054482274,0.06588007,-0.1605734,-0.40992665,-0.34733966,0.059980106,3.0679789,-0.61583495,5.87084e-05,-0.16860713,0.0030627963,0.0017753919,-0.07921474,0.017578144,0.046505116,0.44397044,-1.385283,1.9110154,-2.1024969,-1.5607389,2.4146507,-0.18616211,0.24148671,-0.28734776,-0.0019639041,0.065075345,-0.23213789,-0.019153614,0.34476504,-9.500193,1.0261165,47.67614,-1.4547267,-2.0629358,-3.392611,-0.47361642,0.30387148,-0.11224793,27.8125,28.9375,28.0625,32.0,34.0625,34.9375
0.3480525,-1.4373202,-2.9025168,-1.463501,-0.07503833,0.046045955,-0.15005937,-0.41026178,-0.3473262,0.0599847,3.06786,-0.61560255,6.0713643e-05,-0.1691309,0.003552294,0.001449044,-0.08099187,0.015248812,0.04307512,0.44358552,-1.3848139,1.9104537,-2.1024964,-1.5606059,2.4141362,-0.18889457,0.24247153,-0.28811303,-0.00080344285,0.06771635,-0.2314187,-0.038307227,0.51714754,-9.442732,0.95002913,47.674347,-1.3890285,-1.9289358,-3.4672604,-0.47482824,0.25493342,-0.074122086,27.8125,28.9375,28.0625,32.0,34.0625,34.9375
0.3500524,-0.7228366,-2.9566398,-1.4020323,-0.09234335,0.040832706,-0.1482049,-0.41060203,-0.34732887,0.05999566,3.0677295,-0.6154269,6.1363564e-05,-0.17008293,0.0030295493,0.0017838171,-0.08280255,0.015221448,0.034162313,0.44322535,-1.3843211,1.9098438,-2.1024725,-1.5604738,2.4136834,-0.18958832,0.24375871,-0.2905638,-0.00042705375,0.06933575,-0.2231823,-0.19153614,0.61291564,-9.442732,0.8717007,47.68062,-1.3575172,-1.9841611,-3.3691142,-0.48167473,0.2190482,-0.12620138,27.8125,28.9375,28.0625,32.0,34.0625,34.9375
0.35205266,-0.5714854,-2.59639,-1.5242358,-0.08720524,0.02003597,-0.1510574,-0.4109776,-0.34731206,0.06001787,3.067556,-0.6153771,-3.5382145e-05,-0.17028002,0.0032155407,0.0011484595,-0.08475556,0.012990916,0.023056477,0.4428168,-1.3838403,1.9092335,-2.1024964,-1.5603646,2.413267,-0.19153878,0.24487098,-0.2905013,-0.0004756154,0.0720394,-0.21399912,-0.22984336,0.6703765,-9.346964,0.9186956,47.67614,-1.2653878,-1.9266684,-3.510619,-0.48195845,0.23729634,-0.2372501,27.8125,28.9375,28.0625,32.0,34.0625,34.9375
0.35405174,-0.12221069,-2.495197,-1.5904244,-0.057198618,0.006906936,-0.14714593,-0.41133314,-0.34733626,0.060038768,3.0673285,-0.6152578,-5.2511445e-05,-0.17116094,0.002749003,0.0011693932,-0.08654567,0.012636414,0.01333104,0.4424444,-1.3833473,1.9086121,-2.1025207,-1.560172,2.41285,-0.1923333,0.24650432,-0.29254004,-0.0005490942,0.073784046,-0.20504504,0.038307227,0.61291564,-9.3661175,0.947788,47.69763,-1.2242209,-1.8926333,-3.496913,-0.48071122,0.14896257,-0.35397023,27.8125,28.9375,28.0625,32.0,34.0625,34.9375
0.3560517,0.4291375,-1.5770018,-1.2778045,-0.050235845,0.004593768,-0.1537004,-0.41164237,-0.34731638,0.059995424,3.0672185,-0.615199,3.8940565e-05,-0.17223208,0.002755342,0.000943831,-0.087973535,0.011824602,0.00861848,0.44207165,-1.3828303,1.90811,-2.1025565,-1.5600394,2.4124548,-0.19405478,0.24844994,-0.29444745,-0.00044789808,0.07541647,-0.20204115,-0.019153614,0.45968673,-9.32781,0.91198283,47.68062,-1.1650183,-1.8587172,-3.568299,-0.46679944,0.11609995,-0.4649952,27.8125,28.9375,28.0625,32.0,34.0625,34.9375
0.3580518,0.48745674,-0.82645166,-1.0292486,-0.03150459,0.013826319,-0.17069149,-0.41199806,-0.34730783,0.060021777,3.0670223,-0.6151167,6.837409e-05,-0.17444271,0.0031606331,0.0021452617,-0.09036158,0.0138988495,0.011311476,0.44165066,-1.3823617,1.9074878,-2.1025083,-1.5598587,2.4120083,-0.19720016,0.2483999,-0.297199,-0.00041594816,0.07677104,-0.20786293,-0.019153614,0.30645782,-9.136273,0.8940802,47.667187,-1.0484129,-1.8808036,-3.471562,-0.48695529,0.0957841,-0.47128502,27.8125,28.9375,28.0625,32.0,34.0625,34.9375
0.36005256,-0.6503315,-0.65720195,-1.1521442,-0.005895376,0.018862233,-0.162763,-0.4123578,-0.34733316,0.06002622,3.0668156,-0.6149323,6.433636e-05,-0.17614631,0.003401679,0.0018804504,-0.09058758,0.014063327,0.023215488,0.4412783,-1.381832,1.9068655,-2.1025565,-1.5596665,2.411548,-0.19898126,0.25129187,-0.30011615,-0.00041760737,0.07705852,-0.22153594,0.114921674,0.30645782,-9.193734,0.8873621,47.694946,-1.1101761,-1.8727832,-3.322215,-0.46431524,0.034607366,-0.34204945,27.8125,28.9375,28.0625,32.0,34.0625,34.9375
0.36205155,-0.7002627,-0.07130688,-1.1454568,-0.0022732732,0.057288602,-0.15882155,-0.41270727,-0.34733692,0.0600184,3.066648,-0.6147971,9.48779e-05,-0.17967819,0.0045527425,0.0047449577,-0.09126156,0.020867946,0.030943487,0.4408932,-1.3813044,1.906267,-2.1025798,-1.5594996,2.4111004,-0.2023095,0.24898714,-0.30399397,-0.0004780429,0.07488731,-0.23260053,-0.076614454,0.28730422,-9.232041,0.9365982,47.64927,-0.99035084,-1.7317824,-3.400041,-0.46624857,0.047032952,-0.21823034,27.8125,28.9375,28.0625,32.0,34.0625,34.9375
0.36405256,-0.54592776,0.16706498,-0.9029722,-0.012399987,0.11121505,-0.1649614,-0.41305697,-0.34730327,0.0600311,3.0665245,-0.6146377,8.2064274e-05,-0.1804471,0.0056614573,0.002537637,-0.08880893,0.01766011,0.030983621,0.4404727,-1.3808463,1.9056929,-2.1025565,-1.5593795,2.4105966,-0.20414728,0.25399584,-0.3050269,-0.0004231074,0.07409573,-0.23447675,-0.17238252,0.22984336,-9.212888,1.0015011,47.689575,-0.9917939,-1.8286581,-3.341066,-0.43599623,0.018735655,-0.16960943,27.8125,28.9375,28.0625,32.0,34.0625,34.9375
0.36605203,-1.439823,0.121327706,-0.8552953,-0.012323643,0.1229452,-0.16623312,-0.41341922,-0.34732464,0.060030602,3.0663526,-0.61448944,0.00012679191,-0.18024041,0.0061397557,0.0008713001,-0.083796,0.016562998,0.026068604,0.44010162,-1.3802805,1.9050244,-2.1025445,-1.5592016,2.4101555,-0.20204453,0.2576164,-0.30573925,-0.00019961725,0.070008785,-0.22748037,-0.45968676,0.17238252,-9.193734,0.9791215,47.667187,-1.0046974,-1.9361255,-3.4011328,-0.43676585,0.030302346,-0.23201287,27.8125,28.9375,28.0625,32.0,34.0625,34.9375
0.36805233,-1.9180356,0.14764465,-0.83972377,-0.015640626,0.152619,-0.16318043,-0.41378936,-0.34729776,0.060039643,3.066194,-0.61445796,0.00012422349,-0.18146527,0.006485213,0.0007207088,-0.080454715,0.018260092,0.02104235,0.43967012,-1.379775,1.9044021,-2.1025207,-1.5590705,2.4097254,-0.20107925,0.26009873,-0.30851766,-1.3033579e-05,0.06624911,-0.22150776,-0.80445176,0.15322891,-9.32781,0.99702406,47.71017,-1.1296452,-1.9961977,-3.4030387,-0.43135506,0.08439777,-0.29728493,27.8125,28.9375,28.0625,32.0,34.0625,34.9375
0.3700523,-2.4972112,-0.11097065,-0.9478967,0.00857225,0.14917836,-0.1595739,-0.41413516,-0.34728923,0.06003447,3.0660748,-0.6143181,0.00012433107,-0.18167748,0.0065403185,0.0004798545,-0.07762055,0.019419793,0.019211803,0.43929872,-1.379258,1.9038037,-2.1025207,-1.5589522,2.4092824,-0.19924001,0.26139987,-0.30965635,-8.509996e-07,0.06319357,-0.21785428,-0.47884032,0.019153614,-9.232041,0.9388393,47.70211,-1.3652825,-2.0372398,-3.3361685,-0.43381816,0.09638077,-0.3640506,27.8125,28.9375,28.0625,32.0,34.0625,34.9375
0.37205216,-2.0362878,0.41916752,-0.85269004,0.022580078,0.1271949,-0.15598473,-0.41451922,-0.34727544,0.060037576,3.0658972,-0.6142405,6.3710664e-05,-0.18211095,0.007468747,-0.00048266383,-0.0741295,0.01934815,0.021195881,0.43887907,-1.3787289,1.9031829,-2.1025684,-1.5588206,2.408838,-0.19906326,0.26357707,-0.31019816,-5.5564193e-08,0.060129885,-0.21967582,-0.51714754,0.05746084,-9.193734,0.9545008,47.684196,-1.4763904,-2.2040358,-3.5259352,-0.4226466,0.14042643,-0.42263737,27.8125,28.9375,28.0625,32.0,34.0625,34.9375
0.3740522,-1.6982467,0.43302202,-0.7663811,0.024108151,0.11255692,-0.15678608,-0.41488323,-0.3472421,0.060022973,3.0658662,-0.6140953,5.7138797e-05,-0.18317409,0.0081222225,-0.00042647356,-0.07221122,0.020935683,0.02996145,0.43849474,-1.3781643,1.9025372,-2.1025207,-1.5587734,2.4083672,-0.19941168,0.26461083,-0.311704,-3.6279446e-09,0.057821907,-0.22880559,-0.57460845,0.11492168,-9.155427,0.9298854,47.716442,-1.489517,-2.0627933,-3.5074396,-0.40929422,0.19427943,-0.34166902,27.8125,28.9375,28.0625,32.0,34.0625,34.9375
