Tylouw/Master_Thesis_Code/training_data/batch_1/small_rod_t0.2/sample_76_session_3.csv
timestamp[s],tcp_force_x[N],tcp_force_y[N],tcp_force_z[N],tcp_force_rx[Nm?],tcp_force_ry[Nm?],tcp_force_rz[Nm?],tcp_pose_x[m],tcp_pose_y[m],tcp_pose_z[m],tcp_pose_rx[rot_vec_x],tcp_pose_ry[rot_vec_y],tcp_pose_rz[rot_vec_z],tcp_velo_x[m/s],tcp_velo_y[m/s],tcp_velo_z[m/s],tcp_velo_rx[rot_vec_x/s],tcp_velo_ry[rot_vec_y/s],tcp_velo_rz[rot_vec_z/s],q1[rad],q2[rad],q3[rad],q4[rad],q5[rad],q6[rad],qd1[rad/s],qd2[rad/s],qd3[rad/s],qd4[rad/s],qd5[rad/s],qd6[rad/s],tool_acc_x,tool_acc_y,tool_acc_z,current_of_whole_robot[A],voltage_of_whole_robot[V],current_J1[A],current_J2[A],current_J3[A],current_J4[A],current_J5[A],current_J6[A],temp_J1[C],temp_J2[C],temp_J3[C],temp_J4[C],temp_J5[C],temp_J6[C]
1.1530065e-06,-0.5133874,-0.24808419,0.916754,-0.0048029446,0.0016426232,0.008486532,-0.38107717,-0.34852618,0.059982054,-3.0785236,0.6249358,-0.00011834565,0.0015422023,0.00073051854,-0.0013577209,0.0013334135,-0.0031049915,5.901206e-05,0.47778618,-1.425946,1.9577025,-2.100845,-1.5707697,2.452776,-3.3252316e-05,-3.3505687e-05,0.003063124,0.00033986277,0.00025098128,-9.43148e-05,0.019153614,0.22984336,-8.810662,0.7597976,47.691364,0.035473444,-2.8262768,-2.3959618,-0.44289422,0.076602794,0.035942722,28.0625,29.3125,28.4375,32.375,34.4375,35.4375
0.002054724,-0.44276366,-0.07116847,0.9708986,-0.0011620887,-0.0040061036,0.0042241537,-0.38103795,-0.3485344,0.059953343,-3.0785258,0.62493724,-0.0002636956,-0.0005277727,-0.00034613497,-0.0029916165,-0.0010659803,0.0014996813,6.0342165e-05,0.4777981,-1.4259324,1.9577507,-2.1008365,-1.5707096,2.4527884,-3.264914e-05,0.00415873,0.0044768574,-0.010458393,0.00024252676,-9.2923714e-05,0.05746084,0.17238252,-8.791509,0.7150385,47.709274,0.035650782,-2.835517,-2.461809,-0.39790943,0.07538011,0.030464506,28.0625,29.3125,28.4375,32.375,34.4375,35.4375
0.004054368,-0.16571322,0.18529113,0.9258231,-0.0068183346,0.0020467637,0.0015331903,-0.3810469,-0.3485415,0.05995485,-3.0785394,0.62490076,-0.00022230476,-0.0017093815,-0.00095920666,-0.0024977592,-0.002635325,0.0045291516,6.0627513e-05,0.47781014,-1.4259204,1.9577392,-2.1008613,-1.5707215,2.452776,-3.2067528e-05,0.0044516847,0.00367512,-0.013361418,0.000234622,-9.157297e-05,-0.038307227,0.21068975,-8.695741,0.75755644,47.667187,0.07703921,-3.1772594,-2.716458,-0.298827,0.07728303,0.02500933,28.0625,29.3125,28.4375,32.375,34.4375,35.4375
0.006053784,0.00495653,0.3570313,1.1053454,0.007836284,-0.009848547,0.0033537077,-0.38105282,-0.34850714,0.059936207,-3.0784643,0.6248664,-0.00016871784,-0.0010999527,-0.0006387703,-0.0012883657,-0.0019292353,0.0032007718,5.923148e-05,0.4777981,-1.4259092,1.957774,-2.1008832,-1.5708054,2.452752,-3.1506268e-05,0.0022618705,0.002239696,-0.008231855,0.00022721762,-9.0260946e-05,-0.038307227,0.21068975,-8.7532015,0.73741806,47.688675,0.082993604,-3.1236129,-2.6315012,-0.33093375,0.083845526,0.031289816,28.0625,29.3125,28.4375,32.375,34.4375,35.4375
0.008053993,0.52998096,0.9050893,0.42589203,0.038333237,-0.025089318,0.0037780835,-0.38106102,-0.34853998,0.059950553,-3.0785313,0.6249579,-0.00015490018,-0.00063572393,-0.00039438586,-0.00056606426,-0.0013425477,0.0020961661,5.8064146e-05,0.47781014,-1.4259096,1.9577497,-2.100918,-1.5707458,2.4528127,-3.0964256e-05,0.0009106988,0.0013298846,-0.0047201626,0.00022026538,-8.898607e-05,-0.038307227,0.19153613,-8.887277,0.7597976,47.683304,0.10647073,-2.982173,-2.5390072,-0.35797212,0.06939725,0.02136283,28.0625,29.3125,28.4375,32.375,34.4375,35.4375
0.01005436,0.10938801,0.61661506,0.106949486,0.040280595,-0.030574098,0.0066050678,-0.38104302,-0.34852836,0.059935015,-3.0785005,0.624932,-0.00025447598,-0.0004160067,-0.00027735575,0.00018335617,-0.0013294946,0.0020929582,6.311208e-05,0.4777981,-1.4258983,1.9577612,-2.1008694,-1.5707334,2.4527884,-3.0440684e-05,-0.0005947098,0.0008875694,-0.002763557,0.00021372616,-9.392319e-05,0.095768064,0.19153613,-9.174581,0.7329411,47.689575,-0.20176701,-2.1803696,-3.2926276,-0.36489654,0.04443789,-0.0078174565,28.0625,29.3125,28.4375,32.375,34.4375,35.4375
0.012053685,0.19693497,0.010564011,-0.052419253,0.016911546,-0.012344102,-0.0013218509,-0.38106188,-0.34852275,0.059935473,-3.078503,0.62489355,-0.00020512454,0.00016346312,4.9003025e-05,-0.0035738468,0.0028349957,-0.0059060166,6.1806364e-05,0.47778615,-1.4258837,1.9577488,-2.1008928,-1.5707573,2.452752,-6.776321e-05,0.008029266,-0.0008370694,-0.0006447263,0.00019482923,-0.00012808392,0.15322891,0.076614454,-9.32781,0.7642693,47.60807,-0.3448157,-2.1387148,-3.4928875,-0.3488515,0.03884967,-0.05790779,28.0625,29.3125,28.4375,32.375,34.4375,35.4375
0.014053713,-0.9274974,-0.7783122,-0.42911485,-0.0061283214,-0.009863186,0.004755876,-0.38104814,-0.34853098,0.059916634,-3.078473,0.6249041,-0.00031753292,-0.003937953,-0.0019557863,-0.0037240267,0.0025720056,-0.0054123793,0.0033777077,0.47779799,-1.4258319,1.9577221,-2.100845,-1.5707334,2.4527743,-0.00029891977,0.017823415,-0.011793569,-4.2096017e-05,0.00017796195,-0.0036681506,0.038307227,0.17238252,-9.3661175,0.77545905,47.684196,-0.42044833,-2.9652293,-3.0332317,-0.34128535,0.03834546,-0.06310128,28.0625,29.3125,28.4375,32.375,34.4375,35.4375
0.016053494,-1.2012322,-1.3927383,-0.5580971,-0.031395465,0.019471252,-0.002263908,-0.38103485,-0.34850922,0.059890065,-3.0784042,0.62483376,-0.00038587078,-0.0056146705,0.0018339055,-0.0033501338,0.0039719464,-0.0077973055,0.0013791434,0.47779515,-1.4257967,1.957734,-2.100807,-1.5707697,2.4527364,-0.008496311,0.015983373,-0.011539913,0.0043051858,3.886497e-05,-0.009868019,-0.17238252,0.36391866,-9.576807,0.73069996,47.67793,-0.07206697,-2.6873994,-3.3557467,-0.36293462,0.013272306,-0.029058252,28.0625,29.3125,28.4375,32.375,34.4375,35.4375
0.018053701,-1.694541,-1.6319623,-0.67122966,-0.0603766,0.043638036,-0.015095558,-0.38104832,-0.34849846,0.059875485,-3.0783806,0.6247889,-0.00041837263,-0.0055135107,0.0018674448,-0.003249062,0.0045622992,-0.008858472,0.0046372437,0.47777125,-1.4257486,1.9577097,-2.1007946,-1.5707816,2.4526875,-0.008438881,0.01634606,-0.012625089,0.0062408955,2.537605e-06,-0.013068403,-0.24899697,0.36391866,-9.710882,0.7620334,47.677036,-0.15206814,-2.4908586,-3.5163493,-0.40874505,0.0038950797,0.0047661904,28.0625,29.3125,28.4375,32.375,34.4375,35.4375
0.020053683,-1.8895328,-1.5158409,-0.5961764,-0.071796246,0.0658856,-0.023192564,-0.38104647,-0.3484998,0.059881214,-3.0783699,0.6248621,-0.0004712826,-0.006138052,0.0010421524,-0.0034136674,0.0043709413,-0.008500383,0.008171865,0.47775954,-1.4257479,1.9576849,-2.1007469,-1.5707573,2.4527228,-0.007550294,0.018628368,-0.014713757,0.0056411796,1.6568748e-07,-0.015712894,-0.4213795,0.45968673,-9.864111,0.7620334,47.70838,-0.2823766,-2.3715568,-3.502586,-0.39393353,0.017291825,0.0052980687,28.0625,29.3125,28.4375,32.375,34.4375,35.4375
0.022054268,-2.2192662,-1.5629374,-0.75433767,-0.0612707,0.07352448,-0.03929267,-0.38104326,-0.3484936,0.059860595,-3.0783434,0.62475884,-0.000530927,-0.007633923,0.00032979948,-0.0025241077,0.003203682,-0.006267481,0.010729631,0.47775954,-1.4256996,1.9576715,-2.100723,-1.5707697,2.4526618,-0.0076700626,0.019605638,-0.017758476,0.0051883967,1.08182086e-08,-0.018388648,-0.49799395,0.49799395,-9.864111,0.8179876,47.707485,-0.4260943,-2.4138496,-3.5342598,-0.36369827,-0.010507228,0.026908087,28.0625,29.3125,28.4375,32.375,34.4375,35.4375
0.024054054,-2.1268985,-1.224233,-0.7723534,-0.053949043,0.071097285,-0.057704348,-0.38108572,-0.34849036,0.059852153,-3.078361,0.6247636,-0.0005541781,-0.008381308,0.000782571,-0.0028361953,0.004180479,-0.0066576046,0.010060605,0.4776992,-1.4256271,1.957611,-2.100735,-1.5707463,2.4526021,-0.0087180985,0.021160118,-0.018907709,0.0055815615,-0.00069029874,-0.0187655,-0.4405331,0.5554548,-9.825804,0.8157518,47.731667,-0.44730747,-2.4617794,-3.5076613,-0.3652698,-0.030908614,0.026585385,28.125,29.3125,28.4375,32.375,34.4375,35.4375
0.026053768,-1.7995038,-1.0328909,-0.7556483,-0.042868756,0.05666097,-0.07576418,-0.38109872,-0.34849447,0.059840046,-3.078359,0.6247848,-0.00058129354,-0.01017347,0.0015281674,-0.0023998835,0.0051012114,-0.005817604,0.006011485,0.47768638,-1.4255788,1.9575862,-2.1007464,-1.5707339,2.4526029,-0.010919238,0.022496743,-0.02168463,0.006704031,-0.0018967838,-0.016913645,-0.47884035,0.40222588,-9.844957,0.7665104,47.690468,-0.4085009,-2.4172394,-3.5463772,-0.36968458,-0.02038196,0.00010446145,28.125,29.25,28.4375,32.375,34.4375,35.4375
0.028053392,-1.6282661,-1.0338985,-0.65046614,-0.027268862,0.040338483,-0.092692,-0.38112715,-0.3484956,0.05984284,-3.0783262,0.6247589,-0.00056069874,-0.011106968,0.0018413487,-0.0023309682,0.006531421,-0.00561671,0.004731641,0.47768617,-1.4255185,1.9575027,-2.1007102,-1.5707711,2.4525907,-0.011454153,0.02402859,-0.023841409,0.007812525,-0.003261129,-0.016164761,-0.5554548,0.40222588,-9.864111,0.73069996,47.693153,-0.48332557,-2.3421786,-3.5345259,-0.36610228,-0.019990554,-0.032029368,28.125,29.25,28.4375,32.375,34.4375,35.4375
0.030054195,-1.315259,-0.40899915,-0.5003465,-0.018897722,0.046776466,-0.11054877,-0.38114095,-0.34849557,0.059841156,-3.078348,0.62476397,-0.00060846464,-0.013320147,0.0018424392,-0.001007933,0.0057356167,-0.0022728664,0.003281645,0.47764978,-1.4254944,1.9574765,-2.1006982,-1.5707349,2.4525547,-0.012959305,0.024241773,-0.027027398,0.0074534174,-0.004099706,-0.01621643,-0.5554548,0.24899697,-9.768343,0.7083204,47.688675,-0.54268384,-2.2798424,-3.483942,-0.34306145,-0.027310865,-0.033587977,28.125,29.25,28.4375,32.375,34.4375,35.4375
0.032054618,-1.1265286,-0.1296653,-0.57049876,0.0005097646,0.05325278,-0.12215493,-0.38117397,-0.34849736,0.05984254,-3.0783205,0.6247021,-0.00053449726,-0.014227344,0.001745249,-0.001107056,0.0056860563,-0.0021249936,0.0020171292,0.47766143,-1.425434,1.9574045,-2.1006987,-1.5707949,2.4525313,-0.013609185,0.025949849,-0.02870807,0.0072712,-0.00412709,-0.015600634,-0.47884035,0.095768064,-9.768343,0.79560274,47.684196,-0.54605436,-2.261525,-3.538745,-0.3303004,-0.020690268,-0.03827726,28.125,29.25,28.4375,32.375,34.4375,35.4375
0.034053702,-1.3128852,0.3417253,-0.37777752,0.0036778857,0.04931565,-0.13585365,-0.38118953,-0.34850252,0.059814464,-3.0783083,0.62475824,-0.00065589935,-0.015531855,0.0017175863,-0.0008129093,0.0051189214,-0.0018643696,-0.00033765147,0.4776251,-1.4253377,1.9573559,-2.1006858,-1.5707473,2.4525316,-0.015013827,0.027435265,-0.031191632,0.0077765444,-0.0037478928,-0.014649668,-0.45968673,0.0,-9.730036,0.77545905,47.664497,-0.57940537,-2.327839,-3.570923,-0.30228528,-0.060068004,-0.053639185,28.125,29.25,28.4375,32.375,34.4375,35.4375
0.036053684,-1.0212634,0.30174503,-0.2558187,0.023176877,0.038768142,-0.13793004,-0.3812635,-0.3485166,0.05985278,-3.0783448,0.624805,-0.00054119667,-0.016867489,0.0011295574,7.1928356e-05,0.0041846633,-0.0012371588,-0.0015867347,0.4775888,-1.4252893,1.9572104,-2.100674,-1.5707582,2.45252,-0.015552822,0.02875184,-0.03507602,0.009355762,-0.0032096724,-0.013939145,-0.34476504,-0.05746084,-9.595961,0.75755644,47.698532,-0.50624907,-2.2973874,-3.4275463,-0.3183356,-0.079767175,-0.06884359,28.125,29.25,28.4375,32.375,34.4375,35.4375
0.03805342,-1.1117529,-0.05985928,-0.37703714,0.048831128,0.023601165,-0.1417118,-0.38124657,-0.3485052,0.05981666,-3.078316,0.62472147,-0.00065729604,-0.01752315,0.0009426413,4.659163e-05,0.004160696,-0.0018104024,-0.002014323,0.4775767,-1.4252408,1.9572347,-2.100661,-1.5707468,2.4524593,-0.01601172,0.030401807,-0.037098918,0.010225873,-0.0029285077,-0.013969673,-0.34476507,-0.1340753,-9.595961,0.80456203,47.70032,-0.5576512,-2.2768617,-3.4133785,-0.29801092,-0.08227016,-0.078409374,28.125,29.25,28.4375,32.375,34.4375,35.4375
0.04005339,-0.768778,0.31167424,-0.21833673,0.040183645,0.018503271,-0.15976164,-0.38131633,-0.3484811,0.059821803,-3.078267,0.62486506,-0.0006061535,-0.018714614,0.00084991864,0.00042659751,0.0042572017,-0.0009807561,-0.0022503852,0.47749248,-1.4251685,1.957138,-2.1006496,-1.5707825,2.452471,-0.016640114,0.031735003,-0.039597534,0.010699695,-0.0034001393,-0.014359673,-0.21068975,-0.095768064,-9.500193,0.76874626,47.705692,-0.5588983,-2.2587078,-3.365048,-0.31297365,-0.114529595,-0.11095426,28.125,29.25,28.4375,32.375,34.4375,35.4375
0.042053685,-0.7172609,0.15860645,-0.2967754,0.031877257,0.013289349,-0.16885723,-0.3813424,-0.34847185,0.05981951,-3.0782223,0.6247988,-0.0006554608,-0.01979562,0.0015329439,0.0004399834,0.005601008,-0.0009810225,-0.0032562427,0.47746798,-1.4250963,1.9570416,-2.1005652,-1.5708073,2.452411,-0.018076677,0.033069424,-0.041399043,0.011788367,-0.004596149,-0.014786676,-0.22984336,-0.095768064,-9.634268,0.81351066,47.71465,-0.54584527,-2.3141294,-3.4184542,-0.3002206,-0.10425525,-0.11192769,28.125,29.25,28.4375,32.375,34.4375,35.4375
0.04405349,-0.8664179,-0.2642212,-0.25223738,0.021586256,0.010518217,-0.18124577,-0.38139147,-0.34848377,0.05984568,-3.0782595,0.6248446,-0.00056705065,-0.021362437,0.0015696809,0.0010014282,0.006042332,0.00097313686,-0.0036067388,0.4774438,-1.4250718,1.9569567,-2.100577,-1.5708073,2.4524107,-0.018748436,0.034266062,-0.044024903,0.011689288,-0.005891179,-0.015104019,-0.28730422,0.05746084,-9.576807,0.77545905,47.64479,-0.48670352,-2.2099216,-3.3920026,-0.3331847,-0.09942294,-0.12331864,28.125,29.25,28.4375,32.375,34.4375,35.4375
0.046054136,-1.2298126,-0.6280825,-0.23955444,0.009390391,0.010786147,-0.18714729,-0.38145885,-0.3484984,0.059858426,-3.0782883,0.6248887,-0.00049426267,-0.022061307,0.0013429141,0.0016108569,0.0060692485,0.0018492643,-0.0029488578,0.47740772,-1.4249877,1.956837,-2.100601,-1.5708078,2.4523985,-0.018710483,0.034633163,-0.04604,0.012572699,-0.006319479,-0.01572253,-0.1340753,0.13407528,-9.461885,0.7239871,47.664497,-0.4797391,-2.125225,-3.331883,-0.303985,-0.11545974,-0.12890726,28.125,29.25,28.4375,32.375,34.4375,35.4375
0.04805378,-1.421147,-0.8437817,-0.57681394,-0.0023830053,0.0072908304,-0.18273823,-0.38147578,-0.34848267,0.05985801,-3.0782263,0.6248194,-0.00051923795,-0.023497967,0.0016042984,0.001886332,0.0066818306,0.002283275,-0.003707848,0.47739533,-1.4249393,1.9567636,-2.1005166,-1.570856,2.4523509,-0.020017935,0.03636399,-0.048871882,0.013571479,-0.007068075,-0.016267546,-0.11492168,0.21068975,-9.481039,0.78217715,47.699425,-0.51369655,-2.1016185,-3.4118109,-0.31666672,-0.10385452,-0.13526364,28.125,29.25,28.4375,32.375,34.4375,35.4375
0.05005396,-0.6252389,-0.4423612,-0.39507762,-0.024625478,0.017139554,-0.21157283,-0.3815114,-0.3484851,0.05985033,-3.0782092,0.6248729,-0.0005600702,-0.02422613,0.0016057838,0.00089819985,0.0078875935,0.0010978649,-0.0031146656,0.47735924,-1.4248543,1.9566787,-2.1004927,-1.5708445,2.4523504,-0.020348528,0.039888147,-0.050591465,0.013375411,-0.0075996188,-0.017188564,-0.1340753,0.3256114,-9.576807,0.7284641,47.682407,-0.5354461,-2.192809,-3.376415,-0.33686227,-0.105021626,-0.16766143,28.125,29.25,28.4375,32.375,34.4375,35.4375
0.052053574,-1.0115606,-1.2654524,-0.38771337,-0.027142163,0.0033111612,-0.2135667,-0.38157243,-0.3484874,0.059848595,-3.0781848,0.62496394,-0.0006018559,-0.02529708,0.0017049911,0.002021238,0.008220427,0.0033606014,-0.002467985,0.47729906,-1.4247346,1.9565352,-2.1004446,-1.5708326,2.4523501,-0.020640703,0.039256867,-0.0526276,0.014190285,-0.008938446,-0.018123604,-0.19153613,0.40222588,-9.653421,0.81351066,47.63315,-0.58469933,-2.182271,-3.3914251,-0.34126782,-0.12149349,-0.16170621,28.125,29.25,28.4375,32.375,34.4375,35.4375
0.05405338,-1.1226859,-1.2405504,-0.43579948,-0.037736945,-3.9809125e-05,-0.22938198,-0.3816304,-0.34847695,0.059859425,-3.078183,0.62490565,-0.0005364451,-0.0265814,0.0020460912,0.0025549377,0.008661828,0.0049072253,-0.0023549863,0.4772507,-1.4246746,1.9564394,-2.1004326,-1.5708693,2.4522657,-0.021711932,0.039727863,-0.054421294,0.014344547,-0.010044839,-0.019304754,-0.1340753,0.45968673,-9.672575,0.8112748,47.66091,-0.4860887,-1.9805508,-3.4192455,-0.33614054,-0.09961751,-0.19643486,28.125,29.25,28.4375,32.375,34.4375,35.4375
0.05605421,-1.1481233,-1.8117855,-0.55240077,-0.02533569,-0.007435693,-0.23415032,-0.3816821,-0.348479,0.059877392,-3.078167,0.6249785,-0.0005081925,-0.028781664,0.0020511546,0.0025789933,0.010044448,0.0064094057,-0.002008676,0.47721457,-1.4246135,1.9563178,-2.1003854,-1.5708817,2.4522772,-0.022501715,0.043330796,-0.05854992,0.014177026,-0.0119726965,-0.02043423,0.0,0.45968673,-9.615114,0.7620334,47.67345,-0.531379,-2.0603416,-3.3269842,-0.32828447,-0.059119053,-0.1963206,28.125,29.25,28.4375,32.375,34.4375,35.4375
0.05805397,-1.2950133,-1.531893,-0.29894263,-0.038513094,-0.001214128,-0.24828592,-0.38174903,-0.3484513,0.05988463,-3.078117,0.62498707,-0.00045055183,-0.028981691,0.0021302951,0.00218408,0.010477364,0.0058306106,-0.0016619627,0.4771424,-1.4245411,1.9562105,-2.1003492,-1.5709418,2.4522169,-0.022744732,0.044493627,-0.05896881,0.014144205,-0.012092755,-0.021023298,-0.038307227,0.5554548,-9.595961,0.80679786,47.70032,-0.57218766,-2.0656962,-3.3018262,-0.32228556,-0.07900086,-0.20967905,28.125,29.25,28.4375,32.375,34.4375,35.4375
0.060053647,-0.43415117,-1.5388917,-0.1405713,-0.03392849,0.019688496,-0.27460003,-0.3818195,-0.34847686,0.05990129,-3.0781662,0.6249195,-0.0003537358,-0.029488048,0.0022059341,0.0009649021,0.012070061,0.0034939062,-0.001034761,0.47713038,-1.4244441,1.956067,-2.1003726,-1.5709537,2.4521565,-0.02312296,0.04849301,-0.060922973,0.014906645,-0.01243604,-0.022027412,-0.095768064,0.51714754,-9.615114,0.8112748,47.70211,-0.58677685,-2.1313975,-3.4260898,-0.318521,-0.0801025,-0.23908928,28.125,29.25,28.4375,32.375,34.4375,35.4375
0.06205352,-0.84374785,-1.2333376,-0.22295697,-0.03670516,0.007248657,-0.27115273,-0.3818434,-0.34847823,0.059885498,-3.0781448,0.6248754,-0.00038348383,-0.031216979,0.0011397593,0.002454357,0.009480532,0.006312954,0.00044913066,0.47711813,-1.42436,1.9560045,-2.1003606,-1.5709652,2.4521196,-0.023471493,0.048755273,-0.06455638,0.014579704,-0.011440714,-0.023859566,-0.05746084,0.47884035,-9.500193,0.7732232,47.687782,-0.5372407,-2.2070093,-3.376226,-0.3202312,-0.08173334,-0.24512863,28.125,29.25,28.4375,32.375,34.4375,35.4375
0.0640534,-0.60747457,-1.5022726,-0.21833406,-0.024859244,0.02510098,-0.19371973,-0.38194317,-0.3484783,0.059920788,-3.0781503,0.6249526,-0.0003126864,-0.03320932,0.0002323889,0.004167239,0.007601946,0.009415603,0.0020864313,0.47703406,-1.4242642,1.9558009,-2.100301,-1.5709776,2.452083,-0.023845514,0.049122393,-0.068996,0.01503052,-0.011204804,-0.025869729,-0.038307227,0.4405331,-9.423578,0.7933669,47.68062,-0.5920583,-2.0099785,-3.1686058,-0.30792135,-0.11786112,-0.23354772,28.125,29.25,28.4375,32.375,34.4375,35.4375
0.06605363,-0.546939,-1.3821963,-0.17593089,-0.010798962,0.021342466,-0.19162598,-0.38198543,-0.34847334,0.059911538,-3.078111,0.62492424,-0.00030870765,-0.033204187,0.0009887553,0.0024481716,0.009673173,0.00687588,0.0032108498,0.47700968,-1.4241673,1.955706,-2.1002772,-1.5710138,2.4520462,-0.02474447,0.05216508,-0.06845963,0.014659061,-0.0118802115,-0.02789115,-0.076614454,0.36391866,-9.461885,0.7217513,47.71286,-0.65821815,-2.1341171,-3.3825626,-0.29910162,-0.09470628,-0.24123424,28.125,29.25,28.4375,32.375,34.4375,35.4375
0.068053484,-0.8248552,-1.2726946,-0.012965705,-0.0059309406,0.01574184,-0.19281141,-0.38205627,-0.34849864,0.059938177,-3.078156,0.62491393,-0.00028690294,-0.03484758,0.0003995186,0.0029410026,0.009536976,0.007934398,0.0042792945,0.47697365,-1.4240706,1.9555238,-2.100229,-1.57099,2.451998,-0.024970455,0.054667965,-0.07258888,0.015283625,-0.012252234,-0.029182937,-0.095768064,0.3256114,-9.289503,0.80679786,47.70211,-0.6371672,-2.103484,-3.1266499,-0.28936028,-0.09722034,-0.2466233,28.125,29.25,28.4375,32.375,34.4375,35.4375
0.07005345,-1.1795052,-1.0835437,-0.1664723,0.004329263,0.008201255,-0.17685778,-0.38212377,-0.34849295,0.059927512,-3.0781522,0.62485486,-0.00031667505,-0.035781864,0.0007302152,0.002923483,0.010794596,0.008325162,0.0045816507,0.47690144,-1.4239384,1.9553918,-2.1002047,-1.5709904,2.4518895,-0.025570452,0.056131043,-0.07434519,0.015810471,-0.0135525195,-0.030081343,-0.05746084,0.24899697,-9.212888,0.779936,47.694946,-0.67420495,-2.0486445,-3.1720958,-0.28640044,-0.10591022,-0.24551143,28.125,29.25,28.4375,32.375,34.4375,35.4375
0.07205352,-0.8930808,-0.7805664,0.13790812,0.01695342,0.02243307,-0.18438286,-0.38221887,-0.3485313,0.059969567,-3.0782242,0.62483007,-0.00015976353,-0.036654536,0.0005390357,0.0029737635,0.011382307,0.009010602,0.005591928,0.47688946,-1.4238418,1.9551882,-2.1002166,-1.5710024,2.451853,-0.025488159,0.05778172,-0.07635258,0.01583017,-0.014390379,-0.031008074,-0.19153613,0.2681506,-9.193734,0.7777002,47.677036,-0.6924255,-2.1266088,-3.1416373,-0.27467042,-0.1038558,-0.26770484,28.125,29.25,28.4375,32.375,34.4375,35.4375
0.0740538,-0.6907072,-0.38472262,0.15368646,0.010699164,0.032130893,-0.19129957,-0.38227093,-0.34848428,0.059928685,-3.0781083,0.62488323,-0.00027023352,-0.037917163,0.00023771045,0.0033210258,0.0114571685,0.010306141,0.006743488,0.47678137,-1.4236976,1.9551033,-2.1001565,-1.5710386,2.451793,-0.025676463,0.05938546,-0.07895922,0.01571556,-0.015061495,-0.032343287,-0.15322891,0.19153613,-9.289503,0.8247004,47.71554,-0.76475215,-2.067111,-3.107893,-0.24303815,-0.06690115,-0.28964987,28.125,29.25,28.4375,32.375,34.4375,35.4375
0.07605411,-1.1389203,-0.6857021,0.37239546,0.02530294,0.01892329,-0.17692637,-0.38234603,-0.34850994,0.05995094,-3.0781457,0.62485147,-0.00021299763,-0.03858861,-0.00034976512,0.003235068,0.01037742,0.00894407,0.0075011,0.47675723,-1.4235891,1.954923,-2.1001322,-1.5710381,2.4517443,-0.026275575,0.061630744,-0.08157896,0.01679802,-0.013479313,-0.03370244,-0.21068975,0.19153613,-9.136273,0.83589023,47.721813,-0.7670864,-2.0761304,-3.1280594,-0.25087476,-0.11541523,-0.27869344,28.125,29.25,28.4375,32.375,34.4375,35.4375
0.078054085,-0.63378334,-0.21047574,0.21613115,0.020459622,0.024787929,-0.18942946,-0.3824213,-0.3485265,0.059962273,-3.07817,0.6248562,-0.00019552812,-0.03922422,-0.00068902114,0.0034765357,0.01079169,0.008934542,0.008405215,0.47670934,-1.4234688,1.9547542,-2.100108,-1.5710262,2.4516964,-0.026016932,0.06308722,-0.08408439,0.018046364,-0.013844904,-0.034346294,-0.28730422,0.095768064,-9.212888,0.7777002,47.684196,-0.7832236,-2.0149052,-3.06865,-0.24591216,-0.112781286,-0.28705296,28.125,29.25,28.4375,32.375,34.4375,35.4375
0.080054,-1.0162064,-0.5009909,0.16990386,0.03922723,0.019613981,-0.18161108,-0.38251132,-0.34852183,0.059986208,-3.0781481,0.6248511,-0.00011938923,-0.040267143,-0.00083144236,0.0041013425,0.010887886,0.009828357,0.00879548,0.47664922,-1.4233608,1.9545625,-2.1000478,-1.5710744,2.451636,-0.026395597,0.06390772,-0.08668886,0.019079262,-0.014343067,-0.035113364,-0.22984336,0.24899697,-9.232041,0.77545905,47.705692,-0.8401997,-1.9725469,-3.042829,-0.20939836,-0.09451408,-0.31911793,28.125,29.25,28.4375,32.375,34.4375,35.4375
0.08205421,-1.0910077,-0.14566779,0.2924386,0.020960644,0.02252985,-0.18478867,-0.38261867,-0.34851494,0.059984922,-3.0781305,0.6247705,-3.5043286e-05,-0.040693056,-0.00026210587,0.0021387087,0.01401294,0.006366531,0.008267086,0.4765769,-1.4231908,1.9543713,-2.1000473,-1.5711344,2.451516,-0.027021388,0.06912525,-0.088402055,0.02008575,-0.015532238,-0.035207305,-0.21068975,0.21068975,-9.212888,0.82694155,47.70211,-0.8807389,-2.1949053,-3.0479474,-0.23231156,-0.073995605,-0.3254739,28.125,29.25,28.4375,32.375,34.4375,35.4375
0.084053956,-0.9140706,-0.55047834,0.1679345,0.020975413,0.027841827,-0.18481407,-0.3826423,-0.34850284,0.05996353,-3.078033,0.62472975,-0.000117235235,-0.041346606,-0.00066642824,0.0037739838,0.011657217,0.008236599,0.009459736,0.47656476,-1.4230715,1.9542621,-2.0999515,-1.5711826,2.4514909,-0.02770051,0.066901565,-0.089806095,0.020963697,-0.014302634,-0.037079774,-0.3256114,0.22984336,-9.155427,0.7777002,47.717335,-0.949719,-1.9842544,-3.079012,-0.20367445,-0.09007711,-0.32886392,28.125,29.25,28.4375,32.375,34.4375,35.4375
0.08605386,-1.4613519,-0.7798028,-0.039600305,0.012432502,0.019112537,-0.1788833,-0.38273078,-0.34852427,0.059994563,-3.0780828,0.6246239,-3.485492e-05,-0.04154901,-0.0007214912,0.0029736764,0.012285393,0.006182586,0.01120546,0.47652858,-1.4229625,1.9540585,-2.0999153,-1.571194,2.4513824,-0.028032964,0.06951042,-0.09115805,0.02181657,-0.0139184045,-0.03915864,-0.36391866,0.21068975,-9.251195,0.84708,47.704796,-0.91321516,-1.9625683,-3.1484313,-0.20653898,-0.084986165,-0.340825,28.125,29.25,28.4375,32.375,34.4375,35.4375
0.08805383,-1.0174391,-1.2525097,0.0062958635,0.013475382,0.03177497,-0.17317195,-0.3828569,-0.3485335,0.060019225,-3.0781074,0.62462854,7.3353316e-05,-0.041289978,-0.0004160703,0.0009462133,0.013844856,0.001697458,0.009825682,0.47644445,-1.4228048,1.9538192,-2.0999029,-1.5712184,2.4512982,-0.028764453,0.07382556,-0.09166965,0.022709714,-0.013243272,-0.038511854,-0.24899697,0.17238252,-9.289502,0.800085,47.709274,-0.9585095,-2.1443841,-3.1540155,-0.20919275,-0.11575472,-0.34450257,28.125,29.25,28.4375,32.375,34.4375,35.4375
0.09005381,-1.2198874,-0.984599,-0.23660415,0.0015560116,0.02424457,-0.17268993,-0.38290998,-0.34851635,0.059996486,-3.0780203,0.6245729,5.347182e-06,-0.043787412,-0.0011941243,0.0036065863,0.012220077,0.0070931553,0.009308803,0.4763962,-1.4226491,1.9536742,-2.0998194,-1.5712665,2.4512265,-0.029002147,0.07274749,-0.0966419,0.023221536,-0.014287016,-0.038227152,-0.19153613,0.17238252,-9.270349,0.8112748,47.698532,-1.0105165,-2.0264559,-3.0493286,-0.21052933,-0.11151958,-0.37167507,28.125,29.25,28.4375,32.375,34.4375,35.4375
0.092053525,-1.4430012,-1.0843352,-0.11172572,0.008768388,0.018737832,-0.17767449,-0.38300288,-0.34852636,0.06000857,-3.078028,0.6245541,4.1647636e-05,-0.042859536,-0.00031194248,0.000895158,0.014737248,0.0018908824,0.01125065,0.47633603,-1.4225036,1.953472,-2.0997832,-1.5712785,2.4511538,-0.029803904,0.07666546,-0.09497826,0.023413593,-0.014135145,-0.040971614,-0.1340753,0.22984336,-9.3661175,0.81351066,47.684196,-1.0232344,-2.0967557,-3.3204265,-0.17139928,-0.10117365,-0.39324233,28.125,29.25,28.4375,32.375,34.4375,35.4375
0.09405347,-1.111911,-0.83702785,-0.18366233,0.004922906,0.023010619,-0.17857893,-0.38309473,-0.3485288,0.0600111,-3.0780187,0.6245518,5.321388e-05,-0.04469463,-0.0006133703,0.0017952282,0.014290494,0.0037196327,0.012030045,0.47626373,-1.422347,1.9532789,-2.0997465,-1.5712909,2.4510813,-0.03065851,0.07806114,-0.098768845,0.023977455,-0.0145845935,-0.042602748,-0.1340753,0.22984336,-9.404425,0.85155696,47.67614,-1.0559255,-2.104312,-3.2777042,-0.19055925,-0.100291684,-0.38306618,28.125,29.25,28.4375,32.375,34.4375,35.4375
0.09605359,-0.488262,-0.5316074,-0.060358435,-0.00030742277,0.031783022,-0.19008243,-0.38318688,-0.34852538,0.060013853,-3.077983,0.6244647,6.946941e-05,-0.044384133,-0.00030505005,0.00041250425,0.015087561,0.00091590796,0.014938611,0.47620365,-1.4221781,1.9530634,-2.099675,-1.5713385,2.4509716,-0.031284083,0.08039899,-0.098305605,0.024025973,-0.014009744,-0.046137575,-0.1340753,0.2681506,-9.32781,0.7978386,47.71823,-1.0315415,-2.173265,-3.2239676,-0.15981275,-0.11443055,-0.35719204,28.125,29.25,28.4375,32.375,34.4375,35.4375
0.098053426,-0.84097946,-0.6083094,-0.093413725,-0.0024647068,0.011380148,-0.18538067,-0.38328224,-0.3485251,0.060000915,-3.0779734,0.6245207,4.194065e-05,-0.045320194,-0.00045116336,0.00036054308,0.015327296,0.0011342164,0.014972489,0.47610754,-1.4219973,1.9528836,-2.0996635,-1.5713266,2.4509118,-0.031668928,0.08226706,-0.1003598,0.024128038,-0.014328466,-0.04655421,-0.1340753,0.30645782,-9.3661175,0.82022345,47.698532,-1.0821011,-2.0989182,-3.3869321,-0.14726758,-0.10642982,-0.3565712,28.125,29.25,28.4375,32.375,34.4375,35.4375
0.100053474,-0.38794744,-0.9342589,-0.17557992,-0.009201682,0.022033297,-0.17962122,-0.3833706,-0.34851986,0.060005914,-3.077928,0.62437713,0.000108944005,-0.046120577,-0.0006448392,0.000426003,0.014891999,0.0013451651,0.014616492,0.4760712,-1.4218407,1.9526795,-2.0996034,-1.5714105,2.4507918,-0.03224015,0.08353715,-0.10195842,0.024063965,-0.014042756,-0.046768855,-0.1340753,0.28730422,-9.385271,0.8291774,47.71286,-1.1155655,-2.0672162,-3.3948374,-0.121194184,-0.117521994,-0.39928073,28.125,29.25,28.4375,32.375,34.4375,35.4375
0.102054276,-0.47131813,-0.85441196,-0.0837123,-0.012894334,0.0133915795,-0.19225058,-0.3834655,-0.34851027,0.060008273,-3.0779293,0.6243168,0.000118007156,-0.04655909,7.66737e-05,-0.00020961594,0.016592083,-7.359265e-05,0.017577685,0.4759749,-1.421696,1.9525002,-2.0995667,-1.5714229,2.4506578,-0.033352215,0.08534039,-0.10283077,0.025171049,-0.01490604,-0.05083985,-0.095768064,0.2681506,-9.3661175,0.7777002,47.64837,-1.1431932,-2.0614185,-3.4358826,-0.08807463,-0.14222056,-0.35626546,28.125,29.25,28.4375,32.375,34.4375,35.4375
0.10405417,-0.8187419,-1.1708193,-0.20031406,0.00022211944,0.0054657673,-0.17449054,-0.38357693,-0.34851462,0.060002267,-3.0778844,0.6242864,0.000107593856,-0.04711898,1.00560765e-05,-8.511968e-05,0.016894607,-0.0011598816,0.020129856,0.47590283,-1.4214672,1.952236,-2.0994947,-1.5714582,2.4505727,-0.033883,0.08681641,-0.105296,0.027258174,-0.0146820145,-0.05392171,0.0,0.3256114,-9.442732,0.83813137,47.66539,-1.1353167,-2.001912,-3.5589101,-0.10226025,-0.10888223,-0.32801196,28.125,29.25,28.4375,32.375,34.4375,35.4375
0.10605351,-0.14158599,-1.0083787,-0.25833118,0.0026879043,0.018537393,-0.18104567,-0.38367444,-0.3485222,0.060019106,-3.0778909,0.6242298,0.0001581714,-0.047883186,0.0006268507,-0.0003652449,0.01824161,-0.0016169971,0.021336632,0.4758423,-1.4213225,1.952021,-2.0994465,-1.5714825,2.4504762,-0.035028055,0.08830015,-0.106542595,0.028043784,-0.015671544,-0.056271162,-0.076614454,0.30645782,-9.385271,0.8403672,47.705692,-1.1577952,-2.0239387,-3.430943,-0.08786404,-0.10505601,-0.30462188,28.125,29.25,28.4375,32.375,34.4375,35.4375
0.10805435,-0.888672,-1.2339172,-0.3151426,0.01579724,0.0009181015,-0.17048943,-0.38377866,-0.34852904,0.06003602,-3.0779047,0.6240971,0.00022174322,-0.04851149,0.00052570854,-0.00024283027,0.017006692,-0.0025804362,0.022671068,0.4757817,-1.4211662,1.9517926,-2.099398,-1.5715183,2.4503312,-0.03641011,0.089226164,-0.10810332,0.0289583,-0.014134492,-0.05899041,-0.05746084,0.30645782,-9.385271,0.82694155,47.698532,-1.0615464,-1.9457283,-3.7088358,-0.078369856,-0.13867569,-0.2734214,28.125,29.25,28.4375,32.375,34.4375,35.4375
0.11005351,-0.8065488,-0.69871163,-0.22904192,-0.0010076376,0.0095352605,-0.17937046,-0.38385963,-0.3485284,0.06002177,-3.0778608,0.62402886,0.00017128688,-0.049926646,0.00035673598,0.00077283534,0.017032005,-0.0008483871,0.024857327,0.47572178,-1.4209737,1.9515885,-2.099326,-1.5715426,2.4502344,-0.036866795,0.08981489,-0.11137407,0.030110486,-0.014960417,-0.06162933,-0.05746084,0.22984336,-9.404425,0.7866488,47.695843,-1.1386602,-1.9252456,-3.406853,-0.08346012,-0.1385372,-0.23535186,28.125,29.25,28.4375,32.375,34.4375,35.4375
0.112053595,-0.76207227,-0.77346694,-0.26315793,0.0071051675,0.009422597,-0.18242961,-0.3839614,-0.3485408,0.06002409,-3.0778687,0.6239505,0.0001546597,-0.050216936,-0.00047018743,-0.0003010278,0.01812557,-0.0034016294,0.028606359,0.4756502,-1.4207798,1.9513477,-2.0992658,-1.5715426,2.450113,-0.035782315,0.0945085,-0.11460563,0.0314148,-0.014770458,-0.06429202,-0.019153614,0.2681506,-9.270349,0.80679786,47.64479,-1.2847598,-2.0231128,-3.5093377,-0.06645546,-0.12601268,-0.21373062,28.125,29.25,28.4375,32.375,34.4375,35.4375
0.114053465,-0.45454735,-0.6904704,-0.1906022,0.004701097,0.020953929,-0.1854219,-0.38405293,-0.34851164,0.06001014,-3.0777943,0.62385887,0.0001262463,-0.052228104,7.186208e-05,0.001687836,0.017362598,-0.0001479513,0.028743844,0.4755532,-1.4206004,1.9511551,-2.0991814,-1.5716027,2.4499686,-0.038042948,0.09277262,-0.117487974,0.03278642,-0.015592164,-0.06668646,-0.095768064,0.30645782,-9.289503,0.8291774,47.684196,-1.2560785,-1.9688315,-3.396896,-0.06720229,-0.14096585,-0.16447848,28.125,29.25,28.4375,32.375,34.4375,35.4375
0.116053514,-0.7706227,-0.90575314,-0.5233519,0.007929461,0.013130445,-0.17394918,-0.38417873,-0.34853846,0.060023244,-3.0778248,0.62376696,0.00017871553,-0.05278191,4.2983957e-05,0.00082761154,0.017888004,-0.0022581976,0.029559014,0.47549316,-1.420383,1.950868,-2.0991452,-1.5716151,2.4498475,-0.038809445,0.09598188,-0.11940171,0.033602446,-0.015094807,-0.06826845,-0.095768064,0.22984336,-9.423578,0.85826975,47.65464,-1.2052292,-1.8341029,-3.442946,-0.038605567,-0.16053078,-0.12931418,28.125,29.25,28.4375,32.375,34.4375,35.4375
0.11805428,-0.75635934,-0.7949005,-0.39290893,-0.0020130607,0.016622944,-0.18106535,-0.38426727,-0.34853014,0.0600155,-3.0777905,0.62364686,0.00015601271,-0.05425169,0.0006375256,0.0020327275,0.018075332,-0.00038831818,0.026685743,0.4754205,-1.4202031,1.9506634,-2.0990732,-1.5716513,2.4497044,-0.04053379,0.09527422,-0.1216793,0.03501234,-0.01612205,-0.06711586,-0.11492168,0.17238252,-9.461885,0.82694155,47.674347,-1.1928265,-1.9068203,-3.4601307,-0.050119065,-0.14359818,-0.120626934,28.125,29.25,28.4375,32.375,34.4375,35.4375
0.12005393,-1.4480999,-1.3516837,-0.45589918,-0.008376807,0.010853922,-0.17867576,-0.38439816,-0.34853473,0.060039137,-3.0778043,0.62359107,0.00021939326,-0.05493022,0.0011410443,0.001558621,0.0189083,-0.002383385,0.026019877,0.4753239,-1.4200221,1.9503883,-2.0990121,-1.5716752,2.4495714,-0.042143192,0.09747787,-0.123548016,0.036827758,-0.01594877,-0.06805941,-0.21068975,0.19153613,-9.519346,0.7866488,47.703903,-1.1243889,-1.7920462,-3.4268093,-0.05634877,-0.1565476,-0.090799734,28.125,29.25,28.4375,32.375,34.4375,35.4375
0.122053795,-1.5308055,-1.315423,-0.5881328,-0.0056527182,0.018264458,-0.17699462,-0.3844937,-0.3485214,0.060020786,-3.0777378,0.62355965,0.00013975821,-0.055837817,0.00059169007,0.0017958529,0.019615117,-0.0013773722,0.02452284,0.47522828,-1.4198054,1.9501604,-2.0989168,-1.5716995,2.4494648,-0.041278858,0.09940598,-0.12639683,0.037180763,-0.017047867,-0.06569264,-0.22984336,0.2873042,-9.557653,0.85155696,47.642998,-1.2308557,-1.8181828,-3.4622045,-0.06296183,-0.17404707,-0.060891207,28.125,29.25,28.4375,32.375,34.4375,35.4375
0.12405364,-1.0918705,-1.0713888,-0.63798684,-0.013898143,0.045174133,-0.17687881,-0.38459778,-0.3485213,0.06002236,-3.0777142,0.6234606,0.00014547438,-0.057502102,0.00020031493,0.0023109536,0.018883575,0.00055841776,0.021492299,0.475156,-1.4196125,1.9499196,-2.0988448,-1.5717357,2.449334,-0.041940793,0.10098011,-0.1292078,0.036361568,-0.017291363,-0.06332133,-0.24899697,0.2681506,-9.653421,0.84484416,47.704796,-1.2640486,-1.7559909,-3.3622518,-0.028938757,-0.16468814,-0.10643192,28.125,29.25,28.4375,32.375,34.4375,35.4375
0.12605326,-1.3503673,-0.8670104,-0.6207279,-0.017496822,0.046464656,-0.1843064,-0.3847113,-0.3485306,0.060040798,-3.077718,0.6233081,0.00015136447,-0.05837723,0.00072800164,0.0018069705,0.018966345,-0.0013117245,0.018444244,0.4750834,-1.4194198,1.949632,-2.0987365,-1.5717591,2.4491658,-0.044166498,0.10313508,-0.13080142,0.03749652,-0.016511146,-0.062499642,-0.17238252,0.22984336,-9.615114,0.78217715,47.67793,-1.2224357,-1.7895861,-3.4144526,-0.037698917,-0.1582842,-0.12912166,28.125,29.25,28.4375,32.375,34.4375,35.4375
0.12805425,-1.4123547,-0.72922677,-0.64666826,-0.0010806775,0.038317166,-0.18140268,-0.38484147,-0.3485481,0.06007743,-3.077733,0.62325495,0.00021926004,-0.06103939,0.00027578292,0.0029409465,0.01828107,0.0011938863,0.016467797,0.47501078,-1.4192387,1.9493192,-2.0986412,-1.5717834,2.4490583,-0.04543614,0.10545794,-0.13618779,0.038018543,-0.017055996,-0.06178934,-0.38307226,0.22984336,-9.653421,0.78217715,47.64837,-1.1344343,-1.7830107,-3.1977808,-0.03051382,-0.19605012,-0.0993737,28.125,29.25,28.4375,32.375,34.4375,35.4375
0.13005343,-1.2481234,-0.89300054,-0.807152,0.0126554705,0.03828525,-0.17351928,-0.3849192,-0.34852797,0.060030896,-3.077657,0.62314475,0.00011874515,-0.06115787,0.00031321618,0.00091602607,0.020326916,-0.0028098645,0.011870178,0.4749269,-1.4190087,1.9491509,-2.0985925,-1.5718192,2.4489155,-0.045605063,0.11080485,-0.13791287,0.038894583,-0.017049901,-0.057357296,-0.3256114,0.24899697,-9.653421,0.8537928,47.67345,-1.2677236,-1.8112774,-3.377625,-0.011900431,-0.19759567,-0.1646206,28.125,29.25,28.4375,32.375,34.4375,35.4375
0.13205364,-0.8816532,-0.47151458,-0.5566233,0.0050942576,0.046601813,-0.18245476,-0.38506508,-0.34855312,0.06006369,-3.0777054,0.62313634,0.00017827496,-0.06215634,0.00070294394,0.0017534695,0.020803738,-0.0018493398,0.010294022,0.47483036,-1.4188044,1.9488281,-2.0985324,-1.5718077,2.4488077,-0.046629775,0.11061301,-0.13999937,0.04053953,-0.017911175,-0.056804232,-0.4213795,0.21068975,-9.730036,0.8493211,47.698532,-1.201257,-1.7924712,-3.2774782,-0.004801921,-0.18100382,-0.19724648,28.125,29.25,28.4375,32.375,34.4375,35.4375
0.13405347,-1.3500559,-0.5959058,-0.52814746,-0.0057774363,0.047559652,-0.18340366,-0.3852123,-0.34854192,0.060078293,-3.077653,0.62314534,0.0002603482,-0.06294723,0.00091249263,-0.00079159904,0.023324579,-0.005937329,0.009169977,0.4747222,-1.4185857,1.9485277,-2.0984604,-1.5718797,2.448712,-0.047461707,0.117736645,-0.14238575,0.040586244,-0.018290138,-0.05650919,-0.4213795,0.22984336,-9.710882,0.87617236,47.672558,-1.2184339,-2.0149412,-3.293994,-0.0008393277,-0.22004896,-0.22969432,28.125,29.25,28.4375,32.375,34.4375,35.4375
0.13605332,-1.6716708,-1.17455,-0.5008222,-0.004520106,0.04848268,-0.17632386,-0.3853388,-0.34854415,0.06009636,-3.0776389,0.62308437,0.0002686593,-0.06412427,0.00093635946,0.00055877015,0.021884719,-0.0037090424,0.0075022974,0.47462574,-1.418382,1.9482287,-2.0983531,-1.5719036,2.4485795,-0.04872531,0.11636606,-0.14399673,0.04092432,-0.01803235,-0.056105025,-0.49799395,0.2681506,-9.653421,0.800085,47.709274,-1.2104727,-1.8970757,-3.2851856,0.00039676693,-0.20948279,-0.23347421,28.125,29.25,28.4375,32.375,34.4375,35.4375
0.13805409,-2.0050352,-1.5373752,-0.30949602,-0.015262454,0.05466978,-0.17888185,-0.38546413,-0.34854612,0.060091708,-3.0775764,0.623033,0.00027921703,-0.06434809,0.0016062353,-1.8553774e-05,0.024455912,-0.0061123148,0.007160688,0.47455353,-1.418129,1.9479297,-2.0982678,-1.5719641,2.4484835,-0.049330246,0.11861446,-0.14597222,0.04396334,-0.01922192,-0.05636417,-0.61291564,0.34476504,-9.461885,0.8605109,47.661808,-1.1956673,-1.9090991,-3.2636971,-0.001404921,-0.2163054,-0.25207514,28.125,29.25,28.4375,32.375,34.4375,35.4375
0.14005347,-1.9547836,-1.4270847,-0.319314,-0.020892177,0.05243289,-0.17811126,-0.38561004,-0.348536,0.060112514,-3.0775437,0.6230452,0.0003405585,-0.06576983,0.0012171081,0.001015535,0.023993088,-0.005756832,0.00672301,0.47443327,-1.4179244,1.9476284,-2.098183,-1.5720123,2.4483752,-0.050075725,0.11991749,-0.15045033,0.046604477,-0.018977752,-0.056670908,-0.45968673,0.3256114,-9.519346,0.82022345,47.687782,-1.2869413,-1.9460801,-3.3328648,-0.027511725,-0.22493184,-0.30344206,28.125,29.25,28.4375,32.375,34.4375,35.4375
0.14205368,-1.6399457,-1.1382625,-0.038354825,-0.015784185,0.0547247,-0.17997746,-0.38574675,-0.34854373,0.06011684,-3.0775402,0.62296736,0.00036087283,-0.06525921,0.0021665136,-2.2300195e-05,0.025423696,-0.00898607,0.00572318,0.47433695,-1.4176841,1.9473289,-2.0981224,-1.5720357,2.448231,-0.051398847,0.12096451,-0.14969973,0.048328698,-0.01877178,-0.05699522,-0.45968673,0.22984336,-9.557653,0.8247004,47.67345,-1.2316691,-1.7973671,-3.3378096,-0.03206935,-0.24765605,-0.31196612,28.125,29.25,28.4375,32.375,34.4375,35.4375
0.14405394,-1.6241734,-0.74001616,0.12864923,-0.0054104063,0.036782928,-0.18084805,-0.38586503,-0.3485681,0.060122173,-3.0775368,0.6229477,0.00031674025,-0.0658589,0.0027965908,-0.0007398033,0.027236538,-0.010868206,0.0055083283,0.4742645,-1.4174427,1.947018,-2.0980265,-1.5720242,2.4481468,-0.052554283,0.12352936,-0.15140344,0.049970638,-0.019528635,-0.057932656,-0.34476504,0.2873042,-9.270349,0.85155696,47.682407,-1.2091719,-1.8502548,-3.335823,-0.041394003,-0.2352468,-0.31634566,28.125,29.25,28.4375,32.375,34.4375,35.4375
0.14605369,-1.3056715,-0.28370586,0.2749374,0.0126407305,0.024339462,-0.17633753,-0.38606143,-0.34854358,0.060157355,-3.0774972,0.62299675,0.00047003513,-0.06639303,0.0033882172,-0.0012372013,0.02906193,-0.012333894,0.00562022,0.4740962,-1.4172137,1.9466585,-2.097954,-1.5721086,2.4480145,-0.053438272,0.1255989,-0.15305655,0.051685505,-0.020484326,-0.058926724,-0.3256114,0.15322891,-9.174581,0.72622824,47.65912,-1.2055137,-1.8286548,-3.4427433,-0.07043098,-0.24292353,-0.36675975,28.125,29.25,28.4375,32.375,34.4375,35.4375
0.14805375,-1.2028085,-0.09366519,0.5698952,0.03228957,0.004545462,-0.1752824,-0.38620704,-0.34851998,0.0601386,-3.0773923,0.6230337,0.0004919282,-0.06783997,0.0039980486,-0.00057002436,0.029177155,-0.0120070735,0.0031701778,0.4739756,-1.4169374,1.9463705,-2.0978935,-1.5721925,2.4479306,-0.055644,0.12616272,-0.15566742,0.05348833,-0.020743081,-0.058679845,-0.34476504,0.095768064,-9.11712,0.86498255,47.63046,-1.1934988,-1.8910861,-3.381489,-0.07854503,-0.26719683,-0.3971164,28.125,29.25,28.4375,32.375,34.4375,35.4375
0.15005338,-0.31168777,0.939137,0.74156916,0.031886347,0.008268186,-0.1815629,-0.38635337,-0.34852973,0.060160298,-3.0774074,0.62294084,0.0005130583,-0.06820738,0.0045969114,-0.0017414325,0.030492509,-0.01570791,0.0017055537,0.47386694,-1.4167079,1.9460353,-2.0977962,-1.5722045,2.4477623,-0.05734668,0.12953967,-0.15740888,0.05574096,-0.020225571,-0.058918353,-0.24899697,0.095768064,-8.944737,0.85826975,47.68062,-1.0664284,-1.9645865,-3.4313242,-0.10394332,-0.2498109,-0.41947412,28.125,29.25,28.4375,32.3125,34.4375,35.4375
0.15205398,0.008555675,0.6089997,0.5864836,0.059745338,-3.0161975e-05,-0.18166348,-0.38647127,-0.3485458,0.0601507,-3.0773842,0.62285787,0.00046613324,-0.06851712,0.0034339793,-0.0008228275,0.030331142,-0.015000267,0.0041871066,0.47379568,-1.4164437,1.9457349,-2.0977123,-1.5722169,2.4476423,-0.055435374,0.13026874,-0.16082454,0.057721883,-0.020412965,-0.05948584,-0.28730422,0.038307227,-8.829816,0.8493211,47.682407,-1.2469527,-1.6811986,-3.3372836,-0.11050749,-0.27755135,-0.45934188,28.125,29.25,28.4375,32.3125,34.4375,35.4375
0.15405433,-0.11876757,0.76085407,0.6976265,0.06483657,-0.0074338503,-0.18464898,-0.38662723,-0.34851554,0.06015333,-3.0773046,0.6228601,0.00046327204,-0.06928653,0.004409857,-0.0006376656,0.03101053,-0.016195873,0.003920184,0.4736387,-1.4161913,1.9454116,-2.0975916,-1.572277,2.4474971,-0.05778712,0.130666,-0.1622826,0.060146637,-0.020478962,-0.061569225,-0.17238252,0.0,-8.791509,0.8291774,47.6636,-1.1568512,-1.8186533,-3.3249354,-0.16466922,-0.30740926,-0.48994243,28.125,29.25,28.4375,32.3125,34.4375,35.4375
0.15605399,-0.7540491,0.47401157,0.7655788,0.06747523,-0.022492588,-0.17234111,-0.38679424,-0.3485066,0.060175274,-3.0772462,0.62296396,0.00047964734,-0.07144264,0.0053095073,-0.0005811078,0.031482443,-0.017370034,0.0014889166,0.4734937,-1.4159378,1.9450401,-2.097459,-1.5723127,2.4474247,-0.061376724,0.13357043,-0.16632,0.06253233,-0.020372901,-0.062725596,-0.076614454,-0.095768064,-8.7532015,0.8717007,47.703903,-1.0459809,-1.771949,-3.2310605,-0.1737437,-0.28290394,-0.47325075,28.125,29.25,28.4375,32.3125,34.4375,35.4375
0.15805414,-0.21424846,0.4993925,0.7038888,0.041738898,-0.00026261416,-0.18433395,-0.38692084,-0.34850243,0.060161807,-3.077194,0.62275714,0.000447988,-0.072361544,0.0049251914,-0.0002763092,0.03212986,-0.017592276,0.0076359333,0.47340965,-1.415661,1.9447283,-2.0973508,-1.5723728,2.4472184,-0.061197408,0.13567626,-0.16991451,0.06449989,-0.020864269,-0.06868894,-0.11492168,-0.095768064,-8.7532015,0.86945957,47.70211,-0.9633435,-1.7734444,-3.3608453,-0.23331885,-0.30159193,-0.45033413,28.125,29.25,28.4375,32.3125,34.4375,35.4375
0.16005412,-0.38905063,0.32751456,0.6519142,0.018670885,0.011267441,-0.18069145,-0.38705054,-0.34847012,0.060156323,-3.0771017,0.62271786,0.00037581657,-0.07213025,0.005260929,-0.0013952638,0.034231983,-0.020099357,0.009768492,0.47326577,-1.4154198,1.9444283,-2.097195,-1.5724214,2.447062,-0.061077345,0.1382093,-0.17060055,0.06583535,-0.02160433,-0.070697054,-0.05746084,-0.019153614,-8.868123,0.8672237,47.7451,-1.0950551,-1.7576015,-3.3093395,-0.26787725,-0.317424,-0.45116317,28.125,29.25,28.4375,32.3125,34.4375,35.4375
0.16205409,-0.985986,-0.24156894,0.32945633,0.013415246,0.006188592,-0.18358995,-0.38716668,-0.34848204,0.06015452,-3.0770583,0.62266886,0.0002702118,-0.07404522,0.005906217,-0.00071635324,0.03338276,-0.018784702,0.0108830845,0.4731807,-1.4151554,1.9440931,-2.097039,-1.572421,2.446952,-0.064024255,0.13864696,-0.17271025,0.06594061,-0.021465652,-0.0747561,-0.1340753,0.095768064,-9.059659,0.83365434,47.71465,-1.0030582,-1.774678,-3.2341862,-0.28802308,-0.32678747,-0.43322718,28.125,29.25,28.4375,32.3125,34.4375,35.4375
0.16405398,-0.29445234,-0.5101556,0.0024999666,0.006828944,0.03373197,-0.18572265,-0.38730586,-0.3484502,0.060134,-3.0769176,0.6226355,0.00013574443,-0.074938014,0.0059186094,-0.0017895545,0.034143616,-0.019840004,0.019028254,0.47303644,-1.4148417,1.9437331,-2.0968359,-1.572481,2.4468052,-0.06468208,0.14228149,-0.1742979,0.065156735,-0.021695836,-0.08355371,-0.17238252,0.21068975,-9.155427,0.84708,47.698532,-0.92477775,-1.9505754,-3.2104774,-0.32383075,-0.3295294,-0.3639942,28.125,29.25,28.4375,32.3125,34.4375,35.4375
0.16605379,-0.55048007,-0.8991386,-0.3043016,-0.018291721,0.04800946,-0.18071209,-0.3874764,-0.3484299,0.060144495,-3.0768595,0.62252635,0.00016159305,-0.07730369,0.0058470215,-0.0009898206,0.033528857,-0.016095288,0.019891081,0.47289208,-1.4145653,1.9433616,-2.0967047,-1.5725535,2.4466004,-0.06591171,0.14346506,-0.17705388,0.06310657,-0.022875562,-0.08564019,-0.24899697,0.3256114,-9.289502,0.8493211,47.70211,-0.969243,-1.6279619,-3.2354527,-0.3255025,-0.33426124,-0.31506127,28.125,29.25,28.4375,32.3125,34.4375,35.4375
0.16805404,-1.1919626,-1.9656494,-0.39234594,-0.03121491,0.060846545,-0.17807387,-0.38762268,-0.3484042,0.060128964,-3.0767615,0.62246525,0.00012823532,-0.07870767,0.005343753,-0.0006470225,0.032402456,-0.014012618,0.024678763,0.47276005,-1.4142767,1.9430383,-2.096586,-1.5726255,2.446443,-0.06628639,0.14475952,-0.1789606,0.061332144,-0.022848058,-0.09079939,-0.47884035,0.34476504,-9.308656,0.8717007,47.694946,-0.9107199,-1.7051435,-3.3063977,-0.3292737,-0.34145778,-0.26863828,28.125,29.25,28.4375,32.3125,34.4375,35.4375
0.17005385,-1.9046006,-2.5317721,-0.74041075,-0.0485961,0.067343995,-0.17413142,-0.38775873,-0.34840178,0.06011605,-3.0766907,0.6223911,-9.044889e-06,-0.08015237,0.005215823,-0.00081519154,0.031853933,-0.012963743,0.026716797,0.47263974,-1.4139636,1.9426669,-2.0964072,-1.5726374,2.4462857,-0.06733301,0.1469043,-0.1807298,0.05976306,-0.022863822,-0.093879886,-0.47884035,0.4405331,-9.519346,0.7978386,47.690468,-0.9096969,-1.6823266,-3.3738794,-0.325342,-0.34984052,-0.19980553,28.125,29.25,28.4375,32.3125,34.4375,35.4375
0.17205359,-2.2527304,-2.7885578,-0.84040767,-0.072407976,0.08228447,-0.17634684,-0.38792866,-0.34839675,0.060111396,-3.0766778,0.6221569,-7.891843e-06,-0.08270189,0.0047780937,-0.00074073824,0.029833525,-0.009132528,0.027005859,0.47250718,-1.4136505,1.9422959,-2.0963132,-1.5726851,2.446009,-0.068858296,0.14922386,-0.18250586,0.054877337,-0.022833413,-0.09569153,-0.51714754,0.47884035,-9.653421,0.88289046,47.675243,-0.9033444,-1.7298243,-3.3799233,-0.2899703,-0.36303657,-0.15478677,28.125,29.25,28.4375,32.3125,34.4375,35.4375
0.17405352,-2.2687848,-2.864106,-0.9480278,-0.07434217,0.0897086,-0.17458642,-0.38810164,-0.3483864,0.060108803,-3.0766373,0.62209135,8.4155845e-06,-0.084721275,0.004063423,-0.00025851492,0.028421313,-0.005944246,0.026304495,0.4723631,-1.4133494,1.9419364,-2.0962303,-1.5727338,2.4458294,-0.0692566,0.15109578,-0.18520011,0.052211553,-0.023043446,-0.0953853,-0.5363012,0.49799395,-9.710882,0.83365434,47.67345,-0.8676772,-1.725296,-3.416542,-0.2677294,-0.3895089,-0.14718223,28.125,29.25,28.4375,32.3125,34.4375,35.4375
0.1760534,-1.7069278,-2.4573717,-0.94163215,-0.05334637,0.08409542,-0.17170617,-0.38825855,-0.3483745,0.060113575,-3.0765784,0.6220421,-6.0926363e-06,-0.08592686,0.0048331823,-0.0004402531,0.028866343,-0.0053173425,0.022404296,0.4722304,-1.4130728,1.9415773,-2.0960987,-1.5727814,2.4456737,-0.071228534,0.15212336,-0.18583517,0.051462345,-0.023731824,-0.09345319,-0.61291564,0.4213795,-9.691729,0.84708,47.695843,-0.82752883,-1.6952206,-3.403295,-0.2316499,-0.3831713,-0.12782934,28.125,29.25,28.4375,32.3125,34.4375,35.4375
0.17805421,-2.2798889,-1.7872912,-0.93500876,-0.038586862,0.056402024,-0.16982889,-0.38843966,-0.3483724,0.06011486,-3.0765493,0.62200046,1.1477905e-05,-0.086631514,0.005210634,-0.002492714,0.03045735,-0.0073266407,0.01779999,0.472086,-1.412759,1.9411939,-2.0960152,-1.5728182,2.4455073,-0.072168514,0.15691674,-0.18630362,0.0496536,-0.02423783,-0.089785695,-0.5554548,0.40222588,-9.749189,0.90527004,47.68599,-0.7531649,-1.7453606,-3.553351,-0.21186265,-0.40389293,-0.15378375,28.125,29.25,28.4375,32.3125,34.4375,35.4375
0.18005387,-0.5788508,-0.7249176,-0.82199216,-0.02421815,0.07742729,-0.18640791,-0.38861734,-0.34837088,0.060100753,-3.076534,0.6219212,-2.109034e-05,-0.08911001,0.0045753266,-0.0011798117,0.027813783,-0.0018605691,0.013970802,0.47192994,-1.4124228,1.940823,-2.0959456,-1.5728301,2.445304,-0.073155664,0.1568687,-0.18841031,0.045740034,-0.024383044,-0.086940765,-0.4405331,0.34476504,-9.749189,0.8291774,47.71017,-0.75646186,-1.689701,-3.4811988,-0.13915858,-0.42352974,-0.19100036,28.125,29.25,28.4375,32.3125,34.4375,35.4375
0.18205355,-1.3016309,-0.7498506,-0.8732316,0.00091766095,0.044021748,-0.16834942,-0.3888092,-0.34834123,0.060090877,-3.076456,0.62190795,5.736852e-07,-0.090380564,0.004109954,-0.0013496325,0.027643386,-0.0018538621,0.008670576,0.4717498,-1.4120973,1.9404515,-2.0958612,-1.5729016,2.4451258,-0.073533274,0.15985776,-0.19152477,0.04578222,-0.024237951,-0.08201584,-0.49799395,0.17238252,-9.80665,0.8493211,47.684196,-0.7966914,-1.9844804,-3.5199974,-0.12337468,-0.42433345,-0.22246993,28.125,29.25,28.4375,32.3125,34.4375,35.4375
0.18405369,-0.81324506,-0.66665024,-0.79657185,0.015159695,0.052534148,-0.17590272,-0.3890178,-0.34834832,0.06011404,-3.07645,0.62188977,0.00010229556,-0.091203354,0.00563038,-0.0030209478,0.030367685,-0.0054091304,0.0035369466,0.4716047,-1.4117835,1.9400204,-2.0957892,-1.5729502,2.4449704,-0.07639366,0.16380252,-0.1926629,0.04738131,-0.02504278,-0.07974028,-0.53630114,0.17238252,-9.825804,0.87393653,47.68599,-0.6138754,-1.9893835,-3.6134248,-0.09897627,-0.44169,-0.28756946,28.125,29.25,28.4375,32.3125,34.4375,35.4375
0.18605417,-1.080557,0.012713931,-0.4727575,0.011450803,0.042034224,-0.17404963,-0.38918522,-0.34832433,0.060092974,-3.0763686,0.6218301,7.026865e-05,-0.091243945,0.004398294,-0.0034026257,0.031219088,-0.005726202,0.009459392,0.47144952,-1.4114583,1.9396719,-2.0956929,-1.5730103,2.4447887,-0.073813766,0.16671662,-0.19528109,0.04774037,-0.025676975,-0.0830774,-0.30645782,0.0,-9.653421,0.8224646,47.68599,-0.8672302,-2.081065,-3.515817,-0.064134434,-0.44072747,-0.2582325,28.125,29.25,28.4375,32.3125,34.4375,35.4375
0.1880539,-1.0984749,0.15448944,-0.47696993,0.018911073,0.045541734,-0.17957962,-0.38938394,-0.34831566,0.060099006,-3.076303,0.6219153,0.00012615885,-0.09299247,0.004706012,-0.002806329,0.031608775,-0.004688692,0.0056398776,0.47129306,-1.4111336,1.9392647,-2.095609,-1.5730704,2.444694,-0.07536121,0.16816296,-0.19861852,0.048883673,-0.026498789,-0.080801055,-0.30645782,-0.05746084,-9.5385,0.91421866,47.67166,-0.8342955,-2.0604875,-3.5182886,-0.045400973,-0.4500839,-0.29352325,28.125,29.25,28.4375,32.3125,34.4375,35.4375
0.19005364,-1.109768,0.13149182,-0.44959804,0.033321097,0.03307924,-0.17083888,-0.38959798,-0.3483166,0.060116697,-3.0763116,0.6218396,0.00020170854,-0.09457536,0.00499962,-0.0029214208,0.03258935,-0.005717066,0.0045532295,0.47112462,-1.4108084,1.9388326,-2.095536,-1.5731066,2.4444776,-0.07699222,0.17140429,-0.20262614,0.05100429,-0.026910903,-0.081343025,-0.19153613,-0.038307227,-9.461885,0.8224646,47.70211,-0.65890497,-1.9796491,-3.517519,-0.011921676,-0.45342374,-0.31863958,28.125,29.25,28.4375,32.3125,34.4375,35.4375
0.19205351,-1.1902518,0.1641976,-0.3601082,0.039059475,0.017264733,-0.17225808,-0.3897544,-0.34830457,0.060096145,-3.0762231,0.62178046,0.0001289,-0.09539008,0.00357524,-0.00086495455,0.03249439,-0.0020695305,0.0075644082,0.47099355,-1.4104722,1.9384617,-2.095404,-1.5731558,2.4443212,-0.074163556,0.17068331,-0.20693135,0.05273494,-0.028497633,-0.081516065,-0.24899697,0.05746084,-9.404425,0.9298854,47.695843,-0.9087897,-2.0335193,-3.3630762,-0.011723447,-0.43860304,-0.3404051,28.125,29.25,28.4375,32.3125,34.4375,35.4375
0.19405372,-0.49371406,0.31795582,-0.37129733,0.028786313,0.022221921,-0.1769065,-0.38998437,-0.34830102,0.060111444,-3.0761695,0.6217313,0.00027608348,-0.09658078,0.004398404,-0.0012069562,0.034543864,-0.002692766,0.005864429,0.47084916,-1.4101112,1.9379939,-2.095332,-1.573264,2.4441533,-0.075645745,0.17304249,-0.20925269,0.05417567,-0.030042207,-0.08129301,-0.17238252,0.19153613,-9.3661175,0.8873621,47.69763,-0.8699894,-2.1130676,-3.3308134,-0.020362096,-0.44897413,-0.38530445,28.125,29.25,28.4375,32.3125,34.4375,35.4375
0.19605352,-0.18042757,-0.100536995,-0.22215606,0.023784725,0.02645472,-0.1787127,-0.39015225,-0.3482833,0.060095318,-3.076078,0.621673,0.0002267705,-0.0968966,0.0044539277,-0.0014557283,0.036823858,-0.0036204213,0.008120343,0.47070524,-1.4097736,1.937611,-2.0951993,-1.5733246,2.443985,-0.074946396,0.17519331,-0.21170568,0.056331266,-0.03166661,-0.08284039,-0.21068975,0.21068975,-9.251195,0.87617236,47.71465,-0.8544522,-2.0351045,-3.433115,0.00785397,-0.4338088,-0.3786974,28.125,29.25,28.4375,32.3125,34.4375,35.4375
0.19805413,-0.4318182,-0.6335582,-0.29242924,-0.0063232887,0.026088245,-0.17587696,-0.39037448,-0.34828472,0.060124658,-3.0760312,0.62160367,0.0003180739,-0.09712402,0.004669648,-0.0014828158,0.037802596,-0.004941096,0.010647589,0.4705612,-1.4094253,1.9371089,-2.0950544,-1.5734085,2.443804,-0.075301565,0.17628606,-0.21347554,0.058610905,-0.031946495,-0.08572165,-0.17238252,0.3256114,-9.308656,0.8493211,47.701214,-0.82969934,-1.9866333,-3.3551679,0.020816583,-0.4232459,-0.38654774,28.125,29.25,28.4375,32.3125,34.4375,35.4375
0.20005383,-0.453204,-1.530863,-0.1203465,-0.021271268,0.030638825,-0.17541488,-0.3905892,-0.3482724,0.06012377,-3.075981,0.62158936,0.0003047602,-0.09640004,0.005334227,-0.0012479734,0.041422848,-0.007706671,0.015434766,0.47036955,-1.4090527,1.936653,-2.0949323,-1.5734452,2.4436102,-0.07449592,0.17653778,-0.21573903,0.06471561,-0.033926312,-0.08969516,-0.13407528,0.4213795,-9.212888,0.83365434,47.694054,-1.0000992,-1.9356365,-3.2527554,-0.020111982,-0.42941636,-0.36933765,28.125,29.25,28.4375,32.3125,34.4375,35.4375
0.20205355,-0.6560238,-1.7032521,-0.036403265,-0.037860166,0.025898589,-0.17369463,-0.3907566,-0.34824562,0.060110655,-3.0758443,0.6214816,0.0003014128,-0.09732706,0.006383553,-0.001717502,0.044679645,-0.007843131,0.019910697,0.47024924,-1.4087158,1.9362587,-2.0947769,-1.5735663,2.4434404,-0.07530339,0.17857715,-0.21732233,0.06583704,-0.036791462,-0.094964355,-0.1340753,0.4213795,-9.289502,0.90750587,47.67614,-1.0279276,-1.8657122,-3.3674853,-0.0581892,-0.37921017,-0.3197803,28.125,29.25,28.4375,32.3125,34.4375,35.4375
0.20405336,-0.85302395,-1.6098967,-0.14225785,-0.027191084,0.013945278,-0.17413668,-0.39093578,-0.34823343,0.06007915,-3.075765,0.62136704,0.0002511405,-0.0985201,0.0067383414,-0.0006095811,0.04519311,-0.0074827806,0.022433197,0.47010496,-1.4083315,1.9358643,-2.0946796,-1.5736264,2.4432352,-0.076544985,0.1787086,-0.22079657,0.06907138,-0.03743287,-0.098721966,0.095768064,0.40222588,-9.193734,0.8314132,47.65464,-0.9452502,-1.8514496,-3.424745,-0.058466077,-0.36185235,-0.27254376,28.125,29.25,28.4375,32.3125,34.4375,35.4375
0.20605344,-0.48589298,-1.7359093,0.02483407,-0.00019192834,0.002367594,-0.17308044,-0.39116737,-0.34824094,0.060107928,-3.0757654,0.62126654,0.000362877,-0.097947046,0.007997271,-0.0012202247,0.049108543,-0.012748847,0.029020809,0.4699486,-1.4079823,1.9353727,-2.0945814,-1.573687,2.4430163,-0.07747863,0.18060023,-0.22321919,0.076040074,-0.038544092,-0.10624076,0.05746084,0.40222588,-9.11712,0.8627467,47.661808,-0.96737397,-1.9366695,-3.1853473,-0.1341131,-0.33540982,-0.1783137,28.125,29.25,28.4375,32.3125,34.4375,35.4375
0.20805344,0.0850324,-0.839502,0.028319286,0.016618662,-0.02166905,-0.17215827,-0.391388,-0.34820884,0.06012805,-3.0756934,0.62123096,0.00035949622,-0.098276906,0.008253813,-0.0015978559,0.050559185,-0.013243032,0.03046023,0.4697326,-1.4076455,1.934894,-2.0943902,-1.5737475,2.4427876,-0.077472426,0.1821073,-0.22429849,0.07669455,-0.03963036,-0.10766762,0.019153614,0.34476504,-9.002198,0.8784135,47.696735,-0.9543643,-1.7754714,-3.303413,-0.15975048,-0.3269256,-0.14533558,28.125,29.25,28.4375,32.3125,34.4375,35.4375
0.21005423,0.1904298,0.029858526,0.15917239,0.023444002,-0.03469084,-0.17741105,-0.39155555,-0.3481979,0.060072888,-3.0755658,0.62099236,0.00025595477,-0.09925642,0.008583051,-0.0014473458,0.049654286,-0.014642735,0.03161077,0.4696238,-1.4072008,1.9344758,-2.094258,-1.5738429,2.4425466,-0.07979464,0.18328072,-0.22648734,0.07851789,-0.03821943,-0.11113879,0.05746084,0.30645782,-9.002198,0.84484416,47.681515,-0.8427832,-1.7725441,-3.4500537,-0.16884604,-0.31137276,-0.08915895,28.125,29.25,28.4375,32.3125,34.4375,35.4375
0.2120541,0.53790253,0.005970868,0.060404517,0.022471389,-0.029462848,-0.17822744,-0.39175934,-0.34816524,0.060077168,-3.0754507,0.6209495,0.00025524333,-0.09890468,0.007809457,-0.0016766507,0.050957963,-0.016044281,0.03149031,0.46944472,-1.4068514,1.9340209,-2.0940773,-1.5739387,2.4423559,-0.07772611,0.18532218,-0.2288718,0.08069248,-0.03875761,-0.1089439,0.076614454,0.2681506,-9.021352,0.90527004,47.675243,-1.0546286,-1.8155681,-3.4098039,-0.21465755,-0.29116628,-0.097601615,28.125,29.25,28.4375,32.3125,34.4375,35.4375
0.21405393,0.039683625,-0.78061295,-0.11376347,0.022746881,-0.025901375,-0.16876154,-0.39196104,-0.3481706,0.06008286,-3.0753992,0.6208438,0.00026396645,-0.10051384,0.00905106,-0.0023605872,0.05348782,-0.017370725,0.026987053,0.46931183,-1.4064776,1.9335426,-2.0939333,-1.5739993,2.442164,-0.080239646,0.18870865,-0.23168564,0.08244828,-0.040420476,-0.106944695,0.11492168,0.21068975,-9.059659,0.8560339,47.682407,-1.010823,-1.986356,-3.3995087,-0.25729072,-0.2685838,-0.08171426,28.125,29.25,28.4375,32.3125,34.4375,35.4375
0.21605371,-0.16987425,-0.8644267,0.085338615,0.0044235345,-0.003960214,-0.16206174,-0.39217246,-0.34815672,0.060064796,-3.0753214,0.6206759,0.00022551807,-0.10099201,0.00835424,-0.0023954075,0.053305767,-0.017712476,0.024000088,0.46914384,-1.4060566,1.9330639,-2.0937889,-1.5740713,2.4419014,-0.07958833,0.19068117,-0.23411553,0.08312523,-0.04011401,-0.10330296,0.019153614,0.17238252,-9.136273,0.8940802,47.71286,-0.8821813,-1.9416573,-3.3607855,-0.29669875,-0.23385431,-0.1202617,28.125,29.25,28.4375,32.3125,34.4375,35.4375
0.21805406,-0.7353161,-1.0127742,0.029406235,-0.0044716625,0.0028275826,-0.16262357,-0.3923694,-0.34812918,0.060064644,-3.0751731,0.62064636,0.00019667043,-0.10216751,0.0076351403,-0.0020041699,0.0528741,-0.016291512,0.020963203,0.46898812,-1.4056841,1.9325842,-2.0935738,-1.5741795,2.4417467,-0.07915657,0.192452,-0.23705254,0.08282481,-0.04038648,-0.099827334,0.095768064,0.19153613,-9.251195,0.9030289,47.677036,-1.1286607,-1.8629067,-3.272264,-0.30495965,-0.23125459,-0.15787095,28.125,29.25,28.4375,32.3125,34.4375,35.4375
0.22005409,-0.843497,-1.188075,0.09292704,-0.0016209622,0.016199347,-0.16807121,-0.39256552,-0.34813643,0.060068954,-3.0751243,0.62054265,0.0001787696,-0.10328949,0.008203815,-0.002903157,0.053227257,-0.01687071,0.015276335,0.46885556,-1.4053109,1.9321069,-2.0934188,-1.5742272,2.441556,-0.08107432,0.19504315,-0.23780563,0.08166681,-0.040444184,-0.0960551,0.095768064,0.19153613,-9.251195,0.91198283,47.71286,-1.138738,-1.9158688,-3.3320024,-0.3202316,-0.22017822,-0.18853012,28.125,29.25,28.4375,32.3125,34.4375,35.4375
0.22205451,-0.81488127,-1.0291786,-0.16336998,0.0031862687,0.014580235,-0.1607472,-0.39275026,-0.34810418,0.060044624,-3.0749907,0.62045735,9.624995e-05,-0.10526791,0.0072804396,-0.0028558867,0.051749747,-0.01424421,0.012460109,0.46868747,-1.4049252,1.9316753,-2.0932405,-1.5743116,2.4413521,-0.08124282,0.19792901,-0.24063165,0.07859089,-0.04033752,-0.093400404,0.038307227,0.22984336,-9.232041,0.8493211,47.698532,-1.0540893,-2.1268818,-3.4186301,-0.2756927,-0.19017163,-0.2543086,28.125,29.25,28.4375,32.3125,34.4375,35.4375
0.22406036,-0.84700143,-0.8955637,-0.06129085,-0.007140449,0.017828092,-0.16943157,-0.39297724,-0.3480961,0.06003655,-3.0748847,0.620418,0.00011346562,-0.107144296,0.0065770163,-0.0016432115,0.04959536,-0.009479395,0.010771563,0.46853137,-1.404493,1.9311603,-2.0930974,-1.5744075,2.4411855,-0.08147021,0.1976178,-0.24240595,0.07544355,-0.040585198,-0.09193466,-0.13407528,0.24899697,-9.289502,0.8672237,47.689575,-1.1349449,-1.9749911,-3.3312328,-0.2551921,-0.18039072,-0.316445,28.125,29.25,28.4375,32.3125,34.4375,35.4375
0.22605748,-0.73264366,-1.0062732,-0.17040312,-0.009918516,0.03053402,-0.17628591,-0.39319995,-0.3480806,0.060037673,-3.074823,0.62032735,0.00013607732,-0.10914777,0.005808868,-0.0010159466,0.04718761,-0.005880307,0.010108827,0.46835104,-1.4041085,1.9306825,-2.0929673,-1.5744795,2.4409568,-0.08217275,0.19875811,-0.24446599,0.07204912,-0.04008282,-0.09197371,-0.11492168,0.24899697,-9.270349,0.9321212,47.70211,-1.1183333,-2.1966875,-3.4363313,-0.20867094,-0.15213966,-0.32406265,28.125,29.25,28.4375,32.3125,34.4375,35.4375
0.22805548,-1.296445,-1.2186971,-0.420489,-0.006474871,0.024549449,-0.17459051,-0.39340627,-0.3480799,0.060024,-3.0747173,0.6202872,0.00012435013,-0.11100829,0.0054054665,-0.0014536666,0.04697523,-0.004617598,0.006539259,0.4682189,-1.4036869,1.9301924,-2.0928242,-1.5745634,2.4408135,-0.08282545,0.20240961,-0.24732447,0.070033476,-0.040475674,-0.08905007,-0.24899697,0.2681506,-9.385271,0.8873621,47.695843,-1.1645298,-2.0771818,-3.4068928,-0.1864441,-0.1631224,-0.3948971,28.125,29.25,28.4375,32.3125,34.4375,35.4375
0.23005444,-1.6918396,-1.5997853,-0.6797701,-0.023140715,0.035668015,-0.16458338,-0.39362106,-0.3480314,0.05999868,-3.074564,0.6202916,6.544324e-05,-0.11234674,0.0044990294,-0.0013052355,0.04492572,-0.0036054116,0.00880944,0.46800292,-1.4032778,1.9297379,-2.0926573,-1.5746588,2.4406204,-0.083221056,0.2045176,-0.24986789,0.068608366,-0.039136555,-0.091715634,-0.47884035,0.36391866,-9.500193,0.86945957,47.675243,-1.1137716,-2.1047978,-3.4715276,-0.15323752,-0.14103097,-0.42166024,28.125,29.25,28.4375,32.3125,34.4375,35.4375
0.23205467,-1.7851572,-2.0422726,-0.5513341,-0.047762003,0.061676398,-0.16814546,-0.39382714,-0.34803283,0.059989158,-3.0744793,0.62010276,6.5480446e-05,-0.112741,0.004641628,-0.0022573308,0.04455014,-0.005222772,0.0058590635,0.46788257,-1.4028566,1.9292358,-2.0925024,-1.5747546,2.4403934,-0.08444719,0.2067185,-0.25019184,0.06799544,-0.03807818,-0.089993045,-0.6512229,0.38307226,-9.519346,0.8985519,47.67614,-1.1741798,-2.0634618,-3.564805,-0.14570035,-0.12884545,-0.47762197,28.125,29.25,28.4375,32.3125,34.4375,35.4375
0.23405817,-2.4002664,-2.2555058,-0.6685968,-0.052825145,0.06900595,-0.16672117,-0.39406618,-0.34805202,0.060001228,-3.0744796,0.62013763,7.467378e-05,-0.11315392,0.00386815,-0.002537135,0.044182293,-0.0074411714,0.00937885,0.4677027,-1.4024471,1.928708,-2.0923936,-1.5747541,2.4402356,-0.08423053,0.20972714,-0.2536328,0.0702171,-0.036766108,-0.09330115,-0.59376204,0.34476504,-9.653421,0.86498255,47.67614,-1.1756531,-2.0640569,-3.6566598,-0.10670996,-0.14750752,-0.48748654,28.125,29.25,28.4375,32.3125,34.4375,35.4375
0.23609246,-2.641536,-1.9481848,-0.70830756,-0.048586134,0.07363556,-0.16430207,-0.39428034,-0.3480338,0.05998127,-3.0743566,0.6200347,3.575401e-06,-0.11579259,0.0038847025,-0.0011321468,0.041513212,-0.004689516,0.011967341,0.46753332,-1.4020026,1.9281939,-2.092202,-1.574838,2.4400182,-0.08724764,0.21003073,-0.25717908,0.06975909,-0.03566674,-0.098906115,-0.6512229,0.30645782,-9.691729,0.9097417,47.695843,-1.0847236,-1.995941,-3.4976091,-0.11791283,-0.16461408,-0.48518977,28.125,29.25,28.4375,32.3125,34.4375,35.4375
0.23809658,-2.202288,-1.1918988,-0.77539665,-0.01602914,0.07845023,-0.17502771,-0.39450788,-0.34803465,0.05997044,-3.0742807,0.6200133,2.461243e-05,-0.11637969,0.0028102312,-0.00060850306,0.039323516,-0.0029353804,0.019807367,0.46737775,-1.40157,1.9276918,-2.0920947,-1.5749096,2.4398594,-0.08654383,0.21024796,-0.25834227,0.06810548,-0.03453967,-0.10604593,-0.5746084,0.24899697,-9.634268,0.92764956,47.68599,-1.1857569,-1.9555676,-3.5346537,-0.06294294,-0.15661925,-0.4236148,28.125,29.25,28.4375,32.3125,34.4375,35.4375
0.24009375,-2.0573425,-0.4093033,-0.69159585,0.011282605,0.061030485,-0.16646114,-0.39475605,-0.34802255,0.059969224,-3.0742192,0.6198628,8.3262734e-05,-0.118545994,0.0038669996,-0.0007469491,0.039133437,-0.0045516873,0.023118071,0.4671964,-1.4011368,1.927164,-2.0919745,-1.5750049,2.4395924,-0.09079971,0.21311826,-0.26189905,0.07009717,-0.033676904,-0.113614395,-0.6512229,0.17238252,-9.653421,0.8873621,47.687782,-1.0907123,-2.0045984,-3.538001,-0.041556336,-0.16892378,-0.36741585,28.125,29.25,28.4375,32.3125,34.4375,35.4375
0.24210888,-1.8283389,0.035318628,-0.61127514,0.03564554,0.047327515,-0.17227648,-0.39499554,-0.3480175,0.059950955,-3.0741572,0.61982656,6.457911e-05,-0.118398465,0.0028394542,-0.00028455298,0.037569672,-0.004132234,0.030808778,0.46700493,-1.4006803,1.9266504,-2.0918667,-1.5750526,2.4393866,-0.08954515,0.21295899,-0.26286435,0.070098884,-0.03250341,-0.120054506,-0.51714754,0.038307227,-9.634268,0.8851263,47.691364,-0.9875287,-1.9997842,-3.5983872,-0.023770012,-0.20745252,-0.2795004,28.125,29.25,28.4375,32.3125,34.4375,35.4375
0.2440962,-1.5184708,0.15681806,-0.6537711,0.032196227,0.044180956,-0.16853231,-0.39522663,-0.34798706,0.05994562,-3.0740738,0.6196739,5.131693e-05,-0.119828515,0.003634915,-0.00076270656,0.03793032,-0.0042547374,0.032765735,0.46679994,-1.4002709,1.9261488,-2.0916994,-1.575137,2.4390974,-0.09194493,0.21500543,-0.26410317,0.06952798,-0.03280278,-0.124406666,-0.4213795,-0.019153614,-9.576807,0.92764956,47.6636,-1.0350103,-2.0131183,-3.6414769,0.022999289,-0.19651493,-0.23707303,28.125,29.25,28.4375,32.3125,34.4375,35.4375
0.24605556,-0.98327523,0.08844168,-0.6234774,0.028300947,0.049097706,-0.17257348,-0.39547965,-0.34800124,0.05994199,-3.074047,0.61957,7.62205e-05,-0.12123055,0.005120636,-0.0011524202,0.039547533,-0.0066312207,0.0335251,0.46663073,-1.399802,1.9255866,-2.0915906,-1.5751852,2.438867,-0.09546411,0.21737769,-0.26676837,0.07264165,-0.033196986,-0.12868191,-0.4213795,-0.114921674,-9.576807,0.90527004,47.703903,-0.80635893,-2.1327124,-3.6238966,0.04430382,-0.18999846,-0.16982748,28.125,29.25,28.4375,32.3125,34.4375,35.4375
0.24805498,-0.7130388,0.23166327,-0.5312452,0.018088488,0.042264346,-0.17690466,-0.39569566,-0.3479679,0.059915673,-3.0739145,0.619487,-3.674409e-05,-0.122247376,0.0052112415,-0.0009640836,0.040622648,-0.008656869,0.029474186,0.46642646,-1.3993567,1.9250821,-2.0913851,-1.5752572,2.4386284,-0.096415445,0.22008032,-0.27137926,0.07684143,-0.033258956,-0.12557551,-0.51714754,-0.22984336,-9.5385,0.9030289,47.67614,-0.73328006,-2.1935067,-3.5529485,0.027700733,-0.20254362,-0.15469737,28.125,29.25,28.4375,32.3125,34.4375,35.4375
0.25005397,-0.99489933,0.1751438,-0.6034208,0.028439725,0.019038133,-0.16658132,-0.39593548,-0.3479717,0.059917737,-3.0738869,0.6193086,-1.458775e-05,-0.12266731,0.0056471573,-0.00077772833,0.042142313,-0.010977951,0.026912289,0.46625832,-1.3989238,1.9245433,-2.0912526,-1.5753168,2.4383528,-0.097280435,0.22158039,-0.27465865,0.0813735,-0.033571064,-0.12387525,-0.45968673,-0.076614454,-9.3661175,0.90750587,47.684196,-0.7391051,-2.1132307,-3.5943584,-0.0109456675,-0.20959178,-0.15406454,28.125,29.25,28.4375,32.3125,34.4375,35.4375
0.2520544,-0.5274642,0.31436962,-0.43035126,0.035644613,0.021282522,-0.16853808,-0.39620838,-0.34794682,0.059923396,-3.073789,0.61931294,6.6138375e-05,-0.12256395,0.0061676763,-0.0011723177,0.044065088,-0.014889815,0.018499613,0.46604183,-1.3984785,1.9239815,-2.0911186,-1.575425,2.438152,-0.098057844,0.22369193,-0.27744362,0.086421475,-0.033505514,-0.116239,-0.45968673,-0.1340753,-9.423578,0.92093146,47.688675,-0.70957357,-2.179614,-3.5481486,-0.038252324,-0.21068054,-0.23627499,28.125,29.25,28.4375,32.3125,34.4375,35.4375
0.25405428,-0.8699363,0.057201456,-0.30892277,0.038364295,0.019577013,-0.16637945,-0.39641732,-0.34792548,0.059893608,-3.0736964,0.61916053,-5.711267e-05,-0.122605875,0.0061320057,-0.00073199836,0.045888323,-0.018561443,0.015497488,0.46585006,-1.3980335,1.9234899,-2.0909364,-1.5754732,2.4378774,-0.09797544,0.22565751,-0.28243485,0.09354954,-0.033489835,-0.1131487,-0.34476504,-0.11492168,-9.308657,0.8627467,47.705692,-0.77622175,-2.1532326,-3.454526,-0.08477463,-0.21698762,-0.2881427,28.125,29.25,28.4375,32.3125,34.4375,35.4375
0.25605384,-0.4488695,0.80664146,-0.2783681,0.03063483,0.022301733,-0.17474473,-0.39670154,-0.34792638,0.059918657,-3.0736332,0.6191473,-7.5510266e-06,-0.124305636,0.005629814,-0.00016282938,0.045737356,-0.018596152,0.014049782,0.4656459,-1.397564,1.9228419,-2.0907438,-1.5755452,2.4376736,-0.098603226,0.22852029,-0.28769994,0.09590389,-0.033351365,-0.1123268,-0.24899697,0.05746084,-9.404425,0.90750587,47.68599,-0.8262881,-2.204369,-3.26752,-0.1567673,-0.2247193,-0.31074658,28.125,29.25,28.4375,32.3125,34.4375,35.4375
0.25805408,-0.4646332,-0.0721043,-0.5172195,0.033135135,0.024799481,-0.16375,-0.39694452,-0.34788856,0.059902083,-3.073483,0.6191342,-9.793236e-05,-0.12243179,0.0062998,-0.0016239856,0.04912535,-0.024164189,0.014406052,0.46541825,-1.3970952,1.9222816,-2.0905154,-1.5756291,2.4374576,-0.09769795,0.23010416,-0.28731862,0.10042301,-0.033890434,-0.11177112,-0.19153613,0.11492168,-9.481039,0.9164598,47.70211,-0.73432165,-2.2113633,-3.2843351,-0.19279532,-0.23544113,-0.336533,28.125,29.25,28.4375,32.3125,34.4375,35.4375
0.26005456,-0.8037806,-0.63526565,-0.45010856,0.008098192,0.018702284,-0.16552103,-0.39717352,-0.34788883,0.059902426,-3.073393,0.61898077,-0.00015375302,-0.12164317,0.006823613,-0.0020926355,0.05263737,-0.026640844,0.014789858,0.46526268,-1.3966382,1.9216961,-2.0902865,-1.5757021,2.4372182,-0.09655922,0.2311785,-0.28845078,0.10426805,-0.035926443,-0.11100158,-0.17238252,0.21068975,-9.500193,0.8851263,47.687782,-0.88908786,-2.1538825,-3.4715118,-0.2915118,-0.2151278,-0.36329606,28.125,29.25,28.4375,32.3125,34.4375,35.4375
0.26205385,-0.06883773,-1.4111627,-0.38672057,-0.023311453,0.03728007,-0.17255937,-0.39742017,-0.34785667,0.059888884,-3.0732515,0.61891335,-0.00018858856,-0.122662924,0.008591996,-0.0026333916,0.05348691,-0.028319431,0.01265719,0.46505716,-1.3961694,1.9211344,-2.090083,-1.5758098,2.4369893,-0.10044672,0.23207644,-0.2886088,0.10538147,-0.035960086,-0.112752534,-0.11492168,0.22984336,-9.442732,0.90527004,47.675243,-0.69865143,-2.1365242,-3.6343708,-0.32165962,-0.2153131,-0.39473605,28.125,29.25,28.4375,32.3125,34.4375,35.4375
0.26405427,-0.80583495,-1.6359998,-0.4989198,-0.05384031,0.018441034,-0.17106326,-0.39766943,-0.34783784,0.05987774,-3.0731356,0.6189066,-0.00027124866,-0.123362914,0.0066024065,-0.0020833248,0.051441055,-0.02605564,0.016490381,0.46484214,-1.395688,1.9205493,-2.0898678,-1.5758694,2.4367855,-0.09800285,0.23365916,-0.29142904,0.10365403,-0.03518542,-0.11414091,-0.11492168,0.2873042,-9.595961,0.9925471,47.696735,-0.9640131,-2.1755528,-3.629159,-0.35581973,-0.23280677,-0.38493997,28.125,29.25,28.4375,32.3125,34.4375,35.4375
0.26605436,-0.8535962,-2.1950157,-0.4201716,-0.055238694,0.012352165,-0.1601498,-0.39791813,-0.34783727,0.059879716,-3.0730946,0.61875963,-0.00035308814,-0.12654254,0.006206455,-2.6182155e-05,0.047628343,-0.019351,0.021383794,0.4646374,-1.3952202,1.9199499,-2.0896537,-1.5758938,2.4364946,-0.10024275,0.232478,-0.29393527,0.0995908,-0.03484634,-0.12127226,-0.038307227,0.3256114,-9.404425,1.0238806,47.698532,-0.8319638,-2.0279708,-3.5324006,-0.330195,-0.23302844,-0.37042817,28.125,29.25,28.4375,32.3125,34.4375,35.4375
0.2680558,-0.61626554,-1.6783365,-0.5782151,-0.051554054,0.021930985,-0.17443301,-0.39818782,-0.34780627,0.059873123,-3.0729423,0.6188205,-0.0003281685,-0.12926082,0.004827836,0.0015105816,0.04407825,-0.011771602,0.02674688,0.46442163,-1.39474,1.9193643,-2.0894768,-1.5760134,2.436337,-0.09996537,0.23235516,-0.29600367,0.0933674,-0.03512572,-0.12635253,0.019153614,0.4213795,-9.5385,0.94331104,47.689575,-0.8249945,-1.8166461,-3.590157,-0.28953928,-0.24478066,-0.28608483,28.125,29.25,28.4375,32.3125,34.4375,35.4375
0.27005416,-1.3362266,-2.1925175,-0.9663626,-0.021941083,0.0076824534,-0.15603986,-0.3984745,-0.3477987,0.05990057,-3.0728998,0.6185773,-0.0002681683,-0.1331334,0.003646226,0.0029394275,0.04033552,-0.0047995523,0.032189414,0.46421716,-1.3942714,1.9187058,-2.0892632,-1.5761098,2.4359865,-0.101321615,0.23420565,-0.30028784,0.08783446,-0.0349624,-0.133149,-0.019153614,0.38307226,-9.634268,0.8940802,47.684196,-0.81957865,-1.7463996,-3.6078038,-0.2215446,-0.2630509,-0.23933274,28.125,29.25,28.4375,32.3125,34.4375,35.4375
0.2720535,-0.66293085,-1.4949783,-0.9044323,-0.039505944,0.035226148,-0.16229309,-0.39871612,-0.34779137,0.05987685,-3.0728238,0.6184425,-0.00029244373,-0.13482682,0.0022687018,0.002761743,0.038467355,-0.0022579993,0.039046556,0.4640375,-1.3937896,1.9181675,-2.089133,-1.5761818,2.4357328,-0.10063234,0.23740125,-0.30288368,0.084074415,-0.03448554,-0.13931552,0.095768064,0.47884035,-9.653421,0.8985519,47.688675,-0.8755971,-1.7965269,-3.4879863,-0.15493664,-0.2676713,-0.13141143,28.125,29.25,28.4375,32.3125,34.4375,35.4375
0.2740536,-1.0019225,-1.5013115,-0.7959427,-0.045148265,0.031362537,-0.16607518,-0.39898136,-0.34778127,0.059888463,-3.0727866,0.6183775,-0.00030682253,-0.13758068,0.0011959278,0.0044568502,0.035735026,0.0023779133,0.039220672,0.4638092,-1.3933446,1.91758,-2.0889542,-1.576217,2.4354692,-0.10130235,0.23833756,-0.30758595,0.08245353,-0.034143124,-0.14015834,0.076614454,0.4405331,-9.519346,0.8537928,47.65464,-0.90564716,-1.7830899,-3.4355288,-0.119373314,-0.2837391,-0.07528669,28.125,29.25,28.4375,32.3125,34.4375,35.4375
0.27605373,-0.8582129,-2.018397,-1.1927284,-0.02800103,0.016214991,-0.15582243,-0.39925668,-0.34778112,0.059881918,-3.0727315,0.61829036,-0.00030200818,-0.13807087,0.0007648884,0.0028261717,0.03642809,-5.1020274e-05,0.036714222,0.46360528,-1.3928385,1.9169701,-2.0888102,-1.5762771,2.4352183,-0.101186045,0.24321528,-0.30960026,0.08207061,-0.03367852,-0.1375356,0.0,0.40222588,-9.500193,0.88289046,47.682407,-0.9022522,-1.9706151,-3.4100766,-0.07975694,-0.30386233,-0.08084747,28.125,29.25,28.4375,32.3125,34.4375,35.4375
0.27805424,-0.4783781,-1.7658594,-1.3595365,-0.018999118,-0.0016079034,-0.16048577,-0.39954153,-0.34779936,0.0598986,-3.0727098,0.61811435,-0.00026543683,-0.13776626,0.0011848095,0.0012074591,0.038365103,-0.0032320875,0.032414384,0.4634255,-1.3923329,1.9162997,-2.0886304,-1.5763377,2.4349318,-0.10137559,0.24634574,-0.30987448,0.08293618,-0.03397378,-0.13342269,-0.019153614,0.47884035,-9.864111,1.0104496,47.66808,-1.0804584,-2.0367165,-3.4498873,-0.029632723,-0.32855296,-0.13117732,28.125,29.25,28.4375,32.3125,34.4375,35.4375
0.28005487,-0.7059823,-1.8086057,-1.0933467,-0.04484608,0.0047777765,-0.16354929,-0.39981744,-0.34777492,0.059911273,-3.072609,0.6180564,-0.00021601847,-0.13663352,0.0016233198,-0.00046133721,0.041376166,-0.006606357,0.02977185,0.46320954,-1.3918756,1.9156922,-2.0884383,-1.5764459,2.434693,-0.1003155,0.24866173,-0.3091756,0.0842898,-0.03514778,-0.12971173,-0.11492168,0.45968673,-10.01734,0.96569055,47.689575,-0.9249762,-2.1371093,-3.6475801,-0.037123006,-0.3273309,-0.15925276,28.125,29.25,28.4375,32.3125,34.4375,35.4375
0.28205377,-0.72072756,-1.9483104,-0.8584048,-0.06318254,0.025223251,-0.15758581,-0.4000852,-0.34778437,0.05990592,-3.072563,0.6179353,-0.00020698502,-0.13786325,0.0018125987,0.00058304437,0.041253064,-0.004650361,0.022226648,0.46302944,-1.3913714,1.9150814,-2.0882947,-1.576506,2.4344437,-0.10116405,0.2482711,-0.31140324,0.085131146,-0.035891816,-0.123008505,-0.22984336,0.36391866,-9.902418,0.9254084,47.652847,-1.1303527,-2.1639714,-3.757098,-0.0043061986,-0.32760912,-0.24044588,28.125,29.25,28.4375,32.3125,34.4375,35.4375
0.28405383,-0.24693066,-1.5294375,-1.0517926,-0.048858423,0.031915955,-0.16645958,-0.40038094,-0.34779617,0.05993553,-3.0725346,0.6178522,-0.00011771226,-0.13851269,0.002611529,0.00033946236,0.043386098,-0.008136993,0.01994353,0.4628367,-1.3908905,1.9144119,-2.088125,-1.576578,2.4342031,-0.10280969,0.25094786,-0.31527016,0.0903831,-0.03623894,-0.12236839,-0.076614454,0.34476504,-9.787497,0.9567419,47.675243,-0.8981075,-2.1532893,-3.791278,-0.024754511,-0.35260636,-0.2610875,28.125,29.25,28.4375,32.3125,34.4375,35.4375
0.28605393,-0.66461116,-0.62448,-0.5382122,-0.048487242,0.023034528,-0.16548753,-0.40064394,-0.3477917,0.059916265,-3.0724373,0.61781627,-0.00014386082,-0.13937275,0.002611927,0.0002701835,0.044199783,-0.008034559,0.014964178,0.4626447,-1.3903728,1.913814,-2.0879695,-1.5766505,2.4340017,-0.10298984,0.25280717,-0.31757283,0.09111405,-0.03700755,-0.11756066,-0.1340753,0.2681506,-9.653421,1.0149267,47.70032,-1.0575294,-2.0788,-3.6875196,-0.014793761,-0.35928887,-0.339975,28.125,29.25,28.4375,32.3125,34.4375,35.4375
0.28805408,-0.3477258,-0.596087,-0.6583127,0.0072172275,0.0070781624,-0.15778261,-0.40092924,-0.3477914,0.059911977,-3.0723593,0.6177628,-0.00014014424,-0.14023182,0.0031092872,0.0019495299,0.044793416,-0.008702455,0.011476376,0.46244037,-1.3898447,1.9131659,-2.0877993,-1.5767225,2.4337745,-0.10436341,0.25199577,-0.3219263,0.09713949,-0.037237555,-0.11544241,-0.076614454,0.21068975,-9.461885,1.0082139,47.681515,-1.0256721,-2.1502647,-3.5798485,-0.031896517,-0.37432656,-0.3998728,28.125,29.25,28.4375,32.3125,34.4375,35.4375
0.2900541,0.055936616,0.6231289,-0.48454008,0.04385171,-0.013486882,-0.15980485,-0.40124708,-0.34779355,0.059939045,-3.0723536,0.6176462,-2.0229601e-05,-0.14112867,0.0032982733,0.0024427865,0.045912024,-0.010027759,0.010088567,0.46221218,-1.3893518,1.912496,-2.0876663,-1.5767945,2.4334745,-0.10511053,0.25369775,-0.32608855,0.10127383,-0.03764541,-0.11479952,0.0,0.095768064,-9.404425,0.97464454,47.70032,-1.0796821,-1.9266508,-3.4800978,-0.08347243,-0.40111616,-0.47505838,28.125,29.25,28.4375,32.3125,34.4375,35.4375
0.29205412,0.22468409,1.2997106,-0.42435995,0.06999154,-0.023135075,-0.15483156,-0.40149486,-0.34778953,0.05992567,-3.0722349,0.61762017,-0.00014572094,-0.14179717,0.0042684455,0.0029112159,0.048675563,-0.01201235,0.011674188,0.4620197,-1.388835,1.9118627,-2.087413,-1.5768431,2.4332817,-0.10627216,0.25486794,-0.32990438,0.106904395,-0.039264664,-0.11753057,-0.21068975,0.0,-9.289502,0.9298854,47.678825,-1.0103317,-1.8834391,-3.353601,-0.13704427,-0.3964997,-0.480296,28.125,29.25,28.4375,32.3125,34.4375,35.4375
0.29405394,-0.139401,1.7198122,-0.42335245,0.06976391,-0.021726472,-0.17469586,-0.4017699,-0.34779054,0.059948184,-3.0721636,0.61752456,-0.00014307503,-0.14100331,0.0050912006,0.0029107945,0.05135002,-0.014606336,0.01787956,0.4618278,-1.3883544,1.9111928,-2.0871718,-1.5769161,2.4330397,-0.10611724,0.25459966,-0.33070463,0.111438006,-0.040536683,-0.12357153,-0.17238252,-0.114921674,-9.32781,0.9030289,47.66091,-1.0382469,-1.8064418,-3.4399428,-0.18830252,-0.39106792,-0.48495024,28.125,29.25,28.4375,32.3125,34.4375,35.4375
0.29605427,-0.6625534,0.84943855,-0.27820632,0.05673811,0.01494699,-0.16004336,-0.4020929,-0.3478,0.05997997,-3.0721297,0.61741567,-1.3549487e-05,-0.14148688,0.0061493777,0.00216289,0.05482736,-0.016620591,0.027241701,0.46162373,-1.3878369,1.9104747,-2.087004,-1.5770124,2.4327724,-0.106844835,0.2571476,-0.33271194,0.11417421,-0.042803943,-0.13364772,-0.21068975,-0.019153614,-9.3661175,0.99031126,47.65912,-1.1186035,-1.6862845,-3.3830645,-0.22635081,-0.3929758,-0.3731345,28.125,29.25,28.4375,32.3125,34.4375,35.4375
0.2980537,-1.1163106,0.52722096,-0.36642477,0.029389575,0.05778315,-0.17355432,-0.40235862,-0.34776875,0.059981927,-3.07198,0.6172632,-9.7664335e-05,-0.14247769,0.0075539574,0.0005852622,0.05860538,-0.020490732,0.03557468,0.4614068,-1.3873303,1.9098047,-2.0866911,-1.5771211,2.43248,-0.10895772,0.26202363,-0.3356475,0.117296845,-0.044544574,-0.14407489,-0.28730422,-0.22984336,-9.404425,0.9791215,47.68062,-0.82857513,-1.9518187,-3.4280152,-0.29209825,-0.37992653,-0.30231363,28.125,29.25,28.4375,32.3125,34.4375,35.4375
0.3000538,-1.8780582,0.09973627,-0.12519062,-0.0063673235,0.09265335,-0.16707875,-0.40264228,-0.34776208,0.059986953,-3.071903,0.61714864,-0.00017823817,-0.1430557,0.0078065135,-1.1979804e-05,0.05993123,-0.020294791,0.040803824,0.461179,-1.3868015,1.9091123,-2.0864284,-1.5771693,2.4321911,-0.108960636,0.2638605,-0.3364013,0.116582625,-0.045873966,-0.14929351,-0.38307226,-0.22984336,-9.461885,0.9254084,47.679718,-1.0185316,-2.0429976,-3.5363865,-0.28869057,-0.37677842,-0.20114608,28.125,29.25,28.4375,32.3125,34.4375,35.4375
0.3020539,-2.0805097,-0.47348177,0.06281363,-0.017829252,0.13299821,-0.17474127,-0.4029435,-0.34772167,0.05999758,-3.0717714,0.61700517,-0.0001327856,-0.14531265,0.008124262,0.0004433525,0.059061762,-0.016730608,0.041845515,0.46093825,-1.3862972,1.9084419,-2.08619,-1.5773138,2.4318783,-0.110826395,0.2647366,-0.33791363,0.11359161,-0.046727624,-0.15219131,-0.51714754,-0.26815057,-9.423578,0.8985519,47.653748,-0.79117113,-1.9551705,-3.5490294,-0.3153298,-0.37381947,-0.16266817,28.125,29.25,28.4375,32.3125,34.4375,35.4375
0.30405414,-2.3109627,-0.5997949,0.072402984,-0.0059056506,0.13182542,-0.17185359,-0.40323254,-0.3477153,0.059983853,-3.0716832,0.61685354,-0.00018620785,-0.14866625,0.007446992,0.0013667671,0.05890176,-0.008639456,0.040671475,0.46072257,-1.3857323,1.9077605,-2.0859768,-1.5773872,2.4315798,-0.110262565,0.26664576,-0.34101853,0.10747253,-0.050216943,-0.1504231,-0.61291564,-0.11492168,-9.385271,0.94331104,47.684196,-1.0064342,-1.8722348,-3.7041607,-0.25148425,-0.34700403,-0.13219708,28.125,29.25,28.4375,32.3125,34.4375,35.4375
0.30605415,-2.2737331,-0.18979591,0.16464067,0.0040376494,0.11233917,-0.16798046,-0.40353018,-0.34769762,0.05998425,-3.0716057,0.6166672,-0.00017426928,-0.15225871,0.006652007,0.0028498722,0.057107266,-0.00060331036,0.034512125,0.4604945,-1.385203,1.9070915,-2.0857756,-1.5774835,2.4312458,-0.11064935,0.2677882,-0.3446368,0.10197301,-0.052187007,-0.14463171,-0.6703765,0.0,-9.32781,0.95226496,47.69763,-1.0022901,-1.8100938,-3.451021,-0.17467928,-0.3169958,-0.17465693,28.125,29.25,28.4375,32.3125,34.4375,35.4375
0.30805412,-1.250285,0.27054882,-0.3138463,0.027873589,0.08578813,-0.16465662,-0.403852,-0.34770036,0.060021978,-3.071575,0.61664516,-6.483492e-05,-0.15469718,0.0060906787,0.0033341823,0.055342734,0.0043463144,0.027405586,0.46026617,-1.3847101,1.9063848,-2.0855973,-1.577556,2.431008,-0.11129429,0.26925987,-0.3465223,0.09719327,-0.052785985,-0.13816635,-0.7469909,0.21068975,-9.32781,0.9164598,47.69763,-1.0552642,-1.7966092,-3.481037,-0.099615335,-0.3087407,-0.27073073,28.125,29.25,28.4375,32.3125,34.4375,35.4375
0.31005356,-0.9781532,-0.284209,-0.19859947,0.02474583,0.06645513,-0.15667583,-0.4041433,-0.34766957,0.06002533,-3.071431,0.6164817,4.1544587e-05,-0.15630087,0.0064060753,0.0032867074,0.057480447,0.006319938,0.023957426,0.46007425,-1.384205,1.9057397,-2.085406,-1.5777367,2.4307332,-0.11137693,0.27163386,-0.34920096,0.09667816,-0.055577513,-0.1347776,-0.7086837,0.24899697,-9.385271,0.9791215,47.696735,-1.0205761,-1.7292241,-3.567913,-0.051895097,-0.26463836,-0.3032921,28.125,29.25,28.4375,32.3125,34.4375,35.4375
0.31205362,-1.2298589,-0.81765956,-0.35142142,0.0030048746,0.04686279,-0.15509294,-0.40447706,-0.34763658,0.060021736,-3.071305,0.6164748,6.3037776e-05,-0.1573703,0.00840575,0.002954238,0.061674885,0.006689855,0.022185925,0.4597975,-1.3836279,1.905022,-2.0852015,-1.5778464,2.430469,-0.11316642,0.27258214,-0.34997916,0.09802282,-0.059513252,-0.1347647,-0.7086837,0.34476504,-9.461885,0.9254084,47.677036,-1.0072106,-1.7836537,-3.6180086,-0.04030429,-0.19519192,-0.34730628,28.125,29.25,28.4375,32.3125,34.4375,35.4375
0.31405365,-1.3004199,-1.1084214,-0.48072276,-0.03764654,0.048227675,-0.1627608,-0.4047949,-0.34761795,0.060035493,-3.0711815,0.61639315,0.00014875577,-0.15821822,0.008990845,0.0035101022,0.06277438,0.006454167,0.0174029,0.4595814,-1.3830863,1.9043039,-2.0849855,-1.5779909,2.4302185,-0.11425346,0.27308202,-0.35258868,0.100829795,-0.060382754,-0.13105972,-0.78529817,0.36391866,-9.442732,0.98135734,47.682407,-0.92409015,-1.7349429,-3.5723681,-0.039867528,-0.14790471,-0.41303897,28.125,29.25,28.4375,32.3125,34.4375,35.4375
0.31605375,-1.3601466,-1.8893857,-0.26707792,-0.06854516,0.076100655,-0.16173758,-0.4051061,-0.3475867,0.0600238,-3.07104,0.6162656,0.00014577493,-0.15906522,0.008814804,0.0032478771,0.06264714,0.0052906726,0.02058583,0.45934105,-1.3825098,1.9035996,-2.0847576,-1.578122,2.4299173,-0.114931874,0.27556807,-0.35533172,0.102011144,-0.059796266,-0.13491848,-0.7661445,0.24899697,-9.461885,1.0283576,47.70211,-0.8516505,-1.6462708,-3.6477332,-0.025501888,-0.14850298,-0.38492775,28.125,29.25,28.4375,32.3125,34.4375,35.4375
0.31805378,-1.6219265,-1.7681439,-0.15176062,-0.075570665,0.06929933,-0.1599035,-0.4054542,-0.34758666,0.060047347,-3.0709658,0.61613446,0.0002779815,-0.16031893,0.00997332,0.0019790337,0.0636408,0.0014770257,0.020607835,0.45912373,-1.3819319,1.902821,-2.084565,-1.5782541,2.4296281,-0.11838071,0.27969018,-0.3579656,0.104322456,-0.059020713,-0.13839445,-0.6512229,0.34476504,-9.500193,1.0261165,47.66808,-0.7488423,-1.6391734,-3.6057305,-0.019040529,-0.109558575,-0.3771494,28.125,29.25,28.4375,32.3125,34.4375,35.4375
0.32005396,-1.6506704,-1.6767967,0.011529328,-0.059286136,0.072809234,-0.15985811,-0.40575942,-0.34758416,0.060049806,-3.0709093,0.6160011,0.00031941728,-0.15928005,0.008294539,0.0036374538,0.06176311,0.0012527121,0.031299494,0.45890886,-1.3813919,1.90214,-2.0843966,-1.5783376,2.4293377,-0.115555964,0.2776217,-0.36026627,0.10797053,-0.057288457,-0.14627266,-0.63206923,0.4213795,-9.423578,0.94331104,47.68062,-0.9332774,-1.7114441,-3.714684,-0.036891792,-0.09842913,-0.3294147,28.125,29.25,28.4375,32.3125,34.4375,35.4375
0.3220539,-0.71980673,-0.3578913,0.28486663,-0.042030934,0.07633064,-0.16405822,-0.40610197,-0.34755287,0.060066193,-3.0707982,0.6160506,0.00035605137,-0.15995806,0.008802682,0.0023634343,0.062200397,-0.004103156,0.03696452,0.45861983,-1.3808382,1.9013971,-2.0841672,-1.5784329,2.4290946,-0.11808607,0.28216484,-0.3637291,0.11178563,-0.055368196,-0.15447837,-0.34476504,0.3256114,-9.212888,0.9567419,47.670765,-0.77973676,-1.5237387,-3.495226,-0.07190888,-0.10782057,-0.24348208,28.125,29.25,28.4375,32.3125,34.4375,35.4375
0.32405406,-0.20253173,0.3280588,0.17103055,0.011258795,0.024329977,-0.16265804,-0.40644118,-0.34754685,0.06006602,-3.0707445,0.6158238,0.00045548103,-0.15830222,0.008591209,0.0005601412,0.06367549,-0.013598172,0.043718446,0.45839223,-1.3802477,1.9006671,-2.0840204,-1.5785517,2.4287326,-0.11795952,0.28669617,-0.36685184,0.11945146,-0.052524284,-0.16112539,-0.15322891,0.21068975,-9.193734,0.9567419,47.687782,-0.90173244,-1.7826409,-3.5878258,-0.123670146,-0.1285357,-0.121513456,28.125,29.25,28.4375,32.3125,34.4375,35.4375
0.32605392,0.4656067,0.95458513,0.4213137,0.03538768,-0.010689073,-0.15489984,-0.40674314,-0.34751645,0.060044456,-3.070601,0.61573637,0.00037265263,-0.15795006,0.008285432,-0.0010544776,0.0634107,-0.017560638,0.04317223,0.4581401,-1.3796582,1.8999633,-2.0837696,-1.578647,2.428445,-0.118238546,0.29020223,-0.36762804,0.12012514,-0.05056505,-0.16086514,-0.21068975,0.15322891,-9.040505,1.0104496,47.704796,-0.89542043,-1.767194,-3.579057,-0.13125834,-0.13558686,-0.13609685,28.125,29.25,28.4375,32.3125,34.4375,35.4375
0.32805422,1.3511685,1.0531653,0.6026203,0.048198156,-0.019930327,-0.16054605,-0.40707868,-0.34750324,0.060058597,-3.0705085,0.6155469,0.00044336932,-0.15854396,0.008161841,-0.00094048475,0.06406565,-0.021545881,0.038831856,0.4579118,-1.3790805,1.8991965,-2.0835402,-1.5787786,2.4281108,-0.11915254,0.29331386,-0.37311918,0.12636003,-0.049384534,-0.15744369,-0.019153614,0.17238252,-8.90643,0.9992599,47.67345,-0.92045605,-1.883323,-3.4889715,-0.19931017,-0.13743828,-0.13049477,28.125,29.25,28.4375,32.3125,34.4375,35.4375
0.33005428,2.2582328,1.5337917,0.42685717,0.036027092,-0.028969275,-0.18715745,-0.40739784,-0.34747508,0.060047217,-3.0703588,0.6154221,0.00042566675,-0.15879726,0.007694481,-0.0009726145,0.06371106,-0.023275653,0.03271987,0.4576719,-1.378479,1.8984545,-2.083288,-1.5789102,2.427813,-0.1191249,0.29512092,-0.37587425,0.12871754,-0.048294947,-0.15130581,0.17238252,0.05746084,-8.887277,0.9164598,47.687782,-0.9119008,-1.9662802,-3.3074968,-0.23169777,-0.17374593,-0.14081584,28.125,29.25,28.4375,32.3125,34.4375,35.4375
0.33205408,1.0273036,0.061865374,0.75197804,0.015666043,-0.047040187,-0.15475404,-0.40774605,-0.34745765,0.06005496,-3.07025,0.6154023,0.00040921048,-0.16001679,0.0068123816,0.00031342194,0.061660495,-0.020698141,0.02684226,0.45739615,-1.3778671,1.8976535,-2.0830252,-1.5789942,2.4275396,-0.11895096,0.2949378,-0.37871945,0.12854998,-0.047588095,-0.1452551,0.019153614,0.17238252,-8.7532015,0.94331104,47.65912,-1.009355,-1.8394583,-3.3208733,-0.2458337,-0.1549631,-0.244715,28.125,29.25,28.4375,32.3125,34.4375,35.4375
0.3340541,0.84319854,-0.4115587,0.87904567,-0.03546593,-0.014960121,-0.1695157,-0.40803745,-0.34744996,0.060055993,-3.0701532,0.6153256,0.00027022033,-0.1610453,0.0058736424,0.0005203157,0.060479835,-0.019735953,0.023666775,0.457156,-1.3773015,1.896911,-2.082713,-1.5790299,2.4272647,-0.11848093,0.29690692,-0.3815676,0.12805648,-0.046968933,-0.14160667,0.095768064,0.15322891,-8.695741,0.94331104,47.67614,-0.8455301,-1.8240625,-3.3572516,-0.24193333,-0.18296143,-0.31009465,28.125,29.25,28.4375,32.3125,34.4375,35.4375
0.33605406,0.10255535,-1.2501521,0.54535395,-0.041312505,-0.011025928,-0.1607861,-0.40837735,-0.34741575,0.060035218,-3.069969,0.61525136,0.00026489052,-0.16451748,0.004904524,0.0015122516,0.055617042,-0.012765578,0.017387176,0.4569036,-1.3766527,1.8961347,-2.0824654,-1.5791854,2.4269905,-0.12043317,0.29789802,-0.38352957,0.12062538,-0.045702636,-0.13728233,0.21068975,0.21068975,-8.868123,0.9768804,47.70032,-0.9831836,-1.8365171,-3.370112,-0.19429384,-0.18887255,-0.36974266,28.125,29.25,28.4375,32.3125,34.4375,35.4375
0.33805463,-0.28397188,-1.6101973,0.84006566,-0.05485247,0.009092155,-0.15647352,-0.40870303,-0.34741893,0.060042508,-3.0699067,0.6151235,0.0002655489,-0.16585311,0.0037448516,0.0025358966,0.052781716,-0.009254846,0.014427969,0.4566757,-1.3760642,1.8953694,-2.0822384,-1.5792569,2.4266913,-0.12006656,0.29787657,-0.38545886,0.11817992,-0.04470991,-0.1339613,0.038307227,0.34476504,-8.963891,1.0731167,47.67793,-0.9286896,-1.741643,-3.3299143,-0.1536005,-0.21828866,-0.44868124,28.125,29.25,28.4375,32.3125,34.4375,35.4375
0.34005338,-0.024586884,-1.6747477,0.56344044,-0.05145665,0.021790886,-0.16821867,-0.40902174,-0.34740496,0.060024094,-3.069758,0.615093,0.00022751403,-0.16726513,0.003726371,0.0019156297,0.051144563,-0.0073145707,0.012402748,0.45644733,-1.375439,1.894617,-2.082001,-1.5793651,2.4264638,-0.121480025,0.29954478,-0.38521558,0.11378411,-0.044123363,-0.13334927,0.038307227,0.38307226,-8.925584,0.9567419,47.66987,-0.8921276,-1.6975434,-3.5986943,-0.07487114,-0.22504652,-0.51633304,28.125,29.25,28.4375,32.3125,34.4375,35.4375
0.34205338,-0.04975266,-1.1182135,0.5535036,-0.045037564,0.019708613,-0.17205958,-0.40935415,-0.34738722,0.060007166,-3.0696697,0.61499375,0.00015637898,-0.16910216,0.0031181686,0.0017046335,0.049098764,-0.0073414706,0.01704067,0.4561707,-1.3748136,1.8938621,-2.0817735,-1.5794247,2.4261372,-0.122965045,0.3029583,-0.3887959,0.112994194,-0.04234599,-0.13948108,0.095768064,0.36391866,-8.983045,0.9768804,47.677036,-0.86893654,-1.6533945,-3.5899215,-0.03399563,-0.26545048,-0.48228598,28.125,29.25,28.4375,32.3125,34.4375,35.4375
0.3440539,0.15585709,-0.4358282,0.3374593,-0.031919573,0.0062408503,-0.1743388,-0.40968356,-0.3473855,0.06001521,-3.0695577,0.6149257,0.00017418795,-0.1706043,0.0030312492,0.0019076618,0.048419736,-0.0069030803,0.027737344,0.45595422,-1.3742119,1.8930734,-2.0815222,-1.579532,2.4258933,-0.12416403,0.3048814,-0.39175785,0.11321053,-0.04202928,-0.15137643,-0.038307227,0.49799395,-9.059659,0.9298854,47.66987,-0.77550876,-1.8539925,-3.539967,-0.004258209,-0.29526103,-0.4460383,28.125,29.25,28.4375,32.3125,34.4375,35.4375
0.34605426,0.56480235,-0.032576095,0.21896148,-0.024682257,0.008297305,-0.17973118,-0.41000104,-0.34737423,0.060000557,-3.0694938,0.6147341,0.00011585841,-0.1712235,0.002925496,0.0012826996,0.04869749,-0.008453261,0.036627144,0.45570228,-1.3736107,1.8923444,-2.0813062,-1.5795921,2.4255304,-0.12459289,0.30764335,-0.3939785,0.11408018,-0.04168219,-0.16069412,0.076614454,0.45968673,-9.11712,0.9791215,47.70211,-0.7679075,-1.7846038,-3.5286322,0.025430359,-0.31105682,-0.3308068,28.125,29.25,28.4375,32.3125,34.4375,35.4375
0.3480542,0.16742,-0.79122907,-0.022803422,-0.016219815,-0.0025043767,-0.17335941,-0.41033688,-0.34735903,0.059974115,-3.0693576,0.6146814,6.1014307e-05,-0.17127877,0.002703854,0.00050033984,0.05034774,-0.011764743,0.044880625,0.45545053,-1.3729486,1.8915666,-2.0810773,-1.579688,2.4252641,-0.12406098,0.31115964,-0.39732546,0.1175164,-0.041785166,-0.1684097,-0.076614454,0.38307226,-9.212888,0.9791215,47.701214,-0.80829436,-1.9383721,-3.5179577,0.028975833,-0.33347756,-0.21700218,28.125,29.25,28.4375,32.3125,34.4375,35.4375
0.3500541,-0.18752278,-0.925935,-0.049641583,-0.023929821,0.011861058,-0.164396,-0.4106837,-0.34735322,0.0599631,-3.0692704,0.61443084,-6.4802894e-06,-0.17053753,0.0031863134,0.00015163972,0.053589948,-0.016538171,0.047612026,0.4551987,-1.3722752,1.8907288,-2.0807993,-1.5797724,2.4248676,-0.123598665,0.31311688,-0.40059537,0.12450041,-0.0426326,-0.17066672,-0.30645782,0.4405331,-9.212888,0.92093146,47.703007,-0.9848185,-1.8908036,-3.506155,-0.0190542,-0.3731141,-0.17501982,28.125,29.25,28.4375,32.3125,34.4375,35.4375
0.35205397,-1.0262965,-1.057742,-0.18944448,-0.023917211,0.022111362,-0.16464466,-0.4109786,-0.3473356,0.059963305,-3.069144,0.6142523,-0.000121494755,-0.16711746,0.0050688786,-0.0031381191,0.05969272,-0.028435662,0.043579258,0.4549709,-1.3716977,1.8899659,-2.0804613,-1.5798568,2.4245453,-0.123675674,0.31651026,-0.39919335,0.13308764,-0.042869993,-0.16670355,-0.32561144,0.53630114,-9.385271,0.9231726,47.674347,-1.0304749,-2.1165543,-3.735169,-0.1215488,-0.3881412,-0.14899999,28.125,29.25,28.4375,32.3125,34.4375,35.4375
0.35405406,-1.2558756,-1.1444546,-0.15770386,-0.024561483,0.04111095,-0.15632187,-0.4113477,-0.34733117,0.05996038,-3.069057,0.61419713,-0.00014140217,-0.16436175,0.005875688,-0.0047652894,0.0644741,-0.03601603,0.03941508,0.45469546,-1.3710241,1.8891166,-2.0802195,-1.5799288,2.4242473,-0.12200807,0.3180767,-0.39916438,0.14043657,-0.04380263,-0.16086142,-0.28730422,0.3256114,-9.442732,1.0194036,47.675243,-1.0746171,-2.070783,-3.8457937,-0.23451166,-0.3936532,-0.22384119,28.125,29.25,28.4375,32.3125,34.4375,35.4375
0.3560541,-1.521977,-0.8073245,-0.06638031,-0.021211917,0.038731627,-0.16452129,-0.41166168,-0.34733456,0.059941787,-3.0689542,0.6140276,-0.00029849017,-0.16709764,0.0076368833,-0.003510741,0.06540386,-0.034489132,0.029707938,0.4544658,-1.3703637,1.8883027,-2.0799072,-1.5799774,2.4239256,-0.12628351,0.31841254,-0.40322623,0.14323764,-0.045310352,-0.15540832,-0.30645782,0.19153613,-9.461885,1.0373062,47.705692,-1.0146546,-2.0548348,-3.8321676,-0.28499654,-0.4343217,-0.3185404,28.125,29.25,28.4375,32.3125,34.4375,35.4375
0.3580541,-0.9081548,-0.6167837,-0.21683776,-0.0051126783,0.036064774,-0.16556433,-0.41200742,-0.34731486,0.059919007,-3.0688043,0.61388,-0.0003579065,-0.16834408,0.0065383096,-0.0026688054,0.064843185,-0.03245556,0.029721566,0.4542143,-1.3696787,1.8874773,-2.079632,-1.5800976,2.423602,-0.12505218,0.31996366,-0.40728042,0.14365096,-0.045733545,-0.15417959,-0.2873042,0.19153613,-9.481039,1.0015011,47.675243,-1.011581,-2.0017729,-3.7062445,-0.34335262,-0.43326408,-0.33901444,28.125,29.25,28.4375,32.3125,34.4375,35.4375
0.36005405,-0.7861414,-0.049698457,-0.35036805,-0.0018807618,0.02433422,-0.16949768,-0.41234273,-0.34732202,0.059923816,-3.0687315,0.61375046,-0.00043901673,-0.17264393,0.0059797172,-0.0010493952,0.062145695,-0.025373422,0.026305545,0.45397365,-1.3690411,1.8866395,-2.0793345,-1.5801462,2.4232905,-0.12713629,0.3218501,-0.4124602,0.139394,-0.04645523,-0.15283452,-0.45968673,0.15322891,-9.519346,0.9835985,47.67166,-0.9407872,-2.0396664,-3.562223,-0.2869125,-0.46602494,-0.36872125,28.125,29.25,28.4375,32.3125,34.4375,35.4375
0.36205417,-0.7423164,0.078188464,-0.20678443,-0.009171987,0.044078562,-0.18015344,-0.4126961,-0.34728235,0.059904642,-3.068564,0.61363786,-0.0004563038,-0.17761329,0.0050147683,0.0011173078,0.0599081,-0.014232586,0.026714042,0.45369747,-1.3683804,1.8858374,-2.0790737,-1.5802912,2.4229665,-0.12769835,0.32316962,-0.41753575,0.13212304,-0.049394533,-0.15377066,-0.26815057,0.0,-9.615114,1.0171678,47.690468,-0.8599,-2.059772,-3.4559903,-0.23441046,-0.44657654,-0.4104641,28.125,29.25,28.4375,32.3125,34.4375,35.4375
0.36405417,-1.5340933,0.032269664,-0.25626296,-0.005832448,0.03891823,-0.17202081,-0.41303948,-0.34727582,0.05989769,-3.0684512,0.6134759,-0.0005060611,-0.17945835,0.0059872353,-0.00052325544,0.06284983,-0.010537135,0.032095082,0.45345724,-1.3677186,1.8850001,-2.078789,-1.5803884,2.4226403,-0.12808752,0.32650614,-0.41650057,0.1256524,-0.05374175,-0.1594956,-0.30645782,-0.114921674,-9.749189,0.9410752,47.661808,-0.85084844,-2.1722722,-3.5257251,-0.15556291,-0.44849706,-0.3690349,28.125,29.25,28.4375,32.3125,34.4375,35.4375
0.36605388,-2.1397586,-0.434722,-0.28950864,-0.0022884253,0.060907792,-0.17314662,-0.41340834,-0.34727436,0.059909537,-3.0683646,0.6133956,-0.00047202318,-0.18232714,0.0071031884,-0.0012261315,0.0636092,-0.0076524974,0.037249044,0.4532042,-1.3670686,1.8841413,-2.0785387,-1.5804852,2.422349,-0.13100028,0.32967734,-0.41795805,0.12157822,-0.05577928,-0.16754098,-0.57460845,0.038307227,-9.844957,1.0082139,47.698532,-0.81478494,-2.123511,-3.741737,-0.08486908,-0.4066437,-0.2748489,28.125,29.25,28.4375,32.3125,34.4375,35.4375
0.36805472,-2.1957836,0.06610097,-0.42739698,-0.01688558,0.093701,-0.18238306,-0.41373137,-0.34726593,0.05988023,-3.0682518,0.61311436,-0.0005729779,-0.1808339,0.006081421,-0.0034618739,0.06572277,-0.011248459,0.050332725,0.45297775,-1.3663937,1.8833407,-2.078264,-1.5805815,2.421962,-0.12759604,0.33378118,-0.4179408,0.12149345,-0.056216113,-0.17720889,-0.47884035,-0.05746084,-9.768343,1.0552088,47.73256,-0.97137356,-2.4288793,-3.8238955,-0.06178508,-0.43491185,-0.16471708,28.125,29.25,28.4375,32.3125,34.4375,35.4375
0.37005457,-2.6423535,-0.4395188,-0.5178775,-0.0110725425,0.08811551,-0.17190252,-0.41411167,-0.34722337,0.059876025,-3.068124,0.61304766,-0.0005853918,-0.1821141,0.0076507437,-0.0026939665,0.0690978,-0.009727928,0.052944876,0.45265308,-1.3657343,1.8825034,-2.0779989,-1.5806907,2.421613,-0.12886533,0.33353382,-0.42011136,0.12395885,-0.05997449,-0.18104996,-0.24899697,-0.019153614,-9.768343,1.0328293,47.687782,-0.8031764,-2.3290677,-3.9270403,-0.02042431,-0.41071808,-0.09161459,28.125,29.25,28.4375,32.3125,34.4375,35.4375
0.37205386,-2.2464108,-0.21364884,-0.40169215,-0.0066946032,0.073211946,-0.17143765,-0.41449147,-0.3472241,0.059883818,-3.0680408,0.6128798,-0.0004554236,-0.18539523,0.0073743495,-0.0014376303,0.070336446,-0.0042238124,0.048798155,0.4524253,-1.3650726,1.8816522,-2.0778086,-1.5808357,2.4212916,-0.12882546,0.33607206,-0.42594546,0.12286235,-0.06348515,-0.17682742,-0.45968673,-0.076614454,-9.749189,1.0015011,47.660015,-1.0528781,-2.305954,-3.7660556,-0.012001183,-0.35781056,-0.09252119,28.125,29.25,28.4375,32.3125,34.4375,35.4375
0.37405407,-1.7383196,-0.1596788,-0.4952343,0.014971045,0.045081064,-0.18201336,-0.41487315,-0.34722084,0.059895426,-3.0679388,0.6126696,-0.00034898394,-0.18726435,0.007823708,-0.00028594377,0.0724929,-0.0011298636,0.042257503,0.45219713,-1.3643996,1.8807672,-2.0775678,-1.580993,2.420946,-0.12899838,0.3367738,-0.42991182,0.12432246,-0.06674342,-0.17042534,-0.7086837,0.095768064,-9.672575,0.9679317,47.667187,-1.011747,-2.2957432,-3.6866689,0.017954513,-0.31969395,-0.13879833,28.125,29.25,28.4375,32.3125,34.4375,35.4375
