Tylouw/Master_Thesis_Code/training_data/batch_1/small_rod_t0.2/sample_58_session_2.csv
timestamp[s],tcp_force_x[N],tcp_force_y[N],tcp_force_z[N],tcp_force_rx[Nm?],tcp_force_ry[Nm?],tcp_force_rz[Nm?],tcp_pose_x[m],tcp_pose_y[m],tcp_pose_z[m],tcp_pose_rx[rot_vec_x],tcp_pose_ry[rot_vec_y],tcp_pose_rz[rot_vec_z],tcp_velo_x[m/s],tcp_velo_y[m/s],tcp_velo_z[m/s],tcp_velo_rx[rot_vec_x/s],tcp_velo_ry[rot_vec_y/s],tcp_velo_rz[rot_vec_z/s],q1[rad],q2[rad],q3[rad],q4[rad],q5[rad],q6[rad],qd1[rad/s],qd2[rad/s],qd3[rad/s],qd4[rad/s],qd5[rad/s],qd6[rad/s],tool_acc_x,tool_acc_y,tool_acc_z,current_of_whole_robot[A],voltage_of_whole_robot[V],current_J1[A],current_J2[A],current_J3[A],current_J4[A],current_J5[A],current_J6[A],temp_J1[C],temp_J2[C],temp_J3[C],temp_J4[C],temp_J5[C],temp_J6[C]
7.1601244e-07,0.19964299,0.5847629,1.314259,-0.027365621,0.016035525,-0.023514673,-0.38108286,-0.3485337,0.05997432,-3.0785253,0.62493616,-0.00014612204,0.001910781,0.0009551584,-0.0017262291,0.0018428228,-0.0037799187,0.00018211048,0.47778618,-1.42591,1.9576792,-2.100845,-1.5707573,2.452776,0.0,-6.735691e-06,0.0038760323,0.000334263,0.00011067103,-0.00018432847,0.17238252,0.1340753,-8.791509,0.7083204,47.74062,0.028201573,-2.7894125,-2.5088046,-0.43679896,0.074419454,0.051251274,27.9375,29.125,28.25,32.1875,34.3125,35.1875
0.002058,-0.26915142,0.36234313,1.3041577,-0.019434992,0.0026680124,-0.011677506,-0.38105208,-0.34853113,0.05995533,-3.0785272,0.6248218,-0.0001866803,-0.0007210845,-0.00041851864,-0.0017958904,-0.0020479169,0.0036685017,0.00017556625,0.47781014,-1.4259216,1.9577392,-2.1008604,-1.5707573,2.4527283,0.0,0.0016926555,0.004551643,-0.01044412,0.00011733973,-0.00017570663,0.1340753,0.17238252,-8.6574335,0.7329411,47.713753,0.01711908,-2.7105672,-2.4999702,-0.3943998,0.0639849,0.047547676,27.9375,29.125,28.25,32.1875,34.3125,35.1875
0.004057781,0.10603243,0.41402975,1.2117368,-0.008200161,0.0033662238,-0.019211294,-0.3810701,-0.34853575,0.059961934,-3.0785677,0.62490666,-0.000136153,-0.0017103244,-0.00093672104,-0.002081463,-0.0027914874,0.005074395,0.00016677362,0.47778618,-1.4259326,1.9577507,-2.1009214,-1.5707334,2.452752,0.0,0.0035805318,0.0036363003,-0.013007035,0.00012343266,-0.00016563921,0.038307227,0.095768064,-8.6574335,0.79560274,47.716442,0.05060349,-3.1509945,-2.7280774,-0.30158168,0.07789045,0.041740965,27.9375,29.125,28.25,32.1875,34.3125,35.1875
0.006058876,0.41951978,0.92136323,1.136607,0.0023209825,-0.0053608543,-0.026003834,-0.3810507,-0.34852782,0.05994763,-3.0785172,0.62491554,-0.0001978391,-0.0011165508,-0.00062650896,-0.0013384768,-0.0018950772,0.0033636703,0.00016018079,0.4777981,-1.4259212,1.9577616,-2.1008832,-1.5707458,2.452776,0.0,0.0022804877,0.0024039529,-0.008543299,0.000121598154,-0.00015953091,-0.076614454,0.19153613,-8.7532015,0.7396539,47.704796,0.040282704,-3.1006656,-2.6377802,-0.3163154,0.068836704,0.04982993,27.9375,29.125,28.25,32.1875,34.3125,35.1875
0.008058131,0.23172544,1.1622701,0.53359956,0.034372285,-0.03690052,-0.005537281,-0.38104638,-0.34853688,0.059951752,-3.0785298,0.6248988,-0.0002112686,-0.0003442876,-0.00022307831,-0.0008025188,-0.00087977457,0.0014256334,0.00015399423,0.47781014,-1.4259217,1.9577497,-2.10087,-1.5707334,2.452776,0.0,0.0009555747,0.0017381399,-0.004364697,0.000119330616,-0.00015405365,0.019153614,0.1340753,-8.868123,0.779936,47.71823,0.033263627,-3.0012856,-2.571785,-0.360434,0.05947963,0.052546605,27.9375,29.125,28.25,32.1875,34.3125,35.1875
0.010055533,1.0316627,1.4854373,0.12558842,0.024308648,-0.024716305,-0.027104707,-0.38104597,-0.3485164,0.059920754,-3.0785005,0.62489325,-0.000269315,-0.0005153405,-0.00031402367,0.000193853,-0.001225523,0.002083557,0.00014892737,0.47777414,-1.4258862,1.9577855,-2.1008937,-1.5707334,2.4527402,0.0,-0.00033654066,0.00053504546,-0.002612728,0.00012534813,-0.00014895247,0.076614454,0.19153613,-9.059659,0.65908957,47.694054,-0.3215566,-2.3746996,-3.1141272,-0.40447885,0.07524955,-0.009929571,27.9375,29.125,28.25,32.1875,34.3125,35.1875
0.012055101,-0.17673466,0.27011645,-0.10350518,-0.0015112351,-0.020645956,-0.015408653,-0.38104698,-0.34849018,0.059896365,-3.0784087,0.6249321,-0.00033895238,0.00038445494,0.00022867696,-0.0033211687,0.0026741626,-0.0054533365,7.887678e-05,0.47775012,-1.4258361,1.9577731,-2.100845,-1.5707697,2.452752,-0.00014003705,0.006795537,1.2958687e-05,-0.00073674275,0.00013084797,-0.00021793843,0.076614454,0.095768064,-9.385271,0.73741806,47.703007,-0.5279039,-2.365425,-3.1789865,-0.43616766,0.0927676,-0.070753746,27.9375,29.125,28.25,32.1875,34.3125,35.1875
0.014054608,-0.24266103,-0.4230356,-0.11155894,-0.03910934,0.017026462,-0.03511347,-0.38105676,-0.3485073,0.05991137,-3.0784304,0.6249348,-0.00029657152,-0.0045834803,0.0020400079,-0.004318186,0.003196275,-0.0066235643,0.0004991155,0.47777143,-1.4258331,1.9577354,-2.100845,-1.5707697,2.4527724,-0.00800283,0.014348641,-0.006333366,-0.0006659023,0.00018877766,-0.008496678,0.0,0.17238252,-9.519346,0.7777002,47.66808,-0.30902645,-2.9385414,-3.1289,-0.42743903,0.10218678,-0.06399526,27.9375,29.125,28.25,32.1875,34.3125,35.1875
0.016054286,-0.70704675,-0.74698526,-0.18984094,-0.07507196,0.044538427,-0.049482625,-0.38106537,-0.34849334,0.05990001,-3.0784228,0.6248541,-0.0003125993,-0.0068271533,0.0024772598,-0.0023314082,0.0011949579,-0.0029524139,0.0068840934,0.47774643,-1.4258099,1.957735,-2.100845,-1.5707816,2.452698,-0.010908484,0.012423015,-0.008705754,-0.00055024057,0.00026914725,-0.017786598,-0.11492168,0.2681506,-9.615114,0.7597976,47.667187,-0.12541674,-2.7751808,-3.0492482,-0.44695237,0.112900026,0.021603756,27.9375,29.125,28.25,32.1875,34.3125,35.1875
0.018054055,-1.4050807,-1.4100538,-0.5430883,-0.072365545,0.05095172,-0.049152903,-0.38104242,-0.34850657,0.059891254,-3.0784326,0.62473863,-0.0003706321,-0.005347184,0.0018610752,-0.0032249629,0.00033614403,-0.0061256248,0.010429209,0.4777828,-1.4257976,1.9577354,-2.1008208,-1.5707687,2.452661,-0.009889169,0.013027302,-0.007487741,4.213101e-05,0.0024932139,-0.020317296,-0.38307226,0.28730422,-9.730036,0.7620334,47.72629,-0.37249053,-2.5560539,-3.371635,-0.46518278,0.12254151,0.036981408,27.9375,29.125,28.25,32.1875,34.3125,35.1875
0.020036392,-0.7961676,-0.49265382,-0.42115536,-0.07035662,0.087643765,-0.08338134,-0.38103905,-0.3485019,0.059850384,-3.0784383,0.6247794,-0.00055650657,-0.0053153536,0.0014417951,-0.0037213364,-0.0014553806,-0.008242064,0.009677399,0.4777224,-1.4257253,1.9577464,-2.1008208,-1.5706838,2.4526253,-0.010779797,0.014382293,-0.007929104,0.0001768697,0.005054488,-0.020461017,-0.53630114,0.28730422,-9.691729,0.75084364,47.711964,-0.6064783,-2.4900858,-3.603645,-0.48519826,0.07613146,0.024270479,27.9375,29.125,28.25,32.1875,34.3125,35.1875
0.022057759,-1.5528235,-0.18903568,-0.60310364,-0.045465123,0.069541626,-0.090729035,-0.3810443,-0.3484996,0.059842434,-3.0784416,0.62478244,-0.00060982426,-0.007749629,0.0013980841,-0.0031799378,-0.00243056,-0.00683891,0.006399199,0.4776976,-1.4257004,1.9577335,-2.1008089,-1.5706595,2.452602,-0.013095382,0.016795214,-0.011882092,2.2432363e-05,0.005266434,-0.01949654,-0.51714754,0.24899697,-9.768343,0.76874626,47.70211,-0.5976354,-2.4594493,-3.4497962,-0.4912976,0.09802905,-0.0116230175,27.9375,29.125,28.25,32.1875,34.3125,35.1875
0.024054851,-1.2467021,-0.21765701,-0.59940517,-0.022348857,0.068574086,-0.10625094,-0.3810863,-0.34850827,0.05986251,-3.0784276,0.6247614,-0.0004651997,-0.009011732,0.0016933832,-0.0029231668,-0.0030207974,-0.006332561,0.004072898,0.47772095,-1.4256643,1.9576491,-2.1008208,-1.5707315,2.452614,-0.014976678,0.017647123,-0.013436581,1.4646729e-06,0.005555913,-0.01905086,-0.63206923,0.2681506,-9.959879,0.7486078,47.681515,-0.5404086,-2.519888,-3.4309287,-0.49523643,0.099680856,-0.01451578,27.9375,29.125,28.25,32.1875,34.3125,35.1875
0.026053425,-1.5287986,0.049937367,-0.46044716,-0.023436306,0.06011146,-0.12563296,-0.38108996,-0.34852022,0.05983881,-3.0784688,0.6247712,-0.0005929652,-0.010706347,0.001846474,-0.0026670601,-0.0038684728,-0.005429695,0.0011237018,0.4776842,-1.425604,1.9576372,-2.1008327,-1.5706476,2.452578,-0.017033473,0.019160414,-0.01563188,-0.00050738954,0.0058873496,-0.018157873,-0.7469909,0.22984336,-9.883265,0.7463667,47.650166,-0.52045864,-2.5187616,-3.4932446,-0.4984717,0.08211492,-0.02319137,27.9375,29.125,28.25,32.1875,34.3125,35.1875
0.028053924,-1.6071473,-0.029663378,-0.36655462,-0.032629497,0.064752296,-0.1382197,-0.38113323,-0.34849167,0.05983519,-3.0784152,0.62481856,-0.0005581311,-0.011600947,0.0010316172,-0.0024256068,-0.0059800963,-0.0035316283,-2.9607458e-05,0.47762436,-1.4255558,1.9575881,-2.1008217,-1.5706953,2.4525547,-0.01705876,0.01985618,-0.016386604,-0.0031087694,0.006882807,-0.017030895,-0.7278373,0.22984336,-9.768343,0.73069996,47.71286,-0.6061179,-2.4581175,-3.4972034,-0.4849002,0.07837848,-0.049456112,27.9375,29.125,28.25,32.1875,34.3125,35.1875
0.030053778,-1.4510366,-0.11875273,-0.30705228,-0.037496217,0.07889205,-0.14977846,-0.38113245,-0.34850898,0.059832104,-3.0784717,0.62477344,-0.00058946904,-0.013214528,6.813832e-05,-0.0009306685,-0.008723876,-0.00051885674,-0.0012126812,0.4776242,-1.4255438,1.9575871,-2.1008465,-1.5706466,2.4525192,-0.01751826,0.019610425,-0.01935972,-0.0038296904,0.0079272045,-0.016307699,-0.7086837,0.076614454,-9.787497,0.6859408,47.68599,-0.54627526,-2.4226995,-3.4208198,-0.46877265,0.053612612,-0.07588259,27.9375,29.125,28.25,32.1875,34.3125,35.1875
0.03205344,-1.1416615,-0.07156334,-0.19566269,-0.028590443,0.082517914,-0.15579233,-0.38118795,-0.3484972,0.059836727,-3.0784786,0.6248506,-0.00054682104,-0.013801276,-0.0001121266,-0.00091504137,-0.009081589,-0.0011256478,-0.0015943984,0.4775519,-1.4254954,1.9575266,-2.1008694,-1.5706466,2.4524941,-0.018125907,0.020953117,-0.021103134,-0.00305607,0.008522536,-0.016533578,-0.7086837,0.11492168,-9.80665,0.72622824,47.67614,-0.66193855,-2.4173484,-3.4607499,-0.48055208,0.06372015,-0.09267619,27.9375,29.125,28.25,32.1875,34.3125,35.1875
0.034054086,-1.3818505,0.36828247,-0.14423966,-0.00055752794,0.058844235,-0.16975409,-0.38119605,-0.34851688,0.059838645,-3.0785048,0.6248178,-0.00057061436,-0.014673324,-9.062309e-05,-0.00086126965,-0.009405203,-0.001571618,-0.0022694794,0.47756353,-1.4254589,1.9574779,-2.1008575,-1.5706223,2.452482,-0.019290123,0.022359105,-0.022996472,-0.002322877,0.009012266,-0.017022638,-0.47884035,-0.019153614,-9.768343,0.8157518,47.68599,-0.6729926,-2.3306928,-3.3528967,-0.48686463,0.04163351,-0.09323445,28.0,29.125,28.25,32.1875,34.3125,35.1875
0.03605373,-0.7620807,1.0497863,-0.22948885,0.028021082,0.05213883,-0.18747403,-0.38122037,-0.34850398,0.059816025,-3.0785146,0.62478215,-0.00062425504,-0.015617386,0.00038860092,-0.0008028629,-0.009307379,-0.0012814406,-0.003128764,0.47750288,-1.4253988,1.9574665,-2.1008813,-1.570599,2.4523978,-0.020869264,0.023049608,-0.023924451,-0.0022964054,0.008789478,-0.017741708,-0.36391866,-0.05746084,-9.691729,0.79560274,47.68599,-0.6880907,-2.3182368,-3.4156651,-0.5048119,0.033211373,-0.121656,28.0,29.125,28.25,32.1875,34.3125,35.1875
0.038054936,-1.0488337,1.0828727,-0.27336913,0.040314063,0.033748247,-0.19333169,-0.3812747,-0.34850287,0.05982932,-3.0785284,0.6248812,-0.00059086777,-0.017502932,0.00027619363,-8.7800945e-05,-0.0107679935,0.0018195141,-0.0037043784,0.47744253,-1.4253509,1.9573816,-2.1008818,-1.5705866,2.4523976,-0.022322457,0.023487544,-0.025550341,-0.004532547,0.008653627,-0.01861736,-0.34476504,-0.1340753,-9.595961,0.8403672,47.733456,-0.5998745,-2.3088403,-3.3815577,-0.50455403,0.064232506,-0.13507444,28.0,29.125,28.25,32.1875,34.3125,35.1875
0.040054247,-1.1943935,0.67987823,-0.087714724,0.03393197,0.02597061,-0.20018983,-0.38131824,-0.34850505,0.0598342,-3.078555,0.62486804,-0.00054571143,-0.019169882,4.8326758e-05,0.0005304004,-0.011687984,0.0044758264,-0.003881224,0.47740614,-1.4253026,1.957321,-2.1009066,-1.5705866,2.4523497,-0.023190435,0.02428756,-0.027506959,-0.0061561526,0.008242913,-0.019305954,-0.22984336,-0.15322891,-9.5385,0.72622824,47.709274,-0.62021065,-2.3491523,-3.4176993,-0.457495,0.055753775,-0.14596589,28.0,29.125,28.25,32.1875,34.3125,35.1875
0.04205401,0.022183027,0.8345384,-0.03253597,0.0129725775,0.046434328,-0.22714727,-0.38137728,-0.34849304,0.059846714,-3.0785472,0.6249231,-0.00047900173,-0.020601166,-3.484012e-05,0.0010336739,-0.011775708,0.005442512,-0.0035987755,0.4773459,-1.4252542,1.9572371,-2.1009061,-1.5706109,2.4523249,-0.02412308,0.025709756,-0.030413277,-0.005569595,0.007872561,-0.020518495,-0.22984336,-0.114921674,-9.557653,0.7933669,47.70211,-0.6823269,-2.3420014,-3.285738,-0.46018064,0.0710893,-0.14246988,28.0,29.125,28.25,32.1875,34.3125,35.1875
0.044053413,-0.17574294,0.4344534,-0.12189942,0.003049336,0.030392552,-0.23498309,-0.38140154,-0.3484871,0.059841238,-3.0785465,0.62494266,-0.00053264434,-0.021110741,0.0006134095,0.00090360147,-0.010803473,0.0046099517,-0.0037124085,0.4772974,-1.4252058,1.957189,-2.1008818,-1.570587,2.4522886,-0.025432378,0.026521938,-0.031339787,-0.0042664856,0.0073919347,-0.02171311,-0.17238252,0.038307227,-9.595961,0.8179876,47.70211,-0.7022798,-2.238919,-3.3785317,-0.45927605,0.078821264,-0.18861279,28.0,29.125,28.25,32.1875,34.3125,35.1875
0.04605351,-0.23223142,-0.011157537,-0.11813743,-0.008785887,0.023131995,-0.21513498,-0.38144258,-0.34847647,0.05983563,-3.0785685,0.624966,-0.0005417071,-0.02203641,0.000826364,0.0011815635,-0.010782474,0.0047478843,-0.0035174387,0.47722507,-1.4251578,1.9571522,-2.1009052,-1.5705632,2.452228,-0.026609305,0.02733929,-0.03309658,-0.003438505,0.0073084007,-0.023083914,-0.05746084,0.05746084,-9.5385,0.779936,47.698532,-0.59959215,-2.2557752,-3.3557782,-0.48576945,0.085543364,-0.20965256,28.0,29.125,28.25,32.1875,34.3125,35.1875
0.04805401,0.02670866,0.18444194,-0.20852216,-0.019211119,0.018541597,-0.21324594,-0.3814877,-0.34848166,0.059838682,-3.0785952,0.6250091,-0.0005353414,-0.022752272,0.00056678744,0.0012021366,-0.011565025,0.0044493554,-0.0028597382,0.47717676,-1.4250975,1.9570793,-2.1009176,-1.5705389,2.4522033,-0.027345905,0.028695565,-0.034733716,-0.0032538807,0.008138029,-0.024478573,-0.038307227,0.17238252,-9.634268,0.81351066,47.731667,-0.6654888,-2.2585523,-3.3253078,-0.5077267,0.0844529,-0.21660262,28.0,29.125,28.25,32.1875,34.3125,35.1875
0.050053664,0.5977299,0.1037485,-0.060673386,-0.03225043,0.02573264,-0.21818127,-0.38152325,-0.34846878,0.059829738,-3.0785906,0.62495005,-0.00053835183,-0.024026005,0.00037677315,0.0016672512,-0.013014271,0.0054093497,-0.0021440636,0.47712836,-1.4250373,1.9570311,-2.100918,-1.5705503,2.4521186,-0.028729266,0.029474806,-0.036585312,-0.0037026817,0.008978875,-0.026578134,-0.05746084,0.21068975,-9.576807,0.7239871,47.67614,-0.5852431,-2.2144823,-3.3964458,-0.49879932,0.0994136,-0.2162511,28.0,29.125,28.25,32.1875,34.3125,35.1875
0.052053485,-0.063456066,-0.5037658,-0.20889322,-0.030232893,0.01299876,-0.20577303,-0.38159952,-0.3484744,0.059858654,-3.0786498,0.6250004,-0.0004065366,-0.025256922,0.0003916866,0.0023241139,-0.014051478,0.0068701305,-0.0010000702,0.47706786,-1.4250011,1.9569348,-2.1009657,-1.5705503,2.4520822,-0.030049095,0.029589739,-0.0381418,-0.004035296,0.009228207,-0.02904056,-0.076614454,0.2681506,-9.481039,0.7933669,47.6636,-0.56041396,-2.1564806,-3.2717004,-0.48463207,0.09027154,-0.22889724,28.0,29.125,28.25,32.1875,34.3125,35.1875
0.054054208,-0.19132122,-0.8742078,-0.21350466,-0.032392506,0.013780455,-0.19768856,-0.38163453,-0.34846961,0.059857227,-3.078657,0.62500113,-0.0005134015,-0.025735365,0.00026287514,0.0021693115,-0.014512098,0.006419122,0.00023358401,0.47699565,-1.424929,1.9568394,-2.1008942,-1.5705022,2.4520094,-0.030656807,0.030781887,-0.039151456,-0.004028574,0.009841193,-0.030882793,-0.019153614,0.38307226,-9.5385,0.74413085,47.652847,-0.59098595,-2.114096,-3.377447,-0.49755928,0.07179114,-0.2337721,28.0,29.125,28.25,32.1875,34.3125,35.1875
0.056053936,0.57950485,-0.5633802,-0.2543239,-0.047677677,0.034208987,-0.21021141,-0.38170564,-0.34847695,0.059876993,-3.0787067,0.6250308,-0.00043724533,-0.026963934,0.00026683058,0.0021368484,-0.015017306,0.0066457046,0.00021559923,0.4769352,-1.4248685,1.9567307,-2.100918,-1.5704902,2.4519613,-0.032016024,0.032559436,-0.041030083,-0.004360839,0.010183814,-0.03222262,0.019153614,0.36391866,-9.481039,0.7620334,47.642998,-0.6377291,-2.1861458,-3.3761013,-0.5005414,0.079088435,-0.23755638,28.0,29.125,28.25,32.1875,34.3125,35.1875
0.058054123,-0.036672868,-0.6506361,-0.17829657,-0.045768533,0.017601656,-0.19843422,-0.38173112,-0.34846747,0.059856985,-3.0786946,0.6250273,-0.0004931087,-0.027749842,0.00034043065,0.0021304118,-0.015603655,0.0063105244,0.00038777138,0.47688675,-1.4247962,1.956694,-2.100918,-1.5704778,2.4519122,-0.03330641,0.03365972,-0.042323295,-0.0041406336,0.010855353,-0.033685956,0.076614454,0.40222588,-9.423578,0.8023209,47.684196,-0.6008841,-2.104085,-3.2920377,-0.49026406,0.10213198,-0.2391618,28.0,29.125,28.25,32.1875,34.3125,35.1875
0.060053926,-0.015613074,-0.9017372,-0.20903464,-0.03769905,0.015980927,-0.18549453,-0.38180724,-0.34847116,0.05986608,-3.0787382,0.6250542,-0.0004324649,-0.028808272,-4.8977956e-05,0.0028042404,-0.016917447,0.0073406626,0.0017043081,0.47681463,-1.4247124,1.9565858,-2.1009538,-1.570465,2.4518514,-0.03403453,0.034146525,-0.04444725,-0.0040226993,0.011547976,-0.035730034,0.0,0.40222588,-9.500193,0.7329411,47.675243,-0.6425939,-2.0119352,-3.3190486,-0.50061035,0.07218176,-0.26858598,28.0,29.125,28.25,32.1875,34.3125,35.1875
0.062053636,-0.44763443,-0.8964715,-0.29240945,-0.03367425,0.0043134145,-0.19644035,-0.38185367,-0.34847644,0.05987139,3.0787737,-0.62506187,0.0004774458,-0.029191524,-0.00014449886,0.0020149418,-0.016667945,0.0058948225,0.002912449,0.4767424,-1.4246515,1.9565014,-2.100942,-1.5704054,2.4517794,-0.034500282,0.036683705,-0.04552642,-0.004079896,0.011988369,-0.03740359,-0.05746084,0.2873042,-9.519346,0.779936,47.689575,-0.65637606,-2.0986986,-3.3056622,-0.5135319,0.07502965,-0.27339247,28.0,29.125,28.25,32.1875,34.3125,35.1875
0.06405337,-0.24525376,-0.6607195,-0.13309221,-0.031224541,0.013385037,-0.19107516,-0.3819404,-0.34848133,0.059903994,3.0787506,-0.6249401,0.00029734953,-0.030181639,-0.0005917141,0.0023378395,-0.01787332,0.0068581165,0.004640108,0.47669417,-1.4246031,1.9563826,-2.10099,-1.5704411,2.4516582,-0.035020865,0.037672866,-0.047235943,-0.0047711865,0.012616896,-0.039650258,-0.05746084,0.3256114,-9.500193,0.7620334,47.689575,-0.73238,-2.1596546,-3.3168645,-0.48689365,0.06871218,-0.2626889,28.0,29.125,28.25,32.1875,34.3125,35.1875
0.06605348,0.15031621,-0.18635283,0.11526698,-0.029233046,0.043968543,-0.19873814,-0.38197926,-0.3484764,0.059885908,3.0787177,-0.62501043,0.0004138403,-0.032275025,-0.0018424701,0.0033574032,-0.020227142,0.009627324,0.005700938,0.47661018,-1.4245069,1.9563087,-2.1009662,-1.5703806,2.4516222,-0.03525097,0.039561566,-0.051446874,-0.0059886067,0.013425258,-0.040940445,-0.13407528,0.28730422,-9.346964,0.7665104,47.678825,-0.7670306,-2.1087089,-3.2413986,-0.49457952,0.06539017,-0.25987154,28.0,29.125,28.25,32.1875,34.3125,35.1875
0.06805325,-0.3084391,-0.26595166,0.06766765,-0.0093693305,0.03768301,-0.19421095,-0.38204166,-0.34848788,0.059897516,3.0786695,-0.62496144,0.00039256655,-0.031579122,-0.0010792967,0.00099107,-0.018581184,0.0050808806,0.005330782,0.47654974,-1.4244336,1.9562014,-2.1009786,-1.5703448,2.4515374,-0.036367413,0.04295167,-0.04987132,-0.0061591426,0.014054103,-0.041687332,-0.11492168,0.21068975,-9.308657,0.8291774,47.703903,-0.78912884,-2.2835126,-3.2758539,-0.47829282,0.068798095,-0.290456,28.0,29.125,28.25,32.1875,34.3125,35.1875
0.070054464,-0.65065813,-0.13128164,0.13495423,-0.0011729345,0.03617534,-0.19103481,-0.3821124,-0.34851342,0.0599131,3.07861,-0.62489086,0.0003142809,-0.032758072,-0.0017059308,0.0022252381,-0.020384839,0.0071771853,0.0061695995,0.47651368,-1.42435,1.9560813,-2.1010263,-1.57032,2.451465,-0.036750127,0.042609036,-0.05232664,-0.0060517057,0.014694192,-0.04290749,-0.17238252,0.21068975,-9.289502,0.7284641,47.684196,-0.84473646,-2.2099218,-3.3594446,-0.48555332,0.046729647,-0.33936214,28.0,29.125,28.25,32.1875,34.3125,35.1875
0.07205351,-0.2966081,0.5107859,0.32300678,-0.0077654296,0.036417294,-0.19575445,-0.3822042,-0.34849754,0.059933968,3.0785751,-0.6248641,0.00026623474,-0.034177046,-0.001985123,0.0029805743,-0.02094289,0.009255856,0.008890855,0.47639334,-1.424278,1.9559487,-2.1010144,-1.5703086,2.4513323,-0.037253726,0.043310188,-0.054774184,-0.0064035403,0.01423483,-0.046129566,-0.24899697,0.15322891,-9.289502,0.77545905,47.685097,-0.85292435,-2.1144285,-3.2589881,-0.4967413,0.039172225,-0.31231213,28.0,29.125,28.25,32.1875,34.3125,35.1875
0.074053094,-0.4715325,0.36865517,0.31824225,0.0041251765,0.03221063,-0.18751629,-0.38222906,-0.34850773,0.059903275,3.078565,-0.6248416,0.0003579912,-0.035590403,-0.0026421617,0.0032057907,-0.021293573,0.009669418,0.00887045,0.4763575,-1.4241692,1.9559001,-2.1010382,-1.5702609,2.4512837,-0.0374622,0.046058446,-0.05854257,-0.0059093763,0.0143488115,-0.046316106,-0.17238252,0.17238252,-9.308656,0.7665104,47.70032,-0.97568524,-2.2197168,-3.1236286,-0.48773217,0.016885966,-0.31836587,28.0,29.125,28.25,32.1875,34.3125,35.1875
0.07605337,-0.48012322,0.6903878,0.353942,0.0007463858,0.03595408,-0.1895083,-0.3823407,-0.348509,0.059930604,3.078505,-0.6247921,0.00025483136,-0.035070706,-0.0016274803,0.0014975796,-0.019144878,0.0068062255,0.007897252,0.4762491,-1.4240725,1.9557327,-2.1010616,-1.570249,2.451152,-0.038391583,0.048011385,-0.056845464,-0.006025508,0.013761568,-0.046270654,-0.2681506,0.076614454,-9.346964,0.75084364,47.694946,-1.0394434,-2.2135477,-3.1163616,-0.4753449,0.020042809,-0.36833492,28.0,29.125,28.25,32.1875,34.3125,35.1875
0.078054026,-0.41751346,0.33284846,0.36528683,0.0010444658,0.04194874,-0.19279274,-0.3823979,-0.34850457,0.059938222,3.0784624,-0.6248587,0.00029031938,-0.03601796,-0.0019309237,0.001957875,-0.019384898,0.0075174286,0.009911668,0.47616494,-1.4240004,1.9556249,-2.1010263,-1.5702127,2.451115,-0.038643636,0.049062964,-0.059237197,-0.005423306,0.013646559,-0.04853572,-0.24899697,0.11492168,-9.270349,0.81351066,47.719128,-1.0000539,-2.1625857,-3.1679406,-0.4788691,0.044295028,-0.3676123,28.0,29.125,28.25,32.1875,34.3125,35.1875
0.08005531,-0.2588337,0.5906528,0.45927057,-0.013515891,0.04955579,-0.1988568,-0.38246492,-0.34852284,0.059947386,3.0784235,-0.6246752,0.0002635481,-0.037080187,-0.001964316,0.0021951774,-0.01918554,0.008229795,0.012932901,0.47610494,-1.423916,1.9555157,-2.1010616,-1.5701655,2.4509454,-0.03922883,0.050372317,-0.061334096,-0.0051709893,0.013143278,-0.05213946,-0.24899697,0.05746084,-9.270349,0.7217513,47.70211,-1.1048261,-2.186773,-3.1104147,-0.4746914,0.031416476,-0.33918583,28.0,29.125,28.25,32.1875,34.3125,35.1875
0.08205413,-0.43794194,0.4948178,0.3439957,-0.007603568,0.049897492,-0.2014627,-0.38254488,-0.34853268,0.059953604,3.078386,-0.6246089,0.00022916029,-0.03764991,-0.0017736609,0.002052235,-0.019057214,0.007948699,0.015360033,0.4760326,-1.4238079,1.9553837,-2.101086,-1.5701407,2.4508364,-0.04009396,0.05140058,-0.062225804,-0.0049951607,0.013160802,-0.05543055,-0.40222588,0.095768064,-9.155427,0.8224646,47.696735,-1.146105,-2.1807349,-3.1094956,-0.4901061,0.031466343,-0.36022598,28.0,29.125,28.25,32.1875,34.3125,35.1875
0.08405408,-0.17575127,0.6094995,0.31063953,-0.01040539,0.05463289,-0.2051859,-0.3826307,-0.3485229,0.059955094,3.0783718,-0.62464494,0.00021512098,-0.038530234,-0.0019977875,0.0020601975,-0.018970245,0.008466151,0.015004995,0.47593644,-1.4236876,1.9552401,-2.101074,-1.5701412,2.4507647,-0.040291067,0.053026546,-0.0640579,-0.0052067856,0.0128440885,-0.05527087,-0.34476504,0.17238252,-9.174581,0.80456203,47.687782,-1.1604631,-2.1725535,-3.052888,-0.4954512,0.022699976,-0.3734374,28.0,29.125,28.25,32.1875,34.3125,35.1875
0.086054556,-0.7848361,0.19085984,0.24477829,-0.003565356,0.0378927,-0.19465569,-0.38270286,-0.3485217,0.059954066,3.0783606,-0.6245634,0.0002233976,-0.039832484,-0.0019770598,0.0024124645,-0.019899651,0.009386504,0.017722046,0.4758521,-1.4235795,1.955119,-2.101074,-1.5701169,2.450631,-0.041778054,0.053927798,-0.06580698,-0.005599788,0.013246917,-0.05947417,-0.24899697,0.17238252,-9.32781,0.7665104,47.70032,-1.2447491,-2.1580245,-3.1253486,-0.47364837,0.02000505,-0.33304775,28.0,29.125,28.25,32.1875,34.3125,35.1875
0.08805338,-0.69323665,0.01582012,0.1560123,-0.008358767,0.03427398,-0.18755886,-0.3827944,-0.34852326,0.059960846,3.0783136,-0.6245156,0.00017555557,-0.041305985,-0.0012922155,0.0021698698,-0.019624123,0.009534188,0.01925569,0.47575504,-1.423471,1.9549879,-2.1011097,-1.570093,2.45051,-0.044136424,0.05572647,-0.06722478,-0.0059798863,0.01293662,-0.063363984,-0.22984336,0.19153613,-9.308656,0.7933669,47.703903,-1.1275146,-2.14719,-3.0696979,-0.48417664,0.01953597,-0.31201255,28.0,29.125,28.25,32.1875,34.3125,35.1875
0.09005462,-0.5810014,-0.26933104,0.07725231,-0.0044848775,0.034168337,-0.19624518,-0.3828858,-0.34853017,0.059959624,3.07831,-0.62441564,0.00013171292,-0.04212219,-0.0014822457,0.0026303076,-0.020649998,0.010142863,0.022179818,0.47568282,-1.4233272,1.954832,-2.101134,-1.5700926,2.450376,-0.04494987,0.056087267,-0.06872478,-0.0058509726,0.013571632,-0.06710107,-0.2681506,0.22984336,-9.308656,0.7217513,47.668976,-1.2069061,-2.1705499,-3.1241755,-0.48584393,0.034747515,-0.3077559,28.0,29.125,28.25,32.1875,34.3125,35.1875
0.09205382,-0.02010586,0.39413437,0.19331141,-0.026307466,0.04616219,-0.20197104,-0.38297376,-0.34852806,0.05997888,3.078266,-0.62434715,0.00010964297,-0.04221638,-0.001998889,0.0013957454,-0.019132536,0.00803985,0.026723554,0.47557524,-1.4232416,1.9546875,-2.1011217,-1.5700573,2.4502313,-0.043860555,0.060192306,-0.07069726,-0.00541197,0.013188499,-0.07055289,-0.2681506,0.19153613,-9.404425,0.7866488,47.690468,-1.3340144,-2.1886468,-3.056481,-0.48391622,0.029912151,-0.24766007,28.0,29.125,28.25,32.1875,34.3125,35.1875
0.09405406,-0.19106285,-0.3839788,0.12231921,-0.00960806,0.049174167,-0.19843751,-0.38304916,-0.3485325,0.05997448,3.0782647,-0.62421143,0.00014612461,-0.04392366,-0.0009340152,0.001999759,-0.019546578,0.009066216,0.027275609,0.4754902,-1.4231095,1.954544,-2.1011097,-1.570021,2.4500618,-0.047242213,0.06003679,-0.07198559,-0.0050637973,0.013087477,-0.07448597,-0.21068975,0.2681506,-9.3661175,0.7239871,47.687782,-1.276235,-2.28451,-3.0751157,-0.47534877,0.036222048,-0.2128145,28.0,29.125,28.25,32.1875,34.3125,35.1875
0.09605372,-0.63447815,-0.19289555,-0.08659276,-0.019931309,0.038716566,-0.19406693,-0.38312185,-0.34852457,0.059962958,3.0782616,-0.62413263,0.00017073037,-0.045088273,-0.00046193253,0.002548951,-0.020329032,0.009520444,0.028747609,0.4753935,-1.4229895,1.9544357,-2.1011212,-1.5699967,2.4499164,-0.049454905,0.060032833,-0.073389985,-0.004413848,0.01357664,-0.078170665,-0.22984336,0.21068975,-9.423578,0.78217715,47.685097,-1.2726592,-2.106498,-3.0661306,-0.502757,0.01869997,-0.17421049,28.0,29.125,28.25,32.1875,34.3125,35.1875
0.09805455,0.14391033,-0.17068905,-0.13113956,-0.024845585,0.055206142,-0.19913389,-0.38323176,-0.34851134,0.059990097,3.078251,-0.6240145,4.3986005e-05,-0.046307243,0.00013190681,0.0021298884,-0.020070361,0.009385358,0.02917815,0.47528476,-1.4229046,1.9542798,-2.101134,-1.570021,2.4497354,-0.051507965,0.061888337,-0.074423954,-0.0049952427,0.013414462,-0.08065205,-0.17238252,0.22984336,-9.519346,0.7933669,47.713753,-1.1066895,-2.1895227,-3.1104345,-0.50696176,0.052125655,-0.13288663,28.0,29.125,28.25,32.1875,34.3125,35.1875
0.100053735,-0.62842625,-0.2649298,0.005830623,-0.02947372,0.0452521,-0.1948543,-0.3833254,-0.3485392,0.059992954,3.0782049,-0.62388974,8.984925e-05,-0.04619123,-0.00050948816,0.0004098844,-0.019367887,0.0066719363,0.029859025,0.47520107,-1.422735,1.9540766,-2.1011217,-1.5699486,2.4495797,-0.050650142,0.066359065,-0.07545321,-0.005697902,0.0140304845,-0.080474116,-0.30645782,0.24899697,-9.404425,0.71279734,47.689575,-1.2676741,-2.2892385,-3.1331468,-0.4872846,0.046904482,-0.08649265,28.0,29.125,28.25,32.1875,34.3125,35.1875
0.10205403,-0.4647885,-0.050517455,0.042485397,-0.025485829,0.05413496,-0.19616503,-0.38341078,-0.3485466,0.059982866,3.0781562,-0.6238599,0.000106432846,-0.047749173,-0.00054733414,0.0021912153,-0.021668114,0.010173409,0.029807577,0.47510454,-1.4225916,1.9539441,-2.101158,-1.5699004,2.4494708,-0.052284397,0.06423911,-0.07699179,-0.006200452,0.0144740045,-0.08205651,-0.2681506,0.21068975,-9.423578,0.78888994,47.687782,-1.331994,-2.1816232,-3.0992122,-0.4902174,0.045139097,-0.08037553,28.0,29.125,28.25,32.1875,34.3125,35.1875
0.104054116,-0.13637437,0.52221507,0.013207485,-0.029314298,0.0548425,-0.20217128,-0.38349396,-0.34853,0.059991535,3.0781457,-0.6237469,0.00010248953,-0.048666246,0.00082787575,0.0004833827,-0.020416856,0.006802829,0.022445315,0.47498322,-1.4225062,1.9538239,-2.1011455,-1.5698766,2.4492803,-0.05583092,0.067876704,-0.07731078,-0.005949988,0.014904808,-0.078240186,-0.21068975,0.1340753,-9.442732,0.78888994,47.70211,-1.163318,-2.2068799,-3.1950626,-0.49057037,0.030170593,-0.11517525,28.0,29.125,28.25,32.1875,34.3125,35.1875
0.1060543,-0.45078355,0.11229823,0.06804648,-0.010293618,0.03978057,-0.19904386,-0.3836149,-0.34852284,0.059996765,3.0781455,-0.62372786,3.4616893e-05,-0.050622426,0.00031387777,0.001625729,-0.021220552,0.009376559,0.020846836,0.47487518,-1.4223377,1.9536194,-2.1011455,-1.5699009,2.4491606,-0.056393813,0.06901991,-0.08127386,-0.0057858243,0.014438554,-0.07720154,-0.34476504,0.1340753,-9.442732,0.75755644,47.70211,-1.1982962,-2.2511013,-3.0738482,-0.4968758,0.059237987,-0.1150537,28.0,29.125,28.25,32.1875,34.3125,35.1875
0.10805444,-0.19076498,0.5530228,0.17352505,-0.015518067,0.04801192,-0.1945043,-0.38368583,-0.34853366,0.05998321,3.0780714,-0.6236383,0.000100922494,-0.050425474,0.0010294631,0.0001958975,-0.020711366,0.0071987766,0.018241046,0.47476655,-1.422217,1.9535235,-2.1011941,-1.5698041,2.4490054,-0.057821255,0.070603065,-0.079572774,-0.0068942374,0.014985428,-0.07602375,-0.40222588,0.095768064,-9.442732,0.83813137,47.716442,-1.20524,-2.2569728,-3.2497067,-0.5077688,0.038975846,-0.10540674,28.0,29.125,28.25,32.1875,34.3125,35.1875
0.1100545,-0.03282035,0.66730136,0.12556362,-0.011720396,0.05500119,-0.1957862,-0.38379854,-0.34852412,0.059995912,3.078072,-0.6235628,7.345436e-05,-0.051917493,0.0010106679,0.00020014668,-0.021027122,0.008093802,0.013515245,0.4746462,-1.4220722,1.9533209,-2.1011589,-1.5698041,2.448838,-0.059051048,0.07261237,-0.081701584,-0.0077156182,0.014852318,-0.07252578,-0.3256114,0.17238252,-9.442732,0.7911258,47.67614,-1.2535675,-2.2352703,-3.2606637,-0.46673554,0.054480366,-0.18103173,28.0,29.125,28.25,32.1875,34.3125,35.1875
0.112053834,-0.11084193,0.6991988,0.0884004,-0.012924778,0.056998033,-0.19481203,-0.38391596,-0.34853888,0.0600155,3.0779707,-0.623485,5.6508037e-07,-0.052953206,0.0011598519,0.00084309356,-0.021724023,0.009334011,0.011352939,0.47452575,-1.4219521,1.9531525,-2.1012185,-1.569744,2.4486818,-0.06028098,0.07246975,-0.08302333,-0.0076676845,0.014911989,-0.07159125,-0.28730422,0.05746084,-9.3661175,0.7732232,47.690468,-1.2507192,-2.2733612,-3.0843756,-0.47748792,0.053687874,-0.20912656,28.0,29.125,28.25,32.1875,34.3125,35.1875
0.11405395,-0.70960414,0.08911231,-0.05106353,0.001072311,0.041577738,-0.19291823,-0.3840114,-0.34852937,0.059984382,3.078025,-0.6234207,4.9291728e-05,-0.052876327,0.0017273173,6.6888597e-06,-0.021266397,0.006888056,0.009130514,0.47442934,-1.4217356,1.9529732,-2.101206,-1.5697564,2.4485385,-0.06166004,0.073805965,-0.08285847,-0.006786611,0.015622345,-0.07074929,-0.30645782,0.076614454,-9.423578,0.8090337,47.661808,-1.2637488,-2.136515,-3.3262658,-0.4809959,0.06627491,-0.2355323,28.0,29.125,28.25,32.1875,34.3125,35.1875
0.11605411,-0.7717396,0.5050317,0.1135269,-0.013511157,0.03927672,-0.19142915,-0.3841155,-0.3485151,0.059987966,3.0779788,-0.6233928,4.2490483e-05,-0.054083936,0.0018735294,0.00010649476,-0.021736862,0.006997569,0.006984889,0.4742849,-1.4216149,1.9528297,-2.1012185,-1.5697197,2.4483826,-0.06324336,0.07523974,-0.08477245,-0.006615646,0.015991509,-0.07018561,-0.2681506,0.095768064,-9.423578,0.900793,47.688675,-1.221027,-2.2598615,-3.2909613,-0.48409724,0.07433307,-0.24958646,28.0,29.125,28.25,32.1875,34.3125,35.1875
0.11805466,0.03695255,0.40123203,0.09524428,-0.0064278217,0.0558753,-0.1925656,-0.3842283,-0.34851226,0.05999377,3.0779567,-0.6233888,-1.1330064e-06,-0.05478043,0.002093801,8.7511864e-05,-0.022331728,0.007098867,0.005793804,0.47417644,-1.4214584,1.9526376,-2.1012185,-1.5697197,2.4482746,-0.06456466,0.07580362,-0.085291944,-0.007021655,0.01647678,-0.07031523,-0.21068975,0.076614454,-9.385271,0.8112748,47.70838,-1.2046158,-2.1506114,-3.3526378,-0.47225276,0.058280744,-0.30142486,28.0,29.125,28.25,32.1875,34.3125,35.1875
0.12005454,-0.6098398,0.48711148,0.02833618,-0.007685169,0.041136656,-0.19104344,-0.3843407,-0.34851512,0.05999423,3.0778692,-0.6233515,-2.0054172e-06,-0.055674523,0.002221534,-6.362896e-05,-0.022307448,0.0073430045,0.0055164555,0.47403198,-1.4213139,1.9524821,-2.1012661,-1.5696477,2.448118,-0.06550188,0.07722033,-0.086478986,-0.0074488563,0.016347175,-0.07097319,-0.2681506,0.05746084,-9.385271,0.7911258,47.691364,-1.2164257,-2.0827837,-3.4089732,-0.47230214,0.06801367,-0.33523124,28.0,29.125,28.25,32.1875,34.3125,35.1875
0.12205451,-0.4711849,0.26236945,0.00052787986,-0.00043486024,0.043024372,-0.18894924,-0.38447583,-0.3485179,0.060019333,3.0777726,-0.62329537,-5.9417154e-05,-0.05715412,0.0038559912,-0.00022982666,-0.022100562,0.007005123,0.0019060627,0.4738747,-1.4211816,1.952279,-2.10129,-1.5695881,2.447938,-0.06971016,0.07768069,-0.08666265,-0.0073229545,0.016327012,-0.071569405,-0.2873042,0.076614454,-9.404425,0.8023209,47.670765,-1.0673716,-2.1024394,-3.4602134,-0.46177816,0.09088959,-0.3564164,28.0,29.125,28.25,32.1875,34.3125,35.1875
0.12405461,-0.36036482,0.44351465,0.1173858,-0.0023665065,0.05491612,-0.19582158,-0.38459414,-0.34851614,0.060018428,3.0777411,-0.6233261,-7.6868266e-05,-0.057824306,0.002321778,0.0008195362,-0.022844333,0.009333014,0.0043999744,0.47375557,-1.421001,1.9520744,-2.10129,-1.5695761,2.4478421,-0.06732039,0.07847445,-0.0900134,-0.0071723806,0.015923668,-0.07167121,-0.36391866,0.076614454,-9.404425,0.8090337,47.65643,-1.2627096,-2.062643,-3.338525,-0.46030086,0.11161358,-0.3915842,28.0,29.125,28.25,32.1875,34.3125,35.1875
0.12605435,-0.45447996,0.289571,0.045493655,-0.0017840264,0.058413006,-0.18599655,-0.38471726,-0.34850016,0.060036417,3.07769,-0.6232969,-0.00012413877,-0.057656106,0.0031635254,-0.0005946541,-0.022920167,0.006038227,0.0025071097,0.47359863,-1.4208806,1.9518956,-2.10129,-1.5695513,2.4476736,-0.069654,0.08012861,-0.088660166,-0.007283187,0.01750408,-0.07211226,-0.28730422,0.11492168,-9.3661175,0.77545905,47.67166,-1.2210531,-1.9747238,-3.5608342,-0.46608096,0.09805067,-0.4402895,28.0,29.125,28.25,32.1875,34.3125,35.1875
0.12805368,-0.8187322,0.0042118793,-0.035603795,-0.0013148512,0.053721484,-0.18888187,-0.38480142,-0.34848353,0.060011394,3.0776567,-0.62333095,-2.2220442e-05,-0.061347455,0.0037476826,0.0009037541,-0.025370307,0.008646887,-0.0010238177,0.47345302,-1.420724,1.9517735,-2.10129,-1.5694908,2.4475534,-0.074675135,0.0813362,-0.09352387,-0.0070609157,0.018486438,-0.0736011,-0.30645782,0.1340753,-9.3661175,0.84484416,47.691364,-1.0818721,-2.1300497,-3.4370592,-0.48656496,0.102186814,-0.47297034,28.0,29.125,28.25,32.1875,34.3125,35.1875
0.13005438,-0.59226227,0.23839948,0.081322014,-0.00977914,0.049331598,-0.19945939,-0.38494867,-0.3484698,0.06001082,3.0776544,-0.6232892,-0.000103191545,-0.06071348,0.0029297979,0.0012295102,-0.025444333,0.009067073,0.0028549186,0.4733098,-1.4205198,1.9515465,-2.1013138,-1.5695151,2.4473846,-0.072540544,0.08089798,-0.09386734,-0.006683698,0.018368777,-0.07534434,-0.3256114,0.17238252,-9.289502,0.7597976,47.691364,-1.1816003,-1.944412,-3.4394474,-0.45400253,0.10031228,-0.48162526,28.0,29.125,28.25,32.1875,34.3125,35.1875
0.13205463,-0.67539805,0.27243742,-0.062340334,-0.010525785,0.047927976,-0.1970359,-0.3850601,-0.34847143,0.06000578,3.0776124,-0.6231438,-6.0122245e-05,-0.062506214,0.0038823767,0.00032675962,-0.02467388,0.00797087,0.006142289,0.47316468,-1.4203503,1.9513668,-2.1013258,-1.5694436,2.447154,-0.075722754,0.08443857,-0.095815346,-0.0069330893,0.01818859,-0.081811905,-0.30645782,0.15322891,-9.3661175,0.8314132,47.666286,-1.0806528,-1.9731972,-3.4357426,-0.47914082,0.10802527,-0.48495296,28.0,29.125,28.25,32.1875,34.3125,35.1875
0.13405363,-0.6761754,0.41761145,-0.09859576,-0.014458154,0.048921745,-0.18901117,-0.385191,-0.34846798,0.060020607,3.0775194,-0.6231822,-0.00010274893,-0.06471022,0.0039408454,0.0022864176,-0.026717575,0.0119290035,0.0070541385,0.47300792,-1.4202067,1.9511741,-2.10135,-1.5693954,2.4470332,-0.07781851,0.08296291,-0.09855528,-0.00716164,0.018210294,-0.084817074,-0.17238252,0.095768064,-9.32781,0.83813137,47.68599,-1.082737,-1.979687,-3.3522203,-0.47070783,0.13433143,-0.48705998,28.0,29.125,28.25,32.1875,34.3125,35.1875
0.13605438,-0.98175853,0.022990573,-0.3556265,-0.011323195,0.049904745,-0.18944508,-0.3852886,-0.34844556,0.05999961,3.0775392,-0.6231435,-1.7971639e-05,-0.06565585,0.0044770055,0.0018111813,-0.026305823,0.011107019,0.012438391,0.47286338,-1.4200258,1.9510068,-2.1013138,-1.5693711,2.446862,-0.07961429,0.08489358,-0.09973897,-0.0069756815,0.018222244,-0.091997206,-0.2681506,0.21068975,-9.519346,0.9030289,47.696735,-1.0631335,-1.8764952,-3.415267,-0.46377075,0.15497479,-0.44249785,28.0,29.125,28.25,32.1875,34.3125,35.1875
0.1380544,-0.81294763,-0.5319146,-0.5447674,-0.008346114,0.05969398,-0.18972597,-0.3854643,-0.34844062,0.060032956,3.0774467,-0.6230827,-0.00012835575,-0.066592574,0.004382411,0.001931748,-0.02683643,0.011071373,0.019182941,0.472671,-1.4198573,1.9507431,-2.1013377,-1.5693349,2.4466436,-0.08058809,0.0862668,-0.1016828,-0.006599964,0.018731384,-0.09971252,-0.4213795,0.22984336,-9.595961,0.8605109,47.716442,-1.0137984,-1.8721541,-3.4052339,-0.48062286,0.16037482,-0.34768087,28.0,29.125,28.25,32.1875,34.3125,35.1875
0.14005467,-0.807989,-0.32223442,-0.18135823,-0.029867426,0.07320577,-0.1901137,-0.38559556,-0.3484441,0.06005294,3.0773852,-0.62301,-0.00015360716,-0.067565866,0.004832607,0.0018298898,-0.027099038,0.010855662,0.023536392,0.47252637,-1.4197009,1.9505156,-2.1013258,-1.5692867,2.4464614,-0.08246345,0.08734756,-0.10270543,-0.0065709543,0.019077681,-0.105939716,-0.4213795,0.19153613,-9.615114,0.80679786,47.686886,-1.0024847,-1.8237588,-3.411285,-0.4789688,0.17331314,-0.31466824,28.0,29.125,28.25,32.1875,34.3125,35.1875
0.14205417,-0.788149,-0.60863465,-0.58891803,-0.023090634,0.081377484,-0.19214362,-0.38572803,-0.34839922,0.060024466,3.0774133,-0.62291694,-0.00016631749,-0.06896218,0.0046450514,0.0020821625,-0.027824178,0.011535279,0.027656017,0.4723342,-1.419508,1.9503707,-2.101374,-1.5692991,2.4462078,-0.08358992,0.089066386,-0.10524133,-0.0066809207,0.019418959,-0.11118441,-0.4213795,0.19153613,-9.749189,0.7777002,47.672558,-0.94384617,-1.7105858,-3.416718,-0.48840147,0.18412204,-0.23368101,28.0,29.125,28.25,32.1875,34.3125,35.1875
0.14405517,-1.0048016,-0.36671016,-0.5509413,-0.029225118,0.06840732,-0.18648392,-0.38584545,-0.34842467,0.060031224,3.077374,-0.6227164,-0.00013643017,-0.06987564,0.0050559496,0.00081736915,-0.02779864,0.008894171,0.02839568,0.4722252,-1.4193145,1.9501308,-2.1013615,-1.5692261,2.4459786,-0.08588638,0.09276026,-0.10661327,-0.006628982,0.02060467,-0.11421899,-0.34476504,0.24899697,-9.768343,0.8493211,47.67345,-0.9438419,-1.8089907,-3.3903482,-0.48594967,0.18531437,-0.15524611,28.0,29.125,28.25,32.1875,34.3125,35.1875
0.14605409,-0.48143417,-0.14335777,-0.2665963,-0.034992393,0.072368845,-0.19242874,-0.38601947,-0.3483827,0.060043566,3.0773098,-0.6227601,-0.00021275847,-0.07135874,0.0050632753,0.0010161945,-0.028386677,0.009750844,0.027830083,0.4719848,-1.4191457,1.9499148,-2.1013858,-1.5692142,2.4457738,-0.08729461,0.09438955,-0.10885287,-0.0070419908,0.020747323,-0.11505879,-0.36391866,0.22984336,-9.615114,0.7553206,47.64121,-0.8902497,-1.82865,-3.4416218,-0.48374736,0.19178382,-0.14819801,28.0,29.125,28.25,32.1875,34.3125,35.1875
0.14805575,-0.5735874,-0.14772516,-0.23443097,-0.024742536,0.064451694,-0.19282809,-0.38614792,-0.3483842,0.06002626,3.077264,-0.62261957,-0.00014408992,-0.07302818,0.0048988517,0.00014962304,-0.028132467,0.009351171,0.02456908,0.4718164,-1.4189278,1.9497102,-2.1014102,-1.5691303,2.4455235,-0.08845392,0.09885026,-0.1117625,-0.008111252,0.020695914,-0.11295459,-0.45968673,0.2681506,-9.500193,0.85826975,47.687782,-0.8634603,-2.129556,-3.2810745,-0.46985102,0.21794476,-0.14958704,28.0,29.125,28.25,32.1875,34.3125,35.1875
0.15005396,-0.6826222,-0.24035,-0.22851776,-0.00894793,0.050202575,-0.1869065,-0.3863083,-0.348382,0.060063865,3.0771487,-0.6225804,-0.0002593513,-0.07620594,0.004824731,0.0024356116,-0.03145478,0.013751548,0.017290488,0.4716353,-1.4187963,1.9494818,-2.101446,-1.5690817,2.4453328,-0.09178641,0.09806035,-0.115984224,-0.008529335,0.021659285,-0.109003805,-0.5363012,0.2873042,-9.5385,0.7642693,47.67614,-0.702922,-1.8796523,-3.25098,-0.46389702,0.21537259,-0.18095753,28.0,29.125,28.25,32.1875,34.3125,35.1875
0.15205391,-0.1765837,0.09753849,-0.032760903,-0.014818556,0.0685566,-0.18724862,-0.38646626,-0.34837055,0.06005942,3.0771284,-0.6224812,-0.00027629212,-0.074932836,0.0039159255,-8.35801e-05,-0.029898118,0.009020345,0.014679859,0.4714561,-1.4185662,1.949231,-2.1014578,-1.5690578,2.4450943,-0.08947431,0.10325316,-0.11619664,-0.008591569,0.02242176,-0.10407949,-0.5363012,0.21068975,-9.576807,0.7665104,47.67345,-0.8535766,-2.065021,-3.1399972,-0.4540801,0.2243321,-0.2171679,28.0,29.125,28.25,32.1875,34.3125,35.1875
0.15405397,-0.6532076,-0.3513855,-0.0710026,-0.009820493,0.068984345,-0.18984146,-0.38662943,-0.34835616,0.060075767,3.0770464,-0.62246686,-0.00031872228,-0.07787237,0.0035456172,0.0022312643,-0.032919835,0.013596555,0.009354269,0.47125143,-1.4183862,1.9489902,-2.1014698,-1.5690097,2.4448912,-0.09183356,0.10253253,-0.120588586,-0.008925605,0.023033671,-0.10110944,-0.47884035,0.21068975,-9.385271,0.8314132,47.67614,-0.885461,-1.896652,-3.0557249,-0.45011938,0.24725424,-0.3029445,28.0,29.125,28.25,32.1875,34.3125,35.1875
0.15605427,-0.3824942,0.49867705,0.13638039,-0.033156723,0.081669465,-0.19576117,-0.38677397,-0.3483509,0.06007465,3.0770109,-0.6224014,-0.00035137666,-0.07777206,0.0037692909,0.0012933715,-0.03206451,0.011712861,0.009628338,0.4710952,-1.4181813,1.9487633,-2.1014936,-1.5689853,2.4446988,-0.09216571,0.10442596,-0.120707765,-0.008626404,0.023136681,-0.10171435,-0.51714754,0.30645782,-9.3661175,0.83365434,47.687782,-0.77374816,-1.9808378,-3.1069396,-0.4641175,0.2418662,-0.2968687,28.0,29.125,28.25,32.1875,34.3125,35.1875
0.158054,-0.75781804,-0.30490622,-0.029141987,-0.019845419,0.06924072,-0.18362828,-0.38692036,-0.34834874,0.06009009,3.076974,-0.6222782,-0.0003489998,-0.07829161,0.002953526,0.0014670184,-0.032932803,0.012129113,0.0092663085,0.4709275,-1.4179887,1.9484991,-2.1014583,-1.5689372,2.444459,-0.091530524,0.10577632,-0.12262511,-0.008819295,0.023723248,-0.100715086,-0.30645782,0.21068975,-9.423578,0.8672237,47.703903,-1.0299236,-1.9742756,-3.043179,-0.44621187,0.2606749,-0.34779242,28.0,29.125,28.25,32.1875,34.3125,35.1875
0.16005361,-0.44117004,-0.34145382,0.2380756,-0.027469955,0.071863525,-0.18971829,-0.3871015,-0.3483301,0.06009221,3.0768716,-0.62233394,-0.00040350057,-0.07869244,0.0026590095,0.0013315836,-0.033907156,0.011820303,0.009574408,0.4706993,-1.4177723,1.9482597,-2.101518,-1.568889,2.4442787,-0.091978066,0.106809735,-0.12343188,-0.009204667,0.024744505,-0.10146798,-0.3256114,0.28730422,-9.193734,0.8112748,47.704796,-0.9957688,-1.9108467,-3.0895429,-0.44456416,0.2524577,-0.36236134,28.0,29.125,28.25,32.1875,34.25,35.1875
0.16205333,-0.90754026,-0.327913,0.24834403,-0.02756219,0.042984903,-0.18511742,-0.387269,-0.34833634,0.06011269,3.0768132,-0.62222594,-0.00049686345,-0.07984265,0.0024005752,0.0016242083,-0.034831956,0.0117836185,0.008428408,0.4705429,-1.4175676,1.9479836,-2.1015418,-1.5688647,2.4440625,-0.09306568,0.108395,-0.12609357,-0.0085116215,0.025594873,-0.10140561,-0.34476507,0.34476504,-9.212888,0.7665104,47.689575,-1.0241063,-2.0245762,-3.0353665,-0.4338345,0.26648682,-0.38273913,28.0,29.125,28.25,32.1875,34.25,35.1875
0.1640541,0.08166788,-0.5194935,0.04801675,-0.019187488,0.037841924,-0.18873565,-0.38744113,-0.348318,0.060105942,3.076781,-0.62221825,-0.0005001669,-0.07917841,0.002486325,0.0004726528,-0.034537278,0.009403994,0.010305572,0.4703389,-1.4173148,1.947709,-2.1015418,-1.5688404,2.443858,-0.09310086,0.10980051,-0.1250662,-0.008681557,0.026423465,-0.10331744,-0.15322891,0.3256114,-9.270349,0.7978386,47.64121,-1.0690017,-1.8720639,-3.1730099,-0.43713123,0.270505,-0.3987311,28.0,29.125,28.25,32.1875,34.25,35.1875
0.16605385,-0.06538977,-0.5494119,0.1538211,-0.023192836,0.015352969,-0.18802191,-0.38759473,-0.34833872,0.060128197,3.0766556,-0.62209404,-0.0005798983,-0.08072293,0.0027624895,0.00039803612,-0.03478487,0.010077874,0.012451644,0.47018248,-1.4171458,1.947481,-2.1016142,-1.5687565,2.44364,-0.09489967,0.11170116,-0.12692241,-0.009418451,0.026358161,-0.10725764,-0.019153614,0.28730422,-9.212888,0.7933669,47.693153,-1.0950359,-1.9358222,-3.0391612,-0.43421134,0.29752788,-0.3963154,28.0,29.125,28.25,32.1875,34.25,35.1875
0.1680538,0.17673014,-0.26100683,0.25398797,-0.024892798,0.0037609856,-0.18918753,-0.3877649,-0.34831196,0.060118463,3.0766242,-0.6220837,-0.000584211,-0.082088634,0.0028631852,0.00068937015,-0.035437267,0.011342907,0.017680593,0.4699659,-1.4169053,1.9472297,-2.1016257,-1.5687326,2.4434211,-0.09627645,0.112675555,-0.128561,-0.010156842,0.026382439,-0.11386179,0.019153614,0.2873042,-9.097966,0.8179876,47.719128,-1.0578147,-1.8930603,-3.172952,-0.3986516,0.30405396,-0.3497371,28.0,29.125,28.25,32.1875,34.25,35.1875
0.17005348,0.24174741,-0.1450473,0.15388015,-0.011610405,-0.0045254156,-0.18181303,-0.3879699,-0.34831658,0.060150225,3.0765066,-0.62197953,-0.00069956685,-0.082187496,0.003051755,-0.00054511277,-0.034804367,0.008872712,0.023667924,0.46974978,-1.4166878,1.9469188,-2.1016738,-1.5686721,2.443155,-0.09701934,0.115508445,-0.12905824,-0.009979692,0.026971549,-0.12058737,0.19153613,0.28730422,-9.078813,0.8112748,47.688675,-1.0627112,-2.110395,-3.22112,-0.3780546,0.31459707,-0.2994926,28.0,29.125,28.25,32.1875,34.25,35.1875
0.17205395,0.7559669,-0.21263593,0.32477492,-0.0039310404,0.005805173,-0.19335093,-0.3881361,-0.34831196,0.06014469,3.0764549,-0.6218716,-0.00065939955,-0.08349728,0.0032567396,0.00040679149,-0.03702563,0.010159016,0.027911538,0.46954486,-1.4164363,1.9466428,-2.1016738,-1.5685996,2.4428895,-0.09942274,0.11470389,-0.1303116,-0.010051329,0.028389491,-0.1272324,0.2873042,0.21068975,-9.11712,0.81351066,47.67614,-0.915695,-1.8403864,-3.2919888,-0.38688135,0.3041166,-0.19461247,28.0,29.125,28.25,32.1875,34.25,35.1875
0.17405449,0.83332115,0.18794201,0.52942425,-0.008138147,-0.007187127,-0.18671352,-0.38826492,-0.34829816,0.06012393,3.0764253,-0.62174535,-0.00061425474,-0.08305318,0.0021948582,2.8670338e-05,-0.037455596,0.009083946,0.03574871,0.4693655,-1.4162314,1.946463,-2.1017096,-1.5685395,2.442635,-0.0976753,0.11634736,-0.13141336,-0.009806442,0.029276436,-0.13332058,0.28730422,0.21068975,-8.983045,0.8157518,47.687782,-1.0962847,-2.055496,-3.253432,-0.38276199,0.32547516,-0.14220145,28.0,29.125,28.25,32.1875,34.25,35.1875
0.17605406,0.746816,0.34456614,0.41595104,0.0035327163,-0.013333732,-0.19301298,-0.3884598,-0.34829462,0.060144454,3.0763648,-0.62163943,-0.00068046857,-0.08491673,0.003668812,-0.000682605,-0.037262812,0.0077549457,0.030914076,0.4691598,-1.4159902,1.9461392,-2.1017096,-1.5685028,2.4423711,-0.102185994,0.11885084,-0.13270816,-0.009733855,0.02971814,-0.13299298,0.17238252,0.22984336,-8.887277,0.84484416,47.696735,-0.912217,-1.9894549,-3.357078,-0.3629288,0.31469935,-0.11987783,28.0,29.125,28.25,32.1875,34.25,35.1875
0.17805484,0.57369703,0.92632484,0.508358,-0.0012147248,-0.014692446,-0.18878825,-0.38861895,-0.34827402,0.060118333,3.0763535,-0.6215591,-0.00064336014,-0.08445635,0.002317263,-0.0005232577,-0.03774773,0.007488679,0.03207528,0.46895692,-1.4157258,1.9459003,-2.101733,-1.568467,2.4421196,-0.09968914,0.11983874,-0.13440236,-0.009003232,0.030270591,-0.13165621,0.19153613,0.21068975,-9.059659,0.88289046,47.73077,-1.1426138,-1.9188197,-3.3108861,-0.37896046,0.3258688,-0.104020566,28.0,29.125,28.25,32.1875,34.25,35.1875
0.18005516,1.0455946,0.52449536,0.2577479,0.0066252076,0.0027353957,-0.19003019,-0.38876492,-0.34827673,0.0601075,3.0762997,-0.62145495,-0.00057513185,-0.08532175,0.0032711357,-0.0015005479,-0.037360195,0.004983939,0.025623156,0.46877587,-1.4154847,1.9456481,-2.101733,-1.5683826,2.4418805,-0.102610156,0.122372165,-0.13528611,-0.008237425,0.031054154,-0.12812355,0.19153613,0.15322891,-9.040505,0.83365434,47.719128,-1.159153,-1.9989508,-3.3524213,-0.36126572,0.33116654,-0.13078412,28.0,29.125,28.25,32.1875,34.25,35.1875
0.18205392,1.0657724,0.807283,0.32877773,-0.010153088,0.0055921953,-0.1996012,-0.38893783,-0.34827125,0.060122345,3.076225,-0.6213268,-0.0006188669,-0.08499639,0.0030620135,-0.0016821425,-0.037641138,0.0033522893,0.021372546,0.46857184,-1.4152803,1.9453849,-2.1017568,-1.5683225,2.441606,-0.10253222,0.12297959,-0.13589433,-0.006907223,0.032048296,-0.123791516,0.13407528,0.22984336,-9.11712,0.84708,47.704796,-1.1425834,-1.9231777,-3.3609927,-0.37663722,0.32461265,-0.18799327,28.0,29.125,28.25,32.1875,34.25,35.1875
0.18405418,0.39871338,0.1780835,0.31336582,-0.021072231,0.015304252,-0.19052573,-0.38910612,-0.34824768,0.060113553,3.076201,-0.6213055,-0.00058235065,-0.08646066,0.0030498921,-0.001279728,-0.03814563,0.0038143885,0.01569482,0.46835545,-1.4150276,1.9451088,-2.101732,-1.5682863,2.4413795,-0.103922285,0.124553435,-0.13880996,-0.0062049166,0.032279354,-0.11950223,-0.05746084,0.2681506,-9.174581,0.83365434,47.689575,-1.1436887,-1.9186282,-3.3294973,-0.37573302,0.32612473,-0.2417838,28.0,29.125,28.25,32.1875,34.25,35.1875
0.18605494,0.035955567,-0.7144786,-0.025691496,-0.017121078,0.030015593,-0.17988521,-0.38929185,-0.34826636,0.06013845,3.0761034,-0.62121063,-0.0006267711,-0.088083744,0.003133049,-0.000960003,-0.03836508,0.0044050333,0.011123039,0.46817514,-1.4147861,1.9447745,-2.101732,-1.5682143,2.4411526,-0.10542639,0.12642324,-0.14183702,-0.0056664497,0.032210708,-0.116430074,-0.019153614,0.30645782,-9.232041,0.83589023,47.658226,-1.0820534,-2.1448371,-3.4321578,-0.3808663,0.34502023,-0.31952778,28.0,29.125,28.25,32.1875,34.25,35.1875
0.1880548,0.121247485,-0.238199,-0.23510782,-0.030401988,0.046552293,-0.20210151,-0.38942114,-0.3482407,0.06008769,3.0761034,-0.62113446,-0.0004418454,-0.087837115,0.0027389454,-0.0015212514,-0.039279997,0.0021665536,0.008936055,0.46795905,-1.4145099,1.94457,-2.10172,-1.5681294,2.440889,-0.1056285,0.12791382,-0.14247039,-0.004933212,0.03402748,-0.11444598,0.0,0.28730422,-9.308657,0.900793,47.705692,-1.2348152,-1.836302,-3.389458,-0.41043663,0.3421198,-0.34152314,28.0,29.125,28.25,32.1875,34.25,35.1875
0.19005437,-0.90340745,-0.6275776,-0.2937066,-0.026044454,0.031949017,-0.18259527,-0.38958138,-0.34823716,0.060073644,3.0760272,-0.621101,-0.00038986464,-0.088937566,0.0023139552,-0.0007897254,-0.041115776,0.0027174072,0.006929185,0.4677546,-1.4142575,1.9443172,-2.101744,-1.568045,2.4406734,-0.1067041,0.12847,-0.14494175,-0.004328249,0.035418294,-0.113511585,-0.26815057,0.38307226,-9.385271,0.7933669,47.683304,-1.1299148,-1.9073575,-3.3659189,-0.40398487,0.3143528,-0.4428468,28.0,29.125,28.25,32.1875,34.25,35.1875
0.19205436,-0.8728299,-0.30746964,-0.2116224,-0.026638601,0.050485563,-0.18836504,-0.3897792,-0.34823203,0.060091693,3.0759587,-0.6210315,-0.00042972458,-0.09160956,0.0029161873,0.00017375783,-0.04241513,0.0044344272,0.002525686,0.46753734,-1.4140047,1.9439825,-2.1017315,-1.5679973,2.4404216,-0.11034903,0.12956205,-0.14850396,-0.0039666863,0.035808064,-0.11274847,-0.47884035,0.40222588,-9.442732,0.8851263,47.698532,-1.0799631,-1.9098115,-3.320313,-0.42889613,0.32725745,-0.47478038,28.0,29.125,28.25,32.1875,34.25,35.1875
0.194055,-0.71760094,-0.023033204,-0.3952011,-0.03738797,0.08831487,-0.20131534,-0.38993213,-0.34822515,0.060088966,3.0758922,-0.6209958,-0.00036067722,-0.0897375,0.002931192,-0.0019112771,-0.04022892,0.0005931037,0.006295188,0.46733415,-1.4137756,1.9437197,-2.1017077,-1.5679134,2.4402046,-0.10851201,0.13167652,-0.1462218,-0.0039261715,0.035602275,-0.114681676,-0.5554548,0.34476504,-9.423578,0.83813137,47.68599,-1.2092257,-1.979811,-3.437522,-0.42764926,0.3336696,-0.53069454,28.0,29.125,28.25,32.1875,34.25,35.1875
0.19605377,-1.568189,-0.7399224,-0.49100906,-0.03869935,0.09634204,-0.18871616,-0.39013773,-0.348228,0.06009041,3.0757947,-0.62097496,-0.00040557468,-0.092615575,0.0038856636,-0.0012401628,-0.04286893,0.0013227531,0.0069791595,0.46711594,-1.4134871,1.9433955,-2.1017559,-1.5678529,2.439986,-0.11402197,0.13282079,-0.14907256,-0.0040354733,0.0376537,-0.12086908,-0.57460845,0.38307226,-9.595961,0.83365434,47.70032,-1.0033232,-1.8457949,-3.3606682,-0.4266048,0.31901246,-0.51583666,28.0,29.125,28.25,32.1875,34.25,35.1875
0.19805376,-1.3387371,-0.35833386,-0.4636052,-0.062065374,0.108978115,-0.20180169,-0.3903256,-0.3482226,0.060086995,3.0756946,-0.62094826,-0.0002755442,-0.092723966,0.0024377399,-0.0006804919,-0.044647165,0.002051227,0.018103898,0.46685305,-1.4131985,1.9430603,-2.1017077,-1.5677203,2.4397192,-0.11231792,0.13343717,-0.15108643,-0.0040401057,0.0389382,-0.13028762,-0.68953013,0.38307226,-9.634268,0.89631605,47.701214,-1.1927223,-1.8350527,-3.3477108,-0.45797783,0.30903506,-0.44866967,28.0,29.125,28.25,32.1875,34.25,35.1875
0.20005338,-1.6303561,-0.55132186,-0.44525123,-0.05512557,0.108235575,-0.19743715,-0.3905098,-0.3482285,0.06009757,3.0756378,-0.6207601,-0.00030548862,-0.09470275,0.0030041442,-0.00021656192,-0.0470217,0.0022038827,0.023845484,0.46665946,-1.412946,1.9427484,-2.10172,-1.5676593,2.4394155,-0.11636164,0.13428496,-0.15315694,-0.003984991,0.041024644,-0.14006688,-0.80445176,0.30645782,-9.710882,0.83365434,47.704796,-1.019929,-1.7770637,-3.3636978,-0.4536982,0.25577593,-0.36553547,28.0,29.125,28.25,32.1875,34.25,35.1875
0.20205383,-1.0778174,-0.24555656,-0.59078336,-0.041319184,0.10158212,-0.19420615,-0.3906948,-0.34822342,0.06008887,3.0755496,-0.6206808,-0.00029510199,-0.096229315,0.0028925152,-0.0010595698,-0.04805455,0.0011510694,0.02964712,0.4664308,-1.4126803,1.9424733,-2.1017683,-1.5675749,2.4391487,-0.11837499,0.1381552,-0.15548758,-0.005008733,0.04244712,-0.14787613,-0.6512228,0.11492168,-9.710882,0.842603,47.684196,-0.8973233,-1.8918376,-3.3208547,-0.4649365,0.23284325,-0.27354035,28.0,29.125,28.25,32.1875,34.25,35.1875
0.20405379,-1.240602,0.0061029997,-0.77395725,-0.012303054,0.07673337,-0.18743116,-0.3909104,-0.34822884,0.060079165,3.075453,-0.62058073,-0.000249793,-0.097733356,0.0031410987,-0.00014527148,-0.04905957,0.0043728068,0.034359194,0.46617857,-1.4123443,1.9421142,-2.1017926,-1.5674671,2.4388463,-0.1197376,0.13737316,-0.15633102,-0.006665037,0.041920114,-0.15394913,-0.6895301,0.076614454,-9.80665,0.8493211,47.689575,-0.9374448,-1.8472769,-3.315459,-0.44410384,0.23860055,-0.22243233,28.0,29.125,28.25,32.1875,34.25,35.1875
0.2060537,-1.1912965,0.36475533,-0.5796006,0.003530872,0.07520885,-0.18685162,-0.39111474,-0.34822243,0.060102515,3.0753582,-0.62042844,-0.00031216312,-0.0988279,0.0025380705,-0.00070090726,-0.04972485,0.0041384785,0.03206626,0.46593833,-1.4121149,1.9418024,-2.101817,-1.5673946,2.4385233,-0.12003186,0.1406844,-0.15866268,-0.0077219238,0.04262927,-0.15194336,-0.7086837,0.11492168,-9.691729,0.842603,47.668976,-0.94010794,-1.9828959,-3.3130436,-0.4368844,0.21743572,-0.1877536,28.0,29.125,28.25,32.1875,34.25,35.1875
0.20805381,-1.1955307,0.24901909,-0.536819,0.019196521,0.07843453,-0.18898529,-0.39130908,-0.34822667,0.06010579,3.0752804,-0.6202431,-0.00029175583,-0.09843771,0.0019412002,-0.002299219,-0.050632227,0.00078524975,0.028220303,0.4657103,-1.4118375,1.9414781,-2.1018288,-1.5672978,2.4381895,-0.12004569,0.14405255,-0.15878147,-0.008379396,0.044947878,-0.14810492,-0.7086837,-0.038307227,-9.730036,0.8672237,47.67345,-1.0314653,-2.0589314,-3.3407931,-0.41542172,0.18092886,-0.20358747,28.0,29.125,28.25,32.1875,34.25,35.1875
0.21005367,-0.8086677,0.9425719,-0.50373524,0.007873071,0.09312806,-0.19228706,-0.39150253,-0.348205,0.06008855,3.075209,-0.6202708,-0.0002080452,-0.09894014,0.001996992,-0.0030815674,-0.051185627,-0.0011047502,0.021255195,0.46544585,-1.4115363,1.9411677,-2.101817,-1.5672139,2.4379516,-0.12136929,0.1464246,-0.15978694,-0.008305209,0.04627833,-0.14246093,-0.59376204,-0.038307227,-9.615114,0.8314132,47.70211,-0.90977335,-2.164114,-3.400208,-0.40719908,0.14593028,-0.2801145,28.0,29.125,28.25,32.1875,34.25,35.1875
0.21205348,-0.9160038,0.8802822,-0.25177374,-0.0021840634,0.09326982,-0.18913624,-0.39169884,-0.34820348,0.0600801,3.0751386,-0.62012154,-0.00015936885,-0.099872306,0.0014869239,-0.0025751174,-0.051926315,-0.00016313836,0.018676432,0.4652062,-1.4112358,1.9408435,-2.1018288,-1.5671171,2.4376278,-0.12137766,0.1474223,-0.16218331,-0.00806532,0.046516117,-0.13988744,-0.4405331,-0.076614454,-9.557653,0.8806493,47.691364,-1.1672406,-2.0754976,-3.306931,-0.42521265,0.11816047,-0.33831033,28.0,29.125,28.25,32.1875,34.25,35.1875
0.21405424,-0.7628191,0.57471025,-0.31720474,0.009593346,0.06718197,-0.1820638,-0.39190033,-0.34820646,0.06010003,3.0750477,-0.6200088,-0.00026179446,-0.101323165,0.0012956439,-0.0020167283,-0.05230544,0.0011572053,0.017067257,0.46500182,-1.4109951,1.9405316,-2.101877,-1.5670699,2.4373648,-0.12210573,0.1487405,-0.16505565,-0.007847441,0.046275917,-0.13899978,-0.2873042,0.019153614,-9.442732,0.8493211,47.690468,-1.0184603,-2.0899866,-3.3503938,-0.41383764,0.09840932,-0.37199426,28.0,29.125,28.25,32.1875,34.25,35.1875
0.21605343,0.5012409,1.2184603,-0.12773177,-0.002436127,0.06433729,-0.19922465,-0.39211097,-0.34818825,0.060072694,3.0749557,-0.62000984,-0.00016811008,-0.10176495,0.002311625,-0.003974685,-0.04960699,-0.0012468463,0.014463915,0.4647133,-1.4106572,1.9402097,-2.1019008,-1.5669621,2.4370887,-0.123352885,0.15268876,-0.1650758,-0.008388802,0.044943716,-0.13764474,-0.24899697,0.038307227,-9.423578,0.90527004,47.678825,-1.1251127,-2.2252026,-3.4100456,-0.40986577,0.09744772,-0.4173087,28.0,29.125,28.25,32.1875,34.25,35.1875
0.21805432,0.0841116,0.2577351,0.20282444,0.004995062,0.039910376,-0.18914922,-0.3923385,-0.34819704,0.06009572,3.0748224,-0.61992365,-0.00025051163,-0.10339197,0.0025071108,-0.0027630448,-0.050870914,0.0016724733,0.016250802,0.46447283,-1.4103817,1.9398507,-2.101949,-1.5668782,2.4368117,-0.124960616,0.15183909,-0.16674739,-0.009008007,0.04479477,-0.14103317,-0.17238252,0.11492168,-9.289502,0.85826975,47.731667,-1.0354749,-1.9672776,-3.5356197,-0.3851012,0.08414888,-0.3863575,28.0,29.125,28.25,32.1875,34.25,35.1875
0.22005334,0.13059682,0.17545794,0.12786141,-0.0006572597,0.02469299,-0.19448167,-0.39255825,-0.34817886,0.060089927,3.0747244,-0.6199191,-0.00020149976,-0.10416451,0.0033152793,-0.0027861265,-0.050070543,0.0021477495,0.02181606,0.4641843,-1.410069,1.9395031,-2.1019485,-1.5667824,2.436533,-0.12640807,0.15215452,-0.16711156,-0.008969079,0.043899663,-0.14804594,-0.095768064,0.095768064,-9.212888,0.8493211,47.691364,-1.0139841,-2.0542912,-3.4769907,-0.37655747,0.06697179,-0.41447294,28.0,29.125,28.25,32.1875,34.25,35.1875
0.22205414,-0.17210104,0.37107575,0.20012528,-0.008994561,0.0042847325,-0.19087565,-0.3927946,-0.3481851,0.06011981,3.0745964,-0.61973584,-0.00031362797,-0.10571643,0.0029159924,-0.0021051553,-0.05022582,0.0036897445,0.028362514,0.46393222,-1.4098043,1.9391435,-2.1020086,-1.5666989,2.436183,-0.12666824,0.15382232,-0.17075354,-0.008391208,0.043393664,-0.15484515,-0.095768064,0.24899697,-9.193734,0.88960326,47.688675,-1.086318,-1.9998167,-3.3819292,-0.3725714,0.07555933,-0.31508535,28.0,29.125,28.25,32.1875,34.25,35.1875
0.22405401,-0.061650313,0.095379554,0.45199445,-0.010838723,0.012686545,-0.19474934,-0.39300013,-0.34815598,0.06010082,3.0745778,-0.61966956,-0.0002543707,-0.10784126,0.002893947,-0.0011528358,-0.050746586,0.005792713,0.03650981,0.46366787,-1.4094795,1.9388064,-2.1019847,-1.5666507,2.4358797,-0.12814568,0.15515018,-0.17461139,-0.007916018,0.04294861,-0.16446954,-0.019153614,0.2681506,-9.040505,0.8314132,47.655537,-1.0562379,-1.9874349,-3.3091917,-0.36614358,0.06750996,-0.2183975,28.0,29.125,28.25,32.1875,34.25,35.1875
0.226054,0.057807405,-0.26161087,0.20376402,-0.0069627673,0.019538354,-0.1921758,-0.39319882,-0.34816515,0.06008884,3.074465,-0.61958635,-0.00014428202,-0.109163344,0.002615539,0.00029328672,-0.05112464,0.008674351,0.042477157,0.4634162,-1.4091551,1.9384593,-2.1019843,-1.5665072,2.4355905,-0.12815088,0.15459867,-0.17748077,-0.0071792686,0.042024687,-0.17044206,0.095768064,0.4405331,-9.11712,0.87393653,47.681515,-1.1796863,-1.8667834,-3.218844,-0.37975997,0.054540135,-0.10375294,28.0,29.125,28.25,32.1875,34.25,35.1875
0.22805376,0.00504028,-0.22350578,0.14275853,-0.018809386,0.022787925,-0.18788607,-0.39340073,-0.3481475,0.060082432,3.0744514,-0.619392,-0.0001275965,-0.10940215,0.0029823114,-0.00010847284,-0.04921693,0.00793506,0.042426962,0.46317592,-1.4088546,1.9381241,-2.1019719,-1.5664595,2.4352307,-0.12805553,0.1561336,-0.17865549,-0.006003066,0.040659074,-0.17029774,0.05746084,0.49799395,-9.155427,0.8873621,47.71017,-1.0863128,-1.8885746,-3.2643142,-0.3926635,0.065443546,-0.10070875,28.0,29.125,28.25,32.1875,34.25,35.1875
0.2300536,0.19991544,-0.7679913,0.25306475,-0.036742702,0.042366546,-0.18310674,-0.3936564,-0.3481449,0.060111806,3.0743673,-0.6192253,-0.0002697722,-0.111451276,0.0051458934,-0.0009496804,-0.047064357,0.0067027668,0.03338303,0.46292257,-1.4085529,1.9377168,-2.1020076,-1.5664243,2.4348843,-0.13270782,0.15891606,-0.1801877,-0.0051866057,0.039297886,-0.16590229,-0.05746084,0.53630114,-9.11712,0.81351066,47.711964,-1.1283036,-1.9981016,-3.2608008,-0.3975871,0.08597758,-0.10753761,28.0,29.125,28.25,32.1875,34.25,35.1875
0.2320538,0.104032904,-0.5777109,0.05278096,-0.063402735,0.045377012,-0.18876904,-0.39386815,-0.34811836,0.060081966,3.0743172,-0.61917937,-0.0001722908,-0.112163424,0.0048528356,-0.0007755569,-0.046237927,0.007501807,0.028971432,0.46263483,-1.4082048,1.9373826,-2.1020072,-1.5663399,2.4345744,-0.13202086,0.16037403,-0.18242449,-0.004746519,0.0381854,-0.16080546,0.05746084,0.5554548,-9.136273,0.9545008,47.705692,-1.101262,-1.7952713,-3.2686994,-0.40600678,0.10019837,-0.16868588,28.0,29.125,28.25,32.1875,34.25,35.1875
0.23405349,-0.10420153,-0.914751,-0.17199293,-0.065741315,0.037721027,-0.17810866,-0.39409718,-0.34811324,0.06008563,3.0742273,-0.6191071,-0.0001659529,-0.112890795,0.0057573617,-0.00043191074,-0.04548553,0.00838523,0.02144969,0.46237028,-1.4078802,1.9369992,-2.1020072,-1.5662564,2.4342763,-0.13347423,0.15978667,-0.18266113,-0.004376677,0.037113335,-0.15473726,0.0,0.5746084,-9.308657,0.79560274,47.68062,-1.086849,-1.8199189,-3.2890131,-0.42451215,0.097394764,-0.26615354,28.0,29.125,28.25,32.1875,34.25,35.1875
0.23605378,0.08824236,-0.88462365,-0.101786815,-0.06335372,0.036680184,-0.18117644,-0.39433205,-0.348109,0.060082033,3.0741498,-0.6189997,-0.0002102545,-0.11337957,0.006647105,-0.0011577503,-0.04422865,0.0073046996,0.015492993,0.46211752,-1.4075435,1.9366292,-2.1020548,-1.5661968,2.4339666,-0.13496749,0.16124323,-0.18278982,-0.0041758195,0.036473505,-0.1502721,-0.11492168,0.51714754,-9.346964,0.81351066,47.67166,-1.0014925,-1.7483478,-3.2855842,-0.42982352,0.13491541,-0.34284264,28.0,29.125,28.25,32.1875,34.25,35.1875
0.23805381,0.17517559,-0.6276766,-0.013298969,-0.047916893,0.033377722,-0.18719932,-0.39453363,-0.34809896,0.0600673,3.0740817,-0.6189097,-0.00010635684,-0.11503027,0.0068563595,-0.000507213,-0.044390168,0.00903705,0.011285315,0.46185336,-1.4072189,1.936282,-2.102031,-1.566089,2.433655,-0.13629527,0.16210961,-0.18533854,-0.0041012224,0.03583699,-0.14739248,-0.1340753,0.51714754,-9.308657,0.8314132,47.70211,-1.0800835,-1.8005972,-3.3943892,-0.43738866,0.14418542,-0.40114635,28.0,29.125,28.25,32.1875,34.25,35.1875
0.2400536,-0.32941198,0.08999141,-0.033724833,-0.035850313,0.030038645,-0.18091062,-0.39477137,-0.34808272,0.06007665,3.073992,-0.61889285,-0.00013751045,-0.116679214,0.0069130086,-0.00047465911,-0.04438061,0.01021246,0.008611758,0.4615771,-1.4069057,1.9358987,-2.1020315,-1.566029,2.43338,-0.13741185,0.16430841,-0.18783408,-0.004839081,0.035310116,-0.1458327,-0.076614454,0.38307226,-9.346964,0.8112748,47.72092,-1.1018987,-1.8085526,-3.3530273,-0.43016458,0.15191498,-0.46199962,28.0,29.125,28.25,32.1875,34.25,35.1875
0.24205358,-0.037141927,0.28948992,0.049279213,-0.016890248,0.047290083,-0.1863272,-0.39502883,-0.3480735,0.060075145,3.0738757,-0.61892545,-0.00017067276,-0.11862245,0.00636629,-0.0012369023,-0.045356236,0.009879959,0.01052484,0.4612884,-1.4065434,1.9354914,-2.1020682,-1.565957,2.4331267,-0.13871877,0.16915841,-0.19145751,-0.006170116,0.03635317,-0.14904504,-0.11492168,0.19153613,-9.270349,0.8179876,47.694946,-0.89725184,-2.0766203,-3.2218661,-0.4104497,0.17697649,-0.491278,28.0,29.125,28.25,32.1875,34.25,35.1875
0.24405348,-0.47545576,0.6689759,0.049330845,-0.0026057127,0.051273443,-0.18259846,-0.3952447,-0.34804994,0.06005035,3.0738468,-0.61878157,-0.00010088587,-0.1202601,0.007554814,-0.0017845321,-0.046440374,0.008713461,0.016863499,0.4610109,-1.406195,1.9351448,-2.1020682,-1.5658845,2.432763,-0.14312814,0.17096661,-0.19227019,-0.0065366374,0.03788877,-0.15978923,-0.19153613,0.1340753,-9.251195,0.88289046,47.668976,-1.0011604,-1.8949292,-3.376488,-0.40488285,0.17648225,-0.43545994,28.0,29.125,28.25,32.1875,34.25,35.1875
0.24605584,-0.26467416,1.2536905,0.1219975,0.0070074517,0.07533061,-0.18876134,-0.39547324,-0.34805626,0.06004737,3.0737734,-0.6185846,-8.085296e-05,-0.1194634,0.0069609024,-0.0017118215,-0.045657475,0.009302882,0.031812266,0.46076012,-1.4058465,1.9347509,-2.1020796,-1.5657886,2.4323988,-0.14071354,0.17055793,-0.19203745,-0.0064514,0.03699032,-0.17232408,-0.19153613,-0.038307227,-9.232041,0.81351066,47.688675,-0.98557645,-1.947837,-3.372611,-0.41407406,0.17217946,-0.32767794,28.0,29.125,28.25,32.1875,34.25,35.1875
0.24805342,-0.55373985,1.6589042,0.1822511,0.002301243,0.08515804,-0.19742261,-0.39574304,-0.3480572,0.06006571,3.0736356,-0.61849487,-0.00017675206,-0.12041204,0.0073578428,-0.002229537,-0.04384603,0.00922226,0.03969006,0.4604718,-1.4055095,1.9343327,-2.1021392,-1.5657052,2.4320724,-0.14115858,0.17309979,-0.19392666,-0.006154974,0.035465453,-0.1806448,-0.34476504,-0.019153614,-9.308656,0.8537928,47.72002,-0.98869383,-2.0404615,-3.4180908,-0.41199875,0.1998252,-0.23008332,28.0,29.125,28.25,32.1875,34.25,35.1875
0.2500539,-0.4736129,1.495415,0.062354133,0.016418375,0.09203681,-0.19473338,-0.39594352,-0.34804,0.06003022,3.073646,-0.61830384,-4.8153994e-05,-0.12094891,0.0070432886,-0.0024809367,-0.044520672,0.007933953,0.04267919,0.4602196,-1.4051363,1.9339732,-2.1021035,-1.5656327,2.4316995,-0.14174294,0.17511445,-0.1959533,-0.0052527036,0.03665182,-0.18421626,-0.34476507,-0.095768064,-9.32781,0.88289046,47.68599,-1.0562996,-2.025686,-3.390141,-0.42749566,0.21203223,-0.16457587,28.0,29.125,28.25,32.1875,34.25,35.1875
0.2520538,-1.0886761,1.3310233,0.19043337,0.02242952,0.0764226,-0.17706494,-0.39624247,-0.3480278,0.06006623,3.073492,-0.618255,-0.00016055796,-0.1217648,0.0073427046,-0.002924087,-0.044252414,0.0073168855,0.038749762,0.45988312,-1.4047992,1.9335064,-2.1021273,-1.5655493,2.4313526,-0.14289,0.17705224,-0.19725172,-0.005206699,0.036708485,-0.1814275,-0.53630114,-0.095768064,-9.32781,0.8224646,47.71017,-1.0903662,-2.117982,-3.369532,-0.41064665,0.21227255,-0.13223532,28.0,29.125,28.25,32.1875,34.25,35.1875
0.25405365,-0.56759226,1.4332095,0.09029218,0.004631323,0.08552462,-0.18078332,-0.39645633,-0.34800586,0.060038816,3.073467,-0.61817855,-8.6679676e-05,-0.12296033,0.0072962157,-0.0025468108,-0.04536325,0.00810399,0.030648116,0.45961884,-1.4044387,1.9331483,-2.1021154,-1.5654887,2.4310439,-0.14415152,0.17788172,-0.19907896,-0.0054240073,0.03732685,-0.17458533,-0.7469909,-0.11492168,-9.404425,0.91198283,47.67345,-1.0628333,-2.1447384,-3.4111276,-0.4232822,0.23885572,-0.21092142,28.0,29.125,28.25,32.1875,34.25,35.1875
0.2560535,-0.3394995,1.1954011,-0.08572535,0.003025071,0.08149704,-0.18881264,-0.39670223,-0.34798092,0.060034268,3.0734093,-0.61801565,-5.3126638e-05,-0.12467846,0.0070090354,-0.0011155726,-0.046716575,0.010863624,0.02427223,0.4593066,-1.4040906,1.9327525,-2.1021035,-1.5654048,2.4306374,-0.14502001,0.17767273,-0.20220761,-0.0051624537,0.037302434,-0.16907543,-0.59376204,-0.19153613,-9.481039,0.9925471,47.661808,-1.0421381,-2.1258702,-3.3918242,-0.42358413,0.23919488,-0.31506455,28.0,29.125,28.25,32.1875,34.25,35.1875
0.2580535,-1.1656982,0.70136595,-0.11332579,-0.0027340678,0.06280275,-0.17274623,-0.39695865,-0.34797513,0.06003142,3.0733457,-0.61788833,-0.00010897808,-0.12533195,0.0075109773,-0.0019451799,-0.045193184,0.009801942,0.021539709,0.45904204,-1.4037174,1.9323343,-2.1021388,-1.5653571,2.4303017,-0.1458003,0.18023093,-0.20341839,-0.004872205,0.036418594,-0.16712193,-0.6703764,-0.019153614,-9.385271,0.9186956,47.685097,-0.9619322,-2.21491,-3.4861188,-0.43780875,0.26639163,-0.3448798,28.0,29.125,28.25,32.1875,34.25,35.1875
0.2600534,-0.66189206,0.7379534,0.16751389,-0.009565356,0.092133544,-0.1798073,-0.397211,-0.34794354,0.06000867,3.073257,-0.6179097,-3.0913292e-05,-0.12625335,0.009026946,-0.002976164,-0.044680454,0.0076944022,0.019432459,0.4587051,-1.4033322,1.9319395,-2.1021388,-1.5652608,2.4299896,-0.14945665,0.18204582,-0.20328891,-0.004664885,0.03691052,-0.16866943,-0.8236054,0.13407528,-9.385271,0.8717007,47.695843,-1.0953455,-2.1304002,-3.4652352,-0.43817616,0.3081712,-0.36809963,28.0,29.125,28.25,32.1875,34.25,35.1875
0.26205328,-1.0247524,0.9083666,-0.2159193,-0.012827432,0.09655759,-0.18178049,-0.39744172,-0.3479182,0.059990603,3.0732148,-0.6177843,4.9607337e-05,-0.12601867,0.0078088325,-0.003100665,-0.045773447,0.0068845474,0.022583291,0.4584058,-1.4029714,1.9315566,-2.102115,-1.5651764,2.4296174,-0.14786495,0.18355983,-0.20490383,-0.0042924993,0.038260523,-0.1702243,-0.61291564,0.095768064,-9.385271,0.86945957,47.66271,-1.082105,-2.2160032,-3.4663181,-0.44698638,0.30797964,-0.37045285,28.0,29.125,28.25,32.1875,34.25,35.1875
0.2640541,-0.74559355,0.72028184,-0.074766,-0.028768506,0.1086809,-0.18791358,-0.39768243,-0.3479068,0.059972677,3.0731528,-0.61765116,5.908143e-05,-0.12660867,0.0073786085,-0.0025393623,-0.047870073,0.0071115447,0.030911257,0.45812967,-1.4025991,1.9311737,-2.1021512,-1.5651034,2.4292662,-0.14867727,0.18357313,-0.20633116,-0.003942211,0.040092137,-0.17935759,-0.4213795,0.19153613,-9.442732,0.8985519,47.661808,-1.14774,-2.1084588,-3.4720702,-0.45014724,0.31068614,-0.34040606,28.0,29.125,28.25,32.1875,34.25,35.1875
0.2660536,-0.93656766,0.37154147,-0.20262775,-0.030064642,0.09235726,-0.1834578,-0.3979622,-0.34788904,0.05997177,3.0730832,-0.6175361,2.6018026e-05,-0.12824087,0.0069319946,-0.0012432769,-0.04958519,0.009600528,0.040308557,0.45781714,-1.4022027,1.9307183,-2.1021626,-1.5650438,2.428891,-0.1495029,0.1836331,-0.20944414,-0.003801079,0.04058925,-0.18957542,-0.4213795,0.2681506,-9.461885,0.8717007,47.6636,-1.1383065,-2.158498,-3.4537625,-0.42693567,0.32278168,-0.23747385,28.0,29.125,28.25,32.1875,34.25,35.1875
0.26805353,-0.5242317,0.013799053,-0.5543058,-0.015271251,0.07770158,-0.16929708,-0.39820543,-0.34786072,0.059959643,3.0730424,-0.6174273,5.3775875e-05,-0.12906988,0.006161877,-0.0012208223,-0.05012457,0.010161529,0.046584032,0.4575178,-1.4018416,1.930324,-2.1021512,-1.5649837,2.428529,-0.14893064,0.18574487,-0.21193844,-0.004105133,0.04085708,-0.19527586,-0.38307226,0.30645782,-9.519346,0.87393653,47.692257,-1.2015507,-2.0969713,-3.3391964,-0.45580244,0.34628546,-0.1375188,28.0,29.125,28.25,32.1875,34.25,35.1875
0.27005357,0.035555147,0.0016650871,-0.676638,-0.02371433,0.062434092,-0.17591335,-0.39848754,-0.3478276,0.059951026,3.0729547,-0.61735404,3.34708e-05,-0.13062419,0.0058628134,-0.0011832291,-0.051338304,0.010471716,0.046354964,0.4571687,-1.401456,1.9299039,-2.1021864,-1.5649112,2.4281456,-0.15024157,0.18819393,-0.21485889,-0.0044167526,0.041831374,-0.19635059,-0.30645782,0.30645782,-9.557653,0.7911258,47.711063,-1.0976014,-2.1199718,-3.3919554,-0.44671512,0.34149182,-0.05974585,28.0,29.125,28.25,32.1875,34.25,35.1875
0.27205348,-0.06427428,-0.78710634,-0.6588831,-0.03695768,0.04895881,-0.17375053,-0.39877355,-0.34779906,0.059951775,3.0728905,-0.61724854,1.698702e-05,-0.1318421,0.0072374693,-0.0018592752,-0.051202696,0.00960143,0.036564354,0.45683205,-1.4010595,1.929439,-2.1021755,-1.5648507,2.4277515,-0.15373397,0.18956716,-0.21485952,-0.0049600387,0.042086225,-0.19004905,-0.2681506,0.3256114,-9.691729,0.88960326,47.717335,-1.1372814,-2.121,-3.4293108,-0.4362154,0.3487397,-0.12652317,28.0,29.125,28.25,32.1875,34.25,35.1875
0.27405334,-0.009739609,-1.0706812,-0.791441,-0.04452263,0.041452374,-0.16743916,-0.3990287,-0.34779376,0.059945956,3.072821,-0.61712307,1.140153e-05,-0.1328962,0.0065244786,-0.0008150727,-0.05334882,0.011208866,0.029146668,0.45655587,-1.4006749,1.9290079,-2.102187,-1.5647787,2.427406,-0.15403913,0.18951733,-0.21724077,-0.004938816,0.0432862,-0.18292947,-0.15322891,0.30645782,-9.576807,0.9612189,47.672558,-1.1244751,-2.1024346,-3.4317093,-0.45722753,0.38814256,-0.2232491,28.0,29.125,28.25,32.1875,34.25,35.1875
0.2760533,0.30327478,-0.49983507,-0.5910673,-0.057617534,0.03724646,-0.1791315,-0.39928824,-0.3477536,0.059911937,3.0727546,-0.6171152,9.138446e-05,-0.13437733,0.0068358877,-0.00028426803,-0.05449403,0.011627772,0.020697512,0.4562072,-1.4002664,1.9286131,-2.1021988,-1.5646943,2.427061,-0.15625772,0.19028033,-0.21955495,-0.004277892,0.044109426,-0.17669551,-0.076614454,0.34476504,-9.519346,0.85826975,47.66987,-0.98420393,-1.9905003,-3.3766549,-0.45355123,0.3890132,-0.30838913,28.0,29.125,28.25,32.1875,34.25,35.1875
0.27805418,0.7877837,-0.5705904,-0.5982701,-0.039528087,0.04005592,-0.17712767,-0.3995592,-0.3477523,0.059927132,3.0726116,-0.6170513,8.820382e-05,-0.13630927,0.007422907,-0.0008240041,-0.055819385,0.01038668,0.011655242,0.45589402,-1.3999046,1.9281582,-2.1021988,-1.5645736,2.4267266,-0.15992099,0.19340585,-0.22197467,-0.004456847,0.04584253,-0.17130555,-0.019153614,0.3256114,-9.595961,0.88960326,47.678825,-0.8881937,-2.2396908,-3.2771144,-0.4510992,0.39584386,-0.40021944,28.0,29.125,28.25,32.1875,34.25,35.1875
0.28005508,1.0315013,-0.15828124,-0.59382606,-0.028679762,0.022310384,-0.18473773,-0.3998607,-0.34774908,0.059926044,3.0725021,-0.6169724,2.428612e-05,-0.13694833,0.0070288037,-0.0014133353,-0.057265677,0.009678763,0.00973708,0.4555816,-1.3994715,1.927668,-2.102247,-1.5645007,2.4263792,-0.16067114,0.19557686,-0.2229594,-0.005630076,0.047470924,-0.1701268,0.11492168,0.34476504,-9.519346,0.87617236,47.67614,-0.8641453,-2.2113976,-3.3971968,-0.44549993,0.38942748,-0.49039096,28.0,29.125,28.25,32.1875,34.25,35.1875
0.28205407,1.1414382,-0.008121337,-0.38728043,-0.03601706,0.016975723,-0.19221137,-0.40014285,-0.34771594,0.059932236,3.0723968,-0.6169464,-1.1402472e-05,-0.13728337,0.0058595804,-0.0010328979,-0.060572445,0.009445351,0.015544923,0.4552338,-1.3991112,1.9272374,-2.102259,-1.5644277,2.426029,-0.16074823,0.19619298,-0.2245367,-0.0058589666,0.050593413,-0.17599706,0.1340753,0.45968673,-9.557653,0.9231726,47.64121,-0.9018905,-2.1264715,-3.4919872,-0.43346047,0.37356585,-0.49401563,28.0,29.125,28.25,32.1875,34.25,35.1875
0.2840541,0.9393496,-0.5614509,-0.44900087,-0.04297329,0.018579528,-0.18991543,-0.4004067,-0.34770897,0.059906278,3.0723119,-0.616767,8.57291e-05,-0.13758476,0.00507631,-0.0010984772,-0.062427834,0.008734891,0.029346988,0.4549101,-1.3986782,1.9267954,-2.1022708,-1.5642952,2.425604,-0.16080353,0.19757363,-0.22608818,-0.005744645,0.05265068,-0.18984638,0.19153613,0.34476504,-9.442732,0.90750587,47.678825,-1.018053,-2.197718,-3.553638,-0.44749898,0.33926907,-0.36453518,28.0,29.125,28.25,32.1875,34.25,35.1875
0.28605402,0.7970346,-0.92583555,-0.37312868,-0.055308092,0.018989198,-0.19152163,-0.40065312,-0.34769654,0.059890382,3.0722623,-0.6166354,0.00015029247,-0.13713437,0.0037989852,-0.0023523783,-0.063488126,0.00536813,0.042411037,0.4546223,-1.3982807,1.9263633,-2.102247,-1.5642103,2.4252405,-0.15963987,0.20138599,-0.22788873,-0.0050982786,0.055148683,-0.20173717,0.15322891,0.4213795,-9.404425,0.8247004,47.66987,-1.0287547,-2.1419363,-3.6376147,-0.4435956,0.32657635,-0.26169562,28.0,29.125,28.25,32.1875,34.25,35.1875
0.28805387,0.85897803,-0.8570475,-0.2172561,-0.06281299,0.008691605,-0.19306707,-0.40094537,-0.3476862,0.05990622,3.0721123,-0.61646926,0.0001530511,-0.13943422,0.0040060855,-0.0014498433,-0.06604738,0.006221071,0.04520247,0.45426103,-1.3979082,1.9258965,-2.1022584,-1.5640653,2.424795,-0.1630819,0.20249629,-0.23143014,-0.0044735842,0.05713154,-0.20795694,0.22984336,0.40222588,-9.404425,0.9186956,47.72092,-0.88263917,-2.1707635,-3.4935613,-0.44130862,0.2996363,-0.19055194,28.0,29.125,28.25,32.1875,34.25,35.1875
0.2900534,1.3175106,-0.33774117,-0.22935359,-0.058553934,0.002194705,-0.18964851,-0.40123188,-0.34768766,0.059900712,3.072004,-0.61627644,0.00013643318,-0.14078669,0.0032204525,-0.0004452056,-0.06970649,0.0068609477,0.041104127,0.45394853,-1.3974874,1.9254302,-2.1023066,-1.5639566,2.424376,-0.16463344,0.20292607,-0.23434666,-0.00415426,0.06015124,-0.20539305,0.11492168,0.4405331,-9.3661175,0.92093146,47.72719,-0.9074155,-2.2091897,-3.4445534,-0.44910067,0.2651514,-0.16230175,28.0,29.125,28.25,32.1875,34.25,35.1875
0.2920542,0.90564203,-0.6732317,-0.2355711,-0.024717635,-0.0063580703,-0.18283026,-0.40150568,-0.34768012,0.059901293,3.071882,-0.61621803,0.00017689545,-0.14229566,0.0030833422,-0.00042812308,-0.07168065,0.0068682795,0.03152023,0.45362392,-1.3970902,1.9249634,-2.1022942,-1.563836,2.4240308,-0.16665143,0.20488584,-0.23659375,-0.0047525503,0.06190138,-0.19781612,-0.019153614,0.40222588,-9.385271,0.8314132,47.67614,-0.7499352,-2.255134,-3.3660507,-0.43110907,0.21453838,-0.24490842,28.0,29.125,28.25,32.1875,34.25,35.1875
0.29405382,0.02145175,-0.0823484,-0.23326455,-0.030346453,-0.015831443,-0.1872476,-0.40175772,-0.3476749,0.059878204,3.0717826,-0.6160848,0.00032316547,-0.1429615,0.0029574758,-0.00040847738,-0.072434515,0.0070631197,0.026891446,0.45330006,-1.3966695,1.9245204,-2.1022708,-1.56368,2.4236364,-0.1672307,0.205831,-0.23774967,-0.005026678,0.06248186,-0.19376415,0.038307227,0.30645782,-9.385271,0.92093146,47.67345,-0.8617166,-2.2076797,-3.3017323,-0.42873707,0.2113981,-0.31221277,28.0,29.125,28.25,32.1875,34.25,35.1875
0.29605368,0.35148436,-0.32313514,-0.05084199,-0.032070108,0.022489864,-0.19021888,-0.4020634,-0.3476653,0.0598904,3.0716498,-0.61598057,0.00029345922,-0.14322153,0.0017775547,-0.00021797483,-0.07430431,0.0068285363,0.02542971,0.45295233,-1.3962606,1.9240187,-2.1022823,-1.5635709,2.423241,-0.16637012,0.20715638,-0.23982936,-0.0048599546,0.06428288,-0.19142789,0.019153614,0.30645782,-9.461885,0.8940802,47.707485,-0.8356737,-2.194912,-3.372832,-0.43742722,0.18216169,-0.34916106,28.0,29.125,28.25,32.1875,34.25,35.1875
0.29805434,0.12674911,-0.07147351,0.17137353,-0.047604043,0.05040366,-0.20010078,-0.40235433,-0.34768102,0.059900586,3.071492,-0.61581427,0.0002798558,-0.14486428,0.0009935846,0.00027365802,-0.07670032,0.0066518774,0.025385212,0.45263952,-1.3958515,1.9235271,-2.102318,-1.5634264,2.4228446,-0.16768503,0.2096243,-0.24410836,-0.0038892834,0.0665491,-0.1926804,-0.15322891,0.36391866,-9.346964,0.842603,47.741516,-0.8082859,-2.0647335,-3.2472644,-0.438814,0.11493645,-0.3885042,28.0,29.125,28.25,32.1875,34.25,35.1875
0.30005324,-0.5793076,0.23232697,0.086204626,-0.043888796,0.057783864,-0.19309728,-0.40265438,-0.347672,0.059906226,3.0713654,-0.6157065,0.00028677683,-0.14619416,0.0011450311,0.0022300135,-0.07594802,0.0108643975,0.033354744,0.45229194,-1.3954321,1.923025,-2.1023176,-1.5633072,2.4224463,-0.16738072,0.20776941,-0.24673298,-0.0027583162,0.064099014,-0.20034988,-0.21068975,0.3256114,-9.232041,0.8672237,47.690468,-1.0284826,-1.9719074,-3.3079813,-0.4528933,0.10329549,-0.35404342,28.0,29.125,28.25,32.1875,34.25,35.1875
0.3020539,-0.59836864,0.22383557,-0.33228302,-0.024988353,0.078524925,-0.20534311,-0.4029204,-0.34769094,0.059901536,3.0712156,-0.61559093,0.00036965637,-0.14746284,0.00085195585,0.003838115,-0.077038616,0.01391184,0.046039466,0.45199192,-1.3950115,1.9225453,-2.102317,-1.5631393,2.4220934,-0.16764371,0.20665063,-0.2492928,-0.002146013,0.06383977,-0.2132951,-0.22984336,0.30645782,-9.404425,0.92764956,47.661808,-1.0665383,-1.9611676,-3.2785597,-0.45943767,0.084682256,-0.22019249,28.0,29.125,28.25,32.1875,34.25,35.1875
0.3040539,-1.1136369,0.19722268,-0.03648592,-0.015276406,0.08552916,-0.19790787,-0.40319943,-0.34767807,0.059879147,3.071174,-0.6152903,0.00046895834,-0.14657177,0.0016630946,0.0021932803,-0.073978364,0.011512684,0.053925063,0.45165616,-1.3945547,1.9220575,-2.1022933,-1.5630201,2.421575,-0.16711375,0.20843925,-0.24781819,-0.001805717,0.062194377,-0.22065805,-0.24899697,0.24899697,-9.615114,0.88289046,47.661808,-1.0831244,-1.964023,-3.441586,-0.45565444,0.085351035,-0.12762256,28.0,29.125,28.25,32.1875,34.25,35.1875
0.30605385,-0.9316341,1.0637693,0.0042571584,-0.019028401,0.09728325,-0.2045418,-0.4034985,-0.34766483,0.05989306,3.0710194,-0.6152036,0.0004569252,-0.14716536,0.003127185,9.087422e-05,-0.069108,0.009131767,0.05093253,0.45129585,-1.3941687,1.9215783,-2.1023057,-1.5628895,2.4211807,-0.16792643,0.21309216,-0.24868989,-0.0012738281,0.058875784,-0.21848466,-0.40222588,0.17238252,-9.576807,0.9231726,47.652847,-1.111286,-1.9602687,-3.4785066,-0.47325462,0.091999345,-0.093879804,28.0,29.125,28.25,32.1875,34.25,35.1875
0.30805352,-2.0809731,0.8543603,-0.20810102,0.0016109913,0.07850798,-0.18305458,-0.40380955,-0.34766686,0.059909813,3.0708847,-0.6150277,0.00041917927,-0.14817259,0.0044662966,0.00015938675,-0.066902645,0.010548816,0.042687766,0.45095947,-1.3937482,1.9210519,-2.102317,-1.5627702,2.420752,-0.16931826,0.21310912,-0.24893555,-0.0013581391,0.05627216,-0.21163593,-0.5554548,0.038307227,-9.500193,0.9298854,47.709274,-1.1509145,-1.9809867,-3.564081,-0.4844221,0.101858795,-0.1305204,28.0,29.125,28.25,32.1875,34.25,35.1875
0.31005415,-1.7206268,1.0686874,0.061261777,0.002760472,0.09185971,-0.1947917,-0.4040826,-0.34765938,0.059872884,3.0708337,-0.6148503,0.000519706,-0.15059543,0.005483163,0.0008641384,-0.06561463,0.013946624,0.032367762,0.45064655,-1.3932674,1.9205741,-2.1023176,-1.562663,2.4203348,-0.17131722,0.21393289,-0.25140816,-0.0022234216,0.053589772,-0.20332506,-0.53630114,0.038307227,-9.557653,0.92764956,47.698532,-1.1119914,-1.988751,-3.646122,-0.48215485,0.13322805,-0.25337535,28.0,29.125,28.25,32.1875,34.25,35.1875
0.3120538,-0.9563712,1.6220311,0.12573734,0.0034893942,0.10061005,-0.19742535,-0.40442508,-0.3476364,0.059904426,3.0706763,-0.6147821,0.00038518244,-0.1517887,0.0055895583,7.336904e-05,-0.06327168,0.01495189,0.025722126,0.45026335,-1.3928702,1.9200467,-2.1023543,-1.56258,2.4199297,-0.1707351,0.21739854,-0.25344858,-0.0035459134,0.051042803,-0.19609812,-0.40222588,0.0,-9.519346,0.95226496,47.660015,-1.2840769,-2.0911536,-3.537524,-0.4739763,0.15311116,-0.33725548,28.0,29.125,28.25,32.1875,34.25,35.1875
0.31405345,-0.64491487,1.6024925,-0.23012485,0.021942891,0.07664339,-0.20358002,-0.4047297,-0.34761286,0.05989634,3.0705855,-0.61474675,0.00043250076,-0.15217249,0.005331807,-0.0008519201,-0.061439857,0.014771852,0.022182805,0.44990352,-1.3924125,1.9195217,-2.102318,-1.5624841,2.4195597,-0.16945311,0.22048852,-0.2549097,-0.0042125946,0.049459327,-0.1912812,-0.47884035,-0.05746084,-9.672575,0.8672237,47.647476,-1.3639508,-2.2303295,-3.5409336,-0.4577189,0.17945649,-0.444484,28.0,29.125,28.25,32.1875,34.25,35.1875
0.31605428,-0.9889671,1.1380143,-0.09453191,0.0059080906,0.056188807,-0.2040147,-0.4050147,-0.34760654,0.059889503,3.0705066,-0.61457413,0.00044555208,-0.15346296,0.005669434,-0.0004534788,-0.06043775,0.016253421,0.024697319,0.44959125,-1.3919797,1.919031,-2.102318,-1.5623893,2.4191499,-0.17003584,0.22153185,-0.25723192,-0.0037676673,0.04795066,-0.19438183,-0.4405331,0.019153614,-9.500193,0.93436235,47.666286,-1.3803844,-2.2264395,-3.5097442,-0.47295874,0.22729161,-0.50009483,28.0,29.125,28.25,32.1875,34.25,35.1875
0.31805488,-0.8352585,0.8135374,-0.25778154,-0.011086986,0.059593167,-0.21084227,-0.405323,-0.34760258,0.059879694,3.0703902,-0.61442775,0.00042820827,-0.15405524,0.0063810423,-0.0016294238,-0.058007184,0.014675687,0.035866886,0.4492553,-1.391522,1.9185289,-2.1023657,-1.562281,2.4187376,-0.17073369,0.22478957,-0.2586582,-0.002980251,0.046547983,-0.20625138,-0.28730422,0.095768064,-9.576807,0.87617236,47.72002,-1.4238949,-2.2362347,-3.4738522,-0.44458735,0.2602662,-0.4137272,28.0,29.125,28.25,32.1875,34.25,35.1875
0.320054,-0.5124266,0.43424526,-0.48123908,-0.021169683,0.056618337,-0.2114259,-0.4056504,-0.34759647,0.059915897,3.0702858,-0.61426467,0.0003013771,-0.15694287,0.0064240266,0.00019932065,-0.059221867,0.018417504,0.047642723,0.44893035,-1.3911132,1.9179653,-2.1023538,-1.5622214,2.4183247,-0.17282152,0.22532655,-0.26369005,-0.0022373188,0.046136186,-0.22010946,-0.095768064,0.24899697,-9.557653,0.8403672,47.69763,-1.2960851,-2.3234923,-3.4128184,-0.46482047,0.28322834,-0.29050043,28.0,29.125,28.25,32.1875,34.25,35.1875
0.3220536,-0.57204974,-0.38270986,-0.080673665,-0.04823992,0.045157403,-0.20080186,-0.4059733,-0.34757596,0.05990271,3.070211,-0.61407584,0.0002880518,-0.15994622,0.0072485143,0.0020639657,-0.06115226,0.021860192,0.0513459,0.44856885,-1.3906335,1.9174389,-2.1023772,-1.562137,2.417855,-0.17681453,0.22469476,-0.2673885,-0.0017465134,0.046454094,-0.22780043,-0.24899697,0.19153613,-9.595961,0.94331104,47.687782,-1.0726832,-2.1983314,-3.2845178,-0.46481618,0.2921814,-0.18093348,28.0,29.125,28.25,32.1875,34.25,35.1875
0.32405335,-1.0545511,-0.7774452,-0.26389182,-0.046538692,0.019087804,-0.18828867,-0.40628847,-0.34753844,0.059920736,3.0701184,-0.6139435,0.00025992264,-0.16089842,0.0072863232,0.0024599994,-0.062004413,0.022473952,0.047330603,0.44818494,-1.3902369,1.9169253,-2.1023414,-1.5620531,2.4174006,-0.17782824,0.22522588,-0.26902846,-0.0015511,0.046970204,-0.22479214,-0.59376204,0.2681506,-9.519346,0.90750587,47.65643,-1.1676881,-2.068276,-3.2953498,-0.46315628,0.3347475,-0.1820975,28.0,29.125,28.25,32.1875,34.25,35.1875
0.32605332,-0.61971766,-0.32977352,-0.6349763,-0.037616037,0.023019472,-0.20769091,-0.40663034,-0.34754872,0.059936173,3.069949,-0.61376125,0.00021264642,-0.16171466,0.0076837856,0.0023917921,-0.06325633,0.021592211,0.03641915,0.44782418,-1.3897682,1.9163498,-2.1023772,-1.5619086,2.416948,-0.17995872,0.22604744,-0.27000198,-0.0011797814,0.048471488,-0.2159967,-0.3256114,0.34476504,-9.730036,0.86945957,47.63225,-1.0818459,-2.0832891,-3.3185334,-0.48681217,0.34915528,-0.2659495,28.0,29.125,28.25,32.1875,34.25,35.1875
0.32805383,-1.0145746,-0.7214936,-0.39728186,-0.051006712,0.0382759,-0.19009392,-0.40691575,-0.34751308,0.05991467,3.0699153,-0.6136782,0.0002966602,-0.16071129,0.007896017,0.0012819626,-0.06460016,0.018269297,0.0322631,0.44747612,-1.3893117,1.9158496,-2.102317,-1.5618356,2.4165525,-0.18097953,0.22639327,-0.2679774,-0.0011409379,0.051117767,-0.21285008,-0.30645782,0.28730422,-9.749189,0.92764956,47.690468,-1.0862215,-1.9500598,-3.3800807,-0.47405097,0.3204205,-0.3483501,28.0,29.125,28.25,32.1875,34.25,35.1875
0.33005366,-0.87896556,-0.47805443,0.07496381,-0.06392643,0.050821565,-0.20527492,-0.40725225,-0.34750497,0.059938174,3.0697515,-0.61353195,0.0002127323,-0.16179118,0.0075150793,0.0015952927,-0.06706806,0.018375134,0.029647553,0.44710353,-1.3888906,1.9153112,-2.1023533,-1.561715,2.41611,-0.18242306,0.22741923,-0.26990196,-0.0013789084,0.053333886,-0.21165842,-0.21068975,0.30645782,-9.595961,0.9030289,47.707485,-1.037709,-1.8902993,-3.5791068,-0.49320832,0.33188254,-0.3999368,28.0,29.125,28.25,32.1875,34.25,35.1875
0.33205393,-0.47669208,0.033394642,-0.011391363,-0.046006124,0.049634084,-0.20853521,-0.40758353,-0.34749627,0.059941676,3.0696445,-0.61337346,0.00020643526,-0.163036,0.00861429,0.0019379884,-0.066590905,0.019856066,0.031627398,0.4467427,-1.3884106,1.9147376,-2.1023414,-1.5616072,2.4156642,-0.18455908,0.22716579,-0.27041927,-0.0016544744,0.052322954,-0.21577586,-0.21068975,0.30645782,-9.500193,1.005978,47.688675,-1.0145665,-1.8857507,-3.5627375,-0.47096115,0.35365546,-0.38942835,28.0,29.125,28.25,32.1875,34.25,35.1875
0.33405384,-0.6604532,0.4658843,0.12263915,-0.02012894,0.045193516,-0.21042992,-0.40792075,-0.34747392,0.059947174,3.0695038,-0.61322325,0.00016652647,-0.16539118,0.007996446,0.002841986,-0.06937174,0.02177408,0.04159916,0.44634587,-1.3879651,1.9142112,-2.1023777,-1.5614871,2.415192,-0.18638518,0.22910158,-0.27472082,-0.0020707028,0.054116607,-0.22755729,-0.17238252,0.15322891,-9.3661175,0.9030289,47.64658,-0.8570225,-1.7400279,-3.6229992,-0.47231126,0.35652956,-0.2798742,28.0,29.125,28.25,32.1875,34.25,35.1875
0.33605346,-0.52916825,1.2648205,0.13460949,0.008798908,0.031172765,-0.20265912,-0.40826118,-0.34747532,0.05995527,3.0694087,-0.6129487,7.9149875e-05,-0.16637474,0.007779028,0.0016621806,-0.07121324,0.019128844,0.050456118,0.44600943,-1.3874837,1.9136361,-2.1024134,-1.5614012,2.4146965,-0.18846914,0.23310055,-0.27676645,-0.0023034248,0.057035513,-0.23847511,-0.038307227,0.019153614,-9.308657,0.91198283,47.674347,-0.9624641,-1.76955,-3.4516687,-0.44627085,0.3301422,-0.13593449,28.0,29.125,28.25,32.1875,34.25,35.1875
0.33805543,-0.14688872,1.3553869,0.10309304,0.02664966,0.029266482,-0.20569482,-0.40860388,-0.3474533,0.059960492,3.0692716,-0.6128814,0.00011252136,-0.16740772,0.006503076,0.0011781345,-0.0731824,0.018519921,0.051984355,0.44560155,-1.3870019,1.9130505,-2.1023777,-1.5612687,2.4142644,-0.18821052,0.2368826,-0.2800197,-0.0030725463,0.059110325,-0.2397281,-0.038307227,0.076614454,-9.385271,0.8851263,47.70211,-0.9196441,-1.9391739,-3.4476466,-0.44312775,0.33233088,-0.078511566,28.0,29.125,28.25,32.1875,34.25,35.1875
0.34005392,-0.7347503,0.8560576,0.087343745,0.025109844,0.017307185,-0.18719259,-0.40895256,-0.34743008,0.059961285,3.069165,-0.6126722,2.1440354e-05,-0.16873726,0.006141617,0.001632138,-0.0727028,0.02056909,0.044921678,0.44521776,-1.3865324,1.9125112,-2.1024377,-1.5611852,2.413764,-0.18766275,0.23846532,-0.28293812,-0.0034047142,0.057783343,-0.23211613,-0.24899697,0.11492168,-9.346964,0.90750587,47.67345,-0.900697,-2.1495178,-3.3539782,-0.4357565,0.3308765,-0.099834114,28.0,29.125,28.25,32.1875,34.25,35.1875
0.34205413,-0.77284634,0.60508037,-0.120358065,0.002277515,0.0154303415,-0.19871095,-0.40927342,-0.34742218,0.05997522,3.0690353,-0.6124789,4.901294e-05,-0.16920951,0.004988976,0.0018334694,-0.074121065,0.020225998,0.035800114,0.44484606,-1.3860875,1.911949,-2.1024015,-1.5610408,2.4132884,-0.18673086,0.24030836,-0.28579617,-0.002737793,0.059171464,-0.22204861,-0.22984336,0.19153613,-9.251195,0.8851263,47.67614,-0.98388183,-2.0049982,-3.355964,-0.41926926,0.3296499,-0.2316613,28.0,29.125,28.25,32.1875,34.25,35.1875
0.3440539,-0.5817757,-0.16581391,0.047247566,-0.03602536,0.04833346,-0.19008027,-0.40960917,-0.3474239,0.05997864,3.0688863,-0.6123943,5.0713457e-05,-0.16896188,0.0039442475,0.0019422775,-0.07582742,0.019036638,0.027848294,0.44448647,-1.385595,1.9113625,-2.102401,-1.5609082,2.4128954,-0.18578012,0.24113438,-0.28733492,-0.001729159,0.061196204,-0.21312812,-0.40222588,0.38307226,-9.251195,0.9164598,47.640312,-1.1773411,-1.9317105,-3.3697343,-0.4226726,0.33085394,-0.3417877,28.0,29.125,28.25,32.1875,34.25,35.1875
0.3460534,-0.861619,-0.7746207,-0.38047674,-0.054364774,0.0507036,-0.19156502,-0.40996754,-0.3474009,0.060001805,3.0687857,-0.6122403,-3.33105e-05,-0.1692362,0.0031068197,0.002679148,-0.078168415,0.019032689,0.022788068,0.44410273,-1.3851266,1.9107536,-2.1023767,-1.5608352,2.4124289,-0.18567242,0.24101053,-0.28915325,-0.00080927025,0.06331547,-0.20794006,-0.24899697,0.38307226,-9.346964,0.9455522,47.637623,-1.3468404,-1.9553919,-3.2918367,-0.4330089,0.3269329,-0.4789768,28.0,29.125,28.25,32.1875,34.25,35.1875
0.34805328,-0.6588371,-1.3450998,-0.37005597,-0.06459835,0.045987986,-0.20147555,-0.41030768,-0.34739515,0.05999605,3.0686567,-0.61215216,-5.529647e-05,-0.1695372,0.0030415189,0.0023548424,-0.079078175,0.017198928,0.02706155,0.44374245,-1.3846214,1.9101781,-2.1024,-1.560727,2.4120305,-0.18666501,0.24256486,-0.29064065,0.00048085136,0.06500115,-0.21319038,-0.038307227,0.4405331,-9.519346,0.9321212,47.684196,-1.3205904,-1.9189925,-3.4025645,-0.4423707,0.28950402,-0.4930891,28.0,29.125,28.25,32.1875,34.25,35.1875
0.35005397,-0.6553928,-1.1695921,-0.1945667,-0.0709046,0.019042699,-0.19182618,-0.41062638,-0.34738228,0.059991267,3.0685136,-0.6119819,-1.4177197e-05,-0.16951247,0.003542521,0.0011034068,-0.08036322,0.014043566,0.039093222,0.4433577,-1.3841643,1.9096545,-2.1024125,-1.5605701,2.411558,-0.18897755,0.24438424,-0.2900396,0.00055321783,0.06766108,-0.22751503,-0.076614454,0.6703765,-9.481039,0.9097417,47.691364,-1.2420902,-1.8594902,-3.4374218,-0.43740565,0.2695007,-0.37419575,28.0,29.125,28.25,32.1875,34.25,35.1875
0.35205364,0.22419004,-1.0519038,-0.37779224,-0.061084416,0.0086744735,-0.19995585,-0.4109911,-0.34736463,0.060016185,3.0683687,-0.6118119,-7.136961e-05,-0.17012852,0.0032907862,0.00095411163,-0.082755096,0.013272128,0.04932469,0.44294924,-1.3836954,1.9090437,-2.1024005,-1.560449,2.4110622,-0.19047305,0.2455089,-0.29103515,0.00026137987,0.070288695,-0.23921789,-0.019153614,0.6703765,-9.461885,0.93436235,47.650166,-1.1786951,-1.938801,-3.5197253,-0.420619,0.24014932,-0.23737012,28.0,29.125,28.25,32.1875,34.25,35.1875
0.3540535,0.34722176,-0.723468,-0.34066287,-0.061950255,-0.007640714,-0.19479293,-0.41135514,-0.34739378,0.060027197,3.068193,-0.6116218,-0.00010502992,-0.17070429,0.0033359972,9.470479e-05,-0.084535174,0.011123773,0.050215434,0.44260055,-1.3831543,1.9083875,-2.1024244,-1.5602921,2.4106178,-0.19243695,0.24781984,-0.2918501,2.621034e-05,0.07288685,-0.24204665,0.076614454,0.61291564,-9.5385,0.90750587,47.63046,-1.1722245,-1.9200612,-3.527691,-0.42716745,0.19233127,-0.17531009,28.0,29.125,28.25,32.1875,34.25,35.1875
0.35605335,0.42794457,-1.1708281,-0.13551046,-0.051479552,-0.013595522,-0.18073148,-0.41168267,-0.3473953,0.060038917,3.0680516,-0.6113874,-5.776291e-05,-0.17347756,0.003377172,0.0017338549,-0.087825246,0.013800465,0.03955287,0.44222754,-1.3826853,1.907801,-2.1023886,-1.5601238,2.4101167,-0.19571662,0.24799559,-0.29584578,1.7113479e-06,0.07468451,-0.23464471,0.038307227,0.4213795,-9.2703495,0.9365982,47.61882,-1.1144755,-1.9839506,-3.6190577,-0.41748583,0.15396039,-0.24004713,28.0,29.125,28.25,32.1875,34.25,35.1875
0.35805413,0.5623256,-0.3514685,-0.048144802,-0.040386084,-0.014938401,-0.1989911,-0.41202375,-0.34738111,0.06003,3.0678995,-0.6112642,-4.8822716e-05,-0.17542338,0.0027924748,0.0032204776,-0.08986431,0.016707467,0.031770237,0.44183135,-1.382193,1.9072498,-2.1024244,-1.5599793,2.4096634,-0.19645661,0.24826525,-0.29962814,1.1173879e-07,0.0752619,-0.22758983,0.0,0.3256114,-9.308656,0.9567419,47.686886,-1.1294167,-1.8190554,-3.365545,-0.4128096,0.14958261,-0.33951622,28.0,29.125,28.25,32.1875,34.25,35.1875
0.36005405,0.2154188,0.12154701,0.1759845,-0.028148996,0.0019406986,-0.1927946,-0.41238385,-0.34740362,0.060047977,3.067731,-0.61107725,-9.864025e-05,-0.17639719,0.0018456379,0.0030567113,-0.092356354,0.015751798,0.026594182,0.44148305,-1.3816762,1.9066032,-2.1024368,-1.5598344,2.4092205,-0.19706663,0.250972,-0.30253625,7.295745e-09,0.077930495,-0.22299409,0.0,0.34476504,-9.193734,1.061927,47.66987,-1.0157464,-1.7275957,-3.3744926,-0.39237693,0.080921516,-0.40310523,28.0,29.125,28.25,32.1875,34.25,35.1875
0.36205378,0.023098726,0.53744125,0.2747933,-0.015119574,0.025645066,-0.20500004,-0.4127229,-0.34736988,0.060030635,3.0675712,-0.6110241,4.2828146e-05,-0.17775482,0.0026269746,0.0038440982,-0.09144106,0.018347275,0.029389827,0.4410268,-1.3811717,1.9060401,-2.1024005,-1.5596436,2.4087517,-0.19814295,0.25055662,-0.3039496,4.7636e-10,0.07605271,-0.22687764,-0.019153614,0.2681506,-9.193734,0.9701675,47.70659,-1.0241458,-1.5584418,-3.2644622,-0.3980946,0.045836702,-0.4453385,28.0,29.125,28.25,32.1875,34.25,35.1875
0.36405346,-0.6133101,0.5989402,0.0056433706,-0.0012646203,0.04792668,-0.2016954,-0.41309455,-0.34737325,0.060051434,3.0673838,-0.6109022,7.533467e-06,-0.17945464,0.0040055225,0.0022702992,-0.088336654,0.017185038,0.03787638,0.44063032,-1.3806651,1.9053959,-2.1024005,-1.5594882,2.4083037,-0.20034762,0.25537714,-0.30620152,3.11029e-11,0.0738775,-0.23757371,-0.038307227,0.22984336,-9.232041,0.9254084,47.64121,-0.9829239,-1.8194714,-3.3355095,-0.37557954,0.06569603,-0.36696485,28.0,29.125,28.25,32.1875,34.25,35.1875
0.36605415,-1.628774,0.45183542,0.28059125,-0.0015823287,0.06458902,-0.17860572,-0.41341016,-0.3473865,0.060013805,3.0672748,-0.610606,0.00012720125,-0.18002605,0.004808928,0.0008056614,-0.086694874,0.015330653,0.04922863,0.440282,-1.3801112,1.9048337,-2.1024244,-1.5593079,2.4077842,-0.20165698,0.25865585,-0.306888,2.0307972e-12,0.07331263,-0.25023824,-0.30645782,0.22984336,-9.212888,0.9254084,47.63315,-0.92129487,-1.9451112,-3.393857,-0.371904,0.05199826,-0.22115442,28.0,29.125,28.25,32.1875,34.25,35.1875
0.36805373,-0.9271608,0.9209161,0.4755677,-0.011007123,0.12469925,-0.20096165,-0.41379166,-0.34735328,0.060037475,3.0671384,-0.6104791,9.59874e-05,-0.18062045,0.006121317,0.000115281124,-0.080921754,0.016153714,0.053655326,0.43983808,-1.3796185,1.9041876,-2.1023762,-1.5591897,2.407279,-0.20076422,0.2607741,-0.30822724,0.0010574874,0.06781676,-0.2538035,-0.4405331,0.15322891,-9.155427,0.91198283,47.698532,-1.0516696,-1.9647248,-3.397686,-0.36583012,0.053306922,-0.12340034,28.0,29.125,28.25,32.1875,34.25,35.1875
0.37005356,-1.9134936,1.5133053,0.29813245,0.018672414,0.10822953,-0.1979635,-0.41416413,-0.34735918,0.060045104,3.066976,-0.610276,4.4396045e-05,-0.18085289,0.0057498543,-0.00036314948,-0.0782463,0.016195469,0.04972746,0.43945467,-1.3790891,1.9035538,-2.102412,-1.5590471,2.40679,-0.19857268,0.2634383,-0.31062555,0.0018916433,0.06537614,-0.24769117,-0.49799395,0.15322891,-9.270349,0.9388393,47.70211,-1.151951,-1.992264,-3.5110998,-0.37652713,0.10706767,-0.18688834,28.0,29.125,28.25,32.1875,34.25,35.1875
0.37205347,-1.8379406,1.360143,0.28078097,0.032713443,0.11283495,-0.18200794,-0.41454238,-0.34734973,0.06005174,3.066844,-0.6100798,2.7003152e-05,-0.18112415,0.0060485234,-0.0007559964,-0.07554416,0.016896928,0.040756352,0.43904755,-1.3785478,1.9028968,-2.1024,-1.558916,2.4062777,-0.19734988,0.26480642,-0.31149247,0.0018530175,0.062586665,-0.23751003,-0.8619126,0.076614454,-9.155427,0.94331104,47.67614,-1.3830647,-1.9765095,-3.507767,-0.37763932,0.14430137,-0.30719554,28.0,29.125,28.25,32.1875,34.25,35.1875
0.3740534,-1.264914,1.2463956,0.54967654,0.023402723,0.123299174,-0.1953167,-0.41489354,-0.34732312,0.06004469,3.0667477,-0.6100079,9.678408e-06,-0.18256639,0.0074096327,-0.00010191994,-0.07369456,0.019736327,0.030074121,0.43866318,-1.3780315,1.9022998,-2.1023881,-1.558833,2.4058611,-0.19884866,0.26406154,-0.3121308,0.0013965241,0.05965784,-0.22834328,-0.78529817,0.11492168,-9.078813,0.947788,47.664497,-1.4269888,-1.9683836,-3.482329,-0.33349672,0.16752319,-0.4132932,28.0,29.125,28.25,32.1875,34.25,35.1875
0.37605417,-1.2271934,1.2960321,0.27932093,0.009172123,0.098976836,-0.2014468,-0.4152484,-0.34732226,0.06002619,3.0666249,-0.6098686,3.513241e-05,-0.18472745,0.007252773,0.00095386454,-0.07207638,0.02391791,0.02758814,0.43829113,-1.3774669,1.901677,-2.1024,-1.5587023,2.4054182,-0.19811319,0.26555645,-0.31637248,0.0010689248,0.056413688,-0.2251402,-0.40222588,0.11492168,-9.11712,0.9567419,47.647476,-1.4324028,-1.8715272,-3.4958248,-0.33113936,0.19307008,-0.5394539,28.0,29.125,28.25,32.1875,34.25,35.1875
