Tylouw/Master_Thesis_Code/training_data/batch_1/small_rod_t0.2/sample_11_session_1.csv
timestamp[s],tcp_force_x[N],tcp_force_y[N],tcp_force_z[N],tcp_force_rx[Nm?],tcp_force_ry[Nm?],tcp_force_rz[Nm?],tcp_pose_x[m],tcp_pose_y[m],tcp_pose_z[m],tcp_pose_rx[rot_vec_x],tcp_pose_ry[rot_vec_y],tcp_pose_rz[rot_vec_z],tcp_velo_x[m/s],tcp_velo_y[m/s],tcp_velo_z[m/s],tcp_velo_rx[rot_vec_x/s],tcp_velo_ry[rot_vec_y/s],tcp_velo_rz[rot_vec_z/s],q1[rad],q2[rad],q3[rad],q4[rad],q5[rad],q6[rad],qd1[rad/s],qd2[rad/s],qd3[rad/s],qd4[rad/s],qd5[rad/s],qd6[rad/s],tool_acc_x,tool_acc_y,tool_acc_z,current_of_whole_robot[A],voltage_of_whole_robot[V],current_J1[A],current_J2[A],current_J3[A],current_J4[A],current_J5[A],current_J6[A],temp_J1[C],temp_J2[C],temp_J3[C],temp_J4[C],temp_J5[C],temp_J6[C]
5.5797864e-07,-0.66897106,-1.2333379,0.08780244,-0.030426716,0.021899035,-0.008424668,-0.38105488,-0.3485435,0.05996844,-3.078556,0.6247505,-0.0001875813,0.0025151938,0.0012455817,-0.0022676995,0.002615638,-0.005410037,0.0001303936,0.47782207,-1.425922,1.9577035,-2.1008327,-1.5707458,2.452692,0.0,0.00027265222,0.0046169665,0.0011166262,0.00017757252,-0.00013321829,0.038307227,0.15322891,-8.772355,0.7486078,47.707485,0.065309465,-2.751953,-2.5216916,-0.4688089,0.079833984,0.07902586,27.6875,28.8125,28.0,31.875,33.9375,34.75
0.002052944,-0.8372426,-0.8458538,0.21544118,-0.033153806,0.01895941,-0.008587325,-0.38105616,-0.34853324,0.05996296,-3.0785158,0.62487674,-0.00018732458,-0.00082482636,-0.00049308036,-0.0026432485,-0.0018388411,0.003140302,0.00013095721,0.47781014,-1.425921,1.9577159,-2.100837,-1.5707573,2.452764,0.0,0.0033899543,0.004887749,-0.011912535,0.00017191823,-0.0001307983,0.095768064,0.17238252,-8.772355,0.7105615,47.698532,0.030971268,-2.6869326,-2.5130546,-0.36823767,0.09189348,0.093094066,27.6875,28.8125,28.0,31.875,33.9375,34.75
0.004051694,-1.0433116,-1.0169771,0.07894132,-0.026438177,0.010604404,-0.0025630076,-0.3810693,-0.34853122,0.059960518,-3.0785196,0.62483925,-0.00013379927,-0.0016601349,-0.00092662976,-0.0025860851,-0.0026688548,0.0047412296,0.000129563,0.47781014,-1.4259084,1.9577154,-2.1008732,-1.5707816,2.4527402,0.0,0.004327648,0.0041428544,-0.013908625,0.00016661349,-0.00012846447,0.1340753,0.17238252,-8.7532015,0.7486078,47.685097,0.09072323,-3.2153523,-2.750896,-0.30213583,0.08942825,0.092086695,27.6875,28.8125,28.0,31.875,33.9375,34.75
0.006051669,-0.2236712,-0.19382976,0.04338804,-0.022014352,0.0057837702,-0.0040655974,-0.38105586,-0.34852856,0.059951797,-3.078525,0.6248977,-0.00013046015,-0.0010405062,-0.0006013498,-0.0012160249,-0.002042982,0.0035632292,0.00012659492,0.47781014,-1.4259332,1.957774,-2.1009195,-1.5707697,2.452776,0.0,0.0018068773,0.0026733542,-0.008584456,0.00016162648,-0.00012621246,0.05746084,0.17238252,-8.791509,0.78217715,47.72629,0.117521405,-3.1009827,-2.5931885,-0.30888173,0.0834286,0.09006691,27.6875,28.8125,28.0,31.875,33.9375,34.75
0.008051699,0.18420573,0.039864577,-0.28720304,0.022774203,-0.013925027,-0.011175274,-0.38108546,-0.34855318,0.059968825,-3.0785673,0.624753,-7.626601e-05,-0.00044783374,-0.0002904295,-0.0003502982,-0.0013917988,0.0023319267,0.00012378582,0.47783422,-1.425886,1.9576782,-2.1009057,-1.5707816,2.4527044,0.0,3.6660473e-05,0.0017919614,-0.004539986,0.00015692863,-0.00012403821,0.0,0.19153613,-8.887277,0.73069996,47.694946,0.093367875,-2.8484406,-2.558107,-0.36416754,0.07166959,0.09567183,27.6875,28.8125,28.0,31.875,33.9375,34.75
0.010052588,-0.13475822,0.03909559,-0.8378497,0.017047787,-0.021106783,-0.010619717,-0.381051,-0.3485149,0.059932727,-3.0784748,0.62483037,-0.00022240578,-7.61941e-05,-9.526934e-05,-0.00034700916,-0.00068364164,0.0009821136,0.00012148226,0.4777981,-1.425886,1.9577497,-2.1008575,-1.5707816,2.4527283,0.0,4.91847e-07,0.0013756654,-0.0025632198,0.00015249717,-0.000121937584,0.095768064,0.17238252,-9.040505,0.7083204,47.716442,-0.23618257,-2.337192,-3.2271588,-0.3781817,0.08070608,0.040418383,27.6875,28.8125,28.0,31.875,33.9375,34.75
0.012051644,-0.5590568,-0.7183121,-1.0568241,-0.015876388,-0.002385417,-0.0050026937,-0.38104314,-0.34850886,0.059915494,-3.0784416,0.6247852,-0.00024349512,-0.0014713357,-0.0007953378,-0.0012653988,0.00058545446,-0.0014749952,5.400137e-05,0.47781014,-1.4258604,1.9577597,-2.1008565,-1.5708054,2.4527164,-4.9694547e-05,0.006197066,-0.004039085,-0.00057953835,0.0001483084,-0.000100824545,0.15322891,0.019153614,-9.2703495,0.73069996,47.690468,-0.38722533,-2.0642133,-3.2881951,-0.3843547,0.067292586,0.0042493315,27.6875,28.8125,28.0,31.875,33.9375,34.75
0.014052617,-0.82217157,-1.4144063,-1.0678091,-0.05769911,0.02824484,-0.009088711,-0.38103673,-0.34848216,0.059886582,-3.0783641,0.6249059,-0.00037418396,-0.0049675787,3.2097607e-05,-0.0038876922,0.0028506636,-0.005820222,-0.004625281,0.4777608,-1.4258204,1.9577693,-2.1008089,-1.5707935,2.452752,-0.004748501,0.017013155,-0.010496582,-3.7839716e-05,0.000121900186,-0.00011543724,-0.05746084,0.19153613,-9.404425,0.73069996,47.691364,-0.4866636,-2.910033,-3.0422618,-0.3642887,0.07760212,-0.015120494,27.6875,28.8125,28.0,31.875,33.9375,34.75
0.016051695,-1.679482,-2.2461915,-1.3562344,-0.07962637,0.04816453,-0.010075863,-0.38102466,-0.34851038,0.059879128,-3.0783968,0.62479895,-0.0004130586,-0.006114482,0.0021335601,-0.0035133243,0.0030329393,-0.0061547733,-0.006724951,0.47780666,-1.425785,1.9577459,-2.1008084,-1.5707697,2.452727,-0.009542208,0.015456526,-0.009878552,0.0012812184,0.0001172601,-0.0028102924,-0.24899697,0.24899697,-9.576807,0.7777002,47.689575,-0.04193472,-2.6438632,-3.2974486,-0.36592406,0.069649205,-0.029392712,27.6875,28.8125,28.0,31.875,33.9375,34.75
0.01805197,-2.2139316,-2.4346228,-1.4682488,-0.0983043,0.07181546,-0.014674348,-0.38105163,-0.34849095,0.059865396,-3.078367,0.6248661,-0.00044424224,-0.0055553634,0.0019976571,-0.0031735604,0.0037335597,-0.0074989647,-0.00045022767,0.4777471,-1.4257371,1.9577225,-2.1008074,-1.5707697,2.4527133,-0.008780424,0.015174777,-0.0109977815,0.004197101,0.00011418855,-0.008323293,-0.19153613,0.38307226,-9.672575,0.7777002,47.72719,-0.15622929,-2.4564316,-3.4762316,-0.41666985,0.06557935,-0.013840017,27.6875,28.8125,28.0,31.875,33.9375,34.75
0.020052062,-2.3321826,-2.325527,-1.5655308,-0.08832118,0.09179027,-0.019407218,-0.38101792,-0.34850037,0.059849724,-3.0783625,0.6248056,-0.00056665426,-0.0060591893,0.0010998155,-0.0030857066,0.0035629245,-0.007178211,0.0035860315,0.4777715,-1.4257244,1.957733,-2.1007597,-1.5707334,2.4527004,-0.007651237,0.01706559,-0.013383454,0.0043285787,0.00011135671,-0.011228889,-0.45968673,0.4405331,-9.902418,0.8112748,47.711063,-0.45526868,-2.2937188,-3.513861,-0.42633408,0.056758054,0.0073540714,27.6875,28.8125,28.0,31.875,33.9375,34.75
0.02205203,-3.235079,-2.3597791,-1.5623672,-0.061981272,0.078830905,-0.019230248,-0.38106045,-0.3485089,0.059872605,-3.0783997,0.62485194,-0.0004782339,-0.007916069,0.00060238934,-0.0023240384,0.0024223838,-0.0049869353,0.0029779235,0.47774723,-1.425712,1.957672,-2.1007836,-1.5707334,2.4527004,-0.008484989,0.018511867,-0.016618611,0.003647112,0.00010866709,-0.011452519,-0.6512228,0.47884035,-9.864111,0.7038487,47.694946,-0.55581325,-2.4129019,-3.3716285,-0.40522718,0.040403098,0.004508211,27.6875,28.8125,28.0,31.875,33.9375,34.75
0.024051743,-2.1881685,-1.7013776,-1.6680423,-0.061875947,0.0953153,-0.04953448,-0.38109046,-0.34852153,0.05987611,-3.0784347,0.6248029,-0.00046037175,-0.00950358,0.0014081593,-0.0026886056,0.002337284,-0.004826161,0.00015573425,0.47773415,-1.4256635,1.9576114,-2.100796,-1.5707215,2.4526522,-0.011385712,0.020298125,-0.017597482,0.0026579595,0.00010610469,-0.01153007,-0.5554548,0.47884035,-9.825804,0.72622824,47.709274,-0.46495426,-2.4487505,-3.5277143,-0.38092238,0.05481337,-0.0076818876,27.6875,28.8125,28.0,31.875,33.9375,34.75
0.026051953,-2.3133857,-1.7754929,-1.5228688,-0.068915784,0.07763904,-0.062109593,-0.38110644,-0.34849632,0.059857573,-3.0783486,0.6248628,-0.00051200564,-0.01096302,0.0013457775,-0.0022922342,0.001709837,-0.003623427,-0.00096589833,0.4776977,-1.4256033,1.9575742,-2.1007478,-1.5707573,2.4526641,-0.012624814,0.021534245,-0.01983191,0.0022992904,0.00010366028,-0.011646148,-0.59376204,0.36391866,-9.883265,0.74413085,47.70032,-0.46103853,-2.3573575,-3.4836454,-0.36992294,0.04533892,-0.019200088,27.6875,28.8125,28.0,31.875,33.9375,34.75
0.028052172,-2.3831866,-1.9656274,-1.5529674,-0.065812185,0.068049245,-0.05929402,-0.38114297,-0.34846812,0.05984505,-3.078306,0.6248934,-0.0004913303,-0.012204782,0.00139765,-0.001746361,0.0010833467,-0.0023795748,-0.0020321046,0.4776373,-1.4255551,1.9575509,-2.1007602,-1.5707935,2.4526284,-0.013852553,0.022022089,-0.021614367,0.0022008969,8.372328e-05,-0.011806646,-0.7852981,0.28730422,-9.864111,0.7418897,47.723602,-0.5504174,-2.3205764,-3.4387407,-0.36494896,0.03604644,-0.0633577,27.6875,28.8125,28.0,31.875,33.9375,34.75
0.03005217,-2.1225057,-1.6230247,-1.5181032,-0.050442047,0.07357084,-0.07756066,-0.38115916,-0.34850273,0.059849713,-3.0783799,0.6248117,-0.00056232786,-0.013714815,0.001130954,-0.00076542667,0.00032648657,-0.0009209753,-0.0011461746,0.47763696,-1.4254949,1.957466,-2.100736,-1.5707215,2.4525676,-0.014773407,0.022734495,-0.02487626,0.0031077522,7.9449506e-05,-0.013611846,-0.63206923,0.15322891,-9.691729,0.7463667,47.705692,-0.54813343,-2.3237538,-3.5035026,-0.36771566,0.021822296,-0.07056636,27.6875,28.8125,28.0,31.875,33.9375,34.75
0.032052234,-2.0134234,-0.70429236,-1.4646895,-0.03696774,0.073762916,-0.08653499,-0.3811852,-0.34850925,0.059839074,-3.0783834,0.6248317,-0.0005485101,-0.014523136,0.0017109327,-0.0012313549,0.0009571016,-0.0021021406,-0.0014965681,0.47762442,-1.4254344,1.9574293,-2.1007712,-1.5707215,2.452567,-0.01654049,0.024582164,-0.026076416,0.0037989938,6.0732873e-05,-0.015027738,-0.5554548,0.019153614,-9.768343,0.7329411,47.690468,-0.5389253,-2.3344646,-3.5146267,-0.33795172,-0.005778538,-0.048450842,27.6875,28.8125,28.0,31.875,33.9375,34.75
0.034052476,-1.6437403,-0.6130888,-1.2425345,-0.007861473,0.076291315,-0.10717215,-0.38123053,-0.3484861,0.059834063,-3.0783415,0.62486166,-0.0005277307,-0.015009633,0.0011651621,-0.0013521601,0.001020656,-0.0022258193,-0.0010294961,0.47756454,-1.4253739,1.9573692,-2.1007597,-1.5707573,2.4525313,-0.016017657,0.0264682,-0.027989885,0.0039649676,5.7115576e-05,-0.014970741,-0.4405331,0.0,-9.730036,0.7709874,47.68062,-0.5998683,-2.3495293,-3.4084425,-0.34689802,0.016419964,-0.041144148,27.6875,28.8125,28.0,31.875,33.9375,34.75
0.03605234,-1.3705462,-0.31523168,-1.1944461,0.005976425,0.0774381,-0.12024297,-0.381247,-0.3484944,0.059827503,-3.078338,0.624882,-0.00052664743,-0.017164107,0.0008263834,-0.00020867353,-0.00042780908,0.00055887894,-0.0037516744,0.477564,-1.4253258,1.957332,-2.1007717,-1.5707573,2.452544,-0.017408518,0.027288387,-0.031419795,0.00343602,5.5783148e-05,-0.013637458,-0.4405331,-0.05746084,-9.5385,0.79560274,47.694946,-0.566448,-2.3191917,-3.4231024,-0.32924846,0.013581545,-0.07759357,27.6875,28.8125,28.0,31.875,33.9375,34.75
0.038052384,-1.3304327,0.23428118,-0.9297502,-0.0027055847,0.06616234,-0.12848648,-0.3813264,-0.3485018,0.059850574,-3.0783637,0.62498385,-0.00043878818,-0.018518463,0.0005671497,0.00022580639,-0.00096688187,0.0015938549,-0.005095285,0.47750366,-1.4252534,1.9571995,-2.1007836,-1.5707573,2.452544,-0.018197129,0.028712468,-0.03404664,0.0034719321,5.4644173e-05,-0.013080912,-0.4213795,-0.15322891,-9.5385,0.7597976,47.695843,-0.48153403,-2.2863605,-3.3174624,-0.29932326,0.009365933,-0.09021186,27.6875,28.8125,28.0,31.875,33.9375,34.75
0.040052388,-0.9345927,-0.3334781,-1.3908056,0.0022885713,0.058708247,-0.1296978,-0.38132623,-0.34851027,0.0598526,-3.0783706,0.6250049,-0.00047708282,-0.01921772,0.0007075386,0.0002057433,-0.00064874406,0.0011836699,-0.006145851,0.47750336,-1.4252409,1.9571751,-2.1007597,-1.5707334,2.452556,-0.019032257,0.030008106,-0.035669144,0.0043099956,-4.1014853e-05,-0.0128644295,-0.24899697,-0.21068975,-9.672575,0.7709874,47.711964,-0.5727205,-2.2902286,-3.3606358,-0.3039578,0.004481039,-0.1054537,27.6875,28.8125,28.0,31.875,33.9375,34.75
0.042052414,-1.4467363,-0.7066378,-1.2430184,-0.00680795,0.02550239,-0.13642421,-0.38138276,-0.3484925,0.059858374,-3.0783653,0.6249265,-0.00042757916,-0.01982519,0.0012315247,0.00045928895,1.4457579e-05,1.4084878e-05,-0.006736687,0.47744298,-1.4251807,1.9570903,-2.1007464,-1.5707697,2.4524474,-0.020490238,0.030689798,-0.03762243,0.0069247046,-9.0990274e-05,-0.013730911,-0.19153613,-0.076614454,-9.615114,0.73741806,47.703007,-0.56605667,-2.275115,-3.3272505,-0.29003897,0.010067355,-0.11244281,27.6875,28.8125,28.0,31.875,33.9375,34.75
0.044051945,-1.1014762,-0.9266304,-1.2266532,-0.014084586,0.022097219,-0.14523861,-0.38141698,-0.34849447,0.05983592,-3.0783486,0.6249426,-0.0004846993,-0.02050442,0.0011393941,0.00067426485,0.00015205218,-0.00018891504,-0.00652614,0.4774067,-1.4250726,1.9570183,-2.100746,-1.5707573,2.4524233,-0.020932922,0.03183688,-0.03969013,0.008089031,-0.00012253883,-0.01438309,-0.17238252,-0.019153614,-9.500193,0.7866488,47.65464,-0.5872154,-2.2401361,-3.3171349,-0.31129023,-0.0037702203,-0.14505507,27.6875,28.8125,28.0,31.875,33.9375,34.75
0.046052147,-0.87890214,-0.8815502,-1.247652,-0.02600087,0.031922773,-0.16385204,-0.38145724,-0.34848824,0.05985624,-3.0783453,0.62499857,-0.00046840537,-0.021869227,0.0010175266,0.001468334,8.8775174e-05,0.0017160128,-0.0062567694,0.47735867,-1.4250485,1.9569334,-2.1006982,-1.5707577,2.4524107,-0.021440903,0.03244028,-0.042247016,0.008324332,-0.0009467117,-0.015157475,-0.05746084,0.095768064,-9.557653,0.7933669,47.711964,-0.5343814,-2.2573802,-3.327737,-0.31805202,-0.019916654,-0.13864574,27.6875,28.8125,28.0,31.875,33.9375,34.75
0.048052087,-1.3585776,-1.5724778,-1.2442293,-0.018163571,0.02652454,-0.15632242,-0.3815214,-0.34848982,0.059879072,-3.0783494,0.62511605,-0.0003842363,-0.022736879,0.0013457057,0.0015276602,0.0004899299,0.0017376989,-0.0071173874,0.47731015,-1.4250001,1.9568261,-2.1006982,-1.5707701,2.452435,-0.022584418,0.033481937,-0.04370395,0.008905694,-0.0013139537,-0.015438942,-0.11492168,0.17238252,-9.615114,0.7665104,47.683304,-0.4893037,-2.1815057,-3.3381243,-0.31455615,-0.013792842,-0.14894432,27.6875,28.8125,28.0,31.875,33.9375,34.75
0.05005239,-1.0317206,-1.5692079,-1.19114,-0.03237123,0.029197935,-0.17428286,-0.3815639,-0.34847364,0.059857823,-3.0783148,0.62512803,-0.0004162929,-0.023078863,0.0018151117,0.0004640296,0.002258616,-0.0011234318,-0.0073909643,0.47724983,-1.4249034,1.9567641,-2.1006973,-1.5707821,2.4523866,-0.0235666,0.036707774,-0.045362122,0.010692438,-0.0015710548,-0.016146012,-0.05746084,0.19153613,-9.519346,0.70608455,47.69763,-0.4787197,-2.1828427,-3.348946,-0.32708448,-0.0020378986,-0.15501761,27.6875,28.8125,28.0,31.875,33.9375,34.75
0.052052613,-0.6768381,-1.6702157,-1.004049,-0.05254459,0.038972028,-0.18454418,-0.38161117,-0.34848,0.05986313,-3.0783143,0.6251858,-0.0004561396,-0.02415345,0.0018514285,0.00027197434,0.0026047677,-0.0012774693,-0.007743906,0.47720152,-1.4248186,1.9566444,-2.1006496,-1.5707577,2.4523745,-0.024465444,0.038915955,-0.04749535,0.010914412,-0.001812448,-0.016690044,-0.076614454,0.40222588,-9.5385,0.7418897,47.661808,-0.543887,-2.2122705,-3.42453,-0.31613076,-0.0289557,-0.18553934,27.6875,28.8125,28.0,31.875,33.9375,34.75
0.05405217,-0.4967365,-2.1767945,-1.2868835,-0.062771834,0.04512381,-0.18378447,-0.38166642,-0.34846398,0.059876304,-3.0782788,0.62517774,-0.00040714562,-0.025418475,0.0016456684,0.002097552,0.00086792454,0.0017884977,-0.0075780177,0.47715327,-1.4247593,1.9565357,-2.1006014,-1.5708059,2.4523258,-0.025349041,0.036924005,-0.049506553,0.011394819,-0.0016814842,-0.017739195,0.0,0.38307226,-9.5385,0.75084364,47.65912,-0.5076637,-2.1047993,-3.331625,-0.3206002,-0.028909553,-0.19436823,27.6875,28.8125,28.0,31.875,33.9375,34.75
0.056052104,-0.79356396,-2.3871021,-1.2625715,-0.06497001,0.032372754,-0.15182155,-0.3817029,-0.3484646,0.059870582,-3.078293,0.6251615,-0.00044618823,-0.025917891,0.0016792774,0.0018803824,0.0011951728,0.0010384199,-0.00681279,0.4771051,-1.4246871,1.9564637,-2.100589,-1.5707821,2.4522657,-0.025901342,0.038453773,-0.0509165,0.012091512,-0.0016300131,-0.019055996,0.076614454,0.34476504,-9.595961,0.779936,47.66091,-0.48989803,-2.0056913,-3.3660545,-0.3318118,-0.03000236,-0.2043601,27.6875,28.8125,28.0,31.875,33.9375,34.75
0.05805221,-0.8233005,-2.4232545,-1.2218574,-0.06800327,0.026577612,-0.15146422,-0.38177118,-0.3484706,0.059895653,-3.078309,0.6252799,-0.00040009207,-0.027564792,0.0011193593,0.0018010952,0.0009583917,0.001374554,-0.006317577,0.4770449,-1.424626,1.9563311,-2.1005652,-1.5707701,2.4522774,-0.026456313,0.04192215,-0.054665264,0.011964352,-0.0015819253,-0.020103894,-0.019153614,0.4405331,-9.5385,0.78888994,47.689575,-0.5148543,-2.1028044,-3.3497024,-0.32511806,-0.037660275,-0.19657144,27.6875,28.8125,28.0,31.875,33.9375,34.75
0.060052216,-0.7478473,-1.6390797,-0.96705455,-0.07648523,0.033864718,-0.15386693,-0.38183102,-0.34849295,0.059906915,-3.0783474,0.6251518,-0.00031753164,-0.028037162,0.0011646507,0.0019187966,0.0009887667,0.0010212566,-0.005881217,0.4770447,-1.4245299,1.9561986,-2.100577,-1.570794,2.4521925,-0.027057987,0.04265651,-0.055982713,0.012874074,-0.0014468841,-0.021141669,-0.1340753,0.49799395,-9.442732,0.7463667,47.682407,-0.5470828,-2.0992534,-3.174902,-0.33448067,-0.04167683,-0.21127304,27.6875,28.8125,28.0,31.875,33.9375,34.75
0.062052213,-0.6624144,-1.5374682,-0.94086397,-0.059638742,0.041270826,-0.16036223,-0.38186952,-0.348468,0.05989088,-3.078289,0.6251978,-0.00038149935,-0.028364526,0.0012386749,0.00038483724,0.0020600664,-0.0012582155,-0.005338434,0.47697255,-1.4244447,1.956127,-2.100529,-1.5708059,2.4521565,-0.02754856,0.04651411,-0.056752402,0.012302159,-0.0013568696,-0.022174006,-0.038307227,0.51714754,-9.461885,0.80679786,47.68599,-0.50352937,-2.209099,-3.4409447,-0.3258552,-0.044316847,-0.23663586,27.6875,28.8125,28.0,31.875,33.9375,34.75
0.064051695,-0.93661106,-1.4179837,-0.9551323,-0.056476854,0.03988656,-0.15041463,-0.38196063,-0.34847465,0.059924405,-3.0783157,0.62526023,-0.00030697932,-0.030285288,0.0006832616,0.0019175994,5.9880815e-05,0.0022440888,-0.0047896183,0.47690016,-1.424361,1.9559468,-2.1004937,-1.5708059,2.4521198,-0.028432734,0.04623094,-0.05976899,0.01157128,-0.001195078,-0.023605777,-0.019153614,0.4213795,-9.423578,0.73069996,47.71823,-0.59662634,-2.1216505,-3.3530726,-0.32753387,-0.060168475,-0.24180695,27.6875,28.8125,28.0,31.875,33.9375,34.75
0.06605226,-0.74283105,-1.5861217,-0.5346384,-0.045953616,0.04716535,-0.15292437,-0.3820125,-0.34847656,0.059915174,-3.0783315,0.6252824,-0.00032873623,-0.032714587,-0.00048470343,0.0037412692,-0.002072983,0.0060696793,-0.0040811,0.47684014,-1.4242649,1.955861,-2.1005056,-1.5707821,2.4520717,-0.028679224,0.04716068,-0.06497966,0.011474286,-0.0010676619,-0.024558254,-0.17238252,0.30645782,-9.308657,0.75084364,47.70211,-0.5601817,-2.008434,-3.1034026,-0.3244167,-0.06392062,-0.23130485,27.6875,28.8125,28.0,31.875,33.9375,34.75
0.06805217,-1.3324436,-1.6981329,-0.79016215,-0.034872174,0.036366723,-0.14449099,-0.38209537,-0.3484863,0.059947375,-3.0783365,0.6253013,-0.00022274819,-0.03180246,0.00012351625,0.001302399,6.6539354e-07,0.002005339,-0.0028621734,0.47680405,-1.4241798,1.9556822,-2.1004698,-1.5708178,2.4520469,-0.028930401,0.050496582,-0.063058876,0.010779003,-0.0010410679,-0.026028775,-0.15322891,0.24899697,-9.289502,0.7597976,47.688675,-0.5974337,-2.1484838,-3.2348604,-0.3204833,-0.08691624,-0.23282541,27.6875,28.8125,28.0,31.875,33.9375,34.75
0.070052244,-1.1788058,-1.0821594,-0.59108263,-0.046422932,0.040370565,-0.14789864,-0.38214707,-0.34849465,0.05992879,-3.0783553,0.62522864,-0.0002756484,-0.03333733,-9.7815646e-05,0.0015854078,-0.0003447755,0.0025671516,-0.0029726215,0.47675562,-1.4240474,1.9555734,-2.1004698,-1.570794,2.4519508,-0.02997743,0.052646987,-0.06625502,0.011167297,-0.0009988404,-0.026963554,-0.1340753,0.24899697,-9.3661175,0.7978386,47.695843,-0.6196034,-2.1099186,-3.1983826,-0.30408877,-0.08499888,-0.26651132,27.6875,28.8125,28.0,31.875,33.9375,34.75
0.07205236,-1.3158565,-1.12989,-0.5760233,-0.03774781,0.04391159,-0.14769329,-0.3821986,-0.3484718,0.059923027,-3.078317,0.62531567,-0.00034547265,-0.034346513,-0.0005928265,0.0022439042,-0.00090180046,0.003889425,-0.0016707547,0.47665972,-1.4239633,1.9554771,-2.1004102,-1.5707821,2.451914,-0.029946554,0.053437006,-0.06872191,0.011414157,-0.0011169126,-0.028232971,-0.19153613,0.22984336,-9.212888,0.779936,47.68599,-0.7156,-2.1363776,-3.1455946,-0.3165311,-0.09324893,-0.27363577,27.6875,28.8125,28.0,31.875,33.9375,34.75
0.07405203,-1.349563,-0.74378735,-0.40024078,-0.030321795,0.046129808,-0.14298368,-0.3822931,-0.34850305,0.05996842,-3.0784047,0.6252556,-0.00017206663,-0.035544198,-0.00093109056,0.00241415,-0.0007267437,0.0048680305,-0.0005311529,0.47663572,-1.4238907,1.9552959,-2.100434,-1.570794,2.4518416,-0.03005117,0.055397402,-0.07131619,0.011260439,-0.0017239131,-0.029474631,-0.22984336,0.15322891,-9.212888,0.7351769,47.67614,-0.714821,-2.0875864,-3.142446,-0.30088377,-0.10400848,-0.23922187,27.6875,28.8125,28.0,31.875,33.9375,34.75
0.07605211,-1.3762523,-0.7874619,-0.6398998,-0.019401679,0.052783985,-0.143739,-0.38233837,-0.3484772,0.059927594,-3.0783014,0.62533045,-0.00028083613,-0.036532328,-0.0009912401,0.0025357597,-0.0008677008,0.0053177257,5.9755348e-05,0.47656345,-1.4237345,1.9552001,-2.1003864,-1.5708178,2.4518292,-0.030793497,0.056731913,-0.07313001,0.011274718,-0.0018122079,-0.030806419,-0.2681506,0.076614454,-9.136273,0.8627467,47.68599,-0.8080255,-2.0432818,-3.1172378,-0.29696646,-0.09831317,-0.2570334,27.6875,28.8125,28.0,31.875,33.9375,34.75
0.07805184,-1.0556676,-0.6654765,-0.4612734,-0.021747107,0.05992425,-0.15200157,-0.3823911,-0.3484843,0.05992184,-3.0783095,0.62521666,-0.0003105622,-0.037538704,-0.0013441312,0.0026588305,-0.0009919512,0.0058753537,0.00080855645,0.47652736,-1.4236141,1.9550675,-2.1003501,-1.5708178,2.4517212,-0.030992916,0.058502812,-0.0754359,0.0112574985,-0.0019635516,-0.031752884,-0.24899697,0.11492168,-9.2703495,0.7911258,47.690468,-0.79551065,-2.1254368,-3.110394,-0.2867024,-0.11625792,-0.29068017,27.6875,28.8125,28.0,31.875,33.9375,34.75
0.08005203,-1.1697023,-0.8885242,-0.4943308,-0.018500887,0.05298269,-0.14443956,-0.38250557,-0.34848285,0.059957664,-3.0783243,0.6253341,-0.0002374756,-0.038551413,-0.0014279144,0.0028238352,-0.00095236016,0.0057654907,0.0014419347,0.47641915,-1.4235058,1.954851,-2.100302,-1.5708178,2.4516845,-0.031775206,0.06018429,-0.077954724,0.012210092,-0.0019495789,-0.03316737,-0.30645782,0.19153613,-9.232041,0.7665104,47.690468,-0.8981638,-2.1410608,-3.039674,-0.280095,-0.12746137,-0.29561883,27.6875,28.8125,28.0,31.875,33.9375,34.75
0.082052216,-0.83155674,-0.688121,-0.686366,-0.0275659,0.058266554,-0.14910252,-0.3825821,-0.34851947,0.05996879,-3.0784106,0.6253137,-0.0001995766,-0.039275166,-0.0015610866,0.0029506008,-0.0006599833,0.0056479913,0.0015002771,0.47638294,-1.4233854,1.954696,-2.1003368,-1.5707706,2.4516246,-0.03206574,0.061614394,-0.080101855,0.0131678125,-0.0021555482,-0.03351492,-0.24899697,0.15322891,-9.232041,0.7418897,47.68599,-0.8858024,-2.1071644,-3.0237906,-0.30152798,-0.13005014,-0.29994625,27.6875,28.8125,28.0,31.875,33.9375,34.75
0.08405171,-1.6182756,-1.4911003,-0.95348686,-0.017377451,0.04483425,-0.13426319,-0.38266334,-0.34850132,0.059974775,-3.0783615,0.62534064,-0.00019384784,-0.03959938,-0.0015523378,0.0015257571,0.00092597975,0.0036064335,0.0022086757,0.47629896,-1.4232641,1.9545277,-2.1002657,-1.5708064,2.4515638,-0.032064002,0.06554714,-0.08130155,0.012976474,-0.0026325618,-0.03421943,-0.24899697,0.17238252,-9.212888,0.8179876,47.70211,-0.9228061,-2.159418,-3.0840547,-0.2912692,-0.15075542,-0.28256387,27.6875,28.8125,28.0,31.875,33.9375,34.75
0.0860517,-1.759721,-1.6165118,-1.0081432,-0.023411203,0.053166896,-0.13754158,-0.38272136,-0.34849736,0.05995904,-3.0783393,0.6253362,-0.00023760411,-0.040504042,-0.0011215456,0.0020472577,0.0018279604,0.004621821,0.0016042737,0.47623873,-1.423132,1.9544071,-2.1002414,-1.5708069,2.4515038,-0.032831844,0.065691695,-0.08288282,0.013928725,-0.0039020143,-0.034379847,-0.22984336,0.22984336,-9.3661175,0.7978386,47.703903,-0.97676265,-2.2702928,-3.1053333,-0.27729973,-0.13438088,-0.32764053,27.6875,28.8125,28.0,31.875,33.9375,34.75
0.088051796,-1.4628925,-1.4193991,-0.84437454,-0.031236842,0.059276003,-0.14071926,-0.38281488,-0.3484962,0.0599604,-3.078335,0.62533516,-0.00018503983,-0.041362446,-0.0010155505,0.0024576106,0.0023938878,0.0054633208,0.003394059,0.4761665,-1.4229878,1.9542392,-2.100241,-1.5708317,2.4514315,-0.03322342,0.0663266,-0.08471596,0.014640113,-0.0047927173,-0.036558837,-0.21068975,0.17238252,-9.385271,0.7486078,47.690468,-0.9432914,-2.0150528,-3.1070466,-0.30299005,-0.10248521,-0.33784562,27.6875,28.8125,28.0,31.875,33.9375,34.75
0.0900526,-1.5949632,-1.5631521,-1.0478776,-0.033032723,0.052614238,-0.1369088,-0.38289794,-0.34851006,0.059970986,-3.0783477,0.6253176,-0.00019951983,-0.04223893,-0.00069626595,0.0021092058,0.0039013063,0.005576148,0.004453311,0.4761065,-1.4228427,1.9540356,-2.1001809,-1.5708193,2.451359,-0.033684753,0.06836504,-0.08628636,0.014767619,-0.0061876466,-0.038075835,-0.22984336,0.21068975,-9.385271,0.7463667,47.703903,-1.0002847,-2.12627,-3.1446233,-0.2784074,-0.12798621,-0.33957797,27.6875,28.8125,28.0,31.875,33.9375,34.75
0.09205254,-1.4344862,-1.3186997,-1.1898571,-0.04260671,0.05131389,-0.14693461,-0.38298222,-0.34851488,0.059987407,-3.0783703,0.6252653,-0.00014373873,-0.042850867,0.0003544304,0.00020859616,0.0069894507,0.0033178378,0.0018390723,0.47604603,-1.4227333,1.9538678,-2.1001575,-1.5708326,2.4512632,-0.034997262,0.07254876,-0.08663943,0.014365038,-0.007897309,-0.036770392,-0.15322891,0.30645782,-9.385271,0.7396539,47.64658,-1.013433,-2.2413592,-3.1517143,-0.28522682,-0.11311536,-0.34274167,27.6875,28.8125,28.0,31.875,33.9375,34.75
0.09405206,-1.4037194,-1.2620486,-1.0985196,-0.03927489,0.050320193,-0.14560956,-0.3830942,-0.34849182,0.059989955,-3.0783277,0.62533325,-0.00010778487,-0.045261104,0.0003562957,0.0023440232,0.007120628,0.008376327,0.0017470663,0.4759258,-1.4225774,1.9536756,-2.1001213,-1.5708693,2.451191,-0.035620924,0.07172637,-0.09068757,0.014805825,-0.010339423,-0.03729595,-0.17238252,0.24899697,-9.423578,0.800085,47.67166,-1.0944486,-2.0876973,-3.1098888,-0.2906301,-0.072824426,-0.37380362,27.6875,28.8125,28.0,31.875,33.9375,34.75
0.09605186,-1.265708,-1.1036762,-1.0516284,-0.040237267,0.045854088,-0.13518283,-0.38315213,-0.34851283,0.059970204,-3.078316,0.62517565,-0.00013022586,-0.044617005,0.0015570885,0.00022704358,0.011072051,0.0053321407,0.0040938174,0.47592568,-1.4223963,1.9535083,-2.100097,-1.5708941,2.4510942,-0.035784576,0.07456271,-0.089135356,0.014939613,-0.012455626,-0.03980251,-0.11492168,0.2681506,-9.423578,0.8314132,47.684196,-1.1150293,-2.155911,-3.2555108,-0.26038346,-0.058468,-0.37006757,27.6875,28.8125,28.0,31.875,33.9375,34.75
0.098052345,-0.9769451,-1.5741764,-0.9282764,-0.029794486,0.044796217,-0.14202109,-0.38325405,-0.34850442,0.05998232,-3.0783045,0.62534666,-8.629524e-05,-0.046227008,0.0016966787,0.00024271579,0.010462935,0.0054811337,0.0035457744,0.475817,-1.4222752,1.9533395,-2.1000855,-1.5708941,2.4510937,-0.037803832,0.07670187,-0.09160597,0.014856154,-0.011986975,-0.041273437,-0.11492168,0.24899697,-9.404425,0.82022345,47.709274,-1.0507023,-2.2269366,-3.340252,-0.24350412,-0.024192981,-0.37468553,27.6875,28.8125,28.0,31.875,33.9375,34.75
0.10005228,-0.82626545,-1.4310231,-0.8712608,-0.036564704,0.038019054,-0.14033386,-0.3833455,-0.34850058,0.05997492,-3.078293,0.62524563,-0.00012221679,-0.0469041,0.001026383,0.0002540688,0.008518556,0.0042077573,0.005892252,0.47573274,-1.4220946,1.9531363,-2.1000254,-1.5709046,2.450948,-0.038720373,0.07854469,-0.09391011,0.015548166,-0.009681311,-0.044538904,-0.05746084,0.28730422,-9.346964,0.7642693,47.691364,-1.104385,-2.2383163,-3.1442342,-0.25118813,-0.051219665,-0.35013318,27.6875,28.8125,28.0,31.875,33.9375,34.75
0.102052175,-0.9695968,-1.4374009,-1.0972486,-0.04120377,0.02180644,-0.1384905,-0.3834756,-0.34851876,0.0600086,-3.0783525,0.62520057,3.1148003e-05,-0.04677629,0.0004688216,-3.933092e-05,0.007011362,0.002454964,0.0062490613,0.47566044,-1.4219501,1.952897,-2.1000373,-1.570928,2.4508402,-0.03899049,0.07965724,-0.094628625,0.016012438,-0.007534641,-0.0451701,-0.05746084,0.2681506,-9.385271,0.76874626,47.689575,-1.1602428,-2.224368,-3.381599,-0.24646044,-0.05956273,-0.33107978,27.6875,28.8125,28.0,31.875,33.9375,34.75
0.10405259,-0.67283,-1.5045176,-1.0076947,-0.046894047,0.022320729,-0.14515999,-0.38350394,-0.34848642,0.05995233,-3.0782454,0.62519765,-0.00017662908,-0.04681684,-0.00029581363,-0.00013399756,0.005684919,0.0014353587,0.0063297753,0.47557664,-1.4217814,1.9528135,-2.0999534,-1.5709275,2.4507682,-0.038725853,0.08087223,-0.095893785,0.016355256,-0.005898155,-0.04498724,-0.095768064,0.15322891,-9.404425,0.8112748,47.694054,-1.2513621,-2.1628852,-3.282917,-0.22780076,-0.068904415,-0.36960357,27.6875,28.8125,28.0,31.875,33.9375,34.75
0.10605172,-0.45016557,-1.176676,-0.9844147,-0.051975004,0.027364949,-0.13844755,-0.3836219,-0.34851998,0.059972618,-3.0783017,0.62514985,-8.866806e-05,-0.048650213,0.00010641285,0.00020551286,0.004437753,0.0019474906,0.0066739586,0.4755276,-1.421601,1.9525608,-2.0999534,-1.5709275,2.4506824,-0.041674636,0.08213223,-0.098106675,0.01627739,-0.00502666,-0.048280917,-0.05746084,0.19153613,-9.404425,0.8224646,47.695843,-1.1236118,-2.191971,-3.4002728,-0.22072645,-0.106719926,-0.3646491,27.6875,28.8125,28.0,31.875,33.9375,34.75
0.10805178,-0.8311025,-1.2853531,-1.1606014,-0.03648465,0.026005743,-0.13954055,-0.3837416,-0.34851858,0.059983853,-3.0783284,0.6251353,-7.402441e-05,-0.048622884,0.0005569705,-0.0003498891,0.005243073,0.0004263749,0.008910942,0.47540742,-1.4214323,1.9523338,-2.0999172,-1.5709156,2.4505498,-0.042419303,0.083123565,-0.09816368,0.017063254,-0.0050446694,-0.05126264,-0.076614454,0.24899697,-9.404425,0.73069996,47.685097,-1.2025256,-2.1310725,-3.4342008,-0.21319082,-0.100042745,-0.31082213,27.6875,28.8125,28.0,31.875,33.9375,34.75
0.110052675,-0.74666065,-0.68931836,-0.8761447,-0.041540314,0.035274684,-0.14842673,-0.38383868,-0.34849864,0.05999049,-3.078315,0.62515205,-3.4084936e-05,-0.051708203,0.00091129116,0.0010878494,0.004358104,0.0034572915,0.008051277,0.47529832,-1.4213119,1.9521755,-2.0998929,-1.5709394,2.450453,-0.045470595,0.08422489,-0.10282011,0.017518193,-0.0056539006,-0.053450886,-0.095768064,0.22984336,-9.3661175,0.77545905,47.684196,-1.0714697,-2.0452242,-3.3966932,-0.21201393,-0.09877452,-0.29946765,27.6875,28.8125,28.0,31.875,33.9375,34.75
0.11205176,-1.0098635,-1.342835,-1.0382055,-0.021860916,0.04417908,-0.13744515,-0.38393748,-0.34851196,0.060001366,-3.0783179,0.62501615,3.9730374e-05,-0.050281458,0.0015504012,-0.00035335807,0.0068529537,0.0008511151,0.01136195,0.47526264,-1.4211435,1.95195,-2.099857,-1.570988,2.4503324,-0.044623565,0.08491756,-0.10041556,0.017879894,-0.006673214,-0.055914056,-0.095768064,0.21068975,-9.346964,0.75084364,47.664497,-1.1126916,-2.0564003,-3.6019716,-0.19116947,-0.102277786,-0.27004337,27.6875,28.8125,28.0,31.875,33.9375,34.75
0.114052385,-1.2566124,-1.1345036,-1.1181267,-0.032496154,0.044928774,-0.13670217,-0.3840216,-0.3485326,0.059985064,-3.078345,0.624962,-5.1503263e-05,-0.052760765,0.0006612139,0.0016272768,0.005585434,0.0050608846,0.013460095,0.47519064,-1.420939,1.9517449,-2.0998213,-1.5709399,2.4502232,-0.044784464,0.08552008,-0.10573646,0.018279472,-0.0074855397,-0.058168802,-0.1340753,0.24899697,-9.3661175,0.8291774,47.670765,-1.2386597,-1.9150606,-3.531468,-0.19889084,-0.10458759,-0.23511234,27.6875,28.8125,28.0,31.875,33.9375,34.75
0.116052486,-1.2885582,-1.2878981,-0.94683254,-0.035862025,0.050689455,-0.13728233,-0.38415018,-0.3485249,0.06001107,-3.0783176,0.6249554,7.459546e-05,-0.05320595,0.0017697639,-0.00063674845,0.007919862,0.00096796843,0.013765529,0.4751059,-1.4207813,1.9514941,-2.0997732,-1.5710124,2.450138,-0.04701235,0.09026424,-0.106074005,0.01857522,-0.007687105,-0.060701277,-0.11492168,0.2681506,-9.423578,0.784413,47.711964,-1.1654323,-2.0779092,-3.5476315,-0.17819265,-0.08540245,-0.22936061,27.6875,28.8125,28.0,31.875,33.9375,34.75
0.11805242,-1.0205461,-0.98008496,-1.1038338,-0.041126512,0.055991463,-0.14537798,-0.38422692,-0.34848976,0.05995237,-3.0782378,0.62486243,-0.0001160345,-0.055359766,0.0019242552,0.0016650979,0.0065088524,0.005238638,0.014252814,0.47497317,-1.4205406,1.9513363,-2.0997007,-1.5710124,2.4499576,-0.048781585,0.0882379,-0.1091931,0.019278163,-0.008401178,-0.06295422,-0.17238252,0.19153613,-9.442732,0.7486078,47.699425,-1.0615747,-1.9939952,-3.4870362,-0.1800299,-0.09747283,-0.15671846,27.6875,28.8125,28.0,31.875,33.9375,34.75
0.120052345,-1.6221367,-1.263695,-1.2083683,-0.029328855,0.044925764,-0.14129098,-0.38436913,-0.34853292,0.0600129,-3.0783937,0.62491167,-8.161709e-06,-0.056358002,0.0020034485,0.0012756586,0.008048937,0.0050073047,0.01568635,0.4748652,-1.4204206,1.9510607,-2.0997007,-1.5709289,2.4498606,-0.049001522,0.091067106,-0.11168278,0.01985699,-0.009659602,-0.064605266,-0.3256114,0.2681506,-9.32781,0.80679786,47.717335,-1.1592973,-1.860466,-3.422967,-0.16909608,-0.059562914,-0.12288219,27.6875,28.8125,28.0,31.875,33.9375,34.75
0.12205261,-1.3698502,-1.0961735,-1.2144682,-0.034184773,0.06554541,-0.14089121,-0.38446683,-0.34850305,0.05999842,-3.0783038,0.62474126,2.3593971e-05,-0.057671964,0.0025591962,0.001564407,0.0085837785,0.005905729,0.013937623,0.4747927,-1.4202282,1.950857,-2.0996287,-1.5710372,2.4496934,-0.050598994,0.091901824,-0.113383435,0.02016404,-0.010552779,-0.06445095,-0.36391866,0.22984336,-9.385271,0.7665104,47.72629,-1.1705738,-2.0102687,-3.4984083,-0.16385332,-0.07032149,-0.11739391,27.6875,28.8125,28.0,31.875,33.9375,34.75
0.12405206,-1.7867643,-1.1137217,-1.0540351,-0.03422504,0.07648949,-0.14196159,-0.38456327,-0.3485145,0.059986446,-3.0783148,0.62470526,-3.276693e-05,-0.058227893,0.0019678997,0.0017803266,0.007097507,0.005410445,0.0129756015,0.47470844,-1.4200237,1.950642,-2.0995924,-1.5710124,2.4495854,-0.051043544,0.0930247,-0.11530848,0.020722713,-0.009008695,-0.063935034,-0.40222588,0.2681506,-9.500193,0.779936,47.689575,-1.1697237,-1.7651173,-3.4837542,-0.1424213,-0.058626954,-0.10247053,27.6875,28.8125,28.0,31.875,33.9375,34.75
0.12605202,-1.8361044,-1.4475238,-1.2368808,-0.036021497,0.07788525,-0.14476904,-0.38470793,-0.34851894,0.060015183,-3.078353,0.6247894,4.2363805e-05,-0.059099663,0.0018984596,0.0019413608,0.0063714106,0.0050051636,0.012359685,0.47457603,-1.4198552,1.9503778,-2.0995681,-1.5710005,2.4495008,-0.0522329,0.09425336,-0.11727048,0.021481117,-0.008175518,-0.064509585,-0.49799395,0.24899697,-9.519346,0.84708,47.647476,-1.2052011,-1.8684579,-3.4869359,-0.14687145,-0.06856607,-0.065374546,27.6875,28.8125,28.0,31.875,33.9375,34.75
0.12805197,-1.9058608,-1.7066579,-1.2618017,-0.03909437,0.079750605,-0.14048134,-0.38481128,-0.34849632,0.06002599,-3.0783076,0.6246685,5.688618e-05,-0.060031597,0.0016103777,0.0019549117,0.0059153493,0.004528956,0.00752462,0.47447982,-1.4196984,1.9501489,-2.0994604,-1.5710601,2.449335,-0.05295971,0.096249506,-0.11976195,0.02218667,-0.0075568836,-0.060400765,-0.61291564,0.24899697,-9.557653,0.80456203,47.70032,-1.1745398,-1.802219,-3.4367828,-0.13824007,-0.07423816,-0.075415716,27.6875,28.8125,28.0,31.875,33.9375,34.75
0.13005264,-1.8715925,-1.6605139,-1.3661615,-0.04685489,0.076786734,-0.13652273,-0.38493976,-0.34851468,0.06003837,-3.0783684,0.6246617,7.885877e-05,-0.061673257,0.0015613412,0.0021809847,0.0051405434,0.004970896,0.004554881,0.47437128,-1.4195055,1.9498972,-2.099449,-1.5710238,2.4492147,-0.054666,0.09826561,-0.12262938,0.02229111,-0.007072109,-0.059136845,-0.57460845,0.24899697,-9.730036,0.7553206,47.71823,-1.2032623,-1.8075582,-3.5027966,-0.1413174,-0.09079675,-0.09095446,27.6875,28.8125,28.0,31.875,33.9375,34.75
0.13205172,-1.6368889,-1.2597032,-1.4030703,-0.050998773,0.07113199,-0.14146517,-0.38505945,-0.3485044,0.06002682,-3.0783195,0.624671,0.000109612505,-0.06305217,0.001706304,0.002280041,0.0055193002,0.0058541987,0.0037172795,0.4742749,-1.4192888,1.9496697,-2.0994246,-1.5710725,2.4491305,-0.055682294,0.10001769,-0.12485,0.02214594,-0.0078182435,-0.059312787,-0.34476504,0.17238252,-9.615114,0.7642693,47.668976,-1.1938908,-1.7766681,-3.3680344,-0.13325176,-0.08966826,-0.120914534,27.6875,28.8125,28.0,31.875,33.9375,34.75
0.13405202,-1.3518277,-1.0794251,-1.2553855,-0.047048397,0.07244039,-0.14250565,-0.38517705,-0.34849262,0.060028475,-3.0782988,0.62465024,9.192325e-05,-0.06552888,0.0015997918,0.0028765795,0.0060072546,0.007476117,2.0432653e-05,0.4741544,-1.4190955,1.949428,-2.0993521,-1.5710849,2.449,-0.05697208,0.10308766,-0.12992816,0.022937745,-0.009002426,-0.056900647,-0.4213795,0.17238252,-9.634268,0.79560274,47.65912,-1.1798084,-1.8017528,-3.2263868,-0.10323296,-0.07807876,-0.12205981,27.6875,28.8125,28.0,31.875,33.9375,34.75
0.13605224,-0.63316566,-0.77001333,-1.2376664,-0.041886102,0.08214993,-0.14590205,-0.38533947,-0.34849063,0.06003522,-3.0783105,0.6247312,0.00017421426,-0.065639146,0.0023435496,0.001923314,0.0078239,0.005471196,-0.0040858015,0.47401008,-1.4188665,1.9491528,-2.099364,-1.5710968,2.4489048,-0.057910707,0.10502635,-0.1302141,0.023900244,-0.009697388,-0.053732153,-0.45968673,0.17238252,-9.634268,0.8157518,47.698532,-1.1891998,-2.045773,-3.342946,-0.098847285,-0.055895913,-0.17328644,27.6875,28.8125,28.0,31.875,33.9375,34.75
0.13805209,-1.5299447,-1.3925318,-1.3317404,-0.022969034,0.059664447,-0.13825321,-0.38549525,-0.34850082,0.060085107,-3.0783508,0.6247016,0.0002988779,-0.067403,0.0027563754,0.0017614601,0.0072822245,0.0046481118,-0.0070149773,0.47390112,-1.4186977,1.948829,-2.099292,-1.5711206,2.4487724,-0.06077932,0.10769571,-0.13307242,0.024569001,-0.008839793,-0.05367213,-0.4213795,0.22984336,-9.519346,0.83365434,47.707485,-0.99626255,-1.8415176,-3.2092044,-0.0952605,-0.06702016,-0.1877867,27.6875,28.8125,28.0,31.875,33.9375,34.75
0.140052,-1.3096335,-0.51987845,-1.1648042,-0.052930236,0.068669915,-0.14491068,-0.38560858,-0.3484946,0.060075175,-3.0783086,0.6247496,0.00026395384,-0.06715044,0.0016343883,0.0016257892,0.0071586836,0.0037630624,-0.005130374,0.4737939,-1.4184806,1.9485892,-2.099232,-1.5711321,2.4487007,-0.05887213,0.10947899,-0.13503653,0.025477659,-0.008330099,-0.05364904,-0.36391866,0.21068975,-9.5385,0.8291774,47.678825,-1.1722968,-2.0134757,-3.220629,-0.08323127,-0.08882396,-0.21777397,27.6875,28.8125,28.0,31.875,33.9375,34.75
0.14205183,-1.5810248,-1.6091477,-1.119117,-0.035552204,0.07667398,-0.1351447,-0.38574806,-0.34849384,0.060080126,-3.0783057,0.62471145,0.00027378398,-0.06873405,0.0020457197,0.0010477862,0.0078019435,0.002620686,-0.0075009405,0.47367316,-1.4182513,1.9483012,-2.0991719,-1.5711445,2.4485567,-0.06098353,0.113028556,-0.13796818,0.026168495,-0.008386189,-0.053387955,-0.49799395,0.2681506,-9.442732,0.784413,47.691364,-1.1612558,-1.8617625,-3.153513,-0.08252062,-0.06945875,-0.24225603,27.6875,28.8125,28.0,31.875,33.9375,34.75
0.14405237,-2.2012525,-2.045053,-1.0151216,-0.044465207,0.060624104,-0.12949929,-0.38590094,-0.3484775,0.060083464,-3.0782557,0.6247798,0.00029388242,-0.070605725,0.0025634477,0.0010128955,0.007642125,0.0023196905,-0.0101847295,0.47352806,-1.4180102,1.9480008,-2.0991004,-1.5711807,2.4484608,-0.06375308,0.115498036,-0.14089382,0.026815504,-0.008112365,-0.053472433,-0.38307226,0.30645782,-9.346964,0.8224646,47.705692,-1.1533605,-2.0508585,-3.2181718,-0.08072397,-0.07343316,-0.23953566,27.6875,28.8125,28.0,31.875,33.9375,34.75
0.14605263,-1.9038694,-2.2874155,-0.96546906,-0.048227303,0.065303855,-0.13937964,-0.38602856,-0.34848666,0.06008481,-3.0782971,0.6247297,0.00032136068,-0.069853485,0.0034595407,-0.0002161764,0.009332251,-0.00046722547,-0.010674723,0.47341976,-1.4178056,1.9477628,-2.0990999,-1.5711683,2.448316,-0.06447967,0.116390586,-0.13931051,0.027591167,-0.0083392095,-0.05370974,-0.36391866,0.28730422,-9.3661175,0.8717007,47.68599,-1.0247856,-1.9119728,-3.2811425,-0.063482255,-0.08318558,-0.27588087,27.6875,28.8125,28.0,31.875,33.9375,34.75
0.14805262,-1.5291989,-1.6375026,-0.64807355,-0.06684979,0.06962461,-0.13768975,-0.38618317,-0.34847417,0.06009572,-3.0782638,0.6247418,0.0003830824,-0.07095903,0.0029904358,0.00031984906,0.0094246855,0.0005734564,-0.009992635,0.47328803,-1.417577,1.947462,-2.0990393,-1.571217,2.4481964,-0.06426596,0.117870554,-0.14242744,0.028342096,-0.008900901,-0.054175735,-0.38307226,0.3256114,-9.32781,0.75755644,47.705692,-1.1665332,-1.928417,-3.1934695,-0.061556038,-0.06706075,-0.298215,27.6875,28.8125,28.0,31.875,33.9375,34.75
0.15005179,-0.885099,-1.168148,-0.70617396,-0.056753367,0.07134986,-0.14142174,-0.38632146,-0.34847218,0.06009873,-3.0782583,0.6248186,0.0003402748,-0.072593935,0.0041461154,4.4542907e-05,0.010104133,5.730625e-05,-0.012807489,0.4731427,-1.417348,1.9471759,-2.0989673,-1.5711926,2.4480999,-0.067526534,0.119742244,-0.1441028,0.028916009,-0.009274255,-0.054619752,-0.34476504,0.24899697,-9.251195,0.80456203,47.68062,-1.0117935,-1.9362211,-3.330543,-0.0675185,-0.063502096,-0.32625395,27.6875,28.8125,28.0,31.875,33.9375,34.75
0.15205179,-0.9489639,-0.7800826,-0.5417431,-0.03857888,0.05687697,-0.14028992,-0.38650256,-0.34848878,0.06013121,-3.0782957,0.6248838,0.00049592357,-0.07331871,0.0040383223,-0.00035760744,0.009191767,-0.0005197203,-0.013324241,0.47302243,-1.4171191,1.9468392,-2.0989678,-1.5712165,2.4480157,-0.06865509,0.121499166,-0.14506839,0.028216053,-0.008197567,-0.055233404,-0.34476504,0.24899697,-9.174581,0.7329411,47.675243,-0.9885583,-1.951957,-3.3420625,-0.03922866,-0.08959213,-0.342169,27.6875,28.8125,28.0,31.875,33.9375,34.75
0.15405184,-1.1853377,-0.89810055,-0.20744336,-0.023359928,0.043098524,-0.14204171,-0.38664883,-0.3484402,0.0600964,-3.0781834,0.62493867,0.00045102678,-0.07507323,0.0038904285,0.00017693671,0.008017298,0.0018014088,-0.014608489,0.47284207,-1.4168428,1.9465879,-2.0989087,-1.5712765,2.447884,-0.06993971,0.12248693,-0.14709912,0.026653053,-0.008222542,-0.05523169,-0.24899697,0.21068975,-9.078813,0.79560274,47.666286,-0.9299521,-1.7840953,-3.463192,-0.0012132935,-0.070094615,-0.36566615,27.6875,28.8125,28.0,31.875,33.9375,34.75
0.1560526,-0.72253376,-0.33425277,-0.14048193,-0.015669478,0.04718978,-0.14587876,-0.3868172,-0.34846312,0.06013391,-3.078258,0.62495327,0.00056925515,-0.075908855,0.0041090706,0.00031825458,0.0080134375,0.0017802648,-0.015491161,0.47272167,-1.4166378,1.9462641,-2.0988963,-1.5712646,2.4477634,-0.07106144,0.12339631,-0.14863534,0.027296482,-0.008205702,-0.05547093,-0.17238252,0.095768064,-8.810662,0.80679786,47.65464,-0.89348245,-1.9894624,-3.3868673,0.025428995,-0.06977782,-0.4136397,27.6875,28.8125,28.0,31.875,33.9375,34.75
0.15805261,-0.8027372,-0.47178432,-0.13830222,0.0039589778,0.039601322,-0.13966994,-0.38697773,-0.34845993,0.060136065,-3.0782368,0.6250069,0.00057679735,-0.07636156,0.0041136383,-0.00075936056,0.008594651,-0.0013886635,-0.015643528,0.47257727,-1.4163727,1.9459409,-2.0988357,-1.5712761,2.4476554,-0.07204203,0.12715282,-0.1508783,0.028863432,-0.0072824825,-0.05629921,-0.1340753,0.15322891,-8.810662,0.84484416,47.690468,-0.91604495,-1.7162485,-3.4027348,0.028052205,-0.1053544,-0.4373464,27.6875,28.8125,28.0,31.875,33.9375,34.75
0.16005255,-0.84760064,-0.38182673,-0.38637945,0.011702265,0.028889813,-0.13489012,-0.38712516,-0.34843364,0.06013107,-3.0781965,0.625133,0.00054727925,-0.07749161,0.004185068,0.00052928104,0.007134882,0.0005612887,-0.015602245,0.4723968,-1.416145,1.9456772,-2.098776,-1.5712761,2.4475589,-0.073418856,0.12583865,-0.15244591,0.02934093,-0.0068745175,-0.05771737,-0.1340753,0.1340753,-8.810662,0.82694155,47.716442,-0.91874087,-1.8216887,-3.4039018,0.03671618,-0.09468503,-0.45409733,27.6875,28.8125,28.0,31.875,33.9375,34.75
0.16205177,-0.33619767,-0.022038734,-0.43339315,0.00553958,0.035326507,-0.14317591,-0.38727492,-0.34842187,0.060126517,-3.078191,0.62515014,0.0005431818,-0.07813352,0.005117826,-0.00044404063,0.009232538,-0.0017394058,-0.015796129,0.47224024,-1.4159038,1.945402,-2.098739,-1.5712765,2.447414,-0.075085066,0.12865998,-0.15385696,0.03093473,-0.007696163,-0.05918762,-0.095768064,0.038307227,-8.925584,0.8023209,47.68599,-0.8661337,-1.7491663,-3.3857872,0.042138305,-0.09885508,-0.45776814,27.6875,28.8125,28.0,31.875,33.9375,34.75
0.16405188,-0.8128674,-0.5929698,-0.37865657,0.004342346,0.021198476,-0.13564563,-0.3874441,-0.34843436,0.06015435,-3.0781822,0.6251661,0.000622375,-0.07943014,0.0058443546,-0.00024298436,0.0110364165,-0.0021727576,-0.014067428,0.47213188,-1.4156508,1.9450287,-2.0986545,-1.5713128,2.447317,-0.076602876,0.13045666,-0.15698728,0.033474676,-0.009105156,-0.062430996,-0.11492168,-0.019153614,-8.983045,0.78888994,47.694946,-0.7446358,-1.827135,-3.2904687,0.034867622,-0.07251236,-0.48433608,27.6875,28.8125,28.0,31.875,33.9375,34.75
0.1660518,-1.5033029,-1.0317527,-0.45845118,-0.0010020186,0.016251786,-0.12588596,-0.3875957,-0.34840575,0.0601422,-3.0781322,0.62517244,0.0005566833,-0.08116926,0.005505031,0.0003118244,0.010331065,-0.0020369603,-0.010371248,0.47195137,-1.4153857,1.9447297,-2.0985582,-1.5713247,2.447147,-0.077900335,0.13282976,-0.16136882,0.035033643,-0.008550205,-0.0674228,-0.11492168,0.038307227,-8.925584,0.87393653,47.666286,-0.73916984,-1.868376,-3.3159454,0.03696164,-0.09698424,-0.4557804,27.6875,28.8125,28.0,31.875,33.9375,34.75
0.16805197,-0.98230636,-0.6996026,-0.6164219,-0.013609951,0.039024513,-0.14098975,-0.38773993,-0.34840316,0.06013214,-3.0780883,0.6251815,0.0005342466,-0.08126451,0.005558175,-2.6152546e-05,0.010815265,-0.0028468976,-0.008258312,0.4718312,-1.415109,1.9444183,-2.0984867,-1.5713485,2.4470382,-0.07800431,0.13390613,-0.16197602,0.03550207,-0.008617195,-0.06963898,-0.22984336,0.095768064,-9.11712,0.7978386,47.67345,-0.6750034,-1.8579557,-3.286051,0.024495134,-0.091296,-0.44179168,27.6875,28.8125,28.0,31.875,33.9375,34.75
0.17005181,-0.82819045,-0.47841123,-0.6991183,-0.030442335,0.062100578,-0.15409751,-0.38792017,-0.34838685,0.06013476,-3.0780404,0.6252278,0.0005498107,-0.08260174,0.0067322385,-0.0016892764,0.012990342,-0.0063410294,-0.0060652373,0.47166225,-1.4148186,1.9440593,-2.0984023,-1.5713848,2.4469044,-0.08101869,0.13896103,-0.16435158,0.036917068,-0.008972216,-0.07484411,-0.24899697,0.21068975,-9.193734,0.84484416,47.66987,-0.6164806,-2.0432324,-3.3144104,0.03312414,-0.09217508,-0.4101957,27.6875,28.8125,28.0,31.875,33.9375,34.75
0.1720517,-1.3829559,-0.932234,-0.816667,-0.034560863,0.06528992,-0.14690268,-0.38806188,-0.34836254,0.060112916,-3.0779924,0.6252506,0.00043472098,-0.08159544,0.005918381,-0.000977039,0.013453153,-0.0075305346,0.003309637,0.4714832,-1.4145433,1.9437703,-2.098305,-1.5713729,2.4467459,-0.07871104,0.1383144,-0.16610129,0.040576983,-0.008849631,-0.08191078,-0.34476504,0.22984336,-9.232041,0.9030289,47.66987,-0.78911287,-1.6339514,-3.2344432,-0.014078673,-0.09406309,-0.3172268,27.6875,28.8125,28.0,31.875,33.9375,34.75
0.17405166,-1.9436576,-1.4009789,-1.026842,-0.044296667,0.07046216,-0.13999127,-0.3882039,-0.34833336,0.060101725,-3.077934,0.62523764,0.00031451287,-0.0826375,0.0059823883,-0.0006592772,0.013455076,-0.007964202,0.0047273682,0.47130272,-1.4142785,1.9434584,-2.098161,-1.5713724,2.446565,-0.079846,0.13976584,-0.16893066,0.042338118,-0.008667618,-0.08446174,-0.38307226,0.28730422,-9.32781,0.8560339,47.66987,-0.84008217,-1.8569045,-3.2787855,-0.037231714,-0.09208448,-0.3081553,27.6875,28.8125,28.0,31.875,33.9375,34.75
0.17605238,-1.829863,-1.5497895,-1.3650323,-0.053790558,0.081824906,-0.14358193,-0.38838112,-0.34833565,0.0601106,-3.0779424,0.62516165,0.0003905292,-0.08360542,0.007157909,-0.001204756,0.014687261,-0.009808052,0.006515165,0.47116953,-1.4140017,1.9431113,-2.0981243,-1.5714086,2.4463835,-0.0825877,0.1416518,-0.17026618,0.043983232,-0.008927962,-0.08899049,-0.45968673,0.30645782,-9.500193,0.8291774,47.686886,-0.6350188,-1.785862,-3.3972669,-0.052241255,-0.091553345,-0.23697469,27.6875,28.8125,28.0,31.875,33.9375,34.75
0.17805219,-2.1243656,-2.066861,-1.342489,-0.06373343,0.073035754,-0.14234737,-0.38855982,-0.3483039,0.06012129,-3.077902,0.6251492,0.00036644607,-0.08273037,0.005640691,-0.0013840138,0.015523112,-0.011209296,0.012803533,0.47096714,-1.4137367,1.9427518,-2.0979917,-1.5714325,2.4461787,-0.07899981,0.14368081,-0.17268384,0.04599425,-0.009045016,-0.09168936,-0.47884035,0.38307226,-9.653421,0.8672237,47.721813,-0.94565403,-1.8302102,-3.3306293,-0.09159921,-0.10009914,-0.17034534,27.6875,28.8125,28.0,31.875,33.9375,34.75
0.18005218,-2.0375264,-2.4260392,-1.1840934,-0.07453501,0.074401565,-0.1458549,-0.38872185,-0.3483144,0.060111288,-3.0778925,0.6250316,0.0003299881,-0.08342754,0.0058230665,-0.0016851709,0.015780186,-0.012419164,0.012766292,0.47084668,-1.4134116,1.9423813,-2.0979078,-1.5714444,2.4459863,-0.080115326,0.14559977,-0.17449631,0.047078487,-0.0087326905,-0.09276698,-0.45968673,0.47884035,-9.653421,0.8403672,47.694946,-0.9052819,-1.8723128,-3.361338,-0.121991806,-0.0931145,-0.14107518,27.6875,28.8125,28.0,31.875,33.9375,34.75
0.18205231,-1.2965173,-1.9923133,-1.3932701,-0.083299495,0.079858616,-0.14595002,-0.38889214,-0.34828666,0.06010232,-3.0778463,0.62504065,0.00033405333,-0.08383739,0.0054454515,-0.0014490545,0.016311357,-0.0118026035,0.01326285,0.47066706,-1.4131348,1.9420694,-2.0978477,-1.5714806,2.4458184,-0.07928767,0.14653318,-0.17626691,0.04760527,-0.009493781,-0.09243341,-0.2681506,0.45968673,-9.595961,0.90527004,47.677036,-0.96843034,-1.8095336,-3.3729596,-0.14231536,-0.08354458,-0.118242934,27.6875,28.8125,28.0,31.875,33.9375,34.75
0.1840558,-1.414208,-2.2029989,-1.6194093,-0.06304562,0.061496425,-0.14217456,-0.3890588,-0.3482856,0.060094927,-3.077804,0.62501454,0.0002715674,-0.08487494,0.0057474994,-0.0014202521,0.016885595,-0.012082732,0.0095724,0.47052252,-1.4128101,1.9416851,-2.097728,-1.571493,2.4456632,-0.08046347,0.14816417,-0.1785105,0.048729084,-0.009887861,-0.08991638,-0.19153613,0.4213795,-9.672575,0.7933669,47.71286,-0.9744154,-1.7235339,-3.3346286,-0.16737677,-0.08446671,-0.12325135,27.6875,28.8125,28.0,31.875,33.9375,34.75
0.18605185,-0.87204397,-1.7136221,-1.5671724,-0.062151194,0.050404165,-0.14216572,-0.38926557,-0.34826237,0.060090154,-3.0777986,0.6250723,0.00028048365,-0.0845033,0.0056077805,-0.0023381698,0.01730944,-0.014545884,0.00574538,0.4702946,-1.4124967,1.9413265,-2.0976913,-1.5714926,2.4454722,-0.08030137,0.1501876,-0.17898117,0.04956281,-0.00915024,-0.08592845,-0.095768064,0.36391866,-9.653421,0.81351066,47.687782,-1.0688918,-1.9163654,-3.4473495,-0.1949755,-0.075632796,-0.13496694,27.6875,28.8125,28.0,31.875,33.9375,34.75
0.18805179,-0.55865747,-1.4774629,-1.4655416,-0.04961482,0.027719818,-0.14365827,-0.38945383,-0.34825477,0.06011904,-3.0777705,0.6250491,0.00036786127,-0.08657197,0.00531345,-0.0027479692,0.017255642,-0.014589144,0.0014823336,0.4701502,-1.4122312,1.9409302,-2.097584,-1.5715531,2.4453173,-0.08164319,0.1546381,-0.18315046,0.049291845,-0.009092035,-0.083004884,0.038307227,0.34476504,-9.634268,0.8247004,47.68062,-1.0175617,-1.9766355,-3.416224,-0.20869395,-0.098827034,-0.17907101,27.6875,28.8125,28.0,31.875,33.9375,34.75
0.19005169,0.1291421,-1.2441804,-1.4674598,-0.044515412,0.026671186,-0.1405159,-0.38960332,-0.3482403,0.060069706,-3.0777125,0.625002,0.00020439726,-0.087326385,0.005994753,-0.003341597,0.018647185,-0.015282735,-0.004326196,0.4699818,-1.4118704,1.9406079,-2.0975,-1.5715407,2.445127,-0.08287994,0.15654665,-0.18411908,0.04960768,-0.010031117,-0.07842948,0.13407528,0.24899697,-9.672575,0.8314132,47.681515,-0.98146594,-1.9848174,-3.5023637,-0.2348794,-0.10075135,-0.21406707,27.6875,28.8125,28.0,31.875,33.9375,34.75
0.19205254,-0.21816033,-1.5211473,-1.388395,-0.025930392,0.0067493003,-0.13536224,-0.38979724,-0.34824458,0.06009336,-3.0777094,0.62498254,0.00028008223,-0.08725517,0.005985078,-0.0045074318,0.01914922,-0.017589299,-0.006761632,0.46983784,-1.411581,1.9402012,-2.0974162,-1.571577,2.4449716,-0.08313627,0.15915179,-0.18452325,0.049686342,-0.009434592,-0.076251395,0.15322891,0.24899697,-9.519346,0.8403672,47.687782,-0.9862405,-2.087883,-3.5135863,-0.25512555,-0.078252465,-0.262694,27.6875,28.8125,28.0,31.875,33.9375,34.75
0.19405167,0.017696317,-0.90595895,-1.3587008,-0.039743584,0.0071735107,-0.14401817,-0.38995108,-0.34824523,0.060078923,-3.077671,0.6249549,0.00016321563,-0.08903969,0.0068205935,-0.0045548123,0.019275762,-0.017449405,-0.006417836,0.46969265,-1.4112563,1.9398297,-2.0972846,-1.571565,2.4448142,-0.08604996,0.16095869,-0.18658979,0.04987579,-0.009626796,-0.079506546,0.22984336,0.28730422,-9.500193,0.75084364,47.687782,-0.9532229,-2.0971212,-3.600566,-0.26787537,-0.070889145,-0.2673638,27.6875,28.8125,28.0,31.875,33.9375,34.75
0.1960527,-0.25397027,-1.3860816,-1.316558,-0.033116486,0.0056248354,-0.13318154,-0.3901408,-0.348243,0.06008742,-3.0776684,0.624955,0.00018622611,-0.08859293,0.0057878755,-0.004644502,0.019251643,-0.01781882,-0.0068316627,0.46952558,-1.4109553,1.9394468,-2.0972126,-1.571577,2.4446478,-0.083899565,0.1620361,-0.18776928,0.05029569,-0.009441468,-0.076942235,0.17238252,0.21068975,-9.442732,0.92093146,47.690468,-1.0291524,-2.1238208,-3.6250887,-0.28613213,-0.08715552,-0.27731717,27.6875,28.8125,28.0,31.875,33.9375,34.75
0.19805191,-0.14025627,-1.0372424,-1.031453,-0.038868718,0.016169982,-0.1471727,-0.39035437,-0.34822795,0.06009881,-3.077623,0.62498343,0.00025790284,-0.090743184,0.0050802263,-0.0046222243,0.017986082,-0.01724564,-0.008162144,0.46934512,-1.4106294,1.9390258,-2.097129,-1.5716366,2.4444911,-0.08508259,0.16590755,-0.19222218,0.049784373,-0.008586277,-0.07679395,0.114921674,0.17238252,-9.251195,0.8247004,47.688675,-1.1428053,-2.2178369,-3.5156343,-0.3050531,-0.09439445,-0.31348407,27.6875,28.8125,28.0,31.875,33.9375,34.75
0.20005207,-0.6372118,-0.8457256,-0.8541226,-0.043003045,0.016509423,-0.13867524,-0.39052343,-0.34820256,0.060073726,-3.0775456,0.62504643,0.00019252856,-0.09397232,0.0051979893,-0.0030893283,0.016295463,-0.013209808,-0.010470854,0.4691639,-1.4103054,1.9386901,-2.0970457,-1.5716609,2.4443593,-0.08792539,0.1667519,-0.19654283,0.04889388,-0.008924649,-0.07732448,0.15322891,0.17238252,-9.270349,0.93436235,47.73614,-0.8866643,-2.0332034,-3.3730795,-0.3021622,-0.10596134,-0.3271103,27.6875,28.8125,28.0,31.875,33.9375,34.75
0.20205209,-0.39260325,-0.8246532,-0.785868,-0.036882207,0.029268166,-0.14660373,-0.3907009,-0.3482002,0.060090274,-3.0775537,0.6250651,0.00015349743,-0.094692156,0.0037639076,-0.0018382324,0.015029852,-0.009668835,-0.0085852165,0.468985,-1.4100292,1.9383062,-2.096926,-1.571637,2.4441912,-0.08568579,0.16646384,-0.19885051,0.047761425,-0.009407906,-0.07696823,0.1340753,0.19153613,-9.346964,0.78888994,47.71823,-1.1572511,-1.973979,-3.2552738,-0.31155533,-0.08637168,-0.35684028,27.6875,28.8125,28.0,31.875,33.9375,34.75
0.20405206,-0.98346007,-1.7654,-1.0145441,-0.02959926,0.023666503,-0.13148955,-0.39087176,-0.3481788,0.060062036,-3.077464,0.6250269,5.1824987e-05,-0.09606696,0.0038929305,-0.0019047569,0.01432481,-0.009134731,-0.009112379,0.46881643,-1.409668,1.9379238,-2.0967948,-1.5716723,2.4440105,-0.08733597,0.16814366,-0.20050812,0.04693745,-0.009037707,-0.07808999,-0.038307227,0.2873042,-9.251195,0.8314132,47.68062,-1.1579432,-2.09942,-3.3486147,-0.2970116,-0.095514014,-0.37803268,27.6875,28.8125,28.0,31.875,33.9375,34.75
0.20605205,-1.3192165,-1.9576064,-1.0880785,-0.049146235,0.0357753,-0.13516991,-0.39107743,-0.3481993,0.060081348,-3.0774727,0.6251048,6.6954315e-05,-0.09775254,0.003227352,-0.001107932,0.0127071915,-0.0064068553,-0.0072460333,0.4686602,-1.4093314,1.9374694,-2.0966995,-1.5716604,2.443902,-0.08774856,0.1690994,-0.20314682,0.04545256,-0.008838089,-0.08036805,-0.05746084,0.36391866,-9.32781,0.8224646,47.67614,-1.1940708,-1.9925997,-3.3166897,-0.3000698,-0.1127789,-0.368052,27.6875,28.8125,28.0,31.875,33.9375,34.75
0.20805211,-1.3379259,-2.2631705,-1.0317919,-0.0729907,0.054328274,-0.1423048,-0.3912373,-0.34819254,0.060050603,-3.0774095,0.6249726,-1.7153097e-05,-0.09836446,0.0032173311,-0.00092329865,0.012716116,-0.0052259206,-0.0040364075,0.46852836,-1.4089711,1.9370989,-2.0965927,-1.5716971,2.443696,-0.0878796,0.16940522,-0.20382288,0.044767633,-0.009394545,-0.08370622,-0.15322891,0.4213795,-9.308657,0.7911258,47.699425,-1.2617428,-1.8982844,-3.332308,-0.28385788,-0.11613019,-0.374079,27.6875,28.8125,28.0,31.875,33.9375,34.75
0.21005192,-1.8399191,-2.4585114,-1.056803,-0.08920518,0.0705526,-0.13782866,-0.3914573,-0.34816182,0.06006383,-3.0773842,0.62502354,4.2271524e-05,-0.098745346,0.0034570887,-0.0023849243,0.013926079,-0.0077166646,-0.00016808615,0.46829996,-1.4086695,1.9367036,-2.0965197,-1.5717329,2.443503,-0.08860371,0.17316297,-0.20489514,0.0448407,-0.0093566235,-0.08829796,-0.3256114,0.51714754,-9.308657,0.800085,47.67614,-1.2627956,-1.8580917,-3.3004575,-0.28769597,-0.088302016,-0.32984424,27.6875,28.8125,28.0,31.875,33.9375,34.75
0.21205208,-1.9414506,-2.2649627,-1.1570767,-0.09273905,0.0874677,-0.13362934,-0.3916691,-0.34817407,0.060075257,-3.0773933,0.6249836,4.1614247e-05,-0.100981936,0.0028685958,-0.00030635443,0.0105557265,-0.0018149819,0.0035542948,0.46813172,-1.4083098,1.9362377,-2.0964139,-1.5717329,2.4433088,-0.08971889,0.17117803,-0.2067257,0.041860744,-0.009028935,-0.09313539,-0.4405331,0.40222588,-9.385271,0.8672237,47.68599,-1.237337,-1.8363602,-3.4529545,-0.29642388,-0.13146941,-0.2791524,27.6875,28.8125,28.0,31.875,33.9375,34.75
0.21405208,-2.0449038,-2.2861323,-1.0504878,-0.08097988,0.096932955,-0.13905935,-0.39185125,-0.34817377,0.060051486,-3.077353,0.62495273,-2.2201297e-05,-0.102762625,0.002250065,-0.0002341518,0.0090870345,0.0002679967,0.008207904,0.46797535,-1.4079369,1.9358419,-2.096331,-1.5717443,2.4431386,-0.090395615,0.17348084,-0.20904434,0.03934551,-0.008679964,-0.09846429,-0.3256114,0.36391866,-9.385271,0.8224646,47.66987,-1.1783727,-1.9082246,-3.4313083,-0.24501601,-0.1305327,-0.23641771,27.6875,28.8125,28.0,31.875,33.9375,34.75
0.21605211,-2.4121108,-2.12988,-0.9620854,-0.066600524,0.08897533,-0.1376591,-0.39208186,-0.3481953,0.060065627,-3.0774152,0.62486935,6.330132e-05,-0.10477251,0.001945861,2.069574e-05,0.007953599,0.0023179692,0.00995749,0.46780688,-1.4075758,1.9353865,-2.096307,-1.5717443,2.4429104,-0.09164514,0.17563169,-0.21177186,0.037576444,-0.00859891,-0.101462424,-0.53630114,0.28730422,-9.346964,0.8784135,47.66987,-1.204499,-1.8020127,-3.305468,-0.2247774,-0.13098806,-0.16062659,27.6875,28.8125,28.0,31.875,33.9375,34.75
0.2180519,-2.0691843,-1.4572064,-1.1050968,-0.041482188,0.09186631,-0.13387367,-0.3922943,-0.34816194,0.060047563,-3.0773582,0.6249531,1.34129305e-05,-0.10669626,0.0027029212,0.00045205868,0.0070603276,0.0038654108,0.009775009,0.46756592,-1.407215,1.9349912,-2.0962236,-1.5717562,2.4427292,-0.094678596,0.17615949,-0.21323262,0.03671883,-0.008511974,-0.10431243,-0.63206923,0.28730422,-9.346964,0.92093146,47.713753,-1.2268515,-1.7689354,-3.372064,-0.18610975,-0.15155445,-0.13937087,27.6875,28.8125,28.0,31.875,33.9375,34.75
0.2200519,-2.3109834,-0.6418014,-0.91179264,-0.02649998,0.0792761,-0.13979056,-0.3925107,-0.3481728,0.060060006,-3.077361,0.62481713,8.479983e-05,-0.10637409,0.0021425688,-0.00026205037,0.008058793,0.0021699965,0.011599919,0.4674224,-1.4068538,1.9345258,-2.0961401,-1.5718044,2.4425008,-0.093268014,0.17853244,-0.21463227,0.037702866,-0.008638326,-0.10472591,-0.63206923,0.24899697,-9.32781,0.9030289,47.689575,-1.2216763,-1.7898442,-3.4962769,-0.17167565,-0.1597681,-0.086980134,27.6875,28.8125,28.0,31.875,33.9375,34.75
0.22205181,-1.5159903,-0.58812684,-1.0071489,-0.010663746,0.09134066,-0.14148928,-0.3927339,-0.34816912,0.06006105,-3.077405,0.62480855,7.378869e-05,-0.10792496,0.0026270684,-0.001189977,0.008848578,0.0012508298,0.008214225,0.46719378,-1.4065038,1.9341072,-2.096092,-1.5717686,2.4422615,-0.095243,0.18235466,-0.21691965,0.03734901,-0.008932395,-0.1033131,-0.57460845,0.095768064,-9.385271,0.88960326,47.682407,-1.3061308,-2.0741851,-3.5097861,-0.15024568,-0.13834077,-0.0836587,27.6875,28.8125,28.0,31.875,33.9375,34.75
0.22405191,-2.1181853,-0.58003414,-0.9154039,-0.011484615,0.07746225,-0.13380332,-0.39292657,-0.34815505,0.060036883,-3.0773497,0.6248005,2.2131846e-05,-0.11040396,0.0029154515,-0.0011497653,0.008295471,0.0030314233,0.0029955283,0.46701267,-1.4061307,1.9337114,-2.096009,-1.571793,2.4420826,-0.097693205,0.18505141,-0.2198312,0.035725255,-0.009254558,-0.10054143,-0.6703765,-0.019153614,-9.385271,0.8672237,47.68062,-1.024717,-2.011312,-3.4286385,-0.09156828,-0.16262642,-0.08918606,27.6875,28.8125,28.0,31.875,33.9375,34.75
0.22605214,-1.7042483,-0.46786717,-0.9848137,-0.014894485,0.08663313,-0.1350386,-0.39317712,-0.34817356,0.060052104,-3.0773797,0.6247304,0.00014090519,-0.11098457,0.00305659,-0.00087826006,0.0084592635,0.0027233725,-0.000960863,0.46684462,-1.4057344,1.9332093,-2.0959723,-1.5718287,2.4418674,-0.098386765,0.18569362,-0.22159682,0.037196375,-0.009253163,-0.09727871,-0.68953013,0.038307227,-9.385271,0.79560274,47.660015,-1.1703105,-1.9628651,-3.4582896,-0.065021396,-0.16474706,-0.119923085,27.6875,28.8125,28.0,31.875,33.9375,34.75
0.22805223,-1.1434691,-0.28725666,-0.8958232,-0.011463427,0.08823213,-0.14194828,-0.39336795,-0.3481653,0.06002929,-3.0773234,0.62468386,7.073209e-05,-0.11338604,0.0043467563,-0.0006023862,0.009575707,0.00214061,-0.008301983,0.46667522,-1.4053491,1.9327902,-2.0958636,-1.5718526,2.4416764,-0.10225522,0.18820673,-0.22582859,0.039940964,-0.009995275,-0.093801826,-0.63206923,-0.05746084,-9.346964,0.8806493,47.651955,-0.9509055,-2.0331922,-3.4117107,-0.07434374,-0.15762666,-0.1655212,27.6875,28.8125,28.0,31.875,33.9375,34.75
0.23005259,-1.3313668,-0.021755246,-0.87789017,0.0020254205,0.06493704,-0.13583438,-0.39359996,-0.348141,0.060000114,-3.0772846,0.62485135,-1.4283295e-06,-0.11434168,0.0046276823,-0.0011800998,0.010202316,0.000765667,-0.012910691,0.46641082,-1.40494,1.9323715,-2.0958154,-1.5718287,2.4415216,-0.10355044,0.19101976,-0.22805631,0.040869046,-0.009940551,-0.09048692,-0.4405331,-0.15322891,-9.308656,0.8985519,47.652847,-0.8958796,-2.1323142,-3.480976,-0.059942298,-0.18676737,-0.21296741,27.6875,28.8125,28.0,31.875,33.9375,34.75
0.23205252,-1.2182938,-0.2235369,-0.8599058,0.0054414957,0.057080712,-0.13825046,-0.393882,-0.34813,0.060050394,-3.0772693,0.6249258,0.00020961302,-0.11466104,0.0055061276,-0.0018225049,0.011280855,-0.00075867795,-0.016948521,0.46619442,-1.404591,1.9318331,-2.0957315,-1.5719131,2.441354,-0.10511908,0.19221792,-0.22822435,0.04167991,-0.010206567,-0.088018164,-0.45968673,-0.15322891,-9.3661175,0.79560274,47.698532,-0.8634399,-2.110332,-3.4347188,-0.049490906,-0.16639748,-0.2589888,27.6875,28.8125,28.0,31.875,33.9375,34.75
0.23405235,-1.1915072,-0.5391085,-0.96281546,0.001138229,0.059982754,-0.13606264,-0.39406645,-0.3481389,0.060037643,-3.0772374,0.62494004,0.00012021871,-0.115444854,0.0053629363,-0.0018326361,0.012444468,-0.0008235679,-0.0185594,0.4660384,-1.4042174,1.9314016,-2.0956113,-1.5719012,2.4412112,-0.104855135,0.19430025,-0.23096612,0.042925857,-0.011224733,-0.08613905,-0.45968673,-0.019153614,-9.32781,0.947788,47.647476,-0.8884053,-2.2572393,-3.5051134,-0.045243632,-0.14341575,-0.30247793,27.6875,28.8125,28.0,31.875,33.9375,34.75
0.23605227,-1.4440945,-0.67559296,-1.0984596,0.0027348395,0.060059562,-0.12909071,-0.39431208,-0.34812227,0.06001345,-3.0771937,0.6249872,8.026109e-05,-0.11564607,0.005085167,-0.0017503715,0.011875605,-0.0022175398,-0.017344767,0.46579832,-1.4037727,1.9309243,-2.0955384,-1.5719126,2.4410064,-0.105181634,0.19533221,-0.23285004,0.044758216,-0.010096687,-0.08768189,-0.49799395,-0.076614454,-9.385271,0.9455522,47.658226,-0.9293076,-2.20497,-3.512706,-0.03152477,-0.18506037,-0.3199637,27.6875,28.8125,28.0,31.875,33.9375,34.75
0.23805232,-1.6829754,-0.80667055,-0.95497376,-0.013302291,0.06588731,-0.13608065,-0.3945412,-0.34809884,0.060015097,-3.07716,0.6250203,8.784839e-05,-0.11734794,0.005685021,-0.0013994777,0.01248892,-0.0019383223,-0.022473603,0.46556967,-1.4034122,1.9304804,-2.0954425,-1.5719374,2.440803,-0.10723235,0.19703217,-0.23603122,0.046267416,-0.010773357,-0.08460066,-0.4405331,0.019153614,-9.385271,0.91421866,47.667187,-0.92443305,-2.1244977,-3.4472628,-0.01574512,-0.17720297,-0.37867105,27.6875,28.8125,28.0,31.875,33.9375,34.75
0.2400521,-1.3584824,-1.0746181,-1.124516,-0.0256617,0.07685365,-0.1344486,-0.39476982,-0.34808576,0.060007893,-3.0771058,0.62506425,8.766218e-05,-0.11699739,0.004567144,-0.0013493081,0.013439259,-0.0026019712,-0.018745858,0.46536672,-1.4030154,1.930014,-2.0953457,-1.5719732,2.4406347,-0.10453262,0.19875193,-0.23864913,0.04818074,-0.011330895,-0.08562601,-0.4405331,0.24899697,-9.423578,0.8493211,47.67166,-1.0334141,-2.117574,-3.4587216,-0.022430193,-0.17983173,-0.43463305,27.6875,28.8125,28.0,31.875,33.9375,34.75
0.24205211,-1.0175928,-1.3658816,-1.1414983,-0.038009014,0.07535192,-0.14317445,-0.3950199,-0.34805998,0.060000062,-3.0770075,0.6251608,8.245964e-05,-0.11794439,0.00539776,-0.0013635516,0.013084467,-0.0038400786,-0.021987611,0.46513787,-1.4025828,1.9294995,-2.0952137,-1.5720328,2.440479,-0.107295066,0.19954415,-0.23994452,0.049621318,-0.010463658,-0.08514799,-0.30645782,0.21068975,-9.461885,0.84708,47.67614,-1.1037855,-2.0549898,-3.3578815,-0.029542878,-0.19101788,-0.4535718,27.6875,28.8125,28.0,31.875,33.9375,34.75
0.24405219,-0.95754796,-1.4552883,-1.3226494,-0.065278664,0.07119596,-0.14218317,-0.39523882,-0.34804976,0.059989724,-3.0769713,0.62520844,6.0848168e-05,-0.117774405,0.0052065062,-0.0011484409,0.013587139,-0.0040440834,-0.018516453,0.4649342,-1.4021984,1.9290575,-2.0951293,-1.5720457,2.44031,-0.10650277,0.19959149,-0.24084672,0.050878443,-0.010827553,-0.0878256,-0.22984336,0.2681506,-9.461885,0.8784135,47.71017,-1.0354209,-2.0751283,-3.484982,-0.028471485,-0.18986553,-0.48820508,27.6875,28.8125,28.0,31.875,33.9375,34.75
0.24605195,-0.7425044,-2.0024035,-1.2968001,-0.06994477,0.06304428,-0.13606066,-0.39546922,-0.34804937,0.059980195,-3.07695,0.62520176,1.36454155e-05,-0.11930455,0.005431474,-0.0004622069,0.014271263,-0.0034755538,-0.014634571,0.4647296,-1.4017775,1.9285654,-2.095021,-1.5720457,2.4401042,-0.1076113,0.20102915,-0.24465036,0.05303701,-0.01170787,-0.092811905,-0.038307227,0.34476504,-9.461885,0.85155696,47.675243,-1.0428547,-2.0012507,-3.427797,-0.044137806,-0.16753216,-0.47692025,27.6875,28.8125,28.0,31.875,33.9375,34.75
0.24805191,-1.2238921,-2.3121285,-1.2756763,-0.052014675,0.03425645,-0.12976769,-0.39573383,-0.3480333,0.05999999,-3.076918,0.62521,0.0001343238,-0.11907948,0.006510543,-0.001865556,0.017233131,-0.007765433,-0.009684788,0.4645133,-1.4013919,1.9280528,-2.0949361,-1.5721177,2.4398975,-0.10875623,0.20396988,-0.24567036,0.056263182,-0.012433326,-0.09890501,-0.05746084,0.34476504,-9.385271,0.8247004,47.64658,-0.99400985,-2.052866,-3.4109187,-0.08245881,-0.18731487,-0.4479799,27.6875,28.8125,28.0,31.875,33.9375,34.75
0.25005206,-0.8293657,-1.8631552,-1.4382744,-0.02580714,0.031465203,-0.13694668,-0.3959563,-0.34801736,0.059985474,-3.076847,0.62525064,4.085559e-05,-0.12094531,0.0062091704,-0.000970855,0.0154989725,-0.005328162,-0.0049037877,0.46429667,-1.4009713,1.9275616,-2.0947812,-1.5721301,2.4397156,-0.11007128,0.20465441,-0.24837191,0.05531006,-0.012000644,-0.10499986,-0.038307227,0.3256114,-9.3661175,0.82022345,47.658226,-0.9817227,-2.013311,-3.4547157,-0.043213755,-0.16045225,-0.39978904,27.6875,28.8125,28.0,31.875,33.9375,34.75
0.25205195,-0.10970093,-0.7599717,-1.3972297,-0.029781274,0.034894533,-0.14822155,-0.39623868,-0.34799802,0.05999686,-3.0768561,0.62530583,0.00010652646,-0.12108165,0.0057907547,-0.00052656606,0.014935379,-0.0068666134,0.0019705044,0.46402085,-1.4005629,1.9270467,-2.0947201,-1.5721415,2.4394734,-0.11011318,0.2054044,-0.25101742,0.058310207,-0.010812842,-0.11191895,0.076614454,0.36391866,-9.519346,0.92093146,47.690468,-0.9757063,-1.9132898,-3.5041294,-0.068650305,-0.17932129,-0.33638626,27.6875,28.8125,28.0,31.875,33.9375,34.75
0.25405174,0.5050234,-1.1271617,-1.379868,-0.031570047,0.04805535,-0.14798771,-0.3964627,-0.34796584,0.05995601,-3.076751,0.625242,2.381445e-05,-0.11965532,0.0068823914,-0.0024244387,0.018487977,-0.0139063215,0.006899844,0.4638047,-1.4001055,1.9265798,-2.094598,-1.5722011,2.4392312,-0.11066631,0.20836364,-0.25142527,0.06362695,-0.0108513925,-0.117400445,0.15322891,0.3256114,-9.595961,0.8291774,47.66271,-1.0169481,-1.9013095,-3.4488091,-0.116328895,-0.17814031,-0.2685821,27.6875,28.8125,28.0,31.875,33.9375,34.75
0.25605184,-0.51364714,-1.296648,-1.3197504,-0.04411476,0.017263686,-0.1324425,-0.39668646,-0.34793684,0.05992849,-3.0766864,0.62524706,-7.21043e-05,-0.11996737,0.0068840208,-0.0024558175,0.018953409,-0.015339104,0.008887525,0.46356457,-1.3996845,1.9261254,-2.0944784,-1.5722135,2.4390028,-0.11099374,0.20977224,-0.2535807,0.06585524,-0.010644646,-0.11971451,0.11492168,0.3256114,-9.385271,0.88289046,47.68599,-1.0366161,-2.015007,-3.563195,-0.16569072,-0.19222301,-0.20308423,27.6875,28.8125,28.0,31.875,33.9375,34.75
0.2580517,0.07661095,-1.7509558,-1.4126223,-0.046631712,0.02296055,-0.13627361,-0.39695394,-0.3479485,0.059959527,-3.076695,0.6252078,1.6942273e-05,-0.12169425,0.0069113527,-0.0021475188,0.018785551,-0.014658616,0.010407342,0.46337214,-1.3992753,1.9255508,-2.0943582,-1.5722493,2.438785,-0.11237136,0.21190915,-0.25698125,0.06642501,-0.010807159,-0.12261038,0.11492168,0.28730422,-9.3661175,0.9365982,47.728977,-1.1590798,-2.068839,-3.5708072,-0.18529671,-0.18095423,-0.15138534,27.6875,28.8125,28.0,31.875,33.9375,34.75
0.26005295,-0.053804036,-1.7963554,-1.2713631,-0.04931524,0.010059609,-0.13387254,-0.39717913,-0.34792146,0.059938006,-3.0766096,0.6251338,-6.0168517e-05,-0.12187359,0.005684717,-0.0013655019,0.01954055,-0.014451804,0.008890717,0.46315718,-1.3988425,1.9250602,-2.0942013,-1.5722975,2.4385352,-0.109810226,0.21329394,-0.26112083,0.06933362,-0.011588603,-0.1185279,0.11492168,0.30645782,-9.385271,0.87393653,47.71823,-1.1645589,-2.070001,-3.4768548,-0.21924117,-0.19143595,-0.1737012,27.6875,28.8125,28.0,31.875,33.9375,34.75
0.26205182,0.38631284,-1.3212243,-1.1689931,-0.05262987,0.010789916,-0.13665938,-0.39739427,-0.34792528,0.059916105,-3.0765903,0.6250764,-0.00021615821,-0.12462251,0.006628156,-0.0012441191,0.018560858,-0.014550668,0.00059304334,0.46295163,-1.3983973,1.9245561,-2.0940459,-1.5722612,2.4382966,-0.114368744,0.21603346,-0.26482007,0.06994909,-0.010685081,-0.114788435,0.17238252,0.2681506,-9.385271,0.8940802,47.677036,-1.1859646,-2.047388,-3.4631896,-0.26072717,-0.19041367,-0.1913371,27.6875,28.8125,28.0,31.875,33.9375,34.75
0.26405174,0.018752702,-1.6201667,-1.098471,-0.038364913,0.01007727,-0.13343628,-0.39766634,-0.34790325,0.05992659,-3.076535,0.6250673,-0.00017892903,-0.124684066,0.005811937,-0.0013352653,0.01858354,-0.014489596,-0.00365341,0.46271217,-1.3979645,1.9239949,-2.0939019,-1.5723213,2.4380589,-0.1128703,0.21747577,-0.2664014,0.07004412,-0.010734475,-0.10904249,0.05746084,0.34476504,-9.308656,0.8627467,47.661808,-1.2169213,-2.0711923,-3.3736115,-0.26918125,-0.18917392,-0.24872872,27.6875,28.8125,28.0,31.875,33.9375,34.75
0.2660526,-0.37451458,-1.5250658,-1.3231841,-0.030259278,0.011703933,-0.13354516,-0.39791656,-0.34787995,0.059920315,-3.0764694,0.6251517,-0.00024525658,-0.12684217,0.0056398297,-0.0011831828,0.018298892,-0.01301271,-0.007091625,0.4624596,-1.3975309,1.9234685,-2.093747,-1.5723337,2.4378676,-0.11410155,0.22044781,-0.27015004,0.06937338,-0.011157193,-0.10683156,0.019153614,0.30645782,-9.270349,0.9365982,47.65912,-1.1741539,-2.174634,-3.3306868,-0.29722095,-0.1990546,-0.29538476,27.6875,28.8125,28.0,31.875,33.9375,34.75
0.26805267,-0.21278258,-1.1747248,-1.3208089,-0.05007199,0.033902634,-0.13939823,-0.39813894,-0.3478905,0.059901576,-3.07646,0.62511146,-0.00034643864,-0.12950738,0.004757171,0.00044215037,0.015388165,-0.009553367,-0.008764079,0.4622672,-1.3970859,1.9229649,-2.0936272,-1.5723089,2.4376516,-0.11547257,0.221478,-0.27502912,0.06882527,-0.010116536,-0.106530406,-0.019153614,0.24899697,-9.385271,0.85826975,47.64479,-1.1281981,-2.1200337,-3.337603,-0.3157563,-0.22419652,-0.3245136,27.6875,28.8125,28.0,31.875,33.9375,34.75
0.2700526,-0.77137464,-1.3307763,-1.3076085,-0.061142944,0.0461916,-0.13351645,-0.39839858,-0.3478771,0.059890714,-3.0763886,0.62509704,-0.00040442703,-0.1302511,0.005169248,0.00012696609,0.015217582,-0.0093385205,-0.009908565,0.46203882,-1.3966051,1.9223908,-2.0934603,-1.5723447,2.4374237,-0.11677529,0.22238258,-0.27524725,0.06786414,-0.010073981,-0.10668789,-0.21068975,0.3256114,-9.442732,0.89631605,47.678825,-1.1184762,-2.1602192,-3.2679534,-0.32290626,-0.22058412,-0.33778027,27.6875,28.8125,28.0,31.875,33.9375,34.75
0.27205265,-1.8390459,-2.2533822,-1.4927584,-0.068926305,0.05691862,-0.12758084,-0.39866215,-0.34784743,0.05989847,-3.0763319,0.625143,-0.0003783639,-0.13038602,0.005311825,-0.0008359119,0.015649727,-0.009918142,-0.0106134815,0.46178672,-1.3961964,1.9218663,-2.0933292,-1.5723928,2.437208,-0.116957866,0.22408336,-0.27479246,0.06641399,-0.010209614,-0.106164895,-0.3256114,0.38307226,-9.595961,0.9186956,47.677036,-1.1156356,-2.1279953,-3.4227166,-0.31795344,-0.22527887,-0.35243773,27.6875,28.8125,28.0,31.875,33.9375,34.75
0.27405167,-2.2853205,-2.5635128,-1.3996532,-0.091459855,0.09147381,-0.1210245,-0.398885,-0.34786466,0.0598765,-3.0762992,0.6250964,-0.0005251082,-0.13086769,0.0054347357,-0.0013983814,0.01530964,-0.009834327,-0.009975744,0.46160656,-1.3957149,1.921316,-2.0931618,-1.572369,2.4370031,-0.11766871,0.22525524,-0.27462474,0.064845555,-0.009961499,-0.10751318,-0.45968673,0.36391866,-9.634268,0.83365434,47.66808,-1.1498176,-2.1542034,-3.5749764,-0.3229184,-0.24508606,-0.3917864,27.6875,28.8125,28.0,31.875,33.9375,34.75
0.27605164,-2.4249833,-2.4936366,-1.4920434,-0.08980835,0.10870157,-0.14166054,-0.39916113,-0.34786057,0.0598917,-3.0762935,0.62507653,-0.00051611685,-0.13268775,0.0056350795,-9.931612e-05,0.013737078,-0.00552396,-0.0093243355,0.46136588,-1.3952714,1.920731,-2.0930192,-1.5723814,2.4367511,-0.119170286,0.2238873,-0.27557203,0.06259578,-0.0104871895,-0.109664164,-0.47884035,0.30645782,-9.576807,0.8672237,47.66987,-0.98324144,-1.9987185,-3.6696448,-0.29807407,-0.24884072,-0.3824243,27.6875,28.8125,28.0,31.875,33.9375,34.75
0.2780526,-2.075735,-1.6331818,-1.5119891,-0.07115361,0.1225764,-0.14364968,-0.3994214,-0.34783518,0.05985818,-3.0762317,0.62515503,-0.00057962874,-0.13597892,0.0049156314,0.0018392103,0.010830463,0.00096993294,-0.004670803,0.4611017,-1.3947911,1.9202274,-2.0929368,-1.5723933,2.4365442,-0.12047788,0.2240304,-0.27951062,0.059269354,-0.01081007,-0.11562166,-0.6703765,0.30645782,-9.691729,0.8605109,47.689575,-1.1737524,-1.8250802,-3.7566395,-0.266118,-0.23217523,-0.3457082,27.6875,28.8125,28.0,31.875,33.9375,34.75
0.2800518,-2.6074042,-1.2007828,-1.444391,-0.040350515,0.1123059,-0.13547459,-0.39969733,-0.34784967,0.059876192,-3.0762572,0.62513894,-0.0005405662,-0.13756412,0.0037431847,0.0026524612,0.007950049,0.0044441177,0.00067248364,0.46088582,-1.3943462,1.9196419,-2.0928295,-1.5723928,2.4363153,-0.12035451,0.224703,-0.28156054,0.05623918,-0.009793154,-0.12084407,-0.68953013,0.15322891,-9.691729,0.87617236,47.677036,-1.1043893,-1.8367143,-3.6716838,-0.23418862,-0.26547182,-0.28620905,27.6875,28.8125,28.0,31.875,33.9375,34.75
0.28205165,-2.2543428,-0.21373859,-1.4947942,-0.022020606,0.104127005,-0.14302476,-0.39997992,-0.34783298,0.059877936,-3.076234,0.62511134,-0.0005083568,-0.1395591,0.0036269994,0.0023244221,0.007659483,0.0061648856,0.0056877765,0.4606332,-1.3938892,1.9190792,-2.0927231,-1.5724291,2.4360487,-0.12144838,0.22781043,-0.2840134,0.05389861,-0.010319467,-0.12694989,-0.7086837,0.05746084,-9.710882,0.8672237,47.67793,-1.1445508,-1.8887708,-3.6456091,-0.1747697,-0.29950875,-0.21680237,27.6875,28.8125,28.0,31.875,33.9375,34.75
0.2840526,-2.271469,-0.23266354,-1.6386766,-0.005611017,0.097395994,-0.13864703,-0.40029177,-0.34783474,0.059911117,-3.0762634,0.62523,-0.0004370245,-0.14062272,0.003457454,0.0018552869,0.007406302,0.0064176717,0.011250489,0.46035707,-1.3934437,1.9184579,-2.0926158,-1.5724171,2.4358432,-0.12202298,0.23026678,-0.28564534,0.05272311,-0.0102125285,-0.13308722,-0.7661445,0.076614454,-9.768343,0.91198283,47.684196,-1.2178843,-1.9191223,-3.6428423,-0.13380584,-0.277458,-0.13485079,27.6875,28.8125,28.0,31.875,33.9375,34.75
0.28605267,-2.1866357,-0.71464056,-1.7108257,-0.019274032,0.10882096,-0.13526587,-0.40052256,-0.34778622,0.059854027,-3.0761366,0.62508744,-0.0005642019,-0.14277187,0.002812497,0.0019617458,0.007330536,0.0075134984,0.01269344,0.46011707,-1.3929496,1.9179772,-2.0924718,-1.5724891,2.435531,-0.122388706,0.23421888,-0.29062304,0.052719805,-0.010665851,-0.13489029,-0.78529817,0.05746084,-9.710882,0.85826975,47.682407,-1.2494919,-1.9999441,-3.5781126,-0.09961698,-0.31284887,-0.09048237,27.6875,28.8125,28.0,31.875,33.9375,34.75
0.28805166,-1.5988932,-0.9855969,-1.699887,-0.024412917,0.11226709,-0.14063537,-0.40084887,-0.34779525,0.05988505,-3.076181,0.62509733,-0.0004132905,-0.14440094,0.003336123,0.0013615134,0.0094289975,0.00635555,0.009661394,0.4598647,-1.3924801,1.917343,-2.0924113,-1.5725139,2.4352794,-0.123739034,0.238383,-0.294643,0.054547064,-0.012019013,-0.13320334,-0.6703765,-0.038307227,-9.787497,0.86498255,47.678825,-1.1577587,-2.211925,-3.4067945,-0.10800928,-0.30015624,-0.05387318,27.6875,28.8125,28.0,31.875,33.9375,34.75
0.2900525,-1.8786218,-0.65719867,-1.8255931,-0.03884645,0.09354923,-0.12738326,-0.40112418,-0.34781334,0.059892964,-3.0761898,0.624987,-0.0003831683,-0.14463069,0.004361753,0.00062131125,0.011249311,0.0034964662,0.0037439389,0.45967203,-1.3919986,1.9167336,-2.0922906,-1.5725378,2.435017,-0.12540117,0.24023621,-0.2958483,0.057273082,-0.012369517,-0.12894675,-0.6895301,-0.038307227,-9.825804,0.81351066,47.679718,-1.1082087,-2.1736403,-3.4113142,-0.10832746,-0.2954815,-0.08548395,27.6875,28.8125,28.0,31.875,33.9375,34.75
0.29205257,-1.5011122,-1.1847318,-1.7580492,-0.045375254,0.10268324,-0.13311267,-0.40147123,-0.3477935,0.059921034,-3.076196,0.625069,-0.00024818027,-0.1464887,0.0047428226,0.0005068047,0.011920527,0.0051219477,-0.0028903016,0.4593595,-1.3915175,1.916087,-2.0922072,-1.5725745,2.4347553,-0.12670775,0.24258782,-0.2981834,0.056103934,-0.01368075,-0.12361466,-0.7661445,0.076614454,-9.768343,0.81351066,47.67614,-0.97931355,-2.2724628,-3.5398607,-0.06391356,-0.297639,-0.1253581,27.6875,28.8125,28.0,31.875,33.9375,34.75
0.29405242,-1.5282336,-1.4137201,-1.874124,-0.041626792,0.08477451,-0.12831947,-0.40174377,-0.3477659,0.059916846,-3.0761373,0.6251566,-0.00030183475,-0.1468829,0.006007852,-0.00024314936,0.01285416,0.003358245,-0.009681856,0.45908266,-1.3910607,1.9155258,-2.0920517,-1.5725864,2.434541,-0.12910034,0.24354959,-0.29786703,0.056824263,-0.0137327695,-0.119215146,-0.59376204,0.076614454,-9.825804,0.87617236,47.661808,-0.9845523,-2.2224832,-3.61759,-0.040902834,-0.30078351,-0.17785895,27.6875,28.8125,28.0,31.875,33.9375,34.75
0.29605258,-1.0917449,-1.3626198,-1.417395,-0.058255147,0.092875406,-0.13174777,-0.4020516,-0.3477732,0.059925094,-3.07615,0.6251782,-0.00021111882,-0.14598794,0.0052307635,0.00067226007,0.013070538,0.0028628416,-0.01135137,0.4588437,-1.3905685,1.9149159,-2.0919902,-1.5726103,2.4343143,-0.12687907,0.24237037,-0.29942247,0.060100507,-0.013690587,-0.115325436,-0.6512228,0.15322891,-9.844957,0.9030289,47.70211,-1.0564451,-2.107189,-3.6568103,-0.041638963,-0.30921492,-0.2429269,27.6875,28.8125,28.0,31.875,33.9375,34.75
0.29805195,-1.0140625,-1.0069326,-1.5841395,-0.052856624,0.07303001,-0.13077722,-0.4023542,-0.34777057,0.059939504,-3.0761273,0.62515646,-0.00011443505,-0.14702567,0.0057025133,-0.0002968875,0.0140662035,0.0013737517,-0.015293886,0.4586151,-1.3900872,1.9142941,-2.0918825,-1.5726703,2.4340754,-0.12833716,0.24575156,-0.30136284,0.060431726,-0.013920507,-0.11283967,-0.4405331,-0.019153614,-9.442732,0.83365434,47.66091,-0.9742009,-1.987395,-3.5507011,-0.039180398,-0.30607328,-0.28355694,27.6875,28.8125,28.0,31.875,33.9375,34.75
0.30005208,-0.62360024,-0.34792075,-1.3440006,-0.019323288,0.06011476,-0.13747804,-0.40266424,-0.34776744,0.059948873,-3.0761266,0.625254,-0.0001416177,-0.14978766,0.0051277084,0.0019024484,0.011132417,0.0067874114,-0.019098716,0.4583266,-1.389583,1.9136485,-2.0917394,-1.5726465,2.4338481,-0.12973155,0.2449567,-0.3052195,0.058933172,-0.013694391,-0.11042846,-0.24899697,0.038307227,-9.461885,0.89631605,47.684196,-0.9926937,-2.0379112,-3.650877,0.014628163,-0.31055045,-0.33565044,27.6875,28.8125,28.0,31.875,33.9375,34.75
0.30205208,-0.76814604,-0.48897228,-1.1260992,-0.0034944988,0.044775527,-0.12564947,-0.4029632,-0.34771827,0.059936833,-3.0760245,0.6253289,-4.1600488e-05,-0.15079214,0.004598928,0.002886256,0.010796528,0.0077492255,-0.020751473,0.4580508,-1.389114,1.9131092,-2.0916674,-1.5727543,2.4336326,-0.12947783,0.24567935,-0.30884123,0.060810108,-0.013818696,-0.10852041,-0.19153613,-0.038307227,-9.385271,0.8940802,47.67793,-1.0448506,-1.9002922,-3.5259738,0.039038435,-0.31322002,-0.40421066,27.6875,28.8125,28.0,31.875,33.9375,34.75
0.30405205,0.10823528,-0.14903261,-1.0906988,0.00253747,0.045312617,-0.13115096,-0.40329272,-0.3477315,0.059972845,-3.0760698,0.62545425,3.393254e-05,-0.15213189,0.0043638493,0.0044369795,0.0101249665,0.008877873,-0.021422498,0.45777446,-1.388634,1.9124383,-2.0915577,-1.5727304,2.433429,-0.13015537,0.2456227,-0.31309396,0.06380893,-0.013708031,-0.10852719,-0.05746084,0.038307227,-9.251195,0.9388393,47.694946,-0.9945239,-1.8795929,-3.4889245,0.040804695,-0.31933862,-0.44244286,27.6875,28.8125,28.0,31.875,33.9375,34.75
0.30605206,0.27737474,0.24233685,-1.3607934,0.0056435005,0.021697232,-0.13960703,-0.40359747,-0.34773165,0.059982836,-3.0760484,0.62544584,7.7386416e-05,-0.15231168,0.0041137096,0.005119452,0.011094922,0.008224391,-0.017335046,0.45753482,-1.3881294,1.9117926,-2.0914252,-1.5727667,2.4331872,-0.12938638,0.24616475,-0.31620649,0.06738242,-0.014291456,-0.11184332,-0.095768064,0.095768064,-9.3661175,0.9186956,47.64837,-1.0613787,-1.7548857,-3.4029083,0.024621552,-0.3248831,-0.4510413,27.6875,28.8125,28.0,31.875,33.9375,34.75
0.308052,0.23276281,-0.41458467,-1.2236849,-0.021753186,0.029651798,-0.14035891,-0.40389627,-0.34770292,0.060002107,-3.0759954,0.6254713,0.000101338235,-0.15222992,0.0059061376,0.0040815454,0.013555882,0.0030538721,-0.013284344,0.45725763,-1.3876722,1.9111704,-2.091244,-1.5728143,2.432933,-0.13234702,0.24804801,-0.3172579,0.07225219,-0.014219969,-0.11885477,-0.05746084,0.17238252,-9.346964,0.84708,47.674347,-0.9703046,-1.6853955,-3.4312477,0.0012597339,-0.3383631,-0.4323723,27.6875,28.8125,28.0,31.875,33.9375,34.75
0.310052,-0.53142303,-1.2865872,-1.3943986,-0.042112567,0.020183949,-0.13080877,-0.4042387,-0.34768298,0.060020775,-3.0759482,0.6256085,0.00018368944,-0.1500285,0.0055473642,0.001586711,0.017743232,-0.004540417,-0.002025893,0.45695904,-1.3871541,1.9104885,-2.0911105,-1.572863,2.4327266,-0.12943777,0.2530779,-0.31876063,0.077361286,-0.014628556,-0.12720266,0.11492168,0.24899697,-9.385271,0.84708,47.65912,-1.2160492,-2.013663,-3.3464766,-0.057665654,-0.32607684,-0.32848537,27.6875,28.8125,28.0,31.875,33.9375,34.75
0.31205186,-0.50955117,-1.469478,-1.144219,-0.06912902,0.034531105,-0.13358459,-0.40449053,-0.34765166,0.059981737,-3.0758414,0.6255235,5.552819e-05,-0.14983788,0.0073041557,0.00016343335,0.021387227,-0.011732388,0.0055649937,0.45671806,-1.3866364,1.9099272,-2.0909283,-1.5729107,2.4324467,-0.13213938,0.25666657,-0.32147962,0.08452165,-0.014754411,-0.13749221,0.038307227,0.3256114,-9.346964,0.91198283,47.660015,-1.0677491,-2.0197394,-3.4434414,-0.12473175,-0.33604622,-0.26730254,27.6875,28.8125,28.0,31.875,33.9375,34.75
0.3140519,-0.25155148,-1.6163696,-0.9524462,-0.07976313,0.044769436,-0.13508216,-0.40480235,-0.34764928,0.059978496,-3.0758245,0.6254423,1.5685064e-05,-0.14961521,0.008320838,-0.00084132364,0.0232165,-0.014865962,0.008499127,0.45645365,-1.3860834,1.9092458,-2.0907605,-1.5729226,2.4321342,-0.13341165,0.2582347,-0.32166964,0.08674897,-0.015028441,-0.14169739,0.076614454,0.34476504,-9.270349,0.92764956,47.65643,-1.0554655,-1.9226112,-3.4557672,-0.18741554,-0.34089512,-0.17560646,27.6875,28.8125,28.0,31.875,33.9375,34.75
0.31605202,-0.3580652,-1.6650804,-1.0355786,-0.06887199,0.033605374,-0.13251026,-0.40513086,-0.34760618,0.059993315,-3.0757658,0.6256017,-8.817801e-06,-0.15035695,0.009044252,-0.00095753255,0.023498733,-0.016101152,0.009410919,0.456105,-1.3855904,1.9085883,-2.0905683,-1.572935,2.4318929,-0.13532637,0.2593039,-0.3231484,0.08837781,-0.014754299,-0.14452405,0.1340753,0.49799395,-9.270349,0.9186956,47.65912,-0.98810154,-1.9190865,-3.5215719,-0.21455987,-0.32911122,-0.13790724,27.6875,28.8125,28.0,31.875,33.9375,34.75
0.31805196,-0.06193276,-1.4433597,-1.0084085,-0.056546908,0.025210693,-0.12389951,-0.40543368,-0.34760493,0.060018193,-3.0757494,0.6254664,8.348188e-05,-0.15048216,0.010228819,-0.0008689127,0.024578806,-0.018434392,0.005914446,0.45588818,-1.3851099,1.9079303,-2.0904114,-1.5730065,2.4315941,-0.13740851,0.25919694,-0.32417086,0.09206753,-0.014690439,-0.1431105,0.21068975,0.45968673,-9.232041,0.8672237,47.68599,-0.82484293,-1.8223839,-3.5708573,-0.2799921,-0.34528857,-0.10407591,27.6875,28.8125,28.0,31.875,33.9375,34.75
0.32005197,0.35613444,-1.4858685,-0.8094462,-0.051760823,0.008861105,-0.12866458,-0.4057385,-0.3475826,0.060010213,-3.0757055,0.62549883,3.899796e-06,-0.15333088,0.008883253,0.0005116922,0.021852199,-0.013909357,-1.2309827e-05,0.45558825,-1.3845809,1.9072846,-2.090233,-1.573006,2.4313204,-0.13764909,0.26118705,-0.32931417,0.08996519,-0.014255984,-0.1374224,0.1340753,0.47884035,-9.251195,0.90750587,47.678825,-0.87184453,-1.8661647,-3.502143,-0.29660714,-0.35221532,-0.13392046,27.6875,28.8125,28.0,31.875,33.9375,34.75
0.3220518,0.51337814,-1.0275918,-0.67163575,-0.062614255,0.0073911585,-0.13589515,-0.40605646,-0.34759128,0.060030926,-3.0757241,0.6254865,3.7001982e-06,-0.15528333,0.0077338573,0.0013839767,0.020492502,-0.010415129,-0.0058608647,0.45532453,-1.3840636,1.9065899,-2.0900657,-1.5729951,2.431047,-0.13698915,0.26302662,-0.3332195,0.08830908,-0.01457673,-0.13091114,0.0,0.40222588,-9.097966,0.9567419,47.690468,-0.91166747,-1.8511308,-3.3306541,-0.31311217,-0.348373,-0.23315352,27.6875,28.8125,28.0,31.875,33.9375,34.75
0.32405177,-0.08836873,-1.4903336,-0.9798985,-0.049264476,0.0063059437,-0.122869074,-0.4063622,-0.3475727,0.060052145,-3.0756762,0.62549555,3.097925e-05,-0.15615019,0.0064977095,0.001985549,0.01870923,-0.006962022,-0.0077731875,0.45506105,-1.3835831,1.9059318,-2.089875,-1.5730428,2.4307957,-0.13550365,0.26333198,-0.33437964,0.085276365,-0.014502767,-0.12751277,0.019153614,0.3256114,-9.174581,0.91198283,47.67345,-1.0146832,-1.7813367,-3.309849,-0.28181857,-0.3363921,-0.2849578,27.6875,28.8125,28.0,31.875,33.9375,34.75
0.32605192,-0.2008911,-1.6405541,-1.0375048,-0.052441142,0.03697608,-0.1330553,-0.40668896,-0.34756073,0.060059987,-3.0756178,0.6256014,4.6454203e-05,-0.15923472,0.0062016128,0.003661571,0.016137082,-0.0015843868,-0.01179426,0.45478418,-1.3830423,1.9052385,-2.0897086,-1.573079,2.4305928,-0.13743706,0.26351956,-0.33797076,0.082715966,-0.014570142,-0.1254232,0.0,0.36391866,-9.308657,0.9388393,47.64837,-0.9028034,-1.8313233,-3.3418918,-0.2762097,-0.3490796,-0.2976404,27.6875,28.8125,28.0,31.875,33.9375,34.75
0.32805192,-0.6346569,-1.8573997,-1.161419,-0.07641308,0.07275254,-0.13061725,-0.40696853,-0.34754914,0.06003054,-3.0755525,0.6255095,-9.6081974e-05,-0.16035056,0.0054130624,0.002347151,0.015574832,-0.0012438325,-0.012708882,0.4545328,-1.3824768,1.9045924,-2.0895064,-1.5730904,2.4302928,-0.13710618,0.26783454,-0.33944333,0.079317704,-0.014240706,-0.12417572,-0.038307227,0.2873042,-9.32781,0.8851263,47.681515,-1.2841094,-1.7555962,-3.3884945,-0.24728775,-0.37377924,-0.33572078,27.6875,28.8125,28.0,31.875,33.9375,34.75
0.33005196,-1.1833538,-1.8813134,-0.873864,-0.09010018,0.08837337,-0.12536149,-0.4073053,-0.34754202,0.060026392,-3.075513,0.62559646,-5.10039e-05,-0.16250168,0.0048895082,0.0023924315,0.014437157,0.0016439304,-0.010675534,0.45425633,-1.3819109,1.9039096,-2.0893996,-1.5731267,2.4300761,-0.13772072,0.27047732,-0.3421125,0.07623644,-0.014504608,-0.12682135,-0.095768064,0.2681506,-9.308656,0.9634547,47.68599,-1.0686617,-1.7298532,-3.458376,-0.19573146,-0.37089345,-0.38953787,27.6875,28.8125,28.0,31.875,33.9375,34.75
0.33205196,-1.3855494,-2.0083635,-0.81499267,-0.0858514,0.10912754,-0.1322543,-0.4076381,-0.34752312,0.060051437,-3.0755014,0.62559384,-1.7803666e-05,-0.16389754,0.0054111676,0.0035559821,0.012261847,0.0056866496,-0.0116630215,0.45395547,-1.3814073,1.9032172,-2.0892212,-1.5731505,2.4297755,-0.13976544,0.26802045,-0.34132174,0.07330509,-0.014329788,-0.12788004,-0.28730422,0.3256114,-9.212888,0.94331104,47.70838,-1.0257449,-1.652004,-3.4205894,-0.16471472,-0.38378704,-0.37826526,27.6875,28.8125,28.0,31.875,33.9375,34.75
0.33405182,-0.9517545,-1.0281045,-0.93395275,-0.0763174,0.1180517,-0.13347915,-0.4079611,-0.34750932,0.06003858,-3.0754473,0.62563664,-2.0652447e-05,-0.16512899,0.0053966213,0.001994147,0.01287422,0.004715575,-0.0059694164,0.4536794,-1.3808414,1.9025482,-2.08909,-1.5731863,2.4295335,-0.14055096,0.2727819,-0.34311664,0.071456,-0.014479062,-0.13435695,-0.36391866,0.28730422,-9.212888,0.8851263,47.68599,-0.9603579,-1.5972753,-3.564572,-0.11495598,-0.39303035,-0.32502496,27.6875,28.8125,28.0,31.875,33.9375,34.75
0.33605176,-1.2680899,-0.8999995,-1.1827302,-0.044283442,0.09676621,-0.13398406,-0.40827557,-0.34753177,0.0600577,-3.075472,0.62557966,2.6587718e-06,-0.16570392,0.0051562055,0.0006794679,0.013879886,0.0035532077,0.0024872208,0.45345148,-1.3803114,1.901843,-2.0889351,-1.5731868,2.4292672,-0.14023207,0.2766897,-0.34467596,0.070571184,-0.014892582,-0.14249259,-0.4213795,0.34476504,-9.3661175,0.8784135,47.682407,-1.0557153,-1.7624254,-3.5596333,-0.09365607,-0.3966593,-0.2712119,27.6875,28.8125,28.0,31.875,33.9375,34.75
0.33805177,-1.504727,-1.0371048,-0.58871174,-0.04470428,0.09335777,-0.12519814,-0.40862152,-0.34751245,0.060039017,-3.075425,0.62552893,3.7595662e-05,-0.16822287,0.006103673,0.00039458452,0.01436893,0.003936522,0.0051860325,0.4531622,-1.3797097,1.9011496,-2.0888274,-1.5732468,2.4289527,-0.1434575,0.2800157,-0.34810415,0.070517614,-0.015522272,-0.14841294,-0.5746084,0.2681506,-9.32781,0.800085,47.685097,-0.90071726,-1.9054846,-3.6356258,-0.07431335,-0.39662325,-0.17841488,27.6875,28.8125,28.0,31.875,33.9375,34.75
0.34005186,-1.42268,-0.7772012,-0.66303873,-0.038192973,0.099889986,-0.12699565,-0.40895787,-0.34752658,0.06003243,-3.0754578,0.6254935,2.4162096e-05,-0.16909215,0.0057498277,0.00045339274,0.015393312,0.004773909,0.010185476,0.45288703,-1.3791207,1.900443,-2.0887191,-1.5732235,2.4286516,-0.14261882,0.28201792,-0.35085875,0.070959166,-0.01682222,-0.15256841,-0.5363012,0.21068975,-9.193734,0.8493211,47.666286,-1.1810901,-1.9347391,-3.5992515,-0.041631646,-0.4106577,-0.08028523,27.6875,28.8125,28.0,31.875,33.9375,34.75
0.34205183,-1.0368656,-0.1476264,-0.89411235,-0.027070116,0.09939438,-0.1300984,-0.409309,-0.34750324,0.060053565,-3.075421,0.62546617,8.9586225e-05,-0.16918294,0.005301189,-0.00044758216,0.01607793,0.002879534,0.011986067,0.4525871,-1.3785793,1.8997134,-2.0885394,-1.5732836,2.4283397,-0.14189437,0.28510475,-0.35278916,0.07178846,-0.01661333,-0.15364458,-0.5554548,0.11492168,-9.212888,0.9298854,47.694054,-1.0839304,-1.9796436,-3.6530252,-0.014100218,-0.39200816,-0.073181786,27.6875,28.8125,28.0,31.875,33.9375,34.75
0.3440519,-1.615488,-0.8312814,-0.6479902,-0.034071665,0.09462797,-0.122411914,-0.40964076,-0.3475066,0.06004732,-3.075402,0.6254465,0.00013218593,-0.17056002,0.0055195084,0.00095943676,0.016038299,0.0052532423,0.0052310526,0.45233497,-1.3780025,1.8990201,-2.0884311,-1.5733198,2.4280782,-0.14266887,0.28436565,-0.3555802,0.0731763,-0.017606553,-0.14766032,-0.7278373,0.1340753,-9.212888,0.92093146,47.691364,-1.1490866,-1.9575751,-3.451531,0.020099245,-0.3922638,-0.0993129,27.6875,28.8125,28.0,31.875,33.9375,34.75
0.34605193,-1.0872571,-0.63947606,-0.5488751,-0.05438307,0.107698865,-0.13663386,-0.4099755,-0.3474905,0.06004461,-3.0753584,0.62540203,0.00011427519,-0.17099358,0.005594205,0.0008779234,0.017173726,0.0030177059,-0.0012385128,0.45204675,-1.3774254,1.8983015,-2.08825,-1.5733556,2.4277682,-0.14298744,0.28660256,-0.35903957,0.07691228,-0.017644918,-0.14150746,-0.5554548,0.1340753,-9.174581,0.99702406,47.661808,-1.2257705,-1.8505855,-3.4065804,0.013809826,-0.3972923,-0.15353066,27.6875,28.8125,28.0,31.875,33.9375,34.75
0.3480519,-0.69427013,-0.46826172,-0.81666154,-0.039208036,0.09360963,-0.1357748,-0.41031688,-0.34747478,0.060022544,-3.0752864,0.6254671,5.4503602e-05,-0.1712186,0.00575743,0.0006356357,0.018422635,0.0016019208,-0.0071649146,0.45174682,-1.3768001,1.8975724,-2.0880816,-1.5733799,2.4275186,-0.14298765,0.28823954,-0.3611031,0.07916721,-0.018148517,-0.13557789,-0.59376204,0.095768064,-9.193734,0.9634547,47.691364,-1.2795968,-1.9366848,-3.6025925,0.0033579664,-0.38505194,-0.21644191,27.6875,28.8125,28.0,31.875,33.9375,34.75
0.3500522,-1.3589412,-0.48559797,-0.6540142,-0.038628515,0.07385675,-0.12478326,-0.4106649,-0.3474647,0.06000909,-3.0752463,0.62551796,8.358193e-05,-0.17244579,0.006136709,0.0018153008,0.01934076,0.0030566168,-0.010857336,0.45145872,-1.3761997,1.8968667,-2.0879738,-1.5734161,2.4272678,-0.1436088,0.28810436,-0.36434254,0.08163745,-0.019606747,-0.13250081,-0.57460845,0.0,-9.212888,0.8918391,47.699425,-1.2384287,-1.8329444,-3.4904065,-0.012426989,-0.39530718,-0.27888748,27.6875,28.8125,28.0,31.875,33.9375,34.75
0.35205215,-0.62468606,0.16623834,-0.62600315,-0.025716893,0.06424614,-0.12350744,-0.41101098,-0.34744608,0.060005534,-3.0751963,0.6255297,7.770062e-05,-0.17150708,0.0074118557,0.0011932603,0.02280977,-0.0032101513,-0.015358874,0.45115817,-1.3756107,1.8961371,-2.0878026,-1.5734528,2.4269814,-0.14462547,0.28969818,-0.36677483,0.08962881,-0.019981682,-0.12901393,-0.28730422,0.019153614,-9.11712,1.0417832,47.67345,-1.2482027,-1.7762156,-3.5643091,-0.03937287,-0.38569784,-0.34432417,27.6875,28.8125,28.0,31.875,33.9375,34.75
0.35405213,-0.29065806,0.60151076,-0.33743536,-0.0066254903,0.052879937,-0.1238523,-0.41135377,-0.34743163,0.059991725,-3.0751014,0.6255678,5.3258194e-05,-0.17159232,0.007634755,0.0009759636,0.024471117,-0.0050772964,-0.017962417,0.45088235,-1.3749853,1.8953828,-2.08761,-1.5735129,2.426742,-0.1445028,0.2913462,-0.36909482,0.09270261,-0.02066734,-0.1262835,-0.45968673,0.019153614,-9.097966,0.95897776,47.653748,-1.2592149,-1.851533,-3.4944758,-0.08524268,-0.36623496,-0.4162786,27.6875,28.8125,28.0,31.875,33.9375,34.75
0.35605225,-0.1490385,0.347736,-0.43251565,0.021820601,0.05341224,-0.13224699,-0.41169256,-0.34737545,0.059962977,-3.0749633,0.62565523,-7.589872e-06,-0.1704278,0.009184641,-0.0014053615,0.028418954,-0.012146738,-0.019997649,0.45054582,-1.3743838,1.8946904,-2.0874174,-1.5735849,2.4264784,-0.1457365,0.2948903,-0.36905617,0.09719141,-0.02114848,-0.12547836,-0.34476507,-0.05746084,-8.983045,0.9545008,47.705692,-1.0747061,-1.8439718,-3.5903378,-0.13804145,-0.3483559,-0.4551932,27.6875,28.8125,28.0,31.875,33.9375,34.75
0.35805222,-0.6810479,0.55510837,-0.7501875,0.0361171,0.02554389,-0.1293382,-0.41203153,-0.34737688,0.059978534,-3.074949,0.6257255,-4.160412e-05,-0.17238064,0.0104059335,-0.001521079,0.029556544,-0.0135898525,-0.016836736,0.4502568,-1.3738182,1.8939365,-2.0872128,-1.5735735,2.4262354,-0.14905682,0.29775023,-0.37298357,0.10003196,-0.021569837,-0.13195632,-0.05746084,-0.19153613,-9.136273,0.8112748,47.66271,-1.293802,-1.9781339,-3.617071,-0.18778405,-0.34059134,-0.4611149,27.6875,28.8125,28.0,31.875,33.9375,34.75
0.36005253,0.2760024,0.37055412,-0.31751034,0.00834331,0.060302094,-0.14236784,-0.41239536,-0.34735972,0.059973173,-3.0748754,0.6256664,2.8329412e-05,-0.17261714,0.009080859,-0.00062358356,0.029598078,-0.012190176,-0.0069197,0.44998184,-1.3731928,1.8931702,-2.0870569,-1.5736693,2.4259336,-0.14639644,0.29837707,-0.3762463,0.10138841,-0.022245096,-0.13920936,-0.15322891,-0.22984336,-9.136273,0.90750587,47.68062,-1.2873182,-2.0796194,-3.3875961,-0.22236909,-0.34362856,-0.43618742,27.6875,28.8125,28.0,31.875,33.9375,34.75
0.3620518,-0.6739187,-0.54577005,-0.3688855,-0.0029405705,0.05201935,-0.12941378,-0.41273308,-0.3473365,0.059952427,-3.0747826,0.625642,-8.0998034e-05,-0.1737179,0.0092547685,-0.0012109764,0.03080414,-0.014115162,0.0029627557,0.44968137,-1.3725556,1.8924054,-2.0868165,-1.5737051,2.4256303,-0.14727323,0.30210283,-0.38002673,0.10365858,-0.022545606,-0.14996359,-0.05746084,-0.19153613,-9.136273,0.84708,47.66091,-1.250667,-2.085547,-3.3921375,-0.26935196,-0.30837017,-0.31534183,27.6875,28.8125,28.0,31.875,33.9375,34.75
0.36405253,-0.876673,-0.37566087,-0.56654733,-0.023280967,0.044328332,-0.14159398,-0.41308412,-0.34729147,0.059959166,-3.074708,0.62567955,-0.00012579098,-0.17612496,0.0090048555,-0.0012663952,0.029675372,-0.011302232,0.009066885,0.4493332,-1.3719901,1.8916634,-2.0865786,-1.5737418,2.4253156,-0.14852391,0.3049711,-0.38274717,0.10045252,-0.022800233,-0.15731467,0.0,0.095768064,-9.002198,0.9545008,47.647476,-1.1957679,-2.0923634,-3.4267368,-0.27965528,-0.3040481,-0.2069855,27.6875,28.8125,28.0,31.875,33.9375,34.75
0.3660526,-0.4941388,-1.0945046,-0.80691457,-0.03130167,0.04756367,-0.13089012,-0.41342586,-0.34725964,0.059930433,-3.0745637,0.62561125,-0.00013882542,-0.17863485,0.01049055,-0.0009811807,0.029982686,-0.009930513,0.009175832,0.44906747,-1.3713409,1.89091,-2.0863745,-1.573862,2.4250264,-0.15245481,0.30631796,-0.38516423,0.10038654,-0.02371002,-0.16134799,-0.076614454,0.17238252,-9.136273,0.91198283,47.670765,-1.0428407,-2.1518881,-3.3360586,-0.26758534,-0.29784137,-0.14964879,27.6875,28.8125,28.0,31.875,33.9375,34.75
0.3680525,-0.7704858,-1.7554829,-0.9852312,-0.053382214,0.036247417,-0.12816945,-0.41377297,-0.3472469,0.059930474,-3.0745351,0.62560487,-0.00020456419,-0.17915465,0.010151365,-0.0015104756,0.0283016,-0.007838622,0.008883962,0.44875598,-1.3707404,1.8901466,-2.0861614,-1.573862,2.424715,-0.1524966,0.3067792,-0.38364223,0.09578093,-0.023124775,-0.16109961,-0.11492168,0.15322891,-9.232041,0.9231726,47.691364,-1.2120416,-2.0441825,-3.5021472,-0.22789875,-0.2737611,-0.13012516,27.6875,28.8125,28.0,31.875,33.9375,34.75
0.37005243,-0.7591284,-2.567308,-1.4426019,-0.07627293,0.039363597,-0.13006036,-0.4141356,-0.34720394,0.059915975,-3.0744154,0.62560326,-0.00023522075,-0.18054377,0.009863056,-0.001771809,0.026897805,-0.0050769253,0.0007642054,0.448432,-1.3701031,1.8893694,-2.0859354,-1.5739459,2.424406,-0.15301828,0.30814457,-0.38391098,0.091590926,-0.023067616,-0.15349953,-0.2681506,0.4213795,-9.32781,0.87393653,47.68599,-1.0959694,-1.9977247,-3.7628825,-0.18534024,-0.26884568,-0.17253438,27.6875,28.8125,28.0,31.875,33.9375,34.75
0.37205255,-1.324485,-3.2728894,-1.2842716,-0.10608478,0.055438023,-0.12668753,-0.41448572,-0.3471812,0.059909604,-3.0743601,0.6255768,-0.00023946,-0.1828613,0.0101956595,-0.0005144416,0.02528422,-0.00023661308,-0.007118457,0.44813102,-1.3695028,1.8886279,-2.085757,-1.5739936,2.424096,-0.15494473,0.30732518,-0.38533038,0.08877635,-0.023714984,-0.1475395,-0.36391866,0.57460845,-9.385271,1.0238806,47.691364,-1.0759096,-2.017808,-3.8077207,-0.16360533,-0.24415794,-0.24040982,27.6875,28.8125,28.0,31.875,33.9375,34.75
0.37405244,-1.8453376,-3.3094227,-1.6987329,-0.11472319,0.054083455,-0.13383394,-0.41484174,-0.3471684,0.05990534,-3.0742826,0.62558097,-0.0002750662,-0.18510586,0.009816818,0.0002703901,0.024131969,0.0031077815,-0.010126443,0.4478428,-1.3688658,1.8878268,-2.08553,-1.5740417,2.423821,-0.15572369,0.3088202,-0.38871154,0.08714451,-0.02414221,-0.14530596,-0.22984336,0.63206923,-9.672575,0.91421866,47.682407,-0.97850317,-1.8789907,-3.8267145,-0.13029367,-0.2208162,-0.280354,27.6875,28.8125,28.0,31.875,33.9375,34.75
