Tylouw/Master_Thesis_Code/training_data/batch_1/small_rod_t0.2/sample_35_session_1.csv
timestamp[s],tcp_force_x[N],tcp_force_y[N],tcp_force_z[N],tcp_force_rx[Nm?],tcp_force_ry[Nm?],tcp_force_rz[Nm?],tcp_pose_x[m],tcp_pose_y[m],tcp_pose_z[m],tcp_pose_rx[rot_vec_x],tcp_pose_ry[rot_vec_y],tcp_pose_rz[rot_vec_z],tcp_velo_x[m/s],tcp_velo_y[m/s],tcp_velo_z[m/s],tcp_velo_rx[rot_vec_x/s],tcp_velo_ry[rot_vec_y/s],tcp_velo_rz[rot_vec_z/s],q1[rad],q2[rad],q3[rad],q4[rad],q5[rad],q6[rad],qd1[rad/s],qd2[rad/s],qd3[rad/s],qd4[rad/s],qd5[rad/s],qd6[rad/s],tool_acc_x,tool_acc_y,tool_acc_z,current_of_whole_robot[A],voltage_of_whole_robot[V],current_J1[A],current_J2[A],current_J3[A],current_J4[A],current_J5[A],current_J6[A],temp_J1[C],temp_J2[C],temp_J3[C],temp_J4[C],temp_J5[C],temp_J6[C]
5.2701216e-07,-1.4753742,-1.6024418,-0.04342194,-0.017203046,0.0021444536,0.008249084,-0.38105553,-0.34852162,0.05995781,-3.0784855,0.6249289,-0.00019364331,0.0020143178,0.0010226696,-0.0016843874,0.002065895,-0.004262855,1.3714941e-05,0.4777981,-1.425922,1.9577278,-2.1008327,-1.5707697,2.4527884,-4.0631392e-05,-3.2244534e-05,0.0036260968,0.001141061,0.00013604644,-5.6654364e-05,0.11492168,0.038307227,-8.829816,0.7933669,47.705692,-0.003928304,-2.789328,-2.454083,-0.44716936,0.084639266,0.11505668,27.8125,28.9375,28.0625,32.0625,34.125,34.9375
0.002018553,-0.36117718,-1.0593637,0.041019987,-0.027516382,0.03194405,-0.00877253,-0.3810663,-0.34851828,0.059952646,-3.0785236,0.62487876,-0.00017120846,-0.0011524075,-0.0006269465,-0.0016860423,-0.0021807111,0.0038853837,1.6245827e-05,0.47777414,-1.4259213,1.9577507,-2.1008847,-1.5707573,2.4527283,-4.0029052e-05,0.0024404894,0.003418488,-0.010312491,0.00013359122,-5.5776567e-05,0.095768064,0.1340753,-8.810662,0.75755644,47.71286,0.0056720474,-2.6464021,-2.4315834,-0.42462295,0.08950791,0.117405675,27.8125,28.9375,28.0625,32.0625,34.125,34.9375
0.004018622,-1.2746829,-1.0448833,0.031011699,-0.02435301,0.0072997557,-0.005500239,-0.38106236,-0.34851623,0.059928592,-3.0784872,0.6249095,-0.0002292038,-0.002319409,-0.001234935,-0.0021500331,-0.0033124688,0.006053989,1.7309167e-05,0.47777414,-1.4258726,1.9577502,-2.1008856,-1.5707573,2.452752,-3.9444287e-05,0.0044961446,0.0030842833,-0.014480097,0.00013116188,-5.4925626e-05,0.095768064,0.21068975,-8.829816,0.7418897,47.70211,0.012125857,-3.2015653,-2.7069857,-0.28724155,0.1025058,0.10824938,27.8125,28.9375,28.0625,32.0625,34.125,34.9375
0.006019371,-0.66473454,-0.9032244,-0.08985413,-0.006662855,0.0051940344,0.0034864536,-0.3810709,-0.34854513,0.05995452,-3.0785651,0.6248295,-0.00014040626,-0.0015123896,-0.0008134278,-0.0009480213,-0.0024562555,0.0044270786,1.6167896e-05,0.47781014,-1.4258972,1.9577268,-2.1009195,-1.5707458,2.4527283,-3.8876282e-05,0.0020241737,0.0019058648,-0.008991272,0.00012881562,-5.4100186e-05,0.019153614,0.22984336,-8.829816,0.7329411,47.71823,-0.056709107,-3.106494,-2.5667086,-0.309632,0.086309604,0.12128977,27.8125,28.9375,28.0625,32.0625,34.125,34.9375
0.008018527,-0.167294,-0.7589556,-0.58108324,0.03010075,-0.013046674,0.0046351072,-0.38105667,-0.34852898,0.059942387,-3.078503,0.6248932,-0.00017463544,-0.0007331435,-0.00040642524,-8.667948e-05,-0.0016159549,0.0028284902,1.5065411e-05,0.47781014,-1.4258981,1.9577497,-2.1008942,-1.5707697,2.452776,-3.8324495e-05,4.0678482e-05,0.0011674601,-0.0044634016,0.00012655144,-5.329921e-05,-0.019153614,0.19153613,-8.829816,0.7150385,47.71465,0.0080541065,-2.882577,-2.5545077,-0.35538867,0.0883705,0.110397115,27.8125,28.9375,28.0625,32.0625,34.125,34.9375
0.010019012,0.16059907,-0.15589185,-0.8545689,0.026757363,-0.015692813,-0.0036530858,-0.38105774,-0.3485293,0.059921745,-3.0785303,0.62482274,-0.0002400084,-0.00040184424,-0.0002287418,-5.2311305e-05,-0.00095560163,0.0015656023,6.374956e-06,0.47778615,-1.4258621,1.9577612,-2.1009176,-1.5707334,2.4527044,-4.6082e-05,5.457538e-07,0.00069326744,-0.0025239557,0.00012436559,-5.2521576e-05,0.019153614,0.17238252,-9.059659,0.7530795,47.660015,-0.24755663,-2.297338,-3.2565343,-0.36717495,0.06759531,0.08191031,27.8125,28.9375,28.0625,32.0625,34.125,34.9375
0.012018611,0.25983062,-0.22828509,-0.88377774,-0.012135989,0.0010545285,-0.007223363,-0.38104028,-0.34852692,0.05990759,-3.0784888,0.62487155,-0.00030048218,-0.0017549889,-0.00092809583,-0.0016203308,0.0010013401,-0.0022086848,-2.7107431e-05,0.47779807,-1.4258478,1.9577717,-2.1008928,-1.5707334,2.452752,-5.5747194e-05,0.007828496,-0.005163851,-0.00024330476,0.00011472963,-2.4944955e-05,0.076614454,0.11492168,-9.289502,0.7351769,47.703903,-0.4174599,-2.1999493,-3.4134336,-0.3576867,0.064156845,0.049588293,27.8125,28.9375,28.0625,32.0625,34.125,34.9375
0.014018916,-0.6525948,-1.6433918,-1.2666906,-0.028792292,0.015576564,-0.00036459364,-0.38105607,-0.34851402,0.05990309,-3.0784502,0.62498206,-0.00033139437,-0.0048854477,-0.00025932578,-0.0034406555,0.002453111,-0.0050177984,-0.0040936717,0.47776046,-1.4258206,1.9577454,-2.1008685,-1.5707334,2.4527884,-0.0041431785,0.016226925,-0.010627596,-1.5886062e-05,0.00010579384,-4.174695e-05,0.05746084,0.15322891,-9.442732,0.7642693,47.698532,-0.36351025,-2.8308005,-3.0682328,-0.3475825,0.060849182,0.02214226,27.8125,28.9375,28.0625,32.0625,34.125,34.9375
0.016020756,-1.4866117,-2.2522323,-1.2335504,-0.05848073,0.042323228,-0.00047062238,-0.3810438,-0.34850496,0.05988524,-3.0784163,0.62482226,-0.00039787762,-0.0051792786,0.0017293203,-0.0038628187,0.0042066122,-0.008248312,-0.0061329603,0.47777122,-1.4257846,1.957734,-2.1008193,-1.5707573,2.4527037,-0.007908804,0.016372316,-0.010632736,0.0035188617,4.144616e-05,-0.0017686523,-0.095768064,0.34476504,-9.557653,0.7665104,47.704796,-0.11587685,-2.6561859,-3.3333306,-0.37016422,0.029595794,0.019122243,27.8125,28.9375,28.0625,32.0625,34.125,34.9375
0.018018916,-2.016175,-2.9559076,-1.526187,-0.0666073,0.06648938,-0.0024778903,-0.3810435,-0.3485072,0.059881616,-3.0783854,0.624852,-0.00041464003,-0.0050456845,0.0015095108,-0.0033173617,0.0043290704,-0.008448591,-0.0032799856,0.47778353,-1.4257609,1.9577097,-2.100795,-1.5707697,2.4527385,-0.007384042,0.015921324,-0.0117830355,0.0053539523,2.5507514e-05,-0.0040966934,-0.30645782,0.40222588,-9.672575,0.7016076,47.66271,-0.24138118,-2.445712,-3.5294824,-0.3926031,0.03972461,0.018653173,27.8125,28.9375,28.0625,32.0625,34.125,34.9375
0.020018555,-2.1501577,-2.6084626,-1.4310544,-0.06956494,0.07904058,-0.008973522,-0.38104597,-0.34849963,0.05984864,-3.078365,0.6248472,-0.00048620783,-0.0059595215,0.0007764094,-0.0033886617,0.0041805236,-0.008130345,-0.00050211395,0.47775966,-1.4257,1.9577211,-2.1008189,-1.5707573,2.4527142,-0.0069144405,0.01846211,-0.01447009,0.0051490716,3.2054043e-06,-0.0064031193,-0.38307226,0.4213795,-9.710882,0.74413085,47.689575,-0.4503821,-2.4365773,-3.5027196,-0.388388,0.028278489,0.042049035,27.8125,28.9375,28.0625,32.0625,34.125,34.9375
0.022019075,-1.653666,-2.0520942,-1.5196539,-0.064048395,0.09092388,-0.013586561,-0.38105625,-0.3485135,0.059856765,-3.078366,0.6248663,-0.0005367592,-0.0075550433,0.00042213718,-0.0027148265,0.003276646,-0.0063945074,-0.00033878945,0.47775927,-1.4256637,1.9576477,-2.1007597,-1.5707334,2.4527256,-0.0077609285,0.019664215,-0.017308129,0.0048279613,2.0928996e-07,-0.007411238,-0.61291564,0.45968673,-9.768343,0.74413085,47.682407,-0.5411327,-2.3713396,-3.5326862,-0.36689356,0.012903267,0.036348242,27.8125,28.9375,28.0625,32.0625,34.125,34.9375
0.02401852,-1.6866069,-1.6572208,-1.5822603,-0.06549361,0.07763434,-0.024338035,-0.3810985,-0.3485062,0.05986216,-3.07837,0.62486684,-0.0004695488,-0.008705563,0.00095401425,-0.0025574823,0.003023336,-0.0059113433,-0.0012792399,0.47772267,-1.4256275,1.9575995,-2.1007836,-1.5707573,2.452689,-0.009770835,0.02025441,-0.01831119,0.004694949,1.3665138e-08,-0.008480067,-0.61291564,0.45968673,-9.844957,0.7239871,47.64389,-0.5539938,-2.3960266,-3.5354323,-0.35940027,-0.0015177235,0.0410356,27.8125,28.9375,28.0625,32.0625,34.125,34.9375
0.02601907,-1.7862587,-1.9750066,-1.7728082,-0.06322559,0.064545095,-0.032458477,-0.3811007,-0.34852257,0.059867665,-3.0783803,0.6248708,-0.0005082837,-0.010325732,0.00091792067,-0.001961803,0.002464738,-0.0048441743,-0.0025650098,0.47773418,-1.4256032,1.9575509,-2.1007469,-1.5707334,2.4527016,-0.011207741,0.021549452,-0.021249224,0.005133604,8.922359e-10,-0.008629602,-0.63206923,0.38307226,-9.883265,0.6971306,47.70838,-0.48604688,-2.372181,-3.5202148,-0.33566588,0.008063841,0.028591197,27.8125,28.9375,28.0625,32.0625,34.125,34.9375
0.028018514,-1.7735392,-1.6279607,-1.5159909,-0.07064187,0.06614215,-0.036418304,-0.38113466,-0.34849113,0.059852373,-3.078309,0.6248754,-0.000492593,-0.011237915,0.0009198109,-0.0019336671,0.0025608314,-0.0050373054,-0.003456271,0.47768584,-1.4255427,1.9575142,-2.100735,-1.5707935,2.4526653,-0.012055768,0.023161609,-0.02330161,0.005789013,5.825663e-11,-0.008585209,-0.7278373,0.34476504,-9.768343,0.7217513,47.64837,-0.53686094,-2.3449724,-3.5752325,-0.3496254,-0.023994118,0.0025733046,27.8125,28.9375,28.0625,32.0625,34.125,34.9375
0.030018814,-2.0432389,-1.9442686,-1.5050999,-0.035913356,0.071080334,-0.037609648,-0.38114607,-0.3485052,0.05983877,-3.078348,0.6248461,-0.0005802982,-0.012953389,0.0010875929,-0.0012659461,0.002086236,-0.004131469,-0.005059472,0.47766122,-1.4254825,1.9574765,-2.1007345,-1.5707334,2.4526174,-0.013942178,0.024317576,-0.026343489,0.0066527775,3.8037416e-12,-0.0088668745,-0.61291564,0.22984336,-9.768343,0.784413,47.701214,-0.58937097,-2.3221762,-3.4977632,-0.3593916,-0.030902267,0.001824819,27.8125,28.9375,28.0625,32.0625,34.125,34.9375
0.032018445,-2.0126717,-1.4683356,-1.4415482,-0.019783173,0.077365614,-0.049296524,-0.38115698,-0.34849063,0.05980307,-3.0782714,0.6248881,-0.0006185736,-0.013803201,0.0015381917,-0.0012754597,0.0035825768,-0.0040068757,-0.005455686,0.47764906,-1.4253981,1.9574646,-2.100746,-1.5707701,2.4526412,-0.014628234,0.025662106,-0.028076906,0.007623551,-0.001388429,-0.009152891,-0.57460845,0.13407528,-9.749189,0.7709874,47.672558,-0.61438394,-2.2840478,-3.4641523,-0.3499163,-0.024319975,-0.031773586,27.8125,28.9375,28.0625,32.0625,34.125,34.9375
0.03401883,-1.6115522,-0.63198704,-1.3436208,-0.007898651,0.07905125,-0.059598677,-0.38120735,-0.34850496,0.05982683,-3.0783072,0.62499243,-0.00056968996,-0.015128374,0.0018080664,-0.0011586347,0.0034941132,-0.0035600667,-0.0070699356,0.47761238,-1.4253618,1.9573687,-2.100746,-1.5707463,2.452665,-0.01624838,0.027085599,-0.029977154,0.007663475,-0.0015188941,-0.009157427,-0.4405331,-0.038307227,-9.634268,0.7016076,47.651955,-0.5128667,-2.321513,-3.5310955,-0.32318413,-0.04219818,-0.032237608,27.8125,28.9375,28.0625,32.0625,34.125,34.9375
0.036018506,-1.6574473,-0.36128616,-1.0836301,0.0014161137,0.059816647,-0.06598496,-0.3812466,-0.34849647,0.05983276,-3.078294,0.6249696,-0.00054299046,-0.016705561,0.00086571893,-5.9145503e-05,0.0026876188,-0.0007594363,-0.0051255054,0.4775767,-1.4253135,1.9572948,-2.1007226,-1.5707706,2.452617,-0.015655285,0.02819456,-0.033700973,0.0074219727,-0.0020993934,-0.010505473,-0.3256114,-0.019153614,-9.710882,0.7150385,47.72719,-0.62346494,-2.3192816,-3.4410527,-0.307046,-0.05334103,-0.03747201,27.8125,28.9375,28.0625,32.0625,34.125,34.9375
0.038018897,-1.2686206,-0.32725304,-1.213886,0.016075375,0.05008448,-0.07824772,-0.3812733,-0.34850794,0.059833948,-3.07827,0.6250606,-0.00058508624,-0.017586157,0.00093294034,-5.1363833e-05,0.0029657402,-0.0013205978,-0.0051724375,0.47756428,-1.425241,1.9571985,-2.1006744,-1.5707582,2.4526644,-0.016594892,0.029916769,-0.035945747,0.0085706785,-0.0020914832,-0.011396942,-0.2681506,-0.076614454,-9.615114,0.7418897,47.64927,-0.63691294,-2.255298,-3.4320822,-0.3097447,-0.06794633,-0.038829632,27.8125,28.9375,28.0625,32.0625,34.125,34.9375
0.040018473,-1.5019736,-0.27716854,-1.3477948,0.010633793,0.030248404,-0.08508899,-0.381325,-0.3484984,0.059826672,-3.0782936,0.6250268,-0.0005824948,-0.018282276,0.0011300695,-5.264742e-05,0.0034802305,-0.0019648788,-0.004976841,0.47749197,-1.4251686,1.957138,-2.1006978,-1.5707468,2.452568,-0.017481474,0.03128383,-0.037798304,0.009865248,-0.0022540477,-0.012477919,-0.21068975,-0.076614454,-9.634268,0.6769922,47.655537,-0.595515,-2.3002834,-3.4178915,-0.30664435,-0.0568369,-0.05473458,27.8125,28.9375,28.0625,32.0625,34.125,34.9375
0.042018868,-1.4522557,-0.95160604,-1.3311481,0.010096161,0.0232965,-0.0905131,-0.38134864,-0.34846616,0.059802853,-3.0782087,0.62502897,-0.0006242595,-0.019432707,0.0010913324,0.00046422292,0.0035991862,-0.0014575416,-0.0050568935,0.47744378,-1.4250964,1.9571017,-2.100661,-1.5707945,2.452532,-0.018253269,0.03243639,-0.040575754,0.011094608,-0.0025975027,-0.013167431,-0.24899697,-0.21068975,-9.576807,0.78217715,47.64927,-0.649016,-2.2348952,-3.3974142,-0.30009636,-0.09095035,-0.067586236,27.8125,28.9375,28.0625,32.0625,34.125,34.9375
0.04401851,-1.3571876,-1.1966773,-1.2896506,0.0036459076,0.0221649,-0.0998166,-0.3813961,-0.34849483,0.059828352,-3.0782433,0.6250558,-0.00057712704,-0.020633083,0.0015600914,0.0007284671,0.0043098265,-0.00093565113,-0.0066468953,0.4774433,-1.4250362,1.9569691,-2.1006367,-1.570783,2.452544,-0.019628456,0.033473823,-0.04254623,0.011894035,-0.003470131,-0.012949922,-0.26815057,0.038307227,-9.557653,0.779936,47.63315,-0.5384075,-2.2361014,-3.4888375,-0.29552972,-0.09090543,-0.056019157,27.8125,28.9375,28.0625,32.0625,34.125,34.9375
0.04601853,-1.2345921,-1.4217042,-1.3194089,-0.0034451345,0.031373687,-0.11408459,-0.38143525,-0.34849048,0.05983788,-3.078235,0.6250543,-0.0005643317,-0.021882739,0.0012246682,0.0017079684,0.003872849,0.00081841403,-0.0071978066,0.4774071,-1.4249879,1.9568843,-2.100601,-1.5707949,2.452508,-0.019912038,0.033872653,-0.04539986,0.012591419,-0.003892428,-0.012680355,-0.15322891,0.05746084,-9.615114,0.683705,47.687782,-0.61144805,-2.106802,-3.3589668,-0.30938327,-0.101680204,-0.07014509,27.8125,28.9375,28.0625,32.0625,34.125,34.9375
0.048018474,-1.2869108,-1.4281422,-1.3282994,-0.020388043,0.032362096,-0.11272315,-0.38146946,-0.3484948,0.059819493,-3.0782127,0.6250497,-0.0006085272,-0.02259716,0.0011726165,0.0013986673,0.0045073475,0.0006168406,-0.008153235,0.47738305,-1.4248794,1.9567999,-2.100589,-1.5707949,2.452484,-0.02017153,0.03590875,-0.047035087,0.012662878,-0.004366763,-0.011982147,-0.038307227,0.21068975,-9.481039,0.784413,47.661808,-0.5476977,-2.168873,-3.319981,-0.313426,-0.09335758,-0.09069419,27.8125,28.9375,28.0625,32.0625,34.125,34.9375
0.050018486,-1.3097062,-2.0719776,-1.3690215,-0.021944711,0.029797439,-0.11930217,-0.38152605,-0.34849262,0.059843346,-3.0782073,0.62510705,-0.00056734,-0.023445042,0.0015038762,0.0006926516,0.0054060956,-0.0012829265,-0.009861816,0.47733456,-1.4248307,1.9566787,-2.1005409,-1.5708069,2.452472,-0.02159006,0.038940344,-0.049149778,0.013845732,-0.0042936997,-0.011691046,-0.1340753,0.3256114,-9.500193,0.7597976,47.661808,-0.58149767,-2.2059038,-3.3941317,-0.3190832,-0.11676804,-0.09239836,27.8125,28.9375,28.0625,32.0625,34.125,34.9375
0.052018438,-1.1763958,-1.920603,-1.3073726,-0.04640985,0.025842143,-0.13315898,-0.38158455,-0.34848678,0.059849303,-3.0781844,0.6251989,-0.0005139717,-0.025017781,0.0017032367,0.0015867144,0.0055080913,0.0011479513,-0.010578168,0.47728616,-1.4247586,1.9565829,-2.1005409,-1.5708317,2.452484,-0.022607248,0.03911806,-0.051387083,0.013796809,-0.0055059865,-0.011988309,-0.095768064,0.34476504,-9.595961,0.78217715,47.684196,-0.5686913,-2.0401912,-3.3917165,-0.33322573,-0.12119915,-0.09403062,27.8125,28.9375,28.0625,32.0625,34.125,34.9375
0.054018557,-1.4764975,-2.6984682,-1.4276696,-0.043865614,0.01621907,-0.13580656,-0.38161537,-0.34845763,0.05984259,-3.0781155,0.62526155,-0.00058903795,-0.02612264,0.002003446,0.0022789082,0.0064667403,0.003483339,-0.010732651,0.4772142,-1.4246987,1.9565109,-2.100457,-1.5708445,2.4524598,-0.022906082,0.03903476,-0.05285918,0.013724482,-0.007434609,-0.012127385,-0.076614454,0.3256114,-9.557653,0.800085,47.64479,-0.55505943,-2.0247831,-3.3997521,-0.33701718,-0.104892164,-0.13028207,27.8125,28.9375,28.0625,32.0625,34.125,34.9375
0.05601886,-1.1058389,-2.6672976,-1.2804915,-0.050879966,0.022698501,-0.14415744,-0.38172314,-0.34847766,0.059897598,-3.0781856,0.6252754,-0.00038986243,-0.027327187,0.0021617021,0.0016995136,0.008213608,0.0031940294,-0.010572241,0.47716594,-1.4246377,1.9563183,-2.1004689,-1.5708688,2.4524114,-0.02337244,0.042444985,-0.055491414,0.014010121,-0.008857085,-0.012750562,-0.038307227,0.36391866,-9.595961,0.7217513,47.684196,-0.627455,-2.0646663,-3.386469,-0.3418219,-0.09256412,-0.11955885,27.8125,28.9375,28.0625,32.0625,34.125,34.9375
0.05801851,-1.193366,-2.8738687,-1.3272076,-0.044379648,0.031384137,-0.16118012,-0.38173825,-0.3484674,0.059873458,-3.0781326,0.6252647,-0.0004644274,-0.029491818,0.0019635176,0.0028919969,0.008327483,0.0065562893,-0.010368101,0.4771417,-1.4245534,1.9562691,-2.100433,-1.5708812,2.4523873,-0.023945339,0.04343981,-0.059337087,0.013931964,-0.010512201,-0.013521438,0.038307227,0.49799395,-9.519346,0.7620334,47.686886,-0.54636323,-2.090694,-3.1811516,-0.33369568,-0.068641216,-0.13517842,27.8125,28.9375,28.0625,32.0625,34.125,34.9375
0.06001848,-1.831456,-2.6159437,-1.425488,-0.044654552,0.020727057,-0.15592824,-0.3817807,-0.34846434,0.05985584,-3.078084,0.6252935,-0.00051446777,-0.029281836,0.003121164,0.00028938078,0.011736492,0.0027642034,-0.010682076,0.47710532,-1.4244322,1.9561628,-2.1003969,-1.5708941,2.4523752,-0.024971511,0.047787078,-0.05823807,0.013423673,-0.011799062,-0.014230133,-0.076614454,0.4213795,-9.5385,0.73741806,47.668976,-0.5918769,-2.221995,-3.4897168,-0.33495635,-0.054557778,-0.13189554,27.8125,28.9375,28.0625,32.0625,34.125,34.9375
0.062018417,-1.3135772,-2.53866,-1.221881,-0.045096803,0.03450558,-0.17704138,-0.38187742,-0.3484585,0.059877604,-3.0780623,0.6254235,-0.00044512565,-0.031095203,0.0026801778,0.001885083,0.010955332,0.0062764776,-0.010637567,0.47702134,-1.4243245,1.9559821,-2.100361,-1.5709184,2.4523752,-0.025254585,0.04759522,-0.06171354,0.013614089,-0.012724681,-0.014554555,-0.1340753,0.36391866,-9.500193,0.7620334,47.62598,-0.5588948,-2.145143,-3.429239,-0.3305804,-0.046398632,-0.16260463,27.8125,28.9375,28.0625,32.0625,34.125,34.9375
0.064018525,-1.4017091,-2.252198,-1.1128854,-0.041391123,0.025333183,-0.18575647,-0.38194692,-0.3484655,0.059903346,-3.0781112,0.62547255,-0.00036712547,-0.0334989,0.0011882528,0.004116816,0.0066597424,0.009943504,-0.010998534,0.47696087,-1.4242767,1.9558715,-2.100373,-1.5709051,2.4523392,-0.026196226,0.04757737,-0.066755615,0.013435748,-0.010602408,-0.015137899,-0.11492168,0.36391866,-9.3661175,0.7732232,47.640312,-0.5805485,-2.01042,-3.1949522,-0.3176636,-0.060369916,-0.1640045,27.8125,28.9375,28.0625,32.0625,34.125,34.9375
0.066018485,-1.3416562,-2.132734,-1.0478141,-0.034741253,0.017109815,-0.18505204,-0.38199356,-0.34845215,0.059896763,-3.0780554,0.6254414,-0.00036682686,-0.033035852,0.0009825224,0.0022128727,0.0069079795,0.005888876,-0.0109344665,0.47692496,-1.4241794,1.9557647,-2.1003253,-1.5709528,2.452291,-0.02646658,0.051417265,-0.06676387,0.013313052,-0.008962524,-0.015474655,-0.17238252,0.4213795,-9.385271,0.7597976,47.723602,-0.6393367,-2.134487,-3.2761445,-0.2929361,-0.0811776,-0.1723051,27.8125,28.9375,28.0625,32.0625,34.125,34.9375
0.06801869,-0.91139334,-2.1709905,-0.97397447,-0.035743922,0.029880578,-0.18773572,-0.382059,-0.34846792,0.059898302,-3.078077,0.625465,-0.00037773582,-0.034152467,0.00046403718,0.0022900137,0.0061857803,0.0056325435,-0.010792327,0.47687668,-1.4240589,1.9556206,-2.100313,-1.5709285,2.4522548,-0.027061746,0.05377355,-0.06975633,0.013842432,-0.008208612,-0.01621184,-0.21068975,0.3256114,-9.308657,0.80679786,47.64389,-0.6501726,-2.1290228,-3.2175803,-0.29781452,-0.09918316,-0.17021146,27.8125,28.9375,28.0625,32.0625,34.125,34.9375
0.07001848,-1.2119919,-2.0116057,-0.72129184,-0.036652226,0.029096024,-0.17687234,-0.38213032,-0.34848714,0.059933454,-3.0780988,0.62542945,-0.00032098815,-0.035267618,-1.4113284e-05,0.002738618,0.0052500935,0.006890689,-0.010120807,0.47685263,-1.4239748,1.955428,-2.1002414,-1.5709404,2.452206,-0.027398638,0.054846104,-0.07190089,0.013365545,-0.007960378,-0.017219724,-0.1340753,0.28730422,-9.289502,0.7933669,47.65912,-0.7028166,-2.1371253,-3.1400437,-0.2714666,-0.10871149,-0.20150502,27.8125,28.9375,28.0625,32.0625,34.125,34.9375
0.07201846,-1.175349,-1.5675449,-0.8110665,-0.023475671,0.03714355,-0.1608678,-0.38218445,-0.3484992,0.05991318,-3.0781043,0.6254496,-0.000332072,-0.0360385,4.7983624e-05,0.0026260223,0.00650052,0.0068725483,-0.009277138,0.4768166,-1.4238421,1.9553312,-2.1002777,-1.5709289,2.4521818,-0.027499365,0.056738004,-0.07399018,0.014156579,-0.009066057,-0.01816073,-0.21068975,0.21068975,-9.212888,0.7553206,47.658226,-0.70965976,-2.0940723,-3.1989274,-0.2812341,-0.11574967,-0.21414116,27.8125,28.9375,28.0625,32.0625,34.125,34.9375
0.07401853,-1.0437181,-1.345624,-0.72545385,-0.008231913,0.050117273,-0.16587676,-0.38228232,-0.34848487,0.059922453,-3.0780523,0.6255543,-0.0002697781,-0.03743304,7.3156705e-05,0.003022004,0.0069782487,0.008105009,-0.009296865,0.4767323,-1.42371,1.955151,-2.1002414,-1.5709776,2.4521697,-0.028177002,0.058206644,-0.076650016,0.014473695,-0.010060936,-0.01881528,-0.22984336,0.22984336,-9.251195,0.78217715,47.69763,-0.73126644,-2.086718,-3.1358933,-0.26932248,-0.11499546,-0.20607969,27.8125,28.9375,28.0625,32.0625,34.125,34.9375
0.07601847,-0.69555897,-0.6464913,-0.5024185,-0.01076052,0.06779761,-0.1673352,-0.38234204,-0.34848195,0.059926126,-3.0780475,0.6256105,-0.000256326,-0.038334277,0.0003267603,0.0029584235,0.008743816,0.008526282,-0.008577627,0.4766723,-1.4236255,1.9550432,-2.100229,-1.570978,2.4521453,-0.0283085,0.06000072,-0.07872006,0.015190945,-0.011825791,-0.019661456,-0.15322891,0.22984336,-9.270349,0.7418897,47.737934,-0.7842375,-2.1458673,-3.1159077,-0.26227924,-0.09784712,-0.19548851,27.8125,28.9375,28.0625,32.0625,34.125,34.9375
0.0780184,-1.2078733,-1.2443643,-0.7003613,0.014486987,0.057275966,-0.15404248,-0.3824149,-0.34849724,0.05993437,-3.0780573,0.62561154,-0.0002679563,-0.03931442,3.6737445e-05,0.0032791435,0.009030273,0.009558571,-0.007661436,0.4766244,-1.4234933,1.9548625,-2.1001809,-1.5709661,2.452097,-0.028216254,0.06135351,-0.081048325,0.01538265,-0.0125587415,-0.02048263,-0.24899697,0.24899697,-9.232041,0.7284641,47.657326,-0.79660094,-2.029394,-3.07931,-0.24082047,-0.08726569,-0.21490979,27.8125,28.9375,28.0625,32.0625,34.125,34.9375
0.080018505,-1.0896487,-0.85588104,-0.78095025,0.002982874,0.05589826,-0.16120361,-0.38248363,-0.3484771,0.059923634,-3.0779636,0.62565017,-0.00028187508,-0.04043181,0.00027425057,0.0036233668,0.010082373,0.010213039,-0.0072791832,0.47656414,-1.4233491,1.9547061,-2.1001089,-1.5710262,2.4520729,-0.028858503,0.06259746,-0.08352024,0.016513804,-0.013798107,-0.02150266,-0.2873042,0.15322891,-9.136273,0.72622824,47.689575,-0.8685862,-2.088343,-3.0678644,-0.2448764,-0.09253658,-0.2285418,27.8125,28.9375,28.0625,32.0625,34.125,34.9375
0.08201852,-1.4677914,-1.176645,-0.7856488,0.0014573806,0.035825394,-0.15446723,-0.38257268,-0.34850538,0.059961624,-3.078013,0.62562084,-0.0001702311,-0.040940054,0.000370261,0.0018391196,0.011976971,0.006713075,-0.006898236,0.4765399,-1.4232513,1.954502,-2.1000845,-1.5710381,2.4520242,-0.029442696,0.067926995,-0.08573052,0.017372932,-0.0138775455,-0.022467004,-0.21068975,0.114921674,-9.346964,0.7530795,47.68599,-0.89366734,-2.161169,-3.1162677,-0.2541797,-0.06963051,-0.23918708,27.8125,28.9375,28.0625,32.0625,34.125,34.9375
0.08401848,-1.3493992,-1.3743601,-1.0129614,-0.01283416,0.035058502,-0.15085253,-0.38268968,-0.34849638,0.059982676,-3.0780056,0.62571603,-8.7462555e-05,-0.0418986,0.00013850845,0.0034116488,0.01062295,0.009295931,-0.00668041,0.47643176,-1.4231199,1.9542984,-2.1000607,-1.5710624,2.4519765,-0.029911825,0.06616917,-0.087450236,0.017931879,-0.013860419,-0.023154212,-0.2681506,0.15322891,-9.251195,0.8157518,47.66987,-0.94357383,-2.1197588,-3.0363917,-0.23234238,-0.05660355,-0.23162246,27.8125,28.9375,28.0625,32.0625,34.125,34.9375
0.0860185,-0.79500496,-1.35337,-0.8836345,-0.018989312,0.054279394,-0.16326793,-0.38275468,-0.34851652,0.05999101,-3.0780456,0.6256268,-4.5991772e-05,-0.041830473,0.00021404875,0.0028052726,0.011065279,0.0068099843,-0.0064123394,0.4764076,-1.4230111,1.9541548,-2.1000602,-1.5710624,2.4518917,-0.030464409,0.067979835,-0.08851942,0.019598952,-0.013111381,-0.023976265,-0.30645782,0.13407528,-9.251195,0.7486078,47.67614,-0.9194989,-2.0212522,-3.1474051,-0.23357353,-0.08586906,-0.24244401,27.8125,28.9375,28.0625,32.0625,34.125,34.9375
0.08801855,-1.1764531,-1.3651078,-0.7583487,-0.021818247,0.053611405,-0.15668695,-0.38284814,-0.34850436,0.059988696,-3.077977,0.6257082,-5.601791e-05,-0.042448882,0.0005670487,0.0017363945,0.012988531,0.004920183,-0.0062013147,0.4763233,-1.4228418,1.9539503,-2.0999877,-1.5710987,2.451867,-0.03110413,0.07150266,-0.09029843,0.020417124,-0.013957188,-0.024823641,-0.34476504,0.21068975,-9.289502,0.7217513,47.617023,-0.9420061,-2.0561929,-3.1011662,-0.23247406,-0.08155138,-0.24803264,27.8125,28.9375,28.0625,32.0625,34.125,34.9375
0.090018414,-1.2449555,-1.5216241,-0.9667163,-0.01604816,0.060601965,-0.15612045,-0.38291243,-0.34849772,0.05997776,-3.077946,0.62564486,-5.1912855e-05,-0.042916194,0.00061499665,0.0015938578,0.013120431,0.004533146,-0.0056934077,0.4762751,-1.4227091,1.9538182,-2.0999634,-1.571134,2.4517834,-0.031650968,0.07261898,-0.09132911,0.020733621,-0.013899643,-0.02587754,-0.2873042,0.19153613,-9.270349,0.73069996,47.66808,-1.0062258,-2.244844,-3.17575,-0.21522737,-0.07362694,-0.24688381,27.8125,28.9375,28.0625,32.0625,34.125,34.9375
0.0920185,-1.5159192,-1.4687139,-0.967866,-0.016175011,0.05774604,-0.15066515,-0.38302377,-0.348506,0.060001828,-3.0779388,0.62573814,3.0426801e-05,-0.044294227,0.00026597193,0.0019554128,0.012732805,0.005276085,-0.005464724,0.47620293,-1.4225645,1.9535898,-2.0999277,-1.5711583,2.4517705,-0.032289676,0.07450832,-0.09440146,0.021076571,-0.013900804,-0.026743855,-0.24899697,0.22984336,-9.289502,0.7530795,47.67166,-1.0058384,-2.0643868,-3.0937767,-0.23089685,-0.090044975,-0.24786732,27.8125,28.9375,28.0625,32.0625,34.125,34.9375
0.09401896,-1.0854236,-1.511202,-0.92657804,-0.007755257,0.06256437,-0.15411858,-0.3831176,-0.34849423,0.059987925,-3.0778697,0.62578195,3.8336816e-06,-0.043509744,0.00054323813,0.00044523226,0.013432797,0.0018985425,-0.0048440155,0.4761187,-1.4223716,1.9533876,-2.099868,-1.571194,2.4517226,-0.032650396,0.076469846,-0.09325455,0.021284807,-0.012973856,-0.027726715,-0.15322891,0.30645782,-9.423578,0.7709874,47.651955,-1.0289881,-2.1528146,-3.274445,-0.20684806,-0.0887745,-0.26205277,27.8125,28.9375,28.0625,32.0625,34.125,34.9375
0.09601852,-1.3915186,-2.1497052,-0.99284035,-0.013286668,0.038323324,-0.14252391,-0.38317817,-0.34849215,0.059978403,-3.0778167,0.6257515,-1.9144352e-05,-0.04582092,-0.00039532475,0.0015987167,0.012458853,0.004562513,-0.0048073293,0.47608265,-1.4222265,1.9532298,-2.0998075,-1.5712303,2.4516745,-0.03287008,0.0787177,-0.09851425,0.021482274,-0.013341616,-0.02797882,-0.17238252,0.28730422,-9.32781,0.6971306,47.70032,-1.0577046,-2.177987,-3.1323118,-0.18635008,-0.07797176,-0.27733847,27.8125,28.9375,28.0625,32.0625,34.125,34.9375
0.0980185,-0.7251269,-1.5822232,-1.0345507,-0.029004194,0.028518151,-0.15254201,-0.38327575,-0.3484929,0.05998365,-3.0778134,0.6258083,-3.425832e-05,-0.045271005,0.00029380774,-7.005762e-05,0.014320943,0.0014335972,-0.0049965,0.4759864,-1.4220697,1.9530276,-2.0997598,-1.5712184,2.4516141,-0.033433106,0.08104913,-0.097427785,0.021698376,-0.013560592,-0.028352445,-0.076614454,0.17238252,-9.404425,0.80456203,47.67614,-1.0726871,-2.169487,-3.332644,-0.16689965,-0.092939846,-0.2719513,27.8125,28.9375,28.0625,32.0625,34.125,34.9375
0.10001838,-0.620908,-1.9441946,-1.2325449,-0.029023612,0.017901042,-0.15089041,-0.38338026,-0.3485023,0.059994742,-3.0778098,0.6257875,7.172212e-05,-0.04635769,0.0003598357,0.0003748262,0.014776791,0.002550711,-0.005071407,0.47593838,-1.4219133,1.9528235,-2.0997598,-1.571267,2.4515538,-0.033944577,0.081915654,-0.0995543,0.022175314,-0.014480205,-0.028786791,-0.13407528,0.22984336,-9.423578,0.8291774,47.675243,-1.1131935,-2.0906882,-3.3409762,-0.16754453,-0.06230019,-0.27616945,27.8125,28.9375,28.0625,32.0625,34.125,34.9375
0.10201852,-0.74668926,-1.7447996,-1.0399351,-0.04257228,0.011425909,-0.15309274,-0.3834919,-0.34848192,0.06000113,-3.0777514,0.6258916,0.000117705895,-0.046966866,0.00034647275,0.000257732,0.014111061,0.0015593845,-0.006401434,0.47583005,-1.4217567,1.952619,-2.0997117,-1.5713142,2.451518,-0.035143673,0.08324759,-0.10097093,0.02282965,-0.013436294,-0.028657125,-0.11492168,0.28730422,-9.404425,0.7486078,47.661808,-1.1321272,-2.1594293,-3.3621802,-0.15402663,-0.046728298,-0.2991825,27.8125,28.9375,28.0625,32.0625,34.125,34.9375
0.10401858,-0.59146667,-1.8061624,-0.9407027,-0.034925345,0.020780243,-0.15363999,-0.3835787,-0.34849688,0.06001408,-3.077749,0.6259113,9.036775e-05,-0.048085004,0.0010228017,0.00018451385,0.013666466,0.001352935,-0.007842804,0.47576895,-1.4216003,1.9523915,-2.0996282,-1.5713023,2.4514697,-0.037674915,0.084081516,-0.1017527,0.022754386,-0.012949573,-0.029747274,-0.019153614,0.2681506,-9.423578,0.78888994,47.666286,-1.043055,-2.1174362,-3.4708633,-0.13869822,-0.08023301,-0.3035665,27.8125,28.9375,28.0625,32.0625,34.125,34.9375
0.1060185,-0.5978453,-1.6602161,-1.0272892,-0.025300575,0.032664377,-0.1536775,-0.3836871,-0.3485107,0.06001829,-3.077761,0.625874,0.0001569711,-0.049469292,0.00015771453,0.00093668344,0.012557534,0.0030039558,-0.006080225,0.47570917,-1.4214194,1.952175,-2.0996282,-1.5713261,2.4513853,-0.037546348,0.08555843,-0.105164744,0.02271051,-0.012727313,-0.03138027,-0.019153614,0.24899697,-9.404425,0.7732232,47.698532,-1.1419677,-2.1636903,-3.4759595,-0.12414071,-0.061557725,-0.2870667,27.8125,28.9375,28.0625,32.0625,34.125,34.9375
0.10801866,-0.52547723,-1.3876694,-0.97065043,-0.028406177,0.043849155,-0.16098024,-0.38377824,-0.34849098,0.059993222,-3.0776694,0.62595105,0.00010056304,-0.048395354,-0.00011847846,-0.00024474974,0.01305793,3.7315815e-05,-0.00518101,0.4756135,-1.4212147,1.9519843,-2.0995677,-1.5713619,2.4513495,-0.03665037,0.08719069,-0.10447231,0.02324668,-0.011813706,-0.031384606,-0.019153614,0.28730422,-9.404425,0.82022345,47.691364,-1.2396629,-2.0496016,-3.5496578,-0.09629303,-0.08469149,-0.29922146,27.8125,28.9375,28.0625,32.0625,34.125,34.9375
0.11001844,-0.70171714,-1.5116082,-1.0961624,-0.021320662,0.038927007,-0.15637532,-0.38387007,-0.34850678,0.06002873,-3.077675,0.62595296,0.00014142739,-0.050182253,4.418357e-05,0.0007322408,0.012827727,0.0006395137,-0.008189327,0.47556478,-1.4210942,1.9517435,-2.0994713,-1.5713738,2.4513013,-0.03852235,0.08832671,-0.10853199,0.025529772,-0.01188721,-0.030246673,-0.076614454,0.30645782,-9.3661175,0.784413,47.693153,-1.2127829,-2.0487452,-3.5994368,-0.0946956,-0.1044649,-0.32285172,27.8125,28.9375,28.0625,32.0625,34.125,34.9375
0.11201852,-0.8436443,-1.3617774,-1.18255,-0.02235405,0.02614817,-0.1445384,-0.3839938,-0.34850302,0.060003977,-3.077664,0.6259699,0.00012531936,-0.050773073,0.00022716654,0.0004394895,0.013000704,-0.0006732397,-0.008599384,0.4754444,-1.4208536,1.9515275,-2.0994833,-1.5713738,2.451193,-0.03965996,0.09005465,-0.11011017,0.026622772,-0.011442392,-0.030974152,0.038307227,0.28730422,-9.3661175,0.7978386,47.66808,-1.149511,-1.936898,-3.4707603,-0.091115266,-0.09740491,-0.3468708,27.8125,28.9375,28.0625,32.0625,34.125,34.9375
0.11401854,-0.23630828,-0.9799324,-1.1055775,-0.026926119,0.03416752,-0.15999763,-0.38409528,-0.34847972,0.060002595,-3.0775607,0.6260252,0.00018821086,-0.05226195,0.0006250085,0.00065635017,0.014022556,-0.00032490265,-0.007875871,0.4753719,-1.4206846,1.9513234,-2.0994227,-1.5714697,2.4511685,-0.041025326,0.091962144,-0.11307793,0.02783934,-0.012516348,-0.033059075,-0.076614454,0.34476507,-9.346964,0.77545905,47.664497,-1.2122562,-2.0447004,-3.4817073,-0.09315394,-0.090159014,-0.32398817,27.8125,28.9375,28.0625,32.0625,34.125,34.9375
0.116019525,-0.58686584,-1.5180665,-1.0778605,-0.017764557,0.028892966,-0.15682289,-0.3841979,-0.34851655,0.06002559,-3.0776222,0.62592334,0.00023566165,-0.053849485,0.0008818318,0.0021990484,0.01285411,0.0018668696,-0.009198883,0.47533518,-1.4205168,1.9510707,-2.0993865,-1.5714577,2.4510605,-0.04294586,0.09080229,-0.11554902,0.028986095,-0.012482083,-0.03365649,-0.17238252,0.22984336,-9.442732,0.7620334,47.694946,-1.0811844,-1.8229535,-3.446616,-0.08731036,-0.10559735,-0.33681405,27.8125,28.9375,28.0625,32.0625,34.125,34.9375
0.11801857,-1.0920227,-1.7293897,-1.283687,-0.014483086,0.030138178,-0.14556879,-0.3842817,-0.34851265,0.05999623,-3.077558,0.62592715,0.00011444254,-0.053847816,0.0006316496,0.0008076721,0.014812267,-0.0008399899,-0.0066868295,0.47525156,-1.4202873,1.9508556,-2.099302,-1.5714582,2.4509876,-0.04216198,0.094977975,-0.11739144,0.029955043,-0.0129911285,-0.03538103,-0.24899697,0.24899697,-9.461885,0.8493211,47.717335,-1.2012539,-2.0030358,-3.4656372,-0.08006044,-0.0741355,-0.35182694,27.8125,28.9375,28.0625,32.0625,34.125,34.9375
0.12001845,-0.89597267,-1.3626134,-1.2087417,-0.031479225,0.05806264,-0.1567162,-0.38441658,-0.34849292,0.06004219,-3.0775278,0.62599665,0.00023192345,-0.054829817,0.00026734459,0.0020631494,0.013695627,0.00064689247,-0.0053096204,0.4751314,-1.4201672,1.9505914,-2.0992062,-1.5715178,2.4509149,-0.042597856,0.094452046,-0.119949095,0.031199224,-0.012681163,-0.03719445,-0.24899697,0.28730422,-9.423578,0.81351066,47.690468,-1.2504953,-1.8340701,-3.417928,-0.06685234,-0.09966986,-0.3168917,27.8125,28.9375,28.0625,32.0625,34.125,34.9375
0.122018725,-1.2668645,-1.5908701,-1.22835,-0.032010794,0.0728627,-0.14980154,-0.3844855,-0.34851664,0.060003757,-3.07749,0.62597084,8.859265e-05,-0.056175668,0.0006612715,0.001944857,0.0136380335,-0.0002429363,-0.008103314,0.47509465,-1.4199142,1.9503759,-2.0991461,-1.571494,2.450867,-0.04481293,0.09661265,-0.122421615,0.032275382,-0.012229249,-0.036614235,-0.21068975,0.24899697,-9.557653,0.7642693,47.682407,-1.2096933,-1.8001692,-3.4532351,-0.072514094,-0.12340676,-0.3263827,27.8125,28.9375,28.0625,32.0625,34.125,34.9375
0.124018796,-1.0669827,-1.5125821,-1.2251368,-0.03374281,0.08301621,-0.15873156,-0.38459846,-0.34850526,0.060011424,-3.0774329,0.62597936,0.0001331936,-0.05759605,0.0010190415,0.0026896035,0.01393516,0.00093864335,-0.008978158,0.47501004,-1.419734,1.9501356,-2.0990741,-1.5715545,2.4507952,-0.046209212,0.09711955,-0.124975204,0.033406433,-0.013038095,-0.037132725,-0.24899697,0.2681506,-9.576807,0.81351066,47.66091,-1.1202955,-1.7811792,-3.3956623,-0.07221085,-0.11238973,-0.36314684,27.8125,28.9375,28.0625,32.0625,34.125,34.9375
0.12601876,-1.6772301,-1.7600138,-1.3725439,-0.028901767,0.06713768,-0.14612836,-0.38476044,-0.34850794,0.06004,-3.0774655,0.6260027,0.00020246298,-0.057784654,0.0010212808,0.0018075632,0.014835631,-0.0016561736,-0.0065423837,0.47486597,-1.4195288,1.9498242,-2.0990255,-1.5715541,2.4506617,-0.046610598,0.100077905,-0.126706,0.034892417,-0.012653173,-0.039970428,-0.2681506,0.21068975,-9.615114,0.7665104,47.686886,-1.2052326,-1.7946419,-3.4437418,-0.07634258,-0.1319169,-0.339033,27.8125,28.9375,28.0625,32.0625,34.125,34.9375
0.12801856,-1.6193609,-1.4677032,-1.2288586,-0.031815212,0.06524463,-0.1562432,-0.38486907,-0.34849897,0.06003534,-3.0773954,0.62604564,0.00020434138,-0.059138987,0.0011777688,0.0021943927,0.015082538,-0.0007296399,-0.0055666408,0.47478163,-1.419324,1.9495839,-2.098953,-1.5716022,2.4506133,-0.047691476,0.10132476,-0.129145,0.035370752,-0.01330395,-0.042023953,-0.38307226,0.22984336,-9.672575,0.8112748,47.684196,-1.212785,-1.7689695,-3.4204946,-0.07128786,-0.13445592,-0.29718783,27.8125,28.9375,28.0625,32.0625,34.125,34.9375
0.13001849,-1.4108369,-1.3595102,-1.4623921,-0.025345469,0.06873506,-0.15124016,-0.38496256,-0.34848648,0.060032044,-3.0773485,0.62613124,0.00014592119,-0.061593685,2.6199188e-05,0.0028592485,0.012952363,0.0018846176,-0.0047159404,0.4746735,-1.419155,1.9493788,-2.09887,-1.5716017,2.4505646,-0.048325166,0.10428856,-0.13368386,0.03364164,-0.012621693,-0.043506198,-0.30645782,0.2681506,-9.672575,0.76874626,47.670765,-1.2137892,-1.8024409,-3.1595454,-0.056317575,-0.1281907,-0.29435062,27.8125,28.9375,28.0625,32.0625,34.125,34.9375
0.1320185,-1.150112,-1.3496368,-1.3855292,-0.024338996,0.070568405,-0.15941212,-0.38507628,-0.34852457,0.06005882,-3.077396,0.6260058,0.00018775705,-0.06271461,0.0004674245,0.0014527313,0.015037285,0.00011310477,-0.0044080717,0.474637,-1.4189609,1.9490789,-2.0987985,-1.5716022,2.450444,-0.049441766,0.10896584,-0.13585553,0.033666525,-0.013670754,-0.04492712,-0.4405331,0.19153613,-9.710882,0.75084364,47.682407,-1.2223259,-2.062346,-3.3997207,-0.02059749,-0.13734144,-0.28734002,27.8125,28.9375,28.0625,32.0625,34.125,34.9375
0.13401848,-1.868146,-1.8542036,-1.502086,-0.017940002,0.061065,-0.15078631,-0.38522425,-0.34851313,0.060062535,-3.0773575,0.6260163,0.00020791338,-0.06371045,0.00045757828,0.0025215629,0.014328311,0.0013990602,-0.0036392065,0.4745047,-1.4187213,1.9487795,-2.0987265,-1.5716385,2.4503233,-0.05033426,0.1084262,-0.13797033,0.03484793,-0.013632021,-0.04658772,-0.38307226,0.19153613,-9.634268,0.83365434,47.65912,-1.2201017,-1.8770729,-3.2380354,-0.019014483,-0.14791691,-0.25040734,27.8125,28.9375,28.0625,32.0625,34.125,34.9375
0.13601846,-1.4560795,-1.6007007,-1.4614842,-0.029580224,0.07479503,-0.15276822,-0.38536668,-0.34848797,0.060089163,-3.0772948,0.62606096,0.0003156016,-0.0645223,0.0008714451,0.0007751359,0.016486418,-0.0015496291,-0.002812171,0.4743844,-1.4185511,1.9485043,-2.098642,-1.5717229,2.4502392,-0.05141574,0.11360927,-0.14005446,0.03535234,-0.014209098,-0.048493594,-0.28730422,0.19153613,-9.730036,0.78217715,47.72719,-1.2359147,-2.170203,-3.298315,-0.017414384,-0.1514795,-0.20458335,27.8125,28.9375,28.0625,32.0625,34.125,34.9375
0.13801852,-1.5949293,-1.8031116,-1.1536831,-0.031798586,0.0822326,-0.1584545,-0.3854876,-0.3484941,0.06007747,-3.0772588,0.6260323,0.00029375305,-0.06522721,0.0014919502,0.00060522225,0.017958952,-0.0024962483,-0.0024892618,0.4743,-1.4182986,1.9482278,-2.0985816,-1.5717467,2.4501417,-0.052569915,0.1151139,-0.14182135,0.03712849,-0.015089981,-0.049967557,-0.47884035,0.24899697,-9.710882,0.8023209,47.677036,-1.2201605,-1.9131455,-3.274993,-0.015343032,-0.12779537,-0.19677004,27.8125,28.9375,28.0625,32.0625,34.125,34.9375
0.14001848,-1.6743497,-1.6130705,-1.0367737,-0.048485734,0.08503689,-0.15777877,-0.3856052,-0.34848717,0.060058564,-3.0771973,0.62600005,0.00025377324,-0.06572585,0.0017568786,-7.268404e-05,0.019416248,-0.0041360334,-0.001423253,0.4742038,-1.4180453,1.9479641,-2.0985096,-1.5717834,2.4500334,-0.053117953,0.117754474,-0.1436188,0.038406555,-0.015643897,-0.051578455,-0.53630114,0.3256114,-9.5385,0.8023209,47.670765,-1.1916811,-1.9760101,-3.2508225,-0.033304498,-0.13754174,-0.18496244,27.8125,28.9375,28.0625,32.0625,34.125,34.9375
0.14201848,-1.8509135,-2.4650414,-1.0055022,-0.041139077,0.08378244,-0.15301639,-0.3857597,-0.34850997,0.06011481,-3.0772898,0.6260387,0.00032306433,-0.06744931,0.0011296916,0.000748851,0.017727265,-0.0024163683,-0.001109973,0.4740715,-1.4178888,1.9476398,-2.098438,-1.5717348,2.4499135,-0.054013785,0.11908066,-0.14697091,0.03812796,-0.01493157,-0.052788705,-0.5746084,0.38307226,-9.404425,0.82022345,47.66987,-1.2359345,-1.9563444,-3.3659387,-0.01712419,-0.14080158,-0.1229413,27.8125,28.9375,28.0625,32.0625,34.125,34.9375
0.14401856,-1.3325222,-2.1360788,-0.75794667,-0.055704854,0.08998282,-0.15629631,-0.385921,-0.3484988,0.060127083,-3.0771978,0.6260964,0.0004406834,-0.06871418,0.0023678446,0.00037390634,0.018678384,-0.002750953,-0.0033348566,0.47397453,-1.4176362,1.9473056,-2.0983655,-1.5718435,2.4498646,-0.05688326,0.12036683,-0.14764181,0.03823912,-0.015627228,-0.05343153,-0.47884032,0.2873042,-9.270349,0.8314132,47.647476,-1.1710652,-1.8013002,-3.3657045,0.0047092424,-0.15248868,-0.08868346,27.8125,28.9375,28.0625,32.0625,34.125,34.9375
0.14601856,-1.2325333,-1.6711327,-0.46485612,-0.039306264,0.077597395,-0.15822905,-0.3860752,-0.34850362,0.060122777,-3.077197,0.62613595,0.00045273293,-0.0690381,0.0025097793,0.000101209655,0.01972476,-0.004439845,-0.004970589,0.47384226,-1.417371,1.9470056,-2.0983412,-1.5718435,2.4497573,-0.057298236,0.122230455,-0.14967701,0.04039106,-0.015787242,-0.05220977,-0.36391866,0.28730422,-9.232041,0.8112748,47.677036,-1.0838609,-1.9416581,-3.3499365,-0.006273291,-0.16447778,-0.093620524,27.8125,28.9375,28.0625,32.0625,34.125,34.9375
0.14801854,-0.9716988,-0.919794,-0.26350674,-0.028967831,0.067146346,-0.16023953,-0.38618731,-0.34848765,0.060106527,-3.0771327,0.62604654,0.00038284934,-0.068727605,0.0025010086,-0.0006951034,0.021503786,-0.00651399,-0.0053967196,0.47373468,-1.4171304,1.9467419,-2.098233,-1.5718793,2.4496024,-0.05656657,0.12441014,-0.15073581,0.0419278,-0.01642788,-0.051048715,-0.4405331,0.24899697,-9.11712,0.79560274,47.684196,-1.2362111,-1.8018152,-3.4320037,-0.0066134967,-0.1655549,-0.11093436,27.8125,28.9375,28.0625,32.0625,34.125,34.9375
0.15001841,-0.9020403,-0.74488354,0.0022907776,-0.009777,0.051003326,-0.15818116,-0.38634774,-0.34851372,0.06012928,-3.0771768,0.6260354,0.0005215106,-0.07004102,0.0027649668,-0.00042413126,0.020864654,-0.006925933,-0.0067223804,0.47364977,-1.4169017,1.9464301,-2.0982444,-1.5719031,2.449505,-0.058692317,0.12576988,-0.1532132,0.043114163,-0.015670791,-0.051850777,-0.3256114,0.21068975,-9.040505,0.82694155,47.682407,-1.2237642,-1.906231,-3.3613367,0.0044508246,-0.16235411,-0.06733619,27.8125,28.9375,28.0625,32.0625,34.125,34.9375
0.15201847,-0.57685786,-0.48880306,-0.08351535,0.017589299,0.033183604,-0.14908461,-0.3865182,-0.34851065,0.0601489,-3.0771446,0.62620544,0.0005860139,-0.07150573,0.0041971207,-0.0004719859,0.021510074,-0.008112609,-0.01275857,0.47350454,-1.4166607,1.9460949,-2.0981839,-1.5719274,2.4494703,-0.062503085,0.12692371,-0.15488023,0.044977352,-0.015702633,-0.049625218,-0.21068975,0.038307227,-8.887277,0.83365434,47.689575,-1.036463,-1.9273448,-3.421238,0.0031673505,-0.18093458,-0.070404984,27.8125,28.9375,28.0625,32.0625,34.125,34.9375
0.1540185,-0.2262652,0.24818945,0.030473365,0.01681545,0.024551814,-0.15907462,-0.38663685,-0.3484844,0.060129676,-3.0770588,0.6261496,0.00048765366,-0.07144331,0.0036138394,-0.0015319252,0.022984233,-0.011187699,-0.014144371,0.473373,-1.4164073,1.9458178,-2.0980518,-1.5719632,2.449315,-0.061446972,0.131027,-0.15768018,0.04708221,-0.015619941,-0.047180213,-0.21068975,0.05746084,-8.868123,0.79560274,47.65106,-1.0318292,-1.8718817,-3.3077312,-0.020368833,-0.19952373,-0.114250526,27.8125,28.9375,28.0625,32.0625,34.125,34.9375
0.15601856,-0.3708491,-0.15212744,-0.078819044,0.025722682,0.012874939,-0.15471844,-0.38682127,-0.34846893,0.06014749,-3.0769894,0.626251,0.00054298603,-0.072687894,0.003903144,0.00035229948,0.022377124,-0.0093482705,-0.01615184,0.4732164,-1.4161317,1.9454359,-2.097943,-1.5720233,2.449231,-0.06285961,0.12922807,-0.16057919,0.04986289,-0.015920622,-0.046584148,-0.11492168,0.095768064,-8.810662,0.7709874,47.711063,-1.1327515,-1.7334403,-3.3349175,-0.0431111,-0.18139611,-0.08807767,27.8125,28.9375,28.0625,32.0625,34.125,34.9375
0.15801847,0.09551791,0.052626483,-0.19006935,0.029704291,0.01591092,-0.15789777,-0.386971,-0.34848693,0.060157716,-3.0769868,0.6262909,0.00058240327,-0.07415824,0.004859016,-0.000412776,0.024433125,-0.012207061,-0.019123126,0.47311947,-1.4158779,1.9451097,-2.097894,-1.5720352,2.4491594,-0.06551845,0.1333529,-0.16430184,0.052942645,-0.016449567,-0.046269104,-0.076614454,0.0,-8.887277,0.86945957,47.67614,-0.9836933,-1.8756502,-3.254952,-0.06354128,-0.19638744,-0.10758369,27.8125,28.9375,28.0625,32.0625,34.125,34.9375
0.16001853,-0.3884694,-0.38107044,-0.28011477,0.029070728,0.008820577,-0.14999959,-0.38710612,-0.3484618,0.06015238,-3.076884,0.6263853,0.00051124755,-0.073815905,0.0053455164,-0.0006550409,0.02584524,-0.014860258,-0.020033065,0.47297543,-1.4156253,1.9447988,-2.097749,-1.5720714,2.4490876,-0.06600486,0.13411936,-0.16542086,0.056297213,-0.016499562,-0.045844037,-0.076614454,-0.076614454,-8.791509,0.81351066,47.660015,-0.969396,-1.7663641,-3.4212818,-0.09547571,-0.20841546,-0.122984745,27.8125,28.9375,28.0625,32.0625,34.125,34.9375
0.16201845,-0.3828306,-0.8972266,-0.2980712,0.025798883,0.013084578,-0.15152627,-0.38722497,-0.34843272,0.060129598,-3.076785,0.6263282,0.00044952126,-0.074699745,0.0060710358,-0.00088825094,0.027661806,-0.016451474,-0.024921127,0.47285488,-1.4153725,1.9445356,-2.0976403,-1.572132,2.4489443,-0.067487866,0.13628592,-0.16801503,0.05897247,-0.017396206,-0.042434227,-0.15322891,-0.095768064,-8.829816,0.800085,47.655537,-0.94772506,-1.8650763,-3.3501842,-0.14297865,-0.17448527,-0.16310154,27.8125,28.9375,28.0625,32.0625,34.125,34.9375
0.1640185,-0.27052966,-0.3184439,-0.47811586,0.0050256546,0.030715926,-0.15936892,-0.38739842,-0.34841126,0.060127806,-3.0766957,0.626483,0.0003966453,-0.075059466,0.006390368,-0.0010644515,0.028568912,-0.018440366,-0.026368821,0.47267458,-1.4150716,1.9441637,-2.0975077,-1.5721558,2.4488723,-0.068399966,0.13789691,-0.17010579,0.061632436,-0.017303793,-0.041897066,-0.17238252,0.11492168,-8.925584,0.85826975,47.670765,-0.9593891,-1.8407202,-3.2535934,-0.1778022,-0.19732572,-0.17673336,27.8125,28.9375,28.0625,32.0625,34.125,34.9375
0.16601849,-0.5044326,-0.48923528,-0.6493786,-0.008135335,0.040563833,-0.15320845,-0.38751847,-0.34840548,0.06012031,-3.0766013,0.62650305,0.00031118453,-0.075893335,0.006568171,-0.0014998448,0.029602418,-0.019999135,-0.02702853,0.47257823,-1.414806,1.9438399,-2.0973518,-1.5721916,2.4488008,-0.06930671,0.14070797,-0.17276219,0.06333343,-0.017523497,-0.042140506,-0.15322891,0.17238252,-9.097966,0.7486078,47.71465,-0.85546094,-1.9983785,-3.1992264,-0.2520644,-0.2061432,-0.18494815,27.8125,28.9375,28.0625,32.0625,34.125,34.9375
0.16801849,-0.84458107,-1.4304686,-1.021423,-0.019268248,0.054610353,-0.15168865,-0.3876689,-0.34837925,0.06011757,-3.0764885,0.6265565,0.00026489244,-0.07653765,0.0065509873,-0.002346164,0.03024319,-0.022690643,-0.028098999,0.47243387,-1.414529,1.9434923,-2.0971959,-1.5722517,2.4487045,-0.07024558,0.14434522,-0.1754389,0.06505402,-0.01687907,-0.042007577,-0.19153614,0.24899697,-9.212888,0.7866488,47.688675,-0.8466552,-1.7399725,-3.3225915,-0.30186316,-0.2193746,-0.21712804,27.8125,28.9375,28.0625,32.0625,34.125,34.9375
0.17001855,-1.5461354,-2.2698512,-1.2591957,-0.04109345,0.060400214,-0.14875507,-0.38783914,-0.34836054,0.060118783,-3.0764058,0.6266935,0.00018615977,-0.0771772,0.006791356,-0.001898397,0.029505676,-0.02203343,-0.029363116,0.4722536,-1.4142289,1.9431089,-2.09704,-1.5722631,2.4486206,-0.07143292,0.14389835,-0.1760062,0.06514283,-0.016531363,-0.041930377,-0.30645782,0.2681506,-9.346964,0.7732232,47.66987,-0.88452494,-1.807678,-3.330028,-0.35512942,-0.23749909,-0.21487592,27.8125,28.9375,28.0625,32.0625,34.125,34.9375
0.17201854,-1.6508335,-2.4604335,-1.213881,-0.066709206,0.07906631,-0.1477328,-0.38797602,-0.34832433,0.06008335,-3.0762577,0.62677914,5.655275e-05,-0.07919633,0.0071881036,-0.0019034344,0.030001516,-0.020037282,-0.030603506,0.47209698,-1.4139158,1.9427971,-2.096897,-1.5723122,2.4485366,-0.07305102,0.14605802,-0.17816585,0.06359027,-0.017900722,-0.042300336,-0.40222588,0.3256114,-9.481039,0.7530795,47.696735,-0.84220445,-1.8103936,-3.2822626,-0.35917568,-0.24477503,-0.21723694,27.8125,28.9375,28.0625,32.0625,34.125,34.9375
0.17401843,-2.4465046,-3.0697284,-1.5238733,-0.081242725,0.08561701,-0.14719804,-0.38810956,-0.34833854,0.060078464,-3.0761948,0.62682337,-4.8598078e-05,-0.08080167,0.0068693426,-0.0018289319,0.029319564,-0.018093718,-0.030671831,0.4720008,-1.4136146,1.9424266,-2.0967424,-1.5723122,2.4484763,-0.07372696,0.1480073,-0.1801682,0.061600585,-0.018193431,-0.042904053,-0.49799395,0.38307226,-9.691729,0.83813137,47.684196,-0.76059484,-1.8508301,-3.3234715,-0.3705684,-0.23485513,-0.26391527,27.8125,28.9375,28.0625,32.0625,34.125,34.9375
0.17601846,-2.0604525,-3.1784103,-1.4652766,-0.085759036,0.10827504,-0.15186904,-0.38827002,-0.34831068,0.060063906,-3.076076,0.6268756,-0.000109017536,-0.082738705,0.006444106,-0.0014924326,0.027411373,-0.014861115,-0.031597562,0.47184443,-1.413302,1.9420675,-2.0965998,-1.5723718,2.448368,-0.07482913,0.14926259,-0.18161711,0.058041085,-0.017983427,-0.043077942,-0.4405331,0.45968673,-9.710882,0.8157518,47.67614,-0.7788603,-1.8115484,-3.3666387,-0.36329085,-0.2267476,-0.2747122,27.8125,28.9375,28.0625,32.0625,34.125,34.9375
0.17801853,-2.1032183,-2.8605154,-1.5421298,-0.0729175,0.101315394,-0.1626026,-0.38843206,-0.3483004,0.060066186,-3.0760298,0.62694424,-0.0001417625,-0.08514377,0.006765105,-0.00084350415,0.026114592,-0.011770864,-0.033719815,0.47168744,-1.4130254,1.9417194,-2.0964925,-1.5723842,2.44826,-0.077362195,0.15010782,-0.18361312,0.055846777,-0.018248035,-0.04348593,-0.5746084,0.4405331,-9.710882,0.84708,47.66271,-0.70194656,-1.8265533,-3.3924704,-0.356583,-0.25546044,-0.2682113,27.8125,28.9375,28.0625,32.0625,34.125,34.9375
0.18001844,-2.5614777,-2.5346577,-1.6024705,-0.06558606,0.08725126,-0.14983432,-0.3886308,-0.34830803,0.060079984,-3.0759978,0.6270702,-6.479646e-05,-0.08578576,0.0054497067,-0.002621722,0.026021335,-0.0114458995,-0.030864246,0.47154415,-1.4127114,1.9413131,-2.0964348,-1.5724205,2.4481997,-0.07553028,0.15525849,-0.18448454,0.051229995,-0.018328367,-0.044508036,-0.6895301,0.40222588,-9.768343,0.80456203,47.695843,-0.7112607,-1.8051925,-3.4898298,-0.3371234,-0.2852812,-0.28778797,27.8125,28.9375,28.0625,32.0625,34.125,34.9375
0.18201861,-2.3152125,-2.1439602,-1.6160886,-0.051284775,0.09140361,-0.15104243,-0.38880846,-0.348291,0.060075145,-3.0759244,0.6271499,-8.697945e-05,-0.088882826,0.0041098194,-0.00049355224,0.022416621,-0.0032772592,-0.030490907,0.47137624,-1.4123995,1.9409407,-2.0963285,-1.5724562,2.4480913,-0.07558772,0.15469182,-0.18753457,0.045928475,-0.018851519,-0.04493422,-0.5363012,0.2681506,-9.80665,0.79560274,47.652847,-0.8814,-1.783005,-3.4570165,-0.27847433,-0.26588646,-0.32240286,27.8125,28.9375,28.0625,32.0625,34.125,34.9375
0.18401848,-1.8955888,-2.193592,-1.7046229,-0.03518794,0.08739079,-0.1487158,-0.3889682,-0.34825754,0.06004925,-3.0757987,0.62722164,-0.000121759156,-0.091212735,0.004764248,-0.00097418524,0.021690013,-0.0026225788,-0.033427577,0.47121894,-1.4120859,1.940617,-2.0962331,-1.5725282,2.4479952,-0.07902256,0.1576457,-0.18944144,0.043959975,-0.018516684,-0.045430213,-0.38307226,0.22984336,-9.787497,0.8717007,47.66091,-0.7405375,-2.0324175,-3.5695555,-0.23411581,-0.28849518,-0.34252948,27.8125,28.9375,28.0625,32.0625,34.125,34.9375
0.18601856,-1.6947423,-1.487815,-1.6587381,-0.036018815,0.06613591,-0.14614326,-0.38918516,-0.34826565,0.060071543,-3.0757945,0.6272951,-4.3504533e-05,-0.0897731,0.0033779645,-0.0030004492,0.023203366,-0.005629553,-0.029829143,0.47105235,-1.4117602,1.9401745,-2.096162,-1.5725521,2.4478753,-0.07523939,0.1618559,-0.18954884,0.043219686,-0.018502211,-0.045245625,-0.36391866,0.13407528,-9.730036,0.800085,47.690468,-0.88281417,-2.0148723,-3.5730057,-0.18832369,-0.30356163,-0.33400863,27.8125,28.9375,28.0625,32.0625,34.125,34.9375
0.18801849,-1.2996745,-1.6894746,-1.6349027,-0.024716718,0.05590391,-0.1415724,-0.3893568,-0.34825167,0.060058277,-3.0757284,0.62735754,-5.5742545e-05,-0.09142177,0.0033544993,-0.0026890854,0.024091685,-0.0043119392,-0.030034613,0.47089618,-1.4114472,1.9398273,-2.0960896,-1.5725888,2.4477668,-0.07574554,0.1640851,-0.19297186,0.043642383,-0.019902727,-0.045539472,-0.2681506,0.21068975,-9.672575,0.9545008,47.658226,-0.91964245,-2.1037533,-3.6701114,-0.17873238,-0.2898066,-0.3788877,27.8125,28.9375,28.0625,32.0625,34.125,34.9375
0.19001853,-0.84109855,-1.0614473,-1.43283,-0.028948326,0.053471815,-0.15842198,-0.38957486,-0.34825984,0.060090236,-3.0757072,0.6274879,0.00010344063,-0.09248747,0.0029528805,-0.0025961713,0.0234997,-0.0027358932,-0.029783612,0.47075218,-1.4111463,1.9393967,-2.0960424,-1.5726489,2.4477072,-0.07582676,0.16543521,-0.19443165,0.042073477,-0.020095631,-0.045871682,-0.19153614,0.17238252,-9.595961,0.8493211,47.679718,-0.88318264,-2.135509,-3.694379,-0.14707194,-0.3045814,-0.4093368,27.8125,28.9375,28.0625,32.0625,34.125,34.9375
0.19201843,-0.4790619,-1.3656058,-1.3716072,-0.016653033,0.04696414,-0.15185149,-0.3897434,-0.34825143,0.06006992,-3.0756257,0.6275666,6.487919e-05,-0.09429357,0.00205919,-0.002364145,0.0227794,-0.0010828711,-0.029309561,0.47060814,-1.4108092,1.9390353,-2.095959,-1.5726846,2.447623,-0.07576183,0.16849554,-0.19832504,0.04110177,-0.020219095,-0.04627687,-0.05746084,0.19153613,-9.595961,0.83813137,47.690468,-0.9154216,-2.046677,-3.5545995,-0.09016538,-0.35003304,-0.43073404,27.8125,28.9375,28.0625,32.0625,34.125,34.9375
0.19401865,-0.32745326,-1.0976853,-1.1297224,-0.027008256,0.030213824,-0.14665234,-0.38993847,-0.34824058,0.060074747,-3.075549,0.6276647,0.00010603624,-0.095592834,0.0020396928,-0.0011254211,0.022847043,0.00022425748,-0.028208693,0.4704519,-1.4104848,1.9386281,-2.0958622,-1.5727452,2.4475381,-0.07642686,0.16860579,-0.20184334,0.043368164,-0.020879509,-0.048039284,0.0,0.24899697,-9.423578,0.8851263,47.68599,-1.0043883,-2.1415617,-3.42091,-0.06647842,-0.31662905,-0.42887807,27.8125,28.9375,28.0625,32.0625,34.125,34.9375
0.19601846,0.038897645,-1.431367,-1.210916,-0.01576328,0.020970777,-0.1520901,-0.39017254,-0.348252,0.060091957,-3.075554,0.6276838,0.00021060446,-0.09638118,0.0020609747,-0.0012750174,0.024155218,-0.00050894916,-0.027020346,0.4702839,-1.4101235,1.9381608,-2.095814,-1.572781,2.4473817,-0.07658227,0.170978,-0.20468314,0.04507722,-0.021716632,-0.049380414,0.05746084,0.28730422,-9.404425,0.7732232,47.7254,-1.0388587,-2.1954644,-3.3499565,-0.066523805,-0.3078966,-0.4650205,27.8125,28.9375,28.0625,32.0625,34.125,34.9375
0.19801848,0.11185306,-1.4220544,-1.2314358,-0.027046122,0.0138419345,-0.15886584,-0.3903547,-0.34823895,0.06007789,-3.0754538,0.6277962,0.00018071954,-0.09762887,0.0019935276,-0.00091141165,0.023897622,-0.0005359681,-0.025991216,0.4701276,-1.4097745,1.9377655,-2.0957057,-1.5728291,2.4473088,-0.077687904,0.17262071,-0.20776983,0.046417378,-0.02148659,-0.05151319,0.05746084,0.36391866,-9.481039,0.76874626,47.705692,-1.0439316,-2.1060207,-3.3816032,-0.035677113,-0.3276618,-0.46273458,27.8125,28.9375,28.0625,32.0625,34.125,34.9375
0.20001842,-0.57503545,-2.6491635,-1.2443926,-0.03710555,0.008249035,-0.14202417,-0.39053363,-0.3482309,0.06006985,-3.075369,0.62787175,0.00016547399,-0.09847075,0.0021389078,-0.0005944377,0.024227574,-0.0011603264,-0.022504143,0.46998316,-1.409438,1.9373707,-2.0955975,-1.5728773,2.4472227,-0.07864082,0.17383058,-0.21042958,0.04855798,-0.021510364,-0.05595109,0.0,0.34476504,-9.404425,0.84484416,47.675243,-0.97906476,-2.0479217,-3.3523927,-0.011869145,-0.34903875,-0.41667244,27.8125,28.9375,28.0625,32.0625,34.125,34.9375
0.20201845,-0.44887406,-2.5976515,-1.2340342,-0.06516546,0.019494293,-0.14763272,-0.39076993,-0.34822717,0.060086567,-3.0753598,0.62796617,0.00024266833,-0.09874769,0.0019673477,0.00017438048,0.024625337,-0.0011736801,-0.021393666,0.46977925,-1.4090897,1.9369162,-2.0955365,-1.5729011,2.4470792,-0.07830159,0.17377001,-0.21275231,0.051127207,-0.021859258,-0.056721702,0.038307227,0.38307226,-9.442732,0.87617236,47.629562,-1.0516498,-1.9882958,-3.4056804,-0.04125001,-0.3303191,-0.41298714,27.8125,28.9375,28.0625,32.0625,34.125,34.9375
0.20401855,-0.5677959,-2.6223178,-0.8911942,-0.07229985,0.029085008,-0.15461932,-0.39095336,-0.34823012,0.060089756,-3.075276,0.62798643,0.0002391752,-0.099739,0.0034771808,-0.0004775098,0.026283866,-0.0033887483,-0.021034125,0.4696582,-1.408741,1.9364733,-2.095392,-1.5729617,2.446982,-0.08149352,0.17567727,-0.21398406,0.05316506,-0.022343881,-0.060270157,0.038307227,0.45968673,-9.32781,0.8403672,47.650166,-0.9416721,-1.9505799,-3.4154997,-0.047851924,-0.34508213,-0.41729724,27.8125,28.9375,28.0625,32.0625,34.125,34.9375
0.20601846,-0.8796445,-2.7300987,-0.85019845,-0.059384968,0.025185354,-0.15451705,-0.39113262,-0.34823012,0.060078308,-3.0752108,0.6279287,0.0002069445,-0.099074505,0.0022620026,-0.0002584886,0.026153939,-0.004044027,-0.012697882,0.46952724,-1.40838,1.9360551,-2.0952718,-1.5730089,2.4468236,-0.07897016,0.1763289,-0.21563771,0.054671742,-0.021947358,-0.06608243,0.076614454,0.45968673,-9.32781,0.8806493,47.704796,-1.0879326,-2.002458,-3.4038165,-0.029743824,-0.35693753,-0.35869637,27.8125,28.9375,28.0625,32.0625,34.125,34.9375
0.2080184,-0.480977,-2.2330866,-0.83975375,-0.04825752,0.03584733,-0.15205233,-0.39134407,-0.3482087,0.06008611,-3.0751605,0.6280708,0.0002551125,-0.10079692,0.0021266642,0.00013971518,0.025691096,-0.0035232927,-0.010734696,0.46932286,-1.4080667,1.9356588,-2.0952003,-1.5730451,2.4467146,-0.0803241,0.17851199,-0.21930268,0.055464517,-0.021784244,-0.06939853,0.019153614,0.4213795,-9.212888,0.90750587,47.668976,-1.1435566,-2.0794182,-3.3789692,-0.0043389057,-0.35714126,-0.30142003,27.8125,28.9375,28.0625,32.0625,34.125,34.9375
0.21001846,0.045814864,-1.2267852,-0.6884674,-0.033285476,0.04254991,-0.15734334,-0.39153284,-0.34820735,0.06006089,-3.0750737,0.6279956,0.00020613633,-0.10231411,0.0031882501,0.00021212728,0.025553541,-0.0035780251,-0.012479007,0.4691894,-1.4076583,1.9352168,-2.0950801,-1.5731052,2.4465458,-0.0835888,0.17934941,-0.22060396,0.05590379,-0.021649336,-0.07091698,-0.019153614,0.3256114,-9.193734,0.9097417,47.674347,-0.8901551,-1.8806738,-3.4313664,-0.0045189406,-0.3703934,-0.28164268,27.8125,28.9375,28.0625,32.0625,34.125,34.9375
0.2120185,-0.53010887,-1.2226264,-0.7888459,-0.006915805,0.029073667,-0.14938705,-0.39175868,-0.3482232,0.060085345,-3.0750926,0.6279952,0.00027102305,-0.10118354,0.0024781018,0.0003288183,0.027370116,-0.0058782822,-0.006365452,0.46902257,-1.4073097,1.934738,-2.0949943,-1.5731176,2.4463766,-0.08089821,0.18014798,-0.22281952,0.060183045,-0.022230208,-0.0743387,0.019153614,0.34476504,-9.193734,0.9164598,47.70032,-1.2127863,-1.8010509,-3.3756838,-0.008670062,-0.38485175,-0.21162215,27.8125,28.9375,28.0625,32.0625,34.125,34.9375
0.21401855,-0.047934376,-0.74165934,-0.8508727,-0.0027323468,0.036882725,-0.15741897,-0.39195937,-0.3482122,0.060083438,-3.0750072,0.6280736,0.00025609098,-0.10196252,0.003032934,-0.0002889921,0.02841398,-0.007196498,-0.006662614,0.46885407,-1.4069488,1.934295,-2.0948627,-1.5731658,2.4462683,-0.082296826,0.18244149,-0.22431244,0.061021388,-0.022575706,-0.07543714,-0.038307227,0.21068975,-9.155427,0.8314132,47.690468,-1.1190033,-1.8033116,-3.415937,-0.01595257,-0.38995594,-0.1788621,27.8125,28.9375,28.0625,32.0625,34.125,34.9375
0.21601848,-0.23750792,-0.512922,-0.7556145,-0.0065588886,0.032050613,-0.16372907,-0.39217135,-0.34820947,0.060084093,-3.0749328,0.6280766,0.00026356673,-0.10184192,0.003913275,-0.001996678,0.032246098,-0.0123662045,-0.0068240813,0.468698,-1.4065626,1.9338163,-2.0947292,-1.5732263,2.446124,-0.08298939,0.1869795,-0.2266718,0.065180644,-0.02366184,-0.075962715,-0.05746084,0.17238252,-9.251195,0.8403672,47.696735,-1.127218,-1.97115,-3.430063,-0.022508468,-0.39861217,-0.1505075,27.8125,28.9375,28.0625,32.0625,34.125,34.9375
0.21801847,-0.44179553,-0.7208448,-0.80758137,-0.0042138654,0.031141473,-0.15905084,-0.39238694,-0.34818816,0.060069773,-3.074841,0.62809557,0.00024196766,-0.100842014,0.0049236277,-0.0028068859,0.03627498,-0.018034391,-0.0072491947,0.4685059,-1.4061657,1.9333619,-2.0946076,-1.5732864,2.445956,-0.083151884,0.18901303,-0.22882463,0.07217214,-0.02469487,-0.07569504,-0.22984336,0.15322891,-9.174581,0.8627467,47.685097,-1.1919689,-1.8348411,-3.4087682,-0.0973254,-0.40417427,-0.13150665,27.8125,28.9375,28.0625,32.0625,34.125,34.9375
0.22001846,-0.6241466,-0.74881035,-0.7293542,-0.0096418355,0.035160225,-0.14541125,-0.39259356,-0.3481938,0.06007769,-3.074773,0.6280825,0.00022413905,-0.101322114,0.005681119,-0.0022384212,0.03758929,-0.018713627,-0.009323322,0.46836162,-1.4057811,1.9328603,-2.0944388,-1.5733346,2.4458127,-0.084302686,0.18883881,-0.23072386,0.075443596,-0.025564363,-0.07476726,-0.22984336,0.095768064,-9.136273,0.8291774,47.66987,-1.197572,-1.9735721,-3.4374938,-0.15133296,-0.38860494,-0.10866496,27.8125,28.9375,28.0625,32.0625,34.125,34.9375
0.22201845,-0.70838255,-0.9725305,-0.6880236,0.0051201335,0.036590934,-0.14780073,-0.3927692,-0.34820083,0.06006222,-3.0747392,0.62805754,0.00014733174,-0.10223784,0.0059296354,-0.0025089309,0.03887674,-0.019995194,-0.012681127,0.46821713,-1.4054201,1.9324526,-2.0943305,-1.573335,2.4456573,-0.08514193,0.19146708,-0.23367967,0.077501096,-0.026140952,-0.072243765,-0.19153613,0.095768064,-9.212888,0.9388393,47.66808,-1.2080559,-1.9219401,-3.459993,-0.17950329,-0.39326006,-0.12302488,27.8125,28.9375,28.0625,32.0625,34.125,34.9375
0.22401859,-0.4413679,-0.67940193,-0.7423426,0.017333278,0.040559918,-0.14534186,-0.39297226,-0.3481841,0.060054597,-3.0746307,0.62813336,8.631732e-05,-0.10276384,0.0062935874,-0.0029844434,0.040312633,-0.021919074,-0.016970357,0.46803698,-1.4050348,1.9319853,-2.0941617,-1.5733832,2.4455388,-0.085927926,0.19387875,-0.23596118,0.079738796,-0.026559554,-0.068735816,-0.15322891,0.038307227,-9.308657,0.9298854,47.664497,-1.1963376,-2.058318,-3.3746674,-0.2279082,-0.395194,-0.14927374,27.8125,28.9375,28.0625,32.0625,34.125,34.9375
0.2260186,-0.57565206,-0.545572,-0.7657783,0.0049238093,0.044620365,-0.14090632,-0.39318016,-0.34816754,0.060053106,-3.0745158,0.62811196,3.538406e-05,-0.10369108,0.0070248554,-0.0031759527,0.04184693,-0.022235245,-0.0224768,0.46786845,-1.404638,1.9314827,-2.0939581,-1.5734557,2.445372,-0.08719681,0.19540457,-0.23760745,0.0808405,-0.027791174,-0.06449044,-0.3256114,0.05746084,-9.11712,0.8605109,47.703007,-1.1791298,-1.9931529,-3.4687126,-0.26435924,-0.390424,-0.16378036,27.8125,28.9375,28.0625,32.0625,34.125,34.9375
0.22801878,-0.8680522,-0.2435606,-0.5614252,-0.0034327954,0.055346515,-0.15599011,-0.3933852,-0.3481472,0.06002779,-3.0743763,0.628217,-4.215284e-05,-0.105130196,0.006917673,-0.003126356,0.043251727,-0.020772625,-0.023087395,0.46768865,-1.4042163,1.9310163,-2.0938032,-1.5735167,2.4452763,-0.0870032,0.197901,-0.24066068,0.08072568,-0.029723635,-0.06367419,-0.40222588,-0.019153614,-9.040505,0.800085,47.705692,-1.2612569,-2.1442041,-3.4148676,-0.28036317,-0.38454077,-0.18500185,27.8125,28.9375,28.0625,32.0625,34.125,34.9375
0.23001845,-1.071775,-0.11707877,-0.86158735,-0.0019724716,0.07337663,-0.15665403,-0.3936055,-0.34811425,0.060016174,-3.074235,0.6283059,-4.1716623e-05,-0.107716836,0.007738394,-0.0027264112,0.043290272,-0.018598761,-0.029911727,0.46749547,-1.4038194,1.93055,-2.0936592,-1.5736126,2.4451573,-0.09003172,0.1996207,-0.24344388,0.07986927,-0.030748779,-0.05987066,-0.3256114,0.05746084,-9.136273,0.784413,47.684196,-1.1042897,-2.0707135,-3.3644257,-0.296329,-0.36895272,-0.22047308,27.8125,28.9375,28.0625,32.0625,34.125,34.9375
0.23201847,-1.7861729,-0.68600345,-0.7798014,-0.01144479,0.0819298,-0.15155403,-0.3937948,-0.34810194,0.060009565,-3.0741167,0.62837636,-0.00015555316,-0.10882859,0.006763394,-0.0023517134,0.042720843,-0.016716259,-0.029839562,0.46732786,-1.403435,1.9300703,-2.093444,-1.5736483,2.4450493,-0.08902916,0.20142293,-0.2462467,0.07892962,-0.031107657,-0.058933597,-0.49799395,0.095768064,-9.11712,0.8493211,47.690468,-1.238501,-2.069554,-3.4188862,-0.30930474,-0.35632688,-0.27396157,27.8125,28.9375,28.0625,32.0625,34.125,34.9375
0.2340185,-1.9916118,-1.5982271,-0.7472306,-0.027950952,0.10755547,-0.1536723,-0.39401978,-0.3480906,0.059995253,-3.0740376,0.62830406,-0.00018818502,-0.11152153,0.008765373,-0.0025099562,0.043344665,-0.014764246,-0.033294372,0.4671461,-1.403002,1.9295682,-2.093302,-1.5737089,2.444833,-0.093941025,0.20260745,-0.24688034,0.076908596,-0.032564074,-0.060381874,-0.7278373,0.15322891,-9.270349,0.8493211,47.661808,-1.0670657,-2.0797114,-3.334622,-0.31997442,-0.32885277,-0.2824036,27.8125,28.9375,28.0625,32.0625,34.125,34.9375
0.23601852,-2.3098137,-1.9695472,-1.118643,-0.047532015,0.11284601,-0.15074994,-0.39420968,-0.348085,0.05997584,-3.0738947,0.628444,-0.00031815158,-0.112732425,0.007849037,-0.0018064937,0.04298844,-0.0107424045,-0.029346574,0.4669908,-1.4025817,1.9290785,-2.0930984,-1.5737461,2.444784,-0.09238632,0.20322585,-0.24870025,0.07434951,-0.034086213,-0.06276311,-0.8236054,0.24899697,-9.3661175,0.8672237,47.711063,-1.0961326,-1.9693403,-3.4323618,-0.30737203,-0.3309797,-0.2418216,27.8125,28.9375,28.0625,32.0625,34.125,34.9375
0.23801847,-2.3142042,-2.1812744,-1.2304131,-0.06861783,0.12516129,-0.15491673,-0.39443412,-0.34805664,0.05995296,-3.073747,0.62849367,-0.00031752925,-0.11586917,0.0077858204,-0.00023576355,0.04004725,-0.0054030214,-0.035043348,0.46680978,-1.4021494,1.9285992,-2.0929682,-1.5738534,2.4446535,-0.09512962,0.20305826,-0.25145644,0.07117749,-0.033878207,-0.059806157,-0.82360536,0.24899697,-9.481039,0.8314132,47.699425,-1.0503454,-1.9507596,-3.4990053,-0.26681444,-0.31610903,-0.28988594,27.8125,28.9375,28.0625,32.0625,34.125,34.9375
0.24001849,-2.1184874,-2.3910837,-1.219255,-0.059638876,0.12741937,-0.15036948,-0.3946715,-0.34805372,0.059972055,-3.0736887,0.6285959,-0.0003000787,-0.11801802,0.008144025,-0.00053069566,0.03923247,-0.0030509036,-0.03630357,0.466617,-1.401764,1.9280728,-2.0928137,-1.5738901,2.4445324,-0.0973706,0.20516586,-0.25250566,0.06764142,-0.034227144,-0.060783796,-0.80445176,0.19153613,-9.653421,0.91421866,47.655537,-0.8895574,-1.9369519,-3.4482508,-0.23671427,-0.29667208,-0.3104177,27.8125,28.9375,28.0625,32.0625,34.125,34.9375
0.24201842,-1.4982908,-1.502631,-1.531923,-0.047471058,0.11530839,-0.16175006,-0.39491946,-0.3480294,0.059971817,-3.0735881,0.62872946,-0.0002627692,-0.12077253,0.008613186,-0.0008221263,0.03992441,-0.00011986844,-0.037514616,0.46640027,-1.4013546,1.9275707,-2.0926955,-1.5739626,2.4444125,-0.09931353,0.2085175,-0.25512183,0.06459222,-0.03618401,-0.06150438,-0.7278373,0.22984336,-9.615114,0.88960326,47.68062,-0.8234251,-2.080438,-3.5127902,-0.19815058,-0.2845819,-0.31445706,27.8125,28.9375,28.0625,32.0625,34.125,34.9375
0.24401848,-2.0628674,-1.6795946,-1.7525634,-0.01989021,0.09748804,-0.14233844,-0.39515552,-0.34799075,0.05994661,-3.0734267,0.62884873,-0.00028873477,-0.122855954,0.008275804,-0.0002683407,0.039314684,0.0034787962,-0.038030516,0.46618426,-1.4009095,1.9270786,-2.0925524,-1.5740589,2.4442923,-0.099798165,0.21002294,-0.25766432,0.062131137,-0.037277844,-0.06146329,-0.7469909,0.1340753,-9.749189,0.8560339,47.67345,-0.83034,-1.9729652,-3.5271087,-0.1394358,-0.25260293,-0.33672798,27.8125,28.9375,28.0625,32.0625,34.125,34.9375
0.2460185,-2.2080827,-1.5351253,-1.7124611,-0.019624466,0.099635094,-0.14520347,-0.395414,-0.3479906,0.059952796,-3.0733583,0.6288731,-0.00017201566,-0.123410404,0.008567419,-0.0007904981,0.039829224,0.0040170057,-0.03859678,0.46601596,-1.4004767,1.9265422,-2.092469,-1.5741552,2.4441485,-0.10027536,0.21118456,-0.2575608,0.06060724,-0.03798365,-0.06137171,-0.63206923,0.17238252,-9.710882,0.87393653,47.703007,-0.81470823,-1.9074575,-3.6106234,-0.10777475,-0.23865397,-0.35552981,27.8125,28.9375,28.0625,32.0625,34.125,34.9375
0.24801841,-1.5536904,-1.1644386,-1.6563773,-0.023814421,0.10716862,-0.15841441,-0.39565146,-0.34795883,0.059918445,-3.0732336,0.6289798,-0.0002234777,-0.12333083,0.008545724,-0.0022347842,0.04186905,-0.0002144416,-0.03691606,0.46578807,-1.400019,1.9260634,-2.0923603,-1.5742153,2.4440038,-0.10013152,0.21563002,-0.26016882,0.06344876,-0.037918054,-0.06290433,-0.5746084,0.17238252,-9.672575,0.9254084,47.67614,-0.8833292,-1.993727,-3.7079582,-0.094232395,-0.20923693,-0.36441743,27.8125,28.9375,28.0625,32.0625,34.125,34.9375
0.25001848,-1.8124205,-1.4942045,-1.6343317,-0.02551176,0.08893188,-0.14259319,-0.39589474,-0.34793216,0.059912186,-3.0731056,0.629106,-0.00024498787,-0.12547244,0.008869757,-0.0018843652,0.04117308,0.0013099351,-0.0372943,0.46557137,-1.399586,1.925536,-2.0921934,-1.5742868,2.443883,-0.10245927,0.21737592,-0.2629352,0.06277536,-0.03800275,-0.064849325,-0.61291564,0.19153613,-9.653421,0.8851263,47.653748,-0.83877546,-1.9682577,-3.7820354,-0.07700102,-0.1850168,-0.36731702,27.8125,28.9375,28.0625,32.0625,34.125,34.9375
0.25201848,-1.3622782,-1.3256406,-1.615934,-0.046508253,0.08528219,-0.14998943,-0.39616483,-0.34792668,0.059923347,-3.07305,0.6291675,-0.00014984986,-0.1268619,0.0066107097,0.0004280287,0.038981006,0.005973569,-0.03187031,0.4653685,-1.3991532,1.9249848,-2.092097,-1.5743588,2.443726,-0.09955364,0.21720104,-0.2681455,0.06298821,-0.03815718,-0.06736578,-0.36391866,0.22984336,-9.5385,0.9186956,47.66271,-0.9068872,-2.0875845,-3.6781585,-0.021996006,-0.17809208,-0.36375448,27.8125,28.9375,28.0625,32.0625,34.125,34.9375
0.25401846,-1.1170048,-1.5430855,-1.8149141,-0.035667084,0.059731934,-0.14829265,-0.39640376,-0.34790033,0.059904717,-3.072898,0.6292497,-0.000111377616,-0.12780194,0.0076126363,-9.587687e-05,0.04053882,0.0032421725,-0.031510293,0.46518773,-1.398708,1.9244817,-2.0919764,-1.5744795,2.4436169,-0.10194856,0.21982612,-0.2708055,0.066138394,-0.038337637,-0.07011662,-0.24899697,0.17238253,-9.615114,0.91421866,47.661808,-1.0013752,-2.0913198,-3.5528672,-0.037928596,-0.14919865,-0.33583033,27.8125,28.9375,28.0625,32.0625,34.125,34.9375
0.25601843,-0.9101553,-2.192025,-1.8666577,-0.017350573,0.03007666,-0.14400107,-0.39666376,-0.34788218,0.059900485,-3.0728076,0.62932414,-7.919094e-05,-0.12834498,0.00692379,-0.0012189642,0.041671358,0.0007172453,-0.027193334,0.46497196,-1.3982618,1.9239444,-2.0918562,-1.5745515,2.4434597,-0.101204224,0.22476976,-0.2744101,0.067536645,-0.038238894,-0.07368666,-0.15322891,0.28730422,-9.730036,0.85826975,47.70032,-0.87704694,-2.197503,-3.5364614,-0.035722304,-0.11489982,-0.30287388,27.8125,28.9375,28.0625,32.0625,34.125,34.9375
0.25801843,-0.4679486,-2.4876091,-1.6384289,-0.038820073,0.028571887,-0.14669843,-0.39693743,-0.34787986,0.059908267,-3.0727503,0.62931085,1.2890195e-05,-0.1310216,0.0066519035,-0.0002383671,0.040724233,0.0040039094,-0.025224125,0.46477956,-1.3978049,1.9233698,-2.091749,-1.5746354,2.4432669,-0.10259126,0.22662584,-0.27868846,0.06657207,-0.038890146,-0.077038236,-0.095768064,0.3256114,-9.557653,0.8403672,47.69763,-1.0200009,-2.2748694,-3.4936457,0.008635288,-0.10075693,-0.26834315,27.8125,28.9375,28.0625,32.0625,34.125,34.9375
0.26001844,-0.27101818,-2.2179759,-1.689439,-0.046695888,0.021105506,-0.1471464,-0.39719608,-0.3478537,0.05990358,-3.072648,0.62938267,1.9604373e-05,-0.13188794,0.0063772844,0.00085284305,0.039369278,0.003610763,-0.021926653,0.464551,-1.3973604,1.9228295,-2.091604,-1.5747069,2.4430969,-0.103652485,0.22673209,-0.2820726,0.069557555,-0.037524052,-0.08140058,-0.095768064,0.3256114,-9.595961,0.8627467,47.64658,-0.9108984,-2.2568045,-3.2745366,0.029973421,-0.08646119,-0.21540801,27.8125,28.9375,28.0625,32.0625,34.125,34.9375
0.2620185,-0.52476984,-2.6673138,-1.7861673,-0.039614573,0.010021273,-0.13813648,-0.39746138,-0.34785578,0.059918,-3.0725927,0.62940913,6.9415095e-05,-0.13154806,0.0069494946,-0.00016336539,0.040237702,-0.0013133656,-0.020971624,0.46435854,-1.3969151,1.9222444,-2.0914595,-1.5747665,2.4429286,-0.10517039,0.22912416,-0.2834954,0.073352665,-0.03610057,-0.083879754,-0.05746084,0.34476504,-9.730036,0.8873621,47.66987,-0.8773646,-2.2323952,-3.4095833,0.009982394,-0.07433782,-0.14083046,27.8125,28.9375,28.0625,32.0625,34.125,34.9375
0.26401848,-0.012499007,-2.1893418,-1.6785871,-0.049690932,0.025462586,-0.14476454,-0.39776903,-0.34783396,0.05992525,-3.0725062,0.6295428,0.00013106824,-0.13030991,0.0067058452,-0.0006654681,0.04074551,-0.0057397843,-0.019889696,0.46409485,-1.3964226,1.9216231,-2.0913265,-1.574838,2.44276,-0.10451957,0.23020323,-0.2846778,0.07761888,-0.034572814,-0.08431799,0.019153614,0.34476504,-9.595961,0.8918391,47.674347,-0.8607825,-2.2778046,-3.4989395,-0.0013486294,-0.08712353,-0.13165683,27.8125,28.9375,28.0625,32.0625,34.125,34.9375
0.26601854,-0.2633398,-2.0231497,-1.3525963,-0.054455273,0.02017379,-0.14775838,-0.39797574,-0.34781602,0.059896737,-3.072359,0.6295291,1.6380585e-05,-0.12869881,0.007203252,-0.0011705967,0.04189809,-0.010675369,-0.017336704,0.46392685,-1.3959662,1.9211091,-2.091121,-1.5749096,2.442603,-0.10464104,0.23003767,-0.2845394,0.08254839,-0.033408657,-0.08699402,0.038307227,0.3256114,-9.500193,0.83813137,47.689575,-0.95125926,-2.1030416,-3.7063131,-0.0488851,-0.0964916,-0.0751876,27.8125,28.9375,28.0625,32.0625,34.125,34.9375
0.26801845,-0.14939119,-2.1573207,-1.2856183,-0.04083035,0.018739076,-0.14907922,-0.39826792,-0.34780905,0.05992354,-3.0723078,0.62955856,0.00013522967,-0.12902778,0.0070413486,-0.0004924068,0.04133188,-0.012674791,-0.0214841,0.46371064,-1.3955216,1.9204987,-2.090988,-1.574993,2.4424124,-0.10544762,0.23064515,-0.2878474,0.086779006,-0.03199758,-0.08366024,0.038307227,0.30645782,-9.346964,0.90527004,47.691364,-0.94855773,-2.159353,-3.6317449,-0.1016586,-0.08077945,-0.084769696,27.8125,28.9375,28.0625,32.0625,34.125,34.9375
0.27001846,0.42808077,-1.66233,-1.4016925,-0.020878488,0.0124714775,-0.14443243,-0.39851046,-0.3477973,0.05991493,-3.0721967,0.62961036,5.653869e-05,-0.12783821,0.0061366404,-0.00010819886,0.04117478,-0.0155028775,-0.02093842,0.46350724,-1.3950529,1.9199246,-2.0907829,-1.5750407,2.4422562,-0.10363104,0.23067935,-0.28986436,0.09121138,-0.030596847,-0.08239293,0.11492168,0.30645782,-9.3661175,0.87393653,47.69763,-0.98909557,-1.9618711,-3.5388827,-0.14206424,-0.095556945,-0.096918724,27.875,28.9375,28.0625,32.0625,34.125,34.9375
0.27201846,0.36929652,-1.6467357,-1.4658241,-0.0024707192,-0.0115540745,-0.14019823,-0.3987972,-0.34777734,0.059933953,-3.072114,0.6297311,0.00012051843,-0.1297828,0.0067673377,0.0006904955,0.03997773,-0.015082211,-0.026405588,0.46326593,-1.3946085,1.9193267,-2.090627,-1.5751122,2.4421015,-0.106895335,0.23137493,-0.29292166,0.09265539,-0.029717756,-0.08019321,0.15322891,0.2681506,-9.289503,0.8918391,47.660015,-0.90457386,-1.8963635,-3.6461306,-0.16197278,-0.10025841,-0.08028967,27.875,28.9375,28.0625,32.0625,34.125,34.9375
0.27401847,0.1332385,-1.4595997,-1.3648814,0.0036418913,-0.022012971,-0.14309494,-0.39906704,-0.34777057,0.059916392,-3.0719974,0.6298207,0.000107344094,-0.12889819,0.0058722505,0.0004157819,0.041724134,-0.01950301,-0.027389469,0.46306297,-1.3940905,1.9187282,-2.090481,-1.5751842,2.44197,-0.10473788,0.23423576,-0.29711884,0.0987282,-0.02930128,-0.07705072,0.076614454,0.24899697,-9.346964,0.9612189,47.67793,-1.1483839,-1.945768,-3.5261865,-0.24971308,-0.09626351,-0.11449586,27.875,28.9375,28.0625,32.0625,34.125,34.9375
0.2760185,0.32403034,-1.3669624,-1.6174006,0.005399402,-0.006005354,-0.14198133,-0.399288,-0.3477844,0.05991585,-3.0719275,0.629829,-2.92971e-05,-0.1316466,0.006507163,0.0012726752,0.040249687,-0.017531754,-0.03376728,0.4628933,-1.3936338,1.9181412,-2.0902417,-1.5751842,2.4418151,-0.10844484,0.235401,-0.30048862,0.09851626,-0.028875083,-0.074377336,0.17238252,0.15322891,-9.32781,0.8851263,47.695843,-0.9138237,-1.9942818,-3.4076333,-0.27274656,-0.11952183,-0.14305724,27.875,28.9375,28.0625,32.0625,34.125,34.9375
0.27801841,0.19457749,-1.4722395,-1.3460643,-0.013612782,0.015366824,-0.1505517,-0.39958057,-0.34777337,0.05993818,-3.071825,0.62988406,2.9776169e-05,-0.13298124,0.0048270463,0.0022391467,0.038579557,-0.015660804,-0.034932856,0.46267816,-1.393153,1.9174818,-2.090038,-1.5752796,2.4416482,-0.1070011,0.23742099,-0.3052301,0.09881465,-0.028224988,-0.07176847,0.13407528,0.095768064,-9.346964,0.84708,47.67166,-1.0756898,-1.8990319,-3.2986693,-0.30445296,-0.11334067,-0.17120908,27.875,28.9375,28.0625,32.0625,34.125,34.9375
0.2800185,-0.016605237,-2.0580738,-1.3633876,-0.023946341,0.03623848,-0.14350063,-0.3998441,-0.34775203,0.059940096,-3.0717165,0.6300925,-4.0817038e-05,-0.13462251,0.0047524436,0.00071532384,0.038538583,-0.01666031,-0.038246915,0.4624257,-1.3926947,1.9168953,-2.0898354,-1.5753039,2.4415405,-0.10850487,0.24266328,-0.30752507,0.09674163,-0.027758844,-0.069956586,0.0,0.15322891,-9.32781,0.8537928,47.66987,-1.0001726,-2.0859988,-3.250238,-0.2916477,-0.14617099,-0.22092363,27.875,28.9375,28.0625,32.0625,34.125,34.9375
0.28201863,-1.1983614,-2.2401786,-1.612053,-0.026018096,0.02640937,-0.14059277,-0.40007618,-0.34774348,0.05991526,-3.071572,0.63012034,-0.0001646753,-0.13591129,0.0048364094,0.00015432655,0.03774452,-0.015200623,-0.040771343,0.46224543,-1.3921896,1.9163097,-2.0896094,-1.5753635,2.441397,-0.10972288,0.24446037,-0.3077282,0.09348407,-0.027718123,-0.06864582,0.095768064,0.24899697,-9.519346,0.7866488,47.653748,-1.0137482,-2.1556761,-3.2645059,-0.2959024,-0.15405336,-0.24467972,27.875,28.9375,28.0625,32.0625,34.125,34.9375
0.28401843,-1.2434539,-2.4751687,-1.572966,-0.052276015,0.06493443,-0.14857967,-0.4003368,-0.3477263,0.05992222,-3.0714476,0.6302096,-0.00016182527,-0.13667522,0.0047278944,-0.0007906459,0.03699623,-0.01409267,-0.04228743,0.4620411,-1.3917327,1.9157132,-2.0894077,-1.5754479,2.441265,-0.1102133,0.24631926,-0.3069605,0.089525186,-0.027556285,-0.06761906,-0.076614454,0.2681506,-9.5385,0.95226496,47.675243,-0.9955392,-2.0414572,-3.4710383,-0.2602616,-0.15027317,-0.2673765,27.875,28.9375,28.0625,32.0625,34.125,34.9375
0.28601852,-1.7936325,-2.9057803,-1.4312737,-0.07086841,0.08225504,-0.1381998,-0.40061346,-0.34772542,0.059904676,-3.0713525,0.6303232,-0.00024642816,-0.13840769,0.0039893496,-0.0007114708,0.035534386,-0.010613613,-0.041899193,0.4618131,-1.3911917,1.915079,-2.0892293,-1.5754718,2.4411209,-0.110169776,0.24810614,-0.30844182,0.085445344,-0.027824275,-0.067958824,-0.21068975,0.24899697,-9.519346,0.8940802,47.70211,-1.0522257,-2.1206157,-3.6145859,-0.21059167,-0.17586428,-0.30662096,27.875,28.9375,28.0625,32.0625,34.125,34.9375
0.2880185,-1.7696543,-2.756614,-1.4758006,-0.078870274,0.08154613,-0.15020233,-0.40089032,-0.3477139,0.059925724,-3.071263,0.6304383,-0.0001962537,-0.1408314,0.0035324746,0.00042732805,0.0336327,-0.005628398,-0.042286873,0.46159697,-1.3907468,1.9144691,-2.0890505,-1.5755438,2.4409888,-0.111048125,0.24848798,-0.31084588,0.08214603,-0.028363228,-0.06844491,-0.21068975,0.34476504,-9.557653,0.9186956,47.69763,-1.0832946,-2.0366611,-3.6914482,-0.16595317,-0.16862279,-0.30779952,27.875,28.9375,28.0625,32.0625,34.125,34.9375
0.29001862,-1.7198174,-2.6475515,-1.2587029,-0.066457465,0.0844198,-0.14771654,-0.40119383,-0.3477145,0.0599233,-3.0712085,0.6306024,-0.00015131682,-0.14241835,0.003829814,0.0009335611,0.031998664,-0.0029454664,-0.0462134,0.4613561,-1.3902305,1.9138478,-2.088956,-1.5755795,2.440858,-0.11300249,0.24826539,-0.31131193,0.07970452,-0.028097399,-0.06647425,-0.5554548,0.22984336,-9.5385,0.900793,47.65106,-0.84902334,-1.9783154,-3.6301932,-0.102965206,-0.18502453,-0.38113427,27.875,28.9375,28.0625,32.0625,34.125,34.9375
0.29201856,-1.8659586,-2.2378204,-1.5833973,-0.029042486,0.0638996,-0.1458411,-0.40149197,-0.34771803,0.059953887,-3.0711534,0.63070405,-6.9916896e-05,-0.14428556,0.0029298137,0.0019186232,0.030940358,0.00012742792,-0.045808177,0.46114054,-1.3897618,1.9131902,-2.0887883,-1.5756396,2.4407134,-0.11268383,0.24974363,-0.31521904,0.07890192,-0.028529968,-0.06655731,-0.61291564,0.24899697,-9.557653,0.9254084,47.691364,-1.1123121,-1.9402889,-3.6071904,-0.068954825,-0.2053479,-0.41631985,27.875,28.9375,28.0625,32.0625,34.125,34.9375
0.29401872,-1.9404422,-1.5755193,-1.4725026,-0.019452216,0.065028735,-0.14339052,-0.40177304,-0.3477078,0.059933286,-3.0710278,0.6308116,-9.312289e-05,-0.14624026,0.0029974584,0.0031199534,0.030686785,0.0032198227,-0.044453282,0.4609239,-1.389221,1.9125675,-2.0886328,-1.5757121,2.4405808,-0.11365868,0.24999951,-0.31838349,0.07890984,-0.029702406,-0.06887748,-0.59376204,0.21068975,-9.615114,0.92764956,47.65912,-0.88991785,-1.810595,-3.59534,-0.047751654,-0.20211025,-0.41073918,27.875,28.9375,28.0625,32.0625,34.125,34.9375
0.2960185,-1.844633,-0.74061203,-1.2384609,-0.018245582,0.075324714,-0.14987853,-0.40207213,-0.34771574,0.059958905,-3.070963,0.63100904,-2.2494742e-05,-0.14756435,0.0024062276,0.0040015145,0.029756572,0.0046085124,-0.045968443,0.46070805,-1.3887403,1.9119095,-2.088477,-1.5757602,2.4404972,-0.113808416,0.25103268,-0.32190478,0.07973718,-0.029487733,-0.06751254,-0.7469909,0.2681506,-9.576807,0.8940802,47.711964,-1.0763083,-1.7253964,-3.5266948,-0.00032878597,-0.19658932,-0.45362407,27.875,28.9375,28.0625,32.0625,34.125,34.9375
0.29801852,-1.5685353,-0.85302716,-1.4519347,-0.016154598,0.095680155,-0.15649725,-0.40236005,-0.34771287,0.059958074,-3.0709078,0.63103294,-6.542099e-05,-0.14825985,0.0019648634,0.0046994574,0.028904615,0.0050101564,-0.043145366,0.46046805,-1.3882236,1.9112638,-2.0882971,-1.5757841,2.4402797,-0.11389,0.2514684,-0.32442844,0.081061386,-0.028922826,-0.07041821,-0.842759,0.24899697,-9.653421,0.9567419,47.650166,-1.106243,-1.6583798,-3.5515208,0.016341755,-0.22694671,-0.47706753,27.875,28.9375,28.0625,32.0625,34.125,34.9375
0.3000185,-2.6302128,-1.8310562,-1.7000278,-0.023370687,0.10406704,-0.14501444,-0.40266982,-0.34771457,0.05997032,-3.0708323,0.6311877,-4.047952e-06,-0.14701292,0.0027830978,0.0028341021,0.032005187,-0.0026477023,-0.03974678,0.46023977,-1.3877057,1.9105943,-2.0881507,-1.5758437,2.4401584,-0.11450785,0.25517362,-0.32601565,0.08714799,-0.02830653,-0.07443805,-0.7852981,0.13407528,-9.672575,0.9679317,47.645687,-1.072819,-1.7552483,-3.55752,-0.03188768,-0.24043947,-0.46495703,27.875,28.9375,28.0625,32.0625,34.125,34.9375
0.30201837,-2.161207,-1.9789721,-1.684103,-0.027270641,0.12408533,-0.14651401,-0.40295222,-0.3477047,0.059979077,-3.0707357,0.63122165,-3.0385237e-07,-0.1479011,0.0031510624,0.0022949926,0.033708923,-0.0043500015,-0.03617364,0.4600235,-1.3872113,1.9099473,-2.0879467,-1.5759162,2.4399765,-0.11531183,0.2582906,-0.329049,0.08931485,-0.029104304,-0.078808144,-0.6703765,0.114921674,-9.653421,0.8851263,47.63315,-1.0760806,-2.0513854,-3.6529608,-0.017726867,-0.25618768,-0.4510569,27.875,28.9375,28.0625,32.0625,34.125,34.9375
0.30401853,-2.0980897,-1.1922612,-1.4028059,-0.03535884,0.12034609,-0.14923173,-0.40327138,-0.34769905,0.059993286,-3.0706472,0.6313552,5.949636e-05,-0.14712939,0.0054619685,-0.00040230132,0.039801937,-0.012936361,-0.03312978,0.45978284,-1.3866818,1.909254,-2.087777,-1.5759887,2.4398313,-0.11749401,0.2633232,-0.33044338,0.09604107,-0.030768154,-0.08402454,-0.68953013,0.095768064,-9.653421,0.91198283,47.652847,-0.9961885,-2.059682,-3.6372142,-0.054975614,-0.27951363,-0.3982215,27.875,28.9375,28.0625,32.0625,34.125,34.9375
0.30601853,-2.451859,-1.2046275,-1.4057127,0.00044560747,0.07937341,-0.14216146,-0.403587,-0.34768453,0.06001578,-3.0705783,0.6314331,0.0001355207,-0.14729601,0.0068596313,-0.0010804015,0.042401228,-0.016578639,-0.029992435,0.45953017,-1.3861891,1.908585,-2.087608,-1.5760611,2.4396367,-0.11948206,0.26512837,-0.33208054,0.1002519,-0.031503864,-0.08914598,-0.59376204,-0.019153614,-9.557653,0.90750587,47.67166,-0.9558774,-2.0660622,-3.6761308,-0.13250782,-0.27354318,-0.35025886,27.875,28.9375,28.0625,32.0625,34.125,34.9375
0.3080196,-1.1645975,-0.4663565,-1.1690394,0.013089059,0.072502226,-0.14829712,-0.4039174,-0.3476683,0.060012937,-3.070471,0.6316387,0.00015540069,-0.14701392,0.0071770637,-0.001786385,0.044400737,-0.020215448,-0.025384847,0.45925424,-1.3856238,1.9078907,-2.0874507,-1.5761212,2.4395037,-0.11953365,0.26752627,-0.33431578,0.10419726,-0.03171079,-0.093802676,-0.38307226,-0.038307227,-9.461885,0.91198283,47.690468,-0.9679704,-1.9228857,-3.5761495,-0.16339476,-0.28511545,-0.29068744,27.875,28.9375,28.0625,32.0625,34.125,34.9375
0.31001854,-0.63554746,-0.15694782,-0.929213,0.031216173,0.04692885,-0.14712606,-0.4041879,-0.3476563,0.0599834,-3.0703485,0.63159084,4.4503926e-05,-0.14911635,0.0069161407,-5.5698507e-05,0.044500384,-0.01762916,-0.022563206,0.45903787,-1.3850588,1.9072441,-2.0872347,-1.5761818,2.439274,-0.11999123,0.26822677,-0.339773,0.10665402,-0.032987006,-0.09706864,-0.3256114,-0.15322891,-9.212888,1.005978,47.690468,-0.80161667,-1.9931453,-3.543343,-0.1931192,-0.28689158,-0.23877412,27.875,28.9375,28.0625,32.0625,34.125,34.9375
0.31201842,-0.39439467,-0.011950238,-0.9234236,0.050531246,0.014601699,-0.14588332,-0.4045151,-0.3476365,0.060020283,-3.0702717,0.63170767,0.00014788512,-0.1510771,0.006783414,0.0010657863,0.043137457,-0.015849967,-0.022421898,0.45877364,-1.3845778,1.9065503,-2.087043,-1.5762652,2.4390934,-0.12158437,0.26903015,-0.34356704,0.10741821,-0.032574102,-0.098804854,-0.45968673,-0.076614454,-9.11712,0.88960326,47.677036,-0.955927,-2.0207968,-3.4262352,-0.22027472,-0.28916028,-0.18808746,27.875,28.9375,28.0625,32.0625,34.125,34.9375
0.3140185,-0.28595105,0.087074496,-0.8361156,0.0404347,0.0071687046,-0.14800435,-0.40484172,-0.34762263,0.060030103,-3.0701828,0.63176376,0.00011189807,-0.15078788,0.006131252,0.00096235424,0.04360658,-0.01775232,-0.018884726,0.45849806,-1.3840128,1.9058079,-2.0868022,-1.5763129,2.438865,-0.12032707,0.27068374,-0.3460222,0.11010566,-0.032177147,-0.10108438,-0.34476504,-0.019153614,-9.040505,0.9321212,47.678825,-0.96074474,-1.8934097,-3.4309,-0.25232813,-0.32066092,-0.14264537,27.875,28.9375,28.0625,32.0625,34.125,34.9375
0.31601846,-0.62350464,-0.62308776,-1.0491425,0.024809252,0.01162857,-0.14304556,-0.40514344,-0.34759432,0.060026355,-3.0700588,0.6317594,0.00013771885,-0.15310934,0.0063897017,0.0017596438,0.042882156,-0.013530925,-0.024352524,0.45825744,-1.3834842,1.9051508,-2.0866125,-1.5764216,2.4386384,-0.121886894,0.2711309,-0.34789166,0.107430235,-0.03340293,-0.09716639,-0.15322891,0.0,-9.174581,0.87393653,47.687782,-0.86870044,-1.9013225,-3.4527922,-0.2471592,-0.3076615,-0.13388637,27.875,28.9375,28.0625,32.0625,34.125,34.9375
0.3180185,-0.8592795,-1.6785225,-0.9715004,-0.01697578,0.032908984,-0.13931416,-0.40543368,-0.34758317,0.060037095,-3.0699124,0.63180673,7.8860605e-05,-0.1541545,0.0065125506,0.0019937167,0.04359266,-0.013048849,-0.027505867,0.45804137,-1.3829435,1.9044212,-2.0863125,-1.576506,2.4384718,-0.12235003,0.27255604,-0.3504646,0.10846359,-0.0342621,-0.094466485,-0.15322891,0.11492168,-9.251195,0.9388393,47.664497,-0.91273886,-1.8590786,-3.4002347,-0.27173328,-0.31883186,-0.15302584,27.875,28.9375,28.0625,32.0625,34.125,34.9375
0.3200185,-1.0705962,-2.4328828,-1.0605731,-0.059095763,0.06685501,-0.14265893,-0.40574303,-0.3475625,0.0600117,-3.0697846,0.6319735,4.291641e-05,-0.15567806,0.0059190337,0.0016110875,0.042868465,-0.01024737,-0.032278735,0.45777735,-1.3823658,1.9037627,-2.0861585,-1.5765661,2.4383292,-0.122135766,0.27497733,-0.351695,0.10445678,-0.03485514,-0.089472175,-0.15322891,0.17238252,-9.289503,0.8873621,47.64927,-0.9140562,-1.8875594,-3.3842907,-0.22523677,-0.30685124,-0.17989904,27.875,28.9375,28.0625,32.0625,34.125,34.9375
0.32201838,-1.2056377,-2.4955492,-1.2020577,-0.06821631,0.062251527,-0.14592274,-0.4060634,-0.34756812,0.06003582,-3.069704,0.63201606,4.9491664e-05,-0.15765812,0.004753564,0.001993244,0.04085271,-0.0060795206,-0.03686725,0.45754963,-1.3818125,1.9029983,-2.0859087,-1.5766262,2.4381392,-0.12167481,0.2769142,-0.35405153,0.100263976,-0.03488961,-0.08441963,-0.038307227,0.24899697,-9.423578,0.90750587,47.668976,-1.025549,-1.888114,-3.4962254,-0.18296064,-0.3101979,-0.2417899,27.875,28.9375,28.0625,32.0625,34.125,34.9375
0.32401854,-1.360334,-2.9900367,-1.1045439,-0.06610627,0.0610797,-0.14351219,-0.40637645,-0.3475274,0.0600381,-3.0695698,0.6321819,-4.3327879e-07,-0.16031191,0.005446653,0.003988115,0.037683956,1.6719867e-05,-0.04187317,0.45724836,-1.3812853,1.9023169,-2.0856702,-1.5766863,2.4379597,-0.12509395,0.2739771,-0.35447526,0.0967497,-0.034753725,-0.08283098,-0.095768064,0.4213795,-9.346964,0.96569055,47.661808,-0.84840834,-1.6631794,-3.5014122,-0.13460635,-0.33039707,-0.2795949,27.875,28.9375,28.0625,32.0625,34.125,34.9375
0.32601863,-0.7215844,-2.399618,-1.2297773,-0.069886684,0.057261735,-0.15401015,-0.40670094,-0.34750146,0.060030196,-3.06945,0.63230723,5.339042e-05,-0.16057768,0.0037738716,0.0023480786,0.038759757,-0.00089302607,-0.03879595,0.45698544,-1.3807305,1.9016474,-2.0855272,-1.5767821,2.4377913,-0.12194029,0.27976486,-0.35734648,0.09511014,-0.035334196,-0.08274807,-0.019153614,0.47884035,-9.346964,0.91421866,47.709274,-1.0567689,-1.7296069,-3.6186733,-0.07739785,-0.3311781,-0.28731737,27.875,28.9375,28.0625,32.0625,34.125,34.9375
0.3280185,-0.89336497,-2.3953652,-1.3592257,-0.04931799,0.033113897,-0.14644992,-0.40702188,-0.34750453,0.060027994,-3.0693254,0.63239676,5.400183e-05,-0.1622939,0.004759172,0.0015559257,0.04032345,-0.0013396664,-0.041292045,0.45676878,-1.3801291,1.9008931,-2.0853117,-1.5768665,2.4376476,-0.124227874,0.28310138,-0.35964262,0.09515179,-0.036553625,-0.08252867,0.076614454,0.45968673,-9.442732,0.92093146,47.689575,-0.896825,-1.8266869,-3.6000724,-0.054682665,-0.32515258,-0.32192072,27.875,28.9375,28.0625,32.0625,34.125,34.9375
0.3300185,-0.7599925,-2.3018913,-1.3895781,-0.042045493,0.025396904,-0.13865602,-0.40733856,-0.34748182,0.06002197,-3.0692081,0.6325267,5.6314704e-05,-0.16301174,0.0056052147,0.0006566292,0.042312656,-0.0025566428,-0.04274329,0.45650432,-1.3795754,1.9002117,-2.085132,-1.5769395,2.4374802,-0.12538695,0.28561077,-0.36084366,0.095803834,-0.037811734,-0.08222623,-0.076614454,0.5554548,-9.3661175,0.9030289,47.678825,-0.9767703,-1.9390955,-3.6857367,-0.029815245,-0.32291827,-0.3303816,27.875,28.9375,28.0625,32.0625,34.125,34.9375
0.3320185,-0.5005993,-1.6556971,-1.4473566,-0.049795095,0.027901946,-0.14519499,-0.40765327,-0.34747475,0.060040902,-3.0691128,0.6325843,0.000100203324,-0.16425698,0.0062723774,-0.00044423397,0.043717824,-0.003991597,-0.04476813,0.4562757,-1.3790457,1.8994936,-2.0849164,-1.5770234,2.4373007,-0.12708062,0.28937262,-0.36297977,0.096074626,-0.038450383,-0.081888914,-0.1340753,0.59376204,-9.385271,0.9097417,47.66808,-0.88960457,-1.933208,-3.6142445,-0.01942025,-0.32529497,-0.34638643,27.875,28.9375,28.0625,32.0625,34.125,34.9375
0.33401847,-0.53077424,-2.2573977,-1.2440188,-0.045051415,0.039740562,-0.1490242,-0.40799567,-0.34745595,0.06001249,-3.0689669,0.6326871,9.522694e-05,-0.16667672,0.00671272,0.0008895147,0.044208363,-0.0011307291,-0.04663977,0.45601138,-1.3783969,1.8987526,-2.084748,-1.5771202,2.4371204,-0.1286919,0.29016107,-0.3674051,0.09734933,-0.040168367,-0.081613295,0.0,0.5554548,-9.404425,0.9567419,47.684196,-0.8389646,-2.0437713,-3.5904305,0.000258315,-0.298357,-0.3567347,27.875,28.9375,28.0625,32.0625,34.125,34.9375
0.33601978,-1.0937679,-2.797122,-1.0770268,-0.0542269,0.043713372,-0.14482617,-0.40832606,-0.34746164,0.060009833,-3.0688894,0.6329373,6.889413e-05,-0.16707554,0.007098237,0.0009038417,0.045685995,-0.002817561,-0.04347544,0.45574695,-1.3778079,1.898023,-2.0845797,-1.5771321,2.437023,-0.12917808,0.2916455,-0.37009925,0.10069162,-0.040776588,-0.085258275,-0.17238252,0.61291564,-9.308657,0.9030289,47.65912,-0.79686224,-1.9131184,-3.5675735,0.0018947227,-0.28213418,-0.37707883,27.875,28.9375,28.0625,32.0625,34.125,34.9375
0.33801848,-1.6217875,-2.7777889,-1.0272661,-0.069122985,0.039536286,-0.13980259,-0.40869838,-0.3474264,0.06004468,-3.068742,0.6330779,0.00019947313,-0.16627608,0.007444105,0.0010776999,0.04853277,-0.0056992234,-0.04141394,0.45545956,-1.377243,1.8972205,-2.084338,-1.5772771,2.4368434,-0.12813897,0.2920883,-0.37243536,0.10639946,-0.04206927,-0.086272195,-0.15322891,0.51714754,-9.32781,0.9321212,47.64658,-0.93911695,-1.8732698,-3.5107942,-0.046182595,-0.29500526,-0.3412903,27.875,28.9375,28.0625,32.0625,34.125,34.9375
0.34001845,-0.9884969,-2.2448611,-0.84764546,-0.062302843,0.04933389,-0.15271552,-0.4089978,-0.34740648,0.060008477,-3.0686154,0.63304704,8.273031e-05,-0.16589971,0.007988776,0.00089680083,0.050853785,-0.009205306,-0.037542485,0.4552076,-1.37663,1.8965276,-2.084121,-1.5773367,2.4365895,-0.12827455,0.29341766,-0.3749483,0.111712694,-0.042644467,-0.09026956,-0.038307227,0.47884035,-9.251195,0.97464454,47.647476,-0.9774511,-1.8634965,-3.5447273,-0.07827403,-0.26647308,-0.34526968,27.875,28.9375,28.0625,32.0625,34.125,34.9375
0.34201849,-0.5057297,-1.1327947,-0.68088466,-0.042160537,0.042170055,-0.15209055,-0.4093385,-0.34740475,0.060001485,-3.0684776,0.63318527,7.879959e-05,-0.16509867,0.0085033765,0.0008046382,0.054740865,-0.012662501,-0.030645346,0.45496818,-1.375993,1.8957394,-2.083903,-1.577422,2.4364552,-0.1270991,0.2945891,-0.37770662,0.11806466,-0.04465091,-0.095975064,-0.11492168,0.30645782,-9.232041,0.91198283,47.642998,-1.0934161,-1.8455298,-3.504305,-0.15040171,-0.24982494,-0.25199372,27.875,28.9375,28.0625,32.0625,34.125,34.9375
0.34401852,-0.09899271,-0.79737777,-0.7041436,0.011145791,0.027833931,-0.14569642,-0.40967616,-0.34741268,0.06001028,-3.068415,0.6331319,0.00011082154,-0.16540892,0.008512305,0.000712484,0.056092992,-0.014487113,-0.027661363,0.45473996,-1.3753923,1.8949608,-2.0836985,-1.577494,2.4362025,-0.12697552,0.29660568,-0.38077432,0.12131433,-0.045088768,-0.09883064,-0.095768064,0.17238252,-9.040505,0.9455522,47.651955,-1.0503016,-1.7791822,-3.5482073,-0.16847643,-0.24514297,-0.23208633,27.875,28.9375,28.0625,32.0625,34.125,34.9375
0.34601852,-0.26977128,0.16696899,-0.589215,0.031979483,0.009043982,-0.14511701,-0.41001174,-0.34736943,0.059971634,-3.068213,0.63322186,7.772892e-05,-0.16620982,0.010542023,-0.0007516193,0.058187995,-0.018914595,-0.027292464,0.4544627,-1.3747424,1.8942317,-2.083494,-1.5776256,2.436009,-0.13102536,0.29969797,-0.38193163,0.12422137,-0.045069553,-0.10324386,0.076614454,-0.05746084,-8.887277,0.8940802,47.650166,-1.0412682,-1.888058,-3.6123943,-0.23611808,-0.22931725,-0.17083067,27.875,28.9375,28.0625,32.0625,34.125,34.9375
0.34801847,0.5908723,0.82984173,-0.47326,0.044686276,0.017950462,-0.15752636,-0.41032362,-0.3473454,0.0599496,-3.0680687,0.6333614,-3.2446944e-05,-0.1673687,0.009504891,0.000115059556,0.058452647,-0.016936928,-0.021490727,0.4541873,-1.3741411,1.893514,-2.083254,-1.5776743,2.4358404,-0.12936522,0.30134627,-0.38623697,0.12517579,-0.046229146,-0.107370615,-0.11492168,-0.11492168,-8.848969,0.9947882,47.668976,-1.1197643,-1.9291112,-3.4694424,-0.2488965,-0.22952309,-0.103585325,27.875,28.9375,28.0625,32.0625,34.125,34.9375
0.3500185,-0.08280137,0.72777116,-0.51878375,0.04430175,0.020970013,-0.14377344,-0.41067162,-0.34734353,0.05997158,-3.067969,0.6334173,-2.7873657e-05,-0.17102057,0.009547624,0.000948725,0.057810523,-0.012177707,-0.023715422,0.45393455,-1.3735399,1.8926882,-2.0829804,-1.5777467,2.4356363,-0.13142763,0.3041253,-0.39102316,0.12261198,-0.04777018,-0.10719321,-0.1340753,-0.22984336,-8.868123,0.9858343,47.64927,-0.93589956,-1.9569409,-3.4389627,-0.24320865,-0.19694227,-0.063120514,27.875,28.9375,28.0625,32.0625,34.125,34.9375
0.3520184,-0.5632168,-0.25610423,-0.7198761,0.041150562,0.03825691,-0.14570424,-0.41099948,-0.34732395,0.05995743,-3.0678148,0.63334626,-2.8436185e-05,-0.17292404,0.010058777,0.00012033086,0.059830453,-0.010974321,-0.026645588,0.45370623,-1.3729134,1.8919224,-2.082741,-1.5778798,2.4353848,-0.13231975,0.30798388,-0.39353672,0.12106936,-0.050129984,-0.10513243,-0.17238252,-0.30645782,-8.944737,0.9321212,47.66808,-0.8996437,-2.0841742,-3.3460143,-0.23224096,-0.15970671,-0.058562115,27.875,28.9375,28.0625,32.0625,34.125,34.9375
0.35401854,-0.8379881,-0.21221223,-0.82299286,0.0016477433,0.07056519,-0.14929126,-0.4113457,-0.34732184,0.0599676,-3.0676959,0.63343745,-5.0487237e-05,-0.17586789,0.00808134,0.0018113202,0.055710405,-0.002840821,-0.02901931,0.45345452,-1.372289,1.8910955,-2.0824687,-1.5779513,2.4352064,-0.13133407,0.30847716,-0.39671886,0.11464602,-0.050008915,-0.101768844,-0.21068975,-0.24899697,-9.040505,0.9925471,47.66539,-0.9984788,-2.0979972,-3.2463136,-0.15871966,-0.11815053,-0.05404887,27.875,28.9375,28.0625,32.0625,34.125,34.9375
0.35601848,-1.7686477,-1.0452734,-1.0293517,-0.013243993,0.07288794,-0.1501451,-0.41170633,-0.34728292,0.059969738,-3.0675216,0.6335774,-8.245594e-06,-0.17776525,0.00915495,0.0009919174,0.05440557,-0.0030974408,-0.037298515,0.453165,-1.3716754,1.8903073,-2.0822299,-1.5780829,2.435028,-0.13542481,0.31080297,-0.39733765,0.112597175,-0.048720114,-0.09758598,-0.4213795,0.21068974,-9.155427,0.85826975,47.694946,-0.8084765,-2.1546016,-3.3974075,-0.14229876,-0.1432404,-0.09279084,27.875,28.9375,28.0625,32.0625,34.125,34.9375
0.3580185,-1.9161365,-1.7727319,-1.031855,-0.03865148,0.10350345,-0.14465503,-0.41201577,-0.34725422,0.05995407,-3.0673375,0.6336136,-0.00011857007,-0.17641404,0.0085511105,-0.00042395366,0.055796474,-0.0036642596,-0.038933076,0.45291457,-1.3710626,1.8895444,-2.0819194,-1.5781792,2.4348254,-0.1324966,0.3119937,-0.3952015,0.11040531,-0.049718834,-0.09300885,-0.57460845,0.038307227,-9.308657,0.8157518,47.687782,-1.0638075,-2.0766058,-3.6580791,-0.084632054,-0.12578773,-0.11551042,27.875,28.9375,28.0625,32.0625,34.125,34.9375
0.36001855,-2.4426062,-2.4250414,-1.5941824,-0.044730023,0.10087731,-0.13359538,-0.4123659,-0.3472304,0.05993255,-3.067174,0.6337326,-0.00015435959,-0.17673215,0.008354149,-1.3930453e-05,0.055164482,-0.0031224843,-0.040695433,0.4526385,-1.3704017,1.8887552,-2.0816915,-1.5782756,2.4346461,-0.13247658,0.31185362,-0.39624995,0.1108203,-0.049395133,-0.091224045,-0.47884035,0.17238252,-9.5385,0.9835985,47.664497,-0.9601065,-2.099316,-3.8420897,-0.09868697,-0.09910898,-0.17936616,27.875,28.9375,28.0625,32.0625,34.125,34.9375
0.36201906,-2.4103708,-2.8481786,-1.6897691,-0.050293505,0.08886322,-0.13058601,-0.41271302,-0.34720343,0.059934217,-3.0669997,0.6338907,-0.0001365253,-0.1779103,0.007784456,0.00040755444,0.053255197,-0.0028849994,-0.046277545,0.45237407,-1.3697892,1.8879656,-2.0814397,-1.5783948,2.4345043,-0.13334836,0.31331453,-0.39924195,0.11130992,-0.047772672,-0.086521186,-0.61291564,0.22984336,-9.653421,1.0015011,47.66808,-1.0724778,-1.9103087,-3.8325975,-0.083643794,-0.1075504,-0.22877118,27.875,28.9375,28.0625,32.0625,34.125,34.9375
0.36401898,-1.997311,-2.4679687,-2.1224349,-0.061503336,0.08224738,-0.14198208,-0.41306284,-0.347203,0.05993204,-3.0668974,0.63384783,-8.8183224e-05,-0.17885742,0.0071303374,0.00031011616,0.052357126,-0.0031063978,-0.04619367,0.45214605,-1.3691514,1.8871645,-2.0812361,-1.5785025,2.4342637,-0.13343135,0.31573284,-0.40215173,0.11158375,-0.04688432,-0.086691864,-0.6895301,0.36391866,-9.672575,0.95002913,47.683304,-1.1306458,-1.9037127,-3.8622808,-0.07942621,-0.10630752,-0.27932808,27.875,28.9375,28.0625,32.0625,34.125,34.9375
0.36601862,-1.7587909,-2.9413683,-2.3026183,-0.06111898,0.07909787,-0.13836178,-0.4134164,-0.34716836,0.05990573,-3.0667093,0.6340775,-0.00019234125,-0.18031503,0.0061540045,0.0013631354,0.050349414,-0.0029638314,-0.048086982,0.4518338,-1.3684778,1.886362,-2.080972,-1.5785736,2.4341207,-0.13388763,0.31746575,-0.40737608,0.114054896,-0.045156874,-0.08526022,-0.63206923,0.34476504,-9.883265,0.88960326,47.67614,-1.0658978,-2.1015816,-3.6713455,-0.06128397,-0.09048088,-0.2770751,27.875,28.9375,28.0625,32.0625,34.125,34.9375
0.36801845,-1.6074401,-2.9960208,-2.4746995,-0.06704543,0.06618014,-0.1340582,-0.41378978,-0.3471667,0.059921585,-3.0666003,0.6342279,-0.00013908892,-0.17952278,0.0066953357,0.00019339056,0.052115582,-0.008590121,-0.050809152,0.4515698,-1.3678406,1.8855141,-2.080743,-1.5786575,2.4339657,-0.13454121,0.32005638,-0.40909293,0.1190087,-0.04427823,-0.08319728,-0.4405331,0.38307226,-10.01734,0.9925471,47.661808,-1.166201,-2.0076053,-3.6491508,-0.1049571,-0.10729239,-0.31737554,27.875,28.9375,28.0625,32.0625,34.125,34.9375
0.3700184,-1.0937926,-2.4410758,-1.9948603,-0.0806939,0.06575857,-0.14563365,-0.41416135,-0.347143,0.059935592,-3.0664632,0.6344096,-0.00012975371,-0.17779101,0.0076382076,-0.0017716831,0.0550182,-0.01689054,-0.052878987,0.45126957,-1.3672154,1.8846763,-2.0804775,-1.578741,2.4337978,-0.13517681,0.323116,-0.40989202,0.12547149,-0.04326164,-0.08176871,-0.5554548,0.45968673,-9.940725,1.0529729,47.664497,-1.1776568,-2.1611295,-3.7328005,-0.15496233,-0.117167875,-0.38582513,27.875,28.9375,28.0625,32.0625,34.125,34.9375
0.37201852,-1.1432657,-2.7146995,-2.263442,-0.053704068,0.053288024,-0.13132071,-0.41449907,-0.34711027,0.059908595,-3.066269,0.6344645,-0.00019271905,-0.17652534,0.008574865,-0.0037896626,0.057417344,-0.024616443,-0.05452561,0.4510052,-1.3665537,1.8838881,-2.0802114,-1.5788611,2.4335945,-0.13632451,0.3265586,-0.4108213,0.13093604,-0.042061288,-0.081273295,-0.5554548,0.47884035,-9.940725,0.97464454,47.693153,-1.0660076,-2.1428518,-3.8907912,-0.22732474,-0.13222851,-0.40453106,27.875,28.9375,28.0625,32.0625,34.125,34.9375
