Tylouw/Master_Thesis_Code/training_data/batch_1/rect_rod_t0.3/sample_26_session_2.csv
timestamp[s],tcp_force_x[N],tcp_force_y[N],tcp_force_z[N],tcp_force_rx[Nm?],tcp_force_ry[Nm?],tcp_force_rz[Nm?],tcp_pose_x[m],tcp_pose_y[m],tcp_pose_z[m],tcp_pose_rx[rot_vec_x],tcp_pose_ry[rot_vec_y],tcp_pose_rz[rot_vec_z],tcp_velo_x[m/s],tcp_velo_y[m/s],tcp_velo_z[m/s],tcp_velo_rx[rot_vec_x/s],tcp_velo_ry[rot_vec_y/s],tcp_velo_rz[rot_vec_z/s],q1[rad],q2[rad],q3[rad],q4[rad],q5[rad],q6[rad],qd1[rad/s],qd2[rad/s],qd3[rad/s],qd4[rad/s],qd5[rad/s],qd6[rad/s],tool_acc_x,tool_acc_y,tool_acc_z,current_of_whole_robot[A],voltage_of_whole_robot[V],current_J1[A],current_J2[A],current_J3[A],current_J4[A],current_J5[A],current_J6[A],temp_J1[C],temp_J2[C],temp_J3[C],temp_J4[C],temp_J5[C],temp_J6[C]
1.0280055e-06,0.18792982,0.0008634296,1.3339636,-0.004874425,0.0015107457,0.0049636588,-0.38935527,-0.36870158,0.06002465,-3.0786805,0.624981,0.0002584129,0.0003553233,0.00018584206,-0.0006086637,0.0008283612,-0.0017585314,2.7116943e-05,0.5050088,-1.3816675,1.9041871,-2.0918915,-1.5708898,2.4800372,-6.0900267e-05,0.0009910838,-1.376366e-06,0.0009495961,0.00012806512,-8.814205e-05,0.17238252,0.11492168,-8.63828,0.67475104,47.668976,-0.2200018,-3.088639,-2.2707925,-0.17483148,0.15766194,0.052287973,28.3125,29.6875,28.75,32.5,35.0,36.0625
0.002055621,-0.13975462,0.25700158,1.359043,-0.0037849762,-0.0053781285,0.003354347,-0.38934922,-0.36871165,0.06001715,-3.0787163,0.6249883,0.00023766085,-0.0006610921,-0.00037905964,-0.0020377545,-0.0013335849,0.0021266327,2.677418e-05,0.5050088,-1.3816668,1.9042124,-2.091931,-1.5708536,2.4800372,-6.0087103e-05,0.0027149408,0.0033801366,-0.008601941,0.00012551596,-8.70761e-05,0.11492168,0.19153613,-8.599973,0.7933669,47.68062,-0.24899924,-3.0598683,-2.343736,-0.14757806,0.15449958,0.052418843,28.3125,29.6875,28.75,32.5,35.0,36.0625
0.004054197,-0.31429338,0.25833836,1.3937856,-0.005555284,-0.0012763276,-0.0020792792,-0.38935238,-0.3687304,0.060029082,-3.0787494,0.62489915,0.00029370116,-0.0012643229,-0.0007140939,-0.0018918889,-0.0022923793,0.0038553993,2.6806092e-05,0.5050448,-1.3816668,1.904188,-2.0919435,-1.5708655,2.4800134,-5.9295417e-05,0.0028840047,0.0033222584,-0.010689974,0.00012306425,-8.603556e-05,0.076614454,0.15322891,-8.599973,0.7284641,47.71286,-0.19883049,-3.3692083,-2.6282716,-0.04511211,0.14898878,0.03186477,28.3125,29.6875,28.75,32.5,35.0,36.0625
0.006053906,0.12257063,0.30689877,1.3089157,0.007609432,-0.0036425514,0.004412545,-0.3893221,-0.36870816,0.060002908,-3.078717,0.6249111,0.00018189536,-0.00056203635,-0.00032276142,-0.0009446198,-0.0011799383,0.0018674242,2.6338468e-05,0.50502086,-1.3816794,1.9042591,-2.0919287,-1.5708417,2.480001,-5.852427e-05,0.0012848509,0.0018405438,-0.005331048,0.00012070624,-8.5019674e-05,0.11492168,0.22984336,-8.619126,0.72622824,47.716442,-0.22928068,-3.2614577,-2.5337992,-0.082162745,0.16925152,0.032371607,28.3125,29.6875,28.75,32.5,35.0,36.0625
0.008053736,0.111635536,1.3689569,0.71925026,0.026031323,-0.030247735,0.010787606,-0.38934663,-0.3687058,0.060009915,-3.0787067,0.6249864,0.00024880137,-0.0003019255,-0.00017684691,0.00057719316,-0.0013194083,0.0021364,2.57354e-05,0.5050088,-1.3816683,1.9042352,-2.0919516,-1.5708655,2.4800372,-5.7772955e-05,-0.0014239261,0.00079515524,-0.0018797446,0.000118436954,-8.40275e-05,0.0,0.2681506,-8.714894,0.7083204,47.707485,-0.23002914,-3.1466742,-2.432131,-0.10755372,0.1647774,0.05268234,28.3125,29.6875,28.75,32.5,35.0,36.0625
0.010054227,0.67727154,1.1062746,0.54235697,0.03138741,-0.0090572955,-0.0038516864,-0.38931796,-0.36870417,0.059984688,-3.0786798,0.62488425,0.00016254361,8.8775356e-05,4.498946e-05,0.0006831401,-0.00019868731,0.00012406208,1.8219669e-05,0.5050329,-1.3816442,1.9042586,-2.0919268,-1.5708655,2.480001,-6.4553744e-05,-0.0012001601,-0.00046857214,0.0014635882,0.00011625159,-8.310006e-05,-0.038307227,0.22984336,-8.829816,0.69041777,47.705692,-0.78508174,-2.7464085,-2.790713,-0.13249832,0.14340407,-0.03838489,28.3125,29.6875,28.75,32.5,35.0,36.0625
0.012053626,-0.20600401,0.52099234,0.23043652,0.0005500775,-0.012362896,0.0025627539,-0.38931882,-0.36869135,0.059985653,-3.0786293,0.624913,0.00016864597,0.0010267684,0.00066770025,-0.0025571694,0.0035293638,-0.006606594,-0.00011310642,0.50503284,-1.3816426,1.9042462,-2.0918906,-1.5709013,2.4800253,-0.0002373516,0.0047876257,-0.0005817582,0.0032831472,0.0001141452,-0.00012376634,0.11492168,0.17238252,-9.097966,0.7709874,47.703903,-0.9740099,-2.7303479,-2.8927903,-0.15144147,0.14926623,-0.09916996,28.3125,29.6875,28.75,32.5,35.0,36.0625
0.014054253,-0.66706485,-0.41208065,0.0936278,-0.03447425,0.009525197,0.0022877213,-0.38934377,-0.36870325,0.060001206,-3.0786872,0.6250028,0.0001615145,-0.0034223616,0.0056484635,-0.0055442895,0.00592057,-0.010934065,-0.003682535,0.5049923,-1.38164,1.9042104,-2.0919025,-1.5708417,2.4800334,-0.01278246,0.010912972,-0.00080362504,0.0023225422,0.00011211382,-0.009098271,0.0,0.038307227,-9.308657,0.7463667,47.684196,-0.44635743,-3.344951,-2.98848,-0.14381385,0.14742032,-0.07692759,28.3125,29.6875,28.75,32.5,35.0,36.0625
0.016053423,-0.8344473,-0.15560037,0.17486392,-0.06647812,0.035342585,-0.01090898,-0.38932967,-0.3686909,0.059959963,-3.078645,0.6248955,7.481742e-05,-0.0046501807,0.0056533697,-0.0038915987,0.0040672203,-0.007586937,0.0007408197,0.5049921,-1.3815806,1.9042343,-2.091903,-1.5708536,2.4799716,-0.013937173,0.008634484,-0.0017311594,0.0017015868,0.0001101536,-0.014676262,-0.21068975,0.11492168,-9.461885,0.6859408,47.71465,-0.52576125,-3.1917295,-3.0652366,-0.11306912,0.15350302,-0.04176712,28.3125,29.6875,28.75,32.5,35.0,36.0625
0.018053897,-1.6038182,-0.19519761,0.029221106,-0.05118415,0.047703274,-0.016234001,-0.3893452,-0.36869624,0.05996554,-3.0786707,0.6249182,1.32251e-05,-0.005255963,0.0046874853,-0.0025382217,0.0025696617,-0.0049003945,0.004708222,0.5049565,-1.381557,1.9041857,-2.0918677,-1.5708054,2.4799469,-0.012881333,0.0076389806,-0.0035830694,0.0014736404,0.00011587442,-0.01758721,-0.45968673,0.1340753,-9.423578,0.7597976,47.699425,-0.78089416,-2.9708607,-3.0722141,-0.10821881,0.16726835,-0.03803155,28.3125,29.6875,28.75,32.5,35.0,36.0625
0.02005417,-1.6216973,0.45294765,-0.28952864,-0.0031437308,0.061154697,-0.045672525,-0.38931698,-0.36867565,0.059938304,-3.0786276,0.6248518,-6.0013856e-05,-0.0063731917,0.005348552,-0.0023387475,0.0022696166,-0.004375682,0.0056297397,0.5049557,-1.381557,1.9042448,-2.0918553,-1.5708174,2.4799101,-0.015043185,0.007836268,-0.0042357338,0.0013240268,0.00012112353,-0.020670282,-0.49799395,0.114921674,-9.404425,0.75084364,47.71286,-0.87640274,-2.8730512,-3.109147,-0.12008565,0.17397888,-0.03126002,28.3125,29.6875,28.75,32.5,35.0,36.0625
0.022054054,-1.2388607,1.2665898,-0.37193012,0.024121158,0.07264004,-0.07802432,-0.38933358,-0.36867034,0.059912216,-3.0785964,0.62488437,-0.000104761086,-0.0066175824,0.0063513634,-0.0032761397,0.003867137,-0.007291278,0.004329523,0.5049312,-1.3814844,1.9042209,-2.0918667,-1.5708174,2.47991,-0.01696932,0.009773772,-0.004844294,0.0033195098,0.0001356899,-0.021295883,-0.40222588,0.019153614,-9.653421,0.78217715,47.71554,-0.9239341,-2.8940113,-3.322059,-0.1334799,0.14783247,-0.015557477,28.3125,29.6875,28.75,32.5,35.0,36.0625
0.024054255,-1.580484,0.70196337,-0.37819174,0.031574763,0.06321092,-0.0817394,-0.38935262,-0.36865115,0.059899446,-3.078592,0.6249619,-0.00017066288,-0.007139148,0.0069597433,-0.0042145113,0.0050287438,-0.009463403,0.00092104194,0.50485873,-1.3814594,1.9042205,-2.0918667,-1.5707816,2.4798863,-0.018503146,0.012266222,-0.0058824373,0.004329003,0.00016900034,-0.019420573,-0.59376204,-0.1340753,-9.787497,0.7284641,47.716442,-0.8807459,-2.9728448,-3.3451562,-0.13695148,0.15941125,-0.04374615,28.3125,29.6875,28.75,32.5,35.0,36.0625
0.026053237,-1.780817,0.83277416,-0.19676457,0.007721127,0.059808433,-0.10431961,-0.38936144,-0.3686402,0.05989819,-3.0785592,0.62491834,-0.00018954113,-0.008574246,0.006185603,-0.0029335285,0.0022755659,-0.006951666,-0.0017589732,0.50484663,-1.3814355,1.9041842,-2.0918186,-1.570805,2.4798512,-0.019283831,0.011932621,-0.00820466,0.0034501865,0.0013564113,-0.017522305,-0.7661445,-0.095768064,-9.691729,0.7978386,47.70659,-0.89126766,-2.9646187,-3.320908,-0.125633,0.16211386,-0.07004121,28.3125,29.6875,28.75,32.5,35.0,36.0625
0.028054046,-2.0844939,-0.018281458,-0.4881069,0.008001961,0.069382295,-0.11334681,-0.3893874,-0.3686099,0.059889574,-3.0785296,0.6248928,-0.00019343657,-0.009771777,0.0058618565,-0.0026929541,0.0015634174,-0.0058212234,-0.0031496077,0.50478655,-1.381411,1.9041723,-2.0918071,-1.5708293,2.479779,-0.01990314,0.013286305,-0.010193199,0.0027506764,0.0014264312,-0.016750032,-0.7469909,-0.15322891,-9.864111,0.67475104,47.692257,-0.9635025,-2.8430185,-3.323553,-0.11668514,0.13817476,-0.1011616,28.3125,29.6875,28.75,32.5,35.0,36.0625
0.030053973,-1.9378289,0.13584423,-0.5240457,-0.0072091734,0.09125364,-0.12209233,-0.38938907,-0.36861056,0.05987853,-3.0785182,0.62491035,-0.0002076689,-0.010891252,0.0061109955,-0.002543864,0.0014271155,-0.0050105606,-0.0045623793,0.5047861,-1.3813868,1.9041713,-2.0918186,-1.5708293,2.479791,-0.02119726,0.014133141,-0.011450806,0.0023870007,0.0011499219,-0.016630223,-0.6703765,-0.11492168,-9.864111,0.77545905,47.713753,-0.92950773,-2.856488,-3.2896783,-0.08341485,0.14854592,-0.13583966,28.3125,29.6875,28.75,32.5,35.0,36.0625
0.03205389,-2.3276894,-0.3425995,-0.6190455,0.008021864,0.08312975,-0.12812792,-0.3893972,-0.36859345,0.05987412,-3.0784883,0.6249435,-0.00024952856,-0.011822797,0.006413949,-0.0027291402,0.0019002887,-0.0054569556,-0.0055734287,0.50474966,-1.3813741,1.9041585,-2.0917833,-1.5708293,2.479779,-0.022453563,0.01580019,-0.013145731,0.0030351724,0.00094859826,-0.016874267,-0.7469909,-0.076614454,-9.844957,0.7463667,47.699425,-1.0119429,-2.8881187,-3.3406463,-0.093251064,0.16167174,-0.13479778,28.3125,29.6875,28.75,32.5,35.0,36.0625
0.03405424,-1.8769296,-0.10364607,-0.5484549,0.024686674,0.082549416,-0.14936534,-0.38942492,-0.3685801,0.059852593,-3.0784578,0.624976,-0.0002930277,-0.012054125,0.00729031,-0.002758153,0.0025573124,-0.0065489993,-0.006158698,0.5047012,-1.381302,1.9041222,-2.0917828,-1.5708293,2.4797547,-0.024115449,0.015612005,-0.013202295,0.00455358,0.00090368994,-0.017951004,-0.7469909,-0.114921674,-9.844957,0.7866488,47.672558,-1.0123197,-2.7959628,-3.3677382,-0.10381818,0.15159921,-0.17363437,28.3125,29.6875,28.75,32.5,35.0,36.0625
0.03605415,-1.6566763,0.48201048,-0.7093605,0.027128674,0.067852005,-0.16052926,-0.3894587,-0.36857456,0.05986545,-3.0785012,0.62496567,-0.00024869296,-0.0134763215,0.008037215,-0.0027025002,0.0025383465,-0.0063379584,-0.0074405987,0.50465256,-1.3813016,1.9040979,-2.0918067,-1.5708169,2.4796941,-0.02664634,0.01660517,-0.014536115,0.004700769,0.0008158178,-0.019199107,-0.6512228,-0.11492168,-9.883265,0.72622824,47.645687,-0.9449924,-2.8925936,-3.4167356,-0.12337689,0.16651236,-0.16578409,28.3125,29.6875,28.75,32.5,35.0,36.0625
0.038054097,-1.6142658,0.4351924,-0.6122721,0.013047859,0.053058494,-0.17710364,-0.38948894,-0.36854643,0.059856266,-3.0784492,0.6250508,-0.00025264348,-0.014685088,0.008142047,-0.00173149,0.0012667447,-0.0038568059,-0.0066565895,0.5045921,-1.3812661,1.9040741,-2.0917943,-1.5708412,2.4796934,-0.027893526,0.01560638,-0.015344135,0.0037205128,0.00072382775,-0.021229882,-0.4405331,-0.038307227,-9.825804,0.7530795,47.66987,-0.9480881,-2.7733407,-3.3574753,-0.110754415,0.14712471,-0.19821446,28.3125,29.6875,28.75,32.5,35.0,36.0625
0.040053975,-1.0038768,0.18275432,-0.3535842,-0.0036661366,0.055188585,-0.18929829,-0.38952783,-0.36852497,0.059856344,-3.078423,0.62514085,-0.0002656892,-0.016066492,0.008094354,-0.0014205138,0.0006170586,-0.002540039,-0.00604503,0.50451994,-1.3812296,1.9040254,-2.091771,-1.5708417,2.4796808,-0.029056676,0.016698208,-0.017178513,0.002996359,0.0006492292,-0.023003465,-0.3256114,0.038307227,-9.80665,0.7597976,47.672558,-1.0072156,-2.818395,-3.3373005,-0.079384774,0.16458647,-0.19139984,28.3125,29.6875,28.75,32.5,35.0,36.0625
0.042053502,-1.4014009,-0.34165648,-0.3900708,-0.0059612226,0.03748601,-0.20092636,-0.38957295,-0.3684938,0.059853178,-3.078396,0.6251358,-0.0002300757,-0.016780328,0.008551109,-0.0011369775,0.00033251662,-0.0019015175,-0.0071762493,0.5044476,-1.3811936,1.9039901,-2.091771,-1.5708774,2.4796088,-0.030452171,0.01641441,-0.017458908,0.0028634407,0.0005885075,-0.023267549,-0.30645782,0.038307227,-9.749189,0.7553206,47.684196,-0.9867544,-2.7089844,-3.3863883,-0.08637921,0.1683572,-0.22172108,28.3125,29.6875,28.75,32.5,35.0,36.0625
0.044053655,-0.8415128,0.16202451,-0.38323128,-0.01647131,0.039273698,-0.22439246,-0.38960344,-0.3685068,0.05986136,-3.0784435,0.6251649,-0.00024924145,-0.017946437,0.008903818,-0.00075629016,0.00022538746,-0.0016075806,-0.0072776624,0.50441116,-1.3811575,1.9039286,-2.0917704,-1.5708297,2.4795845,-0.032102212,0.017120147,-0.019361278,0.003752078,0.0005381728,-0.024815276,-0.17238252,0.076614454,-9.653421,0.683705,47.653748,-0.9644952,-2.738727,-3.2818441,-0.08889213,0.1767309,-0.22811338,28.3125,29.6875,28.75,32.5,35.0,36.0625
0.046053607,-0.89568007,-0.39653745,-0.38765067,0.0009917066,0.014602766,-0.23092967,-0.38963568,-0.36846268,0.05984789,-3.0783935,0.6252512,-0.00027953277,-0.019343514,0.009911607,-0.0003422453,0.00013002641,-0.0013521049,-0.007953454,0.50431424,-1.3811334,1.9039282,-2.0917585,-1.5708417,2.4795477,-0.035075534,0.017179878,-0.02057485,0.004635746,0.00049578183,-0.027112337,-0.11492168,0.038307227,-9.500193,0.83589023,47.678825,-0.9434613,-2.7042947,-3.3320487,-0.094419345,0.18771464,-0.25730237,28.3125,29.6875,28.75,32.5,35.0,36.0625
0.048054244,-0.5959529,-0.5956981,-0.4882725,0.008066925,0.003985271,-0.23937573,-0.38968956,-0.36846128,0.059841923,-3.0784173,0.62521565,-0.00027891432,-0.019795857,0.010359374,-0.00022862745,2.5040694e-05,-0.0012146448,-0.006392711,0.50425404,-1.3810494,1.9038452,-2.0917704,-1.5708297,2.4794624,-0.03626301,0.016985213,-0.020620402,0.0047047893,0.0005206121,-0.02986062,-0.15322891,0.19153613,-9.385271,0.8291774,47.672558,-0.8563887,-2.6819623,-3.349639,-0.09624046,0.18698429,-0.24553163,28.3125,29.6875,28.75,32.5,35.0,36.0625
0.0500542,-0.22990064,-0.32557207,-0.46110713,0.0029622014,0.014633837,-0.19545463,-0.38974047,-0.36843306,0.059861638,-3.0784135,0.6252144,-0.00019973176,-0.021470174,0.01074631,-9.410562e-05,-0.0005285146,-0.00015745731,-0.005844476,0.5041813,-1.3810489,1.903797,-2.0917585,-1.5708655,2.4793894,-0.038455997,0.018257612,-0.022237824,0.0038553716,0.0004892032,-0.032600813,-0.019153614,0.19153613,-9.500193,0.842603,47.672558,-0.8047668,-2.7135482,-3.2945306,-0.079202294,0.18427141,-0.25594804,28.3125,29.6875,28.75,32.5,35.0,36.0625
0.052053604,-0.27989835,-0.6410758,-0.45558715,0.0089489315,0.0028636784,-0.18290034,-0.38977098,-0.3684248,0.059872646,-3.078458,0.625261,-0.00021861932,-0.0234636,0.011064656,0.00096071314,-0.0017084628,0.0022573017,-0.005697093,0.50410885,-1.381049,1.9037722,-2.091759,-1.5708174,2.4793403,-0.040763795,0.018167855,-0.024444755,0.0034695514,0.0003503955,-0.03505481,0.019153614,0.21068975,-9.557653,0.77545905,47.658226,-0.82944477,-2.6118524,-3.2046757,-0.072861105,0.20102295,-0.25565392,28.3125,29.6875,28.75,32.5,35.0,36.0625
0.054053508,-0.43436486,-0.47594088,-0.30594915,-0.0022606351,0.00074789504,-0.179854,-0.38984147,-0.36839828,0.05987186,-3.0784476,0.62525713,-0.0001808245,-0.023148948,0.010452867,0.0008729536,-0.0016268453,0.0020767902,-0.0030030853,0.50401354,-1.3809767,1.9036883,-2.0917585,-1.5708417,2.479244,-0.03944468,0.018819936,-0.025051108,0.0036202408,0.00036541137,-0.036429394,-0.019153614,0.15322891,-9.576807,0.78888994,47.677036,-0.9393681,-2.6986217,-3.219574,-0.05310132,0.1990354,-0.26068014,28.3125,29.6875,28.75,32.5,35.0,36.0625
0.05605347,-0.17795181,-0.17918763,-0.13013056,-0.009632682,0.008417085,-0.17839035,-0.38989168,-0.3683713,0.059876747,-3.0784118,0.62538546,-0.00016956277,-0.024519073,0.011259873,0.00094903394,-0.0016165297,0.0019274526,-0.004634088,0.50392866,-1.3809402,1.9036287,-2.0917346,-1.5708536,2.4792438,-0.042116728,0.01978062,-0.026502056,0.004245474,0.00042669653,-0.037469868,0.019153614,0.19153613,-9.481039,0.7105615,47.691364,-0.9323731,-2.633855,-3.2325382,-0.056387324,0.20317835,-0.2573758,28.3125,29.6875,28.75,32.5,35.0,36.0625
0.058054302,-0.1957155,-0.5173253,-0.23214783,0.010605758,0.0076735993,-0.1761746,-0.38993904,-0.36833334,0.059868593,-3.0784006,0.6254018,-0.00018500705,-0.024910089,0.011905553,0.0009320531,-0.0016594545,0.0012298595,-0.0051531703,0.50382024,-1.3809044,1.9036049,-2.0917342,-1.5708531,2.479147,-0.04379852,0.01972545,-0.026557546,0.0049448377,0.00080204895,-0.038633306,-0.019153614,0.13407528,-9.442732,0.779936,47.691364,-0.8346064,-2.5259237,-3.2711759,-0.05811559,0.20329863,-0.30333287,28.3125,29.6875,28.75,32.5,35.0,36.0625
0.060054228,0.007250901,-0.077126466,-0.10009889,0.008269386,0.0070079374,-0.18473685,-0.38999864,-0.36833054,0.05989101,-3.0784354,0.6253893,-0.00012725507,-0.025670951,0.012300518,0.0008590903,-0.0020164447,0.0006976199,-0.0055600954,0.5037599,-1.380868,1.9035081,-2.0917222,-1.5708531,2.4790745,-0.045524046,0.02051471,-0.027404103,0.005293687,0.0013722565,-0.03995241,0.038307227,0.1340753,-9.519346,0.81351066,47.677036,-0.8458106,-2.6320658,-3.3188095,-0.06170013,0.19549318,-0.29481202,28.3125,29.6875,28.75,32.5,35.0,36.0625
0.062054172,-0.2514542,-0.078828104,0.10482463,0.009116006,0.007027665,-0.18042864,-0.3900378,-0.3683043,0.059890993,-3.0784647,0.6253754,-0.00013848708,-0.02641648,0.011896597,0.00103199,-0.0027583507,0.00078957307,-0.004747611,0.5036641,-1.3808556,1.9034961,-2.0917342,-1.5708288,2.4789662,-0.045912534,0.021768343,-0.029333156,0.0055292374,0.0019743342,-0.041153427,-0.15322891,0.17238252,-9.346964,0.8179876,47.705692,-0.9011191,-2.6492162,-3.1933172,-0.05990536,0.2067924,-0.32311925,28.3125,29.6875,28.75,32.5,35.0,36.0625
0.06405387,-0.40551978,0.278139,0.12115354,0.007592945,0.020330204,-0.1749807,-0.3900759,-0.36827707,0.059877355,-3.078449,0.6253903,-0.00022053528,-0.027634632,0.012388155,0.0012425435,-0.0033577913,0.0014525988,-0.0045237117,0.50356746,-1.3807955,1.903448,-2.0916984,-1.5708045,2.478881,-0.04799709,0.022195427,-0.03022726,0.0051264856,0.0021741209,-0.043461856,-0.095768064,0.1340753,-9.270349,0.78217715,47.72271,-0.86055756,-2.5639,-3.22084,-0.06679961,0.20410676,-0.32827395,28.3125,29.6875,28.75,32.5,35.0,36.0625
0.066054106,-0.67381525,0.4592935,-0.11291613,0.006257507,0.02880689,-0.18445121,-0.39012167,-0.3682711,0.059883308,-3.0784588,0.6254303,-0.00021721386,-0.028429847,0.012537967,0.0017322757,-0.00410555,0.0021480357,-0.0031905468,0.50350726,-1.3807474,1.903375,-2.0916865,-1.5707926,2.4788444,-0.0491842,0.022033742,-0.031185338,0.0052755717,0.0024918695,-0.045982305,-0.11492168,0.095768064,-9.442732,0.77545905,47.703007,-0.8912144,-2.5352569,-3.2647033,-0.047321603,0.19334537,-0.328601,28.3125,29.6875,28.75,32.5,35.0,36.0625
0.06805394,-0.7548696,-0.16142985,0.117750674,0.013237604,0.045762762,-0.16730867,-0.39019597,-0.3682383,0.05989841,-3.0784857,0.6254164,-0.00020297657,-0.028603895,0.012810278,0.0014528924,-0.0037080084,0.0012956255,-0.0035716274,0.5033753,-1.380711,1.9032921,-2.0916622,-1.5707806,2.4787004,-0.04983805,0.02278476,-0.031567052,0.0058453428,0.0025567897,-0.046254918,-0.24899697,0.05746084,-9.3661175,0.71279734,47.713753,-0.93294376,-2.5627418,-3.3056722,-0.040553693,0.19836082,-0.34152657,28.3125,29.6875,28.75,32.5,35.0,36.0625
0.07005398,-1.4302627,0.2538499,0.2024031,0.007108005,0.042393766,-0.17798407,-0.39025345,-0.36821955,0.0598924,-3.078489,0.62539804,-0.0002041838,-0.029811356,0.014162415,0.001105885,-0.0034498412,-0.0002323533,-0.0060451776,0.5032901,-1.3806386,1.90322,-2.0916617,-1.5707806,2.4786034,-0.053553235,0.023861118,-0.032306436,0.0069696456,0.0030685198,-0.04749708,-0.34476504,0.076614454,-9.3661175,0.7486078,47.717335,-0.8357012,-2.5828662,-3.2636008,-0.07577458,0.2022516,-0.38724422,28.3125,29.6875,28.75,32.5,35.0,36.0625
0.072053626,-1.2261769,-0.13303235,0.11226898,0.022063965,0.055643372,-0.16924284,-0.3903084,-0.36819074,0.059905797,-3.0785103,0.625419,-0.00018834416,-0.02973253,0.013637934,0.0010211645,-0.0038481562,-0.000803481,-0.0019591446,0.50318265,-1.3806263,1.9031724,-2.0916502,-1.5707682,2.4785063,-0.052980777,0.024712928,-0.03319988,0.00731793,0.003692265,-0.05101117,-0.40222588,0.076614454,-9.423578,0.82022345,47.707485,-0.8079041,-2.5018015,-3.243687,-0.066765524,0.18751392,-0.35031188,28.3125,29.6875,28.75,32.5,35.0,36.0625
0.07405337,-1.8061448,0.4771199,0.06387559,0.009374675,0.047801867,-0.17764431,-0.3903568,-0.36814728,0.05988075,-3.078461,0.62532884,-0.0002243433,-0.030477406,0.013434751,0.0011293052,-0.00484341,-0.0003864629,0.0023678087,0.5030867,-1.380542,1.9031242,-2.091626,-1.570804,2.4783604,-0.05374235,0.02549463,-0.034238253,0.006724963,0.0043551214,-0.056100477,-0.45968673,-0.05746084,-9.423578,0.7329411,47.65643,-1.0449387,-2.5671494,-3.2331438,-0.06478474,0.18713742,-0.35476258,28.3125,29.6875,28.75,32.5,35.0,36.0625
0.07605415,-1.6724495,0.3582624,-0.047122415,0.009638976,0.05878622,-0.18418285,-0.3904168,-0.36812055,0.05990292,-3.0784786,0.6253709,-0.00020714158,-0.03169472,0.013804979,0.0014471987,-0.005733396,7.9748934e-05,0.0029063318,0.502978,-1.3805298,1.9030513,-2.0915902,-1.5707916,2.4782758,-0.055837955,0.025932627,-0.03546929,0.006679422,0.0049083172,-0.058734875,-0.45968673,0.0,-9.32781,0.7284641,47.703903,-0.9675263,-2.529022,-3.281301,-0.06373049,0.17368801,-0.31150454,28.3125,29.6875,28.75,32.5,35.0,36.0625
0.07805424,-1.8631055,0.32459155,0.06617128,0.015933689,0.053917993,-0.17290336,-0.3905103,-0.3680836,0.05993098,-3.078506,0.62547284,-0.0001492162,-0.032875624,0.014840269,0.0012554927,-0.0062720305,-0.0007583631,0.0010140031,0.5028213,-1.3805056,1.9029559,-2.0915778,-1.5707797,2.4781792,-0.0592178,0.026631016,-0.03590736,0.0068920543,0.005787316,-0.0602233,-0.5554548,0.076614454,-9.3661175,0.6546126,47.692257,-0.86012506,-2.508137,-3.3133645,-0.05684256,0.15091175,-0.33025366,28.3125,29.6875,28.75,32.5,35.0,36.0625
0.080054395,-1.078881,0.20508094,0.079495996,0.019759838,0.067240305,-0.17397965,-0.39057943,-0.36807245,0.059924327,-3.07853,0.6253963,-0.000135605,-0.032769527,0.013870534,0.001449393,-0.0075183073,-0.00070478575,0.0066308333,0.5027378,-1.3804092,1.90286,-2.0915902,-1.5707792,2.478045,-0.058142286,0.027140928,-0.036920656,0.0067442507,0.006851114,-0.0647658,-0.5554548,-0.019153614,-9.3661175,0.71279734,47.668976,-0.85912514,-2.488929,-3.2449224,-0.06461868,0.14386185,-0.27787307,28.3125,29.6875,28.75,32.5,35.0,36.0625
0.082053535,-1.7878252,-0.28669924,0.008662128,0.026864573,0.04991402,-0.16775128,-0.39061815,-0.36804995,0.059896417,-3.0785491,0.62528324,-0.00022983528,-0.033331316,0.014353502,0.0012720163,-0.0071060066,-0.0011245561,0.009673074,0.50264156,-1.380325,1.9028238,-2.0915902,-1.5707434,2.4778757,-0.059371557,0.027895918,-0.037501883,0.00714035,0.006687864,-0.06903706,-0.6703765,0.0,-9.423578,0.7777002,47.677036,-1.0815241,-2.5034695,-3.2758899,-0.055574056,0.1318172,-0.2466216,28.3125,29.6875,28.75,32.5,35.0,36.0625
0.08405346,-1.4426827,0.46579358,-0.070188075,0.015031218,0.05406406,-0.17566888,-0.39070195,-0.36800086,0.059904724,-3.0785625,0.6252646,-0.00024296893,-0.03453751,0.0148439435,0.0011989115,-0.007497571,-0.0014338422,0.011315423,0.5024732,-1.3802766,1.9027394,-2.091554,-1.570731,2.477694,-0.06161486,0.029165674,-0.038882002,0.007333268,0.007176914,-0.0729228,-0.4213795,-0.1340753,-9.3661175,0.7866488,47.664497,-1.0098794,-2.4967148,-3.2042623,-0.06649708,0.12208612,-0.18921804,28.3125,29.6875,28.75,32.5,35.0,36.0625
0.086054154,-1.8818736,0.43035486,-0.22157525,0.019808853,0.035803325,-0.17357925,-0.39080113,-0.36798343,0.059936054,-3.078623,0.62533337,-0.00019521602,-0.035027735,0.015308174,0.0011807651,-0.0066423547,-0.0015080424,0.013712101,0.50232923,-1.3802283,1.9026083,-2.0915415,-1.5706953,2.4775853,-0.062397126,0.029690757,-0.039619975,0.008029231,0.0064680413,-0.076099776,-0.34476504,-0.095768064,-9.308657,0.7284641,47.664497,-1.0023389,-2.5328963,-3.2701502,-0.07116165,0.11589547,-0.15626584,28.3125,29.6875,28.75,32.5,35.0,36.0625
0.088053904,-1.5774789,0.20412077,-0.14314088,0.017475966,0.03939561,-0.16224924,-0.3908532,-0.3679505,0.059931353,-3.0786262,0.62523544,-0.00019552186,-0.03615517,0.01583163,0.0011092009,-0.0058893575,-0.00047112204,0.015277013,0.5022331,-1.3801799,1.9025592,-2.09153,-1.5707077,2.4774277,-0.06359516,0.030711243,-0.040513497,0.0073598092,0.005304249,-0.07886029,-0.30645782,-0.019153614,-9.3661175,0.7777002,47.67345,-1.002108,-2.4740806,-3.277619,-0.10453868,0.11234005,-0.115055345,28.3125,29.6875,28.75,32.5,35.0,36.0625
0.09005392,-0.4821259,0.062103335,-0.024793051,0.018176189,0.06774933,-0.17528225,-0.39094335,-0.36790475,0.05993331,-3.0786383,0.6252185,-0.00020830228,-0.03726958,0.01615951,0.0012881577,-0.005345977,0.00092086266,0.015500986,0.5020651,-1.3801076,1.9024638,-2.0915062,-1.5706962,2.4772477,-0.06445447,0.03146533,-0.0416953,0.0068348576,0.0041543967,-0.07994104,-0.30645782,0.019153614,-9.423578,0.72622824,47.666286,-1.0639236,-2.5271585,-3.3004274,-0.07947792,0.14634548,-0.08717084,28.3125,29.6875,28.75,32.5,35.0,36.0625
0.09205386,-0.43544683,0.19265234,-0.09547212,0.007868245,0.060431603,-0.17911951,-0.39098933,-0.36788702,0.059915215,-3.0786479,0.62508684,-0.0002387505,-0.037755128,0.016992394,0.00029874605,-0.003912397,-0.00018085024,0.013640617,0.50199276,-1.3800228,1.9024047,-2.0915062,-1.5706967,2.477092,-0.06584822,0.033300627,-0.041542836,0.006505638,0.00342564,-0.07947305,-0.22984336,-0.019153614,-9.442732,0.80456203,47.679718,-1.0363493,-2.513266,-3.2386923,-0.07413142,0.15896773,-0.06895816,28.3125,29.6875,28.75,32.5,35.0,36.0625
0.09405363,-0.5355661,-0.10431512,-0.040242374,0.0027666567,0.049836535,-0.17038167,-0.3911055,-0.3678523,0.059945665,-3.0786712,0.62514967,-8.687295e-05,-0.03926639,0.017080879,0.0009747026,-0.0041264896,0.0012937716,0.011494043,0.50184864,-1.3799744,1.9022835,-2.09153,-1.5707325,2.4769843,-0.06706336,0.03408169,-0.044089407,0.0068749837,0.0029073046,-0.07853936,-0.24899697,-0.038307227,-9.519346,0.7172743,47.61613,-1.0953434,-2.5417204,-3.2603526,-0.084654026,0.14321822,-0.078097865,28.3125,29.6875,28.75,32.5,35.0,36.0625
0.09605341,-0.49591875,-0.40229273,-0.22627567,0.00813323,0.031926192,-0.16362648,-0.39118087,-0.36781815,0.059929803,-3.0787141,0.62513924,-0.00021682617,-0.03986666,0.017470635,0.0010651867,-0.003972228,0.0017506299,0.009225245,0.50166875,-1.3798783,1.9022006,-2.0915062,-1.5706486,2.4767923,-0.06804132,0.034240697,-0.044462923,0.0067715,0.0025491072,-0.077247865,-0.095768064,0.038307227,-9.3661175,0.7396539,47.64658,-1.181503,-2.5707703,-3.1897879,-0.07459234,0.15023908,-0.07864794,28.3125,29.6875,28.75,32.5,35.0,36.0625
0.09805426,0.46650082,-0.18216762,-0.1740919,0.0027900403,0.042066444,-0.17812657,-0.39124465,-0.36775425,0.05990958,-3.0786521,0.62510973,-0.00025244043,-0.03997283,0.01844962,0.00022480592,-0.0031439,0.00021338403,0.00617954,0.5015245,-1.3798059,1.9021529,-2.0914705,-1.5706848,2.4766376,-0.06978702,0.034979217,-0.04341823,0.0067319777,0.0025601184,-0.07594834,0.0,0.095768064,-9.3661175,0.71279734,47.664497,-1.1130948,-2.5547857,-3.324974,-0.081430666,0.15860888,-0.11903008,28.3125,29.6875,28.75,32.5,35.0,36.0625
0.10005426,-0.30755806,-0.11214625,-0.1831655,-0.0045902375,0.013070889,-0.15894908,-0.39133942,-0.3677334,0.05994326,-3.0787022,0.62504333,-0.00012854373,-0.04142441,0.01859722,0.00051971496,-0.0036959546,0.0009648041,0.0027406283,0.50141627,-1.3797696,1.9020332,-2.0914705,-1.5707086,2.4764817,-0.071448125,0.036200494,-0.045525752,0.0066919974,0.0026850668,-0.07416947,0.019153614,0.095768064,-9.423578,0.8023209,47.686886,-1.1753894,-2.5967946,-3.280744,-0.06899376,0.1611054,-0.123267695,28.3125,29.6875,28.75,32.5,35.0,36.0625
0.10205415,-0.32918483,-0.109836176,-0.20476505,8.2276514e-05,-0.0016181847,-0.15518107,-0.39144167,-0.36767653,0.05994444,-3.078656,0.62513155,-9.261222e-05,-0.042322416,0.018850569,0.0003412356,-0.0037017355,0.0007251452,-0.00033468675,0.5012482,-1.379685,1.901925,-2.0914462,-1.5707449,2.4763746,-0.07276806,0.03760759,-0.04680474,0.0067687235,0.002803295,-0.07241356,0.05746084,0.15322891,-9.442732,0.82022345,47.691364,-1.157547,-2.529684,-3.2720299,-0.08093539,0.15852308,-0.1697442,28.3125,29.6875,28.75,32.5,35.0,36.0625
0.104054004,0.32682768,-0.18221588,-0.14405584,0.00041730073,0.017724205,-0.16719092,-0.39148858,-0.36764428,0.05991902,-3.0786722,0.6250776,-0.00017163166,-0.044029698,0.01902054,0.0013262306,-0.0045658057,0.0025417067,-0.0032095595,0.5011278,-1.3796128,1.9019002,-2.0914586,-1.5707086,2.4762185,-0.074554324,0.03777188,-0.04932169,0.0071165017,0.0026816495,-0.07132384,0.038307227,0.15322891,-9.461885,0.8314132,47.694054,-1.1159205,-2.6749246,-3.1482928,-0.077054635,0.17522977,-0.18463439,28.3125,29.6875,28.75,32.5,35.0,36.0625
0.10605405,-0.33342412,-0.5372904,-0.21105647,-4.1857107e-05,0.0091946395,-0.15825236,-0.39159513,-0.3676129,0.059933633,-3.0786815,0.62506133,-0.00013241993,-0.044170447,0.01976369,0.000895619,-0.004010006,0.001663114,-0.0055474485,0.50098354,-1.3795168,1.9017452,-2.0914223,-1.5707206,2.476063,-0.07588103,0.038027458,-0.048679072,0.0072556934,0.0026202498,-0.07031274,0.038307227,0.15322891,-9.3661175,0.72622824,47.709274,-1.1704369,-2.5713544,-3.1905003,-0.09114756,0.18249555,-0.24322589,28.3125,29.6875,28.75,32.5,35.0,36.0625
0.108053885,-0.48852688,-0.4947908,-0.26810926,-0.013540338,0.011696755,-0.16139872,-0.39169118,-0.36755466,0.059931397,-3.078661,0.6251128,-0.00012206148,-0.04392984,0.020143347,-0.00014947345,-0.003350745,-0.0005597823,-0.004386322,0.5008038,-1.379444,1.9016613,-2.09141,-1.5707325,2.475918,-0.07658922,0.039590646,-0.048205487,0.007483169,0.00311107,-0.07218282,0.05746084,0.22984336,-9.3661175,0.7530795,47.696735,-1.1927569,-2.4743342,-3.3323903,-0.09104152,0.17465898,-0.24971053,28.3125,29.6875,28.75,32.5,35.0,36.0625
0.11005388,-0.4520648,-0.978455,-0.16335317,-0.012005283,0.0253423,-0.1600547,-0.3917734,-0.3675392,0.05993565,-3.0786967,0.6251208,-0.00017168901,-0.045722183,0.019986225,0.00096179306,-0.004978657,0.0012782374,-0.006354101,0.5006715,-1.3793478,1.9015297,-2.0913742,-1.5706843,2.4757862,-0.078307986,0.039898362,-0.051158704,0.0077367476,0.003651196,-0.07193346,-0.019153614,0.2873042,-9.404425,0.779936,47.67345,-1.2314459,-2.5923624,-3.282114,-0.09451768,0.17853197,-0.28088582,28.3125,29.6875,28.75,32.5,35.0,36.0625
0.11205401,-0.23552744,-0.5959993,-0.29461825,-0.016025353,0.0312572,-0.1581677,-0.39184257,-0.36749107,0.059915967,-3.0786862,0.6251571,-0.00026595074,-0.045656525,0.01996823,0.00054276007,-0.004921341,-0.00029922387,-0.0073970654,0.5005038,-1.3792634,1.9014691,-2.0913503,-1.5706481,2.4756424,-0.07864469,0.04104083,-0.051757824,0.008605494,0.0043558804,-0.07122821,-0.076614454,0.19153613,-9.3661175,0.76874626,47.686886,-1.2475933,-2.551558,-3.2203588,-0.09293454,0.164752,-0.31583604,28.3125,29.6875,28.75,32.5,35.0,36.0625
0.11405392,0.1863533,-0.4207902,-0.20381165,-0.005894486,0.043215413,-0.17341945,-0.3919527,-0.36745018,0.05994719,-3.078697,0.62510234,-0.00012077602,-0.04769436,0.02149476,0.0010914721,-0.005449253,0.000700275,-0.00954465,0.5003704,-1.3792154,1.9013385,-2.091338,-1.5707082,2.4754736,-0.083076134,0.04071434,-0.05263766,0.00867795,0.004342866,-0.07351145,-0.05746084,0.22984336,-9.461885,0.7530795,47.693153,-1.1944338,-2.4959416,-3.3013453,-0.12117383,0.162782,-0.36783943,28.3125,29.6875,28.75,32.5,35.0,36.0625
0.11605374,-0.6694284,-0.2865265,-0.19731203,-0.0055747847,0.026088217,-0.16456287,-0.3920196,-0.3674075,0.059921525,-3.0787137,0.6251049,-0.0002650143,-0.04694518,0.02047033,0.00023323056,-0.0048358296,-0.00038482045,-0.008473682,0.5001917,-1.3791187,1.901277,-2.091314,-1.5706362,2.4752944,-0.08063186,0.042860366,-0.053140514,0.008287221,0.004319432,-0.07213779,-0.05746084,0.19153613,-9.500193,0.7217513,47.71823,-1.3718351,-2.571258,-3.2877908,-0.1032812,0.16032182,-0.38812402,28.3125,29.6875,28.75,32.5,35.0,36.0625
0.118053645,-0.7777005,-0.32633033,-0.21747646,0.0059453854,0.03602114,-0.154533,-0.39213595,-0.36737046,0.05992906,-3.078744,0.6252069,-0.00025975326,-0.048186354,0.021340623,-0.00013033683,-0.004978875,-0.0012438366,-0.011240826,0.4999993,-1.379022,1.9011453,-2.091314,-1.5706004,2.4751618,-0.083561026,0.04432194,-0.054085825,0.008457727,0.0048580077,-0.072299935,-0.13407528,0.17238252,-9.3661175,0.78888994,47.71286,-1.3841258,-2.6227133,-3.2790668,-0.10288052,0.1532789,-0.45093822,28.3125,29.6875,28.75,32.5,35.0,36.0625
0.12005422,-0.52163595,0.13227068,0.011884113,0.0013045201,0.054649502,-0.17305493,-0.39223906,-0.36732557,0.05994809,-3.0787494,0.62520677,-0.00019330466,-0.049504027,0.021602072,0.0015939148,-0.0067712925,0.0015257025,-0.009939006,0.49984288,-1.3789628,1.9010266,-2.0912902,-1.5706238,2.4750047,-0.08535425,0.042007677,-0.05533193,0.0087267365,0.0051041357,-0.07539509,-0.19153613,0.15322891,-9.32781,0.78888994,47.681515,-1.2199421,-2.5025346,-3.2295415,-0.09405127,0.14040612,-0.47545373,28.3125,29.6875,28.75,32.5,35.0,36.0625
0.12205387,-1.0317247,0.46148527,-0.31267047,0.004983666,0.055999834,-0.17490385,-0.3923334,-0.36728922,0.059941534,3.0787363,-0.6252204,0.00019069835,-0.05017348,0.021625923,0.0011356261,-0.0066034547,0.0012391172,-0.007178011,0.499687,-1.3788661,1.9009298,-2.0913026,-1.5706118,2.474859,-0.08598983,0.0438386,-0.05635283,0.008250749,0.0050921617,-0.07879084,-0.30645782,0.019153614,-9.423578,0.80456203,47.691364,-1.4289583,-2.44026,-3.2912133,-0.12281765,0.14993276,-0.48552978,28.3125,29.6875,28.75,32.5,35.0,36.0625
0.12405363,-0.9230715,0.45505598,0.009088523,0.00750584,0.074534535,-0.16412726,-0.39244664,-0.36724627,0.059959143,3.0787003,-0.6251909,0.00017366752,-0.0511093,0.022071118,0.001012354,-0.006942106,0.00073839875,-0.0026791622,0.4994948,-1.3787937,1.9007987,-2.0912788,-1.5705875,2.474653,-0.08791903,0.044921864,-0.057416193,0.008509866,0.0056308084,-0.08521896,-0.51714754,-0.13407528,-9.385271,0.7978386,47.67166,-1.366113,-2.4391596,-3.3213487,-0.13137922,0.13221377,-0.45261618,28.3125,29.6875,28.75,32.5,35.0,36.0625
0.12605341,-1.1687316,0.7593315,0.04221901,0.015855055,0.081223756,-0.16447972,-0.39253882,-0.36720586,0.05991885,3.0787213,-0.6251918,0.00027130143,-0.051584266,0.022534505,0.00010718949,-0.006201569,-0.0012847827,0.0013356535,0.49932665,-1.3786246,1.90069,-2.0912783,-1.5705637,2.4744828,-0.089316785,0.047299884,-0.058332853,0.009181872,0.005943899,-0.09063171,-0.45968673,-0.038307227,-9.385271,0.82022345,47.73077,-1.3505747,-2.6686316,-3.2759106,-0.11703719,0.124748796,-0.4282646,28.3125,29.6875,28.75,32.5,35.0,36.0625
0.1280541,-0.9657277,0.55141306,0.01667077,0.024269177,0.0833288,-0.17136817,-0.39265507,-0.36713916,0.05993929,3.0787206,-0.6252479,0.00023440043,-0.053653926,0.024029016,0.00039101383,-0.007082616,-0.0008504372,0.0027203348,0.4991215,-1.3785646,1.9005588,-2.0912182,-1.570587,2.4743128,-0.09407421,0.0475034,-0.05918687,0.009027063,0.0065081203,-0.09677425,-0.47884035,-0.095768064,-9.442732,0.7866488,47.66808,-1.2339604,-2.6064906,-3.314702,-0.11807941,0.10553454,-0.3876285,28.3125,29.6875,28.75,32.5,35.0,36.0625
0.130054,-0.6682837,0.77303565,0.1543751,0.02201638,0.09663072,-0.17517498,-0.39277202,-0.36711997,0.059964444,3.078684,-0.62509894,0.00017124313,-0.05377001,0.023229675,0.0017966103,-0.008378811,0.0017481388,0.012423745,0.49896634,-1.3784811,1.9004029,-2.0912187,-1.5705632,2.4740694,-0.092748426,0.045534942,-0.060038604,0.008950144,0.0064080176,-0.10515122,-0.57460845,-0.17238252,-9.481039,0.7866488,47.694054,-1.4100548,-2.506456,-3.3159273,-0.119039774,0.10851189,-0.2979828,28.3125,29.6875,28.75,32.5,35.0,36.0625
0.13205379,-1.5527662,0.58864367,-0.008809531,0.0306475,0.0786407,-0.1675622,-0.3928506,-0.36704475,0.059924588,3.0786836,-0.62515545,0.0003077132,-0.055664364,0.024974262,0.0014389331,-0.0073268493,0.0016255204,0.0123920115,0.49873745,-1.3783846,1.9003791,-2.0912182,-1.5705155,2.4738758,-0.096873924,0.04694268,-0.06091791,0.009043044,0.0055342824,-0.10924353,-0.61291564,-0.15322891,-9.404425,0.8537928,47.701214,-1.3737694,-2.46134,-3.361092,-0.12607746,0.11814967,-0.2503562,28.3125,29.6875,28.75,32.5,35.0,36.0625
0.1340543,-1.415709,0.7849618,-0.031068483,0.026776183,0.08239679,-0.16819546,-0.39299163,-0.36699754,0.0599395,3.0787017,-0.6250983,0.00020314283,-0.055965446,0.025018688,0.0010038521,-0.006355618,0.0007435936,0.016655955,0.4985578,-1.3782637,1.9001993,-2.0912058,-1.5705637,2.4736583,-0.096935,0.048720412,-0.062208917,0.009793254,0.0051076747,-0.11356692,-0.61291564,-0.24899697,-9.404425,0.7866488,47.686886,-1.2780651,-2.4783525,-3.3149316,-0.118008375,0.1091517,-0.21121767,28.3125,29.6875,28.75,32.5,35.0,36.0625
0.13605395,-1.15191,0.8109119,-0.036468554,0.027738601,0.087260924,-0.1700412,-0.39310038,-0.36696026,0.05995102,3.078677,-0.62495977,0.00022423628,-0.05767217,0.026278539,0.0011790856,-0.0066373902,0.0015163504,0.014506003,0.49836478,-1.3781798,1.9000682,-2.091182,-1.5705155,2.473382,-0.10053045,0.048946656,-0.06277253,0.009324388,0.0049867677,-0.115011826,-0.61291564,-0.19153613,-9.5385,0.78217715,47.693153,-1.2345655,-2.5252628,-3.3010538,-0.13613372,0.113474,-0.15461868,28.3125,29.6875,28.75,32.5,35.0,36.0625
0.13805363,-1.461211,0.97654045,0.08654255,0.015044355,0.07211004,-0.16918562,-0.39322907,-0.36688367,0.059945483,3.0786812,-0.6250188,0.00022559527,-0.059681967,0.026684001,0.0020842447,-0.0074178693,0.0029875506,0.011440619,0.49812457,-1.3780714,1.899947,-2.0911582,-1.5705274,2.4731781,-0.103025004,0.04955661,-0.06570871,0.009985158,0.0049644713,-0.114439815,-0.6703765,-0.21068975,-9.3661175,0.7597976,47.67345,-1.1830165,-2.4731028,-3.210116,-0.14544988,0.11949558,-0.16304047,28.3125,29.6875,28.75,32.5,35.0,36.0625
0.140054,-1.6768014,0.32026327,-0.3394273,0.023874694,0.058395073,-0.1585728,-0.39334598,-0.36683315,0.059954535,3.0786893,-0.6249467,0.00021282608,-0.060855005,0.027771372,0.0017993968,-0.006905721,0.0025348105,0.0050253165,0.49793208,-1.377975,1.899804,-2.091122,-1.5705279,2.4729397,-0.10576703,0.050607633,-0.06636694,0.010235895,0.0047323764,-0.11076574,-0.61291564,-0.19153613,-9.385271,0.7530795,47.694054,-1.1123009,-2.482429,-3.1518729,-0.15632203,0.09662667,-0.1904315,28.3125,29.6875,28.75,32.5,35.0,36.0625
0.14205359,-1.6307446,0.51269823,-0.4620902,0.012926872,0.0561434,-0.16652323,-0.3934571,-0.3667784,0.05995037,3.078658,-0.6249634,0.00024979448,-0.06208586,0.029342363,0.000852305,-0.006003875,0.0012609091,-0.0031084043,0.4977153,-1.3778782,1.8996962,-2.0911105,-1.5704921,2.4727373,-0.10940651,0.05235644,-0.06620948,0.009884295,0.004548921,-0.10627099,-0.6703765,-0.019153614,-9.576807,0.779936,47.691364,-0.99267113,-2.4537187,-3.34824,-0.15305147,0.11994514,-0.21323915,28.3125,29.6875,28.75,32.5,35.0,36.0625
0.14405338,-0.9340803,0.20493257,-0.25796673,0.008025881,0.07275566,-0.16484231,-0.3935954,-0.36670262,0.05995976,3.078665,-0.6249848,0.00021280459,-0.06371255,0.02966331,0.0014855275,-0.006064025,0.0022167033,-0.007918157,0.49747524,-1.3777817,1.8995522,-2.0910738,-1.570516,2.4725099,-0.11116216,0.053342182,-0.06904433,0.010864279,0.00414394,-0.10321505,-0.63206923,-0.038307227,-9.442732,0.83813137,47.686886,-0.910252,-2.5501657,-3.2535262,-0.16068152,0.13185903,-0.30408874,28.3125,29.6875,28.75,32.5,35.0,36.0625
0.14605403,-1.1123443,-0.21025212,-0.2487548,0.010871,0.07443518,-0.15113612,-0.3937035,-0.3666512,0.059941854,3.078632,-0.6250737,0.00030370144,-0.065174915,0.029895548,0.0027771946,-0.0071184137,0.004531188,-0.008970257,0.49725923,-1.3776501,1.8994316,-2.09105,-1.5704678,2.4723535,-0.11275688,0.052373897,-0.07091037,0.011168171,0.0039606206,-0.10375699,-0.6703765,0.076614454,-9.442732,0.78217715,47.67166,-0.91487586,-2.4545608,-3.116736,-0.16912065,0.115914956,-0.33266857,28.3125,29.6875,28.75,32.5,35.0,36.0625
0.14805481,-1.7418576,-0.08999141,-0.3899353,0.0017756523,0.068609044,-0.15030648,-0.3938475,-0.36658266,0.059959404,3.078601,-0.6251246,0.00023563064,-0.06483454,0.030969996,0.0015844492,-0.006237109,0.0020684474,-0.00952406,0.4970191,-1.3775657,1.899289,-2.091038,-1.5704802,2.4721491,-0.114475824,0.05312295,-0.06909263,0.011184844,0.0043707737,-0.104923174,-0.5554548,0.076614454,-9.500193,0.7933669,47.672558,-0.8963244,-2.4544215,-3.3052661,-0.18983455,0.11163063,-0.32369688,28.3125,29.6875,28.75,32.5,35.0,36.0625
0.15005364,-1.2122756,-0.24705192,-0.35192254,-0.0011856294,0.08880964,-0.16475822,-0.39397478,-0.3665328,0.059974533,3.0786061,-0.6250094,0.00026119404,-0.06586994,0.030705158,0.0008930804,-0.0060270047,0.0010855054,-0.009645326,0.4968033,-1.3774564,1.8991088,-2.090966,-1.5704564,2.471861,-0.11512632,0.05660584,-0.071665935,0.0112421075,0.004649986,-0.105451256,-0.36391866,0.11492168,-9.461885,0.8179876,47.657326,-0.9425008,-2.5092704,-3.2314382,-0.18680607,0.09976831,-0.34141687,28.3125,29.6875,28.75,32.5,35.0,36.0625
0.15205325,-1.3030018,-0.39242312,-0.25822225,-0.005600048,0.081487395,-0.16004598,-0.39410582,-0.36646762,0.05995428,3.0786166,-0.625049,0.00023885703,-0.06648071,0.030469757,0.0014454646,-0.0069330735,0.0017673123,-0.008905535,0.4965877,-1.3773121,1.8989891,-2.0909898,-1.5704798,2.4716687,-0.115553066,0.056628786,-0.07302618,0.011545407,0.0051202513,-0.106617995,-0.28730422,0.17238252,-9.423578,0.80679786,47.672558,-0.9929486,-2.5509167,-3.1601486,-0.20001478,0.10873216,-0.391672,28.3125,29.6875,28.75,32.5,35.0,36.0625
0.15405338,-1.2888647,-0.27714267,-0.293892,-0.012285434,0.05379023,-0.15374587,-0.3942472,-0.36641586,0.059963673,3.07857,-0.6250576,0.00024559704,-0.06700762,0.030388188,0.0023823737,-0.007746953,0.0035309352,-0.00951483,0.4963482,-1.3771926,1.8988208,-2.090966,-1.5704435,2.4714406,-0.11578741,0.055395834,-0.07369388,0.0115131745,0.0049983286,-0.10624268,-0.28730422,0.19153613,-9.481039,0.79560274,47.686886,-0.9976191,-2.3760352,-3.142324,-0.20182458,0.117907174,-0.38750285,28.3125,29.6875,28.75,32.5,35.0,36.0625
0.15605411,0.12135226,-0.07697635,-0.41826862,-0.013347141,0.058954433,-0.1674858,-0.39439106,-0.36633766,0.059956085,3.0785763,-0.6251712,0.00021085079,-0.06860587,0.0317834,0.001492474,-0.006972366,0.0025374433,-0.0076339887,0.4961073,-1.3770597,1.8986777,-2.090954,-1.5704802,2.4712698,-0.11944047,0.057782225,-0.07440885,0.011083555,0.00478899,-0.1117756,-0.21068975,0.11492168,-9.5385,0.7732232,47.704796,-0.8494432,-2.4293613,-3.2243714,-0.20544899,0.12104119,-0.40758103,28.3125,29.6875,28.75,32.5,35.0,36.0625
0.15805374,-0.064687625,-0.14744766,-0.4402182,-0.011723471,0.03526362,-0.16661163,-0.39454708,-0.36626825,0.059982672,3.078521,-0.62519485,0.00017683259,-0.06898222,0.031063046,0.0020078707,-0.0071738055,0.004316451,-0.0022168998,0.49583253,-1.3769755,1.8985094,-2.0909183,-1.5704564,2.471017,-0.118119076,0.058059398,-0.07578831,0.010532747,0.0041226554,-0.115869485,-0.05746084,0.21068975,-9.461885,0.7642693,47.709274,-1.1581775,-2.4609613,-3.1640272,-0.20239368,0.122651644,-0.3680771,28.3125,29.6875,28.75,32.5,35.0,36.0625
0.1600534,-0.11192298,0.101026684,-0.283464,-0.00845829,0.03141401,-0.1653076,-0.3946707,-0.36618558,0.05993845,3.0785677,-0.62523913,0.00028002146,-0.07030009,0.032207437,0.0020522478,-0.0068462784,0.0045943973,0.0022785235,0.49557996,-1.3767952,1.8983907,-2.0908945,-1.5704564,2.470786,-0.12095621,0.058485996,-0.076437265,0.010670847,0.0036929883,-0.12320147,-0.11492168,0.22984336,-9.442732,0.8224646,47.686886,-0.86266863,-2.421909,-3.1978135,-0.18822704,0.12621546,-0.30500308,28.3125,29.6875,28.75,32.5,35.0,36.0625
0.16205354,-0.40627226,-0.38130343,-0.5212645,0.0041649137,0.014659065,-0.1546151,-0.39485618,-0.36612374,0.059969548,3.0785394,-0.6251327,0.00010138113,-0.07161313,0.032333616,0.0023036045,-0.007718221,0.0053336415,0.006967758,0.49532816,-1.3766867,1.8981994,-2.0909302,-1.5704921,2.4704716,-0.12259166,0.0594834,-0.078106515,0.010274238,0.004121239,-0.12952545,0.038307227,0.17238252,-9.442732,0.80456203,47.689575,-0.9678446,-2.4687023,-3.219531,-0.20600978,0.13233349,-0.24792477,28.3125,29.6875,28.75,32.5,35.0,36.0625
0.16405426,0.24111252,-0.45397022,-0.5905132,0.0035536163,0.028553858,-0.1584667,-0.39496404,-0.366072,0.05996057,3.0785253,-0.6251258,0.00019276749,-0.072156,0.032301493,0.002375498,-0.00864834,0.0048409794,0.012847009,0.49511203,-1.3765664,1.8980664,-2.0908825,-1.5704435,2.470253,-0.12365701,0.060171288,-0.07917901,0.010655633,0.0051699686,-0.1364712,0.15322891,0.13407528,-9.461885,0.7866488,47.709274,-1.0178149,-2.4534962,-3.1445265,-0.20533484,0.1301915,-0.15819627,28.3125,29.6875,28.75,32.5,35.0,36.0625
0.16605401,0.3036073,-0.0865639,-0.5696092,-0.0013044791,0.029602986,-0.16504891,-0.3951209,-0.36599305,0.059958693,3.078511,-0.6251596,0.00017953695,-0.07297332,0.033507086,0.0018935372,-0.008319053,0.0035049831,0.013872556,0.4948356,-1.3764341,1.897911,-2.0908706,-1.5704435,2.4699996,-0.12661207,0.06103121,-0.07922897,0.01117905,0.005519854,-0.14045215,0.1340753,0.21068975,-9.289503,0.7597976,47.696735,-1.0011563,-2.352467,-3.2217546,-0.19911793,0.12516612,-0.115730904,28.3125,29.6875,28.75,32.5,35.0,36.0625
0.16805415,0.17842148,-0.36539125,-0.62048525,0.008047302,0.01965551,-0.1578004,-0.39525613,-0.36594966,0.05997444,3.07849,-0.6250399,0.00021371528,-0.073764406,0.03159295,0.0033962566,-0.009947051,0.006817578,0.013062282,0.49460915,-1.3763137,1.8977188,-2.0908105,-1.5703958,2.469701,-0.12398392,0.06129809,-0.08290761,0.0109099,0.0053745713,-0.13701195,0.11492168,0.15322891,-9.385271,0.7016076,47.694946,-1.173436,-2.387679,-3.0853806,-0.22254342,0.11952832,-0.1267663,28.3125,29.6875,28.75,32.5,35.0,36.0625
0.17005414,0.5611876,0.1561713,-0.37528512,-0.0032827887,0.024629962,-0.15639709,-0.39541686,-0.36588952,0.059997734,3.0784507,-0.6249395,7.510084e-05,-0.074217275,0.03367242,0.002340768,-0.008368412,0.0046319673,0.005199201,0.49436843,-1.3762295,1.8975767,-2.0908577,-1.5704077,2.4694028,-0.12765154,0.061845362,-0.08127159,0.011399279,0.005042879,-0.13281612,0.15322891,0.15322891,-9.442732,0.82694155,47.686886,-0.9035492,-2.3412628,-3.1120472,-0.22609118,0.13524586,-0.13075857,28.3125,29.6875,28.75,32.5,35.0,36.0625
0.17205396,-0.2220979,-0.36228812,-0.47477174,0.01062755,0.00263128,-0.15247667,-0.39556262,-0.36581495,0.059962846,3.078489,-0.6249865,0.00013475897,-0.07487785,0.033071566,0.0027020653,-0.009039347,0.0054616537,0.0009690344,0.49411708,-1.3760248,1.8974079,-2.0908344,-1.5704197,2.469176,-0.1273208,0.062787436,-0.083211504,0.011346238,0.0052292924,-0.12825486,-0.019153614,0.17238252,-9.442732,0.8224646,47.705692,-1.1792952,-2.37465,-3.1563816,-0.2321578,0.13687742,-0.19143754,28.3125,29.6875,28.75,32.5,34.9375,36.0625
0.17405368,0.29316014,-0.12863629,-0.52532697,-0.0005599468,0.01411822,-0.15993768,-0.39567822,-0.36573404,0.059975054,3.078485,-0.6249504,0.00020299389,-0.07594343,0.033976067,0.0027045484,-0.009278688,0.0050034854,-0.0063095493,0.4938528,-1.3759648,1.8972896,-2.09075,-1.5703834,2.4688897,-0.13004898,0.06329469,-0.08393828,0.011858768,0.005655384,-0.123704866,0.0,0.11492168,-9.346964,0.8291774,47.686886,-1.1201899,-2.387845,-3.1891098,-0.23513551,0.13247444,-0.279625,28.3125,29.6875,28.75,32.5,34.9375,36.0625
0.17605336,0.32647738,-0.3502279,-0.48974934,-0.0037828344,0.021924622,-0.15127939,-0.39585748,-0.36567736,0.06000383,3.078445,-0.6249613,0.00010472731,-0.0760926,0.034011412,0.0023700062,-0.009782259,0.00391839,-0.009499617,0.49360114,-1.3758323,1.8970617,-2.0907261,-1.5703954,2.46865,-0.1307975,0.06418722,-0.08428015,0.012020801,0.0066232653,-0.121263936,0.038307227,0.076614454,-9.308657,0.900793,47.687782,-1.1528264,-2.2388601,-3.2008471,-0.24836326,0.12700437,-0.33033752,28.3125,29.6875,28.75,32.5,34.9375,36.0625
0.17805393,-0.32349113,-0.5089508,-0.5466406,-0.0048185834,0.011703321,-0.15650202,-0.3960106,-0.365614,0.059985645,3.0783784,-0.62510276,0.00015388873,-0.07721607,0.034672044,0.0021124436,-0.009715484,0.003672109,-0.012758275,0.4933249,-1.3756638,1.8969058,-2.0907385,-1.5703472,2.4684706,-0.13292626,0.065524854,-0.08527169,0.0119303735,0.006680681,-0.12013352,-0.05746084,0.095768064,-9.481039,0.7978386,47.67166,-1.1908649,-2.3383398,-3.2324705,-0.2618479,0.115050584,-0.371103,28.3125,29.6875,28.75,32.5,34.9375,36.0625
0.18005377,-0.78244585,-0.43886644,-0.24521226,-0.012623629,0.024581965,-0.14994842,-0.39615947,-0.36552724,0.059996538,3.0784266,-0.62505513,0.00010715527,-0.07780619,0.03522964,0.0022451915,-0.009340862,0.0037367172,-0.015334937,0.49307308,-1.3755554,1.8967389,-2.0906785,-1.5703954,2.468183,-0.13414082,0.065666065,-0.08588009,0.01251483,0.006321718,-0.11877077,-0.1340753,0.13407528,-9.385271,0.8179876,47.709274,-1.1846614,-2.3265886,-3.2713866,-0.2558447,0.119216904,-0.44910067,28.3125,29.6875,28.75,32.5,34.9375,36.0625
0.18205357,-0.6729181,-0.32300496,-0.24098845,-0.01035249,0.044651207,-0.1576546,-0.3963088,-0.3654833,0.060000062,3.0783758,-0.62500554,0.00011359197,-0.07870671,0.035709288,0.0017354069,-0.009055984,0.003015313,-0.016071923,0.49283314,-1.3754107,1.8965591,-2.0906785,-1.5703472,2.4679186,-0.13578375,0.06751627,-0.08691771,0.012479878,0.0064158845,-0.11967593,-0.19153613,0.114921674,-9.32781,0.7732232,47.709274,-1.2067857,-2.3510652,-3.2397957,-0.26821187,0.1218165,-0.48695308,28.3125,29.6875,28.75,32.5,34.9375,36.0625
0.18405348,-0.72130644,0.13069983,-0.42870384,-0.010080351,0.057929672,-0.15916613,-0.39648998,-0.36538422,0.06000412,3.0783515,-0.6251718,0.00010252342,-0.079984784,0.03643778,0.0018623502,-0.009802923,0.0031532983,-0.0154428985,0.49250877,-1.3752666,1.8963679,-2.0906308,-1.5703591,2.4677012,-0.13849108,0.068033665,-0.08780567,0.012375393,0.0070094825,-0.12301262,-0.21068975,0.1340753,-9.385271,0.83589023,47.701214,-1.0865532,-2.3049262,-3.3243303,-0.27822244,0.12413859,-0.48796523,28.3125,29.6875,28.75,32.5,34.9375,36.0625
0.1860537,-1.0374085,0.22876611,-0.2520473,-0.0066871727,0.061144456,-0.16424838,-0.3966164,-0.36531115,0.059987627,3.078315,-0.6251958,0.00019322881,-0.08060543,0.036023833,0.0020271563,-0.011415205,0.003376243,-0.006058249,0.49223313,-1.3751462,1.8962597,-2.0906184,-1.5702986,2.4674451,-0.1391343,0.06873268,-0.088889755,0.011810765,0.008322122,-0.13304178,-0.34476504,0.11492168,-9.423578,0.7597976,47.705692,-1.0409771,-2.2636752,-3.2645912,-0.2901329,0.10323033,-0.44312263,28.3125,29.6875,28.75,32.5,34.9375,36.0625
0.1880536,-1.0778601,-0.08074346,-0.015454655,0.00053610356,0.077766724,-0.15982854,-0.39681587,-0.36525202,0.060017154,3.0782444,-0.62519395,9.174038e-05,-0.08148686,0.03684512,0.0018169619,-0.0114889,0.0030116795,0.003011835,0.49194482,-1.3750019,1.8960212,-2.0906184,-1.5702866,2.4671648,-0.14141744,0.06937998,-0.089172535,0.01174073,0.008576543,-0.14439434,-0.47884035,0.076614454,-9.461885,0.7642693,47.668976,-1.0069159,-2.180726,-3.3175693,-0.26265472,0.09641455,-0.380616,28.3125,29.6875,28.75,32.5,34.9375,36.0625
0.1900542,-1.4550475,0.46794903,-0.042468697,-0.00075930805,0.07845446,-0.1681133,-0.39695537,-0.36519796,0.06002777,3.0782232,-0.6251271,0.00011567141,-0.082147576,0.038261157,-0.0001306778,-0.00900639,-0.00037415538,0.0090422705,0.49170488,-1.3748803,1.895842,-2.0905707,-1.5702509,2.4668858,-0.14400016,0.073281646,-0.08952727,0.0123639675,0.007993187,-0.15300603,-0.5363012,0.0,-9.3661175,0.7709874,47.678825,-1.1938468,-2.2449489,-3.2808836,-0.29206592,0.08208094,-0.25689137,28.3125,29.6875,28.75,32.5,34.9375,36.0625
0.19205421,-1.6461865,0.5598414,-0.07930067,0.010404405,0.08151071,-0.16504827,-0.3971376,-0.36510184,0.06002453,3.0782394,-0.62506807,0.00015472563,-0.0837739,0.036839426,0.0020365268,-0.011610267,0.0037698315,0.015497836,0.49136984,-1.3747125,1.8956364,-2.090511,-1.5702385,2.466512,-0.14323094,0.07260279,-0.093639165,0.0122785345,0.008323979,-0.15869147,-0.57460845,0.0,-9.385271,0.8157518,47.703903,-1.1954825,-2.3133693,-3.2024522,-0.29867744,0.089037545,-0.18857968,28.3125,29.6875,28.75,32.5,34.9375,36.0625
0.19405377,-2.137567,0.4107834,-0.06486011,0.016181814,0.080059275,-0.15352292,-0.39728442,-0.3650328,0.060015745,3.0782378,-0.6249902,0.00018133473,-0.08355993,0.037964053,0.0011792853,-0.01073813,0.002187021,0.015722571,0.4911056,-1.3745682,1.8954824,-2.0904992,-1.5702146,2.4661994,-0.1448759,0.072715595,-0.091803916,0.012144584,0.008307523,-0.16056187,-0.63206923,-0.076614454,-9.346964,0.7866488,47.679718,-1.2242723,-2.2174716,-3.347674,-0.3020497,0.07437524,-0.14781119,28.3125,29.6875,28.75,32.5,34.9375,36.0625
0.19605368,-1.0824451,0.47638312,0.12225082,0.025133438,0.104670204,-0.16285154,-0.3974572,-0.36496404,0.06001381,3.078186,-0.6250403,0.00016382553,-0.08473405,0.03813335,-0.0002650211,-0.009345321,3.2072392e-05,0.008561706,0.49081832,-1.3744105,1.8953022,-2.090511,-1.5701908,2.46595,-0.146043,0.07773123,-0.09455747,0.0124435285,0.008095303,-0.15456575,-0.5746084,-0.11492168,-9.270349,0.81351066,47.68599,-1.2680309,-2.3334322,-3.3422506,-0.31147158,0.07747172,-0.16965538,28.3125,29.6875,28.75,32.5,34.9375,36.0625
0.19805348,-0.9213684,0.59473693,0.04604398,0.027313594,0.09751715,-0.15140061,-0.39764223,-0.36488515,0.060012255,3.078189,-0.6249866,0.00014969737,-0.08538844,0.039156016,0.000503592,-0.009842132,0.0020314201,0.00156891,0.49051782,-1.3742311,1.8950871,-2.0904872,-1.5701908,2.4656157,-0.14798889,0.07531798,-0.09324797,0.011551389,0.00759404,-0.14951901,-0.5554548,-0.11492168,-9.289502,0.7620334,47.65106,-1.1439888,-2.3050566,-3.2701864,-0.303293,0.07654005,-0.23483856,28.3125,29.6875,28.75,32.5,34.9375,36.0625
0.20005424,-1.1130518,0.6905672,0.0535042,0.020421514,0.08822465,-0.15614736,-0.39779422,-0.36479244,0.060011256,3.078191,-0.6249314,0.00016138378,-0.087983735,0.0403365,0.0005225494,-0.009944665,0.0026483904,-0.0055207084,0.49021703,-1.3741221,1.8949546,-2.0904634,-1.5701793,2.4652803,-0.15215208,0.07752704,-0.09588737,0.0113924,0.0073888763,-0.14659096,-0.7278373,-0.15322891,-9.270349,0.8224646,47.67345,-1.0511464,-2.282181,-3.363699,-0.2981628,0.073308825,-0.32232174,28.3125,29.6875,28.75,32.5,34.9375,36.0625
0.20205379,-1.1913843,1.075415,0.15644899,0.0127862645,0.082531705,-0.16118775,-0.39797294,-0.36471215,0.060004823,3.0782118,-0.6249333,0.00011331038,-0.088782504,0.039596967,0.0008383619,-0.009988785,0.003963448,-0.0047272844,0.48994222,-1.3739415,1.8947519,-2.0904515,-1.5702151,2.4650042,-0.15121336,0.07903904,-0.09836656,0.01117742,0.006806435,-0.14644372,-0.7278373,-0.15322891,-9.270349,0.8224646,47.67793,-1.1768384,-2.3104997,-3.288249,-0.30502093,0.08726918,-0.32971317,28.3125,29.6875,28.75,32.5,34.9375,36.0625
0.20405392,-1.4703532,1.1574109,0.09892089,0.016263608,0.0760263,-0.15834942,-0.3981893,-0.36465102,0.060037814,3.0780919,-0.6249854,5.8518417e-05,-0.08947918,0.040000144,0.0006944835,-0.009782688,0.0039673503,-0.00638684,0.48960644,-1.373785,1.8944882,-2.0904396,-1.570155,2.4647162,-0.15234539,0.07991162,-0.09907266,0.011115951,0.0066374717,-0.14591499,-0.6895301,-0.15322891,-9.289502,0.84708,47.684196,-1.1982365,-2.3511257,-3.2507472,-0.31732386,0.076677084,-0.3709724,28.3125,29.6875,28.75,32.5,34.9375,36.0625
0.20605369,-1.0113071,1.187872,0.1032437,0.012554875,0.087541565,-0.16348982,-0.3983614,-0.36454666,0.06001778,3.0781054,-0.62512064,0.000105121406,-0.09048156,0.040373467,0.0009630913,-0.009800314,0.004175642,-0.006137402,0.48928285,-1.3736047,1.8943084,-2.0903914,-1.5701674,2.4644754,-0.15377037,0.08063452,-0.10072376,0.011853672,0.0065493667,-0.14758897,-0.51714754,-0.076614454,-9.251195,0.80679786,47.687782,-1.2299848,-2.2831037,-3.2733433,-0.3169828,0.08687326,-0.38576058,28.3125,29.6875,28.75,32.5,34.9375,36.0625
0.20805429,-0.98204046,0.5510836,0.060230356,0.011005394,0.09049181,-0.1582716,-0.39851668,-0.36446255,0.060003832,3.078082,-0.62509304,0.00017026377,-0.09103827,0.04030617,0.0003907799,-0.010056164,0.0029709602,-0.0014902813,0.48897117,-1.3734596,1.8941649,-2.090379,-1.5701193,2.4641495,-0.15459836,0.082820535,-0.10205477,0.011951576,0.007340832,-0.15306422,-0.51714754,-0.038307227,-9.270349,0.7351769,47.68062,-1.2344835,-2.528157,-3.244959,-0.33439174,0.0825205,-0.36512104,28.3125,29.6875,28.75,32.5,34.9375,36.0625
0.21005405,-0.5353478,0.085596405,0.05706508,0.0071700434,0.09250984,-0.16750629,-0.39870128,-0.3643809,0.05999852,3.078086,-0.6250671,0.00019763333,-0.09137969,0.040899556,0.0007174914,-0.009585749,0.0034247332,0.007445273,0.48865968,-1.3732677,1.893938,-2.0903313,-1.5701073,2.4638214,-0.15545802,0.0821661,-0.102170885,0.012554742,0.006717231,-0.16285898,-0.34476507,0.0,-9.193734,0.7642693,47.675243,-1.3027724,-2.324393,-3.1582127,-0.34261608,0.07780865,-0.29747424,28.3125,29.6875,28.75,32.5,34.9375,36.0625
0.21205384,-0.08476501,0.24390362,-0.07976553,-0.007634761,0.08032603,-0.16656071,-0.3989266,-0.3643108,0.060040615,3.0779989,-0.62498456,6.3574495e-05,-0.0923589,0.041316785,-0.0005014121,-0.008084437,0.0018322954,0.017085062,0.4883238,-1.3731344,1.8936867,-2.0903437,-1.5700835,2.4634452,-0.15662676,0.08604594,-0.10405208,0.012681869,0.006163452,-0.17366478,-0.22984336,0.11492168,-9.385271,0.82694155,47.692257,-1.3233156,-2.425522,-3.307489,-0.34496433,0.08052576,-0.18186322,28.3125,29.6875,28.75,32.5,34.9375,36.0625
0.21405324,-0.07835754,0.034221854,-0.11105622,-0.008756946,0.059101015,-0.15467353,-0.39912668,-0.3642149,0.060049918,3.078031,-0.62493134,-1.4750238e-05,-0.09352935,0.042477977,0.00049411604,-0.008346099,0.003772051,0.018922208,0.4880119,-1.372967,1.8934582,-2.0903075,-1.5701317,2.4630961,-0.15915583,0.08413548,-0.10407811,0.012781023,0.0054934076,-0.17803052,-0.24899697,0.13407528,-9.308657,0.83813137,47.7451,-1.3827136,-2.3870173,-3.121049,-0.33985174,0.09816136,-0.10086641,28.3125,29.6875,28.75,32.5,34.9375,36.0625
0.21605399,0.05766646,-0.5626644,-0.13699564,-0.00065335934,0.051792424,-0.15254936,-0.3992872,-0.36411193,0.059992686,3.0780666,-0.6249583,0.00018039295,-0.09489816,0.042232167,0.00047533744,-0.008016237,0.0044279424,0.017532486,0.48766437,-1.3727257,1.8932904,-2.0902593,-1.570084,2.462761,-0.15953133,0.08670811,-0.10713147,0.012849014,0.0048686056,-0.17701472,-0.19153613,0.17238252,-9.270349,0.7620334,47.707485,-1.2859507,-2.356203,-3.2007494,-0.34340513,0.101440385,-0.057872776,28.3125,29.6875,28.75,32.5,34.9375,36.0625
0.21805322,-0.36138222,-0.7886357,-0.4144885,0.0075798123,0.021883462,-0.13631536,-0.39946932,-0.3639988,0.059997488,3.0781136,-0.62491417,0.00013393696,-0.09688768,0.0435719,0.00030168277,-0.008150264,0.0041810735,0.0077227806,0.4873396,-1.3725929,1.8931106,-2.0902112,-1.5701317,2.4624028,-0.16366066,0.08830259,-0.108662665,0.012930164,0.0050996956,-0.17133379,-0.076614454,0.19153613,-9.32781,0.784413,47.73614,-1.0789855,-2.498336,-3.1615164,-0.33837742,0.1076875,-0.09769654,28.3125,29.6875,28.75,32.5,34.9375,36.0625
0.22005413,0.7040722,-0.5575134,-0.37941393,-0.0031453127,0.028178008,-0.14636081,-0.39968914,-0.3639254,0.059999224,3.0780356,-0.6249792,7.2673625e-05,-0.09848205,0.044193354,0.0007314957,-0.009131499,0.004679231,-0.0028002008,0.48700362,-1.3723886,1.8928717,-2.090247,-1.5701078,2.4621174,-0.16645889,0.0889053,-0.11043318,0.013197427,0.005741644,-0.16360863,-0.1340753,0.28730422,-9.385271,0.75084364,47.711063,-1.1112746,-2.472006,-3.1066194,-0.34202063,0.105234064,-0.19211373,28.3125,29.6875,28.75,32.5,34.9375,36.0625
0.22205342,0.45346805,-0.3877157,-0.41797376,-0.018242912,0.014118249,-0.14295477,-0.39989483,-0.3638197,0.060006075,3.078038,-0.6250221,3.5243855e-05,-0.099407904,0.044553433,5.7982823e-05,-0.00897507,0.003948711,-0.010672806,0.48665562,-1.3722196,1.8926443,-2.0901997,-1.5701317,2.461796,-0.16795106,0.09117519,-0.111508094,0.012715043,0.0059434315,-0.15722755,-0.076614454,0.22984336,-9.346964,0.79560274,47.72092,-0.97934985,-2.5837193,-3.078877,-0.33077532,0.11944012,-0.25560445,28.3125,29.6875,28.75,32.5,34.9375,36.0625
0.22405441,0.50561213,-0.7641326,-0.47490782,-0.021404233,0.022700004,-0.15048386,-0.4000965,-0.36373922,0.06000847,3.0780141,-0.6250168,1.8626337e-05,-0.10055637,0.044889692,0.00029545886,-0.009356055,0.0043622274,-0.014763027,0.4863318,-1.3720272,1.8924044,-2.0901759,-1.5701197,2.461472,-0.16956493,0.09200417,-0.11310052,0.012936752,0.006089017,-0.15475051,-0.076614454,0.34476507,-9.346964,0.82694155,47.684196,-0.9714223,-2.566892,-3.0715752,-0.33144736,0.11551435,-0.34244397,28.3125,29.6875,28.75,32.5,34.9375,36.0625
0.22605416,-0.20030807,-0.6098747,-0.47274557,-0.030569782,0.02323327,-0.14570539,-0.40031224,-0.363677,0.06002325,3.077928,-0.6249816,-5.467466e-06,-0.101549186,0.045491006,0.00020946095,-0.009602013,0.004037823,-0.021211319,0.48599613,-1.3718346,1.8921417,-2.0901754,-1.5700592,2.4611254,-0.17162055,0.092954814,-0.1141048,0.013169615,0.006467505,-0.15035729,-0.076614454,0.30645782,-9.404425,0.8560339,47.701214,-1.165798,-2.5281122,-3.087078,-0.33983842,0.10720612,-0.42934072,28.3125,29.6875,28.75,32.5,34.9375,36.0625
0.22805408,-0.2408769,-1.1695197,-0.58371645,-0.022297444,0.040628567,-0.14819382,-0.4004708,-0.36355743,0.05998666,3.077947,-0.62517565,0.00016565976,-0.10072616,0.0447882,0.00015877746,-0.01032941,0.0026607392,-0.018743398,0.4856373,-1.3716425,1.8919743,-2.0900795,-1.5700344,2.4608853,-0.17042923,0.09306938,-0.11437938,0.014210278,0.0077406936,-0.151636,-0.019153614,0.34476504,-9.461885,0.8605109,47.687782,-1.1510863,-2.5078373,-3.0565305,-0.35350007,0.11693911,-0.49908963,28.3125,29.6875,28.75,32.5,34.9375,36.0625
0.23005371,-0.31653172,-0.94052887,-0.4691965,-0.034827657,0.049906075,-0.14776383,-0.40069434,-0.36347198,0.05999184,3.0779285,-0.6252036,0.000111878515,-0.1019737,0.045578055,0.0005584492,-0.010812955,0.003316445,-0.012290844,0.48530096,-1.3714263,1.8916997,-2.0900552,-1.5700468,2.460569,-0.17287648,0.09304923,-0.115318015,0.01436985,0.007872514,-0.16053538,0.05746084,0.36391866,-9.442732,0.86498255,47.70032,-1.1262834,-2.4744134,-3.0917225,-0.3514513,0.09735232,-0.47721767,28.3125,29.6875,28.75,32.5,34.9375,36.0625
0.23205337,-0.07000067,-0.6175193,-0.5869193,-0.02808508,0.048129622,-0.15023887,-0.4008915,-0.36337614,0.059991185,3.077895,-0.62518936,0.00013351266,-0.10424033,0.04619509,0.0010920764,-0.011636343,0.004512782,-0.0027906566,0.48494074,-1.3712575,1.8914946,-2.090031,-1.5700105,2.4602041,-0.17597587,0.09443011,-0.11820805,0.014453805,0.008047831,-0.17313376,0.076614454,0.24899697,-9.461885,0.82022345,47.686886,-1.0184642,-2.5678406,-3.1165378,-0.34727404,0.10166002,-0.3902953,28.3125,29.6875,28.75,32.5,34.9375,36.0625
0.23405433,-0.04480577,-0.39627808,-0.66961765,-0.018516377,0.035352435,-0.16309199,-0.4011015,-0.3632694,0.059983283,3.0778918,-0.6252201,0.00010811709,-0.1039657,0.047820155,-0.0004994589,-0.009586996,0.0024520974,0.0071624545,0.48458126,-1.3710651,1.891281,-2.09002,-1.5700234,2.4598644,-0.1778731,0.09535684,-0.11552786,0.013637109,0.0072091506,-0.18498406,0.0,0.22984336,-9.615114,0.80679786,47.694054,-0.96753454,-2.4532785,-3.175047,-0.34266484,0.114594035,-0.2605058,28.3125,29.6875,28.75,32.5,34.9375,36.0625
0.23605412,-0.5373555,-0.45679012,-0.57848954,-0.01128887,0.026986312,-0.15130495,-0.40130204,-0.3631895,0.059973706,3.0778863,-0.62510073,0.00014389923,-0.106686786,0.047296822,0.0020743913,-0.0129456315,0.007222342,0.0115462355,0.4842449,-1.3708494,1.8910402,-2.0899956,-1.5699867,2.4594543,-0.17980199,0.09407026,-0.11981664,0.013438298,0.007956408,-0.19129604,-0.11492168,0.095768064,-9.481039,0.80456203,47.70032,-0.90868235,-2.3765597,-3.1231833,-0.34004843,0.112994045,-0.1600288,28.3125,29.6875,28.75,32.5,34.9375,36.0625
0.23805372,-0.282703,-0.06544332,-0.32463592,0.0036305066,0.04196491,-0.14906201,-0.4014901,-0.3630873,0.05995949,3.0778832,-0.6251186,0.00017507712,-0.10555738,0.0484638,-0.0013134634,-0.01017364,0.0013944763,0.008950488,0.4838976,-1.3706675,1.8908504,-2.0899718,-1.5699748,2.4591186,-0.1808546,0.09838998,-0.117163904,0.012917276,0.008219094,-0.18975364,-0.22984336,0.038307227,-9.461885,0.8247004,47.734352,-1.1022031,-2.4935765,-3.2551258,-0.34426102,0.10688993,-0.14104384,28.3125,29.6875,28.75,32.5,34.9375,36.0625
0.24005352,-0.4402478,1.010264,-0.4024003,0.005806487,0.05173523,-0.15059178,-0.40170667,-0.36301622,0.05997421,3.0778356,-0.62501585,0.00013678594,-0.10607002,0.04775403,0.0005058116,-0.012022552,0.0049008904,0.003300211,0.48356244,-1.3704764,1.8905867,-2.0899603,-1.5699385,2.4587255,-0.18003753,0.0958539,-0.11820506,0.012535178,0.008232768,-0.18328582,-0.24899697,-0.095768064,-9.557653,0.82022345,47.7451,-1.1067452,-2.4451864,-3.2359037,-0.33508968,0.09912594,-0.211591,28.3125,29.6875,28.75,32.5,34.9375,36.0625
0.24205385,-0.95668614,0.38941404,-0.36679503,0.031026209,0.06685462,-0.14333552,-0.40195844,-0.3629315,0.060013644,3.0777745,-0.6250238,-3.8929497e-06,-0.10629502,0.048355978,-0.0009296037,-0.010903993,0.0022988678,-0.0030149012,0.4832029,-1.3702952,1.8902758,-2.0899365,-1.5699505,2.4583788,-0.18130542,0.0987718,-0.118475266,0.0127074765,0.008470818,-0.17823742,-0.2681506,-0.15322891,-9.557653,0.77545905,47.666286,-1.0658101,-2.430625,-3.3563108,-0.32316032,0.09892804,-0.2950485,28.3125,29.6875,28.75,32.5,34.9375,36.0625
0.24405392,-1.2910244,0.50894356,-0.367095,0.04077291,0.06606326,-0.15292244,-0.4021452,-0.36282292,0.059989143,3.0777738,-0.6250048,7.78467e-05,-0.10634959,0.048296113,-0.0002744657,-0.012284301,0.0027428675,-0.005683047,0.48283145,-1.3701035,1.8900975,-2.0899122,-1.5699142,2.4579957,-0.18180409,0.09745809,-0.118480906,0.012996968,0.009482462,-0.17606942,-0.38307226,-0.15322891,-9.595961,0.8179876,47.694946,-1.1898787,-2.4555871,-3.4137316,-0.3247378,0.09325309,-0.34649622,28.3125,29.6875,28.75,32.5,34.9375,36.0625
0.2460537,-1.0852224,0.876442,-0.22497661,0.039121978,0.067898676,-0.14827542,-0.4023664,-0.36274132,0.059987016,3.0777028,-0.6250839,0.00012415316,-0.10624429,0.04814935,-0.0007790708,-0.011915528,0.0017355802,-0.0049037,0.48246023,-1.3698747,1.8898214,-2.089876,-1.5698541,2.4576828,-0.18146591,0.0988021,-0.11901849,0.013268029,0.009627763,-0.17651027,-0.3256114,-0.2681506,-9.500193,0.87393653,47.698532,-1.2043251,-2.3713446,-3.341877,-0.32688907,0.07429635,-0.36137182,28.3125,29.6875,28.75,32.5,34.9375,36.0625
0.24805361,-0.58563787,1.2665728,-0.15670034,0.028972717,0.075064175,-0.16486637,-0.40260366,-0.36265957,0.060011234,3.0776556,-0.62505126,2.2929667e-05,-0.10811361,0.048856884,-7.7765515e-05,-0.012210788,0.0037191154,-0.0024705075,0.48211178,-1.3696827,1.8895348,-2.0898645,-1.5698541,2.4573202,-0.1838288,0.099091396,-0.120909,0.012984917,0.008985306,-0.18130432,-0.40222588,-0.28730422,-9.423578,0.82694155,47.678825,-1.1240097,-2.38845,-3.5373218,-0.31875917,0.09816213,-0.37416798,28.3125,29.6875,28.75,32.5,34.9375,36.0625
0.25005323,-0.6774014,1.5331192,-0.19093381,0.017486975,0.06692238,-0.17183773,-0.40279877,-0.36253878,0.05998749,3.077689,-0.6250344,0.00010832928,-0.10935609,0.04971212,9.180713e-05,-0.011860103,0.0040298845,0.0033356843,0.48172808,-1.3694781,1.8893312,-2.0898044,-1.5698427,2.4569218,-0.18601198,0.099776715,-0.12225969,0.013551698,0.008526268,-0.18929332,-0.40222588,-0.21068975,-9.404425,0.8224646,47.651955,-1.1352482,-2.3240843,-3.4442797,-0.31354076,0.092317946,-0.31233966,28.3125,29.6875,28.75,32.5,34.9375,36.0625
0.25205407,-0.95863533,0.7208253,-0.41420567,0.026741255,0.05119907,-0.16257018,-0.4030379,-0.36244866,0.060012575,3.0776346,-0.62499505,1.9462897e-05,-0.110314995,0.04992224,0.00010264563,-0.010969766,0.0043741288,0.0147900265,0.48135722,-1.3692975,1.8890561,-2.089792,-1.5698313,2.4565334,-0.18655108,0.10136626,-0.1243349,0.014164016,0.0076019936,-0.20128442,-0.4213795,-0.21068975,-9.500193,0.84708,47.716442,-1.4299767,-2.2627938,-3.3470044,-0.29832396,0.10552594,-0.19986328,28.3125,29.6875,28.75,32.5,34.9375,36.0625
0.25405383,-0.76643103,0.81902313,-0.13993166,0.0034123342,0.05963911,-0.16543765,-0.4032116,-0.36232087,0.05996275,3.0776987,-0.62492764,0.0001756845,-0.110753305,0.050199818,0.0005866097,-0.011018232,0.005017108,0.020723183,0.480973,-1.369081,1.8889002,-2.0897439,-1.5698069,2.456099,-0.18717048,0.10088473,-0.12501416,0.0147472415,0.007332828,-0.20783748,-0.45968673,-0.15322891,-9.519346,0.900793,47.701214,-1.447498,-2.3238068,-3.3664908,-0.31900933,0.1141555,-0.09091555,28.3125,29.6875,28.75,32.5,34.9375,36.0625
0.25605398,-0.6473249,-0.059114754,-0.18792245,0.0013241188,0.08395815,-0.16436192,-0.40345114,-0.3622196,0.059995584,3.0776703,-0.624904,2.3080604e-05,-0.11220719,0.05041038,0.0007649379,-0.011369011,0.005562013,0.01810885,0.48061275,-1.3689247,1.8886365,-2.089732,-1.5698432,2.4557278,-0.18876593,0.10246846,-0.12734309,0.014841172,0.0074096746,-0.20681687,-0.4213795,0.038307227,-9.5385,0.90527004,47.711964,-1.5277475,-2.1772714,-3.3631496,-0.30986655,0.12064384,-0.063382246,28.3125,29.6875,28.75,32.5,34.9375,36.0625
0.25805384,-0.5902482,-0.43926653,-0.40021762,-0.0005837615,0.089761496,-0.15832528,-0.4036646,-0.3621324,0.05998442,3.077646,-0.6248648,0.00011349936,-0.11311142,0.05138364,0.00047337657,-0.011478797,0.004454909,0.009021308,0.48023972,-1.3686842,1.8883613,-2.0896723,-1.5697826,2.4553335,-0.19148786,0.10339906,-0.12795419,0.015460031,0.008012936,-0.20045166,-0.45968673,0.076614454,-9.710882,0.82022345,47.682407,-1.3986781,-2.463942,-3.3501601,-0.29783863,0.112210326,-0.121379375,28.3125,29.6875,28.75,32.5,34.9375,36.0625
0.2600535,-0.7557978,-0.92600334,-0.4282303,-0.014911229,0.07554821,-0.15473291,-0.403902,-0.3620214,0.060001485,3.0776134,-0.624883,5.7503676e-05,-0.11445808,0.052418474,0.00036762285,-0.010944775,0.0042135734,-0.0024913182,0.4798433,-1.3685035,1.8880986,-2.0896356,-1.5697831,2.4549527,-0.19410388,0.10465335,-0.12936714,0.016075462,0.007655363,-0.19155377,-0.4405331,0.15322891,-9.691729,0.8403672,47.658226,-1.4181745,-2.3313313,-3.3588014,-0.30222714,0.119759016,-0.22442177,28.3125,29.6875,28.75,32.5,34.9375,36.0625
0.2620541,-1.3905209,-1.1966399,-0.3283156,-0.03985129,0.060270064,-0.15479046,-0.40414518,-0.36192068,0.060014606,3.0775793,-0.6249384,1.4855551e-05,-0.11565722,0.05280628,0.0005867192,-0.01074976,0.0052541294,-0.011592574,0.479459,-1.368287,1.8877996,-2.089588,-1.5697831,2.4546075,-0.19531263,0.10553163,-0.13089041,0.01588523,0.007002665,-0.18365985,-0.5554548,0.28730422,-9.5385,0.842603,47.68599,-1.455657,-2.2875156,-3.3296933,-0.29834712,0.12396955,-0.33903342,28.3125,29.6875,28.75,32.5,34.9375,36.0625
0.26405412,-0.8800882,-1.123835,-0.46904397,-0.039451383,0.068277724,-0.15932484,-0.40436277,-0.36179787,0.059998736,3.0775616,-0.6249586,7.975264e-05,-0.117211945,0.053365964,0.00041870621,-0.011047743,0.0053791017,-0.017895376,0.47903785,-1.3680823,1.8875831,-2.0895522,-1.5697469,2.4542012,-0.19765656,0.107410386,-0.13270122,0.015574139,0.007201543,-0.17970033,-0.5554548,0.30645782,-9.500193,0.89631605,47.699425,-1.3276641,-2.3500416,-3.3369904,-0.29281744,0.120282054,-0.43901423,28.3125,29.6875,28.75,32.5,34.9375,36.0625
0.26605368,-1.176201,-1.6917776,-0.500329,-0.031588636,0.065518156,-0.15658319,-0.40461797,-0.3616818,0.059996136,3.077521,-0.6250836,5.2843152e-05,-0.11956676,0.053389788,0.0015441007,-0.012887265,0.007939627,-0.019185496,0.47861716,-1.3678418,1.8872966,-2.0895283,-1.5697464,2.4538639,-0.19994143,0.10813018,-0.13602258,0.015058272,0.0076555205,-0.1806939,-0.38307226,0.28730422,-9.615114,0.8179876,47.699425,-1.2469101,-2.2983265,-3.343577,-0.2773205,0.12931006,-0.4673804,28.3125,29.6875,28.75,32.5,34.9375,36.0625
0.26805383,-0.6962548,-1.022644,-0.18669373,-0.042443562,0.0736417,-0.16510324,-0.40486407,-0.36160374,0.060019422,3.077414,-0.62511283,9.899037e-06,-0.12013951,0.054059625,0.0011352508,-0.012459951,0.0072321193,-0.009131827,0.47823238,-1.3676372,1.8869966,-2.0895164,-1.5696868,2.453511,-0.20144984,0.10918692,-0.13641773,0.015247461,0.007630933,-0.19225511,-0.34476504,0.2873042,-9.500193,0.9365982,47.701214,-1.2220578,-2.3809638,-3.2109833,-0.2774593,0.13746834,-0.42433715,28.3125,29.6875,28.75,32.5,34.9375,36.0625
0.27005416,-0.88643736,-0.582787,0.029292898,-0.025937567,0.065030776,-0.16689764,-0.40510565,-0.36148098,0.060015164,3.0774431,-0.62503463,-5.5099707e-05,-0.122436166,0.054039158,0.002315116,-0.0138916345,0.010407123,0.003254761,0.47783554,-1.3674208,1.8867453,-2.089505,-1.569723,2.4530618,-0.203222,0.10972298,-0.13956456,0.014391536,0.0074547706,-0.2064123,-0.34476507,0.17238252,-9.461885,0.8090337,47.691364,-1.1209394,-2.277776,-3.0542097,-0.27225882,0.14474241,-0.30424702,28.3125,29.6875,28.75,32.5,34.9375,36.0625
0.27205384,-1.1327919,-0.23059487,0.031117322,-0.015176338,0.06526101,-0.16621013,-0.40536138,-0.361358,0.060019474,3.077419,-0.62504494,-9.5581585e-05,-0.123255365,0.05481074,0.0013893149,-0.0137967495,0.008694535,0.009416721,0.4774034,-1.3672037,1.8864707,-2.0894806,-1.5697225,2.4526393,-0.20557497,0.11197715,-0.14015627,0.014303151,0.008177036,-0.21492688,-0.40222588,0.19153613,-9.461885,0.8224646,47.703903,-1.0709721,-2.3618536,-3.1602945,-0.24518253,0.1497587,-0.19308819,28.3125,29.6875,28.75,32.5,34.9375,36.0625
0.27405348,-1.4492882,-0.1123862,0.058252897,0.0052336664,0.06296667,-0.15819646,-0.4056143,-0.36127284,0.060041256,3.0773773,-0.62494075,-0.00018394318,-0.124522775,0.055168584,0.001051924,-0.014366203,0.007875756,0.009106972,0.4770305,-1.3669868,1.8861593,-2.0894682,-1.5697101,2.4522069,-0.20773345,0.11418337,-0.14209184,0.014502861,0.009079745,-0.2167744,-0.4213795,0.114921674,-9.308657,0.8537928,47.701214,-1.1414711,-2.4540644,-3.0729203,-0.22369066,0.12504609,-0.14114559,28.3125,29.6875,28.75,32.5,34.9375,36.0625
0.2760541,-0.5739231,0.878615,0.3283582,0.0031686118,0.070772976,-0.16507208,-0.40586388,-0.36116785,0.06003366,3.0773268,-0.62499285,-0.00011087014,-0.12640943,0.055229593,0.0022467365,-0.015410612,0.0103208,0.0016067576,0.47659808,-1.3667226,1.8858474,-2.0894086,-1.5696505,2.4518135,-0.20924781,0.11438525,-0.14511397,0.014682685,0.008877392,-0.21078748,-0.38307226,0.038307227,-9.346964,0.800085,47.711964,-1.073706,-2.3438458,-3.1095526,-0.20577195,0.13309625,-0.20981199,28.3125,29.6875,28.75,32.5,34.9375,36.0625
0.2780537,-1.3521651,-0.1366807,0.30661827,0.029717557,0.041715637,-0.1535004,-0.40614104,-0.3610713,0.060052186,3.0772502,-0.624942,-0.00021678423,-0.12514004,0.056242395,-8.633904e-06,-0.012790296,0.0061585736,-0.005068049,0.4761781,-1.3664935,1.885537,-2.089433,-1.5696267,2.4513717,-0.20947711,0.11656672,-0.14269269,0.014983517,0.0084846625,-0.20434155,-0.40222588,0.019153614,-9.174581,0.8717007,47.691364,-1.1037228,-2.7102497,-3.1508996,-0.20491864,0.15717724,-0.27140713,28.3125,29.6875,28.75,32.5,34.9375,36.0625
0.28005365,-1.0550629,0.1396718,0.43139854,0.029823815,0.057007447,-0.15236847,-0.4064015,-0.36096227,0.06004989,3.0772042,-0.6250102,-0.0002465738,-0.12470139,0.055046473,0.00031546652,-0.013575721,0.0060655484,-0.0074178777,0.47575906,-1.3662413,1.885238,-2.08942,-1.5696143,2.4510012,-0.20742106,0.11703212,-0.14417978,0.015726743,0.009230809,-0.19993515,-0.57460845,-0.038307227,-9.193734,0.8537928,47.71286,-1.4216769,-2.347631,-3.0110507,-0.17821956,0.14241585,-0.35354882,28.3125,29.6875,28.75,32.5,34.9375,36.0625
0.2820533,-1.3313749,0.72114515,0.20169725,0.025885172,0.05349241,-0.16879244,-0.4066443,-0.36085227,0.060062923,3.0771585,-0.6250181,-0.00024055723,-0.124917485,0.054947708,0.0005304554,-0.013515848,0.006699479,-0.0068006525,0.4753393,-1.3660368,1.8849505,-2.089361,-1.569578,2.4505923,-0.20712635,0.117147125,-0.14482908,0.015737632,0.008896025,-0.20025714,-0.38307226,-0.05746084,-9.232041,0.87617236,47.690468,-1.6085486,-2.573351,-3.1784234,-0.17032674,0.116741404,-0.4127099,28.3125,29.6875,28.75,32.5,34.9375,36.0625
0.2840534,-0.97862655,0.52889955,0.2366015,0.032549392,0.055784836,-0.16357537,-0.4069063,-0.36071214,0.060059838,3.0771437,-0.6251085,-0.0002657606,-0.12537257,0.0561388,-0.0004551337,-0.01185466,0.0045572696,-0.0023699834,0.47488248,-1.3658081,1.8846759,-2.0893247,-1.5695909,2.450194,-0.20911868,0.11911107,-0.14521492,0.016834956,0.008414619,-0.20667958,-0.21068975,-0.1340753,-9.097966,0.8940802,47.65912,-1.5316048,-2.4688368,-3.2296596,-0.14990431,0.15308067,-0.38874465,28.3125,29.6875,28.75,32.5,34.9375,36.0625
0.2860541,-0.29371962,0.7923843,0.45905808,0.02266027,0.059763514,-0.17893809,-0.40717015,-0.36061025,0.060075413,3.0771227,-0.62502027,-0.0003090617,-0.12700649,0.05750978,-0.0005442164,-0.011571877,0.0043784995,0.007041984,0.47447315,-1.3655674,1.8843416,-2.089276,-1.5695785,2.4497323,-0.21264465,0.12023925,-0.14649191,0.017293591,0.008271363,-0.21961658,-0.1340753,-0.19153613,-9.11712,0.8851263,47.687782,-1.3555837,-2.5270915,-3.2432985,-0.14283052,0.15596166,-0.28294998,28.3125,29.6875,28.75,32.5,34.9375,36.0625
0.288054,-0.26420507,0.6436847,0.48840636,0.030170027,0.037798032,-0.17306979,-0.40742075,-0.36049616,0.06005577,3.077089,-0.62496996,-0.00030343723,-0.12759706,0.05807298,-0.0006224103,-0.011677536,0.0040941145,0.01543256,0.47404072,-1.365315,1.8840898,-2.0893004,-1.5695428,2.4492729,-0.21414147,0.12069568,-0.14693779,0.017510267,0.008515701,-0.22950372,-0.05746084,-0.21068975,-9.155427,0.7911258,47.66271,-1.362661,-2.4751842,-3.2972796,-0.1382525,0.15637556,-0.14398271,28.3125,29.6875,28.75,32.5,34.9375,36.0625
0.29005396,-0.0007919012,1.0825334,0.506162,0.025606113,0.010858618,-0.16343208,-0.40767002,-0.36036938,0.06004103,3.077136,-0.6248839,-0.00033620934,-0.1285476,0.05864667,-0.0016521902,-0.010513703,0.0028409318,0.014573088,0.47363225,-1.3650618,1.8838147,-2.089276,-1.5695785,2.4488049,-0.21553957,0.123842105,-0.14838122,0.017451072,0.008052039,-0.23004127,0.019153614,-0.19153613,-9.040505,0.8537928,47.658226,-1.2069123,-2.3903122,-3.3240662,-0.12790132,0.17155074,-0.098440155,28.3125,29.6875,28.75,32.5,34.9375,36.0625
0.29205388,0.13958447,0.9945529,0.2913797,0.035272643,-0.0109712165,-0.1646006,-0.4079661,-0.36026824,0.060074236,3.0770516,-0.6248144,-0.0004070243,-0.13009278,0.05961452,-0.00021137731,-0.011376806,0.0060664597,0.004996891,0.4731755,-1.3648221,1.8834447,-2.0892408,-1.5695313,2.4483156,-0.2179475,0.1216116,-0.14889035,0.016934864,0.0073639755,-0.22287233,0.019153614,-0.22984336,-9.040505,0.83813137,47.707485,-1.2427293,-2.4481287,-3.2717133,-0.10407053,0.17969278,-0.13655092,28.3125,29.6875,28.75,32.5,34.9375,36.0625
0.29405424,0.91882443,0.8263196,0.47090593,0.028794376,-0.0015686402,-0.17714752,-0.40822136,-0.36012143,0.060090758,3.0770104,-0.62490916,-0.0004484969,-0.13104473,0.06156805,-0.0016755047,-0.01042552,0.0026879907,-0.009169839,0.47270635,-1.364653,1.8831939,-2.0891926,-1.5695308,2.447911,-0.22237295,0.1241135,-0.14876223,0.017735334,0.0080568995,-0.21313065,-0.05746084,-0.19153613,-9.136273,0.800085,47.6636,-1.117518,-2.4885666,-3.290129,-0.08593284,0.17841287,-0.27080566,28.3125,29.6875,28.75,32.5,34.9375,36.0625
0.29605374,0.316163,0.6569737,0.35384715,0.022003086,-0.01343443,-0.17238966,-0.4084627,-0.35998628,0.060039643,3.0770428,-0.62496,-0.00033498308,-0.132622,0.061456487,0.00096525834,-0.012906037,0.006140828,-0.018503036,0.47226167,-1.364342,1.8829292,-2.089156,-1.5695184,2.447494,-0.22381085,0.121267624,-0.15175427,0.019364446,0.008668105,-0.20523567,-0.038307227,-0.076614454,-9.136273,0.88960326,47.692257,-1.058293,-2.237365,-3.1920323,-0.073246345,0.18753996,-0.38366455,28.3125,29.6875,28.75,32.5,34.9375,36.0625
0.29805383,0.3021268,0.082529224,-0.036437754,0.026802955,0.002085056,-0.1664002,-0.4087231,-0.3598576,0.06004472,3.077007,-0.6250116,-0.000323802,-0.1344512,0.06253388,0.0015923475,-0.012453058,0.0063988594,-0.02406353,0.47180468,-1.3641135,1.8826302,-2.0890949,-1.5694946,2.447074,-0.22676559,0.12218282,-0.15477209,0.021450741,0.008149439,-0.20262867,-0.076614454,0.11492168,-9.193734,0.95226496,47.68062,-0.9704814,-2.2518256,-3.3966308,-0.09325484,0.19819379,-0.4702896,28.3125,29.6875,28.75,32.5,34.9375,36.0625
0.300054,0.08697749,-0.31887785,-0.055134863,0.008571928,0.025994323,-0.1667544,-0.4089813,-0.3597379,0.060055103,3.0769923,-0.62504387,-0.00030865087,-0.13368042,0.063450664,0.00022783664,-0.011183235,0.0021428177,-0.018520322,0.47137198,-1.3638725,1.8822964,-2.088999,-1.5694822,2.4466634,-0.22802436,0.1237362,-0.15403727,0.023542754,0.008970098,-0.20943111,-0.076614454,0.11492168,-9.289503,0.88289046,47.694946,-0.87274945,-2.2148352,-3.3040762,-0.104167305,0.19334789,-0.48919517,28.3125,29.6875,28.75,32.5,34.9375,36.0625
0.3020538,-0.38340047,-0.107198454,-0.2553567,-0.012187739,0.04228548,-0.18265353,-0.40924287,-0.35961294,0.06003548,3.0770032,-0.62501806,-0.000267242,-0.13444085,0.06338471,0.0006995949,-0.011859343,0.0020982379,-0.0059662587,0.470928,-1.363584,1.8819846,-2.0889509,-1.5694703,2.446202,-0.22883414,0.12440294,-0.15622988,0.024822788,0.009605282,-0.22279459,-0.11492168,0.19153613,-9.461885,0.8627467,47.67166,-0.8668783,-2.269693,-3.264533,-0.118627034,0.19592083,-0.40520623,28.3125,29.6875,28.75,32.5,34.9375,36.0625
0.30405372,-1.2942147,-0.8536605,-0.48640347,-0.0137947975,0.06496472,-0.163662,-0.40947488,-0.35947642,0.060012832,3.0769994,-0.6250661,-0.000104569386,-0.13481858,0.06270079,0.0012074247,-0.01200861,0.0028673254,0.008687009,0.4704607,-1.3633316,1.881709,-2.0888426,-1.5694102,2.4457653,-0.2277577,0.12516797,-0.1585094,0.025620857,0.009386395,-0.23637135,-0.17238252,0.19153614,-9.557653,0.90750587,47.66091,-1.1859422,-2.2036214,-3.1671138,-0.12643622,0.20242691,-0.23255034,28.3125,29.6875,28.75,32.5,34.9375,36.0625
0.30605346,-1.2463632,-0.7645983,-0.60178053,-0.020961968,0.09848143,-0.16919719,-0.40977204,-0.3593478,0.060027234,3.0770168,-0.624989,-0.00022268073,-0.1343846,0.06211354,0.0006555255,-0.0117437085,0.0015443959,0.013722839,0.47001728,-1.3630669,1.8813509,-2.0888064,-1.5694584,2.4452717,-0.22649094,0.12680596,-0.15936661,0.02613587,0.009770295,-0.24013953,-0.2873042,0.21068975,-9.710882,0.84484416,47.688675,-1.3716006,-2.232067,-3.3626342,-0.13060822,0.20904605,-0.16970776,28.3125,29.6875,28.75,32.5,34.9375,36.0625
0.30805343,-1.2640743,-0.8334142,-0.79643756,-0.024486719,0.10820266,-0.16536431,-0.410034,-0.35922125,0.060038477,3.076965,-0.62498367,-0.00020248596,-0.13466482,0.06283069,-0.00014243207,-0.012145931,-0.0007433148,0.005909549,0.46954852,-1.3628502,1.8810519,-2.0887458,-1.5694097,2.4448063,-0.22866857,0.12816735,-0.1593124,0.02658215,0.011166737,-0.23450391,-0.45968673,0.2681506,-9.80665,0.842603,47.64927,-1.3612969,-2.2114503,-3.372342,-0.1370236,0.18756735,-0.18726617,28.3125,29.6875,28.75,32.5,34.9375,36.0625
0.31005388,-1.2817066,-0.7767264,-0.8171597,-0.04079027,0.09610989,-0.17263165,-0.41030395,-0.3591126,0.060023893,3.0769384,-0.62492615,-0.00015610931,-0.13615425,0.06351738,-0.0003683045,-0.011397549,-0.00015950414,-0.0036048272,0.46910387,-1.3625494,1.8807167,-2.088711,-1.569362,2.4443293,-0.2303942,0.13011988,-0.16110012,0.026243977,0.010223094,-0.22671403,-0.4405331,0.21068975,-9.959879,0.8784135,47.683304,-1.2999873,-2.15478,-3.362712,-0.13806966,0.20029023,-0.28700805,28.3125,29.6875,28.75,32.5,34.9375,36.0625
0.3120542,-1.0343462,-1.3717251,-1.0713924,-0.040487975,0.07675661,-0.16301416,-0.41054305,-0.3589652,0.059996832,3.0770178,-0.6249049,-0.00010232486,-0.13679415,0.06301044,0.00017809798,-0.011964423,0.001820371,-0.0075866035,0.46867216,-1.3622845,1.8804415,-2.0886276,-1.5693983,2.4438744,-0.22972178,0.13030067,-0.16237782,0.025310012,0.0098097995,-0.22205994,-0.30645782,0.24899697,-9.883265,0.89631605,47.66987,-1.4033929,-2.3493452,-3.260034,-0.13395092,0.20551848,-0.37007618,28.3125,29.6875,28.75,32.5,34.9375,36.0625
0.31405407,-0.71829766,-1.360571,-0.8920475,-0.048708055,0.06322693,-0.16788547,-0.41083843,-0.35884368,0.060025185,3.07694,-0.6249658,-0.00013746752,-0.13796827,0.06369185,-0.0018135667,-0.010364203,-0.00034622257,-0.008541856,0.46819162,-1.3620429,1.880071,-2.0885556,-1.569362,2.4434419,-0.23146349,0.13546151,-0.1638441,0.024286635,0.009370776,-0.22284439,-0.34476504,0.3256114,-9.844957,0.90527004,47.62419,-1.3945472,-2.4373627,-3.3608837,-0.12052443,0.23433429,-0.40665087,28.3125,29.6875,28.75,32.5,34.9375,36.0625
0.31605408,-0.5006756,-1.3190377,-0.8445048,-0.039948672,0.062363103,-0.1686214,-0.41111967,-0.358706,0.06002586,3.0769174,-0.62495375,-0.00015718122,-0.13952415,0.06385176,-0.00041862324,-0.011429712,0.0034955025,0.0010732376,0.46771142,-1.3617911,1.8797597,-2.0885203,-1.5693506,2.4429572,-0.232455,0.13417591,-0.16522083,0.023064207,0.00860444,-0.23345031,-0.3256114,0.24899697,-9.921572,0.83589023,47.682407,-1.370747,-2.4241974,-3.3504746,-0.110382386,0.23010504,-0.3497431,28.3125,29.6875,28.75,32.5,34.9375,36.0625
0.3180541,-0.6971556,-0.77735823,-0.92020535,-0.023710662,0.052335113,-0.1709031,-0.4114074,-0.35859025,0.06003783,3.0768619,-0.6249163,-0.00021852375,-0.13999313,0.06452538,-0.0018172499,-0.010778888,0.0014037215,0.011602943,0.467255,-1.3615378,1.8794259,-2.0885084,-1.5693263,2.4424846,-0.23408988,0.13701995,-0.16537637,0.022561954,0.008999526,-0.24561396,-0.19153613,0.24899697,-9.9790325,0.8314132,47.703903,-1.3827193,-2.453421,-3.2600307,-0.090507165,0.23347896,-0.21136215,28.3125,29.6875,28.75,32.5,34.9375,36.0625
0.32005414,-1.2915463,-0.4129582,-0.5449036,-0.011219956,0.041125998,-0.1593881,-0.41173667,-0.35846755,0.06005406,3.0767705,-0.62487996,-0.00028834524,-0.14160442,0.06625503,-0.0025659115,-0.011166351,-0.00021480171,0.012019348,0.4667371,-1.361249,1.8790425,-2.088508,-1.5692781,2.4419558,-0.23889154,0.13882314,-0.1658731,0.022546805,0.0101061715,-0.25083095,-0.30645782,0.15322891,-9.768343,0.8672237,47.655537,-1.1896937,-2.4964063,-3.4188983,-0.064105615,0.24823853,-0.11796961,28.3125,29.6875,28.75,32.5,34.9375,36.0625
0.32205385,-0.98273134,-0.09261311,-0.5062567,0.002212511,0.061760336,-0.15856971,-0.4120071,-0.3583318,0.060062815,3.076799,-0.6247927,-0.000328612,-0.14450823,0.06708485,-0.001199931,-0.012959253,0.002512478,0.00413181,0.4662919,-1.3610089,1.8787183,-2.0884368,-1.569302,2.4414527,-0.24285764,0.1390215,-0.1692151,0.0224399,0.010473903,-0.2469082,-0.4213795,0.095768064,-9.5385,0.81351066,47.621502,-1.0815525,-2.43315,-3.2828465,-0.06364377,0.24445431,-0.113848224,28.3125,29.6875,28.75,32.5,34.9375,36.0625
0.32405356,-0.21603967,1.0469767,-0.22375467,0.014668078,0.07365773,-0.17487417,-0.4122837,-0.3582041,0.060051188,3.0767505,-0.6248081,-0.00029508793,-0.14590764,0.06780067,-0.00083512504,-0.013797457,0.003089873,-0.0071883225,0.46581113,-1.3607324,1.8784074,-2.0884125,-1.5692538,2.4409878,-0.24540427,0.13943227,-0.17058642,0.022510331,0.010954587,-0.23813416,-0.34476504,-0.019153614,-9.500193,0.8605109,47.688675,-0.96836114,-2.5374846,-3.4311237,-0.062587686,0.22945948,-0.20965827,28.3125,29.6875,28.75,32.5,34.9375,36.0625
0.32605326,-0.16561127,1.233245,-0.026082767,0.01651175,0.07140346,-0.17699441,-0.41257787,-0.35807517,0.060058188,3.0767357,-0.6247719,-0.00033840796,-0.14486913,0.06763006,-0.0023256827,-0.012580315,-1.634641e-05,-0.01620476,0.46534315,-1.3604563,1.8780493,-2.0883648,-1.5692538,2.4404993,-0.24426784,0.14177045,-0.17017606,0.023072904,0.011260633,-0.2279808,-0.38307226,-0.11492168,-9.557653,0.84708,47.694946,-1.0611963,-2.4550002,-3.3481479,-0.05196792,0.22832805,-0.34451663,28.3125,29.6875,28.75,32.5,34.9375,36.0625
0.32805377,-0.93844384,0.12831336,0.101950444,0.018887127,0.057726227,-0.1579763,-0.41290706,-0.35794598,0.060080033,3.0766103,-0.6249791,-0.0003787146,-0.14455193,0.06754777,-0.001972743,-0.012388991,0.00044634606,-0.022407927,0.46481574,-1.3601688,1.8776435,-2.0883167,-1.5692056,2.4401174,-0.24345858,0.14098415,-0.17017412,0.023537088,0.0108915465,-0.22096789,-0.53630114,-0.19153613,-9.385271,0.842603,47.66271,-1.1299909,-2.4522035,-3.4968672,-0.017940333,0.24293399,-0.4771877,28.3125,29.6875,28.75,32.5,34.9375,36.0625
0.3300534,-1.5022473,0.44097033,0.140144,0.020476412,0.039073706,-0.1623981,-0.41315487,-0.3578161,0.060057495,3.0766308,-0.62486386,-0.00032455058,-0.14505193,0.06781536,-0.002343467,-0.012117111,-0.0005799285,-0.017820522,0.4643716,-1.3599044,1.8773688,-2.0882804,-1.5691818,2.4395988,-0.2443398,0.14259371,-0.1714706,0.024281306,0.011111993,-0.2264362,-0.40222588,-0.24899697,-9.270349,0.8940802,47.701214,-1.2960978,-2.4243193,-3.4909492,-0.004996799,0.22122367,-0.5055762,28.3125,29.6875,28.75,32.5,34.9375,36.0625
0.33205414,-1.0852002,0.5675308,0.016461814,0.038059916,0.0368588,-0.15840335,-0.41347829,-0.3576971,0.06007728,3.0765293,-0.62491214,-0.00038281974,-0.14623588,0.068060845,-0.0013672516,-0.011648712,0.0006221531,-0.003946701,0.46386728,-1.3596164,1.8769726,-2.0882561,-1.5691341,2.4391377,-0.24502681,0.14288297,-0.17450616,0.026205521,0.010197437,-0.24099535,-0.19153613,-0.17238252,-9.232041,0.900793,47.686886,-1.3859057,-2.4836836,-3.303914,-0.025653593,0.2539428,-0.391624,28.3125,29.6875,28.75,32.5,34.9375,36.0625
0.33405367,-0.61332834,0.61168426,0.37651864,0.034302533,0.044766795,-0.17205018,-0.4137682,-0.35754582,0.060080543,3.0765016,-0.6249162,-0.00037435096,-0.14756493,0.06776085,0.00018411898,-0.012908339,0.0027649275,0.008330093,0.4633516,-1.359365,1.8766493,-2.0881956,-1.5691098,2.4386282,-0.24561,0.14238262,-0.17774871,0.027500158,0.010388471,-0.2538543,-0.22984336,-0.17238252,-9.155427,0.9298854,47.672558,-1.4291537,-2.292314,-3.2882752,-0.023846935,0.25172025,-0.24349788,28.3125,29.6875,28.75,32.5,34.9375,36.0625
0.33605337,-1.1589271,0.5119837,0.41530782,0.04683038,0.021168677,-0.16027051,-0.41406584,-0.35740462,0.06006579,3.0765371,-0.62484694,-0.00042347124,-0.14914072,0.06794227,0.0008046429,-0.013490599,0.0038876913,0.00890009,0.46288344,-1.3590529,1.8763021,-2.0881712,-1.5691456,2.4381125,-0.24711014,0.14343639,-0.18057992,0.028012132,0.01041301,-0.25592327,-0.22984336,-0.15322891,-8.983045,0.85826975,47.64837,-1.5447304,-2.3095198,-3.2457252,-0.023729188,0.25565577,-0.16675991,28.3125,29.6875,28.75,32.5,34.9375,36.0625
0.3380541,-0.67638737,1.1806363,0.13807757,0.040190674,0.027396536,-0.15035954,-0.41439492,-0.3572677,0.06008626,3.0764399,-0.6248909,-0.00041567232,-0.14955865,0.067875154,0.0010705739,-0.013791707,0.004419189,0.0021683974,0.4623306,-1.3587651,1.8758935,-2.0880992,-1.569074,2.4375997,-0.24719194,0.14374302,-0.1816179,0.02814641,0.010450222,-0.24927257,-0.30645782,-0.019153614,-9.097966,0.8717007,47.682407,-1.4410846,-2.2248309,-3.2349603,-0.018341532,0.25486952,-0.25702775,28.3125,29.6875,28.75,32.5,34.9375,36.0625
0.3400538,-0.56253695,0.77402866,0.039293233,0.02294482,0.034284145,-0.16877677,-0.41468042,-0.35713783,0.060099714,3.0764415,-0.62483865,-0.0004953942,-0.15059584,0.06976308,-0.00033420412,-0.011650349,0.000808167,-0.008219642,0.46188545,-1.358512,1.8755478,-2.088051,-1.5690984,2.4371219,-0.2509153,0.14707467,-0.18297194,0.030344537,0.01014899,-0.24260667,-0.28730422,0.11492168,-9.11712,0.83813137,47.666286,-1.3571413,-2.349464,-3.1880097,-0.0389479,0.25618,-0.32305396,28.3125,29.6875,28.75,32.5,34.9375,36.0625
0.34205344,-1.041292,-0.38431934,-0.29922965,0.011508626,0.019320844,-0.15082307,-0.4149497,-0.356976,0.060062237,3.0765226,-0.6248582,-0.00035927346,-0.15211901,0.07142779,0.0015857706,-0.012470036,0.0020777117,-0.013960672,0.46139276,-1.3581775,1.8752002,-2.0879176,-1.5691103,2.4366312,-0.25494528,0.14416651,-0.18455109,0.03332898,0.010292333,-0.24089696,-0.24899697,0.11492168,-9.232041,0.91198283,47.70211,-1.3421638,-2.1260874,-3.2020164,-0.054059274,0.27523682,-0.38959402,28.3125,29.6875,28.75,32.5,34.9375,36.0625
0.3440541,-0.53776795,-0.16564359,-0.08600468,-0.032859053,0.036623035,-0.16370085,-0.41525328,-0.35683978,0.060074948,3.0764303,-0.62491316,-0.00033551612,-0.15265769,0.07307643,0.0012787773,-0.011571538,0.00011155522,-0.009259518,0.46086335,-1.3579139,1.8748406,-2.087858,-1.5690383,2.436148,-0.25806624,0.14448787,-0.18474503,0.035398114,0.0103914905,-0.24871883,-0.28730422,0.19153613,-9.308657,0.9030289,47.701214,-1.143024,-2.1568134,-3.2660816,-0.08953425,0.28920907,-0.37090433,28.3125,29.6875,28.75,32.5,34.9375,36.0625
0.34605393,-0.45567226,-1.0954806,-0.15707639,-0.03211452,0.048807688,-0.1624015,-0.41555184,-0.35668975,0.06006454,3.0764434,-0.6249272,-0.00030436929,-0.1518163,0.07375103,0.0004321274,-0.009498517,-0.0033656568,0.004022323,0.46035922,-1.3576015,1.8744692,-2.0877726,-1.5690383,2.435651,-0.2581571,0.14569506,-0.18503541,0.03854681,0.010103061,-0.26209185,-0.30645782,0.22984336,-9.32781,0.8314132,47.62688,-1.1136549,-2.0806804,-3.1794338,-0.13070671,0.29751134,-0.24734163,28.3125,29.6875,28.75,32.5,34.9375,36.0625
0.34805417,-0.5383468,-0.47080624,-0.25764707,-0.03202949,0.058968663,-0.15772362,-0.41588533,-0.35653594,0.06008371,3.076416,-0.62491703,-0.00036228236,-0.15227257,0.07364912,0.00046946423,-0.009963567,-0.004321707,0.011806657,0.45981944,-1.3573134,1.8740624,-2.0877001,-1.5690378,2.4351087,-0.25871682,0.1469915,-0.18702611,0.03990825,0.010969163,-0.2704346,-0.22984336,0.24899697,-9.346964,0.8940802,47.66808,-1.1875036,-1.9868212,-3.2730176,-0.17428975,0.27696538,-0.13200368,28.3125,29.6875,28.75,32.5,34.9375,36.0625
0.35005406,-1.1133103,-0.47998622,-0.33733448,-0.018235574,0.05904437,-0.1596049,-0.41619402,-0.3563951,0.060085356,3.0763547,-0.6249266,-0.00029487803,-0.15380731,0.07399105,0.00025778785,-0.011045132,-0.0038802407,0.008049399,0.45927867,-1.3570131,1.8736786,-2.0876176,-1.5689653,2.4345818,-0.26087376,0.14889266,-0.1886065,0.03873226,0.011734612,-0.26883334,-0.28730422,0.15322891,-9.3661175,0.8291774,47.689575,-1.1450442,-2.0531929,-3.3413942,-0.1889611,0.29437694,-0.106445014,28.3125,29.6875,28.75,32.5,34.9375,36.0625
0.35205463,-0.8996587,-0.09262522,-0.28378373,-0.012904324,0.0668775,-0.15913066,-0.41649643,-0.35624182,0.060080446,3.076356,-0.62493384,-0.00032051315,-0.15530822,0.07385567,-0.0008932697,-0.011246203,-0.0054441364,-0.0029492653,0.45877415,-1.3567235,1.87333,-2.087569,-1.5689772,2.4340818,-0.26226,0.15378642,-0.19184786,0.03837561,0.012587306,-0.25921875,-0.36391866,0.095768064,-9.423578,0.7933669,47.687782,-1.1064061,-2.1526866,-3.1836967,-0.1805543,0.27856764,-0.20956457,28.3125,29.6875,28.75,32.5,34.9375,36.0625
0.3540542,-0.59128225,0.15498357,-0.3351957,0.003934665,0.06587455,-0.15716875,-0.41681385,-0.35609642,0.060083885,3.076311,-0.62489295,-0.0003031913,-0.15575166,0.073922805,0.0004896071,-0.012045635,-0.0039507453,-0.014442794,0.458234,-1.3564245,1.8729485,-2.087509,-1.5689291,2.433522,-0.26258907,0.15196279,-0.19315286,0.039810162,0.012631444,-0.24805401,-0.40222588,0.019153614,-9.3661175,0.8314132,47.64927,-1.224945,-2.1924012,-3.301609,-0.22549073,0.26940286,-0.33338028,28.3125,29.6875,28.75,32.5,34.9375,36.0625
0.35605395,-0.51939225,0.2078245,-0.42286718,0.017885042,0.055941913,-0.14700064,-0.41712585,-0.3559426,0.060076375,3.0762777,-0.6250811,-0.00026171692,-0.15490201,0.07454228,-0.0018507476,-0.010837432,-0.008150387,-0.02095757,0.45770636,-1.3560998,1.8725528,-2.087413,-1.5689167,2.4331162,-0.263213,0.15501182,-0.19146672,0.03937249,0.013391228,-0.24216354,-0.49799395,-0.05746084,-9.461885,1.0507371,47.701214,-1.2497611,-2.2697551,-3.3770964,-0.23254663,0.27845752,-0.473016,28.3125,29.6875,28.75,32.5,34.9375,36.0625
0.35805392,0.0715641,1.2513642,-0.16930826,-0.0025837596,0.06883709,-0.17846493,-0.41741604,-0.3558062,0.0600707,3.0762339,-0.62508637,-0.00016303336,-0.1552364,0.07434924,-0.0029139249,-0.0106157325,-0.0092381155,-0.014121776,0.4571903,-1.3557991,1.8721818,-2.0873182,-1.5688447,2.432609,-0.2631724,0.15790367,-0.19238804,0.038512226,0.013671956,-0.24895832,-0.30645782,-0.076614454,-9.442732,0.94331104,47.64389,-1.2581816,-2.28264,-3.4115949,-0.24965623,0.27410042,-0.46272498,28.3125,29.6875,28.75,32.5,34.9375,36.0625
0.36005384,-0.8329506,0.79120284,-0.24407709,0.0077364403,0.04807807,-0.17082436,-0.41774738,-0.3556482,0.060074557,3.0762403,-0.62511665,-0.00020074175,-0.1560351,0.073816024,-0.0026971216,-0.010812811,-0.008127467,0.0037541431,0.4566625,-1.3554747,1.8717631,-2.0872343,-1.568869,2.4320996,-0.2625809,0.15939316,-0.19466187,0.03824778,0.01338211,-0.26624176,-0.05746084,-0.1340753,-9.500193,0.90750587,47.63315,-1.3607116,-2.4111505,-3.4020967,-0.26004806,0.27019703,-0.34959793,28.3125,29.6875,28.75,32.5,34.9375,36.0625
0.36205342,-0.5096988,0.31747708,-0.28432697,0.007986293,0.057581075,-0.1692572,-0.41806865,-0.3554991,0.060084395,3.0762067,-0.6250283,-0.00021101184,-0.15697089,0.074540116,-0.0033897294,-0.010113776,-0.009003753,0.012335395,0.45612165,-1.355186,1.8713793,-2.0871742,-1.5688328,2.431508,-0.2642642,0.16165124,-0.19587643,0.03833643,0.013162926,-0.27650526,-0.19153613,-0.076614454,-9.481039,0.83589023,47.65912,-1.4192023,-2.3934247,-3.2936878,-0.2673852,0.2785097,-0.1763039,28.3125,29.6875,28.75,32.5,34.9375,36.0625
0.36405414,-0.7226451,0.3270632,-0.07507118,-0.003940985,0.067076266,-0.14431325,-0.41837847,-0.35534233,0.06008227,3.0762184,-0.6249965,-0.00017164534,-0.15881367,0.07614229,-0.0032781505,-0.009636577,-0.008305137,0.00632449,0.45559284,-1.3548745,1.870984,-2.0870664,-1.5688213,2.430958,-0.26786157,0.16241227,-0.19710766,0.038397554,0.012411918,-0.27409172,-0.38307226,0.0,-9.346964,0.85826975,47.658226,-1.2812922,-2.3829274,-3.400792,-0.28990218,0.29727492,-0.18137717,28.3125,29.6875,28.75,32.5,34.9375,36.0625
0.36605376,-0.96019363,0.14529918,-0.2465128,-0.0005632103,0.060729858,-0.14447866,-0.41870862,-0.3551995,0.06008339,3.0761223,-0.62507796,-0.00017484082,-0.16024359,0.07535857,-0.0025900523,-0.011160459,-0.006798077,-0.0019212556,0.45504108,-1.3545623,1.8705996,-2.0870426,-1.5687608,2.4304695,-0.26795945,0.16402182,-0.20062894,0.03829059,0.013108135,-0.26594174,-0.4213795,0.095768064,-9.346964,0.8179876,47.668976,-1.2703576,-2.3696494,-3.3740118,-0.30874836,0.28193873,-0.30234295,28.3125,29.6875,28.75,32.5,34.9375,36.0625
0.36805376,-0.16930448,0.062782235,-0.13017106,-0.0149949035,0.07143065,-0.16725922,-0.41901547,-0.35504568,0.06006556,3.076136,-0.6250249,-0.000109456196,-0.16178225,0.07542485,-0.00059343514,-0.012701133,-0.0021975318,-0.008272625,0.45451316,-1.3542271,1.8702167,-2.0869591,-1.5687374,2.4299068,-0.26876375,0.16164462,-0.20212503,0.037358485,0.012447862,-0.26039517,-0.21068975,0.21068975,-9.442732,0.8918391,47.66539,-1.4265032,-2.3824363,-3.3763545,-0.31546283,0.29563347,-0.36099845,28.3125,29.6875,28.75,32.5,34.9375,36.0625
0.3700532,-0.46148574,-0.009559845,0.15872364,-0.026245996,0.066275656,-0.15810078,-0.41937816,-0.35487708,0.06007891,3.0760972,-0.6251525,-0.0001661607,-0.16234073,0.076566346,-0.0017627937,-0.012299332,-0.0040727253,-0.009203996,0.45393595,-1.3538908,1.8697618,-2.0868757,-1.5687493,2.4294145,-0.27122962,0.16358642,-0.20176953,0.036928248,0.012922606,-0.26192906,-0.28730422,0.17238252,-9.251196,0.8179876,47.64927,-1.3288915,-2.4661922,-3.313074,-0.3160913,0.29944265,-0.40900302,28.3125,29.6875,28.75,32.5,34.9375,36.0625
0.372054,-0.53091395,-0.114832215,-0.23966943,-0.008031977,0.052581385,-0.14922638,-0.41967893,-0.35470247,0.06004438,3.076114,-0.62515,-4.1408366e-05,-0.1633928,0.07780358,-0.0020543342,-0.011684706,-0.0043755895,0.001216028,0.45337093,-1.3535548,1.8694156,-2.0867918,-1.5687131,2.428846,-0.27375042,0.16455656,-0.20238411,0.037159074,0.012504256,-0.2748707,-0.28730422,0.22984336,-9.270349,0.93436235,47.65106,-1.1411766,-2.2655628,-3.3946464,-0.343711,0.30527478,-0.33210242,28.3125,29.6875,28.75,32.5,34.9375,36.0625
0.37405366,0.1294828,0.1853384,-0.2583861,-0.007728667,0.057812296,-0.15282553,-0.4200173,-0.35455495,0.060051896,3.0760934,-0.62510115,-0.00010135213,-0.16491684,0.078526646,-0.002138539,-0.012902886,-0.003433431,0.010481573,0.45284262,-1.3532307,1.8689965,-2.086744,-1.5687126,2.42829,-0.27646068,0.1655073,-0.20300765,0.035480496,0.013215466,-0.2868455,-0.05746084,0.17238252,-9.442732,0.8985519,47.666286,-1.0824777,-2.3153043,-3.5105624,-0.32875222,0.3108201,-0.17187189,28.3125,29.6875,28.75,32.5,34.9375,36.0625
0.37605363,0.022643028,0.15860435,-0.013809874,-0.030399928,0.049806014,-0.15920646,-0.42035425,-0.35438895,0.060046192,3.0760784,-0.6251199,-9.472248e-05,-0.16746719,0.07792332,-0.00084721064,-0.014821503,0.000998445,0.008930351,0.45227808,-1.3528948,1.8685879,-2.0866735,-1.5687011,2.4277391,-0.2772092,0.16659799,-0.20682818,0.033395637,0.012991792,-0.28604135,-0.19153614,0.22984336,-9.404425,0.8403672,47.684196,-1.1092979,-2.1764174,-3.4104195,-0.32220653,0.29760337,-0.10847823,28.3125,29.6875,28.75,32.5,34.9375,36.0625
