Tylouw/Master_Thesis_Code/training_data/batch_1/rect_rod_t0.3/sample_53_session_2.csv
timestamp[s],tcp_force_x[N],tcp_force_y[N],tcp_force_z[N],tcp_force_rx[Nm?],tcp_force_ry[Nm?],tcp_force_rz[Nm?],tcp_pose_x[m],tcp_pose_y[m],tcp_pose_z[m],tcp_pose_rx[rot_vec_x],tcp_pose_ry[rot_vec_y],tcp_pose_rz[rot_vec_z],tcp_velo_x[m/s],tcp_velo_y[m/s],tcp_velo_z[m/s],tcp_velo_rx[rot_vec_x/s],tcp_velo_ry[rot_vec_y/s],tcp_velo_rz[rot_vec_z/s],q1[rad],q2[rad],q3[rad],q4[rad],q5[rad],q6[rad],qd1[rad/s],qd2[rad/s],qd3[rad/s],qd4[rad/s],qd5[rad/s],qd6[rad/s],tool_acc_x,tool_acc_y,tool_acc_z,current_of_whole_robot[A],voltage_of_whole_robot[V],current_J1[A],current_J2[A],current_J3[A],current_J4[A],current_J5[A],current_J6[A],temp_J1[C],temp_J2[C],temp_J3[C],temp_J4[C],temp_J5[C],temp_J6[C]
1.0280055e-06,0.22354716,-0.7397291,-0.25360227,-0.016775895,0.021050952,-0.0014563748,-0.38931867,-0.36872587,0.060014397,-3.0786953,0.62492627,0.00020608681,-0.00019597253,-7.36948e-05,6.89537e-05,-0.00037604116,0.0004808173,2.5549836e-05,0.5050687,-1.3816679,1.9042109,-2.091892,-1.5708655,2.480061,-0.00011868106,-2.0278663e-05,-9.864448e-07,-0.0005818472,9.508207e-05,-0.00014430913,0.15322891,0.17238252,-8.676587,0.71279734,47.686886,-0.24970354,-3.0243149,-2.3370662,-0.18778223,0.10865089,-0.026066266,28.4375,29.75,28.8125,32.625,35.0625,36.125
0.002054548,0.14699024,-0.5220058,-0.26286656,-0.021358628,0.025834288,0.0041232253,-0.38933346,-0.36872602,0.05999897,-3.0787194,0.62495047,0.00017141698,-0.0011447471,-0.0006047728,-0.0006781756,-0.003128401,0.00541587,2.4623958e-05,0.50503284,-1.3816319,1.9042124,-2.091931,-1.5708297,2.4800372,-0.0001164866,-2.720642e-07,0.003830338,-0.010083857,0.0001022743,-0.00014175546,0.11492168,0.21068975,-8.561666,0.7172743,47.658226,-0.17853627,-3.0282803,-2.4151962,-0.13584283,0.11396429,-0.03113699,28.4375,29.75,28.8125,32.625,35.0625,36.125
0.004054065,0.03357065,-0.8999939,-0.22285071,-0.011458735,0.030190459,-0.0072245896,-0.38933262,-0.36875403,0.06003152,-3.0787876,0.6248876,0.00027170955,-0.0014493812,-0.00077880034,-0.0014903592,-0.002756219,0.004721828,2.4697838e-05,0.50508076,-1.381679,1.9041995,-2.091955,-1.5708297,2.4800372,-0.000114372146,0.00222013,0.0032486704,-0.010935153,0.00010885449,-0.00013903237,0.038307227,0.22984336,-8.6574335,0.77545905,47.699425,-0.18388838,-3.3203735,-2.6209702,-0.04697776,0.097378165,-0.013276575,28.4375,29.75,28.8125,32.625,35.0625,36.125
0.006053658,0.44723117,-0.17103139,-0.3294587,-0.0069009727,0.02344057,-0.005372929,-0.38933343,-0.36873505,0.05999119,-3.0787444,0.62495565,0.00015982118,-0.00077953987,-0.00040695505,-0.0010849405,-0.0012427992,0.0020054749,2.4172454e-05,0.50503284,-1.3816191,1.9042228,-2.0919654,-1.5708054,2.4800372,-0.00011233267,0.0018551819,0.0015937394,-0.0058057616,0.00010725666,-0.00013639948,0.019153614,0.22984336,-8.6574335,0.69937176,47.67614,-0.1427373,-3.3190823,-2.562735,-0.0718549,0.10175789,-0.013535565,28.4375,29.75,28.8125,32.625,35.0625,36.125
0.008053923,0.26619822,0.09327345,-0.6043886,0.03024214,-0.00733463,-0.00037575135,-0.38932255,-0.36872703,0.060004648,-3.0787444,0.6248983,0.00019766056,-0.00020534529,-8.789658e-05,-0.0003434737,-0.00015728014,6.255594e-05,2.3556044e-05,0.50504476,-1.3816676,1.9042462,-2.0919511,-1.5708297,2.4800134,-0.00011036487,0.0007990005,6.287206e-05,-0.0009931247,0.00010520384,-0.00013386339,0.0,0.19153613,-8.810662,0.7329411,47.687782,-0.17203778,-3.2762122,-2.399918,-0.107109904,0.11641907,-0.016199913,28.4375,29.75,28.8125,32.625,35.0625,36.125
0.010054004,0.9734403,0.685545,-0.89874023,0.021370327,0.008811012,-0.009551948,-0.38931337,-0.36871946,0.059968866,-3.0786884,0.624906,6.923488e-05,0.0009858762,0.0005805143,-0.00011599093,0.0014834565,-0.002878575,2.6119997e-05,0.50503284,-1.381596,1.9042348,-2.0919144,-1.5708174,2.4800134,-0.00011866312,-0.00049315044,8.435089e-07,0.00372888,0.000103195714,-0.00014541458,0.05746084,0.19153613,-8.963891,0.69937176,47.65643,-0.7203418,-2.7188654,-2.8288138,-0.16260107,0.058665384,-0.10814571,28.4375,29.75,28.8125,32.625,35.0625,36.125
0.012053596,0.04290944,-0.36828047,-1.0997156,-0.008156756,0.01747898,-0.011241546,-0.3893362,-0.36872235,0.060005378,-3.078712,0.6249687,0.00019402437,-0.00093473244,0.0025024163,-0.00032652548,0.0015407129,-0.0029538902,-0.002188169,0.5050315,-1.3816439,1.9042109,-2.0919263,-1.5708417,2.4800482,-0.005140268,-1.2993346e-05,1.1316748e-08,0.0033428073,8.873708e-05,-0.0029525836,0.15322891,0.095768064,-9.2703495,0.75755644,47.658226,-0.940864,-2.7241192,-2.9501462,-0.15125826,0.07814856,-0.15088016,28.4375,29.75,28.8125,32.625,35.0625,36.125
0.014053587,-0.5528308,-1.0648782,-1.249337,-0.038626943,0.039086923,-0.017493483,-0.38932452,-0.368685,0.05997582,-3.078609,0.62492687,0.00013711689,-0.0031733532,0.0051717665,-0.0056867036,0.0059873722,-0.010998257,0.00049525686,0.5050168,-1.3816158,1.9042343,-2.0918791,-1.5709013,2.4800205,-0.011730251,0.011473682,-0.0011015562,0.0021471765,8.311493e-05,-0.012223587,0.019153614,0.076614454,-9.270349,0.76874626,47.625084,-0.533441,-3.1576204,-3.1528711,-0.116105214,0.07147737,-0.11082879,28.4375,29.75,28.8125,32.625,35.0625,36.125
0.016054071,-0.820663,-1.219216,-1.3717816,-0.06451836,0.06603741,-0.02896364,-0.3893308,-0.3686864,0.059962142,-3.0786417,0.6249295,2.3950755e-05,-0.005547007,0.0042313677,-0.0034236943,0.0033796504,-0.0063022343,0.007791048,0.50496864,-1.3815799,1.9042205,-2.0918677,-1.5708297,2.4799697,-0.012367234,0.010846369,-0.00541113,0.0017123905,8.135217e-05,-0.02015465,-0.19153614,0.095768064,-9.404425,0.75084364,47.64837,-0.53819907,-3.293795,-2.9581645,-0.09668222,0.07700896,-0.015528942,28.4375,29.75,28.8125,32.625,35.0625,36.125
0.01805396,-1.2737991,-1.3349891,-1.4530345,-0.054932952,0.08126939,-0.05499725,-0.3893367,-0.36866924,0.0599378,-3.0785933,0.6248798,4.4242333e-06,-0.006005725,0.0042640776,-0.0018804475,0.0019367692,-0.0036924595,0.011671693,0.5049565,-1.381533,1.9042205,-2.0918677,-1.5708655,2.4799328,-0.012848643,0.007902835,-0.0054438664,0.0017051168,7.9890844e-05,-0.02451716,-0.51714754,0.1340753,-9.461885,0.7553206,47.704796,-0.76199067,-2.9304852,-3.051452,-0.09533971,0.08415901,-0.0065509854,28.4375,29.75,28.8125,32.625,35.0625,36.125
0.020053571,-1.2678974,-0.6866579,-1.7581114,-0.013923255,0.09064754,-0.07226524,-0.38934553,-0.36868277,0.059960518,-3.0786433,0.62487304,3.487167e-05,-0.004990159,0.005444226,-0.002575412,0.004295507,-0.0079319,0.009040908,0.5049561,-1.381557,1.9041966,-2.0918658,-1.5708417,2.4799218,-0.013883451,0.008112009,-0.0050799362,0.005984275,7.849607e-05,-0.022921747,-0.4405331,0.11492168,-9.500193,0.7866488,47.71465,-0.9156518,-2.7974253,-3.257308,-0.11375305,0.07115008,-0.025134783,28.4375,29.75,28.8125,32.625,35.0625,36.125
0.022053624,-1.6333835,-0.2105732,-1.9945471,0.013609384,0.077314205,-0.09660731,-0.38934854,-0.36866978,0.05993767,-3.0786111,0.62482995,-3.9142993e-05,-0.0057181315,0.006438119,-0.00366182,0.005678529,-0.010432591,0.004127402,0.50493145,-1.381508,1.9041852,-2.0918415,-1.5708417,2.4798744,-0.016237885,0.010764436,-0.005995452,0.007105403,7.7150304e-05,-0.020361999,-0.47884035,0.11492168,-9.749189,0.6971306,47.694946,-0.82552516,-2.8915062,-3.3519406,-0.14265473,0.055107534,-0.053485285,28.4375,29.75,28.8125,32.625,35.0625,36.125
0.024054358,-1.1078972,-0.05999542,-1.7796171,-0.00192517,0.09340238,-0.113488376,-0.3893345,-0.3686447,0.059893053,-3.0785408,0.6248372,-0.0001922225,-0.008480428,0.006016841,-0.0022593902,0.0034534764,-0.006433128,0.00031301196,0.5048949,-1.3814478,1.9042076,-2.0918062,-1.5708297,2.4798512,-0.018113509,0.011498346,-0.0096867215,0.0054865354,7.5849835e-05,-0.018421441,-0.63206923,0.038307227,-9.672575,0.7418897,47.660015,-0.8273751,-2.8595014,-3.3343358,-0.11234921,0.06409673,-0.08754565,28.4375,29.75,28.8125,32.625,35.0625,36.125
0.026053835,-1.278401,-0.5304789,-1.9818075,-0.006546425,0.10325212,-0.12579723,-0.3893598,-0.36866856,0.059909243,-3.0785813,0.62478834,-0.000108291715,-0.00929673,0.0057492065,-0.0026293865,0.0033996704,-0.00634045,-0.00083786104,0.5049188,-1.381423,1.904147,-2.0918305,-1.5708417,2.4798396,-0.018426318,0.013625719,-0.0111939525,0.004759157,7.459256e-05,-0.017582338,-0.80445176,-0.019153614,-9.730036,0.77545905,47.684196,-0.8766177,-2.830017,-3.3521113,-0.07814038,0.04841517,-0.10594961,28.4375,29.75,28.8125,32.625,35.0625,36.125
0.0280541,-1.8373166,-0.710491,-2.0456457,-0.01948583,0.10797195,-0.13311723,-0.38935485,-0.36863634,0.059879117,-3.0785317,0.6248162,-0.0002753238,-0.01012024,0.0058405306,-0.0024636253,0.0031777357,-0.0059462455,-0.0023588235,0.5048466,-1.3813866,1.904159,-2.09177,-1.5708054,2.479791,-0.019350361,0.014352833,-0.012447003,0.0048334314,7.3376184e-05,-0.016984805,-0.8236054,-0.05746084,-9.80665,0.7284641,47.66271,-0.92821634,-2.845324,-3.3442912,-0.097872294,0.037963912,-0.11564194,28.4375,29.75,28.8125,32.625,35.0625,36.125
0.03005388,-1.7037076,-0.8281779,-2.2000833,-0.022835065,0.118797,-0.1466258,-0.3894062,-0.36862546,0.059897862,-3.0785217,0.6248347,-0.00017031193,-0.010522186,0.006284444,-0.0029001487,0.004229588,-0.007843433,-0.004133942,0.5048103,-1.381362,1.904087,-2.0917695,-1.5708536,2.4797676,-0.020472141,0.016116524,-0.013976524,0.006767822,7.219889e-05,-0.01633076,-0.80445176,-0.28730422,-9.864111,0.7709874,47.696735,-0.9712192,-2.814948,-3.3359547,-0.10965725,0.042477954,-0.14943194,28.4375,29.75,28.8125,32.625,35.0625,36.125
0.032053594,-1.7374231,-0.8477543,-2.1169767,-0.007871061,0.1164114,-0.14961347,-0.3894127,-0.36859062,0.059861705,-3.0784664,0.62488115,-0.00028193853,-0.010572204,0.006781318,-0.002735441,0.004762885,-0.008804662,-0.0039219153,0.5047381,-1.381314,1.9041098,-2.091757,-1.5708417,2.4797313,-0.021354312,0.015867414,-0.014475881,0.0086155925,7.1058785e-05,-0.017424993,-0.7852981,-0.076614454,-9.902418,0.8112748,47.71554,-0.95694315,-2.7839723,-3.3048873,-0.11616949,0.04396707,-0.15414676,28.4375,29.75,28.8125,32.625,35.0625,36.125
0.034054402,-1.6122277,-0.864984,-2.1092424,0.011495161,0.105935484,-0.16026768,-0.38945228,-0.3686001,0.05988948,-3.0785148,0.62489015,-0.00025065584,-0.011529495,0.0068036565,-0.0028531132,0.004514225,-0.008346518,-0.0036895424,0.50470185,-1.3813015,1.9040264,-2.0917332,-1.5708174,2.4796946,-0.02228107,0.017229425,-0.015659567,0.007916318,6.3063206e-05,-0.018583331,-0.7086837,0.019153614,-9.787497,0.7866488,47.696735,-1.0292159,-2.840478,-3.3733766,-0.10715516,0.030155733,-0.17072669,28.4375,29.75,28.8125,32.625,35.0625,36.125
0.036053743,-1.4721684,-0.58346003,-2.0603144,0.012431467,0.09649998,-0.17989618,-0.38945577,-0.3685783,0.05985127,-3.0784328,0.62493116,-0.00032478973,-0.0130652385,0.0074337623,-0.0022021946,0.0036018947,-0.0066914833,-0.0045002187,0.50467706,-1.3812296,1.9040259,-2.0917218,-1.5708417,2.4797058,-0.024772566,0.016853074,-0.016557211,0.007299803,5.5570283e-05,-0.020263772,-0.59376204,0.019153614,-9.864111,0.85826975,47.694054,-0.94010633,-2.7589345,-3.3656406,-0.097443126,0.013139959,-0.18850258,28.4375,29.75,28.8125,32.625,35.0625,36.125
0.03805366,-1.5846703,-0.75840795,-2.044834,0.01163945,0.077913836,-0.18566786,-0.3895022,-0.36856797,0.059884693,-3.0784707,0.6249782,-0.00023906009,-0.014547579,0.007930434,-0.0019574969,0.0030816426,-0.0057298844,-0.0050201295,0.50461626,-1.3812534,1.9039778,-2.0917218,-1.5708417,2.4796696,-0.026984232,0.017560827,-0.01783093,0.0067722998,4.2509877e-05,-0.02195481,-0.5363012,0.019153614,-9.672575,0.79560274,47.699425,-0.89344084,-2.780168,-3.355205,-0.082447134,0.012420505,-0.18188503,28.4375,29.75,28.8125,32.625,35.0625,36.125
0.040054314,-1.2206924,-0.7333348,-1.877596,0.00087784237,0.070551306,-0.19794635,-0.38952672,-0.36856648,0.059858285,-3.0784678,0.6250162,-0.00031878043,-0.015636051,0.007936925,-0.0014568714,0.002712172,-0.0049784677,-0.005263856,0.5045681,-1.3811691,1.903941,-2.0917337,-1.5708054,2.4796455,-0.027983906,0.018216556,-0.01987081,0.007320937,-1.8538022e-06,-0.0227098,-0.51714754,-0.038307227,-9.653421,0.78217715,47.694054,-0.95321447,-2.7580419,-3.338148,-0.07499987,0.007107675,-0.21284887,28.4375,29.75,28.8125,32.625,35.0625,36.125
0.042054065,-0.8733799,-1.1115054,-1.8999422,0.0018523657,0.068228535,-0.21736753,-0.38954553,-0.36853042,0.05984793,-3.078417,0.6249286,-0.00032608362,-0.016499167,0.008042733,-0.0006136824,0.0021356144,-0.0038254345,-0.004834686,0.50451994,-1.3811452,1.9039282,-2.0916975,-1.5708536,2.4795492,-0.028932966,0.017672725,-0.021303134,0.00800791,-5.791529e-05,-0.0240875,-0.3256114,-0.019153614,-9.710882,0.78217715,47.675243,-0.86429536,-2.7359848,-3.3253057,-0.074939325,0.009386854,-0.2207862,28.4375,29.75,28.8125,32.625,35.0625,36.125
0.044053603,-0.53555924,-1.1104435,-1.9647027,0.002237455,0.070041865,-0.21812093,-0.38960916,-0.36852005,0.059874836,-3.0784338,0.6250455,-0.0002819556,-0.016954355,0.008682069,-0.0011196518,0.002626989,-0.0046630804,-0.0044193636,0.50443554,-1.3811209,1.9038328,-2.0916736,-1.5708417,2.4795356,-0.03041517,0.018626874,-0.021277674,0.007999207,-8.312469e-05,-0.02598484,-0.2873042,-0.019153614,-9.730036,0.784413,47.709274,-0.9060619,-2.7412362,-3.2916725,-0.08291276,-0.005157359,-0.22245693,28.4375,29.75,28.8125,32.625,35.0625,36.125
0.04605368,-0.90239006,-0.78024197,-1.8110017,-0.013861247,0.04939391,-0.20676407,-0.38963044,-0.3685003,0.05986415,-3.0784197,0.6250427,-0.0003374544,-0.01848658,0.009261868,-0.0006678236,0.0023023395,-0.0040451167,-0.0042728996,0.5043749,-1.3810847,1.903809,-2.0916498,-1.5708297,2.479475,-0.032809615,0.019260405,-0.023185989,0.008576122,-0.000102624355,-0.028524892,-0.1340753,-0.05746084,-9.691729,0.7709874,47.70211,-0.8760797,-2.6580796,-3.2834246,-0.087334335,0.0005688083,-0.23463476,28.4375,29.75,28.8125,32.625,35.0625,36.125
0.048053365,-0.08698772,-0.8975006,-1.652916,-0.01651102,0.055034295,-0.19289525,-0.38968202,-0.36846715,0.059859324,-3.078388,0.6251121,-0.00033952462,-0.020233698,0.009630723,0.00048396375,0.002098088,-0.0017128385,-0.0034096108,0.50427866,-1.3810368,1.9037603,-2.091637,-1.5708421,2.4794261,-0.03446386,0.0190345,-0.025670828,0.009148983,-0.0010566072,-0.031039715,-0.13407528,0.095768064,-9.595961,0.71279734,47.694946,-0.83871007,-2.7218738,-3.226011,-0.06770593,0.008071723,-0.22412127,28.4375,29.75,28.8125,32.625,35.0625,36.125
0.05005406,0.3052656,-0.94452417,-1.9563371,-0.01168104,0.054581724,-0.18714382,-0.38973403,-0.36846003,0.05987226,-3.0784109,0.6251175,-0.0002965715,-0.02122487,0.010309418,0.00019666874,0.002344837,-0.0019030808,-0.003916133,0.5042181,-1.3810003,1.9036878,-2.091637,-1.5708421,2.479366,-0.036450356,0.020147406,-0.026284618,0.00893583,-0.0011821591,-0.032519046,-0.038307227,0.17238252,-9.519346,0.7732232,47.701214,-0.80397975,-2.6256497,-3.1810696,-0.0664985,-0.0042250813,-0.23945397,28.4375,29.75,28.8125,32.625,35.0625,36.125
0.052053876,0.4341785,-0.57353055,-1.7048763,-0.027591765,0.045928072,-0.19590867,-0.38978955,-0.3684059,0.059878428,-3.0783658,0.6251663,-0.00027371288,-0.022606345,0.011023701,0.00037028044,0.002113536,-0.0015661357,-0.004973108,0.50409746,-1.380988,1.9036511,-2.0916011,-1.5708779,2.4792817,-0.038961943,0.020839954,-0.027531456,0.009081664,-0.001146018,-0.03397311,0.0,0.15322891,-9.557653,0.8493211,47.64479,-0.7662852,-2.6577058,-3.262537,-0.07226502,-0.017375946,-0.24551249,28.4375,29.75,28.8125,32.625,35.0625,36.125
0.05405386,0.21534535,-1.2898501,-1.6742787,-0.015405813,0.039981492,-0.18075095,-0.38983327,-0.36841324,0.059883717,-3.0783935,0.6251505,-0.00025862062,-0.02267343,0.011133538,0.00034759112,0.0023404257,-0.0017458112,-0.0037665032,0.50406146,-1.3809279,1.9035681,-2.0916011,-1.570866,2.4792323,-0.039136253,0.020984683,-0.027723303,0.00939624,-0.0012573997,-0.03535378,0.076614454,0.17238252,-9.461885,0.7642693,47.692257,-0.7544309,-2.6164408,-3.3306813,-0.06538213,-0.0076996735,-0.2595603,28.4375,29.75,28.8125,32.625,35.0625,36.125
0.056054,-0.036981653,-1.0531206,-1.6978371,-0.01878149,0.03502241,-0.17891558,-0.3898577,-0.36837697,0.059855603,-3.078348,0.6251407,-0.00034458068,-0.023328556,0.010917147,0.0006960883,0.0019873865,-0.0010774281,-0.0027173012,0.5039776,-1.3808676,1.9035553,-2.0915768,-1.570866,2.4791481,-0.03937002,0.021514282,-0.02918318,0.009570497,-0.0012771171,-0.03663596,0.05746084,0.21068975,-9.461885,0.7530795,47.668976,-0.9207418,-2.626917,-3.2996893,-0.062459126,-0.007082768,-0.27115804,28.4375,29.75,28.8125,32.625,35.0625,36.125
0.0580536,0.20633908,-1.106243,-1.6080079,-0.009928099,0.04945801,-0.17455916,-0.38996696,-0.36838004,0.05990981,-3.0784435,0.6251795,-0.00015852082,-0.025127953,0.011533255,0.00092747,0.001670165,-0.000581303,-0.0038159052,0.5038808,-1.3808432,1.9034113,-2.091613,-1.570866,2.4790635,-0.04210225,0.022858799,-0.031353083,0.009807726,-0.0012379659,-0.038268782,0.095768064,0.19153613,-9.385271,0.7620334,47.642998,-0.789132,-2.587174,-3.2019377,-0.055352964,-0.031523988,-0.28774926,28.4375,29.75,28.8125,32.625,35.0625,36.125
0.06005339,-0.4607313,-0.57711494,-1.7543709,-0.016631423,0.024685089,-0.1752381,-0.38996646,-0.36835274,0.0598739,-3.0784,0.6251323,-0.00031249961,-0.025728866,0.012231516,0.0009897485,0.0023550265,-0.0015323083,-0.004105685,0.50382036,-1.380783,1.9034108,-2.0915644,-1.5708421,2.478979,-0.043748785,0.023384297,-0.03252859,0.011622375,-0.0013816897,-0.039624766,0.019153614,0.15322891,-9.32781,0.7463667,47.684196,-0.80906856,-2.5982342,-3.2147858,-0.04726156,-0.028656453,-0.28042626,28.4375,29.75,28.8125,32.625,35.0625,36.125
0.0620541,-0.2507567,-0.9837202,-1.6399982,-0.00660107,0.03243842,-0.18220429,-0.3899919,-0.3683222,0.059874553,-3.0783818,0.62505126,-0.00031734997,-0.026046952,0.012576845,0.0011316153,0.0024693988,-0.0018980431,-0.0043043704,0.5037601,-1.380771,1.903387,-2.0915282,-1.570866,2.4788706,-0.04467233,0.023401307,-0.033076864,0.012527723,-0.001305796,-0.040349603,0.0,0.11492168,-9.32781,0.7284641,47.64658,-0.79015684,-2.5435185,-3.1648731,-0.06703096,-0.029973518,-0.31301323,28.4375,29.75,28.8125,32.625,35.0625,36.125
0.06405363,0.3971911,-0.25245738,-1.4051634,-0.027082304,0.055958252,-0.19205652,-0.3900721,-0.36828125,0.05985707,-3.0783365,0.62523276,-0.00033314465,-0.026396405,0.012898779,0.00088177604,0.0027669528,-0.0025937872,-0.0021484084,0.5036163,-1.3806746,1.9033154,-2.09154,-1.570866,2.4788458,-0.045578834,0.024213867,-0.03356887,0.01295917,-0.0012329386,-0.04341191,-0.076614454,0.19153613,-9.385271,0.7486078,47.62419,-0.80401975,-2.5798643,-3.2219315,-0.07846695,-0.028598957,-0.30567038,28.4375,29.75,28.8125,32.625,35.0625,36.125
0.06605398,-0.25025755,-0.6938531,-1.5698956,-0.01139401,0.059626058,-0.17161976,-0.3901309,-0.3682637,0.05989108,-3.0783668,0.62516165,-0.00030461285,-0.027157063,0.013287179,0.00091496995,0.0027234305,-0.0027411703,-0.0020884657,0.5035319,-1.3806623,1.9032072,-2.091468,-1.570866,2.4787133,-0.04700438,0.024859687,-0.034495942,0.013347765,-0.0011246718,-0.04489719,-0.1340753,0.11492168,-9.32781,0.7933669,47.70211,-0.7738875,-2.5724978,-3.241969,-0.073985845,-0.04643405,-0.31797752,28.4375,29.75,28.8125,32.625,35.0625,36.125
0.06805374,-0.5537972,-0.716164,-1.6314188,-0.0074495184,0.06807863,-0.1759407,-0.39019054,-0.36824223,0.059900228,-3.0783572,0.6251988,-0.0002796616,-0.028174745,0.013605506,0.0010956712,0.002559938,-0.0025904917,-0.0039390307,0.5034476,-1.3806139,1.9031237,-2.0914438,-1.5708779,2.4786534,-0.048526846,0.02566869,-0.035966624,0.01379777,-0.001056012,-0.044568554,-0.17238252,0.1340753,-9.3661175,0.7642693,47.694054,-0.8435891,-2.4942164,-3.2268524,-0.064394146,-0.043759752,-0.34238046,28.4375,29.75,28.8125,32.625,35.0625,36.125
0.07005364,-0.9974893,-0.77411085,-1.4684249,-0.0032140384,0.070397094,-0.17632946,-0.39024803,-0.3682242,0.059894685,-3.0783617,0.62517804,-0.00027964584,-0.028933631,0.013759903,0.0012602619,0.0025495342,-0.0025564965,-0.0011023754,0.50336355,-1.3805417,1.9030508,-2.0914433,-1.5708779,2.478556,-0.04948227,0.026444176,-0.03740109,0.014421227,-0.0010667249,-0.048359975,-0.24899697,0.076614454,-9.346964,0.75084364,47.71286,-0.9119888,-2.5807562,-3.2165766,-0.09023969,-0.07290649,-0.35864037,28.4375,29.75,28.8125,32.625,35.0625,36.125
0.072054215,-1.0382113,-0.2643528,-1.4572171,-0.0046048593,0.0791243,-0.17715146,-0.39027363,-0.36820555,0.05987334,-3.0783591,0.62513894,-0.00041444716,-0.030342342,0.014913545,0.001005607,0.0025502096,-0.0026190241,-0.0012682966,0.5032785,-1.3804693,1.9030031,-2.091396,-1.5708302,2.4784467,-0.052748132,0.027310986,-0.037741993,0.01395214,-0.0010442032,-0.051459562,-0.24899697,0.076614454,-9.3661175,0.7351769,47.70032,-0.69724864,-2.5179045,-3.2218606,-0.07667428,-0.060472295,-0.32498777,28.4375,29.75,28.8125,32.625,35.0625,36.125
0.07405382,-1.3613876,-0.7204885,-1.5350676,0.010580302,0.077390976,-0.1692564,-0.3903775,-0.36816567,0.05992126,-3.078371,0.6250793,-0.00024199052,-0.030428708,0.014090731,0.0010068588,0.002406063,-0.0022733132,0.00532339,0.5031592,-1.3804568,1.902871,-2.0913599,-1.5709018,2.478289,-0.051408436,0.028509803,-0.03911667,0.0137509145,-0.0010861832,-0.05671079,-0.40222588,0.038307227,-9.32781,0.7665104,47.701214,-0.8306209,-2.5224252,-3.207983,-0.10428673,-0.08610311,-0.31261474,28.4375,29.75,28.8125,32.625,35.0625,36.125
0.07605321,-1.095675,-0.31266865,-1.2895994,0.0023590683,0.08537979,-0.17642595,-0.3904545,-0.3681429,0.05992478,-3.0783978,0.62512463,-0.00026397937,-0.03128845,0.0146519225,0.001113811,0.0023869157,-0.0022470453,0.0039157076,0.5030268,-1.3803847,1.9027752,-2.0913484,-1.570866,2.4781814,-0.053147227,0.028902834,-0.039910648,0.014121452,-0.0010827837,-0.057041574,-0.47884035,-0.05746084,-9.3661175,0.7978386,47.670765,-0.9203216,-2.5220165,-3.254241,-0.08639444,-0.088174,-0.2927649,28.4375,29.75,28.8125,32.625,35.0625,36.125
0.07805406,-1.146684,-0.3822079,-1.3638542,0.0062967385,0.08145674,-0.17209935,-0.39049333,-0.3681109,0.05989457,-3.078381,0.6251572,-0.00039959283,-0.031985737,0.01529572,0.0008969836,0.002899704,-0.0030787669,0.005460547,0.5029067,-1.3803002,1.9027385,-2.091324,-1.5708178,2.4780836,-0.054842044,0.029897228,-0.040791437,0.014986175,-0.0011370281,-0.06028063,-0.45968673,0.038307227,-9.346964,0.800085,47.683304,-0.8610053,-2.4846787,-3.2063627,-0.09801756,-0.09716959,-0.29154393,28.4375,29.75,28.8125,32.625,35.0625,36.125
0.080053724,-1.2134894,-0.7446733,-1.6541,0.016638752,0.07871239,-0.16651158,-0.39054045,-0.36807305,0.059896946,-3.078361,0.6250366,-0.00039249175,-0.033386726,0.016529491,0.0006887484,0.0034176612,-0.0035213707,0.0070378026,0.5028217,-1.3802639,1.9026793,-2.0912764,-1.5708541,2.477926,-0.05806603,0.030959181,-0.04167843,0.015446509,-0.0013824976,-0.06508089,-0.40222588,0.019153614,-9.346964,0.77545905,47.68599,-0.7255212,-2.5566738,-3.264833,-0.119495794,-0.11076553,-0.24683242,28.4375,29.75,28.8125,32.625,35.0625,36.125
0.0820536,-0.83929557,-0.5056105,-1.34304,0.009154838,0.087712534,-0.17031911,-0.3906402,-0.36804157,0.059921317,-3.078363,0.6250913,-0.00031142603,-0.033171352,0.0156975,0.0010241426,0.0031551209,-0.0027965226,0.012707854,0.5026907,-1.3802037,1.9025472,-2.091252,-1.5708779,2.477829,-0.056379024,0.031058274,-0.042566013,0.015471348,-0.0015026962,-0.0690634,-0.47884035,-0.076614454,-9.461885,0.8112748,47.705692,-0.8100784,-2.4587784,-3.2394753,-0.1123251,-0.11676049,-0.21506211,28.4375,29.75,28.8125,32.625,35.0625,36.125
0.08405338,-1.0587151,-0.7200866,-1.6045529,0.008727102,0.08562083,-0.1699478,-0.39065948,-0.368018,0.059886523,-3.0783467,0.62491345,-0.00046482307,-0.03434432,0.016073328,0.001285968,0.003158327,-0.0019885679,0.014534731,0.50261813,-1.3801075,1.9024991,-2.0911925,-1.5708541,2.4776475,-0.057848893,0.03172963,-0.043963682,0.015493679,-0.0019071633,-0.07235852,-0.4405331,-0.15322891,-9.404425,0.7642693,47.694946,-0.95875216,-2.4930127,-3.2300465,-0.1322169,-0.1189256,-0.15400079,28.4375,29.75,28.8125,32.625,35.0625,36.125
0.08605374,-0.8723534,-0.5594315,-1.628909,0.004400407,0.0947459,-0.17326066,-0.3907656,-0.36797476,0.05989941,-3.078366,0.6249165,-0.00036994417,-0.035213012,0.016908925,0.0007307504,0.0035142484,-0.0023344446,0.015244293,0.50246173,-1.3800471,1.9024037,-2.0912163,-1.5708784,2.4774907,-0.059961565,0.032863807,-0.043872945,0.014741292,-0.002051638,-0.07518037,-0.36391866,0.0,-9.308657,0.7978386,47.709274,-0.88348335,-2.5185876,-3.2471814,-0.14580141,-0.10029581,-0.13850291,28.4375,29.75,28.8125,32.625,35.0625,36.125
0.088054284,-0.50795287,-0.31671458,-1.5603771,-0.0042453324,0.090823695,-0.1823352,-0.39085582,-0.36795166,0.05993496,-3.078383,0.62493724,-0.00027451615,-0.036897328,0.016680991,0.0011785708,0.0034215867,-0.00088211126,0.016432952,0.5023538,-1.3800104,1.9022712,-2.09118,-1.5709022,2.4773936,-0.0607472,0.034749106,-0.047136232,0.0148016475,-0.0026733973,-0.077152,-0.2681506,0.0,-9.3661175,0.78217715,47.71465,-0.9475032,-2.5202894,-3.2237349,-0.15069829,-0.11982079,-0.08571606,28.4375,29.75,28.8125,32.625,35.0625,36.125
0.09005407,-0.7038344,-0.44355294,-1.5972195,-0.008525234,0.07546961,-0.18330242,-0.39092043,-0.3679301,0.05993066,-3.078401,0.62480646,-0.00028915476,-0.037555702,0.017122183,0.00083486043,0.00407624,-0.00084716006,0.016465388,0.50225765,-1.379926,1.9021758,-2.0911567,-1.5709027,2.4772136,-0.061723784,0.03584861,-0.047571626,0.014423755,-0.0032674717,-0.07815948,-0.22984336,0.038307227,-9.423578,0.8179876,47.71554,-0.99861854,-2.5794609,-3.1953144,-0.14686656,-0.113386035,-0.07346468,28.4375,29.75,28.8125,32.625,35.0625,36.125
0.09205354,-1.2577467,-0.9225935,-1.6495087,0.00013055146,0.057669125,-0.17033115,-0.39098775,-0.36787012,0.0599207,-3.0783575,0.62481576,-0.00033524825,-0.037183627,0.018177152,-9.278468e-05,0.0061075725,-0.0022719668,0.015485959,0.5021018,-1.3798656,1.9021162,-2.0911086,-1.5709151,2.4770691,-0.062462542,0.036280293,-0.046031084,0.014680711,-0.0043625473,-0.07791712,-0.21068975,-0.019153614,-9.481039,0.81351066,47.686886,-0.9842334,-2.5537899,-3.3365772,-0.16499785,-0.13279992,-0.05207584,28.4375,29.75,28.8125,32.625,35.0625,36.125
0.09405358,0.08099938,-0.717666,-1.6061608,-0.0060534454,0.08308759,-0.17654115,-0.3910803,-0.36783716,0.059929997,-3.0783744,0.6248206,-0.00035970434,-0.039209213,0.018419469,0.000927449,0.0062771672,0.0006596869,0.013638135,0.5019457,-1.3797814,1.9019846,-2.0910609,-1.5708917,2.476914,-0.06376401,0.03679165,-0.04894121,0.014598068,-0.0059288302,-0.07736647,-0.28730422,0.15322891,-9.442732,0.7553206,47.701214,-1.0200843,-2.5542364,-3.275188,-0.1572711,-0.10520285,-0.059926525,28.4375,29.75,28.8125,32.625,35.0625,36.125
0.096053705,-0.3184922,-0.8783737,-1.8241,-0.0024306355,0.06681675,-0.17051928,-0.39116195,-0.36779037,0.059939783,-3.0783665,0.62476146,-0.00030829894,-0.040462717,0.018688992,0.001253338,0.0071786246,0.0019750916,0.011918375,0.50181365,-1.3797331,1.9018997,-2.0910366,-1.570928,2.476746,-0.06448367,0.037863772,-0.051016767,0.014883785,-0.0073546586,-0.07636272,-0.21068975,0.095768064,-9.404425,0.75755644,47.70659,-1.0264566,-2.4694874,-3.2613504,-0.16821449,-0.104266986,-0.0693158,28.4375,29.75,28.8125,32.625,35.0625,36.125
0.098053746,-0.29235378,-0.9807291,-1.8139877,-0.004867152,0.0659426,-0.16763622,-0.39121646,-0.36775586,0.059908774,-3.078339,0.624698,-0.0003787877,-0.042176414,0.019351117,0.0013072314,0.009578565,0.0039016777,0.009609648,0.5017057,-1.3796241,1.9018387,-2.0910246,-1.5709294,2.476602,-0.06528829,0.039814327,-0.05343828,0.014830387,-0.01039479,-0.07485086,-0.17238252,0.15322891,-9.423578,0.7553206,47.694054,-1.0738953,-2.6022582,-3.1748996,-0.18050686,-0.030441176,-0.0953668,28.4375,29.75,28.8125,32.625,35.0625,36.125
0.10005353,-0.624048,-0.98322046,-1.8067889,-0.013349193,0.061309554,-0.16791774,-0.39129633,-0.3677148,0.059926346,-3.0783212,0.6246002,-0.00035838532,-0.04210079,0.02144311,0.0004895554,0.012996253,0.0028041375,0.0058734226,0.5015853,-1.3795644,1.901709,-2.0909407,-1.5709661,2.476423,-0.067193255,0.039475404,-0.051378835,0.015721053,-0.012857446,-0.07301552,-0.15322891,0.21068975,-9.385271,0.8224646,47.711063,-1.0895953,-2.5706375,-3.2935429,-0.19191597,-0.017736405,-0.1111865,28.4375,29.75,28.8125,32.625,35.0625,36.125
0.10205343,0.13887529,-0.9712145,-1.7857372,-0.02499549,0.07957131,-0.16723664,-0.3913943,-0.36767614,0.05993208,-3.0783324,0.6246606,-0.00031652563,-0.04310725,0.02154906,0.00055981684,0.013232941,0.0028312395,0.003645874,0.50142926,-1.3794918,1.9016126,-2.0909522,-1.5709661,2.4763033,-0.0681551,0.040966194,-0.053459108,0.016399717,-0.013078378,-0.07174883,-0.019153614,0.21068975,-9.481039,0.82694155,47.686886,-1.1205883,-2.4552634,-3.3464332,-0.20525871,0.017459327,-0.16280995,28.4375,29.75,28.8125,32.625,35.0625,36.125
0.10405424,-0.4022066,-1.54162,-1.8788669,-0.03081702,0.050048053,-0.16038226,-0.39147198,-0.36764097,0.05992891,-3.0783145,0.6246385,-0.00036092586,-0.043799747,0.021116858,0.00079091714,0.010610761,0.0016718344,0.00090847106,0.501297,-1.3793951,1.901492,-2.0908926,-1.5709647,2.4761596,-0.06983684,0.041819893,-0.055126317,0.016958062,-0.010226487,-0.07069765,0.11492168,0.22984336,-9.404425,0.7933669,47.70211,-1.0850226,-2.6076996,-3.234405,-0.21960558,-0.023281628,-0.17463851,28.4375,29.75,28.8125,32.625,35.0625,36.125
0.10605386,0.42192468,-1.580712,-1.9368954,-0.046751477,0.04876371,-0.16004704,-0.39157104,-0.3675826,0.059903253,-3.0782466,0.62464464,-0.00039725227,-0.04440982,0.020517588,0.000709372,0.0073966766,0.00023196237,-0.0015783185,0.50112873,-1.3792509,1.9013714,-2.0908563,-1.571,2.476004,-0.07156376,0.043045957,-0.056325044,0.016632637,-0.0067236116,-0.069943674,-0.076614454,0.2681506,-9.289502,0.78217715,47.692257,-1.0596769,-2.5618718,-3.2419343,-0.20533067,-0.03095207,-0.22486797,28.4375,29.75,28.8125,32.625,35.0625,36.125
0.10805348,0.14612381,-1.8007916,-2.0425656,-0.04822094,0.026430622,-0.163224,-0.39163432,-0.3675332,0.059889384,-3.0782015,0.6246147,-0.00040616738,-0.044875562,0.020169906,0.0011798262,0.004938983,6.819344e-05,-0.0006426109,0.50100857,-1.3791788,1.9013122,-2.0908325,-1.5710348,2.4758708,-0.07278998,0.042759966,-0.057052962,0.016597599,-0.004495278,-0.07210978,-0.05746084,0.24899697,-9.404425,0.80679786,47.674347,-1.1196141,-2.5506077,-3.2382817,-0.22908986,-0.06472759,-0.23853704,28.4375,29.75,28.8125,32.625,35.0625,36.125
0.11005344,0.21156162,-1.4571689,-2.0635006,-0.04675805,0.032005895,-0.1535195,-0.39173383,-0.36751676,0.059913334,-3.078254,0.6245485,-0.0003361875,-0.045424532,0.020036973,0.00024236973,0.0048305336,-0.0014052462,-0.0020810156,0.5008886,-1.3791058,1.9011687,-2.0908206,-1.5710348,2.475703,-0.07356187,0.045599602,-0.058175143,0.01611727,-0.003691831,-0.07144421,0.019153614,0.19153613,-9.423578,0.7709874,47.66808,-1.1513611,-2.5577688,-3.308926,-0.22695164,-0.063640766,-0.26086262,28.4375,29.75,28.8125,32.625,35.0625,36.125
0.112054005,0.13981324,-1.1193117,-1.8923053,-0.03331313,0.0503823,-0.16328244,-0.39181736,-0.36747456,0.05992152,-3.0782404,0.6245851,-0.00037661206,-0.046634413,0.020220501,0.00053338934,0.0046647238,-0.00013913646,-0.003971743,0.50073266,-1.3790333,1.9010481,-2.090749,-1.5710229,2.4755716,-0.07468691,0.04633794,-0.05960066,0.015616443,-0.0041602566,-0.07067674,-0.019153614,0.22984336,-9.385271,0.8627467,47.674347,-1.1948057,-2.6289773,-3.2598057,-0.23567264,-0.07247551,-0.30873555,28.4375,29.75,28.8125,32.625,35.0625,36.125
0.11405422,-0.5602103,-0.81241876,-1.8088236,-0.023854235,0.0609694,-0.164454,-0.39193854,-0.36743423,0.05993113,-3.0782683,0.6246073,-0.00031874015,-0.047426425,0.020681009,0.001707026,0.004146314,0.0013362427,-0.0021955366,0.5005525,-1.378938,1.900916,-2.090761,-1.5710229,2.4754019,-0.076018155,0.044643335,-0.060508788,0.016675226,-0.00441167,-0.073783904,-0.11492168,0.21068975,-9.404425,0.81351066,47.66271,-1.1981525,-2.5385363,-3.2703266,-0.24796912,-0.08213739,-0.33942404,28.4375,29.75,28.8125,32.625,35.0625,36.125
0.11605379,0.2185128,-0.6129392,-1.9564699,-0.016466962,0.08480231,-0.17368238,-0.39203942,-0.36739072,0.05994149,-3.0782442,0.62462384,-0.0002688938,-0.048527535,0.021282323,0.0014092532,0.004403531,0.00072739506,-0.006877604,0.50040835,-1.3788532,1.9007839,-2.0907247,-1.5710591,2.4752712,-0.07807644,0.046269257,-0.061841235,0.017036777,-0.004345201,-0.07115955,-0.076614454,0.15322891,-9.423578,0.8157518,47.658226,-1.2719185,-2.4363508,-3.2521696,-0.24997452,-0.07055449,-0.37995917,28.4375,29.75,28.8125,32.625,35.0625,36.125
0.11805361,-0.32445398,-0.44324583,-1.813945,-0.018957779,0.075519316,-0.16881613,-0.39211926,-0.36736506,0.059922136,-3.0782535,0.62454784,-0.00034016997,-0.048849404,0.021659404,0.0010059632,0.0047841705,-0.0006103256,-0.007117182,0.50027597,-1.3787208,1.9006656,-2.0907004,-1.5710348,2.4750903,-0.07918548,0.047457445,-0.062530614,0.01789411,-0.004040465,-0.0720291,-0.15322891,0.1340753,-9.385271,0.82694155,47.677036,-1.1344862,-2.53566,-3.2669463,-0.2609465,-0.08317732,-0.45452997,28.4375,29.75,28.8125,32.625,35.0625,36.125
0.12005362,-0.59824437,-0.7073155,-1.6280034,-0.01564361,0.06565281,-0.16036133,-0.39222822,-0.36732715,0.059940767,-3.0782604,0.6246432,-0.00035081911,-0.049152248,0.021469545,6.852139e-05,0.005863548,-0.0019787152,-0.0036334083,0.50009644,-1.3786356,1.9005088,-2.0906403,-1.571011,2.4749694,-0.07894492,0.050462853,-0.06400156,0.018079136,-0.004335756,-0.07527072,-0.21068975,0.11492168,-9.3661175,0.8157518,47.701214,-1.3180609,-2.6088839,-3.2982771,-0.2777261,-0.092375904,-0.45746583,28.4375,29.75,28.8125,32.625,35.0625,36.125
0.12205348,0.09313778,-0.38051826,-1.7437038,-0.017080553,0.08500932,-0.17261404,-0.39233693,-0.36727276,0.059962634,-3.078237,0.62469596,-0.00028520345,-0.05169141,0.023547111,0.0009926955,0.0061478773,0.0007928213,-0.0045942925,0.49992716,-1.378576,1.9003776,-2.0905926,-1.5710477,2.474836,-0.08378643,0.049264796,-0.064566955,0.017547531,-0.005917368,-0.079148196,-0.3256114,0.05746084,-9.404425,0.7329411,47.686886,-1.2279837,-2.5379062,-3.25557,-0.2926879,-0.07571159,-0.45004356,28.4375,29.75,28.8125,32.625,35.0625,36.125
0.12405363,-1.0821483,-0.8463162,-1.828253,0.0064524505,0.071581304,-0.15686332,-0.3924318,-0.3672444,0.059943948,-3.0782585,0.62463623,-0.0002970151,-0.051678564,0.022824865,0.0018782862,0.0067855176,0.0030020413,0.0048854565,0.49978447,-1.3784441,1.9002694,-2.0906165,-1.5710362,2.4746535,-0.08152952,0.04861031,-0.06589163,0.017896915,-0.0075419783,-0.086367406,-0.34476504,0.019153614,-9.519346,0.8090337,47.672558,-1.3373866,-2.469326,-3.3149207,-0.28739256,-0.07726602,-0.44029492,28.4375,29.75,28.8125,32.625,35.0625,36.125
0.12605391,-0.6161731,-0.31624016,-1.7023705,0.014357578,0.10278582,-0.16711505,-0.3925335,-0.36718836,0.059939463,-3.078238,0.62457263,-0.00032832887,-0.053417664,0.023899738,0.001517065,0.007936369,0.0029849838,0.0068837246,0.4996038,-1.3783354,1.9001373,-2.0905569,-1.5710486,2.4744358,-0.08429958,0.050777346,-0.067684,0.018088229,-0.008553404,-0.091132365,-0.3256114,-0.038307227,-9.423578,0.800085,47.709274,-1.2737159,-2.4983504,-3.2685838,-0.28661266,-0.054457195,-0.4016639,28.4375,29.75,28.8125,32.625,35.0625,36.125
0.1280538,-1.1977004,-0.27167106,-1.61483,0.025737107,0.10493612,-0.15535611,-0.39261755,-0.36714625,0.059926298,-3.0782392,0.62449247,-0.00038687026,-0.053762242,0.02489942,0.0009734689,0.00873027,0.0012591003,0.011251765,0.49944746,-1.3782269,1.9000305,-2.0905206,-1.5710362,2.4742293,-0.08636286,0.05157737,-0.067636676,0.01913339,-0.008428727,-0.09756363,-0.34476504,-0.038307227,-9.308657,0.8224646,47.70211,-1.2770662,-2.5193102,-3.3368745,-0.30528975,-0.04695788,-0.36098176,28.4375,29.75,28.8125,32.625,35.0625,36.125
0.13005425,-0.6304218,0.19097096,-1.6546277,0.020903537,0.1236625,-0.15719195,-0.39273793,-0.36707088,0.059919965,-3.0781803,0.6245717,-0.0003774444,-0.056162294,0.023669936,0.0028648875,0.0059467684,0.004903189,0.01820915,0.4992319,-1.3781185,1.8999084,-2.0904844,-1.5710725,2.4740708,-0.08691212,0.05229286,-0.07276362,0.019002313,-0.007748592,-0.10506934,-0.4405331,-0.076614454,-9.32781,0.7530795,47.70838,-1.3849157,-2.4621212,-3.06003,-0.32276902,-0.064477146,-0.2785652,28.4375,29.75,28.8125,32.625,35.0625,36.125
0.13205415,-0.8243577,-0.24145932,-1.7519107,0.023567839,0.11823273,-0.17069252,-0.39286074,-0.3670288,0.05993097,-3.078188,0.62447697,-0.00034128802,-0.05664249,0.025948001,0.0015490693,0.0073956186,0.002698464,0.018785728,0.49906248,-1.3779982,1.8997301,-2.0904367,-1.5710963,2.4738414,-0.09103361,0.052818533,-0.07031946,0.018656896,-0.007962574,-0.10976792,-0.49799395,-0.076614454,-9.346964,0.84708,47.67345,-1.1495486,-2.4889975,-3.250176,-0.2891721,-0.046423286,-0.24100846,28.4375,29.75,28.8125,32.625,35.0625,36.125
0.13405412,-0.6042549,-0.28053847,-1.4688243,0.004465318,0.119544506,-0.1720418,-0.3929698,-0.3669823,0.059947807,-3.0782416,0.62429076,-0.00031336574,-0.0568601,0.024783865,0.0020482116,0.0064778267,0.003351646,0.024235075,0.49888355,-1.377926,1.899598,-2.0904005,-1.5710963,2.4735396,-0.089558735,0.053673282,-0.072553046,0.01901831,-0.0074731535,-0.113742605,-0.53630114,-0.17238252,-9.346964,0.8247004,47.71465,-1.3550723,-2.372147,-3.2727962,-0.3080055,-0.06715957,-0.17736238,28.4375,29.75,28.8125,32.625,35.0625,36.125
0.1360535,-1.0755014,-0.69094133,-1.6139524,-0.0065346677,0.10398159,-0.16666292,-0.3930761,-0.36692148,0.05993477,-3.0781987,0.62426454,-0.00037517716,-0.060271613,0.026033226,0.0021284532,0.0050733406,0.003430737,0.019955227,0.49868986,-1.3777927,1.8994535,-2.090329,-1.5711073,2.473335,-0.095523104,0.05660797,-0.076215394,0.018997114,-0.0062935697,-0.11542726,-0.63206923,-0.076614454,-9.423578,0.7866488,47.71465,-1.2260212,-2.5531268,-2.9935195,-0.31960616,-0.08928338,-0.1453875,28.4375,29.75,28.8125,32.625,35.0625,36.125
0.13805425,-0.52570504,-0.1954648,-1.7918527,-0.022960993,0.10988289,-0.17780617,-0.39320007,-0.36688313,0.059943367,-3.0782213,0.6242302,-0.000347808,-0.059016053,0.025877424,0.0024123462,0.0047181323,0.003026293,0.020140024,0.49851093,-1.3776733,1.8992871,-2.090305,-1.5711073,2.473132,-0.09439588,0.054491345,-0.07448902,0.0195702,-0.0057797395,-0.11448716,-0.6895301,-0.076614454,-9.500193,0.8560339,47.699425,-1.2707958,-2.417839,-3.1784616,-0.31561923,-0.088279784,-0.13484925,28.4375,29.75,28.8125,32.625,35.0625,36.125
0.14005385,-1.3430226,-0.81886816,-1.9165826,-0.024402117,0.09551612,-0.15955175,-0.39330506,-0.36682975,0.059941262,-3.0782104,0.6240578,-0.00031520892,-0.060768545,0.026643895,0.0026692445,0.004699622,0.0034560412,0.013485808,0.49835423,-1.3775648,1.899155,-2.0902684,-1.5711554,2.4728692,-0.09716236,0.0556946,-0.07662814,0.020115837,-0.0059712096,-0.11059796,-0.7278373,-0.05746084,-9.595961,0.8672237,47.70838,-1.2098927,-2.3939593,-3.2038698,-0.34053418,-0.07582871,-0.16088523,28.4375,29.75,28.8125,32.625,35.0625,36.125
0.14205344,-1.5742551,-0.92922056,-1.9882592,-0.02903574,0.10267996,-0.16984427,-0.3934487,-0.3667711,0.059955478,-3.0782168,0.6241589,-0.00035166898,-0.06244539,0.028405787,0.001458207,0.0069777137,0.0018015874,0.0047487966,0.4981014,-1.3774437,1.8989629,-2.0901968,-1.5711206,2.4726787,-0.10089048,0.05896798,-0.07787693,0.020642,-0.0071802223,-0.10558555,-0.6703765,-0.019153614,-9.557653,0.80456203,47.681515,-1.0887073,-2.4948518,-3.1787405,-0.35807687,-0.063804686,-0.24007745,28.4375,29.75,28.8125,32.625,35.0625,36.125
0.14405422,-0.51317894,-0.8165769,-2.0378833,-0.021355713,0.123959884,-0.16651626,-0.39356962,-0.36672136,0.059954677,-3.0782132,0.624121,-0.00031493834,-0.06369402,0.029218752,0.0015413989,0.00730682,0.0025269669,0.0003995461,0.49792114,-1.3773234,1.8988193,-2.0901845,-1.5711445,2.4724753,-0.10298757,0.05952848,-0.078683674,0.0204077,-0.007815859,-0.103331715,-0.51714754,0.1340753,-9.576807,0.82022345,47.65643,-1.056811,-2.5782623,-3.1277063,-0.36424333,-0.072725736,-0.27417788,28.4375,29.75,28.8125,32.625,35.0625,36.125
0.1460541,-0.9854176,-0.7500138,-2.003873,-0.024815567,0.10836249,-0.16142005,-0.39367998,-0.36665565,0.059942134,-3.0781634,0.62413144,-0.00037436804,-0.06592902,0.030098153,0.0029909736,0.005616341,0.0057651987,-0.0028956356,0.49771628,-1.3771918,1.8986758,-2.0901134,-1.5711564,2.4722834,-0.106454395,0.05797603,-0.07996207,0.019583525,-0.007887675,-0.103502415,-0.47884035,0.076614454,-9.595961,0.80456203,47.678825,-0.8908247,-2.3364527,-3.2360122,-0.3602625,-0.05248404,-0.30159393,28.4375,29.75,28.8125,32.625,35.0625,36.125
0.14805388,-1.5832865,-1.4789917,-2.1959126,-0.0114972405,0.08504694,-0.1510235,-0.39382383,-0.36656237,0.05991768,-3.0780654,0.62418664,-0.00038767833,-0.06662824,0.03100173,0.0018430343,0.006940157,0.00439284,-0.0032556579,0.49746418,-1.3770227,1.8985204,-2.0900657,-1.5712165,2.4720783,-0.10826778,0.06035342,-0.08008101,0.01915584,-0.008404226,-0.104953706,-0.49799395,0.095768064,-9.519346,0.8112748,47.687782,-0.83202434,-2.4177454,-3.1911864,-0.35895586,-0.07800777,-0.32291597,28.4375,29.75,28.8125,32.625,35.0625,36.125
0.15005347,-1.2032834,-0.30121243,-1.9174407,-0.033752747,0.090854175,-0.16713662,-0.3939549,-0.36653078,0.05993956,-3.0781384,0.6242009,-0.0003671294,-0.067342736,0.03136043,0.001776299,0.0068455637,0.004692786,-0.003994185,0.49726048,-1.3769264,1.8983535,-2.0900533,-1.5711683,2.4718742,-0.109461546,0.060920645,-0.080505505,0.018707782,-0.008460267,-0.10540902,-0.49799395,0.15322891,-9.385271,0.7933669,47.687782,-0.86968243,-2.4335444,-3.1943192,-0.34994763,-0.05345258,-0.33513463,28.4375,29.75,28.8125,32.625,35.0625,36.125
0.15205391,-0.74617845,-0.9026341,-1.9562995,-0.016751753,0.10300419,-0.15839852,-0.3941143,-0.36648598,0.059969958,-3.0781608,0.6241461,-0.00023117219,-0.0697377,0.030574106,0.0033520386,0.0038293235,0.007901829,-0.003770459,0.49706823,-1.3768063,1.8981365,-2.09003,-1.571216,2.471645,-0.11099728,0.06144125,-0.08454353,0.017954625,-0.0073430077,-0.10716969,-0.53630114,0.05746084,-9.461885,0.842603,47.67614,-0.83929336,-2.3904672,-3.1871433,-0.3426825,-0.08027665,-0.35850734,28.4375,29.75,28.8125,32.625,35.0625,36.125
0.15405431,-0.68158704,-0.11837511,-1.8617591,-0.019178903,0.107899584,-0.16741063,-0.39426106,-0.36641222,0.059964247,-3.0781248,0.624235,-0.00023629448,-0.06899089,0.030905051,0.0022157913,0.0041433983,0.005223102,-0.004714942,0.4968166,-1.3766618,1.8979701,-2.0899942,-1.5712279,2.4714537,-0.11145835,0.06243141,-0.083172694,0.018091729,-0.0063389204,-0.106688716,-0.36391866,-0.019153614,-9.519346,0.78217715,47.691364,-0.86106324,-2.3345816,-3.242943,-0.3492922,-0.080120556,-0.39376745,28.4375,29.75,28.8125,32.625,35.0625,36.125
0.15605341,-0.67269766,-0.44878963,-1.9157283,0.0015078054,0.10739754,-0.16114983,-0.39438325,-0.3663393,0.059951752,-3.0781128,0.62416923,-0.00025425598,-0.07012589,0.030538607,0.0029401458,0.0030060553,0.006781532,0.0014248554,0.49658903,-1.3765414,1.8978504,-2.0899704,-1.5712398,2.4711866,-0.1120072,0.062825635,-0.08523969,0.017845312,-0.006092945,-0.11337684,-0.2681506,-0.05746084,-9.5385,0.8314132,47.666286,-0.9294157,-2.4221098,-3.294047,-0.32371095,-0.07849209,-0.37095243,28.4375,29.75,28.8125,32.625,35.0625,36.125
0.15805423,0.09629411,-0.08111281,-1.6541523,0.00031878,0.110268064,-0.16796416,-0.39454052,-0.3662756,0.059974536,-3.078137,0.6242481,-0.00018187515,-0.071661934,0.03023011,0.0034343854,0.0028194848,0.00846961,0.004897943,0.4963375,-1.3764447,1.8976811,-2.0899584,-1.5712398,2.4709814,-0.112460494,0.064433865,-0.08823331,0.017656276,-0.0067340815,-0.11730081,-0.21068975,-0.038307227,-9.385271,0.76874626,47.64837,-0.9424673,-2.373036,-3.0422003,-0.32705462,-0.08256184,-0.3452359,28.4375,29.75,28.8125,32.625,35.0625,36.125
0.16005391,-0.057368822,-0.31690103,-2.0287466,0.008817846,0.08102437,-0.15643384,-0.3946886,-0.36620238,0.059977014,-3.0781,0.62419873,-0.00015015078,-0.07282074,0.032195468,0.0027987128,0.004207993,0.007751135,0.0085123405,0.4961086,-1.3763005,1.8974909,-2.0898983,-1.5712885,2.4707265,-0.1162475,0.06507494,-0.087545335,0.017611783,-0.0076165693,-0.12470047,-0.076614454,0.05746084,-9.3661175,0.8717007,47.691364,-0.9104115,-2.382102,-3.2396212,-0.31206992,-0.08976962,-0.29544365,28.4375,29.75,28.8125,32.625,35.0625,36.125
0.16205364,0.27348077,-0.21312672,-1.7942407,0.00023108358,0.06927274,-0.16513236,-0.39479145,-0.36615664,0.05996883,-3.0781252,0.62404394,-0.00019150047,-0.0726022,0.030845534,0.0032567855,0.0036736496,0.008906939,0.01833656,0.49592987,-1.3761803,1.8973588,-2.0898626,-1.5712765,2.470448,-0.1136924,0.06550336,-0.0890606,0.017424168,-0.007707088,-0.13196856,-0.076614454,0.076614454,-9.385271,0.83813137,47.693153,-1.0540761,-2.3639104,-3.2217913,-0.30300897,-0.09716001,-0.23029825,28.4375,29.75,28.8125,32.625,35.0625,36.125
0.16405319,0.46584767,-0.24817578,-1.8701903,-0.009244629,0.05611121,-0.16943175,-0.39498895,-0.36606482,0.05997927,-3.078113,0.6240787,-0.00011456484,-0.074543215,0.03302151,0.0026429982,0.004464146,0.007783177,0.018401504,0.49561656,-1.3760235,1.8971437,-2.0898387,-1.5713123,2.470158,-0.118986376,0.06700357,-0.08952545,0.017743615,-0.007865056,-0.13732705,-0.095768064,-0.038307227,-9.3661175,0.78217715,47.677036,-0.85899526,-2.3578556,-3.246739,-0.28309533,-0.068786666,-0.12222043,28.4375,29.75,28.8125,32.625,35.0625,36.125
0.16605408,0.08563255,-1.2140307,-2.0996904,-0.0066244057,0.039567683,-0.14914212,-0.39513025,-0.36602163,0.060004808,-3.0781264,0.6239826,-3.701776e-05,-0.074571416,0.03296294,0.0025473845,0.0053673787,0.0077211545,0.022321036,0.49543726,-1.3759031,1.8969291,-2.0897787,-1.571349,2.4699173,-0.118405506,0.067704275,-0.09026161,0.018257337,-0.008626968,-0.14066409,-0.076614454,0.076614454,-9.3661175,0.8717007,47.692257,-1.0302087,-2.4161901,-3.2044525,-0.28096378,-0.05797524,-0.11037943,28.4375,29.75,28.8125,32.625,35.0625,36.125
0.16805393,0.2760582,-1.4956096,-1.8650638,-0.01955262,0.04956544,-0.15767545,-0.39528874,-0.36596012,0.059999015,-3.0781558,0.6239331,-6.25105e-05,-0.07513822,0.033322133,0.0022031732,0.0057213493,0.0066938964,0.017302034,0.49517354,-1.3757347,1.896737,-2.0897548,-1.5713247,2.469619,-0.119598635,0.06914218,-0.091363244,0.018996108,-0.0084477095,-0.136838,-0.019153614,0.1340753,-9.270349,0.8493211,47.709274,-0.93329084,-2.3191106,-3.2214584,-0.28445342,-0.054945756,-0.092506886,28.4375,29.75,28.8125,32.625,35.0625,36.125
0.17005372,0.26270342,-1.3194891,-2.0297277,-0.031452313,0.05017079,-0.151339,-0.39541942,-0.3658799,0.05998241,-3.0781152,0.62388843,-9.741309e-05,-0.07626439,0.03356446,0.0026597262,0.004656873,0.0067476896,0.010991599,0.49493343,-1.3755902,1.8965925,-2.0897067,-1.5713481,2.4693563,-0.12156562,0.069608666,-0.09313424,0.019741995,-0.0075417687,-0.13249536,-0.05746084,0.21068975,-9.270349,0.779936,47.686886,-1.1188854,-2.391274,-3.2539368,-0.28504452,-0.06137653,-0.12782136,28.4375,29.75,28.8125,32.625,35.0625,36.125
0.1720535,0.022812638,-0.9525383,-2.1227388,-0.03303304,0.04053258,-0.16153805,-0.39559904,-0.3658354,0.060019612,-3.0781744,0.62386274,4.3308623e-07,-0.07602642,0.03309412,0.0020385406,0.005231177,0.005682782,0.0070329774,0.49469435,-1.3754574,1.8963422,-2.089671,-1.5713481,2.4690938,-0.12051824,0.07143993,-0.093945995,0.019933863,-0.0075285705,-0.12748942,0.05746084,0.1340753,-9.3661175,0.7709874,47.692257,-1.0340168,-2.3430476,-3.2536821,-0.2768979,-0.08219053,-0.21968243,28.4375,29.75,28.8125,32.625,35.0625,36.125
0.17405364,0.15746483,-1.1728779,-2.0291514,-0.035646103,0.051139653,-0.15280034,-0.3957253,-0.3657483,0.059992313,-3.0781035,0.6237366,-4.7028695e-07,-0.07779095,0.034632646,0.0021717518,0.00517864,0.006102476,-0.0010723268,0.49447733,-1.3753011,1.8962106,-2.0896347,-1.5714206,2.4688072,-0.12458959,0.07167242,-0.094522364,0.019876054,-0.0076876916,-0.123454444,0.019153614,0.21068975,-9.404425,0.85155696,47.670765,-1.0898055,-2.3470678,-3.2745166,-0.26236415,-0.0658296,-0.2769146,28.4375,29.75,28.8125,32.625,35.0625,36.125
0.17605352,0.06565302,-1.5814894,-1.8908604,-0.034292553,0.053659536,-0.1505881,-0.39587402,-0.36566862,0.06000136,-3.0780616,0.6238613,-4.2187444e-06,-0.07738914,0.03368276,0.0019223617,0.0048365984,0.0054759574,-0.0018723638,0.49421453,-1.3751807,1.8960308,-2.0895631,-1.571432,2.4686277,-0.12295574,0.07292194,-0.095464356,0.019954054,-0.0070905294,-0.12102116,0.019153614,0.21068975,-9.308656,0.80679786,47.67166,-1.1918488,-2.3519416,-3.3126364,-0.24067724,-0.0866277,-0.32506445,28.4375,29.75,28.8125,32.625,35.0625,36.125
0.17805427,0.21612053,-1.1816083,-2.0120707,-0.033216678,0.058017284,-0.16153345,-0.3960408,-0.3656369,0.06001081,-3.0781286,0.6238179,1.308609e-05,-0.07806706,0.034114823,0.0020773793,0.004142094,0.005337221,-0.004835454,0.49398637,-1.3750005,1.8957924,-2.0895503,-1.5713958,2.468364,-0.12467889,0.072986044,-0.095955536,0.02017521,-0.0064070863,-0.11978277,0.0,0.22984336,-9.289502,0.8627467,47.699425,-1.1091244,-2.290435,-3.379561,-0.24407324,-0.080678485,-0.39727324,28.4375,29.75,28.8125,32.625,35.0625,36.125
0.18005373,-0.11782058,-1.322805,-1.940544,-0.029414574,0.053750478,-0.15380709,-0.39619416,-0.3655632,0.060025293,-3.0781252,0.6238366,1.288471e-05,-0.07960841,0.034350064,0.0015340077,0.004893484,0.005070051,-0.0075812307,0.49372244,-1.3748792,1.8955992,-2.0894787,-1.5713958,2.4681122,-0.12610488,0.07630489,-0.09866464,0.020158106,-0.006946585,-0.118460305,0.038307227,0.24899697,-9.346964,0.8403672,47.70838,-1.1417269,-2.4327455,-3.2165322,-0.2306115,-0.08968687,-0.44976875,28.4375,29.75,28.8125,32.625,35.0625,36.125
0.18205322,0.48271254,-0.9607169,-1.8155646,-0.028467104,0.069020346,-0.15775484,-0.396353,-0.3654701,0.06001084,-3.078057,0.6238985,5.718647e-05,-0.07968448,0.03547199,0.0017657088,0.0054504843,0.0054816934,-0.0071046557,0.49345848,-1.3747238,1.8954448,-2.0894663,-1.5714563,2.4678957,-0.12759525,0.07456529,-0.09716637,0.020292873,-0.0076306635,-0.12042667,-0.05746084,0.19153613,-9.32781,0.85155696,47.684196,-1.1409252,-2.369998,-3.421483,-0.21993795,-0.06436892,-0.47779423,28.4375,29.75,28.8125,32.625,35.0625,36.125
0.1840539,0.28645897,-0.73979485,-1.664944,-0.022361564,0.07027495,-0.1604913,-0.39650992,-0.36541253,0.060007315,-3.0780585,0.6238573,4.3111137e-05,-0.08191604,0.035074495,0.0034820787,0.0036348011,0.0087253405,-0.004155358,0.49321863,-1.3745434,1.8952278,-2.0894186,-1.5714563,2.4676301,-0.1289461,0.07458266,-0.101160586,0.020547872,-0.00757857,-0.12472532,-0.05746084,0.22984336,-9.385271,0.8112748,47.699425,-1.1280257,-2.2630286,-3.3062153,-0.18238202,-0.07384141,-0.5127241,28.4375,29.75,28.8125,32.625,35.0625,36.125
0.18605421,-0.36049953,-0.62829155,-1.6728429,-0.01693069,0.06687573,-0.15907654,-0.39668426,-0.36536455,0.060029447,-3.078103,0.62385935,0.00012416756,-0.08122694,0.03627424,0.00011382748,0.0066291736,0.0019259577,0.0038620702,0.4929788,-1.3743975,1.8950013,-2.0894063,-1.5714558,2.467386,-0.130658,0.08001062,-0.10018328,0.021538388,-0.006989223,-0.13445598,-0.15322891,0.13407528,-9.32781,0.83365434,47.696735,-1.142299,-2.4425817,-3.4590216,-0.19078223,-0.08367645,-0.44318998,28.4375,29.75,28.8125,32.625,35.0625,36.125
0.18805467,-0.18466294,-0.5054484,-1.77113,-0.0043532928,0.08251112,-0.15398799,-0.39684698,-0.36527234,0.06001655,-3.0780723,0.62380856,0.0001054555,-0.082978316,0.036526013,0.002041195,0.004477131,0.00491519,0.0138919335,0.49269032,-1.3742303,1.894821,-2.0893586,-1.5714797,2.4670699,-0.13291697,0.07797611,-0.10226256,0.021984266,-0.0065223975,-0.1467451,-0.17238252,0.11492168,-9.270349,0.83365434,47.691364,-1.0979838,-2.3015413,-3.3318357,-0.18074954,-0.0921334,-0.35394996,28.4375,29.75,28.8125,32.625,35.0625,36.125
0.19005357,-0.9197445,-0.5934402,-1.6919092,0.004725111,0.07799348,-0.15378705,-0.39698482,-0.3652288,0.060026452,-3.0781343,0.6237215,6.927027e-05,-0.08479488,0.037149977,0.0017853751,0.004653769,0.004644622,0.019155575,0.4924621,-1.3740971,1.8946294,-2.0893104,-1.571432,2.4667795,-0.13555549,0.080554865,-0.104823396,0.022288306,-0.0065572886,-0.15464589,-0.24899697,-0.038307227,-9.442732,0.8717007,47.7245,-1.0268863,-2.2373528,-3.2479157,-0.15930913,-0.081452385,-0.27048546,28.4375,29.75,28.8125,32.625,35.0625,36.125
0.19205432,-0.95448446,-0.48259977,-1.8495473,0.010344667,0.08724426,-0.15621787,-0.39715248,-0.365131,0.06003119,-3.0780826,0.6237071,8.414596e-05,-0.08521495,0.037514992,0.0008366509,0.0055410773,0.00310309,0.023511495,0.49217466,-1.3739519,1.8944272,-2.0892265,-1.5714797,2.4664898,-0.13646705,0.08295113,-0.10554434,0.022377871,-0.006618785,-0.15991245,-0.2873042,-0.019153614,-9.32781,0.84708,47.672558,-1.1785403,-2.3531284,-3.323232,-0.15023622,-0.08730927,-0.18265715,28.4375,29.75,28.8125,32.625,35.0625,36.125
0.194054,-1.3032513,-0.2239205,-1.6294376,-0.012247415,0.09696961,-0.15634486,-0.39731675,-0.36506486,0.060020577,-3.0781045,0.6236137,2.8513125e-05,-0.085112475,0.03746431,0.0003509774,0.0057106,0.0018806149,0.025337197,0.491899,-1.3737595,1.8942116,-2.0891783,-1.5714554,2.4661531,-0.13650164,0.084100656,-0.10590483,0.02274569,-0.0061958646,-0.16177319,-0.61291564,0.0,-9.346964,0.7978386,47.687782,-1.094994,-2.3114798,-3.3070674,-0.16435471,-0.124560766,-0.14982532,28.4375,29.75,28.8125,32.625,35.0625,36.125
0.196054,-1.7304636,-0.53363085,-1.7074367,-0.013060512,0.101500124,-0.16190049,-0.39750215,-0.3649823,0.060028214,-3.0780907,0.62361705,0.00012257848,-0.08784369,0.038247474,0.001065103,0.0050268667,0.0034014902,0.014209976,0.491622,-1.373603,1.8940057,-2.0891669,-1.571504,2.4658802,-0.14017479,0.08563197,-0.10943626,0.023079168,-0.006307952,-0.15431756,-0.7852981,0.0,-9.404425,0.80679786,47.694946,-1.0438173,-2.3283896,-3.1178951,-0.13233183,-0.105461404,-0.19824378,28.4375,29.75,28.8125,32.625,35.0625,36.125
0.19805345,-1.269774,-0.0987922,-1.5969976,-0.027861591,0.11948835,-0.16582894,-0.3976745,-0.36490485,0.06002121,-3.0780618,0.62359256,5.862668e-05,-0.086517446,0.038260918,0.00039315494,0.0062579876,0.0012348043,0.010666321,0.49133524,-1.3733987,1.8937567,-2.08907,-1.571504,2.465582,-0.13890384,0.08577375,-0.108387806,0.024382526,-0.006370814,-0.14950304,-0.7086837,0.019153614,-9.423578,0.7486078,47.67345,-1.1882728,-2.400907,-3.4021704,-0.13146639,-0.123762846,-0.2415586,28.4375,29.75,28.8125,32.625,35.0625,36.125
0.20005408,-1.5440732,-0.7530093,-1.5471699,-0.01882283,0.11883561,-0.1593492,-0.39787483,-0.36484405,0.060040765,-3.0780942,0.6235809,0.00014188536,-0.08868679,0.039245423,0.001494906,0.0059721842,0.0027934746,0.004740098,0.49105874,-1.3732184,1.8934926,-2.0890458,-1.5715159,2.4652941,-0.14216995,0.085763335,-0.11118871,0.025685081,-0.0068469956,-0.14684139,-0.8236054,0.05746084,-9.404425,0.83813137,47.67614,-1.2011644,-2.3209891,-3.176477,-0.120764196,-0.10965759,-0.31429583,28.4375,29.75,28.8125,32.625,35.0625,36.125
0.20205383,-0.76681757,-0.23910606,-1.6838211,-0.008835764,0.1265814,-0.16039565,-0.3980211,-0.36474264,0.06000795,-3.0780408,0.6234734,6.108952e-05,-0.0898528,0.04051201,-0.000110522604,0.008334678,0.00027044606,0.0019097964,0.49077058,-1.3730367,1.8933376,-2.0889862,-1.5715402,2.4649458,-0.14475222,0.08988942,-0.11260027,0.026307352,-0.007755783,-0.14658974,-0.6512228,-0.05746084,-9.32781,0.9097417,47.699425,-1.2666615,-2.4896438,-3.2902937,-0.10238203,-0.11395198,-0.35099643,28.4375,29.75,28.8125,32.625,35.0625,36.125
0.20405322,-0.9692301,-0.363349,-1.6024508,0.007928835,0.11481819,-0.15757738,-0.39821643,-0.36468154,0.060022753,-3.0780737,0.62351817,0.00010684916,-0.09114895,0.039863303,0.0018237008,0.0059996047,0.003614778,0.0014848659,0.49048325,-1.3728572,1.8930849,-2.0889618,-1.5715278,2.4646823,-0.14507006,0.08824308,-0.11506954,0.026371008,-0.0072704447,-0.14648336,-0.6703765,-0.15322891,-9.3661175,0.8672237,47.71465,-1.2013583,-2.2448049,-3.1923954,-0.108261794,-0.13578227,-0.3671636,28.4375,29.75,28.8125,32.625,35.0625,36.125
0.20605405,-0.73686546,-0.26457125,-1.4955003,0.0048759496,0.12262178,-0.16416112,-0.39838853,-0.36460054,0.06002104,-3.0780475,0.62347263,0.000100804566,-0.092778355,0.040826213,0.0010572475,0.006819629,0.0024223686,0.00079367496,0.4902066,-1.3726759,1.892857,-2.0888903,-1.5715526,2.4643807,-0.14800583,0.09132727,-0.11709437,0.026742928,-0.007440968,-0.1487262,-0.8619126,-0.095768064,-9.404425,0.8179876,47.699425,-0.9797748,-2.4521024,-3.118474,-0.107172206,-0.1352947,-0.3945129,28.4375,29.75,28.8125,32.625,35.0625,36.125
0.2080539,-0.66319615,0.02907917,-1.4239515,0.0025288418,0.13202423,-0.159392,-0.3986078,-0.36451754,0.06004578,-3.078078,0.6234538,0.00020774176,-0.09323145,0.04124861,0.0007166833,0.008225601,0.002058845,0.006954956,0.4898835,-1.3725073,1.8925947,-2.088866,-1.5715765,2.4640422,-0.14839792,0.092680424,-0.11807999,0.027350182,-0.008504837,-0.15527743,-0.7661445,-0.11492168,-9.385271,0.82694155,47.655537,-1.1100258,-2.4769924,-3.1372023,-0.09396409,-0.14284569,-0.35417956,28.4375,29.75,28.8125,32.625,35.0625,36.125
0.21005358,-0.718141,0.18788046,-1.5272882,0.0041014818,0.14366093,-0.16592579,-0.398771,-0.3644156,0.060018264,-3.0780213,0.6234544,0.0001306696,-0.09394936,0.041232515,0.00084262865,0.008371615,0.0017502373,0.016052516,0.48957184,-1.3723148,1.8924145,-2.0888054,-1.5715884,2.4637382,-0.14896466,0.0939793,-0.12018557,0.028485086,-0.0085084075,-0.16494022,-0.63206923,0.0,-9.32781,0.8717007,47.689575,-1.1628506,-2.4436111,-3.1014895,-0.07675977,-0.11778918,-0.2777231,28.4375,29.75,28.8125,32.625,35.0625,36.125
0.21205314,-0.89680696,-0.25517166,-1.5582771,0.0011395642,0.14404161,-0.16047771,-0.39897108,-0.36434048,0.06002935,-3.0780323,0.62335384,0.0001405726,-0.094308965,0.041270737,0.00086730893,0.00813622,0.0011445673,0.025569476,0.48927224,-1.3721102,1.8921269,-2.0887215,-1.5716003,2.4633746,-0.14958888,0.09469838,-0.1212961,0.02928539,-0.008023619,-0.17508198,-0.5746084,0.019153614,-9.289502,0.8403672,47.71017,-1.2192171,-2.5203812,-3.0762722,-0.10368407,-0.15559497,-0.17028067,28.4375,29.75,28.8125,32.625,35.0625,36.125
0.21405384,-0.32740015,-0.2604241,-1.3986652,-0.0019777599,0.14841823,-0.16334711,-0.39916056,-0.36426124,0.060046177,-3.0780668,0.6232996,0.00015386101,-0.09508026,0.04189332,0.0005299989,0.008960373,0.0006530312,0.029549519,0.4889606,-1.3719535,1.8918885,-2.0886614,-1.5715884,2.4630249,-0.15096109,0.0960736,-0.12227414,0.029706158,-0.008521759,-0.18043284,-0.5746084,0.038307227,-9.289502,0.83813137,47.658226,-1.2620925,-2.5454578,-3.1143804,-0.07299013,-0.1406021,-0.076013006,28.4375,29.75,28.8125,32.625,35.0625,36.125
0.21605386,-0.6697518,-0.44805595,-1.6440828,-0.012728541,0.12292669,-0.14305507,-0.39935032,-0.36415738,0.06002077,-3.0780168,0.6232141,0.000115951356,-0.095656216,0.0424807,0.000493725,0.01024846,0.001023433,0.02573981,0.48863715,-1.3717252,1.891661,-2.0886018,-1.5716246,2.4626546,-0.1515892,0.096647754,-0.122988746,0.030122837,-0.009843566,-0.17724764,-0.53630114,0.076614454,-9.32781,0.9231726,47.67793,-1.2626513,-2.4941902,-3.0837064,-0.0734479,-0.13631532,-0.055044815,28.4375,29.75,28.8125,32.625,35.0625,36.125
0.21805398,-0.451603,-0.5251517,-1.6941975,-0.018951623,0.09987247,-0.15998092,-0.39955616,-0.36406603,0.060026072,-3.0780013,0.62323415,0.00015314402,-0.09698563,0.042508736,0.0011430088,0.009367774,0.0021347029,0.018187974,0.48831308,-1.371533,1.8914093,-2.0885537,-1.571649,2.4623451,-0.15292424,0.09721266,-0.12521411,0.030386288,-0.00958664,-0.17103061,-0.36391866,0.1340753,-9.270349,0.85826975,47.699425,-1.3130327,-2.4500852,-2.960035,-0.05735244,-0.117474824,-0.094314694,28.4375,29.75,28.8125,32.625,35.0625,36.125
0.22005364,0.13969548,-1.2297282,-1.9079288,-0.013442776,0.085382774,-0.14634693,-0.39974028,-0.3639733,0.06000775,-3.077957,0.62311214,0.00011115314,-0.09657306,0.044278022,-0.00067551585,0.011614811,-0.0015903345,0.00910692,0.4880134,-1.3713043,1.8911594,-2.0884693,-1.5716847,2.461975,-0.15532413,0.09874039,-0.12307099,0.03105773,-0.0098254215,-0.16434902,-0.38307226,0.019153614,-9.346964,0.8291774,47.709274,-1.3702714,-2.4850264,-3.27696,-0.04908459,-0.1330809,-0.19842586,28.4375,29.75,28.8125,32.625,35.0625,36.125
0.22205427,0.5807533,-0.75992787,-1.804677,-0.028280638,0.07212868,-0.15228543,-0.3999478,-0.36388525,0.060021255,-3.0779212,0.62318504,0.00016198076,-0.09779921,0.044333544,0.00026278239,0.012049741,0.00074685115,0.0016164662,0.48770162,-1.3711121,1.8908838,-2.0883977,-1.5717219,2.4617136,-0.15553625,0.09878286,-0.12535788,0.03144501,-0.011304048,-0.15706678,-0.26815057,0.095768064,-9.232041,0.73741806,47.683304,-1.2667944,-2.353843,-3.1216574,-0.05292391,-0.11644579,-0.29461294,28.4375,29.75,28.8125,32.625,35.0625,36.125
0.22405405,0.42694896,-0.87283975,-1.7193586,-0.015403215,0.05299352,-0.14933288,-0.4001624,-0.36377692,0.060009483,-3.0778728,0.6232929,0.00016847177,-0.099434555,0.046023693,0.00013381269,0.011822103,0.00036155083,-0.005957949,0.48734093,-1.3708955,1.8906444,-2.088362,-1.5717453,2.4614265,-0.16001174,0.09925098,-0.12565549,0.03150257,-0.010924652,-0.1539684,0.0,0.05746084,-9.346964,0.8247004,47.668976,-1.0248853,-2.4550056,-3.2607617,-0.046612374,-0.0969501,-0.3552531,28.4375,29.75,28.8125,32.625,35.0625,36.125
0.22605395,0.93652076,-0.5500115,-1.7689431,-0.014136823,0.04897576,-0.15743144,-0.40036097,-0.36370018,0.06003014,-3.0778992,0.6232226,0.00021922562,-0.09951693,0.04710528,-0.0019332039,0.013331143,-0.0038110532,-0.011427198,0.4870409,-1.3707262,1.8903822,-2.088302,-1.5717572,2.4610794,-0.16222787,0.10280541,-0.12531982,0.032002274,-0.010297802,-0.15071662,0.05746084,0.095768064,-9.404425,0.8537928,47.698532,-1.0926261,-2.4129179,-3.3456888,-0.032096073,-0.11542853,-0.46372902,28.4375,29.75,28.8125,32.625,35.0625,36.125
0.22805345,1.3620266,-0.45086712,-1.7245246,-0.02468142,0.04651731,-0.16055404,-0.40056646,-0.36359432,0.06001167,-3.077837,0.62332267,0.00019819563,-0.09986515,0.048008118,-0.0008522947,0.012505976,-0.0034742744,-0.0105712395,0.4866931,-1.3704989,1.8901423,-2.0882533,-1.571781,2.460802,-0.16433746,0.10028309,-0.12517333,0.03368226,-0.00973259,-0.15368368,0.1340753,0.17238252,-9.385271,0.82694155,47.689575,-0.9812943,-2.406153,-3.3419797,-0.016262442,-0.11044274,-0.5056853,28.4375,29.75,28.8125,32.625,35.0625,36.125
0.23005424,0.85731155,-0.72993606,-1.5898979,-0.022287639,0.035712074,-0.14799431,-0.40076375,-0.36349797,0.059989598,-3.077793,0.623288,0.00015920436,-0.100550756,0.048626084,-0.0018302472,0.013569483,-0.0061778952,-0.0019166374,0.48636878,-1.3702577,1.8898915,-2.0881927,-1.5718049,2.4604619,-0.16611446,0.10336511,-0.12701376,0.035308745,-0.009427883,-0.16411448,0.17238252,0.1340753,-9.346964,0.8717007,47.723602,-1.0103085,-2.409679,-3.3077326,-0.02154084,-0.12902395,-0.45882526,28.4375,29.75,28.8125,32.625,35.0625,36.125
0.23205426,0.66051936,-0.8604234,-1.8105094,-0.0029501158,0.035661317,-0.15353073,-0.40096822,-0.36339924,0.06000475,-3.077784,0.6232757,0.00019568102,-0.1006005,0.04858754,-0.0011661063,0.013316994,-0.0052935192,0.011178727,0.48603424,-1.3700898,1.8896407,-2.0881212,-1.5718287,2.460121,-0.16589859,0.102277204,-0.12735769,0.035820216,-0.009629022,-0.17699376,0.24899697,0.095768064,-9.32781,0.8627467,47.689575,-1.227533,-2.4243376,-3.5412698,-0.015691862,-0.112714946,-0.3454336,28.4375,29.75,28.8125,32.625,35.0625,36.125
0.23405392,0.76255375,-0.88662523,-1.9867556,0.0055003315,0.04236121,-0.15298352,-0.40116337,-0.36330807,0.05999582,-3.0777647,0.62322694,0.00010958021,-0.10123312,0.048367362,-0.00080899196,0.012949063,-0.005185778,0.021522151,0.48569873,-1.3698614,1.8893641,-2.088013,-1.5718168,2.4597576,-0.16617943,0.10307756,-0.12935163,0.036733218,-0.009379069,-0.18761726,0.2873042,0.15322891,-9.385271,0.8851263,47.685097,-1.165114,-2.3834083,-3.404223,-0.041856788,-0.10790902,-0.22994947,28.4375,29.75,28.8125,32.625,35.0625,36.125
0.2360537,0.5678006,-0.6717647,-1.7483103,-0.006000351,0.03943191,-0.15279905,-0.4013859,-0.36322072,0.060000714,-3.0777786,0.62313044,0.0001843486,-0.10226023,0.04894028,-0.000576902,0.012829055,-0.0067840856,0.024785655,0.48537454,-1.3696446,1.889089,-2.0879881,-1.5718521,2.4593716,-0.16851108,0.10433215,-0.13201852,0.03948432,-0.00852809,-0.19321369,0.2681506,0.17238252,-9.32781,0.8873621,47.67166,-1.1008439,-2.3828406,-3.411821,-0.051575772,-0.15227303,-0.15249275,28.4375,29.75,28.8125,32.625,35.0625,36.125
0.23805399,0.12504862,-1.0316206,-2.1029994,0.0032693455,0.025653437,-0.1411973,-0.40156573,-0.36311007,0.059986822,-3.0777085,0.62306094,0.000115765506,-0.10304857,0.05004987,-1.6297488e-05,0.013172704,-0.0070248884,0.019536229,0.48505026,-1.3694407,1.8888501,-2.0878675,-1.5718888,2.459013,-0.17089196,0.10361764,-0.13290404,0.04145202,-0.008735119,-0.19034392,0.038307227,0.095768064,-9.308656,0.92764956,47.687782,-1.0943673,-2.3401964,-3.3307328,-0.07919705,-0.12917249,-0.16086698,28.4375,29.75,28.8125,32.625,35.0625,36.125
0.2400536,0.9667399,-0.4248693,-2.2387013,-0.013832406,0.043791015,-0.15664174,-0.40179986,-0.36300284,0.06001473,-3.0777028,0.6230063,0.00020174046,-0.10350907,0.05150197,-0.0015139794,0.016538242,-0.011412996,0.009089892,0.48469052,-1.3692592,1.8885511,-2.0877821,-1.571937,2.45862,-0.17309903,0.10745396,-0.13490908,0.045072876,-0.009655807,-0.18210176,0.019153614,0.1340753,-9.461885,0.87617236,47.716442,-0.947429,-2.3435428,-3.3571987,-0.103019476,-0.14314733,-0.2421091,28.4375,29.75,28.8125,32.625,35.0625,36.125
0.2420535,0.37510583,-0.9252913,-2.1111717,-0.022736236,0.04758284,-0.15463233,-0.40200573,-0.362901,0.06001501,-3.0776672,0.6230578,0.00018111608,-0.10380951,0.052059263,-0.0008150213,0.0157336,-0.011728047,0.0034711263,0.48434258,-1.3690555,1.8882884,-2.0876977,-1.5719484,2.458309,-0.1747579,0.10614159,-0.1353197,0.04669648,-0.008801549,-0.17814383,-0.019153614,0.1340753,-9.5385,0.75084364,47.698532,-0.88292533,-2.271912,-3.4213092,-0.16604508,-0.11687094,-0.3120455,28.4375,29.75,28.8125,32.625,35.0625,36.125
0.24405414,-0.031040376,-1.2724664,-2.1302924,-0.03269717,0.0669072,-0.15194914,-0.4021819,-0.36281574,0.06001933,-3.077661,0.6229974,5.5050852e-05,-0.10380258,0.051431257,-0.0023286596,0.016487435,-0.013991039,0.0028355473,0.48401964,-1.3688618,1.8880123,-2.0875423,-1.5719122,2.4579492,-0.1738566,0.11029116,-0.13677144,0.046356745,-0.0084370375,-0.17660598,-0.24899697,0.21068975,-9.653421,0.80456203,47.683304,-0.9802522,-2.3953493,-3.398596,-0.18341547,-0.14243872,-0.35589218,28.4375,29.75,28.8125,32.625,35.0625,36.125
0.246054,-0.4953723,-1.1393619,-1.9936526,-0.044436228,0.096233815,-0.16377085,-0.40238038,-0.3627009,0.059974547,-3.077563,0.62295747,-5.7190056e-05,-0.10417096,0.051769037,-0.000847963,0.015895465,-0.01339547,0.0021348272,0.48367187,-1.3685746,1.8877496,-2.087446,-1.5719484,2.4575891,-0.17481883,0.10815607,-0.13825087,0.049158446,-0.008215188,-0.17686711,-0.3256114,0.17238252,-9.634268,0.8806493,47.672558,-0.9576681,-2.2615929,-3.3375778,-0.21625635,-0.14720555,-0.37931576,28.4375,29.75,28.8125,32.625,35.0625,36.125
0.24805346,-0.29991385,-1.0264106,-2.0030525,-0.053013302,0.13630493,-0.1675706,-0.40260366,-0.36260238,0.05999124,-3.0775757,0.62297434,-5.821952e-05,-0.104816005,0.052306067,-0.0012988931,0.01629427,-0.015329568,0.00693381,0.48329997,-1.3683815,1.887462,-2.0873616,-1.5719365,2.4572263,-0.17654489,0.110061,-0.1398837,0.05077362,-0.0076814867,-0.18339282,-0.34476504,0.21068975,-9.710882,0.8291774,47.672558,-0.968787,-2.395156,-3.4024992,-0.2638662,-0.16791737,-0.35401192,28.4375,29.75,28.8125,32.625,35.0625,36.125
0.25005418,-1.1006488,-1.1371611,-1.8625157,-0.051019527,0.13422069,-0.16574344,-0.40280792,-0.36251065,0.059998818,-3.0775986,0.6228946,-0.00013904847,-0.10682088,0.05096983,-0.00032898344,0.014108273,-0.0129275825,0.017067924,0.48294127,-1.3681765,1.887173,-2.0872424,-1.5718998,2.456815,-0.17648414,0.11228928,-0.1446252,0.050133828,-0.0068976926,-0.19346575,-0.38307226,0.15322891,-9.595961,0.8717007,47.675243,-1.1338533,-2.3235726,-3.1555936,-0.28179848,-0.17272036,-0.26997718,28.4375,29.75,28.8125,32.625,35.0625,36.125
0.2520537,-0.8537624,-0.9546349,-1.8261555,-0.036549848,0.14064395,-0.16775347,-0.40301976,-0.36241782,0.060019806,-3.077586,0.62271106,-5.4811462e-05,-0.10798847,0.05124465,-5.3659296e-05,0.014211262,-0.01105823,0.02700202,0.48264152,-1.3679843,1.8868746,-2.087147,-1.5719723,2.4564025,-0.177304,0.112788066,-0.14560366,0.048979737,-0.007875994,-0.20421684,-0.4405331,0.1340753,-9.634268,0.8605109,47.65912,-1.1905584,-2.4141135,-3.263287,-0.29981604,-0.17644903,-0.16544756,28.4375,29.75,28.8125,32.625,35.0625,36.125
0.25405347,-1.2561566,-0.94320416,-1.7766727,-0.027486462,0.12952964,-0.1563207,-0.40324336,-0.36230758,0.060014024,-3.077552,0.62272143,-0.00011686448,-0.10962162,0.052471872,-0.00056980905,0.014903782,-0.010986836,0.028380383,0.48225746,-1.3677434,1.8865756,-2.0870392,-1.5719723,2.4560294,-0.1803199,0.11465564,-0.1465283,0.048288926,-0.008547643,-0.20860834,-0.6512229,0.095768064,-9.595961,0.85826975,47.672558,-1.2762104,-2.399527,-3.1728117,-0.3170807,-0.19668657,-0.062424183,28.4375,29.75,28.8125,32.625,35.0625,36.125
0.25605398,-1.3269756,-0.7160148,-1.8090832,-0.018100891,0.11147895,-0.15572368,-0.40347213,-0.3622146,0.059995584,-3.0775442,0.6226823,-0.00014804129,-0.110736325,0.051956736,6.5432316e-05,0.0138407955,-0.008680615,0.024927845,0.48189834,-1.3674668,1.8862766,-2.086992,-1.5719727,2.455647,-0.18026564,0.11513457,-0.14829153,0.04703899,-0.008688509,-0.20510018,-0.7661445,0.11492168,-9.557653,0.8403672,47.679718,-1.3110778,-2.388873,-3.1933253,-0.32553202,-0.16892621,-0.07142653,28.4375,29.75,28.8125,32.625,35.0625,36.125
0.25805402,-0.8993834,-0.35681093,-1.8503593,-0.017581234,0.1015874,-0.16137967,-0.40371627,-0.36211374,0.0600305,-3.0775888,0.6225591,-5.3833075e-05,-0.111670494,0.05172621,-0.0002622745,0.013262049,-0.0077652093,0.016484093,0.481527,-1.3672861,1.8859652,-2.0869205,-1.5719966,2.4551933,-0.1806725,0.11688597,-0.14923073,0.045149468,-0.008590452,-0.1970633,-0.61291564,0.05746084,-9.557653,0.85155696,47.692257,-1.2746857,-2.4116917,-3.1655912,-0.31372577,-0.19864243,-0.12816009,28.4375,29.75,28.8125,32.625,35.0625,36.125
0.26005402,-0.6551325,-0.7825771,-1.6437482,-0.013244945,0.0969969,-0.15844278,-0.40393296,-0.36200348,0.060018606,-3.07751,0.6225654,-8.119494e-05,-0.112181194,0.05154274,-0.00043098762,0.013695297,-0.0075439108,0.009221566,0.48117954,-1.3670335,1.8856663,-2.0868132,-1.5720452,2.45486,-0.18042743,0.11839134,-0.15065427,0.045071393,-0.009088202,-0.18955317,-0.59376204,0.0,-9.481039,0.8806493,47.666286,-1.3631066,-2.4378214,-3.1238947,-0.306732,-0.20043641,-0.24370348,28.4375,29.75,28.8125,32.625,35.0625,36.125
0.26205343,-0.6620387,-0.69039565,-1.5592679,-0.019716397,0.10944099,-0.16117202,-0.40415525,-0.36191103,0.060010284,-3.0775073,0.62254953,-0.0001259047,-0.11366316,0.05130588,0.00025760537,0.013350007,-0.005277459,0.0017332565,0.48081964,-1.3667808,1.8853668,-2.0867412,-1.5720328,2.4544907,-0.18078808,0.11932439,-0.15324944,0.04457576,-0.00983838,-0.18242219,-0.7469909,0.019153614,-9.3661175,0.87617236,47.691364,-1.49261,-2.5151057,-3.0878243,-0.33505726,-0.19933432,-0.34843093,28.4375,29.75,28.8125,32.625,35.0625,36.125
0.26405403,-1.4558793,-0.5091588,-1.625098,-0.02024189,0.09734918,-0.16077192,-0.40441033,-0.36181733,0.06002331,-3.0775087,0.6225124,-5.00555e-05,-0.11405079,0.052333247,-0.0019670716,0.014374353,-0.007417072,-0.0030203662,0.4804589,-1.3665272,1.8850211,-2.086683,-1.572069,2.4541068,-0.18281378,0.12262125,-0.15157212,0.04196586,-0.009754917,-0.17969479,-0.51714754,-0.038307227,-9.251195,0.90750587,47.64927,-1.4855958,-2.6059089,-3.2541146,-0.32492822,-0.22338375,-0.45054466,28.4375,29.75,28.8125,32.625,35.0625,36.125
0.26605397,-0.88157785,-0.7021111,-1.6346817,-0.023171773,0.10585376,-0.16729447,-0.40461937,-0.3616922,0.060017902,-3.0774257,0.62255174,-0.00010398707,-0.1155659,0.0533635,-0.00046356735,0.013609493,-0.0043029008,-0.0015184408,0.48008603,-1.366312,1.8847464,-2.086551,-1.5721053,2.4537692,-0.18531778,0.12019882,-0.15206844,0.04175664,-0.010539164,-0.18369818,-0.3256114,0.0,-9.481039,0.9455522,47.65912,-1.3911549,-2.4444664,-3.2723722,-0.32317996,-0.17609227,-0.48333687,28.4375,29.75,28.8125,32.625,35.0625,36.125
0.2680535,-0.742646,-1.2499201,-1.3288642,-0.029278446,0.1012895,-0.1684006,-0.40485638,-0.3615742,0.059996024,-3.077384,0.6225381,-0.000100498255,-0.11789696,0.054303676,-0.0005078288,0.012731133,-0.0029088636,0.0073506706,0.47970065,-1.366047,1.8844713,-2.0865157,-1.5721415,2.4533808,-0.18892573,0.12184263,-0.15354955,0.03992337,-0.010434653,-0.1961744,-0.21068975,0.038307227,-9.346964,0.92093146,47.686886,-1.2672093,-2.5546312,-3.3398974,-0.30343896,-0.20727175,-0.41977566,28.4375,29.75,28.8125,32.625,35.0625,36.125
0.27005425,0.18243921,-0.86139166,-1.2369646,-0.021984672,0.10573455,-0.16633074,-0.40508673,-0.36146906,0.060005605,-3.077395,0.6224366,-9.133681e-05,-0.11912444,0.055522304,-0.001029017,0.013228971,-0.0036127311,0.018160585,0.479328,-1.3658307,1.8841718,-2.0864317,-1.5721534,2.4529436,-0.19187865,0.12331864,-0.15414138,0.039868232,-0.010573396,-0.20993647,-0.19153613,-0.038307227,-9.155427,0.8784135,47.686886,-1.3483468,-2.4680057,-3.313663,-0.2955759,-0.19256237,-0.26019725,28.4375,29.75,28.8125,32.625,35.0625,36.125
0.27205423,-0.25484633,-0.19459331,-1.3897483,-0.0055212723,0.06093209,-0.17417502,-0.40535167,-0.36138386,0.060028423,-3.0774794,0.62229663,-1.7301334e-05,-0.12001029,0.055122063,-0.0012582173,0.013094937,-0.0021085811,0.025750468,0.47894406,-1.3655897,1.8838238,-2.0863965,-1.5721415,2.4524617,-0.19151793,0.12505536,-0.15527,0.037854128,-0.011151677,-0.21716408,-0.13407528,-0.05746084,-9.270349,0.91421866,47.666286,-1.2675269,-2.5226278,-3.3951635,-0.26931524,-0.20996222,-0.1745261,28.4375,29.75,28.8125,32.625,35.0625,36.125
0.27405408,-0.27725297,0.22795364,-1.0443903,-0.0023657642,0.047571562,-0.1649978,-0.4056227,-0.3612654,0.060040206,-3.0774615,0.6223519,8.550784e-05,-0.12225419,0.054998588,-0.00030295612,0.010245124,0.0013475608,0.021788562,0.4785354,-1.3653494,1.8835019,-2.0863621,-1.5721887,2.45209,-0.1937473,0.12520786,-0.15702024,0.03505628,-0.010214856,-0.21543367,-0.15322891,-0.15322891,-9.193734,0.95226496,47.66271,-1.2206726,-2.4722507,-3.3559067,-0.22735995,-0.19350758,-0.13967636,28.4375,29.75,28.8125,32.625,35.0625,36.125
0.27605382,0.25025812,-0.3208647,-1.2836223,0.021581735,0.04787395,-0.15158734,-0.40584752,-0.3611586,0.060017962,-3.077432,0.6222739,-3.3423188e-05,-0.123008035,0.05567086,-0.0020283882,0.010962756,-0.00048601592,0.013488224,0.47815076,-1.36506,1.8831791,-2.0862424,-1.5721768,2.4516606,-0.19556278,0.12877746,-0.15704945,0.03348165,-0.010024294,-0.20894784,-0.26815057,-0.1340753,-9.136273,0.83589023,47.684196,-1.264099,-2.4046571,-3.3831477,-0.19356655,-0.19845574,-0.2159131,28.4375,29.75,28.8125,32.625,35.0625,36.125
0.2780537,-0.044445444,0.040054265,-1.1232116,0.01880648,0.046893794,-0.16879469,-0.406084,-0.3610404,0.060006455,-3.0773976,0.6222291,-2.771344e-05,-0.1249578,0.055755097,0.00066073367,0.008769716,0.00392594,0.0076990323,0.4777665,-1.3648088,1.882891,-2.0861824,-1.572213,2.451253,-0.197259,0.12587877,-0.15990718,0.03430707,-0.010111715,-0.20485392,-0.38307226,-0.095768064,-9.232041,0.8627467,47.7245,-1.097589,-2.4057198,-3.2461395,-0.17273243,-0.23046657,-0.32724744,28.4375,29.75,28.8125,32.625,35.0625,36.125
0.28005338,-0.07349337,-0.11172984,-1.3857987,0.016306246,0.06651351,-0.16385743,-0.40636498,-0.36092803,0.06004069,-3.0774224,0.6221987,6.473998e-05,-0.12686984,0.055912994,0.0016291228,0.007512282,0.0051940377,0.0025413386,0.47734568,-1.3645802,1.8825206,-2.0860984,-1.5722369,2.4508102,-0.1994137,0.12667798,-0.16328654,0.035176907,-0.009567674,-0.20185168,-0.24899697,0.0,-9.155427,0.8717007,47.74868,-1.0716604,-2.4272947,-3.3842201,-0.15750134,-0.21760252,-0.36632293,28.4375,29.75,28.8125,32.625,35.0625,36.125
0.28205398,-0.1333722,-0.108073495,-1.278538,0.00456156,0.08427593,-0.1739987,-0.40658146,-0.36079732,0.06000926,-3.077321,0.6221974,1.883421e-05,-0.12724593,0.057198636,0.0016089731,0.00816059,0.0040384894,0.0005407198,0.4769729,-1.3643161,1.8822569,-2.086014,-1.572297,2.4504497,-0.20177786,0.12630971,-0.16318679,0.03675386,-0.0096263075,-0.20221457,-0.3256114,-0.05746084,-9.193734,0.8806493,47.739727,-1.0759422,-2.2562222,-3.2917852,-0.14207435,-0.2412042,-0.40631783,28.4375,29.75,28.8125,32.625,35.0625,36.125
0.2840535,-0.24491528,-0.29926676,-1.4102407,-0.008898054,0.09540979,-0.1838406,-0.40684348,-0.3606925,0.060009394,-3.0773475,0.6221591,-8.095197e-06,-0.12832174,0.057434563,0.0023953312,0.007830091,0.004806408,0.008529419,0.47655252,-1.3640398,1.8819093,-2.0859416,-1.5722731,2.4500022,-0.20295289,0.12642926,-0.16543904,0.03803983,-0.009698553,-0.21137741,-0.28730422,0.05746084,-9.346964,0.97240865,47.688675,-1.0645522,-2.1959233,-3.245751,-0.16048528,-0.22939278,-0.3663029,28.4375,29.75,28.8125,32.625,35.0625,36.125
0.28605333,-0.7648565,-0.48459533,-1.4814829,-0.019037385,0.08976021,-0.1841467,-0.40708908,-0.36059216,0.060030375,-3.0773702,0.6220791,1.6876814e-06,-0.12821211,0.057236172,0.0021454846,0.00798987,0.003496071,0.021116659,0.47616887,-1.3638113,1.8815635,-2.0858338,-1.5722731,2.449566,-0.20268816,0.12758172,-0.16653991,0.03920199,-0.009252591,-0.22370079,-0.49799395,0.095768064,-9.404425,0.8985519,47.678825,-1.1729412,-2.1862478,-3.2536798,-0.15269068,-0.2484105,-0.23186752,28.4375,29.75,28.8125,32.625,35.0625,36.125
0.28805423,-1.0587993,-0.7761756,-1.7880621,-0.026660237,0.0988868,-0.17922409,-0.40735102,-0.36046585,0.060022995,-3.0773506,0.6220312,3.2627177e-05,-0.1283218,0.056457557,0.0019568035,0.00896836,0.0035110025,0.030589344,0.47574952,-1.363546,1.8812517,-2.0857852,-1.5723089,2.4491193,-0.20081246,0.12965816,-0.16875328,0.039753564,-0.010142872,-0.23129433,-0.40222588,0.095768064,-9.500193,0.8873621,47.709274,-1.3913138,-2.1845121,-3.2012486,-0.14715657,-0.2684071,-0.13011844,28.4375,29.75,28.8125,32.625,35.0625,36.125
0.29005483,-0.17684147,-0.6936006,-1.802885,-0.031231105,0.13131249,-0.17692442,-0.40759602,-0.3603416,0.06000419,-3.0773017,0.6219071,-4.953501e-05,-0.1280594,0.056402456,0.0013794499,0.00977138,0.0021375616,0.028753884,0.47534183,-1.3632455,1.8809046,-2.085653,-1.5723337,2.4486406,-0.20032082,0.13105737,-0.1693241,0.040508423,-0.010244891,-0.22896582,-0.40222588,0.1340753,-9.5385,0.9365982,47.685097,-1.5230694,-2.2028909,-3.2795663,-0.13375573,-0.24110231,-0.09394216,28.4375,29.75,28.8125,32.625,35.0625,36.125
0.29205343,-0.32371634,-0.68455607,-2.0374508,-0.034037326,0.1237755,-0.17922023,-0.4078634,-0.36022156,0.06001489,-3.0772967,0.6218736,-1.6390006e-05,-0.12888493,0.056974933,0.0012112051,0.009689808,0.000987048,0.01796245,0.47492108,-1.3629926,1.8805584,-2.0855696,-1.572357,2.4481997,-0.20226116,0.13238378,-0.17082441,0.041671053,-0.009634008,-0.2201159,-0.4405331,0.19153613,-9.672575,0.88289046,47.691364,-1.478952,-2.3129482,-3.3083,-0.13635722,-0.23923838,-0.1528252,28.4375,29.75,28.8125,32.625,35.0625,36.125
0.2940541,-0.50325847,-1.495675,-2.1685972,-0.037857875,0.11174901,-0.1641468,-0.40810704,-0.36009404,0.059997045,-3.077247,0.6217725,-3.3317603e-05,-0.1300732,0.05859745,0.0003549872,0.011124287,-0.00047500254,0.0060714227,0.47452387,-1.3627157,1.880248,-2.0854852,-1.5724052,2.447746,-0.20554575,0.13437954,-0.17143326,0.042242635,-0.010242821,-0.21150683,-0.38307226,0.19153613,-9.710882,0.88289046,47.70211,-1.3312304,-2.2633739,-3.3151302,-0.14248127,-0.25664622,-0.2961233,28.4375,29.75,28.8125,32.625,35.0625,36.125
0.2960541,-0.6550878,-1.820325,-2.3046384,-0.043355748,0.09033902,-0.17059173,-0.40839338,-0.35997343,0.060024448,-3.0772347,0.62192875,3.249974e-05,-0.13081574,0.059586763,-0.0010342608,0.013330203,-0.0024022094,-0.0032251682,0.47407943,-1.3624744,1.8798774,-2.0854013,-1.5724176,2.4474008,-0.20707351,0.13775837,-0.17243572,0.04259819,-0.011309647,-0.20373464,-0.40222588,0.24899697,-9.749189,0.8493211,47.690468,-1.2947271,-2.4281135,-3.3338714,-0.13108411,-0.27015442,-0.4073797,28.4375,29.75,28.8125,32.625,35.0625,36.125
0.29805398,0.2298109,-1.3895615,-2.2511725,-0.056459025,0.09464581,-0.18663296,-0.40866265,-0.35985604,0.06001978,-3.0772188,0.62186927,6.657866e-05,-0.13249882,0.060123775,0.00093558076,0.011874071,0.0012890254,-0.00605034,0.47367013,-1.3621873,1.8795303,-2.0853417,-1.5724539,2.4469566,-0.20907436,0.13528281,-0.17399518,0.04267537,-0.011703036,-0.20290914,-0.11492168,0.15322891,-9.959879,0.8403672,47.694054,-1.1898278,-2.250421,-3.3701997,-0.11693619,-0.25093043,-0.4736513,28.4375,29.75,28.8125,32.625,35.0625,36.125
0.3000535,-0.35799214,-1.7295067,-2.421547,-0.045185946,0.0623795,-0.16642572,-0.40891498,-0.3597436,0.06003716,-3.0772302,0.62176913,4.716017e-05,-0.13310575,0.061550252,-0.00074592204,0.014310129,-0.0010370461,0.0017550352,0.47326186,-1.3619456,1.8791713,-2.08521,-1.5724539,2.4464846,-0.21119514,0.13840225,-0.1739422,0.042666305,-0.012828906,-0.21283159,-0.038307227,0.22984336,-9.864111,0.9298854,47.64927,-1.1910398,-2.4053364,-3.4555984,-0.09618841,-0.24390757,-0.46257064,28.4375,29.75,28.8125,32.625,35.0625,36.125
0.30205345,0.35676098,-1.7662892,-2.143244,-0.036771372,0.07136679,-0.17163424,-0.4091938,-0.35962173,0.06002402,-3.0771987,0.6217926,5.1043193e-05,-0.13513827,0.061531432,-0.0008908148,0.01297401,-0.0014815396,0.0148824435,0.4728293,-1.3616323,1.8788117,-2.08515,-1.5724772,2.446071,-0.21363097,0.14173548,-0.17769079,0.042826653,-0.011471881,-0.22839673,-0.076614454,0.19153613,-9.634268,0.8873621,47.672558,-1.1915393,-2.448555,-3.441844,-0.09327532,-0.26057026,-0.31968832,28.4375,29.75,28.8125,32.625,35.0625,36.125
0.30405417,0.35668656,-0.8989078,-2.2446587,-0.028463587,0.05420818,-0.1848221,-0.4094813,-0.3594719,0.060025092,-3.0771506,0.62177765,0.0001308223,-0.13517499,0.06294163,-0.002466414,0.013938262,-0.004665023,0.023173105,0.47237235,-1.3613673,1.8784779,-2.0850904,-1.5725492,2.445611,-0.21626018,0.14357127,-0.17636462,0.04289507,-0.010894735,-0.23931865,-0.1340753,0.15322891,-9.672575,0.87393653,47.68062,-1.0493139,-2.473023,-3.513579,-0.07209182,-0.2516663,-0.18749622,28.4375,29.75,28.8125,32.625,35.0625,36.125
0.30605403,0.27412674,-0.86226845,-2.256625,-0.011731082,0.05064089,-0.1684497,-0.40974757,-0.35938612,0.06005161,-3.0772438,0.6216046,0.0001499168,-0.13667144,0.06364732,-0.0022592316,0.013531279,-0.003940551,0.021342896,0.47197568,-1.3611147,1.8780955,-2.0850065,-1.5725135,2.4450946,-0.218635,0.14441934,-0.1778418,0.04269741,-0.010859252,-0.23986322,-0.05746084,0.095768064,-9.653421,0.83589023,47.71286,-1.0019796,-2.5677364,-3.5339446,-0.04596488,-0.26738262,-0.13042228,28.4375,29.75,28.8125,32.625,35.0625,36.125
0.30805373,0.40641087,-0.558629,-1.8707536,-0.023144072,0.06963831,-0.18217479,-0.41001254,-0.3592661,0.060045347,-3.0772076,0.6215269,0.00013699268,-0.13747528,0.0653609,-0.003928105,0.015097704,-0.006723566,0.01031541,0.47156662,-1.3608137,1.877724,-2.0848987,-1.5725492,2.4446418,-0.22200818,0.14728731,-0.17753822,0.042718463,-0.01099247,-0.2322079,-0.2681506,0.076614454,-9.481039,0.86945957,47.687782,-0.923645,-2.7225077,-3.560429,-0.03291793,-0.2769539,-0.21197891,28.4375,29.75,28.8125,32.625,35.0625,36.125
0.3100538,-0.30709288,-0.76474166,-1.6211336,-0.018472534,0.06244352,-0.16775844,-0.410289,-0.35913935,0.060042396,-3.0772154,0.621475,0.0001601993,-0.13842475,0.06535506,-0.0021687374,0.0135774845,-0.0042861956,0.0022885427,0.4711223,-1.3605388,1.8773898,-2.08485,-1.5725616,2.4441643,-0.22283898,0.14518702,-0.17927024,0.043693766,-0.01073939,-0.22501248,-0.30645782,0.038307227,-9.385271,0.88289046,47.658226,-0.97331566,-2.3624928,-3.5328496,-0.024376571,-0.2895492,-0.31305596,28.4375,29.75,28.8125,32.625,35.0625,36.125
0.31205338,-0.077788286,0.052942704,-1.2189392,-0.018565146,0.087841384,-0.17673509,-0.41057992,-0.35900673,0.060060773,-3.077214,0.62147355,0.0001836593,-0.13793537,0.06361223,-0.0018286108,0.013658326,-0.0045190807,0.0026564484,0.47065553,-1.3602747,1.8770064,-2.0847423,-1.5725735,2.443697,-0.21936649,0.14678314,-0.18239355,0.04546347,-0.010706574,-0.2219069,-0.2681506,0.0,-9.346964,0.8537928,47.64389,-1.1117336,-2.409972,-3.435045,-0.018313905,-0.3045681,-0.36842883,28.4375,29.75,28.8125,32.625,35.0625,36.125
0.31405425,-0.65139437,-0.5550776,-1.3274467,0.023485178,0.080308855,-0.17226842,-0.4108692,-0.3588998,0.060078774,-3.077235,0.6214168,0.00028835126,-0.13839024,0.062396713,-0.0010950923,0.012456782,-0.00429642,0.007362031,0.47024804,-1.3599982,1.8766226,-2.0846937,-1.5726088,2.4432516,-0.2181722,0.14794531,-0.1858358,0.046978675,-0.009735796,-0.2254202,-0.38307226,-0.076614454,-9.212888,0.85155696,47.66271,-1.2727896,-2.524801,-3.3660598,-0.017424509,-0.30697525,-0.3943489,28.4375,29.75,28.8125,32.625,35.0625,36.125
0.31605408,-0.7258142,-0.33544502,-1.2316396,0.027659075,0.08794781,-0.16192842,-0.41114637,-0.35873786,0.060060095,-3.077154,0.6215067,0.00019362706,-0.13902168,0.06171401,-0.00017745903,0.012227571,-0.0036468916,0.019652678,0.46974438,-1.3596984,1.876275,-2.084561,-1.5726207,2.4428146,-0.21735212,0.14864177,-0.18924946,0.048984658,-0.009867337,-0.23688851,-0.22984336,-0.019153614,-9.155427,0.9365982,47.65912,-1.4147558,-2.4403894,-3.255982,-0.023428999,-0.33209074,-0.28588063,28.4375,29.75,28.8125,32.625,35.0625,36.125
0.31805363,-0.78779656,-0.19394277,-1.4011729,0.037199434,0.074392006,-0.15739389,-0.41140905,-0.35863647,0.060062896,-3.0771995,0.6212794,0.000190604,-0.13941374,0.062368453,0.00049497694,0.01290089,-0.0037473743,0.030484255,0.46934828,-1.3594109,1.875904,-2.0844767,-1.5726212,2.442271,-0.21831194,0.1479644,-0.19052407,0.05130709,-0.010439174,-0.24867819,-0.19153613,-0.019153614,-9.136273,0.91421866,47.70659,-1.4401878,-2.3339992,-3.2533274,-0.030818295,-0.32159853,-0.1456995,28.4375,29.75,28.8125,32.625,35.0625,36.125
0.32005343,0.008562412,-0.33277577,-1.4814883,0.036100455,0.072391815,-0.1649835,-0.41169074,-0.35850728,0.06007778,-3.0771878,0.6211994,0.00019543795,-0.1396023,0.06319459,0.00043586871,0.014051855,-0.0056333537,0.031571243,0.46890396,-1.3591352,1.8755087,-2.0843437,-1.5726455,2.4417784,-0.2196176,0.14858909,-0.19182149,0.05416821,-0.010620405,-0.2510699,-0.2873042,0.0,-9.212888,0.9612189,47.685097,-1.4770957,-2.217085,-3.2763677,-0.06471917,-0.3334427,-0.10318017,28.4375,29.75,28.8125,32.625,35.0625,36.125
0.32205346,-0.20399797,-0.8226083,-1.393573,0.011907106,0.06516954,-0.15847096,-0.41198236,-0.35837412,0.060070675,-3.0771577,0.62108254,0.00020947904,-0.14016144,0.064442135,0.0001598355,0.016227396,-0.0071192617,0.022547154,0.4684593,-1.3588108,1.8751134,-2.0842478,-1.5726937,2.4412649,-0.22128093,0.1497461,-0.19319765,0.05669816,-0.011888928,-0.24370484,-0.47884035,0.019153614,-9.193734,0.83813137,47.675243,-1.4967196,-2.1891985,-3.222887,-0.0908309,-0.33059913,-0.14310612,28.4375,29.75,28.8125,32.625,35.0625,36.125
0.3240537,-0.04617308,-1.120313,-1.367314,-0.012142524,0.07755238,-0.16686696,-0.4122687,-0.35824952,0.060079187,-3.0771282,0.6210448,0.00022581512,-0.14167324,0.065336205,-9.649784e-05,0.017540043,-0.008508213,0.0093152905,0.46802658,-1.3585101,1.8747052,-2.0841267,-1.57273,2.4408126,-0.22361213,0.15258455,-0.19661409,0.059118018,-0.01242977,-0.232801,-0.51714754,0.13407528,-9.174581,0.9231726,47.65643,-1.4527633,-2.243855,-3.3299103,-0.10930735,-0.3172949,-0.24586312,28.4375,29.75,28.8125,32.625,35.0625,36.125
0.32605374,-0.24530306,-1.1030264,-1.4707501,-0.018541466,0.079260714,-0.16298267,-0.41252312,-0.3580929,0.060052007,-3.077012,0.621007,0.00013342204,-0.1407868,0.06703594,0.0007392003,0.019215409,-0.010878333,-0.001093271,0.4675821,-1.3581997,1.874358,-2.0839694,-1.57279,2.4403596,-0.2253239,0.14950186,-0.19606158,0.064519346,-0.012865017,-0.22410254,-0.2681506,0.11492168,-9.270349,0.8940802,47.695843,-1.4633682,-2.1354463,-3.272581,-0.18585652,-0.32340312,-0.37873417,28.4375,29.75,28.8125,32.625,35.0625,36.125
0.32805339,-0.22474942,-1.1808026,-1.5848044,-0.025907993,0.087682106,-0.17062679,-0.41280878,-0.35794768,0.06005739,-3.0769844,0.6210226,0.000112918155,-0.14267099,0.068402596,0.00066348474,0.018714117,-0.010456659,-0.0074965055,0.46710095,-1.3579239,1.8739871,-2.0838501,-1.572802,2.4398918,-0.22924128,0.15053062,-0.19700982,0.06383236,-0.012621437,-0.22161666,-0.3830723,0.05746084,-9.32781,0.9097417,47.707485,-1.4508629,-2.163332,-3.2685483,-0.20413314,-0.32666844,-0.50441337,28.4375,29.75,28.8125,32.625,35.0625,36.125
0.33005425,-1.0166184,-1.04467,-1.2769475,-0.030851545,0.08970646,-0.175634,-0.41311187,-0.35783872,0.060078867,-3.0769997,0.6210779,9.919015e-05,-0.14328513,0.0695241,0.00010322295,0.01908089,-0.012330692,-0.00025209665,0.466644,-1.3576115,1.8735327,-2.083718,-1.5727776,2.4394677,-0.23180328,0.15172753,-0.19746237,0.06490495,-0.01212517,-0.2314245,-0.38307226,0.076614454,-9.32781,0.90750587,47.689575,-1.2388748,-2.0322645,-3.2674258,-0.24120107,-0.34179544,-0.47115505,28.4375,29.75,28.8125,32.625,35.0625,36.125
0.33205384,-0.87592137,-0.8477535,-1.5212803,-0.012747759,0.09808617,-0.16789708,-0.41342685,-0.3577133,0.06009475,-3.0770054,0.62101465,0.0001737014,-0.14432926,0.071451314,-7.8053636e-05,0.020396043,-0.014684829,0.010534876,0.4661866,-1.3572992,1.8731016,-2.0836332,-1.5728139,2.4389703,-0.23569737,0.1526184,-0.19888167,0.06808409,-0.012260371,-0.24610524,-0.19153613,-0.076614454,-9.289502,0.90750587,47.682407,-1.0351056,-2.070241,-3.2605648,-0.28984916,-0.3373139,-0.33669412,28.4375,29.75,28.8125,32.625,35.0625,36.125
0.33405438,-0.44960678,-0.29779214,-1.6776844,0.021095833,0.09812763,-0.16264544,-0.41368687,-0.357571,0.060069606,-3.0769732,0.6209268,4.2331758e-05,-0.14529288,0.07115521,0.00012133365,0.018941391,-0.013815175,0.020148074,0.4657184,-1.3569872,1.8727535,-2.083502,-1.572802,2.4384515,-0.23640907,0.15358113,-0.20031616,0.06709878,-0.011406776,-0.256431,-0.13407528,-0.05746084,-9.423578,0.8605109,47.672558,-1.0232416,-2.0328677,-3.340911,-0.32840514,-0.37040526,-0.2294377,28.4375,29.75,28.8125,32.625,35.0625,36.125
0.33605415,-0.39948905,-0.13617523,-1.6867334,0.027194541,0.080287255,-0.16644983,-0.41401428,-0.35743296,0.0600852,-3.076974,0.6209085,6.299502e-05,-0.14545085,0.07053359,-0.0019405775,0.02036752,-0.015348414,0.01883687,0.46521497,-1.3566617,1.8722991,-2.0833828,-1.5728139,2.4379368,-0.23497029,0.15868461,-0.20136407,0.065052904,-0.012004345,-0.2536781,-0.30645782,-0.15322891,-9.423578,0.8851263,47.660015,-1.023392,-2.2079883,-3.400745,-0.3230554,-0.37204427,-0.18797469,28.4375,29.75,28.8125,32.625,35.0625,36.125
0.3380541,-0.29836223,-0.2459454,-1.702771,0.008228628,0.091727406,-0.1593888,-0.4143121,-0.35726756,0.060086247,-3.0768878,0.620857,8.403042e-05,-0.14655168,0.07047608,-0.0018038321,0.019670105,-0.014150577,0.011211905,0.46473497,-1.356362,1.8719038,-2.0832403,-1.5728978,2.4374359,-0.23570527,0.15980557,-0.20283042,0.064002916,-0.011935107,-0.24678716,-0.5554548,-0.17238252,-9.232041,0.9254084,47.687782,-1.1709752,-2.1182451,-3.4426641,-0.31966245,-0.3681959,-0.29151243,28.4375,29.75,28.8125,32.625,35.0625,36.125
0.34005356,-0.73681366,-0.30096298,-1.8794718,0.015339224,0.07325708,-0.16048957,-0.41458502,-0.35714227,0.06007016,-3.0768423,0.6207535,4.2106985e-05,-0.14834844,0.070304625,-0.0015298538,0.019274993,-0.011846822,0.0057783974,0.46431473,-1.3560256,1.871508,-2.0831206,-1.572934,2.4369571,-0.23637424,0.1617092,-0.20545174,0.062483307,-0.012638713,-0.2420185,-0.38307226,-0.038307227,-9.3661175,0.9455522,47.71286,-1.3347218,-2.2132883,-3.3223386,-0.32999402,-0.36952287,-0.380688,28.4375,29.75,28.8125,32.625,35.0625,36.125
0.34205425,0.044701774,-0.3607354,-1.9519235,0.0037089863,0.087749384,-0.17874965,-0.41486135,-0.3569845,0.06006796,-3.0767787,0.6207582,-5.273949e-05,-0.14885534,0.07033291,-0.0024008662,0.019605935,-0.011764089,0.008097944,0.46382266,-1.3557371,1.8711251,-2.0829418,-1.5729464,2.4364762,-0.23648225,0.16384336,-0.2056689,0.060627624,-0.013010702,-0.24444342,-0.21068975,0.019153614,-9.576807,0.8717007,47.701214,-1.3179225,-2.3184152,-3.4190621,-0.32181352,-0.37440705,-0.41588047,28.4375,29.75,28.8125,32.625,35.0625,36.125
0.34405425,-0.4962953,-0.80721194,-1.6861589,-0.036491513,0.09393209,-0.17760034,-0.41518962,-0.3568371,0.06009199,-3.0767674,0.6207505,9.056271e-06,-0.15077722,0.07024232,-0.0022475033,0.01847347,-0.0088683,0.016487602,0.46331865,-1.3554367,1.8706816,-2.082823,-1.5729822,2.435969,-0.23759736,0.16544293,-0.20728873,0.05751641,-0.013322957,-0.25394666,-0.24899697,-0.019153614,-9.442732,0.90527004,47.694946,-1.4774435,-2.393457,-3.4698706,-0.3012178,-0.39444196,-0.35836947,28.4375,29.75,28.8125,32.625,35.0625,36.125
0.34605402,-0.39284596,-1.1210657,-1.7700897,-0.0476396,0.10058449,-0.18035844,-0.41545954,-0.356711,0.06007438,-3.0767374,0.6206227,-7.162826e-05,-0.15202063,0.07100407,-0.0025396543,0.019380774,-0.0088518495,0.028167952,0.4628861,-1.3551003,1.8702863,-2.082691,-1.5729951,2.4354608,-0.23925656,0.16728868,-0.2089352,0.057672236,-0.0141950995,-0.2672817,-0.17238253,0.114921674,-9.519346,0.9231726,47.687782,-1.5358994,-2.4180923,-3.4593449,-0.31977803,-0.37701055,-0.20292822,28.4375,29.75,28.8125,32.625,35.0625,36.125
0.34805366,-0.009594616,-1.0766861,-2.1060054,-0.055788036,0.11875961,-0.17758656,-0.41574806,-0.35656646,0.060054094,-3.076713,0.62052,-0.00013679691,-0.15391466,0.07017283,-0.0018632408,0.01704551,-0.004418473,0.032650467,0.46240592,-1.3547643,1.8699034,-2.082585,-1.573006,2.4349198,-0.23934472,0.16809833,-0.21054876,0.0534468,-0.014128534,-0.27185103,-0.19153613,0.11492168,-9.557653,0.8985519,47.66271,-1.4499028,-2.4149973,-3.4688163,-0.27690065,-0.37330145,-0.11986049,28.4375,29.75,28.8125,32.625,35.0625,36.125
0.35005328,-0.79313517,-2.0771945,-2.062203,-0.041471183,0.10082663,-0.15430893,-0.41602555,-0.35642076,0.0600284,-3.0766518,0.6203799,-0.00022363538,-0.15585719,0.07089633,-0.0026311998,0.016870357,-0.0030623903,0.022476735,0.4619491,-1.3544155,1.8695091,-2.082443,-1.5730428,2.4343836,-0.24176483,0.17074844,-0.21134914,0.05030869,-0.014601552,-0.26409373,-0.30645782,0.2681506,-9.423578,0.9768804,47.677036,-1.4191705,-2.4370134,-3.4420962,-0.23487487,-0.36884484,-0.12247059,28.4375,29.75,28.8125,32.625,35.0625,36.125
0.35205388,0.22150913,-1.6389738,-2.1310914,-0.051446926,0.10799055,-0.17048015,-0.41638592,-0.35627645,0.06005005,-3.0766728,0.6203908,-5.963558e-05,-0.15851477,0.07207186,-0.0015670222,0.015480096,0.00018861477,0.00879991,0.46143216,-1.3540925,1.8690647,-2.0824192,-1.5730909,2.433871,-0.24568237,0.17042746,-0.21310093,0.048855364,-0.014772727,-0.25433472,-0.2681506,0.2681506,-9.481039,0.900793,47.650166,-1.3364077,-2.2473083,-3.4667697,-0.18012658,-0.39497998,-0.24633512,28.4375,29.75,28.8125,32.625,35.0625,36.125
0.35405365,0.38861787,-1.186759,-1.9410805,-0.06801,0.0954856,-0.1624072,-0.41669592,-0.3561411,0.060069527,-3.0766551,0.62039423,-6.6488705e-05,-0.16040544,0.07316957,-1.7830716e-05,0.015004701,0.0023375447,-0.0036028791,0.46095094,-1.353781,1.8686093,-2.0822628,-1.5731028,2.4333944,-0.24862932,0.1691978,-0.21552476,0.05038735,-0.015293171,-0.24487644,-0.28730422,0.24899697,-9.5385,0.9947882,47.678825,-1.2501976,-2.1495948,-3.5163188,-0.20027769,-0.38432807,-0.39303386,28.4375,29.75,28.8125,32.625,35.0625,36.125
0.35605332,0.18927576,-1.3554039,-2.2082045,-0.06736446,0.092538394,-0.16422261,-0.41700798,-0.35599837,0.060029987,-3.0765915,0.6203817,-0.000109262146,-0.16262634,0.07247865,0.0011638417,0.01267844,0.0061873784,-0.0055953735,0.46047068,-1.353373,1.8681906,-2.0821917,-1.5731391,2.4329147,-0.24937215,0.17001313,-0.21879926,0.048350003,-0.014946469,-0.24362588,-0.49799395,0.38307226,-9.461885,0.91198283,47.67345,-1.1384249,-2.2953024,-3.378765,-0.17943507,-0.38829607,-0.49927312,28.4375,29.75,28.8125,32.625,35.0625,36.125
0.35805434,-0.6299228,-1.8123611,-2.2533522,-0.0536674,0.08601744,-0.16779418,-0.41736305,-0.35583016,0.06005451,-3.0765607,0.62046194,-2.0206611e-05,-0.16407616,0.072079085,0.0015567839,0.011697115,0.008634222,0.0075391717,0.45991886,-1.3530608,1.8677338,-2.0820844,-1.5731868,2.4324172,-0.24957785,0.17126034,-0.22081394,0.046438444,-0.015178439,-0.2569651,-0.2873042,0.30645782,-9.557653,0.9947882,47.686886,-1.2271614,-2.2293448,-3.3737452,-0.112604216,-0.37846065,-0.4506415,28.4375,29.75,28.8125,32.625,35.0625,36.125
0.36005405,-0.8269993,-1.4242257,-2.2472982,-0.04623515,0.10102021,-0.16811447,-0.4176571,-0.35572097,0.060049314,-3.076606,0.62029177,-6.374742e-05,-0.16410442,0.07325958,0.0012536829,0.012846509,0.0061347075,0.020117266,0.4594742,-1.352713,1.8673037,-2.081988,-1.5731629,2.4318607,-0.2514505,0.17169817,-0.22133996,0.04924156,-0.015124927,-0.2714159,-0.24899697,0.2681506,-9.481039,0.8717007,47.689575,-1.1691097,-2.175553,-3.4242597,-0.099546,-0.38729894,-0.2918823,28.4375,29.75,28.8125,32.625,35.0625,36.125
0.3620537,-0.69463277,-1.167285,-2.0701876,-0.03771264,0.124540254,-0.15880907,-0.4180221,-0.3555708,0.060074504,-3.0766163,0.6202738,6.672084e-05,-0.16514033,0.07368673,0.0020535698,0.012100761,0.0066359825,0.024537822,0.45894524,-1.3523775,1.866825,-2.0819156,-1.5732106,2.4313195,-0.25310725,0.1715251,-0.22329262,0.050550673,-0.014671694,-0.27749532,-0.34476504,0.22984336,-9.519346,0.82694155,47.65106,-1.0512908,-2.285616,-3.3900566,-0.12243702,-0.4048415,-0.16184624,28.4375,29.75,28.8125,32.625,35.0625,36.125
0.36405346,-0.79493546,-0.49117184,-2.1215682,-0.031018935,0.12059303,-0.16008887,-0.41833827,-0.35541427,0.06005951,-3.0765908,0.6202143,-1.2392404e-05,-0.16534047,0.07384333,0.00077631377,0.013765072,0.0047780224,0.018201005,0.4584177,-1.3520166,1.866393,-2.0817835,-1.5732106,2.4307582,-0.25294563,0.1748815,-0.2245845,0.050900176,-0.015348266,-0.27099288,-0.51714754,0.095768064,-9.557653,0.8940802,47.658226,-1.1094432,-2.3022847,-3.3546386,-0.08797768,-0.4077289,-0.24307245,28.4375,29.75,28.8125,32.625,35.0625,36.125
0.3660542,-1.5812056,-0.29187176,-1.9365128,-0.031530056,0.09880179,-0.16139118,-0.41870126,-0.35525423,0.060079295,-3.07657,0.62021434,0.0001280503,-0.16585037,0.07388524,0.0004672743,0.013540337,0.0039890097,0.008573562,0.45788977,-1.3516803,1.8659257,-2.081712,-1.5732831,2.4302332,-0.25359342,0.17651534,-0.22599716,0.051280905,-0.014768271,-0.26201543,-0.7469909,-0.076614454,-9.615114,0.947788,47.653748,-1.3053403,-2.1743093,-3.3690205,-0.052988485,-0.40598434,-0.31245524,28.4375,29.75,28.8125,32.625,35.0625,36.125
0.36805388,-1.5781355,-0.32112947,-1.9735341,-0.015247293,0.09066142,-0.15596505,-0.41903055,-0.35512793,0.060077783,-3.0765853,0.6201227,0.00014751145,-0.16593449,0.07379877,-8.206539e-05,0.01484513,0.0029034521,0.0067050713,0.45741013,-1.351308,1.8654598,-2.0816276,-1.573295,2.4296947,-0.25291425,0.17863683,-0.22760831,0.05232018,-0.015454729,-0.25946492,-0.61291564,-0.11492168,-9.423578,0.94331104,47.650166,-1.4061213,-2.357345,-3.4459693,-0.038543776,-0.40824896,-0.41215694,28.4375,29.75,28.8125,32.625,35.0625,36.125
0.37005365,-0.358566,-0.23108822,-2.0895576,0.0274822,0.09543826,-0.16137145,-0.41936687,-0.3549834,0.06007392,-3.0765882,0.6200982,0.00016965866,-0.16696618,0.073484674,0.00034369476,0.014541889,0.0036852688,0.013990019,0.45689437,-1.3509477,1.8650168,-2.081556,-1.5733069,2.4291635,-0.25299776,0.18002006,-0.23043747,0.052901834,-0.015544924,-0.26683226,-0.4213795,-0.2681506,-9.519346,0.9701675,47.67345,-1.4859667,-2.278557,-3.5067697,-0.041006222,-0.40321738,-0.42004684,28.4375,29.75,28.8125,32.625,35.0625,36.125
0.37205333,0.14883742,0.7803349,-1.6253222,0.011255439,0.09410182,-0.1640803,-0.41968584,-0.3548379,0.06007709,-3.076558,0.6199887,0.00018487961,-0.16782102,0.073918335,0.0013631266,0.015002052,0.0052848347,0.027729934,0.45641384,-1.3506006,1.86456,-2.081424,-1.5733551,2.4286187,-0.25355473,0.17925991,-0.23215221,0.054091103,-0.016697811,-0.2811248,-0.38307226,-0.24899697,-9.442732,0.9365982,47.64837,-1.4964359,-2.2578917,-3.4705389,-0.02356939,-0.4039098,-0.24985829,28.4375,29.75,28.8125,32.625,35.0625,36.125
0.37405398,0.76732284,0.61143804,-1.2595915,0.01317192,0.10747869,-0.1712378,-0.42004547,-0.35466602,0.060082942,-3.0765429,0.61998504,0.00024182793,-0.16896802,0.076026134,0.00065035996,0.016091602,0.003131798,0.031141663,0.45584843,-1.3502523,1.864106,-2.0813391,-1.5733913,2.4280531,-0.25782,0.18064754,-0.23259045,0.055515584,-0.016735155,-0.2888019,-0.24899697,-0.24899697,-9.155427,0.9365982,47.65643,-1.3719943,-2.2768703,-3.438923,-0.012722513,-0.3945473,-0.13152808,28.4375,29.75,28.8125,32.625,35.0625,36.125
