Tylouw/Master_Thesis_Code/training_data/batch_1/rect_rod_t0.3/sample_42_session_2.csv
timestamp[s],tcp_force_x[N],tcp_force_y[N],tcp_force_z[N],tcp_force_rx[Nm?],tcp_force_ry[Nm?],tcp_force_rz[Nm?],tcp_pose_x[m],tcp_pose_y[m],tcp_pose_z[m],tcp_pose_rx[rot_vec_x],tcp_pose_ry[rot_vec_y],tcp_pose_rz[rot_vec_z],tcp_velo_x[m/s],tcp_velo_y[m/s],tcp_velo_z[m/s],tcp_velo_rx[rot_vec_x/s],tcp_velo_ry[rot_vec_y/s],tcp_velo_rz[rot_vec_z/s],q1[rad],q2[rad],q3[rad],q4[rad],q5[rad],q6[rad],qd1[rad/s],qd2[rad/s],qd3[rad/s],qd4[rad/s],qd5[rad/s],qd6[rad/s],tool_acc_x,tool_acc_y,tool_acc_z,current_of_whole_robot[A],voltage_of_whole_robot[V],current_J1[A],current_J2[A],current_J3[A],current_J4[A],current_J5[A],current_J6[A],temp_J1[C],temp_J2[C],temp_J3[C],temp_J4[C],temp_J5[C],temp_J6[C]
9.649666e-07,0.18468349,-0.48002446,-0.54837334,-0.026896825,0.022706203,0.002262864,-0.38930225,-0.36869547,0.059967324,-3.07863,0.624894,7.657876e-05,0.00036343254,0.00022369559,0.0001787546,0.00043605914,-0.0007813816,0.00013812263,0.5050329,-1.3816199,1.9042586,-2.0918791,-1.5708655,2.4800134,-3.6025132e-05,-0.00063690706,-2.1710468e-06,0.0015338665,-0.0,-0.0001744112,0.038307227,0.15322891,-8.791509,0.74413085,47.694946,-0.19498494,-3.0866668,-2.3184652,-0.18508294,0.06287664,-0.02142955,28.375,29.75,28.75,32.5625,35.0,36.125
0.0020546499,-0.3974133,-0.4128132,-0.6596352,-0.022699645,0.011856233,0.009728988,-0.3893502,-0.36873096,0.060017385,-3.078733,0.6249149,0.00021168032,-0.00089980214,-0.00047927245,-0.0011480277,-0.0022452984,0.004033284,0.00013481581,0.5050329,-1.3816315,1.9041647,-2.0919073,-1.5708417,2.4800134,-3.531832e-05,0.0009565182,0.0035514336,-0.009124112,-0.0,-0.00017046703,0.095768064,0.19153614,-8.714894,0.75084364,47.685097,-0.16734843,-3.0232282,-2.3824954,-0.13843009,0.06941429,-0.009594969,28.375,29.75,28.75,32.5625,35.0,36.125
0.004054223,-0.050230183,-0.5053143,-0.543744,-0.025898676,0.028116314,0.00857834,-0.38933274,-0.3687257,0.059983313,-3.0787187,0.6249121,0.00015625288,-0.0013608603,-0.0007366936,-0.0018691171,-0.0024106205,0.004321824,0.00013159543,0.5050329,-1.3816068,1.9042238,-2.091955,-1.5708297,2.4800134,-3.4638615e-05,0.0028008907,0.0034940583,-0.01124362,-0.0,-0.0001660253,0.019153614,0.17238252,-8.580819,0.7172743,47.695843,-0.18090105,-3.3543057,-2.6436543,-0.040456083,0.0670616,-0.028005227,28.375,29.75,28.75,32.5625,35.0,36.125
0.006054601,-0.046795838,-0.29059547,-0.62323046,-0.022632675,0.015097634,0.014532551,-0.38936412,-0.3687111,0.060019396,-3.0787137,0.6249877,0.00029031603,-0.0005374684,-0.00027867212,-0.0007401489,-0.0012495557,0.0022437593,0.00012763536,0.5050088,-1.3816557,1.904199,-2.0919526,-1.5708774,2.4800372,-3.3984703e-05,0.0007362721,0.0020225137,-0.00532705,-0.0,-0.00016176509,0.05746084,0.11492168,-8.580819,0.73741806,47.682407,-0.14938071,-3.2828836,-2.5531282,-0.072920896,0.08835986,-0.01669218,28.375,29.75,28.75,32.5625,35.0,36.125
0.008054624,0.6646366,0.71251047,-1.0168986,0.0109807225,0.003120281,-0.0042780004,-0.38933557,-0.36870494,0.059980918,-3.078666,0.62493944,0.00021674234,-5.481817e-05,-1.0554705e-05,-0.0002905352,-0.0003848166,0.0006918487,0.00012412122,0.5050329,-1.3816198,1.9042467,-2.091964,-1.5708898,2.4800372,-3.335491e-05,9.87803e-06,0.0010749683,-0.001876545,-0.0,-0.00015771552,0.0,0.17238252,-8.734048,0.7642693,47.65643,-0.25900534,-3.2605305,-2.5177875,-0.11379276,0.053780034,-0.022622423,28.375,29.75,28.75,32.5625,35.0,36.125
0.010055009,0.480711,0.8722697,-1.3498824,0.011374037,-0.0007840241,-0.0015412915,-0.38932976,-0.36871785,0.05998356,-3.078672,0.62488335,0.00014785543,0.00065727474,0.00039134704,-0.0004094012,0.0009730033,-0.0017504572,0.00012073972,0.5050448,-1.3815958,1.9041985,-2.091903,-1.5708655,2.4800134,-4.3524135e-05,1.3252638e-07,0.0006171432,0.0013854034,-0.0,-0.00016466381,-0.019153614,0.15322891,-9.040505,0.76874626,47.64927,-0.78512275,-2.843893,-2.8246746,-0.15020545,0.060280822,-0.12189518,28.375,29.75,28.75,32.5625,35.0,36.125
0.012053928,-0.28345814,-0.32652798,-1.4697421,-0.007657772,0.004644165,-1.3884987e-05,-0.3893196,-0.36870772,0.059966628,-3.078644,0.6248556,0.00011625606,0.00065179815,0.00045009356,-0.00064750394,0.0016826504,-0.003032231,0.0040273163,0.50504476,-1.3815835,1.9042224,-2.0919025,-1.5708774,2.4799995,-0.0001483246,0.001058331,-0.00041792114,0.0028266446,-0.0,-0.0041756015,0.076614454,0.17238252,-9.174581,0.7284641,47.672558,-0.9309226,-2.751489,-2.964752,-0.14831439,0.06909816,-0.17946099,28.375,29.75,28.75,32.5625,35.0,36.125
0.014053654,-0.6939322,-1.1397432,-1.616333,-0.042133763,0.031164648,-0.0017188871,-0.3893345,-0.36869633,0.059968773,-3.0786393,0.6249132,0.00010014003,-0.0037423666,0.0058627096,-0.005589862,0.0059222197,-0.01070867,0.0005610253,0.50500417,-1.3815798,1.9042104,-2.091891,-1.5708655,2.4799955,-0.013372654,0.011066343,-0.00080062303,0.0019690744,-0.0,-0.013931801,-0.038307227,0.1340753,-9.3661175,0.7284641,47.703007,-0.40054342,-3.272996,-3.0027273,-0.1233398,0.074775495,-0.09597483,28.375,29.75,28.75,32.5625,35.0,36.125
0.016054608,-1.2922384,-1.4865652,-1.6124443,-0.06542378,0.051750273,-0.012541131,-0.38932276,-0.3686887,0.059951473,-3.0786445,0.62487245,7.982602e-06,-0.0051129344,0.005383132,-0.003904047,0.003814901,-0.0073339953,0.008429599,0.50498,-1.3815684,1.9042338,-2.0918791,-1.5708297,2.4799452,-0.013975019,0.009596855,-0.0027814007,0.0014449756,0.00020425925,-0.022402428,-0.26815057,0.19153613,-9.481039,0.66803825,47.67345,-0.46282834,-3.2481754,-2.9737804,-0.12082891,0.061917167,-0.019277561,28.375,29.75,28.75,32.5625,35.0,36.125
0.018054206,-1.1895432,-0.97957504,-1.5852001,-0.066106535,0.08547898,-0.055213336,-0.38933012,-0.36865857,0.059925396,-3.0785542,0.62487054,-6.905917e-05,-0.0052115666,0.004633944,-0.0023475846,0.0023270347,-0.0046155606,0.013088598,0.5049447,-1.3815092,1.9042095,-2.091819,-1.5708655,2.4799201,-0.01279442,0.007187907,-0.003478567,0.0014508168,0.00018674375,-0.025880918,-0.49799395,0.095768064,-9.481039,0.7463667,47.684196,-0.7394928,-2.9937837,-3.0959344,-0.11550531,0.056516517,0.014693838,28.375,29.75,28.75,32.5625,35.0,36.125
0.02005449,-1.5202426,-0.4153649,-2.0170736,-0.02045277,0.09567977,-0.07021394,-0.3893188,-0.36867204,0.059912276,-3.0785804,0.6248797,-0.000105227286,-0.0063178344,0.0054749288,-0.0022573865,0.0021888202,-0.0043028006,0.0075280443,0.50495565,-1.3814971,1.9042333,-2.0918553,-1.5708297,2.4799335,-0.015225461,0.0073866034,-0.0038899118,0.0013243337,0.00015591105,-0.02275114,-0.5554548,0.05746084,-9.615114,0.7351769,47.66271,-0.8113562,-2.8745828,-3.1797895,-0.10651351,0.06489055,-0.032092832,28.375,29.75,28.75,32.5625,35.0,36.125
0.0220542,-1.7717934,0.116248965,-2.1944885,0.01868582,0.08342114,-0.084556825,-0.38932434,-0.36866057,0.05991094,-3.0785942,0.62476975,-0.000120654244,-0.0069106133,0.0062846253,-0.0026902962,0.0033012612,-0.00651687,0.0029235173,0.50493115,-1.3814967,1.9042329,-2.0918424,-1.5708297,2.4798386,-0.01720603,0.009052076,-0.0053979196,0.003642774,0.0002556232,-0.020126715,-0.4213795,0.019153614,-9.749189,0.7978386,47.684196,-0.8122958,-2.9182045,-3.3538384,-0.12106356,0.06705055,-0.0637256,28.375,29.75,28.75,32.5625,35.0,36.125
0.024053778,-1.8752028,0.31024617,-2.0259347,0.012888849,0.07307861,-0.105233684,-0.38932484,-0.36864904,0.059882075,-3.078536,0.62485504,-0.00016545845,-0.007542529,0.006751116,-0.003254475,0.0038662683,-0.00771226,-0.00039026525,0.5049187,-1.381448,1.9042438,-2.0918543,-1.5708417,2.4798868,-0.018634928,0.010806593,-0.0062906677,0.0041002794,0.00033794486,-0.01824139,-0.6512229,0.0,-9.634268,0.7329411,47.675243,-0.81979114,-2.8642187,-3.337111,-0.1300337,0.04083723,-0.086159386,28.375,29.75,28.75,32.5625,35.0,36.125
0.026054295,-2.1060674,0.0135821495,-2.1087694,0.0048132725,0.07429689,-0.11318269,-0.38932437,-0.36863625,0.0598617,-3.0785158,0.62477463,-0.00029024738,-0.009243178,0.0062279264,-0.002635252,0.0027359368,-0.0058194594,-0.0020710265,0.5048824,-1.3813993,1.904219,-2.0917947,-1.5708174,2.4798028,-0.019386642,0.012307856,-0.009321034,0.003426322,0.00040199893,-0.017310938,-0.78529817,-0.05746084,-9.710882,0.7463667,47.71554,-0.84532374,-2.9773521,-3.3112087,-0.1203657,0.06869368,-0.11646134,28.375,29.75,28.75,32.5625,35.0,36.125
0.028054679,-1.9768701,-0.81024975,-2.4568849,0.0009050531,0.09198555,-0.12283351,-0.38935706,-0.36860976,0.059864987,-3.0784907,0.6248084,-0.00026447358,-0.010234603,0.005979423,-0.002189808,0.0019232006,-0.0042881086,-0.0029367753,0.5048224,-1.3813871,1.9041947,-2.0917833,-1.5708417,2.479767,-0.01987373,0.012746993,-0.010666375,0.002598895,0.00036761313,-0.016931508,-0.7469909,-0.1340753,-9.921572,0.73741806,47.687782,-0.92083263,-2.8890681,-3.344674,-0.09361026,0.056541845,-0.12493539,28.375,29.75,28.75,32.5625,35.0,36.125
0.030054634,-2.3230302,-0.63332546,-2.3787727,-0.021423776,0.106898546,-0.13827936,-0.38937214,-0.3686029,0.059839703,-3.0784974,0.62479085,-0.0003466786,-0.011016796,0.006247065,-0.002566474,0.0021184299,-0.0045791585,-0.003871999,0.5047741,-1.3813266,1.9041833,-2.0917947,-1.5708054,2.479707,-0.021034973,0.0142785255,-0.011552258,0.0023031412,0.0003339124,-0.017156841,-0.6703765,-0.095768064,-9.825804,0.7642693,47.658226,-0.9368874,-2.8087113,-3.3510451,-0.0939261,0.063073896,-0.15970275,28.375,29.75,28.75,32.5625,35.0,36.125
0.03205436,-2.599462,-0.47796288,-2.2747989,-0.023013659,0.0973158,-0.1489428,-0.3894127,-0.36860192,0.05988405,-3.0785186,0.62487274,-0.00021959854,-0.01222922,0.006287238,-0.0017379628,0.001529259,-0.003457926,-0.004294679,0.5047497,-1.3813626,1.9041222,-2.0917833,-1.5708297,2.479731,-0.022217356,0.014424374,-0.013799214,0.0031375135,0.00030556726,-0.01791561,-0.7469909,-0.15322891,-9.883265,0.7620334,47.642998,-0.97553146,-2.9239173,-3.2479935,-0.10585493,0.06435892,-0.15692571,28.375,29.75,28.75,32.5625,35.0,36.125
0.03405405,-1.9791168,-0.36842805,-2.261619,-0.0068174615,0.106061846,-0.16152641,-0.3894502,-0.3685888,0.059875436,-3.078528,0.62491226,-0.00024779743,-0.012126833,0.0074056746,-0.0026985009,0.0032081683,-0.0064392095,-0.004538593,0.50467736,-1.381314,1.904087,-2.0917938,-1.5708054,2.4796822,-0.023987968,0.01571761,-0.013573055,0.005039908,0.00028164103,-0.019442355,-0.8236054,-0.15322891,-9.730036,0.7911258,47.64389,-0.9726231,-2.8176167,-3.3653455,-0.107193135,0.06030096,-0.18994379,28.375,29.75,28.75,32.5625,35.0,36.125
0.036054533,-1.9617277,-0.24953811,-2.4618068,0.008184984,0.08678442,-0.17072082,-0.38948545,-0.36857507,0.059876814,-3.078512,0.624948,-0.00023474537,-0.013615666,0.007923597,-0.0019436254,0.0022591453,-0.00497962,-0.005184266,0.50462866,-1.3812782,1.9040388,-2.0917823,-1.5708174,2.479658,-0.02632541,0.015374004,-0.014861819,0.0049349153,0.00040279297,-0.021133857,-0.5363012,-0.11492168,-9.883265,0.7553206,47.690468,-0.94191706,-2.7969623,-3.3189254,-0.10838927,0.06512843,-0.17695944,28.375,29.75,28.75,32.5625,35.0,36.125
0.038054604,-1.4002533,-0.46534172,-2.4855115,0.0062896786,0.08038832,-0.1871143,-0.3894827,-0.36853406,0.05984326,-3.078423,0.6249683,-0.0002710609,-0.014374869,0.00821503,-0.0020595244,0.0021446007,-0.0047505177,-0.0049365414,0.5045923,-1.3812538,1.9040865,-2.0917828,-1.5708655,2.4796455,-0.027517533,0.016156346,-0.015411611,0.004445241,0.0003877184,-0.022573305,-0.49799395,0.019153614,-9.787497,0.7911258,47.67166,-0.9326344,-2.7796743,-3.3415089,-0.09221646,0.06643595,-0.20139194,28.375,29.75,28.75,32.5625,35.0,36.125
0.040054336,-1.0698906,-0.622376,-2.1410916,-0.008790126,0.07530679,-0.1978999,-0.3895114,-0.3685365,0.059843298,-3.0784566,0.6249174,-0.00037502006,-0.016013185,0.00818278,-0.00084290106,0.0006002951,-0.001907597,-0.0054304837,0.50453204,-1.381194,1.9040021,-2.0917227,-1.5708054,2.4795492,-0.028973838,0.015486823,-0.017218756,0.0036880772,0.00035812703,-0.023534916,-0.45968673,0.0,-9.730036,0.7709874,47.655537,-0.9479394,-2.7219095,-3.3118072,-0.09042825,0.074498,-0.2110535,28.375,29.75,28.75,32.5625,35.0,36.125
0.042054087,-0.96835417,-0.8089289,-2.1831467,-0.026125006,0.07238192,-0.21149059,-0.3895387,-0.36849794,0.05982396,-3.0783947,0.6250007,-0.0003396841,-0.01690101,0.008430973,-0.0010743284,0.0005705364,-0.001807726,-0.0051909992,0.50447166,-1.3811696,1.9040254,-2.091759,-1.5708536,2.4795487,-0.030204745,0.016779013,-0.018103868,0.0031779374,0.0003317849,-0.025004642,-0.24899697,0.038307227,-9.653421,0.7284641,47.66987,-0.94250923,-2.7921782,-3.4037893,-0.089682855,0.07257563,-0.24493267,28.375,29.75,28.75,32.5625,35.0,36.125
0.04405366,-1.5222682,-1.4119216,-2.3410196,-0.0156735,0.055538926,-0.20260046,-0.38962775,-0.36852232,0.059868842,-3.0784888,0.6251139,-0.00024564477,-0.018082948,0.008800747,-0.00029347875,-0.00016948242,-0.00042007642,-0.004798063,0.50439936,-1.3811218,1.9038695,-2.091771,-1.5708054,2.479535,-0.03191074,0.016256688,-0.01929723,0.0033222379,0.00030899188,-0.027103104,-0.19153613,0.095768064,-9.653421,0.74413085,47.64121,-0.97643054,-2.6472526,-3.3087277,-0.06469843,0.07212442,-0.22447622,28.375,29.75,28.75,32.5625,35.0,36.125
0.046054225,-0.8476989,-0.6797233,-2.3356655,-0.025762275,0.054385703,-0.19381367,-0.38964844,-0.36846817,0.059850633,-3.078428,0.6250246,-0.00024265616,-0.019536505,0.009763373,1.5147748e-05,-0.00024240959,-0.00025400365,-0.0049497597,0.5043264,-1.3811096,1.9038938,-2.0917585,-1.5708655,2.4794142,-0.034876257,0.016654162,-0.020643178,0.0040880647,0.00028912755,-0.029916372,-0.19153613,0.114921674,-9.557653,0.7418897,47.66539,-0.8209418,-2.7319818,-3.2957098,-0.065549515,0.092833966,-0.24736556,28.375,29.75,28.75,32.5625,35.0,36.125
0.048054196,-0.0007241122,-0.49714628,-2.1622486,-0.022018451,0.051236425,-0.18905807,-0.38970098,-0.36845163,0.059860583,-3.0784414,0.6251229,-0.00021158591,-0.020313537,0.010177329,-2.444806e-06,-0.00022754305,-0.00024734967,-0.0034616296,0.504242,-1.3810854,1.9038452,-2.0917704,-1.5708536,2.4793894,-0.036284503,0.017307824,-0.021399587,0.004192162,0.0002716643,-0.032812305,-0.05746084,0.17238252,-9.481039,0.7553206,47.677036,-0.7662318,-2.6356468,-3.3075285,-0.074284,0.08121504,-0.23458105,28.375,29.75,28.75,32.5625,35.0,36.125
0.05005439,-0.051284827,-0.7186848,-2.0686746,-0.013475202,0.038431905,-0.16885942,-0.38971967,-0.36843234,0.059848998,-3.0784419,0.62510407,-0.0003054137,-0.021796914,0.010599627,0.0006347832,-0.0010093154,0.0011898183,-0.004197472,0.50416946,-1.3810494,1.9038209,-2.0917346,-1.5708174,2.479305,-0.038369484,0.017333224,-0.022827962,0.0039602267,0.00025619005,-0.03416082,-0.095768064,0.15322891,-9.385271,0.79560274,47.689575,-0.7239884,-2.6493216,-3.2773247,-0.059373256,0.099060535,-0.24614397,28.375,29.75,28.75,32.5625,35.0,36.125
0.05205435,-0.7887209,-1.0832044,-2.3187811,-0.005028756,0.016166294,-0.16531065,-0.3898015,-0.36842752,0.0598759,-3.0784914,0.62517166,-0.00019141985,-0.0232565,0.011163422,0.00067916873,-0.001280308,0.0016147884,-0.004864803,0.5040849,-1.3810128,1.9037246,-2.0917704,-1.5708174,2.4792564,-0.040694956,0.018487697,-0.024237541,0.0037120457,0.00028751764,-0.035818204,0.019153614,0.11492168,-9.557653,0.71951014,47.701214,-0.76192445,-2.6504712,-3.2913742,-0.054432448,0.092248075,-0.25910473,28.375,29.75,28.75,32.5625,35.0,36.125
0.05405454,-0.64831567,-1.0508872,-2.0511138,-0.013526761,0.019309025,-0.15980442,-0.38983303,-0.36838835,0.059857912,-3.0784502,0.62518007,-0.00026308364,-0.02300665,0.010610828,0.00094924826,-0.0014313823,0.0019068643,-0.0020228229,0.5039895,-1.3809649,1.9037007,-2.0917346,-1.5708174,2.4791715,-0.03952196,0.018409982,-0.024841247,0.00406462,0.000275774,-0.03748699,0.05746084,0.22984336,-9.423578,0.800085,47.701214,-0.84827846,-2.5114772,-3.2643704,-0.036061622,0.094132826,-0.26800117,28.375,29.75,28.75,32.5625,35.0,36.125
0.05605378,-0.4841596,-0.7838979,-1.9321672,-0.028487237,0.02681765,-0.1646207,-0.38990134,-0.36836693,0.0598787,-3.0784504,0.62520033,-0.00019686103,-0.02412931,0.011498966,0.00094841456,-0.001136005,0.0013336214,-0.0035383748,0.5039048,-1.3809285,1.9036049,-2.0917099,-1.5708417,2.4790995,-0.04207173,0.019243242,-0.026057243,0.005090871,0.00029485257,-0.038520712,0.038307227,0.1340753,-9.442732,0.7620334,47.62419,-0.81295013,-2.668243,-3.2458456,-0.043294955,0.10328193,-0.2835167,28.375,29.75,28.75,32.5625,35.0,36.125
0.05805482,0.22503845,-0.68527305,-1.9301217,-0.02607187,0.045034565,-0.17040752,-0.3899471,-0.36833593,0.059866395,-3.0784311,0.62515813,-0.00016093331,-0.024904244,0.012222183,0.00048567593,-0.000681759,0.0005146222,-0.0037639395,0.5038323,-1.38088,1.903581,-2.0917342,-1.5708774,2.4790032,-0.044007324,0.02051069,-0.026536524,0.00523759,0.00029137114,-0.040230356,0.0,0.22984336,-9.32781,0.7620334,47.67614,-0.814412,-2.589941,-3.2574835,-0.0418635,0.13174061,-0.29844224,28.375,29.75,28.75,32.5625,35.0,36.125
0.06005364,-0.38845482,-0.5422052,-2.0516958,-0.017485363,0.025373066,-0.16049,-0.3899774,-0.36832565,0.059866488,-3.078445,0.62514144,-0.00019979448,-0.026024591,0.012620512,0.0010766329,-0.0012324312,0.0014566493,-0.004896645,0.5037718,-1.3808441,1.9035329,-2.0917099,-1.5708536,2.4789305,-0.045735627,0.020351505,-0.027760321,0.0055305427,0.00031628166,-0.04082556,0.0,0.15322891,-9.32781,0.73069996,47.651955,-0.77536035,-2.580665,-3.2836838,-0.040280886,0.11847742,-0.3005611,28.375,29.75,28.75,32.5625,35.0,36.125
0.062054377,-0.8361367,-0.6963529,-1.928797,-0.006512436,0.014318208,-0.17001757,-0.39004347,-0.36829376,0.059901476,-3.078457,0.62519944,-0.00012771664,-0.027021864,0.012373943,0.0018562945,-0.0020117888,0.0028545186,-0.0025512958,0.5036639,-1.3808562,1.9034594,-2.0916746,-1.5708655,2.4788573,-0.046248842,0.020459145,-0.02971742,0.005778618,0.00032204317,-0.043683328,-0.019153614,0.15322891,-9.385271,0.76874626,47.681515,-0.8170048,-2.5989919,-3.2181458,-0.048844304,0.12589015,-0.31118387,28.375,29.75,28.75,32.5625,35.0,36.125
0.06405366,-0.40214193,-0.517372,-1.7655735,-0.0065876166,0.037076507,-0.16783781,-0.39008874,-0.3682723,0.059880506,-3.0784807,0.62518513,-0.00020732229,-0.027923455,0.013055124,0.0015834032,-0.0018198792,0.0023214896,-0.0024862157,0.5035555,-1.3807836,1.9034241,-2.0916865,-1.5708174,2.4787369,-0.048286017,0.021528803,-0.030402478,0.0059550647,0.0004087659,-0.045785315,-0.19153613,0.11492168,-9.32781,0.70608455,47.695843,-0.81765455,-2.570775,-3.232071,-0.04857134,0.13100986,-0.32706642,28.375,29.75,28.75,32.5625,35.0,36.125
0.066056274,-0.34153423,-0.39848992,-1.8049227,-0.0049869088,0.051768754,-0.15943125,-0.39015353,-0.3682609,0.059896715,-3.078499,0.6251696,-0.00015169391,-0.028521663,0.01328429,0.0013583703,-0.0022185172,0.0017158434,-0.0037815855,0.50348324,-1.3807352,1.9033273,-2.0916746,-1.5708293,2.4786527,-0.049624246,0.022511432,-0.031053811,0.005959058,0.0010506143,-0.045828838,-0.1340753,0.038307227,-9.346964,0.7172743,47.675243,-0.82526004,-2.536237,-3.2783031,-0.048973322,0.12649946,-0.3359222,28.375,29.75,28.75,32.5625,35.0,36.125
0.06805445,-1.1864032,-0.3185348,-1.7393694,-0.014522736,0.049945626,-0.17058332,-0.39019918,-0.3682149,0.05989182,-3.0784686,0.625238,-0.00018186537,-0.028808136,0.013104648,0.0014320707,-0.003020242,0.0013858567,-0.0013360949,0.50336325,-1.380711,1.9033045,-2.0916507,-1.5708293,2.4785793,-0.050120607,0.022954438,-0.03178946,0.006150615,0.0019093012,-0.04877186,-0.21068975,0.019153614,-9.461885,0.8157518,47.677036,-0.84701025,-2.530415,-3.2503953,-0.04344607,0.11126408,-0.3592946,28.375,29.75,28.75,32.5625,35.0,36.125
0.070054404,-0.9098398,-0.27682164,-1.735744,-0.017873848,0.077495374,-0.16907217,-0.39029354,-0.36821422,0.059929624,-3.0785456,0.62521595,-8.227933e-05,-0.030120831,0.014308045,0.0013717334,-0.003403318,0.0007489435,-0.0019497683,0.5032661,-1.3806628,1.9031614,-2.0916502,-1.5708164,2.4784586,-0.05376296,0.023423444,-0.0323011,0.0065645385,0.0025562586,-0.051801182,-0.2681506,0.0,-9.423578,0.6725152,47.68062,-0.7307886,-2.5317016,-3.2436857,-0.051885583,0.11735187,-0.34478512,28.375,29.75,28.75,32.5625,35.0,36.125
0.07205401,-1.286515,-0.70766145,-1.8712744,-0.007271388,0.083281055,-0.1568614,-0.39030796,-0.3681771,0.059901115,-3.0785096,0.62516505,-0.00019510322,-0.030021241,0.013966125,0.0013782859,-0.0029779747,0.00056172686,0.004300835,0.50318265,-1.3806145,1.9031609,-2.091614,-1.5708045,2.478348,-0.05291389,0.02404496,-0.033198625,0.0072109704,0.0022679232,-0.057202037,-0.3256114,0.076614454,-9.404425,0.7351769,47.694946,-0.7168429,-2.5602562,-3.2199695,-0.048398484,0.12194048,-0.32022616,28.375,29.75,28.75,32.5625,35.0,36.125
0.074053735,-1.3000976,-0.18645117,-1.8360099,-0.006566711,0.087270595,-0.16325705,-0.39036232,-0.36815608,0.059901815,-3.078544,0.625134,-0.00023028054,-0.030640109,0.014328435,0.001439879,-0.0024227556,0.00038530264,0.0045418357,0.5030746,-1.3805662,1.9030994,-2.0916016,-1.5707692,2.4782162,-0.05384372,0.024740757,-0.03436565,0.008108115,0.0018660486,-0.058371685,-0.40222588,0.11492168,-9.3661175,0.7486078,47.723602,-0.9460609,-2.504898,-3.2854261,-0.0517497,0.12006062,-0.29247898,28.375,29.75,28.75,32.5625,35.0,36.125
0.07605394,-1.3153487,-0.15381107,-1.6605505,-0.00057282246,0.09335649,-0.17141166,-0.39043948,-0.36812374,0.059904456,-3.0785348,0.6251121,-0.00013941564,-0.03193256,0.014992462,0.00156183,-0.0023756789,0.0007202792,0.005311545,0.502978,-1.3805058,1.9030274,-2.0916255,-1.5708169,2.4781072,-0.05603105,0.025556924,-0.035654824,0.00830813,0.0016625655,-0.06132768,-0.38307226,0.0,-9.346964,0.78217715,47.7245,-0.8443295,-2.4827394,-3.3290448,-0.06893804,0.09944388,-0.30652025,28.375,29.75,28.75,32.5625,35.0,36.125
0.078054905,-1.1105019,-0.20491104,-1.7205541,-0.0012778876,0.08629016,-0.16373065,-0.39053312,-0.36808494,0.059939362,-3.0785408,0.6251882,-7.11019e-05,-0.033471044,0.016152693,0.0012414791,-0.0022974384,0.00044809323,0.006777283,0.50283325,-1.3804814,1.9029082,-2.0915773,-1.5708293,2.4780092,-0.059445657,0.02683567,-0.036373302,0.008022683,0.001725229,-0.06620753,-0.4405331,-0.076614454,-9.32781,0.86498255,47.687782,-0.7233536,-2.5270553,-3.2736516,-0.07131064,0.13783088,-0.25201514,28.375,29.75,28.75,32.5625,35.0,36.125
0.08005378,-0.13373913,0.35082024,-1.673769,-0.014686572,0.09934926,-0.17714988,-0.39059526,-0.36807075,0.059931543,-3.0785944,0.625119,-0.00014562465,-0.03336636,0.01528932,0.0013361962,-0.0027568366,0.0010685811,0.012315802,0.502714,-1.3803971,1.9028238,-2.0915663,-1.5707692,2.47784,-0.057948872,0.027417254,-0.037150286,0.007456566,0.0018245257,-0.070248984,-0.36391866,-0.11492168,-9.423578,0.7329411,47.66987,-0.8155794,-2.4842446,-3.280417,-0.06097585,0.13086218,-0.23088956,28.375,29.75,28.75,32.5625,35.0,36.125
0.08205399,-1.1496147,-0.15704152,-1.5474521,-0.012627886,0.08071361,-0.17159203,-0.39067265,-0.36803353,0.059936088,-3.0786,0.6250409,-0.000107923035,-0.03405358,0.015217543,0.0013310192,-0.003670366,0.00077915244,0.014930404,0.5025938,-1.3803369,1.9027394,-2.091554,-1.5707926,2.4776704,-0.059044376,0.028379902,-0.038270928,0.007422948,0.002762457,-0.07396,-0.49799395,-0.11492168,-9.461885,0.75084364,47.70659,-0.96857953,-2.4812698,-3.2915215,-0.069068946,0.11443357,-0.17010829,28.375,29.75,28.75,32.5625,35.0,36.125
0.08405371,-1.3965225,-0.46549216,-1.979094,-0.0050647254,0.079418205,-0.1628367,-0.39069983,-0.3679858,0.059896026,-3.078564,0.62499446,-0.00024815337,-0.035222415,0.015880933,0.001173631,-0.0038447105,0.00043248798,0.015373938,0.5024733,-1.3802644,1.9027394,-2.0915296,-1.5707687,2.4775255,-0.061439212,0.029534739,-0.03930316,0.007520954,0.003072558,-0.07679859,-0.5363012,-0.038307227,-9.404425,0.7866488,47.68062,-0.9148208,-2.5209312,-3.2109227,-0.06851121,0.10940866,-0.15438607,28.375,29.75,28.75,32.5625,35.0,36.125
0.08605405,-1.4353867,-0.18185572,-1.811021,-0.009075925,0.0757396,-0.15928803,-0.39079165,-0.36796382,0.05993435,-3.0786107,0.62494475,-0.00012580739,-0.03534445,0.015928598,0.0010059612,-0.0039790813,-4.0236333e-05,0.01718481,0.5023654,-1.3802401,1.9026207,-2.0915177,-1.5707921,2.4773808,-0.06184097,0.030017136,-0.039508116,0.007590194,0.0034238289,-0.079011396,-0.30645782,-0.1340753,-9.423578,0.7351769,47.672558,-0.92914283,-2.5387924,-3.2385669,-0.05361775,0.12576765,-0.09994984,28.375,29.75,28.75,32.5625,35.0,36.125
0.088053964,-0.7468834,-0.22046953,-1.7605672,-0.014533708,0.08896955,-0.16905376,-0.39087293,-0.36793008,0.05993132,-3.078629,0.6248518,-0.00012598309,-0.036326688,0.01616477,0.0010458621,-0.004061034,0.00037563662,0.016839743,0.50223327,-1.3801558,1.9025253,-2.0915062,-1.5707926,2.4771883,-0.063060224,0.031001506,-0.040727247,0.0074218228,0.003292472,-0.0798847,-0.36391866,-0.019153614,-9.404425,0.7642693,47.711063,-0.99740803,-2.4541292,-3.2112074,-0.079126716,0.10932022,-0.08892195,28.375,29.75,28.75,32.5625,35.0,36.125
0.090054095,-0.6020895,-0.3657345,-1.7755313,-0.0126207145,0.081939496,-0.16416878,-0.39093393,-0.36786965,0.059913736,-3.0785813,0.6248415,-0.00015956956,-0.036573723,0.016219135,0.00096693955,-0.0047140718,-0.00017953814,0.015989343,0.5020894,-1.3800956,1.9024886,-2.091482,-1.5708159,2.477044,-0.06389548,0.031376734,-0.041011035,0.0074983137,0.004128178,-0.07987098,-0.21068975,0.038307227,-9.3661175,0.7911258,47.705692,-0.99251294,-2.5285258,-3.2708323,-0.08695938,0.09874287,-0.059186593,28.375,29.75,28.75,32.5625,35.0,36.125
0.09205454,-0.47644266,-0.27394417,-2.069244,-0.016616551,0.06685177,-0.15931003,-0.39102748,-0.3678491,0.059907064,-3.078631,0.6248136,-0.0001686902,-0.037376657,0.016225195,0.0007894402,-0.0052666846,-0.00033678883,0.014440595,0.5019452,-1.379987,1.9023808,-2.0915062,-1.5707797,2.4768763,-0.064988084,0.0327279,-0.042126495,0.0071360883,0.004687274,-0.07941498,-0.22984336,-0.038307227,-9.461885,0.7620334,47.696735,-1.0383772,-2.5499282,-3.3021348,-0.06425593,0.09459457,-0.07164062,28.375,29.75,28.75,32.5625,35.0,36.125
0.094054036,-0.45395562,-0.46360382,-2.0564175,-0.01908648,0.054422013,-0.16573052,-0.39110604,-0.36781406,0.059921395,-3.0786433,0.624798,-0.0001523527,-0.038871866,0.015892645,0.0017070108,-0.006788853,0.001193445,0.01207982,0.5018132,-1.3799387,1.9022831,-2.0914705,-1.5707797,2.476733,-0.06617776,0.033231504,-0.044842396,0.0072731725,0.005281733,-0.07824364,-0.11492168,-0.019153614,-9.3661175,0.8023209,47.691364,-1.0820776,-2.5357242,-3.177432,-0.07026668,0.09478699,-0.076202676,28.375,29.75,28.75,32.5625,35.0,36.125
0.096053965,0.13700101,-0.5342419,-1.9666251,-0.022986054,0.050465513,-0.16030721,-0.3911915,-0.36778277,0.05992473,-3.07868,0.6247676,-9.717825e-05,-0.039283097,0.016189327,0.0014726087,-0.00682817,0.00071348605,0.0097225895,0.5016811,-1.3798786,1.9022125,-2.0915062,-1.5707797,2.4765773,-0.067215145,0.033932656,-0.04513981,0.0072711897,0.0055507496,-0.07692376,-0.114921674,0.095768064,-9.3661175,0.68146914,47.64121,-1.1130698,-2.5741477,-3.1884677,-0.054285124,0.08617446,-0.0962597,28.375,29.75,28.75,32.5625,35.0,36.125
0.09805428,-0.23025306,-0.65776,-2.0294724,-0.01997334,0.038259547,-0.15742698,-0.39124015,-0.36773723,0.05991217,-3.0786676,0.62472796,-0.00022132839,-0.03900761,0.017343918,3.248686e-05,-0.00491924,-0.0020959007,0.006387377,0.5015369,-1.3798178,1.9021529,-2.0914342,-1.5707439,2.47641,-0.06869454,0.035530724,-0.043873854,0.0077931667,0.00522691,-0.075068116,-0.05746084,0.24899697,-9.442732,0.7933669,47.64927,-1.0767415,-2.5351124,-3.3238025,-0.062075175,0.07580084,-0.11904335,28.375,29.75,28.75,32.5625,35.0,36.125
0.100054294,0.1257991,-0.790168,-2.2482688,-0.021059085,0.045638204,-0.15723561,-0.39132416,-0.36771497,0.059931193,-3.078689,0.6246953,-0.00016731776,-0.04083168,0.017528854,0.0009660506,-0.0056258384,-0.00036539085,0.0027938269,0.50142854,-1.3797575,1.9020327,-2.09141,-1.5707554,2.4762785,-0.07055402,0.03602946,-0.046695393,0.008259454,0.0050126915,-0.07333233,0.076614454,0.1340753,-9.423578,0.7530795,47.66271,-1.1200969,-2.5472314,-3.242765,-0.06995807,0.084897295,-0.16728906,28.375,29.75,28.75,32.5625,35.0,36.125
0.10205399,-0.44436693,-1.1228656,-2.1350725,-0.016614301,0.03074918,-0.14848623,-0.39142492,-0.3676937,0.05993904,-3.078722,0.6247409,-0.00014927717,-0.041980505,0.017754285,0.0011585988,-0.0057454063,0.00014892155,0.00067260873,0.5012843,-1.379661,1.9019006,-2.09141,-1.5707315,2.4761586,-0.071895696,0.037058253,-0.048389934,0.008419762,0.0048701335,-0.072551556,0.038307227,0.17238252,-9.3661175,0.7866488,47.688675,-1.1665716,-2.554339,-3.1965766,-0.07695238,0.0862683,-0.18951659,28.375,29.75,28.75,32.5625,35.0,36.125
0.10405358,-0.103998676,-0.7685766,-2.0405648,-0.028876727,0.042975232,-0.15196902,-0.39150774,-0.36763752,0.059926685,-3.0786736,0.6247315,-0.00018199609,-0.04370166,0.017984025,0.0018007561,-0.0064858766,0.0019250717,-0.0015182603,0.501128,-1.3795651,1.9018043,-2.0913618,-1.5707558,2.4760027,-0.07373499,0.03765487,-0.050460804,0.007980338,0.004657785,-0.07219889,-0.019153614,0.22984336,-9.3661175,0.83365434,47.664497,-1.1184536,-2.6243968,-3.0993195,-0.068790674,0.09408141,-0.23222047,28.375,29.75,28.75,32.5625,35.0,36.125
0.10605375,-0.4099734,-1.0111703,-2.033756,-0.029417252,0.038025636,-0.1573446,-0.39159918,-0.36759946,0.059932955,-3.0787048,0.6247361,-0.00015198001,-0.043294866,0.019059166,0.0006571264,-0.0048736683,-0.0006569416,7.47774e-05,0.500972,-1.3795047,1.9017214,-2.0913742,-1.5707444,2.4758456,-0.07504979,0.03857249,-0.049125146,0.008768163,0.0044913124,-0.07510677,-0.05746084,0.2681506,-9.481039,0.7530795,47.67793,-1.098712,-2.5373893,-3.2253704,-0.090111785,0.07942945,-0.24998063,28.375,29.75,28.75,32.5625,35.0,36.125
0.10805402,0.037742566,-1.0672549,-2.14442,-0.03530642,0.054831784,-0.15835066,-0.39167503,-0.36756468,0.05993374,-3.078707,0.6247756,-0.00019287008,-0.044000924,0.01936096,0.00086876936,-0.004827201,-0.00053420913,-0.0030719913,0.5008279,-1.3794322,1.9016255,-2.0913374,-1.5707201,2.475726,-0.07613725,0.03897981,-0.050230674,0.009383934,0.004390261,-0.073046915,-0.019153614,0.19153613,-9.3661175,0.7418897,47.694946,-1.1983643,-2.6156423,-3.2811773,-0.1103016,0.10506898,-0.2789753,28.375,29.75,28.75,32.5625,35.0,36.125
0.11005416,-0.21715608,-1.0492055,-1.9766101,-0.03502627,0.0571725,-0.15630248,-0.39177546,-0.36752015,0.059945956,-3.0787156,0.62477803,-0.0001766141,-0.045461107,0.019550255,0.0012693354,-0.0050894646,0.000562705,-0.004017553,0.5006598,-1.3793601,1.9015044,-2.0913022,-1.5707201,2.4755583,-0.07760679,0.040010322,-0.052368607,0.009405034,0.004090424,-0.07356932,-0.11492168,0.15322891,-9.346964,0.7911258,47.63852,-1.1929296,-2.52624,-3.150705,-0.08409111,0.0919324,-0.33943552,28.375,29.75,28.75,32.5625,35.0,36.125
0.112054646,-0.52956516,-0.569068,-2.146832,-0.037479956,0.05839179,-0.16074087,-0.3918537,-0.36746797,0.059930287,-3.0787206,0.62475705,-0.00020507893,-0.04559228,0.019428868,0.0009962532,-0.004802125,0.00041837423,-0.00092350703,0.50049204,-1.3792875,1.9014567,-2.0913136,-1.5707082,2.4753768,-0.07739611,0.040949162,-0.052808695,0.009173035,0.0039050665,-0.07645209,-0.05746084,0.17238252,-9.461885,0.78217715,47.64658,-1.2184854,-2.5309105,-3.2247105,-0.099124804,0.08068572,-0.33674854,28.375,29.75,28.75,32.5625,35.0,36.125
0.114053786,-0.74535346,-0.5862285,-2.2607687,-0.0311542,0.055361494,-0.14630516,-0.3919421,-0.3674419,0.05993379,-3.0787473,0.6247476,-0.00018941054,-0.047448236,0.021096028,0.0014191007,-0.004906061,0.0007914391,-0.008776269,0.50035876,-1.3792036,1.9013494,-2.0913136,-1.5706962,2.4752343,-0.08185292,0.04071333,-0.05365471,0.009879457,0.0038197536,-0.073055685,-0.076614454,0.13407528,-9.500193,0.8179876,47.716442,-1.1436872,-2.4989963,-3.2222483,-0.09452237,0.09978021,-0.42344362,28.375,29.75,28.75,32.5625,35.0,36.125
0.1160545,-0.7394033,-0.6281198,-2.1229463,-0.02277816,0.059459228,-0.15059958,-0.39206293,-0.36740938,0.05995751,-3.0787742,0.62472945,-0.00014777434,-0.047239624,0.020020423,0.00046076038,-0.004735734,-0.00032856624,-0.0046364204,0.50019217,-1.3791064,1.9011697,-2.091266,-1.5706962,2.475053,-0.08007093,0.04376372,-0.054926366,0.009164463,0.0042057764,-0.07541296,-0.17238252,0.17238252,-9.461885,0.73741806,47.692257,-1.3317934,-2.490158,-3.2045965,-0.09299854,0.08177753,-0.45842624,28.375,29.75,28.75,32.5625,35.0,36.125
0.11805471,-0.62853575,-0.4654931,-2.0286047,-0.027725272,0.07209947,-0.1547342,-0.39212322,-0.36736295,0.059938483,-3.078767,0.624746,-0.00024286953,-0.04840195,0.020809162,0.00068820856,-0.004758599,-0.0001666683,-0.0033491738,0.5000355,-1.3790342,1.901122,-2.091242,-1.57066,2.4749076,-0.082424425,0.044107698,-0.055981368,0.009726234,0.0041432627,-0.07905339,-0.22984336,0.19153613,-9.385271,0.7418897,47.611652,-1.3196521,-2.6672573,-3.2232666,-0.101582736,0.084919274,-0.46756786,28.375,29.75,28.75,32.5625,35.0,36.125
0.120053954,-0.55311763,-0.28907284,-2.0404506,-0.024382278,0.08734237,-0.16032399,-0.39224717,-0.367296,0.05993135,-3.078745,0.6247593,-0.00019103986,-0.050050464,0.021690734,0.0016981614,-0.0061444165,0.0017963533,-0.0021743537,0.49983072,-1.3789266,1.9010137,-2.091254,-1.5706962,2.474714,-0.08558217,0.0427919,-0.05662931,0.00929995,0.004417084,-0.08338626,-0.24899697,0.038307227,-9.423578,0.7396539,47.629562,-1.1570514,-2.4557145,-3.1855087,-0.10489598,0.075748995,-0.47669262,28.375,29.75,28.75,32.5625,35.0,36.125
0.12205386,-0.9381056,-0.25124055,-2.1504276,-0.008497901,0.08717907,-0.15934123,-0.3923581,-0.3672781,0.05996342,-3.0788105,0.6247666,-0.00015763722,-0.05016091,0.021411449,0.0012624409,-0.0055311066,0.0012621185,0.0066379053,0.49967542,-1.3788538,1.9008464,-2.0912182,-1.57066,2.474555,-0.08502003,0.044446625,-0.057623476,0.009407276,0.004137597,-0.09163503,-0.2681506,0.076614454,-9.5385,0.84708,47.65912,-1.3531007,-2.4988122,-3.2139769,-0.11413914,0.08057229,-0.43347883,28.375,29.75,28.75,32.5625,35.0,36.125
0.12405459,-0.5682334,0.16494161,-1.8116318,-0.017323324,0.10318931,-0.16099267,-0.39242217,-0.36722046,0.059923947,-3.0787542,0.6247344,-0.00027264864,-0.050914668,0.022187024,0.00083506014,-0.0047513233,0.00035787592,0.009028462,0.49951908,-1.3787333,1.9007853,-2.091182,-1.57066,2.4743857,-0.086849555,0.045756236,-0.058337368,0.009980629,0.0038770137,-0.095854655,-0.36391866,-0.05746084,-9.404425,0.8112748,47.711964,-1.343689,-2.5271246,-3.226367,-0.12602565,0.09539959,-0.38900873,28.375,29.75,28.75,32.5625,35.0,36.125
0.1260539,-0.67240757,-0.20126975,-1.8457223,-0.0029506562,0.10405193,-0.15239432,-0.39255625,-0.36720276,0.059961595,3.0788648,-0.62465435,0.00015610766,-0.051800918,0.023193933,3.5120283e-05,-0.0035696896,-0.0008196569,0.017174467,0.49935076,-1.3786607,1.9006189,-2.0912054,-1.5706366,2.4741535,-0.089050554,0.04768575,-0.058846492,0.010165139,0.003413716,-0.1062,-0.47884035,-0.05746084,-9.3661175,0.78888994,47.716442,-1.2952325,-2.5293055,-3.2228937,-0.13134845,0.077011615,-0.32983878,28.375,29.75,28.75,32.5625,35.0,36.125
0.12805396,-0.70680124,0.5055105,-1.9264842,-0.011897063,0.10338311,-0.1539117,-0.3926448,-0.3671556,0.059952594,-3.0788724,0.62452036,-0.00022453166,-0.054108147,0.023983536,0.0012329386,-0.0054365834,0.0018051275,0.01748053,0.49918184,-1.3785528,1.9004983,-2.0911462,-1.5706242,2.4739,-0.092724554,0.046862375,-0.060419556,0.009364247,0.0037857527,-0.110180244,-0.40222588,0.038307227,-9.404425,0.800085,47.672558,-1.2870603,-2.5810452,-3.2067573,-0.11579184,0.09052808,-0.27116174,28.375,29.75,28.75,32.5625,35.0,36.125
0.13005449,-1.3129058,-0.11442279,-1.7486026,0.0038448267,0.08990399,-0.15311357,-0.39276087,-0.3671102,0.059958246,3.0788846,-0.624461,0.00018119546,-0.053495646,0.023332547,0.0017431584,-0.005895513,0.001751153,0.02384635,0.49899077,-1.378469,1.9003915,-2.0911696,-1.5706123,2.4736705,-0.09131141,0.04607161,-0.060895447,0.010459614,0.004221601,-0.11513347,-0.4213795,-0.11492168,-9.404425,0.8247004,47.66808,-1.3398659,-2.4363785,-3.2927322,-0.12715049,0.07451082,-0.21697155,28.375,29.75,28.75,32.5625,35.0,36.125
0.13205437,-0.9979025,0.121278666,-1.7862409,-0.0018448812,0.099039346,-0.15700415,-0.3928609,-0.36704355,0.05993826,-3.0788887,0.6244427,-0.0002535829,-0.055034447,0.02428761,0.0013589476,-0.00589157,0.0012949326,0.02375068,0.49878618,-1.3783484,1.9002832,-2.091122,-1.5706123,2.473454,-0.09444886,0.047817588,-0.062052783,0.010273912,0.004426976,-0.11817508,-0.57460845,-0.1340753,-9.423578,0.76874626,47.689575,-1.4026484,-2.4878125,-3.2896698,-0.13644665,0.06531763,-0.1551726,28.375,29.75,28.75,32.5625,35.0,36.125
0.13405402,-1.1490304,0.2545255,-1.8054601,0.0025653865,0.09904654,-0.15362334,-0.39299142,-0.36698908,0.059958465,3.0789087,-0.62438995,0.00017084676,-0.056514543,0.025164787,0.0012675351,-0.0059694406,0.0010572036,0.020765478,0.49858144,-1.3782756,1.9001511,-2.0911214,-1.5706242,2.473214,-0.09738248,0.049099054,-0.06342453,0.010534605,0.0046144496,-0.11812281,-0.5554548,-0.19153613,-9.289502,0.7463667,47.694946,-1.1207343,-2.479559,-3.2619154,-0.14735729,0.06234573,-0.16036369,28.375,29.75,28.75,32.5625,35.0,36.125
0.13605426,-1.2330797,0.196932,-1.9760294,0.011049623,0.099498436,-0.14627066,-0.39309478,-0.36695656,0.059955675,3.0788982,-0.62429273,0.00023371838,-0.056862127,0.025902355,0.00091716,-0.0054993615,9.7964556e-05,0.016266724,0.4984014,-1.3781555,1.9000071,-2.0910861,-1.5705761,2.4729745,-0.09895136,0.04960901,-0.063347064,0.01102047,0.0046609603,-0.11519308,-0.63206923,-0.11492168,-9.3661175,0.7351769,47.67166,-1.3069135,-2.5038152,-3.337686,-0.16468641,0.062192135,-0.16798271,28.375,29.75,28.75,32.5625,35.0,36.125
0.13805424,-1.0276363,0.39243636,-1.8317118,0.0039338656,0.11032612,-0.14614774,-0.39322227,-0.36692163,0.05996269,3.0788984,-0.62418205,0.0001649553,-0.06058267,0.026427897,0.0025735286,-0.0072786342,0.0039879135,0.0072442796,0.49823245,-1.3780351,1.8998512,-2.091098,-1.570588,2.4727366,-0.10305107,0.05043198,-0.06799427,0.0105773965,0.004359971,-0.11026763,-0.59376204,-0.076614454,-9.3661175,0.800085,47.68599,-1.2425638,-2.4376364,-3.100203,-0.15454754,0.065941304,-0.20009384,28.375,29.75,28.75,32.5625,35.0,36.125
0.1400542,-1.1589038,-0.038942758,-1.9864895,0.004215956,0.1062034,-0.14501679,-0.39333677,-0.36684757,0.059951592,3.0788727,-0.6242563,0.00023294087,-0.06052598,0.028182838,0.001261371,-0.0055574104,0.0015957073,0.0010345362,0.49797997,-1.3779387,1.8997568,-2.0910738,-1.5705522,2.4725337,-0.105700605,0.051085934,-0.0658098,0.010668701,0.0039944965,-0.106707774,-0.51714754,0.0,-9.289502,0.73069996,47.703903,-1.0928478,-2.453414,-3.245101,-0.14175737,0.063980445,-0.27005702,28.375,29.75,28.75,32.5625,35.0,36.125
0.14205389,-1.3436611,-0.17060946,-2.108012,0.00026658626,0.09692379,-0.15191028,-0.39345333,-0.36677828,0.05994453,3.0788848,-0.624317,0.00024940932,-0.061974715,0.029450336,0.00054857426,-0.004550245,9.5239164e-05,-0.0027917442,0.49776334,-1.3778298,1.8996357,-2.091038,-1.5705642,2.4723535,-0.10903841,0.05350095,-0.06723976,0.011483117,0.0038231534,-0.10621826,-0.47884035,-0.076614454,-9.461885,0.77545905,47.688675,-0.9741479,-2.4991388,-3.2327747,-0.15948695,0.07018368,-0.31931892,28.375,29.75,28.75,32.5625,35.0,36.125
0.14405355,-0.744871,-0.40551254,-2.0444698,-0.008207983,0.10150965,-0.15208502,-0.39358008,-0.36671475,0.059965815,3.0788937,-0.624241,0.00020854273,-0.0646942,0.029467715,0.0026748201,-0.006341728,0.0039896923,-0.003807519,0.49754712,-1.377758,1.8994912,-2.0909894,-1.5705761,2.4720888,-0.11136144,0.052890424,-0.07148738,0.012064796,0.0035337699,-0.107523434,-0.61291564,-0.114921674,-9.461885,0.7284641,47.687782,-0.9138292,-2.5311055,-3.0792308,-0.16578308,0.056266844,-0.319759,28.375,29.75,28.75,32.5625,35.0,36.125
0.14605393,-1.3636302,-0.090851724,-2.3289251,-0.027697545,0.088503756,-0.1584705,-0.39371282,-0.36663923,0.059963208,3.0788696,-0.62431234,0.00024868833,-0.0639585,0.030614015,0.0012676781,-0.0045107175,0.00092632463,-0.0041318554,0.49728328,-1.3776495,1.8993605,-2.0909536,-1.5705527,2.4718726,-0.1124963,0.053816315,-0.06954938,0.012770859,0.0033919415,-0.108334504,-0.7469909,0.038307227,-9.442732,0.7777002,47.678825,-0.9441752,-2.4050035,-3.1477566,-0.18991119,0.076726615,-0.34701055,28.375,29.75,28.75,32.5625,35.0,36.125
0.14805408,-1.2689846,-0.035511307,-2.0853434,-0.039543718,0.10667293,-0.16255666,-0.39382994,-0.36660078,0.05998512,3.0788562,-0.6242903,0.0002466668,-0.0649262,0.031057246,0.0017000263,-0.005131559,0.0015810863,-0.005172684,0.49710312,-1.3775536,1.8991808,-2.090882,-1.5705403,2.4716804,-0.11424979,0.053670865,-0.07039106,0.012887662,0.0036256444,-0.10904719,-0.7086837,0.019153614,-9.461885,0.7642693,47.670765,-0.90727866,-2.3008704,-3.2372952,-0.21015269,0.07254084,-0.38105685,28.375,29.75,28.75,32.5625,35.0,36.125
0.15005395,-0.9186868,-0.52573484,-2.0726242,-0.035953213,0.12619701,-0.16322632,-0.39398596,-0.36652076,0.05997347,3.0788524,-0.6243657,0.00021163696,-0.06555597,0.030674504,0.00047987423,-0.0050527514,-0.00080721435,-0.006180133,0.4968395,-1.3774078,1.8990372,-2.090894,-1.5705637,2.4714644,-0.114814736,0.057866428,-0.072637565,0.013070203,0.0046923817,-0.10860475,-0.51714754,0.076614454,-9.423578,0.800085,47.679718,-0.8919326,-2.5659466,-3.1743526,-0.21984774,0.05562203,-0.3767369,28.375,29.75,28.75,32.5625,35.0,36.125
0.15205438,-0.9078474,-0.6882946,-2.0892327,-0.033433955,0.124280185,-0.15589395,-0.394099,-0.36646554,0.059963323,3.078882,-0.6242907,0.00026628887,-0.06668483,0.03067745,0.0017738413,-0.0065225097,0.0019689645,-0.0010531093,0.49663553,-1.3772764,1.8988937,-2.0908463,-1.5705522,2.47121,-0.11580432,0.056329004,-0.073626794,0.0124590825,0.0046541234,-0.114721276,-0.4213795,0.21068975,-9.404425,0.7777002,47.67614,-0.92680633,-2.4752424,-3.1243005,-0.21329656,0.06468409,-0.40850103,28.375,29.75,28.75,32.5625,35.0,36.125
0.15405464,-1.6350803,-0.75157815,-2.3003283,-0.026846025,0.09444774,-0.15577,-0.39423665,-0.36641172,0.059969783,3.0788407,-0.62424064,0.00026136273,-0.06665015,0.030816324,0.001432776,-0.006152725,0.0015900645,0.0034225278,0.49639595,-1.377168,1.8987507,-2.0908463,-1.570516,2.4709444,-0.11588548,0.056842253,-0.073418126,0.0122531615,0.004514255,-0.11927769,-0.2681506,0.15322891,-9.385271,0.7866488,47.678825,-1.0103766,-2.378152,-3.2393522,-0.22735244,0.06345287,-0.3692829,28.375,29.75,28.75,32.5625,35.0,36.125
0.15605459,-0.5625161,-0.14205037,-2.2364948,-0.038383506,0.08737686,-0.16272767,-0.39436895,-0.36633185,0.059949905,3.078868,-0.6243194,0.00028171172,-0.068934105,0.032203328,0.0012807439,-0.0057566785,0.0018831838,0.0070388634,0.4961551,-1.3770232,1.8986186,-2.090822,-1.5705403,2.4707494,-0.11997769,0.058739368,-0.075313896,0.012183909,0.0040179994,-0.12698458,-0.22984336,0.095768064,-9.519346,0.7978386,47.655537,-0.9941646,-2.4991732,-3.2283933,-0.23688829,0.0751877,-0.2923914,28.375,29.75,28.75,32.5625,35.0,36.125
0.15805456,-0.49664614,-0.599214,-2.274781,-0.025041653,0.06401837,-0.1436129,-0.3945265,-0.3662779,0.05997084,3.0788124,-0.6242238,0.0002046651,-0.06860963,0.031005248,0.0015316292,-0.0061486186,0.003384446,0.017278142,0.49590465,-1.3769271,1.8984627,-2.0908468,-1.570516,2.4704463,-0.11739814,0.058955353,-0.07588573,0.011039795,0.0036562008,-0.13464308,-0.22984336,0.1340753,-9.519346,0.82022345,47.684196,-1.1580569,-2.4852755,-3.1728902,-0.2268756,0.06559891,-0.23995957,28.375,29.75,28.75,32.5625,35.0,36.125
0.16005525,-0.08848752,-0.4481568,-2.3729942,-0.02234808,0.062329877,-0.16029714,-0.39466003,-0.36618122,0.05995575,3.078841,-0.6242875,0.00025112118,-0.07084193,0.033078767,0.001369074,-0.0060772607,0.0037764618,0.017785473,0.4956272,-1.3768067,1.8983434,-2.090799,-1.5705284,2.470205,-0.122743495,0.059569996,-0.07608828,0.010318174,0.0033995705,-0.14049532,-0.11492168,0.15322891,-9.442732,0.77545905,47.64389,-0.87133014,-2.417726,-3.2641902,-0.23535421,0.079894416,-0.15547943,28.375,29.75,28.75,32.5625,35.0,36.125
0.16205463,0.20472865,0.088308685,-2.3515394,-0.022483405,0.05332286,-0.16770051,-0.3948412,-0.36613306,0.059989583,3.0788014,-0.6241791,0.00010816948,-0.07289594,0.032095432,0.002853527,-0.0075739035,0.0071231886,0.021603987,0.49538782,-1.3766863,1.8981265,-2.090811,-1.5705408,2.4699032,-0.12275635,0.060558442,-0.08061516,0.01020153,0.003132119,-0.14432397,-0.038307227,0.11492168,-9.423578,0.7284641,47.672558,-1.0127258,-2.4017901,-3.1274567,-0.21526912,0.08727315,-0.104817115,28.375,29.75,28.75,32.5625,35.0,36.125
0.16405386,0.09463965,-0.094129495,-2.206591,-0.025854722,0.04994443,-0.16741289,-0.39496666,-0.3660575,0.059954643,3.0788796,-0.62411994,0.00017393571,-0.072039045,0.03298686,0.0016668125,-0.007063088,0.0043374645,0.01679365,0.49516013,-1.3765061,1.8979839,-2.0907748,-1.5705642,2.4696288,-0.12398359,0.060711592,-0.078117855,0.01023864,0.0040035695,-0.14074342,-0.11492168,0.15322891,-9.3661175,0.7642693,47.674347,-0.9735223,-2.419549,-3.2361774,-0.21926522,0.08527843,-0.10518661,28.375,29.75,28.75,32.5625,35.0,36.125
0.16605408,0.10468862,-0.5720296,-2.247818,-0.020425284,0.050831456,-0.15361442,-0.39509833,-0.36599672,0.05996377,3.0788393,-0.6240965,0.00020940209,-0.07393875,0.033770997,0.0018360608,-0.007642729,0.0041115223,0.008413522,0.49490738,-1.3764094,1.8978404,-2.090739,-1.570516,2.4693666,-0.12739015,0.062304243,-0.080576956,0.011033266,0.0046208887,-0.13576958,-0.019153614,0.076614454,-9.423578,0.69937176,47.675243,-1.0493636,-2.4207742,-3.213357,-0.23362148,0.08570262,-0.16832848,28.375,29.75,28.75,32.5625,35.0,36.125
0.16805446,0.110070474,-0.19160497,-2.2387955,-0.015524007,0.05149048,-0.15708706,-0.39525938,-0.36593282,0.05997289,3.0788186,-0.6240346,0.00017908672,-0.07403022,0.032250665,0.0026953544,-0.008934758,0.0057694684,0.006110596,0.4946448,-1.3762773,1.8976601,-2.0907266,-1.5705036,2.469068,-0.12508902,0.06247814,-0.082721464,0.010932061,0.0049727308,-0.131165,0.05746084,0.076614454,-9.385271,0.800085,47.693153,-1.0970083,-2.3807082,-3.0104804,-0.2430523,0.08386822,-0.20799759,28.375,29.75,28.75,32.5625,35.0,36.125
0.17005427,-0.17738158,-0.491199,-2.429746,-0.015571063,0.038011722,-0.14467236,-0.3954072,-0.3658919,0.05998585,3.0787542,-0.624006,0.00019651449,-0.075530626,0.03387975,0.002561235,-0.008503308,0.005994112,-0.0017124949,0.4944037,-1.3761451,1.8974684,-2.0907028,-1.570444,2.4688172,-0.1288626,0.062765814,-0.08269786,0.010637566,0.004492373,-0.1271146,0.095768064,0.05746084,-9.385271,0.8247004,47.687782,-0.9489362,-2.3045256,-3.2475483,-0.25020528,0.09566553,-0.2728298,28.375,29.75,28.75,32.5625,35.0,36.125
0.17205396,0.42709562,-0.32895038,-2.0867975,-0.027604023,0.053561985,-0.15409245,-0.39558002,-0.36578774,0.059989125,3.078748,-0.62413836,0.00014625867,-0.07577839,0.03333338,0.0026266156,-0.008526881,0.006101905,-0.003040477,0.49409294,-1.3760245,1.8973125,-2.090679,-1.5704802,2.46859,-0.1281065,0.063914135,-0.08429213,0.010973935,0.004463541,-0.12502965,0.0,0.11492168,-9.404425,0.8179876,47.68599,-1.1219596,-2.3799872,-3.130834,-0.23561421,0.08571093,-0.3512981,28.375,29.75,28.75,32.5625,35.0,36.125
0.17405456,0.23755969,-0.4010759,-2.2503123,-0.03302802,0.041416835,-0.15118988,-0.39570132,-0.36571807,0.059974417,3.0787818,-0.6240881,0.00019082343,-0.076553605,0.03400625,0.0026966678,-0.008228058,0.006185216,-0.006072692,0.49386483,-1.3758924,1.8971809,-2.0906427,-1.5704802,2.4683263,-0.12972452,0.06421073,-0.084897526,0.011352913,0.004157992,-0.123614945,-0.038307227,0.095768064,-9.346964,0.8112748,47.701214,-1.1966131,-2.3606195,-3.1574798,-0.25161672,0.088159144,-0.3977849,28.375,29.75,28.75,32.5625,35.0,36.125
0.17605433,-0.35419136,-1.3289486,-2.4459913,-0.01868833,0.030656174,-0.14292565,-0.39584833,-0.36566526,0.05999199,3.078787,-0.623993,0.0001374992,-0.076751634,0.034646366,0.0017950396,-0.007726147,0.0038250107,-0.00861911,0.4936489,-1.3757718,1.8969897,-2.090607,-1.5704917,2.4680505,-0.13136916,0.06593527,-0.08507394,0.012117886,0.004842039,-0.12271373,-0.038307227,0.15322891,-9.289502,0.8985519,47.68599,-1.1118112,-2.333308,-3.255662,-0.26523393,0.09718259,-0.46941972,28.375,29.75,28.75,32.5625,35.0,36.125
0.17805424,0.3402097,-0.56188774,-2.291627,-0.04289221,0.048776872,-0.16140598,-0.3960224,-0.36558765,0.059976697,3.0787349,-0.6241142,0.0001751576,-0.07717426,0.034870505,0.0016600254,-0.008143236,0.0033757589,-0.0073471675,0.49333724,-1.3755914,1.8968104,-2.090607,-1.5704559,2.4678211,-0.13244383,0.06651976,-0.085476525,0.012138588,0.005423506,-0.12506095,0.019153614,0.17238252,-9.442732,0.81351066,47.66987,-1.1107241,-2.3723161,-3.2536674,-0.28231177,0.08706531,-0.50912565,28.375,29.75,28.75,32.5625,35.0,36.125
0.18005423,-0.0075768055,-0.78134686,-2.1723082,-0.042970255,0.05351022,-0.14842105,-0.39617866,-0.3655278,0.059980247,3.0787427,-0.62405366,0.000109009125,-0.07840308,0.035631105,0.0015901754,-0.008042174,0.003151185,-0.0025527664,0.49310884,-1.3754467,1.8966306,-2.090607,-1.5704798,2.467554,-0.13481566,0.06764925,-0.08675709,0.012535217,0.005445591,-0.1322264,0.0,0.22984336,-9.442732,0.8403672,47.672558,-1.1109916,-2.303787,-3.2373123,-0.26700103,0.08465576,-0.4988719,28.375,29.75,28.75,32.5625,35.0,36.125
0.18205376,-0.3907545,-0.79306906,-2.109885,-0.04055182,0.06192266,-0.15419975,-0.39632913,-0.3654587,0.059996624,3.0787053,-0.62406105,0.0001322768,-0.079176694,0.03608611,0.0013519678,-0.008092093,0.0024224736,0.003951872,0.49283293,-1.3753381,1.8964509,-2.0905468,-1.5704435,2.4672875,-0.13648614,0.06886132,-0.08775341,0.012944932,0.0058372905,-0.14040145,-0.038307227,0.21068975,-9.346964,0.86498255,47.701214,-1.1425183,-2.3774788,-3.2759829,-0.2795229,0.078309566,-0.4163904,28.375,29.75,28.75,32.5625,35.0,36.125
0.18405455,-0.85285413,-0.7111456,-2.202884,-0.030873405,0.06644992,-0.15377553,-0.39648134,-0.36539033,0.059991747,3.078661,-0.62406516,0.00014137202,-0.08015237,0.036639404,0.0015364052,-0.008660465,0.0027152891,0.013951937,0.49255675,-1.375206,1.8963078,-2.0905588,-1.5704073,2.4670196,-0.13848855,0.06907952,-0.08842557,0.012881175,0.00620445,-0.152404,-0.038307227,0.15322891,-9.442732,0.8314132,47.672558,-1.086235,-2.3783972,-3.282483,-0.304587,0.081046484,-0.31192717,28.375,29.75,28.75,32.5625,35.0,36.125
0.18605398,-0.7977664,-0.6713967,-2.1336813,-0.022070536,0.08161838,-0.15351774,-0.39666176,-0.36530975,0.0600003,3.0786772,-0.6239473,0.00012767229,-0.08101359,0.036775462,0.0017419881,-0.0090267435,0.0028076172,0.020195043,0.4922569,-1.3750496,1.8960918,-2.0905106,-1.5704073,2.4666443,-0.13962378,0.069891624,-0.089977644,0.013369817,0.0064861192,-0.15978196,-0.19153613,0.0,-9.442732,0.78888994,47.699425,-1.0009924,-2.298444,-3.287407,-0.30859867,0.061027415,-0.22814006,28.375,29.75,28.75,32.5625,35.0,36.125
0.18805404,-1.2687054,-0.4818594,-1.8314829,-0.02311284,0.08465802,-0.1417441,-0.3968115,-0.3652364,0.060006596,3.0786676,-0.6239246,7.398502e-05,-0.08184744,0.03745163,0.0009806887,-0.009809623,0.0012118237,0.021186378,0.49200445,-1.3749411,1.8959488,-2.090511,-1.5704187,2.466379,-0.14237785,0.07156509,-0.09013007,0.012881114,0.00793649,-0.16352867,-0.38307226,0.019153614,-9.442732,0.7665104,47.68599,-0.91033435,-2.3074377,-3.3382173,-0.30673826,0.046084426,-0.17016944,28.375,29.75,28.75,32.5625,35.0,36.125
0.19005401,-0.90357953,0.026471823,-1.804271,-0.024021497,0.1074475,-0.15545693,-0.39697134,-0.36516988,0.06001405,3.0786438,-0.62386185,0.00012541313,-0.082573615,0.037504412,0.0010062266,-0.009865079,0.0013847179,0.019522624,0.49171728,-1.3747962,1.8957461,-2.090451,-1.5703706,2.4660556,-0.14305604,0.07260211,-0.09145605,0.0130015155,0.007902177,-0.16254242,-0.45968673,0.0,-9.346964,0.80679786,47.698532,-1.1438589,-2.4369223,-3.3802624,-0.31500593,0.051018536,-0.13957141,28.375,29.75,28.75,32.5625,35.0,36.125
0.19205442,-0.99560463,0.24775101,-2.0352147,-0.012670526,0.11134139,-0.14941041,-0.39715564,-0.3650867,0.06001126,3.078648,-0.6238067,8.281541e-05,-0.08281251,0.03768638,0.0015054793,-0.010062401,0.0025708287,0.014957682,0.4914176,-1.3746287,1.8955535,-2.090451,-1.570383,2.4657211,-0.14328793,0.071575016,-0.091328055,0.0127621945,0.007521131,-0.1582089,-0.59376204,-0.05746084,-9.385271,0.800085,47.679718,-1.039817,-2.1616569,-3.2500794,-0.31382912,0.03488233,-0.20652711,28.375,29.75,28.75,32.5625,35.0,36.125
0.19405411,-0.96357346,0.2682661,-1.9597661,-0.005380506,0.120281726,-0.15103717,-0.39729598,-0.36500737,0.060000956,3.078657,-0.6237536,0.00013825823,-0.083239056,0.038418442,-0.00037774647,-0.007766768,-0.00030103212,0.008298169,0.49114186,-1.3744949,1.89541,-2.0904152,-1.5703591,2.4654112,-0.1444496,0.07575038,-0.09205525,0.01293558,0.006846968,-0.15270948,-0.59376204,-0.11492168,-9.385271,0.8247004,47.668976,-1.1803962,-2.2254214,-3.3888707,-0.32197702,0.03186524,-0.26855445,28.375,29.75,28.75,32.5625,35.0,36.125
0.19605425,-1.3704505,0.3243802,-1.8264722,-0.0017382967,0.11489135,-0.14460282,-0.3974608,-0.3649367,0.060001355,3.0786674,-0.62369794,0.00016713278,-0.085590474,0.037959974,0.0006655447,-0.008758539,0.0024707583,0.0057607302,0.490866,-1.3743261,1.8951949,-2.0903552,-1.5703472,2.4650993,-0.14548345,0.077458054,-0.09640797,0.012673472,0.006403491,-0.15120342,-0.6512228,-0.17238252,-9.308657,0.7978386,47.672558,-1.1865504,-2.4435067,-3.2289522,-0.3227289,0.04289142,-0.31135517,28.375,29.75,28.75,32.5625,35.0,36.125
0.19805336,-1.3685547,0.07570738,-1.8808074,0.017778961,0.11035208,-0.14726442,-0.39763343,-0.36486444,0.060004476,3.078615,-0.62370735,0.00016186565,-0.08595048,0.03935203,-0.00016869452,-0.0077879312,0.0015742964,0.0027348618,0.49056566,-1.374182,1.8950166,-2.0903552,-1.5703114,2.4648116,-0.14783597,0.0778416,-0.09481398,0.011952679,0.005978393,-0.15052985,-0.59376204,-0.21068975,-9.346964,0.900793,47.65912,-1.0368266,-2.323344,-3.4687178,-0.31682703,0.04189487,-0.35384202,28.375,29.75,28.75,32.5625,35.0,36.125
0.20005395,-0.88822025,0.3358764,-1.7422934,0.009898738,0.11046624,-0.14925928,-0.39781827,-0.36477557,0.060001828,3.078591,-0.6237023,0.00014556668,-0.08833868,0.040740654,-0.00012060633,-0.00726757,0.0021614719,-0.0005095367,0.49024123,-1.3740252,1.8948363,-2.0903552,-1.5702995,2.464487,-0.15182328,0.07964863,-0.097139016,0.012204518,0.0052436874,-0.15127055,-0.6512228,-0.21068975,-9.385271,0.8179876,47.667187,-1.0998652,-2.353019,-3.2611933,-0.31225148,0.061017066,-0.37728813,28.375,29.75,28.75,32.5625,35.0,36.125
0.20205377,-1.2314882,0.06361022,-1.582944,0.0059347027,0.10361093,-0.13997209,-0.39801258,-0.36471364,0.060027838,3.0785413,-0.6237067,8.3578096e-05,-0.089379944,0.04023664,0.0008165512,-0.008035496,0.0044188295,0.0042742332,0.48995405,-1.3738692,1.8945836,-2.0903194,-1.5702881,2.464209,-0.15161885,0.07973326,-0.09932473,0.011959114,0.004865653,-0.15584826,-0.6512228,-0.095768064,-9.193734,0.80456203,47.687782,-1.1508929,-2.404874,-3.2742717,-0.30300018,0.053876452,-0.3866126,28.375,29.75,28.75,32.5625,35.0,36.125
0.20405449,-1.3744298,-0.073629186,-1.7121154,0.004399854,0.10908877,-0.15024848,-0.39817998,-0.3646045,0.060004216,3.078573,-0.6237073,0.00014462312,-0.08935444,0.04027423,0.0009703833,-0.008100251,0.003880447,0.012903879,0.4896186,-1.3737009,1.8944291,-2.0902832,-1.5702876,2.46387,-0.15179715,0.07971521,-0.09990303,0.013004547,0.00517399,-0.16465673,-0.7661445,0.0,-9.193734,0.8537928,47.678825,-1.211999,-2.3582964,-3.222722,-0.3124994,0.0683852,-0.31620726,28.375,29.75,28.75,32.5625,35.0,36.125
0.20605433,-0.5694511,0.26205432,-1.7410873,-0.0018952541,0.12637584,-0.16046129,-0.39834583,-0.36451814,0.05998598,3.0786138,-0.62363243,0.00016383421,-0.08972137,0.040906306,-0.00084360654,-0.0066085244,0.0005598109,0.022027783,0.48933065,-1.3735193,1.8942493,-2.0902593,-1.5702995,2.4635303,-0.15329422,0.08371417,-0.100630015,0.013367799,0.0054174424,-0.1752773,-0.49799395,-0.038307227,-9.251195,0.8403672,47.677036,-1.1680989,-2.424337,-3.2585723,-0.34463918,0.049976528,-0.20766006,28.375,29.75,28.75,32.5625,35.0,36.125
0.20805402,-1.2321374,-0.54927486,-1.727592,-0.009824463,0.116582654,-0.14960934,-0.39852747,-0.36445117,0.060007047,3.0785937,-0.6234697,0.00015503704,-0.09115837,0.04027808,0.0014669546,-0.00939436,0.0036533892,0.027305732,0.4890314,-1.373376,1.89402,-2.0902107,-1.5702633,2.4631321,-0.15409687,0.0817237,-0.10377552,0.014471205,0.0064282594,-0.18135814,-0.40222588,0.1340753,-9.346964,0.8247004,47.687782,-1.2555845,-2.2979522,-3.0932856,-0.3378111,0.049370024,-0.11722608,28.375,29.75,28.75,32.5625,35.0,36.125
0.21005419,-1.0412866,-0.6672574,-1.6864638,-0.021037674,0.11289231,-0.13949354,-0.39873874,-0.36435074,0.059991553,3.078599,-0.62345153,0.00015897243,-0.09042247,0.041028474,-0.00028566676,-0.007981604,0.0005854323,0.027922224,0.48867163,-1.3731593,1.8937949,-2.0901992,-1.5702633,2.4627604,-0.15475309,0.08353551,-0.10189006,0.014148324,0.006626962,-0.18263158,-0.4213795,0.11492168,-9.289502,0.81351066,47.696735,-1.265783,-2.27783,-3.363503,-0.33763012,0.03103568,-0.053221475,28.375,29.75,28.75,32.5625,35.0,36.125
0.21205434,-0.5558185,-0.6751514,-1.9193153,-0.02294623,0.09899825,-0.13870831,-0.39890468,-0.3642672,0.05999497,3.078628,-0.6233248,0.00010675941,-0.092823535,0.040672444,-7.146349e-06,-0.008349603,0.001956899,0.021325754,0.4883961,-1.3730258,1.8936256,-2.0901868,-1.5702871,2.4624023,-0.15606384,0.086983144,-0.10660659,0.014029924,0.0063019237,-0.17734294,-0.4213795,0.076614454,-9.251195,0.8112748,47.65912,-1.2765174,-2.4861927,-3.1273108,-0.34343952,0.03646769,-0.091182664,28.375,29.75,28.75,32.5625,35.0,36.125
0.21405484,-0.33831424,-0.46225154,-1.8763106,-0.03307913,0.083683014,-0.14097525,-0.39911336,-0.36416265,0.05998452,3.0786033,-0.62343854,0.00013398359,-0.09284066,0.0414425,-1.7228422e-05,-0.008376171,0.0021282723,0.011747699,0.48802462,-1.372822,1.8933991,-2.0901515,-1.5702752,2.462105,-0.15727042,0.08586464,-0.10515821,0.013537345,0.0062448177,-0.16897221,-0.3256114,0.19153614,-9.346964,0.800085,47.6421,-1.3753626,-2.2886825,-3.3256874,-0.33478385,0.031060483,-0.17749745,28.375,29.75,28.75,32.5625,35.0,36.125
0.21605445,0.03812374,-0.16060911,-1.682417,-0.040525485,0.07001255,-0.14732534,-0.39931327,-0.3640905,0.059998944,3.0785499,-0.62341094,0.00011416711,-0.094283015,0.041360922,-0.0001903728,-0.008839644,0.0019302724,0.0038555746,0.48770076,-1.372653,1.8931597,-2.0901277,-1.570239,2.4617708,-0.15867516,0.08852348,-0.10796501,0.013646369,0.006748928,-0.16248366,-0.21068975,0.22984336,-9.308657,0.7709874,47.66271,-1.2889532,-2.4006252,-3.2167058,-0.34608194,0.0469264,-0.24894783,28.375,29.75,28.75,32.5625,35.0,36.125
0.21805425,-0.38031414,-0.49825642,-2.049451,-0.027998602,0.042139504,-0.13229437,-0.39950174,-0.3639943,0.059998203,3.0785787,-0.62342,5.1725627e-05,-0.09718824,0.043154765,0.00048324929,-0.009130337,0.0036761763,-0.0042291186,0.48739934,-1.3724847,1.8929557,-2.0901034,-1.5702876,2.4614716,-0.16389774,0.08898079,-0.110038735,0.013579126,0.006186182,-0.15961996,-0.17238252,0.24899697,-9.404425,0.8224646,47.658226,-1.0505074,-2.4754035,-3.1610823,-0.33338973,0.02475981,-0.34465235,28.375,29.75,28.75,32.5625,35.0,36.125
0.22005434,0.4959255,-0.25094453,-1.9207865,-0.03725734,0.056524646,-0.1461568,-0.39970317,-0.36390856,0.0599682,3.0785556,-0.6234351,0.000103838946,-0.09826176,0.043674864,5.746176e-05,-0.008690507,0.003450242,-0.010022915,0.48705173,-1.3722439,1.8927401,-2.0901153,-1.5702518,2.4611363,-0.16548914,0.090850055,-0.11126328,0.013347012,0.005899242,-0.15541656,-0.076614454,0.21068975,-9.3661175,0.83365434,47.67166,-1.0948744,-2.4968522,-3.1650648,-0.31875777,0.04615684,-0.4525355,28.375,29.75,28.75,32.5625,35.0,36.125
0.22205412,0.47314242,-0.39119154,-2.0558796,-0.04688748,0.050482277,-0.148737,-0.3998815,-0.36381474,0.05997753,3.0785043,-0.6235005,0.00015206909,-0.09954539,0.044256765,0.00035154662,-0.008991445,0.0037944678,-0.010233518,0.48670375,-1.3721113,1.8925475,-2.0900552,-1.5702037,2.4608357,-0.16762152,0.09153113,-0.11286231,0.013830193,0.0060048727,-0.15733781,0.038307227,0.22984336,-9.3661175,0.7463667,47.682407,-0.9752057,-2.5388823,-3.0955753,-0.32311758,0.043914042,-0.51511884,28.375,29.75,28.75,32.5625,35.0,36.125
0.22405374,0.20886455,-1.2651445,-2.0845916,-0.038536258,0.05170228,-0.14115144,-0.40008995,-0.36371484,0.05999025,3.0785153,-0.6234962,0.00014223806,-0.100622125,0.045067355,0.0003501536,-0.008487052,0.0034957693,-0.0027130342,0.4863558,-1.3719308,1.8922848,-2.0899713,-1.5702156,2.4604838,-0.16969234,0.09251804,-0.1142557,0.014742729,0.0057028458,-0.16692819,-0.095768064,0.34476504,-9.346964,0.80456203,47.68599,-1.0039325,-2.611115,-3.0770757,-0.33361518,0.035705034,-0.44412684,28.375,29.75,28.75,32.5625,35.0,36.125
0.22605374,-0.033430703,-1.2387403,-2.0583065,-0.04461283,0.06396487,-0.1434637,-0.40027767,-0.36363015,0.05997256,3.0785208,-0.6234694,0.00014444416,-0.10085654,0.044851374,0.00035784263,-0.0088994345,0.003300446,0.010192539,0.48604453,-1.3717264,1.8920816,-2.0899713,-1.5702151,2.4601552,-0.16975595,0.09319853,-0.11514559,0.014938987,0.0061629815,-0.17989753,-0.05746084,0.24899697,-9.404425,0.8314132,47.691364,-1.2163628,-2.5222096,-3.1180634,-0.34735245,0.061291263,-0.37470868,28.375,29.75,28.75,32.5625,35.0,36.125
0.22805448,0.27484643,-0.909988,-2.1775243,-0.052028954,0.08119204,-0.14729935,-0.40048194,-0.36354414,0.059968177,3.0785136,-0.62342244,0.00014365453,-0.10127713,0.044773582,0.00015222299,-0.009178601,0.0030313865,0.020833252,0.48570925,-1.3715218,1.8918427,-2.0899475,-1.5702032,2.4597917,-0.17016126,0.094336346,-0.11601639,0.014788225,0.006540808,-0.19094345,-0.038307227,0.2681506,-9.519346,0.80456203,47.666286,-1.1337183,-2.527056,-3.0950103,-0.33884725,0.040346194,-0.24477485,28.375,29.75,28.75,32.5625,35.0,36.125
0.2300545,-0.06365419,-1.4265547,-2.2626073,-0.041632142,0.081358865,-0.13845833,-0.40070203,-0.36345878,0.059973665,3.0784724,-0.62339145,8.486425e-05,-0.102366485,0.04567345,0.00047810137,-0.009456195,0.0037860186,0.024901165,0.4853611,-1.3713299,1.8916043,-2.0899594,-1.5701913,2.4594295,-0.1725137,0.09402883,-0.11638054,0.014671343,0.006449068,-0.19736326,0.038307227,0.22984336,-9.576807,0.8224646,47.711063,-1.0616574,-2.5134215,-3.1559176,-0.32043096,0.05147162,-0.17252362,28.375,29.75,28.75,32.5625,35.0,36.125
0.23205417,-0.21212724,-1.0428965,-2.1415255,-0.04983237,0.07509958,-0.14595401,-0.40092027,-0.3633643,0.059991974,3.0784287,-0.6233828,0.000119360375,-0.1035557,0.046664137,0.0003288236,-0.009353731,0.0037805676,0.020636331,0.48497707,-1.3711493,1.8913287,-2.0898755,-1.5701431,2.4590456,-0.17511015,0.094831,-0.11698015,0.014532845,0.006363844,-0.19569439,0.019153614,0.19153613,-9.576807,0.83365434,47.686886,-1.0621206,-2.514999,-3.0517642,-0.32876766,0.056112215,-0.15962133,28.375,29.75,28.75,32.5625,35.0,36.125
0.23405397,0.011229695,-0.7456342,-2.288582,-0.0325616,0.055572122,-0.14715227,-0.4011122,-0.36326927,0.059970833,3.0784705,-0.62330014,0.00013762405,-0.10484387,0.047422852,0.0003964929,-0.009746563,0.004129926,0.010574655,0.4846528,-1.3709329,1.8911136,-2.089852,-1.570155,2.4586647,-0.17757767,0.095496394,-0.11788843,0.014278505,0.0065411087,-0.18810016,0.019153614,0.11492168,-9.615114,0.8023209,47.66987,-0.9676313,-2.487277,-3.3239372,-0.32039088,0.041557822,-0.22780329,28.375,29.75,28.75,32.5625,35.0,36.125
0.23605374,0.829842,0.012948611,-2.0228715,-0.04178205,0.06686879,-0.15177168,-0.40133357,-0.3631828,0.059989784,3.07845,-0.62325895,5.3493142e-05,-0.10544788,0.048195977,-0.0001062434,-0.009647284,0.0035745283,0.004375383,0.48431718,-1.3707526,1.8908504,-2.0898283,-1.5701674,2.458306,-0.17944936,0.0963205,-0.11761564,0.013716312,0.006723232,-0.18377236,-0.17238252,0.05746084,-9.595961,0.83813137,47.709274,-0.9080551,-2.3426766,-3.1330228,-0.3290373,0.043501288,-0.30776843,28.375,29.75,28.75,32.5625,35.0,36.125
0.23805438,0.31161836,-0.37706214,-2.1298862,-0.014372793,0.06489793,-0.15048777,-0.40152085,-0.36307928,0.059962966,3.0784395,-0.62319875,0.00013078294,-0.1061025,0.047809955,0.000431709,-0.010075656,0.0051791593,0.0029263198,0.48394594,-1.3705602,1.8906821,-2.0898283,-1.5701193,2.4578986,-0.17907819,0.09653339,-0.11901337,0.013293226,0.0063494425,-0.18195131,-0.17238252,-0.076614454,-9.461885,0.78888994,47.690468,-1.0383375,-2.6435385,-3.2780404,-0.31383824,0.04809237,-0.350671,28.375,29.75,28.75,32.5625,35.0,36.125
0.24005434,-0.40138614,-0.08279624,-2.0274668,-0.0012669426,0.06313372,-0.1414087,-0.4017224,-0.36298883,0.059968505,3.078415,-0.6231916,0.00014297382,-0.10591957,0.047994,-0.00023489875,-0.00956004,0.0038098064,0.0028836895,0.4835989,-1.3703798,1.8904437,-2.08978,-1.570095,2.4575503,-0.17926323,0.097667776,-0.11891818,0.013521884,0.006535451,-0.18209378,-0.17238252,-0.11492168,-9.615114,0.91421866,47.689575,-1.042145,-2.3176436,-3.3183386,-0.2888521,0.055626385,-0.39237598,28.375,29.75,28.75,32.5625,35.0,36.125
0.24205433,0.15163767,0.6326295,-1.8149898,-0.0037284705,0.09835663,-0.15647165,-0.40194413,-0.36289254,0.05994938,3.0784311,-0.62315184,0.00015892727,-0.106011435,0.048722204,-0.00095806865,-0.009291922,0.0020744056,0.008033144,0.4832391,-1.370127,1.8901805,-2.0897567,-1.570095,2.4571638,-0.18084277,0.098570004,-0.11843798,0.013805332,0.0071090776,-0.18882361,-0.17238252,-0.1340753,-9.442732,0.87393653,47.683304,-1.0171788,-2.5313125,-3.4593673,-0.27950457,0.0343647,-0.36003485,28.375,29.75,28.75,32.5625,35.0,36.125
0.24405399,-0.50057083,0.5736677,-1.9789833,0.0016186807,0.09378173,-0.15739568,-0.40215343,-0.3628088,0.059969183,3.0783525,-0.62310845,0.0001733768,-0.10742927,0.048090883,0.00018848568,-0.011392047,0.0036160073,0.017898843,0.48286736,-1.3699708,1.8899411,-2.0897205,-1.570023,2.456775,-0.18166868,0.098981425,-0.12165625,0.014291287,0.008263041,-0.19951488,-0.22984336,-0.22984336,-9.500193,0.84708,47.658226,-1.1758107,-2.4497728,-3.3180351,-0.26546454,0.03434789,-0.2794662,28.375,29.75,28.75,32.5625,35.0,36.125
0.24605384,-1.0857702,0.07105722,-2.087765,0.025840258,0.07919695,-0.14907764,-0.4023844,-0.36271143,0.05996481,3.0783858,-0.6229741,9.697312e-05,-0.10611475,0.04903215,-0.0011063665,-0.010023002,0.0005322547,0.02795904,0.4825201,-1.3697425,1.8896788,-2.08972,-1.5700587,2.4563398,-0.18214867,0.09899626,-0.11888569,0.014874836,0.0085031185,-0.21005619,-0.22984336,-0.2681506,-9.481039,0.7911258,47.698532,-1.173506,-2.3884053,-3.5661774,-0.26349777,0.015331977,-0.13357961,28.375,29.75,28.75,32.5625,35.0,36.125
0.24805464,-1.1335727,0.27644202,-2.042034,0.019356228,0.07854166,-0.15195546,-0.40260747,-0.36260685,0.059960663,3.0783477,-0.6229841,0.0001185053,-0.10849364,0.049487174,-7.3504096e-05,-0.010507247,0.002689417,0.029315604,0.4821237,-1.369538,1.889439,-2.0896962,-1.570023,2.4559546,-0.18458648,0.09994688,-0.12250989,0.015428396,0.007931527,-0.21384846,-0.2681506,-0.17238252,-9.481039,0.9410752,47.687782,-1.1470542,-2.432903,-3.406519,-0.25497347,0.028058965,-0.07901586,28.375,29.75,28.75,32.5625,35.0,36.125
0.25005478,-1.1054206,0.31638584,-2.144022,0.007608688,0.07257744,-0.14546728,-0.40279838,-0.36250982,0.059947595,3.0783741,-0.6228763,0.00018706227,-0.109859206,0.050248437,0.00084197475,-0.011130264,0.004356062,0.022069607,0.48177606,-1.3693342,1.889212,-2.089636,-1.5699991,2.4555364,-0.18686174,0.09905417,-0.12359294,0.015643766,0.0077019623,-0.20887756,-0.38307226,-0.22984336,-9.557653,0.7866488,47.694054,-1.1232364,-2.2524145,-3.485989,-0.25985184,0.008617851,-0.078608595,28.375,29.75,28.75,32.5625,35.0,36.125
0.25205457,-0.23855163,0.41411805,-2.078429,-0.0021074018,0.08555914,-0.15803932,-0.40303007,-0.36241183,0.05997513,3.0783448,-0.62283456,0.00011632443,-0.110099174,0.04951993,1.4470739e-05,-0.010010352,0.003212043,0.014781003,0.4814056,-1.3691647,1.8889364,-2.089588,-1.5699991,2.4551437,-0.18547638,0.10260713,-0.12606852,0.016097328,0.007245868,-0.20020127,-0.45968673,-0.17238252,-9.576807,0.8403672,47.67166,-1.3064766,-2.5123405,-3.3754034,-0.25356948,0.034675848,-0.16371675,28.375,29.75,28.75,32.5625,35.0,36.125
0.25405413,-0.9298336,-0.554549,-2.216622,-0.011796117,0.08246688,-0.14348336,-0.4032565,-0.3623004,0.059963208,3.0783381,-0.6228547,0.00014183622,-0.11027863,0.04936532,0.0013801334,-0.010974552,0.005250908,0.008126607,0.48100987,-1.3689374,1.8886842,-2.0895517,-1.5699872,2.4547615,-0.18522714,0.1002726,-0.1265307,0.016641079,0.0071549597,-0.19329792,-0.5363012,-0.076614454,-9.653421,0.9679317,47.686886,-1.3984742,-2.2384424,-3.4140625,-0.25105095,0.03027669,-0.2657886,28.375,29.75,28.75,32.5625,35.0,36.125
0.25605378,-0.8027239,-0.67995346,-2.1774535,-0.035431262,0.10608347,-0.16068937,-0.40346548,-0.3622018,0.059966512,3.0783653,-0.6227872,0.000108584194,-0.11075889,0.050006907,-0.0009239019,-0.008192559,0.0011941402,0.0008923551,0.48067358,-1.3687431,1.8884338,-2.0895035,-1.570011,2.4543798,-0.18629086,0.10594379,-0.12830465,0.017622929,0.0065641594,-0.1871253,-0.47884032,0.095768064,-9.691729,0.85155696,47.658226,-1.4361215,-2.5095763,-3.4157562,-0.26601776,0.031623483,-0.38668197,28.375,29.75,28.75,32.5625,35.0,36.125
0.25805444,-0.80028003,-0.88669145,-2.2171242,-0.04166328,0.11766139,-0.15983732,-0.40367883,-0.3621057,0.05996608,3.078333,-0.6228009,0.00014228252,-0.11242198,0.050842173,0.000846945,-0.00962172,0.0043125767,-0.003072866,0.48030087,-1.3685399,1.8881816,-2.0894558,-1.5699753,2.4540198,-0.18897156,0.10343403,-0.12939264,0.01780369,0.0063902056,-0.18584065,-0.38307226,0.15322891,-9.672575,0.86498255,47.651955,-1.3860878,-2.2608619,-3.4326243,-0.24079981,0.021093406,-0.46560234,28.375,29.75,28.75,32.5625,35.0,36.125
0.26005438,-1.3719041,-1.3862697,-2.3233798,-0.05104907,0.097701415,-0.15530054,-0.40390915,-0.36200252,0.05997692,3.078315,-0.6227334,0.00011266187,-0.11362872,0.051276736,0.0006595728,-0.010032757,0.0038491788,0.0038366453,0.47991621,-1.3683473,1.8879188,-2.0894196,-1.5699633,2.4535954,-0.19104002,0.10514358,-0.13107006,0.018002326,0.006979711,-0.19481812,-0.3256114,0.2873042,-9.653421,0.8112748,47.704796,-1.3935392,-2.3039389,-3.4242265,-0.26195753,0.023893747,-0.46217528,28.375,29.75,28.75,32.5625,35.0,36.125
0.26205418,-1.4491428,-1.5824904,-2.141933,-0.07178692,0.0846064,-0.15890324,-0.4041468,-0.3618951,0.059981205,3.0782428,-0.6227504,0.0001028192,-0.114674225,0.051290616,0.0007329747,-0.01008856,0.004758536,0.017103069,0.47949585,-1.3681544,1.887679,-2.0894196,-1.5699152,2.4531949,-0.19166784,0.10646375,-0.1327233,0.017527867,0.006625391,-0.20871091,-0.3256114,0.34476504,-9.634268,0.8940802,47.687782,-1.3041528,-2.349571,-3.3378181,-0.23796633,0.023044255,-0.3674565,28.375,29.75,28.75,32.5625,35.0,36.125
0.26405373,-1.1401756,-1.5495552,-2.2540658,-0.07353281,0.08356579,-0.15239178,-0.4043945,-0.36179984,0.059998624,3.0782847,-0.62258196,-3.2324522e-06,-0.11671146,0.052468408,0.0011875101,-0.010282494,0.006303782,0.024236776,0.47914687,-1.3679261,1.8873562,-2.0893724,-1.5699638,2.4527357,-0.19502443,0.10688814,-0.13418981,0.017111601,0.006100379,-0.21919985,-0.38307226,0.30645782,-9.576807,0.7978386,47.694946,-1.1983978,-2.3124924,-3.4065588,-0.23716363,0.033732332,-0.23619181,28.375,29.75,28.75,32.5625,35.0,36.125
0.2660546,-0.35241294,-1.1679991,-2.2116044,-0.0645293,0.091863535,-0.16048267,-0.40464583,-0.3617176,0.060027953,3.0781844,-0.6225404,-5.9622787e-05,-0.118563235,0.052917603,0.0014896083,-0.010478446,0.0072381413,0.026323156,0.47874993,-1.3677334,1.8870567,-2.0893605,-1.5699037,2.4523256,-0.19715859,0.108544044,-0.13690707,0.017273473,0.005866119,-0.22341843,-0.28730422,0.34476504,-9.5385,0.84708,47.657326,-1.3024334,-2.3702364,-3.2376819,-0.22915876,0.04626256,-0.14759775,28.375,29.75,28.75,32.5625,35.0,36.125
0.26805425,-0.8605753,-1.4707808,-2.2215521,-0.05408133,0.07744002,-0.14995162,-0.4048801,-0.36159167,0.060012665,3.0782404,-0.6224791,-6.3970096e-05,-0.1211622,0.05306095,0.0024531567,-0.012367427,0.009555593,0.018885426,0.47835332,-1.3674927,1.886793,-2.0893123,-1.569939,2.4518838,-0.19995603,0.10976523,-0.14043471,0.016641792,0.006462775,-0.21877722,-0.36391866,0.34476504,-9.557653,0.9231726,47.658226,-1.2409372,-2.3361075,-3.1663198,-0.20905562,0.059536047,-0.1939217,28.375,29.75,28.75,32.5625,35.0,36.125
0.27005488,-1.0241321,-1.4659663,-2.2569225,-0.035045322,0.06706847,-0.1381492,-0.4051359,-0.3614652,0.060016297,3.078201,-0.6225534,-8.014491e-05,-0.121839836,0.054249395,0.0014667993,-0.011711073,0.0077613993,0.008999584,0.477908,-1.367276,1.8865179,-2.0892766,-1.5699271,2.45149,-0.2025963,0.11151024,-0.14030516,0.016661216,0.0067115985,-0.21153153,-0.4405331,0.28730422,-9.442732,0.7978386,47.666286,-1.0658691,-2.3679824,-3.1899781,-0.18923381,0.041267224,-0.2615687,28.375,29.75,28.75,32.5625,35.0,36.125
0.27205387,-0.7179576,-0.7606698,-1.8131087,-0.036456406,0.08191463,-0.15884726,-0.40537557,-0.36137918,0.060030524,3.0781498,-0.6224702,-9.0459886e-05,-0.123536065,0.054763313,0.0015046035,-0.0121916365,0.008268182,0.0017945383,0.4775232,-1.3670591,1.8862184,-2.0892408,-1.5698794,2.4510598,-0.2049667,0.11320167,-0.14236622,0.01636788,0.006911227,-0.2066957,-0.40222588,0.17238252,-9.32781,0.83813137,47.64837,-1.0861213,-2.343377,-3.1563787,-0.16849762,0.039905433,-0.3404415,28.375,29.75,28.75,32.5625,35.0,36.125
0.27405393,-0.9687126,-0.7170188,-1.7945975,-0.012575781,0.08326609,-0.1556703,-0.405657,-0.3612793,0.060059946,3.078101,-0.6223822,-0.00024698323,-0.12434765,0.05466175,0.0017099597,-0.012386108,0.009042589,0.0015277463,0.47711542,-1.3668426,1.8858956,-2.0892527,-1.5698913,2.4506035,-0.20528735,0.11414994,-0.14395566,0.016232997,0.006754314,-0.20674798,-0.38307226,0.15322891,-9.289503,0.8605109,47.694946,-1.1416045,-2.5093236,-3.0557685,-0.15935071,0.048408143,-0.38990825,28.375,29.75,28.75,32.5625,35.0,36.125
0.27605385,-0.33499557,0.4924458,-1.5814536,-0.016997632,0.09610362,-0.17329216,-0.4058837,-0.3611653,0.06003321,3.0780883,-0.62237674,-0.000152182,-0.12435984,0.055532996,-0.00057101325,-0.010239775,0.0048689093,0.0057857484,0.47669494,-1.3665887,1.8856448,-2.089217,-1.5698432,2.4501812,-0.20667167,0.118496716,-0.14411964,0.016761305,0.0067656054,-0.21238993,-0.24899697,0.019153614,-9.385271,0.8493211,47.694946,-1.0575341,-2.5386117,-3.0639362,-0.1454426,0.0467987,-0.36745843,28.375,29.75,28.75,32.5625,35.0,36.125
0.2780536,-0.51568294,0.1359412,-1.4387445,0.0013938318,0.087495245,-0.1700825,-0.4061484,-0.36105204,0.06005412,3.078081,-0.62230957,-0.0002506557,-0.125935,0.054713577,0.0025102096,-0.013974965,0.010213463,0.017873427,0.4762868,-1.366374,1.8853325,-2.0891807,-1.5698665,2.4497323,-0.20709863,0.11479393,-0.14666253,0.016550234,0.00765659,-0.22490436,-0.4213795,0.038307227,-9.251195,0.8537928,47.682407,-1.1578503,-2.4409387,-2.9417484,-0.12643085,0.03137689,-0.30757824,28.375,29.75,28.75,32.5625,35.0,36.125
0.28005436,-0.3571046,0.40299934,-1.3079149,0.0017290113,0.09347577,-0.1698388,-0.40639442,-0.36094698,0.06005038,3.0780592,-0.6222579,-0.00025185177,-0.123840414,0.054333225,-0.0003327056,-0.0110956095,0.004706759,0.03138843,0.4758799,-1.3661321,1.8850464,-2.0891564,-1.5698427,2.449296,-0.2045113,0.11906411,-0.14552721,0.017377064,0.007645081,-0.23583177,-0.45968673,-0.038307227,-9.155427,0.8605109,47.658226,-1.3231624,-2.553991,-3.1382482,-0.12294604,0.042317577,-0.15264785,28.375,29.75,28.75,32.5625,35.0,36.125
0.28205436,-0.9016712,-0.056253288,-1.3482552,0.015204447,0.09049432,-0.16021734,-0.40665886,-0.36085233,0.06007042,3.0780098,-0.6221703,-0.00026187993,-0.123644225,0.05390632,0.00037683418,-0.01121421,0.006014472,0.033795256,0.47546038,-1.3658924,1.8847007,-2.0890963,-1.5697955,2.4488282,-0.20320618,0.11800819,-0.1459679,0.017674014,0.0071673687,-0.236933,-0.34476504,-0.13407528,-9.097966,0.86945957,47.67166,-1.5161561,-2.4239836,-3.156911,-0.10582569,0.030886058,-0.08212666,28.375,29.75,28.75,32.5625,35.0,36.125
0.28405416,-0.30881652,0.6654239,-1.3484293,0.0075888024,0.09494641,-0.16095564,-0.40692306,-0.36070937,0.060049877,3.0780425,-0.6221428,-0.00026919594,-0.12469529,0.05526082,-0.00016918557,-0.010253591,0.004444242,0.02410256,0.47500354,-1.3656275,1.884425,-2.089072,-1.5698193,2.4483502,-0.20620395,0.11963226,-0.14697555,0.0188855,0.0070270924,-0.2302376,-0.3256114,-0.24899697,-9.155427,0.8112748,47.666286,-1.5204134,-2.4780772,-3.2201862,-0.08975229,0.056243397,-0.15690637,28.375,29.75,28.75,32.5625,35.0,36.125
0.2860538,-0.4223425,0.19885859,-1.2754673,0.019333651,0.073994726,-0.15705092,-0.407164,-0.36060268,0.06004766,3.0780213,-0.6220507,-0.00031450798,-0.125841,0.05676938,-0.00038703188,-0.010052328,0.002836643,0.010516686,0.47460613,-1.365411,1.8841738,-2.089084,-1.5698069,2.4478981,-0.20998119,0.12046829,-0.14785971,0.020450186,0.007588848,-0.22042862,-0.26815057,-0.17238252,-9.097966,0.80679786,47.694946,-1.4887604,-2.4973404,-3.258104,-0.089541234,0.06207472,-0.26754138,28.375,29.75,28.75,32.5625,35.0,36.125
0.28805444,-0.019168913,0.46566686,-1.1953595,0.013073473,0.049492285,-0.16039057,-0.4074042,-0.36048135,0.06005572,3.0780344,-0.62198085,-0.000287323,-0.12681492,0.05777035,-0.00031588742,-0.010032976,0.0026502844,0.00012395698,0.47418544,-1.3651949,1.8838753,-2.088988,-1.5697955,2.4474323,-0.21244311,0.12073707,-0.14848685,0.020981366,0.007648828,-0.21249776,-0.21068975,-0.076614454,-8.963891,0.8560339,47.68062,-1.3619022,-2.380668,-3.3533542,-0.08223556,0.044655323,-0.38135672,28.375,29.75,28.75,32.5625,35.0,36.125
0.29005456,0.27465177,-0.07079836,-1.4730382,0.03258226,0.03450408,-0.16350412,-0.40769184,-0.36036742,0.060056057,3.0779452,-0.62210023,-0.00035089956,-0.12884825,0.059243903,6.979403e-05,-0.00989695,0.0038585074,-0.0066355504,0.47372827,-1.3649304,1.8835634,-2.089012,-1.5697712,2.447061,-0.2161549,0.12114925,-0.1498792,0.02095677,0.006988517,-0.20944872,-0.095768064,-0.15322891,-8.983045,0.8672237,47.657326,-1.3096447,-2.4072332,-3.2737358,-0.06451632,0.07079373,-0.4739162,28.375,29.75,28.75,32.5625,35.0,36.125
0.29205462,-0.18536447,0.101861015,-1.6973964,0.027287839,0.008119129,-0.15336771,-0.40795642,-0.36025247,0.060072735,3.0779667,-0.62194574,-0.0004307529,-0.1293658,0.060096305,-0.00050393265,-0.008630768,0.0024652346,-0.00047295858,0.47331962,-1.3647019,1.883241,-2.0889633,-1.5697955,2.4465535,-0.21763228,0.12272019,-0.15073393,0.022064645,0.006518487,-0.21708779,-0.038307227,-0.15322891,-9.097966,0.9097417,47.658226,-1.2716477,-2.3409271,-3.3287556,-0.04663638,0.0771362,-0.4751457,28.375,29.75,28.75,32.5625,35.0,36.125
0.29405424,0.77648157,0.1988694,-1.2838788,0.017848937,0.033902228,-0.17202537,-0.4081726,-0.3601338,0.060037468,3.0779526,-0.6219929,-0.00025714122,-0.13090415,0.06002144,0.0017867277,-0.010812056,0.005477468,0.01254451,0.47288737,-1.3644383,1.8829893,-2.0888913,-1.569723,2.4461524,-0.21908209,0.1205014,-0.1536437,0.023549246,0.007084611,-0.23155533,-0.038307227,-0.076614454,-9.021352,0.8627467,47.65106,-1.2501175,-2.1854086,-3.243939,-0.061157513,0.07381651,-0.364444,28.375,29.75,28.75,32.5625,35.0,36.125
0.2960542,-0.034195922,-0.1842607,-1.5523134,0.0094934525,0.030339085,-0.16395026,-0.40844366,-0.360003,0.060055267,3.0779717,-0.62189513,-0.0003496395,-0.13145614,0.061488025,0.0006914071,-0.009811781,0.0026984944,0.022434527,0.4724542,-1.3642216,1.8826784,-2.088843,-1.5697592,2.445656,-0.222157,0.122366935,-0.1536616,0.02463734,0.0074897027,-0.24451995,-0.038307227,0.0,-9.097966,0.79560274,47.672558,-1.1235276,-2.212728,-3.421545,-0.054977983,0.06516082,-0.22647822,28.375,29.75,28.75,32.5625,35.0,36.125
0.29805434,-0.24713959,-0.47527653,-1.8682137,-0.004059293,0.04069092,-0.15587275,-0.40869543,-0.35988906,0.06005579,3.0779855,-0.6217243,-0.00029672706,-0.1323824,0.06223108,0.0007307759,-0.009938643,0.0019213447,0.023311947,0.47202152,-1.3639688,1.8823556,-2.0887587,-1.5697225,2.445115,-0.22437818,0.12318824,-0.1550346,0.02583729,0.00795855,-0.24761838,-0.076614454,0.15322891,-9.155427,0.8717007,47.6636,-1.0527065,-2.1866221,-3.3298216,-0.06117448,0.088648565,-0.15696211,28.375,29.75,28.75,32.5625,35.0,36.125
0.3000544,-0.207943,-0.5580354,-1.8438962,-0.027912946,0.070459686,-0.16328737,-0.40897423,-0.35975364,0.06006547,3.07797,-0.62172747,-0.00032550734,-0.13477547,0.0637426,0.0014895492,-0.010276293,0.0029629467,0.011639764,0.47155204,-1.3637286,1.8820323,-2.0886986,-1.5697225,2.4446497,-0.22875448,0.12358348,-0.15747446,0.026797729,0.0077838944,-0.2403214,-0.19153613,0.17238252,-9.270349,0.8537928,47.68599,-1.0347519,-2.195732,-3.2339227,-0.06597731,0.07446624,-0.21169508,28.375,29.75,28.75,32.5625,35.0,36.125
0.30205438,-0.7466564,-1.0050303,-2.2529283,-0.03616087,0.07642554,-0.15878728,-0.40922037,-0.35960194,0.060041804,3.0780206,-0.62174237,-0.0002217345,-0.13627526,0.063701764,0.0018018591,-0.010580965,0.0032294113,0.0027515623,0.47108364,-1.3634635,1.8817438,-2.0885904,-1.5697225,2.4441843,-0.22993785,0.12565835,-0.1609258,0.02779398,0.007904641,-0.2326158,-0.30645782,0.15322891,-9.461885,0.89631605,47.67166,-0.96894693,-2.1317773,-3.1468563,-0.079911456,0.079679534,-0.3049215,28.375,29.75,28.75,32.5625,35.0,36.125
0.30405402,-1.1336018,-0.81405133,-2.3452716,-0.053979825,0.096240774,-0.16738155,-0.40948623,-0.35948852,0.06004274,3.078003,-0.62166125,-0.00019748606,-0.13377571,0.062934436,0.0004476771,-0.0090816375,0.00031038665,0.0026700397,0.470641,-1.3631991,1.8814114,-2.0885308,-1.5696868,2.4436934,-0.22635423,0.12630261,-0.15876499,0.028278597,0.00789951,-0.2289514,-0.4405331,0.17238252,-9.653421,0.9365982,47.65464,-1.1569066,-2.1991515,-3.4113262,-0.08013083,0.07929942,-0.3791625,28.375,29.75,28.75,32.5625,35.0,36.125
0.3060538,-1.6170263,-1.3526309,-2.5876567,-0.049266826,0.11511302,-0.15908596,-0.4097261,-0.3593525,0.060025796,3.0780206,-0.6216426,-0.00014019721,-0.13397497,0.062689885,0.00039421234,-0.008847336,0.00038344067,0.006411614,0.4701975,-1.3629584,1.8811477,-2.0884702,-1.5696748,2.443236,-0.22584708,0.1272628,-0.15986682,0.028471975,0.0076519917,-0.23218551,-0.47884035,0.21068975,-9.710882,0.842603,47.658226,-1.3491257,-2.1557279,-3.3474498,-0.09086712,0.09223655,-0.39526904,28.375,29.75,28.75,32.5625,35.0,36.125
0.30805457,-2.1014102,-1.1702914,-2.5036077,-0.052955445,0.11999183,-0.16402239,-0.4100343,-0.35926414,0.060056735,3.077924,-0.62159485,-0.00022512229,-0.1347768,0.062271062,0.00049711816,-0.008921488,0.001065457,0.018771805,0.46975383,-1.3626817,1.8807405,-2.0884464,-1.5696272,2.442775,-0.22555387,0.12890759,-0.16209638,0.028443884,0.007443879,-0.24425064,-0.45968673,0.28730422,-9.787497,0.8560339,47.637623,-1.430356,-2.1956344,-3.34202,-0.114171,0.095511094,-0.29612646,28.375,29.75,28.75,32.5625,35.0,36.125
0.3100547,-1.8072869,-0.83791625,-2.6803749,-0.061936915,0.13012296,-0.16684482,-0.41026568,-0.3591459,0.06004131,3.07796,-0.6214245,-0.00013028456,-0.13544944,0.062589884,-0.0004767234,-0.00895481,-0.00055016816,0.028530471,0.4693332,-1.3624284,1.880453,-2.0883634,-1.5695909,2.4422436,-0.22702265,0.1315748,-0.16305533,0.028183673,0.008203118,-0.25547808,-0.34476504,0.2681506,-9.864111,0.87617236,47.64121,-1.5137877,-2.4004889,-3.327549,-0.10616659,0.0921008,-0.16564973,28.375,29.75,28.75,32.5625,35.0,36.125
0.31205377,-1.4353931,-1.7754147,-3.0832033,-0.039844714,0.10889408,-0.1543774,-0.41057137,-0.35899386,0.060043283,3.077972,-0.6213874,-0.00018208727,-0.13669261,0.06278746,-0.00045844525,-0.009133521,0.00068392965,0.029699806,0.4688288,-1.3621521,1.8801063,-2.0883157,-1.5696148,2.4417148,-0.22803576,0.13289091,-0.1644615,0.02709416,0.007809129,-0.25765947,-0.36391866,0.28730422,-9.902418,0.9164598,47.67166,-1.4648943,-2.2132633,-3.2836246,-0.07789239,0.10878407,-0.11327261,28.375,29.75,28.75,32.5625,35.0,36.125
0.31405446,-1.2088265,-1.3573117,-2.6152847,-0.071053974,0.088845514,-0.15469857,-0.41085702,-0.35885674,0.060057655,3.0779738,-0.62131685,-0.00023741432,-0.13824393,0.06355579,-0.00067993865,-0.008472248,0.0012626096,0.019530343,0.4683601,-1.361911,1.8797711,-2.0882561,-1.5696272,2.441202,-0.22999994,0.13480237,-0.16618848,0.026686475,0.0069554406,-0.24945268,-0.57460845,0.30645782,-9.768343,0.82022345,47.686886,-1.4732215,-2.3727598,-3.2944984,-0.08948371,0.1069707,-0.16253635,28.375,29.75,28.75,32.5625,35.0,36.125
0.31605488,-0.30501673,-1.3199122,-2.6069105,-0.06080882,0.087907314,-0.14960808,-0.41112447,-0.35873076,0.060044065,3.0779595,-0.6213008,-0.00020936219,-0.13871682,0.064345434,-0.0017625917,-0.0075695342,-0.00084081077,0.007139898,0.46790352,-1.3616339,1.8794612,-2.0882194,-1.5696028,2.4407372,-0.23168454,0.13719058,-0.16673072,0.027121717,0.0070880936,-0.23874643,-0.4405331,0.2681506,-9.787497,0.8537928,47.672558,-1.3879795,-2.4495687,-3.3302708,-0.073375955,0.1349154,-0.2838689,28.375,29.75,28.75,32.5625,35.0,36.125
0.3180545,-0.2986322,-0.45299757,-2.7139888,-0.045273017,0.068149164,-0.15924129,-0.41143304,-0.35860255,0.06004642,3.077941,-0.621322,-0.0002357494,-0.13962182,0.06551906,-0.0025184895,-0.007922649,-0.0029212965,-0.004411286,0.4674228,-1.361321,1.8790668,-2.0881593,-1.5696024,2.4402723,-0.23505056,0.13882378,-0.16711357,0.027559375,0.0083384365,-0.23056132,-0.40222588,0.1340753,-9.844957,0.95002913,47.63404,-1.3598192,-2.4943194,-3.4398673,-0.07994218,0.12016523,-0.41934624,28.375,29.75,28.75,32.5625,35.0,36.125
0.32005462,-1.137318,-0.70041454,-2.5258942,-0.023980983,0.041871388,-0.15130138,-0.4117168,-0.3584738,0.060060564,3.0778804,-0.6212927,-0.00027475407,-0.14242788,0.066391475,-0.0014965091,-0.009270719,-0.00095398753,-0.009094926,0.4669412,-1.3610923,1.878755,-2.0881355,-1.5695666,2.4397802,-0.23897345,0.13973747,-0.17060845,0.027787335,0.008662709,-0.22979887,-0.36391866,0.1340753,-9.768343,0.86498255,47.66987,-1.2438976,-2.5650911,-3.2965102,-0.08292441,0.0993151,-0.5325791,28.375,29.75,28.75,32.5625,35.0,36.125
0.32205462,-0.14982758,-0.06848106,-2.039867,-0.02675901,0.076718114,-0.16747445,-0.4119955,-0.35835865,0.060056046,3.077861,-0.621242,-0.00033108535,-0.14267805,0.06692222,-0.0030279167,-0.009200431,-0.0034419806,0.0014198647,0.4665087,-1.3608152,1.8784326,-2.088136,-1.5695661,2.4393187,-0.2406032,0.14251107,-0.1703189,0.02699228,0.009744107,-0.24194303,-0.28730422,0.019153614,-9.595961,0.9567419,47.677036,-1.1576355,-2.7176054,-3.4604988,-0.073751085,0.11099221,-0.46639282,28.375,29.75,28.75,32.5625,35.0,36.125
0.32405448,-0.2201944,0.058988653,-2.045734,-0.009164928,0.08330038,-0.16633373,-0.41226816,-0.35819858,0.06003189,3.0778675,-0.62125576,-0.0002512123,-0.14409265,0.06810245,-0.0017203743,-0.011334267,-0.0022331737,0.013526933,0.46599132,-1.3605405,1.8781441,-2.0880759,-1.5695418,2.4388092,-0.24449497,0.14033327,-0.17086737,0.027705101,0.011115437,-0.25794306,-0.15322891,-0.038307227,-9.423578,0.85155696,47.6636,-1.0141503,-2.3663054,-3.4967284,-0.05479797,0.10502454,-0.3318385,28.375,29.75,28.75,32.5625,35.0,36.125
0.32605362,-0.66519994,-0.0024181213,-2.1878524,0.0043185623,0.07990161,-0.1503085,-0.4125705,-0.3581029,0.060077343,3.077781,-0.621118,-0.00032240566,-0.1434423,0.068583086,-0.002850937,-0.010011847,-0.0058202622,0.02030299,0.4655355,-1.3603003,1.8777388,-2.0880153,-1.5694817,2.4382784,-0.24487942,0.14219554,-0.17105722,0.029859744,0.011585871,-0.26510242,-0.076614454,-0.038307227,-9.423578,0.89631605,47.686886,-1.0766546,-2.4284928,-3.473927,-0.07595788,0.068087354,-0.19697204,28.375,29.75,28.75,32.5625,35.0,36.125
0.32805416,-0.77807677,0.10871518,-1.767543,0.0032069553,0.06960846,-0.14684694,-0.41286716,-0.35796624,0.060061064,3.0777578,-0.62109923,-0.0002866624,-0.14408886,0.06950781,-0.0033656906,-0.0072176307,-0.006204253,0.0141405035,0.46503133,-1.3599877,1.8773922,-2.087979,-1.5694469,2.4377656,-0.24540511,0.1440564,-0.17242122,0.030975675,0.0092521785,-0.2594645,-0.21068975,-0.05746084,-9.442732,0.8873621,47.65106,-1.1776053,-2.4260142,-3.4047637,-0.08889399,0.09710942,-0.24334237,28.375,29.75,28.75,32.5625,35.0,36.125
0.3300543,-0.2545351,0.216792,-1.3525825,-0.0026532847,0.09757367,-0.1589744,-0.41316006,-0.35781676,0.0600676,3.0777771,-0.6211057,-0.00033747606,-0.14478366,0.06842725,-0.0023780672,-0.007013163,-0.0043732347,0.010026596,0.46455222,-1.3597236,1.8770436,-2.087907,-1.5694827,2.4372883,-0.24340694,0.14503174,-0.17613806,0.03216312,0.008238094,-0.25335073,-0.49799395,-0.19153613,-9.212888,0.8940802,47.65912,-1.261152,-2.4597354,-3.3186803,-0.09263021,0.1311222,-0.33031157,28.375,29.75,28.75,32.5625,35.0,36.125
0.33205447,-0.99945855,0.42970166,-1.5869988,0.030799985,0.05610731,-0.14332101,-0.41344965,-0.35769215,0.06006759,3.0777316,-0.621059,-0.0002935525,-0.1460241,0.06897717,-0.00088589295,-0.006616512,-0.0026467377,0.005805557,0.4640598,-1.3594362,1.8766845,-2.087846,-1.5694231,2.4367726,-0.2445401,0.14407113,-0.17895898,0.034597665,0.007108488,-0.25026193,-0.28730422,-0.17238252,-9.174581,0.9164598,47.682407,-1.2803988,-2.3735292,-3.2815442,-0.111045495,0.13589421,-0.3979469,28.375,29.75,28.75,32.5625,35.0,36.125
0.33405402,0.26628196,0.93762344,-1.571765,0.022709984,0.07053656,-0.16749181,-0.41375175,-0.35754803,0.060071524,3.0777376,-0.62103885,-0.00031992237,-0.14686856,0.068618625,0.00012981253,-0.0074183214,-0.0014963332,0.010171154,0.46356797,-1.3591485,1.8763136,-2.087774,-1.569435,2.4362676,-0.24462289,0.14410599,-0.18162544,0.03584748,0.0073171877,-0.25470948,-0.019153614,-0.17238252,-9.232041,0.8985519,47.698532,-1.35149,-2.1779926,-3.208467,-0.12373544,0.14534497,-0.3911072,28.375,29.75,28.75,32.5625,35.0,36.125
0.33605388,0.09057834,0.70079786,-1.3750461,0.011442992,0.06317819,-0.15669361,-0.4140449,-0.35742894,0.060077935,3.0777378,-0.6208775,-0.00035349905,-0.14727406,0.06789877,0.0003049676,-0.008213051,-0.00041932953,0.025033511,0.4631116,-1.3588605,1.8759421,-2.0877264,-1.5694231,2.4357107,-0.24375445,0.14498171,-0.18291225,0.0349641,0.007570614,-0.26870266,-0.38307226,-0.05746084,-9.040505,0.86945957,47.729877,-1.3590369,-2.2708945,-3.1736045,-0.12643625,0.16820689,-0.31533992,28.375,29.75,28.75,32.5625,35.0,36.125
0.33805382,0.052049756,0.6056717,-1.6199793,0.014443952,0.060287986,-0.15820616,-0.41433802,-0.3572772,0.06008031,3.0777538,-0.62083656,-0.0003372075,-0.14818649,0.068732075,-0.00017074638,-0.007935345,-0.0023320597,0.0331143,0.4626076,-1.3585843,1.8755826,-2.0876296,-1.5694226,2.4351792,-0.24615352,0.14701141,-0.1846681,0.036541555,0.008187235,-0.27918196,-0.19153613,-0.076614454,-9.11712,0.9097417,47.672558,-1.4650121,-2.1388655,-3.1528213,-0.13936684,0.14892548,-0.14928076,28.375,29.75,28.75,32.5625,35.0,36.125
0.34005484,-0.5959553,0.1302917,-1.7320906,0.0024570525,0.061250083,-0.15468796,-0.4146081,-0.35713607,0.060063817,3.077782,-0.6207873,-0.00023922458,-0.14859463,0.06969742,0.0009795589,-0.008975897,-0.00299185,0.030152483,0.46212658,-1.358285,1.8752354,-2.0875208,-1.5693983,2.434664,-0.24872011,0.14492288,-0.18549596,0.03959045,0.009401336,-0.2787878,-0.21068975,-0.019153614,-9.232041,0.8403672,47.692257,-1.4227501,-2.2381656,-3.1601293,-0.18364996,0.15400687,-0.112309955,28.375,29.75,28.75,32.5625,35.0,36.125
0.3420537,-0.0061874893,-0.40863472,-1.8754663,-0.021185214,0.08334059,-0.15088923,-0.41492304,-0.3569916,0.060085334,3.0777729,-0.62063843,-0.0002865422,-0.14882497,0.070455305,0.00045182146,-0.008562916,-0.0052001383,0.018972922,0.46160996,-1.3580208,1.8748525,-2.0874488,-1.5693864,2.4340558,-0.25040087,0.14616802,-0.18619573,0.041199315,0.010018798,-0.2692884,-0.28730422,0.19153613,-9.32781,0.88289046,47.657326,-1.3533914,-2.2676976,-3.212473,-0.21464843,0.14418699,-0.2000882,28.375,29.75,28.75,32.5625,35.0,36.125
0.34405416,-0.11115729,-0.77341354,-1.9768225,-0.047617808,0.0798319,-0.16588408,-0.41520116,-0.35683322,0.06006101,3.0777953,-0.6206899,-0.00015846352,-0.1498443,0.07183209,0.00027606552,-0.009134469,-0.0064291074,0.003488798,0.46109346,-1.357709,1.8745054,-2.0873287,-1.5693616,2.4335687,-0.25405315,0.14657962,-0.18649933,0.041929416,0.011040957,-0.25745758,-0.19153613,0.19153613,-9.308657,0.8806493,47.666286,-1.2188598,-2.030323,-3.1482959,-0.25299656,0.13656718,-0.3434916,28.375,29.75,28.75,32.5625,35.0,36.125
0.346054,-0.25273168,-0.91253895,-2.0458214,-0.06448931,0.075809315,-0.15179168,-0.41550598,-0.35668558,0.060065378,3.077812,-0.6206415,-0.00014445526,-0.15168442,0.073117815,0.0004931294,-0.009427573,-0.0057853023,-0.007173688,0.46058798,-1.357409,1.8741101,-2.0872214,-1.5693616,2.433031,-0.2575797,0.14732829,-0.18792441,0.04189482,0.01100167,-0.25032124,-0.38307226,0.2681506,-9.32781,0.87393653,47.666286,-1.1544359,-2.0183141,-3.22584,-0.2871953,0.122860156,-0.46740526,28.375,29.75,28.75,32.5625,35.0,36.125
0.3480537,-0.5660357,-1.2175311,-2.18735,-0.063422285,0.084721364,-0.16032314,-0.4158345,-0.35652268,0.060073204,3.0778158,-0.62069535,-0.00020953124,-0.1524687,0.07350104,0.00061001536,-0.0082074255,-0.004346967,0.00019301586,0.46005964,-1.357109,1.8737148,-2.0871494,-1.5693983,2.4325361,-0.25765848,0.14802547,-0.18898666,0.04152605,0.009280908,-0.25776562,-0.36391866,0.19153613,-9.385271,0.90750587,47.6636,-1.1365635,-1.9909389,-3.3092504,-0.3101784,0.16614679,-0.47719276,28.375,29.75,28.75,32.5625,35.0,36.125
0.3500548,-1.042356,-0.8457485,-2.216131,-0.050980847,0.09598193,-0.15653336,-0.41614732,-0.35638136,0.060078744,3.0777447,-0.6207102,-0.00012946631,-0.1546631,0.07390345,0.0006446242,-0.007806691,-0.0029931434,0.0152904205,0.45950752,-1.3568085,1.873319,-2.087054,-1.5693144,2.4320023,-0.2594233,0.15087381,-0.19245261,0.04116262,0.008333115,-0.27462605,-0.21068975,0.1340753,-9.519346,0.91198283,47.68062,-1.1631961,-2.0200212,-3.27664,-0.33478242,0.16924807,-0.3318721,28.375,29.75,28.75,32.5625,35.0,36.125
0.3520539,-1.1172749,-0.5019146,-2.3050945,-0.0405953,0.10510449,-0.15753718,-0.41644758,-0.356231,0.060065042,3.0777717,-0.62061536,-0.000113826005,-0.15636086,0.07490346,0.00034430367,-0.008429982,-0.0022637914,0.022638973,0.45900232,-1.3564962,1.8729604,-2.0869944,-1.5693144,2.4314346,-0.26251125,0.1522703,-0.19312616,0.039528158,0.008572683,-0.2850623,-0.21068975,0.19153613,-9.557653,0.8717007,47.684196,-1.0746516,-2.1558452,-3.2897117,-0.34716177,0.18437584,-0.21165559,28.375,29.75,28.75,32.5625,35.0,36.125
0.35405454,-0.1517597,-0.024831792,-2.106033,-0.03796743,0.12663172,-0.15885282,-0.41676927,-0.35609213,0.060090903,3.077764,-0.6205397,-0.00015792713,-0.1557385,0.07480301,-0.0015837704,-0.0078870235,-0.004556521,0.01995305,0.45849857,-1.3562071,1.8725294,-2.0868876,-1.5693139,2.4308848,-0.26196855,0.155127,-0.19180863,0.037648205,0.009105906,-0.28183353,-0.4213795,0.05746084,-9.615114,0.8717007,47.64658,-1.0485058,-2.3754222,-3.359472,-0.3365358,0.19125807,-0.19433117,28.375,29.75,28.75,32.5625,35.0,36.125
0.3560544,-0.98750025,0.21891104,-2.3828387,-0.032566663,0.083783805,-0.1545078,-0.41706386,-0.35593957,0.060055625,3.0777488,-0.6205222,-4.1315845e-05,-0.15591775,0.07428658,-0.0023474116,-0.009004585,-0.006146177,0.012324604,0.45795843,-1.3558711,1.8721937,-2.08684,-1.5692538,2.4303358,-0.26210475,0.15752211,-0.19293518,0.037316006,0.010785016,-0.2743415,-0.49799395,0.038307227,-9.557653,0.8717007,47.67166,-1.2184216,-2.286489,-3.507062,-0.3441788,0.18064006,-0.2808599,28.375,29.75,28.75,32.5625,35.0,36.125
0.35805383,-0.46653295,-0.3583567,-2.3369741,-0.032499563,0.09713395,-0.15913548,-0.41737056,-0.35580042,0.06006047,3.077702,-0.620516,1.7478154e-05,-0.15681435,0.073652394,-0.0022303958,-0.009636672,-0.0046450784,0.0065274676,0.45743105,-1.3555706,1.8717989,-2.086744,-1.5691937,2.4298105,-0.2615412,0.15907227,-0.1948218,0.036039375,0.010673156,-0.26797992,-0.59376204,0.038307227,-9.5385,0.9321212,47.67345,-1.3286752,-2.3519678,-3.382271,-0.3430396,0.16284788,-0.39219347,28.375,29.75,28.75,32.5625,35.0,36.125
0.36005464,-0.7045286,-0.6249624,-2.3789372,-0.021696748,0.09048773,-0.15894401,-0.4177248,-0.35566697,0.060092233,3.0776253,-0.6204386,-0.00013594065,-0.15816149,0.073217995,-0.0026614536,-0.010156301,-0.0027492691,0.011650747,0.45690343,-1.3552823,1.8713797,-2.086745,-1.5691818,2.4292445,-0.26152796,0.1616447,-0.19630638,0.03303928,0.010334892,-0.2730876,-0.36391866,-0.076614454,-9.595961,0.8918391,47.66808,-1.502181,-2.332964,-3.3683927,-0.32948154,0.18563886,-0.43327743,28.375,29.75,28.75,32.5625,35.0,36.125
0.36205447,-1.2671666,0.21649066,-2.3505619,-0.03628456,0.08189515,-0.16569057,-0.41800418,-0.35549107,0.060055893,3.0777059,-0.62037045,-3.8989056e-06,-0.15929003,0.07339722,-0.0022986135,-0.010540523,-0.0009358544,0.025963942,0.45637456,-1.3549583,1.8710445,-2.0866263,-1.5691823,2.428663,-0.26232457,0.16209833,-0.19749057,0.032003634,0.009865573,-0.28819796,-0.30645782,-0.095768064,-9.634268,0.9231726,47.640312,-1.450243,-2.4168024,-3.439473,-0.31220493,0.17526066,-0.27610475,28.375,29.75,28.75,32.5625,35.0,36.125
0.36405414,-0.5148232,-0.38014343,-1.7651241,-0.041044667,0.12650862,-0.15537651,-0.4183611,-0.35535765,0.060065653,3.0776615,-0.62028164,-9.756531e-05,-0.16221991,0.07454859,-0.0009825075,-0.01135077,0.001602253,0.031239603,0.4558455,-1.3546104,1.8706001,-2.0866134,-1.5691704,2.4280844,-0.26627737,0.16254735,-0.20121801,0.0326713,0.009507209,-0.29742438,-0.49799395,0.095768064,-9.442732,0.98135734,47.658226,-1.3549676,-2.3429072,-3.428701,-0.3228794,0.1851862,-0.13186148,28.375,29.75,28.75,32.5625,35.0,36.125
0.3660539,-1.0156732,-0.07177986,-1.6735846,-0.03802352,0.11570192,-0.15626973,-0.41868845,-0.35521263,0.060071807,3.0776033,-0.6202552,-7.1039394e-05,-0.16384405,0.0749399,-0.00076041865,-0.011527583,0.0035735627,0.026257016,0.45529285,-1.3542981,1.8701934,-2.0865428,-1.5691108,2.4275227,-0.26765853,0.16372511,-0.20288455,0.031331703,0.008798143,-0.29382193,-0.2873042,0.05746084,-9.423578,0.82694155,47.63673,-1.2322074,-2.5003066,-3.4452682,-0.2888935,0.2049976,-0.13927422,28.375,29.75,28.75,32.5625,35.0,36.125
0.36805373,-0.44807842,0.3631304,-2.0436115,-0.019914994,0.09847718,-0.1452391,-0.41902608,-0.3550383,0.06007621,3.0776117,-0.6202449,-0.0001494055,-0.1639832,0.0756802,-0.0018782716,-0.01103538,0.0015036922,0.014037776,0.4547405,-1.3539977,1.86981,-2.0864947,-1.569146,2.426963,-0.26911202,0.16556954,-0.20260477,0.031258818,0.009265787,-0.2830558,-0.22984336,0.076614454,-9.481039,0.900793,47.619713,-1.2792113,-2.4113593,-3.385995,-0.2900875,0.19324103,-0.22497895,28.375,29.6875,28.75,32.5625,35.0,36.125
0.3700551,-0.6920114,-0.61517644,-1.6885782,-0.020301396,0.082434215,-0.14031744,-0.41932902,-0.3548624,0.060041465,3.0776808,-0.62024623,-4.1191277e-05,-0.16417386,0.07551207,-0.001259093,-0.011801222,0.0026619679,0.0027623514,0.45420036,-1.3536384,1.869428,-2.086375,-1.569158,2.4264152,-0.2688943,0.16475338,-0.20304842,0.031124663,0.009405939,-0.27156365,-0.34476504,0.17238252,-9.385271,0.9791215,47.635834,-1.3271866,-2.3197057,-3.4173884,-0.28835315,0.1983099,-0.4026892,28.375,29.6875,28.75,32.5625,35.0,36.125
0.37205464,-0.6576407,-0.65606296,-1.8831578,-0.028290397,0.06605844,-0.15305693,-0.41967162,-0.3547197,0.060055643,3.0775886,-0.62024814,-0.000103746075,-0.1662563,0.07687812,-0.0011160598,-0.012141925,0.004428937,-0.001059848,0.4536478,-1.3533388,1.8690318,-2.086364,-1.5691108,2.4258757,-0.27244017,0.1654413,-0.20389333,0.029563531,0.008959281,-0.27128613,-0.32561144,0.17238252,-9.232041,0.95002913,47.63136,-1.2921276,-2.242146,-3.4026675,-0.26398668,0.2144345,-0.5147631,28.375,29.6875,28.75,32.5625,35.0,36.125
0.37405425,0.15554515,-0.26240423,-2.1315658,-0.033493653,0.07045193,-0.16101609,-0.4200095,-0.35456815,0.06005421,3.077602,-0.6201667,-7.912663e-05,-0.16971365,0.07790037,-4.1491418e-05,-0.013668963,0.0078014266,0.008550177,0.45310602,-1.3529787,1.8685759,-2.0862567,-1.5690988,2.4252815,-0.2767573,0.16663334,-0.20754872,0.028357992,0.008865433,-0.28521204,-0.05746084,0.21068975,-9.500193,0.95897776,47.661808,-1.1306725,-2.2345898,-3.4868302,-0.24635978,0.22453234,-0.4161731,28.375,29.6875,28.75,32.5625,35.0,36.125
0.37605402,0.18641852,-0.3501822,-1.8351016,-0.053681053,0.06800004,-0.17108941,-0.4203769,-0.35441628,0.060071237,3.07756,-0.6200926,-0.0002229259,-0.17151678,0.07727405,0.00063030986,-0.014799672,0.009439,0.023410533,0.45255405,-1.3526542,1.8681453,-2.0862563,-1.5691103,2.4246888,-0.27718246,0.16880396,-0.21176359,0.028460914,0.009216498,-0.30049503,-0.019153614,0.21068975,-9.481039,0.9410752,47.693153,-1.002171,-2.180727,-3.3485684,-0.21440278,0.23172992,-0.25014395,28.375,29.6875,28.75,32.5625,35.0,36.125
0.37805384,-0.20480616,-1.0009018,-1.7995269,-0.04948994,0.06120032,-0.15681349,-0.42070466,-0.35426366,0.060068723,3.077523,-0.62006545,-0.00015358781,-0.17226344,0.076736316,0.0025509465,-0.016264774,0.012434846,0.02566656,0.4519904,-1.3523194,1.8677248,-2.08616,-1.5690502,2.424113,-0.2766928,0.16681127,-0.2139581,0.02933962,0.009230941,-0.30226126,-0.2873042,0.15322891,-9.308657,0.8784135,47.664497,-1.155076,-2.1965315,-3.23102,-0.21108365,0.24237558,-0.1729126,28.375,29.6875,28.75,32.5625,35.0,36.125
