Tylouw/Master_Thesis_Code/training_data/batch_1/rect_rod_t0.3/sample_62_session_2.csv
timestamp[s],tcp_force_x[N],tcp_force_y[N],tcp_force_z[N],tcp_force_rx[Nm?],tcp_force_ry[Nm?],tcp_force_rz[Nm?],tcp_pose_x[m],tcp_pose_y[m],tcp_pose_z[m],tcp_pose_rx[rot_vec_x],tcp_pose_ry[rot_vec_y],tcp_pose_rz[rot_vec_z],tcp_velo_x[m/s],tcp_velo_y[m/s],tcp_velo_z[m/s],tcp_velo_rx[rot_vec_x/s],tcp_velo_ry[rot_vec_y/s],tcp_velo_rz[rot_vec_z/s],q1[rad],q2[rad],q3[rad],q4[rad],q5[rad],q6[rad],qd1[rad/s],qd2[rad/s],qd3[rad/s],qd4[rad/s],qd5[rad/s],qd6[rad/s],tool_acc_x,tool_acc_y,tool_acc_z,current_of_whole_robot[A],voltage_of_whole_robot[V],current_J1[A],current_J2[A],current_J3[A],current_J4[A],current_J5[A],current_J6[A],temp_J1[C],temp_J2[C],temp_J3[C],temp_J4[C],temp_J5[C],temp_J6[C]
7.5198477e-07,0.12506941,-0.61456305,-0.33426946,-0.017932856,0.017017871,0.0053973896,-0.38935015,-0.36872208,0.060015537,-3.0787022,0.6250042,0.0002468694,0.0017018488,0.0009275552,-0.0014530552,0.0018704036,-0.0037072208,4.9120797e-05,0.5050329,-1.3816439,1.904188,-2.0919273,-1.5708655,2.480073,-7.1874674e-05,-7.1183567e-06,0.0030671707,0.0010887029,0.00016601954,-0.0001226032,0.076614454,0.17238252,-8.619126,0.7486078,47.696735,-0.21995072,-3.0937486,-2.3469357,-0.19223508,0.13190785,-0.029362053,28.5,29.8125,28.875,32.6875,35.125,36.1875
0.002054107,0.2837409,-0.3797823,-0.48841423,-0.01994,0.019150952,-0.002822296,-0.3893599,-0.36872748,0.06002191,-3.078727,0.624971,0.00027925844,-0.00096070353,-0.00055231043,-0.0015730629,-0.0021247435,0.003482046,5.024998e-05,0.5050329,-1.3816433,1.9041766,-2.0919435,-1.5708655,2.4800491,-7.001086e-05,0.001977476,0.0033834297,-0.009436902,0.0001601111,-0.0001205505,0.17238252,0.15322891,-8.599973,0.7866488,47.731667,-0.19161332,-2.944717,-2.3500674,-0.14280292,0.15746088,-0.021317342,28.5,29.8125,28.875,32.6875,35.125,36.1875
0.004054455,0.22336543,-0.3048352,-0.2959527,-0.028707996,0.031634256,-0.0028213814,-0.38933802,-0.36872515,0.06000404,-3.0786953,0.6249261,0.00023464086,-0.0016289699,-0.0009235309,-0.001994985,-0.0026101533,0.0043587643,6.7520254e-05,0.50505686,-1.3816305,1.9041995,-2.0919316,-1.5708774,2.4800491,-6.8241425e-05,0.0035744987,0.0029473978,-0.011600014,0.00015460934,-0.00013538869,0.095768064,0.19153613,-8.619126,0.66132545,47.707485,-0.18744436,-3.437039,-2.577555,-0.026797015,0.1530602,-0.014363287,28.5,29.8125,28.875,32.6875,35.125,36.1875
0.006053867,0.45636046,-0.22834942,-0.234826,-0.021225939,0.027550507,-0.0041243383,-0.38934207,-0.36873353,0.06000054,-3.0787401,0.6248774,0.00021077433,-0.0005360074,-0.0003142441,-0.0010791366,-0.0011649728,0.0017803989,7.003962e-05,0.5050448,-1.3816193,1.904199,-2.091953,-1.5708417,2.480001,-6.655922e-05,0.001439684,0.0020207425,-0.0055827945,0.00014947329,-0.00013681658,0.05746084,0.2681506,-8.580819,0.7172743,47.694946,-0.17758799,-3.3046434,-2.5166082,-0.05111719,0.13694951,-0.016916845,28.5,29.8125,28.875,32.6875,35.125,36.1875
0.008054415,0.9451999,0.95442414,-0.48290607,-0.0046150894,0.017988268,-0.011364545,-0.38931715,-0.36872062,0.059980292,-3.0786757,0.624903,0.0001907673,-0.00041624933,-0.0002456362,0.0009890164,-0.0017570555,0.0028727788,6.753075e-05,0.5050688,-1.3816205,1.9042462,-2.0919516,-1.5708774,2.4800491,-6.495783e-05,-0.0021434196,0.0007225893,-0.0019439978,0.00014466731,-0.00013313118,0.0,0.2681506,-8.714894,0.69041777,47.685097,-0.2563465,-3.0313985,-2.5277467,-0.11257977,0.15394261,-0.017520538,28.5,29.8125,28.875,32.6875,35.125,36.1875
0.010053804,-0.017972963,0.44053087,-1.0743076,0.015842926,-0.008123245,0.001296993,-0.3893374,-0.3687211,0.059982046,-3.07871,0.6249097,0.00013958036,0.0007672647,0.0004214354,0.0008501186,0.00033340525,-0.0008766327,6.3668325e-05,0.50502086,-1.3815967,1.9042109,-2.0919383,-1.5708297,2.480001,-7.733655e-05,-0.002432734,0.00022935752,0.0031313598,0.00014016096,-0.0001420243,0.038307227,0.1340753,-9.078813,0.7105615,47.65912,-0.81186414,-2.6490445,-2.7895482,-0.12258071,0.13361533,-0.1141611,28.5,29.8125,28.875,32.6875,35.125,36.1875
0.012054102,0.25741428,0.3489509,-1.0877665,-0.02210635,0.02063529,-0.0071248524,-0.38933772,-0.3687144,0.059965957,-3.078658,0.62490106,0.00012937147,-0.0001944518,0.0029771028,-0.0040613473,0.005172944,-0.009619252,-0.004169895,0.5050315,-1.3815575,1.9041985,-2.0919259,-1.5708655,2.480013,-0.0052804034,0.0070674736,2.3110373e-05,0.0038299668,0.00013592679,-0.0011100057,0.019153614,0.15322891,-9.155427,0.78888994,47.691364,-0.9784576,-2.7877584,-2.8875065,-0.17027739,0.13262054,-0.15696827,28.5,29.8125,28.875,32.6875,35.125,36.1875
0.014053952,-0.07837995,-0.7899128,-1.3128633,-0.043267038,0.04909557,-0.02115537,-0.3893282,-0.36871636,0.05995351,-3.0786602,0.62489897,7.454141e-05,-0.0025234905,0.005427629,-0.0059554214,0.0064620064,-0.011950249,0.00096889853,0.50502884,-1.381544,1.9042109,-2.0919263,-1.5708417,2.4800086,-0.011582406,0.0109685,3.1005513e-07,0.0026137875,0.00013194114,-0.01255004,0.019153614,0.05746084,-9.32781,0.70608455,47.693153,-0.53368515,-3.3648548,-2.987492,-0.1386052,0.12634781,-0.10366562,28.5,29.8125,28.875,32.6875,35.125,36.1875
0.01605389,-0.9087227,-1.2165967,-1.2522818,-0.06747264,0.06757707,-0.022317018,-0.3893285,-0.3686834,0.05994758,-3.0786085,0.6248837,4.812958e-06,-0.0050568637,0.004592548,-0.0027901102,0.0028756543,-0.005481164,0.008832015,0.50498056,-1.381545,1.9042095,-2.0918553,-1.5708536,2.4799573,-0.012543905,0.008150584,-0.003665223,0.0016990092,0.00012818247,-0.021373508,-0.19153614,0.11492168,-9.442732,0.7329411,47.709274,-0.66142035,-3.116959,-2.9889026,-0.11297992,0.14346161,-0.0244067,28.5,29.8125,28.875,32.6875,35.125,36.1875
0.018053554,-1.4702629,-1.0312355,-1.5090026,-0.06475118,0.079754084,-0.047088474,-0.38931775,-0.36868367,0.05991776,-3.0786092,0.62482506,-0.00010301682,-0.0059543573,0.004485836,-0.0019534412,0.0018637519,-0.003654453,0.012613095,0.5049684,-1.3814973,1.9042209,-2.0918553,-1.5708174,2.4799085,-0.013201617,0.007523409,-0.004740879,0.0013138243,0.00012463213,-0.025811922,-0.38307226,0.19153613,-9.442732,0.7665104,47.699425,-0.83414793,-2.9542835,-2.9651647,-0.097237155,0.12512812,0.029313505,28.5,29.8125,28.875,32.6875,35.125,36.1875
0.020053685,-1.3755093,-0.26890725,-1.8194668,-0.029868385,0.09366034,-0.071915925,-0.3893413,-0.36868295,0.059930515,-3.078627,0.6247546,-9.279767e-06,-0.006287114,0.00538981,-0.0024818478,0.002434675,-0.0046737418,0.007498668,0.5049678,-1.381497,1.9041971,-2.0918791,-1.5708536,2.4798617,-0.0150315855,0.00800758,-0.004126334,0.001382983,0.000121272955,-0.022527633,-0.4405331,0.095768064,-9.576807,0.7978386,47.694054,-0.9014153,-2.8630853,-3.1523745,-0.10388616,0.12673602,-0.03068719,28.5,29.8125,28.875,32.6875,35.125,36.1875
0.022053609,-1.5272151,0.18934499,-1.9914826,-0.0010948082,0.08841696,-0.09376455,-0.38932395,-0.36867213,0.059913665,-3.0785987,0.6247904,-0.00013475401,-0.0057109403,0.0068722838,-0.0036021597,0.004958695,-0.009258814,0.00220416,0.5049432,-1.3814845,1.9042095,-2.09183,-1.5708174,2.479863,-0.016999455,0.009210864,-0.0038493776,0.0051377937,0.00013859637,-0.019201353,-0.5554548,0.0,-9.749189,0.7284641,47.70659,-0.8215928,-2.8706982,-3.3263178,-0.12951918,0.15479308,-0.07749225,28.5,29.8125,28.875,32.6875,35.125,36.1875
0.024053678,-1.624603,0.12639053,-1.913345,0.0077234367,0.07877622,-0.1024538,-0.38934237,-0.36863744,0.059887175,-3.0785267,0.62485415,-0.00018280563,-0.007182013,0.0069377036,-0.0040769638,0.005166624,-0.009689682,-0.0009415997,0.50488275,-1.3814354,1.904209,-2.0918176,-1.5708417,2.4798515,-0.018499916,0.012352785,-0.0064711287,0.0050950143,0.00015786434,-0.01755452,-0.6895301,-0.05746084,-9.844957,0.75084364,47.67345,-0.8925019,-2.9368,-3.4259105,-0.13301197,0.14209148,-0.093439914,28.5,29.8125,28.875,32.6875,35.125,36.1875
0.026053598,-1.936167,-0.02697955,-1.7938658,0.0072062295,0.08234292,-0.11395633,-0.389343,-0.3686441,0.0598763,-3.0785546,0.6248204,-0.00023232354,-0.008756189,0.0063467263,-0.0030806665,0.0034811688,-0.006689653,-0.0017666003,0.5048707,-1.3814112,1.9042081,-2.0918305,-1.5708054,2.4798148,-0.018987719,0.01257997,-0.008675519,0.003631848,0.00017350394,-0.017216258,-0.7278373,-0.05746084,-9.710882,0.69937176,47.698532,-0.9314867,-2.939691,-3.3351536,-0.12744574,0.1398443,-0.10602381,28.5,29.8125,28.875,32.6875,35.125,36.1875
0.028054029,-1.7243642,-0.34822822,-2.0302827,-0.0045320536,0.11070473,-0.12507908,-0.3893856,-0.36861855,0.059870545,-3.078524,0.62487286,-0.00018069924,-0.009876429,0.006289248,-0.0029674408,0.0029409425,-0.0057255356,-0.0029930002,0.50481045,-1.3813748,1.9041837,-2.0918548,-1.5708417,2.4797912,-0.019939203,0.01370341,-0.010072482,0.0027996548,0.00017490845,-0.016940504,-0.63206923,-0.21068975,-9.787497,0.7911258,47.704796,-0.92744476,-2.8940716,-3.3472524,-0.10337828,0.12847674,-0.117568105,28.5,29.8125,28.875,32.6875,35.125,36.1875
0.030053664,-1.8848382,-0.86372447,-2.126854,-0.009808387,0.1188903,-0.13825107,-0.3893879,-0.36861247,0.05985897,-3.0784938,0.6248674,-0.00023781606,-0.011273494,0.006185947,-0.002437389,0.002109094,-0.004255349,-0.004471054,0.50479805,-1.3813386,1.904159,-2.0918186,-1.5708417,2.4797792,-0.021079294,0.0144872,-0.012105536,0.0023598028,0.00018573909,-0.016601568,-0.61291564,-0.15322891,-9.940725,0.75084364,47.681515,-1.044819,-2.9042945,-3.345186,-0.09001267,0.13413744,-0.15314665,28.5,29.8125,28.875,32.6875,35.125,36.1875
0.032053415,-1.5994645,-0.25126335,-1.9069681,-0.024727033,0.12820594,-0.15697895,-0.38940817,-0.36861563,0.059866928,-3.078544,0.62487805,-0.00023120901,-0.011779794,0.006491601,-0.0023982956,0.002319622,-0.0046875807,-0.0047443723,0.5047618,-1.3813384,1.9041461,-2.0918424,-1.5708054,2.4797432,-0.02208208,0.015062266,-0.013071717,0.0032314959,0.0002106455,-0.017330676,-0.8810662,-0.1340753,-9.864111,0.7620334,47.6636,-0.9980875,-2.7940702,-3.2732594,-0.093092516,0.1384495,-0.14583154,28.5,29.8125,28.875,32.6875,35.125,36.1875
0.03405376,-2.2559872,-0.19751641,-1.8500291,-0.00851242,0.101908736,-0.16734023,-0.38943893,-0.36860675,0.059865303,-3.0785263,0.6248737,-0.000235955,-0.01195253,0.007122722,-0.002739422,0.0032827242,-0.006453993,-0.0051134275,0.5047255,-1.38129,1.904087,-2.0918176,-1.5708174,2.4797065,-0.023313329,0.015957002,-0.013763057,0.005039631,0.00022383395,-0.018192664,-0.8619126,-0.15322891,-9.768343,0.7709874,47.664497,-1.1040812,-2.9066844,-3.2879353,-0.101741895,0.15293257,-0.18249053,28.5,29.8125,28.875,32.6875,35.125,36.1875
0.03605412,-1.6171188,-0.6416679,-2.1538184,0.016716415,0.09969717,-0.16599464,-0.38945168,-0.3685779,0.059836276,-3.07847,0.6248824,-0.00033455118,-0.012936449,0.007756614,-0.002391378,0.0030805585,-0.0061106933,-0.005819281,0.504665,-1.38123,1.9040741,-2.0917823,-1.5708174,2.4796586,-0.025304643,0.015916267,-0.01462085,0.0055397325,0.00023167323,-0.019477868,-0.7086837,-0.095768064,-9.844957,0.8023209,47.674347,-0.9660177,-2.7792296,-3.310205,-0.11237143,0.14917536,-0.17567763,28.5,29.8125,28.875,32.6875,35.125,36.1875
0.038053673,-1.7845033,-0.6050375,-2.130087,0.005849291,0.075834386,-0.17860162,-0.38949707,-0.36856696,0.05986363,-3.078497,0.6249453,-0.00026278978,-0.0146639785,0.008256957,-0.0017982814,0.0021735854,-0.004495062,-0.0068430165,0.50460416,-1.3812419,1.9040259,-2.0917823,-1.5708174,2.4796336,-0.027764922,0.016140573,-0.016100474,0.004942102,0.00024018313,-0.020913709,-0.61291564,-0.11492168,-9.787497,0.7396539,47.67166,-0.9849255,-2.816884,-3.3412185,-0.09674248,0.14455713,-0.19091782,28.5,29.8125,28.875,32.6875,35.125,36.1875
0.040054202,-1.148772,-0.8952433,-1.9951836,-0.004039516,0.085914895,-0.19473454,-0.38950968,-0.3685356,0.059821837,-3.0784338,0.6249524,-0.00040354885,-0.015497306,0.008333219,-0.0016317605,0.0016372225,-0.00354996,-0.007366199,0.5045321,-1.3811578,1.9040135,-2.0917466,-1.5708054,2.479574,-0.028676048,0.016539652,-0.016766312,0.004122438,0.0002467157,-0.021301271,-0.49799395,-0.05746084,-9.710882,0.7866488,47.63404,-0.9505402,-2.7250524,-3.2838366,-0.093481615,0.14729296,-0.20183966,28.5,29.8125,28.875,32.6875,35.125,36.1875
0.04205431,-1.17853,-0.9214625,-1.8708403,-0.020698307,0.07636517,-0.21455161,-0.38956186,-0.3685225,0.059836034,-3.0784411,0.6250112,-0.00028133002,-0.016756063,0.008243291,-0.00070423796,0.0005217356,-0.0015221769,-0.0068933708,0.5044839,-1.3811457,1.9039778,-2.0917943,-1.5708417,2.4795616,-0.029693801,0.01623087,-0.0184367,0.00378631,0.00023947413,-0.022791153,-0.4213795,-0.019153614,-9.710882,0.80679786,47.685097,-0.95355,-2.721509,-3.3021743,-0.08178656,0.153072,-0.23275797,28.5,29.8125,28.875,32.6875,35.125,36.1875
0.04405435,-1.1821526,-1.3712271,-2.055585,-0.011129864,0.06602647,-0.2122897,-0.38959748,-0.36852238,0.059857737,-3.0784783,0.6249986,-0.00027760182,-0.017769864,0.008800757,-0.00077180937,0.0005555133,-0.0015717401,-0.0067939367,0.5044352,-1.3811334,1.9039057,-2.0917585,-1.5708174,2.4795003,-0.03157276,0.0171395,-0.019377861,0.0038789103,0.00023182596,-0.024769006,-0.3256114,0.05746084,-9.672575,0.7329411,47.699425,-1.0264106,-2.7533727,-3.3449628,-0.078649364,0.14436391,-0.22268952,28.5,29.8125,28.875,32.6875,35.125,36.1875
0.04605425,-0.44045183,-1.0113717,-1.9681803,-0.01856566,0.0725635,-0.20732124,-0.38964656,-0.36849925,0.05985325,-3.0784972,0.6249835,-0.00024952393,-0.019070843,0.009969482,-0.00039699127,0.0004969788,-0.0014503964,-0.008021893,0.5043504,-1.3810974,1.9038814,-2.0917938,-1.5708174,2.4794037,-0.034747403,0.01691753,-0.020168075,0.0047563887,0.00022459734,-0.026715482,-0.095768064,0.019153614,-9.653421,0.7351769,47.684196,-0.92528284,-2.6435215,-3.2779942,-0.08418685,0.1560902,-0.24786994,28.5,29.8125,28.875,32.6875,35.125,36.1875
0.048053574,-0.6957093,-0.8986567,-1.8825562,-0.008967185,0.038707457,-0.18226716,-0.38969344,-0.36846617,0.059844982,-3.0784342,0.62508553,-0.000267237,-0.020363105,0.010242586,-2.6720147e-05,0.00011364064,-0.0007525346,-0.007359263,0.5042661,-1.3810371,1.9038209,-2.091758,-1.5708417,2.479391,-0.03640767,0.017676547,-0.021962883,0.004995021,0.00021780291,-0.029037546,-0.095768064,0.095768064,-9.5385,0.8112748,47.684196,-0.904106,-2.7036223,-3.2857656,-0.08215621,0.15615018,-0.24467891,28.5,29.8125,28.875,32.6875,35.125,36.1875
0.05005355,-0.6632815,-0.96591514,-2.1110818,-0.006208841,0.02142847,-0.18643396,-0.38975346,-0.36841908,0.059845,-3.078383,0.62520844,-0.00025712812,-0.021827003,0.0106805535,0.00036408796,-0.00042546407,0.00022727781,-0.006742179,0.5041456,-1.381001,1.9037727,-2.0917342,-1.5708655,2.479354,-0.038504403,0.018252356,-0.023496978,0.0048338748,0.00021140683,-0.031750623,-0.11492168,0.17238252,-9.481039,0.79560274,47.686886,-0.85412437,-2.6645167,-3.2461185,-0.06900438,0.16420819,-0.2309447,28.5,29.8125,28.875,32.6875,35.125,36.1875
0.052053943,-0.15150975,-1.0111752,-2.0962763,-0.011646656,0.029614286,-0.1831964,-0.38978603,-0.36843324,0.059856124,-3.0784607,0.6251677,-0.00024848155,-0.02315221,0.011001667,0.0011251941,-0.0012852261,0.0017938913,-0.0070473547,0.50410897,-1.380977,1.9037246,-2.0917585,-1.5708174,2.479282,-0.04027511,0.017933462,-0.024820007,0.0046901586,0.00020537635,-0.03321563,0.038307227,0.22984336,-9.557653,0.75084364,47.68062,-0.7762377,-2.6567044,-3.2566936,-0.0626283,0.1750477,-0.24528904,28.5,29.8125,28.875,32.6875,35.125,36.1875
0.054053936,-0.4529304,-1.0235077,-1.9643915,-0.015152131,0.026864776,-0.1773912,-0.38984242,-0.3683987,0.05985185,-3.0784388,0.6251804,-0.0002248571,-0.023239719,0.01092187,0.00053802045,-0.0009473187,0.00092090137,-0.005841764,0.5040133,-1.3809284,1.9036769,-2.0917585,-1.5708417,2.479197,-0.040296745,0.019443836,-0.025230402,0.0045163883,0.00032959288,-0.034442652,0.019153614,0.21068975,-9.481039,0.7239871,47.723602,-0.8730976,-2.6516922,-3.1711254,-0.055048607,0.17667687,-0.25874826,28.5,29.8125,28.875,32.6875,35.125,36.1875
0.056053653,-0.46583307,-0.86060286,-1.7172128,-0.029134165,0.031928893,-0.18283579,-0.3898919,-0.36838505,0.05987959,-3.0784607,0.6252803,-0.00020774246,-0.023615696,0.011400735,0.00030571164,-0.00063122174,0.00036074274,-0.005953486,0.50392896,-1.3809283,1.9036053,-2.0917222,-1.5708174,2.4791722,-0.04144639,0.019985255,-0.025404032,0.004792525,0.00032456534,-0.03548043,0.0,0.15322891,-9.461885,0.72622824,47.679718,-0.9103874,-2.62621,-3.2545862,-0.050259046,0.16958345,-0.2669809,28.5,29.8125,28.875,32.6875,35.125,36.1875
0.05805394,-0.52418965,-1.312235,-1.8424212,-0.010989199,0.036425456,-0.1709242,-0.3899249,-0.36836895,0.05987582,-3.0784707,0.625284,-0.00024608904,-0.02483503,0.012458178,0.0006150954,-0.000760397,0.0005276018,-0.007707226,0.5038562,-1.3808924,1.9035686,-2.0917099,-1.5707935,2.4791005,-0.044380758,0.019835377,-0.026069278,0.005399802,0.00035638348,-0.036660932,0.076614454,0.19153613,-9.404425,0.7486078,47.68599,-0.81340736,-2.6519356,-3.2483053,-0.051229037,0.17245728,-0.28010136,28.5,29.8125,28.875,32.6875,35.125,36.1875
0.060053725,0.03303199,-0.36750904,-1.7391421,-0.020344844,0.03958776,-0.1823366,-0.3899912,-0.368337,0.05986596,-3.078455,0.6253185,-0.00023368989,-0.026021248,0.012565672,0.0008513588,-0.0010461499,0.0009674027,-0.0073146364,0.50374794,-1.3808198,1.9035081,-2.0917222,-1.5708054,2.4790158,-0.045684833,0.020996377,-0.028047197,0.005692915,0.00039033187,-0.0383567,0.038307227,0.095768064,-9.32781,0.7620334,47.694946,-0.85220385,-2.6203327,-3.1979678,-0.05813945,0.18570484,-0.30362472,28.5,29.8125,28.875,32.6875,35.125,36.1875
0.06205376,0.3854002,-0.4233619,-1.7309201,-0.013192461,0.0441587,-0.17443271,-0.3900543,-0.36832008,0.059879802,-3.0784745,0.6252837,-0.00015245879,-0.026746882,0.0124929175,0.0011448057,-0.0015341798,0.0012458621,-0.007347203,0.50367576,-1.3807836,1.9034365,-2.0917342,-1.5708297,2.4789195,-0.046416678,0.021594143,-0.029508952,0.0060754167,0.0006828135,-0.03905581,-0.038307227,0.17238252,-9.32781,0.800085,47.70032,-0.8220287,-2.6079173,-3.1693907,-0.04545693,0.18199536,-0.3084688,28.5,29.8125,28.875,32.6875,35.125,36.1875
0.064053565,0.39193526,-0.10601069,-1.4209218,-0.016096836,0.0559442,-0.19127657,-0.3901043,-0.3682926,0.059892446,-3.078497,0.6253065,-0.00016373656,-0.027563708,0.013019277,0.001270382,-0.0019602722,0.0013027505,-0.006339161,0.5035674,-1.3807715,1.9033879,-2.0917094,-1.570805,2.4788225,-0.048274554,0.021753509,-0.030000571,0.006151703,0.0010276706,-0.04192209,-0.11492168,0.1340753,-9.385271,0.7620334,47.66271,-0.8309462,-2.555549,-3.1447997,-0.055177785,0.19018304,-0.32207906,28.5,29.8125,28.875,32.6875,35.125,36.1875
0.066054806,-0.7147833,-0.8039626,-1.6763775,-0.00086066395,0.042809017,-0.1731468,-0.39013362,-0.36827573,0.059879772,-3.0784729,0.62526244,-0.0001946717,-0.02817169,0.013347655,0.0013493206,-0.0019939684,0.0012137218,-0.005391028,0.50351906,-1.3807113,1.9033402,-2.091686,-1.5708169,2.4787498,-0.049435362,0.022163533,-0.030759053,0.0065609254,0.001097481,-0.04403086,-0.17238252,0.11492168,-9.442732,0.71951014,47.64479,-0.88073945,-2.58217,-3.23038,-0.042835966,0.18562442,-0.3079477,28.5,29.8125,28.875,32.6875,35.125,36.1875
0.06805424,-0.84349895,-0.68496245,-1.6855093,-0.006572873,0.059467126,-0.16498628,-0.39018598,-0.3682539,0.05988262,-3.0784843,0.6253037,-0.00024605077,-0.028458491,0.013286402,0.0010475216,-0.0022875492,0.00014305655,-0.0061206655,0.5034111,-1.3806627,1.9032682,-2.0916502,-1.5707811,2.478666,-0.0500767,0.023422575,-0.031661123,0.0069990405,0.0018699039,-0.043943405,-0.15322891,0.05746084,-9.385271,0.7530795,47.692257,-0.8634087,-2.578339,-3.2263293,-0.06604334,0.17888562,-0.3435409,28.5,29.8125,28.875,32.6875,35.125,36.1875
0.07005389,-0.7161374,-0.6106711,-1.4573747,-0.011266791,0.08443884,-0.1774724,-0.39028153,-0.3682218,0.05991087,-3.0784914,0.62536144,-0.0001253646,-0.030084008,0.01434769,0.001136312,-0.0023783057,0.00013433932,-0.0071336455,0.5032903,-1.3806264,1.9031609,-2.0916498,-1.5708169,2.4785805,-0.05342188,0.024296843,-0.03299224,0.0074178325,0.0019544587,-0.04627498,-0.30645782,0.05746084,-9.32781,0.8023209,47.686886,-0.83805037,-2.5312123,-3.2387083,-0.057427146,0.18110768,-0.34674194,28.5,29.8125,28.875,32.6875,35.125,36.1875
0.07205354,-1.2916234,-0.49495232,-1.5017848,-0.0047993544,0.08079131,-0.1811046,-0.39030853,-0.36817694,0.059875347,-3.0784476,0.6253122,-0.0002521072,-0.03063094,0.014389146,0.0012828178,-0.002486123,0.00016242199,-0.004195969,0.5031822,-1.3805541,1.903148,-2.0916135,-1.570805,2.4784472,-0.05404531,0.024885379,-0.034130786,0.007891356,0.0020286238,-0.049835898,-0.34476504,0.05746084,-9.3661175,0.7396539,47.653748,-0.73292816,-2.5675595,-3.2460206,-0.054784022,0.17064804,-0.34404808,28.5,29.8125,28.875,32.6875,35.125,36.1875
0.074053325,-1.2747449,-0.49955887,-1.4915298,-0.0003625293,0.08886353,-0.17269967,-0.39036152,-0.3681542,0.059875686,-3.0784502,0.6253483,-0.00026447352,-0.030807547,0.013997888,0.0013220315,-0.002586374,5.172503e-05,0.0011672291,0.50308675,-1.3805058,1.9030875,-2.0916016,-1.5707926,2.478374,-0.053632155,0.02573009,-0.035305712,0.008270058,0.0021667955,-0.054785617,-0.40222588,0.095768064,-9.308656,0.73741806,47.68599,-0.99872756,-2.5738735,-3.1640763,-0.06266024,0.1615431,-0.31738862,28.5,29.8125,28.875,32.6875,35.125,36.1875
0.076054,-1.0032707,0.14549008,-1.5215362,-0.01066856,0.088194005,-0.1784133,-0.39042196,-0.36813018,0.05989032,-3.0784695,0.625294,-0.0002500048,-0.031703994,0.014799305,0.001285854,-0.002683722,-8.951616e-05,0.00089578645,0.50299,-1.3804699,1.9030036,-2.0915658,-1.5707926,2.478241,-0.055905025,0.026027381,-0.03558993,0.008333273,0.0023199134,-0.056787133,-0.47884035,0.0,-9.308656,0.66803825,47.679718,-0.9017873,-2.5253382,-3.1461744,-0.060412824,0.16395415,-0.2864112,28.5,29.8125,28.875,32.6875,35.125,36.1875
0.078053355,-1.1665118,-0.35733622,-1.5700234,0.0021337487,0.08083288,-0.17510393,-0.39050415,-0.3681082,0.059898205,-3.0784934,0.6253762,-0.00020566622,-0.033219956,0.015870478,0.0013773267,-0.0033231317,-0.0002394053,-0.0011014357,0.502869,-1.3804095,1.9029197,-2.0915897,-1.5707806,2.4781682,-0.0595053,0.02652753,-0.03642688,0.008491769,0.0029534013,-0.05839076,-0.47884035,-0.019153614,-9.308657,0.8314132,47.684196,-0.8205949,-2.4944808,-3.2104368,-0.054878674,0.15436308,-0.31152725,28.5,29.8125,28.875,32.6875,35.125,36.1875
0.08005384,-0.31460673,0.35309222,-1.2925217,-0.020886842,0.098533325,-0.18222989,-0.3905718,-0.36805877,0.059888266,-3.0784526,0.62536436,-0.0002263448,-0.03323726,0.015277432,0.0014020244,-0.0037269916,-0.0001641206,0.003923579,0.50273764,-1.3803372,1.9028486,-2.0915534,-1.5708045,2.4780347,-0.05871109,0.027233845,-0.03729803,0.0083934525,0.0032657052,-0.06262175,-0.53630114,0.095768064,-9.404425,0.7150385,47.686886,-0.8403848,-2.513547,-3.3042285,-0.080832176,0.14696357,-0.26656473,28.5,29.8125,28.875,32.6875,35.125,36.1875
0.0820536,-1.0162245,0.18242541,-1.3486645,-0.021236911,0.088829786,-0.18123932,-0.39064962,-0.36803508,0.05989752,-3.0785005,0.6253326,-0.00018085535,-0.033940844,0.015211968,0.001348828,-0.0037045903,0.00022387318,0.008042787,0.50261784,-1.3802888,1.9027756,-2.0915773,-1.5707926,2.477889,-0.059117366,0.028397657,-0.0384853,0.008089179,0.0030580426,-0.067146026,-0.47884035,0.038307227,-9.423578,0.7463667,47.672558,-1.035419,-2.5310142,-3.2314973,-0.07535528,0.15954475,-0.23439679,28.5,29.8125,28.875,32.6875,35.125,36.1875
0.084053405,-1.5101182,-0.18291964,-1.4758548,-0.009257243,0.08235542,-0.17187215,-0.39072555,-0.36800003,0.059925046,-3.0785336,0.62530005,-0.00019079153,-0.03532821,0.01594967,0.0014433627,-0.0038803394,0.0009671431,0.0093358345,0.5024733,-1.3802646,1.9026684,-2.0915062,-1.5707687,2.47772,-0.061511576,0.02902859,-0.039328564,0.007568023,0.0028513398,-0.0708324,-0.4405331,0.0,-9.3661175,0.77545905,47.686886,-0.96019167,-2.5296574,-3.2383726,-0.07233538,0.1660155,-0.1576409,28.5,29.8125,28.875,32.6875,35.125,36.1875
0.08605399,-1.3814462,-0.07780161,-1.6210636,-0.008408651,0.08048512,-0.16951501,-0.3907773,-0.36796194,0.059894633,-3.078493,0.62534857,-0.00027685086,-0.03599504,0.015934467,0.0014930582,-0.0043007717,0.0010326626,0.010935534,0.50235325,-1.3801682,1.9026207,-2.0914938,-1.5707563,2.4776354,-0.06230587,0.029869981,-0.040442683,0.0075807744,0.0031812016,-0.07322657,-0.36391866,-0.038307227,-9.461885,0.75755644,47.698532,-1.016934,-2.4937608,-3.232192,-0.07699006,0.14929454,-0.16364868,28.5,29.8125,28.875,32.6875,35.125,36.1875
0.08805337,-1.219418,-0.2121929,-1.644301,-0.010821227,0.07890249,-0.17342664,-0.39085317,-0.36794212,0.059914064,-3.0785563,0.6251861,-0.00019250077,-0.036345556,0.016440952,0.0011136432,-0.0039592846,0.00039286184,0.012018829,0.50225705,-1.380132,1.9025363,-2.0915058,-1.5707687,2.4774299,-0.06348313,0.03056119,-0.04039407,0.007565346,0.003194149,-0.07548686,-0.3256114,-0.019153614,-9.423578,0.77545905,47.64927,-0.9875176,-2.5751362,-3.2494617,-0.07692877,0.13729158,-0.1074564,28.5,29.8125,28.875,32.6875,35.125,36.1875
0.09005386,-0.9778408,-0.22944085,-1.5381258,-0.024276,0.07579792,-0.17627756,-0.3909671,-0.36788666,0.05991749,-3.0785398,0.62529755,-0.00015276988,-0.036533065,0.016796725,0.0004731561,-0.003269123,-0.0009823359,0.012961105,0.5020652,-1.3800474,1.9024285,-2.0915058,-1.5707806,2.4773097,-0.06427936,0.032009326,-0.040753566,0.0080137085,0.0032530637,-0.077225074,-0.24899697,-0.05746084,-9.32781,0.76874626,47.647476,-1.0678549,-2.5145824,-3.300065,-0.06284545,0.15466335,-0.08629322,28.5,29.8125,28.875,32.6875,35.125,36.1875
0.09205364,-0.9476854,-0.39627466,-1.806706,-0.009401292,0.059236586,-0.17705576,-0.39100376,-0.3678613,0.059892274,-3.0785406,0.62514424,-0.00023734597,-0.03756088,0.017047068,0.0003642519,-0.0033179799,-0.0007906062,0.011458918,0.5019809,-1.3799628,1.9023803,-2.091482,-1.5707687,2.4771297,-0.06561612,0.03333496,-0.04202,0.0077643497,0.0031957354,-0.077059,-0.21068975,-0.05746084,-9.404425,0.78217715,47.67793,-1.0496696,-2.5022213,-3.2657375,-0.07827419,0.14857173,-0.05631517,28.5,29.8125,28.875,32.6875,35.125,36.1875
0.09405343,-0.9751547,-0.72450054,-1.7219632,-0.0068142894,0.044983834,-0.16989313,-0.3911035,-0.3678355,0.059914414,-3.0785687,0.6251696,-0.0002076271,-0.03906005,0.016760094,0.0015337925,-0.0042900913,0.0009862406,0.010037952,0.501837,-1.3798906,1.9022363,-2.0914457,-1.5707563,2.476998,-0.0665096,0.033600222,-0.045198336,0.008653526,0.0031913873,-0.07653015,-0.15322891,0.076614454,-9.346964,0.7553206,47.686886,-1.0792967,-2.5831656,-3.144909,-0.0887033,0.14686474,-0.065404326,28.5,29.8125,28.875,32.6875,35.125,36.1875
0.096053965,-0.17565037,-0.948932,-1.6946493,-0.0039422777,0.053156994,-0.15989356,-0.3911817,-0.36780038,0.059917964,-3.0786107,0.62508136,-0.00016553316,-0.038862586,0.017392192,0.0007464547,-0.0036985015,-0.0005095302,0.008271912,0.50170493,-1.3798423,1.9021767,-2.09147,-1.5707558,2.4768057,-0.06750798,0.034187995,-0.04407831,0.008541447,0.0033974927,-0.07576308,-0.1340753,0.11492168,-9.308657,0.82022345,47.63852,-1.1314826,-2.5508187,-3.1570616,-0.07670889,0.14732908,-0.057592068,28.5,29.8125,28.875,32.6875,35.125,36.1875
0.09805359,0.0008934902,-0.4310694,-1.8479955,-0.018012144,0.058400687,-0.16759017,-0.39125213,-0.3677462,0.059915602,-3.078576,0.6251724,-0.0001940991,-0.039620433,0.018109517,0.00018683253,-0.0032482399,-0.00095227995,0.005009964,0.5015486,-1.3797939,1.9021167,-2.0914342,-1.5707563,2.4767106,-0.06929504,0.035413656,-0.044127107,0.007970557,0.0032128005,-0.07428769,-0.11492168,0.15322891,-9.404425,0.7620334,47.65464,-1.1755204,-2.615015,-3.3297577,-0.07935017,0.14476827,-0.09473748,28.5,29.8125,28.875,32.6875,35.125,36.1875
0.10005345,-0.0108752195,-0.89772755,-1.8558024,-0.013599984,0.055602565,-0.15969941,-0.39134994,-0.36770988,0.059916303,-3.0786078,0.625084,-0.0001392669,-0.04083647,0.018472899,0.00048652777,-0.003347435,-0.0003142496,0.0015178265,0.50140435,-1.3797096,1.9020208,-2.091458,-1.5707687,2.4765072,-0.07088529,0.036164444,-0.045763105,0.008249106,0.0029932673,-0.07238458,-0.019153614,0.17238252,-9.423578,0.7463667,47.672558,-1.1400454,-2.5277948,-3.272808,-0.07458715,0.13798831,-0.11261554,28.5,29.8125,28.875,32.6875,35.125,36.1875
0.10205425,0.022755345,-0.91327524,-1.7732295,-0.020821545,0.04975129,-0.16559319,-0.3914292,-0.3676726,0.059915245,-3.0786092,0.62504685,-0.00018101874,-0.042480752,0.018634528,0.0008327797,-0.0034224973,0.00044765847,-0.0016380887,0.5012603,-1.379625,1.9019121,-2.09141,-1.5707563,2.4763398,-0.072481185,0.037819196,-0.048626356,0.0087559195,0.0026866652,-0.07082275,-0.019153614,0.15322891,-9.423578,0.7978386,47.709274,-1.1318924,-2.6069622,-3.2436686,-0.0910745,0.15089041,-0.14938845,28.5,29.8125,28.875,32.6875,35.125,36.1875
0.10405393,-0.08833585,-1.2581662,-1.9105997,-0.019323543,0.044139035,-0.1560136,-0.39151546,-0.36764053,0.059916347,-3.0786204,0.62512666,-0.00021875121,-0.043799456,0.019082312,0.0017899238,-0.0041779485,0.0022353914,-0.004211014,0.5011039,-1.379541,1.9018048,-2.0913856,-1.5707206,2.4762318,-0.07431996,0.037028234,-0.049902704,0.0088961,0.0024883524,-0.0700879,-0.038307227,0.24899697,-9.346964,0.7732232,47.716442,-1.0566531,-2.6416984,-3.131682,-0.09671199,0.1693871,-0.16362406,28.5,29.8125,28.875,32.6875,35.125,36.1875
0.10605426,-0.23074926,-1.0767473,-1.7998024,-0.02556795,0.04165965,-0.15795663,-0.39157495,-0.36758587,0.059908528,-3.0785868,0.62508184,-0.00023755667,-0.043403484,0.020000061,0.00066212827,-0.00293131,0.00013332,-0.0059650927,0.50097185,-1.3794929,1.9017576,-2.0913503,-1.5707449,2.4760761,-0.07543844,0.037821524,-0.04828386,0.008925435,0.00240622,-0.06945279,-0.038307227,0.24899697,-9.32781,0.800085,47.694946,-1.0758686,-2.5343113,-3.268048,-0.08285606,0.17741594,-0.20481749,28.5,29.8125,28.875,32.6875,35.125,36.1875
0.10805333,-0.1352772,-1.15866,-1.8817244,-0.0302025,0.048542455,-0.17021587,-0.39167377,-0.36755475,0.05992034,-3.0785909,0.6251396,-0.00020952051,-0.044192415,0.020133935,0.00039916986,-0.0027138474,-0.00082245294,-0.007042868,0.5008278,-1.3794082,1.901625,-2.091326,-1.5707449,2.4759676,-0.07654799,0.039734535,-0.050156653,0.009827412,0.0026742555,-0.069483995,-0.038307227,0.22984336,-9.3661175,0.73741806,47.64389,-1.1127367,-2.550681,-3.287894,-0.10648136,0.1555831,-0.2311284,28.5,29.8125,28.875,32.6875,35.125,36.1875
0.11005443,-0.00023915582,-1.0192167,-1.7578897,-0.03606678,0.0612957,-0.17302491,-0.39175656,-0.36752814,0.059928507,-3.0786102,0.6251434,-0.00026146614,-0.045258787,0.020278372,0.00095787283,-0.003477208,0.000112896254,-0.0061079715,0.5006836,-1.3793238,1.901493,-2.091266,-1.5707086,2.4758234,-0.07790025,0.039844863,-0.051593352,0.00996892,0.002890821,-0.07177098,0.0,0.2681506,-9.385271,0.8403672,47.658226,-1.2305113,-2.6192963,-3.2133718,-0.10577157,0.14433128,-0.2549863,28.5,29.8125,28.875,32.6875,35.125,36.125
0.112054184,-0.39797348,-1.1525302,-1.8159959,-0.02473196,0.059531342,-0.16019405,-0.39186084,-0.36748144,0.059933484,-3.0786464,0.625112,-0.00017858241,-0.045632623,0.020065028,0.0011865669,-0.0038495823,0.00067461014,-0.00796126,0.5005158,-1.3792638,1.9014214,-2.0913136,-1.5707206,2.4756315,-0.0779083,0.040114176,-0.052405186,0.009839418,0.0029507463,-0.069925286,-0.05746084,0.22984336,-9.270349,0.8157518,47.68062,-1.2416624,-2.502922,-3.2288375,-0.10831288,0.17385498,-0.28325412,28.5,29.8125,28.875,32.6875,35.125,36.125
0.11405393,-0.48910162,-0.8048312,-1.8358613,-0.02977114,0.061848592,-0.15829623,-0.3919591,-0.3674511,0.059939623,-3.078634,0.62522614,-0.00021771368,-0.047183316,0.021796277,0.0006711217,-0.0031566175,-0.00039175493,-0.011605418,0.5003588,-1.3791553,1.9012655,-2.091254,-1.5706967,2.4755473,-0.082182005,0.041400816,-0.052858297,0.01027649,0.0028537505,-0.070554376,0.0,0.21068975,-9.308656,0.73741806,47.684196,-1.1593165,-2.5307183,-3.2355616,-0.120682254,0.15677033,-0.32588506,28.5,29.8125,28.875,32.6875,35.125,36.125
0.11605357,-0.5176677,-0.82868165,-1.845361,-0.024110874,0.05993936,-0.16001359,-0.39201805,-0.3673845,0.059892274,-3.0785847,0.6251548,-0.00033418112,-0.046935596,0.020788224,4.8079737e-06,-0.0030563856,-0.0012805283,-0.0074950634,0.50019205,-1.3790464,1.9012417,-2.091242,-1.5706967,2.4753423,-0.080451824,0.04379193,-0.054105863,0.009960198,0.0031812887,-0.07293449,-0.21068975,0.21068975,-9.32781,0.75755644,47.660015,-1.2928122,-2.6021225,-3.2726178,-0.09883262,0.15860537,-0.33229,28.5,29.8125,28.875,32.6875,35.125,36.125
0.118053555,-0.45552307,-0.9202311,-1.6554585,-0.02423784,0.07288008,-0.15493357,-0.39215884,-0.36736178,0.0599352,-3.0786488,0.6252292,-0.00019048531,-0.048396613,0.021389423,0.0011634495,-0.0042950683,0.0006908138,-0.013253976,0.5000235,-1.3789748,1.9010619,-2.091254,-1.5706967,2.475212,-0.08288351,0.042470355,-0.055200733,0.010052795,0.003330328,-0.06960691,-0.26815057,0.114921674,-9.308656,0.7978386,47.70659,-1.3785185,-2.5682106,-3.2477574,-0.13229722,0.1541805,-0.41050228,28.5,29.8125,28.875,32.6875,35.125,36.125
0.120053306,-1.1391792,-0.24250302,-1.7057198,-0.02828716,0.071287766,-0.17158763,-0.39224565,-0.3673049,0.05991061,-3.0786102,0.625259,-0.00022282882,-0.049786888,0.022385633,0.0015073146,-0.004711966,0.0010611605,-0.014067675,0.49985448,-1.3788668,1.9009899,-2.0912535,-1.5707082,2.4750667,-0.08594681,0.042469237,-0.056062907,0.01039033,0.0035151036,-0.07185664,-0.2681506,0.11492168,-9.423578,0.8291774,47.709274,-1.1225615,-2.5040889,-3.262724,-0.13340864,0.16373847,-0.4526133,28.5,29.8125,28.875,32.6875,35.125,36.125
0.12205375,-0.75293887,-0.4254384,-1.7770544,-0.008252121,0.08393114,-0.16665891,-0.39232382,-0.36727345,0.059933737,-3.0786428,0.62524325,-0.00028646886,-0.05006852,0.02188216,0.0010290379,-0.0047177747,0.0006593511,-0.009862515,0.4996992,-1.3788179,1.9008578,-2.0911582,-1.57066,2.4748974,-0.085465774,0.044470746,-0.05723884,0.009918116,0.0037079158,-0.07558029,-0.2873042,0.0,-9.481039,0.8179876,47.707485,-1.3529551,-2.5035148,-3.2133787,-0.14259347,0.14394142,-0.44512737,28.5,29.8125,28.875,32.6875,35.125,36.125
0.124053404,-1.7124875,-0.61285084,-1.7750149,-0.0066042286,0.07321577,-0.15717745,-0.39244705,-0.36723134,0.059941437,-3.0786738,0.6253631,-0.0002153867,-0.051078442,0.022498908,0.0007984163,-0.004621852,0.00032063396,-0.008268844,0.49950692,-1.3787334,1.900751,-2.0912054,-1.5706481,2.474776,-0.087466285,0.04566652,-0.058146004,0.009974335,0.0037894226,-0.0791738,-0.38307226,0.0,-9.461885,0.779936,47.694946,-1.3112701,-2.570836,-3.257963,-0.12551391,0.14888951,-0.47875977,28.5,29.8125,28.875,32.6875,35.125,36.125
0.12605411,-0.7663405,-0.20857126,-1.6811757,-0.008348823,0.099152744,-0.16440138,-0.392536,-0.36718455,0.05992943,-3.0786493,0.6253349,-0.00030016893,-0.051793445,0.023394061,-3.3174696e-05,-0.0036952146,-0.0014315511,-0.0021794382,0.4993385,-1.3786125,1.9006189,-2.0911338,-1.5706362,2.4745932,-0.08963076,0.047655612,-0.05875063,0.010573899,0.003809057,-0.08742746,-0.38307226,0.019153614,-9.308656,0.75084364,47.67345,-1.3206735,-2.621667,-3.315617,-0.12577741,0.1605863,-0.4281746,28.5,29.8125,28.875,32.6875,35.125,36.125
0.12805368,-0.62701005,-0.40230182,-1.8136432,0.002382837,0.106048085,-0.16528502,-0.39263576,-0.36713907,0.059926547,-3.0786583,0.6252969,-0.00029823676,-0.053857926,0.024120841,0.0013284098,-0.0055017727,0.0012225378,-0.0013261132,0.49916974,-1.378517,1.9005097,-2.091122,-1.5706362,2.4743996,-0.09293475,0.04634372,-0.06020067,0.010140603,0.004119942,-0.091584876,-0.4213795,-0.076614454,-9.404425,0.7620334,47.67345,-1.3374901,-2.5387487,-3.263248,-0.13760693,0.123237185,-0.40429777,28.5,29.8125,28.875,32.6875,35.125,36.125
0.13005437,-0.5683709,-0.26500073,-1.6544062,0.005239451,0.11137103,-0.1745445,-0.3927802,-0.3670879,0.059933126,-3.0786946,0.6253163,-0.00025507036,-0.053497046,0.023564365,0.0016224032,-0.0055118147,0.0013611313,0.008068595,0.49894276,-1.378397,1.9003552,-2.0911338,-1.5706242,2.4741802,-0.091603234,0.046205454,-0.060864337,0.010818944,0.0040664678,-0.09964763,-0.53630114,-0.1340753,-9.404425,0.80679786,47.70211,-1.3297249,-2.4840527,-3.2710276,-0.1521715,0.12290831,-0.35100284,28.5,29.8125,28.875,32.6875,35.125,36.125
0.13205402,-1.2241093,-0.27948642,-1.7374738,0.004320582,0.10160076,-0.16492969,-0.39287093,-0.36703745,0.059937634,-3.0786977,0.62525827,-0.00027107703,-0.054974653,0.024583532,0.0011689205,-0.0054498366,0.00074257376,0.009630293,0.49877408,-1.3783242,1.9002479,-2.0910861,-1.5706242,2.473975,-0.09481378,0.047930323,-0.061838392,0.010641189,0.0043039527,-0.104419634,-0.49799395,-0.11492168,-9.404425,0.8090337,47.68599,-1.3636647,-2.4711633,-3.3023977,-0.14419901,0.12771674,-0.28620481,28.5,29.8125,28.875,32.6875,35.125,36.125
0.13405344,-0.97518194,-0.0144079365,-1.5870513,0.004415107,0.11414477,-0.166585,-0.392975,-0.36697745,0.05993087,-3.0787072,0.6252585,-0.00028319948,-0.056452483,0.025292039,0.001340711,-0.005520153,0.0013077783,0.012102692,0.49856958,-1.3782399,1.9001635,-2.0910861,-1.5706123,2.4737694,-0.09721746,0.048803683,-0.063275896,0.010678688,0.00409229,-0.10929467,-0.59376204,-0.05746084,-9.346964,0.78217715,47.670765,-1.1073892,-2.5881705,-3.243225,-0.16654956,0.12699912,-0.21739182,28.5,29.8125,28.875,32.6875,35.125,36.125
0.13605416,-1.2374797,0.022570267,-1.6743928,0.014829382,0.10580685,-0.15971601,-0.39308974,-0.36695832,0.059943393,3.078744,-0.6251673,0.00030511976,-0.05684278,0.025974782,0.000999844,-0.005288536,0.0002933698,0.014167536,0.49840152,-1.3781195,1.8999842,-2.09105,-1.5705642,2.4735398,-0.098879494,0.049374133,-0.06328153,0.011121067,0.0043773614,-0.11302187,-0.59376204,-0.11492168,-9.404425,0.7597976,47.658226,-1.302949,-2.4369974,-3.3456936,-0.1541653,0.11093801,-0.17038107,28.5,29.8125,28.875,32.6875,35.125,36.125
0.13805416,-1.0062308,-0.21590668,-1.8728654,0.011275586,0.11219768,-0.15593481,-0.39316678,-0.36687008,0.059897684,-3.0786917,0.62511915,-0.0004235936,-0.060218982,0.026416164,0.002459959,-0.006693701,0.0032615946,0.011687322,0.49819672,-1.377999,1.8999346,-2.0910022,-1.570588,2.4733117,-0.10259119,0.050558474,-0.06809093,0.011466374,0.004170552,-0.11425144,-0.51714754,-0.11492168,-9.308657,0.7284641,47.685097,-1.1850241,-2.5050812,-3.1150374,-0.18988654,0.11631805,-0.14410114,28.5,29.8125,28.875,32.6875,35.125,36.125
0.14005397,-1.4808886,-0.3314817,-1.7987976,0.01004602,0.0919037,-0.15188491,-0.39332244,-0.36682862,0.059945814,3.078762,-0.6251538,0.00033460074,-0.05958372,0.027882343,0.0011716704,-0.004933916,0.00056089857,0.008114875,0.49796867,-1.377927,1.8997315,-2.0909655,-1.5705642,2.4730964,-0.10429279,0.050826587,-0.0655793,0.011904258,0.003933407,-0.11238083,-0.57460845,-0.13407528,-9.385271,0.7351769,47.66808,-1.1252677,-2.434166,-3.2711554,-0.18524364,0.1114265,-0.13741362,28.5,29.8125,28.875,32.6875,35.125,36.125
0.14205378,-0.7745117,-0.18110588,-1.8423644,-0.00030946164,0.10320471,-0.16173697,-0.39342895,-0.36676675,0.05991223,-3.078755,0.62513685,-0.0004181068,-0.06134404,0.029111406,0.00024333244,-0.0037586857,-0.0004953309,0.0010320387,0.4977518,-1.3777816,1.8996357,-2.0909655,-1.5705408,2.4728699,-0.1076277,0.05395811,-0.067176156,0.011863656,0.0033973283,-0.108631074,-0.49799395,-0.11492168,-9.500193,0.78217715,47.67345,-1.0073878,-2.536193,-3.2383153,-0.17509815,0.1374217,-0.19051069,28.5,29.8125,28.875,32.6875,35.125,36.125
0.14405347,-1.0938765,-0.12573364,-1.9614394,-0.014597382,0.09228286,-0.15988994,-0.3935936,-0.36670613,0.059954483,3.0787466,-0.6251757,0.00022603264,-0.06432048,0.02920976,0.0029158168,-0.005915843,0.004437132,-0.0059331083,0.4975356,-1.3777102,1.899455,-2.0909655,-1.5706009,2.4726791,-0.11021344,0.052372742,-0.07150226,0.012406635,0.0029433488,-0.104249164,-0.45968673,-0.1340753,-9.385271,0.7642693,47.657326,-0.9368001,-2.5243182,-3.1087022,-0.2038338,0.1277325,-0.2360616,28.5,29.8125,28.875,32.6875,35.125,36.125
0.14605379,-1.1787405,0.004386486,-1.8621813,-0.026460681,0.09498541,-0.1693955,-0.39370963,-0.36665022,0.059949573,3.0787365,-0.62521315,0.00028185602,-0.063559815,0.030476045,0.0013511237,-0.004147174,0.0011469742,-0.009660184,0.4973195,-1.3775896,1.8993124,-2.0909178,-1.5705765,2.4724877,-0.11163206,0.053331997,-0.06919226,0.012875626,0.002963754,-0.101941645,-0.6703765,0.05746084,-9.481039,0.7866488,47.658226,-0.89412856,-2.4117687,-3.2399263,-0.20113102,0.11594568,-0.27773923,28.5,29.8125,28.875,32.6875,35.125,36.125
0.14805377,-1.5247141,-1.1527697,-2.0694003,-0.014231267,0.10107972,-0.15076509,-0.39381534,-0.36658844,0.059934776,3.0787492,-0.625215,0.00036427198,-0.0650351,0.030718317,0.0018974908,-0.004859104,0.002301957,-0.010644615,0.49710342,-1.3774693,1.8991927,-2.0908701,-1.5705527,2.4722712,-0.113413,0.053929277,-0.07115134,0.012885712,0.003030051,-0.102737546,-0.61291564,0.076614454,-9.461885,0.78888994,47.66987,-0.8650124,-2.4165866,-3.2611666,-0.21744402,0.13035497,-0.32420817,28.5,29.8125,28.875,32.6875,35.125,36.125
0.15005422,-1.6346025,-0.90480864,-1.8476124,-0.026941016,0.11298256,-0.15909903,-0.39397383,-0.36651233,0.059955236,3.0787392,-0.62525076,0.00027374853,-0.06526095,0.030833237,0.00054883445,-0.0038953272,-0.0004868034,-0.0102523975,0.49685153,-1.377372,1.8990253,-2.0908458,-1.570588,2.472043,-0.114083365,0.05742329,-0.07237336,0.01352022,0.0035165828,-0.1037998,-0.51714754,0.095768064,-9.500193,0.779936,47.6421,-0.86029553,-2.6298542,-3.2039344,-0.23222211,0.122844405,-0.33616465,28.5,29.8125,28.875,32.6875,35.125,36.125
0.15205394,-0.6463983,-0.8855448,-1.8752881,-0.022970833,0.13207017,-0.17044693,-0.39409703,-0.36644444,0.0599387,-3.0787275,0.6252863,-0.00030110276,-0.06651231,0.030480197,0.002495521,-0.0062390454,0.0031981722,-0.0114155775,0.49662396,-1.3772408,1.8989047,-2.090834,-1.570588,2.4718392,-0.114793204,0.055058632,-0.07389986,0.013054574,0.0038150651,-0.10334676,-0.45968673,0.15322891,-9.461885,0.7866488,47.672558,-0.9736738,-2.4137948,-3.177855,-0.25342104,0.1024257,-0.35795942,28.5,29.8125,28.875,32.6875,35.125,36.125
0.1540541,-1.014449,-0.7662431,-1.9786031,-0.022767657,0.10606474,-0.15909961,-0.3942414,-0.3663778,0.059956912,3.0787084,-0.6253562,0.00028585934,-0.06667763,0.030884093,0.0015837938,-0.0053342488,0.0022242884,-0.00928605,0.49637213,-1.3771441,1.8987378,-2.0907862,-1.5705765,2.4716334,-0.11538661,0.05668711,-0.07362146,0.012438711,0.0034858475,-0.10606889,-0.40222588,0.095768064,-9.500193,0.7933669,47.677036,-1.0183601,-2.4553833,-3.2519655,-0.27015367,0.11997934,-0.3806697,28.5,29.8125,28.875,32.6875,35.125,36.125
0.15605395,-0.40081683,-0.86857176,-2.153691,-0.018648634,0.0910104,-0.16068053,-0.39436823,-0.36632434,0.059928376,3.0786922,-0.6253748,0.00035135009,-0.06912905,0.03197048,0.0017240521,-0.0056759147,0.0035806377,-0.014061591,0.4961434,-1.3769755,1.8986057,-2.0907986,-1.5705408,2.4714184,-0.11921392,0.058180228,-0.075502,0.011476471,0.003132895,-0.1051191,-0.2873042,0.19153613,-9.519346,0.8179876,47.687782,-0.9316051,-2.4305813,-3.170138,-0.25254792,0.13979423,-0.41668066,28.5,29.8125,28.875,32.6875,35.125,36.125
0.15805377,-0.69256645,-0.71039766,-2.1642447,-0.026011437,0.05892214,-0.15743156,-0.3945122,-0.36625677,0.05992058,3.0787024,-0.62536865,0.00033980884,-0.06882353,0.030584203,0.002276967,-0.006379448,0.005360245,-0.004003896,0.49590498,-1.3768313,1.8984498,-2.0907867,-1.5705527,2.471175,-0.116420224,0.05808326,-0.07646173,0.010634693,0.002901082,-0.1123823,-0.19153613,0.22984336,-9.423578,0.85155696,47.681515,-1.0914354,-2.4787753,-3.2284498,-0.25242624,0.14472109,-0.39277512,28.5,29.8125,28.875,32.6875,35.125,36.125
0.16005345,0.07497409,-0.7367556,-2.1585743,-0.020374559,0.06782491,-0.16424341,-0.39467713,-0.3661916,0.059963137,3.078648,-0.62541574,0.00022899873,-0.0708027,0.032890145,0.0018574093,-0.005869657,0.004796658,-0.005161087,0.49565142,-1.376759,1.898259,-2.0907505,-1.5705646,2.4709578,-0.121970914,0.05884269,-0.0763897,0.010542167,0.0027315095,-0.11677521,-0.076614454,0.15322891,-9.481039,0.83365434,47.684196,-0.87787914,-2.421678,-3.2776916,-0.2350518,0.13404608,-0.35558715,28.5,29.8125,28.875,32.6875,35.125,36.125
0.16205336,-0.65717834,-0.7528427,-2.2078414,-0.011983465,0.038547456,-0.16026811,-0.39481664,-0.3661157,0.0599603,3.0786436,-0.62542784,0.0002549353,-0.07247016,0.031731743,0.0030707007,-0.0073077474,0.007424765,0.0030785424,0.4953884,-1.3766385,1.8981146,-2.0907152,-1.5705527,2.470703,-0.12151595,0.06012996,-0.08068587,0.010558601,0.0027379093,-0.12455802,-0.095768064,0.19153613,-9.5385,0.85826975,47.701214,-1.0226445,-2.4313865,-3.121093,-0.23953286,0.13076822,-0.2702422,28.5,29.8125,28.875,32.6875,35.125,36.125
0.16405407,-0.6799502,-0.6021388,-2.2731814,-0.018714627,0.03646748,-0.16811854,-0.394958,-0.36605984,0.059956897,3.0786421,-0.62536556,0.00020069892,-0.07214794,0.032747902,0.0023539083,-0.006387153,0.005896336,0.008864046,0.49517232,-1.3765064,1.897971,-2.090739,-1.5705646,2.4704483,-0.12285054,0.060033023,-0.07898958,0.01074201,0.0026645123,-0.13167863,0.038307227,0.17238252,-9.481039,0.7553206,47.709274,-1.016515,-2.3891404,-3.2262917,-0.25502294,0.14983585,-0.21301033,28.5,29.8125,28.875,32.6875,35.125,36.125
0.16605386,-0.09204889,-0.5659471,-2.111778,-0.020300822,0.048992995,-0.17574255,-0.39511138,-0.36601406,0.059982434,3.078589,-0.6252941,0.0001654984,-0.07377517,0.03323227,0.0027631617,-0.007006441,0.0062903203,0.011061434,0.49493235,-1.3763978,1.8977789,-2.0907152,-1.5705284,2.4701705,-0.12534003,0.061059173,-0.08128627,0.011376683,0.0030287106,-0.13636488,0.0,0.15322891,-9.404425,0.7553206,47.65912,-1.0442556,-2.3683348,-3.2707615,-0.26548004,0.13973032,-0.12851477,28.5,29.8125,28.875,32.6875,35.125,36.125
0.16805367,-0.4463848,-0.40968236,-2.1678133,-0.018357258,0.038071983,-0.16469102,-0.39524734,-0.36593434,0.059966587,3.0786366,-0.62522334,0.00019845665,-0.07342052,0.03222483,0.0027387713,-0.007503544,0.006136133,0.016043505,0.49468112,-1.3762535,1.8976353,-2.090679,-1.5705403,2.4698691,-0.12359903,0.061926343,-0.082271785,0.011392617,0.0035343876,-0.13960631,-0.019153614,0.095768064,-9.442732,0.75084364,47.693153,-1.0855365,-2.3660665,-2.9819899,-0.26828897,0.1432879,-0.07069975,28.5,29.8125,28.875,32.6875,35.125,36.125
0.17005333,0.15115383,-1.0765916,-1.9143006,-0.010191606,0.0481298,-0.1542336,-0.39540347,-0.36587068,0.059982292,3.0785768,-0.62527436,0.00016746619,-0.07510307,0.03411567,0.002595287,-0.0076152044,0.0052991263,0.0065945475,0.4944161,-1.3761452,1.8974684,-2.0906665,-1.570516,2.4696436,-0.12859187,0.06234453,-0.08257686,0.011965013,0.004039257,-0.13515064,0.076614454,0.095768064,-9.519346,0.82022345,47.684196,-0.9966742,-2.3303745,-3.269624,-0.27666825,0.13282357,-0.116472244,28.5,29.8125,28.875,32.6875,35.125,36.125
0.17205408,0.07552092,-0.37001565,-1.9224981,-0.034565903,0.039808556,-0.1635491,-0.39555177,-0.36580235,0.059978187,3.0785956,-0.6251825,0.00016873264,-0.075148836,0.032931976,0.002840088,-0.0079905875,0.00639746,0.003550251,0.49416554,-1.3760009,1.8973011,-2.0906427,-1.570516,2.4693334,-0.12648103,0.06332304,-0.084186554,0.011452023,0.003845936,-0.1299944,0.038307227,0.114921674,-9.385271,0.8157518,47.657326,-1.1320164,-2.359556,-3.1828804,-0.27520967,0.15940182,-0.16263849,28.5,29.8125,28.875,32.6875,35.125,36.125
0.17405345,0.6761011,-0.5107287,-1.9784689,-0.031386785,0.055567537,-0.16822381,-0.3957122,-0.36575088,0.060004674,3.0785377,-0.6251922,9.4241834e-05,-0.07606758,0.033711646,0.0028489758,-0.00765813,0.0066506453,-0.0031127168,0.4939253,-1.3758926,1.8971099,-2.0906312,-1.5705045,2.4691067,-0.12833858,0.06371573,-0.08468857,0.011499037,0.0034433126,-0.12518792,-0.019153614,0.19153613,-9.3661175,0.8179876,47.65106,-1.1803488,-2.3314152,-3.2087953,-0.26929873,0.14631057,-0.20101172,28.5,29.8125,28.875,32.6875,35.125,36.125
0.17605412,0.1646541,-1.1381974,-1.8696799,-0.024981245,0.053343963,-0.15350257,-0.39582077,-0.36566895,0.059959076,3.078584,-0.6252233,0.00025134627,-0.076840684,0.034560733,0.0022616687,-0.006974765,0.005288089,-0.008795327,0.49367312,-1.3757237,1.8970021,-2.0905826,-1.5704802,2.468868,-0.13046451,0.065332845,-0.08543163,0.012151711,0.003475814,-0.121631205,0.0,0.19153613,-9.346964,0.784413,47.66539,-1.1083429,-2.331469,-3.2709203,-0.2784174,0.14309624,-0.2772035,28.5,29.8125,28.875,32.6875,35.125,36.125
0.17805415,0.48692256,-0.79270214,-1.888167,-0.035613284,0.06185321,-0.16294824,-0.3959835,-0.3655961,0.05998237,3.0785775,-0.6251835,0.00019572253,-0.077303335,0.034791004,0.0022290326,-0.007483106,0.00490589,-0.012090007,0.49340943,-1.3756156,1.8968099,-2.090535,-1.5704921,2.4685805,-0.13162398,0.065773495,-0.08591741,0.012289446,0.0041102883,-0.11949656,0.0,0.17238252,-9.385271,0.80679786,47.68062,-1.2035766,-2.3303552,-3.318613,-0.27651045,0.14854619,-0.34099352,28.5,29.8125,28.875,32.6875,35.125,36.125
0.18005408,0.17464773,-0.74470514,-1.8533275,-0.03861145,0.055867102,-0.15811744,-0.39616144,-0.36551988,0.05999333,3.078528,-0.6253275,0.00010178159,-0.077752136,0.034904063,0.0018090772,-0.007729803,0.0033763924,-0.014563306,0.4931334,-1.3754829,1.8966302,-2.0905464,-1.5705155,2.4684007,-0.13276547,0.067446046,-0.08712865,0.013053299,0.00505986,-0.11816518,-0.21068975,0.21068975,-9.519346,0.8247004,47.71286,-1.1481504,-2.2690613,-3.3436642,-0.29150683,0.13402101,-0.38216096,28.5,29.8125,28.875,32.6875,35.125,36.125
0.18205357,-0.13698758,-0.49598536,-1.5941745,-0.049411684,0.06640766,-0.16569148,-0.39630172,-0.36546648,0.060002122,3.0785089,-0.625286,0.00014058704,-0.07867636,0.03520641,0.0019474088,-0.008882868,0.003103172,-0.017535873,0.4928932,-1.3753506,1.8964394,-2.0904863,-1.5704793,2.468137,-0.13478597,0.06799334,-0.08813614,0.013209728,0.00620443,-0.11721426,-0.22984336,0.24899697,-9.423578,0.76874626,47.72808,-1.1507719,-2.3456807,-3.285758,-0.31435734,0.14161399,-0.45263964,28.5,29.8125,28.875,32.6875,35.125,36.125
0.18405335,-0.41980276,-0.6146119,-1.7434012,-0.029567013,0.075026214,-0.16385172,-0.3964707,-0.3654129,0.060019452,3.0784545,-0.62535006,9.547772e-05,-0.07968461,0.03574631,0.0021066486,-0.009395027,0.0033972128,-0.017901052,0.49264142,-1.3752064,1.8962234,-2.0904624,-1.5704669,2.4679322,-0.13676119,0.06833572,-0.08889406,0.013126295,0.0065223225,-0.1188241,-0.19153613,0.1340753,-9.404425,0.8179876,47.692257,-1.129172,-2.2792206,-3.326761,-0.32669842,0.1204652,-0.49439964,28.5,29.8125,28.875,32.6875,35.125,36.125
0.1860534,-0.22971493,-0.5755055,-1.6419734,-0.019038964,0.095852725,-0.16744326,-0.3966208,-0.36532453,0.06000722,3.0784528,-0.6253856,0.00016463203,-0.08075629,0.036317747,0.0020060416,-0.009639334,0.0035594676,-0.015594713,0.49234122,-1.3750618,1.8960689,-2.0904152,-1.570443,2.4676545,-0.13873774,0.06923382,-0.08965193,0.012733101,0.006656497,-0.123106964,-0.22984336,0.11492168,-9.3661175,0.8403672,47.70032,-1.0595225,-2.1737132,-3.264627,-0.3188973,0.11416105,-0.48963368,28.5,29.8125,28.875,32.6875,35.125,36.125
0.1880534,-1.1340053,-0.16808267,-1.4907086,-0.03100321,0.09558636,-0.16467062,-0.3967841,-0.36524564,0.06000569,3.0784037,-0.62542933,0.000120247685,-0.08219165,0.037638195,0.00093527406,-0.0090524,0.001765606,-0.009544273,0.49205256,-1.3749409,1.8959368,-2.090451,-1.5704311,2.4673994,-0.14242877,0.07198207,-0.090474494,0.012670701,0.0069939983,-0.13284783,-0.4405331,0.15322891,-9.251195,0.7351769,47.698532,-1.0692303,-2.197908,-3.3078308,-0.31235832,0.1109152,-0.4400137,28.5,29.8125,28.875,32.6875,35.125,36.125
0.190054,-1.5450691,-0.13273035,-1.3358568,-0.022558136,0.099067904,-0.17020632,-0.39696953,-0.36518425,0.060019594,3.0783575,-0.6254486,0.00010148499,-0.08262409,0.03634589,0.0013665082,-0.009586452,0.0027414158,0.0042627486,0.4917659,-1.3747718,1.8956965,-2.0904152,-1.5704073,2.4671307,-0.14059764,0.07351903,-0.0933423,0.012898044,0.0070066624,-0.14482217,-0.4405331,0.095768064,-9.251195,0.8157518,47.686886,-1.1565472,-2.3592033,-3.3504276,-0.32118544,0.09440702,-0.35464686,28.5,29.8125,28.875,32.6875,35.125,36.125
0.19205387,-0.8544406,0.06742969,-1.4346445,-0.007818164,0.11971612,-0.16640228,-0.39711583,-0.36513138,0.060029067,3.0783224,-0.6253223,0.00010902492,-0.08291361,0.037005637,0.0014956056,-0.010500634,0.0026603234,0.009571278,0.49151382,-1.3746523,1.8955301,-2.0904028,-1.5703586,2.4668043,-0.14245461,0.072532766,-0.09240259,0.012592917,0.007860381,-0.15198903,-0.49799395,-0.076614454,-9.308657,0.8090337,47.65912,-1.0895619,-2.2182798,-3.253595,-0.31451225,0.08786166,-0.2627098,28.5,29.8125,28.875,32.6875,35.125,36.125
0.19405346,-1.0722392,-0.20152329,-1.2395604,0.011296544,0.11914946,-0.16306473,-0.39728272,-0.36502555,0.06001393,3.078386,-0.62535036,0.00011869061,-0.08347936,0.03739774,0.00037377124,-0.008925677,0.0012315518,0.01464207,0.4912143,-1.3744832,1.8953503,-2.0903437,-1.5704073,2.4665143,-0.14313513,0.07559403,-0.09351249,0.012643722,0.007139016,-0.15773888,-0.6512228,-0.15322891,-9.346964,0.8247004,47.658226,-1.20575,-2.1570497,-3.4158478,-0.31287032,0.06597533,-0.19607621,28.5,29.8125,28.875,32.6875,35.125,36.125
0.19605397,-1.0603746,0.40046233,-1.0564077,-0.0028081401,0.12335962,-0.15875626,-0.39745077,-0.36496255,0.06002369,3.0783205,-0.6253363,0.000109881206,-0.08504856,0.03788178,0.0008680957,-0.008669515,0.003123211,0.01484639,0.49092627,-1.3743505,1.8951706,-2.0903437,-1.5703596,2.4662259,-0.14462924,0.07619222,-0.09527103,0.012270949,0.0060258424,-0.15943477,-0.5554548,-0.076614454,-9.193734,0.800085,47.672558,-1.166046,-2.4062622,-3.221993,-0.32257083,0.091376185,-0.14978231,28.5,29.8125,28.875,32.6875,35.125,36.125
0.19805375,-0.5539147,0.7028227,-1.2874391,0.0037099908,0.12520483,-0.16360794,-0.39763322,-0.36488038,0.060026236,3.0783339,-0.62524813,4.360412e-05,-0.08640282,0.03938937,0.00071901275,-0.008227202,0.0027415056,0.0051059253,0.4906374,-1.3741945,1.8949794,-2.0903437,-1.5703834,2.4658804,-0.14821358,0.07673685,-0.09568296,0.012680115,0.0058217556,-0.153278,-0.7086837,-0.095768064,-9.212888,0.83589023,47.68062,-1.0457139,-2.172177,-3.3608947,-0.32082465,0.080030784,-0.18170248,28.5,29.8125,28.875,32.6875,35.125,36.125
0.20005347,-0.85673547,0.4078353,-1.4570373,0.007344042,0.10854096,-0.15291914,-0.39779237,-0.36480153,0.060016517,3.078326,-0.6252665,0.00012416294,-0.087466575,0.03943179,0.0005517516,-0.008336425,0.0023754505,-0.0005119482,0.49033827,-1.3740257,1.8947872,-2.0902836,-1.5703477,2.4655938,-0.14935927,0.078789435,-0.0978403,0.013061087,0.006082007,-0.14880525,-0.7661445,-0.1340753,-9.232041,0.8560339,47.689575,-1.340208,-2.2851627,-3.3289165,-0.31761163,0.084665,-0.23508582,28.5,29.8125,28.875,32.6875,35.125,36.125
0.2020542,-0.75227374,0.34566787,-1.127757,-0.0013907581,0.10778884,-0.1590319,-0.39798042,-0.36473048,0.060021926,3.078288,-0.6252021,0.00011951548,-0.08892986,0.039872166,0.0009686154,-0.008780525,0.0031961512,-0.005688617,0.49002597,-1.3738571,1.8945717,-2.0902708,-1.5703114,2.4652462,-0.15136848,0.07953703,-0.099738926,0.013285085,0.006090153,-0.14563678,-0.7661445,-0.21068975,-9.232041,0.8314132,47.70838,-1.1859891,-2.2886257,-3.293223,-0.33740255,0.08289796,-0.3041973,28.5,29.8125,28.875,32.6875,35.125,36.125
0.20405391,-0.9345236,0.03876018,-1.380706,0.008905284,0.10848614,-0.15796757,-0.398168,-0.36462402,0.060027562,3.0783103,-0.62528324,4.438017e-05,-0.090059295,0.040462334,0.0014577425,-0.0084740035,0.0043926504,-0.00735456,0.4897143,-1.373713,1.8943795,-2.090235,-1.5703715,2.4649825,-0.15281072,0.079590045,-0.100987956,0.013565625,0.005258711,-0.14541154,-0.7278373,-0.19153613,-9.289502,0.80679786,47.701214,-1.1687014,-2.2819326,-3.2822104,-0.33760917,0.06261022,-0.33336258,28.5,29.8125,28.875,32.6875,35.125,36.125
0.20605369,-0.97779024,-0.040571284,-1.5070314,0.009566665,0.12190899,-0.16052897,-0.3983576,-0.36454844,0.06003955,3.0782065,-0.62541544,4.979325e-05,-0.09007906,0.041269943,-0.0007954679,-0.0061230124,0.00041166483,-0.008985882,0.4893785,-1.3735673,1.8941764,-2.090223,-1.5703114,2.4647424,-0.1540076,0.083954506,-0.10116563,0.014008857,0.005064776,-0.14497593,-0.59376204,-0.1340753,-9.289502,0.8090337,47.707485,-1.1975945,-2.3873854,-3.305296,-0.35397264,0.084341906,-0.3577932,28.5,29.8125,28.875,32.6875,35.125,36.125
0.20805325,-1.3319111,-0.4694123,-1.4298344,-0.0067129056,0.12554006,-0.15289938,-0.39851806,-0.3644639,0.060012758,3.0782623,-0.6253286,0.00012179347,-0.0912091,0.040915545,0.0011089714,-0.007739399,0.0037145142,-0.0081062345,0.48909116,-1.373364,1.8939847,-2.0901754,-1.5703114,2.4643939,-0.15429287,0.081957504,-0.103222735,0.014390428,0.004928885,-0.14614056,-0.61291564,-0.038307227,-9.270349,0.8314132,47.66808,-1.2541481,-2.2835696,-3.1565042,-0.35774356,0.08756624,-0.38569498,28.5,29.8125,28.875,32.6875,35.125,36.125
0.21005385,-1.1308434,-0.099796325,-1.3409674,-0.028687572,0.126025,-0.16221704,-0.3987342,-0.3643659,0.060014475,3.0782273,-0.6254328,9.5392876e-05,-0.091415145,0.041915778,-0.00032381673,-0.0060941866,0.0013479219,-0.0044213436,0.48873138,-1.373171,1.8937458,-2.090151,-1.5703119,2.4641037,-0.15588795,0.084349185,-0.10284753,0.014490689,0.0045954227,-0.15141983,-0.51714754,-0.076614454,-9.232041,0.83365434,47.703007,-1.3244828,-2.276957,-3.3291438,-0.33748674,0.0845978,-0.3634666,28.5,29.8125,28.875,32.6875,35.125,36.125
0.2120544,-1.3942447,-0.819391,-1.7310395,-0.009197447,0.09658705,-0.15669088,-0.39888352,-0.36427397,0.05997499,3.0782578,-0.62545246,0.0002488706,-0.09280451,0.041774366,-0.0005429421,-0.0060979296,0.0014717693,0.0039966404,0.4884197,-1.3729657,1.8935779,-2.0900915,-1.5702761,2.4638004,-0.15680727,0.08712233,-0.10564801,0.014418179,0.0045223217,-0.16075599,-0.34476504,0.0,-9.32781,0.86498255,47.703903,-1.3445143,-2.5589843,-3.173705,-0.33129406,0.09581614,-0.29046553,28.5,29.8125,28.875,32.6875,35.125,36.125
0.21405424,-0.46308315,-0.44270474,-1.5657511,-0.024838576,0.09337679,-0.16968383,-0.39910582,-0.3642019,0.060015745,3.0782151,-0.6254155,6.801938e-05,-0.093652286,0.04175759,0.00038815296,-0.006756334,0.00347548,0.014684272,0.48812032,-1.3728218,1.8933142,-2.0900915,-1.5703119,2.4634836,-0.15726024,0.08632971,-0.106802516,0.014288289,0.004184928,-0.17189534,-0.21068975,0.019153614,-9.346964,0.7911258,47.723602,-1.3473545,-2.3393319,-3.2801085,-0.3426776,0.08480099,-0.17986694,28.5,29.8125,28.875,32.6875,35.125,36.125
0.21605389,0.068351425,-0.34170827,-1.4724655,-0.033064052,0.0842205,-0.17616385,-0.39928812,-0.36409527,0.059990365,3.078248,-0.62534434,7.333849e-05,-0.095323384,0.042305037,-2.0003897e-06,-0.006388695,0.0037241857,0.017099597,0.48778397,-1.3726408,1.8931593,-2.0901034,-1.5703238,2.4630988,-0.15935014,0.08885796,-0.10881054,0.013723527,0.0037387325,-0.17639889,-0.30645782,0.15322891,-9.270349,0.8112748,47.698532,-1.3061018,-2.4111757,-3.1892095,-0.33387038,0.10648458,-0.09339124,28.5,29.8125,28.875,32.6875,35.125,36.125
0.21805379,0.090714596,-0.45060566,-1.4929633,-0.026587045,0.06870425,-0.15791504,-0.39951158,-0.36402494,0.060031075,3.0781775,-0.62531286,4.8216996e-05,-0.09834936,0.044245288,0.0006071931,-0.00708157,0.0055608214,0.010969164,0.487435,-1.3724726,1.8928479,-2.0900204,-1.5702761,2.4627392,-0.1651097,0.08917758,-0.11044711,0.013103805,0.0034983403,-0.1760268,-0.17238252,0.17238252,-9.32781,0.7978386,47.692257,-1.2193819,-2.4504304,-3.142191,-0.3298707,0.09919723,-0.044718165,28.5,29.8125,28.875,32.6875,35.125,36.125
0.22005348,0.908284,-0.08681733,-1.6054298,-0.04237863,0.08316072,-0.16729055,-0.3996864,-0.36392015,0.06000287,3.0782306,-0.62530684,5.791208e-05,-0.0989169,0.044327524,0.00018093146,-0.0066682803,0.0047032703,0.0046311324,0.48712352,-1.3722798,1.8926796,-2.0900075,-1.5703119,2.4624174,-0.1657174,0.09112103,-0.11191366,0.01357064,0.0035267808,-0.17029583,-0.05746084,0.19153613,-9.404425,0.78217715,47.705692,-1.2289084,-2.5034957,-3.1266465,-0.32041958,0.09721923,-0.09134795,28.5,29.8125,28.875,32.6875,35.125,36.125
0.22205406,-0.20367903,-1.3042932,-1.9787058,-0.027465645,0.04697402,-0.14932902,-0.39987773,-0.36383578,0.059994414,3.078192,-0.6253611,9.513813e-05,-0.10034574,0.045101143,0.00020723818,-0.0068728663,0.0046669645,-0.006441431,0.4867874,-1.372087,1.892464,-2.0899837,-1.5702761,2.46212,-0.16835447,0.0922819,-0.11344051,0.013875985,0.0037218179,-0.16185987,-0.038307227,0.28730422,-9.346964,0.8157518,47.687782,-1.107322,-2.5526338,-3.1104364,-0.32884514,0.09982034,-0.1805522,28.5,29.8125,28.875,32.6875,35.125,36.125
0.22405379,0.12080103,-1.108258,-1.828052,-0.050725866,0.06251934,-0.15163957,-0.4000714,-0.36374235,0.059985604,3.0782049,-0.6253475,8.558229e-05,-0.10131346,0.045746963,5.5608278e-05,-0.0067565492,0.004151947,-0.014446907,0.4864636,-1.3718945,1.8922495,-2.0899599,-1.5702881,2.4617863,-0.17032675,0.09343653,-0.114603534,0.014390332,0.0038588129,-0.1558263,-0.11492168,0.2681506,-9.385271,0.88289046,47.66987,-1.1038812,-2.5617323,-3.1194904,-0.32499632,0.12121267,-0.26190567,28.5,29.8125,28.875,32.6875,35.125,36.125
0.22605371,0.19257323,-1.5757543,-1.8305603,-0.048452675,0.08351217,-0.14658906,-0.40027866,-0.3636529,0.059978627,3.0781667,-0.62543327,0.0001360522,-0.10100857,0.044807192,0.00048437182,-0.007616525,0.0046025408,-0.014943903,0.486105,-1.3716785,1.8919972,-2.0899117,-1.5702523,2.461486,-0.16873294,0.09333518,-0.115527935,0.014620016,0.0044071698,-0.15373592,-0.1340753,0.3256114,-9.404425,0.90527004,47.686886,-1.1918741,-2.4726179,-3.1042008,-0.32505685,0.11576097,-0.33296847,28.5,29.8125,28.875,32.6875,35.125,36.125
0.22805364,0.13827285,-0.8938511,-1.9863431,-0.051928483,0.08666917,-0.16366035,-0.40049082,-0.36356655,0.059996795,3.0781062,-0.6255005,5.0403647e-05,-0.101798065,0.04508978,0.000657519,-0.008504066,0.004283222,-0.021456182,0.48576915,-1.3715221,1.8917698,-2.0899117,-1.5702518,2.4612,-0.1704235,0.09383457,-0.1166356,0.0150922565,0.0053516566,-0.14891452,-0.019153614,0.34476504,-9.404425,0.83589023,47.703903,-1.1710287,-2.534646,-3.090644,-0.30546784,0.104655296,-0.4460135,28.5,29.8125,28.875,32.6875,35.125,36.125
0.2300535,-0.16086009,-1.0155611,-1.9016905,-0.050186314,0.07424794,-0.15330446,-0.40067425,-0.3634601,0.05997698,3.078146,-0.6255466,0.00011343852,-0.10295174,0.04552785,0.00046887618,-0.009147066,0.003924568,-0.022558928,0.48543298,-1.3713174,1.8915547,-2.0898397,-1.5702637,2.4608877,-0.17257741,0.09526785,-0.11789639,0.014934905,0.006078314,-0.1499662,-0.019153614,0.24899697,-9.461885,0.842603,47.694946,-1.1957171,-2.4434857,-3.179364,-0.32131135,0.09872615,-0.49688292,28.5,29.8125,28.875,32.6875,35.125,36.125
0.23205324,-0.006782197,-0.65764296,-1.7591618,-0.054638244,0.07043214,-0.15865733,-0.40087807,-0.36336792,0.059976544,3.078097,-0.6256463,0.00015164375,-0.10367681,0.046793863,-0.00023477578,-0.008730764,0.0030259266,-0.016426211,0.4850727,-1.371125,1.8913158,-2.089792,-1.570227,2.4605958,-0.17531614,0.096086666,-0.11716487,0.014385624,0.0061344025,-0.15883787,-0.019153614,0.19153613,-9.32781,0.8247004,47.682407,-1.1114256,-2.4796054,-3.129806,-0.31846046,0.08642034,-0.48074085,28.5,29.8125,28.875,32.6875,35.125,36.125
0.23405425,0.39209673,-0.5774518,-2.07974,-0.031016985,0.06134792,-0.16308439,-0.40110427,-0.36327863,0.059988897,3.0780332,-0.6256834,7.614984e-05,-0.10646156,0.04697579,0.0014749576,-0.010915137,0.006897205,-0.0072052022,0.48471275,-1.3709449,1.891076,-2.0898044,-1.5702151,2.4602673,-0.17810859,0.095806144,-0.120558746,0.013626644,0.0062721777,-0.17084976,0.15322891,0.19153613,-9.557653,0.88960326,47.71554,-1.016849,-2.4664378,-3.3218098,-0.2924211,0.09293236,-0.38993096,28.5,29.8125,28.875,32.6875,35.125,36.125
0.23605427,0.8525151,-0.18697938,-1.8520014,-0.027741658,0.062870845,-0.1663781,-0.4013133,-0.3631738,0.059975993,3.0780623,-0.6256828,7.122575e-05,-0.10586699,0.048557047,-0.00093155407,-0.008634081,0.0026340077,0.0021621233,0.48436454,-1.3707278,1.8908385,-2.0897682,-1.5702394,2.4599152,-0.1801512,0.09830927,-0.1180544,0.013457867,0.006248723,-0.18226036,0.05746084,0.076614454,-9.576807,0.78217715,47.696735,-0.9036036,-2.4757273,-3.2800138,-0.2967849,0.100242466,-0.27151495,28.4375,29.8125,28.875,32.6875,35.125,36.125
0.23805399,0.34531233,-0.03471565,-1.8614542,-0.017326457,0.059073277,-0.15621617,-0.40154785,-0.3631026,0.06000009,3.0779707,-0.62560225,-1.13874285e-05,-0.106287934,0.048127443,-1.6108732e-05,-0.009648273,0.0044297893,0.008496228,0.48400566,-1.3705479,1.8905748,-2.089792,-1.5701913,2.4595177,-0.17976205,0.097410835,-0.11904244,0.013296924,0.006332729,-0.18820454,-0.1340753,0.05746084,-9.500193,0.779936,47.70211,-0.9505737,-2.5091705,-3.2885075,-0.28195772,0.10783577,-0.18235463,28.4375,29.8125,28.875,32.6875,35.125,36.125
0.24005401,0.065563805,0.05031863,-1.8838966,-0.00487997,0.076984674,-0.15283039,-0.4017391,-0.3629946,0.059982058,3.0780106,-0.6255916,8.95701e-05,-0.10633216,0.048577625,-0.0005401473,-0.009381095,0.0028338032,0.007036714,0.48364583,-1.3703315,1.8903364,-2.0896966,-1.5701793,2.4591463,-0.18079385,0.0983405,-0.11914027,0.014004841,0.0068288506,-0.18777776,-0.095768064,-0.038307227,-9.481039,0.8627467,47.69763,-0.9261435,-2.4845407,-3.4143205,-0.292887,0.10644821,-0.15063997,28.4375,29.8125,28.875,32.6875,35.125,36.125
0.24205372,-0.29899937,0.18049277,-1.8628434,0.0001617383,0.08625342,-0.15185583,-0.4019613,-0.36290056,0.059979822,3.077966,-0.6256036,7.281112e-05,-0.10640212,0.0492569,-0.0013085768,-0.009408461,0.0010344818,-0.0001063422,0.48327422,-1.3701268,1.8900975,-2.0896966,-1.5701545,2.458788,-0.18245165,0.099237256,-0.11848924,0.014038656,0.0076974416,-0.18229336,-0.095768064,-0.19153614,-9.595961,0.81351066,47.691364,-0.91716594,-2.5180771,-3.4561553,-0.27613017,0.080908954,-0.19012837,28.4375,29.8125,28.875,32.6875,35.125,36.125
0.24405356,-0.33486974,0.6629932,-1.6844355,-0.001272712,0.10091708,-0.16422488,-0.40213764,-0.36280522,0.05996578,3.0779667,-0.6256047,0.0001932082,-0.107406385,0.048790637,-3.4905726e-05,-0.010481689,0.0032433188,-0.0052554514,0.48292717,-1.3699348,1.8898815,-2.0896127,-1.5701069,2.4584415,-0.18243295,0.09870463,-0.12087232,0.0145083675,0.0076072016,-0.17712516,-0.28730422,-0.19153613,-9.5385,0.80679786,47.652847,-1.1509256,-2.4491022,-3.3171263,-0.25673518,0.06442992,-0.27796286,28.4375,29.8125,28.875,32.6875,35.125,36.125
0.24605416,-0.72995245,0.6305064,-1.8003973,0.0012089078,0.092847735,-0.16115,-0.40238023,-0.36270666,0.05996385,3.0779574,-0.6256026,8.7189765e-05,-0.1076063,0.04914278,-0.00075146375,-0.010352506,0.001808604,-0.007982363,0.48256758,-1.3697062,1.8896188,-2.0896366,-1.5701426,2.458082,-0.18346123,0.10015072,-0.12098797,0.01450227,0.00817068,-0.17542647,-0.21068975,-0.21068975,-9.481039,0.7866488,47.677036,-1.1395185,-2.4146893,-3.5618596,-0.24547955,0.06826845,-0.32483214,28.4375,29.8125,28.875,32.6875,35.125,36.125
0.24805383,-0.5130902,0.49829397,-1.7257456,0.0025651895,0.097116016,-0.16255794,-0.40258715,-0.36259612,0.0599458,3.077951,-0.62565833,0.00015514124,-0.10933893,0.050368235,0.00023305642,-0.010294938,0.0033843452,-0.010506794,0.4821831,-1.3694901,1.8893913,-2.0895884,-1.5701193,2.4577332,-0.18649597,0.09942415,-0.12260126,0.015483312,0.0073839286,-0.17593583,-0.30645782,-0.24899697,-9.5385,0.8605109,47.672558,-1.1784945,-2.349589,-3.4417205,-0.24314013,0.06838327,-0.3559215,28.4375,29.8125,28.875,32.6875,35.125,36.125
0.2500536,-0.36044943,0.48984814,-1.9034964,0.0022176318,0.09604549,-0.16859332,-0.4028174,-0.36252707,0.0599849,3.0778556,-0.62565506,3.502486e-05,-0.11037762,0.05097882,0.00026595322,-0.009446512,0.0032831032,-0.008448386,0.48184744,-1.3693336,1.8891157,-2.089588,-1.570095,2.4574077,-0.18793382,0.100684196,-0.124433555,0.016550066,0.0067026387,-0.17942977,-0.2681506,-0.15322891,-9.404425,0.800085,47.67345,-1.1915994,-2.2544456,-3.481451,-0.23929498,0.06324068,-0.37306887,28.4375,29.8125,28.875,32.6875,35.125,36.125
0.25205332,-0.47862405,0.22083877,-2.152631,0.0035651568,0.08177533,-0.1646588,-0.40300918,-0.3624168,0.059953928,3.077891,-0.62561727,0.00014774424,-0.11052515,0.050165977,0.00079899427,-0.009481304,0.0040991097,-0.00042770582,0.48147687,-1.3691051,1.8888997,-2.0895274,-1.5700711,2.457009,-0.18639785,0.10121004,-0.12647218,0.017335903,0.0063451664,-0.18591385,-0.2681506,-0.095768064,-9.557653,0.87617236,47.698532,-1.2687254,-2.4069138,-3.397577,-0.24724264,0.0720042,-0.33078793,28.4375,29.8125,28.875,32.6875,35.125,36.125
0.25405392,-0.7960739,-0.13738047,-1.9846882,-0.018210629,0.08372652,-0.17475607,-0.40322646,-0.36229903,0.059950195,3.0779128,-0.6256332,0.00016462275,-0.110944286,0.050004244,0.000766812,-0.00943003,0.0044210693,0.011144308,0.48109356,-1.3689008,1.8886484,-2.0894563,-1.5700835,2.456633,-0.18629201,0.10216834,-0.1275258,0.017177857,0.006151063,-0.19737944,-0.38307226,-0.076614454,-9.576807,0.85155696,47.683304,-1.412962,-2.2820373,-3.4171662,-0.23578745,0.06780334,-0.19890118,28.4375,29.8125,28.875,32.6875,35.125,36.125
0.25605384,-0.9513604,-0.80364954,-1.8522696,-0.033908833,0.1030257,-0.16038285,-0.40345556,-0.3622116,0.059954826,3.0778842,-0.62552655,0.00015917377,-0.11144113,0.05024639,-3.70272e-05,-0.0085766,0.0031257644,0.017957022,0.48072147,-1.3686837,1.8883733,-2.089432,-1.5700477,2.4561982,-0.18695721,0.10463165,-0.12872611,0.017473096,0.0060042036,-0.20485623,-0.40222588,0.076614454,-9.595961,0.91198283,47.666286,-1.4330864,-2.418861,-3.442373,-0.22100839,0.06379675,-0.10627277,28.4375,29.8125,28.875,32.6875,35.125,36.125
0.25805387,-1.0276577,-0.6927885,-1.9533613,-0.045299247,0.11560872,-0.16756512,-0.40370128,-0.36209783,0.059982102,3.077825,-0.62555534,5.8895483e-05,-0.11259605,0.051040765,0.00029546008,-0.008541942,0.0031892767,0.01590655,0.4803125,-1.3685274,1.888122,-2.0894191,-1.5700477,2.4558148,-0.18919274,0.105048716,-0.13023137,0.018523872,0.0059629655,-0.20504025,-0.3256114,0.24899697,-9.634268,0.89631605,47.67793,-1.3901519,-2.3230946,-3.4206257,-0.23181048,0.07226819,-0.04959667,28.4375,29.8125,28.875,32.6875,35.125,36.125
0.26005346,-1.1002765,-1.5696981,-2.166702,-0.04487607,0.10458083,-0.15966411,-0.40390635,-0.36198893,0.05996241,3.0778666,-0.62552905,0.00015880865,-0.114066534,0.051481698,0.00066085166,-0.0084915105,0.0041970666,0.008161572,0.47994018,-1.3682867,1.8878578,-2.0893238,-1.5700353,2.455421,-0.19082452,0.10606152,-0.13234773,0.018759403,0.0054339715,-0.19892603,-0.34476504,0.3256114,-9.749189,0.8717007,47.711063,-1.338851,-2.3605936,-3.4042492,-0.228719,0.07640171,-0.11603175,28.4375,29.8125,28.875,32.6875,35.125,36.125
0.26205403,-0.86368716,-1.6095647,-1.8858752,-0.07469733,0.09934887,-0.16446593,-0.40417188,-0.36190924,0.060015894,3.0777864,-0.62548,-4.1847707e-05,-0.11537675,0.052035015,0.0007330118,-0.008593673,0.004743489,-0.0025135637,0.4795792,-1.3681184,1.8875355,-2.0893242,-1.5700477,2.4550397,-0.19272071,0.107141346,-0.13377088,0.018565051,0.0052972883,-0.19014545,-0.45968673,0.30645782,-9.653421,0.9254084,47.701214,-1.2969935,-2.3503635,-3.3931155,-0.22701405,0.09932996,-0.19283548,28.4375,29.8125,28.875,32.6875,35.125,36.125
0.26405376,-0.5267354,-1.369555,-1.8445117,-0.07658267,0.09718256,-0.17080827,-0.40438062,-0.3617819,0.05996746,3.077798,-0.6255838,0.00011106832,-0.11808746,0.05236758,0.0016483827,-0.00997019,0.007130485,-0.0120963175,0.4791582,-1.3678536,1.8873185,-2.089276,-1.5700115,2.454682,-0.19563913,0.10850799,-0.13739894,0.0180778,0.0053911493,-0.18348014,-0.51714754,0.3256114,-9.615114,0.86945957,47.694054,-1.1561859,-2.355549,-3.3275473,-0.22488955,0.083169214,-0.3112231,28.4375,29.8125,28.875,32.6875,35.125,36.125
0.26605356,-0.741383,-1.5307595,-2.0049174,-0.059040867,0.0809411,-0.1641778,-0.4046251,-0.36167437,0.059994344,3.0777647,-0.625638,6.959809e-05,-0.11918472,0.053186595,0.001258706,-0.009968471,0.0069111832,-0.019966833,0.47876167,-1.367661,1.8870085,-2.0891926,-1.5700115,2.4543238,-0.19794685,0.10979512,-0.1379447,0.01752979,0.0054958235,-0.17791685,-0.51714754,0.30645782,-9.634268,0.79560274,47.677036,-1.1955869,-2.3314364,-3.290946,-0.20279981,0.10258631,-0.41274565,28.4375,29.8125,28.875,32.6875,35.125,36.125
0.2680534,-0.9392825,-1.590807,-1.8258382,-0.05354231,0.074103594,-0.16787694,-0.40487793,-0.36158264,0.06001111,3.077692,-0.6256421,-3.647076e-05,-0.12151331,0.053171128,0.0025596605,-0.011616167,0.009791445,-0.021802973,0.4783773,-1.3674567,1.886732,-2.089217,-1.5699996,2.4539514,-0.19995207,0.11025138,-0.14139022,0.017207596,0.0056457534,-0.1780842,-0.34476504,0.2681506,-9.595961,0.77545905,47.692257,-1.1912459,-2.4065497,-3.1365361,-0.18965703,0.09033475,-0.47608453,28.4375,29.8125,28.875,32.6875,35.125,36.125
0.27005488,-0.5075823,-1.2482622,-1.642813,-0.042577337,0.087383635,-0.16573237,-0.40516716,-0.36146486,0.06004424,3.0776103,-0.6257547,-0.00017763603,-0.1227383,0.054425366,0.001738076,-0.01109093,0.008620088,-0.015012192,0.47793195,-1.3672518,1.8864092,-2.089205,-1.5700115,2.4535868,-0.20308094,0.11229063,-0.14193209,0.016999204,0.0057487227,-0.18800285,-0.3256114,0.28730422,-9.385271,0.74413085,47.675243,-1.0854604,-2.3331985,-3.1922145,-0.1740118,0.09409096,-0.45305917,28.4375,29.8125,28.875,32.6875,35.125,36.125
0.27205345,-0.44765466,-0.84042895,-1.5425224,-0.03047902,0.0982864,-0.1693711,-0.40541106,-0.3613662,0.06005809,3.0776,-0.6257074,-0.0002461887,-0.124346435,0.05503071,0.0016046856,-0.011415891,0.008762902,-0.0032494552,0.4775592,-1.3670349,1.8861107,-2.0891693,-1.5700239,2.453186,-0.20555608,0.114137165,-0.14380132,0.0167548,0.0059913644,-0.20223969,-0.2873042,0.22984336,-9.3661175,0.8717007,47.70032,-1.0841964,-2.4011168,-3.1034799,-0.14119795,0.097542554,-0.35774654,28.4375,29.8125,28.875,32.6875,35.125,36.125
0.27405334,-1.1084455,-1.0384275,-1.6159093,0.001227007,0.09324934,-0.16282065,-0.40563157,-0.3612753,0.060041685,3.0775657,-0.6256378,-0.00018638739,-0.12566857,0.054201104,0.0030149387,-0.013673894,0.010855378,0.00581036,0.47717524,-1.3667946,1.8858579,-2.0891569,-1.5699633,2.452763,-0.20586231,0.11408055,-0.14705971,0.017192028,0.007042159,-0.21160537,-0.28730422,0.17238252,-9.270349,0.84484416,47.686886,-1.1302545,-2.4214592,-3.076,-0.1348927,0.08525168,-0.20737794,28.4375,29.8125,28.875,32.6875,35.125,36.125
0.276054,-0.45086974,-0.03165224,-1.450135,0.0038420977,0.10058866,-0.17136994,-0.405892,-0.36115047,0.060027733,3.0775204,-0.6257237,-0.00011755123,-0.124791674,0.055469196,0.000165667,-0.011512657,0.0053868233,0.007822128,0.47670668,-1.366529,1.8855613,-2.0891087,-1.5699147,2.452354,-0.2074828,0.117644064,-0.14491287,0.017346755,0.00764272,-0.21523851,-0.15322891,0.019153614,-9.212888,0.91198283,47.71286,-1.0738987,-2.5767136,-3.1804175,-0.12676767,0.0853183,-0.15070185,28.4375,29.8125,28.875,32.6875,35.125,36.125
0.27805385,-0.47485164,0.19038834,-1.3283592,0.0069252667,0.09057205,-0.15726282,-0.40613413,-0.3610454,0.060025375,3.0775137,-0.62566763,-0.00012278232,-0.12557614,0.05531151,0.0016093254,-0.012544994,0.007789594,0.0029485794,0.47631058,-1.3662896,1.8852724,-2.0890725,-1.5699033,2.4519238,-0.20768066,0.11605278,-0.14642744,0.017846417,0.0074595944,-0.21056238,-0.45968676,-0.019153614,-9.212888,0.800085,47.709274,-1.1618733,-2.4121091,-3.0681398,-0.12106505,0.080527484,-0.1738931,28.4375,29.8125,28.875,32.6875,35.125,36.125
0.28005335,-0.29755956,0.48511645,-1.2451472,-0.003035088,0.09552229,-0.17296545,-0.4063927,-0.36092928,0.06004485,3.0774965,-0.62566555,-0.00021587264,-0.12474316,0.05450989,0.0007745863,-0.011407441,0.0066319434,-0.0015810474,0.47590348,-1.3660846,1.8849748,-2.0890367,-1.5699271,2.4515178,-0.20519978,0.117970005,-0.14685911,0.017905315,0.0069893445,-0.20355074,-0.63206923,-0.15322891,-9.174581,0.8224646,47.70659,-1.2625744,-2.6053596,-3.2358434,-0.08673413,0.06871675,-0.25870883,28.4375,29.8125,28.875,32.6875,35.125,36.125
0.28205413,-0.9713641,0.29997867,-1.1748942,-0.0058192736,0.098744676,-0.16850403,-0.40666023,-0.36083925,0.060045894,3.077436,-0.62567365,-0.00023799352,-0.12360336,0.054054704,-4.5954353e-06,-0.010149913,0.0046888585,-0.004214555,0.47549602,-1.3658081,1.8846391,-2.0890243,-1.5698913,2.4511232,-0.20318471,0.11918351,-0.14680855,0.018951662,0.006773374,-0.1989017,-0.45968673,-0.22984336,-9.097966,0.85155696,47.687782,-1.4536383,-2.4692068,-3.2436025,-0.067833856,0.09214128,-0.3435976,28.4375,29.8125,28.875,32.6875,35.125,36.125
0.28405395,-0.48825204,0.08562039,-1.3150007,0.022476437,0.10143555,-0.17105696,-0.40692303,-0.3607275,0.060078207,3.0773485,-0.6257532,-0.0003131651,-0.124292,0.054896995,-0.00027813707,-0.00978542,0.0028527123,-0.006764679,0.4750634,-1.3656272,1.8843411,-2.088988,-1.569867,2.4507515,-0.20541751,0.12048891,-0.14819507,0.020837996,0.007310027,-0.19858359,-0.24899697,-0.17238252,-9.097966,0.9567419,47.66808,-1.4847325,-2.462215,-3.2469127,-0.07782975,0.075076334,-0.3722018,28.4375,29.8125,28.875,32.6875,35.125,36.125
0.28605375,-0.09329834,0.37549827,-0.99704516,0.014647632,0.091365784,-0.17279232,-0.4071558,-0.3605848,0.0600491,3.0774033,-0.62574357,-0.00030262372,-0.12543626,0.056984846,-0.00096433813,-0.008493966,0.0012211214,-0.0076740207,0.47464234,-1.3653868,1.8841141,-2.0889633,-1.5699033,2.4503176,-0.20958368,0.12152321,-0.14811277,0.021763036,0.0069077117,-0.20184046,-0.17238252,-0.22984336,-9.097966,0.8291774,47.689575,-1.4338214,-2.4897592,-3.293758,-0.082863525,0.07164605,-0.3856946,28.4375,29.8125,28.875,32.6875,35.125,36.125
0.2880537,0.038009875,-0.017728336,-0.903225,0.027667308,0.072167434,-0.17060125,-0.40740654,-0.36048037,0.060030464,3.0773942,-0.625736,-0.00026355186,-0.12713665,0.05800338,-0.0011132128,-0.0075844675,0.0016514568,0.00059607776,0.47423357,-1.365098,1.8838028,-2.0889275,-1.5698799,2.4499054,-0.21205112,0.12335018,-0.15002555,0.021901848,0.0059071514,-0.21257661,-0.11492168,-0.19153613,-8.983045,0.9298854,47.694946,-1.4107587,-2.4320302,-3.3278332,-0.059435286,0.07804327,-0.3380552,28.4375,29.8125,28.875,32.6875,35.125,36.125
0.29005337,0.43337366,0.49980178,-0.9619862,0.029699255,0.050758082,-0.17715114,-0.40769243,-0.36037531,0.06004546,3.077342,-0.625681,-0.00035389073,-0.12905069,0.059514027,0.00029479116,-0.008011551,0.0043151043,0.0101348655,0.4738002,-1.3648462,1.8834676,-2.0889275,-1.5698675,2.4494445,-0.21563362,0.121395454,-0.15099655,0.022282194,0.0051033306,-0.22569709,-0.019153614,-0.17238252,-9.021352,0.83589023,47.686886,-1.3092368,-2.3694162,-3.3079207,-0.051557273,0.087837875,-0.18418735,28.4375,29.8125,28.875,32.6875,35.125,36.125
0.29205412,1.1372421,0.61606413,-1.099039,0.030707387,0.047132574,-0.17359678,-0.40796047,-0.36026832,0.060078885,3.0773125,-0.62555933,-0.00042805122,-0.12928593,0.060548544,-0.0009925523,-0.006732156,0.0013547352,0.012121675,0.47337964,-1.3646413,1.8831328,-2.0888674,-1.5698556,2.448952,-0.21760303,0.1237867,-0.15119228,0.023312371,0.005339261,-0.22965275,0.019153614,-0.05746084,-9.002198,0.79560274,47.687782,-1.3063526,-2.4099777,-3.3268151,-0.038264118,0.1136832,-0.11075315,28.4375,29.8125,28.875,32.6875,35.125,36.125
0.29405358,0.81445855,0.2912932,-1.2585139,0.01286624,0.0280755,-0.16999742,-0.40820867,-0.36013806,0.060064744,3.0773559,-0.62555176,-0.0004083816,-0.13041638,0.06045158,0.0009980485,-0.008361824,0.0041367523,0.005323376,0.4729596,-1.364378,1.8828334,-2.0887954,-1.5698799,2.4485219,-0.21840984,0.12161459,-0.1534016,0.024465876,0.0055081113,-0.22366118,-0.095768064,-0.095768064,-9.11712,0.7777002,47.66271,-1.1994685,-2.1425657,-3.253961,-0.047698855,0.12550545,-0.12786943,28.4375,29.8125,28.875,32.6875,35.125,36.125
0.29605404,0.7151997,-0.38064024,-1.552929,-0.0020099923,0.03311804,-0.17015387,-0.4084615,-0.36001894,0.060075037,3.077291,-0.6256042,-0.00036160374,-0.13267075,0.061133195,0.0018376709,-0.009130333,0.005226375,-0.0072217304,0.47250274,-1.3641613,1.8825339,-2.0887225,-1.5698198,2.448106,-0.22150032,0.12267978,-0.15684797,0.025533833,0.005687316,-0.21420528,-0.17238252,0.019153614,-9.155427,0.83813137,47.655537,-1.169292,-2.252294,-3.221496,-0.028843392,0.1150447,-0.21279413,28.4375,29.8125,28.875,32.6875,35.125,36.125
0.2980541,-0.040418487,-0.9747186,-1.7961525,-0.011413351,0.03284124,-0.17310777,-0.40872195,-0.3598499,0.06005195,3.0773604,-0.6256808,-0.00031788557,-0.13309401,0.06270353,0.0013291681,-0.0078056008,0.0034144113,-0.017482435,0.47202158,-1.3638967,1.8822478,-2.0886266,-1.5698675,2.447664,-0.2241649,0.12318739,-0.15667973,0.027061569,0.005316407,-0.20660952,-0.22984336,0.05746084,-9.289503,0.8717007,47.658226,-1.0218078,-2.1623893,-3.24931,-0.040300626,0.12052062,-0.34061813,28.4375,29.8125,28.875,32.6875,35.125,36.125
0.30005392,-0.12375913,-1.0857749,-2.0088584,-0.032738872,0.06190254,-0.17861907,-0.40899035,-0.35974562,0.060046375,3.0772839,-0.6257464,-0.00028796992,-0.13466597,0.06401556,0.0013935517,-0.008081829,0.0027681487,-0.027731378,0.47157666,-1.3636203,1.881924,-2.0886028,-1.5698074,2.44727,-0.22793493,0.124101564,-0.15819088,0.028115721,0.0058566676,-0.2001302,-0.22984336,0.15322891,-9.423578,0.8403672,47.670765,-0.9571484,-2.176103,-3.2360187,-0.06000046,0.123225205,-0.4553691,28.4375,29.8125,28.875,32.6875,35.125,36.125
0.30205357,-0.6066924,-1.2866786,-1.8564156,-0.04558352,0.07550387,-0.17583634,-0.4092356,-0.3595891,0.060036037,3.077308,-0.62586606,-0.00022431159,-0.13510962,0.06430685,0.0005511288,-0.00802623,0.00038571187,-0.028127212,0.47110826,-1.3633912,1.8816484,-2.0884945,-1.5698193,2.4468732,-0.22932145,0.12664358,-0.15957463,0.029103208,0.0068791523,-0.20112102,-0.19153613,0.19153613,-9.519346,0.8605109,47.682407,-0.9752975,-2.2206914,-3.1373045,-0.07197539,0.114427224,-0.5072187,28.4375,29.8125,28.875,32.6875,35.125,36.125
0.30405346,-1.056076,-0.9615141,-2.018131,-0.052556485,0.09941103,-0.18607803,-0.4094736,-0.35947576,0.060012337,3.0773342,-0.62578523,-0.00011261239,-0.13476868,0.062211044,0.001593627,-0.00962527,0.001684364,-0.012106311,0.47068915,-1.3631028,1.8813375,-2.0884101,-1.5697826,2.4464004,-0.2258895,0.12677073,-0.16229126,0.029829439,0.007710996,-0.21371002,-0.3256114,0.2681506,-9.576807,0.82694155,47.689575,-1.0773114,-2.167537,-3.2958715,-0.0808396,0.098879114,-0.45735946,28.4375,29.8125,28.875,32.6875,35.125,36.125
0.30605334,-0.84732866,-0.9481636,-2.3245938,-0.04990997,0.12926626,-0.181257,-0.40972382,-0.35934067,0.060002256,3.0773547,-0.62579846,-6.724836e-05,-0.13370565,0.061924346,0.00015835374,-0.008687969,-0.00090833055,0.0038828338,0.47024563,-1.36285,1.8810385,-2.0883267,-1.5697826,2.4459627,-0.22458425,0.12883131,-0.16151385,0.029743727,0.008058252,-0.22839446,-0.2873042,0.2873042,-9.730036,0.8247004,47.6636,-1.2964296,-2.208696,-3.3593483,-0.08886476,0.10055726,-0.30311346,28.4375,29.8125,28.875,32.6875,35.125,36.125
0.308054,-1.6857859,-1.2844373,-2.327844,-0.049988862,0.12920277,-0.18216453,-0.41001984,-0.35922155,0.06003184,3.0773017,-0.6257636,-0.00018328175,-0.13465554,0.06139016,0.0005995125,-0.009255184,0.00067216286,0.013262634,0.4697898,-1.3626213,1.8806919,-2.0883029,-1.5697826,2.445492,-0.22424762,0.12988456,-0.16368127,0.029205043,0.007873622,-0.23743586,-0.36391866,0.34476504,-9.80665,0.9298854,47.651955,-1.377389,-2.1469364,-3.312643,-0.070748106,0.11403799,-0.18259616,28.4375,29.8125,28.875,32.6875,35.125,36.125
0.31005394,-1.4472642,-1.382925,-2.3772585,-0.055880878,0.1321501,-0.1791545,-0.41028216,-0.35909966,0.06002073,3.0772705,-0.62575835,-9.348926e-05,-0.13520098,0.061833873,0.00014594618,-0.009057072,-0.00019149506,0.009722434,0.46932176,-1.3623445,1.8803691,-2.0882313,-1.5697225,2.4450247,-0.22546132,0.13130102,-0.16443035,0.029412528,0.008080462,-0.23510928,-0.3256114,0.30645782,-9.864111,0.8560339,47.67793,-1.4133711,-2.3770585,-3.3638282,-0.08716677,0.105152756,-0.14726764,28.4375,29.8125,28.875,32.6875,35.125,36.125
0.31205368,-1.0849376,-1.6788949,-2.5333354,-0.057708655,0.10877707,-0.17590284,-0.41055575,-0.35897383,0.060025923,3.0772936,-0.62571025,-0.0001273659,-0.13564992,0.06271151,-0.0015156607,-0.007509673,-0.0032812303,2.2197132e-06,0.46888912,-1.362079,1.8800224,-2.0881584,-1.5697464,2.4445593,-0.2272048,0.13491683,-0.16515373,0.029965721,0.008092572,-0.22713175,-0.49799395,0.34476504,-9.921572,0.9097417,47.698532,-1.3641524,-2.301991,-3.3337488,-0.09434946,0.10314335,-0.23476702,28.4375,29.8125,28.875,32.6875,35.125,36.125
0.31405336,-0.8401365,-1.7703692,-2.479932,-0.065611854,0.0938651,-0.18035567,-0.41083977,-0.3588418,0.06001675,3.077271,-0.6257291,-0.000104611405,-0.13720645,0.06344521,-0.0009644246,-0.0072649396,-0.001442873,-0.007427068,0.46840844,-1.3617909,1.8796867,-2.0881107,-1.569723,2.4440935,-0.22898865,0.13522649,-0.16676159,0.029741598,0.0070353034,-0.22148514,-0.5363012,0.34476507,-9.959879,0.88960326,47.709274,-1.5294778,-2.3646445,-3.314998,-0.09731613,0.120607704,-0.32057887,28.4375,29.8125,28.875,32.6875,35.125,36.125
0.31605327,-0.43610552,-1.7315898,-2.4437494,-0.052594285,0.09165548,-0.16093397,-0.41112474,-0.3587113,0.06004717,3.0772417,-0.6257429,-0.00018835264,-0.13825233,0.06464379,-0.0023127054,-0.0057644756,-0.0024536296,-0.011800595,0.46795195,-1.3615736,1.879341,-2.0880396,-1.5697359,2.4436495,-0.23123108,0.1380856,-0.16690071,0.028602103,0.0061606853,-0.21935268,-0.40222588,0.21068975,-9.80665,0.8537928,47.682407,-1.4269593,-2.4727125,-3.3950748,-0.09066731,0.12595373,-0.39035106,28.4375,29.8125,28.875,32.6875,35.125,36.125
0.31805417,-0.29402733,-1.0785049,-2.3347945,-0.03340715,0.08162861,-0.18109815,-0.4114298,-0.35861018,0.060064003,3.0771344,-0.6257382,-0.0002450098,-0.13928768,0.06569309,-0.0027482044,-0.0059688585,-0.0030444625,-0.009774805,0.4674831,-1.3612969,1.878971,-2.08804,-1.5696753,2.4431915,-0.2340205,0.13914365,-0.16713242,0.028230889,0.0066337255,-0.22416736,-0.2681506,0.05746084,-9.80665,0.8717007,47.709274,-1.4245499,-2.4552348,-3.4729266,-0.070993,0.13585836,-0.39013693,28.4375,29.8125,28.875,32.6875,35.125,36.125
0.32005373,0.15137699,-0.51776403,-2.0177352,-0.025050974,0.090140805,-0.19376566,-0.4117222,-0.35847047,0.060049936,3.077114,-0.6257866,-0.00023214033,-0.14138085,0.066885084,-0.0015681172,-0.007598172,-0.0020162517,-0.0015444568,0.46698958,-1.3609968,1.8786343,-2.088003,-1.5696625,2.442731,-0.23828527,0.1385068,-0.16936275,0.029462557,0.0076364917,-0.23666239,-0.22984336,0.019153614,-9.768343,0.86945957,47.68599,-1.2775564,-2.5330658,-3.3684778,-0.07706608,0.13846058,-0.27941066,28.4375,29.8125,28.875,32.6875,35.125,36.125
0.32205343,-0.11669643,-0.17509905,-1.7874113,-0.006335547,0.08485646,-0.18040982,-0.41200602,-0.35834077,0.060050365,3.077107,-0.6257412,-0.00023376681,-0.1424913,0.06737536,-0.0015573727,-0.0075904434,-0.0024337522,0.0069810906,0.46652117,-1.3607202,1.8782877,-2.0879433,-1.5696505,2.4422352,-0.24003394,0.13998075,-0.17141119,0.030430477,0.007829111,-0.24693578,-0.34476507,0.038307227,-9.5385,0.8717007,47.67166,-1.2394547,-2.60636,-3.348681,-0.09106897,0.12904842,-0.14039564,28.4375,29.8125,28.875,32.6875,35.125,36.125
0.32405406,-0.9878621,-0.23162039,-1.815666,0.01840799,0.076836094,-0.1576145,-0.4123036,-0.35823038,0.060060542,3.07705,-0.6256167,-0.0002727305,-0.1432384,0.0692441,-0.0030851036,-0.005791527,-0.005563233,0.00377796,0.46605194,-1.3604438,1.87793,-2.087931,-1.5696028,2.4416957,-0.24355513,0.14264163,-0.17138891,0.031368084,0.007648457,-0.247253,-0.4405331,0.0,-9.404425,0.82694155,47.67345,-1.012603,-2.4321268,-3.4505196,-0.07832573,0.14865977,-0.096649334,28.4375,29.8125,28.875,32.6875,35.125,36.125
0.32605347,-0.2902656,-0.14631397,-1.6211593,0.021342413,0.08905129,-0.17165454,-0.41256416,-0.35806164,0.060047574,3.0770957,-0.62570715,-0.00020817411,-0.14384155,0.06874453,-0.0018792464,-0.006977959,-0.004800309,-0.0038669594,0.46556008,-1.3601923,1.8776301,-2.0878108,-1.5696267,2.4412546,-0.24351758,0.1422427,-0.1741063,0.03325692,0.00833766,-0.2395706,-0.34476504,-0.13407528,-9.251195,0.86945957,47.67345,-1.0495927,-2.4255116,-3.508308,-0.11483298,0.121103674,-0.15044141,28.4375,29.8125,28.875,32.6875,35.125,36.125
0.3280534,-0.024337739,0.13058245,-1.0703553,0.0023834824,0.08762658,-0.16161105,-0.41287023,-0.35793337,0.060065463,3.0770223,-0.62571615,-0.0002858702,-0.14338003,0.06882819,-0.0026743528,-0.00617352,-0.0072535565,-0.01454829,0.4650684,-1.3599397,1.8772835,-2.0877984,-1.5696024,2.440778,-0.24334666,0.14388049,-0.17462775,0.03469035,0.008727858,-0.22871754,-0.4213795,-0.22984336,-9.270349,0.8806493,47.682407,-1.2650421,-2.5176117,-3.5420065,-0.119964376,0.12016222,-0.2787618,28.4375,29.8125,28.875,32.6875,35.125,36.125
0.33005393,-0.57236564,-0.29925364,-0.9879108,0.011157339,0.08376185,-0.16301985,-0.41316527,-0.35781434,0.060073595,3.0770056,-0.62577385,-0.00032689454,-0.14475366,0.068077564,-0.0013622927,-0.00730819,-0.0041628233,-0.021792958,0.46462446,-1.35964,1.8768886,-2.0877264,-1.5696148,2.4403725,-0.24286437,0.14400446,-0.17772242,0.034383416,0.008344553,-0.22098918,-0.47884035,-0.21068975,-9.040505,0.87393653,47.689575,-1.3517973,-2.4516945,-3.4060893,-0.1292664,0.1315565,-0.41192827,28.4375,29.8125,28.875,32.6875,35.125,36.125
0.33205384,0.011296779,0.5258517,-1.3253876,0.027834792,0.07692825,-0.1633421,-0.41344208,-0.35767725,0.060062326,3.077005,-0.62575525,-0.00027604966,-0.14671808,0.06806775,0.00031746883,-0.008297321,-0.0006855484,-0.024713,0.46414402,-1.3593526,1.8765525,-2.0876544,-1.5695914,2.4398806,-0.24394977,0.14349915,-0.18102305,0.034646887,0.007658321,-0.2191535,-0.2681506,-0.30645782,-9.078813,0.91421866,47.68599,-1.2699627,-2.3345354,-3.2193666,-0.13986686,0.14015639,-0.52276564,28.4375,29.8125,28.875,32.6875,35.125,36.125
0.33405358,-0.054263704,0.5843677,-1.292812,0.036967747,0.06707955,-0.16888124,-0.4137491,-0.35755175,0.06008371,3.0769444,-0.6258509,-0.0003235203,-0.14700057,0.068012126,0.00073982234,-0.007964443,-0.0014855262,-0.014587185,0.46366417,-1.3590765,1.8761557,-2.0875819,-1.5695785,2.4394684,-0.24398634,0.14419483,-0.18344383,0.037254617,0.0077431425,-0.22931482,-0.114921674,-0.21068975,-9.136273,0.9164598,47.696735,-1.3907064,-2.2513223,-3.145485,-0.17179388,0.13303724,-0.47297505,28.4375,29.8125,28.875,32.6875,35.125,36.125
0.33605358,-0.40415537,0.122777194,-1.1784706,0.032368273,0.06146562,-0.16300929,-0.41403174,-0.35741162,0.060074966,3.0769289,-0.62582093,-0.00024473656,-0.1467938,0.068279676,0.00043493195,-0.0073634423,-0.0028570285,0.0001070844,0.46315938,-1.3587884,1.87581,-2.0874975,-1.5695308,2.438947,-0.24416487,0.14485635,-0.1838816,0.03855913,0.00783231,-0.24418779,-0.30645782,-0.15322891,-9.021352,0.84484416,47.68062,-1.3959088,-2.2792046,-3.1780043,-0.19610822,0.15033594,-0.3419448,28.4375,29.8125,28.875,32.6875,35.125,36.125
0.33805332,-0.22662014,-0.004438559,-1.6339518,0.03892434,0.0619282,-0.16574499,-0.41434222,-0.35726723,0.060081743,3.0769446,-0.6257996,-0.00028255882,-0.14722362,0.068510175,-0.0005188344,-0.006497157,-0.0047034905,0.009242598,0.46266788,-1.3584878,1.8754143,-2.0874135,-1.5695547,2.4384403,-0.24479526,0.14774252,-0.18537867,0.03921864,0.007893969,-0.25395277,-0.19153613,-0.095768064,-9.11712,0.8605109,47.672558,-1.4183694,-2.2997298,-3.2047238,-0.19541085,0.14864437,-0.2274767,28.4375,29.8125,28.875,32.6875,35.125,36.125
0.34005412,-0.3250621,-0.37279105,-1.6566792,0.009669139,0.081010945,-0.16884811,-0.4146217,-0.3571235,0.060073387,3.076947,-0.6258029,-0.00021737597,-0.14877154,0.06959994,0.0014292919,-0.007483425,-0.00188703,0.003764652,0.4621751,-1.3582011,1.8750666,-2.0873177,-1.5695313,2.4379494,-0.24755172,0.14492595,-0.18672109,0.040424965,0.0075081736,-0.25123155,-0.15322891,0.13407528,-9.289502,0.91421866,47.674347,-1.4329523,-2.131936,-3.195717,-0.23261908,0.15714912,-0.2008507,28.4375,29.8125,28.875,32.6875,35.125,36.125
0.34205398,-0.74177134,-1.2455523,-1.6621652,-0.025530148,0.08374785,-0.16380744,-0.4149288,-0.3569982,0.060103428,3.0768962,-0.6257601,-0.00024076668,-0.15055029,0.07040056,0.0023880296,-0.0080033,-0.00080759724,-0.005276383,0.46168232,-1.3579373,1.8746594,-2.0872214,-1.5694946,2.4374366,-0.25022689,0.14507405,-0.18941256,0.041775506,0.0074951896,-0.24486451,-0.2681506,0.19153613,-9.270349,0.947788,47.666286,-1.3978713,-2.1687422,-3.1868358,-0.27126464,0.16160563,-0.2828493,28.4375,29.8125,28.875,32.6875,35.125,36.125
0.34405363,-0.43422025,-1.4584819,-1.9797446,-0.049908597,0.08472325,-0.16576327,-0.4152032,-0.35681853,0.06007575,3.076926,-0.62586635,-0.0001104033,-0.15047953,0.07161905,0.0011983074,-0.0064516715,-0.0033318985,-0.01223367,0.4611412,-1.357649,1.874348,-2.0871012,-1.5694832,2.436958,-0.25189438,0.14657128,-0.18873136,0.042549483,0.007204226,-0.23957545,-0.2681506,0.17238252,-9.32781,0.8873621,47.672558,-1.1970444,-2.0925364,-3.3165014,-0.29576156,0.17709592,-0.37460232,28.4375,29.8125,28.875,32.6875,35.125,36.125
0.3460535,-0.6594842,-1.9057076,-1.9794334,-0.052021373,0.08062418,-0.16938064,-0.41553304,-0.35667956,0.060080208,3.0769129,-0.6259018,-0.00015165505,-0.15220022,0.073625796,0.0007903895,-0.0060313204,-0.0034431203,-0.014960685,0.46063653,-1.357313,1.8739175,-2.0870302,-1.5694951,2.4364774,-0.2563506,0.14746995,-0.18881392,0.042024203,0.00688318,-0.24130428,-0.28730422,0.22984336,-9.481039,0.85826975,47.65912,-1.1537902,-2.0784035,-3.3606405,-0.31849885,0.18147525,-0.40251705,28.4375,29.8125,28.875,32.6875,35.125,36.125
0.3480541,-0.60334337,-1.7303195,-2.148507,-0.058522236,0.093317956,-0.16801286,-0.41581622,-0.35653448,0.060074624,3.0768933,-0.62597024,-7.152832e-05,-0.15270685,0.07390996,0.000106263076,-0.006172817,-0.0037707852,-0.006765809,0.46013203,-1.3570249,1.8735589,-2.0869224,-1.5694593,2.4360182,-0.25726375,0.14901508,-0.18888436,0.040803276,0.0071528503,-0.25041243,-0.2681506,0.19153614,-9.500193,0.9254084,47.639416,-1.1766703,-2.0258145,-3.2660437,-0.3353802,0.18258864,-0.35159972,28.4375,29.8125,28.875,32.6875,35.125,36.125
0.3500537,-0.5368244,-1.3040874,-2.2306888,-0.047870014,0.09992546,-0.17900631,-0.41611987,-0.35638398,0.06005826,3.0769074,-0.6259283,-2.8519928e-05,-0.15337397,0.073759854,-0.0018882256,-0.0061247186,-0.00638233,0.005320902,0.4596158,-1.3566993,1.8731879,-2.0868514,-1.5694469,2.4354742,-0.2580882,0.15412928,-0.19025591,0.03944219,0.008268625,-0.263323,-0.038307227,0.11492168,-9.557653,0.8605109,47.6421,-1.1683,-2.0935903,-3.28947,-0.35048908,0.18350062,-0.18781039,28.4375,29.8125,28.875,32.6875,35.125,36.125
0.35205343,-0.6890425,-0.7610801,-2.0890605,-0.037312716,0.106765404,-0.16931719,-0.4164425,-0.35624817,0.0600959,3.0768225,-0.62592995,-7.1137205e-05,-0.15530096,0.074469276,-0.00023981725,-0.008510964,-0.00311033,0.0068726763,0.45908666,-1.3564482,1.8727812,-2.0867674,-1.5693983,2.434957,-0.26114732,0.15213151,-0.19144188,0.03865632,0.008975762,-0.26793355,-0.30645782,0.22984336,-9.615114,0.9545008,47.691364,-1.1483972,-2.084209,-3.354133,-0.3685742,0.16300829,-0.11095956,28.4375,29.8125,28.875,32.6875,35.125,36.125
0.35405415,-0.85878897,-0.51019025,-2.0863183,-0.029301431,0.10536998,-0.15560059,-0.41674855,-0.35607383,0.06008225,3.0768602,-0.62596166,-7.6737975e-05,-0.15633841,0.07448346,-0.0011703888,-0.008415279,-0.0025051683,-0.00015264207,0.45855862,-1.3561478,1.872434,-2.0866964,-1.5694345,2.4344442,-0.26164544,0.15495177,-0.19218536,0.036067232,0.008601295,-0.26140565,-0.40222588,0.05746084,-9.691729,0.8985519,47.70211,-1.1392735,-2.2699752,-3.4196153,-0.34570938,0.16999917,-0.11270523,28.4375,29.8125,28.875,32.6875,35.125,36.125
0.35605395,-0.3600512,-0.1932288,-2.1916294,-0.026187852,0.11015417,-0.16652633,-0.4170837,-0.35593465,0.06007241,3.0768433,-0.6259629,-0.0001075511,-0.15710273,0.07330188,-0.0018966262,-0.0091271885,-0.0015094054,-0.008932419,0.45804337,-1.3557867,1.8720134,-2.0866616,-1.569434,2.433932,-0.26022074,0.15827212,-0.19396643,0.03331069,0.008785013,-0.25119984,-0.3256114,-0.05746084,-9.672575,0.8918391,47.66987,-1.2460397,-2.373991,-3.4359431,-0.32176366,0.18289101,-0.24906842,28.4375,29.8125,28.875,32.6875,35.125,36.125
0.35805395,-1.0396056,-0.46814197,-1.9574592,-0.038209878,0.099674396,-0.15433429,-0.41738832,-0.3557853,0.060065612,3.0768104,-0.62598056,-7.382383e-05,-0.1578156,0.07272885,-0.0017191418,-0.00980693,-0.00094289536,-0.01823537,0.45751545,-1.3554868,1.8716539,-2.086602,-1.5693983,2.4334195,-0.25988784,0.15973607,-0.19615802,0.033229306,0.009130296,-0.24156322,-0.59376204,-0.038307227,-9.595961,0.8940802,47.664497,-1.3560336,-2.2615345,-3.4622293,-0.3146511,0.18326204,-0.38562626,28.4375,29.8125,28.8125,32.6875,35.125,36.125
0.36005366,-0.9079218,-0.44052804,-2.1476905,-0.039694514,0.09838215,-0.16576253,-0.41772944,-0.3556222,0.060069934,3.0767694,-0.6261647,-0.00011233001,-0.15804225,0.07257476,-0.002576308,-0.009115273,-0.001325361,-0.020551197,0.45696354,-1.3551619,1.8712362,-2.08653,-1.5694107,2.432988,-0.25935185,0.162033,-0.19680476,0.032227606,0.0086783115,-0.23871052,-0.5746084,0.076614454,-9.500193,0.86498255,47.66271,-1.3884437,-2.452148,-3.5158346,-0.30480528,0.18171014,-0.5008694,28.4375,29.8125,28.8125,32.6875,35.125,36.125
0.36205354,-0.032828644,-0.06658124,-2.127912,-0.03805118,0.10690044,-0.1851893,-0.41801825,-0.3554832,0.060058918,3.07675,-0.6261735,-2.3684046e-05,-0.15922986,0.07337076,-0.0024860187,-0.009087527,-0.00042954847,-0.010735926,0.4564593,-1.3548503,1.8708638,-2.0864346,-1.5693625,2.4324918,-0.2612604,0.1625916,-0.1976149,0.031721182,0.0082615,-0.25043422,-0.3256114,0.038307227,-9.576807,0.9231726,47.694946,-1.5538583,-2.3719609,-3.4324322,-0.3024305,0.19584882,-0.46990082,28.4375,29.8125,28.8125,32.6875,35.125,36.125
0.3640543,-0.75795233,-0.44452164,-1.9541177,-0.043458845,0.10650876,-0.17199883,-0.4183706,-0.3553543,0.06009454,3.0766704,-0.6261125,-0.00017554384,-0.16110481,0.07472788,-0.0026517385,-0.009160414,-0.00064529997,0.0012023163,0.4559417,-1.354562,1.8704327,-2.0864227,-1.5693506,2.4319465,-0.26503375,0.16427775,-0.19937408,0.031984676,0.008472553,-0.2661441,-0.34476504,0.05746084,-9.519346,0.90527004,47.709274,-1.3909742,-2.342044,-3.3878884,-0.2951309,0.2045031,-0.31309152,28.4375,29.8125,28.8125,32.6875,35.125,36.125
0.36605388,-0.51473784,-0.016020203,-1.7114177,-0.044512477,0.11363409,-0.17517564,-0.41870335,-0.35518938,0.060090005,3.0766191,-0.62621415,-0.00014326451,-0.16361956,0.07493202,-0.00033471035,-0.0119711645,0.005119337,0.006224791,0.45536524,-1.3542391,1.8700374,-2.0863516,-1.5693144,2.43144,-0.26726305,0.16195454,-0.20141108,0.029956741,0.0084636,-0.27339557,-0.17238252,0.095768064,-9.32781,0.88960326,47.682407,-1.2561913,-2.4089556,-3.3708048,-0.28345793,0.20540634,-0.19591069,28.4375,29.8125,28.8125,32.6875,35.125,36.125
0.3680536,-0.039724857,-0.2903824,-2.0022733,-0.0129188625,0.10835215,-0.15870604,-0.41901904,-0.35504276,0.060072646,3.0766351,-0.62612593,-0.00011649531,-0.16477293,0.074828275,-0.0007509057,-0.012646525,0.0056108246,0.0006759438,0.45484897,-1.3538904,1.8696426,-2.0862925,-1.5693024,2.430867,-0.26809153,0.16425082,-0.20295204,0.028462766,0.00884324,-0.26867455,-0.2681506,0.019153614,-9.385271,0.8784135,47.66987,-1.3264992,-2.3666117,-3.460431,-0.24862325,0.20560315,-0.2196176,28.4375,29.8125,28.8125,32.6875,35.125,36.125
0.3700534,-0.7465264,-0.765482,-1.8869369,-0.019233754,0.08584923,-0.15322192,-0.41936344,-0.35488582,0.060087696,3.0765796,-0.6261196,-0.00016741622,-0.16645932,0.074662015,-0.00025666642,-0.01389153,0.007148088,-0.0074961674,0.45428443,-1.3535903,1.8692354,-2.0862443,-1.5692781,2.4303057,-0.26927722,0.16576,-0.20580454,0.027878169,0.009292642,-0.26168656,-0.45968673,0.17238252,-9.3661175,0.87617236,47.653748,-1.3655753,-2.2942693,-3.4508817,-0.217801,0.19808601,-0.31789252,28.4375,29.8125,28.8125,32.6875,35.125,36.125
0.37205493,-0.6552349,-0.6054414,-1.771941,-0.026693868,0.08952418,-0.15219687,-0.4197008,-0.35474655,0.0600816,3.0765345,-0.6261715,-0.00017452489,-0.16717596,0.07568472,-0.00047298044,-0.013511533,0.0063866847,-0.014843581,0.45375612,-1.3532304,1.8688039,-2.0861962,-1.5692543,2.4298158,-0.2713896,0.1664596,-0.20637892,0.028607387,0.009291233,-0.2564512,-0.28730422,0.17238252,-9.251195,0.92093146,47.66091,-1.3799591,-2.198559,-3.486704,-0.20631379,0.19398299,-0.3854171,28.4375,29.8125,28.8125,32.6875,35.125,36.125
0.37405354,-0.22818062,-0.3213982,-2.0966196,-0.024633445,0.07854261,-0.15707363,-0.4200382,-0.35456762,0.06008513,3.0765235,-0.6262459,-0.00022900531,-0.16997981,0.07696939,0.00043584415,-0.0138390185,0.008405194,-0.014896431,0.4531907,-1.3529303,1.86842,-2.0861366,-1.5692786,2.4292984,-0.27531686,0.16746013,-0.2097986,0.029075498,0.008713376,-0.2603241,-0.19153613,0.15322891,-9.385271,0.88289046,47.694054,-1.1812738,-2.2657175,-3.3820393,-0.20865819,0.21743481,-0.42104536,28.4375,29.8125,28.8125,32.6875,35.125,36.125
