Tylouw/Master_Thesis_Code/training_data/batch_1/rect_rod_t0.3/sample_77_session_3.csv
timestamp[s],tcp_force_x[N],tcp_force_y[N],tcp_force_z[N],tcp_force_rx[Nm?],tcp_force_ry[Nm?],tcp_force_rz[Nm?],tcp_pose_x[m],tcp_pose_y[m],tcp_pose_z[m],tcp_pose_rx[rot_vec_x],tcp_pose_ry[rot_vec_y],tcp_pose_rz[rot_vec_z],tcp_velo_x[m/s],tcp_velo_y[m/s],tcp_velo_z[m/s],tcp_velo_rx[rot_vec_x/s],tcp_velo_ry[rot_vec_y/s],tcp_velo_rz[rot_vec_z/s],q1[rad],q2[rad],q3[rad],q4[rad],q5[rad],q6[rad],qd1[rad/s],qd2[rad/s],qd3[rad/s],qd4[rad/s],qd5[rad/s],qd6[rad/s],tool_acc_x,tool_acc_y,tool_acc_z,current_of_whole_robot[A],voltage_of_whole_robot[V],current_J1[A],current_J2[A],current_J3[A],current_J4[A],current_J5[A],current_J6[A],temp_J1[C],temp_J2[C],temp_J3[C],temp_J4[C],temp_J5[C],temp_J6[C]
5.569891e-07,1.0198073,0.17969087,0.18234572,-0.035471756,0.042732086,-0.0070830393,-0.3893185,-0.36872754,0.059999093,-3.0787165,0.6248733,0.0001672705,0.0004938426,0.00028969554,-0.00048402583,0.00041226775,-0.0010706852,1.7765391e-05,0.5050568,-1.3816439,1.9042228,-2.0919158,-1.5708417,2.4800134,-0.00012501758,-1.5023151e-05,0.0011095539,4.1350355e-05,0.00015978106,-0.00014347707,0.15322891,0.17238252,-8.676587,0.7038487,47.756744,-0.13749892,-3.0541453,-2.3304234,-0.20691514,0.11320956,-0.029715816,28.5625,29.9375,28.9375,32.6875,35.0625,36.1875
0.002052549,0.5172907,-0.047985703,0.02288288,-0.019358253,0.034159463,-0.011278037,-0.3893131,-0.36870852,0.05999573,-3.0786817,0.6249237,0.00018046223,-0.0011475969,-0.0006230903,-0.00052148657,-0.003030641,0.005128818,1.7061908e-05,0.50504476,-1.3816679,1.9042596,-2.0919192,-1.5708655,2.4800372,-0.00012218868,-2.0155473e-07,0.0032815484,-0.009236827,0.00015631196,-0.0001398418,0.1340753,0.15322891,-8.619126,0.7463667,47.744205,-0.19079395,-2.9542265,-2.3408682,-0.14965042,0.08363332,-0.012247553,28.5625,29.9375,28.9375,32.6875,35.0625,36.1875
0.004052231,0.20187095,-0.2847522,0.14159428,-0.015915606,0.032006823,0.0003215504,-0.38932014,-0.36873284,0.060008686,-3.078719,0.62495023,0.00017090549,-0.0015451531,-0.0008457926,-0.0018883877,-0.0024872376,0.004142193,1.6502598e-05,0.5050568,-1.3816547,1.9042119,-2.0919073,-1.5708297,2.480061,-0.00011948498,0.0033311201,0.0028611245,-0.011021343,0.00015299044,-0.00013567864,0.076614454,0.076614454,-8.580819,0.779936,47.744205,-0.20526606,-3.3766298,-2.6282415,-0.063067324,0.10698183,-0.037468433,28.5625,29.9375,28.9375,32.6875,35.0625,36.1875
0.006052502,0.39497203,0.16488619,0.14016251,-0.014924654,0.025804514,-0.0066025043,-0.38934836,-0.36873698,0.060011655,-3.0787435,0.6249362,0.00023846501,-0.00052549347,-0.00027892916,-0.0014639117,-0.0007983048,0.0011161389,1.47807405e-05,0.50504476,-1.381631,1.9041876,-2.091953,-1.5708417,2.4800372,-0.00011689848,0.0022834977,0.0018887337,-0.00553586,0.00014980733,-0.00013171055,0.076614454,0.1340753,-8.676587,0.7284641,47.70838,-0.17973465,-3.3248043,-2.531744,-0.07182706,0.095707946,-0.024530962,28.5625,29.9375,28.9375,32.6875,35.0625,36.1875
0.008052772,0.797698,0.808927,-0.28706282,0.014081219,0.011557638,-0.01709453,-0.38932428,-0.368728,0.060000233,-3.0787141,0.6249685,0.00016874277,0.00047969088,0.00028032612,-0.0005447318,0.00040910218,-0.0010386965,1.2879261e-05,0.50504476,-1.3816439,1.9042228,-2.0919273,-1.5708297,2.480061,-0.0001144215,8.296977e-05,0.0011758585,-0.00015242073,0.00014675356,-0.00012796518,-0.038307227,0.17238252,-8.810662,0.7463667,47.70032,-0.20018336,-3.1847396,-2.4847322,-0.113903984,0.11302732,-0.026485577,28.5625,29.9375,28.9375,32.6875,35.0625,36.1875
0.010051679,0.9168458,0.8602808,-0.71304137,0.016381571,0.01712095,-0.016253553,-0.38932705,-0.36871806,0.059981383,-3.0787005,0.62486947,0.00013658708,0.0011841296,0.0006789231,-0.0006504437,0.0017073206,-0.00336751,2.0838446e-05,0.50503284,-1.3816078,1.9042228,-2.0919263,-1.5708417,2.479989,-0.00012433242,1.1131453e-06,0.0008060058,0.0029655106,0.00014382205,-0.0001460291,-0.05746084,0.11492168,-9.078813,0.7016076,47.692257,-0.7310283,-2.7652822,-2.8594522,-0.14501499,0.078293234,-0.09619976,28.5625,29.9375,28.9375,32.6875,35.0625,36.1875
0.012051746,0.20619297,0.026587825,-0.79273283,-0.002823495,0.02594095,-0.013271775,-0.38930345,-0.3687005,0.059951074,-3.0786154,0.62489074,1.979247e-05,0.0009267903,0.00055600173,-0.0014511064,0.0023745233,-0.0045732786,0.0005909531,0.50503284,-1.3815708,1.9042348,-2.0918672,-1.5708536,2.4800131,-0.0001581396,0.0023947603,-0.00019652944,0.0029523645,0.00014100554,-0.0007491689,0.076614454,0.095768064,-9.193734,0.7463667,47.73525,-0.9173095,-2.7691002,-3.0328934,-0.13946383,0.07382506,-0.1432005,28.5625,29.9375,28.9375,32.6875,35.0625,36.1875
0.014051832,0.14217962,-0.29028428,-0.8004649,-0.046571855,0.06296759,-0.018118447,-0.38930717,-0.36871722,0.059954725,-3.078662,0.6247647,8.652276e-05,-0.0039169258,0.0045291227,-0.004580189,0.0048432066,-0.009023249,0.00013176161,0.5050649,-1.3815678,1.9042338,-2.091915,-1.5708655,2.4799607,-0.011370854,0.01096276,-0.0030580712,0.0023329752,0.00012546973,-0.0115000615,0.05746084,0.1340753,-9.308656,0.7284641,47.73077,-0.5246282,-3.229184,-3.038955,-0.11799834,0.061780386,-0.09052176,28.5625,29.9375,28.9375,32.6875,35.0625,36.1875
0.016051851,-0.7675473,-0.5711572,-0.9316607,-0.069638155,0.07011614,-0.027157003,-0.38931143,-0.36866674,0.059926562,-3.0785668,0.6249339,-5.2163385e-05,-0.0057142596,0.0043359725,-0.00286659,0.0028516282,-0.0054274197,0.006785307,0.5049685,-1.3815445,1.9042567,-2.0918553,-1.5708536,2.479982,-0.012723111,0.009669804,-0.005298212,0.001754445,0.00011902037,-0.019505093,-0.24899697,0.19153613,-9.423578,0.72622824,47.703007,-0.5101401,-3.132883,-2.9681907,-0.09364308,0.07776931,-0.031564012,28.5625,29.9375,28.9375,32.6875,35.0625,36.1875
0.018052002,-1.3260885,-0.9638189,-1.1049169,-0.059650425,0.079934135,-0.045690533,-0.38932344,-0.36868507,0.059929036,-3.078606,0.624825,-5.0476185e-05,-0.0051653828,0.0043850187,-0.0022981274,0.0028377976,-0.0053902743,0.0113595985,0.5049806,-1.381509,1.904209,-2.0918548,-1.5708417,2.479921,-0.012289106,0.0079781385,-0.0048714415,0.0029797775,0.00011655205,-0.023645949,-0.34476504,0.21068975,-9.481039,0.75084364,47.71465,-0.6872604,-3.0049043,-3.091919,-0.09294876,0.055373795,0.01936763,28.5625,29.9375,28.9375,32.6875,35.0625,36.1875
0.020052057,-1.4646165,-0.5923195,-1.4673613,-0.023838881,0.08954869,-0.06662424,-0.38931963,-0.36868465,0.059912145,-3.0786,0.6248642,-0.00010583549,-0.004305941,0.0056172768,-0.0035790054,0.0056014946,-0.010366588,0.008406677,0.5049683,-1.3814844,1.9042209,-2.0918658,-1.5708174,2.479934,-0.013558511,0.009573155,-0.004740319,0.00694668,0.00011441792,-0.021962652,-0.45968673,0.095768064,-9.576807,0.7284641,47.709274,-0.8849305,-2.8680487,-3.3039453,-0.12349902,0.07315304,-0.00680569,28.5625,29.9375,28.9375,32.6875,35.0625,36.1875
0.022052191,-1.0620302,0.10075068,-1.6597354,0.0068180966,0.096349776,-0.09387381,-0.38930768,-0.3686516,0.059886564,-3.078548,0.62479854,-0.00019346036,-0.0056272177,0.006135845,-0.0035695937,0.0054959734,-0.0101808505,0.0033190378,0.5049316,-1.3814719,1.9042562,-2.0918295,-1.5708297,2.479863,-0.015667578,0.010782417,-0.0061975364,0.006981166,0.00011237576,-0.0189833,-0.47884035,0.11492168,-9.634268,0.7105615,47.66987,-0.9112493,-2.8086724,-3.3675885,-0.13558263,0.03592051,-0.06919956,28.5625,29.9375,28.9375,32.6875,35.0625,36.1875
0.024052406,-0.9345526,0.047486126,-1.6533619,0.006402923,0.10308314,-0.10729566,-0.3893357,-0.36865255,0.05989843,-3.0785599,0.6247831,-0.00017758466,-0.008386516,0.0057552485,-0.0023648366,0.00352973,-0.0066426997,5.7720714e-05,0.504907,-1.3814476,1.9041952,-2.0918062,-1.5708297,2.4798272,-0.017607275,0.011998463,-0.010058571,0.0055785496,0.000110406254,-0.017659754,-0.57460845,-0.019153614,-9.710882,0.73069996,47.713753,-0.86368257,-2.847023,-3.369715,-0.09121099,0.045245565,-0.08230504,28.5625,29.9375,28.9375,32.6875,35.0625,36.1875
0.026052512,-1.4361681,-0.15291525,-1.8987287,-0.0060810456,0.09800409,-0.11790733,-0.38937736,-0.36864272,0.059901834,-3.078547,0.6248774,-0.00013770007,-0.009350671,0.005566105,-0.002576389,0.0033358892,-0.0062980717,-0.0011822636,0.5048589,-1.3814108,1.9041466,-2.0918176,-1.5708417,2.4798396,-0.018189609,0.0138836,-0.0116484305,0.0048877774,0.000108504835,-0.017001074,-0.80445176,0.05746084,-9.844957,0.72622824,47.71554,-0.8489393,-2.8675456,-3.311557,-0.08117226,0.028930824,-0.087309405,28.5625,29.9375,28.9375,32.6875,35.0625,36.1875
0.028052816,-1.87381,-0.91233474,-1.8817267,-0.008124491,0.104819745,-0.12590478,-0.38937274,-0.36861855,0.059889425,-3.078505,0.6248495,-0.00022378826,-0.009549304,0.0060274918,-0.0030981707,0.004160814,-0.007787402,-0.0028146927,0.50482255,-1.3813983,1.9041466,-2.091758,-1.5708417,2.4797912,-0.019151893,0.015128938,-0.012149245,0.0058458913,0.000106667714,-0.016330631,-0.80445176,-0.076614454,-9.883265,0.75755644,47.74331,-0.87086546,-2.7981114,-3.3725119,-0.07780613,0.02155736,-0.10302119,28.5625,29.9375,28.9375,32.6875,35.0625,36.1875
0.030052658,-1.7823199,-0.4401386,-1.5727172,-0.02722217,0.11357196,-0.13875109,-0.38937217,-0.36862016,0.059857167,-3.0784953,0.62479085,-0.0003216412,-0.010025387,0.006259135,-0.0030237841,0.004888503,-0.009009639,-0.0040648407,0.5048105,-1.3813258,1.9041342,-2.091757,-1.5708174,2.4797437,-0.019959323,0.016279185,-0.014205972,0.0081747165,6.0884366e-05,-0.01588706,-0.7661445,-0.095768064,-9.825804,0.7530795,47.713753,-0.9457006,-2.8348742,-3.3274713,-0.09767899,0.010408258,-0.127819,28.5625,29.9375,28.9375,32.6875,35.0625,36.1875
0.03205168,-2.3863823,-0.8524053,-1.7580593,-0.010450439,0.09555306,-0.13859867,-0.38940692,-0.36862043,0.05987289,-3.0785048,0.62485075,-0.00025304817,-0.010311874,0.006699125,-0.003213133,0.005495492,-0.0100502875,-0.004995388,0.5047862,-1.3813137,1.9040865,-2.0917685,-1.5708297,2.4797556,-0.020950476,0.017003283,-0.014896535,0.009345489,3.4582554e-05,-0.01594734,-0.7086837,-0.076614454,-9.883265,0.75755644,47.70032,-0.9481294,-2.837256,-3.3635068,-0.10636829,0.014377808,-0.16028902,28.5625,29.9375,28.9375,32.6875,35.0625,36.1875
0.034051925,-0.76832527,0.332978,-1.5553242,-0.018824883,0.12833922,-0.17622302,-0.38943318,-0.36860108,0.05986682,-3.0784972,0.62486845,-0.00031929114,-0.0114936065,0.0067165894,-0.0025417246,0.0045760106,-0.008372892,-0.0054374174,0.5047139,-1.3812777,1.9040498,-2.0917332,-1.5708054,2.4796953,-0.022076393,0.016955227,-0.016253041,0.008837538,2.2530745e-05,-0.016630607,-0.6512228,-0.038307227,-9.844957,0.70608455,47.668976,-0.93984914,-2.86383,-3.3537564,-0.09705451,-0.002627452,-0.15189597,28.5625,29.9375,28.9375,32.6875,35.0625,36.1875
0.036051966,-1.1681913,0.01654902,-1.5699582,-0.003070874,0.10704582,-0.17997737,-0.38944933,-0.36856776,0.059840824,-3.0784209,0.6249109,-0.000353569,-0.0127999075,0.007261582,-0.002252791,0.0041350033,-0.007544036,-0.0061930832,0.5046653,-1.3812294,1.9040493,-2.0917213,-1.5708417,2.479683,-0.024202658,0.01733876,-0.017302206,0.008563675,2.842047e-06,-0.018000653,-0.5554548,-0.038307227,-9.749189,0.7777002,47.723602,-0.98922265,-2.747778,-3.3808975,-0.07280026,0.009989301,-0.17612553,28.5625,29.9375,28.9375,32.6875,35.0625,36.1875
0.038052186,-1.0248306,-0.41333985,-1.7898952,0.007637877,0.095607236,-0.18700649,-0.3894942,-0.36855918,0.05985462,-3.0784385,0.6248959,-0.00029880437,-0.0144982925,0.007942314,-0.001408853,0.0031694141,-0.0057974057,-0.007986808,0.5046163,-1.3812056,1.9039897,-2.0917213,-1.5708536,2.4796224,-0.026931996,0.016847325,-0.018594868,0.008351654,1.8556534e-07,-0.018935788,-0.4405331,-0.05746084,-9.749189,0.80679786,47.709274,-0.91148573,-2.7306685,-3.3020005,-0.068325445,-0.009139171,-0.18382865,28.5625,29.9375,28.9375,32.6875,35.0625,36.1875
0.04005213,-0.9428973,-0.5031301,-1.6730413,0.0030316461,0.083449714,-0.18461955,-0.38954124,-0.36857733,0.059871793,-3.0784771,0.6250001,-0.00027877116,-0.015560118,0.007758933,-0.001234975,0.0028728393,-0.005268595,-0.0075640874,0.50458026,-1.3811572,1.9038934,-2.0917213,-1.5708174,2.4796464,-0.027613921,0.018281074,-0.02070104,0.008418343,1.2116091e-08,-0.020039354,-0.34476504,-0.076614454,-9.749189,0.7911258,47.67793,-0.93797004,-2.7225776,-3.323573,-0.08197456,-0.011625363,-0.19272093,28.5625,29.9375,28.9375,32.6875,35.0625,36.1875
0.042052153,-0.25399426,-0.6863626,-1.5912132,0.0054658405,0.087854944,-0.19885135,-0.38957718,-0.36853114,0.059854064,-3.0784101,0.6250435,-0.0003252494,-0.01639175,0.007986749,-0.00092546525,0.0027289763,-0.0050156713,-0.0076697334,0.50448406,-1.381109,1.9038686,-2.091685,-1.5708417,2.479586,-0.02877329,0.018728752,-0.022080142,0.009058175,7.9109425e-10,-0.02109251,-0.36391866,0.019153614,-9.634268,0.69937176,47.691364,-0.9176797,-2.6986737,-3.3044133,-0.061971813,-0.039625518,-0.21343833,28.5625,29.9375,28.9375,32.6875,35.0625,36.1875
0.044051837,-0.50629514,-0.82050836,-1.7262036,0.0064519593,0.069448486,-0.21376632,-0.38956597,-0.3684871,0.05982333,-3.0783238,0.6250646,-0.00041440743,-0.01715517,0.008992272,-0.00066004135,0.004014059,-0.0040954896,-0.007759489,0.5044356,-1.381097,1.9039162,-2.0916493,-1.570866,2.4795616,-0.030198531,0.018274209,-0.022246547,0.0094996765,-0.0015720471,-0.022424962,-0.2681506,0.076614454,-9.672575,0.78217715,47.686886,-0.9503925,-2.7222304,-3.3156848,-0.084026575,-0.03202719,-0.22563529,28.5625,29.9375,28.9375,32.6875,35.0625,36.1875
0.04605185,-0.59992546,-0.49288663,-1.5893092,-0.008478428,0.054856855,-0.22841993,-0.38963434,-0.36847997,0.059859816,-3.0783472,0.6250488,-0.00031816392,-0.018717615,0.009941715,-0.0007254679,0.0054410454,-0.003229727,-0.0074108746,0.50437516,-1.3810725,1.9037961,-2.091613,-1.5708908,2.4794884,-0.03221021,0.019695899,-0.023791347,0.00955946,-0.0032429874,-0.024781317,-0.076614454,0.038307227,-9.634268,0.7620334,47.686886,-0.94541633,-2.7071395,-3.3295562,-0.07162554,-0.025617126,-0.23612118,28.5625,29.9375,28.9375,32.6875,35.0625,36.1875
0.048051868,0.10759298,-0.7052053,-1.3925592,-0.021326482,0.061518606,-0.23645806,-0.38967276,-0.36846003,0.059844457,-3.0783353,0.62512285,-0.00037183915,-0.02044323,0.0101059675,2.6089047e-05,0.004516953,-0.001669402,-0.007465305,0.5042905,-1.3810123,1.9037598,-2.091613,-1.5708665,2.4794514,-0.034126528,0.020252416,-0.026160957,0.009559785,-0.0031949275,-0.026642166,-0.076614454,0.1340753,-9.595961,0.8179876,47.71554,-0.80467385,-2.6884506,-3.2463346,-0.069743395,-0.009204503,-0.23118392,28.5625,29.9375,28.9375,32.6875,35.0625,36.1875
0.05005246,0.7150841,-0.72548425,-1.4228331,-0.02885857,0.06315076,-0.207852,-0.3897127,-0.36846516,0.05986897,-3.0783792,0.62511164,-0.00032587798,-0.021011231,0.010208839,0.00042942978,0.0033070548,-0.0014394603,-0.006267313,0.5042544,-1.3810004,1.9036874,-2.0916011,-1.5708545,2.4794028,-0.035418287,0.019891182,-0.026671028,0.009641532,-0.0022474793,-0.029133711,-0.05746084,0.19153613,-9.576807,0.72622824,47.723602,-0.81169724,-2.6369197,-3.2345085,-0.055654094,-0.021561906,-0.25018087,28.5625,29.9375,28.875,32.6875,35.0625,36.1875
0.052052576,0.2581643,-0.8955945,-1.6088389,-0.026615907,0.040478542,-0.19598095,-0.38976893,-0.36841336,0.0598399,-3.0783136,0.6251943,-0.00038651607,-0.022111509,0.010958143,0.00024735753,0.0032847032,-0.0024226676,-0.0063569765,0.5041218,-1.3809158,1.9036506,-2.0915887,-1.570866,2.47933,-0.038009975,0.02115827,-0.02795091,0.010501574,-0.0017570675,-0.03163592,-0.05746084,0.21068975,-9.481039,0.73069996,47.72719,-0.7753985,-2.616173,-3.252428,-0.049679507,-0.032363094,-0.22554874,28.5,29.9375,28.875,32.6875,35.0625,36.1875
0.054051757,0.17011516,-0.89339596,-1.4717213,-0.025314981,0.035814356,-0.19060114,-0.38979784,-0.3684007,0.059839174,-3.0782936,0.6252478,-0.0004031657,-0.022209065,0.011576212,-0.00024133273,0.0040869517,-0.004117521,-0.006509418,0.50407344,-1.3808795,1.9036039,-2.0915644,-1.570866,2.4793177,-0.039212912,0.022037497,-0.02814781,0.011690092,-0.001639705,-0.032686528,-0.038307227,0.22984336,-9.423578,0.75755644,47.66987,-0.78140026,-2.6804976,-3.3049464,-0.057861343,-0.043294244,-0.24385658,28.5,29.9375,28.875,32.6875,35.0625,36.1875
0.056051712,0.18208645,-0.6340352,-1.459952,-0.020169815,0.0373956,-0.20174646,-0.38986304,-0.36838368,0.059864428,-3.0783076,0.6251134,-0.00031112894,-0.022184616,0.010931109,0.00022500864,0.0036737076,-0.0039334907,-0.004399959,0.50401396,-1.3808435,1.9034957,-2.0915282,-1.5709141,2.4791727,-0.03827001,0.022152264,-0.029556317,0.012620194,-0.0013672902,-0.033853173,0.019153614,0.15322891,-9.404425,0.7620334,47.701214,-0.8469938,-2.6162443,-3.309807,-0.056170344,-0.050554074,-0.25660384,28.5,29.9375,28.875,32.6875,35.0625,36.1875
0.058052722,0.051760655,-0.43419808,-1.2959619,-0.013746438,0.040752217,-0.1927005,-0.3899082,-0.36837178,0.059864596,-3.078308,0.6252488,-0.0003483343,-0.02401993,0.011552877,0.0008027219,0.0031441506,-0.0027762426,-0.005810195,0.50392914,-1.3807952,1.9034356,-2.0915163,-1.5708779,2.4791722,-0.04096351,0.022745026,-0.031618558,0.01282182,-0.0014674067,-0.03513533,-0.019153614,0.076614454,-9.423578,0.779936,47.692257,-0.8302252,-2.5843682,-3.2265925,-0.06744475,-0.060531326,-0.2515331,28.5,29.9375,28.875,32.6875,35.0625,36.1875
0.060051695,-0.24147071,-0.31243917,-1.4616596,-0.012091222,0.042161692,-0.1830752,-0.38997045,-0.36833546,0.059871294,-3.0782888,0.62524515,-0.0002963274,-0.024931252,0.012143207,0.00094641786,0.0035642216,-0.0025460792,-0.0063092154,0.50383276,-1.3807589,1.9033746,-2.0915039,-1.5709146,2.4790761,-0.0425033,0.023232304,-0.0326445,0.013361837,-0.0019477742,-0.036174767,0.038307227,0.15322891,-9.3661175,0.7284641,47.734352,-0.84982526,-2.6522107,-3.2290668,-0.051193975,-0.0769449,-0.28102967,28.5,29.9375,28.875,32.6875,35.0625,36.1875
0.06205174,0.4681933,-0.2033143,-1.2603573,-0.02179362,0.055122,-0.19867963,-0.39000297,-0.36831704,0.059881322,-3.0782936,0.6253231,-0.00034798597,-0.025834393,0.012519501,0.0008358999,0.0035460207,-0.0026072087,-0.006277807,0.50374854,-1.3807466,1.9033264,-2.0914562,-1.5708779,2.47904,-0.044002797,0.024279056,-0.03362609,0.01334216,-0.0019059574,-0.03770516,-0.038307227,0.19153613,-9.346964,0.78217715,47.692257,-0.8232086,-2.50988,-3.2335813,-0.053684026,-0.0845937,-0.27947637,28.5,29.9375,28.875,32.6875,35.0625,36.1875
0.06405206,-0.55415463,-0.6947149,-1.1032264,-0.026084527,0.036638867,-0.18455291,-0.39006302,-0.36831465,0.059900142,-3.078361,0.625182,-0.00027843568,-0.02604232,0.012640711,0.00054021983,0.004104378,-0.0038584115,-0.006132156,0.50368845,-1.3807101,1.903243,-2.0914676,-1.5708779,2.4788833,-0.044469107,0.025567371,-0.03474872,0.014541139,-0.0017889919,-0.038316913,-0.076614454,0.11492168,-9.3661175,0.7329411,47.70211,-0.8316033,-2.5284486,-3.2618856,-0.07987483,-0.08405858,-0.31538188,28.5,29.9375,28.875,32.6875,35.0625,36.1875
0.0660524,-0.02849957,-0.20283775,-1.0203029,-0.032534808,0.062239163,-0.19090927,-0.39009735,-0.36828527,0.059861924,-3.0783076,0.62522864,-0.00041600477,-0.027365867,0.013065416,0.00077016634,0.003725066,-0.003268199,-0.005564418,0.503592,-1.3806018,1.9031938,-2.0914323,-1.5708541,2.4788227,-0.046439737,0.026369033,-0.036214303,0.0145052755,-0.0017502346,-0.040854465,-0.13407528,0.095768064,-9.442732,0.84708,47.71554,-0.8088018,-2.5754554,-3.2479582,-0.078514375,-0.09633769,-0.31436992,28.5,29.9375,28.875,32.6875,35.0625,36.1875
0.06805256,0.2607936,0.123379044,-0.990537,-0.024027599,0.08826952,-0.1968079,-0.3901459,-0.36823547,0.059872158,-3.0782154,0.6252853,-0.00038750013,-0.027843548,0.013321956,0.0007149234,0.003934338,-0.0037814155,-0.004545703,0.50350785,-1.3805774,1.9031228,-2.091348,-1.5709261,2.4787858,-0.04735213,0.027131213,-0.037153948,0.015229485,-0.0016891845,-0.042785205,-0.15322891,0.15322891,-9.3661175,0.7530795,47.71554,-0.843753,-2.524167,-3.266953,-0.0746645,-0.10920827,-0.2992193,28.5,29.9375,28.875,32.6875,35.0625,36.1875
0.07005231,-0.37246382,-0.052380487,-0.9539861,-0.011663458,0.08939814,-0.1825606,-0.39024797,-0.36822265,0.0599026,-3.078291,0.6253211,-0.00029722622,-0.028586805,0.013354244,0.0012622975,0.0036467444,-0.0028161802,-0.005468358,0.5033759,-1.3805295,1.9030021,-2.0913718,-1.5709018,2.4786665,-0.047956534,0.02708671,-0.038423337,0.015560821,-0.0019013028,-0.04246624,-0.24899697,0.0,-9.385271,0.78888994,47.717335,-0.9170123,-2.4712062,-3.2717476,-0.09846788,-0.11270799,-0.33484823,28.5,29.9375,28.875,32.6875,35.0625,36.1875
0.0720524,-1.3354454,-0.11660272,-1.0979947,0.0026723589,0.07636839,-0.17737319,-0.39026406,-0.36822993,0.059891637,-3.0783052,0.62522703,-0.0003915289,-0.030279426,0.014508328,0.0012282542,0.0040350845,-0.0021580807,-0.0066798185,0.5033511,-1.380457,1.9029306,-2.091324,-1.5708665,2.4785812,-0.051060885,0.028002782,-0.039344404,0.015180226,-0.0025648891,-0.04435719,-0.3256114,0.0,-9.308657,0.6411817,47.698532,-0.8774056,-2.48652,-3.2713857,-0.106228024,-0.12634715,-0.3341068,28.5,29.9375,28.875,32.6875,35.0625,36.1875
0.074051626,-0.76802063,0.17404982,-1.1013087,-0.002372735,0.09408164,-0.18339719,-0.3903601,-0.3681882,0.059926197,-3.07831,0.62534183,-0.0002811306,-0.031232217,0.01496346,0.0012292598,0.004734656,-0.0013869461,-0.0045589036,0.5032068,-1.3804449,1.9028348,-2.0913117,-1.5708913,2.478508,-0.05209038,0.028843975,-0.04028802,0.014946015,-0.0035508706,-0.047505397,-0.2873042,0.038307227,-9.251195,0.78888994,47.71465,-0.7543198,-2.5455947,-3.260748,-0.10658446,-0.1240569,-0.35330686,28.5,29.9375,28.875,32.6875,35.0625,36.1875
0.07605266,-1.4992298,-0.263288,-1.071759,0.00054623286,0.08334742,-0.17591898,-0.39039183,-0.3681236,0.059870962,-3.0781913,0.62533385,-0.00047137364,-0.031276837,0.014430822,0.0012931982,0.00510124,-0.00114648,0.00081631955,0.50307554,-1.3803244,1.902799,-2.0912278,-1.5709027,2.4783869,-0.050952524,0.029718187,-0.041550722,0.015300339,-0.0040007792,-0.051740643,-0.51714754,0.019153614,-9.32781,0.7933669,47.699425,-0.9353068,-2.5169609,-3.3319159,-0.116422005,-0.1308465,-0.31632453,28.5,29.9375,28.875,32.6875,35.0625,36.1875
0.0780518,-0.7172921,0.112375416,-0.94271976,-0.0072694873,0.10832995,-0.1826931,-0.39046615,-0.3680948,0.059892885,-3.0782208,0.6253964,-0.00045332353,-0.032550227,0.015545135,0.0010646323,0.0059435577,-0.0015210926,0.0013513167,0.502943,-1.3802999,1.9027146,-2.0912035,-1.5708789,2.4782896,-0.053657826,0.03089662,-0.042550888,0.015858477,-0.004559458,-0.05497943,-0.5363012,0.05746084,-9.423578,0.75755644,47.701214,-0.89648336,-2.4774022,-3.2312074,-0.10545168,-0.13957869,-0.28291225,28.5,29.9375,28.875,32.6875,35.0625,36.1875
0.08005179,-0.71448284,-0.16240266,-0.97664756,0.0002377618,0.109504454,-0.17919882,-0.39051828,-0.36808002,0.059890043,-3.0782313,0.62530357,-0.00046658804,-0.03425147,0.01680916,0.0012208822,0.0074023968,-0.00046857112,-0.0011556465,0.5028701,-1.3802276,1.9026302,-2.0911796,-1.5708798,2.4781575,-0.05624841,0.03173032,-0.043980703,0.016241623,-0.0063481834,-0.05505872,-0.4213795,-0.019153614,-9.423578,0.7351769,47.707485,-0.89781106,-2.4660954,-3.2693505,-0.15057994,-0.12632942,-0.31516436,28.5,29.9375,28.875,32.6875,35.0625,36.1875
0.082052335,-0.857536,-0.046277266,-1.2268132,0.006593502,0.108373046,-0.17420632,-0.39060637,-0.36806405,0.059905086,-3.0782652,0.62528795,-0.00040820174,-0.035681862,0.01808487,0.0011836771,0.010433076,0.0017095421,0.0022059192,0.502762,-1.3801552,1.9025105,-2.09118,-1.5708812,2.4780354,-0.057404377,0.03256589,-0.044777606,0.015766732,-0.010056267,-0.059568755,-0.51714754,0.0,-9.404425,0.7665104,47.70211,-0.7859446,-2.4597626,-3.207528,-0.14640215,-0.10761884,-0.27491707,28.5,29.9375,28.875,32.6875,35.0625,36.1875
0.08405244,-0.34995893,-0.07636528,-1.1307145,0.0041321483,0.12767218,-0.1717987,-0.3906694,-0.3680342,0.059888784,-3.0782168,0.62517905,-0.00038952995,-0.035890188,0.018132934,0.0012533973,0.01234015,0.003426536,0.0075605935,0.50269085,-1.380047,1.9024142,-2.0911562,-1.5709418,2.4779027,-0.056110676,0.032862995,-0.04518225,0.015292383,-0.01256118,-0.0636241,-0.47884035,0.019153614,-9.404425,0.8179876,47.701214,-0.97531533,-2.4375038,-3.3021793,-0.1501508,-0.039039627,-0.23897125,28.5,29.9375,28.875,32.6875,35.0625,36.1875
0.086052336,-0.8088688,0.19067654,-0.9712388,-0.007256994,0.12004836,-0.17578895,-0.39072797,-0.36797866,0.059883777,-3.0781682,0.62516767,-0.00042308934,-0.03775812,0.018977946,0.0013968305,0.012742417,0.0040198774,0.008190324,0.502558,-1.3799983,1.9023546,-2.0910966,-1.5709661,2.477769,-0.05886159,0.034360584,-0.047361016,0.015645603,-0.013208875,-0.06700172,-0.61291564,0.0,-9.442732,0.7463667,47.71286,-0.91234994,-2.5028052,-3.302761,-0.15172485,-0.023403902,-0.19695061,28.5,29.9375,28.875,32.6875,35.0625,36.1875
0.08805242,-0.24924862,0.10387632,-1.1986641,-0.009646034,0.11247951,-0.17700425,-0.39083147,-0.36794078,0.05990087,-3.0781822,0.62522787,-0.00040724248,-0.03883929,0.018362248,0.0019524182,0.01034336,0.004263301,0.0095135635,0.50238985,-1.3799261,1.902222,-2.0910609,-1.5709532,2.4776366,-0.060053106,0.03523153,-0.049672928,0.01570878,-0.011228553,-0.06951975,-0.40222588,-0.019153614,-9.404425,0.7486078,47.709274,-0.9302937,-2.546969,-3.125155,-0.17013356,-0.02035252,-0.15531167,28.5,29.9375,28.875,32.6875,35.0625,36.1875
0.09005226,-0.36466986,-0.3113307,-1.1918819,-0.01945456,0.084395014,-0.18058752,-0.3909066,-0.36791247,0.059900846,-3.0781856,0.62514967,-0.00034612438,-0.03727116,0.018132342,0.0006001063,0.0087676905,-0.00040944133,0.01152883,0.502294,-1.3798537,1.9021391,-2.0910718,-1.570988,2.4774916,-0.060466643,0.035994012,-0.047613587,0.01620642,-0.0075921044,-0.071956865,-0.28730422,-0.05746084,-9.519346,0.7978386,47.68062,-0.98259836,-2.4902735,-3.2862806,-0.1706513,-0.08577734,-0.12811947,28.5,29.9375,28.875,32.6875,35.0625,36.1875
0.09205666,-0.5080387,-0.62066865,-1.1885182,-0.025032638,0.06031888,-0.17452021,-0.3909768,-0.36787826,0.059910756,-3.0781605,0.62514347,-0.0003374514,-0.03817383,0.018083746,0.00044237202,0.007851738,-0.0012739745,0.011669471,0.50218564,-1.3797932,1.9020313,-2.0910122,-1.5710114,2.4773827,-0.06197342,0.037700094,-0.04935272,0.016548913,-0.0063783773,-0.0736057,-0.34476504,0.1340753,-9.461885,0.7978386,47.701214,-0.9737148,-2.5015326,-3.3083806,-0.1817902,-0.09041602,-0.0896645,28.5,29.9375,28.875,32.6875,35.0625,36.1875
0.09405162,-0.25268805,-0.38208437,-1.4302024,-0.024450338,0.057401974,-0.18103242,-0.39106324,-0.36783344,0.059916094,-3.0781496,0.6251601,-0.0003520059,-0.03904385,0.017821081,0.0012733679,0.006733089,-0.0002061711,0.011629203,0.50202984,-1.3797212,1.9019231,-2.090964,-1.5710114,2.4772387,-0.06261655,0.03756093,-0.05119618,0.017054338,-0.005916408,-0.07420876,-0.22984336,0.038307227,-9.404425,0.7620334,47.69763,-1.0772408,-2.5658896,-3.2815948,-0.19826367,-0.10297468,-0.076670036,28.5,29.9375,28.875,32.6875,35.0625,36.1875
0.09605166,-0.28990793,-0.17760958,-1.3896977,-0.020175872,0.05312258,-0.17791328,-0.39111912,-0.3678043,0.05990392,-3.0781617,0.6250665,-0.0003925751,-0.04066469,0.017800326,0.0013492574,0.0069957287,0.00024568776,0.010142724,0.50192165,-1.3796481,1.9018615,-2.0909517,-1.571,2.4770706,-0.06379753,0.040061526,-0.05443704,0.017526822,-0.0063719833,-0.07390053,-0.17238252,0.095768064,-9.461885,0.78217715,47.70032,-1.0411828,-2.523014,-3.0846586,-0.21697018,-0.10305523,-0.06330852,28.5,29.9375,28.875,32.6875,35.0625,36.1875
0.098051704,-0.34444344,0.0027117718,-1.1821578,-0.028058426,0.059387498,-0.18235669,-0.3912181,-0.36775476,0.059911933,-3.0781376,0.625101,-0.00039523627,-0.04049025,0.018384997,0.000707939,0.007657301,-0.00064314046,0.008971055,0.50175375,-1.379564,1.9017304,-2.0908926,-1.5710119,2.4769273,-0.064511254,0.040358476,-0.053242106,0.017131185,-0.006523986,-0.07344259,-0.22984336,0.1340753,-9.500193,0.8179876,47.741516,-1.0891609,-2.6399665,-3.2349505,-0.20560774,-0.0976045,-0.07219437,28.5,29.9375,28.875,32.6875,35.0625,36.1875
0.1000518,-0.678596,0.036982358,-1.1741782,-0.028604373,0.058678612,-0.18332674,-0.39130366,-0.36771,0.05990256,-3.0781062,0.62507516,-0.00037457875,-0.041391604,0.019187562,0.00069622684,0.008552893,-0.0006815505,0.0062620994,0.5016215,-1.3794677,1.901635,-2.0908802,-1.5710481,2.476783,-0.06620951,0.04102949,-0.05417758,0.017859643,-0.007292034,-0.072429806,-0.11492168,0.19153613,-9.481039,0.7284641,47.7254,-1.1201668,-2.5286717,-3.3230004,-0.22473739,-0.11737518,-0.075056866,28.5,29.9375,28.875,32.6875,35.0625,36.1875
0.10205167,-0.36948955,-0.27035,-1.2747124,-0.035365976,0.056971967,-0.18576308,-0.39137244,-0.3676933,0.059901476,-3.0781002,0.6250178,-0.00037708838,-0.04290395,0.01967372,0.0006828608,0.009575301,0.0003610139,0.0036542346,0.5015372,-1.3793709,1.9015149,-2.0908444,-1.5710605,2.4766638,-0.06754873,0.042775627,-0.05617976,0.017697183,-0.008695024,-0.07115704,0.0,0.22984336,-9.423578,0.7284641,47.72629,-1.1050693,-2.552522,-3.214044,-0.20922655,-0.07513785,-0.077791125,28.5,29.9375,28.875,32.6875,35.0625,36.1875
0.10405168,-0.105938084,-0.349906,-1.4251227,-0.045966685,0.05301063,-0.18394622,-0.39147046,-0.36763123,0.05990871,-3.078074,0.6250511,-0.00035280685,-0.044032775,0.02044643,0.0009026501,0.010755995,0.00154486,0.0006996765,0.50135714,-1.3793108,1.901419,-2.0908082,-1.5710853,2.476508,-0.0688822,0.043193158,-0.057207808,0.017840236,-0.010301106,-0.06953212,-0.076614454,0.21068975,-9.385271,0.7284641,47.70211,-1.1082507,-2.5902472,-3.2705095,-0.23098803,-0.072953284,-0.11505996,28.5,29.9375,28.875,32.6875,35.0625,36.1875
0.106051855,0.17141344,-0.6736276,-1.3883607,-0.046251323,0.04586996,-0.1702342,-0.3915435,-0.3675814,0.05989502,-3.0780344,0.62500596,-0.00041285434,-0.0449767,0.021247538,0.0010391644,0.011184623,0.0017717537,-0.0024915005,0.50121284,-1.3792145,1.9013227,-2.090748,-1.5710973,2.4763405,-0.070790805,0.043440748,-0.05792226,0.018314078,-0.010790334,-0.06824761,0.0,0.21068975,-9.461885,0.7866488,47.694946,-1.1015451,-2.4914076,-3.2521172,-0.22066066,-0.036164373,-0.14969927,28.5,29.9375,28.875,32.6875,35.0625,36.1875
0.10805279,-0.09298637,-1.0709183,-1.4615916,-0.03491542,0.032025,-0.17114802,-0.39167452,-0.36755487,0.059950165,-3.0780792,0.6249963,-0.00024890073,-0.045612935,0.021373011,0.00069457176,0.01194778,0.0013412741,-0.004099337,0.50106895,-1.3791659,1.9011315,-2.0907123,-1.571133,2.476185,-0.0712888,0.04523924,-0.05935245,0.018688139,-0.011247753,-0.06713716,0.019153614,0.24899697,-9.346964,0.79560274,47.72719,-1.1185622,-2.6297793,-3.2161772,-0.24599567,-0.021432273,-0.18159926,28.5,29.9375,28.875,32.6875,35.0625,36.1875
0.11005171,0.2650995,-0.42765945,-1.3130274,-0.044432137,0.038823426,-0.17489848,-0.391736,-0.36749616,0.05990605,-3.0779958,0.6250951,-0.00036595378,-0.046038214,0.021724725,-8.0085134e-05,0.011946563,-0.0012220652,-0.0064637586,0.5009127,-1.379045,1.9010834,-2.090688,-1.5711325,2.4761012,-0.07303062,0.047441583,-0.0604628,0.019838048,-0.010022242,-0.06651542,-0.038307227,0.24899697,-9.442732,0.77545905,47.729877,-1.1689755,-2.6684666,-3.1898353,-0.25544298,-0.044515602,-0.2010145,28.5,29.9375,28.875,32.6875,35.0625,36.1875
0.11205175,-0.24724703,-0.51140076,-1.0584801,-0.03912198,0.04312508,-0.1780625,-0.39184076,-0.36748984,0.059918184,-3.0780268,0.6250234,-0.00033802434,-0.0466382,0.021146417,0.0013720831,0.008935458,0.000606008,-0.0066057006,0.50080466,-1.3789136,1.9008921,-2.0906522,-1.5711321,2.4759445,-0.073693015,0.045433376,-0.061362863,0.019689301,-0.008260394,-0.0670398,-0.1340753,0.24899697,-9.289502,0.7665104,47.694946,-1.1914133,-2.512024,-3.2420835,-0.27954447,-0.046362437,-0.26103333,28.5,29.9375,28.875,32.6875,35.0625,36.1875
0.11405207,-0.11514276,0.02627668,-1.1184775,-0.04248678,0.07036769,-0.18118279,-0.39193693,-0.36742896,0.059930343,-3.0780122,0.6250961,-0.00033918177,-0.047474157,0.021145985,0.0012586787,0.00801815,0.00035798017,-0.0059935865,0.50061274,-1.3788652,1.9007963,-2.0906045,-1.5711316,2.4757998,-0.07502419,0.046657704,-0.062480718,0.019354409,-0.0073418203,-0.06898436,-0.095768064,0.19153613,-9.346964,0.7978386,47.728977,-1.2191437,-2.5017514,-3.224175,-0.26459244,-0.06539275,-0.24066508,28.5,29.9375,28.875,32.6875,35.0625,36.1875
0.116052054,-0.12237184,-0.38846442,-1.0848053,-0.025003059,0.08089088,-0.16845386,-0.39202836,-0.36739004,0.05992793,-3.0779748,0.62505084,-0.0003067539,-0.04756124,0.020950224,0.0007850561,0.008016917,-0.0012616381,-0.0075480365,0.50049275,-1.3787564,1.9006647,-2.0905678,-1.5711802,2.4756565,-0.07524695,0.04837608,-0.06363459,0.020203859,-0.0065645706,-0.06765359,-0.076614454,0.15322891,-9.346964,0.784413,47.674347,-1.2291687,-2.530012,-3.3165727,-0.27618212,-0.085989185,-0.29908466,28.5,29.9375,28.875,32.6875,35.0625,36.1875
0.1180521,-0.36559725,-0.012340278,-1.0092945,-0.030607386,0.078315005,-0.17043656,-0.39212385,-0.36736965,0.05994349,-3.078009,0.62509775,-0.0003159455,-0.049523022,0.022746628,0.00018962298,0.009117787,-0.0023610499,-0.0117075,0.50034744,-1.3786715,1.9005207,-2.090532,-1.571144,2.475536,-0.07979744,0.050521422,-0.0649813,0.020900957,-0.0070037795,-0.06804303,-0.15322891,0.17238252,-9.385271,0.74413085,47.70659,-1.1255031,-2.6413689,-3.2926214,-0.2978288,-0.06741054,-0.3383436,28.5,29.9375,28.875,32.6875,35.0625,36.1875
0.12005215,-0.3702506,-0.097789764,-1.2648681,-0.024430897,0.0718739,-0.1752171,-0.3922214,-0.3673198,0.05992796,-3.0779552,0.6251595,-0.0003617157,-0.049090706,0.021925464,0.0008289902,0.00907401,-0.0010164673,-0.0072494773,0.50018084,-1.3785398,1.9003891,-2.090484,-1.5711564,2.475415,-0.07761657,0.049711723,-0.06551522,0.021042956,-0.0076169698,-0.07031847,-0.17238252,0.05746084,-9.404425,0.8247004,47.73077,-1.2772828,-2.5574446,-3.2420049,-0.29784057,-0.07207362,-0.34374255,28.5,29.9375,28.875,32.6875,35.0625,36.1875
0.12205214,-0.65391546,-0.27264234,-1.4088265,-0.009310312,0.06878104,-0.1666923,-0.39231908,-0.3672673,0.05993028,-3.077921,0.62511724,-0.00035359053,-0.050944913,0.022748064,0.0020133874,0.0087148445,0.0018922697,-0.012605238,0.5000244,-1.3784441,1.900257,-2.0904243,-1.5711921,2.4752367,-0.08002508,0.048648663,-0.06689034,0.02075806,-0.0087003885,-0.06736827,-0.2681506,0.038307227,-9.442732,0.7665104,47.716442,-1.3846405,-2.485785,-3.3315787,-0.32699025,-0.06526779,-0.42657435,28.5,29.9375,28.875,32.6875,35.0625,36.1875
0.12405229,-0.037954308,0.22049956,-1.1494092,-0.010340337,0.086447015,-0.18045962,-0.39241967,-0.3672273,0.059929233,-3.0779018,0.6251126,-0.00033017137,-0.052625477,0.023810122,0.0013398954,0.0096370345,0.0012448044,-0.013961139,0.49987936,-1.3783351,1.9001249,-2.0904,-1.571217,2.4750912,-0.08303723,0.051287707,-0.06847822,0.020715263,-0.009204578,-0.06902236,-0.22984336,-0.038307227,-9.461885,0.800085,47.737038,-1.1296253,-2.4999332,-3.314999,-0.32004568,-0.07803759,-0.44773155,28.5,29.9375,28.875,32.6875,35.0625,36.1875
0.12605242,-0.47385234,0.16020474,-1.2824031,-0.006135986,0.08848161,-0.16580372,-0.39253536,-0.36719784,0.05993572,-3.0779483,0.6251386,-0.0003253521,-0.05243609,0.023284057,0.0011250741,0.008911697,0.0010635448,-0.009415903,0.4997002,-1.3782268,1.8999819,-2.0904005,-1.5711807,2.4749224,-0.08240396,0.051827237,-0.06846583,0.019971257,-0.008483642,-0.07293605,-0.3256114,-0.05746084,-9.423578,0.78217715,47.713753,-1.4239016,-2.5266962,-3.3313794,-0.32200974,-0.07556318,-0.45123193,28.5,29.9375,28.875,32.6875,35.0625,36.1875
0.12805253,0.023249103,0.56743836,-1.0616189,-0.015126835,0.1157852,-0.18103081,-0.39263782,-0.36713392,0.059930783,-3.0778742,0.62521756,-0.00034572795,-0.055210017,0.022625042,0.0028096891,0.006284175,0.0042029438,-0.008650239,0.4995198,-1.3781183,1.8998483,-2.090329,-1.571216,2.4748008,-0.08432993,0.05281447,-0.07347345,0.0199689,-0.0076978067,-0.075626865,-0.47884035,-0.076614454,-9.346964,0.779936,47.716442,-1.274605,-2.479351,-3.1028128,-0.31241095,-0.08966829,-0.46076354,28.5,29.9375,28.875,32.6875,35.0625,36.1875
0.13005257,-0.46050912,0.11298399,-1.2173457,0.0048638987,0.10283581,-0.1728996,-0.3927496,-0.36708456,0.059945736,-3.0778527,0.62521017,-0.0002713785,-0.054552443,0.024000024,0.0013906826,0.007893531,0.00072885683,-0.0030674227,0.49936345,-1.3780339,1.8997062,-2.0902927,-1.5712641,2.4746428,-0.08617555,0.053589225,-0.07137907,0.020910377,-0.007443702,-0.083056845,-0.38307226,-0.17238252,-9.346964,0.75084364,47.67166,-1.3151908,-2.5131574,-3.3165247,-0.3343078,-0.09487958,-0.42960858,28.5,29.9375,28.875,32.6875,35.0625,36.1875
0.13205265,-0.30871564,0.05831445,-1.3572851,0.00793124,0.11559408,-0.17458765,-0.39286625,-0.36705628,0.0599449,-3.0778935,0.6251973,-0.0003478694,-0.056545597,0.024832372,0.0019563008,0.007824899,0.0015958282,-0.0017586304,0.49917093,-1.3778895,1.899526,-2.090244,-1.5712045,2.474437,-0.08916704,0.054493394,-0.0739405,0.021776337,-0.0078067854,-0.08735517,-0.45968673,-0.11492168,-9.423578,0.85155696,47.698532,-1.3333194,-2.4375877,-3.2774873,-0.34932804,-0.08508236,-0.41963035,28.5,29.9375,28.875,32.6875,35.0625,36.1875
0.1340517,-0.43252456,0.34791416,-1.1765617,-0.009492685,0.121746115,-0.1841957,-0.3929617,-0.36699045,0.059930485,-3.077856,0.62514573,-0.0004071709,-0.05769532,0.023999754,0.0018618907,0.007384864,0.0018659102,0.0057475106,0.4989794,-1.3777803,1.8994159,-2.090184,-1.5712165,2.4742181,-0.088958524,0.057462722,-0.07721616,0.021627814,-0.0075683817,-0.09465108,-0.59376204,-0.05746084,-9.404425,0.7732232,47.703903,-1.2640646,-2.5817585,-3.0840182,-0.3223672,-0.10991647,-0.37133604,28.5,29.9375,28.875,32.6875,35.0625,36.1875
0.1360526,-0.9104255,-0.21731879,-1.3536817,-0.0025553475,0.12100084,-0.16908887,-0.3930744,-0.36693025,0.059932325,-3.077804,0.62513167,-0.0003616414,-0.05752542,0.02496688,0.0018776922,0.007499893,0.00195575,0.011129242,0.49881142,-1.3776729,1.8992738,-2.0901368,-1.5712765,2.4740481,-0.090316065,0.055731956,-0.07511459,0.021222906,-0.007715507,-0.101391025,-0.63206923,0.038307227,-9.461885,0.76874626,47.670765,-1.4595783,-2.4761686,-3.2803755,-0.34867525,-0.10936184,-0.27034575,28.5,29.9375,28.875,32.6875,35.0625,36.1875
0.1380526,-0.42110726,0.17020744,-1.2790445,-0.026726987,0.14961904,-0.17784381,-0.39317667,-0.36689702,0.05994252,-3.0778239,0.62504035,-0.00038919225,-0.060699187,0.026619313,0.0027419683,0.007050183,0.003613075,0.009568616,0.49865365,-1.3775647,1.8991059,-2.0900648,-1.5712646,2.473831,-0.09574953,0.056445673,-0.078058586,0.021781957,-0.008122934,-0.10526162,-0.59376204,-0.05746084,-9.557653,0.83589023,47.701214,-1.1700132,-2.4360943,-3.243452,-0.339608,-0.09514414,-0.2600965,28.5,29.9375,28.875,32.6875,35.0625,36.1875
0.14005269,-0.81403095,-0.33225393,-1.5899179,-0.025685592,0.1394356,-0.17232339,-0.39331728,-0.36684984,0.05993912,-3.077818,0.624958,-0.00031579967,-0.06081277,0.026873417,0.0012066591,0.009200267,0.001220983,0.01338454,0.49847427,-1.3774072,1.8989271,-2.0900648,-1.5713123,2.473601,-0.09579164,0.060106117,-0.07900347,0.022189315,-0.008869631,-0.10911725,-0.47884035,0.095768064,-9.615114,0.8806493,47.690468,-1.2809658,-2.46844,-3.1402006,-0.3661589,-0.111571744,-0.1815618,28.5,29.9375,28.875,32.6875,35.0625,36.1875
0.14205252,-1.242205,-0.67412955,-1.5173467,-0.027477842,0.1292729,-0.1639186,-0.3934228,-0.36676544,0.059928566,-3.0777717,0.62492985,-0.0003233368,-0.062174823,0.028231561,0.0011247548,0.008902912,0.0012346825,0.011060105,0.49825746,-1.377323,1.8988432,-2.0900285,-1.5713485,2.4733727,-0.09946547,0.060257863,-0.07890943,0.021781784,-0.008621507,-0.110466875,-0.6703764,0.19153613,-9.5385,0.80679786,47.699425,-1.1402252,-2.6030684,-3.2443576,-0.3589182,-0.10157797,-0.16285384,28.5,29.9375,28.875,32.6875,35.0625,36.1875
0.14405179,-1.084227,-0.37735933,-1.3624845,-0.032821156,0.1304883,-0.17421848,-0.39357364,-0.36671236,0.059954744,-3.0777574,0.62500536,-0.0003223261,-0.0640765,0.028570116,0.0024849758,0.0072182487,0.0044739055,0.007907097,0.4980291,-1.3771913,1.8986033,-2.0899217,-1.5713485,2.4731934,-0.10170732,0.059099853,-0.08041463,0.020793462,-0.008694281,-0.109555066,-0.7469909,0.15322891,-9.615114,0.7642693,47.645687,-1.1054585,-2.3872795,-3.2639112,-0.34935284,-0.11969617,-0.14388424,28.5,29.9375,28.875,32.6875,35.0625,36.1875
0.14605185,-1.0003194,-0.34719542,-1.7563944,-0.021722576,0.120975584,-0.17025855,-0.39367878,-0.36663514,0.059934363,-3.077703,0.62493914,-0.0003602091,-0.06557604,0.029613677,0.0017234067,0.007776036,0.0037828358,0.0012463352,0.49782452,-1.3770704,1.8984956,-2.0898736,-1.5713843,2.4729545,-0.104719244,0.06146307,-0.081368364,0.02025498,-0.00886113,-0.10590452,-0.59376204,0.11492168,-9.595961,0.7777002,47.64479,-1.0070384,-2.489761,-3.2981129,-0.3436225,-0.11100796,-0.1633921,28.5,29.9375,28.875,32.6875,35.0625,36.1875
0.14805633,-0.68318516,-0.04331114,-1.4597088,-0.027593,0.116039574,-0.16974998,-0.3938085,-0.3666023,0.059944153,-3.077761,0.624954,-0.00036620762,-0.06658634,0.030247299,0.0019399752,0.0070145302,0.0043705646,-0.0058769076,0.49762017,-1.3769503,1.8983282,-2.089862,-1.5713366,2.472752,-0.10692903,0.061334174,-0.08159885,0.019739399,-0.008466434,-0.10099217,-0.6703764,0.0,-9.576807,0.79560274,47.672558,-0.8842895,-2.4650369,-3.292153,-0.34296274,-0.11805168,-0.24272513,28.5,29.9375,28.875,32.6875,35.0625,36.1875
0.15005232,-0.15611453,-0.09189231,-1.4281598,-0.026448268,0.12371777,-0.18411076,-0.39396626,-0.366537,0.059947114,-3.0777469,0.6250095,-0.00031301056,-0.06931952,0.03004992,0.0034320727,0.005976946,0.008320709,-0.010171741,0.4973803,-1.3768059,1.8981475,-2.0898502,-1.571361,2.4725487,-0.10846555,0.062165223,-0.08586705,0.019210966,-0.009445013,-0.09822997,-0.68953013,-0.05746084,-9.442732,0.80679786,47.696735,-0.87078846,-2.4215417,-3.1678147,-0.3158959,-0.12776235,-0.27444538,28.5,29.9375,28.875,32.6875,35.0625,36.1875
0.1520522,-0.5986811,0.11555419,-1.3467289,-0.012360347,0.114901364,-0.1705083,-0.3941125,-0.36646086,0.05994144,-3.077696,0.6250762,-0.0002939437,-0.069393106,0.03166671,0.00237296,0.0083002765,0.00687606,-0.012369768,0.49714014,-1.3766615,1.897981,-2.089814,-1.5713972,2.4723568,-0.11038187,0.06279736,-0.084241055,0.01933005,-0.010794394,-0.09794561,-0.6512228,-0.038307227,-9.5385,0.7083204,47.70211,-0.844317,-2.3737373,-3.2974663,-0.32828438,-0.091311716,-0.31588572,28.5,29.9375,28.875,32.6875,35.0625,36.1875
0.15405206,-0.666995,0.17125918,-1.3788502,-0.0056743626,0.11875335,-0.16693355,-0.3942582,-0.36642438,0.059966527,-3.0777168,0.6250789,-0.00019661526,-0.07103605,0.03154594,0.0034159257,0.0069875424,0.009014995,-0.012458257,0.49695998,-1.3765413,1.897776,-2.08979,-1.5714215,2.4721758,-0.11173641,0.062929645,-0.08674538,0.019190384,-0.010660604,-0.099211596,-0.40222588,-0.038307227,-9.5385,0.7933669,47.694946,-0.85654914,-2.390863,-3.2738414,-0.29978034,-0.11174101,-0.34321702,28.5,29.9375,28.875,32.6875,35.0625,36.1875
0.15605211,-0.71884024,0.39614427,-1.1715323,-0.006874585,0.11116071,-0.17204414,-0.39439583,-0.36634856,0.059967004,-3.0776725,0.62516505,-0.00018961896,-0.07163311,0.031225165,0.0031697524,0.006517695,0.008539561,-0.012046335,0.49672046,-1.3764206,1.897621,-2.0897424,-1.5714449,2.4719958,-0.11210759,0.064727716,-0.08831608,0.019149376,-0.01002532,-0.09999509,-0.30645782,0.0,-9.481039,0.8090337,47.684196,-0.9036224,-2.3616376,-3.1113682,-0.28079593,-0.1110007,-0.33893502,28.5,29.9375,28.875,32.6875,35.0625,36.1875
0.15805224,-0.33868614,0.5465337,-1.4184201,-0.008721259,0.09981293,-0.1757929,-0.39453682,-0.36629027,0.059969176,-3.0776875,0.6251295,-0.00017691148,-0.07227456,0.031147528,0.0034445755,0.0062036365,0.008878968,-0.012563466,0.49649292,-1.3762883,1.8974537,-2.0897186,-1.5714449,2.4717443,-0.1126018,0.06530854,-0.08972314,0.019524978,-0.009910918,-0.09997194,-0.22984336,-0.019153614,-9.423578,0.8247004,47.7254,-0.97483987,-2.3920538,-3.1946285,-0.2667494,-0.10409512,-0.38824886,28.5,29.9375,28.875,32.6875,35.0625,36.1875
0.16005227,0.2694144,0.2725747,-1.5171372,-0.005498246,0.091508634,-0.17107481,-0.3947086,-0.36622128,0.059988413,-3.0776691,0.6251614,-0.000112425085,-0.07286937,0.030908411,0.003814719,0.0054411837,0.009351739,-0.011099223,0.4962414,-1.376144,1.8972253,-2.0896585,-1.5714806,2.4715152,-0.11297988,0.06569618,-0.09107244,0.019698832,-0.009465791,-0.10181493,-0.22984336,-0.038307227,-9.404425,0.779936,47.691364,-1.0598326,-2.3149524,-3.2334917,-0.2559595,-0.1239936,-0.388088,28.5,29.9375,28.875,32.6875,35.0625,36.1875
0.16205224,-0.21945846,-0.15039998,-1.4959296,-0.006938704,0.05652554,-0.16093782,-0.39481705,-0.36616072,0.059965648,-3.0776331,0.6252304,-0.00021087301,-0.0731207,0.031480048,0.0029589287,0.0070721456,0.008422408,-0.011248278,0.49602544,-1.3759995,1.8970946,-2.0896108,-1.5714573,2.4713469,-0.11352484,0.06742795,-0.091184124,0.019676078,-0.010463594,-0.10220768,-0.17238252,0.05746084,-9.404425,0.76874626,47.681515,-0.9357312,-2.3067749,-3.243783,-0.24395381,-0.11825901,-0.3990663,28.5,29.9375,28.875,32.6875,35.0625,36.1875
0.16405214,0.32595307,-0.3126553,-1.4156171,-0.013680106,0.0598662,-0.17425719,-0.3949897,-0.36608592,0.059988134,-3.0775902,0.62518036,-4.3775886e-05,-0.074859135,0.033056617,0.0032363767,0.0079594245,0.00950697,-0.007932863,0.4958089,-1.3758672,1.8968786,-2.089575,-1.571566,2.4711049,-0.11692499,0.06750092,-0.09193788,0.019810714,-0.011760592,-0.1089206,-0.17238252,0.11492168,-9.500193,0.8179876,47.73614,-1.0716671,-2.3386683,-3.2263741,-0.2559483,-0.11995365,-0.38339245,28.5,29.9375,28.875,32.6875,35.0625,36.1875
0.16605191,0.36934364,-0.31356704,-1.7116784,-0.02427314,0.060032345,-0.17230807,-0.39516458,-0.36603102,0.06000828,-3.0776322,0.6252611,-2.7682943e-05,-0.07483479,0.03300152,0.0027459841,0.008501698,0.007864535,-0.0029004125,0.4955335,-1.3757223,1.8966526,-2.0895388,-1.5715293,2.4708745,-0.11695503,0.0691214,-0.093015894,0.020966554,-0.011453778,-0.11398372,-0.05746084,0.21068975,-9.481039,0.7911258,47.68062,-0.9582935,-2.299191,-3.3078501,-0.22271027,-0.122510925,-0.36074245,28.5,29.9375,28.875,32.6875,35.0625,36.1875
0.16805203,0.39693195,-0.09629841,-1.509684,-0.034036495,0.067430586,-0.17843784,-0.39528933,-0.365935,0.05997634,-3.0775123,0.6252517,-1.802743e-05,-0.07607324,0.03351814,0.0031171292,0.008273021,0.008080126,0.0026522598,0.4953172,-1.375566,1.8965315,-2.089502,-1.5716251,2.4706678,-0.118981004,0.0697459,-0.094802156,0.02180934,-0.011370457,-0.12156105,0.05746084,0.13407528,-9.461885,0.8291774,47.685097,-1.0059295,-2.2973356,-3.2767012,-0.20655355,-0.10241588,-0.277646,28.5,29.9375,28.875,32.6875,35.0625,36.1875
0.17005196,0.12569033,-0.6302536,-1.442964,-0.033359975,0.057927646,-0.17040014,-0.39543006,-0.3658532,0.05996198,-3.0774682,0.6252183,-5.477279e-05,-0.0761361,0.033444673,0.0023713442,0.008087155,0.006222174,0.00971932,0.4950655,-1.3754094,1.8963646,-2.089442,-1.571649,2.470401,-0.11952206,0.071623154,-0.09540241,0.022062277,-0.0103365155,-0.1291705,-0.019153614,0.21068975,-9.404425,0.8179876,47.721813,-1.0106959,-2.3831613,-3.3089116,-0.20117709,-0.12562706,-0.21996458,28.5,29.9375,28.875,32.6875,35.0625,36.1875
0.17205192,-0.24163528,-0.94014585,-1.6736958,-0.03224095,0.050918836,-0.16786176,-0.39558342,-0.36581367,0.059986178,-3.077547,0.62515765,-2.0876494e-05,-0.07771001,0.034644727,0.0023867204,0.00818978,0.0057205455,0.008905008,0.49483654,-1.3752888,1.896161,-2.0894177,-1.5716132,2.4701242,-0.12303345,0.07265655,-0.09688402,0.023000037,-0.010183788,-0.13186789,0.019153614,0.19153613,-9.423578,0.8179876,47.705692,-0.8808733,-2.3278656,-3.3261485,-0.20308137,-0.107206486,-0.14716947,28.5,29.9375,28.875,32.6875,35.0625,36.1875
0.1740518,0.6308555,-0.804706,-1.6687875,-0.036618788,0.064698055,-0.16794117,-0.39575002,-0.36574927,0.060004953,-3.0775473,0.6250947,4.3311637e-05,-0.076978594,0.03365909,0.0025175142,0.008867762,0.0059345867,0.014119624,0.4945984,-1.3751446,1.8959335,-2.089358,-1.5716494,2.469847,-0.120230794,0.073033065,-0.09778372,0.023649853,-0.010880985,-0.13427821,0.019153614,0.30645782,-9.500193,0.800085,47.716442,-1.1316916,-2.3702445,-3.3000822,-0.1800863,-0.11712997,-0.06975798,28.5,29.9375,28.875,32.6875,35.0625,36.1875
0.17605187,0.26868713,-0.956301,-1.5564426,-0.03967502,0.058012437,-0.16254228,-0.3959148,-0.36566558,0.06001142,-3.077521,0.6251705,8.0833364e-05,-0.07834076,0.034274954,0.0027744444,0.008210601,0.0063069216,0.0072374563,0.49432188,-1.3750124,1.8957537,-2.0893223,-1.5716733,2.4696212,-0.12271863,0.07362058,-0.099092275,0.023728007,-0.010476695,-0.12988432,0.05746084,0.28730422,-9.32781,0.8291774,47.71017,-0.9372153,-2.2385612,-3.3691535,-0.18330778,-0.11165833,-0.12125914,28.5,29.9375,28.875,32.6875,35.0625,36.1875
0.17805205,0.6622189,-0.5900243,-1.3386369,-0.050697688,0.06318725,-0.16778345,-0.39605784,-0.36560908,0.060001627,-3.0774894,0.62510824,8.535977e-05,-0.07832441,0.0345388,0.001219528,0.009561537,0.0036358736,0.0020600162,0.49411836,-1.374831,1.8955497,-2.0892742,-1.571709,2.469383,-0.12316064,0.07686375,-0.09944122,0.023823807,-0.010399175,-0.12514818,0.0,0.22984336,-9.32781,0.8314132,47.686886,-1.1883714,-2.430739,-3.2589853,-0.16271687,-0.10232058,-0.16784772,28.5,29.9375,28.875,32.6875,35.0625,36.1875
0.18005201,-0.043671403,-0.4920564,-1.6995643,-0.044776186,0.040011063,-0.17203528,-0.39620706,-0.3655429,0.059999846,-3.0774915,0.6250143,8.1839826e-05,-0.07983304,0.035207335,0.0026583374,0.008068424,0.0062785633,-0.004855883,0.49387816,-1.3746756,1.8953584,-2.089226,-1.571721,2.469084,-0.12565753,0.0748297,-0.10026992,0.023652226,-0.010337868,-0.120729186,0.11492168,0.2681506,-9.346964,0.81351066,47.684196,-1.0869112,-2.300796,-3.5227928,-0.14629743,-0.12695499,-0.21285626,28.5,29.9375,28.875,32.6875,35.0625,36.1875
0.18205202,0.05791409,-1.0004236,-1.6371998,-0.030087678,0.04412062,-0.16105455,-0.39636755,-0.36546436,0.060012788,-3.0774467,0.6251409,0.00010394639,-0.08077748,0.03510577,0.0028389664,0.007857207,0.0067419973,-0.009009939,0.4936145,-1.3745431,1.8951553,-2.0891545,-1.5717448,2.4689052,-0.12628299,0.07606669,-0.102200076,0.02383548,-0.010372157,-0.117199585,0.0,0.15322891,-9.385271,0.7709874,47.666286,-1.1147785,-2.1863413,-3.2379851,-0.11942257,-0.13157421,-0.29664737,28.5,29.9375,28.875,32.6875,35.0625,36.1875
0.18405204,0.54015785,-0.27229714,-1.3148856,-0.03030993,0.05337066,-0.16651273,-0.39651418,-0.36540988,0.060020063,-3.0774665,0.62512624,7.564564e-05,-0.080827385,0.03617024,0.0004924431,0.0103127435,0.0018530854,-0.012851883,0.49337435,-1.3743972,1.8949517,-2.089094,-1.571721,2.4686534,-0.12817797,0.08060765,-0.10255979,0.025124833,-0.010215526,-0.11525222,-0.095768064,0.1340753,-9.308656,0.80679786,47.701214,-1.1354469,-2.4710007,-3.4999135,-0.1178792,-0.11005862,-0.3235999,28.5,29.9375,28.875,32.6875,35.0625,36.1875
0.18605238,0.74720466,0.123219445,-1.0693724,-0.03164737,0.070739694,-0.1752705,-0.39669624,-0.36531523,0.060018707,-3.077407,0.625191,0.00013563012,-0.08269693,0.035863284,0.0031268608,0.0077225086,0.0055796197,-0.015575483,0.49308655,-1.37423,1.8947481,-2.0890577,-1.571781,2.4684138,-0.12963083,0.078239575,-0.106053956,0.026468104,-0.009702174,-0.1139818,-0.19153613,0.17238252,-9.289502,0.800085,47.692257,-1.1708374,-2.1089451,-3.3026524,-0.123081714,-0.14535424,-0.39593387,28.5,29.9375,28.875,32.6875,35.0625,36.1875
0.18805261,0.1300883,-0.008804677,-1.2586342,-0.013844832,0.06838142,-0.16791856,-0.39687234,-0.36525825,0.06003701,-3.0774226,0.625272,0.000163347,-0.082871266,0.036214326,0.0012273454,0.008872752,0.0014344255,-0.018148556,0.49282265,-1.3740724,1.8945082,-2.0890095,-1.5717686,2.4681985,-0.13092282,0.08263751,-0.10718031,0.027389465,-0.008749528,-0.112702124,-0.17238252,0.1340753,-9.308657,0.800085,47.65106,-1.1280184,-2.2340646,-3.2487972,-0.111139104,-0.1386011,-0.4624678,28.5,29.9375,28.875,32.6875,35.0625,36.1875
0.19005258,-0.17214139,-0.045976218,-1.3791656,-0.009565204,0.07679208,-0.16673781,-0.39701766,-0.3651968,0.060007796,-3.0773945,0.6252462,0.00012928383,-0.08371858,0.037086967,0.00062993134,0.009790635,2.7211392e-05,-0.019080829,0.49259442,-1.3738675,1.8943285,-2.0889971,-1.5717806,2.467958,-0.13302858,0.08447718,-0.10822119,0.028260713,-0.00889884,-0.11387436,-0.17238252,0.05746084,-9.3661175,0.91421866,47.692257,-1.0706866,-2.366878,-3.3324533,-0.1052296,-0.13819501,-0.48403138,28.5,29.9375,28.875,32.6875,35.0625,36.1875
0.19205168,-0.49587247,0.16741033,-1.1232833,-0.02722918,0.09579524,-0.17205264,-0.3971944,-0.36513624,0.060049336,-3.0773904,0.6252429,0.00020842903,-0.08601766,0.037091043,0.002136602,0.008811701,0.002602031,-0.0178066,0.4923543,-1.3737352,1.8940524,-2.0888894,-1.5718168,2.4677165,-0.13485025,0.084912516,-0.11240076,0.029264951,-0.009259388,-0.116968185,-0.36391866,0.076614454,-9.3661175,0.7709874,47.682407,-1.0601127,-2.3084927,-3.2730494,-0.09441413,-0.15936814,-0.5195375,28.5,29.9375,28.875,32.6875,35.0625,36.1875
0.19405176,-0.56890917,-0.13277951,-1.0913508,-0.028946377,0.114205785,-0.17122737,-0.39735866,-0.3650394,0.060013562,-3.0773113,0.6253556,0.00010174462,-0.08546633,0.039091162,-0.00066478463,0.011237043,-0.0033276912,-0.0108787315,0.4920418,-1.3735179,1.8938617,-2.0888288,-1.5718163,2.4674845,-0.1380726,0.088061966,-0.10996687,0.030037344,-0.008607783,-0.12711968,-0.49799395,0.05746084,-9.232041,0.8224646,47.705692,-0.9638558,-2.276496,-3.32999,-0.07131983,-0.1640533,-0.46479678,28.5,29.9375,28.875,32.6875,35.0625,36.1875
0.1960517,-0.8315403,-0.33410156,-1.027424,-0.022765769,0.12603098,-0.17593826,-0.3975136,-0.3649581,0.060005493,-3.0772576,0.6253382,5.449151e-05,-0.0866467,0.037026633,0.0023950618,0.008391919,0.0016635841,-0.000760459,0.49177936,-1.3733386,1.8936452,-2.088733,-1.5718406,2.4672182,-0.13570084,0.08603565,-0.11477414,0.031113228,-0.008481183,-0.13486457,-0.5746084,-0.019153614,-9.212888,0.80456203,47.695843,-1.1413406,-2.2755077,-3.306085,-0.08008559,-0.18089342,-0.40588424,28.5,29.9375,28.875,32.6875,35.0625,36.1875
0.19805181,-1.3478769,-0.2803643,-1.133878,-0.012927129,0.12355491,-0.15788361,-0.39769784,-0.36491352,0.06003107,-3.077337,0.6253102,0.00010126327,-0.08667964,0.03846145,0.0010104754,0.010268871,-0.00074348086,0.0071311034,0.49151504,-1.3731819,1.8933953,-2.088709,-1.5718049,2.4669263,-0.13776994,0.08751452,-0.113437556,0.031299464,-0.008996068,-0.14482497,-0.61291564,0.019153614,-9.308657,0.86945957,47.701214,-1.0979904,-2.2135777,-3.2872162,-0.07727267,-0.1825051,-0.29238638,28.5,29.9375,28.875,32.6875,35.0625,36.1875
0.20005192,-0.58356696,0.053604368,-0.9296329,-0.0044681444,0.14929584,-0.17415187,-0.39790124,-0.36483037,0.060057916,-3.0773256,0.62536114,0.00024443067,-0.08743191,0.03834395,0.0003834708,0.010875819,-0.0017245216,0.012825274,0.4912277,-1.3730365,1.8931559,-2.0886848,-1.5718645,2.4666724,-0.138152,0.09042702,-0.11556533,0.03164827,-0.009068348,-0.15090044,-0.6703765,-0.11492168,-9.308657,0.83365434,47.707485,-1.2581612,-2.448151,-3.2250996,-0.07129345,-0.1710867,-0.21923742,28.5,29.9375,28.875,32.6875,35.0625,36.1875
0.20205207,-0.6373315,0.09152215,-0.8471838,0.010054224,0.1432923,-0.16252537,-0.39802977,-0.36475247,0.060016055,-3.0772762,0.6251764,0.00011221948,-0.08900168,0.038376566,0.0017836265,0.009478899,0.0007612606,0.013375828,0.49098772,-1.3728209,1.8929757,-2.0886014,-1.5718769,2.4663236,-0.13960977,0.08961491,-0.117857695,0.03189555,-0.009034213,-0.15290707,-0.61291564,-0.038307227,-9.346964,0.77545905,47.701214,-1.1969475,-2.1928303,-3.2006984,-0.034850277,-0.21671823,-0.1695003,28.5,29.9375,28.875,32.6875,35.0625,36.1875
0.20405203,-0.6547901,0.30653176,-1.0407894,0.021786014,0.12562193,-0.15955824,-0.39821744,-0.36466473,0.06000639,-3.077273,0.625197,8.2934086e-05,-0.091244124,0.040075157,0.0012128927,0.010621979,0.0003306807,0.0071993554,0.49066275,-1.3726277,1.8927597,-2.088565,-1.571865,2.466012,-0.14393723,0.092180885,-0.1196649,0.032059357,-0.009844767,-0.15105496,-0.6703765,-0.076614454,-9.232041,0.81351066,47.68599,-1.0949215,-2.3854272,-3.0922666,-0.043639526,-0.1959356,-0.15138213,28.5,29.9375,28.875,32.6875,35.0625,36.1875
0.20605199,-0.80804044,1.0890763,-1.1988528,0.00093485194,0.111584716,-0.16858914,-0.39840835,-0.364598,0.06005049,-3.0772753,0.62516004,0.00015984828,-0.09161885,0.039759852,0.0013530682,0.01102117,0.00021630288,0.0030986846,0.49039984,-1.3724831,1.8924602,-2.088445,-1.5719007,2.465726,-0.14350638,0.09337606,-0.121662386,0.033149183,-0.010136987,-0.14652225,-0.7278373,0.0,-9.385271,0.8403672,47.687782,-1.273792,-2.4175415,-3.1044858,-0.0353906,-0.19662061,-0.22467747,28.5,29.9375,28.875,32.6875,35.0625,36.1875
0.20805217,-0.73868734,0.07408331,-1.0076268,0.006164777,0.11328017,-0.16123624,-0.39860332,-0.36449865,0.06003206,-3.0772269,0.6252296,0.0001252837,-0.09232126,0.040549293,0.00024666128,0.012777894,-0.0018069599,-0.0042989845,0.49006405,-1.3722658,1.8922328,-2.0883968,-1.5719131,2.4654398,-0.14503777,0.09638836,-0.12295119,0.034041867,-0.010737397,-0.14065331,-0.8236054,0.038307227,-9.308657,0.8179876,47.713753,-1.1478496,-2.5029948,-3.0686,-0.033874802,-0.22447856,-0.29324326,28.5,29.9375,28.875,32.6875,35.0625,36.1875
0.2100521,-0.61613077,0.101234175,-0.9744998,-0.012159266,0.13241962,-0.16540529,-0.39877734,-0.36441633,0.060012657,-3.0771868,0.6252217,7.6789875e-05,-0.093196005,0.0413585,0.00033326464,0.0133635765,-0.0014839254,-0.006882581,0.48977593,-1.3720495,1.8920058,-2.0883367,-1.5719255,2.465152,-0.14671429,0.09667664,-0.12358564,0.034377404,-0.0114151025,-0.13974385,-0.7086837,-0.019153614,-9.289502,0.7978386,47.741516,-1.1669719,-2.4665046,-3.061779,-0.018920086,-0.20100904,-0.32590145,28.5,29.9375,28.875,32.6875,35.0625,36.1875
0.21205214,-0.99801093,-0.016632013,-1.2233763,-0.011048726,0.13059397,-0.16084884,-0.39899358,-0.36432758,0.060050312,-3.077143,0.6252702,0.00018890058,-0.09342915,0.042029925,8.006089e-05,0.014091123,-0.0035323764,-0.008751992,0.48947594,-1.3718811,1.8916954,-2.0882285,-1.5719975,2.464888,-0.14819118,0.09761445,-0.12465165,0.03664156,-0.01108831,-0.13935217,-0.61291564,0.05746084,-9.308657,0.8403672,47.72808,-1.2132769,-2.4920387,-3.1673374,-0.033388928,-0.21226832,-0.3451413,28.5,29.9375,28.875,32.6875,35.0625,36.1875
0.21405229,-1.0082408,-0.27845526,-1.1560885,-0.01796477,0.13287055,-0.16423558,-0.39916903,-0.36425292,0.060044453,-3.0771396,0.6253057,0.00013493457,-0.09439679,0.041364543,0.0010400214,0.0136511605,-0.0028837263,-0.008307229,0.48917693,-1.3716887,1.891466,-2.088168,-1.5719732,2.4646118,-0.14793171,0.09861359,-0.12851192,0.038723093,-0.011014692,-0.13953593,-0.51714754,0.019153614,-9.3661175,0.8403672,47.70838,-1.2301984,-2.4403515,-3.0303059,-0.051724114,-0.22829759,-0.3835022,28.5,29.9375,28.875,32.6875,35.0625,36.1875
0.21605231,-0.42987612,0.26982462,-1.1186955,-0.03289932,0.13451748,-0.17738555,-0.39937553,-0.3641647,0.060029685,-3.0770917,0.62535113,0.00015138202,-0.09312502,0.043201588,-0.00083398656,0.016366506,-0.0064312415,-0.006659511,0.48886502,-1.3714484,1.8912052,-2.0881317,-1.5720099,2.4643345,-0.14936018,0.098818466,-0.12457283,0.038976617,-0.0117446855,-0.14261176,-0.4405331,0.05746084,-9.270349,0.85155696,47.70838,-1.2818666,-2.510429,-3.2564244,-0.059467077,-0.19463629,-0.39353502,28.5,29.9375,28.875,32.6875,35.0625,36.1875
0.21805194,-0.43050027,0.12884685,-1.2278471,-0.02130217,0.11034675,-0.16904993,-0.3995573,-0.3640796,0.0600218,-3.0770507,0.6253179,9.0042355e-05,-0.09507065,0.042635877,1.9188108e-05,0.015543661,-0.0042928606,-0.00034886968,0.48856542,-1.3712314,1.8909405,-2.0880244,-1.5720218,2.4640195,-0.14991306,0.10060737,-0.12866616,0.038993698,-0.012050063,-0.14947201,-0.32561144,0.019153614,-9.404425,0.8918391,47.711063,-1.2874916,-2.4007525,-3.007199,-0.0514177,-0.20948522,-0.3602597,28.5,29.9375,28.875,32.6875,35.0625,36.1875
0.22005191,0.62762713,0.45110276,-1.236687,-0.021918772,0.10252132,-0.17440425,-0.3997793,-0.36398473,0.06005332,-3.077022,0.62526834,0.00025370592,-0.09482806,0.04421988,-0.0005814307,0.017927172,-0.0064470195,0.006848942,0.48826554,-1.3710632,1.8906549,-2.0879633,-1.5721182,2.4636927,-0.15161727,0.10057861,-0.12775666,0.041107178,-0.013140884,-0.15837267,-0.095768064,0.0,-9.461885,0.8717007,47.728977,-1.2845845,-2.436675,-3.2484016,-0.062698394,-0.21120158,-0.26283765,28.5,29.9375,28.875,32.6875,35.0625,36.1875
0.22205178,0.6139798,0.24811712,-1.3058914,-0.013081462,0.071095675,-0.17099145,-0.39996246,-0.36387578,0.060032032,-3.076978,0.62533104,0.00019233317,-0.095495105,0.045839895,-0.0008769855,0.018691275,-0.0080258725,0.013020281,0.48791718,-1.370871,1.8904632,-2.0879147,-1.5721177,2.4633892,-0.15491167,0.10068255,-0.1275476,0.042529237,-0.013094036,-0.16783811,-0.05746084,0.05746084,-9.404425,0.8493211,47.728977,-1.2282891,-2.3912497,-3.3111145,-0.07509581,-0.18529943,-0.15065882,28.5,29.9375,28.875,32.6875,35.0625,36.1875
0.22405176,1.2539171,0.11903509,-1.2824807,-0.007590648,0.063515715,-0.16866037,-0.4001633,-0.36377755,0.060023293,-3.076916,0.6253342,0.00016655505,-0.094764665,0.0467122,-0.0025778029,0.02201455,-0.012498466,0.016797876,0.48759404,-1.3706416,1.8901881,-2.0878184,-1.5721544,2.463076,-0.15513408,0.103663735,-0.12789923,0.045395177,-0.013946453,-0.171835,-0.019153614,0.038307227,-9.308657,0.8806493,47.71465,-1.2121364,-2.6191916,-3.3194394,-0.119186684,-0.20273733,-0.09066934,28.5,29.9375,28.875,32.6875,35.0625,36.1875
0.22605173,1.4813383,0.7424094,-1.2724229,-0.014751241,0.04841368,-0.17106743,-0.40034553,-0.36366612,0.06000431,-3.0768497,0.6252659,7.39769e-05,-0.097302735,0.04731136,-0.0003870269,0.019718198,-0.008950349,0.010174807,0.48725754,-1.3704264,1.8899478,-2.0876982,-1.5721782,2.4627056,-0.15857187,0.10183161,-0.13084385,0.045956336,-0.013603581,-0.16864856,0.05746084,0.05746084,-9.308656,0.8157518,47.71554,-1.0022871,-2.3482687,-3.3943017,-0.1271466,-0.18899256,-0.053609356,28.5,29.9375,28.875,32.6875,35.0625,36.1875
0.22805202,0.91036326,0.066465996,-1.6001319,-0.0039496915,0.020276876,-0.16532734,-0.40055504,-0.36356416,0.05999445,-3.076775,0.62521535,0.00014990703,-0.09683612,0.04888873,-0.003475995,0.022014942,-0.014709212,0.0018081419,0.4869572,-1.3701966,1.8896855,-2.0876505,-1.5722741,2.4623835,-0.16115816,0.106015205,-0.12881373,0.0458933,-0.0129352715,-0.1628699,0.22984336,0.019153614,-9.289502,0.76874626,47.709274,-1.014112,-2.6052938,-3.5140624,-0.12659742,-0.20383365,-0.112132296,28.5,29.9375,28.875,32.6875,35.0625,36.1875
0.230052,1.5580206,0.7790229,-1.3835793,-0.02799016,0.031808574,-0.16828084,-0.40077114,-0.36347988,0.060011763,-3.0767555,0.6252725,0.00013315043,-0.097781606,0.048665453,-0.001208963,0.020539207,-0.012820206,-0.0066258116,0.48662156,-1.3699812,1.8893622,-2.08753,-1.5722741,2.4620862,-0.16181529,0.103765056,-0.13200405,0.048980344,-0.012514773,-0.15509343,0.095768064,0.019153614,-9.385271,0.7911258,47.70211,-0.9859196,-2.3182678,-3.310971,-0.15668857,-0.21135384,-0.18483831,28.5,29.9375,28.875,32.6875,35.0625,36.1875
0.23205203,1.8515859,0.2621172,-1.1582632,-0.026694294,0.04478411,-0.16609687,-0.40093505,-0.36338887,0.059993703,-3.0767019,0.625265,2.8292608e-05,-0.09845713,0.048975546,-0.001733535,0.021016993,-0.014702478,-0.013881782,0.48632148,-1.3697761,1.8891343,-2.0874217,-1.5722741,2.4617884,-0.16316266,0.106136575,-0.13400044,0.050496507,-0.012070379,-0.149184,0.076614454,0.019153614,-9.289502,0.8291774,47.696735,-0.92597127,-2.475041,-3.359025,-0.21172522,-0.20189506,-0.2794761,28.5,29.9375,28.875,32.6875,35.0625,36.1875
0.23405209,1.2104839,0.115793645,-1.4183137,-0.016065963,0.04930445,-0.167457,-0.4011444,-0.3632949,0.060009554,-3.076671,0.6252762,6.0648406e-05,-0.09982417,0.049613286,-0.00080683647,0.020582778,-0.013340589,-0.017990831,0.485998,-1.3695842,1.8888477,-2.0873253,-1.5723099,2.461476,-0.16522832,0.10561042,-0.13567594,0.05128629,-0.012329432,-0.14713943,0.15322891,0.19153613,-9.500193,0.84484416,47.71286,-1.1575655,-2.343566,-3.3576844,-0.22320482,-0.21143909,-0.33624482,28.5,29.9375,28.875,32.6875,35.0625,36.1875
0.23605205,1.0216786,0.07550367,-1.5737376,-0.028821295,0.06884167,-0.1792926,-0.40134665,-0.3631965,0.059995692,-3.0765996,0.6253592,-4.4657303e-05,-0.09963277,0.04870627,-0.00014242125,0.019175649,-0.013212428,-0.02172974,0.48565108,-1.3693321,1.8885487,-2.0871933,-1.5723094,2.4611902,-0.16418366,0.10526035,-0.13699737,0.052186906,-0.011159168,-0.14235778,0.21068975,0.22984336,-9.5385,0.9298854,47.70032,-1.1665871,-2.2650695,-3.340803,-0.25242817,-0.24524382,-0.43748134,28.5,29.9375,28.875,32.6875,35.0625,36.1875
0.23805219,0.34636748,-0.3858077,-1.5379158,-0.047916614,0.0716541,-0.16240369,-0.4015318,-0.36307463,0.059965134,-3.076479,0.6254678,-0.00014132628,-0.100220524,0.049977817,-0.0017662544,0.021121746,-0.016224215,-0.023079447,0.48530284,-1.3691026,1.8883203,-2.087086,-1.5723456,2.4609253,-0.16657867,0.108524606,-0.137371,0.05285879,-0.011498991,-0.14340034,0.17238252,0.19153613,-9.653421,0.88289046,47.701214,-1.1105905,-2.48981,-3.3988318,-0.28748053,-0.23099746,-0.5035256,28.5,29.9375,28.875,32.6875,35.0625,36.1875
0.24005222,0.78808486,-0.4746943,-1.862462,-0.06533703,0.090662,-0.18032746,-0.40172464,-0.3629862,0.059973642,-3.0764687,0.62549883,-0.00021015706,-0.10223258,0.050374657,-0.00061327434,0.019892748,-0.01314604,-0.017151622,0.48496705,-1.3689108,1.8880452,-2.0869668,-1.5723218,2.4606104,-0.16873863,0.10806895,-0.13924679,0.051882226,-0.011878375,-0.15148593,0.038307227,0.19153613,-9.710882,0.8247004,47.683304,-1.0556083,-2.2654421,-3.3732462,-0.31096286,-0.2391909,-0.48897684,28.5,29.9375,28.875,32.6875,35.0625,36.1875
0.24205223,0.71304613,-0.8133255,-2.024265,-0.06848949,0.09276589,-0.17287923,-0.40191436,-0.36286154,0.059960302,-3.076346,0.6254469,-0.0001942016,-0.10327841,0.051049687,-0.0013546962,0.020414123,-0.014498161,-0.007454636,0.48465472,-1.3687055,1.8878063,-2.0868585,-1.57243,2.4602816,-0.17082773,0.110567585,-0.14062375,0.05215928,-0.01174826,-0.16327074,0.038307227,0.2681506,-9.768343,0.8179876,47.684196,-0.97049594,-2.4744737,-3.390299,-0.33654732,-0.26658344,-0.38965657,28.5,29.9375,28.875,32.6875,35.0625,36.1875
0.24405228,-0.70543176,-2.159112,-1.9904742,-0.05765354,0.079572685,-0.15442146,-0.40212795,-0.3627753,0.05998207,-3.076336,0.6254568,-0.00021150548,-0.10444971,0.051794358,-0.00090043055,0.02085804,-0.01353397,0.0024770992,0.48431903,-1.3685014,1.8874835,-2.086727,-1.57243,2.4599535,-0.17250971,0.110686734,-0.14193606,0.052685443,-0.0126195615,-0.17488125,-0.15322891,0.3256114,-9.883265,0.8403672,47.685097,-0.9734857,-2.3212318,-3.3694892,-0.37866914,-0.24928464,-0.26774168,28.5,29.9375,28.875,32.6875,35.0625,36.1875
0.24605237,-0.549896,-1.4166005,-1.5935977,-0.085032426,0.113070846,-0.16333212,-0.40232107,-0.36269274,0.05996288,-3.0763047,0.6254267,-0.00028429716,-0.10726445,0.049874626,0.00065797294,0.017460344,-0.0075076595,0.009148696,0.48400798,-1.3682488,1.8872069,-2.0866444,-1.57243,2.4596279,-0.17181192,0.112314925,-0.14656326,0.048754767,-0.012462418,-0.18085256,-0.28730422,0.30645782,-9.825804,0.8537928,47.657326,-0.99887896,-2.3827217,-3.1781511,-0.36703742,-0.27226582,-0.19161281,28.5,29.9375,28.875,32.6875,35.0625,36.1875
0.24805255,-0.7216246,-0.8993432,-1.8024768,-0.081425704,0.13700914,-0.16912343,-0.40254274,-0.362585,0.059963144,-3.0762765,0.62539995,-0.00032057177,-0.10799744,0.04976606,0.00033724666,0.016877422,-0.006816228,0.009669333,0.4836366,-1.3680199,1.8869089,-2.0865371,-1.5724419,2.4592435,-0.17230797,0.11362652,-0.14703184,0.047019638,-0.012287031,-0.18186887,-0.4213795,0.3256114,-9.844957,0.8940802,47.71286,-1.0233481,-2.2960482,-3.3009057,-0.35386324,-0.26864004,-0.13881151,28.5,29.9375,28.875,32.6875,35.0625,36.1875
0.25005245,-0.7207589,-1.0402114,-1.7818846,-0.06603277,0.15730856,-0.16926663,-0.4027599,-0.36248538,0.059980277,-3.0762389,0.6253943,-0.00024822462,-0.10936069,0.049640134,0.00037784426,0.014928101,-0.0055959406,0.0040229186,0.4833125,-1.3678274,1.8866214,-2.0864542,-1.5725015,2.458921,-0.1739434,0.114746846,-0.14799738,0.044866752,-0.011130857,-0.17786099,-0.47884035,0.2681506,-9.844957,0.7620334,47.701214,-1.0191125,-2.392571,-3.193184,-0.34105808,-0.275033,-0.1737941,28.5,29.9375,28.875,32.6875,35.0625,36.1875
0.25205225,-1.7006888,-1.0039964,-1.7215188,-0.0540461,0.13735156,-0.1556319,-0.4029806,-0.36238617,0.059967667,-3.0761995,0.6254457,-0.00033615864,-0.11041102,0.049284074,0.0005757934,0.014171574,-0.004507505,-0.0033980443,0.48294166,-1.3675627,1.8863095,-2.0863464,-1.5724891,2.4585874,-0.1742886,0.11607397,-0.1498952,0.044132456,-0.010975252,-0.17078412,-0.6512228,0.19153613,-9.749189,0.79560274,47.70838,-1.160709,-2.4094326,-3.299292,-0.33415073,-0.31524813,-0.27428532,28.5,29.9375,28.875,32.6875,35.0625,36.1875
0.25405225,-0.69152373,-0.33639947,-1.563812,-0.046089754,0.14762343,-0.17000341,-0.40324014,-0.3623262,0.06001336,-3.0762944,0.6253118,-0.00018064262,-0.11209142,0.04908222,0.0010392038,0.012880983,-0.0011063219,-0.0062647583,0.48261788,-1.3673463,1.8859395,-2.086312,-1.5725015,2.458168,-0.17507905,0.11666147,-0.15096736,0.041005313,-0.011399944,-0.16870713,-0.6895301,0.19153613,-9.615114,0.80679786,47.685097,-1.2186664,-2.3504958,-3.2370553,-0.30299133,-0.30507255,-0.32312196,28.5,29.9375,28.875,32.6875,35.0625,36.1875
0.2560522,-0.73259497,-0.18025833,-1.3986338,-0.03918502,0.14220786,-0.16855879,-0.40345,-0.3622211,0.060010422,-3.0762465,0.62541705,-0.00017283241,-0.11441618,0.049694538,0.00029211686,0.012444455,0.00055495003,-0.00952918,0.48226976,-1.367141,1.8856877,-2.0862534,-1.5725259,2.457892,-0.17784534,0.11969842,-0.15211354,0.03743482,-0.011798228,-0.16820651,-0.7086837,0.15322891,-9.576807,0.8717007,47.709274,-1.2806135,-2.483628,-3.2513628,-0.26758087,-0.32813674,-0.36725998,28.5,29.9375,28.875,32.6875,35.0625,36.1875
0.25805235,-0.5795009,0.2381003,-1.4126706,-0.037107576,0.13742259,-0.18269779,-0.4036975,-0.36213186,0.06003204,-3.0762565,0.6253796,-8.088371e-05,-0.11572322,0.04959983,0.00041507493,0.012858178,0.0023116888,-0.009596181,0.48192254,-1.3669125,1.885352,-2.0861938,-1.5725621,2.4575202,-0.17801976,0.12136076,-0.15418547,0.03647375,-0.012979838,-0.16830984,-0.6512228,0.15322891,-9.461885,0.88960326,47.72719,-1.3645852,-2.4846103,-3.1950855,-0.23506469,-0.33027112,-0.38509718,28.5,29.9375,28.875,32.6875,35.0625,36.1875
0.26005226,-0.2003732,0.54663295,-1.285697,-0.0368878,0.13881363,-0.1849877,-0.40393472,-0.36200875,0.059997343,-3.0761507,0.62552404,-0.00013906414,-0.115293585,0.05014745,-0.0014337453,0.014664097,-0.0007383658,-0.003325893,0.48152727,-1.366611,1.8850545,-2.0861223,-1.5725979,2.457229,-0.17833894,0.1242726,-0.15347193,0.036365543,-0.013191548,-0.1748976,-0.51714754,0.038307227,-9.500193,0.8112748,47.7451,-1.3132604,-2.4920132,-3.3533282,-0.20755085,-0.31138408,-0.3402837,28.5,29.9375,28.875,32.6875,35.0625,36.1875
0.2620522,-0.25051162,0.19541089,-0.98871213,-0.033535562,0.13221397,-0.18167582,-0.40416506,-0.3619419,0.06003719,-3.0762239,0.6253591,-9.527435e-05,-0.11610072,0.04982143,0.00032169666,0.0132892,0.002797013,0.0068645594,0.48120385,-1.3664075,1.8846964,-2.0860145,-1.5725864,2.4567933,-0.17814422,0.121918656,-0.15460134,0.036059596,-0.013622428,-0.18489261,-0.6512229,-0.038307227,-9.404425,0.88960326,47.71554,-1.3846025,-2.488633,-3.3545246,-0.18956381,-0.3402552,-0.27988824,28.5,29.9375,28.875,32.6875,35.0625,36.1875
0.26405224,-0.3714315,0.49107802,-0.8025488,-0.041294616,0.12676428,-0.18330552,-0.40441748,-0.36185455,0.06004699,-3.0762377,0.6253746,2.3025215e-05,-0.116491124,0.050007984,-0.001671448,0.015083048,0.00015330437,0.017115762,0.4808558,-1.3661658,1.884385,-2.0860145,-1.5726222,2.4564533,-0.17847537,0.12670335,-0.15569426,0.03551172,-0.013998208,-0.19547366,-0.49799395,-0.019153614,-9.32781,0.8403672,47.70211,-1.4795451,-2.6565409,-3.3660634,-0.1489943,-0.3442426,-0.13869728,28.5,29.9375,28.875,32.6875,35.0625,36.1875
0.2660523,-0.24424076,0.45571285,-0.79630685,-0.00988049,0.11456773,-0.17526707,-0.40463173,-0.36173224,0.060005404,-3.0761557,0.625261,-8.857036e-05,-0.11791679,0.050874878,7.3779614e-05,0.01413198,0.0028345964,0.018361066,0.480483,-1.3658665,1.8840975,-2.0859067,-1.5726584,2.4560204,-0.18084154,0.12417893,-0.15687287,0.03638004,-0.014426502,-0.19908229,-0.30645782,-0.1340753,-9.346964,0.8291774,47.70032,-1.5349147,-2.4375272,-3.3359537,-0.115575455,-0.3455012,-0.07998243,28.5,29.9375,28.875,32.6875,35.0625,36.1875
0.26805237,0.106407985,0.8424275,-0.7178871,0.009348758,0.086003356,-0.16952355,-0.40487888,-0.36162433,0.060009073,-3.0761473,0.6253205,-2.5021433e-05,-0.119586855,0.05205422,-6.551628e-05,0.0144317085,0.0025232784,0.011834453,0.48009798,-1.3656377,1.8838099,-2.0858824,-1.5726823,2.4556737,-0.18412924,0.12573157,-0.15856303,0.03692892,-0.014540472,-0.19584273,-0.1340753,-0.17238252,-9.232041,0.8537928,47.707485,-1.3877633,-2.4243574,-3.365631,-0.09910892,-0.3456033,-0.06391633,28.5,29.9375,28.875,32.6875,35.0625,36.1875
0.27005246,0.6316466,0.79038376,-0.54283136,0.023993675,0.058672786,-0.16357356,-0.40515038,-0.36151105,0.0600353,-3.0761275,0.62532145,0.00011534081,-0.12137178,0.053740393,-0.00021837854,0.015432825,0.002480566,0.0011762495,0.47971264,-1.3654089,1.8834633,-2.0858223,-1.5727547,2.4552917,-0.1879079,0.12693597,-0.15979949,0.037458535,-0.015390035,-0.1889609,-0.19153613,-0.22984336,-9.097966,0.85826975,47.71286,-1.2900145,-2.5522704,-3.3581438,-0.09231587,-0.34958613,-0.1331385,28.5,29.9375,28.875,32.6875,35.0625,36.1875
0.27205247,0.81543165,0.657639,-0.5505011,0.03768288,0.03882986,-0.1661796,-0.4053901,-0.361409,0.060037892,-3.0760796,0.6253354,0.000117507036,-0.122134775,0.054579638,5.4412278e-05,0.0155325,0.0024621824,-0.0079216175,0.47935212,-1.3651448,1.8831171,-2.085714,-1.572791,2.4549463,-0.18984659,0.12678243,-0.16046512,0.038342953,-0.015464815,-0.18180099,-0.28730422,-0.19153613,-9.021352,0.90527004,47.741516,-1.3107603,-2.3508048,-3.3701212,-0.052962735,-0.33607227,-0.2410623,28.5,29.9375,28.875,32.6875,35.0625,36.1875
0.27405256,1.5704925,0.72063035,-0.79069406,0.051843584,0.04706804,-0.15998279,-0.40564105,-0.36131915,0.060050003,-3.0761044,0.6253637,0.00017258585,-0.12252659,0.05441994,0.00041536547,0.015953932,0.0025421805,-0.015467167,0.4789801,-1.3649042,1.8827933,-2.0856779,-1.572791,2.454589,-0.18957482,0.12747736,-0.16247045,0.039788727,-0.015858112,-0.17398249,-0.17238252,-0.19153613,-9.097966,0.85826975,47.737038,-1.2705117,-2.4683313,-3.29327,-0.036923543,-0.35127944,-0.32803726,28.5,29.9375,28.875,32.6875,35.0625,36.1875
0.27605262,0.7357444,0.7276335,-0.81001294,0.03101031,0.039004944,-0.16878225,-0.40590015,-0.36118957,0.06004861,-3.0760236,0.6254463,0.00019827203,-0.12405078,0.054879997,0.0006569127,0.015565676,0.0014103325,-0.021909269,0.47857127,-1.3646393,1.8824576,-2.085581,-1.5728511,2.4542422,-0.19211346,0.12946579,-0.16595168,0.04209591,-0.014994979,-0.17007986,-0.095768064,-0.21068975,-9.136273,0.88289046,47.71465,-1.2489482,-2.3277764,-3.1515503,-0.04167925,-0.36664274,-0.43942428,28.5,29.9375,28.875,32.6875,35.0625,36.1875
0.27805185,0.6262442,0.26440623,-0.6637622,0.0014607223,0.060563646,-0.17604297,-0.40612698,-0.36106223,0.060024254,-3.0759203,0.62550163,0.00013930947,-0.12458693,0.055302273,0.0025394077,0.015245756,0.003188041,-0.021471947,0.47818708,-1.3643641,1.8821591,-2.0854723,-1.5728987,2.453906,-0.19285928,0.1266349,-0.16745777,0.04469324,-0.015544921,-0.1712602,-0.15322891,-0.15322891,-9.021352,0.81351066,47.71554,-1.2664382,-2.192636,-3.252484,-0.04421353,-0.35161018,-0.4714923,28.5,29.9375,28.875,32.6875,35.0625,36.1875
0.28005186,0.427545,0.57334363,-0.5005637,-0.027818378,0.09118718,-0.1972947,-0.40636182,-0.36094904,0.060030553,-3.0758996,0.62552774,0.00010742874,-0.12566023,0.056019966,0.0029099914,0.015581578,0.0021852704,-0.0127608,0.47779056,-1.3641356,1.8818468,-2.085364,-1.5728987,2.4535286,-0.19499233,0.12757663,-0.17005612,0.047364816,-0.015405332,-0.18210363,-0.28730422,0.0,-9.078813,0.83813137,47.709274,-1.0449584,-2.2142472,-3.1724312,-0.04952927,-0.3678704,-0.4254164,28.5,29.9375,28.875,32.6875,35.0625,36.1875
0.2820518,0.08075337,0.42043823,-0.9490457,-0.036153313,0.11445339,-0.19563486,-0.40659896,-0.3608334,0.060041506,-3.0758364,0.62552685,0.000104306215,-0.12549907,0.05758225,0.0020632243,0.017365795,-0.0004769202,-0.00082317815,0.47741777,-1.363895,1.8815011,-2.0852191,-1.5729469,2.4531636,-0.19714063,0.1280411,-0.16910124,0.049085777,-0.015793838,-0.19618826,-0.21068975,0.095768064,-9.2703495,0.8672237,47.701214,-1.0977256,-2.0837507,-3.2596543,-0.06236135,-0.36363858,-0.3186668,28.5,29.9375,28.875,32.6875,35.0625,36.1875
0.2840519,-0.94720316,0.019734262,-1.2176744,-0.038731415,0.10903256,-0.1841813,-0.40686223,-0.3607176,0.06004286,-3.075823,0.6255602,5.8904196e-05,-0.12630093,0.058387015,0.001528254,0.01750522,-0.0028725094,0.0045776465,0.47698498,-1.3636181,1.881142,-2.0851114,-1.572935,2.4527535,-0.19966856,0.13004625,-0.17072344,0.050869904,-0.0148396045,-0.20411897,-0.1340753,0.095768064,-9.423578,0.8247004,47.698532,-1.1125754,-2.1657786,-3.201343,-0.08069122,-0.38921964,-0.20179304,28.5,29.9375,28.875,32.6875,35.0625,36.1875
0.28605184,-0.38222417,-0.48085424,-1.3791678,-0.041342698,0.12343681,-0.1801528,-0.4070875,-0.36058733,0.06001275,-3.0757143,0.6254395,-1.9571813e-05,-0.12741762,0.058670834,0.001746621,0.01743571,-0.0022931765,0.006662287,0.47661263,-1.3633177,1.8808182,-2.0849679,-1.5730065,2.45232,-0.20087947,0.13103957,-0.17248972,0.05106977,-0.015081551,-0.2074113,-0.40222588,0.1340753,-9.576807,0.8717007,47.713753,-1.1252865,-2.1049063,-3.246268,-0.07509725,-0.39857912,-0.12608865,28.5,29.9375,28.875,32.6875,35.0625,36.1875
0.28805193,-0.5987019,-1.0948975,-1.6111875,-0.03743853,0.11705149,-0.16798063,-0.40734658,-0.36049202,0.060030073,-3.0757241,0.6254063,4.383758e-05,-0.12800738,0.05840883,0.001459491,0.017669287,-0.0018811441,0.0021133304,0.47624078,-1.3630648,1.8804597,-2.0848963,-1.5730308,2.4519265,-0.20060293,0.13278946,-0.17380829,0.0503816,-0.015470429,-0.20258428,-0.63206923,0.17238252,-9.615114,0.82694155,47.694946,-1.1541593,-2.154453,-3.2555141,-0.07748842,-0.39172557,-0.18458974,28.5,29.9375,28.875,32.6875,35.0625,36.1875
0.29005197,-0.6028414,-0.5683162,-1.5953914,-0.054838043,0.12115605,-0.18056458,-0.40762064,-0.36035594,0.060045842,-3.075665,0.6254915,0.0001122358,-0.12738672,0.05752763,0.00080899143,0.018999295,-0.0026389845,-0.0019958136,0.47580978,-1.362824,1.8801135,-2.0848,-1.5730914,2.4515564,-0.19795458,0.13486822,-0.1749192,0.050697085,-0.016297437,-0.19582355,-0.57460845,0.13407528,-9.576807,0.8537928,47.707485,-1.3783433,-2.14893,-3.3091974,-0.057128727,-0.39932382,-0.23000246,28.5,29.9375,28.875,32.6875,35.0625,36.1875
0.29205194,-0.926626,-0.831681,-1.6576325,-0.048621427,0.12079378,-0.17775866,-0.40786824,-0.36024505,0.06003317,-3.0756109,0.6255186,4.586589e-05,-0.1269732,0.057021555,-0.00019967381,0.020588547,-0.00468429,-0.004258548,0.47541448,-1.3625226,1.879754,-2.0846798,-1.5731033,2.4511852,-0.19633724,0.1378225,-0.17646095,0.05183303,-0.016784282,-0.19193996,-0.38307226,0.13407528,-9.710882,0.8179876,47.675243,-1.581115,-2.1661532,-3.3592043,-0.07020239,-0.39235505,-0.3049432,28.5,29.9375,28.875,32.6875,35.0625,36.1875
0.29405224,-0.31437817,-0.21583757,-1.6220098,-0.046573155,0.123079546,-0.18970588,-0.4081252,-0.36013946,0.0600563,-3.0756233,0.62558013,6.075035e-05,-0.12804604,0.058212455,0.000963971,0.020017397,-0.003152711,-0.007961256,0.4750056,-1.362295,1.8794068,-2.084584,-1.5730914,2.4508133,-0.19904229,0.13565733,-0.17671551,0.052628364,-0.016974704,-0.19094242,-0.2681506,0.15322891,-9.80665,0.90750587,47.691364,-1.5143459,-2.2711313,-3.3182893,-0.06916806,-0.40362036,-0.38346738,28.5,29.9375,28.875,32.6875,35.0625,36.1875
0.29605225,-0.4985486,-0.07840081,-1.619786,-0.04898194,0.102198206,-0.19506715,-0.40837917,-0.3600258,0.06004152,-3.0755658,0.6255698,4.303625e-06,-0.12863283,0.060320415,-0.0016592134,0.02318202,-0.008126093,-0.009846078,0.47460818,-1.3619809,1.8790368,-2.0844643,-1.5731157,2.450417,-0.20264687,0.14033557,-0.17665501,0.053746432,-0.017534206,-0.19265868,-0.21068975,0.22984336,-9.768343,0.8985519,47.682407,-1.4452078,-2.4431758,-3.4511476,-0.0730319,-0.42656314,-0.3895143,28.5,29.9375,28.875,32.6875,35.0625,36.1875
0.2980523,0.41784334,-0.2305347,-1.5396272,-0.039795015,0.0981135,-0.19104531,-0.40867424,-0.35990912,0.060059167,-3.075537,0.6256154,0.00014363817,-0.12988186,0.061266765,-0.0019044095,0.024568664,-0.00904687,-0.0021686924,0.47419953,-1.3617041,1.8786539,-2.0844162,-1.5731877,2.4500408,-0.20469013,0.14241725,-0.17900755,0.055428203,-0.018362638,-0.20237663,-0.11492168,0.22984336,-9.595961,0.9298854,47.658226,-1.3715606,-2.3960767,-3.302525,-0.08894172,-0.39497203,-0.344108,28.5,29.9375,28.875,32.6875,35.0625,36.1875
0.3000521,1.0120044,0.38170853,-1.4743202,-0.03108275,0.08095627,-0.18976103,-0.40890962,-0.3597511,0.060039517,-3.0754356,0.62549406,5.090946e-05,-0.13135861,0.06309045,-0.0024482426,0.02627641,-0.010444669,0.006171006,0.47376636,-1.3614393,1.878343,-2.0842478,-1.5732483,2.4495451,-0.20836231,0.1443049,-0.1804013,0.056910675,-0.019300839,-0.21438253,-0.076614454,0.05746084,-9.653421,0.83813137,47.68062,-1.2904127,-2.4732392,-3.4115262,-0.09945282,-0.38819343,-0.21689808,28.5,29.9375,28.875,32.6875,35.0625,36.1875
0.3020522,0.96341735,0.25797313,-1.519343,-0.026152974,0.062185206,-0.18865341,-0.40920767,-0.35963902,0.060060732,-3.0754454,0.6255314,0.0001415903,-0.13132358,0.06450935,-0.0038376779,0.02918993,-0.013115987,0.010756617,0.47333404,-1.3611623,1.8779486,-2.0841873,-1.5732726,2.449135,-0.20973952,0.14636958,-0.1800384,0.05816573,-0.02068099,-0.22034174,-0.038307227,0.076614454,-9.576807,0.84708,47.65912,-1.3382463,-2.4620066,-3.507112,-0.11260116,-0.37654015,-0.09620811,28.5625,29.9375,28.875,32.6875,35.125,36.1875
0.30405217,1.1519223,0.121482134,-1.1239579,-0.032782715,0.061471753,-0.18225732,-0.40945208,-0.35951465,0.06005165,-3.0753834,0.62536675,0.000105601845,-0.13142842,0.064887896,-0.00472436,0.030967733,-0.016921993,0.007146726,0.4729498,-1.3608729,1.8775891,-2.0840418,-1.5733327,2.4486563,-0.21044429,0.14958403,-0.18274815,0.0618453,-0.020547656,-0.21743438,0.0,0.038307227,-9.461885,0.9254084,47.67166,-1.235788,-2.5551949,-3.630319,-0.14146939,-0.37421829,-0.09942393,28.5625,29.9375,28.875,32.6875,35.125,36.1875
0.3060522,0.7398688,0.32188746,-0.85725796,-0.03817328,0.048811667,-0.18266925,-0.4097521,-0.3593958,0.06008857,-3.0753899,0.6254315,0.00019958666,-0.13303155,0.06600685,-0.00219822,0.029040921,-0.013531088,-0.005134669,0.47250473,-1.3606226,1.8771833,-2.083946,-1.5733565,2.448251,-0.21369262,0.14541513,-0.18382123,0.06320007,-0.020356953,-0.20840356,-0.05746084,0.019153614,-9.32781,0.8717007,47.694946,-1.1699098,-2.396681,-3.6347404,-0.19681191,-0.3845409,-0.17513907,28.5625,29.9375,28.875,32.6875,35.125,36.1875
0.30805027,0.5259683,0.42151484,-1.0126386,-0.0289616,0.04507156,-0.17489092,-0.41001892,-0.35925665,0.060074266,-3.0752826,0.62545264,0.0001800042,-0.13498574,0.066084504,-0.0016410036,0.028261598,-0.012125792,-0.015229826,0.47208428,-1.3603104,1.8768114,-2.0838144,-1.573429,2.4478579,-0.2154189,0.14708285,-0.18714042,0.06324467,-0.020317918,-0.200032,-0.095768064,-0.076614454,-9.289502,0.8806493,47.723602,-1.10374,-2.4327579,-3.5098162,-0.20513849,-0.36611435,-0.27224106,28.5625,29.9375,28.875,32.6875,35.125,36.1875
0.31005225,1.209092,0.7454318,-0.8189276,-0.026763272,0.06983838,-0.18842456,-0.4102563,-0.35914993,0.060062792,-3.0752487,0.6254303,0.000102484315,-0.13633963,0.0669697,-0.0019130437,0.029042754,-0.013398821,-0.024467709,0.47169957,-1.360022,1.8764638,-2.0836942,-1.573429,2.4474638,-0.2178897,0.14938343,-0.18972574,0.06502961,-0.020444173,-0.19326209,-0.15322891,0.0,-9.251195,0.8806493,47.73614,-1.1069155,-2.399092,-3.3156662,-0.21694508,-0.38053063,-0.40253693,28.5625,29.9375,28.875,32.6875,35.125,36.1875
0.31205228,0.4331824,0.5546504,-0.8751755,-0.010152141,0.069263525,-0.17926316,-0.41054448,-0.35900924,0.060080543,-3.0751743,0.6255301,0.000114594535,-0.13640454,0.06754363,-0.001978346,0.030365067,-0.016054418,-0.02687634,0.47124335,-1.3597456,1.8760561,-2.0835369,-1.5734767,2.4470797,-0.21879075,0.1505889,-0.19195643,0.06900723,-0.020425608,-0.19175339,-0.19153613,-0.019153614,-9.155427,0.8224646,47.705692,-1.0871344,-2.4829247,-3.2531254,-0.2759667,-0.37996405,-0.4628737,28.5625,29.9375,28.875,32.6875,35.125,36.1875
0.31405237,0.15806174,0.3358683,-0.6337039,0.00618266,0.08274658,-0.18674347,-0.4108276,-0.35886437,0.060057152,-3.075066,0.6255986,0.000110192974,-0.13774176,0.06645924,-0.0006168913,0.028340837,-0.0114318775,-0.018296026,0.47079965,-1.3594103,1.8756851,-2.0834424,-1.5735487,2.446693,-0.2177794,0.1500208,-0.19381434,0.06635294,-0.020768618,-0.19931936,-0.21068975,-0.076614454,-9.136273,0.87393653,47.72002,-1.1687491,-2.2882833,-3.2663522,-0.28375798,-0.37205124,-0.4742981,28.5625,29.9375,28.875,32.6875,35.125,36.1875
0.3160524,0.2659578,0.3961939,-0.76715523,-0.0005881576,0.118033916,-0.18870616,-0.411096,-0.3587322,0.06005984,-3.0749927,0.62559265,5.3543183e-05,-0.13760145,0.06542826,0.00016834034,0.027903201,-0.010342019,-0.0035073338,0.47036833,-1.3591106,1.8752784,-2.0832627,-1.5735849,2.4462676,-0.21570225,0.14979978,-0.19553283,0.067071214,-0.020927131,-0.21202849,-0.2681506,-0.019153614,-9.097966,0.8851263,47.694946,-1.2741106,-2.224203,-3.2459493,-0.30604994,-0.37824082,-0.3909182,28.5625,29.9375,28.875,32.6875,35.125,36.1875
0.31805238,-0.7423088,-0.04357211,-0.6977129,-0.014530659,0.12770537,-0.18118542,-0.41136003,-0.35860583,0.06006656,-3.0749853,0.625509,3.2515556e-05,-0.13789497,0.065603234,4.1772655e-06,0.027788058,-0.010298498,0.008461902,0.4699359,-1.3588467,1.8749188,-2.083143,-1.5735968,2.445784,-0.21614817,0.1502897,-0.1956747,0.066585444,-0.020888021,-0.2244433,-0.47884035,0.095768064,-9.174581,0.8851263,47.709274,-1.488404,-2.2087638,-3.2085156,-0.32131255,-0.3686769,-0.23119776,28.5625,29.9375,28.875,32.6875,35.125,36.1875
0.32005224,-0.5391146,0.19434625,-0.80078185,-0.037000023,0.14540933,-0.1885255,-0.41161168,-0.35846695,0.06005047,-3.074902,0.6254327,-4.10435e-05,-0.13891253,0.06588029,-0.0013720433,0.028821288,-0.010921796,0.011444332,0.46951547,-1.3585458,1.8745588,-2.082988,-1.573645,2.445327,-0.21695355,0.15408924,-0.19677179,0.06487868,-0.021573326,-0.22822559,-0.38307226,0.076614454,-9.232041,0.8873621,47.72002,-1.4124866,-2.1783667,-3.1325474,-0.33111334,-0.36630917,-0.14244574,28.5625,29.9375,28.875,32.6875,35.125,36.1875
0.32205227,-0.72968125,-0.08564952,-0.9854647,-0.048275072,0.13098675,-0.17575511,-0.41191524,-0.35833296,0.06006278,-3.074866,0.62539077,-9.033493e-06,-0.14185803,0.0660098,0.0010570074,0.026568167,-0.0033889385,0.0037822102,0.46905923,-1.358235,1.8741277,-2.0828578,-1.5736936,2.4448495,-0.21869242,0.15180679,-0.19881837,0.0614722,-0.022979992,-0.22229627,-0.47884035,0.019153614,-9.404425,0.91421866,47.71465,-1.3765185,-2.079606,-3.2306435,-0.31774443,-0.34592056,-0.17594437,28.5625,29.9375,28.875,32.6875,35.125,36.1875
0.32405236,-1.0427828,-0.92586446,-1.0707262,-0.04405822,0.112996936,-0.1797347,-0.41217336,-0.3582,0.060059078,-3.0747821,0.6253757,-2.8495228e-05,-0.14269255,0.066251665,0.0013539938,0.027173968,-0.0016094355,-0.0030985158,0.4686513,-1.3579469,1.8737572,-2.0827138,-1.5737542,2.4444432,-0.21886502,0.15210956,-0.1997358,0.060775675,-0.024331545,-0.21558116,-0.45968673,0.0,-9.3661175,0.92093146,47.696735,-1.5689704,-2.158721,-3.2910447,-0.3132032,-0.32358694,-0.27034742,28.5625,29.9375,28.875,32.6875,35.125,36.1875
0.3260523,-0.76559895,-0.799284,-0.95919126,-0.06377399,0.11834517,-0.17467497,-0.41248757,-0.35808158,0.060069837,-3.0747867,0.62543726,1.5663289e-06,-0.14605859,0.06605573,0.0026244828,0.025390446,0.00462588,-0.00948254,0.46818316,-1.3576227,1.8733243,-2.0826318,-1.5737547,2.444013,-0.22051056,0.1531736,-0.20301282,0.056627348,-0.025560025,-0.21083707,-0.5554548,0.11492168,-9.3661175,0.8873621,47.696735,-1.5442576,-2.0530643,-3.2604573,-0.29381517,-0.3147228,-0.33693206,28.5625,29.9375,28.875,32.6875,35.125,36.1875
0.32805228,0.023687681,-0.18254454,-1.3071558,-0.0518616,0.11387268,-0.19116332,-0.41277474,-0.35792577,0.0600748,-3.0747123,0.62540215,4.982567e-05,-0.14764374,0.065888956,0.0023791315,0.023213755,0.0065597203,-0.0118965935,0.46772647,-1.3573467,1.8729542,-2.0825136,-1.5738381,2.4435444,-0.22209215,0.15476614,-0.2035619,0.052846257,-0.02450551,-0.21000758,-0.49799395,0.095768064,-9.557653,0.92764956,47.685097,-1.608443,-2.0195076,-3.37778,-0.23774503,-0.28127593,-0.3984983,28.5625,29.9375,28.875,32.6875,35.125,36.1875
0.33005232,-0.015861867,-0.28721887,-1.1442206,-0.03758527,0.110362336,-0.18783985,-0.41306597,-0.35780168,0.060070504,-3.0746567,0.6253683,7.46512e-05,-0.14791013,0.06671818,0.0012999645,0.02310568,0.0056334613,-0.007275034,0.46730527,-1.3570104,1.8725351,-2.0824063,-1.5738977,2.4431095,-0.2238713,0.15581095,-0.20199329,0.050966736,-0.02401533,-0.21641012,-0.4405331,0.038307227,-9.500193,0.88960326,47.703007,-1.3985088,-2.0093284,-3.4147854,-0.18320426,-0.2815678,-0.37691647,28.5625,29.9375,28.875,32.6875,35.125,36.1875
0.33205238,-0.45157185,-0.09728408,-1.1979946,-0.03574846,0.10267933,-0.18865392,-0.41337505,-0.35766226,0.060065977,-3.0745964,0.62542707,9.9313176e-05,-0.14898506,0.0687028,-0.0010276195,0.025962697,0.0009441513,0.0015173394,0.46683666,-1.3566729,1.8721174,-2.0823104,-1.5739464,2.4426856,-0.22768323,0.1609292,-0.20326939,0.052538127,-0.024491971,-0.22901124,-0.28730422,0.05746084,-9.481039,0.88960326,47.684196,-1.3011358,-2.2155766,-3.5249634,-0.18169314,-0.3001976,-0.26588354,28.5625,29.9375,28.875,32.6875,35.125,36.1875
0.33405232,-0.42720225,0.070151925,-1.2423671,-0.026357569,0.111979224,-0.17979822,-0.4136727,-0.35753953,0.060065843,-3.0745838,0.62540185,0.000120491226,-0.1519302,0.07008845,-0.00047083752,0.024983263,0.0034938334,0.0060124635,0.4663911,-1.3563493,1.8717092,-2.082227,-1.5739702,2.4422262,-0.23218386,0.16179325,-0.20525303,0.05089622,-0.024798393,-0.23800509,-0.28730422,0.05746084,-9.442732,0.88960326,47.713753,-1.1620424,-2.1087441,-3.4652982,-0.14890459,-0.25031644,-0.13202423,28.5625,29.9375,28.875,32.6875,35.125,36.1875
0.33605215,-0.7169163,-0.19267736,-1.4849894,-0.007997408,0.110057496,-0.18017031,-0.41395247,-0.35738483,0.06005084,-3.0745146,0.6253316,7.5250166e-05,-0.15353082,0.07081607,-0.0006959419,0.02432501,0.0044534327,0.0033500062,0.46592203,-1.3560371,1.8713378,-2.0820959,-1.5740184,2.4417224,-0.23470594,0.16316012,-0.20604037,0.049141087,-0.024667785,-0.23786305,-0.38307226,0.05746084,-9.576807,0.8717007,47.698532,-1.053901,-2.2413228,-3.4939237,-0.0998449,-0.26161003,-0.095079444,28.5625,29.9375,28.875,32.6875,35.125,36.1875
0.33805165,-0.13044883,0.35952553,-1.5543039,-0.028027968,0.12145525,-0.17744641,-0.41429737,-0.3572652,0.060091224,-3.0745447,0.6253424,0.00019385332,-0.15366206,0.07113217,-0.0013627401,0.025871962,0.0020895882,-0.0052675786,0.46544206,-1.3557242,1.8708471,-2.0819986,-1.5740422,2.4412456,-0.23499776,0.16558647,-0.20802951,0.051522207,-0.02495192,-0.2295372,-0.36391866,0.0,-9.615114,0.842603,47.696735,-1.1962444,-2.3359542,-3.4535294,-0.10509314,-0.24618731,-0.13447061,28.5625,29.9375,28.875,32.6875,35.125,36.1875
0.34005168,-0.70906013,-0.8601259,-1.1722649,-0.029392164,0.11042029,-0.16423427,-0.41459757,-0.3571122,0.060065076,-3.0744448,0.6253657,0.00018705176,-0.15436265,0.07138976,-0.0013464876,0.02695517,0.0018455317,-0.016213022,0.46497402,-1.3553641,1.8704509,-2.0819027,-1.5741147,2.4408052,-0.2353526,0.16709906,-0.21026501,0.052960075,-0.025804061,-0.21894088,-0.6512228,0.038307227,-9.500193,0.8717007,47.686886,-1.1763334,-2.370053,-3.3299894,-0.11103963,-0.22211689,-0.2560987,28.5625,29.9375,28.875,32.6875,35.125,36.1875
0.34205267,0.14418767,0.33707547,-1.2208151,-0.049241193,0.11785355,-0.18922114,-0.41491193,-0.35697675,0.060103957,-3.0744011,0.62543535,0.00033806072,-0.15439954,0.070923686,-0.0019289551,0.028050682,0.0010894648,-0.022643043,0.46453074,-1.3550997,1.8700198,-2.081795,-1.5741986,2.4404113,-0.2340662,0.16949525,-0.21197559,0.05344085,-0.026420258,-0.21122266,-0.45968673,-0.076614454,-9.595961,0.90750587,47.68062,-1.356066,-2.5175793,-3.4229488,-0.07105589,-0.20256102,-0.37986302,28.5625,29.9375,28.875,32.6875,35.125,36.1875
0.34405172,0.38940558,0.23105788,-1.3860642,-0.021525009,0.09680769,-0.18552211,-0.41521618,-0.35682875,0.060069736,-3.07432,0.6255165,0.0002674778,-0.15497535,0.071141206,-0.0017393716,0.027988326,0.0009998254,-0.026308853,0.46403855,-1.3547158,1.869613,-2.0816991,-1.5742224,2.4399805,-0.23480919,0.17009881,-0.21338575,0.054292094,-0.026339263,-0.20829785,-0.28730422,0.038307227,-9.710882,0.8940802,47.70211,-1.358881,-2.384587,-3.4151592,-0.06397324,-0.19257441,-0.5047252,28.5625,29.9375,28.875,32.6875,35.125,36.1875
0.34605184,0.03645893,-0.1827463,-1.1690096,-0.034630403,0.08806762,-0.18394238,-0.41552272,-0.35670575,0.060075212,-3.0742817,0.6255589,0.00029672362,-0.15572509,0.07065689,-0.0020584087,0.027861688,0.0002549136,-0.017417626,0.46359438,-1.3543787,1.8691696,-2.081591,-1.5742587,2.439568,-0.23472376,0.17285196,-0.21616788,0.054879572,-0.025925273,-0.21710409,-0.2681506,0.17238252,-9.442732,0.85826975,47.672558,-1.3985349,-2.569376,-3.4668584,-0.047601357,-0.18545114,-0.4835242,28.5625,29.9375,28.875,32.6875,35.125,36.1875
0.3480519,0.25362757,0.0066396333,-1.2398252,-0.032892223,0.08950626,-0.17718036,-0.41583642,-0.35653362,0.06005832,-3.0741796,0.6255483,0.0002997777,-0.15554416,0.07013197,-0.0020013128,0.027557703,-0.00042078487,-0.0018501608,0.46309066,-1.3540313,1.8687619,-2.0814707,-1.5743421,2.4390712,-0.23384213,0.17355326,-0.21740553,0.05579938,-0.025408858,-0.23179033,-0.22984336,0.17238252,-9.32781,0.9254084,47.657326,-1.411911,-2.2413037,-3.6270752,-0.017851038,-0.1758543,-0.36799812,28.5625,29.9375,28.875,32.6875,35.125,36.1875
0.3500517,0.10916676,0.089879535,-1.5142747,-0.018387517,0.079315275,-0.16863501,-0.41614226,-0.35640532,0.060069554,-3.0741627,0.62544304,0.00034199498,-0.15753731,0.07083132,0.0001851001,0.026223207,0.0023686036,0.0053256787,0.4626461,-1.353708,1.8683194,-2.081351,-1.5743903,2.4385633,-0.23648721,0.17161134,-0.22050072,0.0576874,-0.025492914,-0.24161047,-0.15322891,0.19153613,-9.500193,0.92093146,47.691364,-1.4655108,-2.313678,-3.4457698,-0.010384815,-0.16024701,-0.2030589,28.5625,29.9375,28.875,32.6875,35.125,36.1875
0.35205168,0.14574894,-0.1962272,-1.2167252,-0.027433453,0.089372054,-0.1703968,-0.4164762,-0.35626215,0.06009434,-3.074136,0.6254977,0.0004294394,-0.15918702,0.07130552,0.0012372871,0.02529381,0.002866787,0.0033218132,0.46215317,-1.3533962,1.8678621,-2.0812418,-1.5744385,2.4381082,-0.23886983,0.17199712,-0.22387712,0.059790503,-0.024882512,-0.2419916,-0.15322891,0.15322891,-9.404425,0.8403672,47.668976,-1.457902,-2.2411528,-3.3588276,-0.010543218,-0.13674775,-0.18680851,28.5625,29.9375,28.875,32.6875,35.125,36.1875
0.35405168,0.22159453,-0.23238502,-1.3176185,-0.020591429,0.07253324,-0.16944104,-0.41682103,-0.35611454,0.06010493,-3.0741057,0.6255737,0.00048608275,-0.15971304,0.07274517,0.00071347726,0.026522709,8.242593e-05,-0.0060162796,0.4616364,-1.3530482,1.8673962,-2.081145,-1.5744742,2.437643,-0.2416454,0.1733694,-0.22503375,0.06261816,-0.024721358,-0.23542982,-0.1340753,0.21068975,-9.346964,0.89631605,47.686886,-1.3591616,-2.2200065,-3.252326,-0.022551198,-0.12257719,-0.24889813,28.5625,29.9375,28.875,32.6875,35.125,36.1875
0.35605192,0.47983083,-0.29853806,-1.3589736,-0.020964377,0.06589601,-0.1715098,-0.4171214,-0.3559741,0.060074434,-3.073999,0.6255175,0.00043198897,-0.15943517,0.07381488,0.00040252478,0.028335849,-0.0032224634,-0.013024537,0.46119148,-1.3526404,1.8669404,-2.081,-1.5745462,2.4371772,-0.24295433,0.17410886,-0.22623123,0.06683752,-0.024880206,-0.22972731,-0.21068975,0.11492168,-9.346964,0.87393653,47.701214,-1.1846923,-2.2253852,-3.3451834,-0.05190059,-0.1301946,-0.34541628,28.5625,29.9375,28.875,32.6875,35.125,36.1875
0.3580518,1.0381122,0.21780887,-1.2702556,-0.046174187,0.07556641,-0.18468426,-0.41743907,-0.35581067,0.06008452,-3.0739155,0.6256174,0.00045600787,-0.16113001,0.07571405,0.0013129533,0.028741907,-0.003813451,-0.019133674,0.46068648,-1.3523289,1.8665088,-2.0808556,-1.5746063,2.4367456,-0.2473326,0.17374863,-0.2287005,0.07035825,-0.024987178,-0.22799492,-0.3256114,0.11492168,-9.385271,0.8851263,47.703903,-1.1337302,-2.152701,-3.4056244,-0.10969062,-0.11248624,-0.38772154,28.5625,29.9375,28.875,32.6875,35.125,36.1875
0.36005178,0.33748844,-0.1764937,-1.2447366,-0.03770397,0.05989499,-0.17725325,-0.4177635,-0.35566264,0.060105626,-3.0738556,0.6256782,0.00047816915,-0.16043845,0.075951785,0.00016901927,0.029517202,-0.008978245,-0.012940481,0.46019423,-1.3520043,1.8660306,-2.0806863,-1.5746535,2.4362993,-0.24793746,0.17638503,-0.23018898,0.07412733,-0.023411945,-0.23479855,-0.095768064,0.038307227,-9.2703495,0.89631605,47.696735,-1.195777,-2.32963,-3.4234984,-0.14660761,-0.09898536,-0.35776177,28.5625,29.9375,28.875,32.6875,35.125,36.1875
0.3620518,0.08475462,-0.03325254,-1.1582803,-0.030381188,0.06253643,-0.18120942,-0.41805595,-0.3555039,0.0600829,-3.0737543,0.6255926,0.00042256317,-0.15969594,0.07679142,-0.0012253703,0.030737523,-0.01392057,-0.0012543768,0.45972615,-1.3516438,1.8656114,-2.08053,-1.5747255,2.4357913,-0.24920318,0.1784398,-0.2302054,0.07697706,-0.022374349,-0.24775267,-0.15322891,0.05746084,-9.212888,0.8717007,47.70659,-1.1798302,-2.2444701,-3.3342724,-0.16162892,-0.12517208,-0.26724946,28.5625,29.9375,28.875,32.6875,35.125,36.1875
0.3640518,0.36928248,0.38093814,-0.92285544,-0.015381513,0.08252666,-0.17857604,-0.41841474,-0.355361,0.06010443,-3.073769,0.62559104,0.00044393516,-0.15979245,0.07738121,-0.0019035309,0.031055441,-0.017090607,0.006715127,0.45918542,-1.3512834,1.8650969,-2.0803974,-1.574725,2.435248,-0.25074065,0.18028335,-0.23148754,0.0793452,-0.02128625,-0.2572643,-0.22984336,0.038307227,-9.212888,0.8291774,47.68062,-1.1871687,-2.269664,-3.4126499,-0.22545084,-0.11342863,-0.1243741,28.5625,29.9375,28.875,32.6875,35.125,36.1875
0.36605597,0.22408988,0.63003266,-1.064817,0.0066848607,0.08062538,-0.16903797,-0.41871527,-0.35520473,0.060089614,-3.0737019,0.6255595,0.00038473035,-0.1609302,0.077583745,-0.0013515406,0.030056728,-0.016442332,0.00445762,0.45869333,-1.3509356,1.8646778,-2.0802538,-1.5747608,2.434745,-0.2522169,0.18072851,-0.23344189,0.0798129,-0.020711675,-0.25648344,-0.1340753,-0.076614454,-9.232041,0.84708,47.677036,-1.2218857,-2.287726,-3.4086661,-0.25004402,-0.11932166,-0.08902569,28.5625,29.9375,28.875,32.6875,35.125,36.1875
0.36805204,-0.20815012,0.78321695,-1.0114132,0.0005118254,0.06531729,-0.16985616,-0.41902113,-0.3550228,0.06006516,-3.0735836,0.62563545,0.00026614006,-0.16070041,0.07659585,-0.0006584496,0.028701361,-0.01591228,-0.0026683735,0.45815372,-1.3505762,1.8642582,-2.080074,-1.5747961,2.4342685,-0.25077987,0.18033785,-0.23474434,0.08044268,-0.019752732,-0.24792193,-0.36391866,-0.17238252,-9.232041,0.8851263,47.682407,-1.180839,-2.1129587,-3.4040356,-0.27480033,-0.13314034,-0.17406498,28.5625,29.9375,28.875,32.6875,35.125,36.1875
0.37005207,-0.5269413,0.07417536,-0.7403936,-0.009324155,0.07531544,-0.15499686,-0.41935232,-0.35490865,0.06006568,-3.0735724,0.62561965,0.00023194317,-0.16176502,0.07638562,-0.000209287,0.027279854,-0.0141418055,-0.014038466,0.45768574,-1.3501683,1.8637313,-2.079931,-1.5747961,2.4337924,-0.25143403,0.18071964,-0.23600079,0.07913385,-0.019252779,-0.23720722,-0.5363012,-0.038307227,-9.078813,0.91421866,47.71465,-1.3588583,-2.1527338,-3.4509416,-0.28015357,-0.13494328,-0.28539038,28.5625,29.9375,28.875,32.6875,35.125,36.1875
0.37205222,-0.007044002,0.50477076,-0.7971086,-0.024409615,0.098386034,-0.16772771,-0.4196748,-0.35472602,0.060065668,-3.0734239,0.62570924,0.0002147529,-0.16259745,0.07618693,-0.00011525592,0.027613519,-0.013858294,-0.022099447,0.4571689,-1.34982,1.863264,-2.079727,-1.5748924,2.433351,-0.25135452,0.18251559,-0.23859772,0.079830885,-0.019689703,-0.22906214,-0.38307226,-0.21068975,-9.059659,0.99031126,47.694054,-1.3294573,-2.2200627,-3.4432907,-0.30429798,-0.14065024,-0.42060992,28.5625,29.9375,28.875,32.6875,35.125,36.1875
0.3740522,0.70849484,0.41741124,-1.1572763,-0.008655861,0.11301078,-0.17016673,-0.42002273,-0.35457754,0.060078066,-3.0733821,0.6258513,0.00018323366,-0.16464601,0.0744159,0.0005684121,0.025056973,-0.0087440815,-0.018422607,0.45663014,-1.3494478,1.862748,-2.0795615,-1.5748924,2.4329066,-0.24988413,0.18456148,-0.24162237,0.07507317,-0.019692883,-0.2312668,-0.38307226,-0.114921674,-9.251195,0.9545008,47.70032,-1.4523811,-2.114685,-3.2707708,-0.28039703,-0.13759612,-0.47854295,28.5625,29.9375,28.875,32.6875,35.125,36.1875
