Tylouw/Master_Thesis_Code/training_data/batch_1/rect_rod_t0.3/sample_83_session_3.csv
timestamp[s],tcp_force_x[N],tcp_force_y[N],tcp_force_z[N],tcp_force_rx[Nm?],tcp_force_ry[Nm?],tcp_force_rz[Nm?],tcp_pose_x[m],tcp_pose_y[m],tcp_pose_z[m],tcp_pose_rx[rot_vec_x],tcp_pose_ry[rot_vec_y],tcp_pose_rz[rot_vec_z],tcp_velo_x[m/s],tcp_velo_y[m/s],tcp_velo_z[m/s],tcp_velo_rx[rot_vec_x/s],tcp_velo_ry[rot_vec_y/s],tcp_velo_rz[rot_vec_z/s],q1[rad],q2[rad],q3[rad],q4[rad],q5[rad],q6[rad],qd1[rad/s],qd2[rad/s],qd3[rad/s],qd4[rad/s],qd5[rad/s],qd6[rad/s],tool_acc_x,tool_acc_y,tool_acc_z,current_of_whole_robot[A],voltage_of_whole_robot[V],current_J1[A],current_J2[A],current_J3[A],current_J4[A],current_J5[A],current_J6[A],temp_J1[C],temp_J2[C],temp_J3[C],temp_J4[C],temp_J5[C],temp_J6[C]
1.3460522e-06,-0.29770076,-0.5199325,-0.045646217,-0.0074654864,-0.0010574402,0.013481837,-0.3893191,-0.36870477,0.060000055,-3.0786688,0.6249784,0.00017767315,-2.3729724e-05,1.4694862e-05,7.290391e-05,-0.00014947637,2.5225294e-05,-1.3285887e-05,0.50503284,-1.3816679,1.9042462,-2.0919034,-1.5708655,2.480061,-0.0001209607,-0.00015053565,-9.278425e-07,5.6611283e-05,0.000118741984,-0.00010787871,0.15322891,0.1340753,-8.7532015,0.7777002,47.696735,-0.19592774,-3.0453882,-2.2848155,-0.19464219,0.18125167,-0.012480501,28.5625,29.9375,28.9375,32.6875,35.125,36.25
0.002055169,0.09956824,-0.17029196,0.04624568,-0.0089695975,0.0117520895,0.0040394575,-0.38931206,-0.3687187,0.059999824,-3.0787177,0.62493116,0.00013178233,-0.001266359,-0.0006767952,-0.0005583362,-0.0032731304,0.0056476723,-4.8281167e-06,0.50503284,-1.3816679,1.9042476,-2.0919077,-1.5708174,2.4800253,-0.00011779441,-2.0196278e-06,0.0035597822,-0.010084489,0.00011618697,-0.00011352274,0.17238252,0.19153613,-8.676587,0.7239871,47.73077,-0.23046163,-3.032394,-2.2797544,-0.13347219,0.17621261,-0.021444017,28.5625,29.9375,28.9375,32.6875,35.125,36.25
0.004054537,-0.590081,-0.46399075,0.05745903,-0.0075707645,0.0016689686,0.0063955127,-0.38934058,-0.36871672,0.060003947,-3.0787263,0.6248938,0.0002500484,-0.0010307616,-0.0005479132,-0.0023774046,-0.0018520203,0.0030800356,3.851873e-06,0.50503284,-1.3816546,1.9042362,-2.0919673,-1.5708655,2.480001,-0.00011478997,0.0033705644,0.0038887197,-0.010851336,0.00011373966,-0.000118705124,0.13407528,0.17238252,-8.676587,0.7642693,47.72002,-0.24446876,-3.4186802,-2.6881979,-0.044220783,0.173123,-0.0057891486,28.5625,29.9375,28.9375,32.6875,35.125,36.25
0.006053572,-0.19523045,-0.09806418,0.02350345,0.0033068946,-0.0057931896,0.010882239,-0.3893198,-0.3687211,0.060004942,-3.0787392,0.62487733,0.00020948418,-0.00023010888,-0.00010324008,-0.00158219,-0.0005210675,0.0006977704,5.009282e-06,0.50504476,-1.3816792,1.9042596,-2.0919526,-1.5708417,2.480001,-0.00011193448,0.0019789925,0.0024660116,-0.005308211,0.00011139333,-0.00011723303,0.076614454,0.22984336,-8.63828,0.7553206,47.71823,-0.19691579,-3.2880626,-2.596754,-0.09201041,0.1771377,-0.03060668,28.5625,29.9375,28.9375,32.6875,35.125,36.25
0.008053076,0.5353813,1.1393186,-0.37213862,0.029628256,-0.009155197,-0.008590168,-0.38931823,-0.36870873,0.059980024,-3.078666,0.6249205,0.00012187804,-0.00033857345,-0.00016411515,-0.00036340457,-0.0004116444,0.0005116731,6.2381982e-06,0.50503284,-1.3816195,1.9042348,-2.091904,-1.5708536,2.4800253,-0.00010921769,0.00085793686,0.00020009914,-0.0017054225,0.000109141736,-0.000115384355,0.05746084,0.19153613,-8.714894,0.74413085,47.719128,-0.24241765,-3.285934,-2.4937983,-0.12086199,0.17648494,-0.016684938,28.5625,29.9375,28.9375,32.6875,35.125,36.25
0.010054372,0.34359023,1.2412387,-0.8682195,0.038719505,-0.019315561,-0.00079366105,-0.38930744,-0.36870715,0.059982277,-3.078671,0.6249407,0.00010963735,0.00029595292,0.00019692304,0.00037868088,0.00012649647,-0.00044287927,-7.485418e-06,0.50503284,-1.3816442,1.9042586,-2.091903,-1.5708417,2.4800372,-0.00012065367,-0.0010114338,2.6845855e-06,0.001457137,0.00010697953,-0.000113646114,0.076614454,0.24899697,-8.983045,0.6769922,47.716442,-0.7569482,-2.738645,-2.8144789,-0.1460867,0.15598351,-0.105684236,28.5625,29.9375,28.9375,32.6875,35.125,36.25
0.012054079,-0.5669412,-0.0077189696,-0.964967,0.008066674,-0.008991699,0.010035985,-0.38934913,-0.3687116,0.059998486,-3.0786803,0.6249604,0.00016224985,0.0008946909,0.00056599814,-0.00049111,0.0016353431,-0.0031594029,0.002772824,0.50500876,-1.3816075,1.9041756,-2.0918906,-1.5708536,2.4800243,-0.00018115624,0.00032579544,3.601714e-08,0.0032295426,0.00010490135,-0.0029544258,0.1340753,0.21068975,-9.078813,0.74413085,47.67166,-1.0058519,-2.7245066,-2.9524217,-0.14274229,0.16258454,-0.1530514,28.5625,29.9375,28.9375,32.6875,35.125,36.25
0.0140542835,-1.1647403,-0.56558555,-1.0897448,-0.031024726,0.0131580075,-0.0074484507,-0.38932323,-0.36868337,0.059968468,-3.0786166,0.6249481,7.212687e-05,-0.0030393833,0.0050650327,-0.005517499,0.0059655085,-0.010999397,0.00014558657,0.5049929,-1.3816038,1.9042343,-2.0918672,-1.5708655,2.4800088,-0.0114376405,0.011201718,-0.001260874,0.002569354,0.000102902246,-0.011581362,0.019153614,0.13407528,-9.251195,0.7105615,47.729877,-0.60086703,-3.2280774,-3.1454418,-0.13943721,0.15290831,-0.098681316,28.5625,29.9375,28.9375,32.6875,35.125,36.25
0.016053718,-1.7132801,-1.19788,-1.3210138,-0.0507086,0.036140636,-0.0037241927,-0.38932556,-0.3686772,0.05994142,-3.0785954,0.624941,3.0885105e-05,-0.0056485995,0.0045991093,-0.0034438423,0.0034531073,-0.0064738765,0.0047410536,0.5049803,-1.381556,1.9042448,-2.091891,-1.5708655,2.4799945,-0.013093352,0.010576225,-0.0050726994,0.0018294643,0.00010097796,-0.017831001,-0.24899697,0.19153613,-9.3661175,0.6658024,47.716442,-0.59107924,-3.2000837,-3.0529342,-0.1063632,0.17415547,-0.042582057,28.5625,29.9375,28.9375,32.6875,35.125,36.25
0.018054344,-1.4705387,-0.5413572,-1.1812158,-0.052930556,0.06959547,-0.04632098,-0.3893496,-0.3686874,0.059961837,-3.0786555,0.62495005,2.5928346e-05,-0.0056113084,0.0041087777,-0.0021209281,0.0022148578,-0.0042305067,0.010810293,0.5049449,-1.381557,1.9041966,-2.0918791,-1.5708174,2.479957,-0.012230011,0.008147384,-0.005216117,0.001839541,9.912445e-05,-0.023037221,-0.45968673,0.11492168,-9.385271,0.7911258,47.71286,-0.8012525,-2.9999752,-3.0813038,-0.10256536,0.14350417,0.00227082,28.5625,29.9375,28.9375,32.6875,35.125,36.25
0.020054061,-1.4043502,-0.02399389,-1.4928246,-0.0049178326,0.07978572,-0.061358526,-0.3893084,-0.36867633,0.059919544,-3.0785937,0.62480515,-7.9661506e-05,-0.00514565,0.005408089,-0.002924247,0.004313063,-0.008010211,0.009192495,0.50498,-1.3815207,1.9042443,-2.0918539,-1.5708417,2.4799097,-0.013981284,0.008893237,-0.0050398335,0.0052398606,9.7337615e-05,-0.023171019,-0.45968673,0.17238252,-9.576807,0.7530795,47.719128,-0.89729136,-2.8577962,-3.2405772,-0.13345614,0.15286747,-0.0011230276,28.5625,29.9375,28.9375,32.6875,35.125,36.25
0.022053761,-2.1230211,0.51409173,-1.7362713,0.023576593,0.056622457,-0.07347537,-0.38930404,-0.36866832,0.05989564,-3.0785606,0.62481993,-0.00019292263,-0.0057255095,0.00622299,-0.0035538152,0.0052785203,-0.009753552,0.0041739144,0.5049554,-1.381472,1.9042329,-2.0918171,-1.5708174,2.4798985,-0.015895316,0.010514704,-0.005773222,0.00634556,9.561405e-05,-0.020066034,-0.45968673,0.11492168,-9.730036,0.7620334,47.705692,-0.9197659,-2.8774986,-3.333148,-0.13582717,0.1424906,-0.05298006,28.5625,29.9375,28.9375,32.6875,35.125,36.25
0.024053467,-1.6865224,0.37049314,-1.7702543,0.023140091,0.07055027,-0.08928298,-0.3893227,-0.3686614,0.0598991,-3.0785813,0.62476814,-0.00020323777,-0.007869278,0.006421085,-0.0027448097,0.003957203,-0.007374391,-0.00017962522,0.5049189,-1.3814598,1.9042081,-2.0918062,-1.5708054,2.479827,-0.018233139,0.0111056175,-0.008086259,0.005346703,9.3950584e-05,-0.018049167,-0.6512228,-0.019153614,-9.787497,0.83813137,47.70211,-0.87047815,-2.8246546,-3.420151,-0.11891149,0.14002371,-0.087691054,28.5625,29.9375,28.9375,32.6875,35.125,36.25
0.026053991,-1.7547816,0.27467364,-1.7495409,0.007516906,0.0826115,-0.10793213,-0.38933593,-0.3686419,0.059885472,-3.0785613,0.6248409,-0.00027034178,-0.00941592,0.0057823965,-0.0025727511,0.0031517723,-0.0059338245,-0.0011582493,0.5048588,-1.381435,1.9042071,-2.0917943,-1.5707816,2.4798148,-0.018605433,0.013421347,-0.010968293,0.0042630727,9.234382e-05,-0.017441176,-0.7086837,-0.038307227,-9.691729,0.7553206,47.67793,-0.94417584,-2.8857327,-3.326968,-0.110915974,0.11946143,-0.08437365,28.5625,29.9375,28.9375,32.6875,35.125,36.25
0.028053679,-2.6426075,-0.32380298,-1.9358552,0.004287087,0.076935746,-0.11275747,-0.38933495,-0.36864218,0.05988117,-3.078527,0.6247963,-0.00026226792,-0.010113841,0.005807391,-0.0024230967,0.002956888,-0.005582754,-0.0027077848,0.50488245,-1.3814107,1.9041828,-2.0917704,-1.5708174,2.479815,-0.019300044,0.014094113,-0.012121818,0.0043417793,9.07913e-05,-0.01658568,-0.80445176,-0.076614454,-9.768343,0.7709874,47.713753,-0.9432069,-2.8826838,-3.3703718,-0.08777109,0.10811466,-0.10360486,28.5625,29.9375,28.9375,32.6875,35.125,36.25
0.030053385,-2.1604972,-0.06157795,-1.8713232,-0.014970675,0.096387684,-0.12356146,-0.38938624,-0.36859742,0.05986442,-3.0784628,0.62489957,-0.0002817828,-0.010694584,0.0063134315,-0.0029685858,0.0040767184,-0.007607414,-0.004741915,0.5047743,-1.3813498,1.9041461,-2.0917575,-1.5708417,2.4797795,-0.020693876,0.016272372,-0.013884875,0.006240001,8.928993e-05,-0.015944516,-0.7852981,-0.095768064,-9.80665,0.779936,47.719128,-1.0142902,-2.8547802,-3.3751233,-0.10584347,0.13271908,-0.12790474,28.5625,29.9375,28.9375,32.6875,35.125,36.25
0.03205407,-2.0984838,-0.23001534,-1.7741599,-0.0004096689,0.10042712,-0.1433915,-0.389406,-0.36860037,0.059863854,-3.0784898,0.6249439,-0.00030468364,-0.010749049,0.0066578137,-0.0027521441,0.004499065,-0.008363843,-0.005236031,0.50473815,-1.381326,1.9041218,-2.091769,-1.5708054,2.4797676,-0.021322459,0.0160643,-0.014519496,0.007949612,8.783757e-05,-0.016078934,-0.7469909,0.019153614,-9.730036,0.7284641,47.71465,-1.0007862,-2.8533413,-3.3516974,-0.11926702,0.113308564,-0.14751968,28.5625,29.9375,28.9375,32.6875,35.125,36.25
0.034053765,-2.1303718,0.027038844,-1.8162744,0.010382692,0.09241113,-0.1466049,-0.3894401,-0.36857718,0.059857287,-3.0784512,0.6249164,-0.00029714225,-0.011713595,0.0069369306,-0.0028416847,0.0043846993,-0.008162475,-0.005760715,0.5046898,-1.3812776,1.9040741,-2.0917451,-1.5708417,2.479707,-0.022692868,0.017176501,-0.015562121,0.007647773,8.6431675e-05,-0.016924025,-0.6895301,-0.019153614,-9.825804,0.7463667,47.723602,-0.9852403,-2.8813558,-3.399742,-0.09760138,0.09400526,-0.17290351,28.5625,29.9375,28.9375,32.6875,35.125,36.25
0.036054276,-2.303387,-0.17839074,-1.8390905,0.022170294,0.073112674,-0.15781638,-0.38945514,-0.36857992,0.05985324,-3.0784543,0.6249562,-0.0003358566,-0.013065898,0.0074283406,-0.0022952124,0.003434665,-0.0064490326,-0.006685963,0.50466514,-1.3812417,1.9040383,-2.0917337,-1.5708174,2.4797068,-0.024782263,0.016804304,-0.016137408,0.0066363374,8.5070045e-05,-0.018087888,-0.53630114,-0.019153614,-9.787497,0.78888994,47.694946,-0.9605503,-2.7222412,-3.4017196,-0.10027954,0.09062508,-0.17006454,28.5625,29.9375,28.9375,32.6875,35.125,36.25
0.038054038,-1.7198648,-0.043368157,-1.7429307,0.012582835,0.06771764,-0.1680269,-0.389488,-0.36855486,0.05984131,-3.0784283,0.62504745,-0.00034953718,-0.01493598,0.007823103,-0.0014014507,0.002409356,-0.0046025957,-0.0075201574,0.50459224,-1.3812056,1.9040254,-2.0917456,-1.5708174,2.4796941,-0.027192762,0.016899545,-0.01826714,0.006558639,8.375059e-05,-0.019663299,-0.47884035,-0.038307227,-9.864111,0.7620334,47.71017,-0.8988793,-2.8612475,-3.3555024,-0.08006643,0.11125225,-0.18088053,28.5625,29.9375,28.9375,32.6875,35.125,36.25
0.040053453,-1.0735071,0.09194813,-1.7487675,0.00082473306,0.065629646,-0.18666813,-0.3895212,-0.36852872,0.059842054,-3.0784025,0.62504137,-0.00033949674,-0.015345573,0.007918938,-0.0014865306,0.0025503384,-0.0048330086,-0.0069453595,0.5045324,-1.3811812,1.9039897,-2.0917218,-1.5708417,2.4796338,-0.027727155,0.017681314,-0.019061567,0.006840569,6.96376e-05,-0.020772045,-0.40222588,0.019153614,-9.730036,0.7777002,47.68599,-0.98690176,-2.7454455,-3.3676705,-0.08474322,0.076881126,-0.18290357,28.5625,29.9375,28.9375,32.6875,35.125,36.25
0.042054296,-0.96614045,-0.56724435,-1.6059631,0.0076423003,0.060121164,-0.19096439,-0.38954788,-0.3685283,0.05984685,-3.0784154,0.6250825,-0.00038881984,-0.016339287,0.008078367,-0.0007302712,0.0019063589,-0.0036690128,-0.0070659947,0.5044841,-1.3811454,1.9039282,-2.091686,-1.5708054,2.4796095,-0.028921127,0.017340308,-0.02047717,0.0072675613,6.775198e-05,-0.021844901,-0.28730422,0.019153614,-9.730036,0.7486078,47.652847,-0.95807606,-2.7445984,-3.296636,-0.07649601,0.09080008,-0.2123755,28.5625,29.9375,28.9375,32.6875,35.125,36.25
0.044053856,-0.6968563,-0.5402887,-1.7645096,0.006240392,0.051714957,-0.2090128,-0.38958892,-0.3685036,0.0598432,-3.0784016,0.62509954,-0.0003792102,-0.017240452,0.008660509,-0.0009518252,0.0023000352,-0.004383773,-0.0076344046,0.5044116,-1.3811089,1.9038934,-2.0916855,-1.5708174,2.4795494,-0.030740997,0.018655581,-0.021689354,0.007980074,6.669319e-05,-0.02309573,-0.19153613,0.11492168,-9.653421,0.7933669,47.71554,-0.92119676,-2.7957053,-3.2995076,-0.07450845,0.061893597,-0.21842137,28.5625,29.9375,28.9375,32.6875,35.125,36.25
0.04605395,-0.9859688,-0.7267541,-1.768917,0.008660412,0.023049733,-0.22098924,-0.3896473,-0.368498,0.059858773,-3.0784183,0.62512106,-0.00028269933,-0.01873709,0.0093383,-0.00063841086,0.0018532678,-0.0035525037,-0.008100668,0.50436276,-1.3810728,1.9038204,-2.091709,-1.5708417,2.479512,-0.03326851,0.01911142,-0.022899011,0.0077894237,5.3443397e-05,-0.025156368,-0.1340753,0.15322891,-9.557653,0.7553206,47.694946,-0.9356314,-2.6911192,-3.3674684,-0.067155,0.07407058,-0.24141131,28.5625,29.9375,28.9375,32.6875,35.125,36.25
0.048053883,-0.36333573,-1.0551409,-1.4645259,0.009544094,0.02640677,-0.22743961,-0.3896983,-0.36844885,0.05984752,-3.0783508,0.6252029,-0.0002880874,-0.019882089,0.009565543,0.00025494667,0.0010446629,-0.0020932197,-0.007526499,0.5042547,-1.3810248,1.9037842,-2.0916855,-1.5708774,2.4794636,-0.03471639,0.018550018,-0.024346448,0.008128673,5.1872492e-05,-0.02717795,-0.11492168,0.17238252,-9.500193,0.8314132,47.701214,-0.8629464,-2.6705613,-3.3492064,-0.06408686,0.06743608,-0.23008795,28.5625,29.9375,28.9375,32.6875,35.125,36.25
0.050054274,-0.67227095,-0.9676932,-1.7591629,0.0017233042,0.010792674,-0.19025555,-0.3897096,-0.36844927,0.05984276,-3.0783415,0.6251815,-0.00037045803,-0.02130394,0.010086413,0.0003469678,0.000956866,-0.0019209171,-0.0075236964,0.5042299,-1.3809763,1.9037241,-2.0916255,-1.5708536,2.4794266,-0.036913533,0.019830663,-0.026143607,0.008452252,3.9981227e-05,-0.029376974,-0.095768064,0.17238252,-9.481039,0.78888994,47.709274,-0.83773464,-2.6749413,-3.2620945,-0.051397875,0.058303803,-0.24482098,28.5625,29.9375,28.9375,32.6875,35.125,36.25
0.052054018,-0.4951355,-0.7263644,-1.7948257,3.6130823e-05,0.010784933,-0.17950356,-0.38977975,-0.36842814,0.059858967,-3.0783813,0.62522787,-0.0003109594,-0.022335637,0.010894417,0.00017801317,0.0011351875,-0.0022407891,-0.0075254487,0.50412136,-1.3809521,1.903664,-2.0916498,-1.5708417,2.479342,-0.03923059,0.020691136,-0.026817223,0.008631644,3.794666e-05,-0.03169188,0.038307227,0.17238252,-9.5385,0.779936,47.721813,-0.75761175,-2.6441073,-3.2666893,-0.06208294,0.05884939,-0.2231547,28.5625,29.9375,28.9375,32.6875,35.125,36.25
0.05405388,-0.538031,-0.71048003,-1.6754127,-0.005343018,0.006285737,-0.1759271,-0.38979733,-0.3683952,0.05985355,-3.0783513,0.62522113,-0.00036760324,-0.022454472,0.01074891,0.00036023583,0.0009954247,-0.0018544318,-0.0056863106,0.50404954,-1.38094,1.9036511,-2.0916016,-1.5708417,2.4792697,-0.039053373,0.020661274,-0.027197866,0.008636346,-2.9491137e-05,-0.033353526,0.05746084,0.19153613,-9.481039,0.77545905,47.71017,-0.76655674,-2.6838627,-3.2765942,-0.059433043,0.06469789,-0.25268203,28.5625,29.9375,28.9375,32.6875,35.125,36.25
0.056053437,0.09192652,-0.19035816,-1.4385309,-0.021430284,0.02590457,-0.19848,-0.38986653,-0.36837485,0.059853632,-3.0783405,0.62525606,-0.0003169687,-0.022872763,0.011017926,0.00035174002,0.0011275428,-0.002054125,-0.0053983075,0.5039655,-1.3808677,1.9035681,-2.091613,-1.5708655,2.479209,-0.03987945,0.021083158,-0.027765533,0.009019892,-4.8984562e-05,-0.034467313,0.076614454,0.22984336,-9.3661175,0.7642693,47.71823,-0.91074204,-2.6224737,-3.3354406,-0.058626495,0.048537575,-0.23724207,28.5625,29.9375,28.9375,32.6875,35.125,36.25
0.058053646,-0.34001568,-0.42314824,-1.5191756,-0.007928454,0.018721648,-0.18274492,-0.38993198,-0.36836085,0.059865717,-3.0783486,0.6253349,-0.0002736964,-0.024698446,0.011446894,0.0006434875,0.0006920559,-0.001242786,-0.006899195,0.5038808,-1.3808192,1.9034833,-2.091613,-1.5708655,2.4791725,-0.04229169,0.022496745,-0.030101847,0.009021752,-6.373177e-05,-0.035377465,0.095768064,0.21068975,-9.404425,0.7597976,47.72719,-0.82352614,-2.6301785,-3.293413,-0.059120655,0.04349737,-0.26658773,28.5625,29.9375,28.9375,32.6875,35.125,36.25
0.060053475,-0.7721786,-0.43057996,-1.5513804,2.1558812e-05,0.0037320748,-0.17990102,-0.38996404,-0.36835155,0.059887096,-3.078385,0.6252852,-0.00028398528,-0.025735967,0.0119117685,0.00092685584,0.00068274135,-0.0012015647,-0.007873295,0.50382036,-1.3808191,1.9034237,-2.0915654,-1.5708417,2.4790764,-0.044031527,0.023096051,-0.031664163,0.009944944,-7.667312e-05,-0.036142543,0.019153614,0.17238252,-9.519346,0.7620334,47.701214,-0.8013943,-2.5890858,-3.2236595,-0.052598026,0.031436034,-0.29018524,28.5625,29.9375,28.9375,32.6875,35.125,36.25
0.0620533,-0.24393262,-0.41821024,-1.4798195,0.0014084642,0.02102687,-0.18269634,-0.39003363,-0.36832428,0.059888627,-3.0783708,0.62533945,-0.00023244973,-0.026239473,0.01203763,0.0013186078,0.0005998895,-0.0010458982,-0.006865809,0.50372434,-1.380759,1.9033517,-2.0915763,-1.5708655,2.479016,-0.044705443,0.023137102,-0.032817308,0.010879583,-7.945371e-05,-0.037823565,-0.038307227,0.19153613,-9.385271,0.7016076,47.66987,-0.8318078,-2.5747523,-3.2664251,-0.04925804,0.03507551,-0.29486132,28.5625,29.9375,28.9375,32.6875,35.125,36.25
0.06405381,-0.8994564,-0.6230812,-1.5455008,0.009370114,0.020475589,-0.17597605,-0.39005435,-0.36828732,0.05985298,-3.0783277,0.6253299,-0.00037077192,-0.026954973,0.012635696,0.0013303417,0.0013420051,-0.00088906515,-0.0075249416,0.50362825,-1.3806868,1.9033393,-2.0915406,-1.5708421,2.4789195,-0.045922108,0.023629606,-0.03352807,0.011322109,-0.00080961536,-0.038379382,-0.095768064,0.21068975,-9.32781,0.8112748,47.70838,-0.88475645,-2.5638556,-3.2243586,-0.06263112,0.029343165,-0.31176305,28.5625,29.9375,28.9375,32.6875,35.125,36.25
0.06605403,-0.9330992,-0.4827637,-1.4504707,0.011046648,0.03691227,-0.1782773,-0.39011687,-0.36828342,0.059898715,-3.0783935,0.6253232,-0.00028358473,-0.027486086,0.013074556,0.0011772583,0.001841176,-0.0018740674,-0.00608752,0.5035559,-1.3806984,1.9032434,-2.0915163,-1.5708302,2.4788346,-0.047175888,0.024643386,-0.034652706,0.012536472,-0.0007689922,-0.04107023,-0.11492168,0.15322891,-9.3661175,0.73741806,47.72002,-0.8581707,-2.603294,-3.3019986,-0.07290253,0.026688397,-0.3031385,28.5625,29.9375,28.9375,32.6875,35.125,36.25
0.068053834,-0.53456616,0.014754842,-1.3132946,0.0007916202,0.05563347,-0.18616287,-0.39019287,-0.36823985,0.05989163,-3.0783598,0.62545,-0.0002983455,-0.028120723,0.013473121,0.0011903123,0.0019462748,-0.0020589072,-0.0053373473,0.50341165,-1.3806262,1.9031714,-2.0915043,-1.5708302,2.4787738,-0.048428275,0.025178015,-0.035416078,0.012977477,-0.00077410985,-0.043072425,-0.21068975,0.05746084,-9.385271,0.7553206,47.72002,-0.88037455,-2.5933008,-3.2202764,-0.07332196,0.017416628,-0.32017416,28.5625,29.9375,28.9375,32.6875,35.125,36.25
0.07005356,-1.6481488,-0.71754134,-1.4627984,0.01590515,0.040845312,-0.16341504,-0.39023286,-0.3682211,0.059889417,-3.0783775,0.62537706,-0.0003522698,-0.029025199,0.013680957,0.0010884372,0.0019444401,-0.0021150545,-0.0066641597,0.5033276,-1.3805777,1.9031109,-2.091468,-1.5708059,2.478642,-0.04963322,0.026480066,-0.036741085,0.013049643,-0.0007493701,-0.042949848,-0.2873042,0.095768064,-9.3661175,0.7486078,47.72719,-0.9027717,-2.580914,-3.2576938,-0.06283538,0.022049293,-0.32629198,28.5625,29.9375,28.9375,32.6875,35.125,36.25
0.07205414,-0.9833293,-0.5668318,-1.3000321,0.019135598,0.06998615,-0.18028954,-0.3902841,-0.36817402,0.059871107,-3.0782955,0.62536055,-0.0003903479,-0.030737476,0.014713263,0.0013491826,0.0017255179,-0.0017950842,-0.0077309874,0.5032306,-1.3804934,1.9030393,-2.091408,-1.5708541,2.4785452,-0.05298183,0.02713026,-0.038200665,0.013470539,-0.00071853446,-0.04523099,-0.34476504,-0.038307227,-9.423578,0.8090337,47.729877,-0.8120697,-2.5747547,-3.2670178,-0.08551106,0.0049215984,-0.3620363,28.5625,29.9375,28.9375,32.6875,35.125,36.25
0.0740539,-1.2621847,-0.29875493,-1.2871387,0.023294196,0.07127461,-0.17683016,-0.39036193,-0.36815795,0.059903722,-3.0783246,0.6254592,-0.00033065476,-0.030116519,0.013843839,0.0011622407,0.0019098278,-0.0021237694,-0.0027092367,0.5031236,-1.3804692,1.9029311,-2.0913842,-1.5708421,2.478496,-0.050930195,0.027911251,-0.03872661,0.013592367,-0.00072111,-0.048200816,-0.4213795,-0.076614454,-9.385271,0.800085,47.72002,-0.88941866,-2.552142,-3.23897,-0.07753974,0.008111436,-0.33627877,28.5625,29.9375,28.9375,32.6875,35.125,36.25
0.07605409,-1.4803476,0.14827842,-1.2891983,0.01398742,0.07263421,-0.17541844,-0.3904194,-0.36812788,0.05988651,-3.0783048,0.6254348,-0.0003471676,-0.031268954,0.0146641005,0.0012224563,0.0019403552,-0.0021203794,-0.0006055434,0.5030268,-1.3803848,1.9028705,-2.0913842,-1.5708541,2.4783866,-0.05335825,0.028468855,-0.03959899,0.013917666,-0.000753966,-0.05273208,-0.38307226,-0.038307227,-9.32781,0.7105615,47.71823,-0.95714796,-2.512448,-3.2807522,-0.07880275,0.0042842636,-0.3159265,28.5625,29.9375,28.9375,32.6875,35.125,36.25
0.07805356,-1.26275,0.1348149,-1.3400706,0.019670296,0.0726472,-0.17428593,-0.39046732,-0.36810884,0.05989631,-3.0783098,0.6253762,-0.00038884967,-0.032359254,0.015011723,0.0012374785,0.0018309588,-0.0019826894,0.0003066926,0.5029426,-1.3803364,1.9027747,-2.0913122,-1.5708421,2.4782653,-0.054969016,0.029587472,-0.040976398,0.014003202,-0.00072994904,-0.055254385,-0.4405331,-0.095768064,-9.212888,0.7239871,47.686886,-0.92638636,-2.5180867,-3.260541,-0.088588074,-0.0060137063,-0.2732711,28.5625,29.9375,28.9375,32.6875,35.125,36.25
0.08005407,-1.61211,-0.11905537,-1.2653105,0.020565486,0.059303842,-0.16644986,-0.39053658,-0.36807087,0.059879616,-3.0782924,0.6253743,-0.00039247161,-0.03381444,0.01619426,0.001019289,0.0020790766,-0.0024057478,-0.0022881187,0.5028216,-1.380252,1.9027156,-2.0913246,-1.5708541,2.4781454,-0.058297187,0.03070404,-0.041861147,0.01426086,-0.0007461828,-0.055987198,-0.51714754,0.019153614,-9.3661175,0.7553206,47.72719,-0.8218386,-2.5406327,-3.195872,-0.0914439,-0.025053805,-0.29362035,28.5625,29.9375,28.9375,32.6875,35.125,36.25
0.08205368,-1.155333,-0.36376026,-1.3707571,0.02334348,0.06637606,-0.16540363,-0.3906145,-0.36804062,0.059896633,-3.078325,0.62537634,-0.0003620313,-0.033730824,0.015177897,0.0014848072,0.0018512843,-0.0014512409,0.004059384,0.50269073,-1.3802158,1.9026312,-2.0913122,-1.5708421,2.4780116,-0.056335304,0.031055398,-0.04338937,0.014492469,-0.0010095028,-0.060371693,-0.47884035,-0.05746084,-9.346964,0.7642693,47.72719,-0.91922855,-2.4926052,-3.2446365,-0.0963045,-0.03838802,-0.27644426,28.5625,29.9375,28.9375,32.6875,35.125,36.25
0.08405335,-0.9529498,-0.21355522,-1.3970094,0.019214982,0.08152219,-0.1700004,-0.39068767,-0.36802372,0.05991731,-3.0783515,0.62528425,-0.0003483501,-0.0343183,0.016003665,0.0010594581,0.0027022194,-0.0025232846,0.006443611,0.5025941,-1.3801553,1.9024991,-2.091252,-1.5708421,2.4778543,-0.05812045,0.032102037,-0.043828785,0.015234772,-0.0012392644,-0.06454038,-0.51714754,-0.114921674,-9.461885,0.7530795,47.73077,-0.9834176,-2.511615,-3.2560754,-0.101993345,-0.04030949,-0.21310917,28.5625,29.9375,28.9375,32.6875,35.125,36.25
0.08605364,-1.1551102,0.098459415,-1.3827752,0.014304503,0.070261635,-0.16526584,-0.390765,-0.36797175,0.059905794,-3.0783143,0.6253325,-0.00033936428,-0.035305317,0.01700651,0.0011429717,0.0035679196,-0.0022200882,0.0076907217,0.5024498,-1.3800832,1.90244,-2.091252,-1.5708665,2.4777448,-0.060151964,0.032329027,-0.04440221,0.01573343,-0.0021468147,-0.067817055,-0.36391866,-0.11492168,-9.442732,0.8157518,47.71554,-0.96175754,-2.5651865,-3.3477387,-0.11915162,-0.033388477,-0.18573597,28.5625,29.9375,28.9375,32.6875,35.125,36.25
0.08805319,-0.6809725,-0.21116655,-1.3244935,0.016550865,0.081595786,-0.17212579,-0.39082375,-0.36794367,0.05990924,-3.0783198,0.6253713,-0.00043264046,-0.036373027,0.016817674,0.0011639086,0.0031966444,-0.0017391904,0.009535873,0.50231785,-1.3800225,1.9023441,-2.09118,-1.5708183,2.4776363,-0.060872994,0.03397101,-0.046320986,0.015412347,-0.0020620455,-0.07038225,-0.38307226,0.0,-9.423578,0.7351769,47.666286,-0.9441321,-2.496181,-3.2224786,-0.1447751,-0.039650355,-0.14906253,28.5625,29.9375,28.9375,32.6875,35.125,36.25
0.09005398,-1.2888972,-0.63737917,-1.4066889,0.011459901,0.058005374,-0.16179913,-0.3909155,-0.36790538,0.059917524,-3.078327,0.6253132,-0.00032597865,-0.03759884,0.016728356,0.0011600729,0.0024901638,-0.00089972833,0.010617598,0.50219774,-1.3799621,1.9022592,-2.0912044,-1.570866,2.4774792,-0.061984375,0.035451606,-0.047826372,0.014356534,-0.0018504554,-0.072574906,-0.38307226,-0.038307227,-9.385271,0.76874626,47.72002,-0.9891281,-2.5455325,-3.1547916,-0.14937961,-0.058419067,-0.12782201,28.5625,29.9375,28.9375,32.6875,35.125,36.25
0.0920537,-1.369521,-0.6992729,-1.4568595,0.0020650458,0.05120336,-0.16466734,-0.39097974,-0.367874,0.059902143,-3.0783048,0.6252691,-0.0004117358,-0.037017033,0.01731444,-3.846841e-05,0.0034617358,-0.0030467683,0.011978375,0.5020777,-1.3798536,1.9021524,-2.0911448,-1.5708541,2.4773345,-0.06253344,0.036432657,-0.046205975,0.014104424,-0.0016715163,-0.074485466,-0.22984336,0.038307227,-9.32781,0.7665104,47.71286,-1.0127928,-2.569902,-3.3633885,-0.14761755,-0.056915052,-0.0851503,28.5625,29.9375,28.9375,32.6875,35.125,36.25
0.094055764,-0.93727326,-0.20071366,-1.4783356,-0.009883959,0.046390656,-0.16944855,-0.39108285,-0.36783907,0.059933558,-3.0783086,0.62523144,-0.00033144763,-0.038424235,0.017452698,0.00044228105,0.002879787,-0.0017581447,0.010685883,0.5019456,-1.3797933,1.901996,-2.0910852,-1.5708903,2.4771786,-0.06399128,0.037127934,-0.048068766,0.013859758,-0.0017839059,-0.07464977,-0.11492168,0.11492168,-9.442732,0.7463667,47.71465,-1.0890602,-2.6322958,-3.3037052,-0.15023586,-0.082503565,-0.07497228,28.5625,29.9375,28.9375,32.6875,35.125,36.25
0.09605403,-0.008332161,-0.061021525,-1.3514279,-0.008394348,0.05773788,-0.17824988,-0.3911349,-0.367801,0.059903577,-3.0782871,0.62518924,-0.00041645908,-0.03972615,0.01749926,0.0012746959,0.002113756,-8.492817e-05,0.008933146,0.50182545,-1.3796972,1.9019479,-2.0910728,-1.5708779,2.4770348,-0.06518352,0.03711224,-0.049965784,0.013938418,-0.0019257095,-0.07408814,-0.095768064,0.15322891,-9.442732,0.779936,47.684196,-1.078023,-2.611578,-3.256648,-0.15491563,-0.06905437,-0.06153439,28.5625,29.9375,28.9375,32.6875,35.125,36.25
0.09805427,-0.3388879,-0.18364957,-1.6561283,-0.0030710644,0.04309326,-0.17169492,-0.3912239,-0.36777413,0.05992275,-3.0783045,0.6251728,-0.00036006712,-0.041351147,0.017499277,0.0011711154,0.0027666253,0.0009829655,0.0076452475,0.5017055,-1.3796363,1.9018267,-2.091049,-1.5708908,2.4769025,-0.0660025,0.039725862,-0.05271419,0.013453821,-0.0030160435,-0.07361561,-0.1340753,0.22984336,-9.346964,0.8157518,47.686886,-1.1329136,-2.6366248,-3.1237626,-0.16682093,-0.07366163,-0.06652422,28.5625,29.9375,28.9375,32.6875,35.125,36.25
0.10005441,-0.49208316,-0.2898087,-1.6786556,-0.0009425523,0.033271044,-0.17406659,-0.39129883,-0.36772877,0.0599137,-3.0783145,0.6251771,-0.0004276787,-0.041448694,0.018692788,0.0007010375,0.004155458,6.892835e-05,0.0047435854,0.50153726,-1.3795643,1.9017566,-2.091025,-1.570855,2.4767356,-0.06760636,0.039649323,-0.051671613,0.013962175,-0.0037922915,-0.0723167,-0.076614454,0.22984336,-9.346964,0.7933669,47.694054,-1.121104,-2.547947,-3.2231984,-0.17774752,-0.06822591,-0.0636535,28.5625,29.9375,28.9375,32.6875,35.125,36.25
0.102054246,-0.086982064,-0.24972607,-1.5569357,-0.016396865,0.03886292,-0.1811177,-0.39140287,-0.3676712,0.059910014,-3.07827,0.625168,-0.00036677552,-0.04204871,0.019522136,0.00028487013,0.0051339786,-0.0005407903,0.001791074,0.50138116,-1.379468,1.9016484,-2.0910132,-1.5709151,2.4765797,-0.069194235,0.040571004,-0.051885106,0.014256438,-0.0043567237,-0.07095076,-0.019153614,0.21068975,-9.404425,0.7486078,47.69763,-1.1120372,-2.5886273,-3.35754,-0.18523113,-0.06425588,-0.08936176,28.5625,29.9375,28.9375,32.6875,35.125,36.25
0.10405608,-0.52597713,-0.87868583,-1.6157279,-0.021952258,0.025944317,-0.1748942,-0.39144754,-0.36763138,0.059890624,-3.0782156,0.62515885,-0.00046791724,-0.043636244,0.019670678,0.00078594655,0.0053338115,0.0006745907,-0.0012930972,0.5012729,-1.3793833,1.9015759,-2.0909407,-1.5709156,2.4764726,-0.07043218,0.041887436,-0.05470846,0.01479626,-0.005126182,-0.069101304,-0.038307227,0.24899697,-9.3661175,0.7642693,47.728977,-1.1330913,-2.5688233,-3.2114925,-0.19936696,-0.057740368,-0.112929836,28.5625,29.9375,28.9375,32.6875,35.125,36.25
0.10605419,-0.04505486,-0.72983545,-1.5442507,-0.029231861,0.034563806,-0.1688946,-0.3915435,-0.36761525,0.05991786,-3.0782516,0.6250896,-0.00039862574,-0.044846583,0.020729097,0.0010398559,0.006882945,0.001693668,-0.004283668,0.50116444,-1.3793111,1.9014205,-2.090905,-1.570928,2.4763165,-0.07217216,0.042183254,-0.05578158,0.015429766,-0.006971564,-0.06784686,-0.05746084,0.2873042,-9.385271,0.79560274,47.72808,-1.1043487,-2.6356049,-3.213521,-0.20314209,-0.04870477,-0.16515318,28.5625,29.9375,28.9375,32.6875,35.125,36.25
0.108054064,-0.7201937,-0.5216505,-1.6389779,-0.021630676,0.025958112,-0.16905907,-0.3916645,-0.36756033,0.059920393,-3.0782392,0.62522227,-0.0003694608,-0.045994893,0.022179699,0.0009948468,0.010044082,0.0031749376,-0.0060896245,0.5009606,-1.3792149,1.9013008,-2.090905,-1.5709294,2.476197,-0.07348951,0.04266802,-0.056319695,0.015713481,-0.010454748,-0.06735128,-0.076614454,0.2681506,-9.461885,0.77545905,47.660015,-1.174982,-2.5645866,-3.2445054,-0.21466538,-0.020952042,-0.17175224,28.5625,29.9375,28.9375,32.6875,35.125,36.25
0.110053934,-1.3707622,-0.47927946,-1.6780424,-0.017627303,0.023288397,-0.16920133,-0.3917478,-0.36752152,0.059905756,-3.0782075,0.6251966,-0.0003493733,-0.046648633,0.022670051,0.0005231008,0.011413024,0.0028922295,-0.007678815,0.5008406,-1.3791063,1.9012054,-2.0909045,-1.5709656,2.4760652,-0.074244566,0.044293534,-0.057213522,0.015887568,-0.011522093,-0.06651429,0.019153614,0.24899697,-9.500193,0.7284641,47.741516,-1.1508833,-2.5663426,-3.287694,-0.22427532,0.03369474,-0.20891926,28.5625,29.9375,28.9375,32.6875,35.125,36.25
0.11205341,-1.3308067,-0.41201037,-1.4990976,-0.01587018,0.036050797,-0.16532792,-0.39182982,-0.36746967,0.05990876,-3.0781806,0.62517,-0.00037960103,-0.04727152,0.02270482,1.6816086e-05,0.011551354,0.0021598872,-0.006981517,0.5006847,-1.3790334,1.9010962,-2.090833,-1.5709776,2.4758961,-0.07500826,0.046263464,-0.058372036,0.015781207,-0.011298272,-0.067974545,-0.095768064,0.24899697,-9.385271,0.8112748,47.70838,-1.2192476,-2.709117,-3.2709193,-0.22949722,0.05424749,-0.24640138,28.5625,29.9375,28.9375,32.6875,35.125,36.25
0.11405349,-1.2625674,-0.3824034,-1.5470057,-0.010984981,0.035204384,-0.1714252,-0.39192778,-0.36744738,0.05991373,-3.0782075,0.62517637,-0.00039062454,-0.048092823,0.02201244,0.001746451,0.007722198,0.0043394007,-0.00747397,0.50054055,-1.3789263,1.9009527,-2.090809,-1.5709523,2.4757526,-0.07602482,0.043945026,-0.059497606,0.015466973,-0.008987945,-0.068503335,-0.095768064,0.21068975,-9.481039,0.800085,47.73077,-1.27297,-2.4560356,-3.2359877,-0.23422623,0.040091727,-0.25278983,28.5625,29.9375,28.9375,32.6875,35.125,36.25
0.11605369,-0.774643,-0.6225687,-1.7078016,-0.008511538,0.03663589,-0.17051466,-0.39202422,-0.3673872,0.05992682,-3.0781767,0.6252281,-0.00034210854,-0.049176157,0.021928165,0.0014927195,0.004678701,0.0026546568,-0.011441985,0.50037193,-1.3788774,1.9008569,-2.0907729,-1.5709876,2.4756203,-0.07903753,0.045550458,-0.06074251,0.015108126,-0.0055115693,-0.06755429,-0.11492168,0.1340753,-9.423578,0.7396539,47.72719,-1.261159,-2.5485108,-3.3344026,-0.23873064,-0.0051981094,-0.30641705,28.5625,29.9375,28.9375,32.6875,35.125,36.25
0.118053555,-1.3927916,-0.53393155,-1.6594229,-0.010865458,0.012940251,-0.16630983,-0.39212638,-0.3673596,0.059929796,-3.0781615,0.6252041,-0.00029495743,-0.048460845,0.020985266,0.0010146372,0.0037414809,0.00031190773,-0.008818155,0.50025254,-1.3787569,1.9007019,-2.0907485,-1.5710224,2.475488,-0.07798527,0.047004916,-0.06161102,0.016117688,-0.0035651373,-0.06912932,-0.17238252,0.13407528,-9.442732,0.7978386,47.705692,-1.2236283,-2.4665108,-3.2369027,-0.22834268,-0.019370347,-0.33640367,28.5625,29.9375,28.9375,32.6875,35.125,36.25
0.12005438,-0.39354712,-0.33433557,-1.5662451,-0.00918287,0.03996983,-0.17178692,-0.39220062,-0.36730945,0.05989398,-3.0781112,0.62527025,-0.00042065818,-0.04895926,0.021009468,0.00034521832,0.0034478207,-0.0012476441,-0.009317122,0.50008446,-1.378624,1.900618,-2.0907133,-1.5709985,2.4753675,-0.07909637,0.04915016,-0.062664844,0.016251262,-0.0025680743,-0.06974248,-0.30645782,0.019153614,-9.461885,0.8023209,47.73077,-1.4218162,-2.596074,-3.2542691,-0.25518304,-0.039466552,-0.3534517,28.5625,29.9375,28.9375,32.6875,35.125,36.25
0.122054026,-0.4249251,0.058249954,-1.4794558,0.002320249,0.06434127,-0.17318387,-0.39231923,-0.3672802,0.05993192,-3.0781755,0.6252878,-0.00038571574,-0.051291514,0.022942342,0.000701153,0.0030249073,-0.0010332946,-0.016786106,0.49990287,-1.378564,1.9004496,-2.090665,-1.5709623,2.4751887,-0.08465475,0.049306214,-0.06379421,0.016835343,-0.0022960347,-0.06783216,-0.3256114,0.0,-9.3661175,0.8291774,47.72719,-1.2230732,-2.669817,-3.3150487,-0.268033,-0.04661998,-0.41690242,28.5625,29.9375,28.9375,32.6875,35.125,36.25
0.12405384,-1.3043044,-0.119427346,-1.4291841,0.021618815,0.06866909,-0.16222163,-0.3924437,-0.36722744,0.059935242,-3.0781476,0.62531555,-0.00028120368,-0.05075652,0.02192492,0.0017161791,0.0024844173,0.00082118175,-0.011611187,0.49973637,-1.3784565,1.9003175,-2.090677,-1.5710224,2.4750433,-0.082167976,0.047734812,-0.064286634,0.01700872,-0.002710227,-0.07051965,-0.28730422,0.019153614,-9.481039,0.7642693,47.728977,-1.3984208,-2.4743032,-3.3201432,-0.26633722,-0.045111477,-0.44693276,28.5625,29.9375,28.9375,32.6875,35.125,36.25
0.12605412,-1.5131618,-0.38190797,-1.5053524,0.032477316,0.07540339,-0.15431839,-0.39252383,-0.36719352,0.05993466,-3.078151,0.62537265,-0.0004006409,-0.052466657,0.022696692,0.0017701323,0.0026957982,0.0014402645,-0.010643951,0.49956772,-1.3783599,1.9001855,-2.090593,-1.5709623,2.4749098,-0.084726155,0.049124524,-0.066043444,0.016938342,-0.0032018074,-0.07404301,-0.28730422,0.038307227,-9.5385,0.8112748,47.694054,-1.3113708,-2.5488305,-3.289338,-0.28717285,-0.055633463,-0.45863783,28.5625,29.9375,28.9375,32.6875,35.125,36.25
0.12805381,-0.6554394,0.046898253,-1.3790102,0.017156692,0.0905381,-0.15617798,-0.39264315,-0.3671519,0.059945967,-3.0781693,0.62539446,-0.0003598204,-0.05327862,0.023620563,0.0010451071,0.0034010217,0.0001437914,-0.009348547,0.49938732,-1.3782631,1.9000424,-2.0905812,-1.5709623,2.4747407,-0.08701151,0.050810177,-0.066435546,0.017119182,-0.0031997985,-0.07762349,-0.30645782,-0.05746084,-9.481039,0.79560274,47.723602,-1.3325236,-2.4717007,-3.2875524,-0.28628883,-0.07351051,-0.47609276,28.5625,29.9375,28.9375,32.6875,35.125,36.25
0.1300537,-1.0476465,0.0122048445,-1.4482691,0.016740467,0.07195785,-0.15225072,-0.39275125,-0.36709633,0.059950463,-3.0781295,0.6253613,-0.00029918554,-0.055176355,0.023517342,0.0020630865,0.0024043322,0.0021180215,-0.0026584778,0.49923134,-1.3781668,1.8999099,-2.090545,-1.5710224,2.4745693,-0.0885216,0.051550094,-0.0697023,0.017428106,-0.0032808038,-0.0858221,-0.38307226,-0.15322891,-9.481039,0.8224646,47.723602,-1.353493,-2.5385451,-3.2587829,-0.29194292,-0.059062786,-0.41867036,28.5625,29.9375,28.9375,32.6875,35.125,36.25
0.13205351,-0.6212032,-0.23881526,-1.5684857,0.022773704,0.08004135,-0.16075888,-0.39284116,-0.36703733,0.05992212,-3.0781105,0.625395,-0.00040827435,-0.05581981,0.024698142,0.0016459235,0.0035994537,0.0009774662,-0.0010569526,0.49902695,-1.3780465,1.8998264,-2.090521,-1.5709871,2.4743884,-0.09076831,0.052339166,-0.06992203,0.018435352,-0.0037897856,-0.08966899,-0.40222588,-0.1340753,-9.461885,0.78217715,47.711964,-1.2628393,-2.4967601,-3.1410246,-0.28871953,-0.06253943,-0.41535258,28.5625,29.9375,28.9375,32.6875,35.125,36.25
0.13405332,-0.89566356,0.47696823,-1.4937813,0.013322239,0.083356746,-0.17461629,-0.39295262,-0.36699462,0.059926927,-3.078106,0.6253294,-0.00041261685,-0.055524353,0.024604183,0.0014208958,0.0044172476,0.0008114491,0.00828246,0.49885958,-1.3779263,1.8996595,-2.090461,-1.570999,2.4741807,-0.08991504,0.052726213,-0.06990317,0.018564671,-0.004434528,-0.098153725,-0.59376204,-0.17238252,-9.461885,0.82022345,47.728977,-1.4164786,-2.4675026,-3.2751336,-0.30457097,-0.086335644,-0.3274415,28.5625,29.9375,28.9375,32.6875,35.125,36.25
0.1360532,-1.458609,0.24837853,-1.4897151,0.017858746,0.09261937,-0.16464779,-0.39307535,-0.3669288,0.05992614,-3.0780807,0.6252678,-0.00036375533,-0.059705097,0.026178468,0.0018283492,0.0042935116,0.0026570328,0.006763428,0.49866578,-1.377817,1.8995265,-2.0904372,-1.5710477,2.4739518,-0.09590976,0.05582717,-0.07445695,0.01833324,-0.0052219145,-0.10262546,-0.59376204,0.0,-9.423578,0.8314132,47.71465,-1.1845819,-2.5617704,-3.218034,-0.3163103,-0.0739425,-0.2642665,28.5625,29.9375,28.9375,32.6875,35.125,36.25
0.13805404,-1.286479,0.06552472,-1.6656612,0.01760118,0.11164693,-0.15525275,-0.3932053,-0.366897,0.059943203,-3.0781286,0.62529314,-0.00038412111,-0.059398994,0.026334504,0.0021745032,0.0051890956,0.0034886561,0.012075712,0.49846265,-1.3776972,1.8993348,-2.090389,-1.571,2.4737585,-0.09512501,0.05473065,-0.07403686,0.01871429,-0.006404413,-0.1071511,-0.45968673,-0.038307227,-9.442732,0.7620334,47.698532,-1.3007594,-2.4952269,-3.1239724,-0.31778735,-0.06673546,-0.21953909,28.5625,29.9375,28.9375,32.6875,35.125,36.25
0.14005351,-1.6400322,-0.4024313,-1.5148711,0.017645737,0.11733951,-0.15683647,-0.39332768,-0.36682892,0.05995297,-3.0781043,0.62530595,-0.00033507138,-0.06082096,0.028262865,0.0017276895,0.0076203384,0.004025395,0.012231918,0.49825808,-1.377613,1.8992046,-2.0903533,-1.5710367,2.473565,-0.09816821,0.055527348,-0.07391651,0.018490177,-0.008797415,-0.11034562,-0.59376204,0.019153614,-9.461885,0.779936,47.696735,-1.2315924,-2.448361,-3.291036,-0.33084273,-0.037997298,-0.1579692,28.5625,29.9375,28.9375,32.6875,35.125,36.25
0.14205416,-1.3236551,-0.35305187,-1.5348147,-0.0040013334,0.12785687,-0.1631932,-0.3934241,-0.36675563,0.059919536,-3.0780458,0.6252366,-0.0004380393,-0.06304795,0.029146977,0.0024068684,0.0077283154,0.005820077,0.009914358,0.49805358,-1.3774685,1.8990959,-2.0902932,-1.5710491,2.4733248,-0.10108556,0.05628888,-0.07642127,0.018708557,-0.009765571,-0.110941425,-0.5554548,0.038307227,-9.519346,0.7642693,47.66271,-1.1220933,-2.3831573,-3.1790438,-0.34966993,-0.02386739,-0.15621062,28.5625,29.9375,28.9375,32.6875,35.125,36.25
0.14405373,-1.7754767,-0.6177092,-1.6977998,0.0011826316,0.10105321,-0.15573251,-0.3935824,-0.36671877,0.05997694,-3.078095,0.6252492,-0.00028537126,-0.06413393,0.030606184,0.00080551475,0.010013772,0.0033803142,0.0050182194,0.49786082,-1.3773952,1.8988675,-2.090245,-1.5710734,2.4731338,-0.10399318,0.05987234,-0.07710265,0.019040773,-0.010595966,-0.108951464,-0.63206923,0.019153614,-9.442732,0.80456203,47.71554,-1.0802199,-2.6407576,-3.2205374,-0.3579424,-8.084113e-06,-0.14755565,28.5625,29.9375,28.9375,32.6875,35.125,36.25
0.14605333,-1.424428,-0.15114836,-1.5776311,-0.017949773,0.08400153,-0.16093805,-0.39371827,-0.3666389,0.0599631,-3.0780864,0.62524945,-0.00027408826,-0.065562434,0.031440288,0.0024191104,0.008043284,0.006088244,-0.0013040554,0.49760842,-1.3772762,1.8987607,-2.0902574,-1.5710849,2.4728827,-0.106953055,0.056981362,-0.07730029,0.018805115,-0.010156582,-0.10559033,-0.5746084,0.05746084,-9.519346,0.74413085,47.684196,-0.91487634,-2.4590793,-3.2404687,-0.36090076,-0.0017747676,-0.17023227,28.5625,29.9375,28.9375,32.6875,35.125,36.25
0.14805417,-0.9531779,-0.42325208,-1.6662723,-0.019139923,0.07327961,-0.1676881,-0.39384183,-0.3665892,0.05996434,-3.0780544,0.62522614,-0.00022698853,-0.06657096,0.031040963,0.0023495993,0.006860431,0.005812075,-0.007157739,0.4974404,-1.3771434,1.8985924,-2.0902216,-1.5711321,2.4727044,-0.10791019,0.058946498,-0.07944467,0.018653799,-0.008987395,-0.10069498,-0.53630114,0.095768064,-9.5385,0.78217715,47.682407,-0.92335546,-2.3393788,-3.270128,-0.35718614,-0.003430307,-0.23490529,28.5625,29.9375,28.9375,32.6875,35.125,36.25
0.15005405,-1.1175028,-0.4585356,-1.7143481,-0.011267884,0.063820004,-0.16845535,-0.3939803,-0.36655253,0.059970617,-3.0780833,0.62525207,-0.00022489596,-0.067459956,0.031128688,0.0020092912,0.0051117195,0.004997717,-0.0113670295,0.49723616,-1.3769987,1.8984011,-2.0901978,-1.5711077,2.4725127,-0.11004027,0.06030015,-0.08009745,0.017828992,-0.0070615946,-0.098619275,-0.57460845,0.095768064,-9.385271,0.7709874,47.64479,-0.8849087,-2.4769826,-3.2285457,-0.35284668,-0.016393835,-0.27853438,28.5625,29.9375,28.9375,32.6875,35.125,36.25
0.15205365,-0.7462668,0.08396454,-1.4682487,-0.01742694,0.083243005,-0.16891359,-0.39408538,-0.36647007,0.05995202,-3.0780208,0.62523973,-0.00031533654,-0.06793025,0.03137085,0.0019560356,0.00412822,0.004734272,-0.012607661,0.49700814,-1.3768785,1.8982819,-2.0901139,-1.5711197,2.472285,-0.11146595,0.060485095,-0.08010849,0.01741131,-0.006080511,-0.09880572,-0.59376204,0.05746084,-9.461885,0.80679786,47.696735,-0.8663371,-2.4176736,-3.2648478,-0.33728117,-0.03188005,-0.323112,28.5625,29.9375,28.9375,32.6875,35.125,36.25
0.15405373,-1.2767314,0.19335347,-1.3867811,-0.0036777295,0.07875366,-0.166731,-0.39424935,-0.36641723,0.059967957,-3.0780487,0.62530065,-0.00024276138,-0.06963353,0.030841904,0.0030745359,0.0024963995,0.0065956824,-0.012225547,0.49676856,-1.3767462,1.8980888,-2.0901139,-1.5711197,2.47208,-0.112440415,0.061226845,-0.083619185,0.017762184,-0.0055341036,-0.1001623,-0.4213795,0.05746084,-9.481039,0.76874626,47.693153,-0.91245425,-2.3753774,-3.0870197,-0.35514802,-0.044127557,-0.3161596,28.5625,29.9375,28.9375,32.6875,35.125,36.25
0.15605351,-1.2388058,-0.0819336,-1.3772043,0.011676177,0.0784074,-0.15466566,-0.394381,-0.36633793,0.059954394,-3.0779881,0.625345,-0.00027986174,-0.06945054,0.031202614,0.0024432754,0.003242421,0.005805202,-0.012392194,0.49652898,-1.3766017,1.8979348,-2.0900538,-1.5711435,2.471876,-0.1126733,0.06185655,-0.082861274,0.017422343,-0.0058166035,-0.10022786,-0.2681506,0.0,-9.423578,0.78217715,47.72002,-0.96518177,-2.3919377,-3.310206,-0.3331339,-0.029248692,-0.33384869,28.5625,29.9375,28.9375,32.6875,35.125,36.25
0.15805437,-0.116333246,0.49982545,-1.3182383,0.0022397735,0.09026344,-0.16770639,-0.39453417,-0.36628443,0.05995625,-3.0779674,0.62543577,-0.00022595371,-0.07107207,0.030302104,0.0036942563,0.0020595612,0.0087863635,-0.011520134,0.49631342,-1.3764454,1.8977426,-2.0900428,-1.5711678,2.4717197,-0.11236917,0.06258386,-0.086520456,0.017167022,-0.0062017026,-0.10079358,-0.21068975,0.019153614,-9.404425,0.83589023,47.696735,-1.0413839,-2.3524487,-3.221303,-0.3354999,-0.028036077,-0.3809508,28.5625,29.9375,28.9375,32.6875,35.125,36.25
0.1600541,-0.3700461,-0.012065282,-1.5108284,0.014729339,0.056337073,-0.15174258,-0.39466956,-0.3661936,0.059933558,-3.0779402,0.6254504,-0.00027001914,-0.072067045,0.032246985,0.0028864988,0.003955296,0.008121605,-0.014598428,0.49603662,-1.376313,1.8976344,-2.0900304,-1.5711683,2.4714556,-0.11568186,0.06340386,-0.085608475,0.016925111,-0.0075531197,-0.10102516,-0.15322891,-0.019153614,-9.289502,0.83365434,47.70211,-0.8796252,-2.3431177,-3.1588473,-0.3406159,-0.037069224,-0.4139628,28.5625,29.9375,28.9375,32.6875,35.125,36.25
0.16205402,0.31466207,0.20740138,-1.4797821,0.0059332442,0.05356601,-0.1666366,-0.39483723,-0.36614525,0.059993125,-3.0779917,0.6255326,-0.0001141937,-0.07301558,0.03192489,0.00345258,0.004390297,0.010051532,-0.009122619,0.49580958,-1.3762528,1.8974193,-2.0899947,-1.5711812,2.4712734,-0.11516259,0.06415396,-0.087768406,0.016843822,-0.008848019,-0.10597907,-0.05746084,-0.019153614,-9.3661175,0.8090337,47.70211,-1.1750636,-2.3769794,-3.2177358,-0.32516432,-0.010193285,-0.39105588,28.5625,29.9375,28.9375,32.6875,35.125,36.25
0.16405381,-0.0954266,-0.15456685,-1.7248443,0.013599104,0.030633783,-0.1571001,-0.39497092,-0.36608955,0.059968095,-3.077958,0.62554294,-0.00017339522,-0.07423652,0.032947224,0.0032501598,0.005165544,0.00986074,-0.0072129704,0.49559325,-1.37606,1.8972396,-2.089959,-1.5711812,2.471068,-0.117596105,0.065298244,-0.08876511,0.017231045,-0.009446594,-0.11032009,-0.019153614,0.038307227,-9.3661175,0.80456203,47.687782,-0.91032916,-2.3238387,-3.2339125,-0.31451052,0.015766336,-0.37621164,28.5625,29.9375,28.9375,32.6875,35.125,36.25
0.16605367,-0.21992025,0.032655805,-1.4907953,0.0025161747,0.023537096,-0.16020878,-0.39510897,-0.36601445,0.059970036,-3.0779252,0.62547493,-0.000115563096,-0.07439951,0.03301747,0.0029603587,0.0041962503,0.008538292,-0.0018375923,0.49537718,-1.3759396,1.8970841,-2.0899227,-1.5712403,2.4708138,-0.11874966,0.06599114,-0.088983335,0.017441671,-0.007967458,-0.116851844,-0.05746084,0.17238252,-9.346964,0.73741806,47.691364,-1.0209188,-2.3224456,-3.2077312,-0.29584917,0.020221595,-0.30704364,28.5625,29.9375,28.9375,32.6875,35.125,36.25
0.16805327,0.11617464,-0.5949626,-1.5421532,-0.0037188102,0.04248232,-0.16968685,-0.39528742,-0.36594954,0.060007554,-3.0779705,0.6255378,-6.9597925e-05,-0.07473896,0.033402864,0.0027151776,0.004031481,0.00737432,0.0036799973,0.49508947,-1.3758314,1.8968567,-2.0898626,-1.571216,2.4705596,-0.12009917,0.06673448,-0.089468,0.018123496,-0.007263758,-0.12372056,-0.076614454,0.1340753,-9.3661175,0.82022345,47.728977,-1.0123487,-2.3047771,-3.2834954,-0.30868044,-0.0026851676,-0.24136671,28.5625,29.9375,28.9375,32.6875,35.125,36.25
0.1700539,-0.38595828,-0.4432993,-1.5827155,-0.01596393,0.041033465,-0.16680136,-0.39541164,-0.36588222,0.059988976,-3.0779402,0.62546945,-6.395353e-05,-0.0761821,0.034544174,0.0023515092,0.0040604775,0.006091653,0.008561902,0.49488473,-1.3756868,1.8967246,-2.0898502,-1.5712517,2.4703162,-0.12366739,0.06840073,-0.09081042,0.018929644,-0.0066875624,-0.13217095,-0.038307227,0.11492168,-9.308656,0.800085,47.699425,-1.0220716,-2.2866623,-3.2476892,-0.30075917,0.0057178503,-0.1641702,28.5625,29.9375,28.9375,32.6875,35.125,36.25
0.1720536,-0.26072988,-0.19088912,-1.7494723,-0.020275006,0.04544692,-0.17415376,-0.39556652,-0.36581588,0.05999407,-3.0779371,0.6254282,-2.7789916e-05,-0.07561537,0.032855943,0.002809233,0.0029280563,0.0064332136,0.011714489,0.49464625,-1.3755424,1.8965334,-2.089814,-1.5712756,2.4700525,-0.12078578,0.06886839,-0.09250117,0.019306665,-0.005853742,-0.13244295,0.0,0.19153613,-9.423578,0.8560339,47.744205,-1.1740079,-2.3329573,-3.2916026,-0.29683143,-0.013517144,-0.10536539,28.5625,29.9375,28.9375,32.6875,35.125,36.25
0.17405409,-0.14015377,-0.284517,-1.4614997,-0.027351767,0.04654243,-0.17047025,-0.39570352,-0.3657585,0.059983984,-3.0779452,0.6253163,-8.5199455e-05,-0.07723012,0.034553472,0.0020740821,0.0036454473,0.005116223,0.0077785286,0.49441707,-1.3753736,1.8963426,-2.0897548,-1.5712637,2.4697526,-0.12507471,0.07075482,-0.093135625,0.019554554,-0.0058652293,-0.13279518,0.038307227,0.2681506,-9.442732,0.7083204,47.66808,-1.0155321,-2.3276787,-3.3286924,-0.28050733,-0.019521788,-0.08642399,28.5625,29.9375,28.9375,32.6875,35.125,36.25
0.17605375,-0.7635492,-1.157336,-1.9138495,-0.012175753,0.025290184,-0.15423527,-0.3958688,-0.3656662,0.059994295,-3.0779138,0.625425,-7.4382566e-05,-0.07727067,0.03383014,0.0024424433,0.0028968246,0.00554772,0.004827497,0.49411818,-1.3752534,1.8961629,-2.0896947,-1.5712756,2.4695256,-0.12413265,0.07100657,-0.094325356,0.019754918,-0.005410073,-0.12890252,0.0,0.30645782,-9.346964,0.7933669,47.701214,-1.2292385,-2.29279,-3.2551339,-0.28824687,-0.012379991,-0.14754257,28.5625,29.9375,28.9375,32.6875,35.125,36.25
0.17805363,-0.47306442,-0.67413384,-1.7030826,-0.03003536,0.026077062,-0.15462925,-0.3960363,-0.36560127,0.06000397,-3.0779126,0.6253693,-1.0919792e-05,-0.07823096,0.034568667,0.0019863897,0.0035728063,0.0052782227,-0.0019363076,0.49387822,-1.3750969,1.8959469,-2.0896585,-1.5713114,2.4692512,-0.12592095,0.07247482,-0.09498366,0.019501604,-0.0058731562,-0.12392574,0.0,0.28730422,-9.270349,0.8112748,47.71554,-1.1600618,-2.3076534,-3.3443954,-0.27412277,-0.0214274,-0.1576214,28.5625,29.9375,28.9375,32.6875,35.125,36.25
0.18005326,-0.6086396,-1.222577,-1.6957581,-0.020666594,0.020020204,-0.15512577,-0.39619747,-0.365537,0.060022715,-3.077927,0.62535405,6.989056e-05,-0.07938521,0.034789164,0.0023822275,0.0031565148,0.006421345,-0.0072398614,0.4936384,-1.3749763,1.8957556,-2.0896347,-1.5713362,2.469,-0.12719528,0.07292322,-0.09636109,0.019225508,-0.0060434802,-0.11989584,0.019153614,0.21068975,-9.32781,0.80456203,47.72002,-1.1487772,-2.264925,-3.3702106,-0.27132162,-0.0069468105,-0.23049831,28.5625,29.9375,28.9375,32.6875,35.125,36.25
0.18205401,-0.26700503,-1.0252975,-1.7021976,-0.022593098,0.02563348,-0.1539681,-0.39633077,-0.3654799,0.06001299,-3.0779269,0.6254523,1.6673692e-05,-0.07990676,0.03552353,0.0009659878,0.004724063,0.004166718,-0.011797074,0.49339825,-1.3748313,1.8956002,-2.0896108,-1.5712999,2.4688213,-0.12867573,0.07608689,-0.09694175,0.019376578,-0.006356294,-0.11681768,-0.05746084,0.24899697,-9.346964,0.82694155,47.711063,-1.1910479,-2.5034547,-3.3082416,-0.257278,-0.014908552,-0.29274836,28.5625,29.9375,28.9375,32.6875,35.125,36.25
0.1840537,-0.38390034,-0.5947977,-1.6046809,-0.024396243,0.028205613,-0.16174227,-0.39649248,-0.36542955,0.060018305,-3.077936,0.625455,2.7633105e-06,-0.080316484,0.035703875,0.0015928212,0.003577941,0.004939557,-0.014537852,0.49315846,-1.3746514,1.8953608,-2.0895507,-1.5712875,2.4685822,-0.12970565,0.07493594,-0.09701228,0.019373372,-0.0057116887,-0.11510827,-0.095768064,0.17238252,-9.346964,0.842603,47.71465,-1.1910291,-2.125727,-3.4371853,-0.22744654,0.001192871,-0.33516484,28.5625,29.9375,28.9375,32.6875,35.125,36.25
0.18605411,-0.5823988,-0.34726608,-1.4854033,-0.021496074,0.04086261,-0.15297593,-0.3966818,-0.36534032,0.06005367,-3.0779312,0.6255689,0.00012429335,-0.08260857,0.03560985,0.002038971,0.0025265198,0.005804109,-0.017780533,0.49285844,-1.3745545,1.8951572,-2.089515,-1.5713238,2.468354,-0.13190356,0.07751469,-0.1011657,0.019681858,-0.005193402,-0.11406287,-0.15322891,0.24899697,-9.270349,0.8023209,47.684196,-1.1546614,-2.2397535,-3.2444463,-0.21286353,-0.03950732,-0.4082746,28.5625,29.9375,28.9375,32.6875,35.125,36.25
0.18805382,-0.8207794,-0.40398064,-1.4675711,0.001095833,0.047215033,-0.15562053,-0.39680424,-0.36528516,0.060016595,-3.0779,0.62548596,3.4659097e-05,-0.08243219,0.03684694,-0.00018438336,0.0046505937,0.0014551361,-0.020473907,0.49265414,-1.3743492,1.8949894,-2.0894787,-1.5713238,2.468102,-0.13390486,0.08089554,-0.10026832,0.02023882,-0.005011992,-0.11337067,-0.15322891,0.11492168,-9.289502,0.8179876,47.693153,-1.1508685,-2.4899924,-3.4166007,-0.19952485,-0.018372064,-0.44395387,28.5625,29.9375,28.9375,32.6875,35.125,36.25
0.1900535,-0.77426374,0.04801762,-1.187631,0.0039148377,0.06856535,-0.16607252,-0.39699525,-0.36521453,0.060041364,-3.077936,0.62558883,0.000107889944,-0.08426012,0.037178103,0.0009877087,0.0035115883,0.0035441925,-0.020284163,0.4923539,-1.3742172,1.8947734,-2.0894663,-1.5713114,2.4678614,-0.13607822,0.080624625,-0.102692105,0.020552715,-0.00499347,-0.11573331,-0.28730422,0.17238252,-9.251195,0.8090337,47.698532,-1.1046296,-2.2494476,-3.3268795,-0.1918294,-0.029893212,-0.47207874,28.5625,29.9375,28.9375,32.6875,35.125,36.25
0.19205399,-0.88785446,-0.11472587,-1.2736363,0.00927279,0.08258296,-0.1589202,-0.3971493,-0.36512637,0.060011506,-3.0778646,0.6256684,5.0147005e-06,-0.08632348,0.03836515,0.0008994244,0.0035233356,0.0035757716,-0.019445641,0.49206546,-1.3740124,1.8945817,-2.0893948,-1.5713114,2.4676318,-0.13987981,0.082367264,-0.10461241,0.02070411,-0.0050342637,-0.12037194,-0.45968673,0.076614454,-9.212888,0.90750587,47.703903,-1.0743257,-2.406637,-3.2281108,-0.18904287,-0.04899923,-0.5048981,28.5625,29.9375,28.9375,32.6875,35.125,36.25
0.19405375,-1.1949546,0.089945294,-1.2059151,0.011375379,0.1008198,-0.15582621,-0.39730763,-0.36505672,0.060021237,-3.077827,0.6256722,2.4778577e-05,-0.08547956,0.037061486,0.0011240889,0.0034836459,0.0036368505,-0.0074140746,0.4918269,-1.373856,1.8943547,-2.089311,-1.5713476,2.4674006,-0.1368733,0.08267313,-0.10564333,0.02134536,-0.0050347014,-0.12939657,-0.5363012,0.05746084,-9.232041,0.76874626,47.72002,-1.1678565,-2.3616333,-3.2937336,-0.17701471,-0.044830263,-0.42116567,28.5625,29.9375,28.9375,32.6875,35.125,36.25
0.19605383,-1.1202343,0.56633514,-1.1840229,0.002823056,0.11497742,-0.17445827,-0.39748925,-0.36498246,0.060023617,-3.0778887,0.6256201,2.9205607e-05,-0.087110184,0.03786973,0.0016147345,0.0029025024,0.004322094,0.0017713929,0.4915146,-1.3736997,1.8941635,-2.0893104,-1.5713114,2.467048,-0.13977124,0.083038405,-0.10729698,0.021750642,-0.004849216,-0.14147986,-0.51714754,-0.076614454,-9.251195,0.7486078,47.672558,-1.1724179,-2.2874599,-3.278203,-0.17212501,-0.040383555,-0.35586494,28.5625,29.9375,28.9375,32.6875,35.125,36.25
0.19805358,-1.4335246,0.21293607,-1.2340697,0.003536752,0.116699345,-0.1655069,-0.39766407,-0.36490673,0.060027204,-3.0778472,0.6256456,4.9401962e-05,-0.08722272,0.038269516,-0.00022928504,0.004755795,0.0008653127,0.007475058,0.491251,-1.373518,1.8939232,-2.089239,-1.5713476,2.4668057,-0.14049204,0.08720671,-0.10822511,0.022422366,-0.004857432,-0.14790332,-0.61291564,-0.076614454,-9.3661175,0.77545905,47.66271,-1.3230505,-2.445507,-3.1760254,-0.17562398,-0.06217488,-0.25087586,28.5625,29.9375,28.9375,32.6875,35.125,36.25
0.20005332,-1.420788,0.33845624,-0.9744285,0.0049985405,0.122863695,-0.16157305,-0.39783368,-0.3648357,0.060025077,-3.0778813,0.62564975,5.431563e-05,-0.08899866,0.038514778,0.0018884183,0.002976752,0.0046405257,0.010442895,0.49096298,-1.3733628,1.8937434,-2.089239,-1.5713238,2.466516,-0.14232558,0.08482773,-0.110285655,0.022693936,-0.0050713546,-0.15270403,-0.7661445,-0.038307227,-9.289503,0.85155696,47.66808,-1.2161155,-2.3327684,-3.3557343,-0.16812888,-0.061460286,-0.17960644,28.5625,29.9375,28.9375,32.6875,35.125,36.25
0.20205395,-1.2962887,0.36059713,-1.2215744,0.018007029,0.11932233,-0.1551944,-0.39804608,-0.36474934,0.060033955,-3.0778542,0.62562513,0.00014001959,-0.090324946,0.040501595,0.00057573285,0.004932178,0.0028400447,0.007977918,0.49066213,-1.3731577,1.8934687,-2.0891912,-1.5713834,2.4662035,-0.1462671,0.087300055,-0.11025575,0.022692924,-0.005944076,-0.15417868,-0.8619126,-0.038307227,-9.32781,0.8627467,47.701214,-1.1846496,-2.2950613,-3.1863198,-0.1422657,-0.051598154,-0.15046734,28.5625,29.9375,28.9375,32.6875,35.125,36.25
0.2040537,-1.5959842,0.20970249,-1.2328525,0.031692997,0.10077754,-0.15791665,-0.39821884,-0.36468047,0.0600306,-3.0778742,0.62561214,0.00011356531,-0.09114141,0.03965923,0.0012303432,0.0044389125,0.0043661566,0.003084595,0.4903754,-1.3729771,1.8932532,-2.0891545,-1.57136,2.4659061,-0.14535438,0.08829668,-0.11297894,0.022847757,-0.0062309457,-0.14837089,-0.7661445,-0.1340753,-9.3661175,0.8672237,47.723602,-1.2921132,-2.5188503,-3.1985664,-0.12051054,-0.05983434,-0.19022515,28.5625,29.9375,28.9375,32.6875,35.125,36.25
0.20605458,-1.4256672,0.30723414,-1.1243837,0.024118992,0.1040932,-0.15580079,-0.3983929,-0.3645709,0.060017403,-3.077796,0.6256173,8.7750625e-05,-0.092520095,0.040286567,0.00137757,0.0044753156,0.004363106,-0.0035746747,0.4900633,-1.3727967,1.8930496,-2.0890706,-1.5714082,2.4656074,-0.14757903,0.089515924,-0.11495258,0.023616232,-0.006270365,-0.14393497,-0.80445176,-0.11492168,-9.289502,0.76874626,47.70838,-1.2185924,-2.3308406,-3.2045972,-0.11569893,-0.061044257,-0.22004147,28.5625,29.9375,28.9375,32.6875,35.125,36.25
0.2080544,-1.2098078,0.53423125,-1.0552824,0.02821529,0.10284202,-0.15494236,-0.39859977,-0.36452708,0.060050465,-3.0778582,0.6256699,0.00016061723,-0.09314864,0.040842284,0.00042136223,0.0054697352,0.0020609598,-0.008633644,0.48978725,-1.3726155,1.8927506,-2.0890343,-1.5713834,2.4653563,-0.149151,0.092354596,-0.11642787,0.024755681,-0.0060517504,-0.14044799,-0.8236054,-0.15322891,-9.270349,0.88289046,47.692257,-1.2001476,-2.5329893,-3.1016283,-0.10997519,-0.060322315,-0.29918995,28.5625,29.9375,28.9375,32.6875,35.125,36.25
0.2100533,-0.31330732,1.1719047,-1.1545181,0.021574028,0.11976947,-0.17886826,-0.39874437,-0.3644292,0.060010396,-3.0777853,0.62563527,4.1193332e-05,-0.09396606,0.041273516,0.00068008964,0.0056545036,0.002107163,-0.010061886,0.48949954,-1.3724111,1.8925823,-2.0889618,-1.5713958,2.4650564,-0.15044354,0.09284701,-0.11783741,0.025716351,-0.006252755,-0.14031073,-0.7469909,-0.05746084,-9.3661175,0.8605109,47.705692,-1.2422403,-2.3993819,-3.1209261,-0.10306484,-0.06573152,-0.3283705,28.5625,29.9375,28.9375,32.6875,35.125,36.25
0.21205409,-0.92175424,0.24478844,-1.2872965,0.023456596,0.10862476,-0.15857743,-0.3989435,-0.36433482,0.06001226,-3.0777555,0.625724,7.798636e-05,-0.09458842,0.04144475,0.00043393034,0.006698059,0.0016674788,-0.010875904,0.48917606,-1.3722304,1.8923548,-2.088926,-1.5714201,2.4647923,-0.15078701,0.09461721,-0.1195944,0.026579304,-0.0069676214,-0.13983798,-0.57460845,0.0,-9.289503,0.7777002,47.70838,-1.288686,-2.5297873,-3.1102788,-0.0978495,-0.07408605,-0.3416884,28.5625,29.9375,28.9375,32.6875,35.125,36.25
0.21405394,-1.3272245,-0.12914065,-1.2383814,0.010737656,0.094506174,-0.15646005,-0.39912477,-0.36425105,0.06000554,-3.077734,0.6257947,3.5274057e-05,-0.095276214,0.042267427,0.0001964644,0.008125793,0.0013800986,-0.010821236,0.48886445,-1.3720379,1.8921274,-2.088866,-1.5714086,2.4645276,-0.15203166,0.095604725,-0.12041883,0.027343253,-0.008097943,-0.14113447,-0.53630114,0.019153614,-9.32781,0.88289046,47.734352,-1.2789316,-2.5373797,-3.0524366,-0.100616254,-0.055427685,-0.37390518,28.5625,29.9375,28.9375,32.6875,35.125,36.25
0.21605381,-0.6136404,0.041292295,-1.3758048,-0.0126383705,0.09310748,-0.16292602,-0.3993519,-0.36415648,0.060017213,-3.077705,0.62576544,0.00017533133,-0.09578256,0.042664595,5.705775e-05,0.008442468,0.00083220715,-0.00722135,0.4885526,-1.3718334,1.8918523,-2.0888422,-1.5714926,2.4642015,-0.1530733,0.096449785,-0.121264376,0.027958417,-0.008117283,-0.14577597,-0.40222588,0.019153614,-9.423578,0.80679786,47.71554,-1.3461483,-2.5389032,-3.1673894,-0.096440285,-0.056140266,-0.3745771,28.5625,29.9375,28.9375,32.6875,35.125,36.25
0.21805443,-0.6837958,-0.54770803,-1.5033822,-0.014048874,0.08160353,-0.17296988,-0.39953488,-0.3640781,0.060026743,-3.0777192,0.62578267,0.00014732082,-0.09641343,0.043306835,0.0002599,0.008609751,0.000868565,-0.0010300567,0.4882408,-1.3716652,1.8916138,-2.0887697,-1.5714682,2.4638987,-0.15455423,0.09639613,-0.121824756,0.028614804,-0.008286959,-0.15344773,-0.34476504,0.095768064,-9.442732,0.82022345,47.72002,-1.3478639,-2.4939907,-3.186236,-0.08073579,-0.05248049,-0.29793778,28.5625,29.9375,28.9375,32.6875,35.125,36.25
0.22005393,-0.65485585,-0.38650665,-1.4739838,-0.024487734,0.06248181,-0.16563076,-0.39973852,-0.36395758,0.060007438,-3.0776403,0.62578076,0.00014852092,-0.098031536,0.044618174,0.0001507061,0.010212738,0.0015375472,0.005592574,0.48789248,-1.3714486,1.8913864,-2.08871,-1.5715293,2.4635594,-0.15707102,0.0977008,-0.12319639,0.028829154,-0.010032616,-0.16258256,-0.11492168,0.15322891,-9.500193,0.8247004,47.694946,-1.2705609,-2.5402265,-3.044208,-0.07726683,-0.041987993,-0.20468459,28.5625,29.9375,28.9375,32.6875,35.125,36.25
0.22205362,-0.1352399,-0.6668903,-1.5806862,-0.01592538,0.061138313,-0.16320051,-0.39994648,-0.3638695,0.060015403,-3.077655,0.62581897,0.0001879853,-0.09866081,0.045393705,-0.00030156402,0.010166788,0.00022639117,0.009765114,0.4875569,-1.3712683,1.891148,-2.0886858,-1.5715288,2.4632459,-0.1592771,0.09874209,-0.12351664,0.02923425,-0.009376482,-0.1689626,-0.11492168,0.15322891,-9.385271,0.8493211,47.684196,-1.3567641,-2.4724329,-3.3136897,-0.07444345,-0.019649465,-0.091589145,28.5625,29.9375,28.9375,32.6875,35.125,36.25
0.22405396,-0.5609267,-0.7022261,-1.7163318,-0.014002308,0.03477608,-0.15359963,-0.4001754,-0.363779,0.060025405,-3.0776396,0.6257938,0.00023611434,-0.099158965,0.046053313,-0.00033799824,0.009661073,-0.00019429493,0.010170682,0.48722112,-1.3710399,1.8908371,-2.0886142,-1.5715646,2.4628966,-0.16115533,0.09865991,-0.12336954,0.029290987,-0.008733011,-0.1712479,-0.038307227,0.17238252,-9.519346,0.7911258,47.71554,-1.153285,-2.4743612,-3.2664897,-0.051811457,-0.039791107,-0.033114567,28.5625,29.9375,28.9375,32.6875,35.125,36.25
0.22605392,0.034367416,-0.52227646,-1.6887475,-0.0054744664,0.028960183,-0.15564917,-0.40033284,-0.36367446,0.059995744,-3.0775886,0.625787,0.00010740739,-0.10130617,0.04714018,0.00055132917,0.008756345,0.0014963043,0.0019035366,0.48689643,-1.370848,1.8906568,-2.0885303,-1.5715526,2.4625742,-0.16484855,0.09843953,-0.1251709,0.029398482,-0.008743299,-0.16667251,0.05746084,0.11492168,-9.557653,0.81351066,47.705692,-1.041309,-2.3558328,-3.2649999,-0.036449715,-0.038450263,-0.069441766,28.5625,29.9375,28.9375,32.6875,35.125,36.25
0.22805364,0.24061024,0.036244698,-1.6825325,-0.02069264,0.021069009,-0.16978386,-0.4005431,-0.36359107,0.060003713,-3.0775957,0.6257144,0.00020932207,-0.10040625,0.04735529,-0.001368577,0.01064173,-0.0024211302,-0.004428711,0.48659697,-1.3706545,1.8904055,-2.088518,-1.5716003,2.4622288,-0.16444497,0.10154677,-0.124697745,0.030157372,-0.008564668,-0.15993723,0.0,0.24899697,-9.442732,0.83589023,47.71286,-1.068147,-2.6158733,-3.3274937,-0.048979215,-0.030557152,-0.1393995,28.5625,29.9375,28.9375,32.6875,35.125,36.25
0.23005335,0.9170119,-0.5544484,-1.4458396,-0.010555401,0.03882155,-0.16077699,-0.40077558,-0.3635198,0.060015175,-3.0776114,0.6257958,0.0002384269,-0.10047311,0.04787704,-0.000755128,0.00950024,-0.002183166,-0.0115183,0.48626125,-1.370415,1.8900832,-2.0884697,-1.5715884,2.461942,-0.16585995,0.09961715,-0.12390484,0.03055109,-0.0076579577,-0.15426542,0.0,0.22984336,-9.385271,0.7642693,47.71554,-1.0275038,-2.3558683,-3.4721675,-0.03509197,-0.042524446,-0.21579349,28.5625,29.875,28.9375,32.6875,35.125,36.25
0.23205365,0.19825403,-0.17725383,-1.5314331,-0.005815546,0.02255094,-0.16142492,-0.40099955,-0.36339468,0.06001108,-3.0775468,0.6259403,0.00023113436,-0.102041624,0.04826067,-0.0013931126,0.009749115,-0.003377642,-0.020040186,0.48586515,-1.3702095,1.8898314,-2.0883982,-1.5716127,2.4616444,-0.16803727,0.10311935,-0.1267681,0.031082455,-0.0073282234,-0.14791974,0.1340753,0.15322891,-9.404425,0.8179876,47.696735,-1.0044345,-2.5353236,-3.2930398,-0.026003232,-0.047766633,-0.3161428,28.5625,29.875,28.9375,32.6875,35.125,36.25
0.23405413,0.88107985,0.47791186,-1.6162511,-0.006097286,0.038426403,-0.17521651,-0.4011847,-0.36330128,0.05999878,-3.077494,0.6260067,0.00015610448,-0.102102846,0.04847914,-0.00084767054,0.009683806,-0.0031944632,-0.023535859,0.4855422,-1.3699939,1.8895806,-2.088302,-1.5716127,2.4613698,-0.16837111,0.10219527,-0.12718703,0.032233715,-0.007363744,-0.14475752,0.11492168,0.15322891,-9.423578,0.8537928,47.67345,-1.1141773,-2.3503885,-3.519589,-0.03170685,-0.042459644,-0.38546813,28.5625,29.875,28.9375,32.6875,35.125,36.25
0.23605388,0.75027025,0.6056824,-1.3765242,-0.014323837,0.04241185,-0.17676485,-0.40138772,-0.36319926,0.059997924,-3.0774493,0.62603635,0.00019921578,-0.103130795,0.049183775,-0.00071930286,0.010083284,-0.0041759885,-0.027398802,0.48521817,-1.369801,1.8893417,-2.0882533,-1.5716599,2.46107,-0.17046958,0.10334691,-0.12933105,0.03427287,-0.0072609033,-0.14299245,0.13407528,0.11492168,-9.346964,0.9925471,47.68062,-1.0459807,-2.433187,-3.4595995,-0.03131372,-0.037950404,-0.46461225,28.5625,29.875,28.9375,32.6875,35.125,36.25
0.23805334,-0.26621085,-0.44738415,-1.6265182,0.015887411,0.008328035,-0.14553726,-0.40159893,-0.36313194,0.060031056,-3.0774994,0.6260435,0.00020462515,-0.10469529,0.049950387,0.00015439649,0.0090829,-0.0036831498,-0.026349911,0.48489383,-1.3696212,1.8890299,-2.0881565,-1.5716237,2.460744,-0.17348142,0.103149265,-0.1314079,0.035641946,-0.0066069434,-0.14705415,0.13407528,0.095768064,-9.385271,0.842603,47.677036,-1.0355225,-2.3333972,-3.333675,-0.045438796,-0.031892076,-0.49137825,28.5625,29.875,28.9375,32.6875,35.125,36.25
0.24005397,0.5674232,0.3707478,-1.7624327,-0.004614528,0.020334195,-0.16014266,-0.4017989,-0.36300662,0.05999804,-3.0773861,0.6261483,0.00014947722,-0.10611269,0.05036578,0.00091141986,0.008538369,-0.0019415236,-0.017869009,0.4845341,-1.369381,1.8888024,-2.088085,-1.5716718,2.4604642,-0.17515442,0.10304328,-0.13299875,0.035526313,-0.0069618025,-0.15720621,0.05746084,0.15322891,-9.481039,0.87617236,47.691364,-0.97430813,-2.3461547,-3.3569236,-0.020668909,-0.061696015,-0.42555732,28.5625,29.875,28.9375,32.6875,35.125,36.25
0.24205391,-0.19014288,-0.014009925,-1.5708776,-0.015584173,0.022276571,-0.16009872,-0.40197244,-0.36289892,0.059987057,-3.0773304,0.6261873,5.9475864e-05,-0.10655944,0.051220153,-0.0004631419,0.011000354,-0.0045453995,-0.006970081,0.4841983,-1.3691995,1.8885864,-2.0879767,-1.5716723,2.46016,-0.17631786,0.106433205,-0.13422194,0.036800064,-0.007950687,-0.16926503,0.0,0.05746084,-9.481039,0.8717007,47.68599,-0.96404403,-2.4169736,-3.3316934,-0.039363645,-0.04412905,-0.3353436,28.5625,29.875,28.9375,32.6875,35.125,36.25
0.2440536,0.25362396,0.067491256,-1.4390389,-0.027566016,0.061906867,-0.16277143,-0.40222046,-0.36281228,0.060007907,-3.0773551,0.6262441,0.00015458313,-0.10695473,0.052223597,0.00019112407,0.011058591,-0.0056189555,0.00064104825,0.48383856,-1.3689837,1.888276,-2.087952,-1.5716838,2.4598327,-0.17854711,0.10535894,-0.13510981,0.039723895,-0.007495891,-0.17910706,-0.21068975,0.095768064,-9.519346,0.80679786,47.69763,-1.0398837,-2.2718391,-3.3523846,-0.06772185,-0.061383016,-0.23382792,28.5625,29.875,28.9375,32.6875,35.125,36.25
0.24605334,-0.64000225,-0.14470324,-1.6824279,-0.01724413,0.07561925,-0.1577374,-0.40241104,-0.36270538,0.059991118,-3.077303,0.6261318,7.18882e-05,-0.106019124,0.051502075,-0.0017819352,0.0129608875,-0.010795482,0.008381312,0.4835039,-1.3687536,1.8880123,-2.0878313,-1.5717081,2.4594347,-0.17686616,0.110412255,-0.1372517,0.042264715,-0.006795875,-0.18516591,-0.19153613,0.11492168,-9.672575,0.7709874,47.657326,-1.119295,-2.4839468,-3.37081,-0.10453455,-0.062886566,-0.16239613,28.5625,29.875,28.9375,32.6875,35.125,36.25
0.24805413,-0.60600555,0.06523706,-1.7216994,-0.023204278,0.10792201,-0.17328735,-0.4026221,-0.36262554,0.059999913,-3.0773404,0.62614006,-5.1914703e-06,-0.10596756,0.051798448,-0.0004951611,0.0127091175,-0.0110297445,0.0045606988,0.48314464,-1.3685381,1.8877133,-2.0877345,-1.571648,2.459076,-0.17744085,0.108390726,-0.13856165,0.045697354,-0.006464545,-0.18192077,-0.3256114,0.15322891,-9.5385,0.8672237,47.682407,-1.1202189,-2.322736,-3.3760414,-0.16408277,-0.07711929,-0.1558753,28.5625,29.875,28.9375,32.6875,35.125,36.25
0.25005403,-1.7727997,-0.29392996,-1.8538654,-0.02068738,0.095212005,-0.15848562,-0.40283427,-0.36253822,0.060007602,-3.0773506,0.62612563,6.572315e-06,-0.10613816,0.05181328,-0.00090999046,0.012764593,-0.011852239,-0.0024147814,0.48280907,-1.3683337,1.8874382,-2.0876744,-1.571648,2.4587302,-0.1777448,0.10962219,-0.1391306,0.04579206,-0.0061311875,-0.17524968,-0.47884035,0.21068975,-9.5385,0.80679786,47.686886,-1.2377222,-2.3186946,-3.3295302,-0.1791875,-0.09421167,-0.20264721,28.5625,29.875,28.9375,32.6875,35.125,36.25
0.2520537,-1.7396413,-0.68701667,-1.5637038,-0.021327326,0.10323051,-0.15553665,-0.4030531,-0.3624111,0.05999821,-3.0772567,0.6261647,-7.78286e-06,-0.107894495,0.05066412,0.00011998182,0.011440957,-0.008723539,-0.006266525,0.4824378,-1.3681048,1.8871621,-2.087567,-1.5717081,2.4583955,-0.17710416,0.11115697,-0.14311223,0.044846114,-0.0064340387,-0.17075446,-0.5554548,0.15322891,-9.461885,0.8157518,47.70659,-1.2376307,-2.3906085,-3.1434507,-0.20282605,-0.08836116,-0.28826213,28.5625,29.875,28.9375,32.6875,35.125,36.25
0.25405338,-2.1224446,-0.5125036,-1.6066928,-0.022380281,0.093097284,-0.15469147,-0.4032918,-0.3623028,0.05999774,-3.0772328,0.6261413,2.498056e-05,-0.10886677,0.051614057,3.547031e-05,0.012525048,-0.01002436,-0.010189478,0.48206574,-1.3678641,1.8868622,-2.0875065,-1.5717438,2.458012,-0.17925546,0.11256802,-0.14514169,0.047114555,-0.00679426,-0.16898121,-0.59376204,0.21068975,-9.442732,0.9097417,47.70838,-1.206963,-2.3964996,-3.2855363,-0.21313536,-0.09372464,-0.3257988,28.5625,29.875,28.9375,32.6875,35.125,36.25
0.25605404,-0.96572924,-0.16194174,-1.4842755,-0.01226605,0.112843215,-0.16471003,-0.40347412,-0.36223558,0.060004167,-3.077259,0.62612647,-8.237158e-05,-0.10997007,0.052483138,-0.00030559834,0.013066152,-0.010445948,-0.012150558,0.4817538,-1.3676594,1.886576,-2.0873868,-1.5716838,2.4576876,-0.18144,0.11400911,-0.1461541,0.04731927,-0.007091458,-0.16920316,-0.5554548,0.21068975,-9.519346,0.8493211,47.684196,-1.1381028,-2.424938,-3.1934958,-0.25816405,-0.10810933,-0.35339046,28.5625,29.875,28.9375,32.6875,35.125,36.25
0.258054,-1.8296547,-0.13876781,-1.512416,0.0005954105,0.07177535,-0.15589735,-0.40370998,-0.36213735,0.060014367,-3.0772343,0.6261932,-4.3610584e-05,-0.11094694,0.052069243,0.0004374105,0.012390909,-0.008121932,-0.007965725,0.48139483,-1.3674312,1.8862642,-2.0873158,-1.5717086,2.4573736,-0.18121584,0.11413588,-0.14782906,0.046486285,-0.0075813085,-0.17316213,-0.4405331,0.05746084,-9.481039,0.91198283,47.67166,-1.3500359,-2.4354122,-3.1627688,-0.25728267,-0.09984168,-0.3651761,28.5625,29.875,28.9375,32.6875,35.125,36.25
0.26005396,-1.4253798,-0.3140211,-1.1691538,0.0041651716,0.078719474,-0.16746719,-0.40394363,-0.3620237,0.060019184,-3.077201,0.6262583,-2.4204808e-05,-0.11163458,0.05202484,-0.00020823574,0.013261119,-0.008063259,-0.001233003,0.48101145,-1.3672141,1.8859776,-2.0872438,-1.5717324,2.4570353,-0.18115886,0.11657018,-0.14910713,0.045670103,-0.008395626,-0.1798351,-0.57460845,0.05746084,-9.423578,0.8940802,47.688675,-1.4690002,-2.3881655,-3.1535077,-0.28350294,-0.09156979,-0.3069798,28.5625,29.875,28.9375,32.6875,35.125,36.25
0.26205364,-0.117428936,0.8737387,-1.03018,-0.021822019,0.111480586,-0.18141124,-0.4041807,-0.36192366,0.06001497,-3.0771801,0.626133,5.958673e-06,-0.1123947,0.052326232,-0.0007327788,0.013379679,-0.008371867,0.008779324,0.4806631,-1.3669494,1.8856548,-2.0871723,-1.5717806,2.4566116,-0.18225972,0.11829224,-0.14984812,0.044994324,-0.008377751,-0.1909477,-0.5363012,0.05746084,-9.3661175,0.87393653,47.72002,-1.4701006,-2.4851453,-3.1372533,-0.28135177,-0.075502776,-0.19482633,28.5625,29.875,28.9375,32.6875,35.125,36.25
0.26405504,-0.952557,0.33964598,-1.350644,0.008945754,0.07927249,-0.16853954,-0.40441725,-0.36181903,0.060036276,-3.0771627,0.62618464,-8.990356e-06,-0.11438551,0.05293124,-9.4980605e-05,0.012727857,-0.0065588355,0.013662242,0.48027802,-1.3667331,1.8853182,-2.0870407,-1.5717806,2.4562612,-0.18476993,0.11895261,-0.15201609,0.04458307,-0.008656828,-0.19833918,-0.3256114,0.095768064,-9.32781,0.9254084,47.734352,-1.4473228,-2.4534767,-3.0211983,-0.2772102,-0.11518191,-0.109519854,28.5625,29.875,28.9375,32.6875,35.125,36.25
0.26605397,-0.7773234,0.2837407,-1.3020767,0.0020178477,0.063295916,-0.16328886,-0.40465698,-0.36169162,0.060018927,-3.0771213,0.6261183,4.5288384e-06,-0.11476898,0.054169517,-0.0011677076,0.014074785,-0.007825231,0.012033802,0.47988164,-1.3664801,1.8850445,-2.086993,-1.5718287,2.455829,-0.18671826,0.12028817,-0.15108053,0.044046354,-0.009276424,-0.19865754,-0.22984336,0.076614454,-9.404425,0.90750587,47.72719,-1.4324911,-2.6607347,-3.2395387,-0.2994953,-0.10002418,-0.046613254,28.5625,29.875,28.9375,32.6875,35.125,36.25
0.26805347,-1.1109793,-0.82626194,-1.0028813,-0.008467341,0.047919538,-0.14787357,-0.40490294,-0.36160484,0.060046967,-3.0771277,0.6261047,6.894883e-05,-0.11534933,0.054563385,-0.0012452528,0.014239987,-0.008189931,0.0045182835,0.47953337,-1.3662518,1.8846864,-2.0868976,-1.5718526,2.4554715,-0.18781315,0.121086836,-0.15200141,0.044567764,-0.009247855,-0.19223692,-0.3256114,0.019153614,-9.270349,0.8560339,47.76928,-1.3611965,-2.3944266,-3.298216,-0.30681515,-0.100615054,-0.09552287,28.5625,29.875,28.9375,32.6875,35.125,36.25
0.270054,-0.44880596,0.21752037,-1.0961517,-0.027215043,0.04824084,-0.16664995,-0.4051341,-0.36149517,0.060050234,-3.077093,0.6261426,7.600392e-05,-0.117151275,0.05564814,-0.0004543173,0.013218251,-0.0063208127,-0.0074688788,0.4791601,-1.3660239,1.8843874,-2.0868137,-1.5718769,2.4551265,-0.19115777,0.12036951,-0.15283568,0.04399158,-0.009206232,-0.18359417,-0.30645782,0.019153614,-9.174581,0.83365434,47.72629,-1.1970503,-2.4468408,-3.2755327,-0.30986404,-0.1086929,-0.17839673,28.5625,29.875,28.9375,32.6875,35.125,36.25
0.27205345,-0.4216035,-0.26638252,-1.0479429,-0.0016336506,0.046279382,-0.16123936,-0.40534747,-0.36137095,0.060025785,-3.077044,0.62615603,-1.3404031e-05,-0.11882673,0.056269217,-0.0010005055,0.012555621,-0.0051036985,-0.01633081,0.4787632,-1.3657829,1.8841361,-2.0867312,-1.5718769,2.4547443,-0.19359449,0.122201845,-0.15316024,0.041102197,-0.009198159,-0.17716774,-0.22984336,-0.019153614,-9.270349,0.83589023,47.74062,-1.2450452,-2.421378,-3.3548172,-0.29798135,-0.08107796,-0.27215567,28.5625,29.875,28.9375,32.6875,35.125,36.25
0.27405423,-0.054558493,0.17396107,-0.8001864,-0.002879671,0.04970353,-0.16431159,-0.4056067,-0.36128506,0.060044613,-3.0770535,0.62625676,4.115949e-05,-0.120606005,0.056649018,-0.00093594444,0.011990482,-0.0039039012,-0.023983492,0.4783907,-1.3655301,1.8837775,-2.086671,-1.5718769,2.4544337,-0.19565992,0.12386169,-0.15508106,0.040041335,-0.009246217,-0.1715798,-0.15322891,-0.15322891,-9.212888,0.81351066,47.72808,-1.2253726,-2.4763417,-3.3429394,-0.28585437,-0.09080267,-0.40044105,28.5625,29.875,28.9375,32.6875,35.125,36.25
0.27605394,-0.15003464,0.68587816,-0.71524704,0.012353025,0.039948806,-0.1704898,-0.40585786,-0.3611398,0.060040247,-3.0769541,0.6263542,6.637772e-05,-0.12238579,0.057229854,-0.00032461577,0.010024962,-0.001997356,-0.028384373,0.4779696,-1.3652898,1.8834785,-2.0865762,-1.5719484,2.4540863,-0.19862293,0.123676606,-0.15591636,0.03844743,-0.008392131,-0.17014332,-0.21068975,-0.21068975,-9.11712,0.8627467,47.711063,-1.1104851,-2.4555984,-3.3025022,-0.26686105,-0.10894353,-0.46095413,28.5625,29.875,28.9375,32.6875,35.125,36.25
0.27805352,-0.32293013,0.7566896,-0.7066192,0.02940855,0.044376083,-0.15330671,-0.4061076,-0.36105186,0.06003869,-3.0770009,0.6263798,4.2401676e-05,-0.123361,0.058460172,-0.0016992782,0.011035502,-0.0041389843,-0.024660794,0.47757277,-1.3650244,1.8831562,-2.08654,-1.5719002,2.4536996,-0.20148975,0.12661551,-0.15629664,0.03825239,-0.008311609,-0.17673352,-0.24899697,-0.1340753,-9.040505,0.8851263,47.703007,-1.087545,-2.4565878,-3.3776221,-0.24568762,-0.10292175,-0.49612987,28.5625,29.875,28.9375,32.6875,35.125,36.25
0.28005388,0.001097319,0.90868163,-0.95960325,0.04468494,0.061344605,-0.16832703,-0.40630254,-0.36091837,0.060011726,-3.0769186,0.626413,-0.00010304255,-0.12455924,0.057435066,0.00049956504,0.008255673,0.00010997981,-0.012428222,0.47717714,-1.3647971,1.8829159,-2.0864089,-1.5719002,2.4533353,-0.20101978,0.12452433,-0.1586834,0.037660673,-0.007836773,-0.18849583,-0.038307227,-0.11492168,-9.097966,0.86945957,47.723602,-1.1163882,-2.4115574,-3.196727,-0.23981613,-0.1265221,-0.3853222,28.5625,29.875,28.9375,32.6875,35.125,36.25
0.28205347,-0.5475388,0.7998018,-1.0668184,0.03738799,0.0544635,-0.18106999,-0.40657312,-0.36079884,0.060009275,-3.0768876,0.6264192,-4.1916624e-05,-0.12707777,0.057233542,0.0018121002,0.0061937203,0.0033280337,-0.0014512351,0.47676852,-1.3645205,1.8825797,-2.0863616,-1.5719484,2.4529347,-0.20297384,0.1252472,-0.1623656,0.03678559,-0.007503962,-0.20142636,-0.095768064,-0.095768064,-9.174581,0.80679786,47.690468,-1.0651512,-2.4135058,-3.314411,-0.22942615,-0.1295999,-0.25869864,28.5625,29.875,28.9375,32.6875,35.125,36.25
0.28405404,-0.8969876,-0.01527793,-1.0701622,0.017237071,0.060310274,-0.16714269,-0.4068407,-0.36068407,0.060041532,-3.0769076,0.626458,3.899776e-05,-0.12717994,0.057277225,0.0018324952,0.0059619755,0.003795888,0.004896138,0.47634855,-1.3643166,1.8822459,-2.0862896,-1.5719603,2.4525366,-0.20301557,0.12515077,-0.16217674,0.036158036,-0.0075080357,-0.20781597,-0.3256114,-0.05746084,-9.251195,0.83365434,47.705692,-1.1042717,-2.1799364,-3.2834678,-0.19804323,-0.14745466,-0.1698938,28.5625,29.875,28.9375,32.6875,35.125,36.25
0.28605363,-1.5044613,-0.5711433,-1.4959209,-0.006476151,0.06968395,-0.15987729,-0.40708646,-0.3605798,0.060033735,-3.0769212,0.626461,-5.5574354e-05,-0.12714483,0.056925163,0.0016125441,0.0076191933,0.0034666844,0.0046002823,0.4759289,-1.3640397,1.8819102,-2.0861933,-1.5719126,2.4521172,-0.2014633,0.12683874,-0.16400069,0.03736005,-0.008837183,-0.20596349,-0.61291564,-0.038307227,-9.289502,0.85155696,47.71017,-1.2728153,-2.1510367,-3.2372766,-0.2065422,-0.11892749,-0.1458324,28.5625,29.875,28.9375,32.6875,35.125,36.25
0.28805408,-1.6570591,-0.6890549,-1.5698628,-0.016336413,0.0945109,-0.16711593,-0.40731463,-0.36043495,0.06000428,-3.076773,0.626434,-0.000110480476,-0.12686594,0.056580182,0.0017226465,0.0081507815,0.0030415843,-0.0006430779,0.47554505,-1.3637513,1.8815993,-2.0860493,-1.572009,2.4517357,-0.20036252,0.12726884,-0.16508387,0.03862067,-0.009132627,-0.19961725,-0.61291564,0.11492168,-9.423578,0.800085,47.72719,-1.3460879,-2.1563165,-3.227349,-0.21036288,-0.13483696,-0.22052895,28.5625,29.875,28.9375,32.6875,35.125,36.25
0.290054,-1.8100126,-0.77523786,-1.9145269,-0.019735005,0.10258206,-0.16277832,-0.40757337,-0.36033276,0.059997417,-3.076796,0.6264225,-0.00016559804,-0.12795646,0.05667614,0.0013859515,0.0076042353,0.002200761,-0.006717436,0.4751247,-1.3634621,1.8812522,-2.0859773,-1.5719723,2.4513054,-0.20189224,0.1296027,-0.16721928,0.038926143,-0.008264073,-0.19507368,-0.5554548,0.22984336,-9.615114,0.800085,47.701214,-1.4155171,-2.2042994,-3.2056675,-0.20731568,-0.14650801,-0.3000315,28.5625,29.875,28.9375,32.6875,35.125,36.25
0.29205397,-1.5516866,-0.84143925,-1.8210945,-0.04361273,0.1062953,-0.17045692,-0.40782008,-0.36020902,0.060001135,-3.0767617,0.62649375,-0.00014470528,-0.12905675,0.05738715,0.0014760077,0.007410081,0.0031556175,-0.012694152,0.4747164,-1.3632338,1.8809541,-2.0859063,-1.5719966,2.450946,-0.20377617,0.12990478,-0.16762325,0.038088344,-0.0085269315,-0.19098,-0.36391866,0.24899697,-9.672575,0.83813137,47.72002,-1.4907409,-2.154338,-3.278473,-0.20231318,-0.13784815,-0.37447685,28.5625,29.875,28.9375,32.6875,35.125,36.25
0.29405355,-1.1159087,-1.1261609,-2.0126724,-0.052265644,0.098266855,-0.17525959,-0.4080785,-0.36008644,0.060001258,-3.0766926,0.62657624,-0.00015677232,-0.13118857,0.058777656,0.0010035426,0.008519732,0.0036902425,-0.014830266,0.4743073,-1.3629566,1.8805946,-2.085786,-1.5720328,2.4505975,-0.20709223,0.13234125,-0.16934572,0.037398476,-0.009772483,-0.19215536,-0.38307226,0.24899697,-9.883265,0.84484416,47.67793,-1.316525,-2.223633,-3.3403046,-0.1957957,-0.14702202,-0.4094231,28.5625,29.875,28.9375,32.6875,35.125,36.25
0.29605404,-0.94232196,-1.1268394,-2.2030952,-0.05815641,0.08289282,-0.17414324,-0.40839016,-0.35996744,0.060030427,-3.076707,0.6266714,-3.3889282e-05,-0.13283432,0.05950697,0.0013586504,0.007929803,0.005487442,-0.010482936,0.4738509,-1.3626922,1.8802007,-2.085739,-1.5720571,2.450199,-0.20942886,0.13268657,-0.17031169,0.036134213,-0.010064462,-0.19883896,-0.2681506,0.30645782,-9.902418,0.83365434,47.699425,-1.3933731,-2.1911542,-3.2889037,-0.1612933,-0.11930216,-0.34489927,28.5625,29.875,28.9375,32.6875,35.125,36.25
0.29805472,-0.69659066,-1.1768345,-2.1735177,-0.0551351,0.070520066,-0.17588848,-0.40863192,-0.3598233,0.060008455,-3.0766268,0.62658954,-4.0233925e-05,-0.13317567,0.060018744,-0.000254466,0.009750566,0.002880135,0.0011668573,0.47344276,-1.3624265,1.8799132,-2.085655,-1.5721296,2.4497502,-0.2101992,0.1364787,-0.17129587,0.036443073,-0.010523639,-0.21125646,-0.095768064,0.30645782,-9.921572,0.8940802,47.65912,-1.4319355,-2.4622025,-3.3663316,-0.13850968,-0.12966321,-0.27513742,28.5625,29.875,28.9375,32.6875,35.125,36.25
0.3000534,-0.25348088,-0.5022071,-1.9587237,-0.065428086,0.061796106,-0.19657482,-0.4088916,-0.35972586,0.059998043,-3.0766408,0.62656814,-5.559019e-05,-0.13470127,0.06075674,0.0002983006,0.0094430735,0.004010826,0.008270949,0.47304577,-1.3621265,1.8795661,-2.0856068,-1.5721172,2.4493382,-0.21248494,0.1367557,-0.1729768,0.036687143,-0.010779978,-0.22064506,-0.11492168,0.2681506,-9.902418,0.800085,47.666286,-1.3132175,-2.286001,-3.3559854,-0.13624278,-0.14055017,-0.13281634,28.5625,29.875,28.9375,32.6875,35.125,36.25
0.3020538,-0.53094536,-1.535026,-2.1644845,-0.03637051,0.046148285,-0.17215432,-0.4091809,-0.35960007,0.060013734,-3.076644,0.6265513,6.0966006e-05,-0.13548377,0.06217038,-0.0007547487,0.009645738,0.0014164139,0.0054242956,0.47261256,-1.3618739,1.8792194,-2.085571,-1.5721649,2.4488943,-0.2160323,0.13861527,-0.17296226,0.037195772,-0.009766375,-0.2213488,-0.15322891,0.24899697,-9.864111,0.8537928,47.701214,-1.1666545,-2.3520956,-3.4633536,-0.12593213,-0.12833534,-0.08949851,28.5625,29.875,28.9375,32.6875,35.125,36.25
0.30405325,0.16322817,0.30085513,-1.8541225,-0.043318234,0.047789775,-0.17891769,-0.40947622,-0.35948065,0.060044225,-3.076686,0.6264894,0.00011456116,-0.13731574,0.062419657,-0.00043088404,0.009021757,0.0016296133,-0.003903952,0.4721559,-1.3616207,1.8788246,-2.0854747,-1.5721649,2.4483938,-0.21818557,0.14069816,-0.17643715,0.03811855,-0.0092969835,-0.21417397,-0.095768064,0.15322891,-9.730036,0.90750587,47.737038,-1.0780628,-2.4584699,-3.4821563,-0.09533994,-0.14236872,-0.1274643,28.5625,29.875,28.9375,32.6875,35.125,36.25
0.30605423,0.054968037,0.21505904,-1.8677868,-0.015338385,0.042050716,-0.18191914,-0.409758,-0.35935962,0.060033895,-3.0766692,0.62658787,0.0001783223,-0.13729882,0.06354183,-0.0018138496,0.010421929,-0.0009552014,-0.015233799,0.47172308,-1.3613317,1.8785013,-2.0854747,-1.5721887,2.4480247,-0.21989371,0.14256288,-0.17563388,0.03839477,-0.009351297,-0.20455253,-0.13407528,0.076614454,-9.710882,0.85826975,47.685097,-0.92817974,-2.4485378,-3.4180334,-0.08580999,-0.14274515,-0.22549617,28.5625,29.875,28.9375,32.6875,35.125,36.25
0.3080545,-0.09486675,0.017418269,-1.6922319,0.0149947265,0.04595806,-0.17186587,-0.4100408,-0.35924262,0.060049016,-3.0766935,0.6266355,0.00018003132,-0.13833733,0.06348806,-0.0010519151,0.008863761,-9.66423e-05,-0.024062144,0.47126693,-1.3610674,1.8781308,-2.0853908,-1.5721644,2.4475954,-0.22117782,0.14256582,-0.17749164,0.03878532,-0.008346473,-0.19701038,-0.2681506,0.05746084,-9.576807,0.8985519,47.68599,-0.9633859,-2.5218449,-3.4454505,-0.067401186,-0.14216733,-0.3547517,28.5625,29.875,28.9375,32.6875,35.125,36.25
0.31005412,-0.8524511,-0.19477347,-1.5050554,0.024774253,0.046888057,-0.16167526,-0.41031593,-0.3591008,0.060040746,-3.0766156,0.6266583,0.00021711433,-0.13809946,0.0638723,-0.002125033,0.009813338,-0.0024318323,-0.0290291,0.47083497,-1.3607787,1.8777841,-2.085307,-1.5722364,2.447188,-0.22162245,0.14446716,-0.17751554,0.039408267,-0.008134266,-0.19248821,-0.36391866,-0.095768064,-9.519346,0.82022345,47.677036,-1.0556514,-2.6263928,-3.4366522,-0.045170955,-0.17655402,-0.45840335,28.5625,29.875,28.9375,32.6875,35.125,36.25
0.31205362,-0.7260287,0.5905679,-1.158063,0.013403264,0.07079023,-0.17691071,-0.4105996,-0.35902563,0.06009255,-3.0767126,0.62675315,0.0002882399,-0.13765688,0.063039914,-0.0019368586,0.009736185,-0.002921791,-0.024999615,0.4704272,-1.3605512,1.8773769,-2.0852344,-1.5721763,2.446827,-0.21988796,0.145023,-0.17892407,0.04066688,-0.007827731,-0.19478431,-0.2681506,-0.11492168,-9.385271,0.86498255,47.691364,-1.1824117,-2.3427444,-3.4650488,-0.044838767,-0.18049352,-0.5099443,28.5625,29.875,28.9375,32.6875,35.125,36.25
0.31405354,-1.0720277,0.3922503,-1.0283675,0.030416552,0.07865843,-0.17206676,-0.41089755,-0.358897,0.06009724,-3.0766814,0.6267189,0.00033293143,-0.13863657,0.06257397,-0.0011299857,0.009278281,-0.0019714925,-0.0122817885,0.46998367,-1.3602393,1.8769702,-2.085139,-1.5722245,2.4463663,-0.21978192,0.14588116,-0.18210794,0.041906852,-0.007868568,-0.20739491,-0.2681506,-0.21068975,-9.212888,0.9455522,47.72002,-1.3713999,-2.3584437,-3.3090413,-0.02855334,-0.19403797,-0.43365386,28.5625,29.875,28.9375,32.6875,35.125,36.25
0.31605327,-0.96695185,0.8322283,-1.1841888,0.03673192,0.075690664,-0.18034999,-0.411171,-0.35874978,0.060079556,-3.0766196,0.62681353,0.0003071967,-0.14012003,0.062469296,-0.0009590788,0.00858091,-0.0016482645,0.0009872142,0.46951503,-1.3599503,1.8766469,-2.0850666,-1.5722479,2.4459648,-0.22102252,0.14800219,-0.18514779,0.042190164,-0.0074233427,-0.221904,-0.1340753,-0.19153613,-9.232041,0.91198283,47.71286,-1.3323658,-2.4607496,-3.33573,-0.031233694,-0.21834889,-0.28814453,28.5625,29.875,28.9375,32.6875,35.125,36.25
0.31805405,-0.4404207,0.63636786,-1.0424169,0.036448445,0.06367808,-0.18047014,-0.4113942,-0.35863638,0.06004109,-3.0765986,0.626673,0.00014991853,-0.14218152,0.06298394,-8.086356e-05,0.008274501,0.0004885275,0.0066671283,0.46911806,-1.3596383,1.876335,-2.0849588,-1.5722245,2.445483,-0.22309718,0.14868404,-0.18804006,0.042349834,-0.008156332,-0.2296549,-0.11492168,-0.11492168,-9.097966,0.8806493,47.694946,-1.3783715,-2.4579895,-3.2337277,0.015515333,-0.19656217,-0.1769422,28.5625,29.875,28.9375,32.6875,35.125,36.25
0.3200533,-0.5108136,0.27318907,-1.1004362,0.032715887,0.039679755,-0.16363427,-0.41173398,-0.3585231,0.060096275,-3.0766385,0.62679493,0.00033356488,-0.14268352,0.06314609,0.00088794564,0.009057048,0.0022093118,0.0045625637,0.46865082,-1.3593751,1.8758796,-2.0848982,-1.5722488,2.445087,-0.22274865,0.14784458,-0.18951938,0.043486908,-0.009601402,-0.22719914,-0.30645782,0.019153614,-9.136273,0.8717007,47.672558,-1.4963045,-2.3342638,-3.2739978,0.010573536,-0.22258565,-0.13834296,28.5625,29.875,28.9375,32.6875,35.125,36.25
0.32205415,-0.48944932,-0.08833158,-0.9890101,0.012362017,0.0345808,-0.16810872,-0.4120202,-0.35835972,0.06009649,-3.0765543,0.62676436,0.00036886794,-0.14335403,0.063991904,0.0012414862,0.009836692,0.0015180679,-0.0048529934,0.46818224,-1.3590993,1.8755206,-2.084778,-1.5723332,2.4446104,-0.22437401,0.14808802,-0.19118877,0.045872055,-0.00998513,-0.21940726,-0.34476504,0.05746084,-9.059659,0.8537928,47.657326,-1.4278052,-2.234264,-3.2523522,0.0044719684,-0.18813169,-0.22566916,28.5625,29.875,28.9375,32.6875,35.125,36.25
0.3240541,-0.5111288,-0.5544729,-1.371141,0.007675044,0.041805737,-0.17420036,-0.41230258,-0.3582392,0.060085617,-3.0765536,0.62669075,0.00033670195,-0.14355767,0.06488521,0.00143088,0.01111265,0.0007037869,-0.01159036,0.46773794,-1.3587754,1.8751367,-2.0846932,-1.5723337,2.4441204,-0.22543883,0.14793277,-0.1919854,0.048133757,-0.010754613,-0.21373254,-0.3256114,0.095768064,-9.193734,0.900793,47.70032,-1.4501362,-2.199968,-3.1701102,-0.0107435305,-0.19886577,-0.31399015,28.5625,29.875,28.9375,32.6875,35.125,36.25
0.32605365,-0.5920138,-0.41700032,-1.5050116,-0.010689463,0.051879287,-0.16946533,-0.41259181,-0.35810328,0.060105853,-3.0765164,0.62681973,0.0003423376,-0.14411497,0.06573218,0.0003560052,0.013012617,-0.00266095,-0.01608067,0.4672689,-1.3585106,1.8747424,-2.0845606,-1.5723451,2.4437368,-0.22708817,0.15135226,-0.19431673,0.050903574,-0.010933779,-0.21088995,-0.21068975,0.17238252,-9.308657,0.9298854,47.694054,-1.304894,-2.241135,-3.3409646,-0.023876417,-0.20167145,-0.37780982,28.5625,29.875,28.9375,32.6875,35.125,36.25
0.32805347,-0.8579803,-0.67122823,-1.1628913,-0.035636317,0.0765192,-0.18237014,-0.41287726,-0.35796073,0.06008873,-3.0764585,0.6268635,0.00030452368,-0.14482015,0.06781153,0.0011574883,0.012913233,-0.0039450834,-0.016452016,0.46679983,-1.3581879,1.8743714,-2.0844643,-1.572369,2.4433026,-0.23144601,0.14920887,-0.19433554,0.0541491,-0.01027767,-0.21487822,-0.45968673,0.17238252,-9.232041,0.88960326,47.709274,-1.1670568,-2.045286,-3.3529692,-0.057211347,-0.19016892,-0.3781994,28.5625,29.875,28.9375,32.6875,35.125,36.25
0.33005345,-0.48824254,-0.2877464,-0.9837722,-0.045129392,0.10466761,-0.19298908,-0.41314825,-0.35783067,0.06009086,-3.0764432,0.62683576,0.00023065852,-0.14591794,0.06952896,0.0012053348,0.012922107,-0.0059613707,-0.010053191,0.46634242,-1.3579,1.8739876,-2.0843194,-1.572357,2.44283,-0.23566853,0.14952427,-0.19544426,0.056725238,-0.009401736,-0.2255011,-0.49799395,0.095768064,-9.212888,0.8873621,47.694054,-1.1026107,-2.0279155,-3.3240669,-0.09473069,-0.21412557,-0.30134973,28.5625,29.875,28.9375,32.6875,35.125,36.25
0.33205414,-0.55359215,-0.06419045,-1.2647834,-0.01684693,0.1059495,-0.18401957,-0.41344595,-0.35769716,0.06010004,-3.0764384,0.6267143,0.000261067,-0.14660604,0.07057623,0.00092193077,0.0137319,-0.0073133493,-0.00060071127,0.46588594,-1.3575996,1.8735808,-2.084211,-1.5723928,2.4422987,-0.23778613,0.15057784,-0.19644414,0.058212657,-0.009534666,-0.23707052,-0.24899697,0.095768064,-9.308657,0.86498255,47.679718,-0.97274125,-2.0408876,-3.214813,-0.113963954,-0.22108325,-0.15776207,28.5625,29.875,28.9375,32.6875,35.125,36.25
0.33405378,-0.8439601,-0.19328545,-1.5235776,0.009338916,0.0837643,-0.16991448,-0.41374087,-0.35755205,0.060096033,-3.0764008,0.6267641,0.0002662364,-0.14688091,0.07087023,0.00086053985,0.013579967,-0.008518098,0.0005740988,0.46540564,-1.3572997,1.8732098,-2.0841267,-1.5724171,2.4418545,-0.23877205,0.15131083,-0.19753309,0.05956104,-0.008869083,-0.23923251,-0.2873042,-0.038307227,-9.442732,0.8537928,47.66987,-0.9902532,-2.055452,-3.2307124,-0.13780701,-0.22753812,-0.107209176,28.5625,29.875,28.9375,32.6875,35.125,36.25
0.3360537,-1.1836566,-0.13315216,-1.011352,0.0146181965,0.058027353,-0.15997516,-0.4140466,-0.35739955,0.06009848,-3.0763366,0.6267728,0.00029228383,-0.14651811,0.071328424,0.00014187973,0.01588927,-0.011623351,-0.0049408097,0.46492562,-1.3569875,1.8728012,-2.084006,-1.5724767,2.4413884,-0.23867175,0.15339655,-0.1992228,0.06297019,-0.0095427465,-0.2336147,-0.47884035,0.019153614,-9.251195,0.94331104,47.68062,-1.106601,-1.9085804,-3.2692661,-0.18971935,-0.24823058,-0.13423148,28.5625,29.875,28.9375,32.6875,35.125,36.25
0.33805326,-0.06613517,0.3315955,-1.1498715,0.03687947,0.067653626,-0.16167414,-0.41432488,-0.35729638,0.060097087,-3.0763578,0.6268006,0.0002523376,-0.14667873,0.0706819,-0.0019203536,0.016969852,-0.01283633,-0.012337408,0.46449408,-1.3566736,1.8724078,-2.0839236,-1.5724415,2.4409716,-0.23731601,0.15823494,-0.1998127,0.060311157,-0.009971423,-0.22486016,-0.38307226,0.05746084,-9.155427,0.88960326,47.701214,-1.2384515,-2.2859805,-3.3697915,-0.17391211,-0.2208786,-0.22022116,28.5625,29.875,28.9375,32.6875,35.125,36.25
0.34005404,0.14673842,0.9529191,-1.8186895,0.040633753,0.05002725,-0.17630605,-0.414631,-0.35715848,0.060104463,-3.0763388,0.6268591,0.0002342154,-0.14717834,0.07074399,-0.0019197203,0.016767574,-0.013542786,-0.02226521,0.4640022,-1.3563621,1.8719887,-2.0838034,-1.572441,2.4405189,-0.23798902,0.15938136,-0.2014825,0.06138526,-0.0094771935,-0.2156059,-0.1340753,-0.21068975,-9.346964,0.9030289,47.664497,-1.2640018,-2.0904503,-3.3993847,-0.20217028,-0.25365627,-0.3607793,28.5625,29.875,28.9375,32.6875,35.125,36.25
0.34205383,0.23274769,0.47004858,-1.3167127,0.021900857,0.04936611,-0.16887422,-0.4149092,-0.35700026,0.060079847,-3.076234,0.6268974,0.00013249551,-0.14668375,0.07083848,-0.0021488066,0.01873651,-0.016496358,-0.027757091,0.4635221,-1.3560257,1.8716038,-2.083646,-1.5724767,2.4400764,-0.23730831,0.1609659,-0.20390105,0.065741986,-0.0099380845,-0.20943026,-0.095768064,-0.19153613,-9.346964,0.86945957,47.66271,-1.3388872,-2.2364676,-3.3631396,-0.26281548,-0.25325292,-0.4717298,28.5625,29.875,28.9375,32.6875,35.125,36.25
0.3440532,-0.020238794,0.49654585,-1.3322256,0.0023282017,0.045954958,-0.17869867,-0.41521978,-0.35686797,0.060105905,-3.0761926,0.6269416,0.00018956531,-0.14682801,0.071021445,-0.0033204693,0.020261366,-0.017673695,-0.022236532,0.46306646,-1.3557249,1.8711499,-2.0835025,-1.5725254,2.4396539,-0.23706172,0.1636693,-0.20443952,0.065291,-0.010793726,-0.21470149,-0.21068975,-0.19153613,-9.308657,0.83813137,47.67166,-1.3785027,-2.3368597,-3.413566,-0.29602042,-0.2346785,-0.50461495,28.5625,29.875,28.9375,32.6875,35.125,36.25
0.34605414,-0.009078619,0.20604849,-1.5990111,0.007414131,0.058409892,-0.17699309,-0.4154978,-0.3566918,0.06007964,-3.0760665,0.6270615,4.760182e-05,-0.14821205,0.071926706,-0.0035862383,0.019430269,-0.017593076,-0.011304796,0.46254966,-1.3554008,1.8707784,-2.0833232,-1.5725492,2.4392283,-0.24000458,0.16479555,-0.20500757,0.0642521,-0.010149809,-0.22857624,-0.05746084,-0.038307227,-9.423578,0.9030289,47.675243,-1.3941765,-2.3343658,-3.3977041,-0.3019008,-0.25871813,-0.39051086,28.5625,29.875,28.9375,32.6875,35.125,36.25
0.34805372,-0.5334837,-0.31398344,-1.5347687,-0.0029401418,0.066994436,-0.17013536,-0.41580772,-0.35655963,0.060077414,-3.076057,0.6270147,6.861095e-05,-0.15002154,0.07276104,-0.0038184975,0.019401243,-0.01752526,-0.000747306,0.46208054,-1.3550645,1.8703593,-2.0832403,-1.5725735,2.4387314,-0.24275208,0.16702247,-0.20717995,0.06408991,-0.010188924,-0.24188013,0.076614454,-0.019153614,-9.423578,0.93436235,47.684196,-1.4096214,-2.538159,-3.3123307,-0.3364433,-0.24944298,-0.25195473,28.5625,29.875,28.9375,32.6875,35.125,36.25
0.35005322,-0.20320135,-0.32146674,-1.3459587,-0.024303569,0.07589475,-0.17136294,-0.41612872,-0.35642782,0.0600878,-3.0760615,0.6269955,6.627845e-05,-0.15213428,0.07286326,-0.0032022798,0.018406192,-0.014878927,0.0015707685,0.46158817,-1.3547285,1.8699034,-2.0831206,-1.5725735,2.4382267,-0.24434336,0.1682769,-0.2098181,0.062650554,-0.010503108,-0.24578752,0.0,0.095768064,-9.3661175,0.85155696,47.694946,-1.2839309,-2.3511238,-3.3210502,-0.3300631,-0.26500493,-0.17581043,28.5625,29.875,28.9375,32.6875,35.125,36.25
0.35205403,-0.474358,-0.8158787,-1.395753,-0.03066415,0.057938933,-0.16997565,-0.4163975,-0.3562422,0.06004013,-3.0759299,0.62709135,-6.6015586e-05,-0.15368041,0.073786974,-0.004135991,0.018016309,-0.0145492265,-0.008612637,0.46107137,-1.3544036,1.869593,-2.0830019,-1.5726093,2.4377868,-0.24715665,0.17055689,-0.20989792,0.059980977,-0.010339843,-0.23841612,-0.4213795,0.24899697,-9.270349,0.9298854,47.70211,-1.1988238,-2.508882,-3.4345508,-0.3224885,-0.27476668,-0.23151162,28.5625,29.875,28.9375,32.6875,35.125,36.25
0.3540538,-0.68773973,-0.7701221,-1.654708,-0.030945746,0.04378668,-0.17765589,-0.41672024,-0.35612464,0.06007411,-3.0759575,0.62700564,-4.962249e-05,-0.15706602,0.07438972,-0.0025550989,0.015911788,-0.008344985,-0.017983617,0.46060222,-1.3540808,1.869089,-2.082836,-1.5726093,2.4372609,-0.2503016,0.17005771,-0.21207462,0.05617421,-0.011223063,-0.23218685,-0.4022259,0.1340753,-9.193734,0.9410752,47.698532,-1.1030141,-2.1797411,-3.3686876,-0.29182005,-0.23548234,-0.32626522,28.5625,29.875,28.9375,32.6875,35.125,36.25
0.35605338,-0.3959925,-0.44706753,-1.6726559,-0.04675038,0.06275645,-0.17326893,-0.41702205,-0.35596246,0.060075734,-3.0758817,0.6271249,-6.227267e-05,-0.15810814,0.07430052,-0.0010650266,0.014564075,-0.0055584824,-0.020381546,0.46009797,-1.3537813,1.8686942,-2.0827038,-1.5726455,2.436841,-0.25083318,0.16854125,-0.21367456,0.056185547,-0.011269296,-0.23031977,-0.34476504,0.19153613,-9.385271,0.85155696,47.66271,-1.1227264,-2.205145,-3.4456496,-0.28441954,-0.25379968,-0.4012738,28.5625,29.875,28.9375,32.6875,35.125,36.25
0.35805404,-1.2101179,-1.373554,-1.5561224,-0.045123417,0.06835168,-0.16845234,-0.4173594,-0.35582396,0.06009446,-3.075883,0.62723756,-1.9578794e-05,-0.1600258,0.073591605,-0.00035921976,0.011583127,-0.0019161118,-0.017065955,0.45958176,-1.3534573,1.8682393,-2.08261,-1.5726451,2.4363952,-0.2516949,0.16928852,-0.21541734,0.05257743,-0.010229257,-0.23449978,-0.3256114,0.30645782,-9.461885,0.9410752,47.66987,-1.2511556,-2.2283673,-3.4291759,-0.2750842,-0.27037784,-0.40122062,28.5625,29.875,28.9375,32.6875,35.125,36.25
0.3600535,-1.4298843,-1.4283712,-1.4775001,-0.054972354,0.09328259,-0.17087635,-0.4176677,-0.3556747,0.06006033,-3.0758355,0.62730044,-0.00012183209,-0.16318016,0.07401837,0.00034471488,0.009581885,0.0019435905,-0.009490678,0.45906517,-1.3530729,1.8678311,-2.082515,-1.5726331,2.435924,-0.25489846,0.17078769,-0.21818966,0.049481325,-0.010195912,-0.24527685,-0.45968673,0.22984336,-9.461885,0.9545008,47.678825,-1.1589552,-2.2329764,-3.3099427,-0.21542448,-0.2775589,-0.30338943,28.5625,29.875,28.9375,32.6875,35.125,36.25
0.36205426,-1.5298922,-1.3597356,-1.784931,-0.034925383,0.11387343,-0.17311865,-0.41797623,-0.35552096,0.06006993,-3.0757987,0.62717164,-9.788986e-05,-0.16364703,0.073548764,0.00057198235,0.00852023,0.0029031534,0.002128675,0.45858476,-1.3527613,1.8674005,-2.082371,-1.5726928,2.4353683,-0.2546308,0.17128448,-0.21914865,0.048570264,-0.009698268,-0.25662956,-0.45968673,0.28730422,-9.500193,0.91198283,47.687782,-1.0975981,-2.1943421,-3.4296765,-0.19109613,-0.30900484,-0.19887981,28.5625,29.875,28.9375,32.6875,35.125,36.25
0.36405385,-1.9656022,-0.44964895,-1.7935393,-0.038323272,0.10552237,-0.16877976,-0.41832045,-0.35537678,0.060072284,-3.0757883,0.6272059,-4.6823523e-05,-0.16383126,0.072737694,0.0013784204,0.008000739,0.003810936,0.0054038344,0.45806944,-1.3524014,1.8669442,-2.082299,-1.5727171,2.434876,-0.25326583,0.17135507,-0.22136511,0.049657594,-0.009633382,-0.2585396,-0.6895301,0.19153613,-9.576807,0.96569055,47.721813,-1.2579827,-2.3007805,-3.4522038,-0.19870746,-0.29071942,-0.09580012,28.5625,29.875,28.9375,32.6875,35.125,36.25
0.36605355,-1.0601227,-0.15715525,-1.6220388,-0.04022251,0.12920557,-0.1791468,-0.41865507,-0.35521305,0.0600608,-3.0757394,0.6272793,-5.672876e-05,-0.16564858,0.07233766,0.0012107529,0.0077569676,0.0052804737,-0.0030351891,0.45752934,-1.3520404,1.8665127,-2.082204,-1.5727409,2.4343882,-0.25365475,0.174647,-0.22471277,0.04829408,-0.010067998,-0.2504863,-0.7469909,0.19153613,-9.595961,0.9612189,47.71554,-1.3596475,-2.3094833,-3.4480348,-0.17348519,-0.3185146,-0.14606595,28.5625,29.875,28.9375,32.6875,35.125,36.25
0.368054,-1.6097635,0.08728978,-1.5860705,-0.031438246,0.112433836,-0.1650369,-0.41899312,-0.35507682,0.060062665,-3.0757484,0.6272658,-1.6844913e-05,-0.16612127,0.07115717,0.00096389157,0.00717469,0.007475214,-0.010206908,0.4570261,-1.3516803,1.8660573,-2.0821335,-1.5727533,2.4338756,-0.25160632,0.1764183,-0.22566865,0.04526466,-0.010501989,-0.24126446,-0.6895301,0.019153614,-9.576807,0.91421866,47.70032,-1.3834419,-2.2300715,-3.4606328,-0.119579226,-0.31700346,-0.25779015,28.5625,29.875,28.9375,32.6875,35.125,36.25
0.37005386,-1.2103534,0.10727823,-1.8830119,-0.018418735,0.10565468,-0.1671323,-0.41931596,-0.35492516,0.060068406,-3.0757213,0.627342,-1.1705173e-05,-0.16624163,0.07244128,-0.00020374787,0.008289683,0.0042361966,-0.021845283,0.45650995,-1.351356,1.8656276,-2.0820248,-1.5727657,2.4334106,-0.25395188,0.17827924,-0.22567019,0.046813287,-0.0100558335,-0.23197284,-0.5746084,-0.038307227,-9.557653,0.88289046,47.693153,-1.5273528,-2.243914,-3.4501815,-0.11464217,-0.3182211,-0.38847756,28.5625,29.875,28.9375,32.6875,35.125,36.25
0.37205356,-0.80631226,0.46453017,-1.5572681,-0.014178784,0.0944334,-0.16764271,-0.41966856,-0.3548018,0.060071815,-3.0757182,0.6274211,3.9490867e-05,-0.1674955,0.07395603,-0.00042580688,0.0092225,0.0031811935,-0.027219255,0.45601648,-1.35096,1.8651246,-2.0819523,-1.5727772,2.4329672,-0.25711876,0.17953351,-0.22708982,0.048335396,-0.010416834,-0.22976454,-0.6512229,-0.11492168,-9.576807,0.9612189,47.68062,-1.4308586,-2.3389983,-3.4650908,-0.093341455,-0.33903003,-0.4997335,28.5625,29.875,28.9375,32.6875,35.125,36.25
