Tylouw/Master_Thesis_Code/training_data/batch_1/rect_rod_t0.3/sample_4_session_1.csv
timestamp[s],tcp_force_x[N],tcp_force_y[N],tcp_force_z[N],tcp_force_rx[Nm?],tcp_force_ry[Nm?],tcp_force_rz[Nm?],tcp_pose_x[m],tcp_pose_y[m],tcp_pose_z[m],tcp_pose_rx[rot_vec_x],tcp_pose_ry[rot_vec_y],tcp_pose_rz[rot_vec_z],tcp_velo_x[m/s],tcp_velo_y[m/s],tcp_velo_z[m/s],tcp_velo_rx[rot_vec_x/s],tcp_velo_ry[rot_vec_y/s],tcp_velo_rz[rot_vec_z/s],q1[rad],q2[rad],q3[rad],q4[rad],q5[rad],q6[rad],qd1[rad/s],qd2[rad/s],qd3[rad/s],qd4[rad/s],qd5[rad/s],qd6[rad/s],tool_acc_x,tool_acc_y,tool_acc_z,current_of_whole_robot[A],voltage_of_whole_robot[V],current_J1[A],current_J2[A],current_J3[A],current_J4[A],current_J5[A],current_J6[A],temp_J1[C],temp_J2[C],temp_J3[C],temp_J4[C],temp_J5[C],temp_J6[C]
8.569914e-07,-0.5149276,-0.12700424,1.034897,-0.012344884,-0.028891424,-0.007012165,-0.38932124,-0.36872908,0.060009137,-3.0787237,0.62487465,0.00018053429,0.0008381989,0.00044103965,-0.00061096915,0.0009214631,-0.0020115047,4.0934483e-05,0.50505686,-1.3816559,1.9042114,-2.0919034,-1.5708417,2.4800134,-6.50729e-05,-3.196633e-05,0.0011901857,0.0010473588,0.00017190642,-0.000106859996,0.1340753,0.21068975,-8.695741,0.7016076,47.733456,-0.19718724,-3.0863714,-2.382146,-0.19096676,0.18825865,0.0066439593,28.1875,29.625,28.6875,32.4375,34.875,35.9375
0.002052757,-0.39029768,0.29172888,1.1858166,-0.01529088,-0.022702528,-0.011506274,-0.38933384,-0.36871743,0.060024824,-3.0787098,0.62494844,0.00021170863,-0.0012036238,-0.00069295295,-0.00045859138,-0.003139411,0.0053019775,4.0838026e-05,0.5050329,-1.3816799,1.9041995,-2.0918834,-1.5708536,2.4800372,-6.391764e-05,-4.2886907e-07,0.003156734,-0.009315985,0.00016733997,-0.00010529716,0.095768064,0.19153613,-8.676587,0.7150385,47.71286,-0.21484432,-2.9777727,-2.3837662,-0.15445524,0.19061466,0.015434744,28.1875,29.625,28.6875,32.4375,34.875,35.9375
0.004052478,0.10774569,0.3568358,1.3385574,-0.028778234,-0.004666134,-0.0148724755,-0.3893531,-0.3687147,0.060028963,-3.0787241,0.6248932,0.0003047189,-0.0016239902,-0.00092703843,-0.0020235055,-0.002661945,0.004434961,4.1308896e-05,0.5050329,-1.3816786,1.9041995,-2.0919316,-1.5708898,2.480001,-6.280264e-05,0.003552832,0.0030852424,-0.011807957,0.0001630094,-0.00010377956,0.15322891,0.21068975,-8.676587,0.7530795,47.694054,-0.18329912,-3.4629643,-2.618571,-0.038089022,0.1884771,0.010664846,28.1875,29.625,28.6875,32.4375,34.875,35.9375
0.006052632,-0.24607432,0.19721445,1.2326609,-0.010163072,-0.025830025,-0.0074669635,-0.3893247,-0.36870074,0.059996326,-3.07868,0.6249617,0.00019148579,-0.0005176816,-0.00031070577,-0.0015092242,-0.0009056792,0.0012906947,4.047157e-05,0.50502086,-1.381667,1.9042596,-2.0919292,-1.5708655,2.4800372,-6.172583e-05,0.0022564197,0.0021156522,-0.0059404443,0.00015889789,-0.000102304926,0.0,0.24899697,-8.6574335,0.78217715,47.698532,-0.28394952,-3.2628703,-2.5291371,-0.07967115,0.18051723,0.008100497,28.1875,29.625,28.6875,32.4375,34.875,35.9375
0.00805252,0.24777156,1.1141707,0.8981106,0.026658153,-0.047090676,-0.011787846,-0.3893373,-0.36872643,0.06001531,-3.0787385,0.6249161,0.00025137697,-0.00015285247,-0.00011352044,-0.00021286806,-0.0006098039,0.00073760585,3.984139e-05,0.5050448,-1.3816679,1.9042224,-2.0919516,-1.5708536,2.4800253,-6.068524e-05,0.00011230723,0.00076380104,-0.0018173361,0.00017421604,-0.00010087163,-0.019153614,0.22984336,-8.676587,0.7396539,47.701214,-0.14798425,-3.185761,-2.4993632,-0.10212054,0.19845381,0.0103422,28.1875,29.625,28.6875,32.4375,34.875,35.9375
0.01005261,-0.18417858,1.040001,0.44216597,0.04084776,-0.05198752,-0.011440283,-0.38931823,-0.36870953,0.059998874,-3.078673,0.6248643,0.00020188942,0.0001180194,3.7109035e-05,-0.00013044472,-5.138804e-05,-0.00026306938,3.935796e-05,0.50505686,-1.3816559,1.9042348,-2.0919034,-1.5708898,2.4800134,-5.9788872e-05,1.5067448e-06,0.00032185958,-0.00011865905,0.0001726861,-9.951945e-05,0.076614454,0.114921674,-8.944737,0.82694155,47.701214,-0.782794,-2.8238482,-2.8376942,-0.13501619,0.17824212,-0.07179512,28.1875,29.625,28.6875,32.4375,34.875,35.9375
0.012052432,0.04360183,0.93543726,0.3054768,0.0019915695,-0.022904662,-0.017474663,-0.3893037,-0.36870268,0.05995386,-3.0786362,0.62489706,8.836749e-05,-0.00040233284,0.0022177512,-0.0010408991,0.002212294,-0.0043333014,-0.004061132,0.5050437,-1.3815956,1.904271,-2.0919259,-1.5708655,2.4800253,-0.004214375,0.001318165,9.854239e-06,0.0035340567,0.0001688105,-0.00015367258,0.1340753,0.076614454,-9.232041,0.7418897,47.701214,-0.9623743,-2.657631,-2.8934994,-0.14539763,0.18027198,-0.12930499,28.1875,29.625,28.6875,32.4375,34.875,35.9375
0.01405284,-0.81560296,-0.14793995,-0.054234408,-0.024246484,-0.0080897445,-0.019907888,-0.38933674,-0.36868095,0.059979957,-3.0786335,0.6249891,8.856523e-05,-0.0026978126,0.005490315,-0.005612141,0.006092581,-0.011352103,0.0009206739,0.50496876,-1.3816159,1.9042224,-2.0918672,-1.5708536,2.4800081,-0.011871591,0.010317706,1.3220719e-07,0.002562244,0.00016495415,-0.012791149,0.076614454,0.038307227,-9.308656,0.7105615,47.698532,-0.5045339,-3.228365,-3.0769558,-0.12907207,0.16713363,-0.09614238,28.1875,29.625,28.6875,32.4375,34.875,35.9375
0.016052349,-1.4807911,-0.68756574,0.026774906,-0.04740358,0.013902975,-0.03605145,-0.38929605,-0.3686839,0.059926003,-3.078586,0.62488043,-6.5717766e-05,-0.005226101,0.0046833744,-0.0040271655,0.003991478,-0.00757194,0.0063230544,0.50500435,-1.3815438,1.9042572,-2.0918553,-1.5708417,2.479982,-0.012878444,0.01118143,-0.004461052,0.0018340758,0.00016125983,-0.019198354,-0.21068975,0.11492168,-9.3661175,0.67475104,47.717335,-0.5591486,-3.3543859,-2.9445534,-0.106272355,0.1781869,-0.04474769,28.1875,29.625,28.6875,32.4375,34.875,35.9375
0.018051945,-2.274486,-0.8783775,0.0807095,-0.04721747,0.02687785,-0.037648596,-0.38930982,-0.3686916,0.059940808,-3.0786293,0.6248299,-6.3026523e-06,-0.0058501633,0.004237603,-0.0020849642,0.0020429138,-0.0040433584,0.0100660715,0.5050044,-1.3815567,1.9042443,-2.0918791,-1.5708417,2.479945,-0.012707729,0.008137897,-0.0052373293,0.0016225196,0.00015772734,-0.022770787,-0.34476504,0.11492168,-9.385271,0.7486078,47.716442,-0.74387586,-3.0132828,-3.0586236,-0.09836388,0.17003652,-0.029415827,28.1875,29.625,28.6875,32.4375,34.875,35.9375
0.020051764,-1.8066708,0.24559379,-0.38900375,-0.021093503,0.05052047,-0.08197564,-0.3893148,-0.36869317,0.05992683,-3.078651,0.624778,-7.403082e-05,-0.0058195954,0.0054221493,-0.00259173,0.0031117601,-0.0059613623,0.00862085,0.5049797,-1.3815207,1.9042333,-2.0918787,-1.5708054,2.479885,-0.014670028,0.008170336,-0.004430281,0.0029795265,0.00015434602,-0.023288332,-0.49799395,0.0,-9.634268,0.7709874,47.692257,-0.88972986,-2.9058416,-3.1651974,-0.07313936,0.16750276,-0.03946665,28.1875,29.625,28.6875,32.4375,34.875,35.9375
0.022052059,-1.986232,0.44391015,-0.519929,0.020258475,0.043024655,-0.09682686,-0.38932747,-0.36866504,0.05993086,-3.0785956,0.6247878,-8.2234794e-05,-0.0058163633,0.0068000737,-0.004003287,0.0054217246,-0.010123838,0.0044153044,0.5049432,-1.38152,1.9042095,-2.0918176,-1.5708417,2.4798617,-0.01698533,0.010552767,-0.004612961,0.005539702,0.00015110687,-0.021397907,-0.45968673,-0.038307227,-9.672575,0.78217715,47.68599,-0.9053798,-2.8960185,-3.3191433,-0.12107326,0.14824343,-0.04577388,28.1875,29.625,28.6875,32.4375,34.875,35.9375
0.02405214,-1.6579909,0.47361082,-0.49821278,0.023311913,0.04870072,-0.11572181,-0.3893556,-0.36864027,0.05989818,-3.0785415,0.6248173,-0.00014077181,-0.0077439635,0.006786095,-0.0030936347,0.004303584,-0.008110489,0.00020223712,0.5048826,-1.3814356,1.9041842,-2.0918176,-1.5708536,2.4798265,-0.018763183,0.0112363845,-0.007459223,0.0053994963,0.00014800056,-0.018961407,-0.61291564,-0.05746084,-9.710882,0.7709874,47.692257,-0.8466452,-2.8121228,-3.3229423,-0.113626905,0.16078264,-0.0756146,28.1875,29.625,28.6875,32.4375,34.875,35.9375
0.026052412,-2.4722843,0.30407488,-0.58521724,0.020882461,0.03646843,-0.11816579,-0.38937172,-0.36863053,0.05989671,-3.078537,0.6248755,-9.856411e-05,-0.009205283,0.0061004725,-0.002750896,0.0032697292,-0.006250733,-0.0011447564,0.50485855,-1.381435,1.9041952,-2.0918543,-1.5708655,2.4798393,-0.018975366,0.0129984785,-0.010019967,0.0040703234,0.000145176,-0.01782512,-0.8619126,-0.019153614,-9.634268,0.7016076,47.679718,-0.94007367,-2.864191,-3.3206377,-0.10661553,0.16770902,-0.10547014,28.1875,29.625,28.6875,32.4375,34.875,35.9375
0.028052565,-2.2144341,0.21634774,-0.54309154,-0.0020357561,0.067667216,-0.14046048,-0.3893602,-0.368625,0.05986198,-3.0785322,0.6248164,-0.00027440875,-0.010052453,0.0058519943,-0.0026029565,0.0026915283,-0.0052308724,-0.0021496646,0.50482243,-1.3813746,1.9041947,-2.0918186,-1.5708054,2.4797668,-0.019354489,0.0138892345,-0.011212226,0.0032006502,0.00015160532,-0.017198639,-0.8619126,-0.05746084,-9.749189,0.7284641,47.67166,-0.9522776,-2.8588839,-3.3309665,-0.08259891,0.1781466,-0.12189545,28.1875,29.625,28.6875,32.4375,34.875,35.9375
0.03005161,-2.1629133,-0.16273586,-0.45944083,-0.013818739,0.08048252,-0.15158595,-0.38936824,-0.36859444,0.059852127,-3.0784748,0.6248055,-0.00029448973,-0.011017894,0.006185767,-0.0027079373,0.002861027,-0.0055355416,-0.0036285762,0.50478613,-1.3813621,1.9041942,-2.0917828,-1.5708417,2.479731,-0.020817572,0.015272513,-0.012713241,0.0036664275,0.0001473796,-0.017182026,-0.7469909,-0.095768064,-9.864111,0.779936,47.67614,-0.97092974,-2.8351192,-3.35501,-0.08459309,0.14394945,-0.14824405,28.1875,29.625,28.6875,32.4375,34.875,35.9375
0.032052413,-2.5718098,0.1653913,-0.5764597,-0.012562307,0.069586396,-0.15247504,-0.3894056,-0.36859554,0.05986875,-3.0785036,0.62483025,-0.00029236215,-0.011350691,0.006644716,-0.0025052198,0.0035157755,-0.0067064664,-0.0036699504,0.50473785,-1.381338,1.9041222,-2.0917575,-1.5708174,2.4796946,-0.021897014,0.015630871,-0.014146152,0.0060828347,0.00014275241,-0.018219694,-0.7661445,-0.15322891,-9.787497,0.78217715,47.67166,-1.0512645,-2.8398833,-3.272891,-0.09494604,0.15352242,-0.16221409,28.1875,29.625,28.6875,32.4375,34.875,35.9375
0.034051783,-2.8402097,-0.026819045,-0.6702245,0.015455885,0.052814603,-0.16970448,-0.38943273,-0.36858982,0.05985779,-3.0784767,0.6248629,-0.00024167732,-0.011558696,0.007255264,-0.0031566822,0.004546034,-0.008559321,-0.0038083175,0.50472546,-1.3812895,1.9040979,-2.0917933,-1.5708536,2.479706,-0.023116259,0.01706471,-0.014621565,0.007243617,0.0001383655,-0.019300263,-0.7086837,-0.076614454,-9.883265,0.83365434,47.67166,-1.0484028,-2.8153167,-3.3132882,-0.117426485,0.1578703,-0.18463883,28.1875,29.625,28.6875,32.4375,34.875,35.9375
0.036051866,-1.7767652,0.51052076,-0.62601995,0.014150783,0.06434587,-0.19642144,-0.38948354,-0.36859557,0.059870142,-3.0785236,0.6248918,-0.00023448186,-0.01321064,0.007580579,-0.0021528497,0.0030288303,-0.005815657,-0.0038951812,0.50466496,-1.3812418,1.9040135,-2.0917938,-1.5708174,2.4796576,-0.025202427,0.016187076,-0.015574592,0.005939536,0.00013423766,-0.021299168,-0.6703765,0.0,-9.844957,0.78888994,47.67345,-0.9334308,-2.8503494,-3.3525753,-0.10141416,0.1503557,-0.19129759,28.1875,29.625,28.6875,32.4375,34.875,35.9375
0.038051672,-2.2930503,0.07572835,-0.7373226,0.016557146,0.03146431,-0.20525917,-0.38948095,-0.36854196,0.059848327,-3.0784447,0.6248753,-0.00032391783,-0.014790752,0.007841817,-0.0018311436,0.0022501727,-0.004416037,-0.0035690567,0.5045923,-1.3812414,1.9040493,-2.0917342,-1.5708417,2.4795847,-0.027118145,0.017023193,-0.01708381,0.005010175,0.00013034881,-0.023540169,-0.47884035,0.0,-9.787497,0.7530795,47.709274,-0.92078495,-2.758484,-3.3371434,-0.07099317,0.15661952,-0.19193703,28.1875,29.625,28.6875,32.4375,34.875,35.9375
0.040052496,-1.4662387,-0.09582699,-0.46785814,0.0030612624,0.046202548,-0.20757888,-0.38950974,-0.36852932,0.059831988,-3.078433,0.624931,-0.0003250083,-0.015462464,0.008008457,-0.0014056556,0.0017857881,-0.003571764,-0.0038661417,0.50454414,-1.3811934,1.9040378,-2.09177,-1.5708417,2.4795728,-0.028022554,0.016772915,-0.017745592,0.0049586077,0.00012667928,-0.024147252,-0.4213795,-0.05746084,-9.749189,0.83589023,47.694054,-1.0021452,-2.754274,-3.3355525,-0.08023914,0.15593642,-0.21934372,28.1875,29.625,28.6875,32.4375,34.875,35.9375
0.042052545,-1.5154016,0.2053589,-0.6553241,-0.012012543,0.037589632,-0.20605683,-0.3895621,-0.36853164,0.05985333,-3.0784595,0.6250127,-0.00030609817,-0.016592916,0.008183538,-0.0010174873,0.0015024849,-0.0030571476,-0.003628847,0.5044839,-1.3811572,1.903941,-2.091746,-1.5708174,2.4795601,-0.02936894,0.017515559,-0.019633956,0.005517301,0.00012321037,-0.025730092,-0.4405331,0.095768064,-9.653421,0.7284641,47.688675,-0.97086364,-2.7903645,-3.3015761,-0.053067237,0.14746681,-0.23172507,28.1875,29.625,28.6875,32.4375,34.875,35.9375
0.04405224,-0.7900732,-0.26699963,-0.6057079,0.0018431064,0.03853248,-0.18900335,-0.38960725,-0.36849946,0.059848994,-3.0784483,0.6250281,-0.00032113612,-0.017531388,0.008590683,-0.0008586625,0.0014705572,-0.0029990117,-0.0025477319,0.5043875,-1.3811208,1.9039053,-2.0917342,-1.5708174,2.4794748,-0.03092695,0.01817918,-0.020902203,0.0060553057,0.00011992654,-0.028368646,-0.15322891,0.076614454,-9.615114,0.7016076,47.687782,-0.9231243,-2.6858778,-3.291935,-0.07183425,0.14825529,-0.22796738,28.1875,29.625,28.6875,32.4375,34.875,35.9375
0.04605258,-0.6404452,-0.307099,-0.54774034,0.0012463122,0.01800888,-0.18552655,-0.3896259,-0.36849037,0.059840854,-3.0784388,0.6249875,-0.00032337217,-0.01860617,0.009789724,-0.00055901124,0.0013720762,-0.0027917584,-0.0027351028,0.50436246,-1.381085,1.9038814,-2.0917337,-1.5708297,2.4794257,-0.033938527,0.017582497,-0.020980537,0.0065006134,0.00010533756,-0.031192938,-0.15322891,0.038307227,-9.710882,0.8157518,47.701214,-0.9146794,-2.6507025,-3.3363304,-0.057219144,0.14373009,-0.2272011,28.1875,29.625,28.6875,32.4375,34.875,35.9375
0.048052326,-0.8343917,-0.40430087,-0.34737235,0.00139909,-0.0036524525,-0.18611711,-0.3896832,-0.36845887,0.059838776,-3.078397,0.62501675,-0.00030195084,-0.019859793,0.010163882,-0.0006208278,0.001400764,-0.0028259405,-0.0021381753,0.50427824,-1.3810244,1.903809,-2.0917094,-1.5708655,2.479365,-0.0357286,0.019146437,-0.022744048,0.006742513,9.1862115e-05,-0.033578973,-0.114921674,0.11492168,-9.595961,0.779936,47.698532,-0.9004771,-2.7528996,-3.2682078,-0.06690513,0.15283829,-0.25602025,28.1875,29.625,28.6875,32.4375,34.875,35.9375
0.05005163,0.052498788,-0.19120125,-0.29158613,-0.0053586024,0.0039999504,-0.18509087,-0.38972738,-0.36843035,0.05983524,-3.0783803,0.62511,-0.00032658302,-0.021703608,0.010257579,0.00046293187,9.66732e-05,-0.00047075094,-0.0026017088,0.5041815,-1.3809884,1.9037718,-2.091698,-1.5708536,2.4793286,-0.037603468,0.01909354,-0.02508025,0.0064396807,8.888884e-05,-0.034989327,-0.05746084,0.1340753,-9.576807,0.7284641,47.69763,-0.8475134,-2.667597,-3.20543,-0.060024533,0.15840048,-0.24175338,28.1875,29.625,28.6875,32.4375,34.875,35.9375
0.05205237,-0.3597345,-0.24514566,-0.5276899,-0.008915674,-0.0058580553,-0.17532155,-0.3897784,-0.36842453,0.059849937,-3.0784283,0.62511915,-0.0002948474,-0.022856766,0.010658256,0.0007710528,-0.00055670505,0.00071358884,-0.0028254976,0.50410914,-1.3809643,1.9037126,-2.0917099,-1.5708297,2.479256,-0.039348997,0.019189024,-0.025709275,0.005621257,8.6701824e-05,-0.036510702,-0.05746084,0.19153613,-9.557653,0.7217513,47.68062,-0.74049956,-2.701878,-3.2442107,-0.04471597,0.14320077,-0.26521868,28.1875,29.625,28.6875,32.4375,34.875,35.9375
0.05405214,-0.06543131,-0.3871322,-0.3510768,-0.016350977,0.0029401083,-0.18343915,-0.38984996,-0.36839145,0.059874922,-3.078415,0.6251723,-0.00024182143,-0.023119267,0.010492987,0.00061748957,-0.00018957366,5.0533614e-05,-0.00079291913,0.5040015,-1.3809397,1.9036158,-2.0916617,-1.5708536,2.4791832,-0.03931012,0.020500757,-0.027099779,0.006456777,8.465978e-05,-0.03850371,0.1340753,0.24899697,-9.519346,0.7709874,47.705692,-0.8891398,-2.6593878,-3.2364001,-0.05611609,0.1402364,-0.25293592,28.1875,29.625,28.6875,32.4375,34.875,35.9375
0.05605228,-0.5699453,-0.33530238,-0.38359228,-0.018989148,-0.009493103,-0.17835574,-0.38986224,-0.36836237,0.05986205,-3.0783885,0.6251861,-0.00028481253,-0.023309346,0.01110073,0.00024105307,0.00043749216,-0.0010826751,-0.0011974926,0.5039411,-1.3809277,1.9036282,-2.0916502,-1.5708536,2.4791348,-0.04050871,0.021095745,-0.02710684,0.007163873,8.271435e-05,-0.039297704,0.11492168,0.2681506,-9.3661175,0.80456203,47.70659,-0.893604,-2.6216934,-3.2441995,-0.05201853,0.15879233,-0.2750854,28.1875,29.625,28.6875,32.4375,34.875,35.9375
0.05805216,-0.21082011,-0.15853891,-0.23111941,-0.012812978,0.0025606735,-0.18189053,-0.38991463,-0.36835182,0.059844036,-3.0784168,0.6251541,-0.00036236743,-0.024677066,0.012059413,0.00067088264,0.00011799715,-0.00050511747,-0.0022135375,0.5038443,-1.3808317,1.9035558,-2.0916502,-1.5708054,2.4790144,-0.043392476,0.020934192,-0.027981814,0.0075420756,8.0856524e-05,-0.041165136,0.05746084,0.24899697,-9.32781,0.7620334,47.73077,-0.7982527,-2.6142128,-3.338592,-0.051096074,0.14809865,-0.2793,28.1875,29.625,28.6875,32.4375,34.875,35.9375
0.06005199,-0.44974497,-0.19897743,-0.3181772,-0.0029430855,-0.004447383,-0.17311382,-0.38995773,-0.36833623,0.059865203,-3.0784268,0.62507904,-0.00025558553,-0.025982259,0.012139545,0.0010756956,-0.00038464103,0.0004053865,-0.0030643893,0.5038079,-1.3808312,1.9035071,-2.0916502,-1.5708536,2.47893,-0.04474166,0.021825634,-0.02996887,0.0075956113,7.908043e-05,-0.041662514,0.076614454,0.2681506,-9.3661175,0.7978386,47.71017,-0.7789118,-2.6086636,-3.2399044,-0.041129608,0.1383067,-0.32354838,28.1875,29.625,28.6875,32.4375,34.875,35.9375
0.062051676,-0.21029612,0.09638688,-0.1790489,-0.007587496,-0.0020095182,-0.17730606,-0.39001963,-0.36831978,0.059862938,-3.0784419,0.6251376,-0.000295078,-0.02652911,0.0124741,0.0009189762,-3.4976344e-07,-0.00029154302,-0.00096601463,0.50369984,-1.3807588,1.9034237,-2.0916374,-1.5708174,2.4788566,-0.045808353,0.022858972,-0.031019805,0.008410219,7.738046e-05,-0.044827074,-0.019153614,0.21068975,-9.289502,0.8023209,47.731667,-0.8180846,-2.6256378,-3.268526,-0.052219793,0.14874983,-0.32417157,28.1875,29.625,28.6875,32.4375,34.875,35.9375
0.06405188,-0.8722745,-0.0034911886,-0.20488027,-0.0034052655,-0.002452791,-0.17470488,-0.39011097,-0.36828825,0.05990536,-3.0784674,0.6251422,-0.00013101354,-0.02707902,0.012840541,0.0010265649,0.00023585753,-0.00070898695,0.00042746097,0.5035916,-1.3807586,1.9033269,-2.091637,-1.5708655,2.478748,-0.04692933,0.023340676,-0.032070916,0.00945668,7.575211e-05,-0.04734112,-0.11492168,0.1340753,-9.32781,0.784413,47.721813,-0.8347268,-2.5251975,-3.2485595,-0.04241699,0.15075144,-0.32552272,28.1875,29.625,28.6875,32.4375,34.875,35.9375
0.066052034,-1.2735012,-0.14806552,-0.13038804,0.005079469,0.0033944983,-0.16348918,-0.39011687,-0.36826462,0.059863143,-3.0784235,0.6250957,-0.0002851247,-0.027629998,0.013294132,0.0009919177,0.0003085402,-0.00084889214,-0.001207976,0.5035314,-1.3806746,1.9033154,-2.0916011,-1.5708417,2.4786644,-0.048205093,0.02367556,-0.03243197,0.009641656,7.419106e-05,-0.046981275,-0.1340753,0.076614454,-9.32781,0.7463667,47.678825,-0.8277593,-2.5592303,-3.2219875,-0.05554995,0.14254174,-0.34068093,28.1875,29.625,28.6875,32.4375,34.875,35.9375
0.06805199,-1.2314479,-0.037118293,-0.11005178,0.0032261098,0.026211211,-0.17348918,-0.39018208,-0.36823213,0.059879735,-3.0784261,0.62511307,-0.000245581,-0.028070457,0.013600348,0.00097048003,0.0006031558,-0.0013804768,0.0006912819,0.50342333,-1.3806504,1.9032434,-2.0915763,-1.5708536,2.478567,-0.04912451,0.024305338,-0.033325333,0.010512025,7.2692856e-05,-0.049799573,-0.17238252,0.019153614,-9.32781,0.7620334,47.70032,-0.8154081,-2.5622542,-3.2346377,-0.06743212,0.13065962,-0.3583375,28.1875,29.625,28.6875,32.4375,34.875,35.9375
0.070051834,-1.3586977,0.041969646,-0.028006006,0.0005888184,0.039206993,-0.16850172,-0.3902385,-0.36819357,0.059880126,-3.0784137,0.62514824,-0.000313128,-0.029197782,0.014209368,0.0010361555,0.00039143272,-0.0010044479,0.0021565913,0.5032909,-1.380602,1.9031719,-2.0915172,-1.5708297,2.478458,-0.051194016,0.02487876,-0.034102228,0.010284716,7.1254e-05,-0.05333396,-0.28730422,0.038307227,-9.32781,0.7620334,47.685097,-0.8647342,-2.5195608,-3.2561393,-0.06709649,0.13514405,-0.34805286,28.1875,29.625,28.6875,32.4375,34.875,35.9375
0.07205174,-1.6449273,0.03375511,-0.03585098,0.0090354085,0.044678386,-0.17577866,-0.3903357,-0.3681838,0.05990296,-3.078456,0.6250766,-0.0001769399,-0.030627016,0.014954441,0.001114846,0.00019907065,-0.00065226236,0.0053499714,0.50320613,-1.3805296,1.9030398,-2.091541,-1.5708655,2.4783232,-0.053769648,0.025733653,-0.035273775,0.010197229,6.987095e-05,-0.059102345,-0.30645782,0.019153614,-9.289502,0.75084364,47.699425,-0.76304513,-2.5930405,-3.2455692,-0.06909229,0.12849428,-0.3033398,28.1875,29.625,28.6875,32.4375,34.875,35.9375
0.07405168,-1.4682876,0.23720816,-0.13172083,0.009739244,0.05045853,-0.16061251,-0.3903726,-0.36816552,0.05990788,-3.0784843,0.62508136,-0.00024098292,-0.030470632,0.013962745,0.0014700431,-2.716843e-05,-0.00024471906,0.0074746306,0.50311095,-1.3805053,1.9029917,-2.0915048,-1.5708174,2.4782274,-0.05194989,0.026292609,-0.03687452,0.010775721,6.8540714e-05,-0.059406564,-0.4213795,0.019153614,-9.308657,0.7709874,47.703007,-0.949401,-2.4947715,-3.1985059,-0.066074505,0.13811794,-0.3157023,28.1875,29.625,28.6875,32.4375,34.875,35.9375
0.076051824,-1.5841206,0.19518605,-0.05737092,0.017060097,0.04994688,-0.16961749,-0.39042446,-0.36812252,0.05990031,-3.078477,0.6250008,-0.00028425024,-0.031611666,0.014972024,0.00111251,0.0002752469,-0.0008011592,0.00860684,0.50299025,-1.3804568,1.9029435,-2.091469,-1.5708174,2.4780574,-0.05470588,0.027416173,-0.037398063,0.010808551,6.7260145e-05,-0.06329438,-0.4213795,-0.019153614,-9.346964,0.8023209,47.716442,-0.89803153,-2.520187,-3.256167,-0.0855397,0.12452206,-0.29156235,28.1875,29.625,28.6875,32.4375,34.875,35.9375
0.07805168,-1.3428739,0.6118983,0.015841087,0.01076504,0.05104721,-0.17922758,-0.39050993,-0.3680865,0.05990974,-3.0784717,0.62505585,-0.00024356648,-0.03305301,0.015741004,0.0011887883,-4.6437577e-05,-0.00022056556,0.011171315,0.5028577,-1.3803965,1.9028481,-2.0914576,-1.5708297,2.4779599,-0.057332546,0.028110202,-0.03828722,0.010338483,6.602652e-05,-0.068485,-0.4213795,-0.11492168,-9.3661175,0.800085,47.70211,-0.8735316,-2.5118425,-3.2518883,-0.07225321,0.12476897,-0.25185075,28.1875,29.625,28.6875,32.4375,34.875,35.9375
0.08005248,-1.1412067,0.5723198,-0.041372214,0.009054685,0.048601836,-0.18356173,-0.3905671,-0.36806795,0.059913054,-3.078502,0.62490684,-0.00024406312,-0.034092985,0.01615375,0.0012098845,-3.540655e-05,-0.00024544355,0.013623724,0.5027732,-1.3803362,1.9027637,-2.0914333,-1.5708297,2.4777787,-0.058988664,0.029161088,-0.039657913,0.010684884,6.483733e-05,-0.07259284,-0.45968673,-0.17238252,-9.423578,0.779936,47.685097,-0.8303174,-2.5031285,-3.2622335,-0.0797414,0.12701443,-0.21435654,28.1875,29.625,28.6875,32.4375,34.875,35.9375
0.08205179,-1.6126643,0.44025013,0.06811835,0.0027923582,0.040886085,-0.17897211,-0.39061642,-0.36803627,0.0598954,-3.0784888,0.62490034,-0.0003006353,-0.03365778,0.015312311,0.001050367,-1.2880754e-05,-0.00029543956,0.01863602,0.5026662,-1.3802639,1.9027156,-2.091421,-1.5708174,2.4776692,-0.05716112,0.029977756,-0.040216938,0.010482445,6.369026e-05,-0.07577722,-0.5363012,-0.15322891,-9.3661175,0.7284641,47.686886,-0.986008,-2.568894,-3.2380383,-0.06726999,0.13013503,-0.18022223,28.1875,29.625,28.6875,32.4375,34.875,35.9375
0.08405264,-1.2775071,0.40574673,-0.13365854,0.006976526,0.05302566,-0.17602257,-0.39069453,-0.3679917,0.05989918,-3.0784664,0.6248377,-0.00030556537,-0.03514841,0.016143108,0.0014004906,-0.00033989188,0.00029097963,0.018987216,0.50253356,-1.3801916,1.9026078,-2.0913608,-1.5708417,2.4775004,-0.05993723,0.030314162,-0.041468054,0.010723468,6.2582956e-05,-0.078903995,-0.53630114,-0.05746084,-9.308656,0.784413,47.705692,-1.00101,-2.5657592,-3.238718,-0.08024569,0.11571501,-0.12259613,28.1875,29.625,28.6875,32.4375,34.875,35.9375
0.08605223,-1.5920455,0.60704523,-0.20115672,0.0014808514,0.044163335,-0.18180487,-0.39075878,-0.367963,0.059889436,-3.0784934,0.6247072,-0.0003055258,-0.035684623,0.016572313,0.0013738085,2.828148e-05,-0.0003777711,0.019924799,0.50242543,-1.3801193,1.9025472,-2.0913727,-1.5708417,2.4773076,-0.06115037,0.031009594,-0.04247559,0.011798694,6.151355e-05,-0.08105431,-0.30645782,-0.076614454,-9.404425,0.77545905,47.684196,-0.96060205,-2.5955977,-3.2255483,-0.076249525,0.115429044,-0.09337364,28.1875,29.625,28.6875,32.4375,34.875,35.9375
0.08805214,-1.2167219,0.10053849,-0.25855342,0.0066207955,0.041745495,-0.16581276,-0.39083025,-0.36794195,0.059891682,-3.0785372,0.62467664,-0.0003545486,-0.036080427,0.016737934,0.0012041961,6.156795e-05,-0.0004394913,0.019912796,0.50229347,-1.3800471,1.9024514,-2.0913494,-1.5707935,2.477151,-0.061786998,0.031661,-0.042806182,0.011551882,6.0480248e-05,-0.08167867,-0.2681506,-0.019153614,-9.423578,0.79560274,47.698532,-1.0214307,-2.5180235,-3.2986193,-0.09159534,0.12033116,-0.067644246,28.1875,29.625,28.6875,32.4375,34.875,35.9375
0.09005194,-1.4427965,-0.15438208,-0.2208198,0.006084951,0.028390838,-0.16258281,-0.39091215,-0.36790052,0.059914693,-3.078537,0.62460136,-0.00023732192,-0.03703054,0.017122079,0.00089435064,0.00040718904,-0.0010479857,0.017867442,0.50218505,-1.3800224,1.902367,-2.0913365,-1.5708536,2.4769957,-0.06330362,0.03341433,-0.044266537,0.011953867,5.215867e-05,-0.081149094,-0.38307226,0.0,-9.3661175,0.82022345,47.68599,-0.9655137,-2.5729246,-3.2226958,-0.09102276,0.1114098,-0.0668326,28.1875,29.625,28.6875,32.4375,34.875,35.9375
0.092051744,-0.7933699,0.050435625,-0.30588233,-0.0013376167,0.032894947,-0.16868696,-0.39100498,-0.36787003,0.059923835,-3.078573,0.62460816,-0.00028701694,-0.03834677,0.016757345,0.0015452505,-0.0005350693,0.00067230547,0.01650446,0.5020173,-1.3799382,1.9022359,-2.0912893,-1.5708054,2.4768276,-0.063895516,0.034183472,-0.046562266,0.011523065,4.437835e-05,-0.0803769,-0.3256114,0.1340753,-9.3661175,0.7866488,47.678825,-1.0736572,-2.524941,-3.1571512,-0.119240575,0.11020705,-0.07061443,28.1875,29.625,28.6875,32.4375,34.875,35.9375
0.09405255,-0.33095875,0.1337164,-0.21843916,-0.0050528906,0.03318626,-0.17670357,-0.3910783,-0.36781144,0.059907515,-3.0785146,0.6245972,-0.00030938277,-0.03809337,0.017590696,0.000307529,0.0005157257,-0.0012424748,0.013960577,0.50187314,-1.3798536,1.9021648,-2.0912535,-1.5708417,2.476684,-0.06505358,0.035308015,-0.04495405,0.010971787,4.3215812e-05,-0.07899151,-0.24899697,0.11492168,-9.404425,0.7284641,47.64837,-1.1018703,-2.5244818,-3.2131815,-0.11112084,0.11299955,-0.08608443,28.1875,29.625,28.6875,32.4375,34.875,35.9375
0.096052505,-0.9110648,-0.56843764,-0.24915595,-0.0041264505,0.01583414,-0.15965326,-0.3911602,-0.36780158,0.059926774,-3.0786004,0.6244998,-0.00024916785,-0.038619984,0.017758362,0.00021248171,0.000728966,-0.0016195516,0.011536759,0.50176525,-1.3798051,1.902069,-2.0912774,-1.5708174,2.4765046,-0.06581345,0.036284886,-0.04601191,0.011488092,4.250596e-05,-0.07732703,-0.15322891,0.11492168,-9.442732,0.8112748,47.698532,-1.1400247,-2.5653744,-3.3641288,-0.10143789,0.10589625,-0.09925959,28.1875,29.625,28.6875,32.4375,34.875,35.9375
0.09805161,-0.19127849,0.24983709,-0.099945694,-0.019433456,0.018302334,-0.17781146,-0.3912322,-0.36775365,0.059910305,-3.0785515,0.6244919,-0.0002820422,-0.039918058,0.018346813,0.0007151757,0.00042972807,-0.0009172692,0.0077286027,0.5016328,-1.379709,1.9019846,-2.0912411,-1.5708417,2.4763734,-0.067949966,0.036457397,-0.047485523,0.012028223,-3.8111604e-05,-0.07565468,-0.17238252,0.095768064,-9.308656,0.76874626,47.728977,-1.1282881,-2.5678458,-3.2471747,-0.10782634,0.11221463,-0.14609015,28.1875,29.625,28.6875,32.4375,34.875,35.9375
0.100052476,-0.54591244,0.15523209,-0.3447424,-0.014048179,0.0035299852,-0.17341784,-0.3913238,-0.36772212,0.05991487,-3.0786061,0.62448484,-0.00030296366,-0.041420236,0.018177537,0.0010014412,6.4438194e-05,-0.00023793452,0.005174393,0.5014646,-1.3796364,1.9018883,-2.0912411,-1.5707935,2.476194,-0.06904052,0.038369898,-0.050471447,0.012334193,-4.8059075e-05,-0.07418953,-0.095768064,0.17238252,-9.346964,0.7105615,47.698532,-1.1130279,-2.582316,-3.177126,-0.118911594,0.09927681,-0.16493145,28.1875,29.625,28.6875,32.4375,34.875,35.9375
0.10205221,0.28762633,0.1351361,-0.46039575,-0.013942629,0.013431279,-0.17500493,-0.39139232,-0.36766466,0.059905987,-3.078513,0.6244271,-0.00029016603,-0.042282328,0.01865348,0.0012241275,-7.4697346e-05,3.7495884e-06,0.0028374912,0.50135654,-1.379552,1.9017924,-2.091169,-1.5708774,2.4760618,-0.07063414,0.03861628,-0.05135178,0.012683243,-4.750673e-05,-0.073445894,-0.019153614,0.17238252,-9.404425,0.7933669,47.68062,-1.0873806,-2.535287,-3.1105592,-0.106193334,0.11477527,-0.21815285,28.1875,29.625,28.6875,32.4375,34.875,35.9375
0.104051925,-0.18451963,-0.70731306,-0.48274404,-0.012159758,-0.0037553213,-0.16412711,-0.39149192,-0.36763546,0.05991793,-3.0785463,0.62443316,-0.0002857829,-0.042311005,0.019921757,0.0003311897,0.0009877715,-0.0018822936,0.0015804906,0.5012001,-1.379468,1.9016603,-2.0911453,-1.5708536,2.475905,-0.07276756,0.039104942,-0.04996749,0.01297658,-6.794519e-05,-0.0743228,0.0,0.21068975,-9.442732,0.7620334,47.687782,-1.0831776,-2.5680318,-3.283536,-0.12661949,0.12761274,-0.24140862,28.1875,29.625,28.6875,32.4375,34.875,35.9375
0.10605238,0.09399751,-0.4003109,-0.49501783,-0.0294971,0.006088833,-0.17412178,-0.391569,-0.3675923,0.05990765,-3.0785456,0.624434,-0.0002874719,-0.043705527,0.019937009,0.0005518676,0.0007102766,-0.0013876664,0.0011110348,0.5010559,-1.3793952,1.9016002,-2.0911567,-1.5708536,2.4757614,-0.07407634,0.040757477,-0.052498512,0.013287827,-6.765543e-05,-0.07516087,0.038307227,0.2681506,-9.442732,0.8247004,47.696735,-1.1450366,-2.5082436,-3.292159,-0.12700021,0.10492539,-0.25856537,28.1875,29.625,28.6875,32.4375,34.875,35.9375
0.108052306,-0.26320943,-0.749834,-0.5289334,-0.025527937,-0.0010979776,-0.16725987,-0.3916644,-0.36754325,0.059917692,-3.078516,0.624486,-0.00026437026,-0.044543006,0.020244416,0.00075206277,0.00048563676,-0.0009841521,-0.0013687331,0.5008997,-1.3793229,1.901481,-2.091109,-1.5708774,2.4756415,-0.075357236,0.041150603,-0.053441405,0.0133742085,-6.609151e-05,-0.07396157,0.0,0.19153613,-9.3661175,0.7732232,47.709274,-1.1330904,-2.5629025,-3.1948495,-0.14062527,0.09466663,-0.31021848,28.1875,29.625,28.6875,32.4375,34.875,35.9375
0.11005245,-0.529756,-0.122421004,-0.49312454,-0.03631951,0.002350282,-0.16493592,-0.39178807,-0.36751616,0.059943043,-3.0785794,0.62445813,-0.00018925167,-0.045179702,0.020281998,0.0012830871,6.0026738e-05,-0.00020353869,0.0005360634,0.50073195,-1.3792391,1.9013242,-2.091109,-1.5708655,2.4754484,-0.075991385,0.040975004,-0.05452972,0.013749506,-6.4518055e-05,-0.076500155,-0.11492168,0.22984336,-9.423578,0.7866488,47.693153,-1.1802447,-2.5114112,-3.2281413,-0.15859658,0.11223993,-0.35498446,28.1875,29.625,28.6875,32.4375,34.875,35.9375
0.112052426,-0.6312315,-0.49238214,-0.3796708,-0.024808984,0.019057209,-0.16335033,-0.39182734,-0.36747345,0.05990893,-3.0785406,0.6243361,-0.00030545125,-0.04583279,0.020838967,0.0006580924,0.00047219035,-0.0009773576,-0.0023120707,0.5006236,-1.3791424,1.9012765,-2.0910614,-1.5708655,2.4752688,-0.07752974,0.042476013,-0.054810558,0.013406237,-6.301273e-05,-0.07519,-0.1340753,0.24899697,-9.442732,0.8247004,47.719128,-1.211512,-2.4582405,-3.2786767,-0.16129893,0.12055479,-0.36502716,28.1875,29.625,28.6875,32.4375,34.875,35.9375
0.114051715,-0.70534873,-0.41912186,-0.40075475,-0.017127993,0.028185273,-0.16296723,-0.3919155,-0.36741424,0.059900858,-3.0785062,0.62448287,-0.00040107686,-0.0463305,0.020850247,-0.000115111594,0.0011656694,-0.0022616289,-0.0029963346,0.5004199,-1.3790574,1.9011806,-2.0910013,-1.5708297,2.475161,-0.077997275,0.045086417,-0.0561989,0.013646422,-6.157564e-05,-0.074972324,-0.15322891,0.30645782,-9.385271,0.8179876,47.701214,-1.2789805,-2.6145403,-3.2629294,-0.18106475,0.09446706,-0.44216502,28.1875,29.625,28.6875,32.4375,34.875,35.9375
0.116051726,-1.889285,-0.53755724,-0.35133675,-0.004784221,0.005254273,-0.15742193,-0.39203745,-0.36739534,0.05992153,-3.0785742,0.6244187,-0.00030182223,-0.04816809,0.021509616,0.001195425,-0.00024334207,0.00031558986,-0.00287897,0.50027514,-1.3789617,1.9010257,-2.091025,-1.5708297,2.4749677,-0.08078792,0.043767042,-0.057565883,0.013395194,-6.0202627e-05,-0.07787998,-0.19153613,0.22984336,-9.404425,0.8605109,47.694054,-1.0646708,-2.578009,-3.2501235,-0.17298354,0.10052729,-0.4719614,28.1875,29.625,28.6875,32.4375,34.875,35.9375
0.11805253,-1.5915613,-0.32114545,-0.4487645,-0.0064324914,0.011441783,-0.15627585,-0.39212933,-0.3673492,0.059946075,-3.0785785,0.62443525,-0.00025920072,-0.047993787,0.021084307,0.001144763,-0.00011471648,7.756728e-05,0.0020041913,0.50011986,-1.3789257,1.9009165,-2.0909774,-1.5708417,2.4748223,-0.07989661,0.04436806,-0.05824087,0.013738234,-5.8889444e-05,-0.0818715,-0.21068975,0.11492168,-9.385271,0.83813137,47.723602,-1.3584605,-2.4991,-3.287601,-0.190312,0.100219,-0.4754825,28.1875,29.625,28.6875,32.4375,34.875,35.9375
0.120052315,-1.4207771,-0.034404386,-0.3338468,-0.005917898,0.019007508,-0.16163109,-0.3922355,-0.3673001,0.05993409,-3.0785701,0.6244308,-0.0002770852,-0.050079033,0.022708213,0.0008663055,8.620896e-06,-0.00016392067,0.0045679957,0.49993888,-1.3788048,1.9007977,-2.090965,-1.5708417,2.4746397,-0.084542625,0.045804866,-0.059285987,0.013616605,-5.7632453e-05,-0.08908068,-0.30645782,0.13407528,-9.404425,0.78217715,47.67345,-1.328366,-2.551478,-3.2608542,-0.21015382,0.11622639,-0.4455399,28.1875,29.625,28.6875,32.4375,34.875,35.9375
0.12205211,-1.34935,0.14967437,-0.2748404,0.0017965483,0.029225139,-0.1702295,-0.3923332,-0.3672706,0.059939355,-3.0786188,0.62432116,-0.000288562,-0.049875,0.021960994,0.0004507194,0.00032560373,-0.00075308274,0.010809419,0.4997836,-1.3787082,1.9006661,-2.0909412,-1.5708174,2.4744098,-0.083079986,0.047528036,-0.060398296,0.0136763835,-5.6427943e-05,-0.093858756,-0.24899697,0.095768064,-9.423578,0.8112748,47.72092,-1.3077259,-2.5107498,-3.2397628,-0.2063253,0.09562876,-0.42241928,28.1875,29.625,28.6875,32.4375,34.875,35.9375
0.124051966,-1.5587085,0.25579542,-0.12661912,0.0010895563,0.040817134,-0.16718817,-0.3924433,-0.36721322,0.059945997,-3.0785995,0.6242743,-0.00022478671,-0.051223576,0.022533903,0.00029126136,0.00016205586,-0.00046685082,0.016513133,0.4996152,-1.3786236,1.9005455,-2.0909178,-1.5708655,2.4742148,-0.08527421,0.048874892,-0.061503164,0.013098998,-5.5272758e-05,-0.10175599,-0.4405331,0.0,-9.385271,0.7911258,47.709274,-1.3781989,-2.639925,-3.3729959,-0.20721358,0.10477838,-0.3776325,28.1875,29.625,28.6875,32.4375,34.875,35.9375
0.12605208,-1.4230533,0.3216807,-0.16016877,0.008747401,0.05684955,-0.16746785,-0.39254636,-0.3671688,0.0599319,-3.078608,0.6242541,-0.00030448867,-0.052185558,0.023156941,0.0013490095,-0.00063756807,0.0009834544,0.021635205,0.49942288,-1.378492,1.9004134,-2.0908816,-1.5708297,2.4740088,-0.08719172,0.0472475,-0.062123086,0.013692957,-5.4163836e-05,-0.10879566,-0.3256114,-0.076614454,-9.442732,0.75084364,47.704796,-1.3908231,-2.5387304,-3.262507,-0.21998098,0.08646944,-0.27265078,28.1875,29.625,28.6875,32.4375,34.875,35.9375
0.128052,-1.8983812,0.3363561,-0.21064065,0.018703008,0.05114119,-0.16063045,-0.39263403,-0.3671547,0.059955794,-3.0786903,0.6240939,-0.00027344795,-0.053010304,0.02315561,0.0014410574,-0.00096384843,0.0015797794,0.026147876,0.49930292,-1.3784318,1.9002823,-2.0908573,-1.5708054,2.4737785,-0.087935336,0.04810033,-0.06325421,0.013293621,-5.309866e-05,-0.11405132,-0.38307226,0.019153614,-9.423578,0.76874626,47.694054,-1.3657632,-2.4779358,-3.3190627,-0.223352,0.106108814,-0.24032652,28.1875,29.625,28.6875,32.4375,34.875,35.9375
0.13005249,-1.6156275,0.5401902,-0.09337998,0.012006282,0.058321398,-0.16643552,-0.39272833,-0.36707306,0.059918795,-3.0786133,0.6241156,-0.0003776044,-0.055004727,0.024564192,0.0010755169,-0.00075995544,0.0011713316,0.02633637,0.49908575,-1.378299,1.9001983,-2.0908096,-1.5708174,2.4735847,-0.09213242,0.04994036,-0.06459924,0.0132529875,-5.2074534e-05,-0.118436076,-0.38307226,-0.019153614,-9.442732,0.8179876,47.692257,-1.2685736,-2.4700773,-3.2831054,-0.21355489,0.08629071,-0.18302748,28.1875,29.625,28.6875,32.4375,34.875,35.9375
0.13205229,-1.0676306,1.0577805,-0.1377865,0.0010595972,0.06903429,-0.18133795,-0.39285308,-0.36700836,0.059925187,-3.0786004,0.6239758,-0.00027672737,-0.054534625,0.023908002,0.0010825694,-0.0007853431,0.0012199623,0.029022101,0.49890676,-1.3782028,1.9000672,-2.0907977,-1.5708898,2.4733202,-0.09057258,0.050155498,-0.06487339,0.013248399,-5.108912e-05,-0.119561836,-0.5554548,0.0,-9.3661175,0.83589023,47.70211,-1.3690091,-2.556211,-3.3310614,-0.24101435,0.08555761,-0.14980493,28.1875,29.625,28.6875,32.4375,34.875,35.9375
0.13405205,-1.115035,0.85840446,-0.006083186,0.013937234,0.06711333,-0.17489558,-0.3929744,-0.36700994,0.05994655,-3.0787373,0.6238723,-0.00030086137,-0.058321323,0.0249269,0.002503484,-0.0023764279,0.004136689,0.022250867,0.49873745,-1.3780823,1.8998731,-2.0907857,-1.5707935,2.473069,-0.09575501,0.051115047,-0.06927822,0.013382916,-5.014044e-05,-0.11797114,-0.59376204,-0.076614454,-9.404425,0.8247004,47.716442,-1.3628726,-2.506246,-3.1962724,-0.22496365,0.085059315,-0.16700175,28.1875,29.625,28.6875,32.4375,34.875,35.9375
0.13605207,-1.4378817,0.5552237,-0.32044318,0.01798435,0.057286043,-0.1756874,-0.393059,-0.36692658,0.059921198,-3.0786757,0.62380457,-0.00038064827,-0.05725661,0.025487307,0.0011883695,-0.0008223022,0.0012751598,0.018044615,0.4985339,-1.377986,1.899803,-2.0907257,-1.5708174,2.472831,-0.09570142,0.052062128,-0.06754287,0.013954521,-4.9226208e-05,-0.11371191,-0.5554548,-0.095768064,-9.461885,0.800085,47.698532,-1.2696354,-2.478249,-3.2209153,-0.24437124,0.078977466,-0.18355939,28.1875,29.625,28.6875,32.4375,34.875,35.9375
0.13805185,-1.5581169,0.3020959,-0.16063322,0.017344799,0.054354504,-0.16060238,-0.3931733,-0.36687735,0.0599153,-3.0786662,0.6238057,-0.0003684203,-0.058638487,0.026386578,0.0008305024,-0.00046213614,0.0006280103,0.010641022,0.4983533,-1.3778653,1.899671,-2.0907142,-1.5708297,2.4726524,-0.098462805,0.053840008,-0.06891723,0.014290844,-5.6276825e-05,-0.1090689,-0.6703765,-0.114921674,-9.481039,0.8717007,47.694054,-1.2776824,-2.502543,-3.2600744,-0.26645374,0.069693916,-0.23700696,28.1875,29.625,28.6875,32.4375,34.875,35.9375
0.14005177,-1.5670499,0.13525465,-0.22371519,0.0067325016,0.06271041,-0.16682915,-0.393275,-0.366814,0.059903704,-3.0786414,0.62368727,-0.00042941002,-0.061596736,0.026948152,0.0020483127,-0.0017171802,0.0029209084,0.005409825,0.4981603,-1.3777447,1.8995379,-2.0906413,-1.5708417,2.4723887,-0.10210938,0.05481206,-0.07294594,0.014732571,-6.2791514e-05,-0.10748255,-0.61291564,-0.15322891,-9.461885,0.7978386,47.657326,-1.1309855,-2.579112,-3.1754978,-0.2739194,0.086116895,-0.31778455,28.1875,29.625,28.6875,32.4375,34.875,35.9375
0.14205246,-1.3812988,0.7602725,-0.4061045,-0.0017469949,0.06873229,-0.17335874,-0.393417,-0.3667561,0.05992143,-3.0786529,0.62370765,-0.0004017006,-0.06253068,0.02827602,0.0022920992,-0.0018584869,0.0031883216,0.0034897453,0.497932,-1.3776369,1.8993591,-2.0905936,-1.5708417,2.4721718,-0.10517349,0.053875778,-0.072420545,0.014840924,-6.219631e-05,-0.10862697,-0.59376204,-0.038307227,-9.423578,0.7709874,47.666286,-1.1236206,-2.4748113,-3.1617224,-0.2801861,0.08900014,-0.3351004,28.1875,29.625,28.6875,32.4375,34.875,35.9375
0.1440521,-1.4281647,0.099870004,-0.49040356,-0.0032983825,0.06356192,-0.16599204,-0.39354655,-0.36669117,0.059923787,-3.0786562,0.62376666,-0.00037424112,-0.06368119,0.029645486,0.0021427316,-0.0017386994,0.0029721553,0.001227171,0.49770334,-1.3775408,1.8992399,-2.0905936,-1.5708417,2.4719796,-0.1085099,0.054032523,-0.07225385,0.014764517,-6.117141e-05,-0.10970085,-0.57460845,0.0,-9.595961,0.82022345,47.667187,-0.99185544,-2.4239295,-3.3386874,-0.28211036,0.08985001,-0.32156038,28.1875,29.625,28.6875,32.4375,34.875,35.9375
0.14605217,-1.0035454,0.26335752,-0.3385734,-0.029488863,0.075086,-0.16781916,-0.3936748,-0.36664706,0.059925504,-3.078674,0.6237135,-0.00036235675,-0.064985074,0.030082937,0.00081201183,-0.0005640151,0.0008015457,-0.00096412364,0.49751103,-1.3774071,1.899072,-2.0905697,-1.5708417,2.471752,-0.11042023,0.058589797,-0.074719995,0.0151415495,-6.0151302e-05,-0.10941823,-0.61291564,0.038307227,-9.595961,0.8560339,47.70032,-0.9941536,-2.4902,-3.2409685,-0.29592574,0.079411656,-0.38443226,28.1875,29.625,28.6875,32.4375,34.875,35.9375
0.14805187,-1.9985992,-0.28654525,-0.4518025,-0.01417488,0.056382686,-0.1605591,-0.39380288,-0.3665746,0.059923667,-3.0786521,0.62378466,-0.0003769888,-0.06569814,0.03035187,0.001638516,-0.0013208431,0.0022156069,-0.0009810203,0.49727112,-1.3772994,1.8989404,-2.090534,-1.5708417,2.4715593,-0.111491084,0.05743462,-0.075256705,0.015229555,-7.2019306e-05,-0.11047216,-0.6512228,0.19153613,-9.5385,0.7732232,47.674347,-0.9578952,-2.5182693,-3.2519846,-0.31645134,0.071496844,-0.38322994,28.1875,29.625,28.6875,32.4375,34.875,35.9375
0.15005173,-1.6912864,-0.18294427,-0.43191224,-0.0009822052,0.080631696,-0.16874403,-0.39394984,-0.36652386,0.059943873,-3.0787067,0.6237161,-0.00033230413,-0.06631186,0.031004515,0.001968997,-0.0014886934,0.0025375492,-3.165284e-05,0.4970432,-1.3771914,1.8987612,-2.0905101,-1.5708297,2.4712818,-0.113118246,0.056864586,-0.075422674,0.01560359,-7.263175e-05,-0.11304876,-0.53630114,0.095768064,-9.500193,0.8112748,47.711063,-0.94022727,-2.3770075,-3.271298,-0.31191978,0.079815105,-0.41155493,28.1875,29.625,28.6875,32.4375,34.875,35.9375
0.15205245,-0.74135965,0.066904634,-0.39284125,-0.0040912987,0.09685483,-0.17758307,-0.39407563,-0.36645287,0.0599418,-3.078691,0.6237091,-0.00033523078,-0.067280866,0.03088768,0.001601138,-0.0013685537,0.0022974818,0.0053602294,0.49681547,-1.3770825,1.8986286,-2.0904744,-1.5708417,2.4710517,-0.11378465,0.059264082,-0.07740126,0.015448837,-7.159211e-05,-0.119105875,-0.4405331,-0.019153614,-9.5385,0.82022345,47.66091,-0.9562948,-2.454915,-3.2226815,-0.31727087,0.08736479,-0.37606502,28.1875,29.625,28.6875,32.4375,34.875,35.9375
0.154052,-1.3966469,0.36684617,-0.4729265,-0.008118421,0.06537663,-0.16276309,-0.39421204,-0.36641252,0.059949312,-3.0787413,0.6236764,-0.00034488903,-0.067756325,0.030819036,0.0018062668,-0.0017194148,0.0029397083,0.011856965,0.49659967,-1.3769504,1.8984493,-2.09045,-1.5708054,2.4708092,-0.1140723,0.059501667,-0.07809497,0.015176832,-7.0486356e-05,-0.12588994,-0.3256114,-0.05746084,-9.423578,0.8179876,47.705692,-0.98070586,-2.4943569,-3.2140646,-0.32665116,0.07038331,-0.3383484,28.1875,29.625,28.6875,32.4375,34.875,35.9375
0.15605184,-1.1481705,0.10491075,-0.5695031,0.0027160728,0.049136847,-0.16205269,-0.39434084,-0.366329,0.059915874,-3.0786881,0.62366086,-0.00042001373,-0.06812837,0.030767376,0.0017536214,-0.0019255087,0.0034500095,0.018924735,0.49634817,-1.376782,1.8983177,-2.0904148,-1.5708174,2.4705548,-0.114249595,0.05998604,-0.078393124,0.0144417565,-0.00014607378,-0.13313462,-0.38307226,0.05746084,-9.481039,0.78217715,47.71554,-1.1060008,-2.4598167,-3.263656,-0.31948292,0.06665932,-0.24387754,28.1875,29.625,28.6875,32.4375,34.875,35.9375
0.15805165,-0.5155074,-0.3775147,-0.55569017,0.009069787,0.035957307,-0.16733542,-0.39452207,-0.36626586,0.05994275,-3.078751,0.6235737,-0.00030740816,-0.07155733,0.031289786,0.003133347,-0.003626443,0.006644864,0.023027591,0.4960833,-1.3766614,1.8981136,-2.0904148,-1.5708297,2.4702277,-0.11821373,0.06104148,-0.08270676,0.014078099,-0.00017187234,-0.14119966,-0.19153613,-0.019153614,-9.5385,0.71279734,47.69763,-0.8919304,-2.4767804,-3.1338007,-0.33111,0.060494818,-0.16135052,28.1875,29.625,28.6875,32.4375,34.875,35.9375
0.16005243,-0.25228992,0.20937671,-0.46741584,-0.015530817,0.025754435,-0.1741134,-0.39465302,-0.36619654,0.059934657,-3.0787325,0.62348914,-0.00028646883,-0.07046886,0.030952089,0.0025887273,-0.0032097646,0.0059242845,0.027900968,0.4958687,-1.3765293,1.8979701,-2.090391,-1.5708655,2.4699628,-0.11660159,0.060970195,-0.08126864,0.013537867,-0.00019495311,-0.14446141,-0.19153613,0.11492168,-9.461885,0.84708,47.71465,-1.218131,-2.4492157,-3.2793407,-0.31372887,0.06505696,-0.12990396,28.1875,29.625,28.6875,32.4375,34.875,35.9375
0.16205221,-0.41189986,0.056556147,-0.5251939,-0.0054915603,0.01587723,-0.16499333,-0.39480492,-0.36614037,0.059962977,-3.078793,0.62346566,-0.00021384898,-0.07260892,0.031898808,0.0026326468,-0.0032977778,0.0061488147,0.022432925,0.49562752,-1.3764446,1.8978022,-2.0903785,-1.5708536,2.4696994,-0.12010467,0.06288204,-0.08370512,0.013825268,-0.00021654832,-0.14249519,-0.15322891,0.019153614,-9.423578,0.78888994,47.71465,-0.90600055,-2.417799,-3.2281475,-0.3192721,0.073088996,-0.08107628,28.1875,29.625,28.6875,32.4375,34.875,35.9375
0.16405185,-0.52002645,0.08174406,-0.6374778,0.005069702,0.0052026534,-0.16146527,-0.39493394,-0.36607715,0.059958242,-3.0787954,0.62339056,-0.00029669426,-0.07320847,0.032172434,0.002680421,-0.0033247718,0.0061836094,0.017358072,0.49538806,-1.3763002,1.897623,-2.090295,-1.5708297,2.4694128,-0.12108175,0.06340125,-0.08448929,0.014050708,-0.00021434143,-0.13839705,-0.095768064,0.076614454,-9.461885,0.7597976,47.70032,-1.0526438,-2.4064417,-3.1161404,-0.31680816,0.06688054,-0.12935175,28.1875,29.625,28.6875,32.4375,34.875,35.9375
0.16605167,-0.14608695,-0.18928643,-0.4288506,0.012873872,0.01340416,-0.15919505,-0.3950937,-0.36599386,0.0599427,-3.0787559,0.6234042,-0.00027698211,-0.07392485,0.032880273,0.0028857798,-0.002859292,0.006425593,0.010793652,0.495124,-1.3761321,1.897456,-2.0902827,-1.570866,2.4691625,-0.12256417,0.06338907,-0.085092746,0.014672348,-0.0007369397,-0.13331394,-0.05746084,0.038307227,-9.519346,0.85826975,47.72002,-1.0601954,-2.3391423,-3.2094426,-0.32251954,0.058085334,-0.21287091,28.1875,29.625,28.6875,32.4375,34.875,35.9375
0.16805232,0.07247751,0.43171597,-0.4826301,-0.0113243265,0.019037997,-0.17373535,-0.3952471,-0.36593878,0.059968624,-3.0788288,0.6233645,-0.00018875292,-0.07566995,0.0339723,0.00275615,-0.0029405535,0.0064475914,0.0030297071,0.4948833,-1.3760477,1.8972996,-2.0902946,-1.5708536,2.4688878,-0.12600303,0.0647455,-0.0863838,0.01455096,-0.0006649003,-0.12898831,-0.038307227,0.19153613,-9.404425,0.8403672,47.729877,-1.0293193,-2.3493896,-3.1975431,-0.32872385,0.064004816,-0.27588996,28.1875,29.625,28.6875,32.4375,34.875,35.9375
0.17005219,-0.16454011,-0.20467617,-0.5997137,-0.004955838,0.008355848,-0.15389964,-0.39539978,-0.36585626,0.059962258,-3.078804,0.62345356,-0.00023106886,-0.07456398,0.03256755,0.0028809092,-0.0029182122,0.0062286193,0.0041038715,0.49459732,-1.3759032,1.8971318,-2.0902464,-1.5708417,2.4686606,-0.12263832,0.06505902,-0.087211125,0.015269539,-0.00058123755,-0.12669761,0.019153614,0.22984336,-9.32781,0.8179876,47.73077,-1.2044979,-2.3655267,-3.1925223,-0.3142336,0.068159394,-0.32244927,28.1875,29.625,28.6875,32.4375,34.875,35.9375
0.17205192,-0.5472136,-0.49956885,-0.43995535,-0.015038062,-0.0021765367,-0.15632063,-0.39555845,-0.36581168,0.059992064,-3.078837,0.6233477,-0.00015233144,-0.075961925,0.034203418,0.0022202749,-0.00215614,0.0046913456,-0.0014801421,0.49439204,-1.3757707,1.8968929,-2.0901859,-1.5708655,2.4683852,-0.12667039,0.066703334,-0.08782029,0.01594614,-0.00051476655,-0.12514539,-0.038307227,0.19153613,-9.404425,0.80456203,47.737934,-1.0348006,-2.3264804,-3.228284,-0.3244421,0.05282951,-0.40297303,28.1875,29.625,28.6875,32.4375,34.875,35.9375
0.17405166,0.004402057,-0.73192126,-0.46743372,-0.023278441,0.014887634,-0.16518532,-0.39569527,-0.36573067,0.05997347,-3.0787954,0.6233376,-0.00014581838,-0.07578047,0.034189444,0.0019210093,-0.0016729698,0.0037751964,-0.0025547084,0.49415287,-1.3756263,1.8967613,-2.0901744,-1.5709013,2.4681451,-0.12645185,0.0674341,-0.08816182,0.016588312,-0.0005062817,-0.12385212,0.076614454,0.30645782,-9.423578,0.85155696,47.72002,-1.1683528,-2.356709,-3.2767348,-0.3422121,0.0617499,-0.4575022,28.1875,29.625,28.6875,32.4375,34.875,35.9375
0.17605236,-0.21019277,-0.59649974,-0.5704541,-0.025399309,0.009315003,-0.16623236,-0.39584547,-0.3656571,0.059977338,-3.0788133,0.6233013,-0.00018583474,-0.07701695,0.034332067,0.0022434727,-0.002264392,0.0048478767,-0.0019796337,0.49387705,-1.3754938,1.8965815,-2.0901144,-1.5708774,2.4678445,-0.12778315,0.06818106,-0.08968999,0.016147213,-0.0004994354,-0.12575775,0.038307227,0.26815057,-9.423578,0.7396539,47.731667,-1.2188575,-2.3663573,-3.297769,-0.33003396,0.05967942,-0.48183903,28.1875,29.625,28.6875,32.4375,34.875,35.9375
0.17805213,-0.27732322,-0.38259244,-0.2798858,-0.025569934,0.016282938,-0.16915043,-0.3960047,-0.36558378,0.05996607,-3.0788004,0.6233724,-0.00021347593,-0.07815496,0.034951717,0.0020612213,-0.0022604896,0.0047471165,0.0016348298,0.49360093,-1.3753252,1.8964018,-2.0900905,-1.5708655,2.4676144,-0.1298454,0.06942321,-0.09073755,0.016043613,-0.00045952297,-0.13143393,-0.038307227,0.095768064,-9.385271,0.82022345,47.716442,-1.1565913,-2.3212159,-3.306182,-0.33690023,0.06881988,-0.50601757,28.1875,29.625,28.6875,32.4375,34.875,35.9375
0.18005173,-0.6483683,-0.5288285,-0.4475337,-0.013656186,0.009422431,-0.16518918,-0.39615473,-0.3655269,0.059988014,-3.0788438,0.6233942,-0.00015501589,-0.079055466,0.03518639,0.002349051,-0.0026361635,0.005451029,0.009471011,0.49336103,-1.375229,1.8962349,-2.0900786,-1.5708536,2.4673827,-0.13102,0.06977066,-0.091788754,0.015949717,-0.00045780718,-0.14044428,0.076614454,0.19153613,-9.32781,0.8224646,47.709274,-1.1726223,-2.3556054,-3.286666,-0.3396075,0.06386357,-0.44280472,28.1875,29.625,28.6875,32.4375,34.875,35.9375
0.18205257,-0.24715708,-0.07918704,-0.32701823,-0.020181943,0.025303472,-0.17263103,-0.39631575,-0.36547503,0.059993424,-3.0789075,0.62334144,-0.00017648855,-0.07995141,0.035981297,0.002106596,-0.0024415082,0.005086829,0.019852053,0.493097,-1.3750725,1.8960313,-2.0900543,-1.5708054,2.4670777,-0.13312855,0.07062224,-0.09226909,0.015996953,-0.00045587518,-0.1529336,0.038307227,0.19153613,-9.423578,0.83589023,47.703903,-1.152379,-2.3027666,-3.3016987,-0.34504884,0.04651855,-0.3379115,28.1875,29.625,28.6875,32.4375,34.875,35.9375
0.18405235,-0.40022695,-0.052691177,-0.24054159,-0.018099986,0.032035954,-0.1653858,-0.3964798,-0.36537334,0.059991017,-3.0788653,0.62319386,-0.0001339174,-0.080601916,0.036488093,0.0015540418,-0.0019955363,0.0041838135,0.02630529,0.49282116,-1.3749279,1.8958515,-2.0899947,-1.5708774,2.4667153,-0.13454945,0.07222917,-0.092944495,0.016059503,-0.00042700657,-0.16080728,-0.095768064,0.095768064,-9.404425,0.86498255,47.693153,-1.1643813,-2.2584682,-3.35808,-0.33641273,0.053406205,-0.23776326,28.1875,29.625,28.6875,32.4375,34.875,35.9375
0.18605231,-0.60591847,0.35126364,-0.35749027,-0.01589822,0.035668977,-0.17053641,-0.3966442,-0.36530963,0.059995014,-3.0789127,0.62312424,-0.000102218604,-0.08312382,0.03635145,0.0028266364,-0.0035179763,0.006957185,0.02908116,0.4925568,-1.3747833,1.8956708,-2.0899951,-1.5708655,2.4664016,-0.136582,0.07320955,-0.096989855,0.015961923,-0.0004000106,-0.16561402,-0.22984336,0.17238252,-9.289502,0.83589023,47.675243,-1.105294,-2.4064698,-3.2377777,-0.3305654,0.069775,-0.18103579,28.1875,29.625,28.6875,32.4375,34.875,35.9375
0.18805209,-1.2920383,-0.1917203,-0.16763724,0.0014314883,0.03363731,-0.15254366,-0.39679304,-0.36525893,0.059998367,-3.0789688,0.6229244,-0.000104023085,-0.08255567,0.037719857,0.0020213777,-0.0025910963,0.0051984955,0.027079668,0.4923287,-1.3746276,1.89547,-2.089959,-1.5708536,2.4660418,-0.13833976,0.072401114,-0.094214015,0.015984394,-0.0003761268,-0.16537158,-0.26815057,0.11492168,-9.385271,0.8851263,47.703903,-1.0200764,-2.0471163,-3.4495192,-0.3292187,0.058486428,-0.1252296,28.1875,29.625,28.6875,32.4375,34.875,35.9375
0.19005178,-1.0063691,0.5395574,0.08018656,-0.010414104,0.058220662,-0.16727352,-0.39696938,-0.36516836,0.060002938,-3.0789654,0.622946,-0.00010295745,-0.085175395,0.038313624,0.0015695887,-0.0026021674,0.005161965,0.019166514,0.49201593,-1.3744819,1.895276,-2.0899117,-1.5708536,2.465743,-0.1416825,0.07642217,-0.097904354,0.015681213,-0.00035492744,-0.16079912,-0.38307226,0.038307227,-9.442732,0.8717007,47.691364,-1.0202378,-2.2284606,-3.3490658,-0.3211578,0.046149902,-0.2126511,28.1875,29.625,28.6875,32.4375,34.875,35.9375
0.19205254,-1.3163975,0.48175347,-0.07689414,-0.0011879873,0.061605338,-0.16077593,-0.39714253,-0.36510032,0.060013443,-3.0790184,0.62288225,-8.829627e-05,-0.08426682,0.038475692,0.00031558282,-0.0011538331,0.0024416056,0.013020793,0.4917293,-1.374337,1.8950742,-2.0898874,-1.5708297,2.46541,-0.14109051,0.07806962,-0.09718287,0.01639875,-0.0003359903,-0.15406156,-0.59376204,-0.038307227,-9.346964,0.8806493,47.68599,-1.2101054,-2.4811773,-3.3830671,-0.31845823,0.04289615,-0.2743996,28.1875,29.625,28.6875,32.4375,34.875,35.9375
0.19405238,-1.4218905,0.7265252,-0.0022251122,0.012074675,0.070016876,-0.16454533,-0.3972986,-0.36502787,0.060011473,-3.0790184,0.6228435,-0.000103695456,-0.08530709,0.03826317,0.0010128119,-0.0019485832,0.0038794538,0.011142514,0.4914656,-1.374181,1.8948826,-2.0898392,-1.5708297,2.4651222,-0.14164011,0.07833357,-0.09909401,0.016403317,-0.00031897397,-0.15273213,-0.61291564,-0.05746084,-9.308657,0.85155696,47.672558,-1.1062056,-2.253537,-3.3550777,-0.3035316,0.03806085,-0.32795835,28.1875,29.625,28.6875,32.4375,34.875,35.9375
0.19605213,-0.9220228,0.8739051,0.15474162,0.015286631,0.086261734,-0.17124696,-0.39748487,-0.36494413,0.060027458,-3.0790143,0.62284136,-2.473854e-05,-0.08678945,0.038047798,0.00122115,-0.0023592294,0.0046154736,0.0099709295,0.49117783,-1.3740362,1.8946661,-2.0898035,-1.5708655,2.4648337,-0.14257692,0.08039749,-0.10203732,0.016434554,-0.00030359728,-0.15249594,-0.5554548,-0.095768064,-9.385271,0.8537928,47.699425,-1.316432,-2.3687115,-3.2638454,-0.29416013,0.039098643,-0.35815507,28.1875,29.625,28.6875,32.4375,34.875,35.9375
0.19805188,-1.3449243,0.7351111,0.15739344,0.016866358,0.081580564,-0.16719966,-0.39766845,-0.3648827,0.0600368,-3.079069,0.62287056,-3.2277083e-05,-0.087263346,0.03844939,0.0010419496,-0.0022754604,0.004441565,0.009469744,0.49087816,-1.3738678,1.8944391,-2.0897791,-1.5708174,2.4645455,-0.14363249,0.080960736,-0.10228545,0.016319573,-0.00028963666,-0.15305018,-0.68953013,-0.11492168,-9.212888,0.8314132,47.71554,-1.205895,-2.3176837,-3.3236604,-0.2877171,0.034495212,-0.38708228,28.1875,29.625,28.6875,32.4375,34.875,35.9375
0.20005178,-1.1206831,0.45423016,-0.22575878,0.013011811,0.083138555,-0.1729007,-0.39782545,-0.36479393,0.06001686,-3.0790434,0.62274814,-6.661283e-05,-0.08910757,0.039434556,0.0015230776,-0.002814194,0.0054020197,0.01075854,0.49060148,-1.3736874,1.8942593,-2.0897315,-1.5708417,2.4641957,-0.14692104,0.0813247,-0.103846736,0.01641155,-0.00027690313,-0.15762691,-0.6703765,-0.11492168,-9.346964,0.8291774,47.691364,-1.0552858,-2.3118653,-3.2181172,-0.27090135,0.039478317,-0.37362987,28.1875,29.625,28.6875,32.4375,34.875,35.9375
0.20205253,-1.8928494,0.046164796,-0.13258596,0.006983533,0.061020203,-0.15981108,-0.39800638,-0.3647262,0.060021065,-3.0790937,0.6227152,-7.587881e-05,-0.091668725,0.0401659,0.0009923559,-0.0023684744,0.004535736,0.015601032,0.4903012,-1.3735176,1.8940424,-2.0897071,-1.5708054,2.4638686,-0.15041973,0.08569605,-0.1080282,0.017200707,-0.00026524166,-0.16596588,-0.6703765,-0.11492168,-9.3661175,0.8247004,47.688675,-1.2266166,-2.4578743,-3.2016287,-0.29835495,0.026496042,-0.32742798,28.1875,29.625,28.6875,32.4375,34.875,35.9375
0.20405257,-2.037072,0.111789584,0.02688932,-0.0053189583,0.06576501,-0.15991378,-0.39821023,-0.36462453,0.06002656,-3.079067,0.62268203,3.8486283e-05,-0.08998475,0.040476535,0.0008898649,-0.0020526026,0.0039871978,0.02751979,0.48999026,-1.3733506,1.8938287,-2.0896957,-1.5708774,2.4635406,-0.14935242,0.08303044,-0.104608215,0.01706533,-0.0002723144,-0.17681912,-0.61291564,-0.05746084,-9.270349,0.84484416,47.71286,-1.2109951,-2.2992232,-3.3475804,-0.28366488,0.031082388,-0.21307866,28.1875,29.625,28.6875,32.4375,34.875,35.9375
0.20605248,-1.1824429,0.47724736,0.1373481,-0.008611045,0.10276778,-0.16823268,-0.39835948,-0.36455846,0.060007937,-3.079111,0.62253296,-5.4017866e-05,-0.092425466,0.0394994,0.0020892925,-0.0034017954,0.00649406,0.033285834,0.4897145,-1.3731695,1.8936476,-2.089659,-1.5708297,2.4631662,-0.14985897,0.085432485,-0.11030989,0.017525855,-0.00027837438,-0.18308915,-0.6895301,-0.019153614,-9.346964,0.86498255,47.694054,-1.1705551,-2.2938018,-3.2079163,-0.2754432,0.024648037,-0.1333898,28.1875,29.625,28.6875,32.4375,34.875,35.9375
0.20805214,-1.6234964,0.6278031,0.10108381,0.003836314,0.09231027,-0.1628616,-0.3985651,-0.3644826,0.060017493,-3.0791562,0.62252194,-6.506397e-05,-0.09234793,0.040728763,0.00081821054,-0.002193081,0.004224444,0.032781277,0.48937863,-1.3729768,1.8933858,-2.0896113,-1.5707935,2.462818,-0.15179648,0.08658101,-0.108777955,0.017423363,-0.00026905455,-0.18452257,-0.53630114,-0.019153614,-9.346964,0.7396539,47.709274,-1.1514585,-2.5481277,-3.2991219,-0.26367638,0.021398699,-0.05694137,28.1875,29.625,28.6875,32.4375,34.875,35.9375
0.21005201,-1.3117034,0.1662641,0.0440728,0.009702531,0.08530553,-0.15411745,-0.3987643,-0.36439994,0.060024563,-3.0791996,0.6224178,4.915275e-06,-0.09352581,0.04065838,0.0013532203,-0.0028982647,0.005543333,0.027114403,0.48906702,-1.3728086,1.8931698,-2.0896118,-1.5708054,2.462436,-0.15268129,0.08716386,-0.11065434,0.017219594,-0.0002599933,-0.17973973,-0.59376204,-0.076614454,-9.270349,0.84484416,47.692257,-1.2671345,-2.301915,-3.2007186,-0.25854155,0.012834294,-0.09580613,28.1875,29.625,28.6875,32.4375,34.875,35.9375
0.21205172,-1.4107002,-0.080950804,-0.002019122,0.0116052255,0.051615138,-0.1517447,-0.3989206,-0.36430386,0.059996665,-3.079157,0.6222981,-6.035051e-05,-0.094540246,0.040642083,0.0008782047,-0.0025711847,0.0047526737,0.018166685,0.4887793,-1.3726153,1.8929895,-2.0895512,-1.5708297,2.462079,-0.15356125,0.08997306,-0.11302592,0.01762997,-0.00019199785,-0.17167076,-0.51714754,-0.05746084,-9.270349,0.8023209,47.707485,-1.2631235,-2.5515397,-3.1148453,-0.25236908,0.011944989,-0.161969,28.1875,29.625,28.6875,32.4375,34.875,35.9375
0.21405253,-0.26339152,0.29500285,-0.22860932,0.0005692196,0.046729304,-0.16244109,-0.3991327,-0.3641994,0.06002028,-3.0791583,0.6223587,-6.465528e-06,-0.09575945,0.040671278,0.0013630289,-0.0031744707,0.0059394473,0.010194773,0.48841968,-1.372471,1.8927506,-2.0894916,-1.5708417,2.4617572,-0.15462565,0.09065003,-0.1149181,0.017513072,-0.00021182233,-0.16476241,-0.4405331,0.05746084,-9.212888,0.8717007,47.70211,-1.2981267,-2.4804487,-3.1215749,-0.22704864,0.011622385,-0.25869533,28.1875,29.625,28.6875,32.4375,34.875,35.9375
0.21605253,-0.34392232,0.15590486,-0.2831447,-0.008896799,0.03311141,-0.15396228,-0.3993112,-0.3641171,0.060007032,-3.0791585,0.62231994,-2.18425e-05,-0.09628187,0.04080455,0.00064891216,-0.0023076206,0.0044187955,0.0061994977,0.48812026,-1.372278,1.8925456,-2.0894673,-1.5708417,2.4614336,-0.15522788,0.093267865,-0.11661413,0.018341556,-0.00026567184,-0.16136831,-0.28730422,0.21068975,-9.251195,0.78217715,47.694946,-1.311768,-2.5129793,-3.0667057,-0.22904201,0.0027821627,-0.34407842,28.1875,29.625,28.6875,32.4375,34.875,35.9375
0.21805264,-0.1910314,0.21016294,-0.23033339,-0.024165038,0.030500824,-0.15838392,-0.39951172,-0.3640315,0.060005322,-3.0791492,0.62235874,-2.4652547e-05,-0.09761438,0.041909363,0.00083518284,-0.0015674377,0.004992558,-0.00028491893,0.48779598,-1.3720735,1.8922952,-2.0894191,-1.5708421,2.461135,-0.15764722,0.09371693,-0.117697686,0.01882,-0.0011879468,-0.15730135,-0.19153613,0.21068975,-9.308657,0.8560339,47.707485,-1.2423747,-2.567224,-3.0453138,-0.20323056,0.023021463,-0.4439978,28.1875,29.625,28.6875,32.4375,34.875,35.9375
0.22005303,-0.663427,-0.61472625,-0.30278087,-0.00991543,0.02619487,-0.1536106,-0.3997331,-0.36390787,0.05998575,-3.0790849,0.6224995,-4.699775e-06,-0.099940196,0.044115536,0.0010291315,-0.0016195446,0.005242153,-0.004303218,0.48741087,-1.3718573,1.8920797,-2.0894072,-1.5708779,2.460846,-0.16333227,0.093954444,-0.118514955,0.01914889,-0.0012600381,-0.15896769,-0.1340753,0.24899697,-9.461885,0.88960326,47.691364,-1.1060058,-2.4869723,-3.0716298,-0.2113885,0.013597004,-0.5081102,28.1875,29.625,28.6875,32.4375,34.875,35.9375
0.22205292,-0.09381573,-0.30687594,-0.32359517,-0.032550607,0.03706228,-0.16774626,-0.39994192,-0.36383444,0.06001636,-3.0791342,0.62240595,5.1063496e-05,-0.10019773,0.044168957,0.00070392434,-0.001235524,0.004442215,0.0052591474,0.48709962,-1.3716886,1.8917931,-2.0893357,-1.5708779,2.4604702,-0.1636066,0.09527571,-0.119482614,0.019679938,-0.0012176943,-0.168804,0.019153614,0.22984336,-9.3661175,0.87617236,47.70659,-1.1388533,-2.5392714,-3.0693443,-0.19020379,0.022449575,-0.47266892,28.1875,29.625,28.6875,32.4375,34.875,35.9375
0.22405292,0.09331389,-0.5287293,-0.4579333,-0.03513085,0.033535752,-0.16462879,-0.40015012,-0.36374405,0.059997603,-3.0791426,0.62230444,8.617046e-05,-0.10112821,0.045212705,0.0003676874,-0.0009455257,0.0035419008,0.015803317,0.48677525,-1.37146,1.8915662,-2.0893471,-1.5709018,2.4600816,-0.16622995,0.09623802,-0.1199915,0.020150602,-0.0010508185,-0.18197154,0.038307227,0.19153613,-9.404425,0.86498255,47.693153,-1.0369164,-2.5174093,-3.1547031,-0.1818448,0.015168509,-0.3582141,28.1875,29.625,28.6875,32.4375,34.875,35.9375
0.22605224,-0.44850647,-0.73858094,-0.4866473,-0.03393917,0.0090601435,-0.15860768,-0.400304,-0.36365944,0.05997206,-3.0791306,0.62214035,-2.7736318e-05,-0.10170225,0.04576756,0.0005076269,-0.0011587744,0.0036247969,0.02571852,0.48648766,-1.3712559,1.8913621,-2.0892632,-1.5708903,2.4596932,-0.1677056,0.09611918,-0.120228134,0.020332515,-0.0009173146,-0.1933625,-0.019153614,0.22984336,-9.519346,0.7978386,47.687782,-1.0874295,-2.472803,-3.1118443,-0.1777655,-0.0021361925,-0.22202463,28.1875,29.625,28.6875,32.4375,34.875,35.9375
0.22805181,-0.181544,-0.63848835,-0.26587987,-0.026193857,0.02054235,-0.16832183,-0.40053314,-0.36358166,0.060002588,-3.0792074,0.62216985,3.6507285e-05,-0.102426894,0.044734396,0.0010064061,-0.0019111981,0.004849559,0.032859027,0.48612887,-1.3710872,1.8910865,-2.0892394,-1.5708541,2.4593432,-0.16659509,0.097481936,-0.12299278,0.020305652,-0.0008134828,-0.19939148,-0.038307227,0.17238252,-9.481039,0.83365434,47.68599,-1.1606956,-2.4877715,-3.173539,-0.1715268,0.01676363,-0.14863,28.1875,29.625,28.6875,32.4375,34.875,35.9375
0.23005192,0.49762762,-0.11254246,-0.4685498,-0.023381907,0.032653753,-0.1643158,-0.40074342,-0.36347267,0.0599918,-3.0792067,0.6221323,1.9945217e-05,-0.10204637,0.04597299,0.00035201944,-0.0012045718,0.0033437358,0.028707553,0.48575702,-1.3708832,1.89086,-2.0892036,-1.5708541,2.4589481,-0.16831498,0.09684238,-0.12078297,0.020396847,-0.0007307764,-0.19696103,0.05746084,0.28730422,-9.442732,0.8806493,47.66539,-1.1019925,-2.3983536,-3.2513986,-0.16401123,0.028281331,-0.1703476,28.1875,29.625,28.6875,32.4375,34.875,35.9375
0.23205256,-0.15202534,0.12269504,-0.3123488,-0.018328248,0.017335182,-0.15563926,-0.40095535,-0.36337435,0.05998732,-3.0791883,0.62213415,1.3058527e-05,-0.103012264,0.04671518,-0.0012090233,-0.00011187913,0.0010115582,0.01830206,0.4854089,-1.3706656,1.8905972,-2.089144,-1.5708655,2.4586036,-0.1704276,0.100786984,-0.12189548,0.020135785,-0.000612911,-0.18866731,0.11492168,0.17238252,-9.481039,0.8537928,47.66808,-1.0719892,-2.5419722,-3.1963072,-0.14204104,0.011736086,-0.24025553,28.1875,29.625,28.6875,32.4375,34.875,35.9375
0.2340526,-0.051873628,-0.05173717,-0.29647478,-0.011730949,0.011451694,-0.15480337,-0.40115502,-0.3632907,0.059982747,-3.0792124,0.6220833,6.746544e-05,-0.10421433,0.047473848,0.00030145515,-0.0015721363,0.0036170427,0.012409018,0.48509687,-1.3704745,1.8903826,-2.089156,-1.5708774,2.458257,-0.17275636,0.098118454,-0.12215212,0.020073146,-0.00052951206,-0.18510354,0.038307227,0.11492168,-9.481039,0.83813137,47.675243,-1.0385543,-2.429071,-3.3061004,-0.12644787,0.016552657,-0.32608163,28.1875,29.625,28.6875,32.4375,34.875,35.9375
0.23605207,0.2945573,0.39570573,-0.47098663,-0.00537241,0.0064482456,-0.16483566,-0.40137094,-0.36319578,0.059997406,-3.0792463,0.6220313,8.0915095e-05,-0.104453094,0.04869897,-0.0014828645,0.00030074088,-4.4383294e-05,0.009489579,0.48473677,-1.370293,1.8901194,-2.0890954,-1.5708655,2.4578602,-0.17498927,0.101326756,-0.122139126,0.020966262,-0.00047300785,-0.18441671,0.11492168,0.05746084,-9.481039,0.8179876,47.655537,-0.9940431,-2.494639,-3.4269853,-0.10487464,-0.0013617028,-0.3587407,28.1875,29.625,28.6875,32.4375,34.875,35.9375
0.23805222,0.56276995,0.8216944,-0.28915516,-0.003369454,0.00526443,-0.16681269,-0.40159374,-0.36310834,0.060002998,-3.0792675,0.6219008,0.00015886321,-0.105620205,0.049554143,-0.00033069204,-0.0002823689,0.0011521623,0.007940956,0.48441276,-1.3700775,1.8898443,-2.089071,-1.5709013,2.4574523,-0.1773673,0.09988007,-0.12335268,0.022289472,-0.00050731644,-0.185246,0.019153614,0.038307227,-9.5385,0.90750587,47.66539,-0.90301037,-2.4447415,-3.2670794,-0.114848614,0.01263259,-0.40767038,28.1875,29.625,28.6875,32.4375,34.875,35.9375
0.24005191,-0.11456003,0.5865652,-0.28161114,0.005464812,0.0013742996,-0.16426054,-0.40178964,-0.36300755,0.059987187,-3.0792599,0.6218734,7.372505e-05,-0.10569508,0.04936238,-0.0003865623,-8.709128e-05,0.0006757299,0.015782755,0.48405355,-1.369861,1.8896059,-2.088999,-1.5708774,2.457077,-0.17706122,0.100730374,-0.124427326,0.02302944,-0.00046845232,-0.19278131,0.0,-0.076614454,-9.442732,0.8314132,47.66987,-0.8845799,-2.428721,-3.5356154,-0.09525357,0.0010215482,-0.3439159,28.1875,29.625,28.6875,32.4375,34.875,35.9375
0.24205214,-0.22686961,0.82643604,-0.2022823,0.014328444,0.025140194,-0.16605842,-0.40198275,-0.36291456,0.059974935,-3.0792782,0.62183124,6.132991e-05,-0.10668226,0.049681216,-0.00021365,-0.00021130504,0.00082617346,0.025633816,0.48371753,-1.3696684,1.8894013,-2.088987,-1.5708655,2.4567125,-0.17842752,0.1016334,-0.12603076,0.023539426,-0.00043133425,-0.20399806,0.0,-0.05746084,-9.442732,0.842603,47.642998,-0.8812845,-2.3786972,-3.4157443,-0.090786576,-0.008312942,-0.27391225,28.1875,29.625,28.6875,32.4375,34.875,35.9375
0.244052,-0.5386881,0.82574767,-0.41355386,0.024312556,0.045457985,-0.16659734,-0.40219182,-0.36281857,0.059956845,-3.0792718,0.621709,1.4554404e-06,-0.108143136,0.04993823,0.0011593213,-0.0012377544,0.0026839182,0.03396196,0.48336968,-1.3694166,1.8891257,-2.0889146,-1.5708655,2.4562893,-0.18009989,0.100827016,-0.12846637,0.024657903,-0.00039942525,-0.21399795,-0.1340753,0.05746084,-9.481039,0.8717007,47.658226,-0.95742226,-2.3537621,-3.3929904,-0.09631834,0.0003163732,-0.13062818,28.1875,29.625,28.6875,32.4375,34.875,35.9375
0.24605185,-0.81569815,0.37422565,-0.42790622,0.017613044,0.063414685,-0.16301529,-0.40243277,-0.3627203,0.059991483,-3.079356,0.62164503,7.5500415e-05,-0.10758046,0.04988664,-0.00077186595,0.00085745176,-0.0013294338,0.036282808,0.48297518,-1.3692589,1.8888506,-2.088878,-1.5708417,2.4558444,-0.17943922,0.105053656,-0.1294177,0.025914792,-0.00037189882,-0.2156573,-0.24899697,-0.038307227,-9.481039,0.84708,47.687782,-1.1007907,-2.3626108,-3.4349513,-0.09544213,-0.012684286,-0.07032831,28.1875,29.625,28.6875,32.4375,34.875,35.9375
0.24805175,-1.1672436,0.20650999,-0.44425437,0.005450818,0.06134082,-0.1607072,-0.40262982,-0.36262867,0.060005266,-3.079346,0.6215122,0.0001245838,-0.10865837,0.049770657,0.0013374123,-0.00076511723,0.00171152,0.03003468,0.48267543,-1.3690795,1.8885864,-2.0887945,-1.5708898,2.4554632,-0.18014179,0.1025014,-0.13143463,0.027027816,-0.0003479246,-0.21011154,-0.4405331,-0.05746084,-9.519346,0.7933669,47.701214,-1.1789417,-2.2998738,-3.3547435,-0.09936939,-0.0029903888,-0.101525486,28.1875,29.625,28.6875,32.4375,34.875,35.9375
0.25005248,-0.8421025,0.27847692,-0.42390406,-0.020841176,0.074143656,-0.17500159,-0.40284833,-0.36251786,0.060002446,-3.0793583,0.62142223,5.2404113e-05,-0.1089889,0.05084535,-0.0005664304,0.0011439078,-0.001993125,0.019286063,0.4822798,-1.3688622,1.8883117,-2.0886981,-1.5708655,2.45501,-0.18217492,0.10628365,-0.1318172,0.027801953,-0.00032685322,-0.20139544,-0.5554548,0.0,-9.5385,0.8224646,47.675243,-1.3496032,-2.3096318,-3.3842957,-0.0931838,-0.013506359,-0.20502022,28.1875,29.625,28.6875,32.4375,34.875,35.9375
0.25205246,-1.2643423,-0.5561421,-0.5056369,-0.013554922,0.0672164,-0.16790567,-0.40306482,-0.3624346,0.059994005,-3.07938,0.6214094,2.7519178e-05,-0.10982402,0.05051344,0.00062511937,6.0796123e-05,2.9621327e-05,0.01233262,0.48193276,-1.3686223,1.8880366,-2.0886624,-1.5708417,2.4546523,-0.18228208,0.10545466,-0.13364156,0.028166538,-0.00030818963,-0.1945487,-0.5746084,0.076614454,-9.576807,0.8806493,47.678825,-1.2960205,-2.3666916,-3.3535752,-0.10805388,-0.021468148,-0.29360968,28.1875,29.625,28.6875,32.4375,34.875,35.9375
0.25405216,-0.80017316,-0.27938607,-0.7039304,-0.023840262,0.07649373,-0.17430569,-0.40327498,-0.3623203,0.05998654,-3.0793216,0.62149495,-2.1507047e-05,-0.11049661,0.050492674,0.0005326245,0.0001349792,-8.282217e-05,0.0062676906,0.48156124,-1.3684053,1.8877729,-2.088566,-1.5708536,2.4543417,-0.18274693,0.106883906,-0.13522273,0.028451031,-0.00033359337,-0.18894781,-0.59376204,0.1340753,-9.634268,0.84484416,47.672558,-1.3186293,-2.3470097,-3.360095,-0.10172738,-0.017623466,-0.41214925,28.1875,29.625,28.6875,32.4375,34.875,35.9375
0.25605196,-1.6113502,-0.89505005,-0.48579705,-0.025494464,0.06111771,-0.16497454,-0.403523,-0.36222297,0.06002229,-3.0793881,0.6213911,6.344991e-05,-0.11104918,0.050431143,0.00023773032,0.00025465852,-0.0002659464,0.005746473,0.4811777,-1.3682247,1.8874625,-2.0885065,-1.5708536,2.453885,-0.18302916,0.10848023,-0.136438,0.028287832,-0.0003447698,-0.18870814,-0.63206923,0.15322891,-9.672575,0.85826975,47.71017,-1.3684081,-2.2828133,-3.3648462,-0.09065424,-0.017354295,-0.47273386,28.1875,29.625,28.6875,32.4375,34.875,35.9375
0.25805226,-1.5550563,-0.78760624,-0.27932984,-0.039599564,0.082532115,-0.16722998,-0.40372217,-0.3621282,0.060000453,-3.079383,0.6213435,3.3960856e-05,-0.11282453,0.04965551,0.001322065,-0.0010314912,0.0021784664,0.016217517,0.48084188,-1.367996,1.8872336,-2.0884826,-1.5708536,2.4535203,-0.18321191,0.10972248,-0.14039776,0.028241908,-0.0003492604,-0.19936027,-0.57460845,0.22984336,-9.5385,0.85155696,47.72719,-1.5275886,-2.3793387,-3.2363453,-0.07889137,-0.022817623,-0.43328774,28.1875,29.625,28.6875,32.4375,34.875,35.9375
0.2600521,-1.5822726,-0.39235553,-0.3631137,-0.03570567,0.08501946,-0.18323795,-0.40396708,-0.36201087,0.060014535,-3.0793724,0.6212393,9.173896e-05,-0.1130954,0.05077691,0.0003980554,-0.00012720707,0.00039898066,0.028708829,0.48045713,-1.3677795,1.8869241,-2.0883987,-1.5709013,2.453072,-0.18526028,0.11088911,-0.13975158,0.028412968,-0.00032513114,-0.21390012,-0.26815057,0.3256114,-9.615114,0.8537928,47.694946,-1.5193405,-2.3353467,-3.2631927,-0.07151583,-0.032111786,-0.31947017,28.1875,29.625,28.6875,32.4375,34.875,35.9375
0.26205194,-0.91090226,-0.6086494,-0.25673798,-0.018776922,0.075989336,-0.17594069,-0.40421626,-0.36190203,0.060028795,-3.0794425,0.6211907,8.6466345e-05,-0.115120456,0.05131434,0.0010852002,-0.0009338754,0.001888602,0.035330754,0.48002437,-1.3675749,1.8866366,-2.0883505,-1.5708536,2.4526002,-0.18786776,0.111730404,-0.14235528,0.028490553,-0.00029576692,-0.22312851,-0.2681506,0.21068975,-9.519346,0.842603,47.699425,-1.363502,-2.40164,-3.0921593,-0.07070788,-0.04912214,-0.2138798,28.1875,29.625,28.6875,32.4375,34.875,35.9375
0.264052,-0.9966622,-1.1449606,-0.1891361,-0.014503021,0.03909113,-0.17167173,-0.4044341,-0.36182582,0.06002042,-3.0794709,0.62104446,0.000112322865,-0.11692788,0.05212624,0.0013658927,-0.0014616525,0.0029714457,0.034119926,0.47971112,-1.3673223,1.8863486,-2.0883272,-1.5708655,2.4521923,-0.19072045,0.11256881,-0.1439094,0.027999401,-0.00032856752,-0.22476964,-0.40222588,0.19153613,-9.519346,0.92093146,47.694946,-1.244994,-2.336508,-3.1929922,-0.06446226,-0.03406319,-0.14444341,28.1875,29.625,28.6875,32.4375,34.875,35.9375
0.2660527,-0.6972864,-0.44557282,-0.09826176,-0.028877007,0.02379312,-0.16577242,-0.4046742,-0.3617115,0.06002643,-3.0794783,0.6209925,0.00013508442,-0.118404046,0.053310934,0.00054495124,-0.00081603887,0.0018571186,0.025382595,0.47931424,-1.3671052,1.886062,-2.088267,-1.5708774,2.4517622,-0.19388244,0.11512375,-0.14510153,0.02792155,-0.0003868306,-0.2191934,-0.47884035,0.21068975,-9.3661175,0.89631605,47.71554,-1.3379999,-2.3706398,-3.1563168,-0.04402087,-0.033872724,-0.1873532,28.1875,29.625,28.6875,32.4375,34.875,35.9375
0.26805168,-0.6263299,0.16213396,-0.16078754,-0.017609278,0.013218069,-0.1752231,-0.40493807,-0.36159837,0.060054936,-3.0795066,0.6209432,0.00023010114,-0.118788555,0.05323384,0.00046214656,-0.00013968446,0.0012624129,0.020206993,0.47890636,-1.3669006,1.8857392,-2.0882075,-1.5709018,2.4513202,-0.19378938,0.11663003,-0.14701556,0.029165579,-0.0007009111,-0.2139235,-0.28730422,0.21068975,-9.442732,0.84708,47.73525,-1.3230588,-2.4750237,-3.0844886,-0.038106658,-0.05057328,-0.3055511,28.1875,29.625,28.6875,32.4375,34.875,35.9375
0.27005264,-0.06094676,0.34361482,-0.03379278,-0.006006171,0.03870943,-0.18140967,-0.40516716,-0.36151683,0.060035054,-3.0795555,0.6208402,0.0001927756,-0.120227635,0.05417932,-0.00011678779,0.0008685788,-2.3829572e-05,0.013664626,0.4785454,-1.3666234,1.8854502,-2.0881946,-1.570866,2.4508889,-0.19636174,0.11939859,-0.14929481,0.03029161,-0.0010059878,-0.2099519,-0.1340753,0.095768064,-9.423578,0.78217715,47.71823,-1.1853555,-2.4154572,-3.184782,-0.05067793,-0.030749828,-0.3912218,28.1875,29.625,28.6875,32.4375,34.875,35.9375
0.2720517,-0.6305864,0.15034746,0.09452957,0.008698265,0.023991833,-0.17570181,-0.40540573,-0.36140752,0.060041424,-3.079569,0.62090087,0.00018101295,-0.12061229,0.05513326,0.0007284246,0.00012619521,0.0011275583,0.012003441,0.47813693,-1.3664079,1.8851646,-2.0881345,-1.5708421,2.4505167,-0.19828358,0.1168979,-0.14827652,0.03041443,-0.0008722008,-0.21021362,-0.22984336,0.076614454,-9.346964,0.86945957,47.699425,-1.2166314,-2.4934123,-3.2319458,-0.049547788,-0.0400559,-0.39125204,28.1875,29.625,28.6875,32.4375,34.875,35.9375
0.2740522,-0.60304976,0.038373783,0.23362249,0.014464079,0.038982775,-0.18116668,-0.40568483,-0.36129996,0.06006991,-3.0796025,0.62080616,0.00032779595,-0.12080822,0.055975884,-0.0014357115,0.002238351,-0.0029737882,0.018722141,0.47774038,-1.3661782,1.884817,-2.0880983,-1.5708903,2.450057,-0.19977911,0.12139592,-0.14893596,0.031177435,-0.0008431608,-0.2184271,-0.28730422,-0.019153614,-9.32781,0.8314132,47.716442,-1.1649268,-2.501275,-3.210742,-0.037407927,-0.054024644,-0.35946593,28.1875,29.625,28.6875,32.4375,34.875,35.9375
0.27605188,-0.45849243,0.5653844,0.4374603,0.0047980756,0.052027762,-0.18170224,-0.4059382,-0.3611798,0.060058508,-3.0796096,0.6207046,0.00026978325,-0.12101505,0.056886937,-0.00058039086,0.0021594085,-0.002993242,0.030143749,0.4773081,-1.3659028,1.8844947,-2.0880144,-1.5708779,2.4495606,-0.20143047,0.11944216,-0.14903322,0.033209804,-0.00076791836,-0.23150064,-0.21068975,-0.076614454,-9.212888,0.8090337,47.691364,-1.1294086,-2.3738692,-3.3085036,-0.056225494,-0.05086691,-0.25372425,28.1875,29.625,28.6875,32.4375,34.875,35.9375
0.27805254,-0.787347,1.0244896,0.4844488,0.010779501,0.03862232,-0.18503688,-0.4061738,-0.3610669,0.060069446,-3.079635,0.62061036,0.00027980318,-0.121988125,0.057864163,-0.0011810961,0.0029895948,-0.0047754715,0.036221858,0.47691125,-1.3656976,1.8842081,-2.087942,-1.5708774,2.449102,-0.20387876,0.121578105,-0.15055014,0.034553666,-0.0006859832,-0.2400264,-0.076614454,-0.17238252,-9.136273,0.7933669,47.684196,-1.1266298,-2.4834332,-3.2474623,-0.057190366,-0.067408085,-0.12403356,28.1875,29.625,28.6875,32.4375,34.875,35.9375
0.28005224,-0.6274694,1.3080755,0.49123797,0.026865548,0.023489304,-0.18244162,-0.40640864,-0.36096218,0.060048647,-3.079674,0.62046593,0.00023788764,-0.121973485,0.058595624,-0.0014596174,0.0038100812,-0.0065171192,0.03287504,0.47651458,-1.3654332,1.8839334,-2.087917,-1.5708536,2.4486103,-0.20503657,0.12202347,-0.15089478,0.0363826,-0.0006186298,-0.23783746,-0.17238252,-0.24899697,-9.097966,0.84708,47.689575,-1.0548729,-2.4287467,-3.2920632,-0.07568535,-0.059840403,-0.092488766,28.125,29.625,28.6875,32.4375,34.875,35.9375
0.28205195,-0.30734757,1.1690973,0.7208417,0.045332924,0.012710418,-0.17892529,-0.40664393,-0.3608236,0.060042888,-3.0796568,0.62039125,0.00020508499,-0.12262552,0.05835504,-6.3305335e-05,0.0031655943,-0.0052652326,0.023637572,0.47608274,-1.3652174,1.8836693,-2.0878327,-1.5708655,2.4481342,-0.20509142,0.12106317,-0.1534081,0.038446553,-0.00063257536,-0.22865422,-0.30645782,-0.34476504,-8.944737,0.8023209,47.692257,-1.1760408,-2.3971505,-3.2818384,-0.09810737,-0.0674873,-0.19597724,28.125,29.625,28.6875,32.4375,34.875,35.9375
0.28405178,-0.118357025,1.7521433,0.7012917,0.053331576,0.02067043,-0.17987527,-0.40688744,-0.36072022,0.060050484,-3.0796583,0.62031835,0.0002395021,-0.12272971,0.058383204,-0.0009571024,0.0038731904,-0.006736294,0.01457125,0.47571078,-1.364976,1.8833469,-2.0877607,-1.5708898,2.4477167,-0.20515314,0.123329334,-0.15413731,0.03853708,-0.00059011765,-0.21964912,-0.4405331,-0.36391866,-8.887277,0.8112748,47.68599,-1.4125421,-2.4831753,-3.250698,-0.1255531,-0.070671566,-0.31843865,28.125,29.625,28.6875,32.4375,34.875,35.9375
0.28605157,-0.5975476,1.4893159,0.5769127,0.06593798,0.015248642,-0.17648326,-0.40714163,-0.36061174,0.06005097,-3.0796657,0.62034315,0.00020081467,-0.12406658,0.057248577,0.0005223693,0.0020805132,-0.0034891595,0.007512219,0.47529125,-1.3647124,1.8830112,-2.0876772,-1.5708655,2.4473119,-0.2043537,0.12337498,-0.15749247,0.038145058,-0.0004965494,-0.21178956,-0.2873042,-0.34476504,-8.90643,0.8023209,47.685097,-1.5769633,-2.2544756,-3.2959094,-0.115521714,-0.05716773,-0.43207216,28.125,29.625,28.6875,32.4375,34.875,35.9375
0.2880523,-0.16917163,1.6497669,0.58614904,0.04481524,0.02520199,-0.18977383,-0.4073907,-0.3604911,0.060058866,-3.0796795,0.6202678,0.00019681985,-0.12293542,0.05864147,0.00019021757,0.003725384,-0.0066936207,0.0073288507,0.4748709,-1.3644844,1.8827013,-2.0875924,-1.5708655,2.446843,-0.20561086,0.122051,-0.15594293,0.04152129,-0.00048521758,-0.21286444,-0.076614454,-0.22984336,-9.002198,0.9612189,47.696735,-1.6276877,-2.3171196,-3.418243,-0.13827609,-0.060419437,-0.5119387,28.125,29.625,28.6875,32.4375,34.875,35.9375
0.2900525,-0.28792703,0.72352237,0.290175,0.028522061,0.013303732,-0.1836021,-0.4076388,-0.3603534,0.060054418,-3.0796356,0.62027186,0.00017419558,-0.12434447,0.05977524,0.0004314725,0.004204861,-0.007662032,0.01677842,0.47443783,-1.3642437,1.8824013,-2.0874956,-1.5708898,2.446418,-0.20864382,0.1231736,-0.15840851,0.043937575,-0.00048015648,-0.2253461,-0.076614454,-0.076614454,-9.021352,0.7597976,47.698532,-1.4014037,-2.1321404,-3.1779432,-0.1835399,-0.07676978,-0.4601744,28.125,29.625,28.6875,32.4375,34.875,35.9375
0.29205248,-0.18911074,0.05017498,-0.054205675,0.0157134,0.004538676,-0.1830861,-0.40787905,-0.36022374,0.060044143,-3.0796032,0.62015945,9.551177e-05,-0.12575573,0.05991571,0.00058249425,0.004207006,-0.0075742276,0.030912701,0.47401735,-1.3639787,1.8820776,-2.087364,-1.5709013,2.4459317,-0.20996208,0.12521245,-0.1614254,0.044833522,-0.00054761255,-0.24079719,-0.095768064,-0.019153614,-9.097966,0.8291774,47.658226,-1.3743631,-2.1477509,-3.2400818,-0.21075448,-0.076979056,-0.29202217,28.125,29.625,28.6875,32.4375,34.875,35.9375
0.29405218,-0.36157903,-0.9455974,-0.45739257,0.0037206844,0.0051802434,-0.17339624,-0.40813208,-0.36010122,0.060034677,-3.0796306,0.61998916,5.3082007e-05,-0.12745073,0.06029183,0.0013468151,0.003958051,-0.006270754,0.03721794,0.4735843,-1.3637141,1.8817657,-2.0872915,-1.5708903,2.445389,-0.21171625,0.12600297,-0.16432875,0.045675598,-0.00093544193,-0.2488549,-0.11492168,0.019153614,-9.346964,0.8537928,47.681515,-1.27536,-2.1790438,-3.218514,-0.2524675,-0.06545251,-0.17702301,28.125,29.625,28.6875,32.4375,34.875,35.9375
0.29605183,-0.3559176,-0.8366504,-0.6144637,-0.023761835,0.018274331,-0.17739356,-0.40836686,-0.3599757,0.060023613,-3.079602,0.61985195,-2.7913029e-05,-0.12670662,0.061972547,-0.0002455474,0.005937227,-0.009664882,0.032040123,0.47317597,-1.3634498,1.8814443,-2.0871599,-1.5709018,2.4448988,-0.2136559,0.12666915,-0.1616777,0.046279877,-0.0011642642,-0.24561729,-0.11492168,0.15322891,-9.461885,0.86498255,47.691364,-1.2787123,-2.0831268,-3.2779503,-0.2949722,-0.08190646,-0.16390172,28.125,29.625,28.6875,32.4375,34.875,35.9375
0.29805186,-0.9516685,-1.67249,-0.70463306,-0.026624937,0.022586038,-0.17812692,-0.40860078,-0.3598388,0.060005583,-3.079578,0.6197377,-0.00011920455,-0.12860112,0.06392343,-0.00077933096,0.007156012,-0.010513547,0.02080654,0.47274274,-1.3631967,1.8811578,-2.087052,-1.5709022,2.4443974,-0.21803682,0.12862238,-0.1629866,0.046949487,-0.001885807,-0.23876262,-0.2681506,0.2873042,-9.5385,0.77545905,47.691364,-1.1945829,-2.2365136,-3.325427,-0.32328856,-0.07359477,-0.25770685,28.125,29.625,28.6875,32.4375,34.875,35.9375
0.30005172,-1.0725099,-1.5065303,-1.0663544,-0.046384554,0.048152674,-0.17076437,-0.40887576,-0.35970777,0.060019795,-3.079552,0.61977255,-9.733129e-05,-0.1300471,0.06410034,-0.00032924532,0.006392487,-0.008716777,0.014165753,0.47229835,-1.3629444,1.8807987,-2.0869448,-1.5709261,2.4439783,-0.21937257,0.12926298,-0.16457926,0.0459494,-0.0020336434,-0.23345664,-0.3256114,0.2873042,-9.672575,0.8314132,47.703903,-1.1465553,-2.1545486,-3.348511,-0.34699118,-0.07261178,-0.34187517,28.125,29.625,28.6875,32.4375,34.875,35.9375
0.302052,-1.0301732,-1.3268727,-1.1087335,-0.055798538,0.06529516,-0.18506923,-0.4091078,-0.35959023,0.060011502,-3.0795755,0.61960614,-0.00020830211,-0.1317995,0.06498716,-0.0004493967,0.0059573837,-0.008136815,0.009918889,0.4718775,-1.3626915,1.8804873,-2.0868251,-1.5708903,2.4434507,-0.22233526,0.1307262,-0.16589752,0.04509762,-0.0019330444,-0.23217182,-0.28730422,0.3256114,-9.902418,0.86498255,47.68599,-1.0733114,-2.2204814,-3.3065634,-0.3794518,-0.07524788,-0.41152686,28.125,29.625,28.6875,32.4375,34.875,35.9375
0.3040521,-1.9434876,-1.57604,-1.0317854,-0.06564116,0.058847144,-0.17423289,-0.40940645,-0.35946107,0.060023434,-3.079586,0.61954504,-0.00018462974,-0.13263887,0.06547757,-0.0013614125,0.006366689,-0.009389742,0.018280387,0.47140867,-1.3624023,1.880092,-2.0867298,-1.5709018,2.4429426,-0.22386989,0.13338245,-0.16698411,0.044824477,-0.0017366692,-0.24206755,-0.36391866,0.34476504,-9.9790325,0.8985519,47.68062,-0.9478784,-2.3968425,-3.3452387,-0.41057736,-0.06122241,-0.36407524,28.125,29.625,28.6875,32.4375,34.875,35.9375
0.30605236,-1.9913367,-1.7759836,-1.2845448,-0.058168236,0.08137857,-0.17107627,-0.40967903,-0.35931683,0.060021088,-3.0795786,0.61943907,-0.0001504934,-0.13445206,0.06490229,-0.0008534662,0.0042451103,-0.0057809413,0.030263577,0.47095248,-1.3621501,1.8797816,-2.086671,-1.570938,2.4424214,-0.22448319,0.1343181,-0.16846642,0.041179873,-0.001504072,-0.2546636,-0.45968673,0.34476504,-9.998186,0.85826975,47.704796,-0.961557,-2.199272,-3.3884058,-0.3996266,-0.0688532,-0.2218892,28.125,29.625,28.6875,32.4375,34.875,35.9375
0.30805224,-2.634586,-1.487541,-0.9183939,-0.05391332,0.08518132,-0.16860414,-0.40991163,-0.3592105,0.059995275,-3.0796328,0.61935,-0.00029382174,-0.13514347,0.06378436,-0.0011756112,0.0028378281,-0.0034982215,0.037001766,0.47052112,-1.3618731,1.8794945,-2.086612,-1.5708541,2.4419277,-0.22319824,0.13605385,-0.16897455,0.03729924,-0.0013122603,-0.26011646,-0.47884035,0.21068975,-9.940725,0.78888994,47.70659,-1.2196212,-2.36469,-3.3566992,-0.3665102,-0.06303043,-0.121149726,28.125,29.625,28.6875,32.4375,34.875,35.9375
0.31005216,-2.422083,-0.93861264,-0.93505085,-0.030086374,0.097877026,-0.1633652,-0.41022468,-0.35907578,0.060027793,-3.0796497,0.61929816,-0.00016250183,-0.1349037,0.06335959,-0.0024108926,0.003356623,-0.0051555606,0.03454473,0.4700537,-1.3616197,1.8791007,-2.086541,-1.5709018,2.441426,-0.22231747,0.13886662,-0.16942573,0.036636982,-0.0010097555,-0.2567787,-0.7278373,0.17238252,-9.730036,0.86945957,47.704796,-1.3787136,-2.4668655,-3.426095,-0.3581429,-0.067319654,-0.11688946,28.125,29.625,28.6875,32.4375,34.875,35.9375
0.31205216,-1.8799899,0.24646476,-0.75054383,-0.02451914,0.08705031,-0.16939834,-0.41049784,-0.35896984,0.060024623,-3.0796983,0.6191788,-0.0001458435,-0.13769817,0.06326714,-0.0017664963,0.0016246834,-0.0018755324,0.022633223,0.469633,-1.3613306,1.8787531,-2.0865057,-1.5708903,2.440925,-0.22446729,0.14086188,-0.17279299,0.034304373,-0.00095687114,-0.2470155,-0.63206923,0.05746084,-9.730036,0.94331104,47.685097,-1.4650004,-2.4547808,-3.3137312,-0.32942218,-0.0814406,-0.22526968,28.125,29.625,28.6875,32.4375,34.875,35.9375
0.31405193,-0.66305614,0.4917829,-0.7683249,-0.0069723153,0.077234104,-0.17513807,-0.41079143,-0.35885155,0.060045656,-3.0797431,0.61913556,-4.801513e-05,-0.13900167,0.06358438,-0.0013484024,0.00075447344,-0.00015425721,0.01138513,0.46918836,-1.3610784,1.8783945,-2.0864704,-1.5709018,2.4404478,-0.22598597,0.1410986,-0.173795,0.033139545,-0.0009458419,-0.23728578,-0.45968673,0.0,-9.634268,0.89631605,47.666286,-1.4734392,-2.5154858,-3.488617,-0.32124978,-0.090794,-0.37015527,28.125,29.625,28.6875,32.4375,34.875,35.9375
0.31605187,-0.6645198,0.28652638,-0.91991925,0.015423094,0.020770172,-0.17426068,-0.41107488,-0.35871965,0.060026094,-3.0797038,0.61911124,-4.4314973e-05,-0.13913688,0.063142166,-0.0023348017,0.0009418113,-3.742374e-05,0.0062429067,0.4687449,-1.3607534,1.8780354,-2.0864112,-1.570938,2.4399943,-0.22508077,0.14334087,-0.17377234,0.030848347,-0.001176063,-0.23123756,-0.28730422,-0.038307227,-9.691729,0.85826975,47.65912,-1.5496323,-2.6433997,-3.4445095,-0.28030524,-0.08952665,-0.49485368,28.125,29.625,28.6875,32.4375,34.875,35.9375
0.3180517,0.07806847,0.47397503,-0.45688394,-0.014605642,0.024477156,-0.18184808,-0.41133854,-0.35859603,0.060028087,-3.0797365,0.6190938,-8.088014e-05,-0.14036073,0.063863136,-0.0021423348,0.00040086327,0.0016734793,0.011801164,0.4682882,-1.3605021,1.8777131,-2.0863397,-1.5709018,2.4395227,-0.22703008,0.14327727,-0.17378427,0.029161002,-0.0014713695,-0.23874462,-0.19153614,-0.038307227,-9.557653,0.8717007,47.688675,-1.4755061,-2.4124331,-3.4985728,-0.23470464,-0.0879489,-0.5036641,28.125,29.625,28.6875,32.4375,34.875,35.9375
0.32005244,-0.22006203,0.20761198,-0.31742242,-0.0033807915,0.021225046,-0.18094324,-0.41164964,-0.35849002,0.060059957,-3.0798185,0.6190238,5.209646e-05,-0.1421582,0.06519861,-0.0020988055,0.0024429364,0.0039827046,0.024685314,0.46784368,-1.360238,1.8773183,-2.0863168,-1.5709027,2.4390244,-0.2289223,0.1442778,-0.17488404,0.028127605,-0.004315215,-0.25351617,-0.095768064,-0.11492168,-9.481039,0.9030289,47.689575,-1.4899745,-2.3749027,-3.5172453,-0.21437764,-0.06309317,-0.36819613,28.125,29.625,28.6875,32.4375,34.875,35.9375
0.32205227,-0.36636853,0.43482128,-0.4162481,0.013975003,0.02535628,-0.17550912,-0.41191828,-0.3583361,0.060032982,-3.0797868,0.61897546,2.1739675e-06,-0.14434624,0.0660468,-0.001623119,0.0028706647,0.0054141977,0.034455802,0.46736237,-1.3599495,1.8770193,-2.0862563,-1.5709156,2.438517,-0.23144792,0.14582777,-0.17796467,0.028569646,-0.00536091,-0.26580915,-0.076614454,-0.076614454,-9.3661175,0.83589023,47.693153,-1.3375719,-2.465827,-3.400465,-0.2016742,-0.03920027,-0.24483165,28.125,29.625,28.6875,32.4375,34.875,35.9375
0.32405218,-0.7011182,0.21521005,-0.18401575,0.022139654,0.03673017,-0.17394803,-0.41222963,-0.3582026,0.06006074,-3.079829,0.61881346,0.00011034255,-0.14707753,0.06699346,-0.00019025644,0.002156044,0.007815366,0.030280247,0.46689326,-1.3596858,1.876623,-2.0861838,-1.5709513,2.4379418,-0.23495568,0.14608724,-0.18181463,0.029684346,-0.0057917098,-0.26513973,-0.21068975,-0.095768064,-9.289503,0.8918391,47.70659,-1.2013819,-2.4599419,-3.3082163,-0.19294168,-0.030236673,-0.20514259,28.125,29.625,28.6875,32.4375,34.875,35.9375
0.326052,-1.0925534,0.9823932,-0.03052896,0.008199194,0.044782273,-0.18127485,-0.41251427,-0.35808322,0.0600543,-3.0798888,0.6187547,5.1201027e-05,-0.14947654,0.067905515,0.0012359992,0.0010581904,0.010500746,0.020234894,0.4664126,-1.3593861,1.876264,-2.0861242,-1.5708917,2.437417,-0.23824537,0.14557223,-0.18455988,0.030067587,-0.006020566,-0.25838292,-0.45968673,0.0,-9.155427,0.95897776,47.658226,-1.1383017,-2.2996063,-3.2608972,-0.18901034,-0.009371176,-0.2836437,28.125,29.625,28.6875,32.4375,34.875,35.9375
0.32805204,-1.7283326,0.68271416,-0.25235373,0.033041302,0.031473067,-0.16874988,-0.41281986,-0.3579448,0.06006769,-3.0798867,0.61868113,0.00016923412,-0.15109414,0.069150105,0.0013972739,0.0017467838,0.011296052,0.012766702,0.46595562,-1.3591101,1.8758911,-2.086076,-1.5709518,2.4369147,-0.24097738,0.14637488,-0.18596962,0.03026011,-0.0069788587,-0.25364506,-0.4213795,0.05746084,-9.346964,0.87617236,47.694054,-1.022433,-2.3043144,-3.2511492,-0.15813044,0.021214424,-0.3895597,28.125,29.625,28.6875,32.4375,34.875,35.9375
0.33005175,-0.6165136,0.73661757,-0.41913697,0.019762376,0.053219788,-0.18860412,-0.41309804,-0.3577971,0.06005378,-3.0798655,0.6187143,0.00010966695,-0.15188135,0.07005548,0.0013713901,0.0024849055,0.010976323,0.013180195,0.46546292,-1.3588221,1.8755573,-2.0859916,-1.5709404,2.4364455,-0.24270402,0.14702304,-0.18694264,0.031203251,-0.007500255,-0.25578383,-0.36391866,0.038307227,-9.346964,0.8403672,47.677036,-1.0415493,-2.2284365,-3.2550929,-0.14267275,0.030031636,-0.4224288,28.125,29.625,28.6875,32.4375,34.875,35.9375
0.33205256,-1.2307047,0.0061991005,-0.212853,-0.016114458,0.04834924,-0.17868267,-0.41340318,-0.3576535,0.060050193,-3.0798545,0.6186279,0.00014343705,-0.15130161,0.069452785,-4.294203e-05,0.0031028541,0.0074875616,0.024607701,0.4649833,-1.3585092,1.875173,-2.08592,-1.5709761,2.4359136,-0.24165992,0.15058495,-0.18833134,0.032406937,-0.0064849495,-0.2661679,-0.5554548,0.095768064,-9.232041,0.8851263,47.698532,-1.2233707,-2.2217333,-3.2839923,-0.13372374,0.041351773,-0.34418124,28.125,29.625,28.6875,32.4375,34.875,35.9375
0.33405226,-1.2039039,-0.30959716,-0.19112054,-0.0379518,0.067370564,-0.18325616,-0.41372058,-0.35753658,0.06007418,-3.079926,0.61846113,0.00021406032,-0.15127234,0.06805475,0.002435264,-3.452334e-05,0.009871111,0.03980083,0.4645161,-1.3582106,1.8747429,-2.0858471,-1.5709752,2.4353335,-0.24018402,0.14736646,-0.19055113,0.034296695,-0.0047302926,-0.27988803,-0.49799395,0.076614454,-9.251195,0.7866488,47.691364,-1.3455462,-2.1382067,-3.3422315,-0.13685104,0.019548405,-0.18170226,28.125,29.625,28.6875,32.4375,34.875,35.9375
0.33605203,-0.5362507,-0.30674565,-0.7219861,-0.02969053,0.07394506,-0.18421853,-0.4140002,-0.3573909,0.06006941,-3.0799088,0.6183422,0.00019130205,-0.15097518,0.06844402,0.0021533682,-0.0005544509,0.007556954,0.04124663,0.46404773,-1.3579227,1.8743829,-2.085739,-1.5709985,2.4347932,-0.24135609,0.14760095,-0.19060396,0.035937138,-0.003231933,-0.28250813,-0.36391866,0.11492168,-9.423578,0.85826975,47.687782,-1.3766019,-2.1817997,-3.3289208,-0.14525276,0.010652848,-0.094864115,28.125,29.625,28.6875,32.4375,34.875,35.9375
0.33805206,-0.9872687,-0.40198603,-0.38798192,-0.031375468,0.06140385,-0.1627725,-0.41429642,-0.35725948,0.060067587,-3.0799537,0.6182016,0.00019177995,-0.15084012,0.06800759,0.0020940173,-0.0010685832,0.0067905704,0.034550235,0.463568,-1.3576226,1.8740124,-2.0856788,-1.5709866,2.4342203,-0.24084298,0.14836359,-0.19157909,0.036606167,-0.002423445,-0.27529955,-0.38307226,0.11492168,-9.481039,0.9254084,47.685097,-1.3399353,-2.108882,-3.285153,-0.14112386,0.0035471816,-0.16252536,28.125,29.625,28.6875,32.4375,34.875,35.9375
0.3400518,-0.9490715,-0.31913102,-0.32116273,-0.025143081,0.057240237,-0.1592144,-0.41461408,-0.3571244,0.0600652,-3.0799804,0.61819494,0.00020818965,-0.15126862,0.06760042,0.0018981368,-0.0016017847,0.0068666143,0.023130648,0.46306396,-1.3572986,1.873617,-2.0856311,-1.5709742,2.433709,-0.24062529,0.14982788,-0.19282305,0.036083184,-0.0019744379,-0.2636624,-0.53630114,0.095768064,-9.481039,0.8918391,47.666286,-1.409237,-2.064984,-3.2584343,-0.12401864,0.0052052503,-0.29101503,28.125,29.625,28.6875,32.4375,34.875,35.9375
0.34205163,-0.7150262,0.09322853,-0.48880813,-0.008146223,0.04666512,-0.16964279,-0.41494825,-0.35698384,0.06009122,-3.0800006,0.6182245,0.00031929437,-0.15307169,0.06847719,0.0019155783,-0.0020690851,0.006935438,0.010969457,0.4625593,-1.3570104,1.8731974,-2.0855715,-1.5709981,2.4332204,-0.24369642,0.15151957,-0.19498022,0.03627242,-0.0015694451,-0.25457212,-0.4022259,0.076614454,-9.404425,0.8717007,47.64121,-1.4491907,-1.9806067,-3.2197967,-0.102984756,0.0035875142,-0.43100676,28.125,29.625,28.6875,32.4375,34.875,35.9375
0.34405237,0.2740872,0.5961992,-0.5104426,0.00052788114,0.04960649,-0.18075392,-0.41522473,-0.35684112,0.060071655,-3.0799983,0.6181642,0.0002588331,-0.15403128,0.06931077,0.00015998966,-0.0010315991,0.003660984,0.012593267,0.46207818,-1.3567088,1.8728622,-2.085499,-1.5709862,2.432702,-0.24608006,0.15608041,-0.1966453,0.03676994,-0.0010472338,-0.25857908,-0.11492168,0.076614454,-9.442732,0.9186956,47.655537,-1.4497764,-2.1587782,-3.1979399,-0.09485814,0.010906659,-0.48408318,28.125,29.625,28.6875,32.4375,34.875,35.9375
0.34605232,0.054351326,0.7350679,-0.4519766,0.005370727,0.015234334,-0.176999,-0.41554326,-0.3567284,0.060075384,-3.0800688,0.618036,0.00025272396,-0.15449555,0.070071876,0.00047787343,-0.0014599425,0.004043687,0.025801921,0.46159756,-1.3563617,1.8724197,-2.0854275,-1.5709499,2.4321327,-0.24771205,0.15520102,-0.19637476,0.036850803,-0.00082471856,-0.27342042,0.095768064,-0.05746084,-9.442732,0.8985519,47.666286,-1.3234806,-2.103368,-3.3051696,-0.07859423,0.012083702,-0.36139542,28.125,29.625,28.6875,32.4375,34.875,35.9375
0.3480522,-0.09707002,0.6393238,-0.61352515,0.0059719873,-0.0145912655,-0.17699526,-0.41586313,-0.35656378,0.060088538,-3.0800686,0.6179925,0.00035701782,-0.15612483,0.0719794,-0.00052270107,-0.000466452,0.0020531416,0.03442041,0.46108037,-1.3560971,1.8720602,-2.0853798,-1.5709981,2.4315886,-0.2521314,0.15786575,-0.19750485,0.037524343,-0.00081337057,-0.28645763,0.15322891,0.019153614,-9.500193,0.9186956,47.683304,-1.2159741,-2.271597,-3.3899875,-0.06419438,0.0021797337,-0.22238511,28.125,29.625,28.6875,32.4375,34.875,35.9375
0.35005197,0.40507886,0.19367804,-0.429014,-0.0046617757,-0.005242885,-0.16542475,-0.41618684,-0.35641995,0.060102828,-3.0800798,0.6178628,0.00041757213,-0.15754125,0.07289037,-0.00088148774,-5.4004144e-05,0.0012192396,0.031626005,0.46058765,-1.3557844,1.8716291,-2.085283,-1.5710338,2.4310138,-0.25468436,0.16008298,-0.19958447,0.038306817,-0.0008077332,-0.28621528,-0.1340753,0.05746084,-9.461885,0.83813137,47.67166,-1.1363243,-2.3032482,-3.393931,-0.052995205,0.008794354,-0.18450963,28.125,29.625,28.6875,32.4375,34.875,35.9375
0.35205165,0.53619546,0.47004443,-0.45261088,-0.017642034,0.025041329,-0.16924916,-0.41648412,-0.356279,0.060098782,-3.080127,0.6177808,0.00035490358,-0.15726607,0.073086694,-0.0016965416,0.0009627925,-0.0009898174,0.024561794,0.46007147,-1.355484,1.8712572,-2.0851986,-1.5709862,2.4304407,-0.25465652,0.16189857,-0.20026483,0.039617408,-0.0007402718,-0.27912295,-0.36391866,0.019153614,-9.481039,0.89631605,47.6636,-1.1243536,-2.3111036,-3.471064,-0.0477615,0.0053648837,-0.26435024,28.125,29.625,28.6875,32.4375,34.875,35.9375
0.35405177,-0.43317682,0.054770518,-0.37706777,-0.012915478,0.043621715,-0.17831136,-0.41681212,-0.35611728,0.060106304,-3.0801091,0.61781967,0.0003625885,-0.15751062,0.074033774,-0.0027005484,0.0022733503,-0.0038096285,0.016943635,0.45953098,-1.3551716,1.870839,-2.0850909,-1.5709976,2.4299269,-0.256322,0.16413786,-0.20112386,0.04134366,-0.0006639522,-0.2731699,-0.24899697,0.038307227,-9.442732,0.90750587,47.65912,-1.091339,-2.4342752,-3.4500234,-0.05321096,0.009183076,-0.36452663,28.125,29.625,28.6875,32.4375,34.875,35.9375
0.35605255,-0.2859743,0.68512654,-0.19891846,-0.03548319,0.08450018,-0.17584342,-0.41712618,-0.35596806,0.060091525,-3.0801287,0.61770856,0.0002939964,-0.15893126,0.075050876,-0.0023240903,0.0020426975,-0.0035168533,0.015447319,0.45900202,-1.3548236,1.8704313,-2.084995,-1.5709738,2.4293263,-0.25908482,0.1645776,-0.20274734,0.042168725,-0.0006006683,-0.274436,-0.19153613,0.17238252,-9.404425,0.9365982,47.694946,-1.0213077,-2.2506177,-3.3077192,-0.05314423,0.009830593,-0.41339153,28.125,29.625,28.6875,32.4375,34.875,35.9375
0.3580524,-0.5768375,0.36582533,0.0055687916,-0.03561688,0.08513868,-0.17588072,-0.4174463,-0.35583785,0.060113207,-3.080149,0.6177045,0.00036210206,-0.15939787,0.07441246,-0.002831492,0.0022532172,-0.0040450855,0.029872624,0.4585222,-1.3545231,1.8700007,-2.084911,-1.5709857,2.4288416,-0.25825557,0.16738816,-0.2050414,0.042212516,-0.0005483308,-0.288031,-0.2873042,-0.019153614,-9.385271,0.88289046,47.705692,-1.0551611,-2.3181105,-3.329798,-0.04560237,-0.01337382,-0.32865947,28.125,29.625,28.6875,32.4375,34.875,35.9375
0.3600521,-1.349215,-0.027994247,-0.040167585,-0.01991753,0.065872975,-0.16815116,-0.41777417,-0.3556818,0.060103644,-3.0801923,0.61759055,0.00033858093,-0.16017358,0.07394098,-0.00059575506,0.00034681652,-0.00028555264,0.04186105,0.45797062,-1.3541884,1.869605,-2.0848505,-1.5709614,2.4282136,-0.2579476,0.16442743,-0.2066786,0.042599954,-0.000504391,-0.29971156,-0.4596867,0.0,-9.308656,0.8806493,47.711063,-1.1918415,-2.2123158,-3.3832133,-0.040193185,0.0014013201,-0.15248965,28.125,29.625,28.6875,32.4375,34.875,35.9375
0.36205205,-0.7279461,0.1839564,0.109606266,-0.014802235,0.07471704,-0.1697359,-0.41811177,-0.35551554,0.060117394,-3.0801828,0.6175329,0.00038843826,-0.16068496,0.07303171,-1.0192905e-05,-7.458263e-05,0.00048361794,0.04125876,0.45743108,-1.3538764,1.8691729,-2.0847433,-1.5709976,2.4276395,-0.25667906,0.16557007,-0.20964305,0.04353513,-0.00046696904,-0.29783973,-0.63206923,0.05746084,-9.32781,0.88289046,47.691364,-1.2801261,-2.2876308,-3.3736851,-0.041901357,-0.0006570508,-0.12965041,28.125,29.625,28.6875,32.4375,34.875,35.9375
0.36405188,-0.5904833,0.5673726,-0.016881242,-0.004379098,0.060694173,-0.16593347,-0.41841948,-0.35537148,0.060096618,-3.0801837,0.61736566,0.00035206325,-0.16062766,0.07341101,-0.0008687239,0.00085919036,-0.0013923805,0.030885814,0.4569393,-1.3535157,1.8687657,-2.0846589,-1.5710095,2.4270434,-0.25708413,0.16735722,-0.21007653,0.044276163,-0.000488366,-0.28787154,-0.5363012,0.076614454,-9.232041,0.92093146,47.684196,-1.4961026,-2.2377965,-3.5368314,-0.039367087,-0.0012408425,-0.24050072,28.125,29.625,28.6875,32.4375,34.875,35.9375
0.36605176,-0.57808,0.633147,0.16387552,-0.00504771,0.039123766,-0.16342764,-0.4187512,-0.3552301,0.060111627,-3.0802512,0.6173106,0.00040182844,-0.16164656,0.07379209,-0.0006418107,0.0009018766,-0.0015064488,0.017394561,0.4564107,-1.3532157,1.8683585,-2.0846107,-1.5709857,2.4264722,-0.2583981,0.16851757,-0.21230969,0.045479886,-0.00046418954,-0.2756935,-0.47884035,0.038307227,-9.251195,0.947788,47.692257,-1.4802644,-2.2251434,-3.3716533,-0.027179182,0.006610553,-0.38213265,28.125,29.625,28.6875,32.4375,34.875,35.9375
0.36805257,-0.17366217,0.46844742,0.3586682,-0.014511394,0.054060224,-0.16783766,-0.41906118,-0.35507298,0.06009128,-3.080235,0.6172916,0.00032928577,-0.16381444,0.07516353,0.0002352286,0.00049407635,-0.00077597715,0.010858896,0.45588127,-1.3528678,1.8679627,-2.0845144,-1.5709738,2.4259331,-0.26234457,0.16885519,-0.21513477,0.04713579,-0.00043651144,-0.2731035,-0.59376204,0.019153614,-9.11712,0.8717007,47.73077,-1.3490674,-2.1752636,-3.2738106,-0.049571637,-0.0059942547,-0.48372012,28.125,29.625,28.6875,32.4375,34.875,35.9375
0.37005195,-0.9771034,0.5210306,0.0539021,0.0038172754,0.04048257,-0.1749978,-0.41940856,-0.35492182,0.060102608,-3.0802138,0.61729807,0.00034901928,-0.16385442,0.07614042,-0.0011602656,0.0024738612,-0.004867363,0.022417746,0.45535293,-1.3525069,1.8674711,-2.0843818,-1.5709976,2.4254117,-0.26384026,0.17202426,-0.21646336,0.04983089,-0.00041157755,-0.28615737,-0.24899697,0.019153614,-9.193734,0.8291774,47.71554,-1.2297541,-2.3342197,-3.2662992,-0.063780874,-0.004338689,-0.4448408,28.125,29.625,28.6875,32.4375,34.875,35.9375
