Tylouw/Master_Thesis_Code/training_data/batch_1/rect_rod_t0.3/sample_68_session_2.csv
timestamp[s],tcp_force_x[N],tcp_force_y[N],tcp_force_z[N],tcp_force_rx[Nm?],tcp_force_ry[Nm?],tcp_force_rz[Nm?],tcp_pose_x[m],tcp_pose_y[m],tcp_pose_z[m],tcp_pose_rx[rot_vec_x],tcp_pose_ry[rot_vec_y],tcp_pose_rz[rot_vec_z],tcp_velo_x[m/s],tcp_velo_y[m/s],tcp_velo_z[m/s],tcp_velo_rx[rot_vec_x/s],tcp_velo_ry[rot_vec_y/s],tcp_velo_rz[rot_vec_z/s],q1[rad],q2[rad],q3[rad],q4[rad],q5[rad],q6[rad],qd1[rad/s],qd2[rad/s],qd3[rad/s],qd4[rad/s],qd5[rad/s],qd6[rad/s],tool_acc_x,tool_acc_y,tool_acc_z,current_of_whole_robot[A],voltage_of_whole_robot[V],current_J1[A],current_J2[A],current_J3[A],current_J4[A],current_J5[A],current_J6[A],temp_J1[C],temp_J2[C],temp_J3[C],temp_J4[C],temp_J5[C],temp_J6[C]
7.899944e-07,0.13600393,-0.42930686,0.87250006,0.0042518973,-0.0063656108,-0.006640156,-0.3893341,-0.36873353,0.060021933,-3.078745,0.62493646,0.00021248587,0.00051414367,0.00028382413,-0.00085980963,0.00055740686,-0.0012529253,9.280808e-05,0.5050448,-1.3816676,1.904199,-2.0919163,-1.5708297,2.4800372,-7.167561e-05,0.0005673791,0.0014288722,-0.0006305119,0.000120060635,-0.00016508097,0.15322891,0.15322891,-8.714894,0.7597976,47.698532,-0.2014351,-3.0700965,-2.383835,-0.20781323,0.16495433,0.027284732,28.5,29.8125,28.8125,32.6875,35.0625,36.1875
0.002052899,0.3906541,-0.24609144,0.841707,0.003925462,0.0062630535,-0.013603331,-0.38933232,-0.36871216,0.060013894,-3.0787,0.6249082,0.00020796279,-0.0013320381,-0.0007429571,-0.0015912033,-0.002237835,0.0037699384,8.607881e-05,0.5050329,-1.381667,1.9042119,-2.0918953,-1.5708655,2.4800134,-7.055192e-05,0.0027233558,0.002605901,-0.009711774,0.00011744939,-0.00015640163,0.1340753,0.2681506,-8.734048,0.7329411,47.686886,-0.17972179,-3.0227618,-2.3030992,-0.14438862,0.16076234,0.021879436,28.5,29.8125,28.8125,32.6875,35.0625,36.1875
0.004052214,-0.50547826,-0.5465343,0.9638284,0.002072915,-0.0069695227,-0.0013972553,-0.38935187,-0.36872745,0.060018934,-3.078732,0.6249912,0.00026709243,-0.0016790442,-0.00093578687,-0.0016729275,-0.0026315476,0.0044810227,7.892096e-05,0.5050329,-1.3816547,1.9041995,-2.091955,-1.5708536,2.480061,-6.946286e-05,0.0032137486,0.002479713,-0.010888774,0.00011494925,-0.00014788953,0.076614454,0.2681506,-8.676587,0.7486078,47.690468,-0.15658453,-3.3636353,-2.5497952,-0.03451746,0.16438544,0.024776906,28.5,29.8125,28.8125,32.6875,35.0625,36.1875
0.006052476,0.33757374,-0.14298922,0.8536777,0.0007157648,0.001836304,-0.01174809,-0.3893368,-0.36873958,0.060019974,-3.0787766,0.62490475,0.0002279793,-0.0005686871,-0.00031762282,-0.00096689444,-0.0011143248,0.0017656311,7.170848e-05,0.5050448,-1.3816674,1.9042114,-2.0919526,-1.5708174,2.4800134,-6.840697e-05,0.0013864223,0.001745299,-0.0052165207,0.00011255323,-0.00014021098,0.038307227,0.24899697,-8.63828,0.76874626,47.686886,-0.22162813,-3.3473372,-2.514826,-0.07707402,0.17436111,0.008296962,28.5,29.8125,28.8125,32.6875,35.0625,36.1875
0.008052375,0.27266398,0.63322645,0.44174224,0.02944481,-0.02337366,-0.007837603,-0.38935152,-0.3687209,0.06003094,-3.0787196,0.62495035,0.00031764086,-0.000116096715,-6.479061e-05,0.00036661312,-0.0010731851,0.0017096783,6.5252374e-05,0.5050448,-1.3816804,1.904199,-2.0919402,-1.5708898,2.4800491,-6.738266e-05,-0.0013491544,0.0011780325,-0.0018447976,0.00011025521,-0.00013328729,0.0,0.22984336,-8.791509,0.7284641,47.658226,-0.22388974,-3.1012468,-2.4416282,-0.12388435,0.16720615,0.028218266,28.5,29.8125,28.8125,32.6875,35.0625,36.1875
0.010052682,0.26089165,0.66789144,0.08761622,0.03766211,-0.023385802,-0.009628082,-0.38933536,-0.36871827,0.060010552,-3.078715,0.6249113,0.00020746906,0.00063528976,0.00035248027,0.00011603681,0.00033678327,-0.0008548752,5.102168e-05,0.5050329,-1.3816563,1.9042114,-2.0919154,-1.5708536,2.4800134,-7.51304e-05,-0.0012087211,0.00088342227,0.0012359296,0.00012369538,-0.00012701502,0.038307227,0.21068975,-8.983045,0.7284641,47.675243,-0.74690527,-2.757022,-2.8570786,-0.12505686,0.15168132,-0.048616104,28.5,29.8125,28.8125,32.6875,35.0625,36.1875
0.012051986,-0.13134985,-0.40860277,-0.06958717,0.027677102,-0.0123797115,-0.008408087,-0.3893223,-0.36868954,0.059973013,-3.0786304,0.625009,9.031895e-05,0.0012812476,0.0009953314,-0.0030377558,0.0042565907,-0.007826301,-0.00015905734,0.5049967,-1.3816184,1.9042462,-2.09189,-1.5708536,2.480049,-0.00052313483,0.005297276,-0.00021287505,0.0038240452,6.9571055e-05,-0.00036366063,0.095768064,0.095768064,-9.232041,0.7351769,47.694946,-0.85598433,-2.7428374,-2.951158,-0.15596962,0.14311065,-0.106414914,28.5,29.8125,28.8125,32.6875,35.0625,36.1875
0.014052011,-0.44800738,-0.32110256,-0.1691951,-0.016060682,0.008749822,-0.017030884,-0.38931242,-0.36869863,0.05996359,-3.0786238,0.6249124,7.201653e-05,-0.004047427,0.004629751,-0.004578425,0.0050217044,-0.009211433,-0.0027315244,0.5050287,-1.3815919,1.9042338,-2.0918787,-1.5708655,2.4800215,-0.011621794,0.011174532,-0.0033981532,0.0027130293,6.016192e-05,-0.008887482,0.038307227,0.095768064,-9.385271,0.842603,47.66539,-0.45798498,-3.2318535,-3.0166256,-0.12942372,0.15387733,-0.07473302,28.5,29.8125,28.8125,32.6875,35.0625,36.1875
0.016051942,-0.741132,-0.79447407,-0.24903253,-0.044727802,0.038613115,-0.031328622,-0.38931474,-0.3686898,0.05995061,-3.0786157,0.6248881,1.9510617e-05,-0.005622096,0.00449742,-0.0033134187,0.0032996316,-0.0061068074,0.0034441564,0.5050042,-1.3815682,1.9042329,-2.0918677,-1.5708536,2.4799829,-0.012870416,0.010306698,-0.005007874,0.0016392728,5.7767716e-05,-0.016311148,-0.13407528,0.17238252,-9.404425,0.6165663,47.70211,-0.4710768,-3.2037506,-2.9693391,-0.11861426,0.14012644,-0.032466747,28.5,29.8125,28.8125,32.6875,35.0625,36.1875
0.018052587,-1.403093,-1.0028543,-0.270369,-0.043936923,0.059992746,-0.043179996,-0.38931826,-0.3686795,0.059937075,-3.078611,0.6248849,-4.8085516e-05,-0.005179381,0.0041713803,-0.0024735283,0.002572345,-0.0047874628,0.008180606,0.5049687,-1.381545,1.9042333,-2.0918553,-1.5708297,2.479946,-0.011905059,0.008179447,-0.0044114892,0.0016635057,5.5941957e-05,-0.020082826,-0.38307226,0.1340753,-9.385271,0.7732232,47.7254,-0.7417998,-2.9126883,-3.100386,-0.09025302,0.13626748,-0.010439055,28.5,29.8125,28.8125,32.6875,35.0625,36.1875
0.020051813,-1.4006509,-0.38162094,-0.37395728,-0.014141745,0.07382436,-0.07290706,-0.38932467,-0.36867106,0.059928786,-3.07859,0.6248625,-6.5163345e-05,-0.0049273693,0.00547252,-0.002860606,0.004061354,-0.0074639954,0.0074293446,0.50495595,-1.3815209,1.9042209,-2.0918424,-1.5708417,2.4799218,-0.013857608,0.008025362,-0.0039800764,0.004448603,5.425366e-05,-0.021284608,-0.47884035,0.1340753,-9.5385,0.784413,47.686886,-0.85473037,-2.7961338,-3.342105,-0.094442196,0.12125039,-0.02510078,28.5,29.8125,28.8125,32.6875,35.0625,36.1875
0.02205211,-1.7316817,0.002800681,-0.6763867,0.030707909,0.056863792,-0.0827226,-0.3893273,-0.36868113,0.05993119,-3.0786178,0.62481236,-9.2500355e-05,-0.0056284145,0.0063036056,-0.0042120516,0.006252501,-0.011421693,0.0038577106,0.50495523,-1.3815074,1.9041966,-2.0918295,-1.5708174,2.4798863,-0.015913675,0.012171767,-0.0064488235,0.007295426,5.2666022e-05,-0.01976767,-0.4213795,0.17238252,-9.634268,0.7553206,47.684196,-0.83508563,-2.9032733,-3.3977602,-0.12839478,0.14703804,-0.05496073,28.5,29.8125,28.8125,32.6875,35.0625,36.1875
0.024052193,-0.967052,0.51447964,-0.74031174,0.04228574,0.06048537,-0.09947717,-0.38937008,-0.36866623,0.059936054,-3.0786233,0.624911,-7.533309e-05,-0.0081748795,0.0062197135,-0.0027595868,0.0042625587,-0.007837746,0.00074915134,0.5048827,-1.3814834,1.9041599,-2.0918415,-1.5708054,2.4798746,-0.018152703,0.012253248,-0.009622526,0.006288654,5.1168725e-05,-0.018896716,-0.49799395,0.038307227,-9.672575,0.83365434,47.675243,-0.80311763,-2.9569488,-3.2346568,-0.115771756,0.11365047,-0.042152733,28.5,29.8125,28.8125,32.6875,35.0625,36.1875
0.026052598,-1.110777,-0.08062229,-0.8433696,0.039407108,0.06216757,-0.117140725,-0.38936472,-0.36865172,0.05989325,-3.0785537,0.6249364,-0.00016300035,-0.009301609,0.005804512,-0.0026726034,0.0034082269,-0.0063060136,-0.0013587049,0.50487065,-1.381411,1.9041718,-2.0918424,-1.5708174,2.4798872,-0.018508267,0.013593299,-0.01101926,0.0045914585,4.9754206e-05,-0.017143462,-0.6703765,0.038307227,-9.634268,0.7978386,47.67614,-0.85514987,-2.8351493,-3.3140779,-0.11079146,0.11613385,-0.07595499,28.5,29.8125,28.8125,32.6875,35.0625,36.1875
0.0280525,-1.133269,-0.065164626,-0.8741165,0.009654942,0.07852108,-0.12973289,-0.38937393,-0.3686424,0.059876822,-3.0785346,0.62487555,-0.00021972835,-0.010244084,0.0057084505,-0.002566007,0.0029230742,-0.0054356777,-0.00335362,0.50484633,-1.3813626,1.9041466,-2.091818,-1.5708174,2.4798274,-0.019227684,0.014558778,-0.012233588,0.0038440505,4.8415823e-05,-0.015867235,-0.80445176,-0.019153614,-9.730036,0.6971306,47.65464,-0.8533139,-2.8107831,-3.3526788,-0.085916385,0.106251955,-0.11376497,28.5,29.8125,28.8125,32.6875,35.0625,36.1875
0.030052638,-1.790754,-0.43519944,-0.8301667,-0.0054340586,0.08650917,-0.13419642,-0.3893724,-0.36859676,0.059850942,-3.0784667,0.6248432,-0.00029550635,-0.010685944,0.0062175323,-0.003120106,0.0040033907,-0.0073894784,-0.005045947,0.50478613,-1.3813498,1.9041823,-2.0917823,-1.5708417,2.4797556,-0.020498743,0.016470589,-0.013617343,0.00554826,4.7147543e-05,-0.01544528,-0.6512229,-0.11492168,-9.80665,0.779936,47.705692,-0.93089575,-2.872517,-3.3188555,-0.068650976,0.11802918,-0.11248824,28.5,29.8125,28.8125,32.6875,35.0625,36.1875
0.0320518,-2.2374809,-0.6069573,-0.93045884,-0.0002153997,0.08487364,-0.1444303,-0.3894151,-0.36861953,0.05988509,-3.078543,0.62491626,-0.0002186477,-0.010447303,0.006762441,-0.0031326718,0.0049528335,-0.009093067,-0.005391855,0.50476193,-1.3813498,1.9041098,-2.0918052,-1.5708054,2.4797673,-0.021189822,0.016389998,-0.014053477,0.008015805,4.5944107e-05,-0.015790539,-0.6895301,-0.11492168,-9.864111,0.7866488,47.694946,-0.96238434,-2.803008,-3.3420467,-0.11071378,0.10629982,-0.15169951,28.5,29.8125,28.8125,32.6875,35.0625,36.1875
0.03405217,-2.0380049,-0.6681319,-0.9117808,0.01924179,0.08048961,-0.15378886,-0.38943997,-0.36855665,0.05984435,-3.0783973,0.62492436,-0.00030461114,-0.011040172,0.0071428684,-0.0032080717,0.005560701,-0.010197629,-0.005223928,0.5046777,-1.3812655,1.9040865,-2.0917327,-1.5708774,2.4797068,-0.022384526,0.017589467,-0.015682075,0.009704333,4.4800512e-05,-0.017152498,-0.6512229,-0.095768064,-9.768343,0.7530795,47.707485,-0.97044384,-2.8160908,-3.3631806,-0.13095944,0.092340186,-0.14971143,28.5,29.8125,28.8125,32.6875,35.0625,36.1875
0.036052793,-1.3522185,0.027346853,-0.90201944,0.027949747,0.079706475,-0.17657657,-0.38946882,-0.36857125,0.05987618,-3.0784628,0.62493837,-0.00026786968,-0.012651283,0.007497828,-0.0022631902,0.004074544,-0.007514398,-0.0061446936,0.504653,-1.3812778,1.9040259,-2.0917213,-1.5708417,2.4796824,-0.024485325,0.016711123,-0.016479896,0.008313631,4.3712447e-05,-0.018332193,-0.59376204,-0.019153614,-9.80665,0.80456203,47.70838,-0.9744797,-2.7660966,-3.3645415,-0.10072321,0.08345297,-0.16778493,28.5,29.875,28.8125,32.6875,35.0625,36.1875
0.0380517,-1.2982938,-0.7117994,-0.9395086,0.042239983,0.058067475,-0.176559,-0.38947636,-0.36856976,0.05985425,-3.078439,0.62499166,-0.00035033186,-0.014221695,0.007894439,-0.0022435896,0.0034336771,-0.006345438,-0.006682556,0.5046282,-1.3812172,1.9040016,-2.0917094,-1.5708174,2.479694,-0.026613979,0.017854063,-0.017559431,0.0069174133,3.2188666e-05,-0.019922195,-0.49799395,-0.019153614,-9.80665,0.800085,47.73883,-0.8867141,-2.8276699,-3.3156614,-0.087891966,0.087965146,-0.16964208,28.5,29.875,28.8125,32.6875,35.0625,36.1875
0.0400519,-1.5834773,-0.5366246,-0.84163076,0.023277992,0.03505604,-0.19954517,-0.38951334,-0.3685447,0.05984624,-3.0784292,0.6250475,-0.00037658238,-0.01537641,0.007975746,-0.0015873151,0.0027737094,-0.005137975,-0.006528892,0.50454396,-1.3811812,1.9039773,-2.0917094,-1.5708054,2.4796457,-0.027821878,0.017993497,-0.019260589,0.0071032248,2.1552325e-05,-0.021283042,-0.40222588,0.019153614,-9.768343,0.7351769,47.71017,-0.8508135,-2.740684,-3.337843,-0.07595616,0.08099287,-0.17918573,28.5,29.875,28.8125,32.6875,35.0625,36.1875
0.0420521,-1.3855181,-0.88553894,-0.84379643,0.014724373,0.032101013,-0.20190476,-0.3895662,-0.36853194,0.0598591,-3.078425,0.6250463,-0.0002973192,-0.016122306,0.00811134,-0.00101068,0.0023710132,-0.004408692,-0.006584246,0.5044957,-1.3811451,1.9039053,-2.091709,-1.5708417,2.4795973,-0.028743753,0.017798336,-0.02047312,0.00767695,2.0418229e-05,-0.022149157,-0.3256114,0.019153614,-9.730036,0.7911258,47.71286,-0.8627448,-2.7096572,-3.3175144,-0.08400579,0.070823215,-0.20221013,28.5,29.875,28.8125,32.6875,35.0625,36.1875
0.04405204,-1.2735118,-0.9957615,-1.062599,0.016443407,0.019531703,-0.22034067,-0.38960668,-0.36851332,0.059856165,-3.0784318,0.6251057,-0.00032237862,-0.0167463,0.008717139,-0.0013526393,0.002948168,-0.0054190466,-0.0069137295,0.50441134,-1.3811089,1.903869,-2.091709,-1.5708174,2.4795492,-0.030333566,0.01898204,-0.021270577,0.008454618,2.6196249e-06,-0.023409022,-0.19153614,0.095768064,-9.710882,0.74413085,47.675243,-0.9299209,-2.7084198,-3.323782,-0.07819022,0.062006593,-0.22787885,28.5,29.875,28.8125,32.6875,35.0625,36.1875
0.046052594,-0.7426062,-1.3350085,-0.9671907,0.024345592,0.019364381,-0.23025666,-0.3896423,-0.36849067,0.059847895,-3.078379,0.62511307,-0.00032754496,-0.018555077,0.009186703,-0.00047967833,0.0019764728,-0.00366648,-0.0074530877,0.5043625,-1.3810488,1.903809,-2.0916736,-1.5708536,2.4795117,-0.032810543,0.018952902,-0.02321736,0.008425477,1.7104279e-07,-0.025345845,-0.05746084,0.019153614,-9.615114,0.7732232,47.693153,-0.8544042,-2.6658638,-3.2954483,-0.07980584,0.05829805,-0.23144367,28.5,29.875,28.8125,32.6875,35.0625,36.1875
0.048052557,-0.5712479,-0.77140325,-0.75396806,0.007852153,0.01743787,-0.22641194,-0.38969776,-0.36846867,0.05986067,-3.0783846,0.6252097,-0.00031127335,-0.019943258,0.009392682,0.00014006243,0.0013105863,-0.0024686612,-0.0069098985,0.5042662,-1.3810246,1.9037484,-2.0916612,-1.5708417,2.479475,-0.0344504,0.019328337,-0.025103904,0.008566114,1.1167871e-08,-0.027528077,-0.17238252,0.1340753,-9.634268,0.784413,47.701214,-0.79762495,-2.68325,-3.2928061,-0.07120468,0.050964467,-0.23519242,28.5,29.875,28.8125,32.6875,35.0625,36.1875
0.050052088,-0.88779896,-1.1773415,-1.0069561,0.020023452,-0.0046324898,-0.19770432,-0.38972917,-0.36845917,0.059866786,-3.078399,0.62523127,-0.00033629203,-0.021054339,0.009860284,0.00012562766,0.0013337139,-0.0025174506,-0.0065210676,0.5042057,-1.3810002,1.9037002,-2.0916374,-1.5708174,2.4794261,-0.036273394,0.020462254,-0.026478466,0.008861051,7.2918216e-10,-0.029739192,-0.076614454,0.15322891,-9.519346,0.779936,47.701214,-0.8149693,-2.6934147,-3.2437947,-0.056898948,0.03834252,-0.22891422,28.5,29.875,28.8125,32.6875,35.0625,36.1875
0.05205219,0.20763727,-1.0783225,-0.8652244,0.0140852425,0.021187792,-0.20371036,-0.38976455,-0.36841068,0.059848968,-3.078329,0.6251978,-0.00035828815,-0.022240812,0.0106394,0.00035459234,0.0010502746,-0.002013101,-0.0066108294,0.50412107,-1.3809521,1.9036759,-2.0916016,-1.5708655,2.4793296,-0.038690764,0.02057643,-0.027124433,0.008812495,4.7610388e-11,-0.032066517,-0.038307227,0.15322891,-9.5385,0.7978386,47.698532,-0.7586566,-2.6394439,-3.2544584,-0.06865624,0.045191586,-0.23038155,28.5,29.875,28.8125,32.6875,35.0625,36.1875
0.054052338,-0.14022036,-0.9865645,-0.64094627,0.005696879,0.009967877,-0.1994974,-0.38980857,-0.36839402,0.05985388,-3.0783424,0.6252191,-0.00038444513,-0.022188623,0.01093354,0.00012214776,0.001637267,-0.0027377354,-0.005862886,0.504037,-1.3809159,1.9036163,-2.0915768,-1.5708417,2.479257,-0.039031617,0.020893602,-0.027102234,0.009392353,-0.00016334499,-0.03315502,0.076614454,0.21068975,-9.461885,0.7172743,47.66808,-0.74611765,-2.6648107,-3.335202,-0.058899097,0.03775067,-0.24343787,28.5,29.875,28.8125,32.6875,35.0625,36.1875
0.056052104,-0.012925173,-0.9492515,-0.6386627,0.0014978964,0.009975209,-0.19642676,-0.389867,-0.36839515,0.059872903,-3.0783892,0.6252274,-0.0003251791,-0.022721764,0.011113197,4.970359e-05,0.0025884674,-0.002392195,-0.00441228,0.5039772,-1.3808796,1.9035329,-2.0915892,-1.5708302,2.4791965,-0.039203156,0.021846127,-0.028113402,0.0096115945,-0.0011636928,-0.034774777,0.05746084,0.15322891,-9.442732,0.73741806,47.664497,-0.86731553,-2.638832,-3.3862236,-0.05292713,0.028126549,-0.25610805,28.5,29.875,28.8125,32.6875,35.0625,36.1875
0.058052164,-0.19864938,-1.2608521,-0.6973475,0.013226289,0.010494133,-0.19201118,-0.38990235,-0.36835107,0.059844196,-3.0783103,0.6252502,-0.000373173,-0.024684656,0.011623535,0.00061618205,0.0018781206,-0.0012904248,-0.005900496,0.5038923,-1.380807,1.9035071,-2.0915654,-1.570866,2.479136,-0.041943774,0.022774247,-0.030545326,0.009805727,-0.0010817635,-0.03602614,0.038307227,0.15322891,-9.346964,0.779936,47.672558,-0.80498195,-2.6842098,-3.2943716,-0.052256137,0.05015108,-0.26331082,28.5,29.875,28.8125,32.6875,35.0625,36.1875
0.06005223,0.03442123,-0.6127701,-0.5901676,0.012599519,0.011510266,-0.19241591,-0.38995224,-0.36831892,0.059852783,-3.0783155,0.6253084,-0.00037135114,-0.025370665,0.011986564,0.0007688109,0.0019964308,-0.0017155551,-0.0062008877,0.5037842,-1.380795,1.9034704,-2.0915525,-1.5708541,2.4790635,-0.043254163,0.023375249,-0.031863,0.010951616,-0.0009805892,-0.03703583,0.0,0.15322891,-9.3661175,0.784413,47.682407,-0.7762326,-2.571222,-3.2748833,-0.049471088,0.02782851,-0.28407204,28.5,29.875,28.8125,32.6875,35.0625,36.1875
0.062052388,0.063217334,-0.5537569,-0.6263403,0.013644414,0.016497478,-0.2031297,-0.3900308,-0.36832657,0.059891608,-3.0783794,0.6253024,-0.00025849015,-0.025997695,0.012346559,0.0011571844,0.0019415874,-0.0017709763,-0.0061246403,0.50372374,-1.380759,1.9033393,-2.091552,-1.5708541,2.4789913,-0.044486463,0.023361372,-0.032995783,0.012119803,-0.0009026533,-0.038344275,0.0,0.076614454,-9.385271,0.779936,47.672558,-0.7876311,-2.5346804,-3.2319498,-0.07001524,0.032349974,-0.2830546,28.5,29.875,28.8125,32.6875,35.0625,36.1875
0.06405256,-0.70121753,-0.83688676,-0.56834,0.018311946,0.010389878,-0.1902535,-0.39007992,-0.36828256,0.059879683,-3.0783412,0.6253707,-0.00030260786,-0.026537703,0.012666957,0.0011383559,0.0019428394,-0.0018355553,-0.0066062543,0.5036038,-1.3807107,1.903304,-2.0915282,-1.5708541,2.4789188,-0.045542378,0.02380394,-0.03350524,0.012243563,-0.00087533816,-0.03891833,-0.21068975,0.19153613,-9.289502,0.81351066,47.627773,-0.80494666,-2.6057975,-3.2910657,-0.06107717,0.002188971,-0.31573856,28.5,29.875,28.8125,32.6875,35.0625,36.1875
0.06605237,-0.061525267,-0.13229726,-0.32953238,0.008474214,0.04314527,-0.19996403,-0.3900986,-0.36827835,0.05987635,-3.0783374,0.62527317,-0.00034531433,-0.02717856,0.013114557,0.00086766755,0.002305051,-0.0026496549,-0.005091041,0.50357926,-1.3806622,1.9032434,-2.0914805,-1.5708541,2.478834,-0.04693761,0.024993084,-0.034439187,0.012875451,-0.0008029703,-0.041828383,-0.17238252,0.1340753,-9.3661175,0.8314132,47.65464,-0.74126226,-2.5758524,-3.2764769,-0.056673765,0.0010977774,-0.31333965,28.5,29.875,28.8125,32.6875,35.0625,36.1875
0.0680524,-0.44417408,-0.52757114,-0.29247463,0.017906027,0.046115216,-0.18997207,-0.39017624,-0.3682501,0.059888925,-3.0783377,0.62531155,-0.00033258696,-0.028022062,0.013459749,0.00094696385,0.0020997457,-0.0025524201,-0.004655239,0.503459,-1.3806019,1.9031352,-2.0914438,-1.5708536,2.4787376,-0.048379406,0.02561126,-0.035383854,0.0130168805,-0.0006724953,-0.04370577,-0.22984336,0.11492168,-9.308657,0.6926589,47.66091,-0.8156398,-2.5706058,-3.2619724,-0.079709984,-0.00667541,-0.31948233,28.5,29.875,28.8125,32.6875,35.0625,36.1875
0.07005253,-0.7445415,-0.37374768,-0.21143378,0.013201548,0.04834175,-0.19940464,-0.39025864,-0.36822978,0.05989831,-3.0783544,0.62533325,-0.00023581108,-0.028928295,0.01345172,0.0012280684,0.0019075761,-0.002187108,-0.005469892,0.5033631,-1.3805417,1.9030508,-2.09148,-1.5708779,2.4786532,-0.049198218,0.026512746,-0.037205696,0.013523457,-0.0006808382,-0.04370912,-0.24899697,0.038307227,-9.385271,0.6971306,47.67345,-0.87484294,-2.5612574,-3.2221057,-0.080891445,-0.0022074366,-0.3330423,28.5,29.875,28.8125,32.6875,35.0625,36.1875
0.07205259,-0.8289211,-0.07250911,-0.15794072,0.011362384,0.05590743,-0.19574173,-0.3902936,-0.36819598,0.05990359,-3.0783217,0.6253842,-0.00030650687,-0.030676855,0.014520093,0.0013323097,0.001601469,-0.001676138,-0.006239366,0.50326586,-1.3805175,1.9029912,-2.091396,-1.5708655,2.478592,-0.0526323,0.027243223,-0.038241204,0.013233208,-0.00066551566,-0.04637316,-0.34476504,0.076614454,-9.346964,0.7709874,47.637623,-0.71570426,-2.5430562,-3.2166085,-0.08566154,-0.02557686,-0.3495981,28.5,29.875,28.8125,32.6875,35.0625,36.1875
0.07405243,-1.3898591,-0.34154442,-0.38821083,0.025966985,0.047462642,-0.19433942,-0.39033857,-0.36817583,0.059894186,-3.078308,0.6253789,-0.00036216166,-0.030237874,0.013971838,0.0010371339,0.0019468387,-0.002358483,-0.0018266707,0.50318253,-1.380445,1.9029187,-2.0913599,-1.5708536,2.478507,-0.05131047,0.02817771,-0.038753796,0.013575562,-0.00064257375,-0.049463727,-0.28730422,0.038307227,-9.308656,0.79560274,47.701214,-0.7625813,-2.4847288,-3.2322974,-0.0898852,-0.027230773,-0.33620057,28.5,29.875,28.8125,32.6875,35.0625,36.1875
0.07605189,-1.6894093,-0.15393826,-0.34218687,0.021578884,0.04873495,-0.18858424,-0.39039725,-0.36815286,0.05988672,-3.0783336,0.62530386,-0.0004018574,-0.031128647,0.014286167,0.0012426969,0.0017382051,-0.0019583143,0.0016815925,0.5030743,-1.3803728,1.9028476,-2.0913484,-1.5708297,2.4783487,-0.052653514,0.028634727,-0.039793987,0.013708091,-0.0006578087,-0.05431452,-0.38307226,-0.038307227,-9.308656,0.73741806,47.69763,-0.9435983,-2.4658415,-3.271461,-0.10574189,-0.04390219,-0.32869363,28.5,29.875,28.8125,32.6875,35.0625,36.1875
0.07805178,-1.6887054,-0.117330916,-0.22052388,0.025397176,0.053143304,-0.18763192,-0.39050627,-0.36809543,0.059913393,-3.078295,0.6254691,-0.00029485897,-0.03215785,0.014913787,0.001234775,0.002192284,-0.002184776,0.0015944085,0.5029061,-1.3803364,1.9027385,-2.091324,-1.5708779,2.4782887,-0.054477956,0.029659295,-0.04115947,0.014464322,-0.00094621,-0.056050632,-0.47884035,0.038307227,-9.270349,0.7396539,47.652847,-0.88373435,-2.5274997,-3.2421317,-0.09567602,-0.046062015,-0.28001672,28.5,29.875,28.8125,32.6875,35.0625,36.1875
0.08005191,-1.6115065,0.13372624,-0.11749919,0.023805434,0.05130551,-0.18331625,-0.39052185,-0.3680837,0.059891578,-3.0782998,0.62529784,-0.00040705738,-0.033777434,0.016435849,0.0010731776,0.0032319913,-0.0021063904,-0.00018241993,0.5028569,-1.380264,1.9026917,-2.0912764,-1.5708541,2.478132,-0.05795066,0.030583208,-0.041956242,0.014774096,-0.0019010724,-0.05774415,-0.47884035,-0.05746084,-9.32781,0.75755644,47.66271,-0.7025323,-2.4812727,-3.2615879,-0.10374466,-0.055235684,-0.29724795,28.5,29.875,28.8125,32.6875,35.0625,36.1875
0.08205243,-0.91185296,0.22940724,-0.245877,0.020199914,0.06427463,-0.19452317,-0.39061302,-0.36805332,0.059915874,-3.0783248,0.62533706,-0.0003757642,-0.03365256,0.015938569,0.001242799,0.0037948578,-0.0017717262,0.0055526495,0.50271374,-1.3802158,1.9025711,-2.0912402,-1.5708426,2.4780102,-0.056577828,0.03104723,-0.043024298,0.015358244,-0.0025568255,-0.062104758,-0.4405331,0.019153614,-9.346964,0.7709874,47.689575,-0.82626706,-2.466586,-3.2982981,-0.117903635,-0.04210739,-0.2610724,28.5,29.875,28.8125,32.6875,35.0625,36.1875
0.08405261,-0.91413873,0.33830273,-0.2848772,0.009817082,0.0609404,-0.19126934,-0.39064986,-0.36801657,0.059876665,-3.0782747,0.6252674,-0.00049261336,-0.034462366,0.016325107,0.0010481857,0.0040588523,-0.0018555513,0.008073871,0.50261754,-1.3801073,1.9025239,-2.091204,-1.5708426,2.477877,-0.05785302,0.03216802,-0.043900196,0.01531393,-0.0027582138,-0.06589999,-0.47884035,-0.038307227,-9.32781,0.80679786,47.684196,-0.95717263,-2.5684695,-3.2781792,-0.13180429,-0.04038607,-0.23305076,28.5,29.875,28.8125,32.6875,35.0625,36.1875
0.08605209,-0.86564595,-0.08519607,-0.449146,0.014696632,0.059130404,-0.1932493,-0.39075333,-0.3679747,0.059908327,-3.0782828,0.6252865,-0.00038431963,-0.035402846,0.016923035,0.0011743729,0.00364783,-0.001632338,0.009773647,0.50247306,-1.3800712,1.9024037,-2.09118,-1.5708784,2.4777434,-0.059880428,0.03236357,-0.044397775,0.015218055,-0.00250511,-0.06962759,-0.4405331,-0.05746084,-9.346964,0.7553206,47.713753,-0.9091494,-2.5325642,-3.2953978,-0.12916437,-0.068547666,-0.17931044,28.5,29.875,28.8125,32.6875,35.0625,36.1875
0.0880521,-1.172539,-0.17677847,-0.56033695,0.009507922,0.04862482,-0.19756377,-0.39082253,-0.36793715,0.059910584,-3.0782633,0.62530065,-0.0003851309,-0.03707806,0.016251754,0.0017110183,0.002291367,0.00035359804,0.011875584,0.5023532,-1.3800105,1.9023188,-2.0911448,-1.5708908,2.477635,-0.060439423,0.034027413,-0.047334418,0.014094674,-0.0022839054,-0.07228736,-0.36391866,0.019153614,-9.500193,0.7978386,47.67793,-0.89103657,-2.517724,-3.309009,-0.1350777,-0.06593564,-0.14889741,28.5,29.875,28.8125,32.6875,35.0625,36.1875
0.090052135,-1.763266,-0.2981436,-0.60170376,0.0041096155,0.032944575,-0.18601023,-0.3908869,-0.3679156,0.059906323,-3.0782778,0.6251864,-0.00040147145,-0.037857722,0.016574131,0.001419336,0.0027118959,-3.9647068e-05,0.013196965,0.502257,-1.3799261,1.902223,-2.09112,-1.5708908,2.4774656,-0.061585132,0.03551725,-0.048481982,0.014299521,-0.0024674914,-0.07475338,-0.2681506,0.038307227,-9.442732,0.7642693,47.709274,-0.961306,-2.5361416,-3.1087222,-0.15993094,-0.07511099,-0.11747281,28.5,29.875,28.8125,32.6875,35.0625,36.1875
0.092052236,-0.66131556,-0.6571141,-0.42127034,0.015277377,0.052443754,-0.19167404,-0.39096338,-0.3678724,0.059914198,-3.0782855,0.6251487,-0.00040188432,-0.037287645,0.017477455,8.025244e-05,0.004467446,-0.0018587579,0.014232965,0.5021131,-1.3798777,1.90214,-2.0910852,-1.5708908,2.4772973,-0.062153734,0.036414202,-0.04636788,0.013729737,-0.003128584,-0.07635734,-0.2681506,0.11492168,-9.3661175,0.784413,47.707485,-1.0258682,-2.5344446,-3.362791,-0.14795065,-0.09234495,-0.07391874,28.5,29.875,28.8125,32.6875,35.0625,36.1875
0.09405217,-0.34996554,-0.34308746,-0.44678268,0.010422604,0.05418952,-0.18482946,-0.39106146,-0.3678479,0.05991799,-3.0783155,0.6251158,-0.00035921266,-0.038732618,0.017929474,0.00056634634,0.005119884,-0.0005588678,0.012607211,0.50198096,-1.3797811,1.9020199,-2.091097,-1.5708913,2.477141,-0.06349779,0.03721655,-0.048553415,0.014291365,-0.00432711,-0.076072484,-0.17238252,0.11492168,-9.461885,0.74413085,47.668976,-1.0043273,-2.5519695,-3.3119328,-0.16239625,-0.05732991,-0.07207225,28.5,29.875,28.8125,32.6875,35.0625,36.1875
0.0960524,-0.96323746,-0.5017471,-0.48241216,0.012252423,0.028495762,-0.1799284,-0.39112908,-0.36780486,0.05990993,-3.0782819,0.6251101,-0.00036334837,-0.04020524,0.018335555,0.0011896491,0.0058265603,0.0015947188,0.0109476065,0.5018608,-1.379709,1.9019474,-2.0910728,-1.5709156,2.4770215,-0.0645052,0.037629638,-0.05044829,0.01422897,-0.005988788,-0.075416096,-0.095768064,0.1340753,-9.423578,0.8605109,47.72271,-0.961612,-2.4825714,-3.2402449,-0.17543909,-0.055966295,-0.064472795,28.5,29.875,28.8125,32.6875,35.0625,36.1875
0.098051734,-0.40503073,-0.23849176,-0.48893592,0.00868836,0.029081408,-0.17692544,-0.39122003,-0.36775953,0.0599105,-3.0782673,0.6251072,-0.00041922746,-0.04146954,0.018633366,0.0010352002,0.0074028336,0.001908895,0.00928883,0.50169283,-1.3796123,1.9018153,-2.0910008,-1.5709041,2.4768536,-0.065209605,0.039987948,-0.05305733,0.014968017,-0.0075283875,-0.07445709,-0.15322891,0.17238252,-9.346964,0.784413,47.71286,-1.0903052,-2.5995002,-3.136686,-0.1551798,-0.029599613,-0.07064761,28.5,29.875,28.8125,32.6875,35.0625,36.1875
0.100048855,-0.4057004,-0.7079022,-0.5536247,0.009567941,0.021463767,-0.17820564,-0.3912829,-0.36773205,0.059904784,-3.0782561,0.62502927,-0.0004365449,-0.042100083,0.02051454,0.0005195663,0.010270345,0.0024778654,0.0060225967,0.50159645,-1.379528,1.9017204,-2.0909646,-1.5709175,2.47671,-0.06721519,0.03980122,-0.05157227,0.014558386,-0.010315377,-0.07319121,-0.1340753,0.15322891,-9.461885,0.75084364,47.709274,-1.0593531,-2.5294452,-3.2799969,-0.17678125,-0.013695837,-0.08376691,28.5,29.875,28.8125,32.6875,35.0625,36.1875
0.10205187,0.29952788,-0.6501447,-0.60351634,0.0036987655,0.03299564,-0.18600194,-0.39139336,-0.3676844,0.05993551,-3.0782917,0.6250372,-0.0003119537,-0.042880435,0.021040827,0.00022433347,0.011485484,0.0022593136,0.0034461247,0.50142854,-1.3795037,1.9016246,-2.090977,-1.5709413,2.4765427,-0.06821536,0.041268207,-0.052745912,0.015041231,-0.011270893,-0.07161327,-0.05746084,0.19153613,-9.461885,0.79560274,47.696735,-1.0957599,-2.5882602,-3.3141499,-0.1701853,0.026288446,-0.10686697,28.5,29.875,28.8125,32.6875,35.0625,36.1875
0.10405205,0.06296376,-1.0508584,-0.4481682,-0.0037602216,0.026499176,-0.17614496,-0.391466,-0.3676322,0.05991343,-3.0782146,0.625004,-0.00037532192,-0.04433179,0.021325566,0.000728738,0.01140273,0.0032024188,0.000259242,0.5012961,-1.3793832,1.9015158,-2.090905,-1.570978,2.4763994,-0.069789164,0.04214598,-0.0550666,0.015615091,-0.011660845,-0.069997445,-0.019153614,0.30645782,-9.3661175,0.7866488,47.69763,-1.1211597,-2.5511737,-3.2285094,-0.18968147,0.033383306,-0.11965124,28.5,29.875,28.8125,32.6875,35.0625,36.1875
0.10605196,0.3483534,-0.5696856,-0.3575539,-0.018131658,0.027819544,-0.18613209,-0.3915446,-0.3676,0.0599022,-3.078206,0.6249257,-0.00039383766,-0.044994302,0.021453397,0.000643417,0.0096842535,0.0016844742,-0.003185978,0.5011757,-1.3792747,1.9014076,-2.0908806,-1.570989,2.4762313,-0.07200034,0.04303226,-0.056063794,0.016221626,-0.009426471,-0.06876721,-0.038307227,0.17238252,-9.308656,0.7642693,47.70032,-1.0710467,-2.5732033,-3.2422447,-0.20412539,0.031226542,-0.15311025,28.5,29.875,28.8125,32.6875,35.0625,36.1875
0.10805245,0.26725417,-1.0759753,-0.48071122,-0.013796878,0.020297945,-0.18550956,-0.39164788,-0.3675531,0.059908446,-3.0781937,0.624982,-0.0003705084,-0.045060735,0.02082361,0.0008825696,0.0066377744,0.0006047491,-0.004984259,0.50100756,-1.3791907,1.9012884,-2.0908563,-1.5709995,2.4761,-0.072974235,0.042948086,-0.05651381,0.016225848,-0.006236075,-0.06794926,-0.095768064,0.21068975,-9.308657,0.80679786,47.686886,-1.1291456,-2.5649495,-3.2980456,-0.21442658,0.008672998,-0.19129245,28.5,29.875,28.8125,32.6875,35.0625,36.1875
0.110052384,-0.23076306,-0.7633735,-0.48536202,-0.019859811,0.0054426496,-0.18495944,-0.3917647,-0.36752346,0.059940353,-3.0782146,0.62506276,-0.00024667563,-0.045342404,0.020540087,0.00022954117,0.0057704253,-0.0016160207,-0.0065561906,0.50086385,-1.37913,1.9011439,-2.0908563,-1.5710229,2.4760041,-0.07388288,0.045216206,-0.057848863,0.016815329,-0.0044047753,-0.067289226,0.0,0.1340753,-9.346964,0.8403672,47.695843,-1.1025813,-2.4855483,-3.2678165,-0.2378552,-0.0351434,-0.2393524,28.5,29.875,28.8125,32.6875,35.0625,36.1875
0.11205697,0.05416112,-0.9199602,-0.5188114,-0.014845105,0.021774804,-0.18038236,-0.3918323,-0.36747518,0.059915654,-3.0781765,0.6250153,-0.0003350829,-0.046103343,0.020430062,-1.2906595e-05,0.004918018,-0.0020452084,-0.005176055,0.50071955,-1.3790212,1.9010605,-2.0908086,-1.5710224,2.475835,-0.074980885,0.0467432,-0.059020877,0.016422795,-0.0034613356,-0.06976821,-0.076614454,0.19153613,-9.385271,0.7709874,47.684196,-1.163111,-2.6951861,-3.2424796,-0.23608074,-0.03394176,-0.23649418,28.5,29.875,28.8125,32.6875,35.0625,36.1875
0.11405223,0.23420377,-0.19265693,-0.43090606,-0.015185133,0.0496957,-0.19163948,-0.39192706,-0.367423,0.059907492,-3.0781374,0.625046,-0.00036567388,-0.04720068,0.020494487,0.0013636816,0.0033604142,0.00071208016,-0.0075253635,0.5005516,-1.3789139,1.9009413,-2.090761,-1.5710348,2.4756913,-0.07611305,0.044906158,-0.059875403,0.015946686,-0.003423521,-0.06855094,-0.19153614,0.2681506,-9.423578,0.82022345,47.70211,-1.1936994,-2.463368,-3.2915835,-0.21950349,-0.05670628,-0.28707916,28.5,29.875,28.8125,32.6875,35.0625,36.1875
0.11605182,-0.7372232,-0.39074302,-0.6018794,0.004299609,0.038950108,-0.19326662,-0.39202648,-0.3673945,0.059937853,-3.0781732,0.6250153,-0.00028237852,-0.048050523,0.021308389,0.0010826726,0.0042620576,-0.0002158251,-0.009650476,0.50041926,-1.3788652,1.9008092,-2.0907366,-1.5710472,2.4755354,-0.07804171,0.046192132,-0.061007246,0.01703934,-0.003765288,-0.06835345,-0.15322891,0.1340753,-9.423578,0.8291774,47.66808,-1.278619,-2.4914186,-3.3219793,-0.23777467,-0.040104844,-0.30860534,28.5,29.875,28.8125,32.6875,35.0625,36.1875
0.118051924,-0.8855941,0.22095282,-0.5148964,0.0014235034,0.03570485,-0.18649252,-0.39211276,-0.36735275,0.059912235,-3.0781682,0.62510794,-0.00037503018,-0.04894008,0.021890568,0.00084219716,0.0050735692,-0.00051004504,-0.0076698745,0.500239,-1.3787448,1.9007248,-2.0907366,-1.570999,2.4754136,-0.07947059,0.047542345,-0.06216881,0.017501837,-0.004342514,-0.071761,-0.21068975,0.095768064,-9.289502,0.84484416,47.652847,-1.1580648,-2.5020423,-3.279597,-0.24774586,-0.038419545,-0.32638803,28.5,29.875,28.8125,32.6875,35.0625,36.1875
0.120052084,-0.5321818,0.06618793,-0.45414424,0.005611093,0.039925337,-0.18970448,-0.3922088,-0.36731598,0.05991439,-3.0781426,0.6250662,-0.0004085074,-0.049011905,0.021600313,-0.000103432445,0.0059205648,-0.0022570617,-0.010043678,0.50009555,-1.3786236,1.9005574,-2.0906527,-1.571011,2.4752474,-0.079090975,0.050389893,-0.06348645,0.017910214,-0.004251452,-0.069006674,-0.2681506,0.1340753,-9.442732,0.8224646,47.684196,-1.2987008,-2.5891004,-3.299579,-0.2757098,-0.044172708,-0.39059424,28.5,29.875,28.8125,32.6875,35.0625,36.1875
0.122052066,-0.90614295,0.04712949,-0.4283083,0.0032303266,0.03002633,-0.18622401,-0.39230075,-0.36726674,0.0599202,-3.0781198,0.62512016,-0.0003429185,-0.050887067,0.023281353,0.000519844,0.005575986,-0.0013152086,-0.013991521,0.49995017,-1.3785639,1.9004735,-2.0906527,-1.5710472,2.4751387,-0.083546884,0.049579352,-0.064028576,0.018268405,-0.004400218,-0.06951449,-0.22984336,0.019153614,-9.385271,0.82022345,47.658226,-1.2095996,-2.6381054,-3.353363,-0.28732428,-0.06029418,-0.42952576,28.5,29.875,28.8125,32.6875,35.0625,36.1875
0.1240522,-0.8512009,0.055632595,-0.46794486,0.010278829,0.039115235,-0.1856817,-0.39241683,-0.36722603,0.05991419,-3.0781195,0.6251357,-0.00039649554,-0.05127498,0.02242263,0.0018451338,0.0051502516,0.0020455306,-0.008751746,0.4997594,-1.3784201,1.9003061,-2.090605,-1.5710233,2.4749577,-0.08166235,0.04830081,-0.06542984,0.017798822,-0.005645661,-0.07286665,-0.38307226,-0.019153614,-9.32781,0.83813137,47.678825,-1.2914853,-2.4356995,-3.3284059,-0.26485372,-0.052995317,-0.45854226,28.5,29.875,28.8125,32.6875,35.0625,36.1875
0.12605181,-1.0697037,-0.18360536,-0.45230094,0.027896242,0.050235,-0.18067555,-0.39252797,-0.36718476,0.05994221,-3.0781307,0.6251357,-0.000315306,-0.05274109,0.023749731,0.0012280463,0.007363836,0.0014599513,-0.0076164734,0.49960288,-1.3783594,1.9001621,-2.0905683,-1.5710486,2.4747999,-0.084198,0.050656464,-0.0669951,0.018585056,-0.0073084855,-0.07653354,-0.22984336,-0.038307227,-9.404425,0.7553206,47.696735,-1.3610978,-2.5227695,-3.2612696,-0.28570157,-0.051239856,-0.4556901,28.5,29.875,28.8125,32.6875,35.0625,36.1875
0.12805188,-1.2680596,-0.24074121,-0.617974,0.035698853,0.05869075,-0.17421584,-0.3926356,-0.36713505,0.05994417,-3.0781095,0.6251088,-0.000306425,-0.053519487,0.024745133,0.0009869637,0.008274875,0.0014103057,-0.003035951,0.49943453,-1.3782511,1.9000186,-2.0905206,-1.5710725,2.4746175,-0.08608748,0.05114379,-0.06703503,0.01861501,-0.008089493,-0.083001785,-0.34476504,-0.05746084,-9.346964,0.78888994,47.66539,-1.3361937,-2.5358052,-3.3216243,-0.30075586,-0.008841803,-0.4398067,28.5,29.875,28.8125,32.6875,35.0625,36.1875
0.13005193,-0.8591017,-0.04374828,-0.5323469,0.03970908,0.08444677,-0.17939657,-0.39271674,-0.36707804,0.05989253,-3.078043,0.6250347,-0.00039694592,-0.05578353,0.024335261,0.0024024064,0.007384047,0.004227654,0.00075631455,0.49927863,-1.3780825,1.8999337,-2.0905087,-1.5710968,2.474424,-0.08710947,0.052140944,-0.071594685,0.019274563,-0.008676296,-0.08781211,-0.45968673,-0.19153613,-9.404425,0.8247004,47.682407,-1.3921192,-2.4989908,-3.1643553,-0.32218593,-0.010478748,-0.40984678,28.5,29.875,28.8125,32.6875,35.0625,36.1875
0.13204773,-0.8020246,0.42202812,-0.63388085,0.036639906,0.086518764,-0.18019223,-0.39285642,-0.367046,0.05993596,-3.0780885,0.6251385,-0.00036322174,-0.056503396,0.026639514,0.0012082546,0.009155044,0.0019567383,0.002164953,0.49907345,-1.3779982,1.8997186,-2.0904367,-1.571061,2.4742777,-0.09133724,0.053038627,-0.07003032,0.019655151,-0.009138324,-0.0934486,-0.4213795,-0.15322891,-9.519346,0.7620334,47.683304,-1.1270517,-2.5154629,-3.222754,-0.32773256,-0.008042388,-0.36915687,28.5,29.875,28.8125,32.6875,35.0625,36.1875
0.13405286,-0.6850296,0.084497966,-0.707573,0.02747262,0.09230281,-0.182124,-0.3929565,-0.36699015,0.059933893,-3.0780773,0.6250718,-0.00038009707,-0.056317553,0.025698619,0.0014840972,0.008524268,0.0023831255,0.012289411,0.49889442,-1.3779019,1.8995985,-2.090389,-1.5710729,2.4740586,-0.089774534,0.053393696,-0.07108761,0.01967403,-0.008798782,-0.102010384,-0.47884035,-0.1340753,-9.481039,0.7911258,47.63673,-1.3542424,-2.411355,-3.3050058,-0.32472956,-0.009942424,-0.2769763,28.5,29.875,28.8125,32.6875,35.0625,36.1875
0.13605225,-1.3544865,-0.6872917,-0.6872626,0.025371019,0.078513734,-0.17315689,-0.3930428,-0.36693776,0.059908703,-3.078024,0.6250039,-0.0004176149,-0.060228582,0.026811033,0.0017550414,0.00727952,0.0033601176,0.010099341,0.4987485,-1.3777686,1.8994898,-2.0903528,-1.5711082,2.4738772,-0.09561786,0.056797452,-0.07568323,0.01940395,-0.008192631,-0.105662026,-0.6703765,-0.076614454,-9.442732,0.76874626,47.672558,-1.1822222,-2.5886989,-3.1806583,-0.33414125,-0.012523901,-0.23361492,28.5,29.875,28.8125,32.6875,35.0625,36.1875
0.13805248,-0.59975064,-0.17129473,-0.89447266,0.003478292,0.085708156,-0.18459521,-0.39317825,-0.3668827,0.05992874,-3.0780337,0.6249826,-0.00035165763,-0.058722265,0.026444875,0.00163434,0.006064757,0.0019081158,0.014934383,0.49854547,-1.3776731,1.8993229,-2.090317,-1.5711316,2.4736598,-0.094684176,0.055164102,-0.07351069,0.019546961,-0.006425264,-0.10956859,-0.6512228,0.019153614,-9.519346,0.7933669,47.691364,-1.3100959,-2.4488962,-3.1491315,-0.33085597,-0.033835936,-0.19423097,28.5,29.875,28.8125,32.6875,35.0625,36.1875
0.14005172,-0.70682347,-0.34601292,-1.0008087,-0.009779792,0.08087476,-0.18617088,-0.39330617,-0.36682582,0.059944484,-3.0780742,0.6249533,-0.00034869622,-0.060589403,0.027270582,0.0020979433,0.0049843974,0.0022686273,0.013331844,0.4983166,-1.3775887,1.8991789,-2.0902808,-1.5711073,2.4734075,-0.09824984,0.055786174,-0.07540632,0.019985113,-0.0056506633,-0.11153268,-0.7086837,0.076614454,-9.672575,0.7329411,47.705692,-1.2538935,-2.4782162,-3.3259845,-0.3405698,-0.032793872,-0.14796998,28.5,29.875,28.8125,32.6875,35.0625,36.1875
0.14205179,-1.2733511,-1.1206111,-0.8196542,-0.005882409,0.07230554,-0.17043677,-0.39342186,-0.3667538,0.059926722,-3.078,0.62490094,-0.0004151363,-0.06254883,0.028613612,0.0013001483,0.0058523403,0.00130194,0.009090059,0.49811155,-1.3774319,1.8990115,-2.0901845,-1.571144,2.4731793,-0.102098584,0.058735885,-0.07709486,0.019983962,-0.0059643434,-0.11113735,-0.63206923,0.095768064,-9.653421,0.7978386,47.672558,-1.077328,-2.4593892,-3.265021,-0.35211557,-0.042871177,-0.1300935,28.5,29.875,28.8125,32.6875,35.0625,36.1875
0.14405179,-0.8412095,-0.27298534,-0.8721751,-0.009148178,0.08922217,-0.18825269,-0.39352617,-0.36670145,0.05990785,-3.0779784,0.62493706,-0.00047241108,-0.063590124,0.029442005,0.0012361023,0.0067274505,0.0013775887,0.0042920075,0.4979196,-1.3772992,1.8988918,-2.0901606,-1.5711316,2.4730127,-0.10392621,0.059627634,-0.07812524,0.020478617,-0.0067726043,-0.10816442,-0.63206923,0.15322891,-9.5385,0.8224646,47.705692,-1.0694747,-2.5894523,-3.2382631,-0.37974733,-0.03654473,-0.15878466,28.5,29.875,28.8125,32.6875,35.0625,36.1875
0.14605255,-1.3238685,-0.6669532,-0.8676905,0.0054878336,0.08290086,-0.17014365,-0.39368466,-0.36663884,0.05992958,-3.0779896,0.62494195,-0.0003631018,-0.06561724,0.03065767,0.0024899826,0.0057471963,0.004400295,-0.003620318,0.49769083,-1.3771918,1.8987125,-2.0901496,-1.5711678,2.4727857,-0.10744426,0.057873372,-0.07873029,0.01971272,-0.007348235,-0.10376928,-0.6703765,0.15322891,-9.519346,0.89631605,47.711964,-0.9201896,-2.3826613,-3.2837467,-0.37426677,-0.0209409,-0.19723448,28.5,29.875,28.8125,32.6875,35.0625,36.1875
0.14805205,-1.9202838,-0.49201828,-0.87937367,0.0054524816,0.06879192,-0.17447665,-0.39379165,-0.36658016,0.059924297,-3.078001,0.62488973,-0.00039018676,-0.06706844,0.03105402,0.0020051561,0.0059147566,0.004656263,-0.009357274,0.4974864,-1.3770949,1.8986043,-2.0901258,-1.5711564,2.4725473,-0.10925267,0.06023138,-0.08019313,0.018675098,-0.00762156,-0.099839,-0.68953013,0.05746084,-9.576807,0.7732232,47.71554,-0.85230374,-2.4376645,-3.2477365,-0.36466733,-0.02507795,-0.26268107,28.5,29.875,28.8125,32.6875,35.0625,36.1875
0.150052,-2.0554485,-0.7580185,-0.97362244,0.01213424,0.06383137,-0.17005226,-0.39394325,-0.36651793,0.059911225,-3.077969,0.62501734,-0.00043166906,-0.06791889,0.03135548,0.0021532795,0.0058254986,0.0053533856,-0.01056132,0.49723476,-1.3769145,1.8984121,-2.09009,-1.5711445,2.4723794,-0.11034538,0.060682543,-0.081009805,0.018385682,-0.007880094,-0.09972651,-0.68953013,0.05746084,-9.557653,0.8560339,47.713753,-0.88949144,-2.4443812,-3.2336428,-0.350527,-0.03273869,-0.31320456,28.5,29.875,28.8125,32.6875,35.0625,36.1875
0.15205199,-1.5333127,-0.27265754,-0.7503831,0.002230202,0.0799199,-0.18372214,-0.39409512,-0.36647946,0.059947807,-3.0780063,0.62510043,-0.00033231324,-0.069436915,0.031635083,0.002834897,0.0057250946,0.007249874,-0.010702443,0.49703068,-1.3768183,1.8982095,-2.0900662,-1.5711449,2.4722226,-0.11166925,0.061081443,-0.0830127,0.018275669,-0.008692879,-0.100907326,-0.57460845,0.038307227,-9.5385,0.8605109,47.711964,-0.868431,-2.393914,-3.2691631,-0.3325882,-0.010035605,-0.30561286,28.5,29.875,28.8125,32.6875,35.0625,36.1875
0.15405467,-0.8684799,-0.06794599,-0.70085865,0.010153595,0.09162429,-0.19230957,-0.3942353,-0.36641043,0.05995785,-3.0779746,0.62507325,-0.00028654397,-0.06968717,0.03149803,0.0025407532,0.0051575154,0.0067926804,-0.009984602,0.49681506,-1.3766979,1.8980302,-2.090006,-1.5711921,2.4719942,-0.11208132,0.062043555,-0.0833851,0.017807608,-0.007977966,-0.10203841,-0.45968673,0.095768064,-9.481039,0.78217715,47.70032,-0.9372697,-2.4026523,-3.1732373,-0.33076328,-0.037394978,-0.31201336,28.5,29.875,28.8125,32.6875,35.0625,36.1875
0.15605196,-1.2444304,-0.16593228,-0.7036088,0.020847637,0.072547525,-0.17013885,-0.3943536,-0.36634767,0.059950527,-3.0779545,0.6249927,-0.00026567563,-0.06980786,0.031551264,0.0023704863,0.004939411,0.0060436856,-0.011434519,0.49662325,-1.3765774,1.8978986,-2.0899823,-1.5712284,2.4717548,-0.11259581,0.06262199,-0.08377143,0.01816341,-0.0074293497,-0.101103865,-0.38307226,0.0,-9.500193,0.75755644,47.645687,-0.9818994,-2.4414535,-3.3530908,-0.33462745,-0.024181135,-0.37694925,28.5,29.875,28.8125,32.6875,35.0625,36.1875
0.15805195,-0.27687055,0.23215121,-0.5469369,0.019499373,0.074122205,-0.18158332,-0.39453667,-0.36626512,0.05995867,-3.0779243,0.62521434,-0.00021070971,-0.072284415,0.03065016,0.003768347,0.0035741571,0.009893871,-0.009852526,0.49632365,-1.3764329,1.8977059,-2.0899704,-1.5712403,2.4715974,-0.112908006,0.06413015,-0.088581465,0.017427538,-0.008071123,-0.10299477,-0.38307226,-0.019153614,-9.442732,0.8224646,47.678825,-0.9615224,-2.4168673,-3.1158519,-0.3193052,-0.028638124,-0.36957946,28.5,29.875,28.8125,32.625,35.0625,36.1875
0.16005214,-0.017224072,0.13507009,-0.51136976,0.027773201,0.056980003,-0.18229756,-0.39467672,-0.3661841,0.05994053,-3.0778933,0.62520903,-0.00027034932,-0.07285851,0.032514986,0.0027096365,0.0042658043,0.007875876,-0.013542857,0.4960588,-1.3762765,1.897551,-2.0899227,-1.5712403,2.4713333,-0.11675718,0.06474442,-0.08685794,0.017190263,-0.007719014,-0.10315456,-0.19153613,-0.019153614,-9.404425,0.82694155,47.704796,-0.905668,-2.343546,-3.2475395,-0.32114753,-0.022143792,-0.4067008,28.5,29.875,28.8125,32.625,35.0625,36.1875
0.16205229,0.13420615,-0.037463423,-0.6696391,0.020860497,0.045654286,-0.18753864,-0.39482638,-0.36613664,0.059963807,-3.0779033,0.62522364,-0.00018942362,-0.07281151,0.031007186,0.003546497,0.0030927323,0.009099941,-0.003962652,0.4958565,-1.3761563,1.8973473,-2.089887,-1.5712641,2.471139,-0.1144168,0.0649252,-0.08907026,0.017577402,-0.0072721434,-0.11039484,-0.24899697,0.019153614,-9.3661175,0.81351066,47.6421,-1.1300383,-2.3352833,-3.2171474,-0.31628412,-0.0365253,-0.38138625,28.5,29.875,28.8125,32.625,35.0625,36.1875
0.16405249,-0.31752607,-0.18770625,-0.69527704,0.020780621,0.025349077,-0.17528197,-0.3949842,-0.36608157,0.05997755,-3.0779238,0.6252265,-0.00012171194,-0.07495571,0.032913662,0.0034127557,0.0037253078,0.009277745,-0.0035921559,0.4956269,-1.3760239,1.8971561,-2.0898745,-1.5712765,2.4709086,-0.11915278,0.06594163,-0.08998864,0.017620273,-0.007911405,-0.11549984,-0.095768064,0.095768064,-9.404425,0.74413085,47.63136,-0.8306458,-2.2735481,-3.1758413,-0.29417518,-0.023522433,-0.34588888,28.5,29.875,28.8125,32.625,35.0625,36.1875
0.16605173,0.41419864,-0.38370827,-0.7149279,0.013596738,0.03858262,-0.18133031,-0.39510852,-0.36602828,0.059989013,-3.0779321,0.6251844,-0.00012289784,-0.075103454,0.033036757,0.0033287518,0.0042009545,0.008715178,0.0037929097,0.49542332,-1.3759155,1.8969878,-2.089814,-1.5712765,2.4706779,-0.11936756,0.06657649,-0.09074686,0.018459374,-0.008065278,-0.12309907,0.0,0.076614454,-9.423578,0.8717007,47.66091,-1.053526,-2.30761,-3.2379613,-0.27627718,-0.012674637,-0.27514797,28.5,29.875,28.8125,32.625,35.0625,36.1875
0.16805172,0.780049,0.014638793,-0.47928113,-0.014387485,0.04336204,-0.19164173,-0.39527038,-0.3659535,0.059977338,-3.0778875,0.6251507,-0.00013121056,-0.075582094,0.03350369,0.0028352565,0.00471797,0.0074758315,0.010577132,0.49517152,-1.3757229,1.8967723,-2.0897548,-1.5713123,2.4704108,-0.12062945,0.068048365,-0.09152613,0.019091256,-0.007939483,-0.1311447,0.019153614,0.076614454,-9.346964,0.8940802,47.690468,-0.9896643,-2.2999692,-3.2765794,-0.29585606,-0.018095497,-0.21404438,28.5,29.875,28.8125,32.625,35.0625,36.1875
0.17005524,-0.1376129,-1.0755581,-0.6214562,-0.0059395777,0.0184827,-0.1752064,-0.39543343,-0.3658792,0.06001403,-3.077932,0.62510103,1.8408413e-05,-0.07676366,0.034010664,0.0028971434,0.0040270523,0.007402163,0.010870217,0.49491954,-1.3756626,1.8966173,-2.0897548,-1.5713481,2.4701223,-0.122927144,0.06891222,-0.09270406,0.019131348,-0.0072867717,-0.13373694,0.038307227,0.11492168,-9.500193,0.7732232,47.67793,-1.0787016,-2.2826903,-3.316743,-0.2917805,-0.022494676,-0.13355303,28.5,29.875,28.8125,32.625,35.0625,36.1875
0.17205241,-0.04984327,-1.1567322,-0.78875196,-0.0020041624,0.0119002005,-0.16690166,-0.39557463,-0.36581546,0.05999174,-3.0779157,0.6250749,-7.954765e-05,-0.07623349,0.03353053,0.0023127734,0.0048703197,0.0061431993,0.014367768,0.49466857,-1.3754698,1.8964256,-2.0896947,-1.5713247,2.4698572,-0.12150207,0.070429906,-0.09332874,0.019747395,-0.0074394434,-0.13580826,0.076614454,0.21068975,-9.481039,0.7284641,47.668976,-1.1118855,-2.3925185,-3.2594504,-0.2854463,-0.02138266,-0.080585495,28.5,29.875,28.8125,32.625,35.0625,36.1875
0.17405245,0.19551109,-1.311963,-0.80244887,-0.004370847,0.013231891,-0.17261137,-0.39570785,-0.36573553,0.059969813,-3.0778775,0.62501454,-0.00011520307,-0.07839999,0.03524607,0.0024586855,0.00515977,0.0065662414,0.0054711252,0.4944271,-1.3753135,1.8962816,-2.089658,-1.5713485,2.469583,-0.12604763,0.07118567,-0.09464071,0.020068115,-0.007900257,-0.13145526,0.1340753,0.2681506,-9.442732,0.81351066,47.65643,-0.9990158,-2.3128796,-3.2930145,-0.27387053,-0.004520758,-0.11878529,28.5,29.875,28.8125,32.625,35.0625,36.1875
0.17605174,0.33215877,-1.0930091,-0.6199279,-0.01688457,0.018852789,-0.17642458,-0.39587784,-0.3656544,0.059994116,-3.0778487,0.62504685,-4.059116e-05,-0.07816781,0.034250923,0.0024790626,0.0050140144,0.006900896,0.002435121,0.4941649,-1.3751929,1.896067,-2.0895865,-1.5713962,2.4693449,-0.12410032,0.07212931,-0.09577376,0.019889066,-0.007926679,-0.12647147,0.019153614,0.21068975,-9.3661175,0.76874626,47.698532,-1.2006912,-2.338949,-3.3038044,-0.253102,0.0011795308,-0.15291694,28.5,29.875,28.8125,32.625,35.0625,36.1875
0.17805173,-0.21847557,-0.6312014,-0.5688139,-0.022622902,0.007958975,-0.18040456,-0.3960527,-0.36560374,0.060025256,-3.0779178,0.6250261,4.755345e-05,-0.07867097,0.034694735,0.002372405,0.0045615407,0.0064497865,-0.0037907672,0.4939124,-1.375073,1.895851,-2.0895746,-1.5713838,2.4690707,-0.12564674,0.072457,-0.095930554,0.019901408,-0.007300723,-0.12179382,0.038307227,0.24899697,-9.404425,0.77545905,47.691364,-1.0902926,-2.1928124,-3.36142,-0.24434316,-0.019474743,-0.20806107,28.5,29.875,28.8125,32.625,35.0625,36.1875
0.18005165,-0.005734582,-1.3675143,-0.72240585,-0.005494751,0.021572148,-0.1665496,-0.39618728,-0.36555356,0.06002234,-3.0779178,0.6249702,8.5224994e-05,-0.08069388,0.034878343,0.0023178617,0.004591785,0.0063930578,-0.009184801,0.4937202,-1.3749274,1.8956822,-2.0895627,-1.5714082,2.4688437,-0.12776384,0.075624816,-0.099736564,0.020601908,-0.0073033925,-0.118515044,0.0,0.22984336,-9.346964,0.800085,47.65464,-1.0953915,-2.3168988,-3.2430067,-0.23399025,-0.012218238,-0.27583945,28.5,29.875,28.8125,32.625,35.0625,36.1875
0.18205184,0.6982347,-0.6380269,-0.5650653,-0.013298138,0.037589133,-0.17912382,-0.39635065,-0.3654668,0.059998516,-3.0778475,0.62507075,2.118879e-05,-0.08015842,0.035723243,0.0021215212,0.0049025496,0.00563073,-0.012347518,0.4934326,-1.3747238,1.895481,-2.0895026,-1.5714201,2.468628,-0.12870589,0.074226454,-0.097679645,0.020759791,-0.0072162882,-0.11629519,-0.019153614,0.21068975,-9.308656,0.83589023,47.664497,-1.1215336,-2.4164476,-3.3898897,-0.23092133,-0.012370228,-0.34241822,28.5,29.875,28.8125,32.625,35.0625,36.1875
0.18405205,-0.021781018,-0.6252542,-0.6656724,-0.011323227,0.030006504,-0.17519061,-0.39651304,-0.36542356,0.06003768,-3.0779095,0.625045,9.55288e-05,-0.08204087,0.035528526,0.0033205578,0.0034618883,0.007678746,-0.014758178,0.49320447,-1.3746157,1.8952526,-2.0894544,-1.5714082,2.468376,-0.13023348,0.07467592,-0.10104349,0.021187497,-0.0069138743,-0.11541189,-0.17238253,0.17238252,-9.270349,0.8157518,47.670765,-1.1303622,-2.2174072,-3.318957,-0.22671151,-0.020500915,-0.37530917,28.5,29.875,28.8125,32.625,35.0625,36.1875
0.18605223,-0.1770375,-0.35118428,-0.47748187,-0.0022506684,0.036012985,-0.17831612,-0.39666146,-0.36534727,0.06002534,-3.0778782,0.62511593,6.2549174e-05,-0.08151573,0.036368698,0.0002983194,0.0056794924,0.0018416188,-0.017245872,0.49294063,-1.3744577,1.8950847,-2.0894182,-1.5714077,2.4681604,-0.1316332,0.079750955,-0.10029351,0.021550188,-0.006103862,-0.11432491,-0.19153613,0.22984336,-9.232041,0.8291774,47.657326,-1.1389427,-2.2685843,-3.301116,-0.20134881,-0.01585208,-0.4361091,28.5,29.875,28.8125,32.625,35.0625,36.1875
0.1880524,-0.42152634,-0.12447723,-0.55466056,0.008628029,0.041601025,-0.19231628,-0.39683414,-0.36529243,0.060040366,-3.077912,0.6251611,8.1024504e-05,-0.08339214,0.03698498,0.0013249767,0.0044783074,0.0035422943,-0.018282918,0.4926761,-1.3743018,1.8948573,-2.089383,-1.5713834,2.4679198,-0.13448265,0.07943815,-0.10233216,0.021834204,-0.005850763,-0.116137326,-0.1340753,0.15322891,-9.270349,0.8023209,47.65912,-1.0851899,-2.3093812,-3.361043,-0.19498195,-0.051869877,-0.4851942,28.5,29.875,28.8125,32.625,35.0625,36.1875
0.19005233,-0.5474434,-0.007993512,-0.30480355,0.010904642,0.056836568,-0.18668833,-0.39701307,-0.36520723,0.06003891,-3.0778673,0.62522674,0.0001409892,-0.085029826,0.037261337,0.0013660574,0.0046574404,0.0038381403,-0.016484229,0.49240017,-1.3741326,1.8946542,-2.0893586,-1.571432,2.4676907,-0.13619885,0.08165452,-0.105170086,0.022271162,-0.006153933,-0.11965028,-0.24899697,0.11492168,-9.232041,0.8403672,47.719128,-1.0254589,-2.3270955,-3.2509425,-0.17605479,-0.044284783,-0.48934513,28.5,29.875,28.8125,32.625,35.0625,36.1875
0.19205248,-0.849736,0.079938926,-0.3300855,0.016027352,0.059679456,-0.18200672,-0.39719546,-0.36511314,0.060044933,-3.0778458,0.625293,0.00012512837,-0.086337596,0.038267694,0.0008887684,0.0051265946,0.0032263733,-0.009216908,0.49207607,-1.3739761,1.8944381,-2.0892866,-1.571432,2.4674108,-0.13894436,0.08338925,-0.10615932,0.022277879,-0.0062866188,-0.12966214,-0.38307226,0.1340753,-9.308657,0.8090337,47.684196,-1.1094611,-2.3386092,-3.2790911,-0.16684479,-0.054320637,-0.4255979,28.5,29.875,28.8125,32.625,35.0625,36.1875
0.1940528,-1.1743001,-0.14335091,-0.30754516,0.014334304,0.07820363,-0.18123116,-0.39732632,-0.36503038,0.06001297,-3.0778003,0.62519795,3.314979e-05,-0.08536729,0.037533697,0.00058153784,0.005598194,0.0022505396,0.0032920388,0.49182528,-1.3737956,1.8942827,-2.089226,-1.5714439,2.4671066,-0.13680804,0.0839432,-0.106277615,0.022914346,-0.0062572802,-0.14003426,-0.4405331,0.15322891,-9.346964,0.80679786,47.666286,-1.1424247,-2.3066394,-3.2398825,-0.16843382,-0.063442335,-0.36758673,28.5,29.875,28.8125,32.625,35.0625,36.1875
0.19605218,-1.5994451,-0.12404071,-0.3566372,0.014144241,0.079802886,-0.18021737,-0.3975168,-0.36497307,0.060030412,-3.0778258,0.62523836,6.485198e-05,-0.08811009,0.037663657,0.0018458485,0.0041376203,0.0044948994,0.008715082,0.49154854,-1.373615,1.8940176,-2.0891783,-1.571432,2.466852,-0.13959345,0.085152656,-0.110733375,0.023485977,-0.006036843,-0.14824153,-0.47884035,0.13407528,-9.289502,0.98807013,47.71286,-1.0432959,-2.2404528,-3.093064,-0.16587976,-0.060979716,-0.2626344,28.5,29.875,28.8125,32.625,35.0625,36.1875
0.1980522,-1.1733383,-0.13932692,-0.21282777,0.009398791,0.09623675,-0.18417233,-0.39768925,-0.3649169,0.06003879,-3.0778472,0.62523794,0.000103327075,-0.086901166,0.03817372,8.627429e-05,0.006142724,0.0012737837,0.014424271,0.49129754,-1.3734463,1.8937925,-2.0891545,-1.571432,2.466598,-0.1391551,0.086850375,-0.10879715,0.023633815,-0.006277974,-0.15351263,-0.51714754,0.019153614,-9.3661175,0.8537928,47.723602,-1.2187591,-2.4302924,-3.345152,-0.14629543,-0.08252321,-0.19503912,28.5,29.875,28.8125,32.625,35.0625,36.1875
0.20005217,-2.1571853,-0.24806279,-0.1820602,0.013629011,0.08427327,-0.17504556,-0.39786497,-0.36483872,0.06003949,-3.0778303,0.62519515,0.000112936475,-0.08969842,0.03831403,0.002177436,0.0049066083,0.005405312,0.013731645,0.4910215,-1.3732662,1.8935632,-2.089094,-1.5714558,2.4662976,-0.14133263,0.08641624,-0.11318289,0.024224253,-0.007147219,-0.15499416,-0.7086837,-0.019153614,-9.385271,0.8403672,47.68599,-1.2326424,-2.2664394,-3.1007748,-0.13046966,-0.06431761,-0.15754828,28.5,29.875,28.8125,32.625,35.0625,36.1875
0.20205233,-1.1617439,-0.038518585,-0.48632276,0.02518086,0.104809746,-0.17115602,-0.39807034,-0.36474994,0.06004687,-3.0778298,0.6251606,0.00018803254,-0.09032455,0.04047992,-0.00047271216,0.008148705,0.0002230168,0.005696067,0.49070883,-1.3730844,1.8933247,-2.0890696,-1.5714926,2.4659636,-0.1452333,0.091108665,-0.11303572,0.02548024,-0.0075535104,-0.15085815,-0.7661445,-0.095768064,-9.3661175,0.8672237,47.686886,-1.2009665,-2.4364517,-3.2753916,-0.12044232,-0.06738822,-0.15648639,28.5,29.875,28.8125,32.625,35.0625,36.1875
0.20405266,-1.6041226,-0.24041027,-0.5481896,0.045400947,0.07250178,-0.16503927,-0.3982145,-0.36464846,0.060003348,-3.077746,0.62514293,8.180484e-05,-0.09075481,0.039361846,0.0019342784,0.006004968,0.0038629847,0.0032269983,0.49042198,-1.3728815,1.8931688,-2.08901,-1.5715159,2.4656765,-0.14379272,0.088119656,-0.11517622,0.026386082,-0.0073942193,-0.14694779,-0.7469909,-0.15322891,-9.308657,0.78888994,47.684196,-1.2578905,-2.2795892,-3.172831,-0.10578641,-0.07058403,-0.20864722,28.5,29.875,28.8125,32.625,35.0625,36.1875
0.20605186,-0.3771378,0.19028439,-0.2698557,0.036633197,0.09837023,-0.17888118,-0.39840165,-0.3646004,0.060027495,-3.077799,0.6250796,9.763148e-05,-0.092692725,0.040302694,0.0013590613,0.006501864,0.0031444489,-0.004340726,0.49015728,-1.3727001,1.8928818,-2.0889375,-1.5714926,2.4653656,-0.14700855,0.09116859,-0.11755534,0.026589489,-0.007491601,-0.14259458,-0.842759,-0.1340753,-9.308656,0.8717007,47.682407,-1.0274085,-2.359264,-3.1167972,-0.10058804,-0.07295125,-0.28537333,28.5,29.875,28.8125,32.625,35.0625,36.1875
0.20805186,-0.93650514,-0.31110543,-0.41863877,0.05226843,0.08499942,-0.1749087,-0.39861104,-0.36448172,0.060035855,-3.077741,0.6252205,0.00015894108,-0.09350371,0.04054684,0.0014935574,0.0069791153,0.0035590571,-0.005411172,0.48979786,-1.3725436,1.8926657,-2.0888898,-1.5715402,2.4651017,-0.1477047,0.092071325,-0.119046986,0.027030291,-0.008108223,-0.14221847,-0.6895301,-0.038307227,-9.270349,0.82694155,47.655537,-1.1455528,-2.5743945,-3.0889082,-0.085414946,-0.08804165,-0.31432763,28.5,29.875,28.8125,32.625,35.0625,36.1875
0.21005185,-1.088561,-0.09435763,-0.5416002,0.050564505,0.0857114,-0.1711331,-0.39880148,-0.3644174,0.060033668,-3.0777462,0.62524027,0.00014520528,-0.09425007,0.040838327,0.0010662407,0.007580986,0.0028025538,-0.007283497,0.4895102,-1.3723269,1.892402,-2.0888422,-1.5715283,2.4648259,-0.14869742,0.09402396,-0.120525226,0.027507432,-0.008285495,-0.1413377,-0.63206923,-0.11492168,-9.3661175,0.8247004,47.679718,-1.2175008,-2.5054946,-2.9926023,-0.07715987,-0.08038112,-0.3473255,28.5,29.875,28.8125,32.625,35.0625,36.1875
0.21204957,-1.2565709,-0.07846423,-0.2912519,0.028538322,0.090691276,-0.17591779,-0.39895532,-0.3643363,0.06000833,-3.0777075,0.6251921,5.3939457e-05,-0.09439057,0.040743504,0.0004207693,0.008114394,0.0009465706,-0.0068976586,0.48923483,-1.3721219,1.8921994,-2.0887697,-1.5715283,2.4645255,-0.14885646,0.09626315,-0.121993005,0.028620917,-0.007895925,-0.14188199,-0.6703765,0.076614454,-9.3661175,0.83813137,47.699425,-1.2405634,-2.5351872,-3.02074,-0.0872879,-0.08261283,-0.37041467,28.5,29.875,28.8125,32.625,35.0625,36.1875
0.21405266,-1.3244617,-0.06454176,-0.43980598,0.01020966,0.089353986,-0.18339333,-0.39916658,-0.36423203,0.06001954,-3.0776415,0.625291,8.67189e-05,-0.09498731,0.041751534,0.0006443443,0.009243378,0.0011896435,-0.004509159,0.48889893,-1.3719296,1.8919233,-2.0886734,-1.571577,2.4642599,-0.15033332,0.09590996,-0.12231944,0.029607536,-0.009010454,-0.14574495,-0.4405331,0.11492168,-9.289502,0.80679786,47.6636,-1.2627225,-2.5723727,-3.0319352,-0.08859613,-0.09052922,-0.3753215,28.5,29.875,28.8125,32.625,35.0625,36.1875
0.21605198,-1.0497428,0.14473365,-0.71931165,-0.0013938253,0.0809762,-0.18350646,-0.39935666,-0.36415392,0.060010746,-3.0776494,0.62519103,0.000121841025,-0.09532827,0.042725533,2.1806562e-05,0.011064162,9.979877e-05,0.0016717757,0.48861116,-1.3717252,1.8916973,-2.0886614,-1.5716013,2.463909,-0.15153858,0.09707872,-0.12249778,0.030425625,-0.010109274,-0.15312879,-0.4213795,0.15322891,-9.385271,0.86498255,47.658226,-1.3373616,-2.5361795,-3.0813274,-0.08153315,-0.06617893,-0.31773612,28.5,29.875,28.8125,32.625,35.0625,36.1875
0.21805263,-0.72438145,-0.8828637,-0.70447373,0.010588971,0.07371865,-0.17404372,-0.39954138,-0.3640605,0.06000355,-3.0776248,0.6252002,7.716649e-05,-0.097141854,0.04260924,0.00085556245,0.0099889785,0.0015616176,0.009014367,0.48828727,-1.3715327,1.8914679,-2.088589,-1.5716008,2.463594,-0.15306479,0.09818752,-0.12582381,0.030835664,-0.00986484,-0.16199636,-0.21068975,0.17238252,-9.461885,0.7911258,47.685097,-1.258626,-2.4888754,-2.999526,-0.069259495,-0.056282055,-0.23571315,28.5,29.875,28.8125,32.625,35.0625,36.1875
0.2200517,-0.14861071,-0.6693505,-0.8654211,-0.0050289836,0.058592144,-0.17699775,-0.39975005,-0.36395913,0.060012925,-3.0776086,0.62517256,0.00012405844,-0.09658389,0.044623174,-0.0006505127,0.011619388,-0.0014873671,0.0140303625,0.48795134,-1.3713524,1.8912185,-2.0885293,-1.571637,2.463243,-0.15587945,0.09817905,-0.12241442,0.030876065,-0.009872701,-0.16982847,-0.19153613,0.21068975,-9.442732,0.83365434,47.703007,-1.2911311,-2.4815705,-3.2085502,-0.07771653,-0.067557946,-0.10285857,28.5,29.875,28.8125,32.625,35.0625,36.1875
0.22205167,0.12354802,-1.0058342,-0.81058055,-0.0006206772,0.041376814,-0.17140056,-0.3999497,-0.36389318,0.060008075,-3.0776086,0.6250724,0.00014452156,-0.09754348,0.044337664,-0.00046330423,0.01179034,-0.000768767,0.017446069,0.48767582,-1.3711116,1.890932,-2.0884812,-1.5716614,2.4629052,-0.15588836,0.09977868,-0.12482211,0.031121308,-0.010369641,-0.1732509,-0.17238252,0.24899697,-9.385271,0.80456203,47.691364,-1.3017683,-2.4864638,-3.0777788,-0.04954058,-0.054990984,-0.04980433,28.5,29.875,28.8125,32.625,35.0625,36.1875
0.22405176,0.846661,-0.4969523,-0.71444494,-0.0089650545,0.04075262,-0.18403514,-0.4001771,-0.36380774,0.060029346,-3.0776234,0.6251567,0.0002013269,-0.09895027,0.04541431,0.00031996562,0.0106261,9.861237e-05,0.009384681,0.48732743,-1.37092,1.8906444,-2.0884335,-1.5716609,2.4626076,-0.15927522,0.0987323,-0.12545748,0.031490244,-0.009738599,-0.16857816,-0.17238252,0.19153613,-9.423578,0.8851263,47.70659,-1.0491698,-2.4450216,-3.2797742,-0.029428795,-0.07501334,-0.06641379,28.5,29.875,28.8125,32.625,35.0625,36.1875
0.22605209,0.9227862,-0.8499129,-0.87010705,0.004136772,0.023426268,-0.16891605,-0.40038455,-0.36369622,0.060024865,-3.077557,0.6251659,0.00022910802,-0.09991401,0.046982594,-0.001516908,0.012998604,-0.0027376087,0.00038199988,0.48699096,-1.3707143,1.8903936,-2.088362,-1.5717214,2.4622855,-0.16223556,0.10253389,-0.12588176,0.03172528,-0.010510608,-0.16253324,0.0,0.15322891,-9.481039,0.78888994,47.678825,-1.1102654,-2.4097793,-3.3057094,-0.03566289,-0.05175376,-0.12039691,28.5,29.875,28.8125,32.625,35.0625,36.1875
0.22805218,1.0440487,-0.71477413,-0.8485415,0.002190034,0.015179769,-0.18148533,-0.40057766,-0.3635981,0.060021948,-3.0775535,0.6250905,0.0002510094,-0.09986246,0.047781527,-0.000374015,0.012672061,-0.0015071398,-0.006512168,0.48666736,-1.3705353,1.8901786,-2.0883253,-1.5717453,2.4619155,-0.16329205,0.099265695,-0.124820545,0.032691862,-0.01079202,-0.156696,-0.019153614,0.05746084,-9.423578,0.83589023,47.686886,-0.945752,-2.4916878,-3.3909693,-0.034410827,-0.053480793,-0.20854405,28.5,29.875,28.8125,32.625,35.0625,36.1875
0.23005222,0.59616894,-0.6579464,-0.83405757,0.002429333,0.0030682047,-0.16840704,-0.4007772,-0.36350927,0.060019854,-3.0775092,0.62523884,0.00019202592,-0.101129286,0.04779193,-0.00088602206,0.012458946,-0.003930231,-0.015339953,0.48633128,-1.3703179,1.8899025,-2.088229,-1.5717329,2.4616778,-0.16518849,0.102983095,-0.1285794,0.034776524,-0.009478095,-0.14976525,0.0,0.15322891,-9.32781,0.8291774,47.65912,-0.9818064,-2.3834841,-3.2958665,-0.037002504,-0.03452344,-0.3125813,28.5,29.875,28.8125,32.625,35.0625,36.1875
0.23205088,0.8115686,-0.3501139,-0.97130144,0.011873373,0.014573796,-0.17180334,-0.40098464,-0.36338556,0.060000278,-3.0774283,0.62533927,0.00016695473,-0.100557745,0.04925999,-0.0011731486,0.0129029425,-0.005664705,-0.020757692,0.48595968,-1.3701023,1.8896765,-2.0881689,-1.5717691,2.4613793,-0.16733365,0.10122404,-0.12607378,0.03576413,-0.009061315,-0.1464945,0.05746084,0.15322891,-9.404425,0.83365434,47.666286,-1.1193551,-2.4612718,-3.5773113,-0.04359255,-0.05974694,-0.36891568,28.5,29.875,28.8125,32.625,35.0625,36.1875
0.23405185,0.8450496,-0.24647844,-0.8301178,0.022320101,0.017280834,-0.17910267,-0.40118507,-0.3633029,0.06000961,-3.0774038,0.62537175,0.00016132093,-0.10132315,0.04826645,-0.0008349582,0.012476617,-0.004762895,-0.02194125,0.48564857,-1.3698975,1.8893894,-2.088073,-1.571781,2.4610918,-0.16624351,0.10305804,-0.12908898,0.035947,-0.009115147,-0.14421916,0.21068975,0.15322891,-9.481039,0.85826975,47.677036,-1.1023296,-2.3824005,-3.3889065,-0.04779339,-0.0655406,-0.46492514,28.5,29.875,28.8125,32.625,35.0625,36.1875
0.23605205,0.36129272,-0.58687264,-0.73172253,0.022051077,0.017123727,-0.16429238,-0.40140003,-0.36321318,0.05999091,-3.0773804,0.62540185,0.00015560497,-0.1024667,0.048560485,-0.00012446199,0.011390627,-0.0049868594,-0.020258551,0.48531243,-1.369645,1.8891252,-2.0880482,-1.5717925,2.4607775,-0.16833693,0.1033368,-0.13146304,0.037721317,-0.008059218,-0.14799675,0.19153613,0.076614454,-9.385271,0.9321212,47.701214,-1.0485271,-2.4053907,-3.4042988,-0.033290945,-0.06014877,-0.49459407,28.5,29.875,28.8125,32.625,35.0625,36.1875
0.23805211,0.36393473,-0.14872429,-0.8451799,0.013699784,0.013951321,-0.17279068,-0.40159336,-0.36310145,0.060007583,-3.07731,0.6254383,0.00018373382,-0.103373714,0.049542837,0.00016526214,0.011506422,-0.006019212,-0.0120897535,0.48498848,-1.3694887,1.8888739,-2.087928,-1.5718521,2.4604855,-0.17095995,0.1035763,-0.13290635,0.039867554,-0.00769371,-0.15878883,0.17238252,0.1340753,-9.385271,0.89631605,47.65464,-0.985728,-2.3076098,-3.3957062,-0.072545245,-0.088034794,-0.4557438,28.5,29.875,28.8125,32.625,35.0625,36.1875
0.24005204,0.40475962,0.079319455,-0.98503894,0.013594332,0.011245552,-0.17336372,-0.4017665,-0.36301193,0.059973825,-3.0772738,0.6253856,6.634418e-05,-0.103736624,0.05088431,-0.0013124533,0.014651537,-0.009850435,-0.0017211871,0.4846764,-1.3692476,1.8886465,-2.087855,-1.5718411,2.4601452,-0.17284958,0.107033305,-0.13432762,0.042676676,-0.008715767,-0.17104317,0.21068975,0.1340753,-9.557653,0.8672237,47.666286,-0.9634632,-2.3021903,-3.3764205,-0.09507744,-0.06598,-0.33731854,28.5,29.875,28.8125,32.625,35.0625,36.1875
0.2420525,0.08596175,-0.112494424,-0.83412844,0.0022253855,0.016638944,-0.17578417,-0.4019833,-0.36289307,0.059968792,-3.0772145,0.6253475,2.5824214e-05,-0.10420336,0.051646195,-1.29555565e-05,0.014406967,-0.009790878,0.006738099,0.48430473,-1.3690199,1.888359,-2.087734,-1.5718764,2.4597576,-0.17457378,0.105029926,-0.13561425,0.045778625,-0.008548251,-0.18122667,-0.038307227,0.11492168,-9.5385,0.8717007,47.664497,-0.9773398,-2.2830534,-3.340588,-0.13210103,-0.09786254,-0.22138175,28.5,29.875,28.8125,32.625,35.0625,36.1875
0.24405186,-0.60600346,-0.83717465,-0.8937707,0.0074162637,0.030186819,-0.1634617,-0.40221947,-0.36281362,0.060011182,-3.0772583,0.62541044,7.0334565e-05,-0.10444247,0.05133336,-0.0013181263,0.015392737,-0.0120158885,0.012631214,0.4839455,-1.3688385,1.8880247,-2.0876386,-1.5718521,2.4594321,-0.17427337,0.108950056,-0.13740909,0.046076134,-0.008388754,-0.18681899,-0.19153613,0.15322891,-9.519346,0.8918391,47.695843,-1.0171306,-2.3344777,-3.3894787,-0.15942748,-0.08511699,-0.1604065,28.5,29.875,28.8125,32.625,35.0625,36.1875
0.24605206,-0.8053887,-1.0025725,-0.9993176,0.006690179,0.058077123,-0.16445263,-0.4024185,-0.36272672,0.060012918,-3.0772617,0.62535346,5.4158492e-05,-0.10490152,0.05126795,-0.0005610092,0.015087385,-0.010723489,0.009142714,0.48362228,-1.3686346,1.887761,-2.0875661,-1.5718526,2.459073,-0.1742904,0.10827466,-0.13843922,0.046498053,-0.008725726,-0.1833464,-0.34476504,0.11492168,-9.672575,0.9164598,47.699425,-0.99913526,-2.3871155,-3.2944195,-0.18135192,-0.08091456,-0.1719768,28.5,29.875,28.8125,32.625,35.0625,36.1875
0.2480522,-1.0594649,-0.84023964,-0.8153154,-0.009166735,0.09148683,-0.17470577,-0.40260288,-0.36260873,0.05999452,-3.0771968,0.62530655,-2.8200648e-05,-0.105081655,0.05186356,-0.0009054967,0.016078448,-0.013269717,0.0006739647,0.4832743,-1.3684295,1.8875335,-2.0874574,-1.5718764,2.4587042,-0.17556983,0.10970793,-0.14003728,0.049377993,-0.008431485,-0.17615649,-0.47884035,0.095768064,-9.653421,0.86945957,47.698532,-1.0064511,-2.3832755,-3.2657723,-0.24079326,-0.1052686,-0.22474825,28.5,29.875,28.8125,32.625,35.0625,36.1875
0.25005212,-1.3252447,-0.79329014,-0.73355305,-0.01705785,0.09707564,-0.17529227,-0.40281725,-0.3625211,0.06000501,-3.0771787,0.62522674,-3.558084e-05,-0.1069403,0.05119332,0.00022774201,0.01448555,-0.011620716,-0.004709967,0.4829509,-1.3682009,1.8872098,-2.0873377,-1.5719002,2.4583335,-0.17640504,0.11108006,-0.14446698,0.050231725,-0.0078002685,-0.17160733,-0.51714754,0.1340753,-9.576807,0.8851263,47.683304,-1.1321423,-2.3581166,-3.2227077,-0.26834983,-0.11487884,-0.2996113,28.5,29.875,28.8125,32.625,35.0625,36.1875
0.2520524,-1.4404818,-0.89817846,-0.7964289,-0.005194679,0.09133239,-0.16669449,-0.4030147,-0.36240906,0.06000045,-3.0771248,0.6253109,-0.00013651075,-0.10702349,0.051615443,-0.0004064844,0.01474874,-0.012134184,-0.0072905184,0.4825795,-1.3679966,1.8869466,-2.0872066,-1.5718883,2.4580216,-0.17710787,0.11179593,-0.14369424,0.04932164,-0.0078123035,-0.16972917,-0.6512228,0.17238252,-9.615114,0.82694155,47.685097,-1.1829188,-2.318455,-3.2351184,-0.31124297,-0.12788375,-0.3259946,28.5,29.875,28.8125,32.625,35.0625,36.1875
0.25405243,-0.99525654,-1.032087,-0.6161514,-0.00325935,0.10066776,-0.17346507,-0.403231,-0.3623101,0.060010605,-3.0770931,0.6253225,-0.000103855426,-0.10932426,0.05227954,-0.00034732846,0.014178629,-0.010861293,-0.0091210725,0.4822433,-1.3677917,1.88666,-2.0871232,-1.5719246,2.457697,-0.18012574,0.11383508,-0.1460359,0.04822238,-0.007912694,-0.17091498,-0.7278373,0.17238252,-9.481039,0.83589023,47.687782,-1.2552761,-2.3846638,-3.1401649,-0.3150322,-0.10667317,-0.35731646,28.5,29.875,28.8125,32.625,35.0625,36.1875
0.25605184,-0.695218,-0.49056748,-0.55703914,-0.010585664,0.10102309,-0.1864356,-0.40345898,-0.36221936,0.06000543,-3.0770662,0.6253316,-0.00012383304,-0.11066057,0.052306436,0.00013923015,0.013537541,-0.008875766,-0.005073994,0.48189571,-1.3675272,1.8863372,-2.0870397,-1.5719365,2.4573586,-0.18103798,0.11436999,-0.14756607,0.047151897,-0.008285987,-0.17587246,-0.53630114,0.11492168,-9.500193,0.88289046,47.67345,-1.289192,-2.3611062,-3.192061,-0.31742936,-0.14195281,-0.36470056,28.5,29.875,28.8125,32.625,35.0625,36.1875
0.25805196,-0.84895283,-0.5177202,-0.79757464,0.0022022515,0.07825455,-0.18108113,-0.40366706,-0.36210427,0.059985574,-3.0770068,0.6253518,-0.00020075165,-0.11126526,0.051320408,0.00025922235,0.012578872,-0.0071760225,0.0030624098,0.48152488,-1.3672867,1.8860735,-2.0869448,-1.5719484,2.4570081,-0.17985198,0.11563874,-0.14896575,0.045318782,-0.008256824,-0.18282156,-0.5554548,0.05746084,-9.576807,0.8784135,47.64389,-1.3294659,-2.3847666,-3.1947422,-0.32351005,-0.13680732,-0.32451838,28.5,29.875,28.8125,32.625,35.0625,36.1875
0.26005203,-1.2319639,-1.1444954,-0.5177912,0.010919013,0.072464734,-0.17167126,-0.4039541,-0.36201397,0.060044866,-3.077062,0.6253165,-2.0968137e-05,-0.112374246,0.05147306,-0.00011238735,0.01367471,-0.006333717,0.013760505,0.4811415,-1.3670814,1.8856772,-2.0868728,-1.5719851,2.456596,-0.18014197,0.11790279,-0.15065798,0.044488993,-0.009618053,-0.19380619,-0.51714754,0.11492168,-9.423578,0.86498255,47.664497,-1.3583763,-2.4538624,-3.0522842,-0.31413075,-0.14752276,-0.18658063,28.5,29.875,28.8125,32.625,35.0625,36.1875
0.26205418,-0.643943,-0.44172683,-0.20713446,0.0024132098,0.09302332,-0.17634326,-0.4041622,-0.36193946,0.06004243,-3.0770986,0.6251858,-6.360573e-05,-0.11371393,0.05131637,0.00044350256,0.013555181,-0.0049572485,0.01997488,0.48081732,-1.3668411,1.8853792,-2.0868008,-1.5719613,2.4561856,-0.18064049,0.11910558,-0.15345529,0.04480328,-0.010167856,-0.20051639,-0.5554548,0.05746084,-9.404425,0.8605109,47.666286,-1.4038516,-2.4499764,-3.1261778,-0.32652885,-0.1369443,-0.09832078,28.5,29.875,28.8125,32.625,35.0625,36.1875
0.2640526,-0.7379811,-0.14462224,-0.4251067,0.0105944695,0.08651898,-0.18772465,-0.40437484,-0.3617951,0.05999605,-3.076985,0.6251844,-0.00019276759,-0.1137644,0.052403584,-0.0023499227,0.014355189,-0.00876257,0.017042754,0.4804084,-1.3665631,1.8851284,-2.086694,-1.571997,2.4557905,-0.18306196,0.12307875,-0.15135835,0.042463288,-0.009150195,-0.20000717,-0.4213795,0.15322891,-9.32781,0.85826975,47.66987,-1.4660414,-2.5796688,-3.2470546,-0.33114702,-0.13608816,-0.06754719,28.5,29.875,28.8125,32.625,35.0625,36.1875
0.26605186,0.2556444,0.043537635,-0.32777405,-0.0051249005,0.095078975,-0.19638075,-0.40462634,-0.36170658,0.060028017,-3.077021,0.6251378,-5.434382e-05,-0.1161633,0.05303442,0.00016272967,0.012260316,-0.002379576,0.008795923,0.48005974,-1.3663604,1.8848056,-2.0866592,-1.5720333,2.4554083,-0.18547435,0.11950743,-0.15235652,0.040405232,-0.010228502,-0.1941708,-0.36391866,0.076614454,-9.442732,0.9254084,47.672558,-1.3848807,-2.3905323,-3.2714105,-0.32005477,-0.14706033,-0.12937018,28.5,29.875,28.8125,32.625,35.0625,36.1875
0.268052,-0.37676817,-0.40135345,0.01691358,-0.02429205,0.07057249,-0.19035874,-0.4048765,-0.36159873,0.060038142,-3.0770078,0.6252386,-7.240894e-05,-0.11731871,0.0545563,-0.0018102917,0.014130336,-0.0051134867,-0.003286373,0.47965026,-1.3661186,1.8844718,-2.0865633,-1.5720214,2.4550636,-0.18871166,0.123665385,-0.15276931,0.039959755,-0.010621997,-0.18532395,-0.38307226,0.0,-9.3661175,0.80679786,47.698532,-1.2097292,-2.6732948,-3.3442981,-0.30104798,-0.13581306,-0.20025498,28.5,29.875,28.8125,32.625,35.0625,36.1875
0.270052,-0.24967171,-0.47584605,0.13607173,-0.0137393605,0.05658732,-0.18002884,-0.40511906,-0.36147827,0.06003063,-3.0769668,0.6252309,-6.634983e-05,-0.11940379,0.055426728,-0.0008963907,0.012569802,-0.0022833329,-0.012971375,0.47925577,-1.3658669,1.8841718,-2.0864923,-1.5720571,2.4546697,-0.19195858,0.12294648,-0.15364525,0.038321447,-0.010549369,-0.17888555,-0.30645782,0.038307227,-9.251195,0.86945957,47.670765,-1.2415125,-2.4534342,-3.3476253,-0.28377837,-0.14109354,-0.30330452,28.5,29.875,28.8125,32.625,35.0625,36.1875
0.27205238,-0.33827227,0.29750538,-0.107756935,0.00082972564,0.032696098,-0.19221564,-0.40535778,-0.3613789,0.060038853,-3.076929,0.62526274,-7.756181e-06,-0.119654045,0.055119824,-0.00097432255,0.0124404095,-0.002466632,-0.018022718,0.47890806,-1.3656262,1.883849,-2.0864203,-1.5721053,2.454347,-0.19169082,0.124033645,-0.15484229,0.03852893,-0.010347138,-0.17356654,-0.2681506,-0.038307227,-9.251195,0.8806493,47.63852,-1.3097644,-2.4796965,-3.4129,-0.27466542,-0.13851565,-0.41342598,28.5,29.875,28.8125,32.625,35.0625,36.1875
0.27405253,0.01643356,0.5923421,0.2274526,0.016692057,0.03180813,-0.1979967,-0.40560997,-0.36128774,0.06005953,-3.076961,0.62533236,7.7416546e-05,-0.12188215,0.05571468,-0.00032891435,0.011221966,0.00022896759,-0.021191971,0.47853285,-1.3654096,1.8835377,-2.0863965,-1.5721053,2.4540112,-0.19444694,0.12448675,-0.15647408,0.03675128,-0.010504779,-0.17315297,-0.17238252,-0.05746084,-9.251195,0.87617236,47.686886,-1.2474912,-2.4229398,-3.3128338,-0.25288123,-0.13527799,-0.47821683,28.5,29.875,28.8125,32.625,35.0625,36.1875
0.27605176,-0.0874919,0.74157184,0.22794765,0.031601764,0.03136921,-0.18784583,-0.4058705,-0.36115348,0.060050137,-3.0769057,0.62539196,8.1875485e-05,-0.12356561,0.056154493,-0.0011620605,0.010161364,0.0005759466,-0.014386589,0.47809997,-1.3651448,1.8832263,-2.086326,-1.572141,2.4536228,-0.19702335,0.12716357,-0.15718593,0.033963736,-0.00974719,-0.18253565,-0.17238252,-0.1340753,-9.155427,0.83365434,47.687782,-1.1983464,-2.3659534,-3.3602216,-0.22135329,-0.15448844,-0.46117634,28.5,29.875,28.8125,32.625,35.0625,36.1875
0.27805182,-0.15406778,0.6106731,0.10109995,0.052893963,0.03339175,-0.19155787,-0.40608218,-0.36104703,0.060010355,-3.0768476,0.6253298,-2.5213361e-05,-0.12586977,0.05560524,0.0014825474,0.0072003026,0.005916086,-0.0024832888,0.4777423,-1.3648452,1.8829392,-2.0862424,-1.572153,2.453234,-0.19810748,0.12509659,-0.16061552,0.033332244,-0.009616124,-0.19552162,-0.11492168,-0.15322891,-9.021352,0.8537928,47.672558,-1.1607292,-2.3901653,-3.263411,-0.19114304,-0.1634568,-0.36183202,28.5,29.875,28.8125,32.625,35.0625,36.1875
0.28005162,0.07094025,0.4387887,0.15955216,0.055255186,0.05856729,-0.19368114,-0.4063443,-0.36092353,0.060018104,-3.0768282,0.6253636,8.144019e-06,-0.12677725,0.0561293,0.00070157496,0.008269696,0.0040306123,0.006449862,0.47731924,-1.3646038,1.8826164,-2.0861704,-1.5721768,2.4528346,-0.19961408,0.12815979,-0.1628261,0.03462246,-0.009711057,-0.20596008,-0.11492168,-0.15322891,-9.040505,0.8627467,47.655537,-1.1128031,-2.3655136,-3.4059331,-0.16603592,-0.17946498,-0.22435576,28.5,29.875,28.8125,32.625,35.0625,36.1875
0.2820527,-0.3538557,0.21373892,-0.00337629,0.043225963,0.054288063,-0.18469876,-0.4066135,-0.36080793,0.06002715,-3.0768404,0.6253792,3.4773773e-05,-0.12735969,0.056976747,0.0017462247,0.0073924256,0.004831312,0.008915574,0.47688887,-1.3643523,1.8822812,-2.0861099,-1.5721768,2.4524126,-0.20168377,0.1260073,-0.16290078,0.03572365,-0.009297252,-0.21049726,-0.24899697,-0.076614454,-9.174581,0.87393653,47.666286,-1.0723255,-2.2661324,-3.294802,-0.15075886,-0.16086423,-0.14530618,28.5,29.875,28.875,32.625,35.125,36.1875
0.28405187,-0.48770505,0.45469657,-0.20818208,0.011994377,0.052415382,-0.18561693,-0.40683994,-0.36068863,0.06003055,-3.0768065,0.62529856,-3.7666161e-06,-0.12835856,0.057051104,0.0025336856,0.007083463,0.005711629,0.004256761,0.4765046,-1.3641241,1.8819703,-2.0859778,-1.5722007,2.4519825,-0.2024984,0.12619646,-0.16521221,0.03691981,-0.009434251,-0.20665152,-0.40222588,-0.05746084,-9.32781,0.842603,47.684196,-1.0781983,-2.1451206,-3.2396836,-0.14337194,-0.17277059,-0.1599074,28.5625,29.875,28.875,32.625,35.125,36.1875
0.28605208,-1.0187141,-0.7254088,-0.48330966,0.014023587,0.050512813,-0.17510173,-0.4071176,-0.3605743,0.060045954,-3.076786,0.62537473,4.5899746e-05,-0.12875691,0.057221368,0.00211964,0.008668996,0.0049813455,-0.0021736193,0.47608468,-1.363859,1.8815988,-2.0858934,-1.5722255,2.451613,-0.2023579,0.12822385,-0.16698147,0.038042407,-0.010497058,-0.2000772,-0.6512228,0.019153614,-9.442732,0.82694155,47.71286,-1.1650003,-2.2216353,-3.123878,-0.13615066,-0.18837926,-0.22760062,28.5625,29.875,28.875,32.625,35.125,36.1875
0.28805214,-0.77103466,-0.4570236,-0.66166264,-0.008788266,0.07576042,-0.182126,-0.40733406,-0.36046284,0.06002733,-3.0767224,0.62536585,-2.2851855e-05,-0.12902112,0.056782138,0.002368645,0.008405751,0.004580954,-0.005604889,0.47572237,-1.3635945,1.8812999,-2.0857852,-1.5722488,2.4512534,-0.20200348,0.1291705,-0.16900955,0.03935524,-0.010090944,-0.19629112,-0.61291564,0.038307227,-9.461885,0.8179876,47.692257,-1.4407933,-2.1784892,-3.2746174,-0.16028635,-0.19028795,-0.31808835,28.5625,29.875,28.875,32.625,35.125,36.1875
0.29005235,-0.78943825,-0.7912918,-0.8368601,-0.010505481,0.08914987,-0.18765433,-0.40758947,-0.36033356,0.060013447,-3.0767047,0.6253774,-5.5049415e-05,-0.12800045,0.056301665,0.0010775598,0.009100161,0.0018667495,-0.0061588194,0.4752819,-1.3633294,1.8810004,-2.085726,-1.5722488,2.4508226,-0.20057443,0.13134761,-0.16879259,0.039688904,-0.009467418,-0.19430943,-0.4213795,0.17238252,-9.653421,0.8627467,47.691364,-1.584454,-2.29292,-3.3051753,-0.14345396,-0.19376534,-0.38820922,28.5625,29.875,28.875,32.625,35.125,36.1875
0.2920519,-0.43495733,-0.5638531,-0.8762335,-0.024378669,0.101028934,-0.1984212,-0.40785024,-0.3602081,0.060019888,-3.076637,0.62544113,-4.1578456e-05,-0.12914512,0.05703576,0.0014897439,0.009358281,0.0024216839,-0.0072391857,0.474873,-1.3630651,1.8806418,-2.0856054,-1.572297,2.4504623,-0.20239094,0.13165708,-0.17031693,0.04051601,-0.00995919,-0.1950435,-0.36391866,0.24899697,-9.768343,0.8985519,47.687782,-1.5415912,-2.1990511,-3.2580652,-0.14568274,-0.18086502,-0.3889578,28.5625,29.875,28.875,32.625,35.125,36.1875
0.29405198,-0.77329093,-1.0516036,-0.99825704,-0.031898677,0.08641558,-0.20155431,-0.40812162,-0.36009213,0.06002109,-3.076616,0.6254548,-4.8470476e-05,-0.13033274,0.058579065,0.00028648155,0.010975294,-4.682293e-06,-0.0015715616,0.47444913,-1.3627759,1.8802708,-2.0855095,-1.5723094,2.4500499,-0.20568931,0.13468137,-0.1714696,0.041522305,-0.0103046,-0.20400767,-0.2681506,0.24899697,-9.787497,0.87617236,47.67166,-1.3766193,-2.2269773,-3.3197815,-0.14442149,-0.22212736,-0.36261442,28.5625,29.875,28.875,32.625,35.125,36.1875
0.29605216,-0.78351265,-1.2730763,-1.0191649,-0.034472276,0.06561762,-0.1916434,-0.40837225,-0.35997352,0.060005154,-3.076602,0.62544125,-8.363396e-05,-0.13078363,0.059286945,-0.0013628809,0.012515466,-0.0024963224,0.008686345,0.47403148,-1.3624984,1.8799609,-2.08545,-1.5723094,2.4496257,-0.20700213,0.13824311,-0.17199655,0.041386213,-0.010562075,-0.21557674,-0.24899697,0.2681506,-9.864111,0.9097417,47.672558,-1.3098207,-2.2604198,-3.3453774,-0.13629451,-0.21218306,-0.2198304,28.5625,29.875,28.875,32.625,35.125,36.1875
0.2980523,-0.37846798,-1.2183244,-1.2229892,-0.033149403,0.056348205,-0.1870525,-0.40865198,-0.35987705,0.060033046,-3.0766432,0.62523997,3.610918e-05,-0.13272753,0.059812106,0.0015244761,0.010878883,0.0031137592,0.014246294,0.47365594,-1.3622354,1.8795661,-2.0853784,-1.572358,2.4491196,-0.20876758,0.13418235,-0.17372313,0.041412674,-0.011667639,-0.22289984,-0.17238252,0.2681506,-9.825804,0.8672237,47.694946,-1.1956103,-2.2432497,-3.3446255,-0.12897672,-0.1923204,-0.11671017,28.5625,29.875,28.875,32.625,35.125,36.1875
0.30005234,0.13364881,-1.1161249,-1.1585388,-0.032520432,0.053336497,-0.20185515,-0.40890774,-0.35973632,0.06000575,-3.076573,0.6252432,1.7958691e-05,-0.13294318,0.060917925,-0.0007728087,0.01262539,-0.00097313675,0.01038516,0.47322607,-1.3619454,1.8792666,-2.0853179,-1.5724052,2.448701,-0.21088584,0.1383528,-0.17356353,0.041503,-0.011369021,-0.22115672,-0.11492168,0.11492168,-9.902418,0.88960326,47.67345,-1.2351956,-2.5185204,-3.397162,-0.119814456,-0.20694256,-0.099885516,28.5625,29.875,28.875,32.625,35.125,36.1875
0.30205238,-0.030423822,-1.2204492,-0.9020028,-0.026272014,0.034748536,-0.18636675,-0.4091867,-0.35962257,0.06001821,-3.0765889,0.6251944,2.7829217e-05,-0.13529173,0.06209657,-0.0010148233,0.012529573,-0.0007474153,-0.0020229353,0.472793,-1.3616687,1.8788847,-2.085222,-1.5724057,2.4482355,-0.21476725,0.14083157,-0.1759484,0.04117415,-0.011382134,-0.21262887,-0.17238253,0.1340753,-9.730036,0.9254084,47.684196,-1.1929365,-2.4348664,-3.4518666,-0.09154475,-0.18703017,-0.16260238,28.5625,29.875,28.875,32.625,35.125,36.1875
0.30405262,0.4746593,-0.5054453,-0.9859875,-0.019950187,0.032028824,-0.19243526,-0.40946284,-0.3595093,0.06003152,-3.0766056,0.6253191,4.5006876e-05,-0.13557863,0.062857725,-0.0021197507,0.012978594,-0.0028795903,-0.0120481,0.47234833,-1.3614157,1.8785375,-2.0851629,-1.5723814,2.4478667,-0.2165247,0.14279735,-0.17583995,0.041214872,-0.010796425,-0.20436294,-0.24899697,0.15322891,-9.595961,0.8918391,47.68599,-1.0942676,-2.5361757,-3.4550927,-0.0831566,-0.21890688,-0.27238336,28.5625,29.875,28.875,32.625,35.125,36.1875
0.30605194,0.3292714,-0.18226112,-1.0540192,0.000779114,0.026203828,-0.20007837,-0.40975127,-0.35938844,0.06006416,-3.0765967,0.62534034,0.00021468363,-0.13696347,0.06361114,-0.002249088,0.013110919,-0.0031447366,-0.02163475,0.47193962,-1.3611871,1.878178,-2.0851142,-1.5724534,2.4474726,-0.21887216,0.1444672,-0.17768416,0.041679136,-0.010774684,-0.19712384,-0.11492168,0.15322891,-9.691729,0.8179876,47.67166,-1.0117307,-2.5266156,-3.4019313,-0.06087155,-0.21323538,-0.38975745,28.5625,29.875,28.875,32.625,35.125,36.1875
0.30805212,0.0016006703,-0.18196131,-0.78604454,0.0056892335,0.027311169,-0.19220671,-0.41002414,-0.35924843,0.060045287,-3.0765247,0.625404,0.00015810208,-0.13749592,0.06481086,-0.0038133818,0.014790827,-0.005933629,-0.026163096,0.47148278,-1.3608737,1.8778204,-2.0850065,-1.5724772,2.4470649,-0.22107416,0.14756422,-0.17799284,0.042134114,-0.01101779,-0.19479568,-0.1340753,0.038307227,-9.615114,0.8784135,47.66271,-0.87921727,-2.5755177,-3.487311,-0.04587035,-0.22605708,-0.46525005,28.5625,29.875,28.875,32.625,35.125,36.1875
0.31005213,0.1335812,-0.007988861,-0.40702394,0.012736365,0.042407095,-0.19502762,-0.41030833,-0.35913017,0.060068376,-3.076531,0.62549734,0.0002024331,-0.13932884,0.06455258,-0.0006356368,0.010899159,-0.00070925616,-0.020398892,0.47103816,-1.3606232,1.8774484,-2.084923,-1.5724767,2.446678,-0.22274584,0.14336734,-0.18019675,0.042092007,-0.009932724,-0.20223485,-0.15322891,0.095768064,-9.442732,0.87617236,47.672558,-0.904351,-2.359369,-3.4267218,-0.014246527,-0.23177554,-0.48792234,28.5625,29.875,28.875,32.625,35.125,36.1875
0.31205273,0.12879561,0.059700016,-0.0746913,0.015957737,0.06380592,-0.20162354,-0.41058576,-0.35901472,0.06006329,-3.0765135,0.6254449,0.00020675742,-0.13888328,0.06296903,-0.0006428597,0.01078395,-0.0014148232,-0.0046430705,0.47061953,-1.360311,1.877066,-2.0848386,-1.5725011,2.446229,-0.2198102,0.1453214,-0.18284903,0.043334056,-0.009534007,-0.21505491,-0.24899697,-0.05746084,-9.346964,0.94331104,47.687782,-1.1361566,-2.4914556,-3.396483,-0.015343717,-0.24101308,-0.37193874,28.5625,29.875,28.875,32.625,35.125,36.1875
0.31405205,-0.43415964,0.31083834,-0.118251,0.03516934,0.06364756,-0.19253719,-0.41084713,-0.358887,0.060045663,-3.0765038,0.6254718,0.00013405789,-0.13864972,0.06217793,-0.00071420334,0.011321392,-0.0024123238,0.010142924,0.47016457,-1.3600225,1.8767432,-2.0847661,-1.5724767,2.4457922,-0.21811613,0.14695641,-0.18507385,0.045035314,-0.0095897745,-0.22814548,-0.19153613,-0.076614454,-9.2703495,0.88960326,47.66539,-1.3129947,-2.3779964,-3.3676345,-0.006220305,-0.26280886,-0.22529265,28.5625,29.875,28.875,32.625,35.125,36.1875
0.3160522,-0.33267576,0.0061506247,-0.014281483,0.049379233,0.07062166,-0.19203821,-0.4111266,-0.35877842,0.060064185,-3.0765295,0.62532216,0.00018368664,-0.13960047,0.061709087,-5.4751094e-05,0.010659706,-0.0022403658,0.013376275,0.4697563,-1.3597463,1.8763474,-2.0846694,-1.5725011,2.4452875,-0.21832234,0.14819686,-0.18848212,0.04673327,-0.009083152,-0.2315854,-0.22984336,-0.095768064,-9.270349,0.87617236,47.68062,-1.4844432,-2.4219317,-3.2673218,-0.010910069,-0.26549715,-0.15494087,28.5625,29.875,28.875,32.625,35.125,36.1875
0.31805214,-0.10692712,0.7106431,-0.098829925,0.039104797,0.061606526,-0.18383066,-0.4114292,-0.35864684,0.060082275,-3.0764983,0.6253202,0.00027076018,-0.14021708,0.06260829,0.00057821925,0.011450562,-0.0021292304,0.005868602,0.4693117,-1.3594592,1.8759397,-2.0845735,-1.5725611,2.444846,-0.21976584,0.14757718,-0.18967843,0.048804082,-0.009826394,-0.22551933,-0.38307226,0.05746084,-9.155427,0.8090337,47.640312,-1.5036426,-2.3748083,-3.243835,-0.0035209698,-0.26912114,-0.19292796,28.5625,29.875,28.875,32.625,35.125,36.1875
0.3200523,0.05981093,0.07711902,-0.28040957,0.049334813,0.041183595,-0.1853486,-0.41172686,-0.35853642,0.060083255,-3.0765154,0.6253661,0.00025901923,-0.1407493,0.06327797,0.00087103766,0.0130146,-0.0027489797,-0.002443211,0.46885574,-1.3591353,1.8755316,-2.0845006,-1.5725373,2.4444165,-0.22052553,0.14820631,-0.19175704,0.051532142,-0.010931352,-0.21796373,-0.34476504,-0.019153614,-9.155427,0.9097417,47.65106,-1.4718323,-2.2259371,-3.2012239,0.0013912991,-0.2757612,-0.28085533,28.5625,29.875,28.875,32.625,35.125,36.1875
0.32205242,-0.037176806,-0.12891425,-0.169956,0.017356131,0.036496144,-0.19450167,-0.4119558,-0.35839394,0.06004713,-3.0764227,0.6253109,0.00011691248,-0.14115536,0.0647468,0.0005937195,0.01516896,-0.005291365,-0.009350582,0.46843487,-1.3588352,1.8752202,-2.0843556,-1.5725621,2.4439733,-0.22274676,0.14922442,-0.19322298,0.05522295,-0.011726661,-0.21327353,-0.4213795,-0.019153614,-9.193734,0.9254084,47.657326,-1.4497039,-2.2257652,-3.2241762,-0.049869604,-0.277299,-0.35685867,28.5625,29.875,28.875,32.625,35.125,36.1875
0.32405257,-0.17098506,-0.7729401,-0.4138459,0.009543926,0.038602524,-0.18684542,-0.41229028,-0.35826364,0.060079575,-3.0764184,0.6253122,0.00025783564,-0.14133607,0.06638629,-0.0005346749,0.018457783,-0.008397277,-0.01178543,0.46796593,-1.3585348,1.8747662,-2.0842707,-1.5726222,2.443506,-0.22457132,0.15139607,-0.19393793,0.058010615,-0.013245899,-0.21265951,-0.4405331,0.076614454,-9.11712,0.99702406,47.684196,-1.461685,-2.125573,-3.253252,-0.09403622,-0.28193644,-0.42233407,28.5625,29.875,28.875,32.625,35.125,36.1875
0.32605267,-0.1046491,-0.55777836,-0.39200824,-0.004433235,0.059841555,-0.19110358,-0.41256586,-0.35811245,0.06006098,-3.0763338,0.6253655,0.00020168869,-0.14200719,0.06721047,0.0008649623,0.017459929,-0.007675254,-0.0057645394,0.4674977,-1.3582237,1.8744072,-2.0841506,-1.572658,2.443082,-0.22672336,0.14903462,-0.19478925,0.060098078,-0.012711239,-0.22083333,-0.3256114,0.095768064,-9.32781,0.8985519,47.694946,-1.449334,-2.2140284,-3.2425022,-0.12104386,-0.25898576,-0.37481254,28.5625,29.875,28.875,32.625,35.125,36.1875
0.3280517,-0.520093,-0.47425032,-0.33207378,-0.008165736,0.064918466,-0.20104441,-0.41282552,-0.357978,0.06008096,-3.0763016,0.6253145,0.00017682959,-0.14242789,0.06921432,0.0006114881,0.018813742,-0.012198473,0.0033994394,0.46706414,-1.3579836,1.8740348,-2.0839808,-1.5726818,2.442621,-0.2308189,0.14980549,-0.1964012,0.06554839,-0.011907129,-0.23409441,-0.21068975,0.15322891,-9.3661175,0.90527004,47.672558,-1.4071662,-2.156453,-3.2362533,-0.19065833,-0.27252603,-0.24738666,28.5625,29.875,28.875,32.625,35.125,36.1875
0.33005172,-0.6161717,-0.6265093,-0.21524365,-0.0051072636,0.08399385,-0.19835189,-0.4131286,-0.35785618,0.06009661,-3.0763226,0.6252367,0.00021349483,-0.14354795,0.06957589,0.00063393,0.01838616,-0.011757251,0.010200903,0.46660778,-1.3576837,1.8736166,-2.083885,-1.5726937,2.4421136,-0.2323335,0.15090467,-0.19772951,0.065166496,-0.011742507,-0.24241064,-0.49799395,0.114921674,-9.289503,0.89631605,47.64389,-1.23828,-1.9573957,-3.288045,-0.2274602,-0.2974317,-0.121099815,28.5625,29.875,28.875,32.625,35.125,36.1875
0.33205196,-1.0706129,-0.27374306,-0.37049088,0.010274337,0.07676393,-0.18588035,-0.41343808,-0.35772258,0.06009372,-3.076302,0.6252554,0.00020791373,-0.14555359,0.07085009,0.00054388074,0.018017521,-0.0120006325,0.004736414,0.46612644,-1.3573474,1.873197,-2.0837896,-1.5727056,2.4416468,-0.23629123,0.1526399,-0.19973071,0.06547751,-0.01131734,-0.2409041,-0.34476504,0.038307227,-9.442732,0.85826975,47.67345,-1.0482111,-2.0176902,-3.1489706,-0.2512299,-0.31048444,-0.08968914,28.5625,29.875,28.875,32.625,35.125,36.1875
0.3340521,-0.4919132,0.09839081,-0.40062663,0.033106487,0.06892462,-0.18897538,-0.41370678,-0.3575731,0.060078878,-3.0762422,0.6252868,0.000101525526,-0.14544392,0.07107206,0.0007860297,0.01885384,-0.013252597,-0.004610326,0.46564648,-1.3570476,1.872837,-2.0836446,-1.5727061,2.4411943,-0.23631373,0.15290414,-0.20126513,0.06825575,-0.011515193,-0.23157796,-0.38307226,-0.095768064,-9.385271,0.8627467,47.68599,-1.0357882,-1.9966913,-3.1590354,-0.29357415,-0.32447445,-0.15628606,28.5625,29.875,28.875,32.625,35.125,36.1875
0.33605236,-0.3985855,0.3964007,-0.24851206,0.04620506,0.054401677,-0.18268718,-0.41401434,-0.357458,0.060097,-3.0762668,0.625239,0.0001257414,-0.14511517,0.071025185,-0.0018604881,0.020473912,-0.016716743,-0.014489418,0.46519095,-1.3567343,1.8723944,-2.0835373,-1.5727056,2.440706,-0.23587206,0.15798505,-0.20110163,0.06684926,-0.011401389,-0.22125702,-0.45968673,-0.21068975,-9.346964,0.88960326,47.70659,-1.1708586,-2.0343063,-3.3028536,-0.32292902,-0.32038397,-0.28159067,28.5625,29.875,28.875,32.625,35.125,36.1875
0.33805257,-0.7044802,0.2294557,-0.22790869,0.043304726,0.04347465,-0.17141028,-0.4142818,-0.35729992,0.060084604,-3.0761468,0.6252951,6.468544e-05,-0.14665183,0.0704687,-0.00038729343,0.018544009,-0.012073571,-0.021623636,0.4647348,-1.3564347,1.8720244,-2.0833714,-1.5727662,2.4403005,-0.23587184,0.15691318,-0.20265777,0.064459205,-0.011787372,-0.21411994,-0.51714754,-0.17238252,-9.289502,0.86498255,47.686886,-1.2936125,-2.0459015,-3.326641,-0.30542853,-0.3341422,-0.40517727,28.5625,29.875,28.875,32.625,35.125,36.1875
0.34005165,0.3819026,-0.06851329,-0.6954116,0.047961812,0.06466049,-0.18496008,-0.4145915,-0.3571689,0.060092017,-3.0761254,0.6253097,8.50881e-05,-0.14829098,0.070788234,-0.00067489524,0.01897002,-0.011337811,-0.023976231,0.46426612,-1.3561102,1.8715924,-2.0832636,-1.57279,2.439844,-0.23720069,0.15956517,-0.20508873,0.06376562,-0.012512133,-0.2130928,-0.2873042,-0.11492168,-9.308656,0.86945957,47.684196,-1.3007013,-2.2000282,-3.3577218,-0.32611635,-0.318803,-0.4982388,28.5625,29.875,28.875,32.625,35.125,36.1875
0.34205177,-0.08676361,-0.17281075,-0.7273132,0.025965165,0.054096993,-0.18959899,-0.41486892,-0.3570137,0.060062617,-3.0760443,0.62542117,-6.377837e-05,-0.14834943,0.070626244,-0.0019364823,0.019340502,-0.012931793,-0.013206695,0.4637623,-1.3557734,1.871221,-2.08312,-1.5727776,2.4394202,-0.23703495,0.16243619,-0.20554185,0.06291306,-0.012183491,-0.22369577,-0.095768064,-0.11492168,-9.442732,0.8806493,47.66987,-1.3658233,-2.2361522,-3.3681636,-0.31526005,-0.33978212,-0.46138683,28.5625,29.875,28.875,32.625,35.125,36.1875
0.34405205,-0.4827824,-1.0558717,-0.48072228,0.010498767,0.060512036,-0.19024816,-0.41517535,-0.35687453,0.06008602,-3.076018,0.6253488,6.1570445e-06,-0.14982243,0.07188395,-0.002861413,0.020384055,-0.012405486,-0.0014125657,0.4633058,-1.3554851,1.8707908,-2.0829895,-1.5728382,2.4389222,-0.23950797,0.16456738,-0.20556459,0.0607561,-0.013387362,-0.23795903,-0.17238252,-0.05746084,-9.404425,0.89631605,47.677036,-1.430419,-2.3633394,-3.3998604,-0.3238389,-0.34845707,-0.3248183,28.5625,29.875,28.875,32.625,35.125,36.1875
0.34605205,-0.9768386,-1.215805,-0.74138796,0.0022506684,0.056837462,-0.17994282,-0.41547748,-0.35674468,0.06010779,-3.0759976,0.6252648,5.125414e-05,-0.15150851,0.07142745,-0.002991026,0.019004593,-0.010187801,0.006864321,0.4628613,-1.3551844,1.8703469,-2.0828469,-1.5728863,2.4384282,-0.24013925,0.1668203,-0.20732702,0.057628546,-0.013177785,-0.24686687,-0.17238252,0.0,-9.423578,0.9545008,47.692257,-1.4252585,-2.3491385,-3.3596375,-0.29201964,-0.33845937,-0.2165806,28.5625,29.875,28.875,32.625,35.125,36.1875
0.34805217,-1.0888321,-1.475381,-0.8017861,-0.008875793,0.06806733,-0.1714797,-0.41576648,-0.3565901,0.060082745,-3.0759277,0.62530977,-7.050974e-05,-0.15267701,0.07108871,-0.0021640433,0.019026179,-0.008369201,0.004685488,0.4623575,-1.3548365,1.8699516,-2.0827029,-1.5728868,2.4379616,-0.23987502,0.16765352,-0.2104018,0.058254242,-0.014042142,-0.24441873,-0.21068975,0.13407528,-9.461885,0.9298854,47.694054,-1.3725659,-2.388489,-3.2458363,-0.30609488,-0.3399401,-0.19693393,28.5625,29.875,28.875,32.625,35.125,36.1875
0.35005227,-0.74050575,-1.7278838,-0.64453614,-0.021360803,0.069968365,-0.1735181,-0.41606107,-0.35643762,0.06007273,-3.075864,0.625243,-7.41518e-05,-0.15491292,0.07152884,-0.003055128,0.01770916,-0.006486128,-0.0046447692,0.46188888,-1.3545119,1.8695563,-2.0825846,-1.5729464,2.4374597,-0.2425434,0.17065588,-0.21099533,0.053565536,-0.013721869,-0.23775645,-0.34476507,0.24899697,-9.404425,1.0149267,47.699425,-1.4287341,-2.1935122,-3.4692764,-0.27423784,-0.33778057,-0.2801832,28.5625,29.875,28.875,32.625,35.125,36.1875
0.3520524,-0.36779234,-1.2256935,-0.82213676,-0.02693353,0.05673944,-0.18110663,-0.4164202,-0.35629365,0.060091116,-3.075856,0.6254206,3.8838647e-05,-0.15867628,0.07291791,-0.00020973978,0.014715371,0.0014139593,-0.015095402,0.46135905,-1.3541774,1.8691005,-2.082538,-1.5729707,2.437042,-0.24734712,0.16703282,-0.2123662,0.050155744,-0.014548877,-0.23210794,-0.2873042,0.30645782,-9.385271,0.8918391,47.692257,-1.2830429,-2.2727232,-3.3994493,-0.20680426,-0.34851944,-0.36311603,28.5625,29.875,28.875,32.625,35.125,36.1875
0.35405475,-0.27803916,-1.4908655,-0.9446783,-0.03153606,0.04594326,-0.19076113,-0.41671374,-0.35613164,0.060071923,-3.0757794,0.6254437,-4.5869798e-05,-0.1605311,0.07327954,-0.00014995209,0.013365626,0.0024771811,-0.016845392,0.46085414,-1.3538412,1.8687061,-2.0823948,-1.5729946,2.4365616,-0.24978337,0.16871224,-0.21428192,0.04882297,-0.01384371,-0.23279443,-0.34476504,0.30645782,-9.557653,0.90750587,47.657326,-1.1804563,-2.224559,-3.4616609,-0.18230507,-0.34065825,-0.4062522,28.5625,29.875,28.875,32.625,35.125,36.1875
0.35605198,-0.6292315,-1.739102,-0.87082773,-0.043700278,0.039591394,-0.18623018,-0.41701907,-0.35599864,0.06007883,-3.075753,0.6253362,8.152774e-06,-0.16064532,0.073191285,-0.00028604708,0.014476876,0.0015935517,-0.007735291,0.46041045,-1.3535168,1.8682746,-2.0822866,-1.5730547,2.4360545,-0.24918857,0.1701962,-0.21618839,0.050493892,-0.014463968,-0.24130706,-0.36391866,0.36391866,-9.5385,0.90750587,47.677036,-1.1434854,-2.2223997,-3.4713156,-0.18784718,-0.34531957,-0.37014115,28.5625,29.875,28.875,32.625,35.125,36.1875
0.3580517,-0.6500474,-1.4057603,-0.6269089,-0.041768294,0.050526634,-0.19191958,-0.41735527,-0.3558613,0.06008521,-3.0757668,0.62540793,-1.9831623e-06,-0.16297172,0.072461076,0.0007670913,0.012009233,0.005281163,0.004865538,0.4598826,-1.3531686,1.8678182,-2.0821917,-1.5730304,2.4355698,-0.25004932,0.17142135,-0.21961072,0.048257515,-0.01392552,-0.25476927,-0.34476507,0.2681506,-9.423578,0.90750587,47.65643,-1.2362761,-2.2439952,-3.448168,-0.17971253,-0.35622108,-0.20864949,28.5625,29.875,28.875,32.625,35.125,36.1875
0.36005166,-0.6146811,-1.3927896,-0.89143515,-0.01524097,0.07323573,-0.17903449,-0.41770217,-0.3556997,0.060069118,-3.0757217,0.6254544,1.4737865e-05,-0.16457908,0.07262816,0.0014110564,0.010352209,0.0077479905,0.010010109,0.45934182,-1.3527849,1.8673753,-2.0821207,-1.5730661,2.435064,-0.2517063,0.17152937,-0.22084813,0.046408024,-0.013556478,-0.26157153,-0.51714754,0.21068975,-9.461885,0.9231726,47.66091,-1.2494951,-2.1341166,-3.3772655,-0.1270516,-0.36485404,-0.1121266,28.5625,29.875,28.875,32.625,35.125,36.1875
0.36205184,-0.73524004,-0.48041555,-0.6235725,-0.026910314,0.0936062,-0.19107643,-0.41800335,-0.35558093,0.06008192,-3.0757701,0.6252989,1.2136325e-05,-0.16408625,0.07240456,0.0007378474,0.010793191,0.004690677,0.007194525,0.4588825,-1.3524721,1.8669437,-2.082012,-1.5730537,2.4345016,-0.25133786,0.17352903,-0.22233085,0.048828777,-0.0125858635,-0.25839016,-0.53630114,0.34476504,-9.557653,0.8873621,47.699425,-1.063579,-2.374284,-3.383569,-0.091618374,-0.38780248,-0.10017067,28.5625,29.875,28.875,32.625,35.125,36.1875
0.36405218,-1.3074491,-0.981138,-1.0951787,-0.00031762104,0.08103227,-0.17758834,-0.4183454,-0.35542837,0.060091387,-3.0757167,0.62540394,6.869977e-05,-0.16567218,0.07294163,0.0007676267,0.011079715,0.004356956,-0.0052129854,0.4583697,-1.352124,1.8664774,-2.0819037,-1.5731024,2.4340615,-0.25331888,0.17585792,-0.22556905,0.050170578,-0.012678376,-0.24796218,-0.40222588,0.1340753,-9.595961,0.90750587,47.672558,-1.2159038,-2.1792836,-3.4010649,-0.09764878,-0.37669808,-0.20434162,28.5625,29.875,28.875,32.625,35.125,36.1875
0.36605203,-0.5370469,-0.28997755,-0.6441699,-0.010242116,0.09552412,-0.17156811,-0.41866717,-0.35528663,0.060079303,-3.0756826,0.6254048,5.8709866e-05,-0.16610071,0.07325103,0.0011338613,0.011402699,0.0050099385,-0.016604496,0.45787725,-1.3517526,1.8660344,-2.0818079,-1.5731262,2.4335742,-0.25366864,0.17573284,-0.22643477,0.050735135,-0.013244074,-0.23691814,-0.7278373,0.095768064,-9.519346,0.9254084,47.66271,-1.2780097,-2.2005062,-3.3940449,-0.075283766,-0.39713976,-0.35024726,28.5625,29.875,28.875,32.625,35.125,36.1875
0.36805218,-1.4968436,-0.3961445,-0.66951525,0.0027723445,0.0712641,-0.17117342,-0.41903302,-0.35512674,0.0600988,-3.07566,0.625556,0.00016300028,-0.16620427,0.07370682,0.000106833286,0.01254559,0.0032970323,-0.022159288,0.45732552,-1.3514162,1.8655671,-2.0817354,-1.5731624,2.43312,-0.2541642,0.17793222,-0.22687973,0.051020086,-0.013491203,-0.23185849,-0.5746084,-0.05746084,-9.481039,0.9030289,47.639416,-1.4394372,-2.2225645,-3.3677645,-0.06221728,-0.40949753,-0.4610505,28.5625,29.875,28.875,32.625,35.125,36.1875
0.3700522,-0.4957892,0.4257489,-0.8714723,0.02723412,0.07518003,-0.18671528,-0.41935447,-0.35499313,0.060105212,-3.075649,0.6256448,0.00017441476,-0.16627306,0.073562376,-0.00029463164,0.013735096,0.002561256,-0.014701989,0.4568336,-1.3510798,1.8651241,-2.08164,-1.5731629,2.4326851,-0.2533357,0.17972565,-0.22838904,0.05190164,-0.014245518,-0.23848444,-0.34476507,-0.19153613,-9.461885,0.9231726,47.66271,-1.5782523,-2.3258274,-3.423729,-0.052971408,-0.39209765,-0.47084585,28.5625,29.875,28.875,32.625,35.125,36.1875
0.37205234,-0.5479296,0.54943764,-0.6175849,0.043904882,0.062917955,-0.17496292,-0.41969776,-0.3548172,0.06008262,-3.0755703,0.6257351,0.00017256352,-0.16740878,0.07377291,0.0005037368,0.01324866,0.0043959585,0.0002412628,0.45628145,-1.3506962,1.8646926,-2.081556,-1.5732106,2.4321997,-0.25418562,0.17955309,-0.23003173,0.051799703,-0.014659415,-0.25427547,-0.2681506,-0.2681506,-9.442732,0.900793,47.629562,-1.5201433,-2.1880193,-3.4241505,-0.018815162,-0.4084123,-0.34047955,28.5625,29.875,28.875,32.625,35.125,36.1875
0.3740527,0.035957847,0.18994376,-0.29267314,0.054448042,0.07325719,-0.17871374,-0.42000437,-0.35468233,0.060058128,-3.0755458,0.6256296,7.684276e-05,-0.16906074,0.07560862,-0.00027042854,0.014473641,0.0027047826,0.007780711,0.4558001,-1.3502994,1.8642381,-2.081424,-1.5732106,2.431656,-0.25822255,0.18206795,-0.23163363,0.052911088,-0.015056875,-0.2658488,-0.3256114,-0.24899697,-9.346964,0.8985519,47.642998,-1.3417863,-2.3452284,-3.44984,-0.0039939424,-0.40083832,-0.20930648,28.5625,29.875,28.875,32.625,35.125,36.1875
