Tylouw/Master_Thesis_Code/training_data/batch_1/rect_rod_t0.3/sample_33_session_2.csv
timestamp[s],tcp_force_x[N],tcp_force_y[N],tcp_force_z[N],tcp_force_rx[Nm?],tcp_force_ry[Nm?],tcp_force_rz[Nm?],tcp_pose_x[m],tcp_pose_y[m],tcp_pose_z[m],tcp_pose_rx[rot_vec_x],tcp_pose_ry[rot_vec_y],tcp_pose_rz[rot_vec_z],tcp_velo_x[m/s],tcp_velo_y[m/s],tcp_velo_z[m/s],tcp_velo_rx[rot_vec_x/s],tcp_velo_ry[rot_vec_y/s],tcp_velo_rz[rot_vec_z/s],q1[rad],q2[rad],q3[rad],q4[rad],q5[rad],q6[rad],qd1[rad/s],qd2[rad/s],qd3[rad/s],qd4[rad/s],qd5[rad/s],qd6[rad/s],tool_acc_x,tool_acc_y,tool_acc_z,current_of_whole_robot[A],voltage_of_whole_robot[V],current_J1[A],current_J2[A],current_J3[A],current_J4[A],current_J5[A],current_J6[A],temp_J1[C],temp_J2[C],temp_J3[C],temp_J4[C],temp_J5[C],temp_J6[C]
7.5798016e-07,0.017142497,-0.37750688,0.81430227,-0.0010096531,-0.0136744175,-0.008490324,-0.38934147,-0.36873856,0.060022824,-3.0787473,0.6248603,0.00027560367,0.0015362096,0.0008681749,-0.0019116453,0.0020685026,-0.0038562557,2.7583812e-05,0.5050688,-1.3816555,1.904188,-2.0919397,-1.5708655,2.4800134,-6.3115374e-05,0.0010702224,0.0030201124,0.00028507653,6.293869e-05,-9.188405e-05,0.076614454,0.15322891,-8.695741,0.78217715,47.731667,-0.2906925,-3.1067667,-2.2737322,-0.19310981,0.096768975,0.021438127,28.3125,29.6875,28.75,32.5,35.0,36.0625
0.002057187,-0.008486072,0.037665386,0.9450893,-0.008673584,-0.007979982,-0.013259898,-0.3893397,-0.36872774,0.06002713,-3.0787508,0.62493765,0.00028156437,-0.00064411934,-0.0003492843,-0.0021712978,-0.0016040651,0.0027207327,2.846837e-05,0.5050448,-1.3816911,1.9042238,-2.091955,-1.5708536,2.4800372,-6.1673585e-05,0.0024423741,0.004300556,-0.00990041,7.3662704e-05,-9.056315e-05,0.076614454,0.15322891,-8.6574335,0.7620334,47.705692,-0.24770842,-2.9573672,-2.3545766,-0.1381079,0.07337113,0.013777125,28.3125,29.6875,28.75,32.5,35.0,36.0625
0.004056294,0.13570045,-0.07568877,0.9799058,-0.00434749,-0.0021234066,-0.01114915,-0.38932732,-0.36873245,0.06002225,-3.0787327,0.6249529,0.0002257348,-0.0010239612,-0.00056135125,-0.0019706197,-0.0019950257,0.0034235138,3.836969e-05,0.50505686,-1.3816789,1.9042124,-2.0919192,-1.5708417,2.480061,-6.029636e-05,0.0026687616,0.0036664144,-0.010296864,7.341755e-05,-9.875166e-05,0.038307227,0.24899697,-8.542512,0.73741806,47.701214,-0.21509586,-3.3828168,-2.5865357,-0.061661236,0.07138254,0.016936257,28.3125,29.6875,28.75,32.5,35.0,36.0625
0.006052795,0.4935123,0.52264565,0.9491389,0.0013008144,-0.009645241,-0.015297257,-0.38935047,-0.36872223,0.06003292,-3.0787332,0.624934,0.00027725965,-0.00033770106,-0.00018002825,-0.0014006504,-0.00071171694,0.0011218181,4.1229396e-05,0.5050329,-1.3816793,1.904188,-2.0919173,-1.5708655,2.4800253,-5.8979258e-05,0.0017849099,0.0023071747,-0.0054185,7.248146e-05,-0.000100393976,0.038307227,0.11492168,-8.6574335,0.75084364,47.707485,-0.26104754,-3.2617583,-2.5317693,-0.076650575,0.090217695,0.025211625,28.3125,29.6875,28.75,32.5,35.0,36.0625
0.008052543,0.65519243,0.9645414,0.5118675,0.037771404,-0.026986592,-0.012430905,-0.38931563,-0.368726,0.059987966,-3.0787168,0.6249115,0.00018149595,-6.778347e-05,-2.9838735e-05,-0.00032395156,-0.00046795074,0.0006938708,4.1152813e-05,0.50505686,-1.3816439,1.9042591,-2.091964,-1.5708417,2.4800372,-5.7718404e-05,6.479062e-05,0.00111788,-0.0020166107,7.152464e-05,-9.920783e-05,-0.019153614,0.17238252,-8.810662,0.78217715,47.701214,-0.27540058,-3.1781485,-2.4514089,-0.10365821,0.09114342,0.0045050047,28.3125,29.6875,28.75,32.5,35.0,36.0625
0.010051827,1.2636462,1.1469299,0.22650625,0.032774772,-0.010102932,-0.018447831,-0.38932383,-0.36872336,0.060004428,-3.0787232,0.6249512,0.00020787922,0.0012412483,0.00070492754,-0.0006735586,0.0018475038,-0.0034688555,2.8200393e-05,0.5050448,-1.3816679,1.9042467,-2.0919497,-1.5708417,2.4800491,-6.8902234e-05,8.692489e-07,0.00082812144,0.0031004336,7.0589944e-05,-9.787209e-05,-0.019153614,0.15322891,-9.021352,0.67475104,47.711063,-0.8118026,-2.8227966,-2.837791,-0.1317676,0.06649346,-0.054307457,28.3125,29.6875,28.75,32.5,35.0,36.0625
0.012052025,0.15953662,0.23202452,0.098283805,0.0076673958,-0.009635332,-0.010914297,-0.38933533,-0.3687005,0.05998547,-3.0786629,0.6250178,0.00012310008,-0.0011292864,0.0023533993,-0.00013663454,0.001312278,-0.0024863558,-0.0048672114,0.5049956,-1.3816198,1.9042224,-2.0919025,-1.5708417,2.4800491,-0.0050544864,1.1662083e-08,-0.00042233357,0.0032329634,6.1052546e-05,-0.00018753664,0.038307227,0.15322891,-9.078813,0.7351769,47.645687,-1.000929,-2.6635864,-2.9612558,-0.14152195,0.057878073,-0.11755211,28.3125,29.6875,28.75,32.5,35.0,36.0625
0.014052372,-0.15954633,-0.17987107,-0.17452614,-0.033432566,0.015143789,-0.024708953,-0.38935593,-0.36870316,0.05999408,-3.0786617,0.62501574,0.00012035414,-0.004405993,0.004517116,-0.004418187,0.004642063,-0.008523331,-0.0018553513,0.50498074,-1.3815918,1.9041618,-2.0918677,-1.5708417,2.4800332,-0.011765246,0.0112753175,-0.0037645337,0.0021928148,5.7521185e-05,-0.009906879,-0.019153614,0.1340753,-9.308657,0.73741806,47.651955,-0.5247963,-3.255429,-2.8997393,-0.12817173,0.058848463,-0.08570419,28.3125,29.6875,28.75,32.5,35.0,36.0625
0.016052367,-1.4075459,-1.1287036,-0.20390585,-0.04939357,0.025111875,-0.015424057,-0.38932663,-0.36869404,0.059963964,-3.078621,0.6249465,2.1218853e-05,-0.004977156,0.004291775,-0.003943499,0.0040393113,-0.007439527,0.004578427,0.5049928,-1.381568,1.9041966,-2.0918434,-1.5708417,2.4800072,-0.01192059,0.011239824,-0.0047529247,0.0019755966,5.6617828e-05,-0.016495582,-0.22984336,0.11492168,-9.423578,0.6926589,47.716442,-0.6160572,-3.1882582,-2.922705,-0.099457696,0.053388096,-0.018226348,28.3125,29.6875,28.75,32.5,35.0,36.0625
0.018051788,-1.351112,-0.8195941,-0.13612841,-0.056239028,0.060158167,-0.050748732,-0.38930765,-0.36869952,0.059936304,-3.0786352,0.6248136,-6.0287406e-05,-0.005147145,0.004337926,-0.0024915712,0.002735801,-0.005080568,0.007832289,0.5050046,-1.3815329,1.9042209,-2.0918553,-1.5708174,2.4799342,-0.012155117,0.008087554,-0.004343539,0.002023308,5.590274e-05,-0.019984646,-0.4213795,0.1340753,-9.385271,0.73069996,47.691364,-0.7347555,-2.9245749,-3.119574,-0.07517773,0.05727256,-0.024305288,28.3125,29.6875,28.75,32.5,35.0,36.0625
0.020051762,-1.3172648,-0.33187377,-0.49278206,-0.016531125,0.06482011,-0.06770713,-0.38932538,-0.36867595,0.05993869,-3.0786092,0.6248471,-6.4873704e-05,-0.004589563,0.0057332246,-0.003102084,0.0048637534,-0.008910634,0.007359084,0.50495607,-1.3815328,1.9042095,-2.0918295,-1.5708297,2.47991,-0.013981081,0.008332659,-0.004133932,0.005949676,5.5216067e-05,-0.021337869,-0.3256114,0.095768064,-9.481039,0.7553206,47.709274,-0.9268908,-2.796759,-3.2367811,-0.096865475,0.034449495,-0.009947775,28.3125,29.6875,28.75,32.5,35.0,36.0625
0.02205169,-1.038873,0.6490747,-0.5541642,0.0144128315,0.06206374,-0.08462954,-0.3893397,-0.36867824,0.05991905,-3.0786114,0.62484974,-0.00011945054,-0.0058126464,0.006557883,-0.0038452072,0.006018246,-0.0110009825,0.0025199146,0.50493133,-1.3814718,1.9041847,-2.091841,-1.5708054,2.4798865,-0.01651425,0.011347401,-0.0063697915,0.007559544,5.454668e-05,-0.019030644,-0.45968673,0.11492168,-9.653421,0.77545905,47.67166,-0.85377145,-2.8620005,-3.3230553,-0.13209765,0.034707837,-0.05096367,28.3125,29.6875,28.75,32.5,35.0,36.0625
0.024051825,-1.2343795,0.463524,-0.6589147,0.02114463,0.057406567,-0.10572835,-0.38934422,-0.3686571,0.059922148,-3.0785902,0.62478894,-0.000120862285,-0.008463133,0.0061911596,-0.0024429013,0.0038392383,-0.0070813517,2.0517402e-05,0.5049067,-1.3814836,1.9041837,-2.0918062,-1.5708297,2.4798267,-0.018376768,0.011869435,-0.009825845,0.0060085966,5.3893407e-05,-0.018392103,-0.57460845,0.05746084,-9.615114,0.72622824,47.709274,-0.8635425,-2.8918047,-3.303341,-0.11734058,0.03781627,-0.04886069,28.3125,29.6875,28.75,32.5,35.0,36.0625
0.026052183,-1.9258776,0.3614954,-0.79643595,0.009648804,0.05492012,-0.112606786,-0.3893398,-0.36864233,0.059902206,-3.0785594,0.6248411,-0.00021619655,-0.009483649,0.005822993,-0.0025661967,0.0032461714,-0.006022363,-0.0017998462,0.5048708,-1.381459,1.9041947,-2.0917828,-1.5708054,2.4798272,-0.018712737,0.0135383485,-0.011167875,0.0044685914,5.3255666e-05,-0.016906733,-0.7086837,-0.076614454,-9.710882,0.7866488,47.698532,-0.89324045,-2.7774096,-3.2938132,-0.0723453,0.017615207,-0.08742699,28.3125,29.6875,28.75,32.5,35.0,36.0625
0.028052352,-1.9216483,-0.7110556,-0.9185663,0.0123059405,0.07167338,-0.11378856,-0.38936472,-0.36862394,0.05988333,-3.0784886,0.624846,-0.00022563315,-0.0100956075,0.0058518876,-0.0026150828,0.0033598077,-0.006221372,-0.0033578158,0.5048465,-1.3813866,1.9041466,-2.091758,-1.5708536,2.479815,-0.019330362,0.014678239,-0.0124993045,0.0048886333,4.7442885e-05,-0.0159657,-0.8236054,-0.17238252,-9.883265,0.7284641,47.698532,-0.9788253,-2.8227763,-3.30092,-0.07627392,0.01948477,-0.093940966,28.3125,29.6875,28.75,32.5,35.0,36.0625
0.030052546,-1.8565627,-0.1315277,-0.7585451,-0.01676913,0.089391604,-0.13794342,-0.389373,-0.3686229,0.059875622,-3.078494,0.6248671,-0.00026606573,-0.010366793,0.006297705,-0.0032525782,0.0046911873,-0.008616665,-0.0045355754,0.50482213,-1.3813617,1.9041346,-2.0917575,-1.5708297,2.479803,-0.020331986,0.01680657,-0.014054758,0.007056613,4.1967865e-05,-0.01578881,-0.8810662,-0.05746084,-9.710882,0.7418897,47.709274,-0.99607486,-2.875421,-3.2768126,-0.08172296,0.013026738,-0.114397936,28.3125,29.6875,28.75,32.5,35.0,36.0625
0.032052536,-1.9262809,-0.053414706,-0.79508376,-0.008637652,0.08617172,-0.14906555,-0.38939196,-0.36861202,0.05987302,-3.0784755,0.62492144,-0.00027989544,-0.010565255,0.0067815403,-0.0030859588,0.0051370873,-0.009418008,-0.0055615846,0.5047861,-1.3813378,1.9041094,-2.0917447,-1.5708297,2.4798033,-0.021330692,0.016709106,-0.0146938395,0.008710216,4.116653e-05,-0.015761435,-0.8236054,-0.019153614,-9.80665,0.7620334,47.67166,-1.0166411,-2.821744,-3.3337502,-0.12022233,0.0033766471,-0.1398638,28.3125,29.6875,28.75,32.5,35.0,36.0625
0.03405199,-1.6273062,0.37903646,-0.8172747,0.00013166772,0.07755803,-0.16011061,-0.38943234,-0.36859152,0.059884958,-3.0784826,0.62492335,-0.00026638206,-0.01124239,0.0070303236,-0.0033008675,0.0052889376,-0.009677794,-0.0059289117,0.5047138,-1.3813254,1.9040622,-2.0917213,-1.5708297,2.4797313,-0.022375613,0.017867347,-0.015580173,0.0087390775,3.118222e-05,-0.016438467,-0.7661445,-0.095768064,-9.787497,0.7732232,47.701214,-1.0013381,-2.8915346,-3.29178,-0.09389227,-0.009117618,-0.15249065,28.3125,29.6875,28.75,32.5,35.0,36.0625
0.036052387,-1.5010918,0.3857411,-0.7895574,0.0139820855,0.06322797,-0.17494257,-0.38945645,-0.36858773,0.05985878,-3.0784545,0.6249952,-0.00032120178,-0.013143612,0.0073858383,-0.002207729,0.0038435103,-0.006992652,-0.0074191643,0.50467706,-1.3812416,1.9040254,-2.0917332,-1.5708174,2.479743,-0.024725156,0.017290877,-0.017193275,0.0078796055,-8.748039e-06,-0.017297028,-0.63206923,-0.05746084,-9.80665,0.7597976,47.67166,-1.0021652,-2.7776966,-3.3180044,-0.0928538,0.004970031,-0.16823077,28.3125,29.6875,28.75,32.5,35.0,36.0625
0.03805242,-1.4520756,-0.0404569,-0.6933155,0.020825813,0.049471624,-0.17845577,-0.3894709,-0.3685622,0.059854344,-3.078434,0.62493354,-0.00035057514,-0.014575753,0.007926196,-0.0020039254,0.0032295582,-0.005817962,-0.007723713,0.5046283,-1.3812293,1.904013,-2.091698,-1.5708297,2.4796584,-0.026950568,0.017771464,-0.017998219,0.006878513,-4.51342e-05,-0.019217312,-0.51714754,0.0,-9.653421,0.7978386,47.655537,-0.93639994,-2.8325138,-3.30845,-0.069809996,-0.0066733626,-0.17715687,28.3125,29.6875,28.75,32.5,35.0,36.0625
0.040052567,-1.4473789,-0.14787564,-0.5872093,0.01381697,0.035076313,-0.19730787,-0.3895295,-0.36854228,0.05985058,-3.0784283,0.6250465,-0.00034998375,-0.01580286,0.00784474,-0.0014426949,0.0026503275,-0.0047355318,-0.0071342457,0.5045323,-1.381169,1.903953,-2.0917094,-1.5708174,2.4796336,-0.027944556,0.018483156,-0.020170577,0.00711174,-6.656116e-05,-0.020799752,-0.4405331,0.05746084,-9.730036,0.77545905,47.6636,-0.935855,-2.747047,-3.3248072,-0.056772962,-0.028269771,-0.1729528,28.3125,29.6875,28.75,32.5,35.0,36.0625
0.042052574,-0.7134042,0.2084548,-0.63334394,-0.0003795319,0.04226646,-0.20958276,-0.38954628,-0.36851838,0.059833262,-3.0783708,0.6250925,-0.00040714335,-0.016296564,0.008098153,-0.0008108388,0.002673921,-0.0046984856,-0.007452754,0.50448406,-1.3811212,1.9039277,-2.0916736,-1.5708297,2.4796214,-0.028807163,0.018105213,-0.021557854,0.008855746,-0.000105798375,-0.021343451,-0.3256114,0.019153614,-9.634268,0.7866488,47.688675,-0.9308065,-2.705956,-3.3084612,-0.06430646,-0.015326518,-0.19271591,28.3125,29.6875,28.75,32.5,35.0,36.0625
0.04405259,-1.0391467,-0.34016177,-0.670052,0.008084331,0.027479084,-0.21475288,-0.38959303,-0.36850202,0.05984916,-3.0783577,0.62509054,-0.0003436748,-0.017089037,0.009062179,-0.001269409,0.004011441,-0.004792138,-0.00792577,0.5044354,-1.3810966,1.9038571,-2.0916498,-1.570866,2.4795732,-0.030465046,0.019107336,-0.02166052,0.008687873,-0.0012323863,-0.022525957,-0.17238252,0.0,-9.634268,0.7642693,47.698532,-0.9751713,-2.7786222,-3.3315427,-0.07165431,-0.017625231,-0.21342912,28.3125,29.6875,28.75,32.5,35.0,36.0625
0.046051864,-0.35013494,-0.06099884,-0.48445702,-0.005773212,0.037068583,-0.21911667,-0.38963833,-0.36849713,0.059848677,-3.0783768,0.62513167,-0.0003800298,-0.01879327,0.010192354,-0.0010160389,0.00527692,-0.0036964281,-0.00839301,0.5043628,-1.3810364,1.9037842,-2.091637,-1.5708307,2.479524,-0.032932457,0.019918723,-0.02330922,0.009183914,-0.0028735572,-0.024522254,-0.1340753,0.11492168,-9.691729,0.73741806,47.672558,-0.8725141,-2.688368,-3.256863,-0.07797749,-0.010980878,-0.22861779,28.3125,29.6875,28.75,32.5,35.0,36.0625
0.048051924,-0.85537326,0.10870682,-0.5495661,-0.018759636,0.009486498,-0.22050694,-0.38968688,-0.36844644,0.059850577,-3.07832,0.6252347,-0.00035733735,-0.020532334,0.010225536,0.00016066276,0.0043518827,-0.0010977692,-0.007840081,0.50425476,-1.3810245,1.9037603,-2.091613,-1.570867,2.4794874,-0.034327492,0.019737797,-0.025751121,0.009084716,-0.003326547,-0.026468338,-0.038307227,0.15322891,-9.519346,0.7777002,47.672558,-0.8024795,-2.7358122,-3.222066,-0.061412208,-0.005986019,-0.22917008,28.3125,29.6875,28.75,32.5,35.0,36.0625
0.050052557,-0.13332845,-0.4424695,-0.55321676,-0.011371726,0.011914981,-0.19215198,-0.38972765,-0.36842346,0.059843987,-3.078326,0.6252549,-0.0003691423,-0.021303657,0.010690768,9.871592e-05,0.0040544407,-0.0013796963,-0.0076322914,0.50417024,-1.3809881,1.903735,-2.091625,-1.5708545,2.4794147,-0.036074493,0.020342853,-0.026347043,0.009177035,-0.0029321066,-0.028423559,-0.11492168,0.22984336,-9.500193,0.79560274,47.690468,-0.906327,-2.7003942,-3.2332182,-0.06952982,-0.026371509,-0.23285036,28.3125,29.6875,28.75,32.5,35.0,36.0625
0.052052572,0.54206294,-0.20382118,-0.4159153,-0.020062603,0.0153670395,-0.18854462,-0.38976818,-0.3684099,0.05985514,-3.078341,0.62521917,-0.00035564168,-0.022683596,0.011260581,0.00020445333,0.003542913,-0.0014325553,-0.0075914436,0.5041095,-1.3809637,1.9036754,-2.0916011,-1.5708545,2.4793298,-0.038613074,0.021375349,-0.027874812,0.009469199,-0.0024623063,-0.031003159,0.019153614,0.22984336,-9.481039,0.7642693,47.69763,-0.8120171,-2.591611,-3.1807983,-0.043488525,-0.03603146,-0.23386455,28.3125,29.6875,28.75,32.5,35.0,36.0625
0.05405269,0.781786,0.0032662374,-0.4356017,-0.025799407,0.018727878,-0.1969608,-0.38984498,-0.3683999,0.059880488,-3.0783575,0.6253378,-0.00031150144,-0.022488851,0.011644634,-8.9054614e-05,0.0040778783,-0.0029700974,-0.007221908,0.5040135,-1.3809156,1.9035553,-2.0915763,-1.5708426,2.4793057,-0.039244946,0.021717593,-0.027904978,0.01076081,-0.0021844592,-0.03200527,0.019153614,0.17238252,-9.385271,0.6859408,47.65912,-0.75502443,-2.6518264,-3.2958817,-0.062073357,-0.03662192,-0.2341516,28.3125,29.6875,28.75,32.5,35.0,36.0625
0.05605204,0.48642272,0.030120011,-0.42963883,-0.019490728,0.008693238,-0.18359062,-0.38988772,-0.3683631,0.05987011,-3.0782955,0.625382,-0.0002907961,-0.022930158,0.011350186,0.00040374405,0.003661825,-0.002308049,-0.0058955746,0.5039417,-1.3808676,1.9035195,-2.091565,-1.5708908,2.4792695,-0.03918453,0.021816486,-0.029249126,0.011223321,-0.002143267,-0.033270698,0.019153614,0.21068975,-9.385271,0.7933669,47.66539,-0.8840919,-2.5893795,-3.3037364,-0.07041688,-0.033067737,-0.26039433,28.3125,29.6875,28.75,32.5,35.0,36.0625
0.058052137,-0.014221534,-0.38962978,-0.34438738,-0.0032824196,0.0034077668,-0.1783515,-0.38992518,-0.36834356,0.059867267,-3.0782871,0.62537974,-0.0002794764,-0.0244681,0.012190985,0.0006256532,0.0041847667,-0.0021494927,-0.006653965,0.503881,-1.3808311,1.9034828,-2.0915644,-1.5709022,2.4792085,-0.041697588,0.022909842,-0.031287212,0.012282794,-0.002680697,-0.035023462,0.076614454,0.21068975,-9.346964,0.784413,47.677036,-0.8323971,-2.6428633,-3.2023869,-0.061535224,-0.05034054,-0.2522654,28.3125,29.6875,28.75,32.5,35.0,36.0625
0.060052164,-0.076303475,-0.26446766,-0.31725252,-0.00078523625,0.01169306,-0.18715213,-0.3899727,-0.36834267,0.05989001,-3.0783195,0.6253479,-0.00028923518,-0.025684433,0.012677144,0.00073404546,0.0046448843,-0.001252296,-0.006921625,0.50382054,-1.3807949,1.9033746,-2.0915043,-1.5708789,2.479124,-0.043123033,0.023831466,-0.032581158,0.012095064,-0.0035203323,-0.036179017,0.076614454,0.21068975,-9.385271,0.78888994,47.688675,-0.8036696,-2.623688,-3.1943436,-0.05686139,-0.033651706,-0.27856845,28.3125,29.6875,28.75,32.5,35.0,36.0625
0.06205245,0.03668162,-0.0068999054,-0.25841117,-0.009592838,0.017084554,-0.19225772,-0.39001894,-0.36830965,0.05988133,-3.0782719,0.625376,-0.00030909313,-0.026211783,0.013210603,0.0006310336,0.0049013253,-0.0019746202,-0.0071179657,0.5037363,-1.3807346,1.903315,-2.0914686,-1.5709022,2.4790635,-0.044585932,0.024416033,-0.033222925,0.012906804,-0.0033979032,-0.037445415,0.05746084,0.19153613,-9.3661175,0.7597976,47.629562,-0.79223216,-2.5766563,-3.193408,-0.050226435,-0.02909565,-0.26794648,28.3125,29.6875,28.75,32.5,35.0,36.0625
0.06405241,-0.05651492,-0.31968844,-0.27420104,-0.010502948,0.022672731,-0.1854528,-0.39006683,-0.36827627,0.059877392,-3.0782728,0.6253762,-0.0003351932,-0.026906762,0.013329647,0.0007386109,0.0047374335,-0.002051633,-0.007448936,0.5036283,-1.3806983,1.9032782,-2.0914562,-1.5708908,2.4789555,-0.045541745,0.025192834,-0.0344968,0.0133915255,-0.0032200064,-0.038069967,-0.095768064,0.1340753,-9.346964,0.6971306,47.63852,-0.8807572,-2.5699527,-3.2265606,-0.06912898,-0.043183975,-0.3050471,28.3125,29.6875,28.75,32.5,35.0,36.0625
0.066052064,-0.16951656,-0.2038406,-0.102468334,-0.01257167,0.025957549,-0.18663234,-0.3901162,-0.3682677,0.05988689,-3.0782769,0.6253957,-0.00032105387,-0.027825935,0.013592056,0.0010197307,0.0043845,-0.0016374975,-0.0067122392,0.50356776,-1.3806502,1.9031943,-2.0914323,-1.5708908,2.4789066,-0.04690273,0.025608452,-0.035682507,0.013627591,-0.0031134607,-0.04016737,-0.11492168,0.11492168,-9.270349,0.800085,47.690468,-0.8170047,-2.5790048,-3.2306147,-0.072942704,-0.041923773,-0.30488968,28.3125,29.6875,28.75,32.5,35.0,36.0625
0.06805204,-0.23635782,-0.05687333,-0.083283246,-0.009206646,0.040617283,-0.18687867,-0.39017183,-0.3682342,0.05987708,-3.0782573,0.62537104,-0.00036569688,-0.028784093,0.0140126,0.0010436334,0.004434829,-0.001557831,-0.005792851,0.5034595,-1.3805777,1.9031228,-2.091396,-1.5708908,2.4787855,-0.048444606,0.026483357,-0.03682263,0.01384682,-0.0032009913,-0.04262777,-0.19153614,0.038307227,-9.346964,0.779936,47.694054,-0.83544576,-2.5740113,-3.2212963,-0.075759634,-0.036593586,-0.3167804,28.3125,29.6875,28.75,32.5,35.0,36.0625
0.07005204,-0.573847,0.15538317,-0.051820066,-0.0013733893,0.042766508,-0.18442191,-0.39024544,-0.36824125,0.059904426,-3.0783408,0.6253684,-0.0002753538,-0.029212192,0.013893358,0.0014002835,0.004143298,-0.0012725492,-0.0050173737,0.5033876,-1.3805417,1.903026,-2.0914319,-1.5708665,2.4787014,-0.048710145,0.026675092,-0.03799587,0.014438006,-0.0030809506,-0.04366887,-0.22984336,0.038307227,-9.289502,0.7911258,47.692257,-0.8745822,-2.5352385,-3.1625257,-0.076670945,-0.061515115,-0.31686085,28.3125,29.6875,28.75,32.5,35.0,36.0625
0.07205209,-0.66657865,0.28128886,-0.18167432,0.008173539,0.053918097,-0.18351534,-0.3903013,-0.36818704,0.059899427,-3.0782604,0.6254688,-0.00029719938,-0.03098523,0.015003532,0.0015561583,0.0037460236,-0.0009119734,-0.008735996,0.5032665,-1.3804934,1.9029669,-2.0913723,-1.5709022,2.4786532,-0.052331924,0.027342107,-0.03913077,0.014395889,-0.0029118632,-0.04357163,-0.28730422,0.038307227,-9.289502,0.784413,47.698532,-0.78049135,-2.5344715,-3.233365,-0.087530315,-0.07312155,-0.33250812,28.3125,29.6875,28.75,32.5,35.0,36.0625
0.07405225,-1.0983218,0.6471242,-0.14736362,0.004356725,0.05379535,-0.18400519,-0.39036447,-0.36815822,0.05990775,-3.0782683,0.6254285,-0.0002981481,-0.030926384,0.014377586,0.0016792268,0.0035102523,-0.00079943094,-0.00402377,0.5031591,-1.3804451,1.9028825,-2.0913355,-1.5709022,2.4785197,-0.051310048,0.027908681,-0.040131874,0.014616529,-0.002763117,-0.047261786,-0.36391866,0.076614454,-9.32781,0.76874626,47.692257,-0.80069876,-2.4705,-3.2205284,-0.09210202,-0.08722475,-0.34084108,28.3125,29.6875,28.75,32.5,35.0,36.0625
0.07605164,-1.4212304,0.17802148,-0.21844241,0.017991574,0.052682996,-0.1921789,-0.39041692,-0.3681273,0.05988311,-3.0782156,0.6254936,-0.00039757637,-0.031593073,0.014903366,0.0014518177,0.003963485,-0.00096474076,-0.0022023933,0.503051,-1.3803366,1.9027995,-2.0912879,-1.5708908,2.478459,-0.05260883,0.028741729,-0.040602673,0.014618449,-0.0030867998,-0.05038079,-0.40222588,0.019153614,-9.32781,0.7978386,47.6636,-0.93912685,-2.5185392,-3.2699704,-0.0965188,-0.07315563,-0.33040315,28.3125,29.6875,28.75,32.5,35.0,36.0625
0.078052364,-0.9475023,0.55180216,-0.020717697,0.00435855,0.069660164,-0.18244542,-0.39049095,-0.36809498,0.05990285,-3.0782173,0.6254712,-0.00034429613,-0.03297183,0.015547527,0.0014108651,0.005049319,-0.0004933441,0.0007315374,0.5029428,-1.3803,1.9027032,-2.091252,-1.5709151,2.4783366,-0.05423248,0.030327683,-0.04247568,0.0150176585,-0.0042697904,-0.054935172,-0.4213795,-0.019153614,-9.346964,0.7105615,47.68062,-0.8956385,-2.5264373,-3.2331085,-0.10675677,-0.0712218,-0.302433,28.3125,29.6875,28.75,32.5,35.0,36.0625
0.0800525,-1.2139661,0.46809533,0.08603928,0.0052315514,0.060685687,-0.18019792,-0.39055544,-0.3680728,0.059909713,-3.078247,0.62540317,-0.00031484052,-0.03443245,0.017091893,0.0013343398,0.006365249,-0.00029338922,-0.0023446376,0.50284564,-1.380252,1.9026307,-2.091252,-1.5709156,2.4781933,-0.05740586,0.030928403,-0.043129835,0.015534201,-0.005518402,-0.05502978,-0.40222588,0.019153614,-9.404425,0.7642693,47.681515,-0.788223,-2.4864736,-3.2159348,-0.10541749,-0.06782538,-0.2993336,28.3125,29.6875,28.75,32.5,35.0,36.0625
0.08205182,-0.4593432,1.1015936,-0.07598639,-0.005609875,0.073976584,-0.19244194,-0.3906285,-0.36802173,0.05990204,-3.078194,0.6253689,-0.00033620352,-0.034675993,0.016752318,0.0015798585,0.006886306,0.00029443865,0.0017278835,0.5027143,-1.3801676,1.9025348,-2.091192,-1.5709518,2.4780474,-0.056588132,0.031528987,-0.044519506,0.01605844,-0.006264742,-0.058282237,-0.49799395,0.05746084,-9.3661175,0.73069996,47.686886,-0.7716852,-2.4770925,-3.1870182,-0.13401598,-0.04505034,-0.28699794,28.3125,29.6875,28.75,32.5,35.0,36.0625
0.084051974,-0.49995828,0.6077428,-0.08400407,0.0036766478,0.07087827,-0.18852164,-0.3906983,-0.36799192,0.059900086,-3.0781705,0.6254383,-0.00032478923,-0.034683175,0.01702605,0.00087394216,0.0073876446,-0.0007779093,0.005703425,0.50260645,-1.3800952,1.9024509,-2.09118,-1.5709637,2.4779859,-0.057094656,0.03267409,-0.044205997,0.015778238,-0.00619007,-0.06276437,-0.47884035,-0.038307227,-9.3661175,0.81351066,47.698532,-0.9674412,-2.430437,-3.2408724,-0.14071609,-0.0626209,-0.24392945,28.3125,29.6875,28.75,32.5,35.0,36.0625
0.086051606,-0.6041783,0.40953565,-0.009995312,0.002026398,0.066440254,-0.18573159,-0.39073667,-0.36796746,0.059905577,-3.0781906,0.62526876,-0.0003808323,-0.03603491,0.017489688,0.0006243416,0.0071732765,-0.0006456876,0.0069081853,0.5025219,-1.3800586,1.9023789,-2.0911086,-1.5709513,2.477793,-0.0592011,0.034325864,-0.04545055,0.015150883,-0.0060744593,-0.06607475,-0.40222588,-0.076614454,-9.461885,0.7665104,47.68599,-0.95821655,-2.531861,-3.2906785,-0.1552796,-0.05931219,-0.20851818,28.3125,29.6875,28.75,32.5,35.0,36.0625
0.08805172,-1.0892725,0.6818144,-0.069176495,-0.010352696,0.050872765,-0.1939886,-0.39083555,-0.36793286,0.059914403,-3.0781703,0.6253004,-0.00028901346,-0.037747547,0.017074132,0.0014197167,0.006306521,0.0016282672,0.009331142,0.5024019,-1.379974,1.9022588,-2.0911086,-1.571,2.4776955,-0.059870314,0.035431754,-0.048454154,0.01463467,-0.0064172084,-0.06916502,-0.2873042,-0.076614454,-9.346964,0.77545905,47.666286,-0.9692451,-2.5435133,-3.1224246,-0.14564337,-0.040508196,-0.1463432,28.3125,29.6875,28.75,32.5,35.0,36.0625
0.09005169,-0.45601973,0.22381371,-0.03938172,-0.005728947,0.055015113,-0.18433152,-0.390915,-0.36791193,0.059927884,-3.078205,0.62534523,-0.00029885385,-0.037359368,0.01776325,0.0006706654,0.0069188676,-0.00031011394,0.010866196,0.50226986,-1.3799138,1.9021515,-2.0910847,-1.5709633,2.477587,-0.060907822,0.035768744,-0.04725355,0.015090413,-0.0060169073,-0.071738996,-0.24899697,-0.019153614,-9.385271,0.7620334,47.672558,-0.94291914,-2.5379245,-3.2239852,-0.13753624,-0.044067822,-0.12728761,28.3125,29.6875,28.75,32.5,35.0,36.0625
0.09205184,-0.6141923,0.36598247,0.05792288,-0.008691194,0.040212855,-0.18311466,-0.3909943,-0.3678746,0.05991754,-3.07821,0.6252871,-0.00034047407,-0.037795775,0.017874654,0.00033182473,0.0064861635,-0.0011700435,0.011918045,0.5021258,-1.3798175,1.9020556,-2.0910609,-1.5709513,2.477406,-0.0619829,0.036910165,-0.0478315,0.015069048,-0.0052283756,-0.07386692,-0.21068975,0.076614454,-9.404425,0.7911258,47.686886,-0.98623616,-2.5187032,-3.346531,-0.15404993,-0.072109684,-0.09254461,28.3125,29.6875,28.75,32.5,35.0,36.0625
0.09405165,-0.10849223,0.3631424,-0.19877109,-0.0071169236,0.03998134,-0.18063578,-0.3910683,-0.36782187,0.059924684,-3.0781653,0.62523943,-0.00029399968,-0.038805906,0.017852893,0.00068790547,0.0060712206,-0.0006965513,0.011370169,0.5020057,-1.3797691,1.9019712,-2.0910127,-1.5710114,2.477262,-0.062958986,0.037772007,-0.04976492,0.015520221,-0.0050972253,-0.074294455,-0.1340753,0.019153614,-9.442732,0.7351769,47.694946,-1.0675857,-2.46102,-3.2732344,-0.15144174,-0.085829094,-0.06294702,28.3125,29.6875,28.75,32.5,35.0,36.0625
0.096052326,0.103880875,0.43931147,-0.28148097,-0.011764492,0.033327386,-0.18051504,-0.39116922,-0.36779386,0.05993373,-3.0782065,0.6252481,-0.00027593493,-0.040614955,0.017489633,0.0016398262,0.0046775057,0.001001888,0.00956803,0.5018496,-1.3796844,1.9018506,-2.0910127,-1.5709871,2.477106,-0.0642643,0.03877618,-0.053178985,0.01577037,-0.0046968916,-0.07379708,-0.076614454,0.15322891,-9.404425,0.78217715,47.686886,-1.061205,-2.5550556,-3.162064,-0.17692116,-0.08008392,-0.06511199,28.3125,29.6875,28.75,32.5,35.0,36.0625
0.09805161,0.071315944,-0.14157519,-0.41222972,-0.0078096665,0.02749808,-0.18555793,-0.39123103,-0.36772278,0.059909645,-3.0781052,0.62518924,-0.00030559688,-0.040327482,0.0180285,0.00082744716,0.0061149024,-0.0008863572,0.008970497,0.5017176,-1.3796002,1.9017919,-2.0909522,-1.5710596,2.4769504,-0.06467615,0.039923176,-0.052896958,0.016683595,-0.005052702,-0.073610306,-0.1340753,0.17238252,-9.461885,0.7172743,47.67793,-1.1240687,-2.4941235,-3.123942,-0.17026436,-0.084822945,-0.06038692,28.3125,29.6875,28.75,32.5,35.0,36.0625
0.10005175,-0.035281066,-0.51028365,-0.46262425,-0.010216712,0.024633802,-0.17319113,-0.39133933,-0.36770314,0.05992354,-3.0781438,0.62521636,-0.0003143921,-0.040638342,0.019247012,0.000204691,0.007342948,-0.0020838587,0.006117742,0.50156134,-1.3794919,1.9016241,-2.0909164,-1.5710233,2.4768062,-0.0666902,0.040392764,-0.052132063,0.017093576,-0.0055495086,-0.072771005,-0.05746084,0.19153613,-9.423578,0.83589023,47.686886,-1.0839771,-2.5439744,-3.3419034,-0.20303789,-0.09001592,-0.067969576,28.3125,29.6875,28.75,32.5,35.0,36.0625
0.10205173,0.18587737,-0.29108977,-0.3524344,-0.0287162,0.03182608,-0.17802787,-0.39138684,-0.36767223,0.05990715,-3.0781176,0.62515485,-0.00038540174,-0.042405304,0.019033358,0.0012122459,0.0066490066,2.7632354e-06,0.0035295817,0.5014652,-1.3794075,1.9015507,-2.0908682,-1.5710233,2.476675,-0.06771229,0.041169237,-0.055427674,0.017450884,-0.0059543033,-0.07120236,-0.038307227,0.22984336,-9.423578,0.7732232,47.66987,-1.1193775,-2.5230682,-3.2340565,-0.2098539,-0.08761646,-0.06941624,28.3125,29.6875,28.75,32.5,35.0,36.0625
0.10405177,0.20232134,-0.18176927,-0.23213232,-0.035854056,0.025520314,-0.17975686,-0.3914906,-0.3676365,0.059924554,-3.0781312,0.62519735,-0.00034436438,-0.04271978,0.019739985,0.0003343933,0.007927344,-0.0020779853,0.0003009218,0.501309,-1.3793348,1.9014195,-2.090844,-1.5710238,2.4765437,-0.0691066,0.04313416,-0.055993434,0.018490877,-0.0060712383,-0.06936754,-0.076614454,0.19153613,-9.423578,0.7777002,47.679718,-1.0770413,-2.4905868,-3.2192929,-0.21763465,-0.08204691,-0.11033062,28.3125,29.6875,28.75,32.5,35.0,36.0625
0.106051676,0.31517768,-0.16437343,-0.30942667,-0.03963477,0.0265007,-0.18424334,-0.39155826,-0.36757895,0.0599099,-3.0780902,0.6251522,-0.00037712796,-0.044344172,0.020600779,0.0009275852,0.007552583,-0.000261269,-0.0037475037,0.5011645,-1.3792627,1.9013594,-2.0908082,-1.5710481,2.4763763,-0.07170935,0.04281389,-0.05682639,0.017870728,-0.0066219107,-0.06792009,-0.019153614,0.24899697,-9.385271,0.78217715,47.723602,-1.0582448,-2.6014872,-3.2094054,-0.21360147,-0.06662609,-0.13284644,28.3125,29.6875,28.75,32.5,35.0,36.0625
0.10805171,-0.17027418,-0.35651234,-0.34882832,-0.03194857,0.016925005,-0.17395942,-0.3916493,-0.3675349,0.059902497,-3.078038,0.62523705,-0.00038313417,-0.04510318,0.020738391,0.00077355315,0.007861034,-2.0090572e-05,-0.0051002176,0.50102067,-1.3791543,1.9012398,-2.090772,-1.571072,2.4762921,-0.072388425,0.04407537,-0.05792058,0.0176392,-0.0070130443,-0.067244805,0.05746084,0.2681506,-9.442732,0.7642693,47.670765,-1.1165667,-2.4451835,-3.3207455,-0.22672217,-0.07198822,-0.17372434,28.3125,29.6875,28.75,32.5,35.0,36.0625
0.110051654,-0.0669823,-0.33419314,-0.38599238,-0.024004307,0.02470923,-0.17631409,-0.39175436,-0.36750945,0.05991194,-3.078058,0.6251652,-0.00034281443,-0.04596474,0.021662317,-0.0001677028,0.010296595,-0.0010063908,-0.0069038416,0.5008884,-1.3790452,1.9010838,-2.090748,-1.5710849,2.4761126,-0.07369174,0.046720237,-0.05902617,0.018139172,-0.008675684,-0.066740386,0.0,0.2681506,-9.519346,0.784413,47.67793,-1.1276808,-2.668387,-3.2775657,-0.2359331,-0.060613222,-0.19270483,28.3125,29.6875,28.75,32.5,35.0,36.0625
0.112051696,-5.6457608e-05,-0.1893163,-0.2829757,-0.02149438,0.0329462,-0.17927366,-0.39184967,-0.36748967,0.059936572,-3.078116,0.62517613,-0.00032128755,-0.04674619,0.021789702,0.00096917973,0.009905556,0.0010810595,-0.007713407,0.50074446,-1.3789856,1.9009517,-2.0907242,-1.5710491,2.4759681,-0.07420347,0.045356527,-0.060095876,0.018557385,-0.009333593,-0.06644146,-0.038307227,0.2681506,-9.404425,0.82694155,47.699425,-1.2315445,-2.5684788,-3.2344823,-0.26251376,-0.042181984,-0.23834349,28.3125,29.6875,28.75,32.5,35.0,36.0625
0.114052325,-0.11881152,0.044175178,-0.35027426,-0.015880726,0.03723208,-0.17276508,-0.39192823,-0.36744297,0.059918895,-3.0780807,0.62514836,-0.00036707267,-0.047701042,0.022124154,0.0013549717,0.009406764,0.0011826206,-0.006850468,0.5006004,-1.3788775,1.9008559,-2.0906885,-1.571061,2.4758112,-0.075876966,0.045674626,-0.061533045,0.019343527,-0.008951334,-0.068977706,-0.05746084,0.19153613,-9.32781,0.7978386,47.701214,-1.1882857,-2.408469,-3.2598944,-0.26506332,-0.052910157,-0.22758788,28.3125,29.6875,28.75,32.5,35.0,36.0625
0.116052605,-0.32660714,0.29250708,-0.14230785,-0.01225511,0.038922597,-0.1809172,-0.39205942,-0.3673994,0.059955057,-3.078081,0.6252452,-0.00027363258,-0.048293564,0.022503704,0.00096192874,0.0099488525,0.00070109474,-0.009537753,0.5004204,-1.3788049,1.9006766,-2.0906398,-1.5710849,2.4756918,-0.0768937,0.047005624,-0.062226713,0.019387087,-0.009193026,-0.067306705,-0.076614454,0.15322891,-9.385271,0.784413,47.694054,-1.2717866,-2.5389009,-3.3148005,-0.27518794,-0.059820358,-0.26838574,28.3125,29.6875,28.75,32.5,35.0,36.0625
0.1180517,-0.1396965,0.24013506,-0.24217065,-0.016352842,0.044034947,-0.17575683,-0.39212665,-0.36735782,0.059932034,-3.078036,0.62527573,-0.0003459633,-0.049215447,0.02293369,0.00013771567,0.00988751,-0.00061765796,-0.011789932,0.50028783,-1.3786961,1.9005922,-2.0906045,-1.5710844,2.475584,-0.07888409,0.049410023,-0.06311451,0.018994633,-0.008513882,-0.06704501,-0.15322891,0.15322891,-9.442732,0.74413085,47.68062,-1.1301897,-2.430665,-3.3496041,-0.2502017,-0.055796236,-0.30146462,28.3125,29.6875,28.75,32.5,35.0,36.0625
0.12005192,-0.36118928,0.08372715,-0.18960364,-0.013948162,0.043514304,-0.17521188,-0.39222878,-0.36729723,0.05992766,-3.0779786,0.62525976,-0.0003420869,-0.049238417,0.0221868,0.00019409593,0.009111092,-0.0012367956,-0.0078008533,0.50012064,-1.3785876,1.9004601,-2.0905445,-1.5711316,2.4754143,-0.07823763,0.050455097,-0.0646279,0.019624377,-0.0075429715,-0.07038868,-0.17238252,0.076614454,-9.3661175,0.8090337,47.699425,-1.3442259,-2.6109695,-3.246982,-0.2773003,-0.066602856,-0.3353207,28.3125,29.6875,28.75,32.5,35.0,36.0625
0.12205196,-0.019796727,0.034984183,-0.3685914,-0.002719865,0.052279223,-0.16862875,-0.392336,-0.36725032,0.059943765,-3.0779848,0.62536174,-0.00035162835,-0.051072314,0.023340072,0.0015551294,0.0070395027,0.00044014642,-0.014873434,0.49992758,-1.3785162,1.900328,-2.0904963,-1.5711077,2.475284,-0.08248666,0.048413616,-0.065386325,0.019957213,-0.0065280194,-0.06756742,-0.22984336,0.076614454,-9.481039,0.7777002,47.686886,-1.2911725,-2.500484,-3.2605867,-0.28463992,-0.07387173,-0.37834865,28.3125,29.6875,28.75,32.5,35.0,36.0625
0.124052085,0.00057519577,0.69058985,-0.18920135,-0.005704921,0.05512326,-0.18440475,-0.3924408,-0.36720237,0.059936296,-3.077943,0.62538886,-0.00033158148,-0.051296562,0.022566088,0.0017112005,0.00665077,0.00047037628,-0.013257684,0.4997722,-1.3783957,1.9001969,-2.0904725,-1.5711435,2.475151,-0.081574924,0.049598552,-0.06725598,0.020424219,-0.0062061134,-0.06827115,-0.28730422,0.038307227,-9.442732,0.8717007,47.701214,-1.2748847,-2.4844694,-3.281795,-0.30882132,-0.093326256,-0.4361263,28.3125,29.6875,28.75,32.5,35.0,36.0625
0.12605223,-0.2766708,0.6140137,-0.2108041,0.009560157,0.05857313,-0.17694815,-0.39252725,-0.36718532,0.059937112,-3.0779502,0.6253121,-0.00034676932,-0.051993515,0.02323424,0.00071645255,0.0073394054,-0.0009841549,-0.011979762,0.4996638,-1.3782748,1.900041,-2.0904248,-1.571144,2.474994,-0.08338425,0.051869687,-0.0676193,0.02012069,-0.006118366,-0.07135799,-0.36391866,-0.019153614,-9.3661175,0.8291774,47.70032,-1.351949,-2.49555,-3.2607303,-0.3199789,-0.079786316,-0.45624697,28.3125,29.6875,28.75,32.5,35.0,36.0625
0.12805222,-0.112751774,0.87405413,-0.084920466,0.0061246166,0.07774216,-0.18837711,-0.39262015,-0.3671153,0.05992346,-3.0778942,0.62539494,-0.0004198591,-0.054227717,0.022969903,0.0023365207,0.0058416603,0.0021079802,-0.01002007,0.49945974,-1.3781787,1.8999447,-2.0903642,-1.5711435,2.4748487,-0.084873684,0.051971406,-0.07151154,0.020477407,-0.0062999064,-0.07480481,-0.36391866,-0.095768064,-9.461885,0.7709874,47.642998,-1.3283339,-2.4714718,-3.2723756,-0.3179955,-0.107788965,-0.4577909,28.3125,29.6875,28.75,32.5,35.0,36.0625
0.13005209,-0.1253568,1.137096,-0.3346985,0.0003547744,0.085514225,-0.19369456,-0.39274117,-0.36708254,0.059933323,-3.0779054,0.62531704,-0.00034006662,-0.05460877,0.023798209,0.0016840545,0.006890762,0.0014929011,-0.0054330532,0.49931556,-1.3780582,1.8997768,-2.0903528,-1.5711802,2.4746547,-0.0862077,0.052872006,-0.07101839,0.020121843,-0.006927683,-0.08072475,-0.3256114,-0.019153614,-9.500193,0.77545905,47.679718,-1.2829558,-2.4543297,-3.166551,-0.31775257,-0.09988923,-0.45316082,28.3125,29.6875,28.75,32.5,35.0,36.0625
0.13205203,-0.387285,0.8584819,-0.29942998,0.0065176813,0.0874698,-0.18765454,-0.3928497,-0.36701998,0.05991936,-3.0778668,0.62538475,-0.0003847306,-0.05676788,0.025974413,0.0016667737,0.007961996,0.00222126,-0.005045229,0.49911028,-1.377938,1.8996581,-2.090317,-1.5711807,2.4744966,-0.091035455,0.053280905,-0.071444154,0.020012792,-0.008225246,-0.08593699,-0.36391866,-0.095768064,-9.423578,0.8247004,47.678825,-1.231278,-2.4213583,-3.3626506,-0.3326158,-0.11748328,-0.39668965,28.3125,29.6875,28.75,32.5,35.0,36.0625
0.13405207,-1.6711655,0.3194853,-0.36126992,0.011018575,0.066503964,-0.17663649,-0.39297438,-0.36696333,0.059927054,-3.0778553,0.62539774,-0.000373065,-0.057914633,0.02488008,0.0019259823,0.008729916,0.0034409165,0.001457025,0.49890724,-1.3778288,1.8995003,-2.0902684,-1.5711926,2.4743032,-0.089439034,0.056333542,-0.07578838,0.020600423,-0.00949516,-0.09083788,-0.49799395,-0.15322891,-9.3661175,0.7486078,47.67793,-1.3536427,-2.525906,-3.1666684,-0.3367968,-0.062605605,-0.37655574,28.3125,29.6875,28.75,32.5,35.0,36.0625
0.13605267,-1.1063092,0.25767544,-0.34949303,0.0043858425,0.09068843,-0.17907545,-0.393081,-0.3669381,0.05994044,-3.0778763,0.6253203,-0.00033410735,-0.059395775,0.02682348,0.002132177,0.009004606,0.0033164439,0.006663902,0.49877408,-1.3777211,1.8993338,-2.0902321,-1.571205,2.4741192,-0.09393981,0.055724617,-0.075715326,0.021370454,-0.009679817,-0.10054556,-0.53630114,-0.038307227,-9.346964,0.78888994,47.670765,-1.300282,-2.4532585,-3.1186466,-0.3326966,-0.083391786,-0.27373025,28.3125,29.6875,28.75,32.5,35.0,36.0625
0.13805164,-1.4580677,0.050811928,-0.61257374,0.0060114153,0.08988473,-0.16875304,-0.3931865,-0.3668798,0.0599355,-3.0778706,0.625278,-0.0003924389,-0.05891095,0.026695488,0.0016939915,0.008909519,0.0020217793,0.0097671235,0.49857056,-1.3776127,1.8992032,-2.0901725,-1.5711921,2.47389,-0.09368994,0.056201853,-0.07534369,0.021608593,-0.008982012,-0.10340021,-0.59376204,-0.038307227,-9.5385,0.8247004,47.65106,-1.1861646,-2.4398563,-3.2788162,-0.3344189,-0.05768569,-0.26247376,28.3125,29.6875,28.75,32.5,35.0,36.0625
0.14005162,-0.98726285,0.4037396,-0.48749077,-0.017492222,0.09666836,-0.18073542,-0.39330596,-0.36681578,0.059944343,-3.0778344,0.6252304,-0.00033072048,-0.06094377,0.02710658,0.0025142801,0.0077136373,0.0036528031,0.011345262,0.49839002,-1.3775164,1.8990582,-2.0901248,-1.5712522,2.4736845,-0.096395835,0.05669096,-0.07777857,0.021539,-0.008720208,-0.107683785,-0.6512229,-0.095768064,-9.595961,0.8224646,47.64389,-1.2452303,-2.3087153,-3.2452476,-0.3609733,-0.08071024,-0.20196253,28.3125,29.6875,28.75,32.5,35.0,36.0625
0.14205278,-0.6215918,-0.11416838,-0.48104978,-0.026309483,0.1022045,-0.18139492,-0.3934504,-0.3667545,0.05994395,-3.0778205,0.6252471,-0.00032068588,-0.06254813,0.028125035,0.0011238499,0.008234486,0.0013749567,0.010313719,0.49816144,-1.3773708,1.8988785,-2.090089,-1.5712646,2.4734683,-0.09994882,0.06069189,-0.0793149,0.021317309,-0.008095381,-0.110205345,-0.7278373,0.05746084,-9.481039,0.8179876,47.67166,-1.1302478,-2.5639281,-3.1968112,-0.3655475,-0.086839676,-0.1430889,28.3125,29.6875,28.75,32.5,35.0,36.0625
0.14405207,-0.8992197,-0.30223343,-0.62876683,-0.01802568,0.08656609,-0.16680378,-0.39357102,-0.36670193,0.05994928,-3.0778117,0.62520623,-0.00032389734,-0.063526355,0.028506171,0.0024786955,0.0063511706,0.003855104,0.008306586,0.49796924,-1.3772517,1.8987116,-2.090029,-1.5712765,2.4732518,-0.101753764,0.05819935,-0.07931625,0.020728296,-0.0076285107,-0.11000445,-0.7086837,0.019153614,-9.557653,0.73069996,47.640312,-1.0458127,-2.4268796,-3.1983724,-0.34971833,-0.095185965,-0.13994695,28.3125,29.6875,28.75,32.5,35.0,36.0625
0.14605208,-0.76649404,0.012458754,-0.8548195,-0.012956284,0.07619378,-0.1733355,-0.39370584,-0.3666291,0.05994822,-3.077764,0.6251803,-0.0003044228,-0.065193355,0.029663503,0.002153509,0.00657477,0.0038306608,0.0019956771,0.49775246,-1.3771191,1.8985432,-2.0899694,-1.5713247,2.473025,-0.10509132,0.059700985,-0.080266535,0.020300837,-0.007816618,-0.10702985,-0.45968673,0.05746084,-9.653421,0.800085,47.67166,-0.9369809,-2.3754122,-3.2533665,-0.357601,-0.101213835,-0.15656278,28.3125,29.6875,28.75,32.5,35.0,36.0625
0.14805216,-0.31690684,0.4684201,-0.5535496,-0.021840919,0.080830425,-0.17867815,-0.39380622,-0.36659905,0.059946198,-3.0778263,0.6251776,-0.00033869737,-0.06657235,0.03049612,0.0018868166,0.007227479,0.0037756632,-0.0044825682,0.4975721,-1.3770224,1.898436,-2.0899813,-1.5712646,2.472835,-0.10739853,0.061346177,-0.08163718,0.02039558,-0.008361133,-0.102856986,-0.51714754,0.038307227,-9.576807,0.800085,47.686886,-0.8567784,-2.4387126,-3.306117,-0.36588222,-0.09987518,-0.18110183,28.3125,29.6875,28.75,32.5,35.0,36.0625
0.15005222,-0.46624756,-0.041920375,-0.56457764,-0.0073957243,0.07756091,-0.17416684,-0.39397046,-0.36652067,0.059933234,-3.077784,0.6252659,-0.00035538798,-0.06788438,0.03041996,0.0026662955,0.0063338764,0.0061181653,-0.009599446,0.49729648,-1.3768423,1.8982438,-2.089946,-1.5712765,2.47262,-0.10822917,0.06130421,-0.08316379,0.019479344,-0.008697846,-0.098569125,-0.63206923,0.019153614,-9.519346,0.8224646,47.694946,-0.91228634,-2.3566933,-3.3312106,-0.33740819,-0.111845866,-0.23930657,28.3125,29.6875,28.75,32.5,35.0,36.0625
0.15205231,-0.7228619,0.19704857,-0.60792315,8.1244005e-05,0.07678796,-0.17307979,-0.39412972,-0.3664438,0.059944708,-3.077731,0.6252363,-0.00023128,-0.069254264,0.030686984,0.0028294257,0.005453257,0.006829691,-0.0129144285,0.49708024,-1.3767097,1.8980526,-2.0899103,-1.5713724,2.4723923,-0.110173404,0.06228592,-0.08456071,0.018837273,-0.008263805,-0.09719879,-0.49799395,0.095768064,-9.481039,0.8537928,47.72629,-0.8194407,-2.4072516,-3.1688523,-0.3236187,-0.105544955,-0.3063082,28.3125,29.6875,28.75,32.5,35.0,36.0625
0.1540526,-0.8369817,0.30167118,-0.5454027,0.0054042297,0.07378584,-0.16711663,-0.3942374,-0.3663876,0.059954688,-3.0777423,0.6253143,-0.00026929734,-0.06943199,0.031107299,0.0025236004,0.006051327,0.006282135,-0.0130268,0.49686447,-1.3766376,1.8979334,-2.089862,-1.5713366,2.4722238,-0.11085297,0.06283957,-0.08457796,0.019069675,-0.008527867,-0.09776533,-0.34476504,-0.095768064,-9.557653,0.7172743,47.71554,-0.79487586,-2.3383033,-3.3558192,-0.334488,-0.07936746,-0.30524355,28.3125,29.6875,28.75,32.5,35.0,36.0625
0.15605251,0.32353547,1.2474458,-0.2785046,-0.017315058,0.096584,-0.19945982,-0.39439896,-0.36633715,0.059955005,-3.0777042,0.6254015,-0.00019157029,-0.07202499,0.030279132,0.004363029,0.004348944,0.010436109,-0.012297282,0.49666077,-1.3764571,1.8977159,-2.0898502,-1.5713843,2.4720795,-0.11149598,0.06359225,-0.089626126,0.018896453,-0.009019928,-0.09913486,-0.3256114,0.0,-9.461885,0.7911258,47.678825,-0.8524607,-2.3418148,-3.2045262,-0.29342356,-0.09681291,-0.32337207,28.3125,29.6875,28.75,32.5,35.0,36.0625
0.15805171,0.24338932,0.89775306,-0.26910326,-0.008091403,0.07031076,-0.1830107,-0.39454538,-0.36625662,0.05997798,-3.0776818,0.62539726,-0.0001175741,-0.07134536,0.031072006,0.0029620407,0.0051856413,0.0075303,-0.014078076,0.49642077,-1.3763727,1.89755,-2.08979,-1.5714325,2.47184,-0.11258119,0.06464371,-0.08767804,0.018841697,-0.008363182,-0.09844153,-0.2681506,-0.038307227,-9.404425,0.8179876,47.672558,-0.95525014,-2.2976022,-3.248526,-0.29992145,-0.111794055,-0.3599856,28.3125,29.6875,28.75,32.5,35.0,36.0625
0.1600519,-0.12862998,0.74980074,-0.7449288,-0.0019855073,0.03975921,-0.18273473,-0.39469746,-0.36621913,0.05998175,-3.0777354,0.62540615,-0.00016384639,-0.07290311,0.031620156,0.003449803,0.0051681055,0.008615554,-0.013895674,0.4961808,-1.3762043,1.8973335,-2.0897548,-1.5713724,2.4715986,-0.11457882,0.06532328,-0.08968785,0.019213602,-0.008867231,-0.10061972,-0.24899697,0.05746084,-9.308656,0.81351066,47.679718,-0.9983903,-2.301102,-3.2493453,-0.29497594,-0.099263825,-0.3704669,28.3125,29.6875,28.75,32.5,35.0,36.0625
0.16205187,0.2840346,0.1611971,-0.37349945,0.0014132357,0.0360537,-0.16976829,-0.39482498,-0.36615905,0.05997494,-3.0776863,0.6254718,-0.0001708695,-0.07229377,0.03110473,0.0030262852,0.006288976,0.008104444,-0.012351575,0.4959778,-1.3760597,1.8971666,-2.0897067,-1.5713967,2.471443,-0.11266005,0.06636579,-0.0900341,0.019499091,-0.009611188,-0.100242935,-0.19153613,0.05746084,-9.308656,0.81351066,47.68062,-1.0377965,-2.3041008,-3.2536793,-0.27675587,-0.096784055,-0.4092945,28.3125,29.6875,28.75,32.5,35.0,36.0625
0.16405189,0.7109544,0.17829888,-0.31728062,-0.0070222076,0.038764186,-0.18763612,-0.3949982,-0.36606628,0.059993073,-3.0776641,0.6255423,-3.9541937e-05,-0.07456043,0.033395257,0.0027456204,0.00641802,0.0076090386,-0.011819572,0.49570027,-1.3759634,1.8970112,-2.0897067,-1.5714568,2.4712124,-0.118627116,0.06725664,-0.090462334,0.019519707,-0.009487143,-0.106742546,-0.076614454,0.038307227,-9.346964,0.8023209,47.701214,-0.99762464,-2.2531476,-3.279779,-0.26840267,-0.1009138,-0.4083788,28.3125,29.6875,28.75,32.5,35.0,36.0625
0.16605207,0.8806141,0.33637697,-0.2689818,-0.021173535,0.04749609,-0.18707635,-0.39512202,-0.36601767,0.05997275,-3.0776467,0.62551415,-0.00011268321,-0.07409389,0.03260892,0.0027227553,0.006676703,0.007327715,-0.005695317,0.49549758,-1.3757831,1.8968323,-2.089658,-1.5714449,2.4709945,-0.11678114,0.06797373,-0.09140774,0.020115139,-0.0095893,-0.11101972,-0.038307227,0.17238252,-9.346964,0.784413,47.698532,-0.97209704,-2.2479527,-3.2816594,-0.25244674,-0.09269576,-0.33790213,28.3125,29.6875,28.75,32.5,35.0,36.0625
0.16805208,0.007298927,-0.41932887,-0.52632314,-0.010099704,0.03298683,-0.17753471,-0.3952838,-0.3659542,0.060001396,-3.0776565,0.6255313,-3.074726e-05,-0.075203195,0.03297817,0.0028609536,0.006771715,0.0074183326,-0.0004246627,0.49525747,-1.3756742,1.8966273,-2.0896103,-1.5714687,2.470764,-0.118298166,0.06909819,-0.09320442,0.02074322,-0.009716726,-0.117806785,0.038307227,0.15322891,-9.461885,0.78217715,47.694946,-0.99264157,-2.3758173,-3.2611618,-0.25499186,-0.09993157,-0.29165894,28.3125,29.6875,28.75,32.5,35.0,36.0625
0.17005216,0.52057874,-0.25567153,-0.42419428,-0.022497458,0.047915556,-0.18133506,-0.39543504,-0.3658739,0.060002986,-3.077615,0.6255188,-2.555997e-05,-0.075241074,0.03249866,0.002619528,0.006489535,0.0063894964,0.0060270443,0.49500614,-1.3755299,1.8964361,-2.0895383,-1.5715045,2.4705102,-0.117941596,0.070535436,-0.09451275,0.021371491,-0.008987373,-0.1239026,0.05746084,0.1340753,-9.461885,0.7463667,47.677036,-1.0600951,-2.2339787,-3.3364022,-0.23611246,-0.09665534,-0.24942666,28.3125,29.6875,28.75,32.5,35.0,36.0625
0.1720522,0.22489737,-0.4341351,-0.67450905,-0.01897554,0.033251066,-0.1814566,-0.3955975,-0.3658051,0.060013756,-3.0776381,0.62555796,3.0429577e-05,-0.07602021,0.033249836,0.002132853,0.0066693015,0.0053174673,0.010802016,0.49474186,-1.3754091,1.8962682,-2.0895383,-1.5715045,2.4702675,-0.120094754,0.07184648,-0.095018424,0.02158587,-0.008635114,-0.13083152,0.076614454,0.22984336,-9.442732,0.82694155,47.691364,-0.9088682,-2.3646464,-3.295908,-0.24081498,-0.0971591,-0.13892579,28.3125,29.6875,28.75,32.5,35.0,36.0625
0.17405213,0.7004483,-0.44962037,-0.5416599,-0.018424395,0.042482242,-0.18310256,-0.3957372,-0.3657583,0.06000514,-3.0776417,0.6254029,3.7479655e-05,-0.076781966,0.033457488,0.0021864616,0.0070158937,0.0055552814,0.012134933,0.49455044,-1.3752289,1.8960656,-2.089502,-1.5715288,2.469979,-0.12084184,0.07279187,-0.09635068,0.021923022,-0.009058061,-0.1329099,0.076614454,0.28730422,-9.404425,0.8493211,47.693153,-1.1573135,-2.3331938,-3.239438,-0.22187921,-0.099810705,-0.09429522,28.3125,29.6875,28.75,32.5,35.0,36.0625
0.1760523,1.0397983,-0.10309134,-0.3653945,-0.039077364,0.04529542,-0.17816181,-0.39589414,-0.3656946,0.060011882,-3.077641,0.6253457,0.00010215034,-0.07728888,0.033524334,0.0025000877,0.0070282496,0.0059291287,0.009755196,0.49432245,-1.3750844,1.8958734,-2.0894783,-1.571565,2.4697156,-0.121262126,0.07301982,-0.09747164,0.022488384,-0.009242648,-0.13094987,0.076614454,0.30645782,-9.3661175,0.78888994,47.64479,-1.0521488,-2.3202176,-3.34521,-0.20468123,-0.09653856,-0.09542311,28.3125,29.6875,28.75,32.5,35.0,36.0625
0.17805229,0.36208668,-0.36701268,-0.3503114,-0.029495498,0.01905168,-0.16621102,-0.39607093,-0.3656178,0.060023848,-3.0776067,0.62545574,0.00013718382,-0.07865191,0.03354916,0.002599583,0.006767606,0.006020406,0.00415845,0.4940466,-1.3749278,1.8956465,-2.0894177,-1.5715889,2.469513,-0.12261711,0.074985474,-0.10015887,0.023003493,-0.009056685,-0.12670729,-0.019153614,0.2873042,-9.404425,0.8157518,47.664497,-1.1854954,-2.1090686,-3.2507143,-0.19771951,-0.10088108,-0.13257456,28.3125,29.6875,28.75,32.5,35.0,36.0625
0.1800523,1.1379031,-0.18661454,-0.26985207,-0.028139612,0.038917165,-0.17985323,-0.39616746,-0.36553615,0.059987236,-3.0775669,0.6253552,-3.293605e-05,-0.07881248,0.035270747,0.0007467518,0.008954298,0.0028659375,-0.0034217597,0.49380624,-1.3747828,1.8955387,-2.0893342,-1.571565,2.469215,-0.12536295,0.07725529,-0.09866367,0.023059221,-0.009494814,-0.121871114,-0.095768064,0.30645782,-9.385271,0.7709874,47.66987,-1.1483719,-2.2788048,-3.3917313,-0.1853865,-0.10101126,-0.16391888,28.3125,29.6875,28.75,32.5,35.0,36.0625
0.18205236,0.5555648,-0.69649154,-0.34748718,-0.014365898,0.030354956,-0.17061867,-0.3963551,-0.36548918,0.0600135,-3.077593,0.6253236,8.9602836e-05,-0.080554806,0.034890246,0.0022527908,0.0069896444,0.0056456164,-0.009019123,0.49357828,-1.3746148,1.895274,-2.08931,-1.5716008,2.468964,-0.12651898,0.07684155,-0.101602174,0.023028761,-0.00907668,-0.11743029,-0.076614454,0.30645782,-9.385271,0.7463667,47.667187,-1.0816929,-2.2272644,-3.3664942,-0.1730183,-0.10551642,-0.23477519,28.3125,29.6875,28.75,32.5,35.0,36.0625
0.1840525,0.33186767,-0.09534073,-0.25910786,-0.02028355,0.02489542,-0.17254286,-0.39653397,-0.36541358,0.060028173,-3.0775735,0.6254365,0.00015219164,-0.08015461,0.03538873,0.00011133271,0.008311455,0.0013834442,-0.012621817,0.49330258,-1.3744695,1.89506,-2.0892742,-1.5716242,2.4687614,-0.12748155,0.0805015,-0.10114946,0.023290155,-0.0082149785,-0.11479193,0.038307227,0.2681506,-9.385271,0.779936,47.686886,-1.1603984,-2.2199192,-3.32576,-0.16310392,-0.12128019,-0.31309846,28.3125,29.6875,28.75,32.5,35.0,36.0625
0.18605162,-0.11221241,-0.14596435,-0.026428498,-0.013139055,0.028184224,-0.17302258,-0.39665914,-0.36533567,0.05999562,-3.0775151,0.62546307,2.479673e-05,-0.082071565,0.035937663,0.0011584669,0.0074502937,0.0035403012,-0.016400108,0.4930503,-1.3742892,1.8949035,-2.0892026,-1.5716127,2.4685333,-0.12994164,0.08027786,-0.103292786,0.023351084,-0.008492491,-0.11347157,-0.15322891,0.2681506,-9.308656,0.76874626,47.684196,-1.1346774,-2.3749096,-3.3988519,-0.14030044,-0.11272587,-0.3554265,28.3125,29.6875,28.75,32.5,35.0,36.0625
0.18805167,-0.7730222,0.23409052,-0.078872636,-0.013303739,0.03051843,-0.1676635,-0.3968501,-0.36527514,0.06002047,-3.0775182,0.62563664,9.438118e-05,-0.08353909,0.035856806,0.0016462111,0.007340184,0.0047197687,-0.01838756,0.49277467,-1.3741325,1.8946527,-2.0891669,-1.5716127,2.4683657,-0.13080135,0.081704535,-0.10619498,0.02373586,-0.008951633,-0.11234202,-0.19153613,0.15322891,-9.155427,0.8560339,47.705692,-1.0938492,-2.2630107,-3.2600565,-0.122194916,-0.12349734,-0.39964503,28.3125,29.6875,28.75,32.5,35.0,36.0625
0.1900526,-0.76324224,-0.13485986,-0.2473971,0.010855486,0.038763102,-0.1649625,-0.39701343,-0.36520132,0.06002494,-3.0774794,0.62558985,0.00017920257,-0.084356606,0.036755428,0.0011194843,0.0075004995,0.002495608,-0.021146879,0.49254623,-1.3739759,1.8944482,-2.0891302,-1.5716842,2.4681132,-0.13357966,0.08339356,-0.107353926,0.025228014,-0.008038759,-0.112362504,-0.17238252,0.095768064,-9.251195,0.8560339,47.687782,-1.0504003,-2.3408155,-3.2595906,-0.102117226,-0.12055799,-0.46959388,28.3125,29.6875,28.75,32.5,35.0,36.0625
0.19205247,-0.37970653,0.061444603,-0.26787648,0.0061663636,0.06287975,-0.17899057,-0.3971911,-0.36514395,0.060028672,-3.0775182,0.62557614,0.00012771956,-0.08421912,0.037207223,0.0007142417,0.00837889,0.0008776086,-0.019091858,0.49225858,-1.3737835,1.8941973,-2.0890696,-1.5716366,2.467812,-0.13415563,0.08410329,-0.1076033,0.026609447,-0.008047869,-0.11499341,-0.4022259,0.076614454,-9.232041,0.82694155,47.672558,-1.0671406,-2.321469,-3.2944317,-0.11855965,-0.15062189,-0.47987562,28.3125,29.6875,28.75,32.5,35.0,36.0625
0.19405167,-0.5532983,0.34647015,-0.020276336,-0.009015591,0.075253785,-0.17521863,-0.3973203,-0.36507082,0.0600078,-3.0774667,0.6256016,4.0781335e-05,-0.08662264,0.037432734,0.0022827243,0.007405737,0.0035296173,-0.014999517,0.4920181,-1.3736153,1.8940285,-2.0889976,-1.5716366,2.4675941,-0.13642119,0.08426349,-0.1116095,0.027652085,-0.008462945,-0.12134835,-0.5363012,0.0,-9.193734,0.7777002,47.65464,-1.0356269,-2.2384555,-3.1272922,-0.098796725,-0.14737949,-0.48903313,28.3125,29.6875,28.75,32.5,35.0,36.0625
0.1960518,-0.6896207,0.8797916,-0.036762655,-0.0046676854,0.09458928,-0.18429029,-0.39752045,-0.36498505,0.060029443,-3.0774481,0.6257066,0.000103054845,-0.08562838,0.038776025,-0.0005315688,0.010786601,-0.0016620995,-0.008067257,0.49170688,-1.3734579,1.8937787,-2.0889375,-1.5716604,2.467351,-0.13739777,0.08779739,-0.10955073,0.0282213,-0.008988014,-0.12925665,-0.38307226,-0.11492168,-9.270349,0.8560339,47.64389,-1.1242081,-2.5261962,-3.3531246,-0.09570439,-0.15278986,-0.41659778,28.3125,29.6875,28.75,32.5,35.0,36.0625
0.19805181,-0.89398766,1.0217695,0.15991141,-0.0033089325,0.09879325,-0.18841454,-0.39771378,-0.3649006,0.06003428,-3.077414,0.6256919,0.0001509856,-0.087731555,0.037828274,0.0019254206,0.008014051,0.0025195826,0.002629344,0.4914192,-1.3732661,1.893526,-2.088877,-1.5717086,2.4670587,-0.13793321,0.08672635,-0.11399194,0.028716844,-0.0085350415,-0.1404882,-0.59376204,-0.095768064,-9.251196,0.8806493,47.666286,-1.0882366,-2.2496731,-3.1296234,-0.10795514,-0.16106194,-0.332873,28.3125,29.6875,28.75,32.5,35.0,36.0625
0.20005167,-0.69897103,1.0024467,0.1893154,-0.0058559207,0.1128346,-0.19297664,-0.39787212,-0.36485034,0.060039703,-3.0774505,0.62561876,0.00019089399,-0.08758409,0.038652346,-0.00046420784,0.010746946,-0.0018634245,0.008161842,0.4911914,-1.3731083,1.8933233,-2.0888655,-1.571709,2.4667807,-0.13892981,0.09126437,-0.11413776,0.02947136,-0.008876064,-0.14701618,-0.61291564,-0.076614454,-9.174581,0.84484416,47.71465,-1.2859378,-2.4854743,-3.2861497,-0.08581987,-0.15982442,-0.24173382,28.3125,29.6875,28.75,32.5,35.0,36.0625
0.20205256,-0.77039206,0.81886965,0.17049819,0.012355035,0.11152745,-0.18679868,-0.39802024,-0.36476612,0.0600135,-3.0773876,0.6256224,7.4507545e-05,-0.089288004,0.038967293,0.0014298577,0.009472625,0.0014860386,0.010942352,0.4909154,-1.3729049,1.8931192,-2.0887692,-1.571709,2.466515,-0.14065926,0.08933332,-0.1162812,0.029986108,-0.009354133,-0.15152378,-0.53630114,-0.11492168,-9.212888,0.85826975,47.71554,-1.3176163,-2.3388205,-3.1802764,-0.07338816,-0.17039752,-0.17178005,28.3125,29.6875,28.75,32.5,35.0,36.0625
0.20405254,-0.910366,0.8225065,-0.042586487,0.029088816,0.09092235,-0.17319515,-0.3981943,-0.36469066,0.060003977,-3.0773933,0.6255094,7.0054426e-05,-0.09155852,0.04035372,0.0009824409,0.009684552,0.0008720863,0.007757548,0.49063817,-1.3727119,1.8929032,-2.0887334,-1.571721,2.4661667,-0.14505276,0.09192943,-0.11840516,0.030149521,-0.009259775,-0.15273139,-0.6703764,-0.15322891,-9.251195,0.8224646,47.704796,-1.0029844,-2.3402476,-3.0481153,-0.07765794,-0.17099509,-0.1553856,28.3125,29.6875,28.75,32.5,35.0,36.0625
0.2060519,-0.5847609,0.9499315,-0.04228722,0.022897528,0.0871735,-0.17727599,-0.3984066,-0.36459473,0.060028665,-3.077356,0.62558234,0.00014543592,-0.092993096,0.04138091,0.0009783315,0.010377684,0.00097468676,-0.0012842508,0.49031448,-1.3725433,1.8926276,-2.0886495,-1.5717691,2.4658935,-0.14760794,0.09307143,-0.11990001,0.03073732,-0.009914243,-0.14624284,-0.78529817,-0.17238252,-9.289503,0.8291774,47.66808,-1.1713201,-2.4464357,-3.1433177,-0.06432528,-0.18750289,-0.1887536,28.3125,29.6875,28.75,32.5,35.0,36.0625
0.20805201,-0.08047494,1.1980379,-0.023377666,0.007655422,0.10152307,-0.18141335,-0.39857706,-0.36451533,0.06001204,-3.0773058,0.62563026,6.997641e-05,-0.09346411,0.041390434,0.0010366873,0.01106043,0.0010175258,-0.005409088,0.49002698,-1.3723267,1.8923887,-2.088565,-1.5717696,2.4656425,-0.14760408,0.09409324,-0.12145142,0.031554356,-0.010545158,-0.14211144,-0.91937345,-0.17238252,-9.3661175,0.784413,47.677036,-1.1274587,-2.4536762,-3.0559232,-0.05988157,-0.16723335,-0.21852648,28.3125,29.6875,28.75,32.5,35.0,36.0625
0.21005192,-0.8131486,1.1243345,-0.12198242,0.0006089132,0.10178617,-0.18757316,-0.3987781,-0.36440197,0.060004175,-3.0772483,0.6256771,0.00012596558,-0.09359774,0.041592225,7.78219e-05,0.01214515,-0.0011286844,-0.008788514,0.4896915,-1.3721457,1.8921856,-2.0885408,-1.5718292,2.4653437,-0.14803614,0.09663825,-0.12252413,0.032477487,-0.010492448,-0.13916346,-0.8619126,-0.13407528,-9.270349,0.7866488,47.709274,-1.1364704,-2.5399978,-3.0965443,-0.06451392,-0.18295328,-0.29329833,28.3125,29.6875,28.75,32.5,35.0,36.0625
0.21205197,-0.6421773,0.72263885,-0.19877239,0.0057528643,0.12076286,-0.18438041,-0.39896733,-0.36433074,0.060007233,-3.0772266,0.62569094,0.00014802974,-0.09397482,0.042343955,-4.8379312e-05,0.012903945,-0.0019442523,-0.010545502,0.48941556,-1.3719413,1.8919219,-2.0884807,-1.571853,2.4650793,-0.14940402,0.09701691,-0.12296093,0.033607606,-0.010778698,-0.1387736,-0.6512228,-0.076614454,-9.3661175,0.800085,47.711063,-1.1652343,-2.514534,-3.1327758,-0.03490757,-0.18300582,-0.32330078,28.3125,29.6875,28.75,32.5,35.0,36.0625
0.21405214,-1.08901,0.3948244,-0.46127576,-0.0024856206,0.11271124,-0.17528413,-0.39914957,-0.36423343,0.060006995,-3.0771933,0.6257406,7.502577e-05,-0.09415212,0.042380486,0.00014466948,0.013011458,-0.0021216797,-0.011190816,0.48908028,-1.3717612,1.8916835,-2.0883725,-1.5718416,2.4647794,-0.14955251,0.09720809,-0.123846754,0.034508135,-0.010799208,-0.13827594,-0.6512228,-0.019153614,-9.442732,0.8493211,47.66091,-1.1949902,-2.4700747,-3.0871663,-0.07497281,-0.17608967,-0.36342826,28.3125,29.6875,28.75,32.5,35.0,36.0625
0.21605219,-0.9862692,-0.16397177,-0.30170253,-0.008098105,0.107995234,-0.16957675,-0.39933085,-0.3641579,0.059983227,-3.0771377,0.62572783,2.3757098e-05,-0.09553139,0.04259256,0.0002490084,0.01297684,-0.0018086759,-0.011527129,0.4888044,-1.3715082,1.8914202,-2.088301,-1.5718654,2.4645028,-0.15101244,0.09893513,-0.12624763,0.034882426,-0.010931702,-0.13939746,-0.6512228,-0.038307227,-9.442732,0.8717007,47.698532,-1.231362,-2.4991136,-2.970746,-0.04772389,-0.20111349,-0.37312585,28.3125,29.6875,28.75,32.5,35.0,36.0625
0.2180526,-0.7837403,0.35368347,-0.47725037,-0.016897818,0.07689454,-0.18542162,-0.3995213,-0.36405158,0.059986655,-3.0770898,0.6257908,1.5761954e-05,-0.094668955,0.04418148,-0.0008180434,0.015080099,-0.004704119,-0.0085647,0.4884687,-1.3713402,1.8911933,-2.0882165,-1.5718893,2.4642127,-0.15253863,0.09865797,-0.12381714,0.036262657,-0.011432113,-0.14388573,-0.3256114,-0.076614454,-9.442732,0.8627467,47.694054,-1.2849934,-2.442192,-3.3531606,-0.065697245,-0.17682663,-0.37424615,28.3125,29.6875,28.75,32.5,35.0,36.0625
0.22005257,0.25084016,0.20158115,-0.46572915,-0.01814508,0.073988624,-0.18293169,-0.3997218,-0.36396295,0.0599823,-3.0770648,0.6257619,7.488897e-05,-0.09531153,0.044045206,-0.0006966071,0.0150731895,-0.005523474,-0.001571346,0.48816884,-1.3711356,1.8909539,-2.0881917,-1.5719374,2.4638982,-0.15305962,0.10017348,-0.12629221,0.037921857,-0.011052266,-0.1514001,-0.19153613,0.038307227,-9.576807,0.80679786,47.664497,-1.242679,-2.489654,-3.1368897,-0.07229269,-0.19600931,-0.3133068,28.3125,29.6875,28.75,32.5,35.0,36.0625
0.22205254,0.4287696,0.28130448,-0.39794976,-0.022004435,0.049032632,-0.18547238,-0.3999472,-0.36385012,0.05999621,-3.0769887,0.62581736,0.00013121482,-0.0969472,0.044811096,-6.748252e-05,0.014640944,-0.0032643867,0.00491045,0.48782104,-1.3709314,1.8906549,-2.0880845,-1.5720099,2.463595,-0.1553163,0.09987069,-0.12713596,0.036846828,-0.011748012,-0.16013645,-0.076614454,0.038307227,-9.595961,0.85826975,47.666286,-1.1458211,-2.383218,-3.2652562,-0.06354643,-0.16797537,-0.21582705,28.3125,29.6875,28.75,32.5,35.0,36.0625
0.22405244,0.8524176,0.53416115,-0.4540182,-0.017625904,0.03723848,-0.17934969,-0.4001547,-0.36377224,0.060001317,-3.0770085,0.6257608,0.00011533008,-0.09862104,0.04739768,-0.0018070826,0.016957602,-0.005834308,0.0072097406,0.4874961,-1.3707142,1.8903683,-2.088013,-1.571998,2.4632323,-0.16057564,0.10304888,-0.12699175,0.036871854,-0.012601419,-0.16769259,-0.038307227,0.076614454,-9.5385,0.8090337,47.667187,-1.2061198,-2.4124472,-3.3527718,-0.055714194,-0.16580528,-0.09774036,28.3125,29.6875,28.75,32.5,35.0,36.0625
0.2260526,0.63664526,0.02101331,-0.673391,0.004859593,0.0107655935,-0.16876967,-0.40034488,-0.36366597,0.059971556,-3.0769727,0.62573063,9.29157e-05,-0.09768478,0.04735819,-0.0009435581,0.016396157,-0.0065709935,0.010591419,0.48716095,-1.3704987,1.8901762,-2.0879996,-1.5720214,2.462883,-0.16011992,0.100652836,-0.12667593,0.03932541,-0.011767454,-0.1706209,0.11492168,0.0,-9.481039,0.8224646,47.699425,-1.0587556,-2.4822745,-3.386109,-0.08533095,-0.18126433,-0.033249658,28.3125,29.6875,28.75,32.5,35.0,36.0625
0.22805272,1.8412046,0.8307967,-0.41279423,-0.0065523307,0.022031896,-0.18306541,-0.40056604,-0.3635619,0.059989005,-3.076907,0.6257784,0.00013479199,-0.09896314,0.048720155,-0.002151557,0.017618407,-0.00977963,0.0023486363,0.4868245,-1.3702934,1.8898648,-2.0878794,-1.5720814,2.462585,-0.16374703,0.10417729,-0.12854104,0.04106446,-0.01134888,-0.16600502,0.15322891,0.019153614,-9.519346,0.83589023,47.703007,-0.93054044,-2.367013,-3.3366728,-0.070149854,-0.16868386,-0.06672588,28.3125,29.6875,28.75,32.5,35.0,36.0625
0.23005179,1.3028464,0.12923154,-0.5048132,0.007968842,-0.0054100105,-0.17601393,-0.4007516,-0.3634759,0.059965476,-3.0768907,0.6257386,8.712016e-05,-0.0985087,0.048854653,-0.001122268,0.017429637,-0.010365012,-0.0044405553,0.48651332,-1.3700658,1.8896388,-2.0878427,-1.5720814,2.4622512,-0.16377461,0.10220665,-0.12926036,0.044187877,-0.010907107,-0.15924442,0.11492168,0.019153614,-9.500193,0.8179876,47.698532,-0.99352217,-2.5036204,-3.5729432,-0.120901674,-0.17772976,-0.11896245,28.3125,29.6875,28.75,32.5,35.0,36.0625
0.23205195,0.5993212,-0.0011499585,-0.55008787,0.007861057,-0.01656577,-0.16067807,-0.4009446,-0.3633528,0.05996197,-3.0767682,0.62583023,6.9178976e-05,-0.09870779,0.04882727,-0.0015147758,0.018288258,-0.011642904,-0.009801733,0.48617774,-1.3698729,1.889387,-2.0877106,-1.5721534,2.4619887,-0.16373825,0.1040519,-0.13087682,0.045483515,-0.01108103,-0.15384488,0.15322891,0.095768064,-9.270349,0.8806493,47.675243,-1.0512803,-2.3575525,-3.4444907,-0.14244315,-0.18354139,-0.22135615,28.3125,29.6875,28.75,32.5,35.0,36.0625
0.23405197,1.120382,0.5142236,-0.5187745,0.00064934493,0.0031692062,-0.17395513,-0.4011354,-0.36329526,0.059966896,-3.076822,0.6258073,-1.8817766e-05,-0.10097947,0.04885079,-0.00021412005,0.016396878,-0.008976135,-0.019564278,0.4858656,-1.3696568,1.889099,-2.0876267,-1.5720814,2.4616554,-0.1659996,0.10428768,-0.13407843,0.045224443,-0.010660737,-0.14634338,0.15322891,0.15322891,-9.308657,0.8985519,47.67166,-0.92112625,-2.4091253,-3.359093,-0.15177713,-0.17334285,-0.30172962,28.3125,29.6875,28.75,32.5,35.0,36.0625
0.23605214,0.83695316,0.18547057,-0.44031927,-0.0023012487,0.010156575,-0.16873161,-0.40132305,-0.36317644,0.059948154,-3.0766926,0.62589645,-5.190095e-05,-0.10114307,0.04926589,0.0002230086,0.01627861,-0.010500007,-0.02349743,0.4855419,-1.3694404,1.8888592,-2.087518,-1.572153,2.461404,-0.16728005,0.104079835,-0.13550247,0.048135966,-0.009855514,-0.14369172,0.19153613,0.15322891,-9.481039,0.84484416,47.709274,-1.0164905,-2.3054023,-3.3159423,-0.17421034,-0.19251776,-0.35084504,28.3125,29.6875,28.75,32.5,35.0,36.0625
0.23805214,0.80842596,0.0079689585,-0.48227847,-0.018302158,0.018844698,-0.17062171,-0.40152997,-0.36309114,0.05998775,-3.0766923,0.62597406,-5.422466e-05,-0.10164504,0.05030835,-0.0014003444,0.018642098,-0.014234056,-0.027528191,0.48520604,-1.369283,1.8885487,-2.087374,-1.572141,2.4611168,-0.16919573,0.10803329,-0.13697556,0.050063834,-0.01020523,-0.14157477,0.1340753,0.21068975,-9.385271,0.8985519,47.670765,-1.035043,-2.315381,-3.2927942,-0.22010094,-0.19802082,-0.45478842,28.3125,29.6875,28.75,32.5,35.0,36.0625
0.24005204,0.7195412,-0.24126975,-0.7315314,-0.021035228,0.019230677,-0.1777306,-0.40176395,-0.362981,0.059997875,-3.0766468,0.6260593,-2.0955105e-05,-0.10303163,0.051296048,-1.533501e-05,0.01760378,-0.012207288,-0.027563857,0.48483378,-1.3690675,1.8882498,-2.0872896,-1.5721768,2.4608037,-0.17198937,0.105929404,-0.13777356,0.050676066,-0.010242848,-0.14433277,0.17238252,0.19153613,-9.5385,0.90750587,47.679718,-0.87787735,-2.2983322,-3.3686628,-0.2460565,-0.18325727,-0.49887395,28.3125,29.6875,28.75,32.5,35.0,36.0625
0.24205224,0.6775688,-0.39332798,-0.73146605,-0.030734004,0.023837354,-0.17373727,-0.40195176,-0.36288917,0.059981495,-3.076564,0.62609303,-7.555608e-05,-0.10397836,0.05184409,-0.0013040855,0.018859599,-0.014381123,-0.019737158,0.48453397,-1.368826,1.8879746,-2.0871823,-1.572213,2.4605358,-0.1736123,0.10978748,-0.13956383,0.051095046,-0.010372936,-0.1537801,0.1340753,0.11492168,-9.615114,0.84484416,47.701214,-0.9111793,-2.3115232,-3.3410373,-0.29717743,-0.2102771,-0.45590347,28.3125,29.6875,28.75,32.5,35.0,36.0625
0.24405229,0.16004473,-0.42556092,-0.62664133,-0.050940678,0.03653964,-0.1726423,-0.4021489,-0.36279508,0.0599799,-3.0765855,0.62607026,-0.00019488663,-0.10505287,0.051737722,0.00015980334,0.017241478,-0.011984556,-0.008645031,0.48416272,-1.3686224,1.8877109,-2.0870745,-1.572153,2.4601476,-0.17448899,0.108289085,-0.14117487,0.05131756,-0.0100906,-0.16574892,0.0,0.21068975,-9.576807,0.82694155,47.678825,-0.899081,-2.3158474,-3.341825,-0.3248824,-0.20758925,-0.35217553,28.3125,29.6875,28.75,32.5,35.0,36.0625
0.2460523,-0.3735726,-0.48848844,-0.43611684,-0.057038378,0.059900653,-0.17536996,-0.4023562,-0.36265838,0.059975185,-3.0764415,0.6261299,-0.00017751704,-0.10610297,0.052587807,-0.00074015674,0.017590284,-0.013084753,-0.0002722977,0.48381448,-1.3684174,1.8874472,-2.086943,-1.5722607,2.4598553,-0.17688884,0.110564046,-0.14172004,0.050685547,-0.00992394,-0.17652074,-0.15322891,0.30645782,-9.634268,0.87393653,47.64837,-0.9287792,-2.3136187,-3.3737488,-0.33909717,-0.21330318,-0.2409853,28.3125,29.6875,28.75,32.5,35.0,36.0625
0.24805246,-0.5155653,-0.6614985,-0.5588953,-0.051389337,0.0896323,-0.17575072,-0.4025611,-0.36256337,0.059960492,-3.0763814,0.62611383,-0.00026836354,-0.10755739,0.051198974,0.00019477117,0.015615833,-0.010816374,0.0052806535,0.48347974,-1.3681525,1.8871349,-2.0868118,-1.5722731,2.4595184,-0.1761744,0.11214851,-0.14562431,0.05006389,-0.009268847,-0.18135867,-0.2681506,0.4213795,-9.672575,0.8179876,47.637623,-1.1017131,-2.3287885,-3.1678438,-0.36390218,-0.22764781,-0.16877694,28.3125,29.6875,28.75,32.5,35.0,36.0625
0.25005242,-0.8029378,-0.516952,-0.4321835,-0.045289803,0.11343833,-0.17761901,-0.40280768,-0.36247864,0.05999695,-3.076415,0.6261206,-0.00014552937,-0.10859161,0.0503671,0.0011745045,0.014784736,-0.008813247,0.0044220695,0.48313254,-1.3679602,1.8868116,-2.0867636,-1.572297,2.4591713,-0.1754851,0.112767704,-0.14866959,0.05032588,-0.0094581125,-0.1798098,-0.45968673,0.2681506,-9.634268,0.8537928,47.66987,-1.0744122,-2.3216581,-3.2378736,-0.35879976,-0.23297012,-0.1428954,28.3125,29.6875,28.75,32.5,35.0,36.0625
0.2520525,-1.0785416,-0.67639714,-0.40979597,-0.03217447,0.11530859,-0.17206582,-0.40297562,-0.36237854,0.059982583,-3.076396,0.6260988,-0.00031165854,-0.1095263,0.050273117,0.00041349168,0.014211594,-0.0072664535,-0.0014774236,0.48278505,-1.3677675,1.8865846,-2.0866334,-1.5722488,2.4588127,-0.17594717,0.114567555,-0.14823893,0.046474013,-0.009690895,-0.1743704,-0.5363012,0.2681506,-9.500193,0.8157518,47.68062,-1.1572734,-2.3614712,-3.1780214,-0.37285528,-0.2636857,-0.19277841,28.3125,29.6875,28.75,32.5,35.0,36.0625
0.25405246,-1.5505204,-0.24401823,-0.4310927,-0.03676897,0.1030479,-0.17636824,-0.40321773,-0.3623038,0.059998304,-3.076385,0.6260395,-0.0002380335,-0.1104948,0.049047273,0.0009331788,0.012181843,-0.004323148,-0.005756056,0.482474,-1.3675029,1.8862141,-2.08655,-1.572297,2.4584663,-0.17491893,0.11530997,-0.1496943,0.043633502,-0.009260552,-0.16906418,-0.63206923,0.19153613,-9.500193,0.82022345,47.695843,-1.2419302,-2.2866094,-3.1779556,-0.3354434,-0.23415059,-0.28329188,28.3125,29.6875,28.75,32.5,35.0,36.0625
0.2560525,-0.9828028,0.001274694,-0.19312699,-0.037580576,0.10865407,-0.17769447,-0.40348336,-0.36220407,0.060026743,-3.0763936,0.62617683,-0.00014194028,-0.11256815,0.04931744,0.0009810613,0.011605748,-0.0022421572,-0.009267996,0.48207787,-1.3672861,1.8858799,-2.0865033,-1.5723089,2.458155,-0.17683056,0.11724073,-0.15166387,0.04156021,-0.009713629,-0.16746204,-0.6703765,0.1340753,-9.5385,0.86945957,47.65643,-1.1882651,-2.3882751,-3.2373066,-0.32379276,-0.2643063,-0.32996255,28.3125,29.6875,28.75,32.5,35.0,36.0625
0.25805262,-0.882997,0.1237199,-0.26510715,-0.023498725,0.09642206,-0.17437996,-0.40368468,-0.3620855,0.060005244,-3.0763044,0.626157,-0.00019960498,-0.113653086,0.0507984,5.1215036e-05,0.01314054,-0.002832972,-0.010941837,0.4817298,-1.3670452,1.8856167,-2.086395,-1.5723575,2.457806,-0.17952606,0.118970804,-0.15148772,0.04087975,-0.0108196875,-0.16847941,-0.5554548,0.095768064,-9.500193,0.8291774,47.661808,-1.1372603,-2.3550026,-3.1881151,-0.3076508,-0.2686707,-0.35720217,28.3125,29.6875,28.75,32.5,35.0,36.0625
0.2600518,-0.33056474,0.839041,-0.27960983,-0.027304308,0.094153635,-0.19123217,-0.4038986,-0.3619936,0.05999396,-3.076312,0.6261373,-0.00025441058,-0.114429615,0.05018151,0.0002543905,0.0119632445,-0.0011998239,-0.009788589,0.48137102,-1.3668046,1.8853415,-2.0863364,-1.5723337,2.4574342,-0.17925665,0.11980798,-0.15258642,0.03914658,-0.010547295,-0.16936319,-0.5746084,0.1340753,-9.461885,0.90750587,47.698532,-1.3089631,-2.4943602,-3.107206,-0.29087853,-0.2690758,-0.39494836,28.3125,29.6875,28.75,32.5,35.0,36.0625
0.26205182,-0.70493007,0.15119733,-0.031490516,-0.016726587,0.092129044,-0.1783681,-0.40414953,-0.361913,0.06001483,-3.0763266,0.6261151,-0.00014946121,-0.11502116,0.05034596,-0.0018415602,0.013825951,-0.0022621027,-0.00284206,0.48103535,-1.3665627,1.8849944,-2.0862896,-1.5723695,2.457083,-0.17924091,0.124440275,-0.15278663,0.03650167,-0.011716157,-0.17629023,-0.6512228,0.05746084,-9.423578,0.8717007,47.7451,-1.4342654,-2.583816,-3.3043551,-0.26934865,-0.28006577,-0.34436142,28.3125,29.6875,28.75,32.5,35.0,36.0625
0.26405182,-0.7096679,-0.15310077,0.10271252,-0.014029688,0.10050547,-0.18195365,-0.4044177,-0.3618195,0.06002721,-3.076312,0.6261636,-7.1886934e-05,-0.11651317,0.050313815,0.0003000108,0.011351648,0.0024842296,0.0059705367,0.480663,-1.3662878,1.8846244,-2.0862305,-1.5724052,2.456743,-0.18038681,0.12133783,-0.15366004,0.03509793,-0.011732898,-0.18624926,-0.45968673,-0.019153614,-9.32781,0.800085,47.71286,-1.4455919,-2.4665723,-3.3691454,-0.23029432,-0.2636041,-0.23364522,28.3125,29.6875,28.75,32.5,35.0,36.0625
0.26605177,-0.8302946,0.40187326,0.14744358,-0.01300819,0.090166,-0.18435979,-0.4046245,-0.36171356,0.060014483,-3.0762937,0.6260984,-0.00013337596,-0.117850766,0.051028624,0.00013457648,0.011528815,0.0023458905,0.012302739,0.48030233,-1.3660586,1.8843602,-2.086146,-1.5724057,2.4563441,-0.18261303,0.1229151,-0.15523793,0.035285085,-0.011852027,-0.19480601,-0.2681506,-0.076614454,-9.3661175,0.82022345,47.694054,-1.4039512,-2.6188745,-3.368816,-0.21227655,-0.2804503,-0.1439689,28.3125,29.6875,28.75,32.5,35.0,36.0625
0.26805198,-0.2353536,0.78722066,0.09835216,-0.0031800696,0.068231836,-0.18308698,-0.40489435,-0.36159444,0.060037687,-3.0762897,0.62611663,-1.6618837e-05,-0.118768066,0.052039362,-0.00033047568,0.012250772,0.0018222069,0.01235422,0.4798935,-1.3658421,1.8840379,-2.0860984,-1.5724539,2.4559474,-0.18477346,0.124146804,-0.15567355,0.03527058,-0.012244744,-0.19701718,-0.19153613,-0.15322891,-9.3661175,0.8403672,47.713753,-1.3222353,-2.4424882,-3.3718195,-0.19808495,-0.29868466,-0.060596608,28.3125,29.6875,28.75,32.5,35.0,36.0625
0.27005196,0.36396068,0.43206665,0.3900815,0.008387459,0.056034315,-0.17607994,-0.40512514,-0.3614969,0.06001907,-3.0762725,0.6260777,-3.71072e-05,-0.12050132,0.051975977,-0.0001329013,0.011751326,0.0033165354,0.0063681356,0.47953323,-1.3655654,1.8837384,-2.0860507,-1.5724658,2.4555652,-0.18594316,0.12610953,-0.15830225,0.034383196,-0.012498349,-0.19219846,-0.26815057,-0.15322891,-9.308656,0.86945957,47.67345,-1.2485485,-2.5019352,-3.3641963,-0.1726197,-0.28908554,-0.0831783,28.3125,29.6875,28.75,32.5,35.0,36.0625
0.27205196,0.8200023,0.8816314,0.33202887,0.028245462,0.030495066,-0.17903529,-0.40539068,-0.36138487,0.06003725,-3.076251,0.62613595,9.273718e-05,-0.1220701,0.05323275,0.000108671455,0.011991891,0.0047154548,-0.0035738917,0.47914818,-1.3653371,1.883416,-2.0860155,-1.5725263,2.4552195,-0.18881267,0.12616809,-0.15878658,0.033678193,-0.013339352,-0.18512408,-0.30645782,-0.15322891,-9.155427,0.88960326,47.701214,-1.1954368,-2.4417837,-3.3416824,-0.12483754,-0.29598612,-0.13891076,28.3125,29.6875,28.75,32.5,35.0,36.0625
0.27405217,1.3100277,1.5123792,0.23861176,0.041532587,0.023200568,-0.18818498,-0.40563947,-0.3613034,0.06003881,-3.0762773,0.62610716,0.00015840279,-0.12287665,0.05405651,-0.0010947367,0.013450785,0.0021883282,-0.011717365,0.47879955,-1.3650719,1.8830923,-2.0860026,-1.5725383,2.4548497,-0.19073458,0.12956196,-0.160401,0.034818966,-0.013454485,-0.17890179,-0.19153613,-0.19153613,-9.11712,0.8493211,47.696735,-1.2278016,-2.4585211,-3.412115,-0.0940269,-0.28798658,-0.25642964,28.3125,29.6875,28.75,32.5,35.0,36.0625
0.2760523,0.33024567,1.3477097,0.13734058,0.047199875,0.0033866502,-0.1750723,-0.40587717,-0.36118197,0.060035292,-3.0762258,0.6262171,7.0654554e-05,-0.12392408,0.055273406,0.00057077466,0.0130821355,0.0043265177,-0.02123284,0.47837895,-1.3648204,1.8827695,-2.0858705,-1.5725263,2.4545045,-0.19319238,0.12651116,-0.16090044,0.03631323,-0.014111951,-0.17184187,-0.095768064,-0.17238252,-9.193734,0.92093146,47.677036,-1.1276166,-2.3284655,-3.3502035,-0.06466955,-0.29459798,-0.34748888,28.3125,29.6875,28.75,32.5,35.0,36.0625
0.27805242,0.828459,1.7960361,0.5171244,0.022809485,0.024373958,-0.18903096,-0.40612864,-0.36107805,0.060048666,-3.076189,0.6263285,0.00013073799,-0.12588942,0.05651572,0.0009371965,0.012425327,0.0035130687,-0.028539559,0.4780053,-1.3645798,1.8824347,-2.085798,-1.5725621,2.4542053,-0.19749394,0.12766899,-0.1635849,0.03825082,-0.0131488545,-0.16883878,-0.15322891,-0.15322891,-9.097966,0.91198283,47.683304,-1.1630071,-2.398676,-3.1824198,-0.057689402,-0.318071,-0.45643592,28.3125,29.6875,28.75,32.5,35.0,36.0625
0.2800524,0.3914766,0.74424684,0.18062524,0.022415305,0.039857466,-0.18600349,-0.40637395,-0.3609371,0.06002873,-3.0760899,0.626383,0.00013926349,-0.12714693,0.05678781,0.0022406944,0.011824153,0.0043895096,-0.02772849,0.4775969,-1.3643157,1.8821477,-2.0857255,-1.5726336,2.4538438,-0.1990225,0.12724046,-0.1665987,0.040616404,-0.013031558,-0.17117733,-0.24899697,-0.095768064,-9.232041,0.88960326,47.693153,-1.1428682,-2.2157304,-3.2886257,-0.053711057,-0.3039202,-0.48320192,28.3125,29.6875,28.75,32.5,35.0,36.0625
0.28205237,-0.2348733,0.36317596,-0.108579256,0.009615413,0.05844743,-0.19250198,-0.40662366,-0.36082917,0.060041066,-3.0760665,0.62646633,9.482102e-05,-0.12769872,0.056183957,0.0035420805,0.011456134,0.0052137948,-0.0153477285,0.47718915,-1.3640636,1.8817877,-2.0855925,-1.5726217,2.4534912,-0.19833218,0.12704955,-0.16994491,0.043227464,-0.013106305,-0.18286629,-0.2681506,-0.11492168,-9.251195,0.8784135,47.698532,-1.0900873,-2.1445665,-3.2162416,-0.0750502,-0.3263167,-0.41049576,28.3125,29.6875,28.75,32.5,35.0,36.0625
0.28405246,-0.32011133,0.28693256,-0.32247365,-0.0063616685,0.0758942,-0.18566906,-0.4068464,-0.3607076,0.06002471,-3.0759962,0.6264444,1.0084714e-05,-0.12641004,0.05797506,0.0013155818,0.0144478185,-0.0010186244,-0.0030720758,0.4768045,-1.3637987,1.8814777,-2.08546,-1.572646,2.453102,-0.20023051,0.12904374,-0.16795598,0.04611763,-0.012930855,-0.19704042,-0.095768064,-0.095768064,-9.500193,0.89631605,47.709274,-1.0420591,-2.129549,-3.2828984,-0.08125912,-0.34362525,-0.28346175,28.3125,29.6875,28.75,32.5,35.0,36.0625
0.28605255,-1.2067138,-0.4987955,-0.59984404,-0.008449367,0.061098542,-0.17893311,-0.40710837,-0.3605963,0.060034897,-3.075968,0.62633735,9.189102e-05,-0.12687093,0.058361005,0.0011882012,0.015063003,-0.0020326695,0.004293159,0.47643232,-1.3635341,1.8811187,-2.085376,-1.572718,2.452667,-0.20111479,0.13019612,-0.16940236,0.047560155,-0.013025536,-0.20528929,-0.28730422,0.038307227,-9.576807,0.83813137,47.66091,-1.0454582,-2.1690974,-3.272782,-0.09900403,-0.33141398,-0.1799345,28.3125,29.6875,28.75,32.5,35.0,36.0625
0.2880526,-0.27450466,-0.41620335,-0.5072209,-0.032906163,0.096096255,-0.19111128,-0.4073418,-0.36045802,0.059998546,-3.0758877,0.62643564,-5.4437558e-05,-0.12729043,0.057789966,0.00094780937,0.015347962,-0.0021587901,0.005953885,0.4759886,-1.3632451,1.8808306,-2.0852683,-1.5727066,2.452295,-0.20027737,0.13232127,-0.17148095,0.04775239,-0.013252692,-0.2061095,-0.61291564,0.19153613,-9.653421,0.8985519,47.66808,-1.1525435,-2.196846,-3.2869794,-0.095911086,-0.35382962,-0.13504402,28.3125,29.6875,28.75,32.5,35.0,36.0625
0.29005167,-0.7268315,-0.7072282,-0.7570135,-0.03979553,0.09991784,-0.1831767,-0.40759468,-0.36034375,0.059984848,-3.075828,0.6263495,-8.56621e-05,-0.12748039,0.05730048,0.001135815,0.015532689,-0.0015462391,0.0010508986,0.4756048,-1.3629326,1.8804601,-2.085148,-1.5727543,2.4518654,-0.19923238,0.13305555,-0.17286837,0.047944672,-0.013706141,-0.20015875,-0.6895301,0.24899697,-9.634268,0.9254084,47.66808,-1.2866064,-2.1727045,-3.2616537,-0.086980686,-0.34459287,-0.17089969,28.3125,29.6875,28.75,32.5,35.0,36.0625
0.2920517,-0.71322334,-0.676127,-0.9353994,-0.033894278,0.09912642,-0.18919511,-0.40782183,-0.3602142,0.059985183,-3.0757883,0.62634534,-0.000135293,-0.12855944,0.058091056,0.0008999348,0.015772304,-0.0020234482,-0.008165069,0.47519633,-1.3627158,1.8801726,-2.0850284,-1.5727667,2.4514596,-0.20140459,0.13440587,-0.17406374,0.04833026,-0.013703563,-0.19311374,-0.49799395,0.22984336,-9.80665,0.8717007,47.65912,-1.3856255,-2.2731106,-3.3114216,-0.107499555,-0.36292014,-0.2716939,28.3125,29.6875,28.75,32.5,35.0,36.0625
0.29405186,-0.9070141,-0.7579441,-0.7654495,-0.03884288,0.08228546,-0.18247439,-0.40811813,-0.3601004,0.060017616,-3.0757828,0.6264033,-5.921434e-06,-0.1290832,0.05817296,-0.0006661066,0.017461985,-0.0037229368,-0.012190363,0.47477633,-1.3624618,1.8797783,-2.084957,-1.5728148,2.4510767,-0.20143335,0.13864166,-0.17549463,0.047805578,-0.014417607,-0.18911472,-0.36391866,0.2681506,-9.959879,0.9298854,47.678825,-1.4239762,-2.3858268,-3.301087,-0.0936882,-0.36456552,-0.31808,28.3125,29.6875,28.75,32.5,35.0,36.0625
0.29605198,-0.6291601,-0.85602206,-0.7639978,-0.043803643,0.068793245,-0.18788774,-0.40839997,-0.35998306,0.060034867,-3.0757396,0.62651086,3.998663e-05,-0.13042924,0.05903111,0.00029292642,0.016016373,-0.0014715262,-0.014692836,0.47435558,-1.3621867,1.8793849,-2.084849,-1.5728506,2.450729,-0.20407698,0.1369976,-0.17550632,0.046784505,-0.014165385,-0.1892571,-0.21068975,0.19153613,-9.883265,0.8403672,47.66808,-1.322567,-2.1775413,-3.3590887,-0.05487563,-0.36722487,-0.37065,28.3125,29.6875,28.75,32.5,35.0,36.0625
0.29805243,0.06971824,-0.5879249,-0.80915606,-0.044007473,0.061233852,-0.19243935,-0.40866634,-0.35985762,0.060026962,-3.0756938,0.62651765,4.2791038e-05,-0.13091706,0.059938043,-0.0007192838,0.01765423,-0.0026156236,-0.012327306,0.4739352,-1.3618976,1.8790373,-2.0847657,-1.5728868,2.4503188,-0.20532581,0.13901898,-0.17563243,0.04663799,-0.015115633,-0.19286785,-0.24899697,0.19153613,-9.653421,0.8403672,47.64658,-1.2349979,-2.3389866,-3.4090943,-0.047582336,-0.36686164,-0.4060465,28.3125,29.6875,28.75,32.5,35.0,36.0625
0.30005258,0.50289804,-0.33479565,-0.7911774,-0.035412647,0.04991203,-0.19320524,-0.40896204,-0.35974976,0.06007065,-3.0756977,0.6265704,0.00018837722,-0.13221338,0.060292132,-0.0011642147,0.018093217,-0.003736133,-0.0037343113,0.47352654,-1.3616563,1.8786296,-2.0846813,-1.572935,2.4499428,-0.20698564,0.14198352,-0.17843209,0.047632445,-0.015003998,-0.20312092,-0.038307227,0.15322891,-9.557653,0.9455522,47.68062,-1.2295961,-2.4586382,-3.319309,-0.04552546,-0.36967432,-0.3108433,28.3125,29.6875,28.75,32.5,35.0,36.0625
0.3020526,0.4211413,-0.08810924,-0.7171229,-0.015288246,0.017146042,-0.19133751,-0.40920776,-0.3596178,0.06002457,-3.07564,0.6264944,0.00010418683,-0.1337608,0.06143964,-0.0015838861,0.01886879,-0.004458909,0.0053608315,0.47310594,-1.3613311,1.8783306,-2.0846217,-1.5729588,2.4494824,-0.20989735,0.14413783,-0.18024637,0.04825319,-0.0154101895,-0.21512441,0.038307227,0.15322891,-9.615114,0.8717007,47.694054,-1.2100974,-2.45496,-3.3607867,-0.031460118,-0.36168367,-0.1780492,28.3125,29.6875,28.75,32.5,35.0,36.0625
0.30405274,0.41979453,-0.6170509,-0.8248613,0.0026676175,0.010842092,-0.1839898,-0.4095007,-0.35951397,0.060052056,-3.0756807,0.62646425,0.00019731332,-0.13414615,0.0628963,-0.002061958,0.019553969,-0.0062566055,0.0073932726,0.4726847,-1.3610667,1.8779372,-2.084561,-1.5729707,2.4490373,-0.21267776,0.14442399,-0.1797997,0.049412716,-0.015196466,-0.21993925,0.0,0.095768064,-9.519346,0.88960326,47.686886,-1.1672626,-2.5242534,-3.4801617,-0.038322583,-0.37407774,-0.10446034,28.3125,29.6875,28.75,32.5,35.0,36.0625
0.3060522,0.41920608,0.04096068,-0.3773528,-0.0022363467,0.007839393,-0.18459283,-0.40975124,-0.35938138,0.060043577,-3.075648,0.6264223,0.00014477344,-0.13528195,0.063824706,-0.0021594665,0.020785397,-0.007767344,0.0008044869,0.47225207,-1.3608022,1.8776144,-2.0844524,-1.5729827,2.448583,-0.21484964,0.14638242,-0.18257803,0.052140813,-0.015615539,-0.21551917,-0.05746084,0.076614454,-9.423578,0.8940802,47.655537,-1.0309263,-2.6104362,-3.5508027,-0.024354462,-0.36967558,-0.089780055,28.3125,29.6875,28.75,32.5,35.0,36.0625
0.30805203,0.66691923,0.4521989,-0.08850708,0.0030078618,0.01454708,-0.18733573,-0.41003644,-0.35925448,0.060061388,-3.075579,0.6264717,0.00023896461,-0.1359951,0.06473484,-0.0020893835,0.021494528,-0.009331439,-0.010404372,0.47184345,-1.3605266,1.8772186,-2.0843437,-1.5730666,2.4482143,-0.216926,0.14727065,-0.18444599,0.05483293,-0.015523023,-0.20638657,-0.15322891,0.0,-9.32781,0.8717007,47.66987,-0.98225677,-2.320007,-3.5980544,-0.043034904,-0.37344974,-0.17132738,28.3125,29.6875,28.75,32.5,35.0,36.0625
0.31005216,0.2821206,0.6546444,0.20520839,0.008665554,0.015818719,-0.19213264,-0.4103139,-0.35914826,0.060078472,-3.0755916,0.626538,0.00022507616,-0.13670719,0.065247975,-0.0016597454,0.021019774,-0.010425518,-0.020650655,0.4714102,-1.3602506,1.8768238,-2.084235,-1.5730423,2.447821,-0.21884061,0.14760433,-0.18640096,0.057227835,-0.014593847,-0.19805738,-0.21068975,-0.019153614,-9.193734,0.86945957,47.655537,-0.8466171,-2.3558667,-3.4547486,-0.07646443,-0.37967223,-0.29230845,28.3125,29.6875,28.75,32.5,35.0,36.0625
0.31205228,1.0118548,1.1423043,0.21231288,0.012659632,0.035057027,-0.19189258,-0.41057107,-0.35901046,0.06005414,-3.0755002,0.6265795,0.00015330614,-0.13716367,0.06512812,-0.0015454766,0.021509718,-0.012001233,-0.027905347,0.47097865,-1.3599381,1.8764766,-2.0841148,-1.5730785,2.4474273,-0.21907653,0.14942919,-0.18956314,0.060193967,-0.014328281,-0.19103706,-0.15322891,-0.11492168,-9.212888,0.86498255,47.701214,-0.89913845,-2.3999853,-3.2771945,-0.101731375,-0.38734716,-0.40657228,28.3125,29.6875,28.75,32.5,35.0,36.0625
0.31405225,0.33681753,0.8606872,0.44938067,0.02144277,0.040478338,-0.20213348,-0.4108732,-0.35891348,0.060071815,-3.0755348,0.62660366,0.0001947226,-0.13599461,0.06483827,-0.001346775,0.022810211,-0.01468326,-0.027477616,0.47054753,-1.3596263,1.8760451,-2.0840409,-1.5730661,2.447007,-0.21747866,0.1495049,-0.19116245,0.06469681,-0.014262523,-0.18986753,-0.22984336,-0.05746084,-9.155427,0.8090337,47.711063,-1.1856003,-2.404056,-3.2017574,-0.17369372,-0.40942577,-0.47819024,28.3125,29.6875,28.75,32.5,35.0,36.0625
0.31605244,0.024236783,1.0754919,0.26863363,0.02723691,0.062168356,-0.19183573,-0.4111308,-0.35877526,0.060066838,-3.0754395,0.6266739,0.00012744755,-0.13681628,0.0638614,1.0726415e-06,0.021360403,-0.0113774035,-0.01796626,0.4701157,-1.3593385,1.8756732,-2.0838745,-1.5731028,2.4466314,-0.21626773,0.14874579,-0.19314843,0.06380644,-0.014514397,-0.19816548,-0.2681506,-0.038307227,-9.155427,0.8672237,47.677036,-1.3453912,-2.3005695,-3.213901,-0.17374226,-0.4299174,-0.47680503,28.3125,29.6875,28.75,32.5,35.0,36.0625
0.31805244,-0.1397316,1.1812146,0.15752864,0.019253086,0.08198732,-0.19524673,-0.41141158,-0.3586507,0.060079534,-3.0753946,0.62677085,0.00010563503,-0.1370859,0.06435931,-0.0001197245,0.0225963,-0.012819252,-0.004852385,0.46967202,-1.3590505,1.8752655,-2.0837295,-1.5731148,2.4462543,-0.21690708,0.14988725,-0.19480585,0.06612818,-0.015000627,-0.21191625,-0.15322891,-0.076614454,-9.174581,0.9186956,47.684196,-1.4928198,-2.2205606,-3.2453976,-0.20808946,-0.4125437,-0.36106265,28.3125,29.6875,28.75,32.5,35.0,36.0625
0.3200525,0.09562826,0.94535756,0.034703135,0.0048689544,0.09873944,-0.20546566,-0.41167793,-0.35851467,0.06006802,-3.0753493,0.6266006,0.00010008134,-0.13651335,0.06643172,-0.00083777023,0.02641386,-0.017286686,0.005648127,0.46925145,-1.3587506,1.8749064,-2.0836198,-1.5731753,2.4457335,-0.21891265,0.15044673,-0.19510044,0.07153023,-0.016416168,-0.22441716,-0.15322891,-0.095768064,-9.212888,0.8537928,47.695843,-1.5190928,-2.2110205,-3.2415133,-0.2755549,-0.43089366,-0.21601841,28.3125,29.6875,28.75,32.5,35.0,36.0625
0.32205245,-0.27967116,0.21388176,0.13656332,0.0011323419,0.083133146,-0.18275893,-0.4119221,-0.35838065,0.06005956,-3.0752728,0.62654626,-1.1467591e-05,-0.13715185,0.06622668,-0.0021546588,0.027251424,-0.017462581,0.008916739,0.46883136,-1.3584614,1.874535,-2.0834296,-1.5731996,2.4452896,-0.21856447,0.15397069,-0.19588323,0.06930789,-0.017132273,-0.22733255,-0.24899697,0.038307227,-9.193734,0.9321212,47.686886,-1.5465772,-2.4048026,-3.1387558,-0.32633796,-0.44022536,-0.15584044,28.3125,29.6875,28.75,32.5,35.0,36.0625
0.32405242,-0.3260383,-0.20490164,0.0290131,-0.011126356,0.071831994,-0.18779777,-0.41222703,-0.35824066,0.060077537,-3.0751991,0.626575,6.762663e-05,-0.13943936,0.0673548,-0.00058893213,0.027243957,-0.013390839,0.0004356522,0.46838644,-1.3581624,1.8741049,-2.0832975,-1.5732845,2.4448724,-0.22115569,0.15263034,-0.19777073,0.06889447,-0.018969944,-0.22143596,-0.49799395,0.11492168,-9.251195,0.94331104,47.679718,-1.4833081,-2.17766,-3.2148886,-0.3339662,-0.39245504,-0.1906067,28.3125,29.6875,28.75,32.5,35.0,36.0625
0.32605255,-0.34779418,-0.018591069,0.0053457962,-0.02978377,0.06584068,-0.19102456,-0.4125271,-0.35811943,0.06010455,-3.075224,0.62658393,8.41539e-05,-0.14092419,0.06743443,0.00046885535,0.02578549,-0.010123217,-0.007990443,0.467918,-1.3578871,1.8736857,-2.0831792,-1.5732721,2.4444065,-0.22230892,0.15184309,-0.19889133,0.06724149,-0.01914002,-0.21416266,-0.47884035,0.038307227,-9.232041,0.87617236,47.681515,-1.4301155,-2.1602194,-3.3098688,-0.33008435,-0.39810205,-0.28401107,28.3125,29.6875,28.75,32.5,35.0,36.0625
0.32805192,0.14484075,-0.37250456,-0.37334174,-0.019226544,0.0669239,-0.19034244,-0.41279048,-0.35797405,0.060075942,-3.0751088,0.6265812,7.4307286e-06,-0.14438948,0.06777723,0.0015044903,0.023558512,-0.0060093687,-0.015711194,0.46748498,-1.357551,1.8733138,-2.0830357,-1.5733322,2.443987,-0.22578105,0.15330587,-0.20247257,0.06467381,-0.019043095,-0.20991082,-0.30645782,-0.019153614,-9.270349,0.8985519,47.683304,-1.46205,-2.0416923,-3.2788332,-0.32745332,-0.39442354,-0.3549667,28.3125,29.6875,28.75,32.5,35.0,36.0625
0.33005214,-0.16344136,-0.5609094,-0.31833404,-0.0120082665,0.056882475,-0.17914523,-0.41310692,-0.35781097,0.06010047,-3.0750415,0.62658983,8.880849e-05,-0.1474392,0.06911156,0.0017952909,0.02225873,-0.0021187013,-0.020932628,0.46699166,-1.357275,1.8728942,-2.082894,-1.5734161,2.443508,-0.23010318,0.15405574,-0.20313214,0.060502373,-0.01965089,-0.20900896,-0.4405331,0.038307227,-9.404425,0.9321212,47.67614,-1.3352611,-2.0707076,-3.3073323,-0.30436242,-0.38799793,-0.3918432,28.3125,29.6875,28.75,32.5,35.0,36.0625
0.33205217,-0.84617054,-0.29193854,-0.37774426,-0.017392103,0.060605466,-0.18420912,-0.4133838,-0.3576898,0.060085203,-3.0749888,0.62665004,3.751804e-05,-0.14755356,0.06975349,0.0008574199,0.022443624,-0.0029535939,-0.015136694,0.46655914,-1.3569387,1.8724998,-2.0827868,-1.5734285,2.44312,-0.23125024,0.15503423,-0.20191294,0.059103563,-0.019471027,-0.21595201,-0.59376204,0.038307227,-9.385271,0.97240865,47.686886,-1.1932826,-2.0264673,-3.3417113,-0.2799754,-0.3979391,-0.370993,28.3125,29.6875,28.75,32.5,35.0,36.0625
0.3340523,-0.54983705,-0.25533998,-0.5504481,0.0018877824,0.0864167,-0.19079235,-0.41364923,-0.35755092,0.060056753,-3.074928,0.626556,-6.177059e-05,-0.14979501,0.071244754,-0.00027788387,0.022637943,-0.0030490416,-0.007013588,0.4661139,-1.3566014,1.8721288,-2.0826561,-1.5734524,2.442624,-0.23541686,0.15826136,-0.20276238,0.056852512,-0.019662324,-0.22823845,-0.26815057,-0.076614454,-9.519346,0.9835985,47.682407,-1.0159798,-2.2185345,-3.4258757,-0.26899225,-0.38734502,-0.25769395,28.3125,29.6875,28.75,32.5,35.0,36.0625
0.33605212,-0.75169355,0.6631502,-0.71380633,-0.0050951317,0.09115635,-0.19540277,-0.41397476,-0.3574001,0.060075663,-3.0749035,0.62662196,-2.6120264e-05,-0.15161374,0.07069681,-0.0012727346,0.022302639,-0.0012331444,0.0010147451,0.46559796,-1.356301,1.8716973,-2.0825374,-1.5734767,2.4421527,-0.23554015,0.16254233,-0.204788,0.05278865,-0.020213481,-0.23638685,-0.21068975,-0.05746084,-9.634268,0.8985519,47.699425,-1.0233347,-2.283788,-3.447781,-0.2125498,-0.37889504,-0.13269794,28.3125,29.6875,28.75,32.5,35.0,36.0625
0.33805215,-0.779559,-0.017380804,-0.50306827,-0.011430143,0.09710159,-0.18685247,-0.41427875,-0.35728404,0.06009605,-3.0749161,0.62660503,7.943742e-05,-0.1520236,0.070266865,-0.0008359765,0.02191308,0.00078903604,0.0013212675,0.46516648,-1.3560128,1.8712906,-2.0824783,-1.5735129,2.4417093,-0.23467141,0.16242734,-0.20539613,0.051516555,-0.020766264,-0.23582368,-0.61291564,0.019153614,-9.5385,0.8806493,47.679718,-1.2097572,-2.268586,-3.474158,-0.1993316,-0.38572592,-0.08652468,28.3125,29.6875,28.75,32.5,35.0,36.0625
0.34005213,-1.352086,-1.0516793,-0.49502346,-0.008657164,0.0923083,-0.17301743,-0.41455263,-0.3571294,0.06005074,-3.0747852,0.62656367,-4.4455493e-05,-0.15226735,0.07033899,-0.0016684473,0.02315,-0.0010789274,-0.0072040386,0.46471044,-1.3556286,1.8708953,-2.082322,-1.573573,2.4412446,-0.23468484,0.16523236,-0.20722367,0.052765287,-0.021055145,-0.22730686,-0.63206923,0.0,-9.576807,0.90527004,47.694054,-1.264769,-2.2979684,-3.4571915,-0.17549466,-0.36688012,-0.14652877,28.3125,29.6875,28.75,32.5,35.0,36.0625
0.34205246,-0.6816328,-0.29495275,-0.905656,-0.012728785,0.08580419,-0.18737492,-0.41486236,-0.35698238,0.06004017,-3.0746956,0.62670547,-4.5120145e-05,-0.1539134,0.07066667,-0.0014482063,0.023292605,0.00035853017,-0.018736577,0.46422982,-1.3552803,1.8704752,-2.082214,-1.5736212,2.4408643,-0.23600332,0.16685869,-0.20964135,0.052346863,-0.021822745,-0.21708812,-0.40222588,0.038307227,-9.653421,0.94331104,47.66808,-1.2419312,-2.4062614,-3.3572078,-0.17876212,-0.35671198,-0.26566988,28.3125,29.6875,28.75,32.5,35.0,36.0625
0.3440517,-0.4638127,-0.43780282,-0.7942954,-0.02289807,0.07914549,-0.18390572,-0.41521138,-0.3568437,0.060078256,-3.0746891,0.6267637,0.00011474907,-0.15539509,0.0704718,-0.0013141886,0.02298909,0.0034307926,-0.025895488,0.46373796,-1.3549801,1.8700083,-2.082132,-1.5736817,2.44041,-0.2360889,0.16817814,-0.2109219,0.04942587,-0.022906119,-0.21001188,-0.34476504,0.11492168,-9.634268,0.95897776,47.675243,-1.3550501,-2.3825006,-3.4172158,-0.12792479,-0.33167797,-0.3908298,28.3125,29.6875,28.75,32.5,35.0,36.0625
0.34605187,-0.58982253,-0.67054856,-0.38903877,-0.03813769,0.07499257,-0.18087982,-0.41552117,-0.3566876,0.060080808,-3.074614,0.62680805,0.00016376107,-0.15620565,0.07142345,-0.0010440344,0.023405924,0.0035772233,-0.029760558,0.4632573,-1.3546683,1.8696021,-2.0820234,-1.5737537,2.439967,-0.2379448,0.16812001,-0.21170914,0.050308578,-0.023346085,-0.20800067,-0.5554548,0.11492168,-9.481039,0.9455522,47.689575,-1.4126575,-2.414203,-3.4336574,-0.10343859,-0.334686,-0.48585725,28.3125,29.6875,28.75,32.5,35.0,36.0625
0.34805217,-0.26375055,-0.20584767,-0.38250327,-0.028479215,0.06722319,-0.19310552,-0.4158151,-0.35655543,0.06007739,-3.0745752,0.62683177,0.00015368724,-0.15746228,0.07103289,-0.0007465836,0.023316735,0.004199179,-0.02123515,0.4628012,-1.3543435,1.8691939,-2.0819156,-1.5737776,2.4395308,-0.2380526,0.17026596,-0.21517718,0.05099392,-0.023577705,-0.21663114,-0.47884035,0.19153613,-9.404425,0.9164598,47.666286,-1.4098005,-2.4179375,-3.4816241,-0.09002703,-0.3069508,-0.46310538,28.3125,29.6875,28.75,32.5,35.0,36.0625
0.3500524,-0.087534785,0.42467555,-0.61206305,-0.01402639,0.06475164,-0.20081061,-0.416131,-0.3564272,0.060078423,-3.0745404,0.6269113,0.00017350199,-0.15709442,0.07075631,-0.0016645469,0.023228083,0.0019201279,-0.006690835,0.46233344,-1.3539954,1.86875,-2.0818198,-1.5738014,2.4391174,-0.23775686,0.17226177,-0.21565098,0.051409088,-0.022516992,-0.23088345,-0.15322891,0.17238252,-9.557653,0.97240865,47.66539,-1.4673625,-2.5056367,-3.5153596,-0.065656126,-0.28345516,-0.34044504,28.3125,29.6875,28.75,32.5,35.0,36.0625
0.35205254,-0.20630054,0.41386282,-0.29900625,-0.016528534,0.055134214,-0.1897622,-0.41643652,-0.35629553,0.060069952,-3.0745177,0.62684476,0.0001888059,-0.1594337,0.0715012,-2.0770276e-06,0.02124978,0.004113511,-0.00073105225,0.46187633,-1.3536484,1.8683313,-2.0817354,-1.5738372,2.438622,-0.24127972,0.17147236,-0.2187536,0.052405916,-0.021756196,-0.24036796,-0.038307227,0.17238252,-9.481039,0.9365982,47.677036,-1.3776448,-2.3167243,-3.495219,-0.040589843,-0.31162104,-0.21627754,28.3125,29.6875,28.75,32.5,35.0,36.0625
0.35405183,0.00909313,-0.042279262,-0.38228542,-0.010537987,0.039050307,-0.18761985,-0.41678554,-0.35612184,0.060070883,-3.0744543,0.6268732,0.00025495843,-0.16195777,0.07336729,0.00083108805,0.021787375,0.0054815537,-0.0045253686,0.46133465,-1.3533006,1.8678879,-2.0816395,-1.5739096,2.4381065,-0.24568352,0.17183888,-0.2214304,0.05370407,-0.022853907,-0.2409726,-0.038307227,0.15322891,-9.3661175,0.87617236,47.678825,-1.3062906,-2.2387354,-3.4375033,-0.018741913,-0.2818649,-0.16427568,28.3125,29.6875,28.75,32.5,35.0,36.0625
0.35605195,-0.1541159,0.5750639,-0.44302025,-0.020880252,0.020860419,-0.18654402,-0.4171051,-0.35597092,0.060072,-3.0743902,0.6268847,0.00025288833,-0.16393931,0.07482395,0.001008922,0.022902735,0.0065184836,-0.014083521,0.46084183,-1.3529524,1.8674325,-2.0814955,-1.5739583,2.4376295,-0.24873254,0.17305885,-0.22343814,0.05406299,-0.024313886,-0.23445636,-0.22984336,0.13407528,-9.385271,0.91198283,47.66808,-1.1146933,-2.2711732,-3.3145728,-0.010869993,-0.25200742,-0.24685636,28.3125,29.6875,28.75,32.5,35.0,36.0625
0.35805205,0.15596637,0.013964656,-0.66915584,-0.004017283,0.027860878,-0.18199776,-0.4174194,-0.3558398,0.060080852,-3.0743673,0.6268822,0.00032243947,-0.16349596,0.07454239,-0.00031326385,0.02428716,0.0034043798,-0.018993987,0.46038622,-1.3526278,1.8670014,-2.0814111,-1.5740055,2.4371755,-0.24781433,0.17642891,-0.22489193,0.055548493,-0.024153814,-0.22862795,-0.36391866,0.21068975,-9.442732,0.9097417,47.686886,-1.132163,-2.211917,-3.3134038,-0.009392617,-0.2428537,-0.32344967,28.3125,29.6875,28.75,32.5,35.0,36.0625
0.36005202,0.8186543,0.2768428,-0.37958705,-0.02003416,0.053155605,-0.18784805,-0.41774482,-0.35568908,0.060075447,-3.0742888,0.6269827,0.00029603054,-0.1642217,0.07459691,0.0020231795,0.022385288,0.0055093667,-0.022328448,0.45988202,-1.3522573,1.8665336,-2.081267,-1.5740417,2.4367445,-0.2487958,0.17322567,-0.22695197,0.058066424,-0.023391549,-0.22627681,-0.22984336,0.076614454,-9.481039,0.8940802,47.694054,-1.1619451,-2.139396,-3.4642575,-0.015894325,-0.23154156,-0.36763728,28.3125,29.6875,28.75,32.5,35.0,36.0625
0.362052,-0.27345085,-0.11821475,-0.57414895,-0.014911802,0.040464774,-0.18136825,-0.41809425,-0.35551712,0.060073107,-3.074214,0.627118,0.000320832,-0.16464582,0.0753378,0.0011621892,0.023544742,0.0023637959,-0.017859975,0.4593296,-1.3518966,1.8660787,-2.0811584,-1.5740899,2.4362864,-0.2504083,0.17596994,-0.22894049,0.06059955,-0.02305485,-0.23235793,-0.21068975,0.11492168,-9.423578,0.9365982,47.728977,-1.1874626,-2.20812,-3.402274,-0.032389678,-0.23362008,-0.36518258,28.3125,29.6875,28.75,32.5,35.0,36.0625
0.364052,-0.52804786,-0.46105504,-0.33002812,-0.00019256181,0.051880118,-0.18179086,-0.41841015,-0.35536984,0.06006008,-3.0741758,0.62714154,0.00028040854,-0.16318586,0.07591463,-0.00034813603,0.026161019,-0.0029004447,-0.0043031448,0.45882505,-1.3515359,1.8656477,-2.0810492,-1.5741018,2.4358017,-0.24995074,0.17806485,-0.22893861,0.064323835,-0.023104582,-0.24545622,-0.13407528,-0.076614454,-9.3661175,0.8851263,47.709274,-1.0159047,-2.2018244,-3.3750172,-0.048109047,-0.1984293,-0.27078238,28.3125,29.6875,28.75,32.5,35.0,36.0625
0.36605194,-0.4979287,0.5677526,-0.39475158,0.010864749,0.04770112,-0.18137151,-0.41873974,-0.3552293,0.060076106,-3.0741389,0.6270314,0.00034205476,-0.16313882,0.0771032,-0.0012588681,0.027770512,-0.0067629647,0.0038107573,0.45835727,-1.3511876,1.8651575,-2.0809042,-1.5741738,2.4352703,-0.25187725,0.17990811,-0.22987528,0.06753017,-0.022864617,-0.25549728,-0.17238252,-0.095768064,-9.423578,0.85826975,47.698532,-1.1186779,-2.2966888,-3.3910894,-0.08221798,-0.20700574,-0.14187568,28.3125,29.6875,28.75,32.5,35.0,36.0625
0.36805186,-0.53448457,0.8721231,-0.12578423,0.022949824,0.042729508,-0.17130762,-0.41906404,-0.35506612,0.060075533,-3.0740843,0.6270405,0.0003536395,-0.1626421,0.077325225,-0.0013191404,0.028126402,-0.00900938,0.0031306513,0.45784122,-1.350852,1.864726,-2.080784,-1.574221,2.4347672,-0.2520614,0.1801526,-0.2307032,0.070262045,-0.02220074,-0.2550033,-0.30645782,-0.095768064,-9.3661175,0.88960326,47.679718,-1.2673006,-2.1752071,-3.4038148,-0.10026344,-0.21133259,-0.075743444,28.3125,29.6875,28.75,32.5,35.0,36.0625
0.37005192,-0.9355841,0.6428734,-0.08577245,0.03206547,0.039578397,-0.17000087,-0.41939488,-0.35491738,0.060070902,-3.074032,0.6270733,0.00035148129,-0.1626923,0.07717187,-0.0010354152,0.028427491,-0.010672784,-0.0050268103,0.45733762,-1.35048,1.8642591,-2.0806625,-1.5742573,2.4342911,-0.25194886,0.18116674,-0.233375,0.07355258,-0.021731589,-0.24673371,-0.45968673,-0.1340753,-9.251195,0.88960326,47.694054,-1.3879876,-2.1044002,-3.481823,-0.13970725,-0.1929319,-0.1606534,28.3125,29.6875,28.75,32.5,35.0,36.0625
0.37205184,-0.0427821,1.1251625,-0.22890337,0.032410774,0.04888031,-0.16389559,-0.4197122,-0.3547728,0.060067493,-3.073973,0.6270868,0.00029586535,-0.16263418,0.07731156,-0.0001683493,0.028445574,-0.011004828,-0.015541434,0.4568451,-1.3501089,1.8637799,-2.0804942,-1.5742811,2.433815,-0.2520397,0.18017696,-0.23482648,0.0763201,-0.021597864,-0.236309,-0.36391866,-0.15322891,-9.32781,0.8806493,47.68599,-1.4760576,-2.0814524,-3.4872584,-0.18062872,-0.19373757,-0.2722879,28.3125,29.6875,28.75,32.5,35.0,36.0625
0.3740519,-0.2741663,0.7764716,0.021723306,0.034320295,0.026361471,-0.16997771,-0.42003542,-0.35461646,0.060061995,-3.073902,0.62719256,0.00025601167,-0.16341121,0.07797591,-0.00016893087,0.030089496,-0.011687195,-0.024544748,0.4563288,-1.3497484,1.8633236,-2.0803502,-1.5743059,2.4333742,-0.25290644,0.18172085,-0.23725076,0.0785543,-0.022775311,-0.22816578,-0.28730422,-0.22984336,-9.289503,0.92093146,47.67166,-1.4674492,-2.1816401,-3.393249,-0.21748215,-0.17395124,-0.40557492,28.3125,29.6875,28.75,32.5,35.0,36.0625
0.37605187,0.21268846,0.9765732,0.08402307,0.01760881,0.03608053,-0.18299738,-0.42036903,-0.354459,0.06005132,-3.0738006,0.6272685,0.00023303095,-0.16569082,0.07951137,-0.00069200067,0.031096106,-0.012634429,-0.028233299,0.45582354,-1.3493515,1.8628324,-2.0801942,-1.5743655,2.4329298,-0.2568797,0.18503182,-0.24038051,0.07964314,-0.02329324,-0.22844563,-0.30645782,-0.095768064,-9.212888,0.9298854,47.684196,-1.3371365,-2.1786404,-3.2628064,-0.235634,-0.16384272,-0.48937935,28.3125,29.6875,28.75,32.5,35.0,36.0625
