Tylouw/Master_Thesis_Code/training_data/batch_1/rect_rod_t0.3/sample_3_session_1.csv
timestamp[s],tcp_force_x[N],tcp_force_y[N],tcp_force_z[N],tcp_force_rx[Nm?],tcp_force_ry[Nm?],tcp_force_rz[Nm?],tcp_pose_x[m],tcp_pose_y[m],tcp_pose_z[m],tcp_pose_rx[rot_vec_x],tcp_pose_ry[rot_vec_y],tcp_pose_rz[rot_vec_z],tcp_velo_x[m/s],tcp_velo_y[m/s],tcp_velo_z[m/s],tcp_velo_rx[rot_vec_x/s],tcp_velo_ry[rot_vec_y/s],tcp_velo_rz[rot_vec_z/s],q1[rad],q2[rad],q3[rad],q4[rad],q5[rad],q6[rad],qd1[rad/s],qd2[rad/s],qd3[rad/s],qd4[rad/s],qd5[rad/s],qd6[rad/s],tool_acc_x,tool_acc_y,tool_acc_z,current_of_whole_robot[A],voltage_of_whole_robot[V],current_J1[A],current_J2[A],current_J3[A],current_J4[A],current_J5[A],current_J6[A],temp_J1[C],temp_J2[C],temp_J3[C],temp_J4[C],temp_J5[C],temp_J6[C]
1.0189833e-06,-0.15407877,-0.14308472,-0.016973425,-0.034641135,0.016527392,-0.00598302,-0.38933697,-0.36869502,0.060008105,-3.0786862,0.6249825,0.00015271861,0.0005161156,0.00025526521,-0.000112073154,0.00070688815,-0.0015441375,8.5438835e-05,0.50498486,-1.3816679,1.9042224,-2.0918791,-1.5708417,2.4800134,-2.9497412e-05,-0.00013483276,-3.875647e-07,0.001828111,0.00013265519,-0.000115346826,0.13407528,0.1340753,-8.695741,0.779936,47.694946,-0.18702357,-3.0340152,-2.3213801,-0.19594839,0.10211608,-0.009191302,28.1875,29.625,28.6875,32.375,34.875,35.9375
0.0020549651,0.06933375,-0.14217652,-0.14986713,-0.026044134,0.02106562,-0.0075928895,-0.38934606,-0.36871263,0.06002116,-3.0787125,0.62493,0.000238524,-0.0017408698,-0.0009984482,0.00018249416,-0.0035685753,0.006152615,8.401465e-05,0.50502086,-1.3816679,1.904199,-2.0919073,-1.5708655,2.4800134,-2.9021825e-05,-1.8089536e-06,0.0015514527,-0.008661276,0.00012947447,-0.00011293448,0.11492168,0.17238252,-8.676587,0.78217715,47.694054,-0.22847389,-3.0407186,-2.2264166,-0.17490093,0.10933004,-0.017249662,28.1875,29.625,28.6875,32.375,34.875,35.9375
0.004053679,-0.33767557,-0.22303124,-0.06611098,-0.038553525,0.021423884,-0.0031575856,-0.3893555,-0.36872673,0.06001697,-3.0787303,0.6250101,0.00024189173,-0.0021980407,-0.0012522878,-0.0007375776,-0.0040713334,0.0070549278,8.243789e-05,0.50502086,-1.3816434,1.904188,-2.091944,-1.5708417,2.480061,-2.8561326e-05,0.0016749729,0.0024921075,-0.012311625,0.00012644257,-0.00011062092,0.095768064,0.19153613,-8.6574335,0.7642693,47.707485,-0.17002006,-3.2363605,-2.5901072,-0.027390273,0.114814796,-0.011857137,28.1875,29.625,28.6875,32.375,34.875,35.9375
0.00605439,-0.7249262,-0.30801252,-0.09332146,-0.030866766,-0.0023483017,-0.0006688669,-0.38934672,-0.36872017,0.060016878,-3.0787225,0.62491274,0.00024980793,-0.00096894754,-0.00056824257,-0.00092344376,-0.0017702878,0.0029220225,8.036714e-05,0.5050329,-1.3816553,1.904199,-2.0919292,-1.5708655,2.4800134,-2.8115252e-05,0.0015957521,0.0017489941,-0.0067589944,0.00012354943,-0.00010840023,-0.019153614,0.15322891,-8.580819,0.7284641,47.703007,-0.21197516,-3.290128,-2.5830348,-0.068485424,0.1085594,-0.024077784,28.1875,29.625,28.6875,32.375,34.875,35.9375
0.008053593,0.42921522,0.39715022,-0.4477925,0.009974465,0.00077997136,-0.011990091,-0.3893344,-0.36871332,0.0599912,-3.0786912,0.6249446,0.00020522854,4.50469e-06,-2.5269359e-05,0.00040427063,-0.0008246659,0.0012410595,7.793372e-05,0.5050329,-1.3816323,1.9042352,-2.0919511,-1.5708655,2.4800372,-2.768286e-05,-0.0013480034,0.0009101623,-0.001047748,0.000120786026,-0.00010626702,-0.038307227,0.22984336,-8.6574335,0.78217715,47.7245,-0.15378109,-3.186925,-2.527633,-0.09979123,0.12412753,-0.012164507,28.1875,29.625,28.6875,32.375,34.875,35.9375
0.010054182,0.21001776,1.2243782,-0.859933,0.0120347245,-0.010073408,-0.009659943,-0.38936198,-0.36871436,0.060008563,-3.078705,0.6249478,0.00023120988,0.00086426776,0.00045867113,0.00061914977,0.0010556849,-0.00213479,7.5894946e-05,0.5050088,-1.3816203,1.9041756,-2.0919254,-1.5708655,2.4800134,-3.623838e-05,-0.0015202174,-0.0006430501,0.0045418865,0.0001181431,-0.000112762544,-0.038307227,0.19153613,-8.90643,0.7083204,47.716442,-0.7656449,-2.6793156,-2.811109,-0.15995604,0.094565734,-0.09887776,28.1875,29.625,28.6875,32.375,34.875,35.9375
0.012053781,0.20990774,0.4004701,-0.96368134,-0.002864291,0.011335741,-0.01791793,-0.3893346,-0.36872226,0.059982434,-3.0786817,0.6249237,0.00012259423,0.0005097282,0.00030701444,9.846998e-05,0.0010706229,-0.0021633345,0.00015068152,0.50503284,-1.3815837,1.9041866,-2.0919025,-1.5708417,2.4800253,-0.000112054775,-4.880178e-05,-0.00093663327,0.0033962461,0.000115613664,-0.00026289377,0.17238252,0.05746084,-9.174581,0.7553206,47.675243,-0.9407983,-2.6943226,-2.948258,-0.1371273,0.096097335,-0.13882785,28.1875,29.625,28.6875,32.375,34.875,35.9375
0.0140543915,-0.485298,-0.3085044,-1.1516201,-0.045326144,0.0359805,-0.016349973,-0.3893432,-0.368706,0.059979137,-3.0786593,0.624938,0.0001161471,-0.0034998688,0.0049120192,-0.0054683583,0.0056450777,-0.010411266,-0.0007484487,0.5050048,-1.3815795,1.9041866,-2.091891,-1.5708536,2.480009,-0.011606873,0.011734269,-0.001867589,0.0019740474,9.680071e-05,-0.010856149,0.076614454,-0.019153614,-9.193734,0.7396539,47.65912,-0.5231498,-3.294541,-3.029133,-0.13004737,0.095903814,-0.0911243,28.1875,29.625,28.6875,32.375,34.875,35.9375
0.016053574,-0.9655207,-0.8107547,-1.0461557,-0.07179509,0.05696083,-0.030495407,-0.3893293,-0.36867484,0.05994546,-3.0785902,0.6249204,4.2968633e-05,-0.005377389,0.0048055253,-0.0033913348,0.0033489459,-0.006265039,0.0051853154,0.5049803,-1.3815565,1.9042333,-2.0918791,-1.5708774,2.4799824,-0.013180921,0.009623548,-0.0039826846,0.0014586855,9.255014e-05,-0.018363377,-0.076614454,0.05746084,-9.346964,0.7284641,47.713753,-0.46882868,-3.152404,-3.108051,-0.1078669,0.08871621,-0.03566919,28.1875,29.625,28.6875,32.375,34.875,35.9375
0.018053876,-1.1920685,-0.8011175,-1.1559677,-0.061553553,0.0788538,-0.046971314,-0.38932693,-0.36868253,0.05993468,-3.0786164,0.62484705,5.3284098e-06,-0.005798766,0.004285219,-0.0021121225,0.0021185975,-0.0040409835,0.009664056,0.50498056,-1.381533,1.9042329,-2.091891,-1.5708536,2.4799335,-0.012697427,0.008048052,-0.0050568227,0.0015664402,9.054036e-05,-0.022358444,-0.38307226,0.11492168,-9.346964,0.7284641,47.658226,-0.7893671,-2.8874397,-3.1774065,-0.07271843,0.0908899,0.022589602,28.1875,29.625,28.6875,32.375,34.875,35.9375
0.020054195,-1.6942518,0.030022,-1.5343668,-0.018070478,0.078432694,-0.069873475,-0.38930416,-0.3686714,0.05990792,-3.078587,0.624804,-0.000120877456,-0.00546126,0.0050619086,-0.0022987234,0.003709547,-0.006936557,0.0075918813,0.5049682,-1.3815088,1.9042567,-2.0918539,-1.5708297,2.479898,-0.013698245,0.008446034,-0.005967491,0.005383606,0.00010416695,-0.021287087,-0.36391866,0.11492168,-9.500193,0.73741806,47.64927,-0.80488247,-2.8152351,-3.2613518,-0.09474884,0.077404685,-0.01991872,28.1875,29.625,28.6875,32.375,34.875,35.9375
0.022054365,-1.812618,0.58046126,-1.8884926,0.017284304,0.06725436,-0.09020472,-0.38933367,-0.36863753,0.059902195,-3.0785441,0.6248938,-0.00016554505,-0.0059500188,0.0061046816,-0.0026591215,0.004910188,-0.009103884,0.00289919,0.50488365,-1.3814843,1.9042324,-2.0918167,-1.5708297,2.4798748,-0.015910853,0.009516547,-0.006954878,0.007778495,0.00010428194,-0.018806687,-0.30645782,0.019153614,-9.653421,0.65684843,47.67345,-0.86248225,-2.858901,-3.3799114,-0.13671972,0.076415166,-0.059952475,28.1875,29.625,28.6875,32.375,34.875,35.9375
0.024054363,-1.5582211,0.5349295,-1.7374125,0.00521444,0.073539265,-0.09835556,-0.38933492,-0.36865202,0.059909042,-3.0785716,0.62484384,-0.00013446798,-0.008115838,0.006221653,-0.0025228441,0.0039758133,-0.0074258284,-0.00046322704,0.50490683,-1.3814837,1.904219,-2.09183,-1.5708297,2.4798634,-0.018133672,0.011563582,-0.00932058,0.0061766636,0.00010244248,-0.017665619,-0.59376204,0.0,-9.672575,0.7284641,47.668976,-0.8115275,-2.8345187,-3.3282967,-0.11600441,0.055706605,-0.07941001,28.1875,29.625,28.6875,32.375,34.875,35.9375
0.026054267,-1.6594467,-0.28085926,-1.8872842,-0.008114131,0.08530963,-0.11415875,-0.38934675,-0.36862567,0.059874203,-3.0785055,0.6248492,-0.00022293176,-0.009164221,0.005744442,-0.0025741437,0.0034176551,-0.006403645,-0.0010981611,0.50485885,-1.381411,1.9042071,-2.0918067,-1.5708417,2.4798272,-0.018303454,0.0133861005,-0.011078871,0.004947713,8.810856e-05,-0.017199311,-0.7278373,-0.019153614,-9.768343,0.6702794,47.6421,-0.93435943,-2.8990312,-3.3643577,-0.08439393,0.05906717,-0.08741742,28.1875,29.625,28.6875,32.375,34.875,35.9375
0.028053494,-2.1445072,-0.53078485,-1.9405705,-0.029763112,0.09920264,-0.12535672,-0.38935664,-0.36863303,0.059879042,-3.0785115,0.6248706,-0.0002633055,-0.009787955,0.005762914,-0.0027050106,0.0036418415,-0.006801963,-0.0026059593,0.50484675,-1.3813865,1.904159,-2.09177,-1.5708174,2.4798276,-0.018915003,0.014793519,-0.012565997,0.0054850294,8.253779e-05,-0.016302278,-0.7469909,-0.095768064,-9.959879,0.7777002,47.64837,-0.92646277,-2.8401232,-3.3334174,-0.07264597,0.057614848,-0.10343681,28.1875,29.625,28.6875,32.375,34.875,35.9375
0.030053811,-2.6959283,-0.7439857,-2.0922036,-0.03610812,0.1020574,-0.1350444,-0.38938022,-0.36861807,0.059878103,-3.078473,0.6248441,-0.00025447132,-0.010410049,0.0062997565,-0.0026184467,0.00417904,-0.0077689085,-0.0047144694,0.50482213,-1.3813502,1.9041098,-2.0917337,-1.5708536,2.4797914,-0.020399157,0.015508322,-0.014027857,0.007337752,8.0797516e-05,-0.015677406,-0.7278373,-0.095768064,-9.9790325,0.784413,47.689575,-0.97388643,-2.8093352,-3.3868222,-0.09310569,0.035946365,-0.133263,28.1875,29.625,28.6875,32.375,34.875,35.9375
0.03205394,-2.2430058,-0.13677187,-1.9297557,-0.03437743,0.109440215,-0.15697423,-0.3894085,-0.36858118,0.059861712,-3.0784388,0.62489545,-0.00032674978,-0.01007803,0.0070388275,-0.0034039668,0.0058337045,-0.0107256025,-0.005601709,0.5047261,-1.3813137,1.9040984,-2.0917084,-1.5708417,2.4797318,-0.021323025,0.016773418,-0.014271311,0.00970452,6.556223e-05,-0.01571396,-0.7661445,0.0,-9.940725,0.6948948,47.667187,-1.0208116,-2.8445885,-3.4415245,-0.118455455,0.027880458,-0.1458806,28.1875,29.625,28.6875,32.375,34.875,35.9375
0.03405402,-1.466529,0.42814958,-1.9578116,-0.025617009,0.11183809,-0.16553383,-0.38941643,-0.36858734,0.059846938,-3.07845,0.6249361,-0.00035061024,-0.01125621,0.0069510946,-0.0024128223,0.004646946,-0.008580388,-0.0058691646,0.5047139,-1.3812779,1.9040979,-2.0917447,-1.5708174,2.4797435,-0.022274403,0.016169447,-0.015724864,0.00931075,6.251924e-05,-0.016397336,-0.7469909,-0.038307227,-9.825804,0.800085,47.661808,-0.9653635,-2.7667868,-3.3752644,-0.10513332,0.027552245,-0.16675738,28.1875,29.625,28.6875,32.375,34.875,35.9375
0.0360545,-1.33563,0.6015906,-1.9689814,-0.01722033,0.09787529,-0.18339074,-0.38945216,-0.3685551,0.059852775,-3.078417,0.6249676,-0.0003398799,-0.012923572,0.007266176,-0.002217172,0.0037352596,-0.006913566,-0.0069058603,0.50464135,-1.3812656,1.9040622,-2.0917094,-1.5708417,2.4796948,-0.024353284,0.017051116,-0.01683283,0.0076367087,4.7017875e-05,-0.017438725,-0.68953013,0.0,-9.768343,0.78888994,47.68599,-0.9840991,-2.818657,-3.4555817,-0.08713395,0.007375245,-0.17893034,28.1875,29.625,28.6875,32.375,34.875,35.9375
0.038054302,-1.1480354,0.154667,-1.9082682,-0.013239553,0.08967421,-0.19190432,-0.38948476,-0.36856282,0.059850182,-3.0784187,0.62496936,-0.0003652415,-0.014800436,0.0077126743,-0.0011440356,0.0023472477,-0.0042599663,-0.007976497,0.5046164,-1.3811938,1.9039778,-2.091686,-1.5708297,2.4796708,-0.026810925,0.016358789,-0.018260332,0.0067629083,-2.7031701e-05,-0.018825026,-0.57460845,-0.019153614,-9.80665,0.75084364,47.66539,-0.89194095,-2.743084,-3.3620267,-0.06852521,0.021916784,-0.18681279,28.1875,29.625,28.6875,32.375,34.875,35.9375
0.04005432,-1.1428723,-0.36847442,-1.8239274,-0.019461585,0.07821966,-0.195226,-0.3894999,-0.36852667,0.05983126,-3.078367,0.62497675,-0.00039808883,-0.015717672,0.0076581477,-0.0010958402,0.002328256,-0.0041449564,-0.0071525034,0.5045563,-1.3811692,1.9039892,-2.091674,-1.5708536,2.479622,-0.02754961,0.017812315,-0.020165266,0.007103918,-7.1282404e-05,-0.020386644,-0.4213795,0.05746084,-9.80665,0.7284641,47.737934,-0.8985357,-2.7153182,-3.3521805,-0.06948648,0.010300025,-0.20226389,28.1875,29.625,28.6875,32.375,34.875,35.9375
0.04205429,-0.8341075,-0.17989163,-1.7986776,-0.028632848,0.07736441,-0.20296825,-0.38955176,-0.3685055,0.05983808,-3.0783598,0.62505245,-0.00038374096,-0.016418353,0.00792805,-0.0007131836,0.002266616,-0.003957312,-0.0075414693,0.50447214,-1.3811332,1.9039282,-2.0916612,-1.5708536,2.479586,-0.028632438,0.01795526,-0.021411886,0.008013558,-0.00010908133,-0.021079998,-0.34476504,0.15322891,-9.672575,0.7217513,47.739727,-0.92294407,-2.7195916,-3.3812544,-0.059666473,-0.0011052911,-0.20094553,28.1875,29.625,28.6875,32.375,34.875,35.9375
0.044053666,-0.61411154,-0.2966528,-1.804067,-0.027182963,0.071782745,-0.19966485,-0.38959813,-0.36851394,0.059846707,-3.078391,0.6250975,-0.00034014243,-0.016862953,0.008848595,-0.0007905744,0.0032079015,-0.0045046844,-0.007796916,0.50443554,-1.3810852,1.9038571,-2.091685,-1.5708417,2.4795735,-0.03024644,0.018002294,-0.021517517,0.009008387,-0.0006662248,-0.022437567,-0.17238252,0.15322891,-9.595961,0.800085,47.717335,-0.87754357,-2.6578383,-3.3835428,-0.060710683,0.0029278034,-0.2353223,28.1875,29.625,28.6875,32.375,34.875,35.9375
0.046053488,-0.5369909,-0.5123302,-1.7916751,-0.02160708,0.05486686,-0.17670414,-0.38962412,-0.3684718,0.05983615,-3.0783343,0.62508494,-0.00035964607,-0.018722504,0.009418449,-0.00044736735,0.0031347806,-0.0033727742,-0.008046349,0.50436294,-1.3810607,1.9038442,-2.0916493,-1.5708779,2.4795003,-0.03263681,0.01921209,-0.02372145,0.008976763,-0.0011565167,-0.024576433,-0.038307227,0.076614454,-9.557653,0.779936,47.691364,-0.8718459,-2.718195,-3.335315,-0.07638195,0.0017172643,-0.2203222,28.1875,29.625,28.6875,32.375,34.875,35.9375
0.04805342,-0.51115274,-0.5398361,-1.7607841,-0.02329618,0.038012404,-0.1679543,-0.38968045,-0.3684555,0.05983692,-3.0783336,0.6250841,-0.000331607,-0.020677853,0.009386674,0.0008177764,0.001655179,-0.0004723077,-0.0074878368,0.5042906,-1.3810008,1.9037718,-2.0916498,-1.5708903,2.4794276,-0.034335334,0.019000797,-0.02623156,0.008443424,-0.001270283,-0.026832221,-0.038307227,0.0,-9.595961,0.80456203,47.705692,-0.8396586,-2.6313717,-3.2616262,-0.064603634,-0.021710522,-0.2478843,28.1875,29.625,28.6875,32.375,34.875,35.9375
0.050054304,-0.15587711,-0.3020836,-1.6312587,-0.028651984,0.028453393,-0.17189245,-0.38970825,-0.36843956,0.059855472,-3.078343,0.62512463,-0.000329843,-0.021845073,0.010033285,0.00080496207,0.0016377338,-7.583833e-05,-0.0075936373,0.50423,-1.3810124,1.903735,-2.0916135,-1.5708779,2.479391,-0.036400247,0.01974663,-0.027010603,0.008121633,-0.0014496009,-0.028790537,-0.019153614,0.13407528,-9.5385,0.7486078,47.675243,-0.84208155,-2.6182146,-3.2426925,-0.0425595,-0.012992341,-0.22831516,28.1875,29.625,28.6875,32.375,34.875,35.9375
0.05205354,-0.08073947,-0.5240568,-1.6528398,-0.024058016,0.032025155,-0.16571067,-0.38979048,-0.3684136,0.059857514,-3.0783238,0.6252549,-0.0003171591,-0.02300001,0.010817293,0.00061775866,0.0021132682,-0.000534296,-0.008275805,0.5041095,-1.3809278,1.9036278,-2.0916016,-1.5708779,2.4793544,-0.038669933,0.021054117,-0.028261704,0.00869664,-0.001646379,-0.030377043,0.11492168,0.11492168,-9.481039,0.7709874,47.682407,-0.6990469,-2.6516318,-3.2657413,-0.033365227,-0.018041957,-0.23703867,28.1875,29.625,28.6875,32.375,34.875,35.9375
0.054053854,-0.037109878,-0.32711792,-1.642279,-0.028713977,0.033403,-0.17150958,-0.38982278,-0.36841616,0.059863675,-3.0783496,0.6252981,-0.0003406012,-0.022627296,0.01129099,0.00021172638,0.0036234185,-0.0020246694,-0.006985902,0.5040616,-1.3808918,1.9035681,-2.0915887,-1.5708426,2.47933,-0.038742505,0.021513509,-0.028231904,0.010244844,-0.0022455167,-0.031738512,0.05746084,0.15322891,-9.557653,0.7597976,47.694946,-0.76276493,-2.548955,-3.3373604,-0.043618646,-0.0262421,-0.24460202,28.1875,29.625,28.6875,32.375,34.875,35.9375
0.05605343,0.17703454,-0.362997,-1.4327025,-0.02854743,0.034944624,-0.16637452,-0.38988054,-0.36836937,0.059861932,-3.0782797,0.6253409,-0.00030813328,-0.0230542,0.011094665,0.00075135427,0.0032075348,-0.0016507172,-0.00556152,0.5039658,-1.3808438,1.9035071,-2.0915525,-1.5709018,2.47927,-0.038919836,0.021502538,-0.02965174,0.0111442795,-0.0020646763,-0.033340037,0.05746084,0.15322891,-9.442732,0.78217715,47.674347,-0.89086646,-2.5952883,-3.340779,-0.031782985,-0.022466272,-0.26462042,28.1875,29.625,28.6875,32.375,34.875,35.9375
0.058054417,-0.26816988,-0.48792282,-1.4932339,-0.021867536,0.025829544,-0.15933195,-0.3899227,-0.36835566,0.059868507,-3.0783176,0.62540543,-0.00030256985,-0.024677217,0.011801033,0.0011794703,0.0028038814,-0.0014738885,-0.0065106754,0.50388104,-1.3808314,1.9034828,-2.0915759,-1.570866,2.4792206,-0.041786205,0.02227208,-0.031760246,0.012133216,-0.0017986965,-0.03525694,0.0,0.1340753,-9.442732,0.6948948,47.67345,-0.74710596,-2.5460565,-3.2676764,-0.047782794,-0.053119488,-0.255297,28.1875,29.625,28.6875,32.375,34.875,35.9375
0.060053706,-0.29247928,-0.44570282,-1.4877976,-0.016823106,0.024426445,-0.15465984,-0.38998052,-0.3683546,0.059888612,-3.078347,0.6253344,-0.0002474071,-0.025474537,0.011962087,0.0012309348,0.0026338694,-0.001520702,-0.006761528,0.5038327,-1.3807831,1.9033746,-2.091552,-1.5708779,2.4791243,-0.042903192,0.023201775,-0.033049013,0.012449923,-0.001628444,-0.036122814,-0.038307227,0.24899697,-9.3661175,0.78217715,47.70838,-0.7234067,-2.5547504,-3.1889472,-0.047365934,-0.04895769,-0.284711,28.1875,29.625,28.6875,32.375,34.875,35.9375
0.062053606,-0.19594963,-0.2550812,-1.3655336,-0.026193423,0.029919144,-0.1643554,-0.39002,-0.3683033,0.059888646,-3.0782797,0.62537843,-0.0002949003,-0.025938999,0.012456648,0.001023197,0.0028766517,-0.0022279494,-0.007025207,0.5037244,-1.3807588,1.9033269,-2.0914686,-1.5709018,2.479052,-0.04424496,0.023863513,-0.033471,0.012945041,-0.0015023544,-0.03720082,-0.038307227,0.19153613,-9.308657,0.66132545,47.660015,-0.7986561,-2.5477986,-3.254317,-0.051349305,-0.06705089,-0.2729524,28.1875,29.625,28.6875,32.375,34.875,35.9375
0.06405388,-0.5740194,-0.60655594,-1.4548975,-0.019971857,0.04059105,-0.1516978,-0.39009225,-0.36829242,0.059890043,-3.078321,0.6254251,-0.00029048306,-0.026600523,0.012717946,0.0009734696,0.002993718,-0.0027625025,-0.0074198167,0.50361633,-1.3806864,1.9032434,-2.091492,-1.570866,2.478968,-0.045392103,0.02487739,-0.03473353,0.01371886,-0.0013472332,-0.0379531,-0.19153613,0.15322891,-9.385271,0.8090337,47.67614,-0.8248356,-2.528588,-3.2970672,-0.052644417,-0.05509539,-0.30580634,28.1875,29.625,28.6875,32.375,34.875,35.9375
0.066053525,-0.3401968,-0.065141894,-1.416426,-0.022186356,0.067016505,-0.16553219,-0.3901258,-0.36828503,0.05989317,-3.0783124,0.62538373,-0.000292543,-0.027474042,0.012962486,0.0013771063,0.002709086,-0.002297737,-0.006501596,0.50358,-1.3806384,1.9031714,-2.0914562,-1.5708779,2.4789069,-0.046629228,0.025101317,-0.036039423,0.014255432,-0.0013252547,-0.04010796,-0.19153613,0.095768064,-9.308656,0.73741806,47.6636,-0.8021754,-2.5574358,-3.2886639,-0.08231015,-0.076663785,-0.32345492,28.1875,29.625,28.6875,32.375,34.875,35.9375
0.06805432,-0.85923225,-0.44320676,-1.4062022,-0.016523927,0.067189924,-0.16100515,-0.39017093,-0.36825725,0.0599023,-3.0783098,0.62540185,-0.0003196319,-0.028338475,0.013481686,0.001454846,0.002889455,-0.0023918538,-0.0058738594,0.5034837,-1.380614,1.9031109,-2.0914075,-1.570866,2.4788222,-0.048233163,0.025735458,-0.037101954,0.014853684,-0.001440488,-0.04233893,-0.24899697,0.0,-9.289502,0.75084364,47.70032,-0.831223,-2.5009227,-3.2862077,-0.07014672,-0.078526154,-0.2978528,28.1875,29.625,28.6875,32.375,34.875,35.9375
0.0700534,-0.6407598,0.09579314,-1.0238615,-0.020977255,0.08245399,-0.1644627,-0.39022017,-0.3682062,0.059874907,-3.0782564,0.62539065,-0.00042056513,-0.029165152,0.013441779,0.0018260184,0.0024997601,-0.0012827839,-0.0061021456,0.5033518,-1.3805298,1.9030627,-2.0913594,-1.570866,2.4786901,-0.04880672,0.026049735,-0.03824563,0.014524089,-0.0016415648,-0.04268314,-0.3256114,0.038307227,-9.232041,0.7732232,47.67345,-0.87088764,-2.4631631,-3.2489343,-0.05888799,-0.08322728,-0.33570868,28.1875,29.625,28.6875,32.375,34.875,35.9375
0.07205501,-1.6108859,0.21341178,-1.1362785,-0.017138053,0.062080655,-0.15704207,-0.39026523,-0.36819482,0.059885126,-3.0782635,0.62539274,-0.00040702522,-0.030625878,0.014666724,0.0017991305,0.0027700695,-0.0015227705,-0.008772337,0.5032906,-1.3804935,1.9029912,-2.0913355,-1.570866,2.4786294,-0.052149706,0.026799917,-0.0391943,0.01506342,-0.0017633981,-0.043355267,-0.2681506,0.11492168,-9.308657,0.7642693,47.689575,-0.7918712,-2.492113,-3.252953,-0.080211625,-0.09131325,-0.34266782,28.1875,29.625,28.6875,32.375,34.875,35.9375
0.07405421,-1.2163628,-0.193362,-1.3157852,-0.0038205257,0.07368813,-0.15998368,-0.39035022,-0.368169,0.059915714,-3.0782697,0.62543005,-0.00032383815,-0.030726017,0.014210934,0.0018000017,0.002848194,-0.0013373898,-0.0042299195,0.5031831,-1.3804572,1.9028705,-2.0913002,-1.5708903,2.4785445,-0.05136806,0.027623395,-0.04017824,0.015097777,-0.0019230947,-0.047115296,-0.40222588,0.15322891,-9.32781,0.78888994,47.675243,-0.7469826,-2.4765596,-3.3001826,-0.080416724,-0.10272735,-0.34388357,28.1875,29.625,28.6875,32.375,34.875,35.9375
0.07605418,-1.480948,0.15164816,-1.3954246,-0.013314145,0.074580625,-0.16773275,-0.39040044,-0.36813435,0.059893828,-3.078261,0.6254453,-0.00039215427,-0.03149687,0.014563501,0.001668315,0.0031346502,-0.0012609857,-0.0018907806,0.5030631,-1.3803848,1.9028348,-2.0913002,-1.5708665,2.478435,-0.05249145,0.028597705,-0.041018773,0.015036557,-0.0022165424,-0.050576683,-0.53630114,0.038307227,-9.32781,0.73741806,47.6421,-0.92448145,-2.4442065,-3.312576,-0.09691729,-0.10401042,-0.34216195,28.1875,29.625,28.6875,32.375,34.875,35.9375
0.07805407,-0.9919045,-0.11062912,-1.3102537,-0.0052529224,0.09614045,-0.1537492,-0.39047912,-0.3680903,0.05988878,-3.0782244,0.62545526,-0.0003963976,-0.032852277,0.015010361,0.0017064135,0.003146069,-0.0009592076,6.896682e-05,0.50293076,-1.3803002,1.902738,-2.091264,-1.5708908,2.4783137,-0.05439723,0.029952865,-0.042732313,0.015134366,-0.002378987,-0.05444094,-0.5363012,-0.095768064,-9.308657,0.7396539,47.62867,-0.84762836,-2.5030956,-3.2263541,-0.10591338,-0.114626884,-0.30597168,28.1875,29.625,28.6875,32.375,34.875,35.9375
0.080054045,-1.0672246,0.647714,-1.2826874,-0.015030252,0.09296883,-0.16227598,-0.39054322,-0.36808702,0.059912097,-3.0782661,0.625408,-0.0003687541,-0.0342541,0.016258925,0.0015288491,0.0037701614,-0.0009483662,-0.0029283776,0.50285774,-1.380252,1.9026197,-2.0912278,-1.5708784,2.478206,-0.05745259,0.030811982,-0.04335901,0.015195748,-0.0029306335,-0.05449759,-0.40222588,-0.095768064,-9.385271,0.8224646,47.693153,-0.7978281,-2.5185106,-3.2863247,-0.111232564,-0.111066446,-0.28939992,28.1875,29.625,28.6875,32.375,34.875,35.9375
0.08205378,-1.6802242,0.13854674,-1.3809415,-0.0051235873,0.08224325,-0.15014401,-0.39061406,-0.3680595,0.059910517,-3.0782795,0.62538815,-0.0003797822,-0.034382235,0.015965184,0.0017233012,0.004224918,-0.00033429728,0.0014862539,0.5027383,-1.3801798,1.9025353,-2.0912163,-1.570867,2.4780724,-0.056633938,0.03117778,-0.04429296,0.015447166,-0.0036283876,-0.058091816,-0.53630114,-0.038307227,-9.346964,0.7329411,47.652847,-0.80713177,-2.4164276,-3.2400656,-0.11236163,-0.112298444,-0.3002016,28.1875,29.625,28.6875,32.375,34.875,35.9375
0.08405419,-1.5418398,-0.0027351177,-1.2772107,-0.00553641,0.08422297,-0.15558702,-0.39065215,-0.36801723,0.059898373,-3.078215,0.6253338,-0.0004294827,-0.03450186,0.016972544,0.00094439986,0.0066021625,-0.0010864816,0.0050758068,0.50265425,-1.3801193,1.9024752,-2.0911443,-1.5709032,2.4779627,-0.057361297,0.03215726,-0.04374266,0.015724815,-0.0053540748,-0.06240511,-0.5554548,0.0,-9.404425,0.71279734,47.698532,-0.9313489,-2.427987,-3.268094,-0.13631243,-0.11615818,-0.23854417,28.1875,29.625,28.6875,32.375,34.875,35.9375
0.08605369,-0.81744206,0.6961838,-1.2297969,-0.022303743,0.09428957,-0.16251987,-0.3907694,-0.3679818,0.059930597,-3.0782592,0.62538075,-0.0003312991,-0.03580405,0.018137682,0.000325353,0.0086394865,-0.0015378712,0.006553715,0.5024858,-1.3800706,1.9023441,-2.0911438,-1.5709037,2.477818,-0.05954391,0.034347977,-0.045035202,0.016207516,-0.0069211107,-0.066062234,-0.40222588,-0.05746084,-9.32781,0.7978386,47.655537,-0.86037207,-2.464233,-3.3268664,-0.14751446,-0.11601317,-0.21225244,28.1875,29.625,28.6875,32.375,34.875,35.9375
0.08805402,-1.0123955,0.051981777,-1.4372607,-0.005554937,0.083315514,-0.15613687,-0.39085338,-0.36794323,0.05992577,-3.0782323,0.62533414,-0.00030776174,-0.03829745,0.018061832,0.0014006648,0.008910971,0.0026158178,0.008749076,0.5023659,-1.3799739,1.9022354,-2.09112,-1.5709409,2.4776726,-0.060322694,0.035563737,-0.04867812,0.015129174,-0.009172337,-0.069030166,-0.34476504,-0.1340753,-9.3661175,0.7709874,47.694946,-0.8960004,-2.5625093,-3.1951966,-0.14299938,-0.09172569,-0.16274376,28.1875,29.625,28.6875,32.375,34.875,35.9375
0.09005436,-0.78738827,0.26628003,-1.3754089,-0.009277081,0.081920534,-0.1607741,-0.39090866,-0.36791098,0.059909727,-3.0782266,0.62529296,-0.00038927374,-0.038490556,0.019483767,0.0007414149,0.0117963515,0.0027976464,0.010285325,0.5022459,-1.3798897,1.9021643,-2.0910847,-1.570918,2.4775276,-0.0612547,0.035715256,-0.047291495,0.014830237,-0.011791463,-0.0714933,-0.36391866,-0.15322891,-9.385271,0.75084364,47.72002,-0.9292407,-2.5187032,-3.2669935,-0.14424261,-0.027013022,-0.14940526,28.1875,29.625,28.6875,32.375,34.875,35.9375
0.09205369,-1.0146061,0.021085609,-1.3157363,-0.008953208,0.06913986,-0.15350744,-0.39098802,-0.36784908,0.059900615,-3.0781705,0.6253187,-0.00039611166,-0.038957316,0.019655807,0.0005166744,0.011766679,0.0022686662,0.011639153,0.50208986,-1.3798175,1.9020914,-2.0910485,-1.5709532,2.4773948,-0.06214086,0.036710355,-0.04799348,0.014980611,-0.011516316,-0.073733,-0.36391866,-0.019153614,-9.32781,0.81351066,47.686886,-0.94674754,-2.595632,-3.3954864,-0.14885718,-0.0048399493,-0.09912296,28.1875,29.625,28.6875,32.375,34.875,35.9375
0.094054,-0.7178793,-0.09916176,-1.4571153,-0.013398687,0.06614792,-0.15292948,-0.39106503,-0.36783034,0.059915084,-3.0782027,0.62522876,-0.00034352194,-0.039937623,0.019459788,0.0008054603,0.010821252,0.0020541719,0.011090781,0.50199383,-1.379757,1.9019841,-2.091036,-1.5709647,2.4772387,-0.06329313,0.037927836,-0.050271828,0.015769089,-0.010585563,-0.07433811,-0.19153613,0.019153614,-9.308656,0.77545905,47.67793,-0.9806316,-2.4297125,-3.34191,-0.1608654,-0.025223939,-0.07395132,28.1875,29.625,28.6875,32.375,34.875,35.9375
0.09606033,-0.51958764,-0.33000773,-1.4987835,-0.014276942,0.048063748,-0.1578007,-0.39114714,-0.3677777,0.059918724,-3.0781538,0.62520003,-0.0002697911,-0.04121093,0.018572096,0.0014718969,0.007999678,0.00230114,0.009490286,0.50187355,-1.3796964,1.9018987,-2.0910122,-1.5710362,2.4771068,-0.06443742,0.039200097,-0.053343933,0.015980007,-0.008237022,-0.07388515,-0.15322891,0.076614454,-9.3661175,0.76874626,47.68599,-1.0373824,-2.5483623,-3.1612272,-0.17150062,-0.051496822,-0.06967578,28.1875,29.625,28.6875,32.375,34.875,35.9375
0.098102346,-0.16840918,-0.123734586,-1.6584436,-0.041029304,0.040909145,-0.1608605,-0.3912311,-0.36774075,0.05991909,-3.0781562,0.62516236,-0.00033993818,-0.040493872,0.018366007,0.0007656765,0.007032561,-0.00046221633,0.008975132,0.5017178,-1.3796,1.9017676,-2.0909402,-1.5710114,2.4769273,-0.064769536,0.03997714,-0.052803993,0.016613346,-0.006060378,-0.07370637,-0.17238252,0.095768064,-9.404425,0.7709874,47.66808,-1.0621259,-2.5778959,-3.1356707,-0.18426856,-0.08008918,-0.075763755,28.1875,29.625,28.6875,32.375,34.875,35.9375
0.10009327,0.09586256,-0.6162973,-1.7406694,-0.047607306,0.04240031,-0.15492043,-0.39131775,-0.3677099,0.05992143,-3.0781636,0.6251639,-0.00032688727,-0.0405372,0.019387314,-0.00011121931,0.0076065194,-0.0031183918,0.0057067266,0.50158536,-1.3795159,1.9016598,-2.0909278,-1.5710114,2.476795,-0.067002445,0.040951625,-0.05219575,0.017632278,-0.005281918,-0.07267271,-0.05746084,0.15322891,-9.442732,0.84484416,47.691364,-1.0130173,-2.5092196,-3.3815517,-0.17358936,-0.085275546,-0.065151714,28.1875,29.625,28.6875,32.375,34.875,35.9375
0.10209373,-0.41158247,-1.2436216,-1.6473794,-0.043902438,0.034372702,-0.14469,-0.391393,-0.36764798,0.059906382,-3.0780816,0.6251488,-0.0003646696,-0.042202055,0.01932156,0.00077331177,0.0069974656,-0.0011649146,0.0030275553,0.50144124,-1.3794193,1.9015635,-2.0908558,-1.5710596,2.476652,-0.06816883,0.041587453,-0.055000726,0.017793499,-0.0056978418,-0.07115746,-0.019153614,0.2681506,-9.481039,0.78888994,47.68062,-1.0256044,-2.570778,-3.3627517,-0.20578958,-0.08876057,-0.08306791,28.1875,29.625,28.6875,32.375,34.875,35.9375
0.10409088,0.3937997,-0.6662056,-1.4030572,-0.05802601,0.053981274,-0.16038783,-0.3914982,-0.36762726,0.059928574,-3.078115,0.62513703,-0.00030803264,-0.042987157,0.019991228,0.00035597515,0.008227026,-0.0018388656,-3.179238e-05,0.501309,-1.3793348,1.9014076,-2.0908315,-1.5710601,2.4765081,-0.069541655,0.04318929,-0.056105047,0.018480519,-0.006449311,-0.06946906,0.05746084,0.30645782,-9.481039,0.80679786,47.70211,-1.0566188,-2.4807875,-3.2514853,-0.20504375,-0.06854333,-0.10696721,28.1875,29.625,28.6875,32.4375,34.875,35.9375
0.10608843,-0.13334727,-0.8228053,-1.6748978,-0.048606362,0.048437357,-0.1543401,-0.3915661,-0.36759314,0.059909567,-3.0781062,0.625099,-0.00033856576,-0.044529345,0.020817876,0.0007918329,0.008161754,-0.0002151452,-0.0038423236,0.5011885,-1.3792386,1.901337,-2.090832,-1.5710601,2.476365,-0.0718998,0.043195367,-0.05697424,0.017890694,-0.0071770614,-0.06801461,0.038307227,0.30645782,-9.404425,0.784413,47.709274,-1.0337638,-2.602752,-3.254889,-0.21785757,-0.09621571,-0.13840662,28.1875,29.625,28.6875,32.4375,34.875,35.9375
0.10810116,0.027821545,-0.35311055,-1.5564791,-0.052488334,0.048532557,-0.15178233,-0.39166752,-0.367552,0.05992947,-3.0780902,0.625172,-0.000312247,-0.045136213,0.020923655,0.0006836806,0.008216179,-0.00016607299,-0.005679464,0.5010326,-1.3791662,1.9011925,-2.090772,-1.571072,2.4762568,-0.07258056,0.04417376,-0.057864632,0.017784594,-0.0072497083,-0.06685764,0.038307227,0.22984336,-9.404425,0.8090337,47.71554,-1.0353272,-2.427191,-3.328819,-0.23034118,-0.067904346,-0.159699,28.1875,29.625,28.6875,32.4375,34.875,35.9375
0.1100558,0.27138785,-0.37147123,-1.6766813,-0.052410528,0.049748506,-0.16270795,-0.3917662,-0.36750814,0.059919156,-3.0780964,0.6251926,-0.00035114918,-0.045899358,0.021566032,-0.000112035574,0.009562914,-0.0014607493,-0.007605803,0.50085264,-1.3790572,1.9010843,-2.0907605,-1.5710486,2.476089,-0.07400446,0.04656627,-0.059012804,0.018325109,-0.007811875,-0.06635317,0.095768064,0.22984336,-9.500193,0.8247004,47.70838,-1.094691,-2.6495214,-3.2950253,-0.24138355,-0.078503616,-0.19391043,28.1875,29.625,28.6875,32.4375,34.875,35.9375
0.112059,-0.26337916,-0.7065529,-1.7423103,-0.03541831,0.03679469,-0.14173533,-0.39184323,-0.36747476,0.059936788,-3.0780873,0.6252288,-0.00032439159,-0.047050215,0.021905819,0.0009903244,0.010221012,0.001465505,-0.008632465,0.5007328,-1.3790096,1.900977,-2.0907128,-1.571061,2.475993,-0.07439383,0.04562462,-0.060434047,0.01844271,-0.00979636,-0.065711506,-0.038307227,0.21068975,-9.404425,0.7351769,47.691364,-1.0708206,-2.553958,-3.2724328,-0.24718782,-0.057391692,-0.24312869,28.1875,29.625,28.6875,32.4375,34.875,35.9375
0.11406041,-0.4313917,-0.3978816,-1.7116076,-0.038050786,0.042061936,-0.1446787,-0.39191866,-0.3674387,0.059914,-3.07803,0.6251401,-0.00037503778,-0.047919918,0.022215232,0.001518229,0.009569704,0.0019359275,-0.007429832,0.50062436,-1.3788657,1.9008449,-2.0906522,-1.5710968,2.4758365,-0.07591919,0.045442455,-0.061555296,0.01901511,-0.009458779,-0.068439156,-0.095768064,0.22984336,-9.442732,0.80679786,47.691364,-1.1301334,-2.4268057,-3.3158455,-0.25980398,-0.047476836,-0.23121464,28.1875,29.625,28.6875,32.4375,34.875,35.9375
0.11605516,-0.82621354,0.13795668,-1.5771123,-0.041730102,0.044092625,-0.15581259,-0.39201865,-0.36739126,0.059921023,-3.0780313,0.62521726,-0.00037435928,-0.048587438,0.022661736,0.00087195716,0.01009755,0.00079127273,-0.010582519,0.5004444,-1.3787928,1.9007372,-2.0906284,-1.5710849,2.4757047,-0.077326894,0.04737667,-0.062420297,0.019202955,-0.009372782,-0.06669383,-0.1340753,0.1340753,-9.385271,0.7553206,47.698532,-1.2463386,-2.496781,-3.3082314,-0.2661273,-0.052218392,-0.27253518,28.1875,29.625,28.6875,32.4375,34.875,35.9375
0.118053906,-0.13433453,-0.17054653,-1.7609853,-0.028835999,0.07713673,-0.15194209,-0.392126,-0.3673441,0.059925947,-3.0780113,0.62521386,-0.00032573065,-0.049314827,0.02295841,9.092599e-05,0.010007905,-0.00047935004,-0.012105264,0.50028795,-1.3786961,1.900606,-2.0906045,-1.5711206,2.4755487,-0.07891095,0.049586635,-0.06317606,0.01881429,-0.008687161,-0.06675599,-0.17238252,0.11492168,-9.3661175,0.7530795,47.709274,-1.0789876,-2.4695675,-3.3971632,-0.2575954,-0.052559454,-0.32662094,28.1875,29.625,28.6875,32.4375,34.875,35.9375
0.120054394,-0.81257915,-0.0016702657,-1.3404579,-0.02465932,0.067419894,-0.14267197,-0.39220434,-0.36731574,0.059917625,-3.0780091,0.62524813,-0.00040680356,-0.048989106,0.022154266,-0.00012428252,0.009271668,-0.0020399266,-0.008156885,0.5001447,-1.3785874,1.9004854,-2.0905564,-1.5710839,2.4754272,-0.07810767,0.05089668,-0.064468324,0.0198078,-0.0072984714,-0.06990312,-0.21068975,0.038307227,-9.346964,0.8627467,47.701214,-1.2449872,-2.6691208,-3.3280263,-0.277152,-0.052415118,-0.33369973,28.1875,29.625,28.6875,32.4375,34.875,35.9375
0.12205403,-0.506949,0.14612894,-1.3323594,-0.017604114,0.075162396,-0.14639948,-0.3923121,-0.3672517,0.059913628,-3.0779722,0.6252258,-0.00042641594,-0.051004644,0.023295736,0.0014281012,0.006964447,-4.3866083e-05,-0.015437465,0.4999517,-1.3784801,1.9003538,-2.0904963,-1.5711073,2.475225,-0.08253726,0.04869463,-0.06547694,0.020154916,-0.006233611,-0.067054175,-0.22984336,0.019153614,-9.289502,0.7709874,47.68599,-1.287888,-2.504301,-3.3450317,-0.2978319,-0.07256557,-0.38614762,28.1875,29.625,28.6875,32.4375,34.875,35.9375
0.124054246,-0.7764015,1.1400056,-1.2940406,-0.028230565,0.06863267,-0.16429031,-0.39243865,-0.367213,0.05993505,-3.0779595,0.62535477,-0.00034447745,-0.051062908,0.02229488,0.0015617226,0.0060217325,4.230311e-05,-0.013469989,0.49978435,-1.3783835,1.9001855,-2.090473,-1.5711311,2.4751399,-0.081374146,0.049721416,-0.066991016,0.020108964,-0.0054487367,-0.06785973,-0.28730422,-0.11492168,-9.3661175,0.73741806,47.674347,-1.2349864,-2.492952,-3.353245,-0.30380687,-0.10538105,-0.43529466,28.1875,29.625,28.6875,32.4375,34.875,35.9375
0.12605353,-0.97176105,0.4787715,-1.4254634,-0.01048825,0.06938085,-0.14916223,-0.39255032,-0.36717525,0.059946492,-3.0779545,0.6253521,-0.00026739162,-0.05183323,0.02317838,0.00067254854,0.0072710784,-0.0011784538,-0.011909339,0.49964008,-1.3782868,1.9000419,-2.09046,-1.5711673,2.4749947,-0.08323616,0.05180374,-0.06744744,0.02015024,-0.005961594,-0.07128101,-0.3256114,-0.076614454,-9.442732,0.7933669,47.642998,-1.347338,-2.4776976,-3.3470745,-0.3179174,-0.10955031,-0.45014384,28.1875,29.625,28.6875,32.4375,34.875,35.9375
0.1280539,-0.7350554,0.93202394,-1.3417106,-0.019236133,0.087561056,-0.15842788,-0.3926542,-0.36712518,0.0599328,-3.0779057,0.62539786,-0.00033919016,-0.05436037,0.022935176,0.002351508,0.00605291,0.0021993893,-0.009908094,0.49946,-1.3781426,1.899886,-2.0903885,-1.5711678,2.4748495,-0.084791444,0.052275676,-0.071940124,0.020621672,-0.006526247,-0.07483415,-0.3256114,-0.1340753,-9.481039,0.8090337,47.67614,-1.3003855,-2.457218,-3.2495737,-0.31488198,-0.10330362,-0.45865566,28.1875,29.625,28.6875,32.4375,34.875,35.9375
0.13005418,-0.3831397,0.60076785,-1.364306,-0.0055833017,0.103495695,-0.16890064,-0.3927236,-0.3670863,0.05992189,-3.0779152,0.62532014,-0.0004079862,-0.054621633,0.024126437,0.0015184165,0.008506502,0.0020330548,-0.0052646575,0.4993159,-1.3780581,1.8998026,-2.0903523,-1.5711445,2.4746556,-0.08572928,0.053072482,-0.0708692,0.020080814,-0.008606496,-0.0804109,-0.36391866,-0.095768064,-9.423578,0.83589023,47.70032,-1.2876202,-2.464042,-3.2210336,-0.30575132,-0.074923515,-0.45967114,28.1875,29.625,28.6875,32.4375,34.875,35.9375
0.13205425,-0.7022939,0.7943588,-1.435497,-0.0137458,0.106611446,-0.16147693,-0.3928471,-0.36702588,0.059940018,-3.0778928,0.62540996,-0.00032824028,-0.056529492,0.025938999,0.0015401074,0.008496565,0.0019309112,-0.0047266195,0.49912265,-1.377986,1.8996705,-2.0903285,-1.5711807,2.4745214,-0.09055388,0.053456977,-0.07143591,0.020340655,-0.008550667,-0.085773714,-0.36391866,-0.019153614,-9.500193,0.85826975,47.67166,-1.1859446,-2.4055138,-3.3490763,-0.29588273,-0.0983396,-0.3919348,28.1875,29.625,28.6875,32.4375,34.875,35.9375
0.13405342,-1.4477615,0.2088856,-1.4710885,-0.012316917,0.0957483,-0.14829256,-0.39295498,-0.3669831,0.059939284,-3.0779176,0.6253346,-0.00034076802,-0.05749109,0.024696348,0.0017452103,0.008842308,0.0026202146,0.0016887111,0.49894363,-1.3778768,1.8995374,-2.0903046,-1.5711688,2.4742923,-0.088928975,0.05653627,-0.0757319,0.021117184,-0.0091953175,-0.09056063,-0.49799395,0.05746084,-9.442732,0.8157518,47.682407,-1.3512614,-2.5495093,-3.2294652,-0.31881762,-0.07415633,-0.38542634,28.1875,29.625,28.6875,32.4375,34.875,35.9375
0.13605411,-1.0407861,0.38677904,-1.4924684,-0.025251245,0.11079539,-0.15223986,-0.3930681,-0.36693767,0.05993767,-3.077906,0.6253084,-0.0003726211,-0.05872938,0.026687784,0.0016902068,0.009094023,0.00180469,0.006896756,0.4987627,-1.3777448,1.899371,-2.090244,-1.5711688,2.4740965,-0.093501195,0.056068137,-0.07524164,0.021924857,-0.009032907,-0.10034138,-0.57460845,0.0,-9.346964,0.800085,47.67166,-1.3399825,-2.4834623,-3.1975822,-0.3368128,-0.06382701,-0.29285318,28.1875,29.625,28.6875,32.4375,34.875,35.9375
0.13805404,-1.6068497,0.14368214,-1.7847898,-0.029600337,0.10070205,-0.16167115,-0.39319903,-0.366887,0.059967525,-3.0778854,0.6253592,-0.00033498654,-0.05846576,0.026359834,0.0014571458,0.008752379,0.0008343634,0.010129403,0.49857116,-1.3776486,1.8991674,-2.0901487,-1.5711921,2.4739394,-0.09315548,0.056712534,-0.07555966,0.022279087,-0.008270049,-0.10322989,-0.51714754,-0.038307227,-9.5385,0.8157518,47.684196,-1.1542927,-2.3836198,-3.2948139,-0.33103883,-0.07324548,-0.26696253,28.1875,29.625,28.6875,32.4375,34.875,35.9375
0.14005369,-1.7165236,-0.29481766,-1.8087811,-0.036049537,0.097178325,-0.14503786,-0.39332902,-0.36683747,0.059952606,-3.0778737,0.6252396,-0.0003137405,-0.06056172,0.026898801,0.0022403696,0.007831384,0.0027622443,0.011527991,0.49839044,-1.3774803,1.8989991,-2.0901363,-1.5712284,2.4736857,-0.0958923,0.057149287,-0.07778949,0.021931663,-0.00839312,-0.107363954,-0.47884035,0.019153614,-9.576807,0.800085,47.7254,-1.2595453,-2.3545191,-3.2447238,-0.34679955,-0.11127572,-0.17521438,28.1875,29.625,28.6875,32.4375,34.875,35.9375
0.14205334,-1.719777,-0.4457153,-1.6784738,-0.044995178,0.10164182,-0.14355397,-0.3934235,-0.36677033,0.059946194,-3.077826,0.62523025,-0.00037593386,-0.06235933,0.028006949,0.0010546006,0.0087132035,0.0014311783,0.010605394,0.49819776,-1.377383,1.8988794,-2.0900524,-1.5712403,2.4734933,-0.09930148,0.06082856,-0.079333276,0.021383177,-0.0085451165,-0.10984844,-0.7469909,0.05746084,-9.5385,0.80456203,47.72002,-1.1370294,-2.5741706,-3.236968,-0.35679072,-0.097793624,-0.15220816,28.1875,29.625,28.6875,32.4375,34.875,35.9375
0.1440535,-1.6145309,-0.43401238,-1.7172662,-0.031141438,0.109758206,-0.14152578,-0.39354908,-0.36670086,0.05992904,-3.0778205,0.62522906,-0.00041645026,-0.06335833,0.028354935,0.0023664462,0.0070030903,0.0039122766,0.008551008,0.49795768,-1.3772515,1.8987602,-2.0900414,-1.5712284,2.4732533,-0.10097234,0.058552183,-0.07950268,0.020830743,-0.008232338,-0.10946568,-0.6512228,0.11492168,-9.461885,0.83589023,47.71465,-1.075473,-2.467126,-3.2746391,-0.3682326,-0.094635606,-0.15328948,28.1875,29.625,28.6875,32.4375,34.875,35.9375
0.14605355,-1.4841999,-0.2821664,-1.9341904,-0.02543563,0.107020654,-0.15237486,-0.39367774,-0.3666346,0.05994244,-3.0777862,0.6252049,-0.00034267284,-0.064880274,0.029431429,0.0018749902,0.0070240777,0.0035327377,0.0025529086,0.49776506,-1.377155,1.8986043,-2.0899932,-1.5712885,2.47305,-0.104260966,0.06020447,-0.0802102,0.020222371,-0.008069166,-0.106756076,-0.4405331,0.11492168,-9.5385,0.80679786,47.70838,-1.0002015,-2.3062975,-3.275443,-0.35122728,-0.10915558,-0.15207425,28.1875,29.625,28.6875,32.4375,34.875,35.9375
0.14805442,-1.1044414,-0.21654801,-1.8373642,-0.02113423,0.10834994,-0.14515603,-0.39382067,-0.36658433,0.059924237,-3.0777748,0.62518567,-0.00037194617,-0.06654054,0.03008356,0.0019344426,0.0070053763,0.0044277357,-0.00400523,0.4975488,-1.3769623,1.8984121,-2.0899699,-1.5712885,2.4728234,-0.106596164,0.061493486,-0.08176545,0.019695524,-0.008483733,-0.10253115,-0.5363012,0.076614454,-9.557653,0.8112748,47.70032,-0.88899577,-2.4522028,-3.2542834,-0.34505337,-0.08564043,-0.1879663,28.1875,29.625,28.6875,32.4375,34.875,35.9375
0.15005417,-1.0890026,-0.11446702,-1.6976796,-0.021503367,0.09820935,-0.14651898,-0.3939726,-0.36655304,0.059968136,-3.0778337,0.6252394,-0.0002442055,-0.06788827,0.030208752,0.0025117795,0.0065730177,0.006230261,-0.009364479,0.4973567,-1.3768779,1.8982095,-2.089958,-1.571289,2.4726574,-0.107717864,0.061872017,-0.0834142,0.019177929,-0.00895461,-0.098292716,-0.47884035,-0.019153614,-9.519346,0.8537928,47.73525,-0.90172154,-2.3827376,-3.3521347,-0.33478665,-0.10176592,-0.263344,28.1875,29.625,28.6875,32.4375,34.875,35.9375
0.15205403,-1.549882,0.1641255,-1.7012372,-0.025112906,0.082562454,-0.14978097,-0.39410517,-0.36648306,0.059956778,-3.0778046,0.625271,-0.0002880305,-0.06917177,0.030437581,0.0028453276,0.0056040017,0.0072734267,-0.011913675,0.4971167,-1.3767337,1.8980535,-2.0899107,-1.5712885,2.472441,-0.1094673,0.06238149,-0.08463395,0.01850634,-0.008606943,-0.09749279,-0.45968673,-0.05746084,-9.5385,0.78888994,47.723602,-0.8606454,-2.373691,-3.2147508,-0.30450356,-0.10207417,-0.30667648,28.1875,29.625,28.6875,32.4375,34.875,35.9375
0.1540544,-1.3650744,-0.0005889182,-1.9098984,-0.014332993,0.077080175,-0.14824226,-0.39422855,-0.36639565,0.05994386,-3.0777013,0.62530667,-0.00028883378,-0.06942321,0.030998357,0.002403648,0.0063672853,0.006277283,-0.012085989,0.49690092,-1.3766012,1.8979095,-2.0898383,-1.5713605,2.4722607,-0.11049066,0.063271865,-0.08480899,0.01902191,-0.008808019,-0.098342724,-0.38307226,0.0,-9.5385,0.85826975,47.73077,-0.83899933,-2.3921244,-3.2784019,-0.3054417,-0.09572472,-0.29933566,28.1875,29.625,28.6875,32.4375,34.875,35.9375
0.15605363,-0.89231354,0.16831759,-1.7075324,-0.018685197,0.07999468,-0.14756387,-0.39436635,-0.3663512,0.059953663,-3.0777454,0.62529594,-0.00027043893,-0.07170747,0.030205648,0.0037916969,0.0049543655,0.009299438,-0.011409934,0.496685,-1.3764808,1.8977417,-2.0898263,-1.5713371,2.4720325,-0.11109211,0.06462758,-0.08960726,0.019134622,-0.009013077,-0.09961799,-0.28730422,0.05746084,-9.461885,0.8314132,47.70838,-0.89307,-2.308507,-3.216782,-0.29356882,-0.10941653,-0.31961098,28.1875,29.625,28.6875,32.4375,34.875,35.9375
0.15805338,-0.9274204,0.30998483,-1.8065288,-0.019009775,0.0647422,-0.14355712,-0.39453396,-0.3662915,0.05998411,-3.077762,0.6253556,-0.00016205209,-0.071194276,0.03086938,0.0027907812,0.005481474,0.00719277,-0.012721205,0.49644515,-1.3763725,1.8975385,-2.0898025,-1.5713605,2.471828,-0.1120412,0.0651805,-0.08797083,0.019042503,-0.008461065,-0.0992582,-0.28730422,0.019153614,-9.442732,0.7911258,47.694946,-0.9614539,-2.4118454,-3.3122697,-0.2888549,-0.106946304,-0.35778818,28.1875,29.625,28.6875,32.4375,34.875,35.9375
0.16005413,-0.2941757,0.22679013,-1.7923381,-0.010601886,0.06464238,-0.14832985,-0.3946765,-0.36623377,0.0599668,-3.077732,0.6254247,-0.00019228712,-0.07282751,0.03129881,0.0033686475,0.005076849,0.008515344,-0.012465033,0.4962172,-1.376192,1.8973583,-2.0897782,-1.5713605,2.471647,-0.1140514,0.06578165,-0.09003301,0.01914553,-0.0087423865,-0.10152288,-0.19153613,-0.11492168,-9.442732,0.78217715,47.67614,-1.0413821,-2.321869,-3.2168431,-0.2741935,-0.12592879,-0.35604608,28.1875,29.625,28.6875,32.4375,34.875,35.9375
0.16205388,-0.24647802,0.06746848,-1.5705054,-0.0118105635,0.05438142,-0.14515942,-0.39483172,-0.3661566,0.059979226,-3.0776887,0.62543494,-9.1861e-05,-0.07243593,0.030973796,0.0028058665,0.006747228,0.00817106,-0.011580773,0.49599004,-1.3760715,1.897179,-2.0897424,-1.571433,2.471432,-0.1123011,0.067237,-0.090511434,0.019262496,-0.010044311,-0.100653835,-0.1340753,-0.038307227,-9.461885,0.8179876,47.705692,-1.044225,-2.3449514,-3.2216318,-0.26085797,-0.09519872,-0.3995117,28.1875,29.625,28.6875,32.4375,34.875,35.9375
0.16405404,0.16054334,0.12614,-1.5620545,-0.024964195,0.06431097,-0.15629838,-0.39498344,-0.36608437,0.05999027,-3.0776722,0.6255052,-6.7571964e-05,-0.07476132,0.03290513,0.0028433295,0.006512828,0.008103362,-0.010560222,0.49573684,-1.375951,1.8970002,-2.0896947,-1.5714449,2.4712248,-0.11778935,0.068030596,-0.09159788,0.019494057,-0.009810059,-0.10716274,-0.19153613,0.038307227,-9.442732,0.8112748,47.70211,-1.009907,-2.2917922,-3.2176328,-0.23347585,-0.11094299,-0.3828483,28.1875,29.625,28.6875,32.4375,34.875,35.9375
0.1660541,-0.01773231,-0.39672157,-1.7212673,-0.027868725,0.05617763,-0.1496716,-0.39513204,-0.36601716,0.05997905,-3.0776308,0.6255321,-4.765142e-05,-0.07456689,0.03237458,0.0029057644,0.0067298487,0.007941673,-0.0057923435,0.4955098,-1.3757827,1.8968204,-2.0896704,-1.5714806,2.47102,-0.116608664,0.06863672,-0.09261671,0.020143872,-0.009927729,-0.11074914,-0.05746084,0.095768064,-9.423578,0.8291774,47.703007,-0.9835113,-2.3199258,-3.3125372,-0.23796573,-0.09091507,-0.36380994,28.1875,29.625,28.6875,32.4375,34.875,35.9375
0.16805346,0.14770405,-0.12999299,-1.7786671,-0.041321613,0.058924854,-0.15067281,-0.39527392,-0.36596584,0.05998711,-3.0776384,0.6254907,-4.9213282e-05,-0.075317316,0.032923594,0.0025263831,0.007970495,0.007266144,-0.00015596992,0.4952938,-1.375638,1.8966168,-2.0896103,-1.5714811,2.4707773,-0.11770188,0.07035537,-0.093990706,0.020978762,-0.01070321,-0.11747633,0.019153614,0.22984336,-9.346964,0.84708,47.71465,-1.0225383,-2.3752313,-3.3106818,-0.2437017,-0.10045268,-0.2926537,28.1875,29.625,28.6875,32.4375,34.875,35.9375
0.17005405,-0.012822602,-0.6761113,-1.6849132,-0.039592747,0.057694808,-0.14257246,-0.39545253,-0.36588338,0.06000615,-3.0776398,0.6255448,3.0717863e-05,-0.07499838,0.032654047,0.0022054652,0.007244786,0.0057541826,0.00593191,0.4950064,-1.3755176,1.8964251,-2.089586,-1.571505,2.4705236,-0.1177561,0.07101013,-0.094154395,0.021457762,-0.009343262,-0.1236217,0.0,0.2681506,-9.404425,0.81351066,47.682407,-1.0469327,-2.3471973,-3.2879183,-0.25011298,-0.09445517,-0.21975033,28.1875,29.625,28.6875,32.4375,34.875,35.9375
0.172054,-0.01912804,-0.4841992,-1.6162072,-0.041777555,0.0532679,-0.14955102,-0.39557222,-0.36582538,0.06000073,-3.077634,0.6254054,2.4267069e-05,-0.076288566,0.033281676,0.001966405,0.007012769,0.005132295,0.010496655,0.49481386,-1.3753849,1.8962692,-2.0895383,-1.5715283,2.470245,-0.12026597,0.07265598,-0.095631376,0.021713778,-0.008853789,-0.13069634,0.0,0.24899697,-9.3661175,0.80456203,47.66539,-0.95328045,-2.346992,-3.2860265,-0.22216782,-0.11381549,-0.15737449,28.1875,29.625,28.6875,32.4375,34.875,35.9375
0.17405476,-0.32269475,-0.56908315,-1.538235,-0.040031195,0.0460375,-0.1427946,-0.39574552,-0.36576828,0.06001699,-3.0776374,0.6253649,7.4992044e-05,-0.076591,0.033327647,0.00230643,0.0078536235,0.00579913,0.012851551,0.49457476,-1.3752167,1.8960189,-2.0894783,-1.5715531,2.4699802,-0.11991945,0.07278373,-0.096746325,0.022510104,-0.009909112,-0.13270232,-0.038307227,0.21068975,-9.32781,0.83813137,47.68062,-1.2075555,-2.3566227,-3.3517628,-0.21933913,-0.10339429,-0.10242358,28.1875,29.625,28.6875,32.4375,34.875,35.9375
0.17605399,-0.31255063,-0.42903572,-1.6013432,-0.047355186,0.046257406,-0.1423268,-0.39588583,-0.36568308,0.06000186,-3.0775826,0.625394,1.2625473e-05,-0.0769594,0.034081057,0.0016014733,0.00831445,0.0042397846,0.009161889,0.4943106,-1.3750602,1.895851,-2.0894058,-1.571565,2.4697413,-0.1216915,0.07402122,-0.09668964,0.022803575,-0.009580576,-0.1307847,-0.076614454,0.19153613,-9.423578,0.83365434,47.658226,-1.0328612,-2.3009849,-3.3841171,-0.21130954,-0.08316751,-0.09174259,28.1875,29.625,28.6875,32.4375,34.875,35.9375
0.17805405,-0.35416323,-0.3772869,-1.6161493,-0.047484,0.04250171,-0.13866726,-0.39605144,-0.36560762,0.060013406,-3.0775797,0.62539476,6.374765e-05,-0.0789851,0.033437062,0.0024971883,0.0067622955,0.0059357574,0.004106668,0.4940469,-1.3749273,1.8956589,-2.08937,-1.5715884,2.4694786,-0.12275998,0.07585791,-0.100963205,0.023007236,-0.009021353,-0.12679745,0.0,0.21068975,-9.346964,0.8247004,47.685097,-1.1940136,-2.3495162,-3.244944,-0.18711326,-0.118460774,-0.13458948,28.1875,29.625,28.6875,32.4375,34.875,35.9375
0.18005414,0.10547169,-0.54690534,-1.6463897,-0.041693043,0.05148046,-0.14119938,-0.39620256,-0.36555198,0.060008056,-3.0775788,0.62533885,0.00010059485,-0.07852162,0.035118416,0.0012173878,0.008261359,0.00371751,-0.0027415347,0.49383074,-1.3747593,1.8954691,-2.0893586,-1.5716132,2.4692278,-0.12496684,0.075769074,-0.09788464,0.022681449,-0.009279026,-0.12215687,-0.038307227,0.21068975,-9.289502,0.8157518,47.63046,-1.1665475,-2.4691663,-3.4896035,-0.16458125,-0.099435546,-0.18483776,28.1875,29.625,28.6875,32.4375,34.875,35.9375
0.18205422,0.04682723,-0.28515628,-1.5394411,-0.04091018,0.051637404,-0.14400122,-0.39632493,-0.36547738,0.059987456,-3.0775297,0.6254086,-2.4431782e-05,-0.08115139,0.034609437,0.003391147,0.0058795772,0.0078014326,-0.008757763,0.4935785,-1.3746032,1.8953112,-2.0892742,-1.5715889,2.4690254,-0.12656179,0.075443044,-0.10250391,0.022905888,-0.009132928,-0.117733434,0.038307227,0.21068975,-9.32781,0.779936,47.67345,-1.0814043,-2.2828178,-3.338603,-0.16078115,-0.12515248,-0.23798218,28.1875,29.625,28.6875,32.4375,34.875,35.9375
0.18405415,-0.086896345,-0.5164012,-1.458939,-0.020377353,0.042016488,-0.14567292,-0.3965042,-0.36541447,0.06000639,-3.0775335,0.6253522,7.6970566e-05,-0.0803795,0.03549448,0.0009572932,0.007535892,0.0029469097,-0.012824099,0.49333882,-1.3744459,1.8950733,-2.0892384,-1.5716366,2.4687502,-0.12783124,0.078664035,-0.10084424,0.023077039,-0.008280495,-0.114939,-0.038307227,0.15322891,-9.3661175,0.8560339,47.67166,-1.0930407,-2.340157,-3.4489007,-0.16372535,-0.11918324,-0.30849174,28.1875,29.625,28.6875,32.4375,34.875,35.9375
0.1860539,0.20484996,0.19484664,-1.3439707,-0.03679634,0.05912877,-0.14288937,-0.39667165,-0.36536416,0.060023077,-3.0775893,0.62540233,0.00013893237,-0.0826193,0.035364233,0.0027364062,0.0059253247,0.006813057,-0.01581852,0.4930869,-1.3743142,1.8948816,-2.0892503,-1.5716127,2.4685225,-0.12934701,0.07804574,-0.10409886,0.022785598,-0.0086906515,-0.11345889,-0.13407528,0.076614454,-9.32781,0.779936,47.70211,-1.1688576,-2.359811,-3.4024282,-0.12575649,-0.13461418,-0.3643576,28.1875,29.625,28.6875,32.4375,34.875,35.9375
0.18805371,-0.38613385,-0.14543954,-1.6231416,-0.022676924,0.061817165,-0.13399802,-0.39681622,-0.36528125,0.06000665,-3.0775235,0.62548566,7.583661e-05,-0.08356457,0.036034938,0.0019541944,0.006951825,0.0054225624,-0.018943358,0.49282283,-1.3741452,1.8947018,-2.0891783,-1.5716242,2.468319,-0.13113856,0.08062437,-0.10552144,0.02333888,-0.0089441305,-0.11212363,-0.24899697,0.1340753,-9.308656,0.8537928,47.66539,-1.1152062,-2.1810672,-3.3235886,-0.11681594,-0.111007854,-0.39473593,28.1875,29.625,28.6875,32.4375,34.875,35.9375
0.19005345,-0.64704144,0.020397127,-1.5700728,-0.012069052,0.067415245,-0.1446713,-0.39700377,-0.36522815,0.060025055,-3.0775208,0.62552357,0.000114236194,-0.084215194,0.03679047,0.0010069868,0.007777455,0.0021537053,-0.021485902,0.49257052,-1.3739518,1.8944138,-2.0891058,-1.5716366,2.4680908,-0.13345958,0.083506614,-0.107294634,0.025494175,-0.008121606,-0.111903146,-0.21068975,0.095768064,-9.3661175,0.84484416,47.70659,-1.1054476,-2.3125672,-3.3523636,-0.10461119,-0.13560031,-0.45462143,28.1875,29.625,28.6875,32.4375,34.875,35.9375
0.19205347,-1.0634408,0.4885216,-1.5370972,-0.030777253,0.07157916,-0.14492862,-0.39718455,-0.36515766,0.06005113,-3.0775232,0.6256173,0.00018178637,-0.08402355,0.037271887,0.00029411245,0.009123269,-0.00028321063,-0.019584045,0.492295,-1.3738192,1.8941859,-2.0890572,-1.5716485,2.4678736,-0.13402697,0.0850107,-0.10789464,0.027368054,-0.0081495475,-0.11437243,-0.36391866,0.095768064,-9.423578,0.81351066,47.71286,-1.1688483,-2.3726778,-3.2963624,-0.11201761,-0.13065661,-0.51338357,28.1875,29.625,28.6875,32.4375,34.875,35.9375
0.19405335,-1.27294,-0.032026775,-1.3655941,-0.028148675,0.08682289,-0.14277612,-0.39733016,-0.36506084,0.060021777,-3.0774276,0.62559676,0.0001142613,-0.08683628,0.03859805,0.001308713,0.008744524,0.0014544578,-0.018191865,0.49202964,-1.373627,1.8940052,-2.0889733,-1.5716966,2.4676077,-0.13845626,0.085517175,-0.11102195,0.028266968,-0.008657692,-0.12019082,-0.53630114,0.15322891,-9.3661175,0.800085,47.67166,-0.89451647,-2.299216,-3.02606,-0.10318288,-0.14901464,-0.49777126,28.1875,29.625,28.6875,32.4375,34.875,35.9375
0.19605343,-0.952812,0.45460135,-1.5436946,-0.030723713,0.11264869,-0.15259264,-0.39752373,-0.36497882,0.060021568,-3.0773864,0.6257352,0.0001469602,-0.08581662,0.039484154,-0.0008092461,0.011085127,-0.0026439428,-0.009746578,0.49173063,-1.3734337,1.8937677,-2.088937,-1.5717205,2.4674006,-0.1388867,0.08792418,-0.109186664,0.028728802,-0.008787066,-0.12906677,-0.5363012,0.11492168,-9.385271,0.8112748,47.672558,-1.2071997,-2.5067067,-3.4054418,-0.09560943,-0.13560787,-0.42194188,28.1875,29.625,28.6875,32.4375,34.875,35.9375
0.19805393,-1.3240235,0.13470697,-1.424817,-0.023580777,0.120795436,-0.15510917,-0.39769596,-0.36491945,0.060032822,-3.0774353,0.6256596,0.00017819392,-0.08758455,0.03873357,0.0013250423,0.009018913,0.00096776476,0.0019028066,0.49146712,-1.373278,1.8935517,-2.0889132,-1.5717086,2.4670837,-0.13923807,0.086944476,-0.11303646,0.02938597,-0.008682146,-0.1410668,-0.63206923,0.076614454,-9.423578,0.8717007,47.70211,-1.1599655,-2.3336265,-3.1869202,-0.095254086,-0.16529346,-0.33146155,28.1875,29.625,28.6875,32.4375,34.875,35.9375
0.20005415,-1.7211637,-0.08207292,-1.3472883,-0.024991805,0.128154,-0.14404915,-0.39787933,-0.36483842,0.060022242,-3.0773978,0.62562937,0.00015458772,-0.08798148,0.039201453,-0.0006112766,0.010932548,-0.002426387,0.007384767,0.4911792,-1.3730602,1.8933004,-2.0888412,-1.5717324,2.4667819,-0.14027162,0.09159167,-0.114287615,0.029873395,-0.008781329,-0.14758062,-0.6895301,-0.05746084,-9.3661175,0.86498255,47.71286,-1.2611607,-2.4497907,-3.244706,-0.09864606,-0.171214,-0.23392484,28.1875,29.625,28.6875,32.4375,34.875,35.9375
0.20205382,-1.8388823,0.23389933,-1.325483,-0.014873555,0.12426328,-0.14562486,-0.39803016,-0.3647512,0.060019944,-3.0773485,0.6256354,9.465468e-05,-0.089388914,0.039122585,0.0017343876,0.009161503,0.0013558744,0.010905527,0.49090344,-1.3729051,1.8930968,-2.0887334,-1.5717448,2.4665163,-0.14121754,0.08881516,-0.11651928,0.030703172,-0.0090196375,-0.15204594,-0.80445176,-0.038307227,-9.3661175,0.7978386,47.684196,-1.1801553,-2.2636867,-3.1886802,-0.07948062,-0.16526812,-0.1722509,28.1875,29.625,28.6875,32.4375,34.875,35.9375
0.20405386,-1.9235069,0.62937456,-1.4664446,-0.0048275525,0.11103601,-0.14971341,-0.39821628,-0.36468977,0.060034808,-3.0773919,0.62552917,0.00016288839,-0.09145277,0.040049016,0.001306431,0.009484531,0.0010617122,0.00852017,0.49063894,-1.372736,1.8928565,-2.0887096,-1.5717567,2.46618,-0.1444974,0.09165079,-0.11892827,0.030683748,-0.009165533,-0.15293917,-0.7661445,-0.15322891,-9.289502,0.7978386,47.709274,-1.04262,-2.412279,-3.1121736,-0.07073347,-0.19491306,-0.1527987,28.1875,29.625,28.6875,32.4375,34.875,35.9375
0.20605354,-1.4428338,0.7281922,-1.4368199,-0.0009823967,0.11111347,-0.13449764,-0.3984109,-0.3646117,0.0600217,-3.0773654,0.62556577,0.00015630004,-0.09259362,0.040774394,0.001431775,0.009585679,0.001285191,-8.20764e-05,0.4903391,-1.3725075,1.8926061,-2.0886729,-1.5717691,2.4659066,-0.14656764,0.09229073,-0.12007562,0.031044781,-0.009360144,-0.14640613,-0.7852981,-0.11492168,-9.385271,0.80679786,47.72002,-1.2084326,-2.4948454,-3.120338,-0.05401009,-0.16763498,-0.18137656,28.1875,29.625,28.6875,32.4375,34.875,35.9375
0.20805436,-1.0229993,0.51384324,-1.3068562,0.0007066864,0.11477817,-0.13915664,-0.3985759,-0.36451972,0.06001706,-3.0773518,0.62556523,9.924306e-05,-0.09339027,0.040998727,0.0010327337,0.010683941,0.0012394796,-0.005148383,0.49002746,-1.3723507,1.892414,-2.0886014,-1.5717567,2.4655964,-0.14702146,0.09430836,-0.12159695,0.031113053,-0.010313573,-0.14179027,-0.9768343,-0.095768064,-9.289502,0.8247004,47.687782,-1.1995623,-2.4958868,-3.087767,-0.062335428,-0.17906153,-0.22190464,28.1875,29.625,28.6875,32.4375,34.875,35.9375
0.21005337,-1.2360605,0.94687927,-1.3028874,-0.014201682,0.11452423,-0.15283279,-0.39878824,-0.364438,0.060038723,-3.0773335,0.62561905,0.0002025776,-0.09384227,0.041139394,0.0006452704,0.011046989,6.6514396e-05,-0.009237173,0.4897279,-1.3721701,1.8921388,-2.0885532,-1.5718049,2.465333,-0.14774826,0.09603621,-0.122980565,0.031967726,-0.010075353,-0.13842858,-0.9002198,-0.1340753,-9.308656,0.85155696,47.693153,-1.1521313,-2.536011,-3.032289,-0.04204244,-0.1849086,-0.2963004,28.1875,29.625,28.6875,32.4375,34.875,35.9375
0.21205336,-1.0294807,0.7193468,-1.4076027,-0.009595519,0.1216752,-0.15331286,-0.39896566,-0.36434326,0.060005907,-3.0772529,0.62569803,0.00011120487,-0.09472448,0.041890398,0.0010149619,0.011755607,0.00048536985,-0.010676534,0.48941594,-1.3719296,1.8919109,-2.0884807,-1.5718173,2.4650807,-0.14923288,0.096092254,-0.1241523,0.03304517,-0.010911148,-0.13847075,-0.5554548,-0.095768064,-9.461885,0.87617236,47.703007,-1.1763971,-2.4230673,-3.093935,-0.03672049,-0.18099776,-0.3141307,28.1875,29.625,28.6875,32.4375,34.875,35.9375
0.2140536,-1.40901,0.009297715,-1.3798997,-0.009047493,0.10878413,-0.13563827,-0.39914557,-0.36425576,0.060015153,-3.077203,0.6256866,0.00010100339,-0.09450147,0.04242476,0.00033307058,0.012778789,-0.0010528949,-0.011369576,0.48912853,-1.3717493,1.8916482,-2.088361,-1.571853,2.4647927,-0.14975996,0.09692119,-0.12373593,0.03363141,-0.011095788,-0.13830408,-0.5554548,0.0,-9.442732,0.87393653,47.684196,-1.2487491,-2.4483252,-3.107955,-0.037756614,-0.18495296,-0.34867665,28.1875,29.625,28.6875,32.4375,34.875,35.9375
0.21605359,-1.3324172,0.18707055,-1.2617451,-0.031720944,0.104582,-0.14570755,-0.39934805,-0.36416122,0.06001568,-3.077162,0.6257348,0.00016015375,-0.09535591,0.04266498,0.00019109089,0.012893247,-0.0018566858,-0.011949588,0.4888167,-1.3715564,1.8914093,-2.0883248,-1.5719012,2.4645164,-0.15103976,0.09859582,-0.1256477,0.034620155,-0.010822633,-0.13900374,-0.51714754,0.1340753,-9.346964,0.7911258,47.672558,-1.2496017,-2.4821954,-2.9951031,-0.02860172,-0.17873117,-0.37906593,28.1875,29.625,28.6875,32.4375,34.875,35.9375
0.21805452,-0.50856847,-0.08394853,-1.4736947,-0.024271324,0.09914914,-0.13946271,-0.399564,-0.36407563,0.060022697,-3.0771549,0.6257097,0.00019532602,-0.09544985,0.04362429,0.00016244948,0.0142861605,-0.0029434962,-0.0086974185,0.4884932,-1.3713404,1.8911222,-2.0882638,-1.5719255,2.4641783,-0.1522224,0.09847669,-0.12590729,0.036602836,-0.011543345,-0.14343712,-0.3256114,0.11492168,-9.270349,0.8627467,47.691364,-1.2388256,-2.4018638,-3.3015823,-0.04767735,-0.1940539,-0.3748803,28.1875,29.625,28.6875,32.4375,34.875,35.9375
0.22005422,0.010701665,0.5208364,-1.5377368,-0.036471643,0.08025957,-0.1541229,-0.39976236,-0.36397344,0.0600081,-3.0770884,0.6258255,0.00017217701,-0.095165536,0.044222534,-0.0007743504,0.015214984,-0.0055831145,-0.0020056004,0.48815742,-1.3711236,1.8908838,-2.0882041,-1.5719494,2.4639235,-0.15316083,0.09985535,-0.12570274,0.037768517,-0.0111377565,-0.1510679,-0.17238252,-0.038307227,-9.423578,0.8179876,47.701214,-1.265846,-2.4650483,-3.1684732,-0.045236006,-0.16489336,-0.31046262,28.1875,29.625,28.6875,32.4375,34.875,35.9375
0.22205345,0.033662103,0.55823046,-1.4363633,-0.035146743,0.050845724,-0.1435242,-0.39995503,-0.36388198,0.06001646,-3.0770528,0.62587124,0.00018192099,-0.09717284,0.044794034,0.0002991678,0.014466546,-0.0027041775,0.0043523167,0.48784524,-1.3709437,1.8906316,-2.0881207,-1.5719737,2.4636445,-0.15542571,0.0994982,-0.12758106,0.037094835,-0.011844821,-0.15968823,-0.076614454,-0.038307227,-9.308656,0.79560274,47.677036,-1.140203,-2.4337425,-3.22731,-0.029477378,-0.16288829,-0.23160088,28.1875,29.625,28.6875,32.4375,34.875,35.9375
0.22405425,0.90446126,0.32150728,-1.467677,-0.022721149,0.05686736,-0.14542302,-0.4001786,-0.3637747,0.060023677,-3.0769973,0.62589544,0.00026434913,-0.09834064,0.047222804,-0.0020583845,0.01692687,-0.0070123407,0.006689415,0.4875086,-1.3707381,1.8903569,-2.0880606,-1.5720462,2.4633303,-0.16039218,0.10364529,-0.12729234,0.037593283,-0.012006661,-0.16699108,0.038307227,0.0,-9.423578,0.83365434,47.670765,-1.1863421,-2.4145007,-3.287067,-0.026746206,-0.15692961,-0.10946916,28.1875,29.625,28.6875,32.4375,34.875,35.9375
0.22605412,0.7141323,0.35544944,-1.6210607,-0.011499966,0.032236975,-0.14678277,-0.4003734,-0.36369684,0.060008448,-3.077,0.62575805,0.00024200857,-0.09737622,0.047463037,-0.0011802438,0.016610263,-0.0075576724,0.0100203,0.48720944,-1.3704987,1.8900951,-2.088012,-1.5720571,2.4629452,-0.16019194,0.100784265,-0.12642676,0.039910994,-0.011475733,-0.17012371,0.095768064,0.019153614,-9.423578,0.86498255,47.65912,-1.0294609,-2.4864202,-3.479914,-0.07186015,-0.18524617,-0.04520001,28.1875,29.625,28.6875,32.4375,34.875,35.9375
0.22805381,0.49025244,-0.17086124,-1.6767194,0.0011242783,0.012059163,-0.1293375,-0.40056548,-0.3635947,0.0600133,-3.0769663,0.62575394,0.00020675108,-0.098909095,0.048940163,-0.002247336,0.01841479,-0.010383413,0.0020908786,0.48687285,-1.3703172,1.8898433,-2.0879033,-1.5720695,2.4626105,-0.16381651,0.10446481,-0.1288812,0.04202761,-0.01175626,-0.16581643,0.1340753,0.11492168,-9.3661175,0.8627467,47.68062,-0.9856664,-2.4401064,-3.2789295,-0.07096633,-0.1675837,-0.075520836,28.1875,29.625,28.6875,32.4375,34.875,35.9375
0.2300538,0.8535037,0.47680587,-1.6534821,-0.02193312,0.014548707,-0.14207871,-0.4007534,-0.3634958,0.059989043,-3.07691,0.6257633,0.000103507984,-0.09828217,0.04891095,-0.0011544734,0.018198116,-0.011200077,-0.0040406915,0.48653784,-1.3700777,1.8895911,-2.0878065,-1.5720695,2.4622886,-0.16349049,0.10246945,-0.12981261,0.04557785,-0.011189907,-0.15935956,0.1340753,0.038307227,-9.308657,0.8717007,47.681515,-1.0348386,-2.4212017,-3.5457458,-0.10170328,-0.17044245,-0.11932613,28.1875,29.625,28.6875,32.4375,34.875,35.9375
0.23205344,0.6649291,0.37201726,-1.4868196,-0.029166792,0.018420195,-0.14551352,-0.40098634,-0.36339828,0.060013138,-3.076885,0.62579894,0.00021666869,-0.09862179,0.048557088,-0.001416602,0.018109044,-0.012191648,-0.00961122,0.4862022,-1.3698851,1.8892931,-2.087746,-1.5721296,2.4619787,-0.1634611,0.10434637,-0.13165094,0.046367057,-0.010643508,-0.15376058,0.05746084,0.15322891,-9.308657,0.9612189,47.661808,-1.0123714,-2.3879404,-3.3896775,-0.12361458,-0.17029858,-0.21644655,28.1875,29.625,28.6875,32.4375,34.875,35.9375
0.2340543,0.88234085,0.31187502,-1.7347957,-0.024729395,0.03587314,-0.13891377,-0.40114924,-0.36327556,0.059973,-3.0767596,0.6259306,-1.7045758e-07,-0.10041444,0.04904054,-0.0007196661,0.01734167,-0.010789891,-0.018997978,0.48584214,-1.3696564,1.8890766,-2.0875905,-1.5721172,2.461717,-0.16581872,0.10487987,-0.13392687,0.046519674,-0.010648757,-0.14672875,0.1340753,0.17238252,-9.346964,0.8112748,47.66808,-0.9361213,-2.4058874,-3.4198976,-0.14315484,-0.18180665,-0.29597512,28.1875,29.625,28.6875,32.4375,34.875,35.9375
0.23605338,0.053062696,-0.5143708,-1.6967043,-0.019856326,0.03152402,-0.13136062,-0.40135807,-0.36319536,0.059979975,-3.076743,0.62590814,4.653742e-05,-0.100259736,0.04975824,-0.00031576384,0.017640587,-0.012700016,-0.023050448,0.48554248,-1.3694406,1.8887895,-2.0875294,-1.572153,2.4614055,-0.16720766,0.10407593,-0.13466792,0.04988676,-0.010016184,-0.14406714,0.19153613,0.15322891,-9.423578,0.8090337,47.679718,-1.0646752,-2.3241339,-3.3557372,-0.19173118,-0.19989344,-0.36263448,28.1875,29.625,28.6875,32.4375,34.875,35.9375
0.23805474,0.20456773,-0.428625,-1.8218132,-0.036127005,0.04962811,-0.14217833,-0.4015409,-0.36306265,0.059957538,-3.076622,0.6260185,-7.9531965e-05,-0.10105769,0.050489303,-0.0019612105,0.019819887,-0.015998008,-0.027640032,0.48517066,-1.3692348,1.8885626,-2.0873854,-1.5721773,2.4611182,-0.16883679,0.10874794,-0.13684061,0.051319934,-0.010428535,-0.14110292,0.05746084,0.17238252,-9.404425,0.85826975,47.701214,-0.997834,-2.3471887,-3.309505,-0.2267429,-0.18438411,-0.46548182,28.1875,29.625,28.6875,32.4375,34.875,35.9375
0.24005392,-0.23069169,-0.35547662,-1.9505485,-0.04328443,0.03708296,-0.13659807,-0.40176743,-0.36299726,0.060003296,-3.0766418,0.6260785,-2.1809446e-05,-0.102722116,0.051504858,-0.0005107953,0.01870768,-0.013335342,-0.027822167,0.48485833,-1.3690436,1.8882035,-2.0872662,-1.5721773,2.460841,-0.17178693,0.10666481,-0.13768104,0.051363192,-0.010691078,-0.14387079,0.019153614,0.2681506,-9.576807,0.83813137,47.73077,-0.9086864,-2.3405669,-3.3564267,-0.25422868,-0.20411083,-0.48497403,28.1875,29.625,28.6875,32.4375,34.875,35.9375
0.24205391,-0.5353119,-0.8615162,-2.2332313,-0.05341966,0.03531825,-0.13062142,-0.40194508,-0.36287028,0.059966695,-3.0765104,0.62610286,-0.0001130655,-0.10311882,0.051628206,-0.0021135923,0.018729558,-0.016806157,-0.019677244,0.48452285,-1.3688136,1.887988,-2.0871575,-1.5722369,2.4605377,-0.173253,0.110669516,-0.13889717,0.051623784,-0.009133206,-0.15348385,-0.019153614,0.3256114,-9.653421,0.8985519,47.723602,-0.91171396,-2.329198,-3.3179665,-0.2843777,-0.19613758,-0.461272,28.1875,29.625,28.6875,32.4375,34.875,35.9375
0.24405362,-0.7429739,-1.3535519,-2.0209782,-0.06122395,0.054971308,-0.1366725,-0.40214127,-0.3628004,0.059978895,-3.0765183,0.62603897,-0.00015463177,-0.104360886,0.051791985,-0.0005872791,0.017775053,-0.013752599,-0.008648198,0.4842229,-1.3685982,1.8876761,-2.0870378,-1.572225,2.460197,-0.17418756,0.10895665,-0.1403427,0.05161882,-0.00974,-0.16544531,-0.13407528,0.3256114,-9.672575,0.83589023,47.684196,-0.9103681,-2.3586102,-3.3722239,-0.31189895,-0.22631308,-0.35745084,28.1875,29.625,28.6875,32.4375,34.875,35.9375
0.24605376,-0.72500944,-1.527703,-2.0286863,-0.06260116,0.08320045,-0.13314569,-0.40235466,-0.36267447,0.059967745,-3.0764222,0.62609094,-0.0001968367,-0.10583732,0.05308085,-0.0011543129,0.018655352,-0.013661035,-0.0011853589,0.48385084,-1.3683693,1.8874015,-2.0869186,-1.5722736,2.4598699,-0.17706639,0.110594325,-0.14083995,0.05078248,-0.0105994195,-0.17578335,-0.2681506,0.30645782,-9.653421,0.88960326,47.698532,-0.9982724,-2.3358152,-3.355041,-0.3334192,-0.20713833,-0.23601586,28.1875,29.625,28.6875,32.4375,34.875,35.9375
0.24805434,-0.7269743,-0.8479913,-1.9389427,-0.0686901,0.11019152,-0.15075731,-0.40256852,-0.36257926,0.059976894,-3.0764248,0.6260867,-0.00022781012,-0.106790386,0.05144069,-0.00069698883,0.016766725,-0.0127028,0.005469251,0.48349223,-1.3681641,1.8871139,-2.0868227,-1.5722607,2.4595084,-0.1758157,0.11291346,-0.14460397,0.05048693,-0.009399301,-0.18118887,-0.34476504,0.3256114,-9.691729,0.87617236,47.703007,-1.0826288,-2.471847,-3.1613138,-0.34559548,-0.2271753,-0.18220258,28.1875,29.625,28.6875,32.4375,34.875,35.9375
0.25005427,-1.64715,-1.0962738,-1.8790903,-0.06161972,0.112637594,-0.13579535,-0.40276152,-0.36249173,0.059986565,-3.07642,0.6259884,-0.00024592527,-0.10841589,0.05048003,0.00054229744,0.015067439,-0.009408887,0.00481493,0.48318088,-1.3679719,1.8868383,-2.0867155,-1.5722731,2.4591365,-0.17554475,0.11344851,-0.14785582,0.04949404,-0.009443215,-0.1802619,-0.40222588,0.2681506,-9.653421,0.83589023,47.70032,-1.0970699,-2.3684049,-3.2152696,-0.37358814,-0.24993566,-0.136586,28.1875,29.625,28.6875,32.4375,34.875,35.9375
0.25205418,-1.4231652,-0.6006324,-1.7888322,-0.056470532,0.123035714,-0.14929408,-0.40298778,-0.36239064,0.059974987,-3.0763755,0.6260578,-0.0003055531,-0.109603375,0.050320305,2.54475e-05,0.014149972,-0.007246142,-0.0013663493,0.48280963,-1.3677074,1.8865274,-2.0866215,-1.5722731,2.4588144,-0.17611746,0.11506077,-0.1477098,0.04540049,-0.009649785,-0.1746518,-0.4213795,0.30645782,-9.672575,0.7911258,47.70211,-1.105478,-2.40186,-3.2049828,-0.34853715,-0.23902574,-0.17829125,28.1875,29.625,28.6875,32.4375,34.875,35.9375
0.2540537,-1.5626142,-0.6807602,-1.7720345,-0.053919584,0.12589574,-0.13335428,-0.4032253,-0.36230093,0.059996057,-3.0763717,0.6260973,-0.0002408784,-0.11075129,0.049076855,0.00078052114,0.012219137,-0.0042572985,-0.006315699,0.48246244,-1.3674905,1.8862046,-2.0865505,-1.572297,2.4584925,-0.17515352,0.11586705,-0.14993303,0.043274775,-0.009325528,-0.16873871,-0.57460845,0.19153613,-9.615114,0.8806493,47.705692,-1.2243984,-2.4135542,-3.151431,-0.3387456,-0.26582503,-0.27505288,28.1875,29.625,28.6875,32.4375,34.875,35.9375
0.25605363,-0.86019295,0.08901163,-1.594268,-0.06031981,0.1365527,-0.15370335,-0.4034458,-0.36219424,0.05998784,-3.0763237,0.62612647,-0.00026226987,-0.11309637,0.04970242,0.00086459384,0.01207089,-0.0017496033,-0.010548909,0.48210222,-1.3672498,1.8859171,-2.0864675,-1.5723213,2.4581568,-0.17755541,0.11766302,-0.15179119,0.04104592,-0.010372859,-0.16690283,-0.63206923,0.19153613,-9.500193,0.8537928,47.709274,-1.1084566,-2.3902123,-3.2586045,-0.3040553,-0.26153764,-0.34232402,28.1875,29.625,28.6875,32.4375,34.875,35.9375
0.25805354,-0.9448376,0.022638947,-1.3519708,-0.046505824,0.12739629,-0.14826284,-0.40368465,-0.36210155,0.05999267,-3.0763278,0.626126,-0.00022656798,-0.113445565,0.05141,-0.00078509457,0.01402747,-0.004046306,-0.011984604,0.48174217,-1.3670088,1.8856071,-2.0864193,-1.5723337,2.457796,-0.18023394,0.119639136,-0.15030913,0.04052452,-0.011041615,-0.16814415,-0.47884035,0.17238252,-9.557653,0.8940802,47.73614,-1.1381311,-2.5127087,-3.2308104,-0.31723112,-0.27523383,-0.35607272,28.1875,29.625,28.6875,32.4375,34.875,35.9375
0.26005453,-0.85953486,0.5553905,-1.3805783,-0.04130429,0.11201376,-0.15407065,-0.4039103,-0.3620084,0.059981104,-3.0762753,0.6261311,-0.00023740294,-0.11432374,0.050553795,9.938676e-05,0.012732537,-0.0008972648,-0.010271243,0.48140752,-1.3667326,1.8852848,-2.0863364,-1.5723695,2.4574716,-0.17927994,0.11946106,-0.15173097,0.038724206,-0.011369988,-0.16890156,-0.6703765,0.038307227,-9.557653,0.84708,47.682407,-1.3183721,-2.4492106,-3.1966872,-0.29747197,-0.28414792,-0.39725703,28.1875,29.625,28.6875,32.4375,34.875,35.9375
0.26205397,-1.180175,-0.105073005,-1.328567,-0.032115057,0.11008558,-0.14814562,-0.40414122,-0.36189747,0.059974056,-3.0762494,0.62613887,-0.00025555343,-0.11534367,0.050109383,-0.0007543957,0.012665701,-0.00010643095,-0.0029537175,0.48102418,-1.3664912,1.8849963,-2.0862658,-1.5723819,2.4570966,-0.1791383,0.122575514,-0.15294063,0.036070537,-0.011703217,-0.17607512,-0.7086837,0.0,-9.5385,0.93436235,47.71554,-1.4272304,-2.6617184,-3.327795,-0.25156206,-0.2844752,-0.33125293,28.1875,29.625,28.6875,32.4375,34.875,35.9375
0.26405373,-1.2433511,0.19305633,-1.0731597,-0.04311705,0.11705104,-0.16152288,-0.40438977,-0.36180678,0.060009595,-3.0762882,0.62617975,-0.00017006621,-0.11633585,0.050279465,0.00023086683,0.011169445,0.002606078,0.0061598127,0.4806516,-1.3663,1.8846735,-2.0862062,-1.5723814,2.4567447,-0.18023933,0.12105171,-0.15304294,0.034578536,-0.011639061,-0.18629086,-0.6512229,0.019153614,-9.461885,0.8873621,47.709274,-1.4652162,-2.3969789,-3.3945532,-0.21790795,-0.27996537,-0.2397888,28.1875,29.625,28.6875,32.4375,34.875,35.9375
0.2660539,-1.0181854,0.18035305,-1.2348629,-0.023412593,0.114000306,-0.15024896,-0.4046439,-0.36170366,0.060015462,-3.0762422,0.6262051,-0.00010073316,-0.11786238,0.051228944,0.00024650985,0.01136809,0.0025376934,0.012203608,0.4802906,-1.3660347,1.8843268,-2.0861342,-1.5724415,2.4564056,-0.18298745,0.12235507,-0.1547945,0.035149556,-0.011798338,-0.1950817,-0.30645782,-0.11492168,-9.3661175,0.91198283,47.701214,-1.4171607,-2.5755758,-3.3861017,-0.19635537,-0.29197118,-0.121651694,28.1875,29.625,28.6875,32.4375,34.875,35.9375
0.26805344,-0.06646221,1.0888407,-1.0583869,-0.02814406,0.106825486,-0.15889935,-0.40486774,-0.36159515,0.060003955,-3.0762286,0.62614477,-0.00012144382,-0.11871355,0.051977053,-0.00039553648,0.0123527385,0.0018909158,0.012844423,0.47991815,-1.3657942,1.8840517,-2.086074,-1.5724539,2.4559975,-0.18454537,0.124233,-0.15559448,0.035091784,-0.012384427,-0.19727786,-0.24899697,-0.15322891,-9.346964,0.85155696,47.68062,-1.347203,-2.476486,-3.3709264,-0.17681292,-0.30376732,-0.050927497,28.1875,29.625,28.6875,32.4375,34.875,35.9375
0.27005398,-0.18668649,0.7432582,-0.7611417,-0.013274019,0.070443,-0.15318543,-0.4051445,-0.3614916,0.060026165,-3.0762606,0.62615365,2.8638788e-05,-0.12032008,0.052103534,1.0811165e-05,0.011476963,0.0036046475,0.006607055,0.47952193,-1.3655655,1.8837279,-2.0860746,-1.5724896,2.455603,-0.18606368,0.12520982,-0.15748309,0.03407577,-0.012380659,-0.1925591,-0.38307226,-0.21068975,-9.212888,0.8627467,47.716442,-1.2458942,-2.473281,-3.3795054,-0.15853481,-0.305854,-0.08067816,28.1875,29.625,28.6875,32.4375,34.875,35.9375
0.27205363,0.29124287,1.3839334,-0.7665987,0.0026183159,0.053264625,-0.15904884,-0.4053791,-0.3613747,0.060020536,-3.0761962,0.62616485,2.9736315e-05,-0.12232615,0.053154204,0.00053452485,0.01136883,0.005842489,-0.0034608915,0.47914863,-1.3653134,1.8834175,-2.0859792,-1.5725383,2.455245,-0.18892312,0.125438,-0.15874939,0.03308102,-0.013319046,-0.18534689,-0.38307226,-0.15322891,-9.155427,0.800085,47.675243,-1.216705,-2.4419076,-3.3444095,-0.088331446,-0.30839586,-0.14501554,28.1875,29.625,28.6875,32.4375,34.875,35.9375
0.27405384,0.7595149,1.9419974,-0.8857604,0.012766212,0.041817427,-0.16109169,-0.40564212,-0.36129382,0.060032487,-3.0762184,0.62615377,9.291394e-05,-0.122954525,0.054123014,-0.0011893933,0.013244886,0.0019416889,-0.011445619,0.47878814,-1.3650357,1.883047,-2.0859306,-1.5725497,2.454875,-0.19108933,0.12973094,-0.16037573,0.034744367,-0.013170419,-0.17952827,-0.15322891,-0.15322891,-9.174581,0.85826975,47.66987,-1.2783068,-2.5447884,-3.3982341,-0.07634351,-0.29764575,-0.24928634,28.1875,29.625,28.6875,32.4375,34.875,35.9375
0.27605477,-0.109437056,0.794968,-0.72136587,0.029043064,0.017619753,-0.14413056,-0.4058638,-0.36118612,0.060022037,-3.0761652,0.62624484,8.6917964e-05,-0.124082476,0.055285387,0.0010294375,0.012417728,0.0048453193,-0.02154693,0.4784273,-1.3647969,1.8827714,-2.08587,-1.5725745,2.454578,-0.19357347,0.12567867,-0.16098058,0.036450397,-0.01376526,-0.17190966,-0.19153613,-0.19153613,-9.078813,0.8247004,47.650166,-1.1624469,-2.4203255,-3.3440318,-0.055937894,-0.3019465,-0.3439082,28.1875,29.625,28.6875,32.4375,34.875,35.9375
0.27805352,0.12670265,1.3045646,-0.7512614,0.0076729017,0.03103472,-0.16631953,-0.40610522,-0.36107618,0.060021326,-3.0761533,0.6262255,5.2859927e-05,-0.12580301,0.05655781,0.0006956843,0.012540559,0.002976687,-0.028248884,0.47802997,-1.3645436,1.8824481,-2.0857742,-1.572574,2.4541702,-0.19758128,0.12802911,-0.16348787,0.038320035,-0.013016925,-0.16921623,-0.2873042,-0.15322891,-9.040505,0.91198283,47.683304,-1.1233985,-2.446554,-3.2184367,-0.05422934,-0.31003764,-0.44231254,28.1875,29.625,28.6875,32.4375,34.875,35.9375
0.2800543,0.21407445,0.6455758,-1.0627323,-0.00045535486,0.054871455,-0.15568475,-0.4063723,-0.36094788,0.06002582,-3.0760643,0.6264368,8.3069215e-05,-0.12760086,0.05691206,0.002780905,0.011490042,0.0054556206,-0.028378848,0.4776094,-1.3642799,1.8821005,-2.0856774,-1.5726222,2.4538932,-0.19950575,0.12654644,-0.16699854,0.040613037,-0.013231816,-0.17100912,-0.21068975,-0.11492168,-9.174581,0.9164598,47.733456,-1.1240838,-2.2175922,-3.230895,-0.039807357,-0.32576597,-0.46860605,28.1875,29.625,28.6875,32.4375,34.875,35.9375
0.2820543,-0.8594633,0.008589128,-1.2177895,-0.011478855,0.060709767,-0.15483476,-0.40661463,-0.36083472,0.060035,-3.076038,0.6264428,6.223643e-05,-0.12793703,0.056025926,0.0040231887,0.01112924,0.00612338,-0.015549877,0.47721395,-1.3640398,1.8817648,-2.0855567,-1.5726341,2.453505,-0.19819671,0.12655334,-0.17045793,0.04327776,-0.0132409185,-0.1825277,-0.19153613,-0.05746084,-9.232041,0.9545008,47.68599,-1.1227875,-2.1630886,-3.1955929,-0.073834635,-0.3187727,-0.41563004,28.1875,29.625,28.6875,32.4375,34.875,35.9375
0.2840541,-1.1842326,-0.55948144,-1.4654926,-0.0096050175,0.07388482,-0.15663588,-0.40685368,-0.3607233,0.060027223,-3.0760262,0.62637603,1.0975016e-05,-0.12662797,0.058084283,0.001562008,0.014531142,-3.5240486e-05,-0.0042316085,0.47681716,-1.3637749,1.8814434,-2.08546,-1.5726341,2.4530683,-0.20027953,0.12855309,-0.16782443,0.045647837,-0.013453191,-0.19592857,-0.11492168,0.019153614,-9.3661175,0.88289046,47.642998,-1.0423238,-2.2220194,-3.31455,-0.080692254,-0.32523483,-0.2959292,28.1875,29.625,28.6875,32.4375,34.875,35.9375
0.28605387,-1.0210003,-0.13906996,-1.5846946,-0.038586047,0.09079217,-0.15764762,-0.4070911,-0.3605881,0.060018077,-3.075949,0.6264323,-5.633429e-05,-0.12722652,0.05834777,0.0019712143,0.014626491,-0.00043636904,0.003048378,0.47639692,-1.3635224,1.881132,-2.0853279,-1.5726584,2.4526932,-0.20118529,0.1289853,-0.16971445,0.04747969,-0.013384029,-0.20411302,-0.24899697,0.095768064,-9.461885,0.8672237,47.63225,-1.0565435,-2.1228547,-3.2701638,-0.08135231,-0.35093385,-0.18084186,28.1875,29.625,28.6875,32.4375,34.875,35.9375
0.28805372,-0.8331554,-0.5861535,-1.583788,-0.055904187,0.1075366,-0.16265757,-0.40735966,-0.36045185,0.060014818,-3.0758781,0.62641734,-2.0177362e-05,-0.12752455,0.057912067,0.0015228229,0.015359529,-0.00094556506,0.0055652778,0.47597727,-1.3632454,1.8807858,-2.085232,-1.5727304,2.4522736,-0.20033357,0.13131686,-0.17159097,0.04779144,-0.01381676,-0.20577557,-0.47884035,0.24899697,-9.557653,0.8672237,47.6636,-1.1710513,-2.1984675,-3.313192,-0.09559683,-0.34564745,-0.13139272,28.1875,29.625,28.6875,32.4375,34.875,35.9375
0.2900536,-1.2935956,-0.8841292,-1.8556132,-0.059494033,0.11312606,-0.14760423,-0.4076067,-0.36034033,0.060022876,-3.0758505,0.626433,-4.0218118e-05,-0.12760031,0.05766279,0.0014988788,0.015794756,-0.0008734894,0.0009081324,0.47558132,-1.3629931,1.8804382,-2.0851123,-1.5727423,2.4518912,-0.1996134,0.13211057,-0.17259578,0.04814252,-0.014237335,-0.20039621,-0.4213795,0.22984336,-9.615114,0.84708,47.696735,-1.3064424,-2.1561751,-3.246181,-0.083662026,-0.35870588,-0.18402475,28.1875,29.625,28.6875,32.4375,34.875,35.9375
0.29205343,-1.107805,-0.915823,-1.9760319,-0.051910795,0.11284794,-0.15513209,-0.4078727,-0.3602297,0.060045376,-3.075828,0.6264321,3.072073e-06,-0.12832825,0.058228113,0.0011915027,0.016173925,-0.0017647422,-0.007896573,0.47518516,-1.36274,1.8800567,-2.0849922,-1.5727781,2.4514976,-0.20113337,0.13353403,-0.17380229,0.048893694,-0.014157177,-0.19311127,-0.38307226,0.22984336,-9.80665,0.87393653,47.686886,-1.4470111,-2.230843,-3.3258476,-0.099192,-0.354609,-0.27532062,28.1875,29.625,28.6875,32.4375,34.875,35.9375
0.2940532,-0.7310667,-0.6092072,-1.9508227,-0.06925172,0.10885974,-0.16502592,-0.40813658,-0.36010906,0.06003224,-3.0757673,0.62642074,2.9632516e-05,-0.12879646,0.05803461,-0.00042573927,0.01714002,-0.0034288112,-0.011620517,0.47478914,-1.3624382,1.8797086,-2.0849211,-1.5728382,2.4511025,-0.2010392,0.13781238,-0.17503999,0.047766276,-0.014263013,-0.18929136,-0.3256114,0.21068975,-9.883265,0.90750587,47.672558,-1.4205356,-2.3719845,-3.3617156,-0.10087316,-0.36881512,-0.3142571,28.1875,29.625,28.6875,32.4375,34.875,35.9375
0.29605412,-0.30877516,-0.5346633,-1.7692614,-0.080564335,0.102030285,-0.16704302,-0.40838808,-0.35999444,0.060026,-3.075719,0.6264886,2.2117983e-05,-0.13031021,0.059106916,0.000557206,0.01603976,-0.001085233,-0.0148101635,0.47439232,-1.3621628,1.8793739,-2.0848377,-1.5728625,2.4507544,-0.20398399,0.13619919,-0.17518406,0.04692712,-0.014365529,-0.18904608,-0.24899697,0.21068975,-9.825804,0.900793,47.660015,-1.3085355,-2.1876762,-3.344398,-0.061428048,-0.3704784,-0.36035824,28.1875,29.625,28.6875,32.4375,34.875,35.9375
0.29805422,-0.18904473,-0.7767955,-1.6932322,-0.067630425,0.07585128,-0.15679824,-0.40867543,-0.35987985,0.060031038,-3.0757272,0.62648845,0.00012518714,-0.13056514,0.05974357,-0.00032940897,0.017387338,-0.0023605258,-0.012826316,0.473972,-1.3618861,1.8790277,-2.0848253,-1.5728987,2.450333,-0.20477302,0.13801153,-0.1754101,0.047074366,-0.014979849,-0.1918176,-0.15322891,0.2681506,-9.653421,0.8940802,47.723602,-1.3536302,-2.326428,-3.4204333,-0.051281966,-0.36247063,-0.39965102,28.1875,29.625,28.6875,32.4375,34.875,35.9375
0.30005407,-0.61922145,-0.869783,-1.9356917,-0.04752025,0.039562695,-0.15681551,-0.40892363,-0.35975197,0.06001815,-3.0756521,0.6264872,6.829457e-05,-0.13181119,0.06034495,-0.0010129099,0.018485438,-0.0033692264,-0.0044091046,0.47356352,-1.3615963,1.8786796,-2.0846932,-1.572935,2.4499338,-0.20641583,0.14104468,-0.17766364,0.04766041,-0.015536022,-0.20187363,-0.095768064,0.24899697,-9.653421,0.83589023,47.745995,-1.225241,-2.4471924,-3.3280334,-0.037440576,-0.35757148,-0.32934225,28.1875,29.625,28.6875,32.4375,34.875,35.9375
0.30205384,0.60659665,-0.20989801,-1.8452154,-0.036944583,0.04073198,-0.17617458,-0.40923017,-0.35961375,0.060056943,-3.0756369,0.62659407,0.00019708919,-0.1332448,0.061591092,-0.0015498,0.018836368,-0.0049861516,0.0039132372,0.47309434,-1.3613676,1.8782982,-2.0846093,-1.5729827,2.4495335,-0.20987181,0.14324023,-0.17934121,0.04869716,-0.015123609,-0.21365352,0.038307227,0.21068975,-9.691729,0.842603,47.699425,-1.1874413,-2.470495,-3.3768654,-0.031487063,-0.36009076,-0.19537112,28.1875,29.625,28.6875,32.4375,34.875,35.9375
0.30405375,0.120670095,-0.55331725,-1.7093594,-0.023085898,0.026860517,-0.16011861,-0.4094977,-0.3595255,0.0600606,-3.075668,0.6264635,0.00023378523,-0.1337188,0.063214645,-0.0021163018,0.020062903,-0.007268473,0.006202982,0.47272164,-1.3610668,1.8779153,-2.0845492,-1.5729951,2.4490755,-0.21285608,0.14395711,-0.17938061,0.050590552,-0.015180779,-0.21892779,-0.038307227,0.19153613,-9.557653,0.9298854,47.701214,-1.1597012,-2.5118365,-3.451871,-0.04366573,-0.3690468,-0.0891469,28.1875,29.625,28.6875,32.4375,34.875,35.9375
0.3060537,0.38100618,0.2826547,-1.4824779,-0.032098915,0.0313858,-0.1566613,-0.40976262,-0.359403,0.06005966,-3.0756187,0.62649536,0.00020823286,-0.13468616,0.06370123,-0.0024231581,0.020793619,-0.0092316875,0.0010434762,0.47230086,-1.360778,1.8775433,-2.084428,-1.5730189,2.448681,-0.21453391,0.14651838,-0.18235819,0.05308345,-0.014948177,-0.21544501,0.019153614,0.076614454,-9.3661175,0.97464454,47.70838,-1.0324272,-2.636504,-3.5137024,-0.051594656,-0.3657727,-0.102684945,28.1875,29.625,28.6875,32.4375,34.875,35.9375
0.30805343,0.16299237,0.091004565,-1.2687619,-0.013430325,0.037303638,-0.160998,-0.4100467,-0.35926872,0.060069658,-3.0756092,0.62648064,0.00024101102,-0.13592726,0.06492455,-0.001551418,0.021068154,-0.008981078,-0.010838942,0.47184396,-1.3605149,1.8771857,-2.0843432,-1.5730428,2.4482164,-0.21731843,0.14589545,-0.18414865,0.05540912,-0.0152961295,-0.20634581,-0.15322891,-0.05746084,-9.461885,0.8605109,47.678825,-1.0059747,-2.338325,-3.545177,-0.06736539,-0.39223376,-0.19024605,28.1875,29.625,28.6875,32.4375,34.875,35.9375
0.3100533,-0.35476354,0.48514822,-1.0543332,-0.018897876,0.040137928,-0.1528307,-0.41029042,-0.35913944,0.06006083,-3.075552,0.6265323,0.00017679224,-0.13668065,0.0651643,-0.0013359917,0.020435268,-0.010176079,-0.020722557,0.47142294,-1.3602507,1.8768615,-2.0842235,-1.5730542,2.4478352,-0.21893258,0.14692979,-0.18635851,0.05736852,-0.014195447,-0.19807816,-0.2873042,-0.19153613,-9.251195,0.97240865,47.694946,-0.8754896,-2.3580291,-3.4205651,-0.09196992,-0.38014475,-0.29806682,28.1875,29.625,28.6875,32.4375,34.875,35.9375
0.31205392,-0.1611503,0.6376264,-1.0491785,0.004929336,0.053069513,-0.1668138,-0.41060203,-0.3590221,0.06009283,-3.0755334,0.6266263,0.00026694563,-0.13710758,0.06545118,-0.0013631452,0.021915657,-0.012096487,-0.027735341,0.4709792,-1.3599621,1.8764175,-2.0841143,-1.5730909,2.4474528,-0.21937293,0.14885859,-0.18945073,0.06091891,-0.01462981,-0.19150385,-0.36391866,-0.19153613,-9.193734,0.9164598,47.7245,-0.93410873,-2.4484766,-3.258077,-0.11469644,-0.40208685,-0.41290307,28.1875,29.625,28.6875,32.4375,34.875,35.9375
0.31405368,-0.17580317,1.0802729,-0.69224465,0.009834837,0.07779081,-0.16446325,-0.4108586,-0.35892776,0.060089387,-3.0755296,0.6266238,0.00019270992,-0.13615748,0.064724274,-0.001298946,0.022253215,-0.014193299,-0.0271363,0.47058412,-1.3596501,1.8760232,-2.0839932,-1.5730661,2.4470568,-0.21760105,0.14943032,-0.19100307,0.06392116,-0.013989968,-0.19033208,-0.4405331,-0.17238252,-9.059659,0.8806493,47.703903,-1.1925262,-2.3704212,-3.202479,-0.19368742,-0.41472432,-0.4826528,28.1875,29.625,28.6875,32.4375,34.875,35.9375
0.31605408,-0.70030165,1.1743395,-0.8343396,0.018547636,0.09127139,-0.16860034,-0.41113192,-0.35879505,0.06010703,-3.0754867,0.62670493,0.00020093578,-0.13649201,0.06380694,-5.698184e-05,0.021570599,-0.011427175,-0.017273596,0.47014078,-1.3593987,1.8756512,-2.0838616,-1.5730909,2.4466698,-0.21580411,0.14846112,-0.19264878,0.06373378,-0.014664499,-0.19839522,-0.57460845,-0.095768064,-9.040505,0.9164598,47.686886,-1.3724045,-2.2371893,-3.2090228,-0.18563521,-0.4208122,-0.46897554,28.1875,29.625,28.6875,32.4375,34.875,35.9375
0.31805375,-0.8854527,0.9223859,-0.8854205,0.017092234,0.110679835,-0.17089473,-0.41138208,-0.3586484,0.060058326,-3.0753703,0.6266732,8.162293e-05,-0.13707212,0.06457618,4.7658505e-05,0.022588134,-0.012996528,-0.0061473073,0.46970835,-1.3590506,1.8753165,-2.0837414,-1.5731391,2.4462328,-0.21732627,0.14940664,-0.19473486,0.06668933,-0.014917487,-0.21104036,-0.2681506,-0.038307227,-9.155427,0.8851263,47.7245,-1.5147057,-2.1856167,-3.2523947,-0.20987403,-0.44080693,-0.37147686,28.1875,29.625,28.6875,32.4375,34.875,35.9375
0.3200543,-1.1143429,0.60641444,-1.0567238,-0.0036206516,0.10905766,-0.16031142,-0.41167036,-0.35852835,0.060107857,-3.0753744,0.62660944,0.00018254352,-0.13670321,0.06652539,-0.00036199467,0.026180172,-0.016405595,0.004742859,0.4692883,-1.3588228,1.8748974,-2.083596,-1.5731872,2.4457726,-0.21912996,0.14956295,-0.19510703,0.07152929,-0.0165911,-0.22372968,-0.22984336,-0.019153614,-9.193734,0.8851263,47.684196,-1.5157294,-2.1568875,-3.1982439,-0.29156655,-0.4132079,-0.23260415,28.1875,29.625,28.6875,32.4375,34.875,35.9375
0.32205424,-0.99993783,-0.06990803,-1.0560613,-0.014771479,0.09504903,-0.15764272,-0.41192436,-0.35838032,0.060057413,-3.0752447,0.6265817,9.287882e-06,-0.13774379,0.066601336,-0.001761127,0.026941676,-0.016432332,0.007914224,0.46884373,-1.3584498,1.8745259,-2.0834296,-1.573224,2.4453278,-0.21958564,0.15335625,-0.19595401,0.068929404,-0.017322771,-0.22735058,-0.22984336,0.038307227,-9.212888,0.8940802,47.688675,-1.5177262,-2.229552,-3.070366,-0.3108199,-0.4320904,-0.14640787,28.1875,29.625,28.6875,32.4375,34.875,35.9375
0.32405418,-1.033344,-0.7154464,-1.2709703,-0.032909673,0.08655145,-0.15199916,-0.41221288,-0.35824996,0.060070865,-3.0752277,0.62656385,5.6278735e-05,-0.13955873,0.06742801,-0.00034574463,0.026613547,-0.0130693,8.419837e-05,0.46839902,-1.3581748,1.874143,-2.0833337,-1.5732597,2.4448743,-0.22164254,0.15201856,-0.19754674,0.068714574,-0.018550187,-0.22157314,-0.57460845,0.095768064,-9.212888,0.9365982,47.679718,-1.4228773,-2.1135511,-3.1630774,-0.3306271,-0.3877731,-0.18237996,28.1875,29.625,28.6875,32.4375,34.875,35.9375
0.32605404,-0.83094037,-0.8888326,-1.3794687,-0.038528964,0.08376672,-0.15796761,-0.41247022,-0.35811058,0.060063582,-3.0751264,0.6265462,-5.797783e-05,-0.14116515,0.067630105,0.00066354073,0.025870329,-0.009338703,-0.0077264095,0.46796662,-1.3578632,1.8737363,-2.0831187,-1.5732964,2.4444442,-0.22259182,0.15140143,-0.1987133,0.06683916,-0.019599225,-0.21470557,-0.51714754,0.0,-9.232041,0.9164598,47.686886,-1.4190428,-2.0908318,-3.2962842,-0.3341165,-0.40474308,-0.26535887,28.1875,29.625,28.6875,32.4375,34.875,35.9375
0.3280539,-0.007982802,-0.32875323,-1.4944446,-0.04354356,0.09732741,-0.16468084,-0.4127803,-0.35797492,0.060083106,-3.0750852,0.62655926,1.365895e-05,-0.14466429,0.068172745,0.0019080677,0.023576753,-0.004850167,-0.01628412,0.46750966,-1.3575631,1.8733042,-2.083,-1.573356,2.444001,-0.2263561,0.15220036,-0.20195565,0.06423324,-0.019584224,-0.20991112,-0.34476504,-0.038307227,-9.32781,0.9768804,47.672558,-1.4146187,-2.0536752,-3.2177103,-0.3259195,-0.3891564,-0.34151563,28.1875,29.625,28.6875,32.4375,34.875,35.9375
0.33005366,-0.5430653,-0.0060414546,-1.3025004,-0.036972683,0.08266036,-0.15802374,-0.41309658,-0.35784644,0.060085565,-3.0750763,0.62665653,5.8769837e-07,-0.14747012,0.06924637,0.0016907966,0.022023477,-0.0020426416,-0.021817982,0.46701607,-1.357227,1.8728727,-2.082906,-1.5733441,2.4435694,-0.23046274,0.15389612,-0.20258988,0.05996216,-0.019476905,-0.20848367,-0.45968673,-0.038307227,-9.385271,0.947788,47.701214,-1.3138003,-2.0046663,-3.2816257,-0.3010516,-0.39015138,-0.38519475,28.1875,29.625,28.6875,32.4375,34.875,35.9375
0.33205366,-0.87077457,-0.34836334,-1.4292752,-0.024893284,0.09108715,-0.15540333,-0.4133933,-0.35770375,0.060095746,-3.0750153,0.62671745,5.4322947e-05,-0.14764315,0.07023648,0.0007670443,0.023001092,-0.003082923,-0.016764814,0.46655965,-1.3569387,1.8724784,-2.0827982,-1.5734042,2.443159,-0.23186985,0.15488458,-0.2015671,0.059283186,-0.019900402,-0.21494274,-0.47884035,0.095768064,-9.32781,0.95897776,47.672558,-1.174885,-2.0326958,-3.280652,-0.28168908,-0.40030557,-0.38554105,28.1875,29.625,28.6875,32.4375,34.875,35.9375
0.3340535,-0.99926406,-0.16361399,-1.6121923,-0.011289885,0.10407959,-0.16393423,-0.41365668,-0.35753807,0.060061023,-3.0749018,0.6267267,-7.622303e-05,-0.15002252,0.071285605,-0.00035636875,0.022338524,-0.002616238,-0.008050402,0.46607837,-1.3566136,1.8721312,-2.0826442,-1.57344,2.4426985,-0.23571822,0.15837796,-0.2025275,0.055983696,-0.019590186,-0.22750323,-0.19153613,0.076614454,-9.3661175,0.94331104,47.66539,-0.9799677,-2.2363918,-3.4219122,-0.26723412,-0.38417548,-0.2472611,28.1875,29.625,28.6875,32.4375,34.875,35.9375
0.33605334,-0.89163285,0.5227757,-1.8531368,-0.015452794,0.10256621,-0.16811489,-0.41393235,-0.35740054,0.060065854,-3.0748794,0.6266191,-7.371075e-05,-0.151516,0.070729166,-0.0013134885,0.022271795,-0.0012742068,0.0005865547,0.4656348,-1.356337,1.8717602,-2.0825255,-1.5734767,2.442191,-0.23555662,0.16237357,-0.20445555,0.05264946,-0.020174956,-0.23597462,-0.13407528,0.019153614,-9.576807,0.92093146,47.698532,-1.0659524,-2.2029967,-3.4350967,-0.20552257,-0.392174,-0.13572504,28.1875,29.625,28.6875,32.4375,34.875,35.9375
0.3380542,-0.41326797,0.18155845,-1.6662049,-0.037859775,0.1172985,-0.16407089,-0.4142698,-0.35724866,0.06007545,-3.0748045,0.62666035,4.9367486e-06,-0.15203421,0.070405744,-0.0010898958,0.022483509,0.0004918482,0.0011513488,0.4651437,-1.3559891,1.8712925,-2.0824058,-1.5735606,2.4417355,-0.23467772,0.16292733,-0.20543528,0.05156739,-0.021165721,-0.23565654,-0.4405331,0.019153614,-9.5385,0.92093146,47.723602,-1.1791162,-2.2350044,-3.4174056,-0.1844083,-0.38005626,-0.09956443,28.1875,29.625,28.6875,32.4375,34.875,35.9375
0.3400542,-0.9486274,-0.508418,-1.6221169,-0.052621663,0.10478576,-0.15727778,-0.4145749,-0.35711366,0.060080312,-3.0747728,0.62665856,6.105246e-05,-0.15213677,0.07074885,-0.0019990632,0.02417848,-0.0014470611,-0.0065844543,0.46468726,-1.3556764,1.8708857,-2.0823214,-1.5736092,2.4412823,-0.23480138,0.16542256,-0.20670898,0.052842338,-0.021797199,-0.22804159,-0.7086837,0.095768064,-9.576807,0.8940802,47.70838,-1.2104797,-2.3635926,-3.470316,-0.1830863,-0.37599388,-0.15037456,28.1875,29.625,28.6875,32.4375,34.875,35.9375
0.34205347,-0.8083083,-0.33624333,-2.0231326,-0.050347492,0.096889034,-0.15824714,-0.41486207,-0.35697392,0.060071666,-3.0746982,0.62666833,5.9854633e-06,-0.1541108,0.07112199,-0.001717803,0.024090463,0.0011022994,-0.017725667,0.46423045,-1.35534,1.8704652,-2.082167,-1.573645,2.4408414,-0.23629974,0.1668706,-0.20875855,0.051139217,-0.022868114,-0.21839225,-0.45968673,0.095768064,-9.615114,0.8940802,47.694946,-1.2619752,-2.4065921,-3.3799329,-0.15685906,-0.36085764,-0.26141188,28.1875,29.625,28.6875,32.4375,34.875,35.9375
0.3440541,-1.1020135,-0.8142654,-2.0364566,-0.056735277,0.08077028,-0.14861174,-0.41515812,-0.35682717,0.060043953,-3.0746229,0.62673396,3.67468e-06,-0.15527482,0.07096312,-0.0015292494,0.02378362,0.0031265076,-0.026088433,0.4637625,-1.354992,1.8700951,-2.0821073,-1.5736936,2.4404244,-0.2364786,0.16797943,-0.2102187,0.049548537,-0.023499982,-0.21020444,-0.38307226,0.095768064,-9.710882,0.8672237,47.658226,-1.2772818,-2.4474273,-3.3923476,-0.10443206,-0.30238014,-0.39392126,28.1875,29.625,28.6875,32.4375,34.875,35.9375
0.34605372,-1.0480294,-1.2064793,-1.6815649,-0.068985306,0.082861334,-0.146961,-0.4154897,-0.3566883,0.060059674,-3.0745766,0.62685984,4.959394e-05,-0.1562095,0.0719399,-0.0014373371,0.024497809,0.0025532409,-0.030992422,0.46327022,-1.3546562,1.8696274,-2.0819871,-1.5737294,2.440017,-0.23850708,0.16875194,-0.21176855,0.051149335,-0.023877135,-0.2073273,-0.51714754,0.095768064,-9.595961,0.8985519,47.67166,-1.3579466,-2.4123607,-3.455203,-0.109040044,-0.30169722,-0.49562418,28.1875,29.625,28.6875,32.4375,34.875,35.9375
0.34805354,-0.1127448,-0.685953,-1.6834706,-0.057700038,0.09326808,-0.15868688,-0.41580153,-0.35655618,0.060067788,-3.0745516,0.62682945,0.00010663486,-0.15722631,0.07163192,-0.0013036062,0.024345875,0.0027692055,-0.02282815,0.4628139,-1.3543316,1.8691958,-2.0818913,-1.5737776,2.4395452,-0.23869382,0.17073065,-0.21464096,0.051736247,-0.02386324,-0.21567754,-0.4405331,0.24899697,-9.346964,0.99702406,47.691364,-1.2764295,-2.4454582,-3.4792113,-0.106478766,-0.29648742,-0.4726227,28.1875,29.625,28.6875,32.4375,34.875,35.9375
0.35005417,-0.64668894,-0.47899985,-2.1196935,-0.029348968,0.079836085,-0.15660444,-0.41613638,-0.35640582,0.06008494,-3.074482,0.6269604,0.00019982518,-0.15697145,0.07103183,-0.0018477667,0.023532761,0.0012061845,-0.00833405,0.4623221,-1.3540074,1.8687414,-2.081783,-1.5738491,2.4391444,-0.2381452,0.17232853,-0.21541728,0.051875975,-0.022470605,-0.2296285,-0.17238253,0.22984336,-9.461885,0.9634547,47.701214,-1.4238474,-2.364694,-3.5868163,-0.092358634,-0.29778248,-0.3418252,28.1875,29.625,28.6875,32.4375,34.875,35.9375
0.3520542,0.036483053,-0.038133584,-1.7515674,-0.04236367,0.09055618,-0.16370201,-0.4164195,-0.35625577,0.060050886,-3.074417,0.62692165,0.00014477344,-0.15998054,0.07155678,0.00037825256,0.021026636,0.0049698674,-0.0014747101,0.46185318,-1.3536601,1.8683809,-2.0816996,-1.5738853,2.43866,-0.24172275,0.17139031,-0.21950632,0.052364193,-0.02195686,-0.24006478,-0.05746084,0.19153613,-9.481039,0.86945957,47.679718,-1.328315,-2.2807474,-3.4683414,-0.060143296,-0.30124566,-0.2230342,28.1875,29.625,28.6875,32.4375,34.875,35.9375
0.3540541,0.09999612,-0.203559,-1.8292856,-0.038946416,0.070129,-0.16072354,-0.4167957,-0.35611013,0.06008487,-3.0743968,0.62692136,0.00028289438,-0.16242024,0.07340647,0.0011217323,0.021204501,0.0061176145,-0.004779358,0.46133545,-1.3533005,1.8678426,-2.0815794,-1.5739573,2.438145,-0.2462784,0.17169267,-0.22185063,0.053428043,-0.022620998,-0.24131393,-0.05746084,0.24899697,-9.404425,0.9791215,47.686886,-1.2320857,-2.2970476,-3.430496,-0.0430188,-0.2664243,-0.17958502,28.1875,29.625,28.6875,32.4375,34.875,35.9375
0.35605425,-0.10710564,-0.05462148,-1.6863996,-0.034946896,0.05825136,-0.14795516,-0.41707662,-0.35597405,0.060073636,-3.0743616,0.6269392,0.0002492118,-0.16409044,0.075020894,0.00088168244,0.022846453,0.0062421034,-0.014598247,0.46087828,-1.3529884,1.8674697,-2.081484,-1.5739702,2.4377036,-0.24931122,0.17326975,-0.22338931,0.05402297,-0.024143493,-0.23452064,-0.3256114,0.2873042,-9.519346,0.8672237,47.67166,-1.0571865,-2.3046942,-3.2875075,-0.020685466,-0.2521509,-0.2436779,28.1875,29.625,28.6875,32.4375,34.875,35.9375
0.35805374,-0.2222794,-0.24073437,-1.8282709,-0.03237039,0.052390613,-0.15158756,-0.4174173,-0.35582593,0.060093347,-3.0743148,0.6269505,0.00034080655,-0.16364156,0.074765705,7.2784365e-05,0.024127098,0.0038523166,-0.019074071,0.46038708,-1.3526518,1.8669914,-2.081363,-1.5740422,2.4372258,-0.24827929,0.17562787,-0.22485946,0.05583521,-0.024212748,-0.22901244,-0.36391866,0.1340753,-9.442732,0.8672237,47.691364,-1.1005719,-2.2411704,-3.3404102,0.00076510943,-0.23643789,-0.32397658,28.1875,29.625,28.6875,32.4375,34.875,35.9375
0.36005366,0.52236575,0.4297354,-1.7415323,-0.04898779,0.08510709,-0.16364595,-0.41774035,-0.3556627,0.060068294,-3.0742266,0.62700915,0.00030705822,-0.16438726,0.07480955,0.0019202887,0.02269382,0.005544883,-0.022110585,0.45987076,-1.352269,1.8665613,-2.0812542,-1.5740899,2.4367578,-0.24911478,0.17344001,-0.2269455,0.057938877,-0.023691872,-0.22681184,-0.28730422,-0.038307227,-9.442732,0.9388393,47.684196,-1.158231,-2.1415002,-3.4193988,-0.008140942,-0.22299285,-0.38431185,28.1875,29.625,28.6875,32.4375,34.875,35.9375
0.36205435,-0.71801597,-0.05044879,-1.6922214,-0.04025748,0.064642556,-0.15536626,-0.4180896,-0.3555051,0.060084768,-3.074171,0.62716895,0.0003776878,-0.16466968,0.075490035,0.0012065549,0.023310706,0.0019940536,-0.018174727,0.45934206,-1.3519326,1.866093,-2.0811455,-1.5741371,2.4363363,-0.2509195,0.17580365,-0.22891353,0.06095378,-0.022678506,-0.23255609,-0.3256114,-0.038307227,-9.461885,1.0417832,47.681515,-1.1235957,-2.2040086,-3.4358323,-0.010132351,-0.21985188,-0.37296736,28.1875,29.625,28.6875,32.4375,34.875,35.9375
0.3640542,-0.52398866,0.22546975,-1.5452474,-0.03525972,0.08334815,-0.15673098,-0.41842243,-0.3553636,0.060109723,-3.0741472,0.62711847,0.00045873318,-0.16312519,0.07605093,-0.0005881712,0.025924511,-0.003949541,-0.0061497767,0.4588624,-1.3516077,1.8656138,-2.081013,-1.5741972,2.4358284,-0.250556,0.17842098,-0.22890677,0.06475079,-0.02240628,-0.24421906,-0.30645782,-0.11492168,-9.423578,0.94331104,47.701214,-0.9978204,-2.2383714,-3.389565,-0.043162875,-0.2180386,-0.28545526,28.1875,29.625,28.6875,32.4375,34.875,35.9375
0.36605397,-0.19228832,1.2002859,-1.552695,-0.015103516,0.08364372,-0.156232,-0.4187253,-0.3552084,0.06007919,-3.0740855,0.6271776,0.0002949481,-0.1631852,0.077093236,-0.0013071416,0.027266247,-0.0073249065,0.003056259,0.45833397,-1.3512236,1.8651832,-2.080856,-1.5741733,2.4353452,-0.25232723,0.18010768,-0.23006183,0.06779603,-0.022172919,-0.25519451,-0.19153614,-0.17238252,-9.308656,0.8940802,47.679718,-1.106271,-2.2251315,-3.3714724,-0.074894354,-0.2066837,-0.14345418,28.1875,29.625,28.6875,32.4375,34.875,35.9375
0.36805385,-0.3320269,0.85312647,-1.3467573,0.01589506,0.07001524,-0.15459077,-0.41904792,-0.35504532,0.06008223,-3.0740206,0.6270875,0.00034004913,-0.16284218,0.07749823,-0.0013444371,0.028361563,-0.009342657,0.003131768,0.45784178,-1.3508879,1.8647407,-2.0807235,-1.5742573,2.4348054,-0.25248507,0.18051854,-0.23119755,0.07078286,-0.022275263,-0.25542676,-0.38307226,-0.15322891,-9.289503,0.87617236,47.68062,-1.182886,-2.2319312,-3.391464,-0.10066227,-0.20505527,-0.085353956,28.1875,29.625,28.6875,32.4375,34.875,35.9375
0.37005362,-0.72591865,1.1978344,-1.0380043,0.0003578081,0.07344533,-0.14875212,-0.41936854,-0.3549118,0.0600715,-3.0740016,0.6270693,0.00028932333,-0.16320747,0.07742356,-0.00061059545,0.028024634,-0.0096676545,-0.00546738,0.4573502,-1.350504,1.8642734,-2.0806024,-1.5742573,2.4343052,-0.25275558,0.1805519,-0.23351748,0.07322948,-0.021828085,-0.24709845,-0.47884035,-0.21068975,-9.174581,0.91421866,47.694946,-1.3584641,-2.0872178,-3.4574432,-0.14604983,-0.20351374,-0.12709655,28.1875,29.625,28.6875,32.4375,34.875,35.9375
0.37205344,-0.5550672,0.9044081,-1.3111333,0.01955351,0.061681423,-0.15043008,-0.41972277,-0.35472134,0.06007173,-3.073885,0.6272051,0.0003217876,-0.16301169,0.07724318,3.4721033e-05,0.02802161,-0.010293897,-0.014744223,0.45678607,-1.3501445,1.8638057,-2.0804589,-1.5743407,2.4338412,-0.2522696,0.18020172,-0.2351985,0.07582309,-0.021542776,-0.2373357,-0.3256114,-0.1340753,-9.174581,0.9298854,47.67345,-1.4615886,-2.1095645,-3.4235363,-0.18445675,-0.19010605,-0.25620693,28.1875,29.625,28.6875,32.4375,34.875,35.9375
