Tylouw/Master_Thesis_Code/training_data/batch_1/rect_rod_t0.3/sample_32_session_2.csv
timestamp[s],tcp_force_x[N],tcp_force_y[N],tcp_force_z[N],tcp_force_rx[Nm?],tcp_force_ry[Nm?],tcp_force_rz[Nm?],tcp_pose_x[m],tcp_pose_y[m],tcp_pose_z[m],tcp_pose_rx[rot_vec_x],tcp_pose_ry[rot_vec_y],tcp_pose_rz[rot_vec_z],tcp_velo_x[m/s],tcp_velo_y[m/s],tcp_velo_z[m/s],tcp_velo_rx[rot_vec_x/s],tcp_velo_ry[rot_vec_y/s],tcp_velo_rz[rot_vec_z/s],q1[rad],q2[rad],q3[rad],q4[rad],q5[rad],q6[rad],qd1[rad/s],qd2[rad/s],qd3[rad/s],qd4[rad/s],qd5[rad/s],qd6[rad/s],tool_acc_x,tool_acc_y,tool_acc_z,current_of_whole_robot[A],voltage_of_whole_robot[V],current_J1[A],current_J2[A],current_J3[A],current_J4[A],current_J5[A],current_J6[A],temp_J1[C],temp_J2[C],temp_J3[C],temp_J4[C],temp_J5[C],temp_J6[C]
6.830087e-07,-0.19020925,-0.3640279,0.8622059,-0.013128438,-0.008219116,-0.009326822,-0.38935435,-0.36872336,0.06003088,-3.078744,0.6249749,0.00022492044,0.00036257287,0.00019087447,-0.000494916,0.0007579372,-0.0016435261,3.5479086e-05,0.5050088,-1.3816675,1.9041756,-2.0919034,-1.5708297,2.4800253,-6.6330285e-05,0.00075159763,-9.677486e-07,0.001053933,0.00013430424,-0.000101989295,0.11492168,0.15322891,-8.734048,0.7016076,47.687782,-0.17806011,-3.0837317,-2.242179,-0.19434182,0.09409737,0.025314897,28.3125,29.6875,28.75,32.5625,35.0,36.0625
0.002052846,-0.6123558,-0.748582,0.87198776,0.0002835717,-0.015261224,0.002647775,-0.38933864,-0.36872452,0.060015537,-3.0787134,0.62493,0.00018210984,-0.0002963947,-0.00017484829,-0.001912294,-0.0016812292,0.0027460775,3.4390945e-05,0.5050329,-1.3816434,1.9041775,-2.0918834,-1.5708417,2.4800253,-6.513023e-05,0.0012463796,0.005031935,-0.009495518,0.00013150094,-0.0001005648,0.076614454,0.22984336,-8.619126,0.7083204,47.694946,-0.14760701,-3.1295996,-2.3877954,-0.14553216,0.09710204,0.024275038,28.3125,29.6875,28.75,32.5625,35.0,36.0625
0.004052177,-0.4842221,-0.31678206,0.9127669,-0.011381786,-0.005987535,-0.008386743,-0.38933504,-0.36872518,0.060011122,-3.0787241,0.6249131,0.0002242409,-0.0012780094,-0.0007206615,-0.0018882811,-0.0029396866,0.0050110742,3.4813598e-05,0.5050448,-1.3816551,1.9042124,-2.0919316,-1.5708536,2.4800253,-6.3972926e-05,0.0021479097,0.0046087434,-0.012564978,0.00012881226,-9.917968e-05,0.05746084,0.19153613,-8.542512,0.7284641,47.679718,-0.17029276,-3.3472996,-2.6686656,-0.04955339,0.09236631,0.03659225,28.3125,29.6875,28.75,32.5625,35.0,36.0625
0.006052326,-0.22863032,-0.008899946,0.9384787,0.007696259,-0.016370134,-0.0016899512,-0.38934663,-0.36872897,0.06001724,-3.078763,0.624921,0.00026828464,-0.00046465945,-0.00026799558,-0.001125136,-0.0012665965,0.0020122232,3.458809e-05,0.5050329,-1.3816674,1.9042233,-2.0919774,-1.5708417,2.4800134,-6.285605e-05,0.0011697164,0.002563407,-0.006107451,0.0001262311,-9.783192e-05,-0.019153614,0.15322891,-8.504205,0.79560274,47.679718,-0.14154218,-3.2854362,-2.520853,-0.058004007,0.109208226,0.013483906,28.3125,29.6875,28.75,32.5625,35.0,36.0625
0.00805263,-0.299529,0.7593889,0.29936424,0.054528836,-0.05791741,0.003125364,-0.3893442,-0.36870003,0.059984848,-3.0786748,0.62494165,0.00020324405,-8.952306e-05,-6.182938e-05,2.2829261e-05,-0.0008395601,0.0012405801,3.4166264e-05,0.5050088,-1.38162,1.9042352,-2.0919516,-1.5708774,2.4800134,-6.177742e-05,-0.00067205785,0.0012001633,-0.0020205223,0.00013244941,-9.652047e-05,0.019153614,0.114921674,-8.580819,0.7284641,47.705692,-0.14577739,-3.2157269,-2.4437766,-0.10529201,0.10405494,0.016532939,28.3125,29.6875,28.75,32.5625,35.0,36.0625
0.010052044,-0.17722665,0.6987501,-0.2820767,0.06282586,-0.052306645,0.006805787,-0.3893513,-0.3687227,0.06002206,-3.0787249,0.62493235,0.00026151628,0.00070084963,0.00037482337,-0.00018044178,0.0006821547,-0.0015089117,5.373611e-05,0.5050329,-1.381656,1.9041876,-2.0919268,-1.5708655,2.4800253,-6.0831684e-05,-0.0005573525,0.00073478394,0.001472636,0.0001381192,-0.00011530723,0.076614454,0.19153613,-8.925584,0.6948948,47.63852,-0.7430171,-2.7856307,-2.8200402,-0.15118709,0.080999985,-0.044039097,28.3125,29.6875,28.75,32.5625,35.0,36.0625
0.012052524,-0.78372073,-0.14796844,-0.20774783,0.017279794,-0.035277165,-0.005996999,-0.3893348,-0.36871898,0.05998891,-3.078706,0.6249677,0.00015377605,-0.00074094144,0.0021323916,-0.0007761377,0.0018698213,-0.0036189132,-0.0022696457,0.5050197,-1.3816195,1.9042224,-2.0919387,-1.5708297,2.4800365,-0.0043575857,0.0012200677,-0.00041649584,0.003267521,0.00012126382,-0.0020880993,0.11492168,0.11492168,-9.193734,0.72622824,47.664497,-0.9143582,-2.7085404,-2.9065747,-0.16061687,0.07903442,-0.12726106,28.3125,29.6875,28.75,32.5625,35.0,36.0625
0.014051803,-1.1103475,-1.1253211,-0.403572,-0.03472387,0.0056580543,-0.006928324,-0.38935748,-0.36870843,0.059994407,-3.0786932,0.6250214,0.0001500242,-0.0038253723,0.004845323,-0.0047439947,0.0051442664,-0.009547,-0.00010254298,0.50498074,-1.381604,1.9041861,-2.091915,-1.5708297,2.4800327,-0.011811044,0.010883696,-0.0026564752,0.0026148988,0.00011700775,-0.011706131,0.0,0.17238252,-9.270349,0.7665104,47.695843,-0.43012857,-3.2571335,-2.9716218,-0.12293792,0.084789805,-0.07533188,28.3125,29.6875,28.75,32.5625,35.0,36.0625
0.016051881,-1.7621055,-1.6064616,-0.32773224,-0.07151032,0.0367808,-0.017043198,-0.38932544,-0.3686816,0.059954744,-3.0786006,0.6249618,1.924635e-05,-0.005104714,0.0046850624,-0.0034067414,0.003467315,-0.0065231523,0.0050133388,0.50498044,-1.3815684,1.9042209,-2.0918553,-1.5708536,2.480007,-0.012736953,0.009545331,-0.003923895,0.0017617301,0.00011474569,-0.017747536,-0.22984336,0.19153613,-9.461885,0.7597976,47.70211,-0.5552543,-3.2346978,-2.959445,-0.10532518,0.065999925,-0.035422668,28.3125,29.6875,28.75,32.5625,35.0,36.0625
0.01805176,-2.4067302,-1.4600455,-0.5412478,-0.05935227,0.049632043,-0.033812925,-0.3893122,-0.3686531,0.05991824,-3.0785518,0.62489206,-9.442846e-05,-0.005472766,0.004375013,-0.0019047888,0.0020332597,-0.0039320122,0.008485651,0.5049448,-1.3815334,1.9042572,-2.0918314,-1.5708536,2.479934,-0.012557264,0.007043869,-0.004386807,0.0017640827,0.00011268459,-0.021040376,-0.38307226,0.13407528,-9.5385,0.78217715,47.705692,-0.73320866,-2.9212556,-3.026442,-0.112315364,0.07689501,-0.025250345,28.3125,29.6875,28.75,32.5625,35.0,36.0625
0.020052126,-2.173822,-0.64306104,-0.89399,-0.008788967,0.0580227,-0.0605876,-0.3893291,-0.36866644,0.059929,-3.0785828,0.6248992,-6.468214e-05,-0.005351284,0.0057651815,-0.0021875042,0.0034676392,-0.006536951,0.0076531083,0.504944,-1.3815213,1.9042209,-2.0918424,-1.5708417,2.4799337,-0.014790273,0.00678072,-0.0041020624,0.0047162357,0.00012546773,-0.022441331,-0.4405331,0.15322891,-9.634268,0.7396539,47.694054,-0.82328135,-2.7839737,-3.215457,-0.12891153,0.07790385,-0.02698237,28.3125,29.6875,28.75,32.5625,35.0,36.0625
0.022052392,-1.9369857,0.22164729,-1.113645,0.031813588,0.04699816,-0.090426385,-0.38935462,-0.36867297,0.059942447,-3.0786383,0.6248162,4.640015e-06,-0.006011603,0.006833289,-0.0036766205,0.005090476,-0.009467167,0.004231942,0.5049311,-1.3815203,1.9041971,-2.0918777,-1.5708417,2.479862,-0.017205905,0.009993093,-0.0046686307,0.0054201786,0.00012436946,-0.02143512,-0.49799395,0.095768064,-9.672575,0.8023209,47.67166,-0.80612564,-2.9141226,-3.3097157,-0.13950557,0.06860886,-0.027598081,28.3125,29.6875,28.75,32.5625,35.0,36.0625
0.02405257,-2.1779618,-0.23306946,-1.1241554,0.04171426,0.038847968,-0.09987937,-0.38933656,-0.3686439,0.059896506,-3.0785348,0.62485516,-0.00013860482,-0.008187292,0.006680416,-0.0028145828,0.003694702,-0.006906897,-7.366915e-05,0.50490654,-1.3814598,1.9042195,-2.0918305,-1.5708536,2.4798748,-0.018968226,0.011000562,-0.00759387,0.0044222195,9.639507e-05,-0.018890334,-0.63206923,0.0,-9.730036,0.7038487,47.666286,-0.80759,-2.8662596,-3.2805595,-0.12849332,0.079396784,-0.059914418,28.3125,29.6875,28.75,32.5625,35.0,36.0625
0.026052168,-1.8132937,-0.14151782,-1.2512472,0.018850848,0.061572675,-0.11487804,-0.389371,-0.368639,0.059906922,-3.0785701,0.62484294,-0.0001083634,-0.009404521,0.006096482,-0.0028593796,0.00296499,-0.0056129466,-0.0017906085,0.50485855,-1.3814472,1.9041837,-2.091843,-1.5708417,2.4798148,-0.01912778,0.013062929,-0.009573557,0.0028545018,0.00010186751,-0.01733165,-0.80445176,-0.114921674,-9.80665,0.7911258,47.68062,-0.8262797,-2.874012,-3.331653,-0.10414405,0.06983409,-0.10272808,28.3125,29.6875,28.75,32.5625,35.0,36.0625
0.02805219,-2.2929506,-0.37931567,-1.1714742,0.00058521196,0.07540333,-0.12663288,-0.38936394,-0.3686279,0.059888527,-3.078524,0.6248341,-0.00019502643,-0.010180563,0.0058710175,-0.0024314292,0.002291629,-0.0044177365,-0.0027472384,0.5048465,-1.381411,1.9041718,-2.0917947,-1.5708417,2.479803,-0.019478848,0.01334011,-0.010773267,0.0024052986,0.000108313856,-0.016725525,-0.7469909,-0.095768064,-9.864111,0.7933669,47.71465,-0.9095243,-2.8739119,-3.3388567,-0.06534486,0.06717767,-0.12796274,28.3125,29.6875,28.75,32.5625,35.0,36.0625
0.030052288,-2.6844273,-0.41423792,-1.1691048,-0.0157294,0.079233095,-0.13620278,-0.3893774,-0.36860397,0.059853543,-3.0784729,0.6249395,-0.00027786387,-0.011293227,0.0060652453,-0.0022539294,0.002275585,-0.0043936847,-0.0040913983,0.5047862,-1.3813505,1.9041828,-2.0918071,-1.5708297,2.479815,-0.02084592,0.014606441,-0.012851533,0.003188629,0.000106727544,-0.016747473,-0.7086837,-0.076614454,-9.902418,0.7665104,47.68062,-0.97283214,-2.8329465,-3.3306966,-0.090939485,0.05918812,-0.13683525,28.3125,29.6875,28.75,32.5625,35.0,36.0625
0.0320527,-2.4673305,-0.24905188,-0.8715363,0.0008428171,0.081031196,-0.15602812,-0.38941783,-0.36858815,0.059870068,-3.0785038,0.624869,-0.00027783375,-0.011244432,0.0068520023,-0.0025567668,0.0036672284,-0.0068991114,-0.0043910053,0.50471395,-1.3813382,1.9041222,-2.0917695,-1.5708174,2.4796948,-0.022122053,0.015352726,-0.013722001,0.0061788955,0.000104694525,-0.017723836,-0.80445176,-0.2681506,-9.9790325,0.79560274,47.71017,-0.970556,-2.8616133,-3.224118,-0.13106164,0.06239861,-0.1613309,28.3125,29.6875,28.75,32.5625,35.0,36.0625
0.034052484,-3.0063832,-0.46208966,-1.2177576,0.028836053,0.050469678,-0.15976122,-0.3894227,-0.3686057,0.05984818,-3.078514,0.6249292,-0.00038317783,-0.011933105,0.007289201,-0.0028055327,0.0040422827,-0.007578078,-0.004651693,0.5047014,-1.3812659,1.9040865,-2.0917695,-1.5707573,2.4797184,-0.023500727,0.01655346,-0.01470131,0.0067341435,0.00010270577,-0.01884129,-0.7278373,-0.24899697,-9.940725,0.779936,47.679718,-0.9936818,-2.8486264,-3.3324356,-0.12710464,0.06295564,-0.18261592,28.3125,29.6875,28.75,32.5625,35.0,36.0625
0.036052227,-2.2630007,-0.15337469,-1.1686043,0.032527123,0.051816978,-0.17950504,-0.3894778,-0.36857536,0.05986296,-3.0784864,0.6249998,-0.0002907972,-0.01327136,0.007850038,-0.0022397195,0.0030662601,-0.005815215,-0.004817695,0.5046289,-1.3812538,1.9040388,-2.09177,-1.5708054,2.4796937,-0.025692005,0.015998192,-0.015090515,0.0056624804,0.00010078877,-0.020866375,-0.51714754,-0.05746084,-9.844957,0.6456587,47.687782,-0.9449072,-2.8392613,-3.3452747,-0.10701482,0.04504887,-0.16937542,28.3125,29.6875,28.75,32.5625,35.0,36.0625
0.038052663,-2.2711847,-0.37724626,-1.1014129,0.026757115,0.03911947,-0.18894675,-0.38950646,-0.3685561,0.059861623,-3.078468,0.62495756,-0.0002518216,-0.0148457615,0.007930175,-0.0016053402,0.0019574617,-0.003817575,-0.004458644,0.5045923,-1.3812298,1.9040135,-2.0917704,-1.5708417,2.479633,-0.027296629,0.016318994,-0.016684275,0.004649674,9.8942015e-05,-0.022829238,-0.61291564,-0.11492168,-9.730036,0.6859408,47.666286,-0.90771705,-2.7760866,-3.2853644,-0.09457861,0.066174656,-0.18538776,28.3125,29.6875,28.75,32.5625,35.0,36.0625
0.040051874,-2.78691,-0.58728564,-1.0825344,0.008118574,0.018414348,-0.19390707,-0.38951668,-0.3685376,0.059839625,-3.0784388,0.624952,-0.00033553797,-0.015740521,0.008047407,-0.0010349866,0.0011470728,-0.002356112,-0.0047802334,0.50454414,-1.381182,1.9040016,-2.0917466,-1.5708297,2.4795852,-0.028328411,0.015916947,-0.01737743,0.004073955,9.716171e-05,-0.023539156,-0.51714754,-0.038307227,-9.710882,0.7933669,47.66987,-0.93024325,-2.7358308,-3.2616408,-0.09007849,0.05529861,-0.2114301,28.3125,29.6875,28.75,32.5625,35.0,36.0625
0.0420521,-2.3526142,-0.8613648,-0.96809,0.0054638707,0.024127929,-0.20710969,-0.3895783,-0.36852816,0.059865106,-3.0784853,0.6250575,-0.00030108858,-0.01674925,0.008110267,-0.0009301624,0.0011600528,-0.0023806193,-0.0045828773,0.504448,-1.3811693,1.9039286,-2.091746,-1.5707935,2.479549,-0.029373068,0.017342076,-0.019454652,0.0047545275,9.5444426e-05,-0.024780156,-0.4213795,-0.076614454,-9.595961,0.7642693,47.698532,-0.9300113,-2.7028205,-3.2631183,-0.06417797,0.06537777,-0.22447032,28.3125,29.6875,28.75,32.5625,35.0,36.0625
0.0440525,-1.5898383,-0.56720847,-0.94965947,-0.0057109236,0.03463141,-0.2079664,-0.38961318,-0.36850798,0.05985051,-3.0784416,0.6250467,-0.0002677001,-0.017764315,0.008566199,-0.00039189553,0.0008079447,-0.0017443182,-0.0040228306,0.50441146,-1.3811095,1.9038938,-2.091758,-1.5708417,2.4795113,-0.031086162,0.017200306,-0.020651346,0.00536425,9.378683e-05,-0.027052894,-0.19153613,-0.038307227,-9.595961,0.7329411,47.695843,-0.94346184,-2.6639724,-3.295851,-0.09853819,0.060723677,-0.22876588,28.3125,29.6875,28.75,32.5625,35.0,36.0625
0.046052348,-0.8542775,-0.8196403,-0.9377035,0.0040333923,0.027259324,-0.1901148,-0.38966376,-0.368467,0.05985767,-3.0784254,0.6250816,-0.00025548707,-0.018636417,0.009938776,-0.0006749132,0.0013121902,-0.002653383,-0.0044084,0.5043027,-1.3810972,1.9038576,-2.0917342,-1.5708536,2.4794264,-0.03420705,0.017466696,-0.020452093,0.0059374217,9.2185684e-05,-0.02978831,-0.095768064,0.038307227,-9.595961,0.6725152,47.653748,-0.83677685,-2.713935,-3.2832189,-0.10086723,0.07220644,-0.23013113,28.3125,29.6875,28.75,32.5625,35.0,36.0625
0.04805177,-1.2467977,-1.0027046,-0.9055525,0.0070866477,-0.0005185129,-0.17861965,-0.38968658,-0.36848098,0.05987878,-3.0784848,0.62503654,-0.00022245139,-0.020240527,0.01013628,1.817156e-05,0.00042614073,-0.0010534558,-0.0036321776,0.50429,-1.3810971,1.9038094,-2.0917342,-1.5708297,2.479378,-0.03603536,0.01784597,-0.022424307,0.0057018353,9.063836e-05,-0.032391943,-0.17238252,0.19153613,-9.595961,0.779936,47.68599,-0.8576025,-2.551536,-3.2350726,-0.0827861,0.061952688,-0.23527452,28.3125,29.6875,28.75,32.5625,35.0,36.0625
0.05005241,-0.9880906,-0.8824299,-0.95265514,0.000159594,-0.0065068705,-0.1721808,-0.38973516,-0.3684302,0.059857808,-3.078403,0.6251536,-0.0002411067,-0.022117475,0.010282551,0.0011938944,-0.00088119076,0.0013030053,-0.0036051287,0.50418144,-1.3810372,1.9037837,-2.0917222,-1.5708655,2.479353,-0.038030706,0.017650792,-0.024854459,0.0056308703,8.914205e-05,-0.034413375,-0.076614454,0.21068975,-9.461885,0.7329411,47.64389,-0.76784384,-2.5896602,-3.17909,-0.06732945,0.07105862,-0.22882275,28.3125,29.6875,28.75,32.5625,35.0,36.0625
0.0520525,-0.58523023,-0.79360735,-0.6806922,-0.00683696,0.0012487323,-0.18228827,-0.3897946,-0.36841485,0.059863523,-3.0784347,0.6251599,-0.00023949506,-0.022740778,0.010990337,0.0006178733,-0.00021544346,0.00012618871,-0.0040742955,0.5040852,-1.3809885,1.9037131,-2.0917222,-1.5708417,2.4792566,-0.03979102,0.019079011,-0.025320856,0.006021752,7.498972e-05,-0.03570412,-0.076614454,0.24899697,-9.461885,0.7530795,47.696735,-0.7232212,-2.6510024,-3.1877832,-0.06771735,0.06439655,-0.25258505,28.3125,29.6875,28.75,32.5625,35.0,36.0625
0.054051634,-1.050507,-0.93838686,-0.78891194,-0.012309875,-0.0133172795,-0.17786635,-0.38985252,-0.3683928,0.0598869,-3.0784495,0.62516105,-0.00018368172,-0.023248494,0.010638992,0.00090938003,-0.00053956214,0.00071615324,-0.0025758601,0.50400144,-1.3809764,1.9036402,-2.091698,-1.5708536,2.4791718,-0.039667815,0.019693758,-0.026740633,0.0061530266,7.2035655e-05,-0.03707868,-0.019153614,0.15322891,-9.404425,0.7530795,47.698532,-0.79670477,-2.5902405,-3.1622906,-0.059761975,0.080057696,-0.2650474,28.3125,29.6875,28.75,32.5625,35.0,36.0625
0.056052152,-0.5378321,-0.62765753,-0.6371794,-0.015451795,0.0051164716,-0.18188336,-0.38990578,-0.36837494,0.05988278,-3.0784361,0.6252161,-0.00015922329,-0.02347945,0.011327204,0.0007315075,-0.00014460509,6.332113e-06,-0.0024714642,0.5039291,-1.3809164,1.903581,-2.0917094,-1.5708655,2.4791355,-0.04103654,0.019708306,-0.026474494,0.006683968,7.0787995e-05,-0.03855196,-0.019153614,0.21068975,-9.3661175,0.7732232,47.692257,-0.8228756,-2.6104393,-3.2567008,-0.05739765,0.07367905,-0.27572045,28.3125,29.6875,28.75,32.5625,35.0,36.0625
0.058052234,-0.5656837,-0.4279022,-0.53733313,-0.014243958,0.0026966643,-0.18404703,-0.38991904,-0.36836854,0.059883945,-3.078474,0.62518597,-0.0002473667,-0.024681121,0.0122508565,0.00054167915,0.0001908096,-0.00060429436,-0.0038385617,0.5038684,-1.380904,1.9035558,-2.091674,-1.5708054,2.479051,-0.043710865,0.020880928,-0.027569512,0.0073052277,6.968425e-05,-0.03985862,-0.038307227,0.22984336,-9.385271,0.73741806,47.703007,-0.7672715,-2.5963058,-3.2920208,-0.06629765,0.07196975,-0.29139012,28.3125,29.6875,28.75,32.5625,35.0,36.0625
0.06005259,-0.63323283,-0.71527666,-0.4238851,0.0026801366,-0.001661878,-0.17574795,-0.3899884,-0.36832476,0.059861254,-3.078411,0.625231,-0.00022817173,-0.026018688,0.012343672,0.0009914001,-0.00041962138,0.00049344753,-0.0042631626,0.50376,-1.3808075,1.9034961,-2.091686,-1.5708536,2.4789789,-0.045109645,0.021628078,-0.02944993,0.0071804,6.862119e-05,-0.040831905,0.019153614,0.15322891,-9.308656,0.8179876,47.687782,-0.77071065,-2.5860493,-3.237598,-0.059271358,0.07589364,-0.29063514,28.3125,29.6875,28.75,32.5625,35.0,36.0625
0.062051944,-0.53115004,-0.52821225,-0.40081093,0.0007011497,0.0019429364,-0.17289817,-0.39006454,-0.3683286,0.05991306,-3.0784972,0.6252079,-0.00011050997,-0.026887147,0.0123741925,0.0014074249,-0.00088248454,0.0013380749,-0.0028324097,0.503688,-1.3808075,1.9033755,-2.091674,-1.5708417,2.4788816,-0.045963317,0.021922344,-0.03075477,0.00722801,6.759044e-05,-0.043115746,0.019153614,0.21068975,-9.308657,0.7530795,47.653748,-0.7646736,-2.5042968,-3.1712487,-0.05597263,0.07841055,-0.31510016,28.3125,29.6875,28.75,32.5625,35.0,36.0625
0.06405211,-0.65999657,-0.5393274,-0.35540846,-2.8241107e-05,0.0109656025,-0.18353629,-0.39013726,-0.36829573,0.05992551,-3.0784943,0.6252448,-4.4579392e-05,-0.027641788,0.012853481,0.0015497145,-0.00096094044,0.0014833147,-0.0015902079,0.5035797,-1.3807714,1.9033045,-2.091674,-1.5708655,2.4787967,-0.047466625,0.022147356,-0.03140337,0.0074850605,6.659026e-05,-0.04586098,-0.076614454,0.22984336,-9.289502,0.7239871,47.655537,-0.7291889,-2.556152,-3.2185488,-0.05410768,0.06558601,-0.31139868,28.3125,29.6875,28.75,32.5625,35.0,36.0625
0.06605201,-1.1239144,-0.7079768,-0.49320966,0.0083928155,0.019210057,-0.16961528,-0.39013383,-0.36827585,0.059887297,-3.0784683,0.6251637,-0.00023804045,-0.02827454,0.013288177,0.0012654514,-0.00062085653,0.000829355,-0.002443694,0.5035193,-1.3806989,1.9032921,-2.0916135,-1.5708174,2.478689,-0.048795894,0.023284495,-0.032190975,0.007874528,7.7873396e-05,-0.046336334,-0.095768064,0.17238252,-9.289502,0.74413085,47.696735,-0.77845824,-2.6134055,-3.2117672,-0.05161772,0.08064562,-0.33210987,28.3125,29.6875,28.75,32.5625,35.0,36.0625
0.06805231,-1.0832376,-0.46356514,-0.5288085,0.008409366,0.034746986,-0.17001954,-0.39020854,-0.368246,0.059906196,-3.0784802,0.6252604,-0.0001813929,-0.028722946,0.0134738395,0.0009738753,-0.00025059876,0.00015970189,-0.0017507835,0.5033994,-1.3806744,1.90322,-2.0916135,-1.5708174,2.478628,-0.049519572,0.024538508,-0.0331071,0.008301687,7.755455e-05,-0.04775239,-0.19153613,0.019153614,-9.308657,0.80456203,47.698532,-0.82440996,-2.5599666,-3.205513,-0.052106813,0.08246071,-0.3431826,28.3125,29.6875,28.75,32.5625,35.0,36.0625
0.07005257,-1.4309865,-0.033496317,-0.4390713,-0.0017518629,0.037893385,-0.17699708,-0.39026675,-0.3682002,0.059913073,-3.0784454,0.6252142,-0.00017350393,-0.029944576,0.014527905,0.00097078737,-7.8601144e-05,-0.00015575303,-0.0010922396,0.50329065,-1.3806382,1.903148,-2.0915534,-1.5708536,2.478495,-0.052426744,0.025124732,-0.033927917,0.008893305,7.650808e-05,-0.051317744,-0.24899697,0.038307227,-9.308657,0.77545905,47.68062,-0.7543043,-2.5343964,-3.1554048,-0.06329028,0.08102055,-0.35517445,28.3125,29.6875,28.75,32.5625,35.0,36.0625
0.07205188,-2.412329,-0.26527977,-0.5075942,0.013267988,0.026461042,-0.16930756,-0.39033306,-0.36819765,0.059905365,-3.0785077,0.6252057,-0.00018135595,-0.030458003,0.014953432,0.0007349806,0.0003530585,-0.00094961,0.0026523424,0.50319445,-1.3805538,1.9030765,-2.0916011,-1.5708054,2.4783854,-0.053617254,0.026124878,-0.03473806,0.009608859,8.163805e-05,-0.05625243,-0.21068975,-0.038307227,-9.32781,0.75084364,47.666286,-0.62498975,-2.5426095,-3.1607537,-0.05405065,0.08015263,-0.32601336,28.3125,29.6875,28.75,32.5625,35.0,36.0625
0.074052244,-1.7647154,0.04859898,-0.36664695,0.015384874,0.04807847,-0.18484972,-0.3903855,-0.36815858,0.05990895,-3.078489,0.6251788,-0.00019626152,-0.030454958,0.014162406,0.001218843,-0.0001191161,-0.000110350156,0.006707365,0.5030872,-1.3805178,1.903015,-2.091553,-1.5708174,2.4782639,-0.05228088,0.0261795,-0.0359478,0.00980005,8.638738e-05,-0.05897061,-0.38307226,-0.019153614,-9.289502,0.7978386,47.686886,-0.9071927,-2.4616275,-3.2020135,-0.052293047,0.0704658,-0.29259852,28.3125,29.6875,28.75,32.5625,35.0,36.0625
0.07605257,-1.9050646,0.22194621,-0.2694119,0.011382839,0.04796014,-0.18285768,-0.3904222,-0.36813018,0.059897833,-3.078476,0.6251388,-0.00029295002,-0.03175788,0.0150476685,0.0013572,-0.00012951832,-0.0001010287,0.0059100688,0.50299037,-1.3804575,1.9029554,-2.0914934,-1.5707935,2.4781437,-0.054980174,0.026764682,-0.03707654,0.010331666,8.559688e-05,-0.06087212,-0.45968673,0.019153614,-9.289502,0.7642693,47.70838,-0.88115644,-2.496311,-3.2261698,-0.077278696,0.089026764,-0.30779883,28.3125,29.6875,28.75,32.5625,35.0,36.0625
0.07805172,-2.16015,0.1641709,-0.4462181,0.011164606,0.039897177,-0.17484702,-0.39051053,-0.3680655,0.05989481,-3.0784526,0.6251504,-0.00024326329,-0.032990456,0.016072152,0.0011250906,-7.90721e-06,-0.0003460782,0.00764318,0.5028218,-1.3804091,1.9029077,-2.0915048,-1.5708297,2.4779854,-0.0578495,0.027653385,-0.03757281,0.0102097355,9.496755e-05,-0.06547422,-0.5554548,-0.038307227,-9.346964,0.83365434,47.687782,-0.7684371,-2.4535542,-3.1919746,-0.07202035,0.068058595,-0.28275794,28.3125,29.6875,28.75,32.5625,35.0,36.0625
0.08005199,-1.8376491,0.09159916,-0.58428305,0.008031698,0.04568935,-0.17694356,-0.39058092,-0.36805987,0.059916914,-3.0784917,0.62506056,-0.00014843699,-0.033651236,0.016264172,0.0011562292,-3.8312413e-05,-0.00028898797,0.011126504,0.5027616,-1.380361,1.9028004,-2.0915048,-1.5708536,2.4778643,-0.058780354,0.02836073,-0.038520396,0.010383072,9.516368e-05,-0.069887914,-0.51714754,-0.076614454,-9.385271,0.8112748,47.68062,-0.7087468,-2.4861712,-3.2424955,-0.077746384,0.07964532,-0.21371388,28.3125,29.6875,28.75,32.5625,35.0,36.0625
0.08205226,-1.8243217,0.0992662,-0.397613,0.006572075,0.04401157,-0.18214272,-0.39065564,-0.3680482,0.059928738,-3.0785365,0.62506634,-0.00018238064,-0.03378831,0.015367338,0.0012751974,-0.00026870996,0.00012498492,0.01613005,0.50264233,-1.3802885,1.9026798,-2.0914695,-1.5708054,2.477743,-0.05738876,0.029541535,-0.040194243,0.010405361,9.401576e-05,-0.073499,-0.57460845,-0.11492168,-9.32781,0.7351769,47.677036,-1.0180277,-2.5189893,-3.1518226,-0.08470653,0.072986044,-0.18365392,28.3125,29.6875,28.75,32.5625,35.0,36.0625
0.08405265,-1.9875402,0.19191524,-0.5717325,0.005764214,0.044380285,-0.17504482,-0.39071482,-0.36799318,0.05991232,-3.0785017,0.62494373,-0.0002317033,-0.034618124,0.01654948,0.00097252673,0.00015940129,-0.000741791,0.016656792,0.5025098,-1.3802162,1.9026207,-2.091421,-1.5708297,2.4775383,-0.06016799,0.030016376,-0.040175714,0.0108754635,0.00013191513,-0.07680503,-0.4405331,0.0,-9.308656,0.7329411,47.664497,-0.9279842,-2.535719,-3.1537294,-0.07668636,0.075156316,-0.13190891,28.3125,29.6875,28.75,32.5625,35.0,36.0625
0.0860526,-1.7063606,-0.4988342,-0.65116495,0.020781763,0.043433722,-0.17054914,-0.39078695,-0.36795917,0.05991804,-3.078516,0.62496305,-0.0002293904,-0.035382196,0.016730929,0.00093192316,2.0032741e-05,-0.0005109016,0.018454736,0.5023777,-1.3801678,1.9025477,-2.091409,-1.5708174,2.4774165,-0.061180945,0.030882409,-0.041049715,0.010614583,0.0001404204,-0.07961543,-0.36391866,-0.05746084,-9.32781,0.7284641,47.63852,-0.8799018,-2.5291965,-3.182159,-0.09222586,0.07653959,-0.1160143,28.3125,29.6875,28.75,32.5625,35.0,36.0625
0.088051796,-1.1911175,-0.32253474,-0.4930163,0.0025754876,0.05091032,-0.18077171,-0.3908506,-0.36793008,0.059926275,-3.0785425,0.6248341,-0.00022921941,-0.036045615,0.016948562,0.0007590303,-9.0884925e-05,-0.00030759582,0.018670717,0.5022695,-1.3801194,1.9024638,-2.0913737,-1.5708174,2.4772246,-0.062154572,0.03171683,-0.04150634,0.010005091,0.0001369703,-0.08080465,-0.28730422,-0.11492168,-9.461885,0.7105615,47.65106,-0.96913576,-2.5133336,-3.210699,-0.095268354,0.075771324,-0.06061624,28.3125,29.6875,28.75,32.5625,35.0,36.0625
0.09005199,-1.4048468,-0.17466256,-0.58780843,-0.0075754058,0.041321304,-0.16877319,-0.39094406,-0.36790505,0.059947956,-3.0785973,0.6248448,-0.0001840208,-0.036620095,0.017244637,0.00021053958,0.0003304799,-0.0010604109,0.017031113,0.50212556,-1.3800708,1.902357,-2.0913737,-1.5707935,2.4770803,-0.06317303,0.033388328,-0.042214118,0.009906111,0.00013297622,-0.08018293,-0.24899697,-0.05746084,-9.423578,0.7978386,47.694946,-0.99298,-2.5095441,-3.2584567,-0.09942363,0.06622094,-0.06198669,28.3125,29.6875,28.75,32.5625,35.0,36.0625
0.09205229,-1.2590324,-0.63745177,-0.614645,0.0045434968,0.03489546,-0.16480996,-0.39101404,-0.36786604,0.05992158,-3.0785627,0.6247225,-0.00020435303,-0.03839715,0.017004808,0.0009708392,-0.00060724694,0.0006338051,0.015200452,0.5020174,-1.3799503,1.9022716,-2.0913613,-1.5708297,2.4769003,-0.06441107,0.034584902,-0.045367386,0.009923618,0.00012916271,-0.079588845,-0.21068975,0.05746084,-9.461885,0.7620334,47.705692,-0.96725726,-2.6059117,-3.1215692,-0.09904155,0.08766839,-0.06549224,28.3125,29.6875,28.75,32.5625,35.0,36.0625
0.09405242,-1.0233207,-0.51646864,-0.7490045,-0.00093804783,0.026671084,-0.16585231,-0.39107463,-0.36781663,0.059924033,-3.0785418,0.62470055,-0.00022189527,-0.038887445,0.01740732,0.0011126718,-0.00064853596,0.0007131996,0.013029377,0.5018853,-1.3799142,1.9022125,-2.0913136,-1.5708417,2.4767573,-0.065533996,0.034550812,-0.045717493,0.010217595,0.00012555912,-0.07854059,-0.21068975,0.038307227,-9.500193,0.80679786,47.681515,-1.0553409,-2.6148255,-3.1733372,-0.09708594,0.09068787,-0.061396778,28.3125,29.6875,28.75,32.5625,35.0,36.0625
0.09605209,-0.43830425,-0.5906676,-0.7717012,-0.0011392557,0.030248277,-0.17224844,-0.39115754,-0.3677725,0.059904307,-3.0785317,0.6246219,-0.0002405053,-0.038231336,0.018165583,-0.00015586383,0.000754359,-0.0018313124,0.010753084,0.50174135,-1.3798058,1.902129,-2.0913131,-1.5708536,2.4765656,-0.06618829,0.035591662,-0.044128317,0.010492568,0.0001221504,-0.07691911,-0.11492168,0.17238252,-9.461885,0.76874626,47.62419,-1.1408335,-2.5871954,-3.30448,-0.09914859,0.08560531,-0.094476126,28.3125,29.6875,28.75,32.5625,35.0,36.0625
0.09805165,-0.85448563,-0.97435725,-0.8396766,0.0017976904,0.013624506,-0.16669035,-0.3912472,-0.36772636,0.059918053,-3.078534,0.6247007,-0.00023701623,-0.040166557,0.018171096,0.00058953953,-0.00024919203,-5.890125e-06,0.006991166,0.50157297,-1.3797575,1.9020327,-2.0912783,-1.5708417,2.4764462,-0.067980796,0.036613356,-0.046976816,0.01023753,0.0001189224,-0.07494835,-0.019153614,0.17238252,-9.3661175,0.8247004,47.683304,-1.1067858,-2.5852818,-3.2243764,-0.12245886,0.09247175,-0.12103008,28.3125,29.6875,28.75,32.5625,35.0,36.0625
0.100051716,-0.89760906,-0.75137764,-0.8663436,-0.0077368026,0.0056551946,-0.16441062,-0.3913386,-0.36769566,0.059924718,-3.0785425,0.62474215,-0.00023570018,-0.04128366,0.018420117,0.0007725446,-0.00033673094,0.00015709526,0.0042835698,0.50142896,-1.3796731,1.9019121,-2.0912535,-1.5708297,2.476327,-0.069422394,0.037726697,-0.04884187,0.010805361,0.00011586011,-0.073681474,-0.076614454,0.21068975,-9.385271,0.78217715,47.678825,-1.0799204,-2.5594878,-3.2312155,-0.11961582,0.085563615,-0.1488783,28.3125,29.6875,28.75,32.5625,35.0,36.0625
0.102051854,-0.9300768,-1.0601764,-0.95910674,-0.0068690376,0.0045275576,-0.16717868,-0.39143714,-0.3676741,0.05993046,-3.07856,0.62468827,-0.00019549385,-0.0424756,0.018518006,0.0013231606,-0.0007404802,0.0008976578,0.0021882367,0.50130856,-1.3795646,1.9017681,-2.0912416,-1.5708417,2.4761708,-0.070677504,0.038355157,-0.05099653,0.011487386,0.000112951806,-0.07284035,-0.038307227,0.22984336,-9.346964,0.7553206,47.657326,-1.0606885,-2.5485637,-3.1084404,-0.11007977,0.10187309,-0.18347648,28.3125,29.6875,28.75,32.5625,35.0,36.0625
0.104052,-0.43717203,-0.92451024,-0.86734885,-0.017691055,0.013948845,-0.16828766,-0.39152238,-0.3676282,0.059954107,-3.078608,0.6246028,-0.00013997387,-0.042825516,0.019853996,0.0005547569,7.7675555e-05,-0.0006194836,-0.0011963047,0.50115216,-1.3795525,1.901697,-2.0912292,-1.5708417,2.475955,-0.0732494,0.038847037,-0.049849655,0.011572378,0.0001307481,-0.07202812,-0.076614454,0.22984336,-9.423578,0.70608455,47.701214,-1.0810626,-2.5204659,-3.1758156,-0.12961406,0.10803154,-0.23006347,28.3125,29.6875,28.75,32.5625,35.0,36.0625
0.10605224,-0.3070425,-0.93663865,-0.896222,-0.02055034,0.017632755,-0.167517,-0.39158702,-0.36757386,0.059915654,-3.0785387,0.6246261,-0.00022904325,-0.043345183,0.019970657,0.00047444727,0.00020944771,-0.00087345554,0.00019719175,0.50100815,-1.3794321,1.9016365,-2.091205,-1.5708536,2.4758344,-0.07391789,0.039789338,-0.050868638,0.011933975,0.0001289665,-0.0740896,-0.05746084,0.24899697,-9.481039,0.784413,47.65912,-1.0790372,-2.5405898,-3.2601225,-0.14485072,0.09669505,-0.22624147,28.3125,29.6875,28.75,32.5625,35.0,36.0625
0.10805255,-0.5375673,-0.72382426,-0.7957422,-0.030246872,0.018904438,-0.17239334,-0.39167938,-0.3675693,0.059929267,-3.078579,0.62459594,-0.00022580575,-0.044611167,0.020211615,0.00077093346,-0.00014839925,-0.00021719675,-0.0023442768,0.5008999,-1.3793236,1.9014691,-2.091169,-1.5708297,2.4757023,-0.07548079,0.040691167,-0.052643105,0.012061079,0.0001260438,-0.073110186,-0.05746084,0.24899697,-9.481039,0.80679786,47.652847,-1.1405092,-2.5622547,-3.2031705,-0.14019442,0.1092177,-0.27385223,28.3125,29.6875,28.75,32.5625,35.0,36.0625
0.11005158,-0.55298716,-0.86937135,-0.82307655,-0.020452445,0.02800168,-0.16810009,-0.39173883,-0.36751398,0.059911117,-3.078561,0.6245737,-0.00029687874,-0.045058437,0.020391384,0.0003870814,0.00019892634,-0.0008929221,-0.0034614683,0.5007439,-1.379263,1.9014333,-2.0911453,-1.5708174,2.4755347,-0.076198675,0.042068746,-0.053444266,0.012245104,0.0001410055,-0.072710395,-0.095768064,0.2681506,-9.442732,0.8403672,47.68062,-1.144223,-2.531652,-3.211514,-0.13984576,0.100774094,-0.32097742,28.3125,29.6875,28.75,32.5625,35.0,36.0625
0.1120526,-0.92921215,-0.78871125,-0.92932564,-0.011962059,0.024061583,-0.16785835,-0.39184245,-0.36745244,0.059919544,-3.0785446,0.62464476,-0.00027090905,-0.045839038,0.02073276,0.0010407468,-0.00043324922,0.00022980983,-0.0012362303,0.500552,-1.3792033,1.901338,-2.091121,-1.5708297,2.4753892,-0.07748864,0.04128136,-0.05401801,0.012316498,0.00015520706,-0.07622553,-0.038307227,0.2873042,-9.423578,0.7866488,47.67345,-1.1697679,-2.5159612,-3.278013,-0.15730175,0.10350729,-0.34629968,28.3125,29.6875,28.75,32.5625,35.0,36.0625
0.114051946,-0.9854597,-0.6783188,-0.81921947,-0.012760539,0.027846383,-0.16313738,-0.39194524,-0.36741182,0.05992781,-3.0785239,0.6247009,-0.0002593641,-0.04695137,0.02123535,0.00013851732,0.00013546496,-0.00095309434,-0.006421776,0.5003958,-1.3791063,1.9011935,-2.0910733,-1.5708417,2.4752707,-0.079391316,0.044201784,-0.05536618,0.012054341,0.0002213444,-0.07294175,0.0,0.22984336,-9.481039,0.83813137,47.63404,-1.2573091,-2.5214918,-3.2337885,-0.16212481,0.111024566,-0.3917656,28.3125,29.6875,28.75,32.5625,35.0,36.0625
0.116052404,-0.8113326,-0.5982943,-0.8870399,-0.008227981,0.034211226,-0.16680893,-0.3920365,-0.36740404,0.059932675,-3.0786004,0.6246187,-0.0002394622,-0.04762918,0.02151876,0.00034150013,-3.7967817e-05,-0.0008161135,-0.006088633,0.50027555,-1.3790098,1.9010738,-2.0910976,-1.5708054,2.4750896,-0.08053477,0.044499822,-0.05627834,0.012467304,0.00030971944,-0.07441813,-0.17238252,0.1340753,-9.404425,0.8157518,47.705692,-1.1512165,-2.661837,-3.2424579,-0.16588557,0.10892916,-0.4603203,28.3125,29.6875,28.75,32.5625,35.0,36.0625
0.11805246,-0.7753668,-0.5928785,-0.7720647,-0.00434219,0.037517637,-0.16443883,-0.39211217,-0.36731848,0.0599088,-3.0784988,0.62467265,-0.0003163977,-0.048069086,0.021067524,0.0015430734,-0.00119398,0.0011862763,-0.0015935905,0.500084,-1.3789266,1.9010133,-2.0910256,-1.5708417,2.4749446,-0.08019699,0.043090772,-0.057395764,0.012678918,0.00035331657,-0.078575306,-0.17238252,0.11492168,-9.404425,0.8605109,47.686886,-1.3427517,-2.4228554,-3.2403078,-0.16944884,0.09440672,-0.4740917,28.3125,29.6875,28.75,32.5625,35.0,36.0625
0.120052725,-0.83296114,-0.3402266,-0.8447183,0.0026045206,0.03851345,-0.16887759,-0.39224058,-0.3673225,0.059943754,-3.078632,0.6246415,-0.0002625737,-0.050116107,0.022618722,0.0010535117,-0.0012944429,0.00028763487,-0.0025688517,0.49992675,-1.3788296,1.9008216,-2.0910375,-1.5707692,2.474751,-0.08500494,0.04501505,-0.058559854,0.012662852,0.0008772333,-0.0824081,-0.21068975,0.11492168,-9.404425,0.7172743,47.640312,-1.1635948,-2.5058825,-3.2105558,-0.17184249,0.11298291,-0.48491907,28.3125,29.6875,28.75,32.5625,35.0,36.0625
0.12205181,-1.0251209,-0.20138812,-0.84310246,0.006891386,0.04705587,-0.1745854,-0.3923346,-0.36726716,0.059949685,-3.0785956,0.624589,-0.00020276345,-0.049397867,0.021409811,0.0008669303,-0.001611104,-0.0003162807,0.007941675,0.499784,-1.3787572,1.9007143,-2.0910017,-1.5708293,2.4745803,-0.0826426,0.046051487,-0.059406493,0.012843427,0.0014409705,-0.09055679,-0.21068975,0.05746084,-9.519346,0.7665104,47.612545,-1.3157058,-2.501594,-3.1990318,-0.17002359,0.09178524,-0.4172859,28.3125,29.6875,28.75,32.5625,35.0,36.0625
0.124051824,-2.067809,-0.073758826,-0.7378251,0.006112176,0.03181272,-0.17080742,-0.3924233,-0.36722648,0.059925094,-3.078608,0.62455183,-0.00031193654,-0.0504502,0.022389993,1.4813859e-05,-0.0009123044,-0.0015508557,0.009488601,0.49960348,-1.3786243,1.9006075,-2.090978,-1.5707811,2.474375,-0.085231505,0.048167862,-0.05994456,0.012688006,0.0014116989,-0.09469209,-0.30645782,-0.038307227,-9.442732,0.7553206,47.698532,-1.3184707,-2.5535603,-3.2783267,-0.18571362,0.09690502,-0.42268133,28.3125,29.6875,28.75,32.5625,35.0,36.0625
0.12605232,-1.5423963,-0.04835208,-0.80390126,0.012188059,0.05678286,-0.17292143,-0.39255077,-0.36718053,0.05993909,-3.0786338,0.6244933,-0.0002291033,-0.05190918,0.02283854,0.0010384034,-0.0020966502,0.00010684439,0.016244475,0.49942312,-1.3785285,1.900462,-2.0909774,-1.570805,2.474155,-0.08746419,0.047401424,-0.061418336,0.012902,0.0016567603,-0.103680566,-0.40222588,0.0,-9.3661175,0.84484416,47.685097,-1.3666155,-2.568316,-3.2817278,-0.20835435,0.08250084,-0.35912883,28.3125,29.6875,28.75,32.5625,35.0,36.0625
0.12805255,-1.6149373,-0.20164023,-0.7912085,0.024153402,0.06004024,-0.16771723,-0.39263096,-0.3671062,0.059920862,-3.0785646,0.62455463,-0.00030381535,-0.05283805,0.023085224,0.0018198193,-0.0028945908,0.001881753,0.019940972,0.4992313,-1.3784449,1.900391,-2.0909178,-1.5708169,2.4740102,-0.088622496,0.04650007,-0.062037215,0.01248107,0.0014962702,-0.10853506,-0.4405331,-0.1340753,-9.346964,0.8023209,47.687782,-1.3424644,-2.448709,-3.2585254,-0.19647181,0.099812105,-0.27588466,28.3125,29.6875,28.75,32.5625,35.0,36.0625
0.1300523,-1.467378,-0.006410657,-0.66297495,0.014339736,0.063651696,-0.17027901,-0.39277256,-0.36708227,0.059961706,-3.0787015,0.62444633,-0.00018223187,-0.05466871,0.024534697,0.0012401802,-0.0022203603,0.0011820447,0.021315703,0.49903795,-1.378384,1.9002341,-2.0909536,-1.5707811,2.473732,-0.0925726,0.04860338,-0.06321491,0.012497227,0.0012503132,-0.11385848,-0.45968673,-0.095768064,-9.308657,0.7709874,47.682407,-1.1426411,-2.5037284,-3.2305746,-0.22058982,0.0989787,-0.23841313,28.3125,29.6875,28.75,32.5625,35.0,36.0625
0.13205248,-1.8402436,-0.043664053,-0.5816169,0.01434079,0.060522046,-0.16725968,-0.39286053,-0.36703578,0.059949417,-3.078688,0.62436223,-0.00026789852,-0.054815277,0.023740174,0.0011886605,-0.0024104635,0.0016475368,0.026464412,0.498871,-1.3782634,1.900103,-2.090882,-1.5707692,2.4735143,-0.0913118,0.04985657,-0.06447669,0.0120076835,0.0011829498,-0.1177456,-0.57460845,-0.019153614,-9.385271,0.7978386,47.64479,-1.3669147,-2.4479723,-3.318172,-0.20849076,0.09015542,-0.17388093,28.3125,29.6875,28.75,32.5625,35.0,36.0625
0.13405173,-1.8593482,-0.22026373,-0.7463027,0.02188857,0.066320114,-0.17137289,-0.39297932,-0.36697528,0.05995495,-3.078674,0.6242853,-0.00020596513,-0.057489164,0.026070312,0.0014987723,-0.002263678,0.0017989507,0.020622877,0.4986892,-1.3781672,1.8999709,-2.0908577,-1.5708169,2.4732864,-0.097554274,0.050305255,-0.06593032,0.012945203,0.0009823813,-0.11814563,-0.5554548,-0.05746084,-9.346964,0.8560339,47.672558,-1.1987718,-2.512037,-3.300189,-0.22037432,0.098147064,-0.12476443,28.3125,29.6875,28.75,32.5625,35.0,36.0625
0.13605215,-1.6057609,0.021741282,-0.76513875,0.024872685,0.069263354,-0.1641745,-0.39305842,-0.36693457,0.05993939,-3.0787265,0.62414175,-0.00031053298,-0.05823992,0.024723569,0.0023274468,-0.0033104122,0.0039588683,0.020043474,0.49851027,-1.378071,1.899887,-2.090834,-1.5707568,2.4730113,-0.09588486,0.05120802,-0.06879202,0.012514516,0.00085865124,-0.1158953,-0.45968673,-0.095768064,-9.32781,0.7620334,47.658226,-1.3606565,-2.3851154,-3.0218134,-0.23872297,0.09019054,-0.16320787,28.3125,29.6875,28.75,32.5625,35.0,36.0625
0.13805228,-2.1394658,0.0013203586,-0.8636836,0.009724568,0.05507639,-0.15903512,-0.3932039,-0.36688077,0.059953004,-3.0787272,0.62420416,-0.00025658528,-0.059001885,0.026899913,0.00152235,-0.0023206272,0.0021639818,0.011335831,0.49829322,-1.3779508,1.8997082,-2.09081,-1.5707692,2.4728332,-0.10022042,0.05135356,-0.06721137,0.012837118,0.00085755385,-0.111523844,-0.57460845,-0.05746084,-9.385271,0.7486078,47.683304,-1.2995138,-2.4366255,-3.2606552,-0.23967123,0.11594164,-0.18637592,28.3125,29.6875,28.75,32.5625,35.0,36.0625
0.1400524,-2.1687682,-0.36150455,-0.74115866,0.009392475,0.059135158,-0.1616343,-0.39329883,-0.36681578,0.059940033,-3.0787132,0.6241655,-0.00032753075,-0.06117348,0.02758427,0.00095045,-0.0021774943,0.0018084764,0.0037407335,0.4980886,-1.3778533,1.8996114,-2.0907624,-1.5707568,2.4726062,-0.10337608,0.05479585,-0.069912456,0.012478316,0.00089155056,-0.10708286,-0.6703765,0.0,-9.461885,0.79560274,47.675243,-1.0936475,-2.4850016,-3.263307,-0.23970503,0.102041624,-0.24900731,28.3125,29.6875,28.75,32.5625,35.0,36.0625
0.1420525,-1.6809833,-0.5863638,-0.97837716,0.011156273,0.06749913,-0.15854776,-0.393461,-0.36676696,0.05996642,-3.0787446,0.6241532,-0.00021609086,-0.0636879,0.028000068,0.0028126966,-0.004019446,0.0053417445,-7.294655e-05,0.49787217,-1.3777337,1.8994068,-2.09075,-1.5707811,2.4723783,-0.10631378,0.053702366,-0.07287389,0.012547241,0.00082481315,-0.1062057,-0.51714754,-0.019153614,-9.442732,0.842603,47.681515,-1.0456579,-2.5046272,-3.0092072,-0.24354862,0.09243811,-0.32038203,28.3125,29.6875,28.75,32.5625,35.0,36.0625
0.1440526,-1.4472799,-0.3193426,-0.9827109,-0.004443148,0.072825156,-0.17123406,-0.39357954,-0.36669874,0.059959527,-3.0787306,0.62413096,-0.00022166768,-0.063424654,0.029688176,0.0015922034,-0.0023327684,0.0021570146,-0.0017740051,0.49765554,-1.3776252,1.8992885,-2.0907257,-1.570793,2.4721496,-0.10891547,0.054324556,-0.0711178,0.013771293,0.0008693621,-0.10710716,-0.51714754,0.0,-9.461885,0.7642693,47.707485,-0.926825,-2.44038,-3.2318776,-0.27589503,0.10303412,-0.31791538,28.3125,29.6875,28.75,32.5625,35.0,36.0625
0.14605227,-1.3107096,-0.8034477,-0.9221475,-0.0067529017,0.08065312,-0.16525328,-0.39372432,-0.3666363,0.05997457,-3.078715,0.624185,-0.00014224545,-0.06465865,0.029826537,0.002189862,-0.002870298,0.0031347096,-0.0024545474,0.4974397,-1.3775171,1.8991207,-2.0907018,-1.5708293,2.4719696,-0.11025634,0.0547745,-0.07311172,0.014195823,0.0008762023,-0.10776665,-0.6895301,0.038307227,-9.500193,0.78217715,47.6636,-0.9300525,-2.3536947,-3.1924467,-0.2761736,0.11130309,-0.33291483,28.3125,29.6875,28.75,32.5625,35.0,36.0625
0.14805238,-2.1497319,-0.58419704,-0.88229585,-0.009256227,0.06654649,-0.16558197,-0.39382845,-0.36656842,0.059939533,-3.07869,0.62417954,-0.00030847816,-0.06549265,0.03040943,0.0007612478,-0.0015239987,0.0006747749,-0.003740313,0.49719962,-1.3773596,1.899,-2.0906413,-1.5707811,2.4717293,-0.11196797,0.05866843,-0.07457109,0.014570984,0.0008542455,-0.10819142,-0.7278373,0.11492168,-9.500193,0.7911258,47.664497,-0.92917645,-2.6205997,-3.193941,-0.279234,0.0925753,-0.38260874,28.3125,29.6875,28.75,32.5625,35.0,36.0625
0.15005167,-2.4774308,-0.524957,-0.95362073,-0.0044195843,0.06915235,-0.17551175,-0.39396796,-0.36651903,0.05994927,-3.0787275,0.62414825,-0.00022318754,-0.0666769,0.03066436,0.0024538364,-0.0032359797,0.0038017184,-0.00463961,0.49699563,-1.3772525,1.8988565,-2.090666,-1.570793,2.471501,-0.11346275,0.05609284,-0.0753187,0.0143281305,0.0008727615,-0.108786985,-0.7278373,0.19153613,-9.423578,0.81351066,47.67345,-0.901881,-2.456496,-3.099542,-0.2853197,0.09865631,-0.3638739,28.3125,29.6875,28.75,32.5625,35.0,36.0625
0.15205179,-1.9165213,-0.31951284,-0.8452627,0.00018045049,0.07815307,-0.16731423,-0.39411038,-0.3664516,0.05997308,-3.078737,0.6242248,-0.000206996,-0.06739309,0.030835021,0.0022587187,-0.0034076,0.0038799553,-0.0022938459,0.49674377,-1.3771679,1.8986887,-2.0906065,-1.5707811,2.4712958,-0.11444504,0.05717658,-0.07604946,0.0138254855,0.0009866039,-0.112114705,-0.47884035,0.05746084,-9.461885,0.8179876,47.709274,-0.98040724,-2.3764255,-3.1913977,-0.29477733,0.100380905,-0.4285666,28.3125,29.6875,28.75,32.5625,35.0,36.0625
0.15405287,-1.8701313,-0.6709923,-0.99715,0.0042399876,0.063416,-0.15959191,-0.39424095,-0.36639044,0.059948772,-3.0787165,0.6241203,-0.0002552381,-0.068107426,0.030668557,0.001857823,-0.0033863678,0.0037336496,0.0026625006,0.49652827,-1.3769871,1.8985213,-2.0905702,-1.570793,2.4710178,-0.114816174,0.05919315,-0.07742429,0.013320807,0.0010274351,-0.117441416,-0.3256114,0.038307227,-9.442732,0.7866488,47.684196,-1.0067433,-2.441384,-3.2017531,-0.29264534,0.08868613,-0.38143888,28.3125,29.6875,28.75,32.5625,35.0,36.0625
0.15605332,-1.0768911,-0.5023265,-0.8720762,0.0070531406,0.055732638,-0.16518751,-0.39441222,-0.36631572,0.05996981,-3.0787308,0.62419516,-0.00017289346,-0.06847466,0.0307694,0.002016657,-0.0034669936,0.0038900159,0.009134422,0.4962527,-1.3768789,1.8983425,-2.0905583,-1.570805,2.4707873,-0.11528334,0.059386875,-0.07808643,0.013611595,0.0010297862,-0.12438019,-0.28730422,0.05746084,-9.500193,0.78217715,47.67345,-1.0759357,-2.4026136,-3.1488676,-0.3020593,0.10652418,-0.32794303,28.3125,29.6875,28.75,32.5625,35.0,36.0625
0.15805244,-0.81841636,-0.62980473,-0.9560788,0.015406447,0.034182124,-0.17111032,-0.39454058,-0.36625168,0.059951477,-3.0787385,0.6241738,-0.00022595386,-0.07000033,0.030773886,0.0025620733,-0.004620649,0.0054032407,0.014989292,0.4960123,-1.3767345,1.8982104,-2.0905468,-1.5707811,2.4705327,-0.116834946,0.060094267,-0.080028385,0.012967914,0.0013148879,-0.13178626,-0.11492168,-0.076614454,-9.519346,0.7150385,47.66091,-0.92245805,-2.438764,-3.1723938,-0.30100903,0.09746146,-0.26228532,28.3125,29.6875,28.75,32.5625,35.0,36.0625
0.16005301,-0.8726241,-0.8246912,-0.99380505,0.01866029,0.017232772,-0.15983142,-0.39466467,-0.36621433,0.059962064,-3.078806,0.6240478,-0.00020917536,-0.07070714,0.03174392,0.0021882828,-0.00413067,0.0046045976,0.0208754,0.4958205,-1.3766261,1.898055,-2.0905344,-1.5707568,2.4702537,-0.119055495,0.06082139,-0.080113344,0.013264611,0.0012685037,-0.13989268,-0.076614454,0.0,-9.385271,0.79560274,47.64121,-1.1346092,-2.3466249,-3.1416535,-0.30451337,0.10590191,-0.13142698,28.3125,29.6875,28.75,32.5625,35.0,36.0625
0.1620525,-0.5999419,-0.128276,-1.0061384,0.013423482,0.013911391,-0.1669887,-0.39482495,-0.3661501,0.059992637,-3.0788484,0.6239397,-0.000112952286,-0.071309194,0.03206682,0.002126116,-0.0040219165,0.0047143013,0.022754217,0.49558058,-1.3765299,1.8978633,-2.0904987,-1.5707811,2.4699411,-0.12002439,0.06143422,-0.08068262,0.013173558,0.0011285743,-0.14273977,-0.15322891,0.11492168,-9.385271,0.78217715,47.647476,-0.9897439,-2.3756356,-3.2264547,-0.31036675,0.09237524,-0.10342638,28.3125,29.6875,28.75,32.5625,35.0,36.0625
0.16405447,-0.9188146,0.06969935,-0.9392564,0.0049390895,0.0008697391,-0.16876802,-0.39497548,-0.3660548,0.059983652,-3.0788028,0.62395054,-0.000105830266,-0.07383422,0.031673275,0.0035888276,-0.005572022,0.007703089,0.01920875,0.4953045,-1.3763974,1.8977183,-2.0904624,-1.5708169,2.4696777,-0.12159444,0.062456235,-0.085274205,0.0133724995,0.0010609167,-0.14076231,0.095768064,-0.05746084,-9.385271,0.84484416,47.657326,-1.0316505,-2.4183726,-3.049345,-0.30016828,0.11046513,-0.09855589,28.3125,29.6875,28.75,32.5625,35.0,36.0625
0.16609818,-0.043019332,-0.38521925,-0.9738681,0.008464392,0.019857332,-0.1535781,-0.39514497,-0.36601162,0.060017306,-3.0788958,0.6238361,2.183904e-05,-0.07315545,0.03262969,0.0024490089,-0.0042111943,0.005457373,0.014021542,0.49507666,-1.3762891,1.8975161,-2.0904748,-1.5708169,2.4693668,-0.122472405,0.062887534,-0.083232924,0.013523756,0.00095264893,-0.13645357,0.038307227,0.076614454,-9.442732,0.84708,47.655537,-1.0410112,-2.330742,-3.1472657,-0.31450737,0.1152834,-0.12238649,28.3125,29.6875,28.75,32.5625,35.0,36.0625
0.16805696,-0.004607655,-0.12646444,-0.94771945,-0.0064910427,0.017558789,-0.1712537,-0.3952509,-0.36594644,0.059990615,-3.0788465,0.62390673,-0.00013080964,-0.07498114,0.033645924,0.002762079,-0.0043317205,0.0058404324,0.0057960767,0.49484777,-1.3761326,1.8973721,-2.090391,-1.5707811,2.4691882,-0.12576868,0.06376829,-0.08514542,0.014166997,0.00086334813,-0.1315235,0.019153614,0.076614454,-9.423578,0.8291774,47.674347,-0.89578474,-2.3642669,-3.1616526,-0.31304348,0.11067544,-0.1959964,28.3125,29.6875,28.75,32.5625,35.0,36.0625
0.17005771,-0.37447748,-0.9858063,-1.0796194,0.0051278058,0.0064806677,-0.15312137,-0.39539647,-0.36586538,0.05996239,-3.0788107,0.62388015,-0.00017867,-0.07425074,0.03269671,0.0023621973,-0.003957807,0.0050668274,0.00359098,0.4945855,-1.3759521,1.8972167,-2.0903666,-1.570793,2.468914,-0.12348672,0.06503579,-0.08580879,0.014420257,0.00089697615,-0.12703614,0.05746084,0.11492168,-9.423578,0.800085,47.655537,-1.1785264,-2.3669236,-3.1756105,-0.30349952,0.10890065,-0.27189773,28.3125,29.6875,28.75,32.5625,35.0,36.0625
0.17205735,-0.5338863,-0.90309274,-1.0384718,-0.012279257,0.0016383749,-0.16248813,-0.3955728,-0.36579254,0.05999967,-3.078869,0.62389296,-3.7845202e-05,-0.07505525,0.03358645,0.0024090551,-0.0041402928,0.0047767176,-0.001102342,0.49430922,-1.37588,1.8970488,-2.090378,-1.570805,2.4686384,-0.1258685,0.06504143,-0.086006485,0.014779024,0.0012112823,-0.12472496,0.0,0.21068975,-9.385271,0.8493211,47.682407,-1.0445907,-2.292479,-3.2000585,-0.32455313,0.10538727,-0.3101459,28.3125,29.6875,28.75,32.5625,35.0,36.0625
0.1740575,-0.55108315,-1.1614257,-1.1021111,-0.014785496,0.00757867,-0.15659562,-0.39569813,-0.36572415,0.060000096,-3.0788765,0.6239144,-0.00010413938,-0.07552918,0.034008637,0.0016281119,-0.0037472746,0.0032928565,-0.0037089293,0.4940574,-1.3757712,1.8969053,-2.0903184,-1.5707692,2.468399,-0.12719902,0.06698209,-0.08656644,0.014894707,0.0015665765,-0.123449,-0.038307227,0.24899697,-9.3661175,0.8179876,47.684196,-1.1843325,-2.3870504,-3.1411815,-0.33313042,0.11155926,-0.39604682,28.3125,29.6875,28.75,32.5625,35.0,36.0625
0.17605603,-0.17368093,-1.3158296,-1.0217485,-0.017178103,0.019664986,-0.15821096,-0.3958629,-0.36566392,0.060003098,-3.078891,0.62387997,-9.226873e-05,-0.07629396,0.034463655,0.0017868135,-0.0042167422,0.0029324817,-0.0071073333,0.49380526,-1.375603,1.8966907,-2.0902827,-1.5707687,2.4681237,-0.1289826,0.06734356,-0.08752258,0.015582669,0.0021529817,-0.12183475,0.019153614,0.21068975,-9.346964,0.89631605,47.67166,-1.187311,-2.2535167,-3.2462206,-0.3422119,0.10095599,-0.44975725,28.3125,29.6875,28.75,32.5625,35.0,36.0625
0.17805305,-0.816227,-1.5293483,-1.0395775,-0.012401427,0.009322019,-0.15776494,-0.39602038,-0.3655854,0.059998803,-3.0788722,0.6239705,-9.403362e-05,-0.07728548,0.03485434,0.0014455104,-0.004191167,0.0023833164,-0.0072597386,0.49352932,-1.3754582,1.8965234,-2.0902588,-1.5707687,2.4679067,-0.13064891,0.06908776,-0.088842,0.015653353,0.0023888282,-0.12334826,0.05746084,0.22984336,-9.385271,0.79560274,47.64837,-1.1395355,-2.3421206,-3.275823,-0.36606014,0.106103264,-0.49103063,28.3125,29.6875,28.75,32.5625,35.0,36.0625
0.18005373,-0.2373879,-1.1536609,-0.93111706,-0.011301852,0.026601622,-0.16234797,-0.39617905,-0.3655386,0.060018435,-3.0789201,0.623881,-1.0686795e-05,-0.07784294,0.03515825,0.0015309692,-0.004502204,0.0022005977,-0.0034846647,0.49331334,-1.375326,1.8963188,-2.090246,-1.5707806,2.467629,-0.13185345,0.06941918,-0.089518376,0.016009372,0.002756533,-0.12832803,0.019153614,0.2681506,-9.385271,0.75755644,47.66091,-1.1987438,-2.2769766,-3.2897964,-0.35489452,0.08912578,-0.5075137,28.3125,29.6875,28.75,32.5625,35.0,36.0625
0.18205284,-0.70197767,-0.84240365,-0.88892466,-0.019398455,0.029044932,-0.16295555,-0.39632466,-0.36545172,0.060004454,-3.078862,0.6239214,-4.5679397e-05,-0.07932121,0.035583742,0.001770487,-0.0050656567,0.0030158833,0.0038104828,0.49304914,-1.3751696,1.8961514,-2.0901864,-1.5708045,2.4673975,-0.13393888,0.07035917,-0.091114044,0.015676651,0.0028564676,-0.13770811,-0.11492168,0.24899697,-9.423578,0.8179876,47.677036,-1.1343743,-2.3040476,-3.328378,-0.35427284,0.08338274,-0.42587072,28.3125,29.6875,28.75,32.5625,35.0,36.0625
0.18405241,-1.5081483,-1.220059,-0.8415995,-0.009047716,0.025708634,-0.15777408,-0.39648283,-0.36536795,0.060001258,-3.078881,0.6239171,-7.111884e-05,-0.07987129,0.036295384,0.0015498111,-0.0050214967,0.002662654,0.01457072,0.49274927,-1.3750372,1.895996,-2.0901625,-1.5707806,2.4670925,-0.1356717,0.07068183,-0.0909754,0.015550301,0.0029845599,-0.1502014,-0.076614454,0.17238252,-9.461885,0.8560339,47.672558,-1.1594894,-2.3119712,-3.3122263,-0.35738742,0.09670986,-0.34899506,28.3125,29.6875,28.75,32.5625,35.0,36.0625
0.18605196,-0.54292864,-0.6032619,-0.8255773,-0.013103073,0.05834092,-0.16803567,-0.396626,-0.36531597,0.059986226,-3.0789335,0.6237896,-0.00011049956,-0.080451705,0.037113152,-0.0004084341,-0.003615291,-0.00043877552,0.020304635,0.49250928,-1.3748678,1.8958291,-2.0901625,-1.5707449,2.4667664,-0.13767672,0.07477733,-0.09131869,0.015200907,0.0032101977,-0.1579399,-0.15322891,0.21068975,-9.404425,0.8291774,47.682407,-1.1117072,-2.2211947,-3.3871632,-0.33985752,0.08661324,-0.25878635,28.3125,29.6875,28.75,32.5625,35.0,36.0625
0.18805209,-0.7955056,-0.327918,-0.7439237,-0.006699919,0.061234508,-0.1724917,-0.39679414,-0.36525676,0.06000756,-3.0789888,0.62377775,-0.00010387164,-0.081687436,0.03608425,0.0013165474,-0.005965244,0.0025072892,0.026019583,0.4922339,-1.374736,1.8956131,-2.0901148,-1.5707082,2.4664767,-0.13743693,0.07401551,-0.09436947,0.015310919,0.003888089,-0.16341494,-0.2681506,0.076614454,-9.442732,0.842603,47.74241,-1.1163071,-2.4139087,-3.1944103,-0.36165893,0.0681168,-0.16431284,28.3125,29.6875,28.75,32.5625,35.0,36.0625
0.19005193,-1.4235197,-0.589997,-0.6345111,0.007323994,0.061207037,-0.16006318,-0.39697176,-0.36516535,0.060012747,-3.078997,0.62368315,-6.6683075e-05,-0.082170665,0.03729036,0.00074895343,-0.0057575325,0.0013242731,0.024682181,0.49193335,-1.3745917,1.8954219,-2.090079,-1.570732,2.4661162,-0.14009236,0.07433893,-0.09344864,0.015203472,0.004268798,-0.16473384,-0.40222588,0.15322891,-9.404425,0.7866488,47.670765,-0.99247205,-2.1817226,-3.4148788,-0.34942198,0.07379444,-0.1479204,28.3125,29.6875,28.75,32.5625,35.0,36.0625
0.19205219,-1.6364107,-0.23485787,-0.6213843,0.02151011,0.063290656,-0.160412,-0.39713833,-0.3650928,0.060008667,-3.0790324,0.62363636,-7.760079e-05,-0.08498415,0.037862122,0.00036943727,-0.0060080676,0.0013528981,0.014749004,0.49164513,-1.374434,1.8952411,-2.0900671,-1.5707082,2.4657943,-0.1436853,0.07848667,-0.09746205,0.014930139,0.0044700764,-0.15839162,-0.5554548,-0.05746084,-9.3661175,0.8224646,47.677036,-1.1391567,-2.3450472,-3.3094568,-0.3406318,0.048534304,-0.20036098,28.3125,29.6875,28.75,32.5625,35.0,36.0625
0.19405195,-1.7543502,-0.015694387,-0.574125,0.027554387,0.072550945,-0.15754405,-0.39730358,-0.36504185,0.060034372,3.0790792,-0.6235502,4.603608e-05,-0.08370269,0.037530344,0.0007348818,-0.0059930845,0.0018665446,0.011614528,0.49139452,-1.3743029,1.8950161,-2.0900195,-1.5706843,2.4654841,-0.14176095,0.076278366,-0.09567328,0.014909644,0.004226748,-0.1533333,-0.5554548,-0.11492168,-9.308656,0.800085,47.672558,-1.1222172,-2.3498518,-3.3890514,-0.33351374,0.036128476,-0.24709246,28.3125,29.6875,28.75,32.5625,35.0,36.0625
0.19605252,-2.0477612,0.36221346,-0.33862922,0.01977055,0.08115136,-0.15778896,-0.3974665,-0.36494794,0.060027026,-3.0790584,0.6234892,-2.793759e-05,-0.08576274,0.037941728,0.0006895833,-0.005632617,0.0026083179,0.0070648184,0.4911182,-1.3741459,1.8948354,-2.0899713,-1.570732,2.4651725,-0.14385578,0.078983665,-0.09877546,0.01481891,0.0035496778,-0.15087588,-0.49799395,-0.19153613,-9.32781,0.88289046,47.67166,-1.2150607,-2.2237601,-3.3475938,-0.35303354,0.043982606,-0.30518752,28.3125,29.6875,28.75,32.5625,35.0,36.0625
0.19805174,-1.9108499,0.19538048,-0.41568884,0.03290634,0.08336114,-0.15787111,-0.39761847,-0.36488524,0.060002845,-3.0790856,0.62351334,-0.00014505479,-0.086776316,0.038300775,0.00036297215,-0.00527786,0.0024925906,0.0049928855,0.49083048,-1.3739529,1.8946556,-2.0899475,-1.5706605,2.4648964,-0.14516479,0.080763176,-0.10012977,0.014675839,0.0032839037,-0.15011188,-0.47884035,-0.15322891,-9.251195,0.81351066,47.653748,-1.2944257,-2.3698976,-3.270966,-0.3341002,0.032399904,-0.3303877,28.3125,29.6875,28.75,32.5625,35.0,36.0625
0.20005175,-1.0915972,0.016490543,-0.55777663,0.038114965,0.09159689,-0.16676366,-0.3978203,-0.36479506,0.060021214,3.0791,-0.6234966,3.6742225e-05,-0.08781465,0.03855626,0.00078337424,-0.005269831,0.0033024703,0.0039692777,0.4905183,-1.3738085,1.8944396,-2.0899355,-1.5706967,2.4645722,-0.14623806,0.0812864,-0.10182042,0.015129769,0.0029031108,-0.1501601,-0.7661445,-0.095768064,-9.212888,0.8224646,47.690468,-1.1652623,-2.269174,-3.2363572,-0.31476068,0.040370427,-0.3755929,28.3125,29.6875,28.75,32.5625,35.0,36.0625
0.2020517,-1.5281234,0.17767581,-0.37790376,0.016889552,0.07585609,-0.16851935,-0.3979975,-0.36470821,0.05999591,3.079061,-0.62362254,0.00013126906,-0.089083664,0.040511638,0.0004268703,-0.004301107,0.0024478342,0.0029735602,0.49018183,-1.3736043,1.8942488,-2.0899112,-1.5706486,2.4643192,-0.15033935,0.08171291,-0.101681076,0.015784178,0.0024485667,-0.15326518,-0.9002198,-0.076614454,-9.212888,0.8291774,47.667187,-1.0190897,-2.3329911,-3.3259919,-0.3094621,0.04418104,-0.37727165,28.3125,29.6875,28.75,32.5625,35.0,36.0625
0.20405182,-1.2531635,0.18595886,-0.619244,0.0072991955,0.09073051,-0.17462692,-0.39817643,-0.36462754,0.060001746,3.0790894,-0.62354445,6.510948e-05,-0.0909739,0.03947781,0.0012601208,-0.0050368514,0.004621726,0.010568978,0.48990685,-1.3734471,1.8940433,-2.0898874,-1.5706853,2.463992,-0.15001768,0.08415618,-0.10652083,0.015913012,0.0020692805,-0.16053605,-0.6703765,-0.11492168,-9.212888,0.85155696,47.672558,-1.2197115,-2.5453305,-3.1762426,-0.3180441,0.040962264,-0.34520173,28.3125,29.6875,28.75,32.5625,35.0,36.0625
0.2060521,-2.0604453,-0.1777721,-0.6347927,0.0118021155,0.080970936,-0.17007497,-0.39833963,-0.36454326,0.059998315,-3.0790958,0.62350106,-0.00016301985,-0.08989487,0.040961757,9.201521e-05,-0.0032418452,0.002271114,0.019344104,0.48959497,-1.3732792,1.8938297,-2.089791,-1.570649,2.4636524,-0.15119159,0.083433315,-0.10306248,0.01610509,0.0015916062,-0.17048597,-0.61291564,-0.095768064,-9.3661175,0.8403672,47.672558,-1.23521,-2.2254536,-3.347406,-0.32021016,0.043979816,-0.25307453,28.3125,29.6875,28.75,32.5625,35.0,36.0625
0.20805204,-1.71553,-0.20013894,-0.7074394,0.012633037,0.092807785,-0.1626798,-0.39853504,-0.3644496,0.060004983,-3.079107,0.62342083,-8.37997e-05,-0.09232698,0.040502146,0.00025867738,-0.0034677626,0.00341884,0.027321542,0.48928317,-1.3731219,1.8936247,-2.0897791,-1.5706853,2.4632893,-0.15234035,0.08738709,-0.10815949,0.016125036,0.0012472871,-0.179609,-0.49799395,-0.038307227,-9.404425,0.8157518,47.677036,-1.1863973,-2.370917,-3.2350163,-0.3228072,0.04584668,-0.116941705,28.3125,29.6875,28.75,32.5625,35.0,36.0625
0.21005245,-1.136676,0.15082419,-0.49228072,-0.0026663675,0.09539227,-0.1643945,-0.39872786,-0.3643494,0.05999163,-3.0791066,0.62334013,-8.7020824e-05,-0.09251922,0.041045938,0.000957811,-0.0039076665,0.0044225086,0.030320551,0.4889478,-1.3729303,1.893422,-2.0897558,-1.5706972,2.4629037,-0.1533148,0.085481755,-0.107542455,0.016319435,0.001165163,-0.18358295,-0.49799395,0.019153614,-9.308657,0.83365434,47.65106,-1.22391,-2.4161167,-3.3402624,-0.3062857,0.049522832,-0.05148504,28.3125,29.6875,28.75,32.5625,35.0,36.0625
0.21205169,-1.6033942,-0.8174409,-0.67291915,0.019671543,0.05863314,-0.14033546,-0.39892262,-0.36427572,0.05998427,-3.0791426,0.623235,-6.065038e-05,-0.09350351,0.041159537,0.00034746874,-0.0035416645,0.003833956,0.02501674,0.48864806,-1.372725,1.8931946,-2.0897558,-1.5706972,2.462534,-0.15430239,0.088148646,-0.10929295,0.016095115,0.0011198671,-0.17926554,-0.51714754,0.0,-9.385271,0.83589023,47.65643,-1.2931753,-2.4450607,-3.232432,-0.29528376,0.058109,-0.07699467,28.3125,29.6875,28.75,32.5625,35.0,36.0625
0.21405216,-0.6238553,-0.20895913,-0.7533661,-0.0026077982,0.05785457,-0.15852962,-0.39909807,-0.36420915,0.060003333,3.079137,-0.6231801,0.000110950794,-0.09488834,0.04143627,0.00013174093,-0.0034235509,0.0038028762,0.016279114,0.48834804,-1.3725681,1.8929428,-2.0896595,-1.570649,2.4622004,-0.15589823,0.09040212,-0.1115077,0.016148217,0.00102692,-0.17212243,-0.38307226,0.17238252,-9.519346,0.8224646,47.679718,-1.2743748,-2.4865813,-3.1677196,-0.3045963,0.064980514,-0.13749845,28.3125,29.6875,28.75,32.5625,35.0,36.0625
0.21605228,-0.16490966,-0.90540177,-0.70595074,0.0026180674,0.04974863,-0.15728432,-0.39931893,-0.3640945,0.060001466,-3.0791376,0.6232394,-1.1312811e-05,-0.096270956,0.041746274,0.0005544018,-0.0038420525,0.004928337,0.008191276,0.48800066,-1.3723757,1.8927153,-2.0896475,-1.570721,2.4618902,-0.1574968,0.091105826,-0.11329509,0.016030326,0.00087052805,-0.16563213,-0.22984336,0.11492168,-9.461885,0.800085,47.64479,-1.3622911,-2.4731433,-3.1505358,-0.28004658,0.053799257,-0.22299686,28.3125,29.6875,28.75,32.5625,35.0,36.0625
0.21805334,-0.87830186,-1.2149563,-0.99754405,-0.0028515658,0.024201214,-0.14712802,-0.39949936,-0.36401364,0.060008068,3.079116,-0.6232564,7.2922325e-05,-0.09717737,0.041799456,0.00011355099,-0.0035244715,0.0046294006,0.0029739563,0.487665,-1.3722188,1.8925003,-2.0895884,-1.570661,2.4615679,-0.15824935,0.093393534,-0.11499003,0.015861103,0.0007278778,-0.16116615,-0.24899697,0.15322891,-9.442732,0.9030289,47.679718,-1.2707245,-2.5541437,-3.087965,-0.26549006,0.05085331,-0.33542815,28.3125,29.6875,28.75,32.5625,35.0,36.0625
0.22005175,-0.91943055,-1.4291247,-1.0430148,-0.011556474,0.031710297,-0.14681366,-0.39969155,-0.36392412,0.059977278,-3.0791423,0.6232279,-6.661698e-05,-0.09894008,0.043296102,0.00040153842,-0.0035388768,0.004867493,-0.006610676,0.48736405,-1.3719786,1.8922843,-2.089588,-1.5706977,2.461246,-0.16222596,0.09365297,-0.116122365,0.016511597,0.0006261377,-0.15555762,-0.095768064,0.24899697,-9.385271,0.8314132,47.655537,-1.0102923,-2.5371563,-3.0440965,-0.26508516,0.07975738,-0.41166508,28.3125,29.6875,28.75,32.5625,35.0,36.0625
0.2220518,-0.49948695,-1.3319405,-0.87752193,-0.019758252,0.03593528,-0.15469947,-0.39989415,-0.36381847,0.059973646,-3.079134,0.6232641,-6.939559e-05,-0.100267194,0.044150114,0.00080767606,-0.0039414605,0.0055744117,-0.010125581,0.48700416,-1.3717983,1.8920697,-2.0895517,-1.5706977,2.4609098,-0.1647996,0.0936649,-0.11711289,0.016677314,0.0006511851,-0.15461606,-0.05746084,0.34476504,-9.481039,0.8112748,47.6421,-1.139637,-2.5476475,-3.101011,-0.260366,0.06574641,-0.4949221,28.3125,29.6875,28.75,32.5625,35.0,36.0625
0.22405197,-0.40638736,-1.5980364,-0.9639549,-0.02672659,0.031941433,-0.15977922,-0.40007532,-0.36373672,0.059961803,-3.0791156,0.6232757,-0.000100418256,-0.101063654,0.044950597,0.0005092758,-0.0034631398,0.0046498445,-0.0051504136,0.48670384,-1.3715938,1.8918422,-2.0895035,-1.5706977,2.4606192,-0.16680281,0.09481095,-0.11799275,0.017452477,0.00065838627,-0.16159405,-0.1340753,0.30645782,-9.442732,0.8784135,47.682407,-1.0405762,-2.5134718,-3.1173382,-0.26373097,0.082260236,-0.504918,28.3125,29.6875,28.75,32.5625,35.0,36.0625
0.22605209,-0.36727428,-1.0850457,-0.8658391,-0.038436346,0.038504504,-0.16479613,-0.40029305,-0.36365047,0.05998162,3.0791268,-0.6232695,4.1033054e-05,-0.10190434,0.045612473,0.00032372028,-0.003488559,0.004717867,0.0055984505,0.48635593,-1.3714255,1.8915914,-2.0894802,-1.5706857,2.460266,-0.16859266,0.09547598,-0.11827436,0.016999738,0.0006588087,-0.17413251,-0.095768064,0.3256114,-9.500193,0.8605109,47.693153,-1.0126122,-2.5060601,-3.223672,-0.23671493,0.06862271,-0.39223117,28.3125,29.6875,28.75,32.5625,35.0,36.0625
0.22805235,-0.8793036,-1.104641,-0.929622,-0.026304705,0.030664852,-0.15511808,-0.4005159,-0.3635542,0.05998394,3.0791175,-0.6232971,-2.3929304e-05,-0.10229872,0.046153262,0.0003955663,-0.003338159,0.0044357427,0.017029047,0.48600882,-1.3712213,1.8913401,-2.0894673,-1.5707096,2.4599376,-0.16978213,0.09549516,-0.11862504,0.017647257,0.0006666645,-0.18675253,-0.095768064,0.2681506,-9.519346,0.81351066,47.691364,-1.1438178,-2.4671342,-3.1440153,-0.22747755,0.081314415,-0.27750298,28.3125,29.6875,28.75,32.5625,35.0,36.0625
0.2300526,-0.42448494,-0.8294291,-0.9132328,-0.016984353,0.037314907,-0.15566613,-0.40072072,-0.36345175,0.059969377,3.0791113,-0.62327164,1.5889696e-05,-0.102609195,0.04563368,0.00055885216,-0.0035256906,0.004554232,0.025169497,0.4856378,-1.3710167,1.8911241,-2.0894434,-1.5706853,2.4595516,-0.16917638,0.09653538,-0.120371,0.018165465,0.0007743876,-0.19428664,0.038307227,0.22984336,-9.519346,0.8403672,47.683304,-1.1715789,-2.5390978,-3.2788606,-0.22438851,0.080641255,-0.19812274,28.3125,29.6875,28.75,32.5625,35.0,36.0625
0.23205176,-0.55520326,-0.8971023,-0.86222947,-0.00752595,0.030429523,-0.15356009,-0.40091857,-0.36337426,0.059976146,3.0791578,-0.6230891,5.52507e-06,-0.10345234,0.046658926,0.0005082423,-0.0036132408,0.004564123,0.02311135,0.48533762,-1.3708127,1.8908495,-2.089372,-1.5706972,2.4591317,-0.17163116,0.09648729,-0.12017033,0.017961094,0.0008486995,-0.19468349,0.1340753,0.22984336,-9.404425,0.83365434,47.66987,-1.1177129,-2.354021,-3.2318096,-0.21670838,0.08082041,-0.1353744,28.3125,29.6875,28.75,32.5625,35.0,36.0625
0.23405188,-0.28146213,-0.5557256,-1.0133215,-0.0010080097,0.015867876,-0.15804633,-0.40112647,-0.36330515,0.059982,3.0791156,-0.6230458,5.437274e-07,-0.104560934,0.047456592,-0.00062448473,-0.003492759,0.0022844754,0.014773535,0.485013,-1.370607,1.8905858,-2.089348,-1.570661,2.4587855,-0.17448296,0.09961656,-0.12137798,0.018116029,0.0018108896,-0.18919791,0.019153614,0.1340753,-9.519346,0.7911258,47.67166,-1.033417,-2.6032739,-3.2673535,-0.21039303,0.07775165,-0.17417407,28.3125,29.6875,28.75,32.5625,35.0,36.0625
0.23605202,0.114509776,-0.28849795,-0.9372655,0.0034130358,0.011675781,-0.16225615,-0.40134144,-0.36319655,0.059976667,3.0791337,-0.6230521,-2.1869027e-05,-0.105373085,0.04829007,0.0001569479,-0.0041908007,0.0037381207,0.0070407772,0.48465312,-1.3704036,1.8903474,-2.0893118,-1.5706853,2.4584274,-0.1764955,0.09792148,-0.12111,0.017927896,0.001752265,-0.18347803,0.038307227,0.0,-9.615114,0.83365434,47.66091,-0.94595706,-2.4449205,-3.3798475,-0.18819562,0.07487652,-0.28468177,28.3125,29.6875,28.75,32.5625,35.0,36.0625
0.23805214,-0.37387833,0.28184724,-0.8426219,-0.0026287292,-0.00018521842,-0.1632751,-0.4015622,-0.36310166,0.05998515,3.0790832,-0.6230619,-5.2189527e-05,-0.10560078,0.049604636,-0.0018183755,-0.002238767,0.0004987207,0.0026056522,0.48428124,-1.3702223,1.8901094,-2.0893004,-1.570661,2.4580681,-0.17870197,0.10107176,-0.12036673,0.017815983,0.0015442508,-0.18124881,-0.05746084,-0.076614454,-9.461885,0.9231726,47.69763,-0.8773299,-2.5582523,-3.4179108,-0.184231,0.07411646,-0.34128338,28.3125,29.6875,28.75,32.5625,35.0,36.0625
0.24005254,-0.35040647,-0.031508803,-0.7838623,0.017370306,0.019996563,-0.15400295,-0.40176505,-0.36299583,0.059956044,3.0791132,-0.6230649,6.7779188e-06,-0.107018225,0.04924902,-0.00019934548,-0.0036790848,0.0035442503,0.002808047,0.4839221,-1.3699825,1.8898815,-2.0892642,-1.570661,2.4577072,-0.17919292,0.10011993,-0.12297955,0.018015994,0.0013888234,-0.18194123,-0.095768064,-0.095768064,-9.404425,0.81351066,47.685097,-0.9936124,-2.4487467,-3.3283162,-0.16202863,0.08301016,-0.35049546,28.3125,29.6875,28.75,32.5625,35.0,36.0625
0.24205194,0.16811636,0.7375516,-0.7793993,0.022392673,0.053503145,-0.18386257,-0.4019527,-0.3629121,0.05994813,3.0791302,-0.6229664,6.150711e-05,-0.106643915,0.049125683,-0.0003168732,-0.003346101,0.0028391741,0.008277355,0.48359913,-1.369778,1.8896421,-2.089204,-1.5706371,2.4573207,-0.17859899,0.10035358,-0.12318037,0.018767428,0.0014202285,-0.18681668,-0.076614454,-0.11492168,-9.442732,0.84484416,47.66987,-1.0850642,-2.3799207,-3.5833137,-0.13627842,0.07481326,-0.3800233,28.3125,29.6875,28.75,32.5625,35.0,36.0625
0.24405214,-1.0530121,0.577523,-0.7336608,0.026918976,0.049219456,-0.16911204,-0.40217593,-0.36280656,0.05994928,3.0790927,-0.6229548,1.7116343e-05,-0.107640825,0.04952732,-3.963399e-05,-0.003230929,0.0028620455,0.014040604,0.4832153,-1.3695977,1.8894271,-2.089216,-1.5706252,2.4569345,-0.18001345,0.101191886,-0.12507415,0.019860182,0.0013167294,-0.19399345,-0.1340753,-0.17238252,-9.481039,0.8493211,47.683304,-1.0171617,-2.3778243,-3.4510145,-0.14503945,0.081782356,-0.30945045,28.3125,29.6875,28.75,32.5625,35.0,36.0625
0.24605265,-1.3495297,0.23141228,-0.78394234,0.034747746,0.047727063,-0.17293529,-0.4024072,-0.36271358,0.05997758,3.0791085,-0.6228548,-4.9953636e-05,-0.10846242,0.049452372,0.0013860603,-0.004340754,0.0046598655,0.025296133,0.48286772,-1.3694061,1.8891152,-2.0891316,-1.570649,2.4565227,-0.18062575,0.099756844,-0.12687352,0.020983296,0.0014731535,-0.20586112,-0.15322891,-0.15322891,-9.481039,0.8672237,47.66271,-1.1349236,-2.2535274,-3.4173539,-0.14026704,0.074545816,-0.21769261,28.3125,29.6875,28.75,32.5625,35.0,36.0625
0.24805169,-1.3486338,0.12153228,-0.9659503,0.02936026,0.050045628,-0.1591534,-0.402615,-0.36261007,0.05997012,3.0791328,-0.62277704,-3.1501113e-05,-0.108653955,0.049291894,-0.00060548866,-0.0034356173,0.00063848996,0.031253062,0.48250842,-1.3691999,1.8888754,-2.0890834,-1.5706486,2.456112,-0.1811041,0.10494983,-0.12870109,0.021597484,0.002534498,-0.21229646,-0.2681506,-0.11492168,-9.500193,0.8873621,47.65643,-1.152253,-2.5009377,-3.3586354,-0.13379215,0.052545987,-0.09211734,28.3125,29.6875,28.75,32.5625,35.0,36.0625
0.2500517,-1.2801474,0.008122119,-0.9577445,0.0038726286,0.063020594,-0.15981583,-0.40283746,-0.36251333,0.059984975,3.0791395,-0.62266505,-6.0520128e-05,-0.11008803,0.04999855,0.0014830487,-0.0051825317,0.0037966117,0.027498154,0.482148,-1.369009,1.8886002,-2.0890234,-1.5706486,2.4556808,-0.18353271,0.10170196,-0.1297446,0.02228142,0.0026229601,-0.21097045,-0.45968673,-0.05746084,-9.576807,0.9164598,47.653748,-1.1038659,-2.2304125,-3.432383,-0.13590765,0.059989467,-0.07319031,28.3125,29.6875,28.75,32.5625,35.0,36.0625
0.25205183,-1.8256334,-0.7220486,-0.999349,-0.0013612122,0.057693113,-0.1578952,-0.40305135,-0.36242017,0.0599804,3.07911,-0.6226236,1.7952803e-05,-0.11060958,0.05119356,-0.0011031168,-0.0021248874,-0.001031443,0.018878954,0.48176426,-1.3687907,1.8883365,-2.0889628,-1.5705885,2.455275,-0.1856316,0.10742388,-0.13099767,0.02352255,0.0021489055,-0.20444828,-0.51714754,0.0,-9.576807,0.8537928,47.64389,-1.0834607,-2.4285922,-3.3570642,-0.12891108,0.05428171,-0.12081434,28.3125,29.6875,28.75,32.5625,35.0,36.0625
0.2540518,-1.801575,-0.8287064,-1.2442383,-0.009204402,0.06423676,-0.16626376,-0.4032557,-0.36232,0.059969567,3.0791543,-0.6226145,3.806608e-05,-0.11066282,0.05067357,0.0005867985,-0.0029914903,0.0013032567,0.012923738,0.4814297,-1.3685637,1.8880738,-2.0888908,-1.5706133,2.4549294,-0.18452469,0.1049277,-0.132146,0.024692668,0.0018283359,-0.19738588,-0.5363012,0.038307227,-9.672575,0.79560274,47.64389,-1.3123721,-2.2876117,-3.48322,-0.13111869,0.06490238,-0.24589223,28.3125,29.6875,28.75,32.5625,35.0,36.0625
0.25605172,-1.8153545,-1.4597493,-1.1328102,-0.013909488,0.07940592,-0.16307986,-0.40348265,-0.36220992,0.059972264,3.0791616,-0.6225619,-2.6467376e-05,-0.11115463,0.050567567,0.00061686576,-0.0025684095,0.0012582985,0.0044088946,0.481058,-1.3683709,1.8878349,-2.0888784,-1.5706371,2.454524,-0.1844786,0.10615373,-0.13385913,0.025412083,0.0014788514,-0.18882366,-0.6703765,0.15322891,-9.730036,0.8403672,47.6636,-1.3249124,-2.315296,-3.3015077,-0.13944978,0.06608103,-0.3491552,28.3125,29.6875,28.75,32.5625,35.0,36.0625
0.258052,-1.9785253,-1.6097052,-0.97992253,-0.025055662,0.085758455,-0.15584643,-0.40371335,-0.36208445,0.059967306,3.079159,-0.62269807,-8.011416e-06,-0.11244378,0.05061985,0.000514128,-0.0024646912,0.0015836715,-0.00034917452,0.48064992,-1.3681538,1.8875707,-2.0888069,-1.570649,2.4542015,-0.18546173,0.10834119,-0.1362496,0.0253737,0.0012271798,-0.1850472,-0.61291564,0.2681506,-9.595961,0.91198283,47.679718,-1.4174205,-2.3715644,-3.377747,-0.12749551,0.07307487,-0.4423945,28.3125,29.6875,28.75,32.5625,35.0,36.0625
0.2600521,-1.6644421,-1.5127143,-1.0897335,-0.025651244,0.08560878,-0.16604379,-0.40393752,-0.36198774,0.059979748,3.0791662,-0.6226211,-2.295902e-05,-0.11535325,0.050738286,0.002047631,-0.0039045536,0.004961919,-0.00044621874,0.48028886,-1.3679494,1.8872823,-2.0887353,-1.570649,2.4537916,-0.18796207,0.10912949,-0.14069355,0.025369884,0.00093696406,-0.18744831,-0.40222588,0.28730422,-9.595961,0.9164598,47.66987,-1.3751918,-2.3216667,-3.3587847,-0.12269863,0.07769658,-0.50923455,28.3125,29.6875,28.75,32.5625,35.0,36.0625
0.2620521,-1.7848456,-2.0182378,-1.1540285,-0.018806674,0.051577635,-0.16284375,-0.40419015,-0.36190775,0.06000521,3.079106,-0.6225646,-9.825316e-05,-0.11560185,0.05197356,0.000912601,-0.0027802715,0.0032220401,0.0090840645,0.47991636,-1.3677328,1.8869604,-2.0887115,-1.5706252,2.4533916,-0.1900514,0.110428035,-0.13961716,0.025064195,0.00076405273,-0.19906786,-0.3256114,0.3256114,-9.710882,0.80679786,47.65912,-1.3507926,-2.424386,-3.239087,-0.12461063,0.08517352,-0.41356212,28.3125,29.6875,28.75,32.5625,35.0,36.0625
0.26405224,-0.82746965,-1.6302552,-0.69334877,-0.045064118,0.05945124,-0.17752708,-0.4044249,-0.36179543,0.060021974,3.0791001,-0.6224777,-0.00014217109,-0.117291905,0.051572084,0.0018142822,-0.0041589593,0.005801602,0.023411445,0.47952005,-1.3675525,1.8866962,-2.0886638,-1.5706252,2.452942,-0.1907913,0.11112881,-0.1423086,0.024132011,0.0008009005,-0.214134,-0.2681506,0.28730422,-9.653421,0.8157518,47.67166,-1.1903728,-2.275159,-3.0925012,-0.116410635,0.09947178,-0.27065662,28.3125,29.6875,28.75,32.5625,35.0,36.0625
0.2660518,-0.9823048,-1.6989759,-0.9871429,-0.020412983,0.033422306,-0.16949138,-0.4046478,-0.36169493,0.05999605,3.0791183,-0.6224219,-9.789267e-05,-0.11897664,0.05275104,0.0016963588,-0.004241287,0.0058922693,0.02790941,0.47914696,-1.3672879,1.8864335,-2.0886395,-1.5706133,2.4525318,-0.19418399,0.11234114,-0.14348216,0.023978664,0.00082757184,-0.22202413,-0.3256114,0.22984336,-9.557653,0.80679786,47.677036,-1.1924026,-2.3666437,-3.184157,-0.096765086,0.07838458,-0.18425582,28.3125,29.6875,28.75,32.5625,35.0,36.0625
0.268052,-1.0398852,-1.2689338,-0.6772299,-0.015210018,0.032813508,-0.17197978,-0.4048945,-0.3615725,0.059994075,3.0791514,-0.62239146,-0.00010495821,-0.12031865,0.053425975,0.0012936994,-0.0041777813,0.004949525,0.024076315,0.4787382,-1.3670467,1.8861336,-2.0885675,-1.5706371,2.4521,-0.19663092,0.1146004,-0.14541192,0.02450892,0.0012022987,-0.22063749,-0.3256114,0.30645782,-9.5385,0.83589023,47.677036,-1.1842436,-2.3662996,-3.1987395,-0.0801219,0.085439615,-0.1607089,28.3125,29.6875,28.75,32.5625,35.0,36.0625
0.27005216,-0.9725348,-0.7356137,-0.48174024,-0.017268805,0.041733976,-0.1702817,-0.40516418,-0.36147952,0.060021255,3.0790849,-0.62232524,-0.00019671013,-0.12219274,0.0538237,0.0018313627,-0.0049287854,0.006104135,0.015517178,0.4783297,-1.36683,1.8858103,-2.0885556,-1.5706133,2.4516587,-0.19892503,0.11575747,-0.1480672,0.024641136,0.0013539201,-0.21437141,-0.3256114,0.17238252,-9.346964,0.84484416,47.650166,-1.2021718,-2.5190687,-3.0756133,-0.060257133,0.07144204,-0.22210266,28.3125,29.6875,28.75,32.5625,35.0,36.0625
0.27205232,-0.40182692,0.068232186,-0.47599253,-0.013305403,0.0513573,-0.17923588,-0.40539932,-0.36136645,0.06003444,3.079078,-0.622288,-0.00022235009,-0.12266149,0.054890677,4.2255466e-05,-0.0038889789,0.0026168483,0.008607032,0.4779323,-1.3666365,1.8855356,-2.088496,-1.5706128,2.451239,-0.20145714,0.11919945,-0.1481966,0.024901122,0.002041382,-0.20999365,-0.4405331,0.095768064,-9.404425,0.88960326,47.658226,-1.0384619,-2.464755,-3.194088,-0.049953647,0.0922986,-0.33143455,28.3125,29.6875,28.75,32.5625,35.0,36.0625
0.27405262,-1.0745703,-0.40650085,-0.34422448,0.0069909045,0.050896376,-0.17052548,-0.40566424,-0.36126027,0.06003298,3.079078,-0.62230957,-0.00027236872,-0.123622276,0.055873718,0.0015488649,-0.0054719863,0.0044320924,0.003344163,0.47753552,-1.3663615,1.8852018,-2.0884593,-1.5706366,2.450856,-0.20419592,0.116160475,-0.1481655,0.025562948,0.0026201548,-0.2074708,-0.4405331,0.095768064,-9.32781,0.83813137,47.64121,-1.066888,-2.410534,-3.1571856,-0.055281162,0.0842632,-0.40265912,28.3125,29.6875,28.75,32.5625,35.0,36.0625
0.2760518,-1.3118917,0.05494944,-0.23191129,0.0026996287,0.0501979,-0.17626697,-0.40590832,-0.3611886,0.060066655,3.0790186,-0.6221424,-0.0002990929,-0.12350408,0.056061354,-0.00045101042,-0.0036244988,0.00089546194,0.004195088,0.4771638,-1.3661555,1.8848656,-2.0883996,-1.5705765,2.4503875,-0.20429991,0.12054513,-0.14898662,0.02600328,0.002619846,-0.20842463,-0.21068975,0.019153614,-9.251195,0.8784135,47.658226,-1.0455279,-2.584107,-3.2090607,-0.0373976,0.07616122,-0.39916062,28.3125,29.6875,28.75,32.5625,35.0,36.0625
0.27805215,-0.88579226,-0.056048118,-0.10098439,0.01821947,0.056924842,-0.17904794,-0.40620494,-0.3610515,0.06007507,3.0789993,-0.6221904,-0.00040681838,-0.12424103,0.056861877,0.00039388298,-0.0042293286,0.0021373117,0.012217227,0.47669533,-1.3659042,1.8845433,-2.0883877,-1.5706128,2.4499516,-0.20615533,0.118899316,-0.1490344,0.026311047,0.0026057267,-0.21830235,-0.21068975,-0.076614454,-9.232041,0.82022345,47.66808,-1.0335629,-2.3667626,-3.2352078,-0.008192947,0.072763294,-0.35586494,28.3125,29.6875,28.75,32.5625,35.0,36.0625
0.28005236,-0.66547596,0.504644,-0.018301016,0.01995613,0.05422525,-0.18000901,-0.40642092,-0.36094448,0.060069785,3.0790312,-0.62201625,-0.00035178548,-0.12449167,0.056866843,-9.385866e-05,-0.0036410103,0.0011369706,0.025770186,0.4763111,-1.3656873,1.8842796,-2.0883157,-1.5705885,2.4494548,-0.20624761,0.12069262,-0.15022302,0.026873738,0.002541676,-0.23194696,-0.19153613,-0.15322891,-9.174581,0.84484416,47.67166,-1.0532963,-2.5273697,-3.2680168,-0.013505328,0.07685661,-0.22141662,28.3125,29.6875,28.75,32.5625,35.0,36.0625
0.2820525,-0.78430253,0.49687907,0.21199004,0.04041832,0.04520803,-0.18634777,-0.4066795,-0.36083427,0.060069636,3.079025,-0.62193286,-0.00036516268,-0.12322025,0.056019083,-0.00038136693,-0.0030230533,-0.0004843517,0.035119683,0.47589204,-1.3654349,1.8839697,-2.088279,-1.5705765,2.4489846,-0.20372103,0.12126138,-0.15063478,0.028445352,0.002746734,-0.23876998,-0.21068975,-0.36391866,-9.002198,0.88960326,47.668976,-1.1655183,-2.4404526,-3.3297272,-0.027810983,0.07164037,-0.11633343,28.3125,29.6875,28.75,32.5625,35.0,36.0625
0.28405178,-0.7008005,0.34512845,0.23452887,0.06503294,0.047045216,-0.16960977,-0.40694788,-0.36069864,0.060052317,3.0790412,-0.621938,-0.00036056427,-0.12339137,0.0550053,0.00030319707,-0.003520408,9.203141e-05,0.03171349,0.47543654,-1.3651586,1.8836702,-2.0882428,-1.5705885,2.4485304,-0.20215178,0.1218681,-0.15322822,0.029689241,0.0029176138,-0.23379384,-0.2681506,-0.34476507,-8.791509,0.8784135,47.696735,-1.3592772,-2.4520068,-3.2940598,-0.024958871,0.055315837,-0.10780655,28.3125,29.6875,28.75,32.5625,35.0,36.0625
0.2860518,-0.10433843,0.9404325,0.14166789,0.07299303,0.043230414,-0.17243549,-0.4071819,-0.36059737,0.06006499,3.0790136,-0.6218623,-0.000352695,-0.124064684,0.055896603,-3.4027096e-05,-0.003222446,-0.00095238973,0.019429246,0.47503984,-1.3649541,1.8833832,-2.0881827,-1.5705527,2.44809,-0.20426728,0.12277628,-0.15372041,0.030345393,0.0031323081,-0.22362503,-0.21068975,-0.30645782,-8.90643,0.90527004,47.664497,-1.3730297,-2.4647458,-3.2542849,-0.015600758,0.06728393,-0.21623103,28.3125,29.6875,28.75,32.5625,35.0,36.0625
0.28805178,-0.074752964,0.7951646,0.123170055,0.070068225,0.02460945,-0.16778882,-0.40744817,-0.3604881,0.060074244,3.079012,-0.62181044,-0.00040517008,-0.12634446,0.05709456,0.00041751214,-0.0036686123,5.8073696e-05,0.0068856818,0.47463098,-1.3647014,1.8830489,-2.0881345,-1.5705646,2.4476492,-0.20811306,0.12374464,-0.15597336,0.030524915,0.003066552,-0.21492617,-0.17238252,-0.19153613,-8.868123,0.92764956,47.672558,-1.3753686,-2.309356,-3.3443286,-0.0079781,0.057057533,-0.3301801,28.3125,29.6875,28.75,32.5625,35.0,36.0625
0.29005206,0.40714684,0.48718962,0.0048510926,0.04789294,0.019781573,-0.17821354,-0.40770686,-0.36033726,0.060042925,3.0790572,-0.62192047,-0.00036545843,-0.12650071,0.058744214,0.0006936871,-0.0027283684,-0.00091249635,-0.0019860843,0.47417396,-1.3644137,1.8827618,-2.088074,-1.5706009,2.4472554,-0.21066552,0.12218879,-0.1552524,0.03264705,0.0026648506,-0.20860736,-0.17238252,-0.24899697,-8.925584,0.8672237,47.65464,-1.3393782,-2.19001,-3.3125093,0.007996022,0.055919416,-0.46020275,28.3125,29.6875,28.75,32.5625,35.0,36.0625
0.292052,0.22864199,-0.055294,-0.106795,0.033526,0.0050045,-0.17979817,-0.40792474,-0.3602115,0.060047284,3.0790966,-0.62186956,-0.00027778506,-0.1276978,0.060149364,0.00040325843,-0.0012871956,-0.0030011844,-0.0034869325,0.473765,-1.3642087,1.8824738,-2.0879295,-1.5705885,2.4468098,-0.21376601,0.12409671,-0.15756221,0.035570398,0.0023250391,-0.21020587,-0.11492168,-0.038307227,-9.040505,0.8314132,47.682407,-1.2729516,-2.2082477,-3.1351376,-0.048837647,0.06689159,-0.5328037,28.3125,29.6875,28.75,32.5625,35.0,36.0625
0.29405206,-0.06759097,-0.29708835,-0.2568569,0.009640695,-0.002370973,-0.19453777,-0.40817595,-0.3601027,0.0600374,3.0791166,-0.6217701,-0.0002477011,-0.12923165,0.060912073,0.0013980689,-0.0011743254,-0.0026176278,0.0074671265,0.47335643,-1.3639324,1.8821515,-2.0878685,-1.570577,2.4463367,-0.21609807,0.12431378,-0.16071264,0.038220476,0.0020493323,-0.22349076,0.05746084,-0.05746084,-9.193734,0.8224646,47.655537,-1.2223501,-2.1771944,-3.2322917,-0.07809299,0.063997224,-0.446253,28.3125,29.6875,28.75,32.5625,35.0,36.0625
0.29605204,-0.4129094,-0.92844677,-0.7003158,0.009268988,0.002715141,-0.17781134,-0.4084232,-0.3599761,0.060038395,3.0791423,-0.6217665,-0.00022878536,-0.12955284,0.061361037,0.0017729388,-0.00012698777,-0.0040134266,0.021605525,0.47293591,-1.363692,1.8818396,-2.0877721,-1.570589,2.445911,-0.21683928,0.12490035,-0.16308855,0.04173109,0.0017539732,-0.2383694,0.11492168,0.076614454,-9.308657,0.81351066,47.653748,-1.1880181,-2.152855,-3.1740642,-0.13003843,0.068612985,-0.2843066,28.3125,29.6875,28.75,32.5625,35.0,36.0625
0.29805252,-0.20182574,-0.89538264,-0.71627176,-0.0153125,0.025855482,-0.1888736,-0.40870494,-0.35985976,0.06005623,3.0791552,-0.6216133,-0.00029390765,-0.1289332,0.063767016,-0.00070627534,0.0029324663,-0.009778397,0.025843944,0.4725032,-1.3634388,1.881482,-2.087711,-1.5706013,2.4453812,-0.22017853,0.12728229,-0.16075182,0.043537494,0.0016742536,-0.24594758,-0.019153614,0.15322891,-9.461885,0.80456203,47.687782,-1.041579,-2.1784225,-3.2356644,-0.16489133,0.07700694,-0.17474037,28.3125,29.6875,28.75,32.5625,35.0,36.0625
0.30005166,-0.40937138,-1.1886021,-1.0142119,-0.027051652,0.04546026,-0.17962189,-0.40893772,-0.35972166,0.06004088,3.0791996,-0.6215495,-0.00013990625,-0.13043909,0.06391324,0.00013641352,0.0015270518,-0.007934717,0.020292675,0.4720464,-1.3631866,1.8811821,-2.0875676,-1.5705646,2.444879,-0.22185184,0.12729979,-0.1626187,0.043113653,0.0020533775,-0.24206959,-0.24899697,0.28730422,-9.519346,0.8918391,47.658226,-1.0438335,-2.1453784,-3.2647386,-0.1898543,0.06971529,-0.17533118,28.3125,29.6875,28.75,32.5625,35.0,36.0625
0.30205166,-1.4617931,-2.1590478,-1.2689772,-0.027626602,0.044124648,-0.17638238,-0.4092015,-0.3595903,0.06004183,3.0792124,-0.6215565,-8.098185e-05,-0.13151757,0.06525824,-0.00062197715,0.0023816542,-0.0106963115,0.010128801,0.47158954,-1.3629215,1.8808349,-2.0874474,-1.5705527,2.444425,-0.22522292,0.12974694,-0.16434178,0.045239,0.0025336265,-0.23527665,-0.24899697,0.40222588,-9.653421,0.8985519,47.679718,-0.9674529,-2.157159,-3.2790072,-0.23488763,0.073201686,-0.2673419,28.3125,29.6875,28.75,32.5625,35.0,36.0625
0.3040519,-1.5131723,-1.9212035,-1.4308264,-0.049768586,0.058971807,-0.17030849,-0.4094704,-0.3594661,0.0600544,3.0792012,-0.6214796,-7.02517e-05,-0.13228346,0.065858886,5.5801476e-05,0.0020769227,-0.010467485,0.0032122552,0.471133,-1.3626816,1.8804997,-2.087363,-1.5705284,2.443922,-0.22686934,0.12923446,-0.16562413,0.046697013,0.002698427,-0.23000649,-0.3256114,0.2681506,-9.787497,0.8985519,47.674347,-0.9934124,-2.2437704,-3.2876072,-0.2822518,0.08141709,-0.33564544,28.3125,29.6875,28.75,32.5625,35.0,36.0625
0.30605227,-1.9133784,-2.0961235,-1.3473797,-0.046044733,0.0645297,-0.16673969,-0.4097325,-0.35933286,0.060036644,3.0792527,-0.6214701,-4.1953754e-06,-0.13176496,0.06475174,-0.001332185,0.002593092,-0.012212548,0.004516477,0.47068983,-1.3623799,1.880154,-2.0872557,-1.5705408,2.4434667,-0.22462633,0.13279514,-0.16659708,0.0458959,0.003006506,-0.22906737,-0.4213795,0.28730422,-9.710882,0.8560339,47.655537,-0.98195857,-2.41031,-3.3221757,-0.31676653,0.061335497,-0.41267216,28.3125,29.6875,28.75,32.5625,35.0,36.0625
0.30805233,-2.0532122,-1.8828138,-1.1203743,-0.04514559,0.08863114,-0.17805374,-0.4099834,-0.35921946,0.060032252,3.0792875,-0.6213343,1.1241224e-05,-0.13190745,0.06342177,-0.0015474922,0.0018792223,-0.011196463,0.01651003,0.4702824,-1.3621154,1.8798307,-2.0871847,-1.5705408,2.4429703,-0.22249222,0.13462944,-0.16795488,0.044192895,0.0031691901,-0.23892623,-0.49799395,0.30645782,-9.749189,0.8291774,47.65912,-1.2029878,-2.152586,-3.3485587,-0.33186233,0.076276764,-0.36268085,28.3125,29.6875,28.75,32.5625,35.0,36.0625
0.31005293,-2.13957,-1.165143,-1.1522559,-0.043566737,0.10065313,-0.18183842,-0.41027188,-0.35908213,0.060044393,3.0792751,-0.62132376,-1.5726446e-05,-0.13260163,0.06289054,-0.0012838421,0.000961009,-0.009655692,0.029379511,0.46980256,-1.3618629,1.879484,-2.0871127,-1.5705408,2.4424856,-0.22213197,0.13534214,-0.16914234,0.04288193,0.0032869221,-0.25143498,-0.24899697,0.21068975,-9.80665,0.8873621,47.684196,-1.3893868,-2.3366523,-3.331121,-0.3403356,0.061133526,-0.22566813,28.3125,29.6875,28.75,32.5625,35.0,36.0625
0.31205198,-1.6328636,-0.73538697,-1.0475452,-0.021496806,0.09696001,-0.18248165,-0.41051698,-0.3589599,0.0600353,3.079309,-0.6212128,7.067598e-05,-0.13275073,0.063005365,-0.0029267697,0.001647128,-0.011669786,0.034814604,0.46937054,-1.3615972,1.8791617,-2.0870059,-1.570516,2.4419801,-0.22251011,0.13872333,-0.16923727,0.041710418,0.003567188,-0.2572482,-0.15322891,0.095768064,-9.80665,0.88289046,47.688675,-1.3807223,-2.4454737,-3.3833966,-0.35494107,0.053771034,-0.1247379,28.3125,29.6875,28.75,32.5625,35.0,36.0625
0.31405213,-1.2085559,-0.38488102,-1.1029596,-0.010939707,0.0664744,-0.17541912,-0.4108053,-0.35883564,0.060041092,3.0793014,-0.6210992,1.147803e-05,-0.13607675,0.063040346,-0.0019952809,-0.00024519465,-0.0075273225,0.02868746,0.46891364,-1.3613324,1.8788255,-2.0869825,-1.5705165,2.4414535,-0.22517183,0.14064175,-0.1730977,0.03910364,0.0033752928,-0.25378054,-0.19153613,0.0,-9.844957,0.90527004,47.65464,-1.3713448,-2.4711032,-3.389523,-0.34648442,0.058802642,-0.11165985,28.3125,29.6875,28.75,32.5625,35.0,36.0625
0.31605223,-0.97358155,-0.90331554,-1.051277,-0.0040256525,0.029785538,-0.17025748,-0.411078,-0.3587091,0.060058184,3.0793118,-0.62106836,-4.081525e-05,-0.1366321,0.06376975,-0.0023778742,-0.0004136224,-0.0066483617,0.018156186,0.4684812,-1.3610921,1.8784798,-2.0869005,-1.5705408,2.4410007,-0.22659452,0.14066254,-0.1717876,0.036907084,0.0031277768,-0.24467197,-0.32561144,0.05746084,-9.710882,0.83365434,47.658226,-1.4283006,-2.4405427,-3.4441512,-0.3247921,0.03905137,-0.21766512,28.3125,29.6875,28.75,32.5625,35.0,36.0625
0.31805235,-0.51776296,-0.89239675,-0.95375115,0.013217653,0.021794502,-0.1648808,-0.4113584,-0.358584,0.060037274,3.0793004,-0.62105304,5.4455155e-05,-0.13810135,0.06454825,-0.002652128,2.4453528e-05,-0.0066088913,0.0063461917,0.4680005,-1.3607672,1.8781208,-2.0868275,-1.5704926,2.440512,-0.22876456,0.14263178,-0.17356877,0.036894128,0.0027012955,-0.23503071,-0.36391866,-0.019153614,-9.615114,0.87393653,47.67166,-1.450026,-2.6438138,-3.423621,-0.33018926,0.07141934,-0.3494743,28.3125,29.6875,28.75,32.5625,35.0,36.0625
0.32005244,-0.850259,0.026756113,-0.8366304,0.0056415927,0.0065560443,-0.17978299,-0.41165847,-0.3584685,0.060070228,3.0792542,-0.6210278,-7.4652555e-05,-0.13895643,0.06562392,-0.0034082138,0.00078436075,-0.007035663,-0.002578595,0.46755624,-1.3605276,1.8777503,-2.0867922,-1.5705045,2.440058,-0.23087472,0.1440653,-0.17340764,0.036021743,0.0022317516,-0.2282151,-0.17238252,0.038307227,-9.634268,0.84484416,47.658226,-1.4909457,-2.3736482,-3.4610696,-0.33012056,0.05494504,-0.476416,28.3125,29.6875,28.75,32.5625,35.0,36.0625
0.32205185,-0.99566853,-0.011467823,-0.65365267,0.0019642517,0.013629559,-0.18494369,-0.41194564,-0.3583268,0.06006127,3.079276,-0.6210095,-9.924296e-05,-0.14185633,0.06679245,-0.0024903896,-0.0008367945,-0.0034669898,-0.00061083894,0.46708673,-1.3602396,1.8774141,-2.086745,-1.5705289,2.4395745,-0.23507686,0.14402299,-0.17494977,0.033687465,0.00206211,-0.23438418,-0.038307227,-0.076614454,-9.461885,0.88960326,47.66271,-1.3349352,-2.4439485,-3.3827775,-0.3173403,0.06862794,-0.50959194,28.3125,29.6875,28.75,32.5625,35.0,36.0625
0.32405192,-1.5160047,0.1568122,-0.42675567,-0.00452143,0.02796805,-0.17602983,-0.4122232,-0.35821682,0.060040783,3.0792863,-0.62088925,-3.3179225e-05,-0.14410084,0.06705248,-0.002039188,-0.001955179,-0.0016923386,0.012179373,0.46664202,-1.3599032,1.8770431,-2.086686,-1.5704926,2.4390535,-0.23740466,0.14575648,-0.17790902,0.0328379,0.0022503934,-0.24950118,-0.26815057,-0.076614454,-9.289502,0.87393653,47.67166,-1.1771686,-2.43436,-3.326262,-0.29487666,0.069797225,-0.38367125,28.3125,29.6875,28.75,32.5625,35.0,36.0625
0.3260522,-0.9155915,-0.13103245,-0.24906158,0.013121205,0.068350255,-0.18033433,-0.41249064,-0.35807946,0.060044102,3.0792825,-0.62084544,3.3785793e-05,-0.14632922,0.06812266,-0.0011102911,-0.0032334968,-0.0008375424,0.019699857,0.46616045,-1.3596513,1.8767084,-2.0865772,-1.5704569,2.4385452,-0.24142651,0.14605519,-0.18066499,0.0339678,0.0030002065,-0.26104364,-0.36391866,0.0,-9.136273,0.8179876,47.71286,-1.054611,-2.5553298,-3.3381197,-0.30392432,0.06691566,-0.23980749,28.3125,29.6875,28.75,32.5625,35.0,36.0625
0.32805243,-2.36418,-0.29203135,-0.7082781,0.04195973,0.04358625,-0.15552218,-0.41281,-0.3579362,0.0600716,3.07928,-0.6208072,-7.5075906e-05,-0.14737424,0.06707002,0.00026456267,-0.0059101316,0.001683878,0.02141287,0.46566853,-1.3593878,1.8763131,-2.0865061,-1.5704921,2.43803,-0.24115688,0.14561799,-0.18317628,0.033449743,0.0042695133,-0.2624876,-0.19153613,-0.095768064,-9.232041,0.8247004,47.684196,-1.0208681,-2.1985683,-3.2793756,-0.28636697,0.029786918,-0.18319155,28.3125,29.6875,28.75,32.5625,35.0,36.0625
0.3300517,-1.5062206,-0.061595246,-0.4004482,0.02951879,0.057871085,-0.16599794,-0.41308948,-0.3578174,0.060061168,3.0792644,-0.6206917,-2.6947862e-05,-0.14768866,0.066582434,0.00078892394,-0.0067321034,0.0022820067,0.014795288,0.46520093,-1.359088,1.8759655,-2.0864575,-1.570444,2.4374924,-0.24073699,0.14576693,-0.18469293,0.03392526,0.00473348,-0.25545025,-0.45968676,-0.038307227,-9.32781,0.82022345,47.6636,-1.1382993,-2.280699,-3.2109413,-0.29680225,0.022841915,-0.2702958,28.3125,29.6875,28.75,32.5625,35.0,36.0625
0.33205193,-1.5814207,-0.026584107,-0.1285178,0.0017804714,0.074217066,-0.17466028,-0.41339964,-0.35766166,0.06007443,3.0792837,-0.6206993,-7.73357e-05,-0.14878006,0.06651577,0.0011999932,-0.0068449443,0.0043307277,0.00834426,0.464697,-1.358812,1.8755821,-2.0863626,-1.5704802,2.436991,-0.24089107,0.14642558,-0.18622398,0.032910388,0.003914531,-0.24915163,-0.7661445,0.095768064,-9.174581,0.85155696,47.653748,-1.210217,-2.1842065,-3.2930079,-0.27237743,0.027601093,-0.34872985,28.3125,29.6875,28.75,32.5625,35.0,36.0625
0.33405194,-1.0225774,0.00958717,-0.70329136,0.0030733047,0.086396195,-0.18145768,-0.413702,-0.35753325,0.06007784,3.079253,-0.6207315,-9.322161e-05,-0.14975241,0.06715548,1.7584476e-05,-0.0054092854,0.0035361287,0.008254878,0.46421656,-1.3585112,1.8751992,-2.086303,-1.5704683,2.4365346,-0.2420703,0.14967266,-0.1873041,0.03210555,0.0029915262,-0.25023946,-0.6512228,0.076614454,-9.289503,0.900793,47.660015,-1.372186,-2.2924504,-3.256721,-0.2650125,0.039623342,-0.4276436,28.3125,29.6875,28.75,32.5625,35.0,36.0625
0.33605185,-1.4286786,-0.6417853,-0.6571887,-0.0065454347,0.08079564,-0.17198455,-0.41397882,-0.3574077,0.06006957,3.0792513,-0.62066746,-2.9600606e-05,-0.1505685,0.06728432,0.0017652835,-0.0066075777,0.0069810613,0.016544383,0.46374834,-1.3582125,1.8748397,-2.086219,-1.5704325,2.4360268,-0.24253851,0.14689137,-0.18791799,0.031898748,0.0025196122,-0.258997,-0.49799395,0.15322891,-9.442732,0.8717007,47.701214,-1.3167994,-2.1258278,-3.2855563,-0.25171506,0.04849193,-0.35965782,28.3125,29.6875,28.75,32.5625,35.0,36.0625
0.33805203,-1.576933,-0.7894851,-0.474411,-0.048535258,0.086364895,-0.18216982,-0.41432226,-0.3572809,0.060102854,3.0791879,-0.6205714,-0.00019241378,-0.15121953,0.068170026,0.001860087,-0.0062084566,0.007158036,0.028509453,0.4632441,-1.3579367,1.8744324,-2.086219,-1.570433,2.4354708,-0.24415872,0.14685445,-0.18820252,0.03224744,0.0021277692,-0.27258155,-0.40222588,0.1340753,-9.308656,0.93436235,47.709274,-1.389452,-2.187327,-3.1808243,-0.23814788,0.043301605,-0.23093125,28.3125,29.6875,28.75,32.5625,35.0,36.0625
0.34005204,-0.926722,-0.4727148,-0.5286177,-0.036200285,0.08834456,-0.18737854,-0.4145917,-0.35713103,0.06006922,3.0792534,-0.6205058,-8.796671e-05,-0.15213268,0.06817638,0.0017975984,-0.006222194,0.0074104685,0.03394768,0.46276364,-1.3576126,1.8740972,-2.0861237,-1.570433,2.4349413,-0.24472326,0.14849919,-0.19008814,0.0322599,0.0020065897,-0.27858353,-0.36391866,0.21068975,-9.3661175,0.9231726,47.672558,-1.399837,-2.0855556,-3.2805014,-0.24210325,0.049752645,-0.12492021,28.3125,29.6875,28.75,32.5625,35.0,36.0625
0.3420522,-1.0435045,-0.10927853,-0.7141432,-0.03162272,0.07778581,-0.18085936,-0.41491872,-0.356997,0.06007702,3.0792775,-0.6203813,-0.00017983408,-0.15320471,0.06812204,0.0017590522,-0.006579054,0.008182631,0.026345208,0.46228334,-1.3572881,1.8736781,-2.0860755,-1.5704688,2.4343805,-0.24535531,0.15010615,-0.19180948,0.031513464,0.0019910438,-0.2716122,-0.3256114,0.22984336,-9.423578,0.8784135,47.694054,-1.4001685,-2.0957499,-3.3508835,-0.21936359,0.056534663,-0.1353951,28.3125,29.6875,28.75,32.5625,35.0,36.0625
0.3440522,-1.022321,-0.5436691,-0.80648744,-0.021352477,0.058192383,-0.16651356,-0.41521686,-0.3568437,0.060083278,3.0792818,-0.62035125,-0.00015307298,-0.15554267,0.06889914,0.002023228,-0.0073379017,0.0095470315,0.013549568,0.46176654,-1.357012,1.8733071,-2.0859683,-1.5704573,2.4338446,-0.24851106,0.15185733,-0.19438934,0.030783927,0.002053665,-0.26197127,-0.28730422,0.15322891,-9.442732,0.90527004,47.67614,-1.286263,-2.102015,-3.2136984,-0.19530287,0.053354323,-0.2622596,28.3125,29.6875,28.75,32.5625,35.0,36.0625
0.3460525,-0.27283376,-0.2658252,-1.0948628,-0.010206596,0.035225872,-0.16772434,-0.41552982,-0.35672346,0.06006932,3.0792327,-0.620349,-0.00018620472,-0.15723449,0.07015187,0.00060950126,-0.006709013,0.0077208085,9.957812e-05,0.461285,-1.3566746,1.8729352,-2.0859802,-1.5704325,2.433368,-0.25203153,0.15583229,-0.19589156,0.030230178,0.0023126341,-0.25204086,-0.095768064,0.1340753,-9.519346,0.8873621,47.67345,-1.1860083,-2.2561765,-3.3186717,-0.18316507,0.04467015,-0.3948273,28.3125,29.6875,28.75,32.5625,35.0,36.0625
0.34805256,0.19891886,0.2576348,-1.1111237,-0.0066674496,0.025324278,-0.17365795,-0.41586718,-0.35657108,0.060090065,3.0791888,-0.6203783,-0.00025988414,-0.15785122,0.07156623,0.0005085593,-0.006552363,0.0075614084,-0.0021256604,0.46074435,-1.3563875,1.8725289,-2.0859206,-1.5704325,2.4328513,-0.25471425,0.15528543,-0.19501813,0.030117933,0.002265405,-0.25249866,-0.21068975,0.1340753,-9.519346,0.8314132,47.698532,-0.97146535,-2.1256878,-3.3375103,-0.1348367,0.05004369,-0.4929997,28.3125,29.6875,28.75,32.5625,35.0,36.0625
0.35005242,-0.47452804,-0.07145772,-0.9856076,-1.2495503e-05,0.009033647,-0.17748769,-0.41617316,-0.3564215,0.060095232,3.0792315,-0.6203592,-0.00030514138,-0.15828745,0.07208623,-0.00040559948,-0.005739502,0.005577165,0.009833863,0.46026456,-1.3560867,1.8721331,-2.0858247,-1.5704807,2.4323545,-0.25588983,0.15775885,-0.19614495,0.03090231,0.002428303,-0.26563329,-0.019153614,0.019153614,-9.461885,0.8784135,47.67166,-1.0979466,-2.2896702,-3.41921,-0.11648804,0.04363817,-0.40196326,28.3125,29.6875,28.75,32.5625,35.0,36.0625
0.35205263,-0.124195464,0.23385108,-1.0781366,0.003643525,0.026213912,-0.1811337,-0.41649097,-0.35628265,0.06009525,3.0791516,-0.6203165,-0.00026462352,-0.15868548,0.07245607,-0.0011583767,-0.0046513393,0.0035136135,0.023263674,0.45971268,-1.3557862,1.8717626,-2.0857875,-1.5703968,2.431786,-0.25663814,0.16035767,-0.19797282,0.032492608,0.0023881109,-0.27981043,0.15322891,-0.038307227,-9.423578,0.8717007,47.658226,-1.1501924,-2.3005362,-3.4267793,-0.11647639,0.040249065,-0.26034653,28.3125,29.6875,28.75,32.5625,35.0,36.0625
0.35405186,-0.44733807,0.34680834,-0.7348173,-0.0011881605,0.042005755,-0.16951779,-0.416795,-0.35611233,0.060066048,3.0792785,-0.6201888,-0.00021712731,-0.15884966,0.0735013,-0.0019818544,-0.0035778964,0.0009285144,0.02612197,0.4592075,-1.3554258,1.8713673,-2.0856678,-1.5704569,2.4311855,-0.25847197,0.16188686,-0.19837728,0.03414641,0.0025555037,-0.28450274,-0.15322891,0.019153614,-9.481039,0.9321212,47.691364,-1.0889083,-2.4218526,-3.3809824,-0.11035956,0.041306563,-0.17157774,28.3125,29.6875,28.75,32.5625,35.0,36.0625
0.35605195,-0.7853817,0.17238043,-0.74983853,-0.010503965,0.048781168,-0.17078583,-0.4171167,-0.35598326,0.06008631,3.079201,-0.620197,-0.00024299363,-0.15961425,0.07427624,-0.0026266344,-0.0028578625,-0.0010287142,0.016483985,0.45869133,-1.3551371,1.8709596,-2.0856073,-1.5704087,2.4306843,-0.26037604,0.16418366,-0.20005919,0.035617072,0.002790513,-0.27676815,-0.2681506,-0.05746084,-9.5385,0.8806493,47.67614,-1.1213889,-2.4254644,-3.3990836,-0.117705256,0.036437575,-0.21820866,28.3125,29.6875,28.75,32.5625,35.0,36.0625
0.35805246,-0.59710133,-0.33898303,-0.6430796,-0.012179913,0.058129728,-0.17425823,-0.41742414,-0.3558509,0.060083166,3.079225,-0.62003446,-0.00025882415,-0.16036154,0.073152766,-0.001233557,-0.0041085477,0.0007665417,0.0101083955,0.4582113,-1.3548138,1.8705634,-2.0855472,-1.5704087,2.4301,-0.25913227,0.16423644,-0.20363863,0.036978256,0.0031135136,-0.269148,-0.19153613,0.0,-9.346964,0.9791215,47.65643,-1.1210676,-2.4155252,-3.3836992,-0.10104125,0.0480777,-0.33543158,28.3125,29.6875,28.75,32.5625,35.0,36.0625
0.36005232,-1.1092777,-0.3386194,-0.4341326,-0.03208855,0.056298584,-0.15754384,-0.41778228,-0.3556866,0.06010148,3.079178,-0.62015873,-0.00030124892,-0.16077177,0.07310982,-0.0019883213,-0.0033050748,-0.00076634414,0.00833716,0.4576355,-1.3544891,1.8701085,-2.0854514,-1.5704087,2.4296079,-0.25917846,0.16711824,-0.2056454,0.037835047,0.003077376,-0.2674218,-0.34476507,-0.05746084,-9.289502,0.8784135,47.681515,-1.1969295,-2.3171997,-3.2788582,-0.09676969,0.048411116,-0.4136091,28.3125,29.6875,28.75,32.5625,35.0,36.0625
0.3620517,-0.45677927,0.025902007,-0.44141814,-0.026867183,0.074241154,-0.16847503,-0.4180745,-0.3555386,0.060105387,3.0792081,-0.6200065,-0.00030192168,-0.16123557,0.07313861,-9.078654e-05,-0.0047691152,0.0023958306,0.01808683,0.4571426,-1.3542145,1.8697494,-2.0853674,-1.5704087,2.4290164,-0.2593976,0.16375422,-0.2059807,0.038056202,0.0030007209,-0.27739108,-0.2681506,0.0,-9.346964,0.8537928,47.67166,-1.1984818,-2.2898216,-3.3510232,-0.10041092,0.048369326,-0.34879482,28.3125,29.6875,28.75,32.5625,35.0,36.0625
0.3640519,-0.90999234,-0.13736281,-0.72296983,0.0031912213,0.053158827,-0.16782707,-0.41843605,-0.35539752,0.06010594,3.0791776,-0.61997205,-0.00037532914,-0.16136456,0.0730854,-0.00012349185,-0.0044771107,0.0023301807,0.032078,0.4566038,-1.3538429,1.869294,-2.0853431,-1.5704087,2.4284601,-0.25908348,0.1644363,-0.20687829,0.038466897,0.0027930452,-0.2910675,-0.2681506,0.095768064,-9.308656,0.97240865,47.67345,-1.3888401,-2.216205,-3.4200969,-0.097665094,0.03654313,-0.21927276,28.3125,29.6875,28.75,32.5625,35.0,36.0625
0.36605188,-0.93540835,0.12751736,-0.3330101,-0.0004847685,0.055720437,-0.16253082,-0.4187462,-0.35524794,0.060109966,3.0791807,-0.6198379,-0.0003916351,-0.16238995,0.07434491,-0.00090663106,-0.0039043343,0.0010816472,0.034011655,0.45608672,-1.3535542,1.8689231,-2.085283,-1.5703968,2.427859,-0.26190606,0.16628595,-0.20738769,0.03850658,0.0028390777,-0.29582337,-0.38307226,0.095768064,-9.289503,0.9835985,47.65106,-1.3701432,-2.1955485,-3.4583888,-0.07981029,0.04528752,-0.12117401,28.3125,29.6875,28.75,32.5625,35.0,36.0625
0.36805195,-0.6325734,0.23125602,-0.088752374,-0.0014547798,0.067723006,-0.15943941,-0.41910186,-0.35508105,0.060106717,3.0791905,-0.6198266,-0.0003740928,-0.16439435,0.075097874,-0.00057166326,-0.004790504,0.0016165063,0.023255015,0.45550996,-1.3531821,1.8684567,-2.0851753,-1.5703963,2.4272742,-0.26496628,0.16779964,-0.21010646,0.038838807,0.0033874742,-0.28812644,-0.36391866,0.1340753,-9.270349,0.83589023,47.67166,-1.1935744,-2.2265012,-3.404811,-0.05212019,0.039020415,-0.15235749,28.3125,29.6875,28.75,32.5625,35.0,36.0625
0.37005207,-0.20491475,0.5060403,-0.24815348,0.0076424107,0.060385678,-0.17269658,-0.41941354,-0.35495818,0.06009452,3.0791953,-0.6197006,-0.0003512714,-0.16522248,0.07426246,0.0003838381,-0.0059368056,0.0028079182,0.011783047,0.45502973,-1.3528222,1.8680362,-2.0851152,-1.570372,2.426715,-0.26436567,0.16841641,-0.21330065,0.039844707,0.0038837367,-0.27605328,-0.3256114,0.076614454,-9.289502,0.8560339,47.64837,-1.2492604,-2.217772,-3.2584567,-0.04602956,0.024555521,-0.315468,28.3125,29.6875,28.75,32.5625,35.0,36.0625
0.37205216,-0.23441622,0.11265118,-0.20532697,-0.0040062303,0.06056394,-0.1626588,-0.41974753,-0.35477763,0.06010019,3.079207,-0.61980206,-0.0004104378,-0.16656704,0.07469648,-0.000113765316,-0.005464902,0.00251705,0.0025519195,0.45447838,-1.3525213,1.8676409,-2.0850313,-1.5704201,2.4262257,-0.26583576,0.17119712,-0.21556409,0.03978357,0.003583495,-0.26829082,-0.34476504,0.038307227,-9.308656,0.8873621,47.615234,-1.4247676,-2.3788881,-3.2450118,-0.04293288,0.028543944,-0.4621882,28.3125,29.6875,28.75,32.5625,35.0,36.0625
0.37405246,-0.25456944,0.39202216,-0.13008168,-0.018411892,0.067253605,-0.1886674,-0.4200807,-0.35462108,0.060105063,3.0791996,-0.6197785,-0.0003733417,-0.16783518,0.075964816,-0.000108786975,-0.0050156894,0.00252448,0.00549432,0.453925,-1.3521858,1.8671974,-2.0849116,-1.5703968,2.4256587,-0.2685733,0.17191571,-0.21661717,0.04032047,0.0031781248,-0.27397013,-0.22984336,0.019153614,-9.251195,0.91198283,47.637623,-1.2641678,-2.1152139,-3.2621841,-0.031948563,0.03882685,-0.48146483,28.3125,29.6875,28.75,32.5625,35.0,36.0625
