Tylouw/Master_Thesis_Code/training_data/batch_1/rect_rod_t0.3/sample_18_session_1.csv
timestamp[s],tcp_force_x[N],tcp_force_y[N],tcp_force_z[N],tcp_force_rx[Nm?],tcp_force_ry[Nm?],tcp_force_rz[Nm?],tcp_pose_x[m],tcp_pose_y[m],tcp_pose_z[m],tcp_pose_rx[rot_vec_x],tcp_pose_ry[rot_vec_y],tcp_pose_rz[rot_vec_z],tcp_velo_x[m/s],tcp_velo_y[m/s],tcp_velo_z[m/s],tcp_velo_rx[rot_vec_x/s],tcp_velo_ry[rot_vec_y/s],tcp_velo_rz[rot_vec_z/s],q1[rad],q2[rad],q3[rad],q4[rad],q5[rad],q6[rad],qd1[rad/s],qd2[rad/s],qd3[rad/s],qd4[rad/s],qd5[rad/s],qd6[rad/s],tool_acc_x,tool_acc_y,tool_acc_z,current_of_whole_robot[A],voltage_of_whole_robot[V],current_J1[A],current_J2[A],current_J3[A],current_J4[A],current_J5[A],current_J6[A],temp_J1[C],temp_J2[C],temp_J3[C],temp_J4[C],temp_J5[C],temp_J6[C]
9.2497794e-07,-0.13252011,-0.25238764,0.13889033,-0.024043597,0.01584017,-0.0071767317,-0.3893414,-0.36871722,0.060000867,-3.078687,0.6249246,0.0001901752,0.0004989699,0.000264021,-0.00048074935,0.0004277261,-0.0009920455,7.242781e-05,0.5050329,-1.3816198,1.9041876,-2.0919034,-1.5708655,2.4800253,-4.473867e-05,-1.406768e-05,0.0011166811,-2.7880811e-05,0.000108029766,-0.000117780684,0.11492168,0.24899697,-8.6574335,0.7329411,47.70838,-0.16852747,-3.1730723,-2.3453002,-0.20045277,0.09636517,-0.011930377,28.25,29.625,28.75,32.5,34.9375,36.0
0.00205878,0.50501144,-0.042550128,0.14353338,-0.022638759,0.030428685,-0.013917675,-0.38935903,-0.36871988,0.059999492,-3.078704,0.6249665,0.00023610782,-0.0011420645,-0.00064760074,-0.00047006036,-0.0029640936,0.005114047,7.1408445e-05,0.50502086,-1.3816078,1.904188,-2.0919545,-1.5708655,2.4800372,-4.4009455e-05,-1.8873587e-07,0.003117179,-0.00902715,0.00010549688,-0.00011588541,0.11492168,0.15322891,-8.599973,0.7329411,47.694054,-0.19855204,-2.987561,-2.3594754,-0.15525906,0.092426226,-0.018622912,28.25,29.625,28.75,32.5,34.9375,36.0
0.004057743,0.37221605,0.039911326,0.11414822,-0.03393657,0.034493502,-0.008303965,-0.38933834,-0.36871108,0.05998874,-3.0786803,0.6249233,0.00020655544,-0.0014992651,-0.000846483,-0.0013562695,-0.0029158178,0.0050221933,7.079293e-05,0.5050329,-1.381619,1.9042233,-2.0919435,-1.5708774,2.4800253,-4.3303637e-05,0.0020431262,0.0031719573,-0.011021499,0.000103080274,-0.00011404963,0.13407528,0.15322891,-8.695741,0.8112748,47.711063,-0.13823716,-3.2758646,-2.6151445,-0.035862178,0.08810133,-0.019286089,28.25,29.625,28.75,32.5,34.9375,36.0
0.006056045,0.5355902,0.17587367,0.007364515,-0.028865505,0.031515453,-0.010999293,-0.38934,-0.3687253,0.059997343,-3.078725,0.62495154,0.00021096076,-0.0005309648,-0.00031308702,-0.0010699002,-0.0012054088,0.00192309,6.9429254e-05,0.5050329,-1.3816314,1.9042233,-2.0919654,-1.5708417,2.4800372,-4.2620126e-05,0.0013412514,0.002157467,-0.005765399,0.00011571768,-0.00011227136,0.095768064,0.24899697,-8.619126,0.73069996,47.691364,-0.1574602,-3.38617,-2.5413213,-0.045840174,0.090173066,-0.014725253,28.25,29.625,28.75,32.5,34.9375,36.0
0.008057251,1.1840329,1.0469949,-0.36138877,-0.007249861,0.020481572,-0.021094339,-0.3893349,-0.3687367,0.059997503,-3.0787206,0.6248931,0.00018158174,-0.00034672098,-0.00021108746,0.0005483283,-0.0012696147,0.002046621,6.818006e-05,0.50505686,-1.3816082,1.9041871,-2.0919278,-1.5708417,2.4800253,-4.1957734e-05,-0.0012040385,0.00057855406,-0.0017803743,0.00011793745,-0.00011054745,-0.019153614,0.28730422,-8.772355,0.7396539,47.70838,-0.18911207,-3.231718,-2.4939804,-0.08157642,0.101712264,-0.023260394,28.25,29.625,28.75,32.5,34.9375,36.0
0.01005372,0.5601718,0.8994652,-0.7785969,0.0053526266,0.010279085,-0.008999754,-0.3893161,-0.36872813,0.059971485,-3.0787008,0.6249276,9.9635574e-05,-2.4397861e-05,-2.6113517e-05,0.0004903155,-0.00058525393,0.00081993296,5.821249e-05,0.5050448,-1.3815962,1.9042348,-2.0919397,-1.5708174,2.4800372,-5.0382376e-05,-0.0011270647,0.00024213288,-0.00011624573,0.00011571989,-0.000109033615,0.0,0.17238252,-9.021352,0.72622824,47.674347,-0.76216793,-2.802192,-2.809723,-0.101294234,0.06907493,-0.09701867,28.25,29.625,28.75,32.5,34.9375,36.0
0.012051783,0.28717086,0.58324754,-0.81249374,-0.023243677,0.023193039,-0.019808648,-0.3893264,-0.36870614,0.059952375,-3.0786264,0.6249489,6.0665385e-05,0.00152459,0.0009172404,-0.0029766995,0.0042482126,-0.007880666,0.0028833966,0.5050208,-1.3815464,1.9042109,-2.091902,-1.5708536,2.480036,-0.0001852813,0.0049663386,3.2485214e-06,0.003981828,0.00010402325,-0.0030684737,0.095768064,0.076614454,-9.097966,0.6971306,47.65912,-0.8863313,-2.7919059,-2.945763,-0.13345543,0.06829951,-0.15271041,28.25,29.625,28.75,32.5,34.9375,36.0
0.014051961,0.18146186,0.13415962,-1.0719517,-0.059938498,0.051441096,-0.026727984,-0.38931683,-0.36867982,0.059930306,-3.0785897,0.624922,1.38176865e-05,-0.0025947418,0.0054419646,-0.0055849208,0.0061838264,-0.011369361,0.0014142499,0.5049929,-1.3815442,1.9042586,-2.0919025,-1.5708655,2.479996,-0.011649238,0.010239336,4.3583057e-08,0.0027000117,9.311363e-05,-0.0130622955,-0.038307227,0.05746084,-9.32781,0.7486078,47.70032,-0.5132675,-3.2483506,-3.143074,-0.110633604,0.058574166,-0.10133058,28.25,29.625,28.75,32.5,34.9375,36.0
0.016052172,-0.721404,-0.76381886,-1.1534722,-0.06900975,0.0657157,-0.033312898,-0.38931975,-0.36868113,0.059936285,-3.0785882,0.624861,-1.1093109e-05,-0.0053829965,0.0047489065,-0.002616548,0.0028122135,-0.0052902615,0.007865665,0.50499237,-1.3815329,1.9042209,-2.0918553,-1.5708655,2.4799576,-0.013088934,0.008115591,-0.0040746755,0.0019456412,9.0665344e-05,-0.020951994,-0.13407528,0.11492168,-9.3661175,0.7530795,47.694946,-0.4551351,-3.1194544,-3.0160384,-0.09727581,0.069086574,-0.019838575,28.25,29.625,28.75,32.5,34.9375,36.0
0.018052084,-0.9839588,-0.44898972,-1.1664964,-0.07867115,0.08599307,-0.06663004,-0.38932467,-0.3686743,0.05991483,-3.07859,0.6248211,-5.1894498e-05,-0.0057157185,0.0038325777,-0.0015986819,0.0017175267,-0.0033160201,0.012309549,0.5049688,-1.381497,1.9042329,-2.0918791,-1.5708536,2.479909,-0.011856851,0.0074919285,-0.0056382786,0.0018752285,8.8838024e-05,-0.024163246,-0.38307226,0.17238252,-9.461885,0.7351769,47.686886,-0.78399074,-2.9752045,-3.1136851,-0.083983675,0.06590389,-0.017662335,28.25,29.625,28.75,32.5,34.9375,36.0
0.020052059,-1.3863693,-0.045593064,-1.5012718,-0.04566007,0.09817154,-0.07779379,-0.38932028,-0.368659,0.059918858,-3.0785685,0.6248575,-0.00013471721,-0.005404359,0.0051544863,-0.002603134,0.003507996,-0.0065400084,0.008053187,0.5049323,-1.3815087,1.9042209,-2.0918067,-1.5708297,2.4798977,-0.013789672,0.00833817,-0.0048081675,0.003887574,8.711574e-05,-0.021840125,-0.49799395,0.11492168,-9.730036,0.7486078,47.672558,-0.8586364,-2.8291073,-3.2473874,-0.06972902,0.055724543,-0.024876513,28.25,29.625,28.75,32.5,34.9375,36.0
0.022052258,-1.2728134,0.6573217,-1.7507131,-0.014595841,0.09901099,-0.099504046,-0.38933975,-0.3686765,0.059916824,-3.0785933,0.6248073,-0.000108769054,-0.00588914,0.0062617846,-0.0028726964,0.0049064443,-0.009086063,0.0035715292,0.50494355,-1.3814604,1.9041737,-2.0918295,-1.5708297,2.4798746,-0.0161149,0.0094323065,-0.0062180385,0.0071083815,0.00010031355,-0.019683305,-0.4213795,0.0,-9.844957,0.79560274,47.677036,-0.79220283,-2.856948,-3.3401506,-0.12197081,0.056712333,-0.06947482,28.25,29.625,28.75,32.5,34.9375,36.0
0.024052314,-0.986448,0.5965792,-1.5393724,-0.003912248,0.098685354,-0.120039545,-0.38934225,-0.3686419,0.059885904,-3.078522,0.62489074,-0.00020689626,-0.0077287112,0.006394444,-0.0029928733,0.0046662865,-0.008669765,2.1834621e-05,0.50488293,-1.3814236,1.9041952,-2.0918057,-1.5708297,2.479875,-0.018061318,0.012077763,-0.008989484,0.0067540607,0.000100495665,-0.018078445,-0.5554548,-0.076614454,-9.80665,0.7105615,47.6421,-0.8863849,-2.7901688,-3.3150754,-0.12692559,0.039039914,-0.08437148,28.25,29.625,28.75,32.5,34.9375,36.0
0.026052661,-1.162657,0.100509845,-1.6916634,-0.007096712,0.096947886,-0.12763669,-0.38933972,-0.368636,0.059868857,-3.078516,0.62479264,-0.00022475408,-0.008880529,0.0059690867,-0.0028558823,0.0037628522,-0.0070150746,-0.0008709826,0.5048828,-1.3813989,1.9042076,-2.0918176,-1.5708417,2.4798145,-0.018413281,0.013338367,-0.010396719,0.0050153774,8.3419465e-05,-0.017536603,-0.8236054,-0.038307227,-9.749189,0.6658024,47.70032,-0.92937374,-2.9081278,-3.3950844,-0.09063983,0.054905307,-0.11171788,28.25,29.625,28.75,32.5,34.9375,36.0
0.028051715,-1.4982122,0.047529165,-1.67158,-0.022833554,0.10838834,-0.14276062,-0.3893617,-0.36860365,0.059853524,-3.0784645,0.6248026,-0.00025630856,-0.009751952,0.005853578,-0.0026092876,0.0033838637,-0.006333731,-0.0019066953,0.5048226,-1.3813627,1.9041942,-2.0917938,-1.5708655,2.479767,-0.019032627,0.014170642,-0.011921774,0.00492817,8.092525e-05,-0.017119471,-0.7086837,-0.095768064,-9.844957,0.7396539,47.684196,-0.91524,-2.891024,-3.3587816,-0.062834665,0.035919115,-0.118668646,28.25,29.625,28.75,32.5,34.9375,36.0
0.03005171,-1.6004615,-0.06663123,-1.7127002,-0.030201828,0.11758382,-0.14839332,-0.3893616,-0.36861858,0.059868563,-3.0784938,0.6248478,-0.00033225797,-0.0105588455,0.0062368824,-0.0023186023,0.0035985876,-0.0067198803,-0.0036118645,0.50481033,-1.3813624,1.9041461,-2.0917337,-1.5708054,2.4797792,-0.020431679,0.014782169,-0.013662067,0.006499838,7.943189e-05,-0.016812708,-0.7852981,-0.11492168,-9.864111,0.784413,47.701214,-0.93497,-2.8274288,-3.3498826,-0.080775246,0.037154395,-0.1465272,28.25,29.625,28.75,32.5,34.9375,36.0
0.032051753,-1.762344,-0.44358808,-1.6885957,-0.023329966,0.115581155,-0.16562423,-0.38940305,-0.368588,0.05985069,-3.078427,0.6248725,-0.00032754123,-0.010585696,0.0067035696,-0.0028534508,0.0046724975,-0.0086589595,-0.0036128243,0.50475013,-1.38129,1.9040984,-2.0917213,-1.5708536,2.479743,-0.021241006,0.016054804,-0.014309747,0.008090558,7.8049925e-05,-0.017620778,-0.8810662,-0.11492168,-9.787497,0.7486078,47.69763,-1.0011141,-2.8678737,-3.3664212,-0.08213136,0.0069202306,-0.16370654,28.25,29.625,28.75,32.5,34.9375,36.0
0.034052312,-1.5648314,-0.019489408,-1.6973736,-0.023149204,0.11765548,-0.1733494,-0.38942292,-0.36859536,0.05985397,-3.0784667,0.62489945,-0.00036271932,-0.011562502,0.006827284,-0.0022520546,0.0039791027,-0.0073919133,-0.0041682585,0.50471383,-1.3812661,1.9040626,-2.0917213,-1.5708054,2.4797184,-0.022355901,0.015867844,-0.015426382,0.007950616,6.916457e-05,-0.01817978,-0.8619126,-0.11492168,-9.749189,0.6926589,47.709274,-1.0184236,-2.8172638,-3.3349257,-0.08884452,0.019825945,-0.1885846,28.25,29.625,28.75,32.5,34.9375,36.0
0.03605248,-1.5774882,-0.03275826,-1.7415842,-0.0022572926,0.10371267,-0.18175294,-0.38945058,-0.36855865,0.05983537,-3.078415,0.62494695,-0.000380208,-0.0128992675,0.007292767,-0.00201124,0.0034766083,-0.006476415,-0.0045309775,0.50464135,-1.3812298,1.9040622,-2.0917218,-1.5708297,2.4796822,-0.024383495,0.016419858,-0.016511098,0.0074383514,6.085493e-05,-0.019844057,-0.7086837,0.0,-9.80665,0.6971306,47.66987,-0.91266775,-2.7901015,-3.4132357,-0.09869233,0.02442521,-0.18762584,28.25,29.625,28.75,32.5,34.9375,36.0
0.038052604,-1.0939435,0.36448622,-1.5600449,-0.0064325803,0.09355607,-0.19833758,-0.3894906,-0.368559,0.05985581,-3.0784497,0.6249347,-0.00032213278,-0.014423111,0.007826299,-0.0012396281,0.0025835738,-0.004863185,-0.004964233,0.5046045,-1.3812178,1.9040016,-2.0917218,-1.5708297,2.4796333,-0.026702847,0.016048107,-0.017783022,0.007237865,5.9384623e-05,-0.021729667,-0.5746084,-0.095768064,-9.864111,0.78888994,47.67345,-0.9152412,-2.7835827,-3.362084,-0.08951894,0.0027745673,-0.20201683,28.25,29.625,28.75,32.5,34.9375,36.0
0.04005265,-0.9278033,0.23490578,-1.4810063,-0.01644984,0.08035181,-0.20313638,-0.38954112,-0.3685469,0.05986662,-3.0784597,0.62499446,-0.00025332288,-0.015431216,0.0077836327,-0.0010758863,0.0023310897,-0.0043824445,-0.0052368133,0.5045444,-1.3811934,1.9039534,-2.0917456,-1.5708417,2.4796093,-0.027562488,0.017232565,-0.019569218,0.0072964267,4.4762543e-05,-0.022315785,-0.59376204,0.019153614,-9.672575,0.78217715,47.672558,-0.8866091,-2.7120256,-3.294128,-0.06609362,0.0013376384,-0.20878978,28.25,29.625,28.75,32.5,34.9375,36.0
0.042052526,-0.53026175,0.24339223,-1.5245974,-0.025662025,0.084797904,-0.21467175,-0.38956386,-0.36853802,0.059855018,-3.078422,0.62498677,-0.0003244711,-0.016525235,0.0078408625,-0.00036757963,0.0015341811,-0.0027688723,-0.004802217,0.50450814,-1.3811215,1.9038814,-2.091686,-1.5708417,2.479573,-0.028625064,0.017015655,-0.020860296,0.007006769,-4.3166645e-05,-0.023812275,-0.38307226,0.11492168,-9.595961,0.76874626,47.71823,-0.8745563,-2.6709447,-3.336853,-0.08020252,-0.011381488,-0.25011808,28.25,29.625,28.75,32.5,34.9375,36.0
0.044052467,0.0773672,0.47029558,-1.4240414,-0.039653502,0.08789102,-0.22725777,-0.38956916,-0.36851218,0.05984702,-3.078399,0.62498057,-0.0003686434,-0.017129749,0.008486924,-0.0005357182,0.001842158,-0.0032282122,-0.004298192,0.5044597,-1.3811213,1.9038938,-2.0916617,-1.5708417,2.4795237,-0.030246584,0.017541638,-0.021176385,0.007347721,-9.261319e-05,-0.025937548,-0.17238252,-0.076614454,-9.595961,0.8940802,47.71465,-0.9150505,-2.65689,-3.269071,-0.061308756,-0.0079187155,-0.22751158,28.25,29.625,28.75,32.5,34.9375,36.0
0.046052024,-0.43532246,-0.2639299,-1.5476457,-0.027781034,0.059565123,-0.17849371,-0.3896712,-0.36847222,0.05986087,-3.0783832,0.62507284,-0.00024690005,-0.018728167,0.009087566,-0.00016617429,0.0015520048,-0.0026565504,-0.004055584,0.50432706,-1.3810611,1.9037966,-2.0916855,-1.5708898,2.4794507,-0.032729767,0.018390644,-0.023125734,0.0078056767,-0.000117923104,-0.028662417,-0.15322891,0.076614454,-9.5385,0.7642693,47.701214,-0.8884635,-2.631659,-3.255519,-0.04667043,-0.002548681,-0.22866173,28.25,29.625,28.75,32.5,34.9375,36.0
0.048052024,-0.07679319,-0.2318463,-1.5476385,-0.031912033,0.05128101,-0.1833967,-0.38969737,-0.36847407,0.059860278,-3.0784054,0.6250198,-0.0002854991,-0.020408375,0.009201244,0.001024,0.00046872377,-0.00068519614,-0.0032657168,0.5042905,-1.3810129,1.9037355,-2.0916612,-1.5708655,2.4793782,-0.03448249,0.018163366,-0.025689494,0.008347628,-0.00012776139,-0.031204036,-0.05746084,0.095768064,-9.519346,0.72622824,47.66987,-0.85179394,-2.7065935,-3.2390938,-0.064676136,-0.013188364,-0.23604968,28.25,29.625,28.75,32.5,34.9375,36.0
0.050052572,0.29192224,-0.02667035,-1.4094938,-0.034668736,0.04902861,-0.18350126,-0.3897312,-0.3684452,0.059865143,-3.0783923,0.62507427,-0.0002595704,-0.021369291,0.010133534,0.0006317065,0.0013848768,-0.0006720556,-0.0034770267,0.5042181,-1.3810126,1.9037241,-2.0916612,-1.5708779,2.4793415,-0.036441658,0.019177454,-0.025914287,0.007991704,-0.0009379382,-0.03295011,0.019153614,0.17238252,-9.576807,0.7530795,47.67166,-0.79197675,-2.658595,-3.2613544,-0.04325446,-0.03164707,-0.2381351,28.25,29.625,28.75,32.5,34.9375,36.0
0.052052543,0.3204935,-0.18454535,-1.530225,-0.02745989,0.047439843,-0.1827935,-0.3897637,-0.36843154,0.05985692,-3.0783784,0.6250723,-0.0003142204,-0.022688845,0.010878495,0.0008062639,0.0015477064,-0.0005082859,-0.00439668,0.50415725,-1.3809524,1.9036635,-2.0916255,-1.570866,2.4792812,-0.03878512,0.019962132,-0.027379863,0.008608788,-0.0011632022,-0.034372807,0.076614454,0.17238252,-9.481039,0.7866488,47.668976,-0.74707896,-2.5520146,-3.259544,-0.031793945,-0.031571425,-0.25310427,28.25,29.625,28.75,32.5,34.9375,36.0
0.05405241,-0.019424625,-0.58719146,-1.3556107,-0.02485133,0.03447578,-0.1763784,-0.38983482,-0.3684114,0.05986837,-3.0783985,0.6251317,-0.00028542528,-0.022697762,0.011166065,0.0008889186,0.002051856,-0.0010307456,-0.002966013,0.5040495,-1.3809043,1.9035805,-2.091625,-1.5708541,2.479208,-0.03915495,0.019877631,-0.027725285,0.009740385,-0.0013500495,-0.036172993,0.11492168,0.22984336,-9.404425,0.75755644,47.704796,-0.7205435,-2.6364927,-3.2751188,-0.05020763,-0.019723069,-0.26098078,28.25,29.625,28.75,32.5,34.9375,36.0
0.05605163,0.14014018,-0.20972,-1.2609569,-0.029957095,0.039317008,-0.17662385,-0.38988093,-0.3683695,0.05986937,-3.078352,0.62514067,-0.0002507884,-0.0229654,0.01122387,0.0005338144,0.0026088187,-0.0018356774,-0.002027178,0.5039657,-1.3808798,1.9035438,-2.0916011,-1.5709018,2.4791358,-0.03943711,0.021247271,-0.028657543,0.010275104,-0.0014508942,-0.037393246,0.019153614,0.24899697,-9.3661175,0.7597976,47.696735,-0.8527745,-2.610002,-3.301723,-0.038603425,-0.025904959,-0.26042995,28.25,29.625,28.75,32.5,34.9375,36.0
0.058052547,-0.086275876,-0.12701494,-1.3057717,-0.026844183,0.033931494,-0.17886876,-0.38991544,-0.36836573,0.05986664,-3.078364,0.6251437,-0.00031523543,-0.024738338,0.01170988,0.0010838044,0.00210824,-0.0011581775,-0.003300462,0.50390476,-1.3808193,1.9034704,-2.091565,-1.570866,2.4790752,-0.041973416,0.022192908,-0.031201374,0.0110389525,-0.0013449894,-0.038655326,0.076614454,0.22984336,-9.32781,0.77545905,47.72719,-0.75842494,-2.6089292,-3.278307,-0.05193825,-0.029005904,-0.29237634,28.25,29.625,28.75,32.5,34.9375,36.0
0.060052477,0.3557353,-0.08735263,-1.3088106,-0.029581934,0.04686509,-0.18553518,-0.38999024,-0.36835444,0.05989613,-3.078407,0.6252104,-0.00024212702,-0.025661832,0.012117294,0.0015360117,0.0016251544,-0.0007287925,-0.0035799467,0.5038085,-1.3807955,1.903375,-2.091565,-1.5708541,2.479015,-0.043649282,0.022119617,-0.032263268,0.011564215,-0.00112821,-0.04005183,0.076614454,0.22984336,-9.442732,0.70608455,47.70659,-0.8094243,-2.5787325,-3.2258964,-0.054570287,-0.035348456,-0.27475527,28.25,29.625,28.75,32.5,34.9375,36.0
0.062052418,-0.40363982,-0.29655126,-1.1837872,-0.024831431,0.031161424,-0.17244624,-0.39002073,-0.36832404,0.0598825,-3.0784013,0.62511206,-0.0002597162,-0.026170962,0.012382484,0.0015611252,0.0016778962,-0.0009202896,-0.00378889,0.5037363,-1.3807592,1.9033631,-2.0915644,-1.570866,2.4788823,-0.044596102,0.022614153,-0.03300561,0.0120043475,-0.001083916,-0.040789425,-0.095768064,0.17238252,-9.442732,0.6948948,47.687782,-0.820832,-2.526315,-3.205976,-0.05340907,-0.039421894,-0.32696316,28.25,29.625,28.75,32.5,34.9375,36.0
0.06405223,0.36288214,0.18464407,-1.1875918,-0.034970585,0.06363849,-0.18267125,-0.39006108,-0.3682936,0.059893124,-3.078376,0.62516385,-0.00031533145,-0.026750334,0.012770924,0.0013711154,0.0018634188,-0.0016548657,-0.0018884491,0.50364,-1.3807348,1.9032911,-2.0914805,-1.5708541,2.4788215,-0.045904923,0.023588235,-0.03386488,0.012621624,-0.0008952284,-0.04399856,-0.17238252,0.15322891,-9.385271,0.71279734,47.684196,-0.816888,-2.5334184,-3.2022166,-0.054003105,-0.045220666,-0.30563903,28.25,29.625,28.75,32.5,34.9375,36.0
0.066051744,0.0033525198,0.12516215,-1.0946006,-0.025998998,0.077370465,-0.18929961,-0.39013103,-0.36826816,0.059912868,-3.0783873,0.62518495,-0.00028777655,-0.027278,0.013107267,0.0011067265,0.0022320861,-0.002428978,-0.0012895004,0.5035319,-1.3806984,1.9031948,-2.0914438,-1.5708541,2.4787252,-0.046988573,0.024748342,-0.034771685,0.013223707,-0.0008450473,-0.045680784,-0.22984336,0.11492168,-9.289502,0.74413085,47.691364,-0.76845556,-2.5749674,-3.2418318,-0.055664845,-0.069139756,-0.31719983,28.25,29.625,28.75,32.5,34.9375,36.0
0.06805199,-0.33639473,0.16477878,-1.0697886,-0.022726648,0.08405464,-0.17838943,-0.390218,-0.36824152,0.059910446,-3.0783782,0.6252018,-0.00018303405,-0.028149355,0.0134421615,0.0011106569,0.0022971127,-0.0025034822,-0.0027547958,0.5034357,-1.3806139,1.9031113,-2.091492,-1.5709018,2.4786408,-0.048344363,0.02570877,-0.036000375,0.013586458,-0.00086600665,-0.045570668,-0.22984336,0.15322891,-9.385271,0.73069996,47.703903,-0.75360566,-2.5376108,-3.2131424,-0.07163623,-0.066146865,-0.33974975,28.25,29.625,28.75,32.5,34.9375,36.0
0.070052005,-0.5435155,-0.04755763,-1.1840193,-0.01607065,0.086848535,-0.16839704,-0.39024413,-0.3682167,0.059897378,-3.078361,0.62519634,-0.00033185145,-0.029331284,0.013278872,0.0016522766,0.0015281638,-0.0011183171,0.00030968065,0.5033397,-1.3805536,1.9030508,-2.091408,-1.5708541,2.4785435,-0.049165413,0.026292633,-0.03785359,0.013273027,-0.0008710694,-0.049455237,-0.21068975,0.05746084,-9.423578,0.7463667,47.704796,-0.89062756,-2.578383,-3.2069843,-0.070636734,-0.0620603,-0.35451818,28.25,29.625,28.75,32.5,34.9375,36.0
0.072052106,-0.7919703,0.28083977,-0.93608475,-0.02369895,0.089189336,-0.1719424,-0.3902945,-0.36819673,0.059909813,-3.0783935,0.62506825,-0.00029173517,-0.030414196,0.014760593,0.001174754,0.0022741,-0.0020543346,0.00041752498,0.5032666,-1.3805294,1.9029912,-2.091396,-1.570866,2.4783864,-0.052538153,0.027096886,-0.037788354,0.013582763,-0.0010725344,-0.0529354,-0.3256114,0.05746084,-9.346964,0.74413085,47.67166,-0.7404254,-2.5034475,-3.2579432,-0.07965427,-0.07957235,-0.31477264,28.25,29.625,28.75,32.5,34.9375,36.0
0.07405185,-0.83773243,0.31292996,-1.0126133,-0.019142503,0.08975736,-0.17612678,-0.39038157,-0.36816248,0.05992347,-3.0783744,0.6251942,-0.0002515022,-0.030326921,0.014121126,0.0010785916,0.0023598822,-0.0022224619,0.006152735,0.5031352,-1.3804692,1.9028834,-2.0913723,-1.5708779,2.478336,-0.051374257,0.028169509,-0.038887568,0.013796412,-0.0010693073,-0.05750615,-0.4213795,0.019153614,-9.346964,0.75084364,47.693153,-0.7848946,-2.4553056,-3.2668853,-0.0854408,-0.0804569,-0.29912114,28.25,29.625,28.75,32.5,34.9375,36.0
0.07605209,-1.0858461,0.37017298,-1.0997459,-0.018562289,0.08873065,-0.1708649,-0.39041525,-0.36814705,0.059899602,-3.0783725,0.6251373,-0.00033407216,-0.031234236,0.014523713,0.0013778933,0.0021782592,-0.0018793456,0.004340213,0.5030629,-1.3803849,1.9028352,-2.0913599,-1.5708541,2.4782286,-0.052886713,0.028434929,-0.039985973,0.0142426165,-0.001079854,-0.057205576,-0.45968673,0.05746084,-9.270349,0.7239871,47.63046,-0.8968278,-2.4758291,-3.2251363,-0.08159315,-0.0810104,-0.2946175,28.25,29.625,28.75,32.5,34.9375,36.0
0.07805199,-0.83377886,0.29859832,-1.1381977,-0.015129031,0.092998244,-0.16938333,-0.39050907,-0.3681062,0.05991584,-3.0783925,0.6251585,-0.00029056388,-0.032281213,0.0149776265,0.0014309807,0.00218953,-0.0017936786,0.0065663285,0.50290674,-1.3803365,1.9027385,-2.091348,-1.5708541,2.4780831,-0.054582838,0.029353144,-0.04125795,0.014526181,-0.0011329344,-0.061127126,-0.40222588,0.0,-9.289502,0.7486078,47.701214,-0.8132503,-2.4387677,-3.2647123,-0.08176236,-0.095424145,-0.3125718,28.25,29.625,28.75,32.5,34.9375,36.0
0.080051936,-0.4764387,0.7364925,-1.1728941,-0.015324045,0.101040095,-0.17976657,-0.39053032,-0.3680631,0.059888624,-3.0783408,0.62505025,-0.0003950032,-0.033677287,0.016138766,0.0010133844,0.0028398042,-0.0027028008,0.00859029,0.5028218,-1.380276,1.9027151,-2.0912879,-1.570866,2.4779372,-0.05774796,0.031029606,-0.04242832,0.015128865,-0.0012743886,-0.06631515,-0.36391866,-0.076614454,-9.308657,0.7463667,47.672558,-0.76438534,-2.5041406,-3.2687182,-0.10910788,-0.109545305,-0.23805338,28.25,29.625,28.75,32.5,34.9375,36.0
0.0820523,-1.1293805,0.6757096,-1.0898364,-0.017441683,0.08140384,-0.1781589,-0.39060563,-0.36803207,0.059895515,-3.0783231,0.62496656,-0.00039946003,-0.033563096,0.015429593,0.0011969543,0.002720375,-0.0019789487,0.013742956,0.5027146,-1.3801916,1.9025835,-2.0912163,-1.5708903,2.47778,-0.056283716,0.03135452,-0.04316973,0.014851995,-0.0015245941,-0.070002675,-0.3256114,-0.095768064,-9.404425,0.784413,47.675243,-0.8498553,-2.486567,-3.2776692,-0.108729064,-0.10975192,-0.2065217,28.25,29.625,28.75,32.5,34.9375,36.0
0.08405222,-0.9158199,0.18454333,-1.0586717,-0.011710087,0.09315883,-0.17205858,-0.39067316,-0.36802837,0.059918787,-3.078387,0.62493956,-0.00035314233,-0.034602743,0.015835015,0.0012510956,0.0030279176,-0.0016569981,0.0153936045,0.5026303,-1.3801553,1.9024876,-2.0912163,-1.570866,2.477671,-0.057661038,0.032359935,-0.044534486,0.015079998,-0.0019490563,-0.073029235,-0.38307226,-0.038307227,-9.32781,0.74413085,47.64927,-0.9813448,-2.5054355,-3.2619026,-0.10002887,-0.1255173,-0.16170093,28.25,29.625,28.75,32.5,34.9375,36.0
0.086051665,-0.538826,0.7551722,-1.1832238,-0.020376991,0.10178432,-0.18524806,-0.39076617,-0.3679894,0.0599304,-3.0783927,0.62490165,-0.00032687245,-0.035381444,0.016766865,0.0011052855,0.0034799937,-0.001860138,0.016010007,0.5024858,-1.380083,1.9023675,-2.09118,-1.5708784,2.477502,-0.059756506,0.032674603,-0.044612695,0.015238737,-0.0022479456,-0.0757405,-0.36391866,-0.038307227,-9.308657,0.71279734,47.658226,-0.9028523,-2.492917,-3.2868223,-0.11654225,-0.11695784,-0.12315503,28.25,29.625,28.75,32.5,34.9375,36.0
0.08805157,-0.66147035,0.38912058,-1.2769095,-0.018922169,0.08444509,-0.17159232,-0.39083773,-0.36795062,0.05993273,-3.078401,0.6248246,-0.00034063277,-0.03694473,0.016540954,0.0017493423,0.0031190144,-0.00012392996,0.01724931,0.50235397,-1.3800226,1.9022826,-2.0911443,-1.5708784,2.4773211,-0.060493007,0.0338827,-0.047507007,0.0152307395,-0.0027760204,-0.07771391,-0.30645782,0.0,-9.346964,0.76874626,47.655537,-0.90900266,-2.4849474,-3.210359,-0.13338724,-0.12934059,-0.08141902,28.25,29.625,28.75,32.5,34.9375,36.0
0.09005255,-0.47043857,0.31947953,-1.0538844,-0.031312868,0.08625731,-0.17290737,-0.39089468,-0.36791307,0.059915908,-3.078391,0.6247452,-0.00035730025,-0.03778532,0.017049562,0.0012702029,0.0038437643,0.0002056344,0.01650795,0.5022458,-1.3799502,1.9022354,-2.0911448,-1.5708913,2.4771647,-0.061626077,0.03525062,-0.04780958,0.014226992,-0.003575198,-0.078103565,-0.34476504,0.038307227,-9.289502,0.75084364,47.703007,-0.9260319,-2.555762,-3.174576,-0.14781596,-0.12258695,-0.073666364,28.25,29.625,28.75,32.5,34.9375,36.0
0.09205253,-0.9686064,0.0723877,-1.0963912,-0.024792874,0.066844836,-0.16574852,-0.39098394,-0.3678626,0.059914146,-3.0783525,0.62485325,-0.00038799102,-0.037334614,0.018069046,-6.736955e-05,0.005865247,-0.0019363804,0.015328715,0.5020778,-1.3798656,1.9021286,-2.091097,-1.5708913,2.4770691,-0.0624509,0.036414735,-0.046152364,0.014258368,-0.0043147733,-0.07774811,-0.34476507,0.019153614,-9.404425,0.7463667,47.709274,-0.95635056,-2.4867015,-3.303809,-0.1532439,-0.12085942,-0.06171342,28.25,29.625,28.75,32.5,34.9375,36.0
0.09405266,0.340498,0.63918656,-1.130514,-0.035396207,0.091198266,-0.18480918,-0.39105988,-0.36783302,0.059922695,-3.0783823,0.6247437,-0.00037367933,-0.039229084,0.018124098,0.0005641827,0.005816121,8.310865e-05,0.013617051,0.5019577,-1.379805,1.9020318,-2.0910728,-1.5708917,2.476877,-0.063712195,0.03776426,-0.049156953,0.014122408,-0.0052496586,-0.07729453,-0.30645782,0.038307227,-9.442732,0.800085,47.71286,-1.0055437,-2.518936,-3.2931519,-0.14991318,-0.101252586,-0.06733472,28.25,29.625,28.75,32.5,34.9375,36.0
0.09605222,-0.65207094,-0.31829596,-1.3422598,-0.014497425,0.06336165,-0.16074781,-0.39113212,-0.36779788,0.059910573,-3.078342,0.6246401,-0.00036739936,-0.0406915,0.018526303,0.0015547222,0.006507525,0.0026358608,0.011634289,0.5018617,-1.3796971,1.9019235,-2.0910366,-1.5709404,2.4767215,-0.06459165,0.037535507,-0.05123494,0.014526561,-0.007089887,-0.076186635,-0.19153613,0.1340753,-9.232041,0.7642693,47.694946,-1.0506641,-2.5428967,-3.200978,-0.15349467,-0.088189006,-0.06318352,28.25,29.625,28.75,32.5,34.9375,36.0
0.098051906,-0.7249587,-0.30308104,-1.3867614,-0.014093076,0.05637359,-0.15777318,-0.39123598,-0.3677781,0.059936833,-3.0784004,0.6246719,-0.00030610934,-0.04214857,0.019378087,0.0012831083,0.00947491,0.0038442032,0.009348939,0.5017176,-1.3796363,1.9017919,-2.0910366,-1.5709175,2.47659,-0.06538203,0.03973679,-0.053270943,0.014741735,-0.01027072,-0.07468493,-0.1340753,0.095768064,-9.308656,0.7732232,47.684196,-1.0652944,-2.531683,-3.131029,-0.1755897,-0.07562515,-0.08863488,28.25,29.625,28.75,32.5,34.9375,36.0
0.100052275,0.1371076,0.31346998,-1.3934771,-0.031309884,0.076406054,-0.1832448,-0.39131477,-0.36773673,0.059941873,-3.0783877,0.6245554,-0.00028452315,-0.04213987,0.021246785,0.00032502593,0.012602375,0.0026290226,0.006023939,0.50159734,-1.3795642,1.9016842,-2.0909884,-1.5709537,2.4763987,-0.06716664,0.039943166,-0.051463213,0.01530127,-0.012423785,-0.07314103,-0.13407528,0.1340753,-9.3661175,0.779936,47.683304,-1.0906706,-2.5803227,-3.293563,-0.1783945,-0.022843631,-0.11098802,28.25,29.625,28.75,32.5,34.9375,36.0
0.10205259,0.29599458,-0.008524489,-1.2960824,-0.042614978,0.08203087,-0.17536205,-0.3913701,-0.3676655,0.05991222,-3.0782864,0.6246122,-0.00038900907,-0.04310782,0.021358283,0.0006936799,0.012370032,0.0030650976,0.0035745848,0.50144124,-1.3794798,1.9016355,-2.0909164,-1.570978,2.476291,-0.068236135,0.040617276,-0.05323972,0.015906332,-0.012439811,-0.071759045,0.0,0.1340753,-9.442732,0.7642693,47.691364,-1.0877707,-2.4677885,-3.331646,-0.18095934,0.016596256,-0.16542941,28.25,29.625,28.75,32.5,34.9375,36.0
0.10405243,-0.32545364,-0.8622294,-1.3646693,-0.0452315,0.048970796,-0.1621168,-0.3914924,-0.36765033,0.05994284,-3.0783455,0.6245865,-0.000265058,-0.04376987,0.02112889,0.0003841763,0.010934398,0.0012893515,0.0010758273,0.501309,-1.379395,1.9014682,-2.0909283,-1.570989,2.4761353,-0.06976716,0.042557925,-0.05498597,0.01656937,-0.010322888,-0.07079565,-0.019153614,0.19153613,-9.3661175,0.7642693,47.73614,-1.1347321,-2.5707939,-3.2568638,-0.20629953,-0.002952062,-0.17947994,28.25,29.625,28.75,32.5,34.9375,36.0
0.10605196,0.65545243,-0.87029636,-1.5672288,-0.057903543,0.05389313,-0.16591927,-0.39158118,-0.3675703,0.059923377,-3.0782528,0.6246645,-0.0002618762,-0.044538397,0.02062047,0.00068346784,0.0072374796,0.00045094843,-0.0015573278,0.50112873,-1.379311,1.9014076,-2.0909045,-1.5710481,2.4760156,-0.07187986,0.042970035,-0.056071825,0.016183171,-0.006684813,-0.07028139,-0.038307227,0.28730422,-9.3661175,0.7351769,47.707485,-1.0628064,-2.5791185,-3.2294195,-0.20306155,-0.037866846,-0.23752145,28.25,29.625,28.75,32.5,34.9375,36.0
0.108051725,1.1313511,-0.4820958,-1.361396,-0.07092988,0.05413978,-0.1771044,-0.3916438,-0.36754802,0.05992175,-3.0782602,0.6245489,-0.00029370407,-0.04480364,0.020295534,0.000869771,0.005068316,-0.0003070342,0.00027260257,0.5010325,-1.3792268,1.9013008,-2.0908563,-1.5710472,2.4758463,-0.07297879,0.043048535,-0.056609195,0.016255058,-0.004422842,-0.07321441,-0.019153614,0.30645782,-9.481039,0.82022345,47.71554,-1.1033485,-2.5173907,-3.2798285,-0.20827429,-0.04855693,-0.23123142,28.25,29.625,28.75,32.5,34.9375,36.0
0.11005261,0.64434975,-0.6919621,-1.426134,-0.0645737,0.040919315,-0.17300569,-0.3917697,-0.36753812,0.05995672,-3.0783513,0.62454915,-0.0002169672,-0.045448996,0.020163368,0.000535073,0.00447791,-0.0010872823,-0.0022798523,0.5008765,-1.3791422,1.901121,-2.0908563,-1.571011,2.475679,-0.07389371,0.044799823,-0.05791348,0.016208174,-0.0035259756,-0.07157821,0.0,0.30645782,-9.442732,0.8090337,47.694054,-1.1192038,-2.5903196,-3.2649984,-0.2238962,-0.08005651,-0.27593598,28.25,29.625,28.75,32.5,34.9375,36.0
0.112052426,0.60934705,-0.13564189,-1.2807521,-0.054961845,0.058362372,-0.17429566,-0.3918574,-0.36748055,0.059944887,-3.078294,0.6245756,-0.00022500801,-0.046326615,0.020260524,0.00012525963,0.0045180083,-0.0014934612,-0.0040123966,0.5007205,-1.3790452,1.9010252,-2.0908206,-1.5710467,2.4755468,-0.074954234,0.046788845,-0.059283614,0.015961437,-0.0033725128,-0.07090548,-0.076614454,0.28730422,-9.3661175,0.76874626,47.707485,-1.2105833,-2.6440887,-3.2090821,-0.22909084,-0.08061585,-0.31410113,28.25,29.625,28.75,32.5,34.9375,36.0
0.11405246,0.6356682,0.31119356,-1.2341444,-0.04681636,0.085692644,-0.17710735,-0.39190662,-0.36743096,0.05992139,-3.0782566,0.6245474,-0.00036199266,-0.04708419,0.020547457,0.0014458204,0.0036659676,0.00028048945,-0.002380506,0.5005765,-1.3789619,1.9009637,-2.0907485,-1.5710229,2.47539,-0.07605911,0.044845246,-0.060192358,0.01684931,-0.003485031,-0.07364174,-0.095768064,0.22984336,-9.461885,0.65908957,47.721813,-1.1436301,-2.5355692,-3.2457085,-0.2322281,-0.082198404,-0.32836694,28.25,29.625,28.75,32.5,34.9375,36.0
0.11605168,-0.3110152,0.081925936,-1.340221,-0.025349181,0.0752279,-0.16095829,-0.39202237,-0.3674136,0.059931457,-3.0782866,0.6245942,-0.00032092832,-0.048035853,0.021141421,0.0009613169,0.0038702192,-0.00071266893,-0.007463642,0.5004323,-1.378841,1.9007977,-2.0907485,-1.5710105,2.4752712,-0.07810874,0.046608374,-0.061239894,0.017103387,-0.0031846974,-0.070608325,-0.11492168,0.15322891,-9.308656,0.7978386,47.68599,-1.2687056,-2.462104,-3.25744,-0.23814446,-0.09542571,-0.40531462,28.25,29.625,28.75,32.5,34.9375,36.0
0.11805259,-0.55937296,0.3361945,-1.2895106,-0.032575082,0.06457544,-0.16956934,-0.39211643,-0.3673724,0.059946,-3.0782828,0.6246114,-0.00032087322,-0.048520938,0.021568993,0.00080074806,0.004511898,-0.0013713837,-0.006589542,0.5002761,-1.3787689,1.9006656,-2.0906885,-1.571011,2.4751263,-0.0791075,0.047517143,-0.062155224,0.017995559,-0.0034330778,-0.07248027,-0.1340753,0.21068975,-9.346964,0.80679786,47.695843,-1.0955966,-2.5301137,-3.295866,-0.2495015,-0.07910158,-0.4559422,28.25,29.625,28.75,32.5,34.9375,36.0
0.12005197,-0.13356839,0.14346893,-1.2606555,-0.036311388,0.07539915,-0.16772059,-0.39219207,-0.36732155,0.059922773,-3.078249,0.6245826,-0.0003936982,-0.049007624,0.021374723,6.729229e-05,0.005263296,-0.0020799742,-0.0025887683,0.50012046,-1.3786598,1.9005812,-2.0906527,-1.571011,2.474957,-0.07901392,0.05015188,-0.063553065,0.017740274,-0.0037635164,-0.07638558,-0.15322891,0.038307227,-9.3661175,0.800085,47.691364,-1.3646746,-2.5751517,-3.2879443,-0.26084358,-0.10262452,-0.4481604,28.25,29.625,28.75,32.5,34.9375,36.0
0.122051746,-0.57357275,0.023676291,-1.3468139,-0.031813473,0.070975564,-0.16125521,-0.39231542,-0.36727536,0.05994808,-3.0782492,0.624563,-0.0003134138,-0.051313296,0.023134155,0.0006189212,0.005071077,-0.00039203576,-0.003883359,0.49995112,-1.3785758,1.9004134,-2.0906055,-1.5710472,2.4747756,-0.083686784,0.049767394,-0.06424259,0.017238615,-0.0044064783,-0.07976243,-0.3256114,-0.05746084,-9.442732,0.75084364,47.655537,-1.2007895,-2.6723557,-3.2850966,-0.27082184,-0.08033122,-0.46267897,28.25,29.625,28.75,32.5,34.9375,36.0
0.12405181,-0.1223695,1.017659,-1.2404227,-0.03449591,0.09451937,-0.17406353,-0.39242095,-0.36721742,0.059928156,-3.0782335,0.6246105,-0.00035436236,-0.051350627,0.022069914,0.002018083,0.0044313944,0.0021414333,0.0065698186,0.4997485,-1.3784562,1.9003171,-2.090605,-1.5710353,2.4746046,-0.08149751,0.048394136,-0.06592415,0.017763032,-0.005068751,-0.08802448,-0.21068975,-0.076614454,-9.500193,0.80456203,47.672558,-1.2729506,-2.431337,-3.2475266,-0.2730012,-0.10555743,-0.42427266,28.25,29.625,28.75,32.5,34.9375,36.0
0.12605238,-0.2918425,0.88601375,-1.0587339,-0.0155747235,0.11499382,-0.18187198,-0.39250988,-0.36719906,0.05991962,-3.0782492,0.6245348,-0.00038336305,-0.05279501,0.022965169,0.0015272575,0.0054234243,0.0017361147,0.008312596,0.49962792,-1.3783233,1.9001735,-2.0905807,-1.5710233,2.4744349,-0.08389897,0.050602544,-0.06746651,0.017929684,-0.005752001,-0.0921663,-0.34476504,-0.095768064,-9.3661175,0.76874626,47.668976,-1.3402598,-2.4373767,-3.2375207,-0.2719698,-0.09503245,-0.4086383,28.25,29.625,28.75,32.5,34.9375,36.0
0.12805243,-0.5400318,1.0630158,-1.2088702,-0.0030141645,0.12358048,-0.17676592,-0.39264575,-0.36716196,0.05997649,-3.0783007,0.62450206,-0.00027196182,-0.053139195,0.024206948,0.00081870233,0.0069401073,-0.00016601953,0.014411561,0.4994476,-1.3782748,1.8999704,-2.0905087,-1.5710357,2.4742277,-0.08602526,0.051631797,-0.067358926,0.019185673,-0.0061659967,-0.10039122,-0.45968673,-0.038307227,-9.3661175,0.7284641,47.694054,-1.3730199,-2.5446787,-3.3480744,-0.29281986,-0.101397514,-0.36370403,28.25,29.625,28.75,32.5,34.9375,36.0
0.13005204,-0.83942974,0.9301243,-1.2756218,0.006808858,0.12317145,-0.16320232,-0.39275333,-0.36709812,0.05994823,-3.0782537,0.6244897,-0.0003040444,-0.055774786,0.023582533,0.002668149,0.005541194,0.004058984,0.019441493,0.49925587,-1.3781306,1.8998612,-2.0904968,-1.5710601,2.4740343,-0.08688231,0.05221618,-0.07224853,0.019109134,-0.006980137,-0.10627421,-0.3256114,-0.095768064,-9.3661175,0.77545905,47.682407,-1.3628078,-2.4462228,-3.0757327,-0.30186066,-0.081820264,-0.27676368,28.25,29.625,28.75,32.5,34.9375,36.0
0.13205254,-0.36946148,1.1768752,-1.2178334,-0.0050463034,0.13102598,-0.17649965,-0.3928713,-0.36706862,0.05995935,-3.0783105,0.62438434,-0.00032851103,-0.05635587,0.025869407,0.0013526176,0.0071385372,0.0019437742,0.020266073,0.49907464,-1.3780102,1.8996824,-2.090449,-1.5710238,2.4737802,-0.09100287,0.052919794,-0.0700262,0.018807381,-0.007367551,-0.111219406,-0.36391866,-0.15322891,-9.32781,0.8179876,47.67345,-1.1600163,-2.4796264,-3.2786145,-0.3183585,-0.08517368,-0.21543913,28.25,29.625,28.75,32.5,34.9375,36.0
0.1340525,-1.0720216,0.6393493,-1.4600832,-0.010793623,0.11034406,-0.16677412,-0.3929634,-0.3670018,0.059950415,-3.078274,0.62421954,-0.00033839466,-0.056645792,0.025157765,0.0016872616,0.0075095687,0.0028848953,0.025424037,0.4989074,-1.377914,1.8995751,-2.090389,-1.5710725,2.4735148,-0.089566626,0.053844538,-0.07196993,0.019172395,-0.008154974,-0.11493827,-0.61291564,-0.1340753,-9.385271,0.800085,47.66808,-1.3755702,-2.4598353,-3.2566848,-0.33967432,-0.06542557,-0.1731739,28.25,29.625,28.75,32.5,34.9375,36.0
0.13605179,-0.3927543,0.78179896,-1.3149283,-0.03369061,0.12652992,-0.17560937,-0.3931118,-0.36694947,0.059976757,-3.0782945,0.6242634,-0.00025531364,-0.060329232,0.026746554,0.0016845398,0.007816391,0.0039944835,0.020882608,0.4986901,-1.3778166,1.8993944,-2.0903647,-1.5710849,2.4733224,-0.09511076,0.057122655,-0.07578609,0.018882174,-0.008958093,-0.11593777,-0.6512229,-0.05746084,-9.423578,0.79560274,47.678825,-1.2268581,-2.6029625,-3.0991244,-0.3203807,-0.061959065,-0.13278656,28.25,29.625,28.75,32.5,34.9375,36.0
0.13805164,-1.4517537,0.37998846,-1.4496064,-0.033737153,0.10044421,-0.16790885,-0.39316675,-0.36688042,0.059920855,-3.0782192,0.6241325,-0.00044352046,-0.05924716,0.02669814,0.001743315,0.0073174573,0.003339314,0.01970812,0.4985228,-1.377673,1.8993353,-2.0902932,-1.5710844,2.473083,-0.09447904,0.055442568,-0.073985964,0.019095574,-0.008219082,-0.1141328,-0.7278373,0.0,-9.557653,0.7866488,47.65106,-1.3576448,-2.42578,-3.1967435,-0.32024735,-0.06511928,-0.16083285,28.25,29.625,28.75,32.5,34.9375,36.0
0.14005245,-0.92571294,-0.53054285,-1.6852368,-0.028408539,0.11335032,-0.15576431,-0.3933194,-0.3668363,0.059951693,-3.0782444,0.62410355,-0.00032201337,-0.06081334,0.027521722,0.00203242,0.0064678844,0.0030594766,0.012016853,0.49833006,-1.3775647,1.8991312,-2.0902689,-1.5711201,2.4728692,-0.09783165,0.056160487,-0.0756836,0.019907998,-0.0073301424,-0.10979588,-0.6895301,0.038307227,-9.557653,0.7933669,47.64389,-1.2497882,-2.3949454,-3.2274735,-0.32716417,-0.07005577,-0.183592,28.25,29.625,28.75,32.5,34.9375,36.0
0.1420517,-1.0984008,-0.18584801,-1.492136,-0.049259707,0.11006267,-0.16175994,-0.39342636,-0.36676887,0.059936527,-3.078208,0.62408066,-0.00037019927,-0.06261078,0.028695162,0.0013944621,0.0066592633,0.0016757573,0.0036999388,0.49812505,-1.3774438,1.8990115,-2.0902207,-1.5711316,2.4726546,-0.10174511,0.058787573,-0.07745369,0.020355398,-0.006842527,-0.10539204,-0.57460845,-0.019153614,-9.481039,0.8179876,47.666286,-1.0618613,-2.485907,-3.1681936,-0.3430258,-0.080020666,-0.24239668,28.25,29.625,28.75,32.5,34.9375,36.0
0.14405257,-0.7786702,-0.1309082,-1.7307491,-0.039376937,0.11087002,-0.16051759,-0.3935785,-0.36671206,0.05995456,-3.0782213,0.62408376,-0.00031526803,-0.06369813,0.029166546,0.0011215848,0.0063002827,0.0015666703,-0.00042235747,0.49789703,-1.377323,1.8988193,-2.090185,-1.571144,2.472427,-0.103736944,0.06010511,-0.07826953,0.019774893,-0.006473442,-0.10326202,-0.7278373,0.095768064,-9.519346,0.83813137,47.67793,-1.0521698,-2.5773215,-3.198842,-0.36089987,-0.088186234,-0.31841043,28.25,29.625,28.75,32.5,34.9375,36.0
0.1460561,-0.8756537,0.0994327,-1.4945853,-0.043830823,0.10849251,-0.16063605,-0.39370084,-0.36664855,0.059954055,-3.078204,0.62408024,-0.0002912022,-0.06589453,0.030194012,0.0026323244,0.0049471217,0.004970014,-0.003118273,0.49769232,-1.3772156,1.8986877,-2.090161,-1.5711678,2.4722223,-0.10718543,0.058267023,-0.07937616,0.019080685,-0.0069140014,-0.104013465,-0.61291564,0.038307227,-9.5385,0.7642693,47.66987,-1.0326596,-2.3949301,-3.2601032,-0.34233356,-0.0830243,-0.31073093,28.25,29.625,28.75,32.5,34.9375,36.0
0.14805184,-0.94499856,-0.031007703,-1.5090468,-0.032680016,0.110909924,-0.16486053,-0.39383355,-0.36659968,0.05994776,-3.0781999,0.62405956,-0.00030633074,-0.06665684,0.031070791,0.001519268,0.006282775,0.0036827626,-0.003622851,0.49748814,-1.3770586,1.898508,-2.0901258,-1.5711683,2.4720058,-0.10898324,0.06070706,-0.079656415,0.018689595,-0.007476709,-0.105304904,-0.51714754,0.095768064,-9.576807,0.83365434,47.684196,-0.8604641,-2.4444616,-3.2447743,-0.3296158,-0.069570735,-0.33931822,28.25,29.625,28.75,32.5,34.9375,36.0
0.15005186,-1.2222862,0.44065508,-1.3799996,-0.032982036,0.10625683,-0.1627275,-0.39397535,-0.36652747,0.05994941,-3.0781841,0.62413335,-0.00030876382,-0.067712486,0.031457864,0.0017956652,0.0065215346,0.0048065553,-0.005166011,0.49723616,-1.3769383,1.8983535,-2.09009,-1.5711683,2.471802,-0.11010676,0.061167244,-0.08079264,0.018492956,-0.008225385,-0.104883134,-0.59376204,0.038307227,-9.461885,0.8247004,47.70838,-0.8493887,-2.4736266,-3.2601943,-0.34364304,-0.082913294,-0.36996502,28.25,29.625,28.75,32.5,34.9375,36.0
0.1520517,-0.8016831,0.5218575,-1.5340747,-0.03182566,0.123448454,-0.16099374,-0.39409956,-0.3664856,0.05995722,-3.078216,0.62406135,-0.0003068865,-0.070011824,0.031211859,0.003299296,0.0049945805,0.00804279,-0.0042173206,0.49704406,-1.3768183,1.8981851,-2.0900538,-1.5711564,2.471561,-0.111645006,0.061432876,-0.08450663,0.018367952,-0.008434833,-0.10736821,-0.63206923,0.095768064,-9.404425,0.7911258,47.703903,-0.8850925,-2.4078403,-3.1731305,-0.32920426,-0.054777376,-0.37534875,28.25,29.625,28.75,32.5,34.9375,36.0
0.15405223,-0.08666247,0.7426217,-1.3497462,-0.026478594,0.13604668,-0.17787679,-0.39424106,-0.36642405,0.05997246,-3.0781796,0.6240924,-0.00024544648,-0.06963606,0.03165264,0.002203392,0.0054064067,0.005813457,-0.0053712754,0.49684036,-1.3766977,1.8979939,-2.0899942,-1.5712045,2.4713814,-0.11244833,0.06265987,-0.08344233,0.01822352,-0.0077299005,-0.10701938,-0.4213795,0.05746084,-9.442732,0.76874626,47.71823,-0.9257508,-2.3973446,-3.2083945,-0.3329621,-0.06472406,-0.41574568,28.25,29.625,28.75,32.5,34.9375,36.0
0.15605213,-0.11172724,0.6943785,-1.3302876,-0.02229129,0.118438914,-0.17018145,-0.39441302,-0.36636856,0.05999608,-3.0782228,0.62407637,-0.00017453308,-0.07035145,0.031053888,0.002654425,0.0036820855,0.006453716,0.0014032054,0.49658874,-1.3765653,1.8977779,-2.0899704,-1.5712041,2.4711144,-0.11280749,0.06319958,-0.08503995,0.017887177,-0.0065201274,-0.11415521,-0.3256114,0.019153614,-9.442732,0.7911258,47.691364,-0.9767963,-2.4322252,-3.2662556,-0.34561884,-0.07062925,-0.38869196,28.25,29.625,28.75,32.5,34.9375,36.0
0.15805209,0.016367279,0.502362,-1.4335228,-0.016989928,0.10275588,-0.17152025,-0.39453757,-0.36627826,0.05995981,-3.0781534,0.62409675,-0.00023738461,-0.07212921,0.030134294,0.0036289445,0.0021765232,0.008868053,0.006087114,0.49633723,-1.3764087,1.8976692,-2.0899465,-1.5712279,2.4708846,-0.11295711,0.06465295,-0.08888863,0.017435126,-0.00636569,-0.11898682,-0.22984336,0.019153614,-9.404425,0.7620334,47.67345,-1.0012288,-2.4027576,-3.0811114,-0.3311888,-0.08545762,-0.3377325,28.25,29.625,28.75,32.5,34.9375,36.0
0.16005191,0.14489512,0.8198495,-1.4374273,-0.020411888,0.08580224,-0.17681873,-0.39466864,-0.36622596,0.059972346,-3.078177,0.62404114,-0.0001574557,-0.073535435,0.032121427,0.003186869,0.002915141,0.008368427,0.009841476,0.4961438,-1.3763124,1.8975266,-2.089947,-1.5712517,2.4706535,-0.11730494,0.06504618,-0.088312335,0.017249683,-0.0067744646,-0.12708864,-0.24899697,-0.019153614,-9.442732,0.7933669,47.682407,-0.8547536,-2.3186285,-3.2018251,-0.309591,-0.083752155,-0.28526765,28.25,29.625,28.75,32.5,34.9375,36.0
0.16205199,0.5399559,0.6261494,-1.4503713,-0.022095384,0.08365548,-0.16867605,-0.39483467,-0.36615878,0.05998098,-3.0781674,0.6240315,-0.00012014339,-0.07321664,0.031045368,0.0035101688,0.0031158437,0.009244591,0.020337434,0.49589363,-1.3761561,1.8973106,-2.0898983,-1.5712761,2.4703987,-0.11478897,0.065512456,-0.08965294,0.017441837,-0.0073720547,-0.13506691,-0.1340753,0.038307227,-9.423578,0.8627467,47.70032,-1.1235076,-2.3490736,-3.1373754,-0.2940338,-0.072508655,-0.23042437,28.25,29.625,28.75,32.5,34.9375,36.0
0.1640526,0.44172937,0.03284224,-1.5414749,-0.010091216,0.067364156,-0.15755011,-0.39498165,-0.3660796,0.059989836,-3.078149,0.6239901,-0.0001119621,-0.07468001,0.032833267,0.0030086692,0.0033649849,0.008039805,0.018391369,0.49564043,-1.3760357,1.8971313,-2.0898268,-1.5712999,2.470122,-0.11932133,0.066473156,-0.089722276,0.01772094,-0.0070192753,-0.13765371,-0.11492168,0.038307227,-9.423578,0.8179876,47.69763,-0.8249055,-2.3336985,-3.2623773,-0.2708894,-0.09462844,-0.12494953,28.25,29.625,28.75,32.5,34.9375,36.0
0.16605256,0.17880486,-0.25681567,-1.702029,-0.018417437,0.056179967,-0.15608476,-0.3951534,-0.3660281,0.059998345,-3.078199,0.6239777,-5.5180146e-05,-0.074618876,0.032747682,0.0029058268,0.0033579837,0.007303697,0.020701036,0.49538904,-1.3758793,1.8969291,-2.0898387,-1.571288,2.4698567,-0.119302936,0.06697921,-0.090247974,0.018382203,-0.006654691,-0.13994591,-0.114921674,0.095768064,-9.500193,0.85155696,47.672558,-1.0156448,-2.3486133,-3.2748344,-0.2724547,-0.08919571,-0.08020145,28.25,29.625,28.75,32.5,34.9375,36.0
0.16805261,0.48211497,-0.22010002,-1.7023449,-0.039316814,0.061550986,-0.16138051,-0.39528018,-0.36594105,0.059985455,-3.0781517,0.62387455,-9.17088e-05,-0.07492606,0.033614498,0.001971239,0.0051252195,0.005464029,0.015637456,0.49514925,-1.3757466,1.8967847,-2.0897663,-1.5713247,2.4695587,-0.12058736,0.06890497,-0.09061986,0.019284967,-0.0073393215,-0.13616459,-0.05746084,0.17238252,-9.308657,0.7709874,47.690468,-1.0029576,-2.341411,-3.2999012,-0.28413215,-0.08943987,-0.12882954,28.25,29.625,28.75,32.5,34.9375,36.0
0.17005232,0.48364544,-0.7240933,-1.677658,-0.03142642,0.062471107,-0.15673709,-0.39545614,-0.36588258,0.060003523,-3.0781875,0.6238449,-9.036783e-06,-0.07649888,0.03440186,0.0024759097,0.0057585714,0.006860426,0.008678591,0.49489728,-1.3756022,1.8965696,-2.0897548,-1.5713366,2.4692838,-0.12255187,0.0693893,-0.09244468,0.019701658,-0.008551583,-0.1311675,-0.11492168,0.22984336,-9.270349,0.7642693,47.66271,-1.082541,-2.3095694,-3.161511,-0.2843981,-0.07625066,-0.16437265,28.25,29.625,28.75,32.5,34.9375,36.0
0.17205212,0.20455816,-0.601748,-1.7650852,-0.040850986,0.04911866,-0.15798144,-0.3955933,-0.36580205,0.060001086,-3.0781302,0.62387335,-1.8346074e-05,-0.076292045,0.03329115,0.0020936602,0.0050181155,0.0059995935,0.0053721806,0.49465826,-1.3754696,1.8964013,-2.0896823,-1.5713719,2.46907,-0.121115126,0.071287476,-0.093806274,0.019563884,-0.0074958354,-0.12642536,0.076614454,0.24899697,-9.308656,0.7665104,47.66987,-1.1762842,-2.365473,-3.2040787,-0.2727121,-0.06285591,-0.21743637,28.25,29.625,28.75,32.5,34.9375,36.0
0.17405218,0.29214057,-0.7132148,-1.4168255,-0.04366279,0.052538313,-0.162629,-0.39574012,-0.3657596,0.060006212,-3.0781589,0.6238058,8.067168e-06,-0.07852439,0.035051115,0.0022870344,0.0045152823,0.006250189,-0.0030136502,0.49445266,-1.3753133,1.8961986,-2.0896585,-1.5713719,2.4688187,-0.12627956,0.07175191,-0.09483035,0.01966382,-0.007168953,-0.12320434,0.095768064,0.24899697,-9.423578,0.83813137,47.698532,-0.9947127,-2.310522,-3.2792654,-0.27445373,-0.064651735,-0.3258942,28.25,29.625,28.75,32.5,34.9375,36.0
0.1760524,-0.04366266,-0.80570805,-1.6697689,-0.04883685,0.03931493,-0.14643471,-0.39590096,-0.3656865,0.060013406,-3.0781682,0.6237874,4.639235e-05,-0.07758908,0.034248803,0.0016785234,0.004970137,0.004887285,-0.0030442572,0.4941901,-1.3751806,1.8960193,-2.0896342,-1.5713838,2.4685435,-0.12418896,0.07300545,-0.09502302,0.020015793,-0.00691778,-0.12108357,0.05746084,0.28730422,-9.404425,0.8179876,47.68599,-1.1687273,-2.332842,-3.2645202,-0.2464816,-0.07198473,-0.3363184,28.25,29.625,28.75,32.5,34.9375,36.0
0.17805246,0.35096774,-0.43108034,-1.4683847,-0.05312602,0.048051927,-0.15297456,-0.39606008,-0.3656274,0.06001793,-3.078192,0.623754,4.759263e-05,-0.078421526,0.034779735,0.0018162275,0.005018964,0.005215905,-0.005849188,0.493938,-1.3750243,1.8958153,-2.089598,-1.5713719,2.4682677,-0.12567557,0.07332176,-0.09575656,0.020168234,-0.0071152607,-0.11976464,0.038307227,0.30645782,-9.404425,0.80456203,47.6636,-1.1888746,-2.3437624,-3.2964873,-0.24249661,-0.058181487,-0.39923498,28.25,29.625,28.75,32.5,34.9375,36.0
0.18005235,0.10595824,-0.7124074,-1.3297228,-0.041050788,0.048798364,-0.1558382,-0.39620376,-0.36553964,0.060000747,-3.0781178,0.62379694,-1.5743102e-05,-0.08045259,0.034971654,0.0015722234,0.0049247164,0.005133857,-0.008630416,0.493674,-1.3748552,1.8956345,-2.0895145,-1.5713958,2.46804,-0.12787959,0.07669243,-0.09924923,0.020313168,-0.007008359,-0.11918527,0.076614454,0.2681506,-9.346964,0.8157518,47.657326,-1.0819311,-2.3304844,-3.24656,-0.23765045,-0.08391962,-0.48352706,28.25,29.625,28.75,32.5,34.9375,36.0
0.1820523,0.36100763,-0.41171935,-1.5886139,-0.03564581,0.06399265,-0.17154902,-0.3963657,-0.36549202,0.060049582,-3.0781739,0.6238637,0.000111600726,-0.079680145,0.035651892,0.0015609533,0.004838888,0.0044706003,-0.006793788,0.49344626,-1.3747838,1.8954333,-2.0894907,-1.5713958,2.4678469,-0.128527,0.074706316,-0.096911,0.020499839,-0.006601124,-0.12167211,0.05746084,0.24899697,-9.32781,0.7486078,47.64479,-1.1686254,-2.4404025,-3.3883595,-0.199711,-0.068320006,-0.50319827,28.25,29.625,28.75,32.5,34.9375,36.0
0.18405212,0.99055254,0.4736631,-1.2268665,-0.047939006,0.08498176,-0.17649361,-0.39652538,-0.36541444,0.060008854,-3.078142,0.6238325,3.961167e-05,-0.08216602,0.035343934,0.0034779736,0.003183768,0.007906328,-0.0010697318,0.4931702,-1.3745555,1.8952521,-2.0894787,-1.5713958,2.4675555,-0.13011026,0.07474768,-0.101502515,0.021234054,-0.006788747,-0.12897696,-0.019153614,0.21068975,-9.346964,0.8403672,47.67166,-1.1084458,-2.1314063,-3.2841058,-0.20559056,-0.090035275,-0.50271165,28.25,29.625,28.75,32.5,34.9375,36.0
0.18605249,-0.1248235,0.17523347,-1.111084,-0.038430505,0.07572608,-0.1661454,-0.39668977,-0.36535904,0.06003319,-3.0781593,0.62379396,0.00011577555,-0.08086114,0.036801238,-0.0012346747,0.007618982,-0.00077384943,0.0057026194,0.4929424,-1.374421,1.8950261,-2.0894306,-1.5714201,2.4673016,-0.13146445,0.081854865,-0.09934359,0.021702413,-0.006579659,-0.13710399,-0.076614454,0.22984336,-9.232041,0.8605109,47.65106,-1.1180352,-2.343319,-3.4336233,-0.18912748,-0.06851052,-0.43571717,28.25,29.625,28.75,32.5,34.9375,36.0
0.18805246,0.6868003,0.3813446,-1.2812271,-0.026803393,0.10245031,-0.17100671,-0.39683625,-0.3652784,0.0600089,-3.0781372,0.62376285,3.258549e-05,-0.08332152,0.036969844,0.0010795734,0.004932649,0.003087124,0.014743364,0.49266592,-1.3742415,1.8948573,-2.089383,-1.5714082,2.4670086,-0.13426355,0.080026515,-0.10252153,0.022026053,-0.0060608704,-0.1489436,-0.076614454,0.17238252,-9.308657,0.800085,47.695843,-1.1608032,-2.350077,-3.3689547,-0.20584367,-0.088277,-0.32040438,28.25,29.625,28.75,32.5,34.9375,36.0
0.19005236,0.06542011,0.32429373,-1.1386812,-0.023768151,0.0982544,-0.17155173,-0.39703223,-0.3652134,0.06004892,-3.0781934,0.62371194,0.00011534527,-0.0843525,0.037326314,0.00062627014,0.005002243,0.0022594952,0.020326884,0.49237806,-1.3741084,1.8945946,-2.0893228,-1.5714077,2.466682,-0.13595125,0.082170635,-0.104087524,0.0222023,-0.0057270066,-0.15621498,-0.19153613,0.095768064,-9.270349,0.7911258,47.66539,-1.0348611,-2.3688364,-3.2518375,-0.17788261,-0.104052305,-0.23342884,28.25,29.625,28.75,32.5,34.9375,36.0
0.19205217,-0.23665357,0.59527636,-0.9501202,-0.028070956,0.10092867,-0.16932797,-0.39718232,-0.36512864,0.06002468,-3.0781527,0.6236636,7.919787e-05,-0.085859135,0.038270004,0.00083406514,0.004811025,0.002446644,0.021397028,0.49211374,-1.3739281,1.8944272,-2.0892866,-1.5714315,2.4663928,-0.13890685,0.082846366,-0.10547973,0.022655204,-0.005658808,-0.16024001,-0.45968673,0.21068975,-9.289502,0.83813137,47.68062,-1.1056048,-2.4264576,-3.2743707,-0.1523827,-0.116841845,-0.17460832,28.25,29.625,28.75,32.5,34.9375,36.0
0.19405216,-0.9624137,0.19678202,-1.0461481,-0.022520239,0.105801105,-0.16220006,-0.3973549,-0.36506817,0.060025275,-3.0781708,0.6235303,9.172617e-05,-0.08546572,0.037665185,0.00069889525,0.0058330665,0.0026738269,0.023295123,0.4918629,-1.3737357,1.8941864,-2.089239,-1.5714439,2.4660566,-0.13685535,0.083671644,-0.106209636,0.022842804,-0.0066679767,-0.16008422,-0.6703765,0.114921674,-9.270349,0.84484416,47.729877,-1.1269867,-2.3231826,-3.2818263,-0.15265292,-0.11477803,-0.13988167,28.25,29.625,28.75,32.5,34.9375,36.0
0.19605209,-1.0821022,0.026869511,-1.2406199,-0.010724942,0.11871431,-0.15739897,-0.39748678,-0.36497027,0.059995424,-3.0781188,0.6234665,5.96219e-07,-0.087975375,0.03845574,0.0011444122,0.0058188494,0.0040084147,0.015390243,0.4915861,-1.373579,1.8940543,-2.0891783,-1.5714563,2.4657466,-0.14003026,0.08552358,-0.109493196,0.023093283,-0.007302818,-0.15535083,-0.6512229,0.05746084,-9.289502,0.7463667,47.687782,-1.000976,-2.2882547,-3.1059098,-0.12772694,-0.09737313,-0.21211685,28.25,29.625,28.75,32.5,34.9375,36.0
0.19805197,-1.0110881,0.6871722,-1.1175328,-0.030968145,0.12987542,-0.16425519,-0.39771423,-0.36489967,0.06003467,-3.0781446,0.6235497,0.00013559325,-0.08632044,0.038611,0.0002268004,0.0065797945,0.0009203611,0.0098807765,0.4912755,-1.3734107,1.8937567,-2.089142,-1.5714797,2.4654849,-0.1392262,0.085413165,-0.10757571,0.024364179,-0.0064918073,-0.1490405,-0.7469909,0.019153614,-9.32781,0.8179876,47.68062,-1.2256367,-2.445,-3.372941,-0.12567133,-0.12494196,-0.27426916,28.25,29.625,28.75,32.5,34.9375,36.0
0.2000519,-0.84636074,0.670463,-0.8920087,-0.035121664,0.13870376,-0.16668394,-0.39788812,-0.36483645,0.06005494,-3.0781822,0.623481,0.00017750282,-0.08872995,0.038508102,0.001995249,0.004558634,0.0034065219,0.005633692,0.4910112,-1.3732666,1.8935283,-2.0890934,-1.5714792,2.465173,-0.14155945,0.08546663,-0.1119331,0.025520358,-0.005882866,-0.14712651,-0.82360536,-0.076614454,-9.232041,0.8179876,47.709274,-1.1763283,-2.270773,-3.1387424,-0.13921435,-0.13623238,-0.3269328,28.25,29.625,28.75,32.5,34.9375,36.0
0.20205615,-0.88591725,0.39923403,-1.1261795,-0.007823607,0.12707117,-0.15577039,-0.39804468,-0.36473316,0.060019244,-3.0780916,0.6235203,8.3652936e-05,-0.08990244,0.040396515,-0.000109408255,0.0073883147,-0.0002435436,0.0015259271,0.49071085,-1.3730607,1.8933486,-2.089022,-1.571504,2.4649088,-0.14526512,0.08996557,-0.112699375,0.026338464,-0.006672164,-0.14672132,-0.7278373,-0.15322891,-9.232041,0.84484416,47.72719,-1.2257774,-2.4740767,-3.2752638,-0.11736363,-0.1449082,-0.373696,28.25,29.625,28.75,32.5,34.9375,36.0
0.20405203,-0.6250854,0.65152115,-1.3613812,0.0035283517,0.11897401,-0.16018875,-0.39821425,-0.36465645,0.060000576,-3.0780716,0.62341756,3.699735e-05,-0.0905525,0.03934351,0.0019514528,0.00622573,0.0037682196,0.0039243493,0.4904359,-1.3728453,1.8931211,-2.0889618,-1.5715164,2.4645724,-0.143483,0.08792711,-0.11504551,0.026635777,-0.0075491043,-0.14733493,-0.68953013,-0.11492168,-9.308657,0.83365434,47.68062,-1.2274579,-2.3545523,-3.1454244,-0.11640513,-0.11518398,-0.38868085,28.25,29.625,28.75,32.5,34.9375,36.0
0.20605229,-0.8733071,0.8050117,-1.2306815,-0.007845713,0.110059366,-0.165088,-0.3983968,-0.36457762,0.060013946,-3.0781078,0.62348133,6.846729e-05,-0.09231823,0.040589415,0.00092516263,0.0074881427,0.0022240933,0.0043046717,0.49012336,-1.3727119,1.8929294,-2.08895,-1.5714926,2.4642951,-0.14687997,0.09147493,-0.117032096,0.027030919,-0.00793471,-0.1511105,-0.7469909,-0.11492168,-9.32781,0.8157518,47.694946,-0.9889233,-2.4974003,-3.160643,-0.09647499,-0.12528755,-0.3983292,28.25,29.625,28.75,32.5,34.9375,36.0
0.20805256,-0.45145,1.0058981,-1.0855907,-0.010872481,0.12264071,-0.1751544,-0.39858365,-0.36450982,0.06000806,-3.0781028,0.6233797,4.7459736e-05,-0.092975855,0.040637523,0.00065947324,0.0071513997,0.0014552714,0.01063318,0.48984742,-1.3724833,1.8926543,-2.0888774,-1.571504,2.4639566,-0.14789724,0.09304517,-0.1183808,0.027317392,-0.007286994,-0.15845673,-0.63206923,-0.11492168,-9.251195,0.8023209,47.703007,-1.1522194,-2.4987907,-3.1491413,-0.05851826,-0.13382493,-0.34771442,28.25,29.625,28.75,32.5,34.9375,36.0
0.21005173,-1.3194629,0.9750578,-1.2719088,-0.011253527,0.1124202,-0.16733028,-0.39879188,-0.3644206,0.06000842,-3.07809,0.62338895,8.538627e-05,-0.0937333,0.041069794,0.000488978,0.008142896,0.0009774255,0.019214494,0.4895242,-1.3722787,1.892402,-2.0888417,-1.5715283,2.463641,-0.14883642,0.09454127,-0.12002136,0.028338399,-0.007943054,-0.1679752,-0.51714754,-0.076614454,-9.308657,0.80456203,47.696735,-1.1943152,-2.486979,-3.1118035,-0.071498916,-0.14033934,-0.2414557,28.25,29.625,28.75,32.5,34.9375,36.0
0.21205162,-0.75047135,0.32279307,-1.1798111,-0.012847029,0.13866477,-0.16826615,-0.39896813,-0.36432096,0.060006123,-3.0780606,0.62331945,6.279143e-05,-0.09405014,0.04141494,0.00038605742,0.009105834,0.00044112594,0.027169865,0.4892125,-1.3721099,1.8921875,-2.0887578,-1.5715526,2.4632897,-0.1492691,0.09537354,-0.121041074,0.029440535,-0.008553351,-0.17636128,-0.45968673,-0.095768064,-9.404425,0.78888994,47.682407,-1.1954618,-2.542159,-3.117949,-0.08368959,-0.12453703,-0.13696074,28.25,29.625,28.75,32.5,34.9375,36.0
0.21405254,-0.6717347,0.19808978,-1.2314988,-0.029211884,0.14085074,-0.15963027,-0.39915022,-0.3642289,0.06000512,-3.078029,0.6232726,1.3984532e-05,-0.09441592,0.04196248,-0.00026148948,0.009803736,-0.0010151439,0.029887259,0.4889007,-1.3719175,1.8919362,-2.0886495,-1.5715646,2.4629529,-0.1504963,0.096933745,-0.12157296,0.030017477,-0.008498007,-0.18030521,-0.53630114,-0.038307227,-9.404425,0.78888994,47.699425,-1.2045175,-2.5815086,-3.140155,-0.0634925,-0.13679695,-0.059189484,28.25,29.625,28.75,32.5,34.9375,36.0
0.2160526,-0.9707788,-0.546066,-1.5719563,-0.022016782,0.11395956,-0.14943263,-0.39936373,-0.36415634,0.060015976,-3.0780842,0.6231312,0.0001222044,-0.09481298,0.042531,1.607881e-05,0.01060522,-0.00076544494,0.024745967,0.4886012,-1.3717253,1.8916854,-2.088661,-1.5715889,2.4625583,-0.15123998,0.09669539,-0.122158274,0.030996969,-0.009308188,-0.17590642,-0.4405331,0.05746084,-9.385271,0.8247004,47.693153,-1.3016982,-2.5315223,-3.117299,-0.06499227,-0.14414653,-0.088434055,28.25,29.625,28.75,32.5,34.9375,36.0
0.21805245,-0.23233661,-0.06081714,-1.4921668,-0.04003204,0.11241521,-0.15266722,-0.3995529,-0.36403608,0.059985247,-3.0779717,0.6231117,5.16501e-05,-0.097037226,0.042420667,0.001147155,0.009743315,0.001999448,0.016303094,0.48826557,-1.3714848,1.8914446,-2.0885537,-1.571649,2.462225,-0.1526495,0.097649574,-0.12586464,0.03089811,-0.009867934,-0.16886932,-0.47884035,0.11492168,-9.500193,0.84708,47.703007,-1.2731495,-2.500444,-3.0072026,-0.06993101,-0.13075772,-0.136717,28.25,29.625,28.75,32.5,34.9375,36.0
0.22005208,0.45113942,-0.19074054,-1.5750635,-0.042136483,0.100814074,-0.15149608,-0.39973715,-0.36395785,0.059982803,-3.077995,0.6230432,8.737094e-06,-0.0965988,0.044612404,-0.0009792752,0.012387414,-0.0016849829,0.0072091576,0.48795334,-1.371292,1.8912071,-2.088494,-1.5716251,2.461867,-0.15551056,0.09903769,-0.12268522,0.030833606,-0.010468128,-0.162636,-0.22984336,0.076614454,-9.442732,0.78217715,47.658226,-1.3340642,-2.5097513,-3.2774765,-0.05074551,-0.11602178,-0.23806098,28.25,29.625,28.75,32.5,34.9375,36.0
0.22205204,0.49332064,-0.0073625357,-1.537536,-0.052678537,0.07494484,-0.1550426,-0.39999133,-0.3638939,0.060029607,-3.0780244,0.6231272,0.00024078313,-0.09745189,0.04386772,9.550405e-05,0.010734064,0.00019479265,0.002130589,0.48765406,-1.3710998,1.8908719,-2.088494,-1.5716847,2.4616168,-0.15531144,0.098795585,-0.12484862,0.030794062,-0.009868828,-0.15736027,-0.05746084,0.15322891,-9.442732,0.8179876,47.655537,-1.2499192,-2.4487693,-3.090485,-0.04533816,-0.123688236,-0.33168092,28.25,29.625,28.75,32.5,34.9375,36.0
0.22405212,1.1418588,0.10574983,-1.5267186,-0.045226384,0.07235707,-0.15762334,-0.40015528,-0.36378554,0.06000384,-3.077969,0.62313855,0.000112039925,-0.09942346,0.045356147,0.0003293113,0.010814175,0.0010053635,-0.005909882,0.4873173,-1.3709075,1.8906797,-2.0883982,-1.5716733,2.4612942,-0.15924112,0.09928734,-0.12597415,0.030753395,-0.010335634,-0.15324706,-0.095768064,0.1340753,-9.423578,0.88960326,47.68062,-1.0591147,-2.430781,-3.2592545,-0.026404722,-0.10299364,-0.396178,28.25,29.625,28.75,32.5,34.9375,36.0
0.22605218,0.913018,-0.09561422,-1.7801834,-0.028395167,0.046667136,-0.1483554,-0.40037066,-0.36369032,0.05999337,-3.0779128,0.62318504,0.00014057681,-0.09977795,0.046677504,-0.0015637084,0.0122960545,-0.0026628966,-0.010291294,0.48699316,-1.3706661,1.890405,-2.08835,-1.571721,2.4610064,-0.16196422,0.10249423,-0.12558904,0.031086367,-0.009929423,-0.1515892,-0.019153614,0.038307227,-9.500193,0.87617236,47.723602,-1.0393686,-2.4810324,-3.2686758,-0.003669926,-0.12365429,-0.48581988,28.25,29.625,28.75,32.5,34.9375,36.0
0.22805211,1.1090218,0.10674672,-1.5481544,-0.031938434,0.040772006,-0.16169754,-0.40056518,-0.36357248,0.059981227,-3.077841,0.6231847,0.00015321226,-0.09953032,0.047472615,-0.00091580057,0.012083795,-0.0030110762,-0.00595722,0.48665747,-1.3704748,1.890191,-2.088289,-1.571781,2.4606798,-0.16322717,0.10023625,-0.12475357,0.032697864,-0.009586043,-0.15718748,0.13407528,0.114921674,-9.500193,0.9164598,47.701214,-0.97018707,-2.4362814,-3.4250238,-0.023925692,-0.12698711,-0.5030733,28.25,29.625,28.75,32.5,34.9375,36.0
0.23005198,1.0666862,0.2974176,-1.4434011,-0.03739382,0.041444436,-0.16684228,-0.4007756,-0.3634937,0.059987094,-3.0778532,0.6232192,0.00012693957,-0.1011046,0.04788828,-0.0012074768,0.012776882,-0.004172043,0.0035352225,0.4863212,-1.3702576,1.8899025,-2.088217,-1.5717567,2.4603636,-0.16521117,0.10342503,-0.12829328,0.034388244,-0.009671438,-0.16866204,0.17238252,0.076614454,-9.423578,0.85155696,47.70659,-0.92968786,-2.4814415,-3.2971096,-0.03371937,-0.10486776,-0.42943674,28.25,29.625,28.75,32.5,34.9375,36.0
0.23205231,1.1179848,0.23142228,-1.6257248,-0.018758338,0.050642528,-0.15837109,-0.40097663,-0.36339706,0.0599775,-3.077837,0.6231684,0.00010505673,-0.10027935,0.0488026,-0.0016391923,0.012750252,-0.006326465,0.015138072,0.4859859,-1.370042,1.8896536,-2.088157,-1.5717686,2.4599988,-0.16657071,0.10221418,-0.12608764,0.035263553,-0.00865253,-0.18162763,0.17238252,0.038307227,-9.3661175,0.80679786,47.687782,-1.1833774,-2.4819512,-3.5454986,-0.024428975,-0.1362975,-0.312052,28.25,29.625,28.75,32.5,34.9375,36.0
0.23405233,0.79558873,0.4945508,-1.5272965,-0.020810302,0.047452606,-0.16138406,-0.4012008,-0.36330572,0.060018316,-3.0778635,0.6231481,0.00017494141,-0.101400554,0.047645908,-0.00051542994,0.011169305,-0.0045312545,0.023631431,0.48563895,-1.3698856,1.8893527,-2.088061,-1.5717806,2.459636,-0.16588987,0.10304234,-0.12975724,0.0357641,-0.008100005,-0.18944032,0.24899697,0.095768064,-9.32781,0.8179876,47.709274,-1.1066309,-2.406844,-3.3667812,-0.015486851,-0.132319,-0.20562431,28.25,29.625,28.75,32.5,34.9375,36.0
0.23605223,1.1892085,0.5875405,-1.4751645,-0.0296511,0.062222283,-0.17504707,-0.4013836,-0.36320594,0.059982233,-3.0778356,0.6230066,9.652601e-05,-0.10200983,0.048573695,-0.00073811185,0.012053618,-0.0063823927,0.024130203,0.4853149,-1.3696448,1.8891367,-2.0880125,-1.5717925,2.4592273,-0.16797245,0.10417482,-0.13114376,0.038060334,-0.008035279,-0.19202076,0.15322891,0.095768064,-9.385271,0.7642693,47.657326,-1.0716062,-2.4122255,-3.4247384,-0.04152918,-0.1393704,-0.13939603,28.25,29.625,28.75,32.5,34.9375,36.0
0.23805267,1.0407282,0.40952697,-1.5713873,-0.024468485,0.05527824,-0.1595974,-0.40160584,-0.36309522,0.059980467,-3.0777707,0.6230156,0.00012386154,-0.10341068,0.0495005,0.00015647484,0.012352359,-0.005533226,0.017677505,0.4849668,-1.3694167,1.8888496,-2.087928,-1.5718521,2.4588933,-0.17029493,0.10385283,-0.13321507,0.03983474,-0.008701194,-0.18788826,0.076614454,0.1340753,-9.461885,0.800085,47.668976,-1.057824,-2.3762326,-3.36408,-0.05612835,-0.13757904,-0.18404958,28.25,29.625,28.75,32.5,34.9375,36.0
0.24005154,0.7405906,0.45735085,-1.611888,-0.03559302,0.04181705,-0.15939482,-0.4017965,-0.36302227,0.06000019,-3.0777984,0.62290967,0.0001056751,-0.10339263,0.05066463,-0.0014410903,0.014696478,-0.0107826535,0.008223615,0.48466676,-1.369235,1.8885635,-2.0878189,-1.5718406,2.4585238,-0.17240536,0.10736857,-0.13461359,0.043461088,-0.008322135,-0.18054487,0.0,0.17238252,-9.481039,0.84484416,47.696735,-0.9727351,-2.4003434,-3.3769684,-0.11189246,-0.122961596,-0.26230362,28.25,29.625,28.75,32.5,34.9375,36.0
0.24205251,0.19376382,-0.37408862,-1.7221103,-0.03939392,0.044984035,-0.14871833,-0.4019542,-0.36290213,0.059950333,-3.0777042,0.6228716,-5.955764e-05,-0.10381496,0.051668204,-0.0004062648,0.014786824,-0.010724674,0.0039403853,0.48433083,-1.3690077,1.8883837,-2.087722,-1.5718521,2.4581761,-0.17433277,0.105394386,-0.13521129,0.046022173,-0.0084536895,-0.17818788,0.0,0.1340753,-9.519346,0.8560339,47.694946,-0.89176464,-2.3356614,-3.3651652,-0.13141593,-0.13844812,-0.3311209,28.25,29.625,28.75,32.5,34.9375,36.0
0.24405237,0.32074386,-0.40724257,-1.6725252,-0.045966975,0.07542049,-0.15133761,-0.40218157,-0.3627887,0.05996588,-3.0776727,0.62288153,-2.5566129e-05,-0.10444329,0.051168434,-0.0016836899,0.015912943,-0.011875595,0.0053842943,0.48395994,-1.368814,1.8880957,-2.0876267,-1.5718888,2.4578156,-0.17367998,0.10980536,-0.137442,0.045375966,-0.0089283865,-0.17897627,-0.19153613,0.21068975,-9.615114,0.95897776,47.701214,-1.0260396,-2.3667352,-3.3759618,-0.1602281,-0.14911251,-0.37500262,28.25,29.625,28.75,32.5,34.9375,36.0
0.24605231,-0.92397696,-0.8890514,-1.732602,-0.039917782,0.080248296,-0.15328965,-0.40239733,-0.36272675,0.060008503,-3.07774,0.6227977,7.1113955e-06,-0.1049724,0.05104382,0.0001236715,0.014452014,-0.01020986,0.00569103,0.4836485,-1.3686348,1.8877605,-2.0875185,-1.5718645,2.4574435,-0.17418122,0.10739019,-0.13912532,0.04731936,-0.008406529,-0.17978585,-0.3256114,0.15322891,-9.615114,0.7284641,47.67345,-1.0244765,-2.322228,-3.3564975,-0.19318748,-0.13876547,-0.40184158,28.25,29.625,28.75,32.5,34.9375,36.0
0.24805214,-1.0966688,-0.28586832,-1.5877584,-0.062029704,0.113536775,-0.1631919,-0.4025944,-0.36261022,0.05997317,-3.0776775,0.6227216,-0.00014319537,-0.10526381,0.05153643,-0.00048439833,0.014757477,-0.012939,0.011256238,0.48327667,-1.3683697,1.8874973,-2.0873983,-1.571864,2.4570322,-0.1757938,0.109268,-0.14046372,0.049323883,-0.0074423836,-0.18696447,-0.34476507,0.17238252,-9.672575,0.9097417,47.67166,-0.9517203,-2.3654182,-3.3362637,-0.251433,-0.17373462,-0.35658184,28.25,29.625,28.75,32.5,34.9375,36.0
0.25005212,-1.1627395,-0.5987096,-1.4096842,-0.05772777,0.12996809,-0.16916557,-0.4028024,-0.36252367,0.05999295,-3.0776737,0.6226927,-0.00013388447,-0.10707686,0.050640445,0.00023197722,0.013577952,-0.011021458,0.022675144,0.48295337,-1.3681769,1.8871979,-2.0872905,-1.5718759,2.4566915,-0.17589873,0.11146483,-0.14467777,0.049076896,-0.0073162634,-0.1984867,-0.40222588,0.15322891,-9.691729,0.8537928,47.699425,-1.145572,-2.2879138,-3.153901,-0.26505947,-0.16213691,-0.24891272,28.25,29.625,28.75,32.5,34.9375,36.0
0.25205207,-0.55372673,0.17653595,-1.2433734,-0.05928347,0.14844958,-0.1697536,-0.4030207,-0.36242893,0.059993163,-3.0776744,0.622496,-8.866808e-05,-0.10755925,0.051055554,3.12289e-05,0.014020919,-0.010441292,0.030942643,0.48262995,-1.3679485,1.8869113,-2.087231,-1.5719246,2.4562454,-0.17652796,0.11190934,-0.14457722,0.048203524,-0.007994518,-0.20738168,-0.4405331,0.15322891,-9.595961,0.83589023,47.704796,-1.2314208,-2.4353752,-3.3216085,-0.30120197,-0.1890448,-0.13954829,28.25,29.625,28.75,32.5,34.9375,36.0
0.25405186,-1.0662355,-0.2887758,-1.2369676,-0.052625097,0.13595176,-0.1617507,-0.40321723,-0.36233178,0.059990633,-3.0776796,0.6224574,-0.00018564748,-0.10957091,0.0517922,0.000115407274,0.013186836,-0.009790504,0.029086087,0.4822696,-1.3677436,1.886648,-2.0871236,-1.5718883,2.4558604,-0.17973195,0.11349081,-0.14654931,0.047632493,-0.0075803953,-0.20872879,-0.5746084,0.21068975,-9.615114,0.95002913,47.705692,-1.2859603,-2.3026803,-3.1703854,-0.29295188,-0.1714412,-0.06481291,28.25,29.625,28.75,32.5,34.9375,36.0
0.25605166,-0.9397604,-0.07058546,-1.1860334,-0.043295898,0.1262178,-0.16336773,-0.40346178,-0.36222237,0.059998557,-3.077643,0.6224524,-0.00013963574,-0.11107793,0.051811617,0.0006014521,0.013156067,-0.007566357,0.022573994,0.48189828,-1.3675034,1.8863243,-2.0870397,-1.5719365,2.4554908,-0.18038635,0.11448815,-0.14867489,0.046773843,-0.008589699,-0.20286752,-0.6703765,0.13407528,-9.576807,0.800085,47.71554,-1.3741684,-2.3967679,-3.17536,-0.30787715,-0.19649978,-0.11949918,28.25,29.625,28.75,32.5,34.9375,36.0
0.25805172,-1.0157726,0.14395288,-1.2347611,-0.030714456,0.09580051,-0.16091968,-0.40371153,-0.3621085,0.060002632,-3.0776083,0.62246805,-8.024259e-05,-0.111624524,0.0514595,0.00038714465,0.013242006,-0.006273626,0.014424427,0.4815153,-1.3672625,1.8860139,-2.0869806,-1.5719851,2.4551222,-0.17976837,0.115762666,-0.14934956,0.04506871,-0.009263273,-0.1940978,-0.63206923,0.076614454,-9.500193,0.83589023,47.677036,-1.3259585,-2.3338447,-3.1197233,-0.30695072,-0.18518534,-0.19049567,28.25,29.625,28.75,32.5,34.9375,36.0
0.26005155,-0.43281168,0.15359983,-0.902657,-0.032174923,0.10866118,-0.16659327,-0.40393412,-0.36203077,0.06001867,-3.0776584,0.6223452,-6.5536e-05,-0.11210558,0.051246196,-0.00026629417,0.01374681,-0.006429912,0.008227027,0.48117977,-1.3670455,1.885702,-2.086909,-1.5719727,2.4547038,-0.17951918,0.118046224,-0.15042946,0.044246193,-0.009635253,-0.18764968,-0.5746084,0.038307227,-9.481039,0.85826975,47.67793,-1.3741562,-2.3590887,-3.0665727,-0.29858848,-0.17835926,-0.29746777,28.25,29.625,28.75,32.5,34.9375,36.0
0.26205254,-0.48548964,0.1525778,-0.9209936,-0.026630597,0.10539798,-0.16131285,-0.4041725,-0.36193347,0.06003854,-3.0776541,0.6223465,-1.5996395e-05,-0.11340939,0.050608322,0.00076713506,0.011942509,-0.004823286,0.0021822904,0.48081988,-1.366829,1.8853792,-2.0868251,-1.5719966,2.4543455,-0.18003356,0.11852166,-0.15342921,0.044507734,-0.008778912,-0.18212056,-0.7278373,0.076614454,-9.193734,0.8314132,47.694946,-1.4544834,-2.4578016,-3.1527033,-0.32698312,-0.21152905,-0.42547372,28.25,29.625,28.75,32.5,34.9375,36.0
0.2640524,-0.10558662,0.313595,-0.92032295,-0.022016175,0.11985005,-0.17306633,-0.40440923,-0.36182722,0.060029298,-3.07762,0.6222646,-5.3777952e-05,-0.11415781,0.05178346,-0.0018483358,0.013691199,-0.007108584,-0.000906989,0.48044685,-1.3665512,1.885044,-2.0867183,-1.5720209,2.4539258,-0.18226764,0.12304433,-0.15227805,0.041664213,-0.009289301,-0.1812632,-0.5554548,0.05746084,-9.212888,0.88960326,47.734352,-1.4027754,-2.5366716,-3.2037687,-0.31078213,-0.20044497,-0.48291308,28.25,29.625,28.75,32.5,34.9375,36.0
0.26605213,-0.3039528,0.6086428,-0.9411964,-0.038322512,0.111024655,-0.18093272,-0.40461737,-0.3617337,0.060025804,-3.077616,0.62229556,-8.1698556e-05,-0.11585795,0.0527202,0.0002034924,0.012097328,-0.0026593318,0.0059960447,0.48009834,-1.3663363,1.8847817,-2.0866587,-1.572009,2.4535973,-0.18484998,0.11945947,-0.15247312,0.040751126,-0.009950239,-0.19074725,-0.30645782,-0.076614454,-9.289502,0.82694155,47.70838,-1.4576932,-2.418481,-3.2413387,-0.29059032,-0.20521298,-0.45568,28.25,29.625,28.75,32.5,34.9375,36.0
0.26805207,-0.68184286,0.35134915,-0.5982586,-0.048933603,0.09250685,-0.17665969,-0.40489691,-0.36160335,0.060029056,-3.0775652,0.6223377,1.5173713e-05,-0.11740217,0.054030724,-0.000830776,0.012494954,-0.003610118,0.016364334,0.47967672,-1.3660711,1.8844465,-2.086611,-1.572081,2.4532087,-0.18835087,0.12202543,-0.15297776,0.039680123,-0.0098818885,-0.20461625,-0.15322891,-0.05746084,-9.251195,0.8985519,47.68599,-1.3137181,-2.5303876,-3.3483412,-0.29079056,-0.19708622,-0.37473303,28.25,29.625,28.75,32.5,34.9375,36.0
0.27005216,-0.26011992,0.4215106,-0.68184465,-0.045785457,0.09403132,-0.16905375,-0.40511134,-0.36149228,0.06002442,-3.0775442,0.62219405,-2.1521786e-05,-0.11953793,0.055161763,-0.00039785952,0.012356384,-0.0017673902,0.023312442,0.4793158,-1.3658428,1.8841599,-2.0865042,-1.5721053,2.452761,-0.19158193,0.12260099,-0.15450004,0.038908307,-0.010638559,-0.21479234,-0.24899697,-0.038307227,-9.212888,0.842603,47.67166,-1.3216755,-2.4285734,-3.295426,-0.2645509,-0.17919415,-0.22200286,28.25,29.625,28.75,32.5,34.9375,36.0
0.272052,0.13039257,0.9545235,-0.5641337,-0.020726148,0.08039745,-0.16746132,-0.40534905,-0.361416,0.060026824,-3.0776017,0.6220878,-4.4806606e-05,-0.11974081,0.054883223,-0.00096791686,0.012428694,-0.0022717821,0.027481943,0.4789561,-1.365578,1.8838242,-2.0864446,-1.5720695,2.4523277,-0.19129026,0.124388814,-0.1552466,0.03834636,-0.010477802,-0.21867016,-0.2681506,-0.076614454,-9.232041,0.8224646,47.698532,-1.3202686,-2.426311,-3.3766356,-0.276118,-0.19276904,-0.15002973,28.25,29.625,28.75,32.5,34.9375,36.0
0.27405187,0.10238414,0.92158026,-0.5439948,-0.005799784,0.06509273,-0.16255568,-0.4056035,-0.36127722,0.060017966,-3.0775473,0.62204254,-1.9301815e-05,-0.12170262,0.055137347,-0.0006775267,0.010750368,-0.00023418292,0.020064473,0.4785354,-1.3653256,1.8835262,-2.086373,-1.5721291,2.451886,-0.1936714,0.12543938,-0.15669778,0.036153365,-0.009937729,-0.2136342,-0.21068975,-0.19153613,-9.193734,0.8224646,47.688675,-1.2351885,-2.4808042,-3.274303,-0.23421675,-0.20649251,-0.1984263,28.25,29.625,28.75,32.5,34.9375,36.0
0.2760519,0.7390617,1.6665801,-0.5100065,-0.008291157,0.06322349,-0.17863846,-0.40587908,-0.36116952,0.06004778,-3.0775762,0.62207174,0.000105005776,-0.12314858,0.05577969,-0.0012681263,0.011239258,0.0008095862,0.011272538,0.47812703,-1.3651086,1.883191,-2.0863383,-1.5721534,2.4514923,-0.19535461,0.12748796,-0.15736002,0.034069773,-0.010835117,-0.20652333,-0.3256114,-0.21068975,-9.136273,0.8940802,47.681515,-1.2631572,-2.3855422,-3.3707871,-0.203298,-0.20902748,-0.2694062,28.25,29.625,28.75,32.5,34.9375,36.0
0.27805194,0.86715007,1.6389892,-0.5108204,-0.008451615,0.074855916,-0.19092828,-0.4060951,-0.3610707,0.060043775,-3.077571,0.6219383,7.1062954e-05,-0.12501469,0.055454955,0.000763726,0.008465507,0.004572237,0.00541815,0.47777843,-1.3648688,1.8828915,-2.0862424,-1.5721654,2.4510612,-0.1967954,0.12588312,-0.16000096,0.033696562,-0.010112894,-0.20211051,-0.19153613,-0.17238252,-9.040505,0.8537928,47.705692,-1.1767598,-2.3710573,-3.2391996,-0.16915147,-0.18208283,-0.32041258,28.25,29.625,28.75,32.5,34.9375,36.0
0.28005177,-0.32835665,1.0113049,-0.7553774,-0.0081524905,0.063697875,-0.17345898,-0.4063559,-0.36093217,0.06000999,-3.0774705,0.6220535,4.0654802e-05,-0.12643924,0.055668373,0.0008489054,0.008021832,0.0036288449,0.0030325889,0.47734594,-1.3645555,1.8825797,-2.0861819,-1.572213,2.4507136,-0.19879244,0.12816153,-0.16333893,0.03537411,-0.0093007535,-0.20172213,-0.28730422,-0.11492168,-9.059659,0.83813137,47.694054,-1.1474681,-2.4748354,-3.2934713,-0.14939255,-0.22590156,-0.39633963,28.25,29.625,28.75,32.5,34.9375,36.0
0.28205267,-0.11873586,0.33687267,-1.0015692,-0.008374932,0.08292406,-0.17498972,-0.40658626,-0.36084384,0.06001114,-3.0775137,0.62194395,-1.2447804e-05,-0.12728724,0.05683223,0.0022401526,0.0074697603,0.004995596,0.005543123,0.47697312,-1.3643043,1.8822573,-2.086098,-1.5721768,2.450267,-0.20129947,0.12543516,-0.16360976,0.036901057,-0.009443448,-0.20673971,-0.2681506,0.05746084,-9.174581,0.82022345,47.668976,-1.14054,-2.1778944,-3.3335,-0.15289585,-0.2175754,-0.3830617,28.25,29.625,28.75,32.5,34.9375,36.0
0.28405157,0.13867792,0.79597735,-1.036184,-0.03134308,0.10145043,-0.19650689,-0.4068421,-0.36071387,0.06001672,-3.077482,0.6219132,3.5197857e-06,-0.12762076,0.057185728,0.0018133128,0.008068758,0.0033240824,0.015750967,0.47655275,-1.3640636,1.8819345,-2.0860012,-1.572213,2.4498317,-0.20221016,0.12707709,-0.16495799,0.03833896,-0.0092243375,-0.21785812,-0.24899697,-0.038307227,-9.289502,0.84708,47.684196,-1.1425954,-2.2563314,-3.2076755,-0.14318998,-0.21677679,-0.30160457,28.25,29.625,28.75,32.5,34.9375,36.0
0.28605333,-0.31502527,0.06580244,-1.1159421,-0.034666598,0.10797833,-0.17691065,-0.40713185,-0.36059898,0.060050458,-3.077506,0.6218902,9.757791e-05,-0.12805724,0.05701838,0.002304397,0.007792179,0.0035616609,0.028132312,0.47612077,-1.3638233,1.8815511,-2.0859172,-1.5722369,2.4493825,-0.20226488,0.12734835,-0.16666718,0.03941093,-0.009090083,-0.23029456,-0.38307226,0.038307227,-9.404425,0.8627467,47.67793,-1.1715127,-2.189316,-3.1330428,-0.14209573,-0.23865965,-0.17806989,28.25,29.625,28.75,32.5,34.9375,36.0
0.2880522,-1.0965016,0.103276394,-1.2777542,-0.049091678,0.106986575,-0.17433366,-0.40735087,-0.36048773,0.06003787,-3.0775008,0.6216738,3.1250212e-05,-0.12833856,0.056202035,0.0019828142,0.008311822,0.00355172,0.033343077,0.47574955,-1.3635702,1.8812522,-2.085809,-1.5722488,2.448877,-0.2007448,0.12973402,-0.16882616,0.039421413,-0.009571073,-0.23398231,-0.51714754,0.11492168,-9.5385,0.8985519,47.65912,-1.4042037,-2.227856,-3.2394266,-0.14609295,-0.24168076,-0.07180112,28.25,29.625,28.75,32.5,34.9375,36.0
0.29005212,-0.92484146,-0.31658146,-1.5804152,-0.04231183,0.12679428,-0.17883547,-0.40760592,-0.36034748,0.060008757,-3.077419,0.6216801,-6.489935e-05,-0.1282399,0.05618678,0.0018156613,0.008978211,0.0033337045,0.026763624,0.47530589,-1.3632576,1.880917,-2.0856898,-1.5722731,2.448448,-0.20020886,0.13030171,-0.16924298,0.039772592,-0.010077644,-0.22686449,-0.45968673,0.15322891,-9.576807,0.8918391,47.67793,-1.6166553,-2.180342,-3.2499094,-0.12341122,-0.23709212,-0.106648274,28.25,29.625,28.75,32.5,34.9375,36.0
0.29205206,-0.5243181,-0.26512516,-1.7127954,-0.049123287,0.13172516,-0.17435403,-0.40786427,-0.36020225,0.05999954,-3.0773559,0.6216744,-4.0599556e-05,-0.12905431,0.056816485,0.0011539654,0.009396098,0.0015391227,0.014623288,0.4748732,-1.3630048,1.8806185,-2.0856173,-1.5723332,2.44802,-0.20214637,0.1326184,-0.1707715,0.040768538,-0.009622943,-0.21666187,-0.4213795,0.15322891,-9.749189,0.82022345,47.66271,-1.5415466,-2.2561448,-3.291009,-0.13055803,-0.25019762,-0.2476783,28.25,29.625,28.75,32.5,34.9375,36.0
0.294052,-0.7444271,-0.8494455,-1.8108518,-0.053126365,0.10956041,-0.16856289,-0.4081407,-0.36012086,0.06003944,-3.0774267,0.621637,4.717484e-05,-0.13048266,0.05811282,0.00083225727,0.010010932,0.0010745822,0.0032775903,0.47448796,-1.3627641,1.8802232,-2.0855458,-1.5723208,2.4476025,-0.20525621,0.13406442,-0.17188653,0.04114525,-0.0099321855,-0.20842539,-0.4213795,0.1340753,-9.844957,0.8851263,47.688675,-1.3960198,-2.2311738,-3.2791781,-0.134971,-0.24706516,-0.32888407,28.25,29.625,28.75,32.5,34.9375,36.0
0.29605204,-0.37755728,-0.7750794,-2.0014253,-0.06243542,0.093919195,-0.17273284,-0.40838858,-0.35999557,0.06002002,-3.0773656,0.62158775,3.0047677e-05,-0.13086794,0.059205946,-0.0011139528,0.012081565,-0.0023878235,-0.002712061,0.4740913,-1.3624742,1.8799008,-2.0854619,-1.5723695,2.4471831,-0.2071584,0.13796271,-0.17229375,0.041673936,-0.010200316,-0.20433605,-0.36391866,0.19153613,-9.768343,0.91198283,47.693153,-1.3449498,-2.3609722,-3.3097944,-0.13880327,-0.24680156,-0.46740657,28.25,29.625,28.75,32.5,34.9375,36.0
0.29805228,0.11402627,-0.7397024,-1.9345859,-0.0702382,0.0871476,-0.18027127,-0.40865394,-0.35987508,0.060030665,-3.0773585,0.6216245,2.818544e-05,-0.13252158,0.059888534,0.0005497262,0.010904259,0.0008102901,-0.0010269778,0.47365794,-1.3622229,1.8795537,-2.085366,-1.5723695,2.4467738,-0.20936006,0.13593306,-0.17367418,0.0416921,-0.010622709,-0.20822152,-0.17238252,0.11492168,-9.902418,0.9298854,47.674347,-1.2035623,-2.3093367,-3.3167708,-0.1088017,-0.25162596,-0.51527727,28.25,29.625,28.75,32.5,34.9375,36.0
0.30005231,0.3920279,-0.61831415,-1.8213735,-0.06852446,0.08109791,-0.18335119,-0.40892062,-0.3597595,0.060022034,-3.0773292,0.6215336,5.567123e-05,-0.13305281,0.061337117,-0.0011817104,0.013551266,-0.0016353002,0.010021151,0.4732618,-1.3619214,1.8791956,-2.0852945,-1.5724181,2.4463248,-0.21136522,0.13908777,-0.1735849,0.04180006,-0.011885341,-0.22127083,-0.076614454,0.15322891,-9.940725,0.84708,47.68062,-1.190785,-2.4793088,-3.418722,-0.09676352,-0.25640932,-0.4097395,28.25,29.625,28.75,32.5,34.9375,36.0
0.30205277,0.28683442,-0.760819,-1.9065905,-0.052557163,0.075389646,-0.17823413,-0.40919468,-0.35962355,0.06001561,-3.0773213,0.6214668,0.000101207545,-0.13528726,0.061593726,-0.001122345,0.012738309,-0.0007407853,0.021292204,0.4728173,-1.3616565,1.8788842,-2.0852582,-1.5724539,2.44584,-0.21378629,0.14175126,-0.17680374,0.041151393,-0.01159622,-0.23496234,-0.05746084,0.24899697,-9.749189,0.8493211,47.719128,-1.2628579,-2.4184394,-3.477818,-0.07892776,-0.2347062,-0.2555158,28.25,29.625,28.75,32.5,34.9375,36.0
0.30405194,0.7154174,-0.060004637,-1.7180287,-0.048862137,0.07870738,-0.18513134,-0.40945327,-0.35948533,0.06000464,-3.077292,0.6214202,2.2708557e-05,-0.13548006,0.06275916,-0.0022069865,0.013189238,-0.0035915894,0.0245052,0.47236043,-1.3613796,1.8785499,-2.085139,-1.5724534,2.4453578,-0.2163283,0.14324887,-0.1763483,0.04192423,-0.010723126,-0.24071918,0.0,0.15322891,-9.730036,0.87393653,47.68599,-1.1048632,-2.518829,-3.4827576,-0.06449266,-0.25432697,-0.15073773,28.25,29.625,28.75,32.5,34.9375,36.0
0.3060521,-0.01282481,-0.37826523,-1.8010668,-0.029470572,0.056276865,-0.16171901,-0.40973148,-0.3593881,0.06003038,-3.0773404,0.62128204,8.891973e-05,-0.13659564,0.06349134,-0.0024095324,0.013181228,-0.004540784,0.017559748,0.4719634,-1.3611149,1.8781546,-2.0850546,-1.5724653,2.4448686,-0.21867129,0.14481947,-0.17802109,0.042867783,-0.0102724675,-0.23611774,-0.17238252,0.21068975,-9.672575,0.93436235,47.701214,-1.0407846,-2.5763614,-3.5040684,-0.043466005,-0.25983003,-0.18449584,28.25,29.625,28.75,32.5,34.9375,36.0
0.30805197,0.2834506,-0.09905601,-1.6377788,-0.03859638,0.06430519,-0.16637897,-0.41002852,-0.35928902,0.060044855,-3.0773864,0.6212193,0.00020948482,-0.13768879,0.064999744,-0.003761037,0.013992402,-0.0067452122,0.006646289,0.47155428,-1.3608255,1.8777717,-2.0850422,-1.5724887,2.4444146,-0.22219989,0.1475144,-0.17818062,0.04266726,-0.009970429,-0.22873408,-0.22984336,0.1340753,-9.634268,0.90750587,47.67166,-0.9594843,-2.6963603,-3.5343812,-0.04796085,-0.26633203,-0.2700233,28.25,29.625,28.75,32.5,34.9375,36.0
0.31005192,-0.0073664756,0.16437733,-1.4945486,-0.041994184,0.06729811,-0.18424574,-0.41032624,-0.3591348,0.060048793,-3.0773458,0.621309,0.00016414741,-0.13884339,0.06518972,-0.0016561702,0.012246644,-0.003399729,0.0003849015,0.47103804,-1.3605393,1.8773893,-2.0849106,-1.5724891,2.4439597,-0.22338632,0.1445845,-0.17961591,0.043263,-0.009942902,-0.2236589,-0.19153613,-0.038307227,-9.404425,0.86945957,47.668976,-0.9383385,-2.3423796,-3.4147422,-0.010471405,-0.2923929,-0.35012728,28.25,29.625,28.75,32.5,34.9375,36.0
0.31205183,-0.26185,0.20905304,-1.0917109,-0.031483453,0.07439901,-0.16821021,-0.41057432,-0.35902998,0.06002537,-3.0773406,0.621171,0.00012837218,-0.13831548,0.063223906,-0.0015977084,0.012644324,-0.0034820132,0.0040029413,0.47065532,-1.3602269,1.8770536,-2.08485,-1.5725015,2.4434917,-0.21930252,0.14681941,-0.18272917,0.044390842,-0.010275241,-0.22319055,-0.22984336,-0.05746084,-9.32781,0.8717007,47.658226,-1.1267046,-2.4079607,-3.366739,-0.02339017,-0.27791384,-0.3946452,28.25,29.625,28.75,32.5,34.9375,36.0
0.31405255,0.15045623,0.99775314,-0.94166034,-0.020389618,0.09810601,-0.17651406,-0.4108921,-0.3589151,0.06006668,-3.0773964,0.62115526,0.00022614573,-0.13882904,0.062577695,-0.0012375884,0.012443218,-0.003775877,0.014062265,0.47018805,-1.3599623,1.876623,-2.0847657,-1.5725011,2.4430077,-0.21869639,0.14836301,-0.1858189,0.046085764,-0.009962962,-0.23264423,-0.24899697,-0.13407528,-9.232041,0.91421866,47.68062,-1.309021,-2.4740825,-3.282353,-0.006631802,-0.2886685,-0.3719278,28.25,29.625,28.75,32.5,34.9375,36.0
0.31605247,-0.12651643,1.0090677,-0.7490155,0.00699055,0.10180913,-0.17854151,-0.41112667,-0.3587839,0.060037225,-3.0773513,0.6210221,0.00014521168,-0.13969153,0.061936565,-0.00014664583,0.012155218,-0.0023623453,0.027405526,0.46978033,-1.3596743,1.8763222,-2.0846694,-1.5725254,2.4425228,-0.2179856,0.14878666,-0.18918857,0.04761063,-0.0103893,-0.24527365,-0.1340753,-0.1340753,-9.193734,0.84484416,47.677036,-1.4190444,-2.4984343,-3.2691965,-0.002223244,-0.30332112,-0.23450454,28.25,29.625,28.75,32.5,34.9375,36.0
0.3180524,-0.2779424,0.7624615,-0.87873167,0.027324447,0.094190836,-0.17029567,-0.41143832,-0.35867587,0.060071938,-3.077389,0.62087363,0.00027736946,-0.14018245,0.062177725,0.0009841468,0.011411089,-0.0018926128,0.03251926,0.46935993,-1.3593872,1.8758792,-2.084585,-1.5725731,2.4420052,-0.21894583,0.14749515,-0.19069728,0.049626898,-0.0099297725,-0.25134948,-0.2681506,-0.11492168,-9.212888,0.8403672,47.687782,-1.46363,-2.3566737,-3.2693408,-0.016659955,-0.30098593,-0.12811774,28.25,29.625,28.75,32.5,34.9375,36.0
0.32005244,0.63630456,1.4082856,-1.0007341,0.0035391855,0.091299795,-0.17456914,-0.41170296,-0.35853964,0.06006448,-3.0773625,0.620813,0.00019910153,-0.14072923,0.06294829,0.0012086631,0.011761903,-0.003779696,0.027755462,0.46890354,-1.3590993,1.8755201,-2.084452,-1.5725731,2.4415145,-0.22090462,0.14812475,-0.19273612,0.05287713,-0.009401843,-0.24854477,-0.24899697,-0.11492168,-9.270349,0.8717007,47.684196,-1.470317,-2.2748737,-3.1669092,-0.035300773,-0.3273496,-0.10486066,28.25,29.625,28.75,32.5,34.9375,36.0
0.32205236,-0.0951455,0.4403794,-0.8874678,-0.003871869,0.06069789,-0.16863523,-0.41202256,-0.3584022,0.060096722,-3.0773587,0.62081796,0.00034267094,-0.14081956,0.064194575,0.0008755701,0.014046664,-0.005660296,0.01727728,0.46843505,-1.3588353,1.8751134,-2.08438,-1.5726331,2.4410498,-0.22221643,0.14880084,-0.19344363,0.055620883,-0.010561839,-0.2393758,-0.36391866,0.0,-9.174581,0.8918391,47.70032,-1.4639881,-2.2551067,-3.1525173,-0.06546872,-0.33320752,-0.21304852,28.25,29.625,28.6875,32.5,34.9375,36.0
0.32405224,-0.060498953,-0.012658022,-1.1050833,-0.02481252,0.069266476,-0.16224933,-0.41227636,-0.3582622,0.06006445,-3.0772886,0.62077117,0.00021742535,-0.141671,0.0654769,-0.0004010679,0.016956186,-0.00878408,0.005956071,0.46799,-1.3585103,1.8747658,-2.0842474,-1.572646,2.4405847,-0.2242422,0.15263097,-0.19578575,0.058247983,-0.011767504,-0.23007463,-0.40222588,0.11492168,-9.136273,0.84484416,47.67166,-1.4470785,-2.1673768,-3.3046522,-0.08398961,-0.30518264,-0.34724087,28.25,29.625,28.6875,32.5,34.9375,36.0
0.3260526,-0.48457754,0.28438288,-1.3005584,-0.038222756,0.06566271,-0.17306231,-0.41252878,-0.35814092,0.06005525,-3.0772514,0.6207289,0.00012538214,-0.14171304,0.06687225,0.0010148103,0.017415456,-0.008731462,-0.0033745167,0.46756992,-1.3582116,1.8743948,-2.084102,-1.572646,2.440143,-0.2262301,0.14926685,-0.19579224,0.061789654,-0.012205958,-0.22273065,-0.21068975,0.0,-9.32781,0.9186956,47.657326,-1.4798704,-2.090132,-3.3537433,-0.12208243,-0.31770995,-0.44514054,28.25,29.625,28.6875,32.5,34.9375,36.0
0.32805252,-0.58345944,-0.41763476,-1.257058,-0.028555973,0.077759,-0.16668929,-0.41285092,-0.35802665,0.06010021,-3.0772824,0.62069595,0.0002603802,-0.14284755,0.06911344,0.0010257097,0.018974368,-0.011184904,-0.0049855923,0.46712428,-1.3579358,1.8739389,-2.084005,-1.5726818,2.4396732,-0.23064537,0.14976645,-0.19733717,0.0657102,-0.012479327,-0.22553477,-0.34476507,-0.038307227,-9.270349,0.8851263,47.6421,-1.3694185,-2.2089334,-3.2617416,-0.19713886,-0.3128283,-0.528414,28.25,29.625,28.6875,32.5,34.9375,36.0
0.33005172,-0.4770909,0.33808613,-1.061154,-0.03854304,0.10020681,-0.18538387,-0.41312513,-0.35784984,0.06007525,-3.0771785,0.62070566,0.00011966508,-0.14414398,0.06941407,0.00090169365,0.017686252,-0.010561949,0.007318524,0.46660766,-1.3576237,1.8735799,-2.0838268,-1.5727061,2.439176,-0.23261362,0.15100132,-0.19824521,0.064205,-0.011674492,-0.23980743,-0.4213795,-0.038307227,-9.212888,0.91421866,47.681515,-1.2681954,-2.031267,-3.2382498,-0.20861429,-0.326283,-0.40778494,28.25,29.625,28.6875,32.5,34.9375,36.0
0.33205172,-0.805618,0.37261748,-1.1454812,-0.017031599,0.1075261,-0.1807804,-0.4134199,-0.35773006,0.060083527,-3.077185,0.62062293,0.00012657524,-0.14551198,0.071195945,0.00035773456,0.018503156,-0.012221967,0.017923187,0.46616212,-1.3573115,1.8731607,-2.083718,-1.572718,2.4386783,-0.23662184,0.15257232,-0.19921708,0.0654195,-0.011686724,-0.25441986,-0.34476504,-0.038307227,-9.289502,0.83589023,47.629562,-1.0371352,-2.047973,-3.155027,-0.24313897,-0.34728763,-0.264689,28.25,29.625,28.6875,32.5,34.9375,36.0
0.33405167,-1.0666116,0.529395,-1.3416795,0.0064731995,0.09295347,-0.16292238,-0.4137045,-0.35757458,0.0600682,-3.0771334,0.6206504,3.2093834e-05,-0.14499782,0.07164269,-0.00018694747,0.019654704,-0.015879702,0.020581996,0.46565783,-1.3569993,1.8727897,-2.083585,-1.5727175,2.4381979,-0.2371501,0.15396607,-0.20053455,0.069114804,-0.011100944,-0.25760746,-0.22984336,-0.19153613,-9.308657,0.88960326,47.672558,-0.9595624,-2.031311,-3.2714748,-0.303031,-0.35431695,-0.17356858,28.25,29.625,28.6875,32.5,34.9375,36.0
0.3360525,-0.59035075,0.5595078,-1.2782068,0.0124062365,0.07912465,-0.15968333,-0.4140125,-0.35745507,0.060081374,-3.0771143,0.6205343,0.00012820342,-0.14550427,0.07043097,-0.0017018846,0.019383233,-0.015590716,0.015401027,0.4652388,-1.356674,1.8723468,-2.0834906,-1.5727895,2.437709,-0.23546056,0.15831994,-0.20154233,0.06537957,-0.010992299,-0.2507364,-0.34476504,-0.17238253,-9.346964,0.8672237,47.67166,-1.0468159,-2.1643014,-3.3328128,-0.32075742,-0.38178882,-0.25545138,28.25,29.625,28.6875,32.5,34.9375,36.0
0.33805245,-0.40393382,0.9499526,-1.0781891,-0.023385957,0.088645086,-0.17324428,-0.41429374,-0.35731426,0.06010282,-3.0770903,0.620495,9.3526076e-05,-0.1466946,0.070648305,-0.0014241559,0.019572904,-0.01387764,0.008607337,0.4647706,-1.3564101,1.87194,-2.0833118,-1.572802,2.4372196,-0.23611233,0.15916313,-0.2030487,0.064604715,-0.011944991,-0.24459057,-0.59376204,0.0,-9.308657,0.8940802,47.64389,-1.2296722,-2.0977452,-3.4051714,-0.3205999,-0.36133102,-0.34175026,28.25,29.625,28.6875,32.5,34.9375,36.0
0.34005263,0.15906046,0.66359836,-1.5649185,-0.016761392,0.09532428,-0.1787593,-0.41460288,-0.35716608,0.060100436,-3.0770557,0.6204706,4.2931995e-05,-0.14838135,0.070793524,-0.00094587216,0.018891176,-0.012111513,0.0041052513,0.46426627,-1.356074,1.871508,-2.0831678,-1.5728139,2.4367046,-0.23750354,0.16032106,-0.20542794,0.063940324,-0.012150559,-0.24147755,-0.38307226,-0.17238252,-9.385271,0.9164598,47.666286,-1.2811041,-2.1902394,-3.3574038,-0.3427111,-0.3765099,-0.40135014,28.25,29.625,28.6875,32.5,34.9375,36.0
0.3420517,-0.84600824,0.17373008,-1.7884835,-0.019000355,0.06411089,-0.17018907,-0.41490978,-0.35705495,0.060110927,-3.0770748,0.6203934,0.00010765552,-0.149207,0.0709846,-0.0017811637,0.019866318,-0.011629259,0.010856031,0.46383408,-1.3557492,1.871077,-2.0830967,-1.5728382,2.436222,-0.2376945,0.16278042,-0.20614533,0.062182218,-0.013254657,-0.24841577,-0.22984336,-0.21068975,-9.519346,0.9254084,47.64389,-1.2923498,-2.272853,-3.3595786,-0.34612754,-0.36275113,-0.3957811,28.25,29.625,28.6875,32.5,34.9375,36.0
0.3440526,-0.95885676,-0.48031002,-1.449135,-0.040126815,0.080774575,-0.16920397,-0.41517743,-0.35689244,0.06009288,-3.0770128,0.6203152,-1.6730653e-05,-0.15065758,0.071263485,-0.00254448,0.019095674,-0.010493992,0.022907147,0.4633417,-1.355449,1.8707184,-2.0829303,-1.5728506,2.435689,-0.23932183,0.16507773,-0.20646566,0.058806866,-0.013140306,-0.26209268,-0.30645782,-0.05746084,-9.423578,0.8918391,47.672558,-1.4079285,-2.3614793,-3.441867,-0.3232991,-0.35785657,-0.2845612,28.25,29.625,28.6875,32.5,34.9375,36.0
0.34605268,-0.3730596,-0.6294517,-1.4325776,-0.04756305,0.10743438,-0.1661447,-0.41548538,-0.356733,0.06008864,-3.076939,0.62025756,-3.6617814e-05,-0.15172765,0.07109536,-0.0028892239,0.018984564,-0.00924146,0.032653272,0.4628495,-1.3551123,1.8702873,-2.0827754,-1.5729102,2.4351704,-0.23947583,0.1671021,-0.20772865,0.05683403,-0.013649173,-0.27198973,-0.21068975,0.076614454,-9.404425,0.8918391,47.651955,-1.4449806,-2.3753958,-3.4426203,-0.30596158,-0.37630293,-0.15071872,28.25,29.625,28.6875,32.5,34.9375,36.0
0.3480516,-0.62075216,-0.19032587,-1.472381,-0.06238358,0.10813273,-0.17713691,-0.41578156,-0.35660186,0.060098328,-3.0769324,0.62019926,-1.4980654e-05,-0.15313761,0.070827,-0.002240762,0.017718388,-0.0074440567,0.030847477,0.46239364,-1.3548125,1.8698796,-2.082668,-1.5729345,2.4346793,-0.24025425,0.1679179,-0.21008596,0.056190804,-0.01333015,-0.2709625,-0.11492168,0.15322891,-9.385271,0.8247004,47.658226,-1.3749992,-2.3931642,-3.410304,-0.3122642,-0.35805202,-0.121503085,28.25,29.625,28.6875,32.5,34.9375,36.0
0.35005257,-0.3469069,-0.76622295,-1.5072808,-0.065044664,0.110921375,-0.16267428,-0.41608247,-0.3564224,0.06004893,-3.0768554,0.6201526,-0.00012875281,-0.1559845,0.07152693,-0.0028951738,0.016439006,-0.004755709,0.01824682,0.4618525,-1.3544397,1.869521,-2.0825741,-1.5729584,2.434119,-0.24361809,0.17096964,-0.21124645,0.051330402,-0.013417071,-0.26172298,-0.3256114,0.21068975,-9.5385,0.9186956,47.657326,-1.310174,-2.3416886,-3.4391446,-0.26556468,-0.38843888,-0.21094555,28.25,29.625,28.6875,32.5,34.9375,36.0
0.35205254,-0.21445702,-1.0045333,-1.6650188,-0.0624311,0.091623165,-0.16004784,-0.41638416,-0.35629565,0.060059708,-3.0768611,0.61995125,-0.00010913541,-0.15840186,0.07274045,-0.0014139818,0.014501468,-0.0002045273,0.0035340257,0.46140718,-1.3541169,1.8690776,-2.0824435,-1.5729946,2.4335475,-0.24735637,0.16887008,-0.21155874,0.04881517,-0.013702661,-0.2507476,-0.24899697,0.24899697,-9.500193,0.9097417,47.66987,-1.2597023,-2.2379935,-3.4180145,-0.21029782,-0.3689288,-0.3301753,28.25,29.625,28.6875,32.5,34.9375,36.0
0.35405248,0.11497221,-0.895801,-1.6093079,-0.07906295,0.082544714,-0.14921857,-0.4167024,-0.35612717,0.06004604,-3.0767741,0.62013054,-0.00012225042,-0.16086382,0.073422894,-0.000343015,0.013314462,0.0023431608,-0.0062135994,0.4608779,-1.3537812,1.8686818,-2.0823472,-1.5730304,2.4331415,-0.25035256,0.16931655,-0.21451329,0.048513517,-0.013779725,-0.24399441,-0.4596867,0.3256114,-9.557653,0.91198283,47.679718,-1.1051903,-2.1395676,-3.4862747,-0.16957372,-0.37322587,-0.4756022,28.25,29.625,28.6875,32.5,34.9375,36.0
0.3560523,-0.29674584,-1.5246754,-1.614682,-0.07365972,0.07515119,-0.15975875,-0.4170519,-0.3559919,0.06006128,-3.0767705,0.6201445,-3.793793e-06,-0.16172762,0.072720826,0.00067575497,0.013003071,0.0038556403,0.00068547315,0.46038637,-1.3534331,1.8682135,-2.082287,-1.573079,2.4326594,-0.2494655,0.16992484,-0.21789375,0.049761772,-0.014175277,-0.2500049,-0.49799395,0.28730422,-9.423578,0.8717007,47.68062,-1.1042547,-2.2594757,-3.4168472,-0.18544725,-0.38659358,-0.468118,28.25,29.625,28.6875,32.5,34.9375,36.0
0.35805228,0.07184154,-0.37464836,-1.6517235,-0.08522517,0.0953497,-0.1770075,-0.41738927,-0.3558607,0.060087398,-3.0768242,0.6200687,6.768598e-05,-0.16410604,0.07195657,0.0017550556,0.010867492,0.007950977,0.017024923,0.45988265,-1.3531209,1.8677586,-2.0822046,-1.573079,2.4321017,-0.25002587,0.1712044,-0.22138482,0.047309455,-0.014108349,-0.2669044,-0.24899697,0.28730422,-9.481039,0.8985519,47.687782,-1.1527474,-2.1786315,-3.351879,-0.15801519,-0.36950666,-0.33102116,28.25,29.625,28.6875,32.5,34.9375,36.0
0.36005226,-0.73609096,-0.33112928,-1.6745092,-0.06081441,0.10052301,-0.1636159,-0.4177094,-0.35572278,0.060075987,-3.0768063,0.61996466,1.5925427e-05,-0.1649732,0.07312222,0.0016248125,0.010742796,0.007677176,0.025682017,0.4593894,-1.3527372,1.8672913,-2.082073,-1.5730904,2.431546,-0.2526525,0.17138733,-0.22135799,0.04725329,-0.013907227,-0.27818832,-0.17238252,0.24899697,-9.576807,0.9030289,47.67614,-1.0661991,-2.199107,-3.3678603,-0.11873745,-0.38501394,-0.20601979,28.25,29.625,28.6875,32.5,34.9375,36.0
0.36205208,-0.80374557,-0.3324543,-1.6316997,-0.049194157,0.12557666,-0.15844257,-0.41801816,-0.35556516,0.060070317,-3.0767775,0.61994237,-2.4157942e-05,-0.16433817,0.07293568,0.0010376434,0.011304621,0.00495004,0.024753936,0.45887318,-1.3524125,1.8668846,-2.0819519,-1.5731024,2.4310198,-0.25205842,0.17291307,-0.22242059,0.04947514,-0.013207093,-0.27666757,-0.49799395,0.17238252,-9.519346,0.9030289,47.679718,-1.025663,-2.3159251,-3.3933334,-0.1194935,-0.40523443,-0.1794861,28.25,29.625,28.6875,32.5,34.9375,36.0
0.36405203,-0.6993716,0.4481528,-1.6389369,-0.04746293,0.12882861,-0.15999603,-0.4183637,-0.35540146,0.060072076,-3.0767562,0.61984575,4.469584e-05,-0.16566491,0.07314704,0.00063866837,0.011416502,0.0042017666,0.01554738,0.4583457,-1.3520639,1.8664407,-2.081868,-1.5731624,2.430435,-0.25347844,0.17590156,-0.22532374,0.050105292,-0.012964113,-0.26888067,-0.4405331,0.095768064,-9.5385,0.99702406,47.699425,-1.1585611,-2.3344698,-3.3138351,-0.10694288,-0.41285262,-0.26919457,28.25,29.625,28.6875,32.5,34.9375,36.0
0.3660519,-0.915173,0.34259376,-1.3072814,-0.04087349,0.11754807,-0.16182122,-0.41868985,-0.3552707,0.060068447,-3.0767744,0.6197942,5.5755456e-05,-0.1661889,0.07324834,0.00085016876,0.011349694,0.0046094432,0.008953496,0.4578536,-1.3517044,1.8659981,-2.0817964,-1.5731624,2.4299085,-0.25383243,0.17636375,-0.22649245,0.050426286,-0.013072479,-0.2626402,-0.5554548,0.019153614,-9.5385,0.8627467,47.694946,-1.2232331,-2.2059736,-3.2821784,-0.07755253,-0.4176536,-0.3628923,28.25,29.625,28.6875,32.5,34.9375,36.0
0.36805186,-0.65618604,0.438998,-1.2691897,-0.03244506,0.11855881,-0.15601934,-0.41903815,-0.3551393,0.060090583,-3.0767725,0.6198308,9.391716e-05,-0.16651745,0.073643975,-6.199569e-06,0.013215047,0.0038355335,0.010089374,0.45734984,-1.3513441,1.8654827,-2.0816648,-1.5731748,2.429428,-0.25376442,0.17868283,-0.22743832,0.050564267,-0.014402314,-0.2637035,-0.47884035,-0.17238252,-9.423578,0.93436235,47.70659,-1.4052731,-2.2264128,-3.4002485,-0.063045986,-0.40166718,-0.4306235,28.25,29.625,28.6875,32.5,34.9375,36.0
0.37005195,-0.03919673,1.3170835,-1.4957527,-0.012360168,0.10547383,-0.17799848,-0.41938823,-0.3549822,0.06008646,-3.076748,0.6196859,0.00019802309,-0.16726577,0.07366286,-6.0072747e-05,0.013516013,0.003717441,0.022406703,0.45684537,-1.3509718,1.8650283,-2.0816042,-1.5732588,2.4288366,-0.25407934,0.18032975,-0.22950216,0.051160462,-0.014641216,-0.27633458,-0.3256114,-0.17238252,-9.442732,0.88960326,47.672558,-1.4048231,-2.3097396,-3.4629693,-0.028687123,-0.41785604,-0.29831558,28.25,29.625,28.6875,32.5,34.9375,36.0
0.37205207,-0.2657992,1.2902552,-1.1631906,-0.001161594,0.08503906,-0.16081315,-0.41971314,-0.3548302,0.060080547,-3.0767612,0.6196414,0.00014202778,-0.16818129,0.074040554,0.0007753545,0.014029256,0.00543626,0.034130547,0.45630553,-1.3506243,1.8645967,-2.081496,-1.5732354,2.4282675,-0.25452265,0.17996436,-0.23116508,0.051845655,-0.015891321,-0.288497,-0.4213795,-0.21068975,-9.461885,0.9567419,47.68599,-1.4404964,-2.305335,-3.5120971,0.00046809157,-0.3928747,-0.18195385,28.25,29.625,28.6875,32.5,34.9375,36.0
0.37405214,1.0388249,1.5282733,-0.8332553,-0.0056259255,0.11135732,-0.17867927,-0.4200537,-0.35468057,0.06006956,-3.0767126,0.6196167,0.00015327625,-0.16943684,0.07575638,0.00019588758,0.014236084,0.003405184,0.029054403,0.45580024,-1.3502277,1.8641175,-2.0813882,-1.5732831,2.4277532,-0.25868148,0.18150443,-0.23206148,0.05309537,-0.015188248,-0.2875813,-0.45968673,-0.1340753,-9.270349,0.8627467,47.675243,-1.267349,-2.3425992,-3.436445,0.025623543,-0.41677123,-0.11612618,28.25,29.625,28.6875,32.5,34.9375,36.0
0.37605205,0.48797256,1.7402194,-1.0612799,-0.00024683113,0.089920886,-0.17186303,-0.420412,-0.3545183,0.0600628,-3.0766952,0.6195425,0.00020747563,-0.1698796,0.076712,-0.00050755084,0.016527703,0.0014397962,0.018690726,0.4552597,-1.3498436,1.8636516,-2.0813158,-1.5733312,2.4271688,-0.2597355,0.18375741,-0.23375279,0.055313498,-0.016363027,-0.2782672,-0.30645782,-0.22984336,-9.155427,0.9835985,47.6636,-1.2097245,-2.3205814,-3.4122367,0.014359606,-0.40718186,-0.20093139,28.25,29.625,28.6875,32.5,34.9375,36.0
0.37805206,0.9086725,1.7374092,-1.1276877,0.0065728575,0.0814437,-0.17364983,-0.4207224,-0.35437223,0.060072366,-3.0767126,0.61955345,0.0001828234,-0.1706729,0.07732436,0.00026818083,0.017320976,0.0014765156,0.00634501,0.45474306,-1.3495439,1.8632425,-2.081207,-1.5733079,2.426657,-0.2608037,0.18380547,-0.23624752,0.058105677,-0.017073303,-0.26698667,-0.15322891,-0.22984336,-9.32781,0.9254084,47.689575,-1.2551191,-2.2744017,-3.366137,0.013371671,-0.3872199,-0.34867048,28.25,29.625,28.6875,32.5,34.9375,36.0
0.38005212,0.6134222,0.9348764,-0.89123684,0.0008772521,0.07607791,-0.16851428,-0.42109728,-0.35419354,0.06008704,-3.0766325,0.6195971,0.00028201204,-0.17062612,0.07763992,-4.106247e-05,0.018862389,-0.001615883,0.0004264569,0.454191,-1.3491715,1.8627285,-2.081074,-1.5734037,2.4261427,-0.26107416,0.18586527,-0.23903805,0.062272232,-0.017088972,-0.26133773,-0.19153613,-0.11492168,-9.174581,0.9186956,47.64479,-1.2086519,-2.327135,-3.271531,-0.02943943,-0.4001165,-0.4805214,28.25,29.625,28.6875,32.5,34.9375,36.0
