Tylouw/Master_Thesis_Code/training_data/batch_1/rect_rod_t0.3/sample_63_session_2.csv
timestamp[s],tcp_force_x[N],tcp_force_y[N],tcp_force_z[N],tcp_force_rx[Nm?],tcp_force_ry[Nm?],tcp_force_rz[Nm?],tcp_pose_x[m],tcp_pose_y[m],tcp_pose_z[m],tcp_pose_rx[rot_vec_x],tcp_pose_ry[rot_vec_y],tcp_pose_rz[rot_vec_z],tcp_velo_x[m/s],tcp_velo_y[m/s],tcp_velo_z[m/s],tcp_velo_rx[rot_vec_x/s],tcp_velo_ry[rot_vec_y/s],tcp_velo_rz[rot_vec_z/s],q1[rad],q2[rad],q3[rad],q4[rad],q5[rad],q6[rad],qd1[rad/s],qd2[rad/s],qd3[rad/s],qd4[rad/s],qd5[rad/s],qd6[rad/s],tool_acc_x,tool_acc_y,tool_acc_z,current_of_whole_robot[A],voltage_of_whole_robot[V],current_J1[A],current_J2[A],current_J3[A],current_J4[A],current_J5[A],current_J6[A],temp_J1[C],temp_J2[C],temp_J3[C],temp_J4[C],temp_J5[C],temp_J6[C]
6.6903885e-07,-0.27584732,-0.7334676,-0.40989366,0.0010411253,0.0010723374,0.009485934,-0.38933536,-0.36873516,0.06002962,-3.0787559,0.62482303,0.00027740168,0.00032668855,0.00014745895,-0.00010674761,0.00041157345,-0.0010406928,0.00011720779,0.5050688,-1.3816799,1.9041985,-2.0919273,-1.5708655,2.479989,-3.362752e-05,-8.585854e-06,-8.29511e-07,0.0011187571,0.00014599551,-0.00015115752,0.095768064,0.095768064,-8.695741,0.7866488,47.733456,-0.2041261,-3.0395145,-2.2960455,-0.19843149,0.06923038,-0.0034279115,28.4375,29.8125,28.8125,32.625,35.125,36.125
0.002052662,-0.6422622,-0.910042,-0.5384474,0.011462116,-0.00015063814,0.015792668,-0.3893452,-0.36872375,0.060017135,-3.0787363,0.62489575,0.00023996626,-0.0014403235,-0.0008338142,-0.00023591408,-0.0033928577,0.0058087944,0.000114743794,0.5050329,-1.3816559,1.9041995,-2.091931,-1.5708536,2.480001,-3.3010827e-05,-1.15190176e-07,0.0026673947,-0.009393049,0.00014268864,-0.00014804909,0.05746084,0.22984336,-8.561666,0.75084364,47.728977,-0.19702956,-2.9362664,-2.2660003,-0.13722688,0.09606488,0.0010282765,28.4375,29.8125,28.8125,32.625,35.125,36.125
0.004051948,-0.7411287,-0.80795157,-0.4728281,-0.0003815158,0.0058930097,0.005943365,-0.38934472,-0.36871904,0.06002142,-3.0787194,0.6249313,0.00025136516,-0.0014713706,-0.00085138535,-0.002125119,-0.0026578018,0.0044768485,0.00011275917,0.5050329,-1.3816667,1.9042,-2.0919201,-1.5708655,2.4800253,-3.2416374e-05,0.0033007285,0.0037054576,-0.01221064,0.00013952839,-0.0001450661,0.095768064,0.19153613,-8.542512,0.7486078,47.72271,-0.20115563,-3.351491,-2.593163,-0.020493,0.089665815,-0.008841316,28.4375,29.8125,28.8125,32.625,35.125,36.125
0.006052147,-0.5789034,-0.68137133,-0.20776217,0.00060122664,-0.0019301891,0.0122968955,-0.38935232,-0.3687171,0.06002401,-3.0787108,0.6249103,0.00031465339,-0.00037786012,-0.00024236586,-0.0015956546,-0.0007904555,0.0011298665,0.00011014455,0.5050448,-1.3816671,1.9041995,-2.0919416,-1.5709013,2.4800253,-3.1842897e-05,0.00215008,0.0024435224,-0.005965408,0.00013650485,-0.00014220102,0.038307227,0.24899697,-8.523358,0.7463667,47.71465,-0.18199953,-3.2888746,-2.5549016,-0.07672882,0.07658525,-0.009101781,28.4375,29.8125,28.8125,32.625,35.125,36.125
0.008052192,-0.2097327,-0.15930702,-0.7258645,0.04236511,-0.021992382,0.009814318,-0.38935068,-0.36872944,0.06002328,-3.0787446,0.6248782,0.0002772034,3.0759304e-05,-1.905714e-05,-0.00038564525,-0.0004020554,0.00041823613,0.0001076882,0.5050448,-1.3816559,1.9041876,-2.0919402,-1.5708655,2.480001,-3.1289375e-05,0.00010903752,0.00116471,-0.0018348694,0.00014776715,-0.00013944691,-0.1340753,0.21068975,-8.63828,0.7709874,47.686886,-0.18534341,-3.2379897,-2.4769757,-0.108245626,0.09523016,-0.013569536,28.4375,29.8125,28.8125,32.625,35.125,36.125
0.01005219,0.3772432,0.56428695,-1.1157928,0.04239856,-0.009262495,0.0035903663,-0.38933325,-0.3687269,0.06000898,-3.0787213,0.6249123,0.00024760325,0.0011526658,0.00060985587,-0.00058340584,0.0016421153,-0.0032610402,9.541293e-05,0.50505686,-1.3816559,1.9042224,-2.0919502,-1.5708655,2.4800372,-4.087627e-05,1.4628775e-06,0.0006446248,0.00300179,0.00014920381,-0.00013708268,-0.019153614,0.1340753,-8.983045,0.779936,47.701214,-0.69959927,-2.782837,-2.8608131,-0.1326759,0.047766265,-0.1035348,28.4375,29.8125,28.8125,32.625,35.125,36.125
0.012052248,0.049618807,-0.18728828,-1.4525545,0.024771547,0.0038009293,-0.002266469,-0.3893116,-0.3687237,0.05999683,-3.078701,0.6248682,0.00013740628,0.0007777309,0.00047126136,-0.00071984227,0.0019111867,-0.0037125216,0.0029112466,0.5050568,-1.3816437,1.9042219,-2.09189,-1.5708417,2.4800122,-0.00014780994,0.0012952376,-0.0007046613,0.0035822468,0.00013055374,-0.0030591362,0.11492168,0.095768064,-9.078813,0.71279734,47.655537,-0.8711513,-2.590212,-2.9408484,-0.13669407,0.07027372,-0.16129741,28.4375,29.8125,28.8125,32.625,35.125,36.125
0.014052306,-1.0857854,-0.8555039,-1.5387911,-0.012982092,0.014957063,-0.00770204,-0.38931307,-0.36869618,0.059967898,-3.0786521,0.62489676,8.840377e-05,-0.0040629157,0.004858112,-0.0047841254,0.005084889,-0.009460913,0.00081644335,0.50501657,-1.3816158,1.9042577,-2.0919025,-1.5708536,2.479996,-0.012061494,0.011236708,-0.002942315,0.002443155,0.00012577292,-0.012875398,0.038307227,0.095768064,-9.346964,0.72622824,47.68062,-0.42007667,-3.166739,-2.99555,-0.12211561,0.047775295,-0.087418824,28.4375,29.8125,28.8125,32.625,35.125,36.125
0.016052108,-1.6975956,-1.6150119,-1.57501,-0.042966668,0.03787014,-0.01531104,-0.38932654,-0.36866874,0.059955016,-3.0785882,0.62488014,5.4664288e-05,-0.005142245,0.0048052357,-0.004500893,0.004512087,-0.008432659,0.007513365,0.5049804,-1.3815794,1.9042333,-2.0918553,-1.5708898,2.4799576,-0.012981309,0.012033409,-0.0044134483,0.0019386148,0.00012317167,-0.020491354,-0.13407528,0.21068975,-9.346964,0.7172743,47.67793,-0.46029025,-3.226601,-2.9746294,-0.09968776,0.05447002,-0.02292741,28.4375,29.8125,28.8125,32.625,35.125,36.125
0.01805249,-2.2314982,-1.751581,-1.6199939,-0.04576225,0.06259423,-0.0329053,-0.3893194,-0.36870146,0.059948735,-3.078642,0.6248505,-4.942499e-06,-0.0052374797,0.0044329166,-0.0027779245,0.0028807216,-0.0054773046,0.012082019,0.5050046,-1.3815448,1.9042095,-2.0918677,-1.5708297,2.4799564,-0.012440078,0.008672137,-0.0043447884,0.001856204,0.00012080054,-0.024519328,-0.40222588,0.095768064,-9.346964,0.75084364,47.71465,-0.7030784,-2.9866955,-3.1476603,-0.080056354,0.04173199,0.010741612,28.4375,29.8125,28.8125,32.625,35.125,36.125
0.020052467,-2.0857153,-0.6515642,-1.8550638,-0.011525311,0.07352046,-0.06576294,-0.38931,-0.36867023,0.059932616,-3.0786083,0.62480706,-5.235035e-05,-0.0047484385,0.00542585,-0.002826425,0.004558637,-0.008492243,0.008762661,0.5049683,-1.3815569,1.9042572,-2.0918534,-1.5708417,2.4798973,-0.0136525575,0.008409965,-0.0048894635,0.0061134733,0.000118527154,-0.022412723,-0.57460845,0.17238252,-9.500193,0.77545905,47.686886,-0.8381091,-2.776681,-3.3470957,-0.11134906,0.041405596,-0.010848345,28.4375,29.8125,28.8125,32.625,35.125,36.125
0.02205238,-1.9564219,-0.32307872,-2.1893375,0.03498332,0.06883449,-0.08050636,-0.38933444,-0.36864772,0.05991134,-3.0785544,0.62483776,-0.0001385349,-0.0058464687,0.006382566,-0.003636555,0.005704318,-0.010564974,0.003705973,0.5049075,-1.3814839,1.9042085,-2.0918057,-1.5708417,2.4798625,-0.016289921,0.011093431,-0.0065128366,0.007422041,0.00011633828,-0.01999245,-0.47884035,0.076614454,-9.5385,0.7777002,47.701214,-0.88985074,-2.8694472,-3.3321266,-0.1302585,0.03675298,-0.056375377,28.4375,29.8125,28.8125,32.625,35.125,36.125
0.02405256,-1.9803689,0.001979838,-2.1123478,0.028862037,0.06095486,-0.10341484,-0.38934654,-0.36866307,0.059929516,-3.0786219,0.6247563,-0.00010553365,-0.008268932,0.0060998686,-0.0025264656,0.003914207,-0.0073397793,-6.130034e-05,0.50490683,-1.3814956,1.9041837,-2.0918176,-1.5708174,2.4798024,-0.018079035,0.011939265,-0.009743143,0.0061185644,0.000114229,-0.018012686,-0.59376204,0.019153614,-9.653421,0.62999195,47.684196,-0.8218108,-2.8235502,-3.3132768,-0.11990495,0.03315204,-0.077245235,28.4375,29.8125,28.8125,32.625,35.125,36.125
0.026052121,-2.186591,-0.52160776,-2.3530235,0.024909059,0.066119134,-0.10685666,-0.38936582,-0.3686506,0.05992417,-3.078562,0.62488014,-0.00010931177,-0.008933976,0.0057657077,-0.00300158,0.003830199,-0.0071949754,-0.0009780945,0.50488293,-1.3814588,1.904147,-2.0917938,-1.5708417,2.4798634,-0.018138424,0.014021243,-0.0108667435,0.004992508,0.00011219468,-0.01715437,-0.7469909,0.0,-9.730036,0.79560274,47.67166,-0.9263416,-2.8341901,-3.3707485,-0.06217485,0.023502752,-0.10890786,28.4375,29.8125,28.8125,32.625,35.125,36.125
0.028052043,-2.2958462,-1.1081324,-2.2514064,0.011419324,0.08601485,-0.11726841,-0.3893657,-0.3686309,0.05986887,-3.0785189,0.62483263,-0.00026376595,-0.009777943,0.005759035,-0.0028002253,0.0036877838,-0.0068735713,-0.0019510671,0.50483465,-1.3813623,1.904159,-2.0917938,-1.5708174,2.479791,-0.01889509,0.014951838,-0.012506548,0.0053521036,7.647496e-05,-0.016937232,-0.8619126,-0.038307227,-9.730036,0.76874626,47.691364,-0.881815,-2.8910425,-3.3587503,-0.07371952,0.017289069,-0.11894132,28.4375,29.8125,28.8125,32.625,35.125,36.125
0.030051686,-3.058304,-1.1947203,-2.2866101,0.00065543974,0.08156112,-0.12389073,-0.38938174,-0.3686137,0.05985807,-3.0784786,0.6248634,-0.00029547772,-0.010065712,0.0063413307,-0.0033177985,0.0050562415,-0.009277769,-0.0033314624,0.5047984,-1.3813257,1.9041346,-2.091769,-1.5708297,2.479779,-0.02012423,0.016769402,-0.014038619,0.007832706,4.304112e-05,-0.016785266,-0.7661445,-0.095768064,-9.940725,0.7642693,47.723602,-0.936881,-2.7883217,-3.3194876,-0.10313848,0.0040986105,-0.15305452,28.4375,29.8125,28.8125,32.625,35.125,36.125
0.032051798,-2.5236893,-1.0130333,-2.2480237,0.00030774347,0.10103343,-0.13770583,-0.3894088,-0.36860988,0.059883147,-3.0784929,0.6248665,-0.00023977515,-0.010467882,0.006654096,-0.0030070944,0.0051303725,-0.009403745,-0.0036672577,0.50477415,-1.3813379,1.9040865,-2.0917451,-1.5708417,2.479755,-0.021023797,0.016640062,-0.0148362,0.008905473,4.0016752e-05,-0.017348837,-0.7661445,-0.076614454,-9.940725,0.842603,47.686886,-1.0008932,-2.811781,-3.3966637,-0.11120404,0.013004489,-0.15199047,28.4375,29.8125,28.8125,32.625,35.125,36.125
0.03405229,-2.986706,-0.3280653,-2.241069,0.0011127233,0.084013686,-0.15578812,-0.38941023,-0.36856064,0.059845027,-3.078413,0.6249073,-0.0003689957,-0.011283957,0.0068271775,-0.0031764994,0.0051025394,-0.009328785,-0.0038080376,0.50468993,-1.3813013,1.9041218,-2.091709,-1.5708417,2.4797063,-0.022068238,0.017865479,-0.015827255,0.008591971,2.2072649e-05,-0.018251836,-0.68953013,0.0,-9.768343,0.784413,47.65912,-0.9503562,-2.8447092,-3.326865,-0.113417596,0.00055138534,-0.17683357,28.4375,29.8125,28.8125,32.625,35.125,36.125
0.03605161,-2.316988,-0.59803385,-2.407374,0.020906864,0.0826617,-0.1655365,-0.38945296,-0.36857948,0.05985935,-3.078461,0.624822,-0.00028522106,-0.013026213,0.00733007,-0.002129786,0.0038586326,-0.0070786765,-0.004534681,0.5046891,-1.3812536,1.9040383,-2.0917332,-1.5708536,2.4796462,-0.024539383,0.017131673,-0.017249662,0.008176651,1.9256488e-05,-0.019995824,-0.5746084,-0.038307227,-9.787497,0.7016076,47.723602,-0.8890501,-2.7767,-3.4263306,-0.1024714,0.0030724336,-0.18133308,28.4375,29.8125,28.8125,32.625,35.125,36.125
0.03805255,-2.0829039,-0.8551218,-2.282975,0.031479143,0.06835406,-0.17389473,-0.3894908,-0.36855462,0.059840526,-3.078409,0.62496513,-0.00035549724,-0.014302267,0.008087642,-0.002147893,0.0037281406,-0.0068149925,-0.00521304,0.5046044,-1.3811812,1.9039901,-2.091709,-1.5708417,2.4796574,-0.02699474,0.017894877,-0.018053997,0.00792392,1.2573113e-06,-0.021772314,-0.47884035,-0.05746084,-9.787497,0.7911258,47.723602,-0.9267148,-2.741416,-3.3606224,-0.081335224,-0.018643219,-0.19559696,28.4375,29.8125,28.8125,32.625,35.125,36.125
0.040052522,-2.4147825,-1.0215193,-2.1239219,0.026089163,0.039502945,-0.18639584,-0.38953558,-0.36854377,0.059871532,-3.078445,0.6249529,-0.00029536657,-0.0155274235,0.007843703,-0.0015919919,0.0029093549,-0.005339978,-0.005184124,0.5045443,-1.3811929,1.9039282,-2.0916855,-1.5708417,2.4795852,-0.027726868,0.018589538,-0.02005359,0.007541714,8.209344e-08,-0.022532387,-0.5363012,-0.019153614,-9.730036,0.78217715,47.74331,-0.90403825,-2.707242,-3.3461375,-0.06438072,-0.012185912,-0.21572778,28.4375,29.8125,28.8125,32.625,35.125,36.125
0.042052466,-1.7800716,-1.0582707,-2.0724406,0.02068795,0.049056605,-0.2039326,-0.38955685,-0.36853597,0.059845455,-3.0784245,0.6250258,-0.00036464896,-0.016549286,0.00785626,-0.0007642337,0.0020286974,-0.0037542768,-0.0051375926,0.50449604,-1.381121,1.9039053,-2.0916975,-1.5708174,2.479585,-0.028701436,0.018150814,-0.021417925,0.0075313644,5.360115e-09,-0.023552999,-0.47884035,0.0,-9.710882,0.7777002,47.687782,-0.8806184,-2.7696857,-3.305415,-0.07654479,-0.037254788,-0.2296257,28.4375,29.8125,28.8125,32.625,35.125,36.125
0.044052504,-1.0011681,-1.2069736,-1.9932287,0.017975913,0.061133817,-0.2094901,-0.38958085,-0.36850154,0.05983047,-3.0783696,0.6250129,-0.00043734585,-0.017222412,0.0090387575,-0.0012418779,0.0041813855,-0.0041803615,-0.004425222,0.5044237,-1.3810726,1.9038686,-2.0916374,-1.5708302,2.4795115,-0.030270891,0.019144041,-0.021654861,0.00819405,-0.0016807222,-0.025831362,-0.17238252,0.076614454,-9.710882,0.7351769,47.688675,-0.89908206,-2.686714,-3.3432374,-0.068537325,-0.03482851,-0.23639072,28.4375,29.8125,28.8125,32.625,35.125,36.125
0.04605179,-0.8693746,-1.0030555,-2.150748,0.0039855395,0.05531181,-0.20121299,-0.38962528,-0.3684767,0.059837904,-3.078358,0.6249717,-0.0003859809,-0.018777885,0.009891793,-0.00092249044,0.004710325,-0.0032425683,-0.0039712433,0.50436294,-1.3810486,1.9038204,-2.0916255,-1.5708665,2.4794266,-0.032583673,0.01980124,-0.023241637,0.008560082,-0.0026009236,-0.028595645,-0.019153614,0.1340753,-9.672575,0.73069996,47.686886,-0.8904331,-2.713604,-3.3610332,-0.065007426,-0.018078009,-0.24556507,28.4375,29.8125,28.8125,32.625,35.125,36.125
0.04805176,-0.7498821,-1.1387434,-2.2828374,0.0042274124,0.03568609,-0.17378536,-0.38969076,-0.36847895,0.05987397,-3.0784218,0.6250226,-0.00031021598,-0.020388782,0.009882307,0.00031669944,0.0034457115,-0.0011795394,-0.0030459084,0.50429064,-1.3810365,1.9037241,-2.091625,-1.5708426,2.479378,-0.034134578,0.01947388,-0.02577624,0.009004522,-0.0024939699,-0.031071365,-0.11492168,0.095768064,-9.557653,0.7866488,47.701214,-0.82070684,-2.6337636,-3.218977,-0.06342198,-0.011950498,-0.23477113,28.4375,29.8125,28.8125,32.625,35.125,36.125
0.05005228,-0.3885587,-0.92899066,-2.194763,-0.0036876143,0.021802234,-0.18792807,-0.3897177,-0.36844668,0.059859887,-3.07836,0.62508583,-0.00037087232,-0.021100217,0.010303685,7.0824266e-05,0.0033341532,-0.0019396527,-0.0026044578,0.5042183,-1.380988,1.9036878,-2.0915768,-1.5708541,2.479353,-0.035794966,0.020557791,-0.026571179,0.009324614,-0.0020330567,-0.033173475,-0.095768064,0.11492168,-9.557653,0.7105615,47.716442,-0.7974867,-2.6400514,-3.2539186,-0.060343523,-0.035662584,-0.24131086,28.4375,29.8125,28.8125,32.625,35.125,36.125
0.052052226,-0.19104373,-1.1034749,-2.0998728,-0.0010673251,0.020269971,-0.17732906,-0.38976532,-0.36842805,0.059865877,-3.078373,0.62505186,-0.0003026212,-0.022381151,0.011240069,-5.133227e-06,0.0031144253,-0.0023300082,-0.0046071485,0.50415736,-1.3809638,1.9036511,-2.0916011,-1.5708779,2.4792693,-0.038801752,0.02136288,-0.027411249,0.009592751,-0.0016526865,-0.034177918,-0.038307227,0.1340753,-9.519346,0.800085,47.74241,-0.7442369,-2.6566906,-3.2560725,-0.04720927,-0.037736434,-0.24229819,28.4375,29.8125,28.8125,32.625,35.125,36.125
0.054052226,-0.6983305,-1.2917833,-2.0635715,0.0023050276,0.008522508,-0.1789643,-0.38983238,-0.36839932,0.05986373,-3.0783474,0.6250837,-0.00027967026,-0.022714203,0.011354867,4.7033893e-05,0.002897267,-0.0023752737,-0.0041100853,0.5040612,-1.3808918,1.9035681,-2.0915892,-1.5709018,2.4791963,-0.03943249,0.02159106,-0.027828854,0.009714958,-0.0014421309,-0.03530592,0.05746084,0.15322891,-9.519346,0.69041777,47.752266,-0.6743539,-2.5817826,-3.2997422,-0.03730531,-0.054910123,-0.26418695,28.4375,29.8125,28.8125,32.625,35.125,36.125
0.05605178,-0.5718794,-0.8871138,-1.8231574,-0.0027282394,0.016326435,-0.17181943,-0.38987672,-0.3683734,0.05986557,-3.0783587,0.6251611,-0.0003179089,-0.022925742,0.010805894,0.0005401131,0.0023930187,-0.0021416668,-0.002341427,0.5039538,-1.3808675,1.9035324,-2.0915763,-1.570866,2.4791358,-0.038906224,0.021848476,-0.029467257,0.0106475875,-0.0011157042,-0.036548316,0.038307227,0.15322891,-9.461885,0.779936,47.729877,-0.8792131,-2.689088,-3.2712698,-0.062106825,-0.038389705,-0.2719941,28.4375,29.8125,28.8125,32.625,35.125,36.125
0.058051754,-0.49397698,-1.048475,-1.9004824,0.0076607773,0.024595292,-0.17522821,-0.38992766,-0.36834764,0.059881523,-3.0783346,0.62513745,-0.00025362524,-0.024390059,0.011643236,0.00063089206,0.00278934,-0.0027177362,-0.0034782288,0.50389296,-1.380843,1.903459,-2.09154,-1.5709141,2.4790633,-0.041635636,0.023242792,-0.031660594,0.012140525,-0.0011862608,-0.03813985,0.019153614,0.1340753,-9.481039,0.7351769,47.72002,-0.79235506,-2.6540186,-3.199835,-0.047732048,-0.06080071,-0.27949655,28.4375,29.8125,28.8125,32.625,35.125,36.125
0.060051676,-0.2783516,-0.5636686,-1.8701655,0.0032658563,0.034253858,-0.17228709,-0.3899825,-0.3683485,0.059911024,-3.0784,0.6251505,-0.00021881885,-0.025236554,0.012066389,0.00060564186,0.0030848626,-0.002467568,-0.0034269614,0.50382066,-1.3808308,1.9033746,-2.0915282,-1.5708779,2.4789908,-0.04289587,0.024026666,-0.03253313,0.012155236,-0.0015661299,-0.039450254,-0.038307227,0.21068975,-9.423578,0.71951014,47.716442,-0.73907816,-2.6061382,-3.2200673,-0.047866777,-0.05819655,-0.2943069,28.4375,29.8125,28.8125,32.625,35.125,36.125
0.062051695,-0.46566913,-0.84613705,-1.8495799,0.00836158,0.027399842,-0.16693468,-0.39004382,-0.36829948,0.059887074,-3.0783453,0.6252157,-0.00026423548,-0.025822423,0.012648516,0.0005429097,0.0034257576,-0.0029078815,-0.0035888483,0.5036886,-1.3807466,1.9033269,-2.0915163,-1.5708903,2.4789064,-0.044362012,0.024502963,-0.03310044,0.012795801,-0.0016548033,-0.040754035,-0.076614454,0.17238252,-9.385271,0.7933669,47.691364,-0.7666255,-2.5849977,-3.2119322,-0.0538315,-0.08091748,-0.31946003,28.4375,29.8125,28.8125,32.625,35.125,36.125
0.06405247,-0.6889506,-0.8418976,-1.6930605,-0.0047205766,0.029785145,-0.1849378,-0.39005765,-0.36828318,0.059882108,-3.0783389,0.6250966,-0.00034957557,-0.026336193,0.012658795,0.0005569831,0.0034222095,-0.0030694676,-0.00063077826,0.5036405,-1.3807101,1.9032787,-2.0914438,-1.5708779,2.4787848,-0.04490488,0.025370564,-0.03425547,0.01322255,-0.0015794747,-0.044254456,-0.076614454,0.17238252,-9.251195,0.7463667,47.703007,-0.77983713,-2.5127802,-3.223672,-0.052269198,-0.06895538,-0.31156522,28.4375,29.8125,28.8125,32.625,35.125,36.125
0.06605285,-1.7739054,-0.7381462,-1.574659,-0.0033156886,0.016603932,-0.16689265,-0.39013365,-0.36827058,0.059882987,-3.0783415,0.62515545,-0.0002939889,-0.027258556,0.01314194,0.0009900536,0.0034449997,-0.002875832,-0.00086787605,0.5035561,-1.3806261,1.9031829,-2.091468,-1.5708903,2.4787369,-0.046500757,0.025522053,-0.035672996,0.01432947,-0.0016927044,-0.045612596,-0.21068975,0.076614454,-9.193734,0.8247004,47.723602,-0.7744284,-2.514073,-3.310007,-0.06928111,-0.0880266,-0.32060984,28.4375,29.8125,28.8125,32.625,35.125,36.125
0.06805192,-0.82557595,-0.7261356,-1.6387223,0.0075276983,0.05700451,-0.17831041,-0.39019158,-0.36824548,0.059901536,-3.0783522,0.62521565,-0.00025239374,-0.028144114,0.013506506,0.0010525975,0.0033735388,-0.0029129842,-0.0023275125,0.5034598,-1.3806138,1.9031233,-2.0914557,-1.5708903,2.4786768,-0.047984947,0.026312353,-0.036833156,0.014696943,-0.0016126771,-0.045636795,-0.2681506,0.1340753,-9.232041,0.81351066,47.691364,-0.8037945,-2.4893003,-3.2301183,-0.08216186,-0.091157734,-0.3536502,28.4375,29.8125,28.8125,32.625,35.125,36.125
0.07005183,-1.4480886,-0.3103606,-1.4647126,0.00890591,0.059134617,-0.17023917,-0.3902279,-0.3682204,0.05988584,-3.0783432,0.625114,-0.00033674296,-0.028725555,0.013396681,0.001306097,0.0032355997,-0.0023594107,0.0011181921,0.5033759,-1.3805416,1.9030627,-2.0914075,-1.5708779,2.4785306,-0.04824328,0.026821151,-0.038048513,0.014852378,-0.0017658666,-0.04933989,-0.28730422,0.13407528,-9.32781,0.7396539,47.682407,-0.8334149,-2.5416903,-3.2043633,-0.082750544,-0.102679126,-0.34415978,28.4375,29.8125,28.8125,32.625,35.125,36.125
0.0720516,-1.1010845,0.18000627,-1.4442968,0.008025836,0.07572815,-0.17267819,-0.39029458,-0.36818534,0.05990595,-3.0783317,0.62513113,-0.00035138507,-0.030419556,0.014658463,0.0012103567,0.0033443521,-0.0023163222,0.0012832783,0.5032548,-1.3805052,1.9029549,-2.091324,-1.5708779,2.4784217,-0.05186419,0.027794447,-0.03897443,0.014819252,-0.0018867449,-0.0531251,-0.30645782,0.13407528,-9.3661175,0.7597976,47.67614,-0.78466916,-2.522067,-3.2779393,-0.07872254,-0.114582226,-0.34428364,28.4375,29.8125,28.8125,32.625,35.125,36.125
0.074052624,-1.6843238,-0.5611314,-1.5462053,0.026537977,0.070429966,-0.16513078,-0.39036196,-0.36817282,0.059895426,-3.0783474,0.62509173,-0.00033678787,-0.03056873,0.014413461,0.0015194532,0.003396945,-0.002152008,0.0066427547,0.50317115,-1.380409,1.9028705,-2.091348,-1.5708784,2.4783115,-0.051504124,0.0279865,-0.040089693,0.015623268,-0.002014451,-0.058123894,-0.3256114,0.05746084,-9.32781,0.7978386,47.72002,-0.73423386,-2.506035,-3.2620153,-0.09191346,-0.1213153,-0.3029446,28.4375,29.8125,28.8125,32.625,35.125,36.125
0.07605207,-1.2992717,-0.18718642,-1.5301803,0.017940171,0.07696753,-0.16847533,-0.3904129,-0.36813527,0.059877783,-3.0783064,0.6250837,-0.0003563806,-0.031074217,0.014471678,0.0013617587,0.0036357923,-0.0020899826,0.0060924278,0.5030753,-1.3803366,1.9028224,-2.0913355,-1.5709022,2.478216,-0.05191671,0.028997142,-0.04089486,0.015477958,-0.002258099,-0.05798511,-0.45968673,0.038307227,-9.32781,0.7486078,47.686886,-0.9547456,-2.4905365,-3.270367,-0.102614276,-0.116349,-0.30084538,28.4375,29.8125,28.8125,32.625,35.125,36.125
0.07805204,-1.3229171,-0.16185375,-1.5745262,0.016038267,0.07703616,-0.16932707,-0.39046472,-0.36810383,0.059882537,-3.0783079,0.62500465,-0.00041086462,-0.03248264,0.015207539,0.0013320735,0.0045321872,-0.001591153,0.008027662,0.50296694,-1.3802881,1.902738,-2.091264,-1.5708908,2.478058,-0.053817667,0.03038251,-0.04252043,0.015716668,-0.0032913296,-0.06181832,-0.45968673,0.019153614,-9.232041,0.80679786,47.693153,-0.812873,-2.5114703,-3.213899,-0.09989644,-0.13896576,-0.2921697,28.4375,29.8125,28.8125,32.625,35.125,36.125
0.08005205,-0.98537666,-0.111866705,-1.6068237,0.01391986,0.089617655,-0.17709732,-0.39054677,-0.36807796,0.059894554,-3.0783024,0.6249645,-0.0003472263,-0.03430623,0.016651414,0.0013993649,0.005444536,-0.000446852,0.009442939,0.50286984,-1.3802158,1.9026197,-2.0912402,-1.5709275,2.4779367,-0.05709235,0.030976245,-0.04328963,0.015330514,-0.0046460577,-0.06650526,-0.40222588,-0.05746084,-9.2703495,0.76874626,47.70032,-0.7743449,-2.5127697,-3.2058501,-0.11366705,-0.10746257,-0.23716357,28.4375,29.8125,28.8125,32.625,35.125,36.125
0.082052454,-1.3024246,-0.27032948,-1.5863179,0.014088798,0.07711348,-0.1716235,-0.39059323,-0.36803684,0.059894424,-3.0783,0.6249421,-0.00038759058,-0.034413323,0.016914591,0.0010627583,0.007080764,-0.00063892774,0.013527353,0.5027502,-1.3801914,1.902583,-2.091204,-1.570916,2.4778035,-0.056791175,0.03196828,-0.043807205,0.01581708,-0.005991152,-0.07028541,-0.34476504,-0.11492168,-9.481039,0.7351769,47.6636,-0.7735683,-2.4594574,-3.2336345,-0.12208761,-0.10709605,-0.20608294,28.4375,29.8125,28.8125,32.625,35.125,36.125
0.08405252,-1.1366425,-0.49654317,-1.6831802,0.015415345,0.084747426,-0.1750553,-0.39068836,-0.3680229,0.05991541,-3.078336,0.6249269,-0.0003575938,-0.034622356,0.017518103,0.0006993642,0.0092744315,-0.00033195972,0.01690455,0.5026307,-1.3801073,1.9024276,-2.0911682,-1.5709041,2.47767,-0.05669957,0.032674327,-0.043845806,0.015944462,-0.0080607245,-0.07356708,-0.4213795,-0.11492168,-9.500193,0.7530795,47.63852,-0.9809367,-2.5231867,-3.291483,-0.11756249,-0.066783465,-0.1580507,28.4375,29.8125,28.8125,32.625,35.125,36.125
0.08605198,-1.3496473,-0.32787767,-1.6189859,0.019671496,0.0868029,-0.1695801,-0.39075142,-0.3679695,0.05989186,-3.0782743,0.6248947,-0.00041957112,-0.036481556,0.018910281,0.0005040079,0.011995484,0.000948119,0.01723695,0.50249815,-1.3800104,1.9023556,-2.0911195,-1.5709299,2.4775252,-0.058888454,0.034465805,-0.04554559,0.016048953,-0.011072811,-0.07608073,-0.40222588,-0.15322891,-9.385271,0.7553206,47.670765,-0.89499336,-2.5504737,-3.3423305,-0.16455919,-0.0810084,-0.14733058,28.4375,29.8125,28.8125,32.625,35.125,36.125
0.088051945,-1.678181,-0.44963408,-1.7074026,0.027373297,0.0749585,-0.1636587,-0.39082074,-0.36795783,0.059894223,-3.0783236,0.6246922,-0.00040512258,-0.038540874,0.018679459,0.0015632841,0.011537046,0.004016295,0.018407848,0.502414,-1.379926,1.9022478,-2.0911086,-1.5709299,2.4773085,-0.05973118,0.03536666,-0.048927855,0.015623182,-0.012157412,-0.078090765,-0.38307226,-0.1340753,-9.346964,0.7933669,47.737934,-0.93146276,-2.5326529,-3.156096,-0.14552066,-0.027905148,-0.07387908,28.4375,29.8125,28.8125,32.625,35.125,36.125
0.09005185,-0.957549,-0.21565512,-1.5885131,0.014431603,0.0791157,-0.17302339,-0.39089513,-0.36789304,0.059894904,-3.078259,0.6247562,-0.00041212613,-0.038165905,0.019397957,0.0005918959,0.0121931415,0.0021226616,0.017882733,0.502258,-1.3798778,1.9021758,-2.0910485,-1.5709656,2.4772007,-0.060792767,0.035959024,-0.04738059,0.0154531235,-0.011821332,-0.078628,-0.40222588,0.038307227,-9.3661175,0.8291774,47.729877,-1.0189645,-2.5748014,-3.243649,-0.1657306,-0.014386924,-0.06695904,28.4375,29.8125,28.8125,32.625,35.125,36.125
0.092051774,-1.0134491,-0.711762,-1.7812551,0.008325717,0.06224772,-0.16387422,-0.39097783,-0.36786434,0.059909366,-3.078269,0.62464267,-0.00032316073,-0.038423426,0.01874267,0.00033525983,0.009687408,0.00033709692,0.016216144,0.5021619,-1.3798172,1.9020685,-2.0910366,-1.5710124,2.4770327,-0.061825976,0.037359454,-0.048461452,0.015476814,-0.008765092,-0.078000516,-0.36391866,0.076614454,-9.346964,0.7463667,47.717335,-0.95560277,-2.566619,-3.3363733,-0.16508856,-0.036000196,-0.050524868,28.4375,29.8125,28.8125,32.625,35.125,36.125
0.09405168,-0.803061,-0.85611296,-1.8964868,0.0014813716,0.04463874,-0.15852904,-0.39105394,-0.3678391,0.05990373,-3.0782988,0.62461007,-0.00040088952,-0.03890856,0.01791411,0.0006739721,0.0068774805,-0.00044521978,0.014828714,0.502018,-1.3797209,1.9019593,-2.0910008,-1.5709633,2.4768646,-0.06263905,0.0381064,-0.05019042,0.01578484,-0.005930558,-0.07743093,-0.19153613,0.076614454,-9.385271,0.7463667,47.719128,-1.001317,-2.5057306,-3.2710633,-0.1770623,-0.049944885,-0.08316517,28.4375,29.8125,28.8125,32.625,35.125,36.125
0.09605206,-0.4367281,-0.56215113,-1.8672969,-0.017120268,0.0333,-0.16977216,-0.3911284,-0.36779988,0.05990623,-3.0783033,0.62457335,-0.00034879282,-0.040370185,0.017380102,0.0013147371,0.0049317577,-2.5582483e-05,0.012382321,0.50189763,-1.3796724,1.9018987,-2.0910122,-1.5709871,2.4767208,-0.06402489,0.039484445,-0.053398754,0.016303439,-0.00443051,-0.076372065,-0.22984336,0.1340753,-9.461885,0.7620334,47.686886,-1.0728585,-2.5921245,-3.1642609,-0.1904126,-0.08560851,-0.061237156,28.4375,29.8125,28.8125,32.625,35.125,36.125
0.09805253,-0.8078114,-1.2210348,-1.951944,-0.00835968,0.024209986,-0.15822816,-0.39123374,-0.36774495,0.059924085,-3.0782678,0.6246052,-0.00031434518,-0.04025901,0.017980987,0.0006785501,0.006086483,-0.0013830208,0.009961045,0.50172985,-1.3796,1.9017562,-2.0909402,-1.5710233,2.4765775,-0.06469696,0.040263917,-0.05300441,0.016873518,-0.0047874716,-0.074622236,-0.15322891,0.114921674,-9.519346,0.77545905,47.716442,-1.070463,-2.5876336,-3.1578732,-0.18680152,-0.11619784,-0.09698826,28.4375,29.8125,28.8125,32.625,35.125,36.125
0.10005196,-0.5657771,-0.80536836,-1.7111726,-0.016316453,0.046387136,-0.16004564,-0.39129212,-0.36771014,0.059888598,-3.0782454,0.624487,-0.00042813102,-0.040633906,0.0190014,0.00029729574,0.00709373,-0.00238014,0.0066784583,0.5016095,-1.3794677,1.9016722,-2.090904,-1.5710114,2.4763863,-0.06650046,0.04065512,-0.05277141,0.017610218,-0.005194853,-0.073142014,-0.15322891,0.24899697,-9.481039,0.7553206,47.71823,-1.0696514,-2.5243626,-3.3364348,-0.20470482,-0.08422157,-0.13837385,28.4375,29.8125,28.8125,32.625,35.125,36.125
0.1020521,-0.7087741,-1.0021774,-1.9518503,-0.016810916,0.049963303,-0.15430647,-0.3913611,-0.3676925,0.059904523,-3.0782597,0.6245099,-0.00045070375,-0.04243588,0.019229159,0.0009782948,0.0072195376,-0.00057585235,0.0037721344,0.5015012,-1.3794074,1.9015511,-2.0908444,-1.570988,2.4762905,-0.06793434,0.04169724,-0.055622395,0.01790265,-0.006177706,-0.07166623,-0.038307227,0.24899697,-9.442732,0.779936,47.703007,-1.0811269,-2.5532079,-3.1953619,-0.22395787,-0.10215843,-0.16010082,28.4375,29.8125,28.8125,32.625,35.125,36.125
0.10405195,-0.6601869,-1.3506604,-1.9165648,-0.012199919,0.04504503,-0.15720539,-0.39147586,-0.3676527,0.059930664,-3.078281,0.62445706,-0.00031797407,-0.043456037,0.019543065,0.00074244547,0.0069793467,-0.0005612329,0.0014895928,0.50135714,-1.3793468,1.90142,-2.0908449,-1.5710353,2.476111,-0.06952212,0.04307147,-0.05659247,0.017365476,-0.0059725624,-0.07097166,-0.05746084,0.2681506,-9.442732,0.800085,47.690468,-1.0713865,-2.5365176,-3.287704,-0.22781122,-0.083965614,-0.19238977,28.4375,29.8125,28.8125,32.625,35.125,36.125
0.10605165,-0.5795937,-1.3330604,-1.9818285,-0.023175625,0.040649947,-0.16215597,-0.39156595,-0.36758435,0.059912216,-3.0781956,0.6244974,-0.00034047294,-0.044537723,0.020028546,0.0012521119,0.0066030696,0.00060182915,-0.00085740787,0.5011887,-1.3792388,1.9013232,-2.0907962,-1.5710839,2.4759786,-0.07118332,0.042821348,-0.05743505,0.01725407,-0.006207941,-0.07028471,0.0,0.21068975,-9.385271,0.800085,47.73077,-1.0519781,-2.5267563,-3.2258549,-0.22451535,-0.08505221,-0.23090272,28.4375,29.8125,28.8125,32.625,35.125,36.125
0.10805256,-0.568721,-1.5144659,-2.0962596,-0.020452337,0.028382447,-0.15701208,-0.391644,-0.36756313,0.059920903,-3.0782173,0.6243846,-0.0003422327,-0.045560017,0.020604303,0.0010680835,0.007998702,0.0012542703,0.0012047556,0.5010808,-1.3791543,1.9011925,-2.0907485,-1.5710844,2.4757977,-0.07212799,0.044176716,-0.058603823,0.01716949,-0.0077504083,-0.073287636,0.0,0.2681506,-9.442732,0.800085,47.701214,-1.129345,-2.4543765,-3.222999,-0.22936139,-0.07437953,-0.25509253,28.4375,29.8125,28.8125,32.625,35.125,36.125
0.1100526,0.19361548,-0.6954912,-1.7684339,-0.029655103,0.042612337,-0.17901003,-0.3917585,-0.3675262,0.059917223,-3.0782166,0.62446266,-0.00031454265,-0.04617945,0.021628717,6.215723e-05,0.010739145,-0.00024670435,-0.0021462967,0.5009127,-1.3790333,1.9010605,-2.0907605,-1.5710849,2.4756784,-0.0733632,0.04670634,-0.059552968,0.018227309,-0.009430506,-0.07116784,-0.038307227,0.2681506,-9.481039,0.7665104,47.703903,-1.0600116,-2.674365,-3.315672,-0.24777363,-0.06657697,-0.26654226,28.4375,29.8125,28.8125,32.625,35.125,36.125
0.112052485,-0.12988125,-0.59610236,-1.7270628,-0.022321867,0.045164756,-0.1701228,-0.39185825,-0.3674883,0.059928134,-3.0782278,0.62444586,-0.00029982388,-0.047239695,0.02195408,0.0012919322,0.010422699,0.0022052047,-0.0029198448,0.50075674,-1.3789496,1.9009284,-2.0907242,-1.5710853,2.4755106,-0.07431486,0.045259796,-0.06071059,0.018530462,-0.010331948,-0.071344025,-0.095768064,0.24899697,-9.442732,0.78217715,47.729877,-1.1731862,-2.5589814,-3.2308931,-0.24860045,-0.016450807,-0.3365893,28.4375,29.8125,28.8125,32.625,35.125,36.125
0.11405256,-1.0400747,-0.5836486,-1.9533341,-0.008231786,0.044910084,-0.16544898,-0.3919279,-0.36743397,0.059909806,-3.0781562,0.6244868,-0.00041513063,-0.047965374,0.022105694,0.001308643,0.010190722,0.002015509,-0.0010705873,0.5006007,-1.3788413,1.9008201,-2.0906284,-1.5710853,2.4753892,-0.07540819,0.046181116,-0.061921053,0.018870916,-0.010048536,-0.07428564,-0.11492168,0.15322891,-9.423578,0.72622824,47.70211,-1.1589284,-2.5039778,-3.2797341,-0.2762047,-0.05471028,-0.33294928,28.4375,29.8125,28.8125,32.625,35.125,36.125
0.11605201,-0.786582,-0.42527598,-1.7674552,0.0031292804,0.05992422,-0.15432794,-0.39198488,-0.36739442,0.0598963,-3.0781286,0.62442535,-0.0004898314,-0.048232913,0.021760618,0.0012938232,0.009557262,0.0017807652,-0.004403588,0.500481,-1.3787568,1.9007372,-2.0905683,-1.5710849,2.4752347,-0.07547985,0.046995144,-0.0628608,0.018896297,-0.009384678,-0.07102465,-0.15322891,0.17238252,-9.3661175,0.683705,47.711964,-1.278774,-2.5713925,-3.2535326,-0.28694338,-0.024514277,-0.40269938,28.4375,29.8125,28.8125,32.625,35.125,36.125
0.11805199,-0.80905235,-0.29013202,-1.6720388,0.0043264045,0.064791635,-0.16191012,-0.3921132,-0.3673584,0.05991804,-3.0781589,0.624412,-0.0003537872,-0.04969229,0.022837846,0.00048793937,0.008735071,-0.00042088557,-0.0068098526,0.5003238,-1.378672,1.9005927,-2.0905921,-1.5711206,2.4750655,-0.07973377,0.04930874,-0.063806444,0.019054437,-0.007604527,-0.07287613,-0.21068975,0.019153614,-9.423578,0.83365434,47.686886,-1.0832297,-2.5568037,-3.2945023,-0.2792895,-0.05842667,-0.45189202,28.4375,29.8125,28.8125,32.625,35.125,36.125
0.120052055,-0.9823965,-0.18110414,-1.6831672,-0.003763118,0.05432539,-0.16686839,-0.39220718,-0.3673227,0.059927423,-3.0781617,0.62444746,-0.00036720387,-0.049223475,0.021506224,0.00038386407,0.007536476,-0.0010468756,-0.0007407706,0.5001687,-1.3785876,1.9004606,-2.0905445,-1.5711077,2.4749322,-0.07788128,0.050461244,-0.06492337,0.018986478,-0.006258583,-0.07709495,-0.24899697,0.038307227,-9.3661175,0.7911258,47.68062,-1.3260287,-2.653725,-3.2455192,-0.28987694,-0.07033312,-0.45644936,28.4375,29.8125,28.8125,32.625,35.125,36.125
0.122052066,-1.4696512,-0.6572455,-1.723153,0.0121407155,0.039721463,-0.15420817,-0.39231622,-0.36727116,0.059923578,-3.0781271,0.6244958,-0.0003843242,-0.050588246,0.022218594,0.0019256278,0.006262607,0.000907031,0.00040578123,0.49998838,-1.3784682,1.9003171,-2.0904963,-1.5711197,2.4747865,-0.0804324,0.04833156,-0.06614673,0.020009886,-0.006082819,-0.080792814,-0.21068975,-0.038307227,-9.32781,0.7866488,47.68599,-1.3349625,-2.4769478,-3.2925243,-0.29145056,-0.085513055,-0.46687537,28.4375,29.8125,28.8125,32.625,35.125,36.125
0.12405205,-0.89500374,0.005999679,-1.9939296,0.002747727,0.055241235,-0.16058639,-0.39244458,-0.3672239,0.059948936,-3.0781412,0.6244751,-0.0002501296,-0.051795416,0.022578184,0.0018296931,0.0062230746,0.0013086527,0.0068118284,0.49982005,-1.3783956,1.9001735,-2.0904968,-1.5711678,2.4746037,-0.08203295,0.0496994,-0.06745067,0.01956653,-0.006243894,-0.08879873,-0.21068975,-0.05746084,-9.3661175,0.7933669,47.63852,-1.2327697,-2.481073,-3.3386526,-0.31004104,-0.072439656,-0.42786533,28.4375,29.8125,28.8125,32.625,35.125,36.125
0.12605613,-1.267961,-0.10041111,-1.7462175,0.011333302,0.056812536,-0.16428916,-0.39254144,-0.3671836,0.05994536,-3.07816,0.62443787,-0.00031727648,-0.05233462,0.023040127,0.0010374623,0.0075946883,0.0008432427,0.010418298,0.49964038,-1.3782868,1.9000419,-2.0904486,-1.5711321,2.4743984,-0.08267618,0.0516657,-0.067874596,0.019093713,-0.007232147,-0.09304568,-0.19153613,-0.076614454,-9.346964,0.74413085,47.67345,-1.3854516,-2.4568944,-3.222181,-0.3053046,-0.080220714,-0.41366526,28.4375,29.8125,28.8125,32.625,35.125,36.125
0.128052,-1.2467645,-0.15572685,-1.6284101,0.019872675,0.07419056,-0.16318557,-0.39263612,-0.3671526,0.05993396,-3.0781515,0.6243153,-0.00034999277,-0.05491565,0.022808831,0.002749305,0.005848095,0.003711122,0.016939247,0.49950802,-1.3781426,1.899886,-2.0904,-1.571144,2.4741907,-0.08474319,0.05214484,-0.07252865,0.019908188,-0.0070904233,-0.10163183,-0.22984336,-0.05746084,-9.270349,0.7642693,47.625084,-1.3755865,-2.4945905,-3.1999028,-0.3175727,-0.08713363,-0.33899623,28.4375,29.8125,28.8125,32.625,35.125,36.125
0.13005254,-1.5771743,-0.31728068,-1.808768,0.032552067,0.077813745,-0.15659502,-0.3927316,-0.36709335,0.059909012,-3.0781276,0.6241931,-0.0004094434,-0.05479402,0.024041988,0.0015529549,0.007799301,0.0019894498,0.020552663,0.49932775,-1.37801,1.8997778,-2.0903647,-1.5711564,2.4739373,-0.086131826,0.053144556,-0.07097147,0.01979558,-0.007985469,-0.10663197,-0.3256114,-0.076614454,-9.289502,0.7642693,47.67345,-1.2727513,-2.4565477,-3.1735437,-0.3312085,-0.0791092,-0.28422862,28.4375,29.8125,28.8125,32.625,35.125,36.125
0.13205263,-0.78905094,-0.0074163205,-1.7006705,0.023937423,0.10375098,-0.16379772,-0.39283144,-0.36704585,0.0599263,-3.078139,0.6241172,-0.0003582464,-0.056627892,0.025555985,0.001813654,0.008104813,0.0025171435,0.021606578,0.49917072,-1.37795,1.899659,-2.0903285,-1.5711807,2.4737315,-0.090029046,0.05343364,-0.07200516,0.020218879,-0.008508966,-0.111581735,-0.4405331,0.076614454,-9.308657,0.83813137,47.6636,-1.239725,-2.4807782,-3.2857056,-0.3165366,-0.05736107,-0.22472617,28.4375,29.8125,28.8125,32.625,35.125,36.125
0.13405168,-1.0920264,-0.37351465,-1.6516953,0.0122129945,0.09939563,-0.15765835,-0.39293706,-0.366979,0.059914514,-3.0781124,0.624012,-0.00041888282,-0.057499584,0.024081396,0.0019492526,0.007582207,0.0025702252,0.026210247,0.49896777,-1.3778287,1.899526,-2.090257,-1.5711921,2.4734664,-0.08859252,0.05669873,-0.07636873,0.021014629,-0.008092548,-0.11474713,-0.6512228,0.05746084,-9.461885,0.7665104,47.65912,-1.2884347,-2.4581337,-3.0821834,-0.34060442,-0.07066348,-0.16422567,28.4375,29.8125,28.8125,32.625,35.125,36.125
0.13605215,-1.9328462,-0.87022966,-1.9648997,0.011062767,0.08455415,-0.1527536,-0.39307734,-0.36694226,0.05994431,-3.0781229,0.6240146,-0.000311438,-0.058001477,0.025736144,0.0018877839,0.007905259,0.001851582,0.023583332,0.49879897,-1.3777211,1.8993224,-2.0902202,-1.5712284,2.473298,-0.09185691,0.05554355,-0.074990846,0.02157151,-0.008022018,-0.11538604,-0.7469909,-0.038307227,-9.481039,0.7553206,47.694946,-1.3747976,-2.505622,-3.1303005,-0.34846455,-0.09844585,-0.16457453,28.4375,29.8125,28.8125,32.625,35.125,36.125
0.13805225,-1.323989,-0.23742686,-1.9143862,-0.0145281395,0.10608869,-0.16626565,-0.39318204,-0.36689156,0.059926104,-3.078115,0.623995,-0.00042217414,-0.05944858,0.02627151,0.0020563449,0.007456441,0.0022623066,0.019567203,0.49859446,-1.3775765,1.8991789,-2.0901601,-1.5711921,2.4730823,-0.09418759,0.056535568,-0.07655865,0.021574685,-0.007833886,-0.11369975,-0.6703765,0.05746084,-9.5385,0.8023209,47.672558,-1.1355104,-2.418901,-3.2384648,-0.34251234,-0.084482685,-0.15077382,28.4375,29.8125,28.8125,32.625,35.125,36.125
0.1400523,-1.1577861,-0.040422358,-1.9531832,-0.027691958,0.12026341,-0.17361517,-0.3933119,-0.36683077,0.059958305,-3.0781274,0.62390465,-0.0003167288,-0.060769796,0.026787842,0.0022454855,0.006966229,0.002719669,0.01338265,0.4984024,-1.3775163,1.8990234,-2.0901124,-1.5712403,2.4728324,-0.096384235,0.05729129,-0.07786677,0.021485459,-0.0076170284,-0.10971204,-0.59376204,0.05746084,-9.519346,0.8493211,47.721813,-1.3560857,-2.3828459,-3.1729374,-0.36285615,-0.08158287,-0.17717707,28.4375,29.8125,28.8125,32.625,35.125,36.125
0.14205235,-1.8302475,-0.934482,-1.937109,-0.01745288,0.11120907,-0.14855102,-0.39343318,-0.36677366,0.059932955,-3.078063,0.6239333,-0.0003655049,-0.06247094,0.027998716,0.0010539372,0.007925323,0.0013532167,0.0054255575,0.49820954,-1.377335,1.8988556,-2.0900652,-1.5712646,2.4726658,-0.09984399,0.0607139,-0.07910254,0.020956451,-0.007813844,-0.10521273,-0.6512229,0.076614454,-9.500193,0.7665104,47.666286,-1.1189903,-2.5647292,-3.213732,-0.3426556,-0.102994725,-0.26147202,28.4375,29.8125,28.8125,32.625,35.125,36.125
0.14405236,-2.007633,-0.93606865,-1.9332262,-0.0030967954,0.104103275,-0.15254359,-0.39354247,-0.3666977,0.059919246,-3.0780363,0.6239094,-0.00042394386,-0.06412769,0.028829021,0.0025491503,0.0062272586,0.0041835317,0.0013719765,0.49798095,-1.3772277,1.8987488,-2.0900176,-1.5712646,2.4724257,-0.10282423,0.058407076,-0.07968326,0.020544726,-0.0076809297,-0.10413944,-0.80445176,0.05746084,-9.500193,0.78888994,47.66987,-1.0199914,-2.372683,-3.256742,-0.3491537,-0.072886884,-0.28662294,28.4375,29.8125,28.8125,32.625,35.125,36.125
0.14605194,-1.3738918,-0.36023265,-2.0784354,-0.0029514409,0.107373625,-0.15932666,-0.39370418,-0.36666942,0.059975322,-3.0781329,0.6239096,-0.00027861254,-0.06573754,0.029438604,0.0023999964,0.0063685966,0.0048412853,-0.00036003086,0.49777675,-1.377155,1.8985323,-2.0900056,-1.5712522,2.4722095,-0.10502864,0.060106,-0.08120511,0.019858327,-0.008110559,-0.10461097,-0.5746084,0.05746084,-9.557653,0.86498255,47.67793,-0.9557284,-2.417883,-3.2313733,-0.34776032,-0.08307643,-0.31737626,28.4375,29.8125,28.8125,32.625,35.125,36.125
0.14805199,-1.4196602,-0.3205043,-1.9565902,-0.0023346571,0.08895547,-0.15586811,-0.3938332,-0.3665937,0.059942726,-3.078044,0.6238913,-0.00033207636,-0.067018166,0.030393973,0.0019308673,0.00674392,0.00461487,-0.0018926263,0.49756044,-1.3769622,1.8983644,-2.089946,-1.5713004,2.4719932,-0.107642144,0.061612695,-0.08181663,0.01933474,-0.008344278,-0.105690174,-0.5363012,0.05746084,-9.595961,0.82694155,47.675243,-0.88908696,-2.4863844,-3.2590165,-0.32700396,-0.08514688,-0.3301268,28.4375,29.8125,28.8125,32.625,35.125,36.125
0.15005207,-2.0234687,-0.49884292,-1.997394,0.003515655,0.06899082,-0.15700741,-0.3939665,-0.3665291,0.059953667,-3.0780299,0.6239459,-0.00027882028,-0.06873216,0.03036517,0.003073391,0.0052427333,0.007197745,-0.0036078522,0.49734426,-1.3768662,1.8982204,-2.0899222,-1.5713247,2.471813,-0.10919093,0.061332013,-0.08396019,0.0187683,-0.008260351,-0.10552327,-0.6703765,-0.038307227,-9.442732,0.7933669,47.729877,-0.9166684,-2.3885531,-3.2744706,-0.32996494,-0.083818585,-0.34798515,28.4375,29.8125,28.8125,32.625,35.125,36.125
0.1520522,-1.5958357,-0.33871308,-2.0042691,0.008143319,0.07846816,-0.15705748,-0.39409,-0.36646828,0.059932612,-3.0780258,0.6238467,-0.0003243177,-0.06942816,0.031014953,0.0026504837,0.0054443297,0.007067235,-0.0030097642,0.49712828,-1.3767097,1.8980774,-2.0898983,-1.5713247,2.4715357,-0.110819526,0.0621786,-0.08383953,0.018009257,-0.008381686,-0.10774924,-0.51714754,-0.05746084,-9.442732,0.779936,47.64927,-0.90347224,-2.3837729,-3.1506486,-0.32405832,-0.097123474,-0.3646665,28.4375,29.8125,28.8125,32.625,35.125,36.125
0.1540527,-1.1907231,-0.25359017,-1.8967578,0.012998979,0.08822901,-0.16013092,-0.39423838,-0.36642194,0.059979398,-3.0780513,0.6238519,-0.00018926804,-0.069877714,0.031314366,0.0024060614,0.0059437817,0.0064556357,-0.004231816,0.4969362,-1.3766373,1.8978742,-2.0898502,-1.5713605,2.4713438,-0.111616604,0.06326763,-0.08470037,0.018552197,-0.008519858,-0.1073242,-0.30645782,-0.15322891,-9.404425,0.79560274,47.698532,-0.88384646,-2.3769045,-3.29244,-0.31232375,-0.091275185,-0.41796416,28.4375,29.8125,28.8125,32.625,35.125,36.125
0.15605167,-0.8985644,0.082540944,-1.6906328,0.008790321,0.0898663,-0.16713926,-0.39440554,-0.36636364,0.059980437,-3.078068,0.62385076,-0.00016054897,-0.07198111,0.03048441,0.0038602385,0.004068047,0.009017454,0.0020895582,0.49668452,-1.3764688,1.8976692,-2.0898383,-1.5713605,2.4710894,-0.11236983,0.06430169,-0.08934926,0.019012723,-0.008102062,-0.11439796,-0.3256114,-0.114921674,-9.3661175,0.78217715,47.707485,-0.9317125,-2.3700879,-3.1073847,-0.30024186,-0.10515817,-0.36309355,28.4375,29.8125,28.8125,32.625,35.125,36.125
0.15805161,-0.52308613,0.081177205,-1.7655575,0.019360956,0.08215444,-0.15670186,-0.39453873,-0.3662983,0.059987362,-3.0780659,0.62390393,-0.00017480097,-0.07177832,0.031266574,0.0030983982,0.0048795603,0.007559157,0.0068155252,0.4964448,-1.3763607,1.8975142,-2.08979,-1.5713485,2.4708831,-0.11345482,0.06473159,-0.088137455,0.01903563,-0.008121024,-0.1202093,-0.2681506,-0.05746084,-9.346964,0.7866488,47.71554,-1.0054462,-2.330018,-3.2216177,-0.29389286,-0.09907167,-0.35238636,28.4375,29.8125,28.8125,32.625,35.125,36.125
0.16005169,-0.50482756,-0.46832165,-2.2114406,0.031559475,0.063526385,-0.15308106,-0.394671,-0.36621973,0.059952047,-3.0779915,0.623807,-0.00020069619,-0.073397554,0.031643536,0.0036743144,0.004629383,0.009037334,0.012793445,0.49622884,-1.3761681,1.8973583,-2.0897548,-1.5714091,2.4706163,-0.11523148,0.06538956,-0.090243876,0.019052511,-0.008622899,-0.12796128,-0.17238252,0.0,-9.346964,0.800085,47.685097,-0.98873633,-2.3403664,-3.1175861,-0.27956304,-0.12890488,-0.2759792,28.4375,29.8125,28.8125,32.625,35.125,36.125
0.1620526,-0.85335314,-0.7096733,-2.1286073,0.027091933,0.0342107,-0.15275949,-0.39482066,-0.36615917,0.059953194,-3.0780036,0.62378275,-0.00018844957,-0.07316579,0.03127324,0.0031703825,0.0060102865,0.008556838,0.02321937,0.49598965,-1.3760235,1.8971785,-2.0897305,-1.5714091,2.4703605,-0.11374298,0.06703046,-0.0911233,0.019366192,-0.0096138315,-0.13689604,-0.095768064,-0.038307227,-9.385271,0.82022345,47.66539,-1.034939,-2.3417506,-3.2237854,-0.25999546,-0.10045166,-0.1865887,28.4375,29.8125,28.8125,32.625,35.125,36.125
0.1640516,-0.66985273,-0.7207778,-2.114761,0.011602548,0.041077524,-0.15516575,-0.39500794,-0.36608332,0.059982434,-3.07804,0.62369585,-6.824545e-05,-0.07541477,0.03315898,0.0032980256,0.0056973454,0.0090300385,0.019292492,0.4957126,-1.3759032,1.896964,-2.0897067,-1.5714449,2.4700248,-0.11896615,0.06740229,-0.09180033,0.019097697,-0.009555662,-0.1381928,-0.21068975,0.038307227,-9.308656,0.8247004,47.686886,-1.0257199,-2.3007321,-3.1961174,-0.26370555,-0.100202635,-0.1310462,28.4375,29.8125,28.8125,32.625,35.125,36.125
0.16605173,-1.0201195,-0.969659,-2.1629941,0.0076525295,0.028459594,-0.1515675,-0.39514422,-0.36603662,0.060001172,-3.078066,0.6236793,-2.5986492e-05,-0.07503496,0.03310135,0.002908526,0.0071321405,0.008456447,0.021788653,0.49550948,-1.3757949,1.8967847,-2.089671,-1.5714453,2.469808,-0.11787545,0.06824772,-0.09205889,0.019698305,-0.010539303,-0.13959636,-0.17238252,0.038307227,-9.3661175,0.8537928,47.692257,-0.9976814,-2.316257,-3.1933103,-0.25396293,-0.07823619,-0.0808858,28.4375,29.8125,28.8125,32.625,35.125,36.125
0.16805162,-0.35224587,-1.2103578,-2.1601775,-0.0014394443,0.049298488,-0.15414223,-0.3952897,-0.3659643,0.06000293,-3.0780544,0.62356406,-3.3248256e-05,-0.07552152,0.03348343,0.0025124538,0.0075688027,0.007069891,0.01696038,0.49526936,-1.3756503,1.8965925,-2.089598,-1.5714692,2.4694977,-0.11909824,0.06976863,-0.09321062,0.020752588,-0.010264734,-0.13599062,-0.095768064,0.15322891,-9.442732,0.779936,47.66091,-1.0417035,-2.3549554,-3.2707982,-0.2402536,-0.10328774,-0.10470974,28.4375,29.8125,28.8125,32.625,35.125,36.125
0.1700517,-0.7801743,-0.99653774,-1.9162636,-0.020814382,0.03904297,-0.15480506,-0.39545298,-0.36589053,0.0600118,-3.0780227,0.62361586,1.4119033e-05,-0.07561314,0.033100907,0.0024939936,0.007065808,0.006332281,0.012174885,0.49501804,-1.3755057,1.8963898,-2.0895498,-1.571505,2.4692829,-0.11899266,0.07065765,-0.09439033,0.02144704,-0.009467445,-0.13110082,-0.095768064,0.22984336,-9.3661175,0.7933669,47.698532,-1.0425644,-2.2839708,-3.2493005,-0.22613236,-0.10128914,-0.17933714,28.4375,29.8125,28.8125,32.625,35.125,36.125
0.17205164,-0.37911937,-1.1098456,-1.9997164,-0.016712302,0.04663212,-0.15820704,-0.39558503,-0.36582488,0.05998992,-3.0780113,0.6234636,-6.7465303e-06,-0.07695923,0.033737537,0.0022331092,0.006856864,0.005755367,0.004648363,0.49480155,-1.3753369,1.8962339,-2.089526,-1.5715288,2.468973,-0.12154326,0.07240642,-0.095929034,0.021642808,-0.009013392,-0.1261247,-0.076614454,0.24899697,-9.289502,0.77545905,47.707485,-0.97130597,-2.3949287,-3.3000126,-0.2400068,-0.103510335,-0.21932253,28.4375,29.8125,28.8125,32.625,35.125,36.125
0.1740516,-0.43064818,-1.4743222,-2.1789138,-0.010867852,0.04356503,-0.1526099,-0.39576215,-0.365769,0.060032994,-3.0780504,0.62354904,6.697364e-05,-0.07711006,0.034094606,0.0021348386,0.0076899435,0.005743302,0.0015025405,0.49453828,-1.3752289,1.8959941,-2.0894659,-1.5715169,2.468758,-0.12178976,0.07264916,-0.096068695,0.021949973,-0.009729216,-0.12322447,-0.076614454,0.2873042,-9.423578,0.81351066,47.709274,-1.1702061,-2.3042645,-3.3220987,-0.21406582,-0.098252475,-0.29362997,28.4375,29.8125,28.8125,32.625,35.125,36.125
0.17605169,-0.7331777,-1.7794347,-2.2488465,-0.013055575,0.036340546,-0.15137053,-0.39589146,-0.3656843,0.060006823,-3.0779734,0.62349516,8.023751e-05,-0.077162795,0.034325916,0.0016716275,0.007597322,0.0041223103,-0.0012049152,0.49432233,-1.3750724,1.8958625,-2.089442,-1.5715889,2.4685185,-0.12272204,0.07363975,-0.09635294,0.022614188,-0.008882177,-0.121450454,0.019153614,0.3256114,-9.385271,0.7329411,47.70032,-1.0375056,-2.3364599,-3.3081193,-0.2071074,-0.0931793,-0.3543797,28.4375,29.8125,28.8125,32.625,35.125,36.125
0.1780517,-0.68287325,-1.22676,-2.0701783,-0.022847835,0.031747974,-0.1456704,-0.39607945,-0.36560816,0.060024418,-3.0779734,0.62357193,0.00010752416,-0.07923732,0.034251522,0.0023453208,0.0074558095,0.0058747907,-0.003858136,0.49402255,-1.3749155,1.8956226,-2.0893824,-1.5715889,2.4682667,-0.12399843,0.075561784,-0.100263074,0.022993518,-0.009592491,-0.12007054,0.0,0.30645782,-9.385271,0.7486078,47.678825,-1.2038354,-2.301033,-3.2584481,-0.17842385,-0.10807361,-0.40543753,28.4375,29.8125,28.8125,32.625,35.125,36.125
0.18005188,-0.50305146,-0.9130121,-2.0870225,-0.021882342,0.03408477,-0.15122198,-0.39621568,-0.36556053,0.06002508,-3.0779908,0.6235186,0.000118594464,-0.07904635,0.035984233,0.0011948938,0.008914373,0.0034745305,-0.006921858,0.4938181,-1.3747712,1.8954443,-2.089358,-1.5715889,2.4680269,-0.12661684,0.07573676,-0.097931586,0.023290938,-0.009731531,-0.11962596,0.019153614,0.22984336,-9.3661175,0.7732232,47.68062,-1.1263074,-2.3819149,-3.4354494,-0.20539492,-0.07919602,-0.46730235,28.4375,29.8125,28.8125,32.625,35.125,36.125
0.18205188,-0.06002781,-1.0539287,-1.950156,-0.008763789,0.04287538,-0.15234572,-0.3963795,-0.36548364,0.060006935,-3.0779583,0.62350917,0.00011369945,-0.08157725,0.034916956,0.0035846152,0.005818013,0.00811704,-0.0044815633,0.49355438,-1.3745792,1.8952521,-2.0893342,-1.5716132,2.4677615,-0.12739864,0.07528149,-0.10278084,0.023029912,-0.009220585,-0.122847095,0.13407528,0.11492168,-9.346964,0.7911258,47.629562,-1.145889,-2.2626803,-3.2650242,-0.17108206,-0.115500994,-0.48874998,28.4375,29.8125,28.8125,32.625,35.125,36.125
0.1840519,-0.26248455,-1.0076944,-1.9621303,-0.0006779822,0.033476785,-0.15495826,-0.39655697,-0.36539394,0.060028587,-3.077899,0.623605,0.00018379271,-0.08066984,0.0359736,0.0008757141,0.007979942,0.002955656,0.003641409,0.49327844,-1.3744459,1.8950256,-2.0892503,-1.5716723,2.4675531,-0.12864089,0.078710884,-0.10071485,0.023083597,-0.008679839,-0.13221386,0.05746084,0.22984336,-9.385271,0.800085,47.681515,-1.1434095,-2.3146245,-3.4330277,-0.16519967,-0.10661018,-0.45786458,28.4375,29.8125,28.8125,32.625,35.125,36.125
0.18605216,-0.8836427,-1.0492754,-1.8394663,0.0039220955,0.026888331,-0.15010889,-0.3967035,-0.3653535,0.06003659,-3.0779662,0.62348074,0.00020292272,-0.08298531,0.036285575,0.0024705995,0.0068581915,0.006329801,0.0083009815,0.4930624,-1.3743021,1.8948339,-2.0892384,-1.571649,2.467251,-0.13084826,0.07818643,-0.10373802,0.023125147,-0.00929499,-0.13907875,-0.038307227,0.19153613,-9.346964,0.7732232,47.683304,-1.0561004,-2.3775826,-3.3352017,-0.124973446,-0.12078452,-0.4238265,28.4375,29.8125,28.8125,32.625,35.125,36.125
0.18805212,-0.51610744,-0.9206403,-1.8401021,0.008890508,0.04916639,-0.1511285,-0.39685544,-0.36529058,0.060047444,-3.0779765,0.6234373,0.00017413605,-0.0837357,0.03637147,0.0015986809,0.0071867947,0.0043018516,0.018727504,0.4928106,-1.3741567,1.8946174,-2.0891545,-1.5716366,2.466971,-0.13204136,0.08140113,-0.10574992,0.023850739,-0.008636233,-0.15069844,-0.076614454,0.15322891,-9.308656,0.8560339,47.685097,-1.1674314,-2.1901655,-3.26795,-0.11228591,-0.11660431,-0.28796777,28.4375,29.8125,28.8125,32.625,35.125,36.125
0.19005214,-0.5191718,-0.06207036,-1.7512168,0.006174886,0.061754197,-0.1678829,-0.39704156,-0.36519063,0.060036473,-3.0779233,0.62338394,0.00020197987,-0.08402579,0.03719437,0.00044686953,0.008281716,0.00080982427,0.023426833,0.49251032,-1.3739636,1.8944019,-2.0891058,-1.5716966,2.4666443,-0.13406208,0.084058486,-0.106733486,0.025751026,-0.007955745,-0.15741912,-0.076614454,0.076614454,-9.270349,0.8247004,47.716442,-1.0750259,-2.3521929,-3.32968,-0.10905839,-0.13902766,-0.21507631,28.4375,29.8125,28.8125,32.625,35.125,36.125
0.1920522,-0.9058793,-0.31925315,-1.6716697,0.006783557,0.06709069,-0.15868619,-0.3971696,-0.36511734,0.060023177,-3.0779152,0.62326497,0.0001409578,-0.0841164,0.037753366,0.00020172722,0.009241329,-0.00055988604,0.025718203,0.49227062,-1.3738194,1.8942469,-2.0890453,-1.5716966,2.4663315,-0.13491993,0.08470353,-0.10731378,0.02734274,-0.008162433,-0.16056733,-0.22984336,0.076614454,-9.32781,0.7732232,47.701214,-1.0918653,-2.3939543,-3.3312933,-0.11209652,-0.11764115,-0.1555762,28.4375,29.8125,28.8125,32.625,35.125,36.125
0.19405219,-1.2733468,0.048379675,-1.651637,-0.00820481,0.08011852,-0.15664998,-0.3973781,-0.36505586,0.060044564,-3.0779545,0.6232749,0.00018547564,-0.08623032,0.038172442,0.0011531527,0.008332544,0.0009849366,0.021518921,0.4919701,-1.373627,1.8939589,-2.0889976,-1.5716842,2.4660323,-0.13752748,0.08537452,-0.110440336,0.028008396,-0.008089136,-0.1589749,-0.51714754,0.095768064,-9.346964,0.83813137,47.679718,-0.95998085,-2.2683153,-3.0857382,-0.10244806,-0.12943342,-0.13757797,28.4375,29.8125,28.8125,32.625,35.125,36.125
0.1960523,-2.5288212,-0.6899228,-1.9466804,0.013532844,0.06856094,-0.1455311,-0.39752653,-0.36498654,0.060038045,-3.0779526,0.62316,0.00013754326,-0.085776776,0.039185803,-0.00059830275,0.010147761,-0.0025799153,0.015968317,0.49171862,-1.3734579,1.8937563,-2.0889251,-1.5716842,2.4657094,-0.13882977,0.08760863,-0.10925964,0.028595047,-0.00800626,-0.15472664,-0.59376204,0.038307227,-9.32781,0.86945957,47.686886,-1.1618361,-2.5198236,-3.4251037,-0.109098814,-0.14801373,-0.2104191,28.4375,29.8125,28.8125,32.625,35.125,36.125
0.19805238,-1.8629969,-0.13470282,-1.5456376,-1.6062753e-05,0.1038814,-0.15267691,-0.397712,-0.36490965,0.06004453,-3.0779324,0.6231577,0.00018687952,-0.08683557,0.038247127,0.0012153838,0.008377973,0.00039451578,0.010735711,0.49144343,-1.373278,1.8935169,-2.088877,-1.5717205,2.4654355,-0.13825129,0.086554185,-0.11228449,0.02921438,-0.007850913,-0.14891505,-0.7278373,-0.019153614,-9.442732,0.83589023,47.70659,-1.0972097,-2.2741592,-3.1190848,-0.10168484,-0.18070772,-0.26650697,28.4375,29.8125,28.8125,32.625,35.125,36.125
0.20005254,-2.4774094,-0.3383267,-1.5720688,0.0032782257,0.10064314,-0.14772946,-0.39789146,-0.36480406,0.060028028,-3.0778995,0.6232091,0.00011439389,-0.08760374,0.03901537,-0.0006875853,0.010653951,-0.0027079282,0.008139656,0.49109566,-1.3730962,1.8933247,-2.0888174,-1.5717086,2.4651241,-0.13984466,0.091362245,-0.11380867,0.02974184,-0.0084047895,-0.14790948,-0.7469909,-0.05746084,-9.32781,0.74413085,47.72719,-1.2125362,-2.391782,-3.2465448,-0.081266165,-0.15651698,-0.3231849,28.4375,29.8125,28.8125,32.625,35.125,36.125
0.2020524,-1.8033563,0.19916315,-1.5349829,0.014327707,0.1162938,-0.15339048,-0.3980231,-0.36474746,0.060001764,-3.0778732,0.62301093,7.910478e-05,-0.08915062,0.038958404,0.001633219,0.009012268,0.0014360992,0.0066372156,0.49090356,-1.3728932,1.8931321,-2.0887692,-1.5717448,2.4648118,-0.14078686,0.08869833,-0.11603877,0.030202895,-0.008923998,-0.14734721,-0.7086837,-0.05746084,-9.3661175,0.8023209,47.68599,-1.211745,-2.3065214,-3.2176251,-0.07647952,-0.17446034,-0.34466928,28.4375,29.8125,28.8125,32.625,35.125,36.125
0.20405252,-1.9704986,-0.10713674,-1.6267325,0.031273354,0.10258079,-0.1428163,-0.39823392,-0.36467707,0.060038272,-3.07792,0.62305856,0.00012327138,-0.09061707,0.039645344,0.00076950603,0.009568637,0.00010891118,0.004820424,0.4905795,-1.3727357,1.8928455,-2.0886972,-1.571721,2.4645116,-0.14328979,0.09200272,-0.11804899,0.030341092,-0.00878659,-0.14803289,-0.68953013,-0.21068975,-9.289502,0.8023209,47.70838,-1.0566878,-2.3351464,-3.1074066,-0.06784619,-0.16412959,-0.39131385,28.4375,29.8125,28.8125,32.625,35.125,36.125
0.20605162,-1.4752522,-0.02837501,-1.6019824,0.030933488,0.09782958,-0.15102184,-0.39841238,-0.364581,0.060020484,-3.0778592,0.6230636,9.993551e-05,-0.09263662,0.041501045,0.00092913193,0.011077737,0.0007287962,0.0052347784,0.49027875,-1.3725313,1.892629,-2.0886366,-1.5717572,2.464222,-0.14717023,0.09277588,-0.11954715,0.031223485,-0.010422882,-0.152323,-0.68953013,-0.15322891,-9.270349,0.8157518,47.686886,-1.1317934,-2.4591918,-3.1145859,-0.060684174,-0.18564197,-0.36969435,28.4375,29.8125,28.8125,32.625,35.125,36.125
0.20805167,-1.6952977,0.083484046,-1.5208474,0.023671057,0.0922129,-0.148837,-0.39860657,-0.36449543,0.060027607,-3.0778396,0.62295634,0.00019909973,-0.09298885,0.041012544,0.0009625054,0.011731249,0.0014143472,0.014352834,0.49000376,-1.3723508,1.8923901,-2.0886014,-1.5718292,2.4638827,-0.14604655,0.094089285,-0.12120635,0.031252686,-0.011329451,-0.16031478,-0.7278373,0.0,-9.289502,0.78217715,47.693153,-1.1345477,-2.4623277,-3.085197,-0.044033892,-0.16533506,-0.3236633,28.4375,29.8125,28.8125,32.625,35.125,36.125
0.21005169,-1.4421283,-0.3014334,-1.6043668,0.023502838,0.1057908,-0.15293454,-0.3988016,-0.36443365,0.06004021,-3.0778568,0.62287635,0.00016973205,-0.09343801,0.04088384,0.00046769244,0.011509961,8.373748e-05,0.023573322,0.4897162,-1.3721337,1.8920788,-2.0884936,-1.5718173,2.4635432,-0.14667352,0.09615424,-0.1226578,0.031694274,-0.010521403,-0.1701631,-0.7086837,0.0,-9.270349,0.7911258,47.696735,-1.176347,-2.4878979,-3.0686812,-0.043377943,-0.1570794,-0.20621625,28.4375,29.8125,28.8125,32.625,35.125,36.125
0.2120517,-1.3438927,-0.43560827,-1.8486831,0.015754195,0.112283215,-0.16059187,-0.39897993,-0.3643309,0.060037546,-3.0778334,0.62280893,0.00018757967,-0.094160385,0.041818332,0.0006542989,0.012187345,-0.00015851943,0.028613362,0.48940444,-1.3719776,1.891888,-2.088445,-1.571853,2.4631925,-0.14853667,0.09616385,-0.12338583,0.032929696,-0.011013538,-0.1770649,-0.47884035,0.038307227,-9.251195,0.82694155,47.699425,-1.1452885,-2.435707,-3.1309428,-0.045511864,-0.16886394,-0.10700299,28.4375,29.8125,28.8125,32.625,35.125,36.125
0.2140517,-0.78965545,-0.17218927,-1.5766891,-0.0046534967,0.124933586,-0.16430287,-0.39915928,-0.36423856,0.06001821,-3.0777748,0.6227564,0.00017550976,-0.09382032,0.04210515,0.0001407016,0.012861234,-0.0016563329,0.030720983,0.48911703,-1.3717612,1.891661,-2.0883853,-1.5719012,2.46288,-0.14871822,0.09679229,-0.12315909,0.033698715,-0.0109146135,-0.17935388,-0.49799395,0.095768064,-9.32781,0.8179876,47.705692,-1.2452664,-2.4224823,-3.1121125,-0.034623884,-0.15051854,-0.04421694,28.4375,29.8125,28.8125,32.625,35.125,36.125
0.21605174,-1.245378,-0.49863932,-1.7300291,-0.014163561,0.09842966,-0.15834512,-0.39932996,-0.36416486,0.059999514,-3.0777667,0.6226995,4.916428e-05,-0.094952144,0.042506576,5.9239293e-05,0.012934419,-0.0020915277,0.024529805,0.48881695,-1.3715324,1.8914093,-2.0882885,-1.5718654,2.4625454,-0.15043448,0.09843022,-0.12511268,0.034440964,-0.0107888635,-0.17487754,-0.5554548,0.1340753,-9.289502,0.83589023,47.69763,-1.2607687,-2.4458528,-3.0416288,-0.049251586,-0.18535417,-0.090590104,28.4375,29.8125,28.8125,32.625,35.125,36.125
0.21805178,-0.97396183,-1.1558356,-1.9473536,-0.0005412092,0.084049605,-0.15049173,-0.39953223,-0.36405608,0.059985407,-3.0777256,0.62259877,5.132232e-05,-0.09497975,0.04343146,-3.901701e-05,0.014225425,-0.0032802608,0.015520968,0.48848146,-1.3713162,1.8911704,-2.088229,-1.5719136,2.4621525,-0.1515927,0.09834592,-0.12522635,0.036294177,-0.011368642,-0.1670253,-0.3256114,0.05746084,-9.461885,0.86945957,47.66091,-1.2471299,-2.4470398,-3.3016357,-0.04709568,-0.1648891,-0.13588986,28.4375,29.8125,28.8125,32.625,35.125,36.125
0.22005183,-0.76625156,-0.698901,-1.8606619,-0.0053086192,0.06323828,-0.13821739,-0.39976245,-0.36397818,0.06002047,-3.0777507,0.6226827,0.00018685384,-0.094426446,0.04364293,-0.0010826607,0.014805957,-0.006399866,0.009058148,0.48815793,-1.3711475,1.8908843,-2.0882046,-1.5719374,2.4618783,-0.15197837,0.10005478,-0.12519467,0.037577543,-0.010397563,-0.16095133,-0.26815057,0.095768064,-9.3661175,0.800085,47.67345,-1.252167,-2.4117703,-3.168223,-0.06318572,-0.1828446,-0.2370114,28.4375,29.8125,28.8125,32.625,35.125,36.125
0.22205187,0.4273195,-0.2940683,-2.008497,-0.010289323,0.062471483,-0.1589392,-0.3999445,-0.36387667,0.060003385,-3.0776932,0.6225956,0.00013452115,-0.096573465,0.044635452,-0.000109852954,0.014851167,-0.0034586603,0.0035593845,0.48784578,-1.3709314,1.890644,-2.0881083,-1.5719737,2.4615192,-0.15463069,0.09973932,-0.12692957,0.037050925,-0.0118340505,-0.15810008,-0.15322891,0.1340753,-9.3661175,0.84708,47.68062,-1.114965,-2.4062495,-3.2796545,-0.036082543,-0.1625328,-0.31593463,28.4375,29.8125,28.8125,32.625,35.125,36.125
0.22405183,0.5760767,-0.4663428,-2.0417368,0.0067252265,0.0533661,-0.14794707,-0.40014735,-0.36378723,0.060001384,-3.0776706,0.6226538,0.00014310022,-0.09799044,0.04702951,-0.001990698,0.016687518,-0.0068176887,-0.0070593194,0.48752058,-1.3707261,1.8903931,-2.0880606,-1.5719861,2.4612334,-0.15983777,0.103093326,-0.12673025,0.037326925,-0.01188049,-0.15268792,-0.05746084,0.095768064,-9.423578,0.8179876,47.677036,-1.1541568,-2.4023025,-3.3441873,-0.040697705,-0.16531754,-0.4076155,28.4375,29.8125,28.8125,32.625,35.125,36.125
0.22605203,0.1489548,-0.14129293,-2.0661347,0.011534912,0.022477768,-0.14919257,-0.4003676,-0.3636971,0.060033046,-3.0776527,0.62272424,0.00019222967,-0.09663721,0.04695323,-0.0014811461,0.016501624,-0.008170763,-0.006616994,0.48718566,-1.3705466,1.8900827,-2.087952,-1.5720094,2.460945,-0.15891793,0.10093262,-0.1258742,0.039730508,-0.011076101,-0.1522135,0.05746084,0.038307227,-9.404425,0.8247004,47.66539,-1.098723,-2.4691482,-3.4410758,-0.06383874,-0.17749977,-0.49035934,28.4375,29.8125,28.8125,32.625,35.125,36.125
0.228052,0.7031829,-0.3643632,-1.914403,0.014242557,0.02069971,-0.14828049,-0.40056893,-0.36358252,0.06000831,-3.0775738,0.62272316,0.00019083954,-0.09841747,0.048236568,-0.0023471424,0.017712781,-0.010528889,-0.0028862415,0.48684925,-1.3703172,1.8898548,-2.0879037,-1.5720695,2.460618,-0.16261819,0.10460009,-0.12870115,0.041517958,-0.011064919,-0.15964253,0.21068975,0.05746084,-9.32781,0.8314132,47.689575,-0.9991093,-2.4289608,-3.3172612,-0.07454859,-0.16649804,-0.48318648,28.4375,29.8125,28.8125,32.625,35.125,36.125
0.23005216,0.2026868,-0.16532218,-1.7872618,0.011016568,0.003497375,-0.15380807,-0.4007654,-0.36351115,0.060006145,-3.077593,0.62271756,0.000163901,-0.09783234,0.048303753,-0.0014434295,0.017694779,-0.011528634,0.009705766,0.48653823,-1.3701016,1.8895916,-2.0878546,-1.5720457,2.4603012,-0.16242948,0.10290771,-0.12952152,0.044888355,-0.010593013,-0.17204724,0.24899697,0.038307227,-9.308657,0.7777002,47.692257,-1.053638,-2.4865522,-3.5378816,-0.11166024,-0.1797685,-0.38758475,28.4375,29.8125,28.8125,32.625,35.125,36.125
0.23205218,0.837239,-0.17129871,-1.8721099,0.008906406,0.027595777,-0.15828905,-0.40096736,-0.3633842,0.05999,-3.0774803,0.622628,0.00015411204,-0.0984065,0.048037767,-0.0014585432,0.017957704,-0.011760807,0.021979515,0.48620284,-1.3698727,1.8893284,-2.0877345,-1.5721415,2.4599245,-0.16233395,0.104549386,-0.13163729,0.045653947,-0.010753372,-0.18422323,0.17238252,0.05746084,-9.270349,0.842603,47.690468,-1.05341,-2.3466382,-3.396316,-0.121761456,-0.17120734,-0.26279905,28.4375,29.8125,28.8125,32.625,35.125,36.125
0.2340521,0.036444064,-0.5829251,-1.9270158,0.022109648,0.017059667,-0.14679956,-0.4011541,-0.36329797,0.05997513,-3.0774474,0.6224842,3.5681966e-05,-0.1000913,0.048615456,-0.0008162506,0.017621823,-0.010414644,0.026490357,0.48589054,-1.3696204,1.8890289,-2.087591,-1.5721415,2.4595268,-0.16452238,0.1050232,-0.13374844,0.045932703,-0.011120218,-0.19091973,0.17238252,0.05746084,-9.3661175,0.8179876,47.670765,-0.99616313,-2.4199324,-3.4007483,-0.13187294,-0.18010074,-0.17724168,28.4375,29.8125,28.8125,32.625,35.125,36.125
0.2360521,-0.001541554,-0.9016077,-2.112432,0.014127265,0.03555644,-0.14902477,-0.40134174,-0.36320445,0.05997336,-3.077459,0.6224862,-3.355087e-05,-0.100010164,0.049155004,-0.0005271375,0.017513089,-0.012660825,0.025162846,0.4855429,-1.3694403,1.8888015,-2.0875175,-1.5721053,2.459179,-0.16599438,0.10472221,-0.13481005,0.04922999,-0.0099816285,-0.19106686,0.076614454,0.15322891,-9.481039,0.8784135,47.67166,-1.1660008,-2.311992,-3.3342447,-0.19386727,-0.18347973,-0.14947177,28.4375,29.8125,28.8125,32.625,35.125,36.125
0.2380521,-0.08974434,-0.998034,-2.1675801,-0.0025831729,0.04031942,-0.14868274,-0.40156165,-0.36309263,0.05999388,-3.0774238,0.62242335,2.2258962e-05,-0.100798965,0.049729545,-0.0019534358,0.01881522,-0.015686499,0.018171148,0.48519498,-1.3692586,1.8885139,-2.0874097,-1.5721649,2.4587965,-0.1677533,0.10885062,-0.1367547,0.050321966,-0.009725016,-0.18583347,0.038307227,0.076614454,-9.461885,0.8717007,47.69763,-1.0804191,-2.3359885,-3.330709,-0.21918906,-0.20943992,-0.185947,28.4375,29.8125,28.8125,32.625,35.125,36.125
0.24005212,-0.18806538,-1.3232131,-2.1803896,-0.0038030383,0.03758955,-0.14527655,-0.40175074,-0.3629773,0.059957385,-3.0773528,0.6223348,-8.710984e-05,-0.10210653,0.05105816,-0.0007666268,0.018629452,-0.013987689,0.00940729,0.48484695,-1.3690073,1.8882755,-2.087314,-1.5721892,2.4584024,-0.17069006,0.10685116,-0.13730966,0.05129002,-0.010372055,-0.18000379,-0.038307227,0.17238252,-9.500193,0.86498255,47.7451,-0.9520124,-2.2956564,-3.394415,-0.25013602,-0.18717772,-0.274404,28.4375,29.8125,28.8125,32.625,35.125,36.125
0.24205224,-0.47311467,-1.1650065,-2.25525,-0.024796233,0.03684227,-0.14589512,-0.40193662,-0.36290765,0.05997839,-3.0773354,0.62229306,-0.000108956665,-0.10292173,0.051534187,-0.0021353487,0.0195378,-0.01643739,0.005913238,0.48457092,-1.3688136,1.8879641,-2.08717,-1.5722007,2.4581027,-0.17235634,0.110671006,-0.13884106,0.051589154,-0.010045512,-0.17817552,-0.17238252,0.19153613,-9.557653,0.83365434,47.672558,-0.9844713,-2.3366406,-3.3783782,-0.26984107,-0.21944407,-0.3208647,28.4375,29.8125,28.8125,32.625,35.125,36.125
0.24405214,-0.73808694,-1.4548085,-2.2071815,-0.03514856,0.0503785,-0.15045276,-0.4021435,-0.36280152,0.059973612,-3.0772877,0.6222437,-0.0001582122,-0.10410291,0.051799756,-0.00063505385,0.018506251,-0.013800179,0.0053434004,0.4842231,-1.3685863,1.8876766,-2.0870502,-1.5722255,2.4577303,-0.17357348,0.10890142,-0.14024039,0.051936384,-0.010382189,-0.17882112,-0.22984336,0.19153613,-9.730036,0.7978386,47.67793,-0.9088272,-2.2646182,-3.3798766,-0.31618503,-0.19071802,-0.3377328,28.4375,29.8125,28.8125,32.625,35.125,36.125
0.24605209,-1.2859175,-1.3532196,-2.2278006,-0.04473151,0.07017824,-0.15457441,-0.40236604,-0.3627011,0.05999009,-3.0772974,0.62218493,-0.00013509709,-0.10541493,0.052471124,-0.0011475746,0.018165732,-0.013812745,0.0067891255,0.48386317,-1.3683932,1.88739,-2.0869672,-1.5722374,2.4573326,-0.17597222,0.11064437,-0.14089239,0.050685596,-0.010090047,-0.18266594,-0.2681506,0.2681506,-9.768343,0.8985519,47.694054,-1.0304923,-2.3508663,-3.3661492,-0.33092028,-0.21950379,-0.3875509,28.4375,29.8125,28.8125,32.625,35.125,36.125
0.24805216,-1.4988784,-1.6297634,-2.2348802,-0.034363337,0.099321,-0.15723594,-0.40257335,-0.36260954,0.059996173,-3.077282,0.6221944,-0.00019367602,-0.10615118,0.050789393,-0.000705735,0.016512914,-0.012753341,0.014850858,0.48351684,-1.3681762,1.8870901,-2.0868475,-1.572225,2.4569943,-0.17430073,0.11274065,-0.1443386,0.050315082,-0.00915034,-0.18905689,-0.22984336,0.24899697,-9.768343,0.7933669,47.701214,-1.1273537,-2.3769433,-3.1819558,-0.3423817,-0.23491913,-0.3461526,28.4375,29.8125,28.8125,32.625,35.125,36.125
0.2500523,-1.3291582,-1.0329623,-1.8994503,-0.041014485,0.12725398,-0.17352399,-0.4027698,-0.36248055,0.05997758,-3.0772033,0.6220356,-0.00022615232,-0.10800192,0.05023674,0.00056677137,0.0153785525,-0.009964646,0.025857072,0.4831694,-1.3679599,1.8868498,-2.0867393,-1.572297,2.456558,-0.17473757,0.113455564,-0.1481133,0.05034502,-0.009488874,-0.20049675,-0.34476504,0.2681506,-9.615114,0.8112748,47.733456,-1.0867912,-2.3863704,-3.2210808,-0.37369755,-0.23556069,-0.2297579,28.4375,29.8125,28.8125,32.625,35.125,36.125
0.25205234,-2.17098,-1.1866589,-2.0126655,-0.022380944,0.113885075,-0.15638202,-0.4029872,-0.36239737,0.059984803,-3.077219,0.6220135,-0.00026547175,-0.10919485,0.050077602,-1.991021e-05,0.01484514,-0.007637585,0.033600148,0.48282176,-1.3677311,1.8865389,-2.0866454,-1.5722736,2.4561946,-0.17505269,0.11524122,-0.14797859,0.04610743,-0.010126353,-0.20855245,-0.47884035,0.22984336,-9.634268,0.8291774,47.707485,-1.1550236,-2.3976235,-3.1997948,-0.34994307,-0.24204715,-0.08494743,28.4375,29.8125,28.8125,32.625,35.125,36.125
0.25405222,-1.9838427,-0.9222069,-2.0508943,-0.021969615,0.11447026,-0.14878775,-0.40321502,-0.36229414,0.06000088,-3.0772097,0.6219147,-0.00020612811,-0.11057294,0.04913562,0.0008055147,0.013080776,-0.0043450007,0.034106933,0.48247483,-1.3675267,1.8862394,-2.086562,-1.5723208,2.4557874,-0.17461976,0.11582977,-0.15007335,0.043864995,-0.010103292,-0.2086255,-0.5554548,0.24899697,-9.576807,0.8314132,47.70032,-1.2166046,-2.399271,-3.1928291,-0.33872896,-0.26034576,-0.069716625,28.4375,29.8125,28.8125,32.625,35.125,36.125
0.25605208,-2.1435723,-0.83913654,-1.8499476,-0.027418854,0.10139477,-0.15054038,-0.40344548,-0.36221093,0.060016245,-3.077225,0.6217875,-0.00019626803,-0.11310717,0.049421523,0.0011373867,0.011814712,-0.0017158275,0.025642851,0.48213828,-1.3672858,1.8858927,-2.086455,-1.5723337,2.4553697,-0.17719617,0.11760965,-0.1524586,0.041557916,-0.010206143,-0.2027362,-0.6895301,0.22984336,-9.576807,0.8157518,47.694946,-1.166146,-2.3455815,-3.2152586,-0.30727333,-0.27354556,-0.1121237,28.4375,29.8125,28.8125,32.625,35.125,36.125
0.2580524,-1.5362551,-0.448458,-1.8763866,-0.028611526,0.10627023,-0.15901987,-0.4037056,-0.36210135,0.060011342,-3.0772026,0.62184453,-0.00019135725,-0.11331087,0.051241715,-0.0005799663,0.013958938,-0.0040798727,0.014093634,0.4817303,-1.3670089,1.8855594,-2.086395,-1.5723451,2.4550004,-0.17985025,0.11938794,-0.15058284,0.04100353,-0.010998779,-0.19383912,-0.63206923,0.076614454,-9.5385,0.81351066,47.686886,-1.2070003,-2.4322143,-3.1796947,-0.31019473,-0.2523702,-0.21939215,28.4375,29.8125,28.8125,32.625,35.125,36.125
0.26005238,-1.1913323,-0.32518658,-1.9070596,-0.010146254,0.092130005,-0.16196005,-0.40390453,-0.36201686,0.060007747,-3.0772119,0.6217134,-0.00019410824,-0.11398083,0.050198395,-6.57133e-07,0.012611691,-0.0014883964,0.007741698,0.48141986,-1.3667926,1.8852957,-2.0863364,-1.572358,2.454607,-0.17860469,0.11973227,-0.1518965,0.039058898,-0.011006112,-0.18624082,-0.63206923,0.038307227,-9.576807,0.842603,47.69763,-1.3724525,-2.4624386,-3.147119,-0.2944785,-0.28109047,-0.3135867,28.4375,29.8125,28.8125,32.625,35.125,36.125
0.26205233,-1.4106146,-0.3868216,-1.5353004,-0.017384384,0.0909261,-0.1654595,-0.4041381,-0.36192036,0.060015697,-3.0772107,0.6218117,-0.0002206629,-0.11507131,0.049937848,-0.0008614841,0.012825141,-0.00062627165,0.0023203036,0.4810361,-1.3665631,1.8849849,-2.086254,-1.5723342,2.454285,-0.17867266,0.122797094,-0.15304843,0.036491767,-0.011597792,-0.18088455,-0.6703765,0.038307227,-9.442732,0.8717007,47.70211,-1.4084651,-2.6193557,-3.3201957,-0.25983402,-0.27619356,-0.42139423,28.4375,29.8125,28.8125,32.625,35.125,36.125
0.26405236,-1.7300051,-0.96995014,-1.5358548,-0.008481792,0.097184405,-0.15003249,-0.4043766,-0.36182564,0.060014304,-3.0771847,0.62172765,-0.00021581528,-0.115987025,0.049865507,0.00017625678,0.011270765,0.0023180996,0.0024861833,0.48068786,-1.3662877,1.8846372,-2.086158,-1.5723699,2.4538877,-0.1792681,0.12131563,-0.15330566,0.034889534,-0.011592994,-0.18164574,-0.59376204,0.0,-9.3661175,0.82022345,47.694946,-1.4926797,-2.4515746,-3.3335376,-0.22239758,-0.2799767,-0.5035128,28.4375,29.8125,28.8125,32.625,35.125,36.125
0.26605245,-1.3657467,-0.3339127,-1.3760675,-0.0055984943,0.101445176,-0.16903268,-0.40463072,-0.36172703,0.06001674,-3.0771823,0.62170076,-0.00011371201,-0.11774452,0.050895564,0.00025262785,0.011482712,0.0028552415,0.010776037,0.48032716,-1.3660349,1.8843268,-2.0861466,-1.5724181,2.4535108,-0.18217675,0.12254962,-0.15499227,0.034933783,-0.012041852,-0.19284272,-0.36391866,0.019153614,-9.385271,0.88960326,47.695843,-1.4683926,-2.4761724,-3.3223896,-0.20923243,-0.27639967,-0.42270607,28.4375,29.8125,28.8125,32.625,35.125,36.125
0.2680526,-0.32318276,0.38892794,-1.3448085,-0.0013138626,0.096166596,-0.18025635,-0.40488788,-0.36161992,0.060036726,-3.0771778,0.62169266,-3.765369e-05,-0.11871982,0.051835768,-0.0004878746,0.012756279,0.0022445708,0.023649517,0.47994235,-1.3658061,1.8839916,-2.0860746,-1.5724543,2.4531217,-0.18398376,0.12457373,-0.155705,0.034718633,-0.0129069965,-0.2075206,-0.095768064,-0.076614454,-9.3661175,0.85826975,47.66271,-1.4445558,-2.505783,-3.4246335,-0.18847549,-0.2842515,-0.3100165,28.4375,29.8125,28.8125,32.625,35.125,36.125
0.2700516,-0.20692031,-0.37685803,-0.9951028,0.019255022,0.06964677,-0.16003409,-0.40512103,-0.36150283,0.060008705,-3.0771458,0.6215484,-3.7852624e-05,-0.12036931,0.052185923,-0.00013987132,0.011697297,0.003256295,0.030861437,0.47956914,-1.3655295,1.8837165,-2.0860388,-1.572502,2.4526627,-0.18620613,0.12556523,-0.15759842,0.034201548,-0.012462597,-0.21695495,-0.1340753,-0.19153613,-9.136273,0.8806493,47.66808,-1.2824929,-2.4457054,-3.3275287,-0.1523943,-0.29663295,-0.21435177,28.4375,29.8125,28.8125,32.625,35.125,36.125
0.27205256,0.23041902,0.4648007,-1.2050213,0.023423353,0.040926535,-0.17149852,-0.4053709,-0.3614022,0.060011886,-3.0771692,0.6215155,-3.8609334e-05,-0.12227949,0.053658765,7.5235446e-05,0.011999523,0.0044442164,0.028830882,0.47917244,-1.365277,1.8833936,-2.0859792,-1.5724901,2.4522426,-0.18975475,0.12601225,-0.15855946,0.033799108,-0.013282427,-0.21847035,-0.15322891,-0.24899697,-9.097966,0.82694155,47.683304,-1.1743524,-2.4775434,-3.3606548,-0.110996954,-0.28378606,-0.12924704,28.4375,29.8125,28.8125,32.625,35.125,36.125
0.27405262,0.35043803,0.8355022,-1.1154338,0.042441614,0.02134507,-0.16280293,-0.40561983,-0.36131483,0.060030304,-3.0772,0.6213912,8.989945e-05,-0.12305674,0.054474078,-0.0013986964,0.013618265,0.0013185348,0.020399114,0.47883603,-1.3650473,1.8830713,-2.0859544,-1.5725383,2.451825,-0.19172598,0.13002443,-0.16032282,0.03506721,-0.013256598,-0.21200962,-0.19153613,-0.15322891,-9.078813,0.84484416,47.696735,-1.2607974,-2.5773745,-3.4218712,-0.09119098,-0.29674065,-0.20081511,28.4375,29.8125,28.8125,32.625,35.125,36.125
0.27605164,-0.011924907,0.20691116,-1.182817,0.050311662,0.009917891,-0.15911303,-0.40583962,-0.36117768,0.06000996,-3.077122,0.621418,1.1025547e-05,-0.12398416,0.05530316,0.00086790044,0.012789976,0.0046248534,0.011982154,0.47842726,-1.3648087,1.8828076,-2.0858462,-1.572563,2.451443,-0.1933505,0.12591088,-0.16088593,0.03643249,-0.014051256,-0.20521435,-0.17238252,-0.17238252,-9.040505,0.8224646,47.675243,-1.1393389,-2.3499174,-3.3148646,-0.07955844,-0.28325903,-0.30088493,28.4375,29.8125,28.8125,32.625,35.125,36.125
0.27805173,0.18403022,0.4259302,-1.0157369,0.03359213,0.024560712,-0.17041874,-0.40612474,-0.36107486,0.060035247,-3.0771544,0.6213908,0.00011758002,-0.12589404,0.05647615,0.00072868145,0.0125761265,0.0031611223,0.003900841,0.47801828,-1.3645555,1.8824362,-2.085798,-1.5725864,2.451013,-0.19742154,0.12817433,-0.16370352,0.038181946,-0.013170826,-0.20120636,-0.24899697,-0.095768064,-9.155427,0.84484416,47.664497,-1.1303982,-2.484105,-3.2050319,-0.054005377,-0.30478084,-0.35062635,28.4375,29.8125,28.8125,32.625,35.125,36.125
0.2800517,-0.07262105,0.022839736,-1.1675034,0.020308048,0.049175516,-0.17094678,-0.40637237,-0.3609525,0.060047932,-3.0771072,0.6214176,9.492088e-05,-0.12757091,0.056772333,0.002942293,0.011274192,0.005744588,0.003072897,0.47760984,-1.3643161,1.8820881,-2.085653,-1.5726103,2.4506276,-0.19925448,0.12626614,-0.16699369,0.040475912,-0.013213861,-0.20221008,-0.21068975,-0.019153614,-9.097966,0.83365434,47.684196,-1.1562687,-2.1973405,-3.253436,-0.08016884,-0.30310312,-0.39964452,28.4375,29.8125,28.8125,32.625,35.125,36.125
0.28205165,-1.5038875,-0.66486484,-1.4582841,0.020472424,0.05228557,-0.1618529,-0.4066165,-0.36084992,0.06002906,-3.0771081,0.6212789,9.876693e-05,-0.12817064,0.05600605,0.0038188011,0.010663436,0.005723974,0.010025835,0.47723764,-1.3640275,1.8817772,-2.0856168,-1.5726336,2.4501688,-0.19871491,0.12716497,-0.17065565,0.0429533,-0.012676221,-0.20862362,-0.2681506,-0.038307227,-9.212888,0.83589023,47.667187,-1.1368891,-2.1330826,-3.1886258,-0.07508088,-0.3268708,-0.3987845,28.4375,29.8125,28.8125,32.625,35.125,36.125
0.28405175,-1.14398,-0.1983994,-1.7049885,0.002293783,0.08342924,-0.17697315,-0.40683177,-0.36072162,0.06000943,-3.0770473,0.6211441,-4.104939e-05,-0.12711167,0.057988804,0.0017534994,0.01337562,-1.9987481e-05,0.020065848,0.47684085,-1.3637627,1.8814667,-2.0854485,-1.572646,2.4496958,-0.2011484,0.12873834,-0.16844924,0.04548963,-0.012483862,-0.22109705,-0.21068975,0.038307227,-9.308657,0.88289046,47.667187,-1.1048441,-2.1661155,-3.2568066,-0.08679358,-0.32329178,-0.27552378,28.4375,29.8125,28.8125,32.625,35.125,36.125
0.28605166,-1.8335779,-0.81386083,-1.9740921,0.0035467816,0.07819695,-0.16773075,-0.4071039,-0.36061025,0.060041554,-3.0770624,0.6211034,8.821647e-05,-0.12751918,0.058259856,0.001668474,0.014107273,-0.001023464,0.028965553,0.47644475,-1.3635461,1.8811206,-2.085388,-1.5726937,2.4492726,-0.2017267,0.1299699,-0.17012458,0.047127675,-0.0126750395,-0.23057473,-0.2681506,0.095768064,-9.461885,0.9835985,47.709274,-1.0956837,-2.0940266,-3.271072,-0.0892075,-0.3601123,-0.13416095,28.5,29.8125,28.8125,32.625,35.125,36.125
0.2880525,-1.4174864,-1.2462025,-1.9450709,-0.0080588,0.09727639,-0.1626566,-0.4073515,-0.36049902,0.060029812,-3.0770304,0.6209425,-5.9477493e-06,-0.12772435,0.057886742,0.0015216008,0.014636229,-0.0012414821,0.030390903,0.4760491,-1.3632332,1.8807372,-2.085232,-1.5727066,2.4487808,-0.20092638,0.1314694,-0.17174864,0.04768101,-0.013071149,-0.23119678,-0.49799395,0.17238252,-9.5385,0.8023209,47.716442,-1.2274847,-2.1331508,-3.2654796,-0.09824928,-0.34423757,-0.10814091,28.5,29.8125,28.8125,32.625,35.125,36.125
0.29005164,-1.8395677,-1.7071749,-2.0170634,-0.016800368,0.10235026,-0.16230185,-0.40758836,-0.36034623,0.06001119,-3.076931,0.62088716,-4.1666295e-05,-0.1279083,0.057809543,0.00091431814,0.015579383,-0.0019996476,0.023733553,0.47562915,-1.3629804,1.8804497,-2.0851123,-1.5727781,2.4483392,-0.20054704,0.1334804,-0.17285115,0.047872987,-0.0135755325,-0.22415678,-0.7469909,0.15322891,-9.576807,0.9186956,47.750473,-1.3933785,-2.238181,-3.2827497,-0.09808208,-0.35268152,-0.14620134,28.5,29.8125,28.8125,32.625,35.125,36.125
0.29205266,-1.5915594,-1.755505,-2.3620968,-0.013014852,0.111434326,-0.16364776,-0.4078802,-0.36024484,0.060052887,-3.0770004,0.62088746,5.9832386e-05,-0.12862678,0.05793003,0.0014917066,0.015197951,-0.0010220973,0.013735454,0.47519708,-1.3627521,1.8800677,-2.0850527,-1.5727667,2.4478986,-0.20119728,0.13334599,-0.17411171,0.04824065,-0.013653549,-0.21480954,-0.63206923,0.1340753,-9.787497,0.8717007,47.691364,-1.5289295,-2.194308,-3.3538845,-0.09970997,-0.36770394,-0.26993075,28.5,29.8125,28.8125,32.625,35.125,36.125
0.29405257,-1.7964079,-1.9047543,-2.5987675,-0.018236203,0.09719234,-0.15854803,-0.4081064,-0.36012498,0.06001108,-3.0769098,0.6208538,-6.937237e-05,-0.12905002,0.058116764,-0.00016187147,0.017127588,-0.0029570034,0.006121811,0.4748132,-1.3624262,1.8797449,-2.0849326,-1.572791,2.4475055,-0.20125927,0.13755517,-0.175362,0.047893364,-0.014505348,-0.20725246,-0.49799395,0.19153613,-9.80665,0.8784135,47.679718,-1.4900391,-2.4549594,-3.330148,-0.09196989,-0.35609728,-0.3851037,28.5,29.8125,28.8125,32.625,35.125,36.125
0.2960522,-1.3024616,-1.8692547,-2.137691,-0.03179983,0.0915639,-0.17213584,-0.4083799,-0.36002457,0.060038704,-3.0769234,0.6208004,2.267146e-05,-0.13062118,0.059267458,0.00016834526,0.016225213,-0.0018606421,-0.00014700838,0.47442818,-1.3621745,1.8793615,-2.084849,-1.5728267,2.4470856,-0.20463124,0.13734332,-0.1756986,0.047046594,-0.014195434,-0.20435719,-0.21068975,0.15322891,-9.80665,0.92093146,47.70032,-1.3869865,-2.1769,-3.321598,-0.07187093,-0.35392314,-0.48003474,28.5,29.8125,28.8125,32.625,35.125,36.125
0.29805207,-1.2412018,-1.9068408,-2.2090218,-0.028341873,0.06568761,-0.16285335,-0.40866092,-0.35989085,0.0600564,-3.0768912,0.6208284,0.00011961527,-0.13088544,0.060148727,-0.0008546288,0.018009448,-0.0032837817,0.005567164,0.47399583,-1.3619336,1.8790163,-2.0847776,-1.5728868,2.446675,-0.20564039,0.13922906,-0.1757019,0.047215786,-0.015141068,-0.21107787,-0.34476504,0.19153613,-9.710882,0.9097417,47.684196,-1.3285602,-2.2979083,-3.43361,-0.06140081,-0.36035442,-0.5142423,28.5,29.8125,28.8125,32.625,35.125,36.125
0.30005175,-0.62700814,-1.3078451,-2.1642401,-0.015230396,0.054747112,-0.1787827,-0.40893707,-0.35976568,0.060040228,-3.0768557,0.62069744,0.0001191524,-0.13197115,0.06051725,-0.001326407,0.018645518,-0.004104999,0.018114224,0.47357523,-1.3616084,1.8786439,-2.0846932,-1.5729355,2.4461775,-0.20694019,0.14180245,-0.17789204,0.047807593,-0.0153714735,-0.22492245,-0.019153614,0.15322891,-9.557653,0.88960326,47.7254,-1.2621883,-2.36002,-3.3317513,-0.052519396,-0.36360735,-0.39933404,28.5,29.8125,28.8125,32.625,35.125,36.125
0.30205226,-0.48540962,-0.7147115,-2.3838174,-0.0034667004,0.028095985,-0.17703998,-0.40922177,-0.3596581,0.060070246,-3.0769024,0.6206415,0.00021409827,-0.13336927,0.061472446,-0.0016826025,0.019399563,-0.004900281,0.029083032,0.47315457,-1.3613673,1.8782729,-2.084633,-1.5729474,2.4457161,-0.20943296,0.14393945,-0.17987049,0.04866323,-0.015693355,-0.2383832,0.11492168,0.076614454,-9.730036,0.83813137,47.672558,-1.2285411,-2.446621,-3.3307867,-0.05702629,-0.34756717,-0.2364501,28.5,29.8125,28.8125,32.625,35.125,36.125
0.30405194,0.3065803,-0.7488723,-1.8874159,0.0018189772,0.03341131,-0.17479101,-0.4094892,-0.35951546,0.060046438,-3.076839,0.6206296,0.00014242981,-0.13431928,0.06341225,-0.0019775175,0.01966096,-0.006714508,0.029002367,0.47269714,-1.3610549,1.8779277,-2.0845253,-1.5729707,2.4452596,-0.21374305,0.14407231,-0.1797244,0.050094713,-0.015127359,-0.2426135,-0.095768064,0.15322891,-9.519346,0.86945957,47.692257,-1.1318353,-2.4575565,-3.4865632,-0.044013232,-0.3759313,-0.17528819,28.5,29.8125,28.8125,32.625,35.125,36.125
0.30605242,-0.25242642,-0.65131295,-1.8651539,0.0046734908,0.014802275,-0.16582718,-0.40974703,-0.35939944,0.060071833,-3.0768545,0.62044483,0.0001873983,-0.1352883,0.063754514,-0.0020317105,0.02050542,-0.008022788,0.021816133,0.47230074,-1.360826,1.8775681,-2.0844047,-1.5730065,2.444746,-0.21494745,0.14630125,-0.18285912,0.05254959,-0.015278866,-0.23663005,-0.1340753,0.114921674,-9.385271,0.86498255,47.68062,-1.0722,-2.6428795,-3.523312,-0.055556376,-0.37794507,-0.20613678,28.5,29.8125,28.8125,32.625,35.125,36.125
0.30805197,-0.30731764,-0.31783274,-1.8612604,0.013780954,0.01528167,-0.16250338,-0.41000965,-0.35929117,0.060058456,-3.0768456,0.62033254,0.00012437983,-0.13656548,0.0650184,-0.0020682232,0.021289349,-0.009403015,0.010731102,0.47189173,-1.3605022,1.8771852,-2.084296,-1.573007,2.4442682,-0.21800832,0.14768723,-0.18501785,0.054920636,-0.015353714,-0.22860412,-0.019153614,-0.038307227,-9.3661175,0.88289046,47.68062,-0.98195344,-2.274859,-3.513248,-0.07928818,-0.36745864,-0.2988849,28.5,29.8125,28.8125,32.625,35.125,36.125
0.31005156,0.32812208,0.23717757,-1.488787,0.010984052,0.04397724,-0.17506874,-0.4103038,-0.35915318,0.060064673,-3.0768187,0.6203498,0.00019588883,-0.13727994,0.06550209,-0.0017097385,0.021304898,-0.010082309,0.004912896,0.47143477,-1.360226,1.8768257,-2.084235,-1.5730547,2.4438257,-0.21948597,0.14818382,-0.18691862,0.056928553,-0.015054341,-0.22426428,-0.095768064,-0.1340753,-9.212888,0.81351066,47.694946,-0.8857533,-2.4111342,-3.422616,-0.082923934,-0.37223777,-0.3652225,28.5,29.8125,28.8125,32.625,35.125,36.125
0.31205213,-0.33089823,0.03912577,-1.4679195,0.03290659,0.031847,-0.16893555,-0.41056946,-0.35901508,0.060070068,-3.0767636,0.6203169,0.00019470196,-0.13793176,0.06598688,-0.0015057288,0.022346515,-0.011573716,0.0058085145,0.47100273,-1.3599617,1.8764662,-2.0841024,-1.5731028,2.4433804,-0.22057532,0.14953277,-0.18977799,0.060220048,-0.0153241195,-0.2262469,-0.076614454,-0.038307227,-9.251195,0.92093146,47.677036,-0.8881985,-2.421905,-3.2929847,-0.10891791,-0.38874725,-0.3957355,28.5,29.8125,28.8125,32.625,35.125,36.125
0.31405157,-0.2965268,0.4719269,-1.0363631,0.025862789,0.058568645,-0.17745796,-0.4108508,-0.35889894,0.06006353,-3.0767756,0.62013644,0.00017321306,-0.13675345,0.06494441,-0.00081666047,0.022921588,-0.013009008,0.019578787,0.47057214,-1.3596382,1.8760704,-2.0840056,-1.5731148,2.4428358,-0.21774064,0.14923482,-0.19191721,0.06416199,-0.015214782,-0.23718213,-0.22984336,-0.15322891,-9.232041,0.83365434,47.679718,-1.1592546,-2.4437556,-3.1777802,-0.18508327,-0.39443684,-0.33178478,28.5,29.8125,28.8125,32.625,35.125,36.125
0.31605235,-0.7901664,0.31461504,-1.3867292,0.034960207,0.07792673,-0.17302899,-0.4111292,-0.35878056,0.060080215,-3.0767605,0.6200872,0.00015167479,-0.1368629,0.06409081,-0.00022081277,0.021921705,-0.0117014,0.03215536,0.4701406,-1.3593506,1.8756517,-2.0838497,-1.5731267,2.4423757,-0.216427,0.14907703,-0.19303334,0.06378038,-0.014954351,-0.24844527,-0.4213795,-0.095768064,-9.11712,0.8605109,47.67345,-1.3750432,-2.270193,-3.2244892,-0.17975755,-0.4026079,-0.1919165,28.5,29.8125,28.8125,32.625,35.125,36.125
0.31805205,-1.6266049,-0.35042062,-1.5087174,0.04395552,0.07597904,-0.16072874,-0.4113775,-0.3586445,0.06007581,-3.0767007,0.6199772,8.0763144e-05,-0.13719438,0.06457769,-0.0003060324,0.022618623,-0.013361729,0.035260048,0.46972033,-1.3590746,1.8752922,-2.0836818,-1.5731629,2.4418945,-0.21747363,0.15016592,-0.19471729,0.066146106,-0.014859567,-0.25259516,-0.22984336,-0.095768064,-9.251195,0.94331104,47.68599,-1.4603388,-2.2372534,-3.2368822,-0.21223012,-0.422434,-0.105179764,28.5,29.8125,28.8125,32.625,35.125,36.125
0.32005176,-1.2374858,-0.7331254,-1.5685726,0.022993278,0.086814515,-0.15279926,-0.4116583,-0.35851923,0.060078785,-3.0766892,0.619903,5.712516e-05,-0.13676062,0.06648354,-0.00075246877,0.026104905,-0.016926743,0.028247422,0.46927598,-1.3587745,1.8748974,-2.0835602,-1.5731753,2.4414055,-0.21925999,0.15036559,-0.1950924,0.071086794,-0.016352758,-0.24736369,-0.30645782,0.0,-9.251195,0.8806493,47.67166,-1.5343642,-2.1515408,-3.2090697,-0.3000336,-0.40694803,-0.13092896,28.5,29.8125,28.8125,32.625,35.125,36.125
0.32205233,-0.8208592,-0.5884365,-1.4874161,-0.0015957375,0.08565859,-0.17322284,-0.41196007,-0.35835963,0.060075473,-3.0766082,0.61981374,0.00010396029,-0.13821305,0.06669459,-0.0014116736,0.026405051,-0.015581199,0.018215446,0.46880752,-1.3584616,1.8745021,-2.083442,-1.5732716,2.440892,-0.22018085,0.15298729,-0.1962081,0.06851139,-0.017240958,-0.23824812,-0.34476504,0.095768064,-9.289502,0.9701675,47.677036,-1.4630436,-2.3506799,-3.1526546,-0.3138543,-0.42465335,-0.23800056,28.5,29.8125,28.8125,32.625,35.125,36.125
0.32405207,-1.1152471,-0.89106846,-1.3924744,-0.016090494,0.07211429,-0.16911654,-0.4122293,-0.35824367,0.060081135,-3.0765874,0.61981505,3.285183e-05,-0.1397554,0.067486465,-0.0004937309,0.027193619,-0.0126701845,0.0071908203,0.46837497,-1.3581625,1.8740944,-2.0832865,-1.5732607,2.440463,-0.22146365,0.15251294,-0.19770427,0.06826801,-0.019265885,-0.2284981,-0.45968673,0.11492168,-9.270349,0.87617236,47.684196,-1.4175036,-2.0898385,-3.2103596,-0.3183928,-0.39388025,-0.35842067,28.5,29.8125,28.8125,32.625,35.125,36.125
0.32605207,-1.0985327,-1.2633792,-1.6686242,-0.021454198,0.075899445,-0.16846326,-0.4125088,-0.35810554,0.06007468,-3.07649,0.619779,3.7184673e-05,-0.14115141,0.067755945,0.00039845874,0.02624893,-0.009894837,0.00046046035,0.46795464,-1.3578391,1.8736876,-2.0831425,-1.5733446,2.440033,-0.22271997,0.15191492,-0.19877255,0.06702019,-0.019692559,-0.22302118,-0.5554548,0.05746084,-9.289502,0.84708,47.658226,-1.4466224,-2.0571406,-3.3196158,-0.34427768,-0.38483635,-0.48622584,28.5,29.8125,28.8125,32.625,35.125,36.125
0.32805225,-0.9340871,-1.1721238,-1.8104663,-0.013933222,0.07315514,-0.16418809,-0.41280353,-0.3579581,0.06007065,-3.0764577,0.61974996,-1.2163867e-05,-0.14423627,0.06801161,0.001357891,0.02332164,-0.006301792,0.0040906556,0.46746156,-1.357527,1.8732919,-2.0830123,-1.573356,2.439526,-0.22622068,0.1529027,-0.20156573,0.06426501,-0.01874631,-0.23015338,-0.30645782,0.0,-9.481039,0.87393653,47.64837,-1.4415436,-2.0677018,-3.1759062,-0.347147,-0.390347,-0.49391785,28.5,29.8125,28.8125,32.625,35.125,36.125
0.33005223,-1.0890604,-0.70080185,-1.6778493,-0.020565683,0.07633671,-0.16961,-0.4130597,-0.35780427,0.060043875,-3.0763538,0.61964303,-7.703493e-05,-0.14730437,0.06891934,0.0017250669,0.021064578,-0.00260852,0.015077888,0.4670282,-1.357215,1.8729452,-2.0828702,-1.5734285,2.4390395,-0.23041074,0.15384948,-0.20262244,0.0599948,-0.018470801,-0.24532919,-0.19153613,0.019153614,-9.423578,0.8717007,47.653748,-1.2944033,-2.036437,-3.1918943,-0.32006437,-0.38904276,-0.38351285,28.5,29.8125,28.8125,32.625,35.125,36.125
0.33205247,-1.1636115,-0.6692197,-1.8268636,-0.009830569,0.08913475,-0.16347091,-0.41336724,-0.35767636,0.06005852,-3.0763807,0.61964417,-9.029947e-05,-0.14761628,0.06955485,0.00083704863,0.021399863,-0.0032357904,0.024870956,0.4665358,-1.3569148,1.872526,-2.0827625,-1.5734042,2.4385445,-0.23155934,0.15509677,-0.2018465,0.0586511,-0.018516347,-0.25627103,-0.40222588,-0.038307227,-9.404425,0.90750587,47.66808,-1.1992918,-2.0117412,-3.3731556,-0.28658193,-0.39744332,-0.21921866,28.5,29.8125,28.8125,32.625,35.125,36.125
0.33405194,-1.1231103,-0.571394,-2.0405881,0.010712662,0.09339987,-0.16401997,-0.41367444,-0.35754254,0.060079336,-3.076377,0.61955005,-1.6787904e-05,-0.15016572,0.07096854,3.5969326e-05,0.02130578,-0.0023143096,0.021358768,0.46607837,-1.3566257,1.8721069,-2.0826566,-1.5734524,2.438029,-0.23574744,0.15800627,-0.202969,0.055977806,-0.01885607,-0.25694528,-0.34476507,-0.038307227,-9.461885,0.90750587,47.637623,-0.9603504,-2.1837409,-3.4841304,-0.2956549,-0.38482577,-0.18386562,28.5,29.8125,28.8125,32.625,35.125,36.125
0.33605254,-1.1601245,-0.19643214,-2.1881323,0.014405735,0.08948727,-0.15758383,-0.41398302,-0.35741612,0.060074482,-3.0763705,0.61949456,-2.431443e-05,-0.15179795,0.07034503,-0.0012080664,0.021509109,-0.00064095337,0.014706005,0.4656106,-1.3562769,1.8716763,-2.0825617,-1.5734648,2.4375277,-0.23535514,0.16267167,-0.20488048,0.05183116,-0.019796662,-0.249895,-0.30645782,-0.095768064,-9.634268,0.88960326,47.64121,-0.9658876,-2.1529198,-3.414537,-0.2300294,-0.3874553,-0.27221644,28.5,29.8125,28.8125,32.625,35.125,36.125
0.33805224,-1.1704447,-0.5887796,-2.0335376,0.0002244941,0.09300481,-0.15899348,-0.41427568,-0.3572699,0.06007559,-3.0762994,0.6194055,1.0417513e-05,-0.15244223,0.07004813,-0.0009321944,0.02133216,0.0013666229,0.009482173,0.46516714,-1.3559649,1.8712686,-2.0824306,-1.5735487,2.437038,-0.23479873,0.1630572,-0.20568557,0.050366845,-0.02054495,-0.24411105,-0.4405331,0.05746084,-9.653421,0.8537928,47.692257,-1.1917678,-2.2970808,-3.49961,-0.18651035,-0.36875868,-0.36949325,28.5,29.8125,28.8125,32.625,35.125,36.125
0.34005177,-1.7818577,-1.055137,-2.0808353,-0.012801272,0.08919007,-0.16060223,-0.41456103,-0.35711956,0.060055945,-3.0762396,0.6194114,-4.569873e-05,-0.15222755,0.07041456,-0.001958648,0.023191247,-0.0010737859,0.010249031,0.46468708,-1.3556404,1.8708977,-2.082322,-1.5735735,2.4365695,-0.23472646,0.16541056,-0.20658563,0.051913157,-0.021132369,-0.24480172,-0.51714754,0.019153614,-9.653421,0.92764956,47.684196,-1.2440087,-2.3305626,-3.5625503,-0.18252419,-0.37326,-0.4163338,28.5,29.8125,28.8125,32.625,35.125,36.125
0.3420526,-1.7542384,-0.8100744,-2.547186,-0.0076992903,0.076174915,-0.16330813,-0.41490364,-0.35699478,0.060093313,-3.0762436,0.6193697,0.00012443271,-0.15325595,0.07108022,-0.0024337922,0.024351966,-0.0011265249,0.017689861,0.4642306,-1.3553281,1.8704175,-2.082238,-1.5736455,2.4360867,-0.23592153,0.16740482,-0.20792311,0.05177531,-0.022153167,-0.25343505,-0.38307226,0.019153614,-9.672575,0.82694155,47.65912,-1.3028005,-2.424993,-3.3642268,-0.17620963,-0.3410566,-0.35724783,28.5,29.8125,28.8125,32.625,35.125,36.125
0.34405223,-1.4868135,-0.6826561,-2.177589,-0.03647739,0.083068356,-0.18255356,-0.4151808,-0.35684583,0.060055565,-3.0761666,0.61919206,2.0549582e-05,-0.15499513,0.070665725,-0.0019236935,0.02351622,0.0023295125,0.031093031,0.46377468,-1.3549559,1.8700227,-2.0820963,-1.5736936,2.43553,-0.23601884,0.16857927,-0.20995359,0.049108192,-0.02302878,-0.26692888,-0.076614454,0.038307227,-9.634268,0.90750587,47.693153,-1.3350275,-2.3681877,-3.3929615,-0.124486394,-0.3304006,-0.2390015,28.5,29.8125,28.8125,32.625,35.125,36.125
0.3460521,-1.2280563,-1.6349038,-1.8007491,-0.040382307,0.094684996,-0.15683785,-0.4155008,-0.35670355,0.0600543,-3.076162,0.6190536,7.587869e-05,-0.1564008,0.07150123,-0.0010673719,0.023419742,0.0033883054,0.035430584,0.46329433,-1.3546203,1.8696045,-2.0820234,-1.5737423,2.434964,-0.23819757,0.16834855,-0.21193588,0.050289493,-0.023433464,-0.27344346,-0.47884032,0.05746084,-9.5385,0.9164598,47.682407,-1.3852081,-2.4092548,-3.545239,-0.108951546,-0.32960016,-0.10927317,28.5,29.8125,28.8125,32.625,35.125,36.125
0.3480521,-1.3482974,-1.346626,-2.0495758,-0.017503044,0.079885416,-0.15166871,-0.4158119,-0.35654262,0.060058206,-3.0761285,0.6189936,0.00010271523,-0.15706335,0.07145094,-0.0011303794,0.023909284,0.0030151312,0.029945428,0.4627899,-1.3543197,1.8692087,-2.0819156,-1.57379,2.4344265,-0.23834477,0.17015593,-0.21425614,0.051347885,-0.023702499,-0.26810327,-0.63206923,0.1340753,-9.461885,0.88960326,47.696735,-1.4281127,-2.477982,-3.5159163,-0.10088499,-0.31923583,-0.12130566,28.5,29.8125,28.8125,32.625,35.125,36.125
0.3500519,-0.38614777,-0.33585903,-2.0791872,-0.01414961,0.08602062,-0.1674623,-0.41613546,-0.35642958,0.060073365,-3.076162,0.6189307,0.00016975174,-0.15748918,0.0710401,-0.0011789,0.023441676,0.0026032582,0.019158803,0.46233398,-1.3539835,1.8687524,-2.0818431,-1.5738019,2.4339273,-0.2382272,0.17168045,-0.21616587,0.051910765,-0.023069585,-0.2572017,-0.24899697,0.17238252,-9.557653,0.9455522,47.70032,-1.4430022,-2.4024763,-3.6145444,-0.08254933,-0.2828119,-0.22715497,28.5,29.8125,28.8125,32.625,35.125,36.125
0.3520519,-0.9553758,-0.77620137,-1.8508871,-0.015619246,0.0649156,-0.15774564,-0.41646802,-0.35628417,0.06008911,-3.076117,0.6189089,0.000251381,-0.1598819,0.071572654,0.000559418,0.021445733,0.0054006954,0.0061215907,0.46185306,-1.3536485,1.8682855,-2.081724,-1.5738739,2.4334388,-0.24130124,0.1709627,-0.21943128,0.052500263,-0.02251356,-0.24723998,-0.30645782,0.1340753,-9.519346,0.8560339,47.67166,-1.3313661,-2.2830057,-3.5218377,-0.066751525,-0.28810036,-0.37381387,28.5,29.8125,28.8125,32.625,35.125,36.125
0.35405216,-0.31799033,-1.0750332,-1.772658,-0.004714957,0.06056724,-0.15540433,-0.41679165,-0.35613516,0.060082287,-3.076057,0.61893827,0.00026404837,-0.16276966,0.073494114,0.0012936229,0.021705262,0.006850633,-0.0018286806,0.4613597,-1.3532885,1.8678421,-2.0816157,-1.5739225,2.4329717,-0.24624653,0.17181666,-0.22238755,0.05341007,-0.023397457,-0.24423018,-0.30645782,0.21068975,-9.442732,0.9455522,47.682407,-1.2507551,-2.2238984,-3.350853,-0.05106928,-0.27916855,-0.48927552,28.5,29.8125,28.8125,32.625,35.125,36.125
0.3560523,0.5422249,0.13514234,-1.6944766,-0.021151755,0.05895172,-0.18662643,-0.41709548,-0.3559936,0.06006847,-3.0760162,0.618828,0.00028835775,-0.16389523,0.074732415,0.001050146,0.023281096,0.006898237,0.008341548,0.46090287,-1.3529406,1.8674344,-2.0815318,-1.5739826,2.4324515,-0.24821354,0.173003,-0.22341768,0.053853527,-0.02486634,-0.2563611,-0.11492168,0.22984336,-9.32781,0.8605109,47.67345,-1.1289508,-2.2372766,-3.3498578,-0.010966603,-0.25069976,-0.45382833,28.5,29.8125,28.8125,32.625,35.125,36.125
0.35805237,-0.14379492,-0.21121417,-1.7705415,-0.016535247,0.053743556,-0.17514987,-0.41740713,-0.35584125,0.060059555,-3.0759742,0.6187894,0.00024494075,-0.16344096,0.074672565,-0.0004290895,0.024797961,0.003281415,0.024252614,0.46039927,-1.3525919,1.8670038,-2.0813997,-1.574006,2.4319293,-0.24768066,0.17648436,-0.22468738,0.055487398,-0.024667906,-0.27173817,-0.1340753,0.1340753,-9.442732,0.9186956,47.70211,-1.130803,-2.20202,-3.3417945,-0.003987345,-0.23996948,-0.29538304,28.5,29.8125,28.8125,32.625,35.125,36.125
0.3600524,-0.8832193,-0.64588064,-1.7916418,-0.01297355,0.0540128,-0.1603301,-0.4177536,-0.35569248,0.060084887,-3.0759547,0.61872476,0.000329119,-0.16447726,0.074554525,0.0021668286,0.022742227,0.0058897003,0.030579554,0.45989516,-1.3522573,1.8665122,-2.081267,-1.574066,2.4313877,-0.24856736,0.17344151,-0.2275392,0.058077898,-0.02399761,-0.27895477,-0.038307227,0.019153614,-9.346964,0.8806493,47.686886,-1.1818545,-2.0682132,-3.3945127,-0.012172017,-0.20322189,-0.19393864,28.5,29.8125,28.8125,32.625,35.125,36.125
0.36205247,-0.38646066,-0.26514128,-1.6952322,-0.010008071,0.071598426,-0.14707905,-0.41811275,-0.3555367,0.060100704,-3.075969,0.6186179,0.00040078268,-0.16479121,0.07523031,0.0014236452,0.023206713,0.002635963,0.02369065,0.4593543,-1.3519088,1.8660334,-2.0811703,-1.5741018,2.4307785,-0.25040424,0.17572598,-0.22923753,0.06060502,-0.022950916,-0.27390674,-0.34476504,0.076614454,-9.346964,0.9254084,47.67793,-1.1135,-2.1623704,-3.4313004,-0.015657747,-0.22805718,-0.19495672,28.5,29.8125,28.8125,32.625,35.125,36.125
0.36405158,-0.52610904,0.14984262,-1.6300348,-0.0076600993,0.080977306,-0.15838295,-0.4184159,-0.3553958,0.06008659,-3.0759254,0.61853623,0.00036859434,-0.16346836,0.075682,3.896356e-06,0.025348412,-0.0023273113,0.015692031,0.45888567,-1.3515482,1.8656024,-2.0810492,-1.5741376,2.4302647,-0.25006554,0.17781407,-0.22937268,0.06405781,-0.022663021,-0.26556924,-0.30645782,-0.076614454,-9.289502,0.8873621,47.681515,-1.0049789,-2.2231817,-3.3634307,-0.04276532,-0.21369162,-0.30593604,28.5,29.8125,28.8125,32.625,35.125,36.125
0.36605254,-0.5483033,0.19840299,-1.676061,0.021331029,0.06661007,-0.15584442,-0.41872716,-0.35524377,0.060079936,-3.075902,0.6185348,0.00031682506,-0.16311182,0.076933004,-0.0011796881,0.027643649,-0.0066439407,0.009559535,0.4583701,-1.3512117,1.8651832,-2.080928,-1.5741376,2.4297514,-0.2516056,0.17989087,-0.23003149,0.067531556,-0.022810865,-0.26097506,-0.1340753,-0.1340753,-9.32781,0.90750587,47.66539,-1.1979358,-2.1918411,-3.3848853,-0.07654511,-0.20256838,-0.3837846,28.5,29.8125,28.8125,32.625,35.125,36.125
0.36805248,-0.18554242,0.46899894,-1.4964832,0.03439164,0.06403732,-0.16142254,-0.4190865,-0.35508323,0.06009774,-3.075829,0.61853456,0.00044436436,-0.16277185,0.077336416,-0.0013681324,0.028906876,-0.008969412,0.015405327,0.45786634,-1.3508518,1.8646806,-2.0808074,-1.5742458,2.4292572,-0.25173643,0.18069266,-0.23131958,0.07060273,-0.02292889,-0.26695156,-0.21068975,-0.21068975,-9.308657,0.9791215,47.668976,-1.2846322,-2.24159,-3.446619,-0.0986459,-0.18284225,-0.38402677,28.5,29.8125,28.8125,32.625,35.125,36.125
0.37005252,-0.039389253,0.4437934,-1.2175993,0.02967509,0.07270473,-0.16455072,-0.4193912,-0.35492313,0.060083486,-3.0757866,0.61839956,0.0003311066,-0.16293305,0.07708643,-0.000898435,0.029223114,-0.010189051,0.03107644,0.4573506,-1.3504921,1.8642372,-2.0806267,-1.5742577,2.4286628,-0.25139093,0.18158409,-0.23424041,0.073797375,-0.022746803,-0.282275,-0.2681506,-0.11492168,-9.11712,0.9365982,47.653748,-1.4147208,-2.0682354,-3.3989325,-0.13855317,-0.19440296,-0.27898526,28.5,29.8125,28.8125,32.625,35.125,36.125
0.37205163,-0.2769776,0.73473436,-1.2549163,0.030838158,0.055154607,-0.1561322,-0.41970173,-0.35476357,0.060056027,-3.0757349,0.6182522,0.00025651802,-0.16296627,0.077475205,-0.00019567218,0.02913269,-0.010783907,0.03816331,0.45684612,-1.3501086,1.8638057,-2.0804942,-1.574294,2.4280732,-0.25207686,0.18063383,-0.23529983,0.07625144,-0.022454299,-0.29004723,-0.21068975,-0.21068975,-9.155427,0.9567419,47.653748,-1.4829915,-2.1125748,-3.4101176,-0.16887355,-0.19310543,-0.13442801,28.5,29.8125,28.8125,32.625,35.125,36.125
0.37405178,0.09151865,0.64614326,-1.2308412,0.030443653,0.062225442,-0.15997683,-0.42005402,-0.35460758,0.060073342,-3.0756733,0.61818516,0.00031708053,-0.16321607,0.077834,-0.00018595872,0.03022379,-0.012127706,0.03361067,0.4563422,-1.3497365,1.8632783,-2.0803263,-1.5743779,2.4275355,-0.25246006,0.18176992,-0.23732984,0.07881411,-0.022844428,-0.28587535,-0.2681506,-0.22984336,-9.212888,0.88960326,47.64389,-1.4622293,-2.2223015,-3.4060931,-0.21567719,-0.149607,-0.13117036,28.5,29.8125,28.8125,32.625,35.125,36.125
