Tylouw/Master_Thesis_Code/training_data/batch_1/rect_rod_t0.3/sample_48_session_2.csv
timestamp[s],tcp_force_x[N],tcp_force_y[N],tcp_force_z[N],tcp_force_rx[Nm?],tcp_force_ry[Nm?],tcp_force_rz[Nm?],tcp_pose_x[m],tcp_pose_y[m],tcp_pose_z[m],tcp_pose_rx[rot_vec_x],tcp_pose_ry[rot_vec_y],tcp_pose_rz[rot_vec_z],tcp_velo_x[m/s],tcp_velo_y[m/s],tcp_velo_z[m/s],tcp_velo_rx[rot_vec_x/s],tcp_velo_ry[rot_vec_y/s],tcp_velo_rz[rot_vec_z/s],q1[rad],q2[rad],q3[rad],q4[rad],q5[rad],q6[rad],qd1[rad/s],qd2[rad/s],qd3[rad/s],qd4[rad/s],qd5[rad/s],qd6[rad/s],tool_acc_x,tool_acc_y,tool_acc_z,current_of_whole_robot[A],voltage_of_whole_robot[V],current_J1[A],current_J2[A],current_J3[A],current_J4[A],current_J5[A],current_J6[A],temp_J1[C],temp_J2[C],temp_J3[C],temp_J4[C],temp_J5[C],temp_J6[C]
7.110066e-07,0.29333708,-0.4614902,1.0867733,-0.007167681,0.00075045443,-0.021358116,-0.38933688,-0.36872175,0.060026772,-3.0787134,0.62494916,0.00024723698,0.0017887491,0.0009749684,-0.0014052526,0.0021210155,-0.0040972764,4.491304e-05,0.5050448,-1.3816799,1.9041995,-2.091903,-1.5708655,2.4800491,-5.1991243e-05,-7.934221e-06,0.0027917433,0.0018276736,0.0001365949,-9.843672e-05,0.17238252,0.21068975,-8.695741,0.68818194,47.695843,-0.20174247,-3.077958,-2.2139049,-0.20771658,0.17968678,0.029360726,28.375,29.75,28.75,32.625,35.0625,36.125
0.0020526499,0.40602574,0.010522813,1.1900101,-0.01052671,0.003135034,-0.02396228,-0.38934785,-0.36872786,0.060036633,-3.0787487,0.62486,0.00027797272,4.838481e-05,8.316513e-06,-0.0016697004,-0.0017707585,0.0029082454,4.3807577e-05,0.5050448,-1.3816799,1.904178,-2.0919073,-1.5708655,2.479989,-5.125101e-05,-1.0644769e-07,0.0059111933,-0.00931354,0.0001336961,-9.6674936e-05,0.1340753,0.17238252,-8.6574335,0.7642693,47.73077,-0.22408824,-2.9159727,-2.463935,-0.13533196,0.18728943,0.020191468,28.375,29.75,28.75,32.625,35.0625,36.125
0.004052364,0.71944714,0.064418405,1.2275934,-0.009624358,0.017762924,-0.032583553,-0.38936472,-0.3687346,0.060032193,-3.078777,0.6249238,0.0003234355,-0.00086830795,-0.00050204206,-0.002614889,-0.0019155671,0.003159207,4.409154e-05,0.5050329,-1.3816667,1.904189,-2.0919797,-1.5708536,2.4800134,-5.05317e-05,0.0032717357,0.004738904,-0.011702783,0.00013091775,-9.497456e-05,0.11492168,0.076614454,-8.580819,0.7642693,47.74062,-0.15834579,-3.3733506,-2.6643047,-0.03404618,0.1670841,0.0011955695,28.375,29.75,28.75,32.625,35.0625,36.125
0.00605188,0.057857852,0.24424294,1.1890434,0.016244942,-0.017316872,-0.021925762,-0.38933817,-0.36873055,0.06002377,-3.078763,0.62497866,0.00020201407,-0.0005738072,-0.0003375638,-0.001419877,-0.001001922,0.001527501,4.345337e-05,0.50502086,-1.3816792,1.9042114,-2.0919292,-1.5708054,2.4800372,-4.9832244e-05,0.0021364768,0.002075225,-0.006033764,0.00012825245,-9.3333205e-05,0.019153614,0.038307227,-8.485051,0.71279734,47.70211,-0.2188876,-3.2658362,-2.4944918,-0.06173789,0.18777655,0.024535568,28.375,29.75,28.75,32.625,35.0625,36.125
0.008052037,1.2307079,1.3520002,0.85167706,0.04094272,-0.018188223,-0.039540507,-0.38933396,-0.3687219,0.060009647,-3.0787392,0.6249162,0.00022381534,-0.000120704266,-9.025297e-05,-0.0002662459,-0.00059757114,0.00078347663,4.2225223e-05,0.5050329,-1.3816679,1.9042352,-2.0919516,-1.5708417,2.4800134,-4.9151877e-05,7.725981e-05,0.00097414013,-0.002026728,0.00014129527,-9.174745e-05,-0.038307227,0.24899697,-8.6574335,0.7396539,47.721813,-0.17143139,-3.175828,-2.4344082,-0.08613989,0.18512481,0.026964933,28.375,29.75,28.75,32.625,35.0625,36.125
0.010052266,0.87335783,0.94332534,0.23730433,0.05147841,-0.022409447,-0.025180956,-0.38936308,-0.36871937,0.060029585,-3.0787418,0.6249744,0.0002787021,0.00011221182,3.8990114e-05,0.00012418389,0.00023287561,-0.00070829777,5.4628556e-05,0.5050088,-1.3816679,1.9041871,-2.0919392,-1.5708536,2.4800253,-4.8560592e-05,1.0365388e-06,-0.00058150647,0.0013124893,0.00014068613,-0.00010328351,0.038307227,0.114921674,-8.868123,0.75755644,47.694946,-0.8346764,-2.7964907,-2.6814904,-0.1336892,0.16455457,-0.03460179,28.375,29.75,28.75,32.625,35.0625,36.125
0.01205164,0.12390743,0.06312621,0.21540391,0.00787899,-0.006707212,-0.029534496,-0.38932946,-0.36871165,0.059987366,-3.0786662,0.6249606,0.00010843767,-0.0008361387,0.0019576687,-0.00063074677,0.0017188627,-0.0033823657,-0.0038744253,0.5050198,-1.3816075,1.904198,-2.0918782,-1.5708417,2.4800372,-0.0041633565,0.0012968015,-0.0008567989,0.0033512113,0.00013812773,-0.0002889379,0.0,0.11492168,-9.155427,0.79560274,47.687782,-1.0072505,-2.6381164,-2.7605174,-0.1429389,0.1552544,-0.12658405,28.375,29.75,28.75,32.625,35.0625,36.125
0.014052233,-0.34002775,-0.85181624,-0.0029311005,-0.035205375,0.02296789,-0.036067612,-0.38932753,-0.36869547,0.05997006,-3.0786304,0.62491274,0.000112752015,-0.0033469137,0.0051868996,-0.0052718935,0.0057247104,-0.010630807,-0.0010722105,0.5050167,-1.3815919,1.9042219,-2.0918906,-1.5708774,2.4800088,-0.011950363,0.010948021,-0.0015420711,0.002665036,0.00013553663,-0.010876271,-0.019153614,0.11492168,-9.270349,0.7486078,47.66091,-0.52663124,-3.1614032,-2.8677146,-0.15622628,0.17660385,-0.09866387,28.4375,29.75,28.75,32.625,35.0625,36.125
0.016052088,-0.8351636,-1.0922338,-0.15239652,-0.06905475,0.055260874,-0.04986531,-0.38935542,-0.36869383,0.059985846,-3.078667,0.6248973,0.00014386824,-0.004700247,0.005025931,-0.004495215,0.004594414,-0.008592721,0.0061534727,0.5049804,-1.381592,1.9041861,-2.091891,-1.5708655,2.4799583,-0.012943681,0.01107513,-0.003301106,0.0019651717,0.00013303288,-0.019094449,-0.26815057,0.22984336,-9.423578,0.78217715,47.698532,-0.6105499,-3.2766228,-2.9424567,-0.13374536,0.17314957,-0.022389568,28.4375,29.75,28.75,32.625,35.0625,36.125
0.018052,-1.7168868,-1.0826603,-0.10801868,-0.064699784,0.06582273,-0.06282742,-0.38933042,-0.3686685,0.059944537,-3.0785985,0.6248439,2.9794945e-05,-0.0056353174,0.0043929224,-0.0023594468,0.0022850495,-0.0044236514,0.009282995,0.5049686,-1.3815569,1.9042333,-2.0918677,-1.5708774,2.4799218,-0.012750856,0.00815834,-0.0045866286,0.0014007713,0.00013061937,-0.022031033,-0.4405331,0.22984336,-9.500193,0.7709874,47.69763,-0.8331225,-3.009377,-2.9118528,-0.12278838,0.16102594,-0.008757379,28.4375,29.75,28.75,32.625,35.0625,36.125
0.020052064,-1.5291003,-0.270382,-0.46772838,-0.019673761,0.07781835,-0.08537492,-0.38932323,-0.36867014,0.059931666,-3.0785937,0.6248055,-7.9449994e-05,-0.0062114922,0.0054915096,-0.0019484964,0.0022937935,-0.004381372,0.006781076,0.5049557,-1.3815213,1.9042095,-2.0918186,-1.5708417,2.4798856,-0.015121115,0.0068835896,-0.0042128447,0.002269874,0.00010397394,-0.021899786,-0.5363012,0.17238252,-9.634268,0.72622824,47.67614,-0.8862399,-2.839674,-3.1295552,-0.09472595,0.183774,-0.036437504,28.4375,29.75,28.75,32.625,35.0625,36.125
0.022052271,-1.4431909,0.4941315,-0.862821,0.016431367,0.06732421,-0.113536485,-0.38932213,-0.36868873,0.059927363,-3.0786574,0.6248018,-0.00013998072,-0.0063927686,0.0068113278,-0.0033367854,0.004308227,-0.008060682,0.0029046033,0.5049431,-1.3815085,1.9042095,-2.0918424,-1.5707697,2.4798625,-0.017526338,0.009293661,-0.0043332716,0.0041764816,0.00012545637,-0.020428339,-0.5554548,0.17238252,-9.691729,0.7329411,47.674347,-0.8692609,-2.8081784,-3.2270927,-0.12710232,0.17928523,-0.052884635,28.4375,29.75,28.75,32.625,35.0625,36.125
0.024052698,-1.4840122,0.32059288,-0.661164,0.018007943,0.05165999,-0.119253345,-0.389358,-0.36865523,0.059915185,-3.0785959,0.6248873,-0.00010587867,-0.00735465,0.0066684308,-0.0038854252,0.0038696066,-0.00929899,-0.00027856382,0.5048826,-1.3814714,1.9041961,-2.0918543,-1.5708169,2.4798632,-0.018797785,0.012076427,-0.0064093345,0.004337105,0.0011037625,-0.018516973,-0.7278373,0.019153614,-9.710882,0.7866488,47.678825,-0.83032894,-2.9757044,-3.2490337,-0.1434005,0.17578323,-0.06345741,28.4375,29.75,28.75,32.625,35.0625,36.125
0.02605248,-0.8975772,0.32886255,-0.682044,0.0042544873,0.07273552,-0.1391657,-0.38935202,-0.3686359,0.059887063,-3.0785403,0.62479866,-0.00018070752,-0.008735155,0.006034074,-0.0026785969,0.0014007379,-0.006663637,-0.0021342873,0.5048705,-1.3814237,1.9041957,-2.0918186,-1.5708407,2.4798028,-0.019570034,0.011605666,-0.008352669,0.0032469642,0.001981775,-0.017434288,-0.80445176,-0.11492168,-9.80665,0.7038487,47.67345,-0.9506966,-2.8766518,-3.257655,-0.122082025,0.14574137,-0.101269,28.4375,29.75,28.75,32.625,35.0625,36.125
0.028052488,-2.091488,-0.18535076,-0.72073287,0.00091613515,0.06992607,-0.14356819,-0.38937247,-0.36862502,0.059888452,-3.0785532,0.6249167,-0.00020197405,-0.01012134,0.0054849074,-0.0024147977,0.0002810082,-0.005167123,-0.0030744148,0.50481045,-1.3814231,1.9041947,-2.0918314,-1.5708045,2.4798148,-0.020097863,0.0132500315,-0.010616732,0.0020151427,0.0022302007,-0.017021075,-0.7278373,-0.21068975,-9.825804,0.7732232,47.686886,-0.9706832,-2.906382,-3.2790623,-0.12186569,0.14419809,-0.12723535,28.4375,29.75,28.75,32.625,35.0625,36.125
0.0300517,-1.9146639,0.11436541,-0.63883543,-0.014855326,0.09438778,-0.16450511,-0.3893974,-0.36861882,0.059882116,-3.078559,0.62489986,-0.00025471844,-0.011180651,0.0057446472,-0.0022129435,0.0001782143,-0.0044018505,-0.0043364726,0.50476205,-1.3813747,1.9041466,-2.0918076,-1.5707811,2.4797552,-0.02134784,0.01395244,-0.011868182,0.0018461851,0.0019463336,-0.017007908,-0.63206923,-0.24899697,-9.883265,0.8023209,47.683304,-0.95726335,-2.8725479,-3.2757678,-0.08686913,0.14426821,-0.1346426,28.4375,29.75,28.75,32.625,35.0625,36.125
0.03205179,-1.8929439,0.20188901,-0.8096779,-0.0037619644,0.09332168,-0.16742226,-0.38941845,-0.36860985,0.05988413,-3.0785394,0.6248573,-0.00021928878,-0.01191581,0.0061672474,-0.0027276617,0.00090088224,-0.005207693,-0.0045838538,0.5047496,-1.38135,1.9041098,-2.0917947,-1.5708169,2.4797187,-0.022594178,0.015786253,-0.012927453,0.0021266597,0.0017014771,-0.018005742,-0.6895301,-0.15322891,-9.940725,0.7620334,47.66808,-0.9905359,-2.860317,-3.277225,-0.090254374,0.15155958,-0.16038077,28.4375,29.75,28.75,32.625,35.0625,36.125
0.034052577,-1.7418,0.44274297,-0.7796209,0.0210881,0.082043655,-0.18527465,-0.38946578,-0.36859933,0.059878334,-3.0785582,0.6249764,-0.00022831255,-0.012487589,0.0070358193,-0.0024048914,0.0016011709,-0.0055683115,-0.005058024,0.5046653,-1.3813021,1.9040745,-2.0918305,-1.5707811,2.4797063,-0.024315506,0.015438286,-0.01364088,0.0038446055,0.0012649682,-0.019252049,-0.7278373,-0.05746084,-9.80665,0.75084364,47.6636,-1.0051501,-2.8154936,-3.3059003,-0.111722216,0.14630978,-0.1704053,28.4375,29.75,28.75,32.625,35.0625,36.125
0.036052227,-1.4639175,0.20426822,-0.946573,0.042123314,0.06984201,-0.19190861,-0.38945812,-0.36858216,0.059865475,-3.0785384,0.6250113,-0.00031004293,-0.013644848,0.008024359,-0.0026496425,0.00200484,-0.0062107295,-0.00577659,0.5046284,-1.3813018,1.9040979,-2.0918067,-1.5707568,2.4796937,-0.02703402,0.01654635,-0.014510746,0.004364473,0.0012197793,-0.0212515,-0.63206923,-0.076614454,-9.787497,0.7978386,47.681515,-0.9758723,-2.8350978,-3.2219603,-0.12256075,0.17854288,-0.18981342,28.4375,29.75,28.75,32.625,35.0625,36.125
0.038052384,-1.5015043,-0.33775952,-0.91166437,0.035649206,0.042923618,-0.20414332,-0.38950375,-0.3685709,0.059875224,-3.0784984,0.6250215,-0.00023347216,-0.014544563,0.007981113,-0.0019525535,0.0009413833,-0.0042863567,-0.004819286,0.5046042,-1.381254,1.904014,-2.0917833,-1.5708169,2.479681,-0.027797751,0.01593669,-0.015165677,0.0034289493,0.0012163306,-0.022972245,-0.5363012,-0.1340753,-9.672575,0.80456203,47.658226,-0.9875248,-2.7591405,-3.297298,-0.10574308,0.1542018,-0.178388,28.4375,29.75,28.75,32.625,35.0625,36.125
0.04005243,-1.5833462,-0.36140084,-0.62753534,0.008241056,0.037452787,-0.22616185,-0.38956296,-0.36855373,0.059889983,-3.078532,0.62500966,-0.00017764082,-0.015733443,0.007989332,-0.0015791289,7.007849e-05,-0.0030619358,-0.005408697,0.50452,-1.3812298,1.9039544,-2.0917947,-1.5708169,2.4795852,-0.029024122,0.016496092,-0.016518362,0.002728601,0.0013831875,-0.02360872,-0.47884035,-0.1340753,-9.672575,0.7978386,47.691364,-0.99408436,-2.7829177,-3.2472095,-0.09155156,0.16353944,-0.21199945,28.4375,29.75,28.75,32.625,35.0625,36.125
0.04205267,-1.2252715,-0.6585581,-0.59163034,-0.009066632,0.046700023,-0.23639543,-0.38956642,-0.36853132,0.059849735,-3.0784843,0.6250577,-0.0002748525,-0.01695725,0.008119334,-0.0010152406,-0.0007617153,-0.0017722971,-0.0053997454,0.5044716,-1.3811697,1.9039778,-2.0918071,-1.570805,2.4795728,-0.030448351,0.016677285,-0.01795395,0.0024517912,0.0014819773,-0.025041534,-0.4213795,0.019153614,-9.634268,0.78888994,47.70838,-0.9670461,-2.7237244,-3.2361894,-0.087808736,0.1591229,-0.22564563,28.4375,29.75,28.75,32.625,35.0625,36.125
0.0440519,-1.1247706,-0.34760478,-0.6031589,-0.01299396,0.043344148,-0.22979988,-0.3895939,-0.36849448,0.05984054,-3.0784407,0.62506646,-0.00029188168,-0.018079804,0.00878593,-0.000597813,-0.001133473,-0.0011621619,-0.0052938242,0.50439906,-1.3811456,1.9039649,-2.0917833,-1.5708293,2.4795113,-0.032635048,0.016540948,-0.018805109,0.0027245607,0.0015095723,-0.027333958,-0.3256114,0.11492168,-9.672575,0.7620334,47.68599,-0.9923439,-2.715571,-3.2668493,-0.074430496,0.18618307,-0.24507722,28.4375,29.75,28.75,32.625,35.0625,36.125
0.04605222,-0.9203735,-0.47352856,-0.7250981,-7.952376e-05,0.03159362,-0.22554031,-0.3896677,-0.36849675,0.059861764,-3.0784762,0.6251316,-0.00023436485,-0.019147065,0.009654405,-0.0006736848,-0.00095855247,-0.0018479683,-0.0050310083,0.50432616,-1.3810853,1.9038452,-2.0917828,-1.5708169,2.4794745,-0.03520069,0.017398942,-0.019843347,0.003589213,0.0016883075,-0.030162174,-0.1340753,0.095768064,-9.557653,0.7284641,47.684196,-0.86886346,-2.6883278,-3.245013,-0.08825737,0.16149616,-0.2421237,28.4375,29.75,28.75,32.625,35.0625,36.125
0.04805214,-0.20002577,-0.54732835,-0.5382424,0.010263373,0.026864761,-0.2124802,-0.38969144,-0.36846158,0.05985323,-3.0784712,0.6251294,-0.00030189773,-0.019948917,0.010036836,6.529871e-06,-0.0014147821,-0.0011201628,-0.0033412874,0.5042299,-1.3810735,1.9038452,-2.0917585,-1.570793,2.4793775,-0.036619585,0.016767552,-0.020814272,0.004334294,0.0017335094,-0.033270717,-0.076614454,0.095768064,-9.481039,0.69937176,47.684196,-0.91547406,-2.6345994,-3.1981115,-0.09813287,0.16289791,-0.22914252,28.4375,29.75,28.75,32.625,35.0625,36.125
0.05005169,0.10331515,-0.56204534,-0.5176319,0.010275296,0.020236237,-0.20290391,-0.3897308,-0.36843583,0.059855066,-3.078462,0.62512785,-0.00029051583,-0.021217229,0.010695627,-0.00023970271,-0.0016536262,-0.0012012867,-0.0041856985,0.5041572,-1.381049,1.9038094,-2.0917466,-1.570805,2.479305,-0.03906383,0.018051736,-0.021663023,0.0038531711,0.0019782775,-0.034870394,-0.05746084,0.17238252,-9.5385,0.7732232,47.709274,-0.7826004,-2.6966429,-3.2230582,-0.0960159,0.16051103,-0.23127079,28.4375,29.75,28.75,32.625,35.0625,36.125
0.052051708,-0.039055664,-0.64759326,-0.60935366,-0.002878418,0.011459558,-0.20595351,-0.3897996,-0.3684099,0.0598528,-3.0784595,0.6252231,-0.00026177196,-0.022704195,0.010667804,0.00044174213,-0.0029443782,0.00066143845,-0.0044561364,0.504049,-1.3809888,1.9037489,-2.091771,-1.5708045,2.4792566,-0.04054099,0.018320058,-0.023340376,0.0030070136,0.0022036813,-0.036076654,0.0,0.21068975,-9.557653,0.800085,47.72092,-0.78119415,-2.5712276,-3.1656706,-0.06920668,0.17698756,-0.25632247,28.4375,29.75,28.75,32.625,35.0625,36.125
0.054052033,0.09616177,-0.51771057,-0.48961264,-0.017954519,0.016759312,-0.2106557,-0.3898661,-0.36840948,0.059901677,-3.078526,0.6251573,-0.00010671712,-0.022884468,0.010162277,0.0008604848,-0.003622049,0.0015769727,-0.0020814342,0.5040014,-1.381001,1.9036521,-2.091771,-1.5708288,2.4791596,-0.039948426,0.01819126,-0.024081405,0.0027463147,0.0023563954,-0.037858497,0.019153614,0.22984336,-9.442732,0.6926589,47.70211,-0.89762986,-2.616187,-3.2052739,-0.057801314,0.16384238,-0.25621584,28.4375,29.75,28.75,32.625,35.0625,36.125
0.05605287,0.012895666,-0.7853903,-0.37094432,-0.016123759,0.015055178,-0.20677418,-0.38989928,-0.3683723,0.05988286,-3.078506,0.6252313,-0.00017485852,-0.02419324,0.010978472,0.000668664,-0.0036990268,0.00089139864,-0.0034981503,0.5038926,-1.3809644,1.9036516,-2.091771,-1.5708045,2.4790995,-0.04278842,0.019557541,-0.025370724,0.0032321233,0.0027517828,-0.039281845,-0.038307227,0.19153613,-9.500193,0.7553206,47.705692,-0.8992207,-2.5853465,-3.206071,-0.056050684,0.1583361,-0.26446775,28.4375,29.75,28.75,32.625,35.0625,36.125
0.05805189,0.36251405,-0.642187,-0.5811477,-0.013901454,0.019238133,-0.20481476,-0.38994002,-0.36835352,0.05988652,-3.0785117,0.6252518,-0.00021501524,-0.024541749,0.011681397,0.0005195305,-0.0036215107,-0.00025030714,-0.003973769,0.5038081,-1.3809284,1.9035925,-2.0917346,-1.5707806,2.479027,-0.044595435,0.019746907,-0.02547051,0.004179101,0.0032364302,-0.040614143,0.095768064,0.15322891,-9.519346,0.78217715,47.694054,-0.8237283,-2.5840602,-3.218432,-0.081628226,0.16158915,-0.28778443,28.4375,29.75,28.75,32.625,35.0625,36.125
0.06005221,0.06623885,-0.29193693,-0.3642278,-0.0029585997,0.007204471,-0.20872308,-0.39000168,-0.36833155,0.059890073,-3.0785,0.6252875,-0.00013692523,-0.025507852,0.01210225,0.0009515218,-0.0039245216,6.152159e-05,-0.0046206145,0.50373584,-1.3808802,1.9035329,-2.091758,-1.5708164,2.4789786,-0.046272002,0.019873263,-0.026775593,0.004936714,0.0033515173,-0.041643474,0.019153614,0.15322891,-9.423578,0.7978386,47.691364,-0.7756932,-2.562541,-3.2522233,-0.06736589,0.15048105,-0.30698416,28.4375,29.75,28.75,32.625,35.0625,36.125
0.062052224,0.13967688,-0.05176002,-0.42177206,0.0038726092,0.008465252,-0.20391814,-0.39005205,-0.3683106,0.059891485,-3.0785458,0.6252952,-0.00019810066,-0.026471075,0.011829666,0.001054053,-0.0046582855,0.0002667152,-0.002939467,0.5036158,-1.3808438,1.9034837,-2.091746,-1.5707558,2.4788575,-0.04704369,0.021323957,-0.028714053,0.004891457,0.0038905495,-0.04409619,-0.05746084,0.15322891,-9.270349,0.7530795,47.67793,-0.8192942,-2.622723,-3.17079,-0.07998493,0.15960789,-0.31924304,28.4375,29.75,28.75,32.625,35.0625,36.125
0.06405237,-0.036775112,-0.20026723,-0.32425764,0.006351823,0.01785152,-0.1979452,-0.39009666,-0.36829478,0.059897464,-3.0785663,0.6251842,-0.00017196147,-0.027360696,0.012112536,0.0010221598,-0.0053223735,0.00042067736,-0.0021429954,0.5035553,-1.3808074,1.9034246,-2.0917346,-1.5707682,2.4787252,-0.048660785,0.022022258,-0.029349798,0.004371265,0.0043954756,-0.046510138,-0.05746084,0.21068975,-9.3661175,0.683705,47.695843,-0.83495426,-2.585614,-3.1503801,-0.07015629,0.15432997,-0.30262098,28.4375,29.75,28.75,32.625,35.0625,36.125
0.06605209,0.07934077,0.11142917,-0.21424763,-0.00049902656,0.04262598,-0.20965649,-0.39017257,-0.36825588,0.059896473,-3.0785618,0.62533736,-0.00015544686,-0.028148191,0.012426431,0.0012413424,-0.0060438905,0.0006610186,-0.0035433236,0.503411,-1.3807594,1.9033755,-2.0917585,-1.5707554,2.478677,-0.05023773,0.022140078,-0.029977702,0.0043220953,0.0049116076,-0.04668722,-0.095768064,0.114921674,-9.308657,0.7732232,47.68599,-0.8084599,-2.5144591,-3.1862211,-0.056871265,0.13788375,-0.34157205,28.4375,29.75,28.75,32.625,35.0625,36.125
0.06805225,-0.6925764,-0.120459944,-0.16049351,0.00083102897,0.04088812,-0.20236792,-0.3901813,-0.36823735,0.05986142,-3.0785015,0.62518847,-0.0002607568,-0.028527549,0.012688358,0.0012658671,-0.0060772523,0.0001594114,-0.0020745466,0.50338674,-1.3806632,1.9033278,-2.0916984,-1.5707797,2.4785676,-0.05119792,0.022519547,-0.030645555,0.0050315764,0.0051773195,-0.049116936,-0.21068975,0.076614454,-9.346964,0.79560274,47.68599,-0.80392545,-2.600227,-3.1867874,-0.043615855,0.13623574,-0.33923605,28.4375,29.75,28.75,32.625,35.0625,36.125
0.07005242,-0.71406347,-0.6042026,-0.22740637,0.012426716,0.052168712,-0.19334371,-0.39026532,-0.36822823,0.059910677,-3.078591,0.6252256,-0.0001440024,-0.029942561,0.014036984,0.0011501993,-0.005292973,-0.00048164377,-0.0018982978,0.5032779,-1.3806747,1.903232,-2.0917094,-1.5707554,2.4784706,-0.054545667,0.023512118,-0.03180659,0.0061428016,0.004805074,-0.05263919,-0.34476507,0.05746084,-9.346964,0.7866488,47.686886,-0.76386046,-2.5647721,-3.1664078,-0.049892943,0.13474837,-0.33890742,28.4375,29.75,28.75,32.625,35.0625,36.125
0.07205255,-0.453255,0.56294256,-0.02111252,-0.0021982517,0.07027824,-0.20698458,-0.39033648,-0.36819857,0.059921667,-3.0786293,0.6252868,-0.00011075244,-0.029478138,0.013278807,0.0009726402,-0.005280943,-0.00086545246,0.0048452946,0.50314677,-1.3806505,1.9031838,-2.0917337,-1.5707315,2.4783728,-0.052939028,0.024314022,-0.032376006,0.006253436,0.0049808067,-0.057775844,-0.3256114,0.038307227,-9.32781,0.74413085,47.684196,-0.8506774,-2.5974183,-3.185629,-0.06801851,0.13175589,-0.30575785,28.4375,29.75,28.75,32.625,35.0625,36.125
0.07405279,-0.8327797,0.51565254,-0.13857386,0.01031899,0.068962514,-0.20629705,-0.39039227,-0.36817372,0.059911318,-3.0786154,0.6252454,-0.00020901144,-0.030514548,0.014068672,0.000824945,-0.005093638,-0.0011085906,0.0040454357,0.50303805,-1.3805541,1.903077,-2.0916617,-1.5707077,2.47824,-0.055195857,0.025160832,-0.0330802,0.0064162393,0.0049291225,-0.059232637,-0.4213795,-0.076614454,-9.346964,0.800085,47.694054,-0.9297815,-2.5837915,-3.1715646,-0.06210711,0.12434965,-0.2972437,28.4375,29.75,28.75,32.625,35.0625,36.125
0.076052256,-0.9181825,0.018428747,-0.27093264,0.023943752,0.07143336,-0.19762117,-0.39044803,-0.36815107,0.059922375,-3.0786827,0.6252197,-0.00021399531,-0.03164832,0.014501183,0.00096687203,-0.0052666008,-0.0005842385,0.005048398,0.50291795,-1.3805419,1.9030403,-2.091674,-1.5706595,2.4780953,-0.056909647,0.025875593,-0.03422306,0.006305478,0.004827148,-0.061948452,-0.45968673,-0.038307227,-9.346964,0.7486078,47.677036,-0.8732312,-2.5048268,-3.160983,-0.06371182,0.10874259,-0.3019341,28.4375,29.75,28.75,32.625,35.0625,36.125
0.078052305,-1.1245877,0.35447207,-0.117853194,0.013711451,0.06519949,-0.19968149,-0.39049467,-0.3681137,0.059899785,-3.0786467,0.62524927,-0.0003251992,-0.033045497,0.015753787,0.0007923561,-0.005015569,-0.0005217185,0.0066197533,0.50279695,-1.3804575,1.9029812,-2.0916264,-1.5706362,2.4779973,-0.060153574,0.026535487,-0.034548245,0.0060402267,0.004570391,-0.06676339,-0.4213795,-0.076614454,-9.442732,0.7597976,47.677036,-0.7404945,-2.5128684,-3.2329216,-0.0645881,0.11584292,-0.2579872,28.4375,29.75,28.75,32.625,35.0625,36.125
0.08005172,-0.80080587,0.3168193,-0.030367626,0.0051473984,0.073579416,-0.20362085,-0.39059788,-0.36808157,0.059932206,-3.0786965,0.62527436,-0.00019712922,-0.032811023,0.014765936,0.0010928654,-0.0046471483,0.00049736304,0.0130912205,0.50265425,-1.3804334,1.9028844,-2.0916507,-1.5706481,2.477864,-0.05775549,0.027038366,-0.03584522,0.006121837,0.003760209,-0.07083444,-0.51714754,-0.038307227,-9.385271,0.81351066,47.684196,-0.9422566,-2.5447514,-3.2202506,-0.04941178,0.113796696,-0.22174364,28.4375,29.75,28.75,32.625,35.0625,36.125
0.0820521,-0.87521803,0.2688759,-0.18394718,0.0052225036,0.074196205,-0.2003792,-0.39065504,-0.36803782,0.059909318,-3.0786672,0.6251127,-0.00019207309,-0.033638634,0.01581506,0.000950625,-0.0036964503,0.00028887196,0.015022445,0.5025577,-1.3803492,1.9028367,-2.0916502,-1.5706967,2.4776704,-0.059827473,0.02746258,-0.036141798,0.0066344677,0.003025033,-0.07483646,-0.49799395,-0.038307227,-9.423578,0.71279734,47.684196,-0.97472626,-2.4997573,-3.1612616,-0.053529106,0.12822083,-0.16833012,28.4375,29.75,28.75,32.625,35.0625,36.125
0.08405223,-1.1265993,-0.0049444865,-0.35999036,0.014681472,0.06348781,-0.19590984,-0.39070225,-0.36801735,0.059902783,-3.078684,0.62505776,-0.0002988958,-0.034530368,0.01655583,0.0005607298,-0.0032322211,-0.00011804085,0.016129352,0.5024492,-1.3802767,1.9027523,-2.0915902,-1.5706486,2.4775255,-0.061763357,0.028642697,-0.036627084,0.006524701,0.0028087962,-0.07787865,-0.47884035,-0.11492168,-9.442732,0.784413,47.615234,-0.90757537,-2.496478,-3.1788945,-0.08454519,0.11620489,-0.1376436,28.4375,29.75,28.75,32.625,35.0625,36.125
0.08605258,-1.3640553,-0.26764593,-0.49140352,0.01783986,0.052275214,-0.19631162,-0.39077896,-0.3679957,0.05991559,-3.078722,0.62502533,-0.00024259616,-0.035021514,0.016383793,0.0007695843,-0.0033367747,0.00047239297,0.018260939,0.5023414,-1.3802285,1.9026688,-2.091602,-1.5706486,2.4773927,-0.061801907,0.029159445,-0.037715673,0.006529846,0.0026172688,-0.080047816,-0.45968673,0.0,-9.519346,0.7150385,47.675243,-1.0453854,-2.476089,-3.2579288,-0.08656266,0.13121162,-0.089819744,28.4375,29.75,28.75,32.625,35.0625,36.125
0.08805167,-1.4295527,-0.027846128,-0.40482548,0.0033133314,0.038693152,-0.1973321,-0.39088863,-0.36794308,0.05992799,-3.0787375,0.6249698,-0.00014739665,-0.03608211,0.016595216,0.000831342,-0.0038948266,0.00079486246,0.017858194,0.50217336,-1.3801682,1.902572,-2.0916145,-1.5706848,2.477188,-0.06334009,0.030116346,-0.038919665,0.006222026,0.0029519973,-0.08118299,-0.4405331,-0.095768064,-9.423578,0.74413085,47.661808,-1.0205415,-2.4982958,-3.2497947,-0.07811196,0.14273453,-0.06796485,28.4375,29.75,28.75,32.625,35.0625,36.125
0.090051845,-0.9533325,0.26220796,-0.26971012,-0.00074708054,0.04047247,-0.20550665,-0.39093077,-0.36791635,0.059936572,-3.0787406,0.62491304,-0.0001628966,-0.036711883,0.01677626,0.0006267936,-0.0038121797,0.00095277,0.016843151,0.5020892,-1.3801438,1.9025129,-2.0915668,-1.5706848,2.4770682,-0.0641309,0.03109288,-0.039497107,0.0057250974,0.002800333,-0.08095811,-0.3256114,-0.076614454,-9.385271,0.82694155,47.67166,-1.0824348,-2.4970717,-3.1854105,-0.07136063,0.12599126,-0.058077615,28.4375,29.75,28.75,32.625,35.0625,36.125
0.092051856,-0.5682284,0.06067199,-0.62047285,0.0031564543,0.043485213,-0.19272254,-0.3910132,-0.3678898,0.05991101,-3.0787706,0.6248232,-0.00023010252,-0.037299205,0.01732628,-9.725603e-05,-0.0030095405,-2.5225121e-05,0.0148388045,0.5019452,-1.380011,1.9024166,-2.0915782,-1.5706486,2.4768643,-0.065444976,0.032875292,-0.039941482,0.0056347917,0.002564512,-0.080267064,-0.21068975,0.095768064,-9.404425,0.8157518,47.677036,-1.1110286,-2.5879836,-3.2822075,-0.06600421,0.12720951,-0.07511576,28.4375,29.75,28.75,32.625,35.0625,36.125
0.09405202,-0.16501026,-0.43594813,-0.368298,0.006908209,0.041058462,-0.19042711,-0.39109328,-0.3678572,0.059920758,-3.0788147,0.6248531,-0.00019747998,-0.03820213,0.017502323,0.00011974679,-0.0031641242,0.0004650062,0.01264767,0.501801,-1.3799747,1.902357,-2.0916026,-1.5706247,2.4767332,-0.06650787,0.033542335,-0.04125888,0.0057835826,0.0024658453,-0.07913792,-0.15322891,0.076614454,-9.461885,0.779936,47.698532,-1.1137532,-2.5992796,-3.2709365,-0.09696527,0.14789578,-0.06707062,28.4375,29.75,28.75,32.625,35.0625,36.125
0.09605261,-0.1433672,-0.39814493,-0.44693297,-0.0040272977,0.03243131,-0.18982114,-0.3911834,-0.3677947,0.059933215,-3.0787685,0.62480557,-0.0001243463,-0.040072888,0.017292539,0.001298587,-0.0045667216,0.0029883168,0.009634785,0.501657,-1.3799264,1.9022607,-2.0915544,-1.5706967,2.4765656,-0.06788776,0.03378202,-0.04417753,0.005570291,0.0024758158,-0.0775037,-0.1340753,0.1340753,-9.404425,0.78888994,47.688675,-1.11706,-2.5586557,-3.1699586,-0.07337249,0.14164558,-0.08646519,28.4375,29.75,28.75,32.625,35.0625,36.125
0.098051906,-0.36468145,-0.35293192,-0.6105457,-0.010060151,0.020618426,-0.1859198,-0.39124092,-0.36776462,0.059895974,-3.0787814,0.6248291,-0.0002962572,-0.04041576,0.018271787,0.0007860188,-0.0042038597,0.0022483652,0.0059279706,0.50150055,-1.3798063,1.9022006,-2.0915425,-1.5706128,2.476422,-0.06986593,0.033961687,-0.04314037,0.005183386,0.0025101712,-0.07577565,-0.095768064,0.19153613,-9.442732,0.7329411,47.684196,-1.1813319,-2.5934665,-3.211378,-0.06034775,0.15982719,-0.10141719,28.4375,29.75,28.75,32.625,35.0625,36.125
0.10005204,0.013283198,-0.9852544,-0.70276785,-0.0076805484,0.02686682,-0.18578178,-0.3913243,-0.36773044,0.05991136,-3.0788045,0.62473804,-0.00023062513,-0.040593028,0.018942466,3.7533708e-05,-0.00361382,0.000693554,0.0028121308,0.50138044,-1.379758,1.9021057,-2.0915306,-1.5706366,2.4762423,-0.071294665,0.03507468,-0.042798504,0.0053731217,0.0027445878,-0.07408883,-0.05746084,0.17238252,-9.519346,0.78888994,47.681515,-1.1079409,-2.5851374,-3.3473034,-0.07150868,0.1493479,-0.16983962,28.4375,29.75,28.75,32.625,35.0625,36.125
0.102052175,0.29872483,-0.4521593,-0.5171516,-0.02222843,0.023077626,-0.18888025,-0.39143035,-0.36768004,0.059917975,-3.0787828,0.62479293,-0.00019212467,-0.04218025,0.01932025,0.000442216,-0.0040634307,0.0013243196,-8.921022e-05,0.501212,-1.3796737,1.9019855,-2.0915067,-1.5706605,2.476111,-0.073444284,0.03612962,-0.0450714,0.005820232,0.0028332986,-0.07333618,-0.095768064,0.21068975,-9.404425,0.80679786,47.71554,-1.1069831,-2.5301423,-3.2222,-0.061072722,0.1540832,-0.18834506,28.4375,29.75,28.75,32.625,35.0625,36.125
0.1040525,-0.31468925,-0.17884715,-0.599536,-0.021975856,0.003975551,-0.18358764,-0.39153358,-0.36762998,0.059940007,-3.078798,0.6248723,-0.00013561598,-0.043423872,0.019221084,0.0009080328,-0.0043868655,0.0018625554,-0.0012943377,0.501032,-1.379637,1.9018892,-2.0914943,-1.5706605,2.4759786,-0.07443177,0.03737383,-0.047798052,0.006675673,0.0028585438,-0.07311723,-0.076614454,0.24899697,-9.404425,0.7911258,47.766594,-1.1500168,-2.5534768,-3.1662245,-0.074847564,0.179064,-0.23742974,28.4375,29.75,28.75,32.625,35.0625,36.125
0.1060521,0.20537965,-0.4689463,-0.60609144,-0.012353098,0.029358016,-0.1942292,-0.39161575,-0.36760104,0.059940916,3.0788252,-0.62483895,0.000118618795,-0.044674687,0.01936451,0.0016720623,-0.0056205834,0.0031454551,-0.00050961867,0.5008996,-1.3795651,1.9018048,-2.0915062,-1.5706486,2.475822,-0.07610929,0.037178226,-0.049303286,0.0066584563,0.0033234553,-0.07557953,-0.076614454,0.19153613,-9.423578,0.7642693,47.701214,-1.1249791,-2.571342,-3.0710146,-0.09620141,0.15990359,-0.23733215,28.4375,29.75,28.75,32.625,35.0625,36.125
0.10805222,0.013205971,-0.94550914,-0.54974824,-0.0058070305,0.03199054,-0.18675908,-0.39165497,-0.36755356,0.05989928,-3.078783,0.6247731,-0.00028942825,-0.044035584,0.019889733,0.00036335507,-0.0055318726,0.00021261728,-0.0032587105,0.50076777,-1.3794568,1.9017576,-2.0914462,-1.5706238,2.4756544,-0.07722108,0.038242534,-0.047541525,0.006445042,0.004648875,-0.07394535,-0.038307227,0.21068975,-9.500193,0.7665104,47.701214,-1.1394128,-2.532462,-3.1990376,-0.095498785,0.15413237,-0.28238773,28.4375,29.75,28.75,32.625,35.0625,36.125
0.11005218,-0.04220997,-0.8517697,-0.4984403,-0.021349885,0.039276063,-0.19168429,-0.3917731,-0.3675214,0.059924647,-3.078812,0.6248171,-0.00019238981,-0.045124806,0.019955177,0.00061676814,-0.0061469963,0.00056635553,-0.004153794,0.50061154,-1.3793842,1.9016141,-2.0914462,-1.5706357,2.475522,-0.078554235,0.03919925,-0.049295638,0.006635411,0.0050210077,-0.07438284,-0.11492168,0.24899697,-9.423578,0.7709874,47.70032,-1.1981375,-2.535741,-3.263629,-0.09154645,0.1579015,-0.33694917,28.4375,29.75,28.75,32.625,35.0625,36.125
0.11205209,-0.5964086,-0.7273756,-0.7027406,-0.029497776,0.034702264,-0.18578613,-0.39184788,-0.3674975,0.059941754,3.0788162,-0.6247395,0.00018484323,-0.045751303,0.019663485,0.0009221053,-0.006807137,0.0010118621,-0.002676763,0.50047976,-1.3793479,1.9015297,-2.0914347,-1.5705999,2.4753413,-0.078858584,0.0398232,-0.05076022,0.0067705917,0.0053865844,-0.076163925,-0.1340753,0.17238252,-9.385271,0.8157518,47.694946,-1.2590692,-2.5315673,-3.175724,-0.08591634,0.1447581,-0.33792865,28.4375,29.75,28.75,32.625,35.0625,36.125
0.114052385,-0.12516205,-0.651378,-0.8232551,-0.01653958,0.04690237,-0.18869357,-0.39194763,-0.36745104,0.059918668,3.078777,-0.6248319,0.00023635341,-0.047480956,0.021070773,0.0009549941,-0.007174044,0.0009018099,-0.0092687495,0.5002865,-1.3792278,1.9014453,-2.0914586,-1.5705637,2.4752107,-0.08304469,0.04035482,-0.051498108,0.0068995636,0.005760082,-0.073758334,-0.15322891,0.11492168,-9.404425,0.78217715,47.711063,-1.1155143,-2.5247421,-3.2471604,-0.11011885,0.13038447,-0.42111406,28.4375,29.75,28.75,32.625,35.0625,36.125
0.11605162,-0.43928155,-0.5899764,-0.6352183,-0.006264613,0.042780068,-0.1899717,-0.39204538,-0.36740553,0.059932824,3.0787745,-0.62484694,0.00023763445,-0.047224455,0.020503381,0.00070475356,-0.0069592367,0.0004163775,-0.005735661,0.5001194,-1.3791553,1.9013137,-2.0913985,-1.5705637,2.4750533,-0.081863284,0.041428782,-0.052249514,0.0071071447,0.00580365,-0.07610964,-0.21068975,0.095768064,-9.519346,0.78888994,47.7254,-1.3226635,-2.5361395,-3.1907225,-0.08936088,0.15339863,-0.45251736,28.4375,29.75,28.75,32.625,35.0625,36.125
0.11805172,-0.46706256,-0.17561659,-0.34473222,-0.011415417,0.044117354,-0.19375041,-0.39214122,-0.36736938,0.059947144,3.078755,-0.6247843,0.00020847221,-0.049243707,0.021981493,-1.27847925e-05,-0.0063064317,-0.00032215627,-0.0059300964,0.4999624,-1.3790944,1.9012064,-2.0913866,-1.5705518,2.4748597,-0.08606795,0.043960676,-0.053557202,0.0068472736,0.005584345,-0.08011839,-0.21068975,0.11492168,-9.519346,0.7709874,47.71465,-1.2997673,-2.626011,-3.2665854,-0.07644114,0.13474236,-0.4661466,28.4375,29.75,28.75,32.625,35.0625,36.125
0.120051876,-0.99156,0.016996171,-0.6472891,-0.005328039,0.043161802,-0.19437274,-0.39222977,-0.3673279,0.059924215,3.078763,-0.6248006,0.00029002986,-0.049545538,0.021225743,0.0013646033,-0.00812937,0.0023144956,0.00038042822,0.4997951,-1.3789628,1.9010972,-2.0913622,-1.570527,2.4747016,-0.08526252,0.042016316,-0.05427627,0.006325619,0.005914092,-0.08562424,-0.19153613,0.095768064,-9.346964,0.7642693,47.73077,-1.2762527,-2.5830607,-3.2534308,-0.08227313,0.12835881,-0.4560082,28.4375,29.75,28.75,32.625,35.0625,36.125
0.122051895,-0.8185686,0.09469303,-0.7161442,0.0037378173,0.0545397,-0.19694237,-0.39233264,-0.3672845,0.05992734,3.0787568,-0.62475705,0.00026310098,-0.050530493,0.021669736,0.0013651892,-0.008424524,0.0020816156,0.0052270973,0.4996269,-1.3788785,1.9009904,-2.0913622,-1.570527,2.474507,-0.087133914,0.042930733,-0.055432603,0.0066313758,0.006285374,-0.09234217,-0.15322891,0.076614454,-9.3661175,0.7620334,47.705692,-1.3146443,-2.428716,-3.2317305,-0.08391513,0.13241243,-0.41996711,28.4375,29.75,28.75,32.625,35.0625,36.125
0.12405206,-0.92606753,0.23238082,-0.6114023,0.0047264434,0.05852837,-0.1853334,-0.39245126,-0.36725128,0.0599415,3.0787017,-0.62466747,0.0001881278,-0.051341202,0.022092378,0.0011949732,-0.008887917,0.001262437,0.008219372,0.49944642,-1.3788059,1.9008831,-2.0914104,-1.5705031,2.4742777,-0.08907513,0.043981258,-0.05638146,0.007028287,0.0070921066,-0.097275816,-0.34476507,0.038307227,-9.423578,0.842603,47.694054,-1.3660547,-2.536538,-3.2096133,-0.11216855,0.112481914,-0.37860197,28.4375,29.75,28.75,32.625,35.0625,36.125
0.12605248,-0.696389,0.13801606,-0.5389874,0.007821508,0.07025055,-0.19068587,-0.39253262,-0.36720338,0.05993335,3.07874,-0.6246304,0.00024453207,-0.05192687,0.022588052,0.00046324157,-0.007780025,0.00044484984,0.017519606,0.49929056,-1.3787094,1.9007739,-2.0913508,-1.5705031,2.474094,-0.09007142,0.04593023,-0.057014547,0.006965964,0.006505289,-0.10757122,-0.4405331,-0.076614454,-9.3661175,0.800085,47.690468,-1.3416388,-2.5413933,-3.2311954,-0.095480144,0.112544574,-0.2935501,28.4375,29.75,28.75,32.625,35.0625,36.125
0.12805167,-0.86715794,0.27377108,-0.34572393,0.010016572,0.07919186,-0.19196597,-0.3926759,-0.36715746,0.05996072,3.0786676,-0.62463415,0.00014386015,-0.05373837,0.024090715,8.022911e-05,-0.0073893783,0.00021072692,0.017243648,0.49907348,-1.3786366,1.9006308,-2.0913746,-1.5704912,2.4738884,-0.09410872,0.04736141,-0.057779346,0.0066964757,0.006283268,-0.11133109,-0.47884035,-0.076614454,-9.423578,0.78217715,47.701214,-1.221499,-2.67363,-3.1957684,-0.10293582,0.11206499,-0.2696932,28.4375,29.75,28.75,32.625,35.0625,36.125
0.13005193,-1.4731686,0.051115762,-0.3504444,0.019031087,0.06812523,-0.18455736,-0.39276043,-0.36710662,0.059938166,3.0787287,-0.6245071,0.0002680995,-0.05359717,0.023249729,0.0013838852,-0.008442753,0.001678356,0.023771249,0.4988946,-1.3785052,1.9005102,-2.0913026,-1.5704669,2.4736226,-0.09267792,0.045744907,-0.05909606,0.00784123,0.006497164,-0.116428584,-0.4405331,-0.17238252,-9.3661175,0.80456203,47.72271,-1.3517337,-2.5077255,-3.2607777,-0.112335324,0.11297977,-0.20230657,28.4375,29.75,28.75,32.625,35.0625,36.125
0.13205197,-0.8203093,0.87751704,-0.2596466,0.0046005873,0.08434125,-0.19242415,-0.39287996,-0.3670586,0.05993521,3.0786927,-0.6245215,0.00026602886,-0.05609797,0.025415963,0.0015418344,-0.009251758,0.0016217072,0.01980916,0.4986886,-1.3783971,1.9003915,-2.091314,-1.570443,2.4734302,-0.09906852,0.046024274,-0.059814077,0.007944783,0.007237096,-0.118857734,-0.49799395,-0.15322891,-9.442732,0.73741806,47.65643,-1.211596,-2.4387262,-3.2379599,-0.10297056,0.095696405,-0.14438006,28.4375,29.75,28.75,32.625,35.0625,36.125
0.13405223,-1.2671415,0.44974133,-0.28767505,0.020174928,0.07507169,-0.18299095,-0.39297944,-0.36700684,0.059938062,3.0787153,-0.6243708,0.00025236048,-0.055947278,0.024595216,0.0010363396,-0.00879519,0.0013352274,0.0212719,0.49850965,-1.3783242,1.9002961,-2.091303,-1.570443,2.4731543,-0.09736407,0.0479947,-0.060909677,0.0075421087,0.006972137,-0.11861476,-0.53630114,-0.05746084,-9.289502,0.84708,47.677036,-1.2851677,-2.5471144,-3.2476525,-0.11299255,0.09059945,-0.13817595,28.4375,29.75,28.75,32.625,35.0625,36.125
0.13605246,-1.4045628,0.13366386,-0.35568923,0.029258365,0.07359478,-0.18509017,-0.39309824,-0.3669476,0.059942417,3.0787175,-0.62431645,0.00026549544,-0.057559263,0.025908737,0.0012195724,-0.0083777625,0.0019543306,0.014278914,0.49829295,-1.378228,1.900164,-2.0912664,-1.5704311,2.4729035,-0.100624435,0.048344888,-0.061788023,0.0077303387,0.0063091433,-0.1148808,-0.51714754,-0.1340753,-9.270349,0.779936,47.684196,-1.195066,-2.4962463,-3.2389338,-0.115495875,0.09842088,-0.1539295,28.4375,29.75,28.75,32.625,35.0625,36.125
0.13805273,-0.66480124,0.4606078,-0.27462932,0.012709744,0.0975927,-0.18785071,-0.39322892,-0.3668905,0.059943732,3.0786936,-0.6242765,0.00020659488,-0.058823034,0.027196396,0.0009504351,-0.007880016,0.0016989026,0.006114559,0.49807662,-1.3781317,1.9000553,-2.0913026,-1.5704316,2.4726653,-0.10373734,0.049131475,-0.062111903,0.007730956,0.005999746,-0.10982836,-0.68953013,-0.15322891,-9.289502,0.79560274,47.68599,-1.153414,-2.5298324,-3.3131142,-0.11628516,0.09667371,-0.21024081,28.4375,29.75,28.75,32.5625,35.0625,36.125
0.1400519,-0.58285964,0.5712957,-0.364264,0.013112691,0.0900581,-0.18897413,-0.39335576,-0.36686146,0.059966058,3.0786304,-0.62430423,0.00016004879,-0.06179191,0.027335582,0.0025567873,-0.009417813,0.004916697,0.00014593906,0.49789605,-1.3780353,1.8998874,-2.0912902,-1.5704077,2.47251,-0.10656066,0.049771063,-0.06659021,0.008011648,0.005812033,-0.106680594,-0.61291564,-0.1340753,-9.308657,0.7284641,47.63046,-1.0569727,-2.4568377,-3.2148335,-0.10972165,0.101056844,-0.2819823,28.4375,29.75,28.75,32.5625,35.0625,36.125
0.14205205,-0.8238969,0.21012522,-0.46854153,0.0147842895,0.0745915,-0.18606895,-0.39346668,-0.3667777,0.059948906,3.078697,-0.62429935,0.0002231435,-0.06183411,0.028740931,0.0014161136,-0.008827042,0.0023864591,-0.0026718003,0.49766734,-1.377915,1.8997678,-2.0912187,-1.5704311,2.47227,-0.109370135,0.05047171,-0.06484483,0.008067313,0.0064990716,-0.106674336,-0.53630114,-0.095768064,-9.404425,0.79560274,47.699425,-0.9628571,-2.4689279,-3.1805475,-0.11308473,0.088903144,-0.3225912,28.4375,29.75,28.75,32.5625,35.0625,36.125
0.1440524,-0.8195498,0.5259181,-0.45253024,-0.0024357392,0.07238934,-0.18465948,-0.39360753,-0.36673427,0.05996661,3.0786114,-0.62430036,0.00021418552,-0.06239494,0.029521395,8.8306195e-05,-0.007364987,-9.6619944e-05,-0.003072488,0.49742725,-1.3778179,1.8996123,-2.0912187,-1.570371,2.4720414,-0.11111098,0.05355749,-0.065614775,0.008640098,0.0064065303,-0.10801326,-0.57460845,0.076614454,-9.385271,0.7620334,47.694054,-0.9398897,-2.5871916,-3.259649,-0.13046952,0.08273771,-0.31347486,28.4375,29.75,28.75,32.5625,35.0625,36.125
0.14605221,-0.4479133,0.7126567,-0.33475512,-0.015838733,0.086694345,-0.20346968,-0.39372003,-0.36666727,0.059956215,3.0786333,-0.62426615,0.00024095408,-0.06518995,0.029264228,0.0029826052,-0.009657743,0.0052007013,-0.0046855714,0.49721122,-1.3777103,1.8995031,-2.0911944,-1.5703715,2.4718013,-0.11289675,0.051728155,-0.07018273,0.009291237,0.005884842,-0.1081839,-0.59376204,0.05746084,-9.346964,0.79560274,47.65106,-0.9095273,-2.4527917,-3.1345077,-0.15133865,0.09556903,-0.35406542,28.4375,29.75,28.75,32.5625,35.0625,36.125
0.14805232,-1.7909242,-0.559169,-0.4860789,0.010662008,0.07136893,-0.17853892,-0.39385602,-0.36659458,0.059973396,3.07861,-0.6243173,0.0001884131,-0.06540244,0.030108212,0.0021332793,-0.008733065,0.0038193432,-0.004263174,0.49697122,-1.3776377,1.8993725,-2.09117,-1.5703834,2.4715962,-0.11439108,0.05286574,-0.06958408,0.0092114415,0.0057377876,-0.11010029,-0.5554548,-0.038307227,-9.442732,0.779936,47.672558,-0.8560807,-2.4701345,-3.0589604,-0.16742487,0.115616605,-0.371261,28.4375,29.75,28.75,32.5625,35.0625,36.125
0.1500523,-0.91140103,0.13570842,-0.53462464,-0.006858126,0.09858895,-0.1954479,-0.39398456,-0.36654103,0.059946656,3.0786161,-0.6243579,0.00024488452,-0.06563992,0.030615501,0.0017512644,-0.008119009,0.0033579739,-0.005733052,0.49675542,-1.3774575,1.899217,-2.0911582,-1.5703715,2.471405,-0.11523271,0.053449064,-0.06940148,0.009147352,0.0054156003,-0.109471805,-0.53630114,0.11492168,-9.442732,0.7978386,47.686886,-0.9476579,-2.3673193,-3.241324,-0.14141469,0.09540378,-0.38679272,28.4375,29.75,28.75,32.5625,35.0625,36.125
0.1520523,-1.3030374,-0.8048814,-0.71315897,-0.0030038767,0.090284556,-0.1795412,-0.3941179,-0.36647874,0.059957795,3.0786135,-0.6243701,0.00024611902,-0.06615824,0.030260053,0.0008903742,-0.008118184,0.0015714555,0.00092568074,0.49652776,-1.3773483,1.8990487,-2.0910985,-1.570371,2.4711854,-0.11560853,0.05668758,-0.071351364,0.009430457,0.0062643583,-0.116506286,-0.40222588,0.095768064,-9.5385,0.80456203,47.71465,-1.0633814,-2.5830235,-3.17738,-0.15451871,0.10668067,-0.37738082,28.4375,29.75,28.75,32.5625,35.0625,36.125
0.15405278,-0.8333869,-0.5011374,-0.72300434,-0.014026095,0.08130045,-0.19795549,-0.3942445,-0.36641595,0.059952553,3.0785553,-0.6243944,0.00026582502,-0.06718831,0.030093854,0.0025468906,-0.009468747,0.0046564816,0.0053363284,0.49627614,-1.3772529,1.8989528,-2.091122,-1.5703233,2.4709563,-0.116066694,0.054725323,-0.07281571,0.0095112,0.005984585,-0.12137432,-0.34476504,0.1340753,-9.595961,0.75755644,47.729877,-1.008888,-2.4314976,-3.2070937,-0.16842028,0.10196785,-0.36320722,28.4375,29.75,28.75,32.5625,35.0625,36.125
0.1560519,-0.6353413,-0.21979178,-0.848717,-0.018720247,0.051411353,-0.18289863,-0.39437303,-0.36632735,0.0599406,3.0786014,-0.62434095,0.00027106947,-0.067726634,0.030793214,0.0017264826,-0.008734125,0.0038194887,0.011973148,0.4960241,-1.3771442,1.898846,-2.091099,-1.5703477,2.4706652,-0.1175543,0.05627026,-0.072645076,0.008883803,0.0057355235,-0.12949832,-0.2873042,0.24899697,-9.461885,0.76874626,47.701214,-0.9234785,-2.4297101,-3.1852822,-0.15882775,0.10951183,-0.2747713,28.4375,29.75,28.75,32.5625,35.0625,36.125
0.15805188,-0.14679186,-0.08594594,-0.45948523,-0.023510981,0.046655238,-0.18925875,-0.3945177,-0.36626357,0.059936717,3.0786102,-0.62429905,0.00027265455,-0.069451116,0.031714506,0.00160414,-0.008272781,0.0041100453,0.017885506,0.49578404,-1.3769995,1.8986777,-2.0910742,-1.5703477,2.470398,-0.12031276,0.05795624,-0.07437703,0.00890022,0.005190034,-0.13816744,-0.21068975,0.19153613,-9.481039,0.80679786,47.67166,-1.1202338,-2.4866276,-3.184049,-0.1637137,0.1065892,-0.21476942,28.4375,29.75,28.75,32.5625,35.0625,36.125
0.16005184,-0.02824973,-0.52207655,-0.6466007,-0.006372191,0.035551954,-0.18696462,-0.39467746,-0.36622238,0.0599747,3.0785725,-0.62417436,0.00015754413,-0.069815785,0.032041136,0.0017831959,-0.008289231,0.004546401,0.020451058,0.49556825,-1.3769035,1.898475,-2.0910633,-1.5703477,2.4701092,-0.121045806,0.05768311,-0.07445605,0.008863726,0.005012148,-0.14146534,-0.076614454,0.11492168,-9.481039,0.779936,47.658226,-1.0209928,-2.4296231,-3.1486626,-0.16865101,0.12171744,-0.13310137,28.4375,29.75,28.75,32.5625,35.0625,36.125
0.1620519,-0.61599153,-0.14871639,-0.88531184,-0.004683976,0.013290841,-0.1898238,-0.39484832,-0.3661556,0.05998185,3.078534,-0.6241264,9.835418e-05,-0.07084566,0.032431766,0.0017303657,-0.008925998,0.004605254,0.020869203,0.49529186,-1.3767712,1.8983072,-2.091087,-1.5703357,2.4698079,-0.12293936,0.058584534,-0.07532376,0.008477614,0.0055527254,-0.14377691,0.0,0.15322891,-9.442732,0.82022345,47.696735,-1.0620539,-2.4360101,-3.2344723,-0.16447175,0.11324106,-0.068621606,28.4375,29.75,28.75,32.5625,35.0625,36.125
0.16405231,0.59172434,0.32276073,-0.47739235,-0.01680737,0.035234105,-0.19350946,-0.39496344,-0.366094,0.059956923,3.0785348,-0.62408954,0.00020572997,-0.07218114,0.031608097,0.002643171,-0.011155449,0.005952041,0.01636085,0.49505246,-1.3766266,1.898187,-2.0910633,-1.5702871,2.4695454,-0.12355737,0.05938813,-0.078357756,0.008465684,0.006862374,-0.1398872,-0.019153614,0.11492168,-9.519346,0.7777002,47.698532,-1.0220728,-2.366708,-3.213319,-0.15996271,0.11708691,-0.110014826,28.4375,29.75,28.75,32.5625,35.0625,36.125
0.16605245,0.7191166,0.11521612,-0.5992427,-0.017618362,0.038664572,-0.1931921,-0.39509037,-0.36600685,0.059951603,3.0785878,-0.6240082,0.00018580456,-0.07231833,0.03295642,0.0019530522,-0.0103765875,0.0041256095,0.008618029,0.4948118,-1.3765306,1.8980798,-2.0910385,-1.5703229,2.4692473,-0.12603782,0.059572347,-0.07714217,0.009037115,0.007048031,-0.13462569,-0.05746084,0.11492168,-9.423578,0.73741806,47.667187,-0.8951589,-2.4145486,-3.109485,-0.16632953,0.1128605,-0.17990187,28.4375,29.75,28.75,32.5625,35.0625,36.125
0.16805258,0.6396217,0.272765,-0.5246204,-0.01229592,0.031762496,-0.19956079,-0.39524361,-0.36594993,0.059962884,3.0785553,-0.62400186,0.00018266625,-0.07224779,0.03254131,0.0015222844,-0.010295357,0.0034205087,0.0046690376,0.494561,-1.376398,1.8978885,-2.0910027,-1.570299,2.4689968,-0.12539944,0.060992964,-0.07784069,0.008976394,0.007313864,-0.13003801,0.038307227,0.076614454,-9.481039,0.784413,47.701214,-1.1878991,-2.4798884,-3.2546134,-0.19858456,0.09737,-0.2216082,28.4375,29.75,28.75,32.5625,35.0625,36.125
0.1700526,0.8523927,-0.2186236,-0.47692823,-0.0059313765,0.032781277,-0.18877539,-0.39537853,-0.36587065,0.059946157,3.0785563,-0.62402356,0.00022253147,-0.0749134,0.032386247,0.0033153996,-0.011797629,0.0067674085,-0.0003155897,0.49429673,-1.3762658,1.897767,-2.0909903,-1.5702871,2.468746,-0.12736629,0.061345205,-0.08248872,0.009616482,0.0070384457,-0.12701821,0.095768064,0.17238252,-9.404425,0.8537928,47.69763,-1.0101902,-2.3669071,-3.1491244,-0.18796825,0.1227489,-0.27849722,28.4375,29.75,28.75,32.5625,35.0625,36.125
0.17205173,0.8035774,-0.17174923,-0.43572116,-0.009840433,0.027200514,-0.18806003,-0.39555493,-0.36580977,0.059974995,3.0784974,-0.62408847,0.00013884269,-0.07405072,0.033238634,0.002160275,-0.01085891,0.0041863206,-0.0029713234,0.49403313,-1.3761455,1.8975533,-2.0909665,-1.5702871,2.4685304,-0.12822446,0.061619457,-0.08023655,0.00980731,0.0074526863,-0.12522157,0.095768064,0.15322891,-9.3661175,0.7978386,47.691364,-1.2008684,-2.377557,-3.1570852,-0.18436433,0.09125762,-0.36390617,28.4375,29.75,28.75,32.5625,35.0625,36.125
0.17405194,0.64371246,0.015279326,-0.5339761,-0.008653963,0.019671356,-0.182449,-0.3957276,-0.36576208,0.06001694,3.0784144,-0.62401605,1.7434246e-05,-0.07598538,0.034084786,0.0025252167,-0.010989516,0.0053524044,-0.007598268,0.49378043,-1.3760611,1.8973607,-2.0909789,-1.5702633,2.4682431,-0.13110289,0.06254951,-0.08215021,0.009707966,0.007027311,-0.123470776,0.19153613,0.15322891,-9.404425,0.8605109,47.686886,-1.1058016,-2.3718965,-3.1526737,-0.18393601,0.105273604,-0.40562022,28.4375,29.75,28.75,32.5625,35.0625,36.125
0.17605211,0.26200706,0.078408435,-0.5988607,-0.013684838,0.018904133,-0.19488634,-0.39585337,-0.3656757,0.059977923,3.0784388,-0.62407684,0.000145437,-0.07628368,0.034430124,0.002458358,-0.010645831,0.005011418,-0.008188199,0.493505,-1.3758929,1.8972415,-2.0909421,-1.570239,2.4680026,-0.13182943,0.06293639,-0.082585484,0.010225067,0.0068785907,-0.12360764,0.095768064,0.076614454,-9.404425,0.93436235,47.728977,-1.119034,-2.3126678,-3.181726,-0.18144143,0.1056869,-0.4727088,28.4375,29.75,28.75,32.5625,35.0625,36.125
0.17805214,0.2482152,-0.6666889,-0.6687717,-0.0055033434,0.025765883,-0.18230683,-0.39600068,-0.3656147,0.059977844,3.0784173,-0.62409014,0.00017102742,-0.07668358,0.035033885,0.0016793583,-0.010152049,0.0032028465,-0.006968298,0.4932529,-1.375748,1.8970617,-2.0909064,-1.5702146,2.4677615,-0.1334341,0.06466396,-0.08298746,0.010730897,0.0073033497,-0.12643237,0.038307227,0.17238252,-9.385271,0.83589023,47.72092,-1.101528,-2.3492255,-3.2178173,-0.19815573,0.10565296,-0.5070591,28.4375,29.75,28.75,32.5625,35.0625,36.125
0.1800522,0.065801546,0.16395584,-0.25769,-0.033044595,0.039533,-0.19905777,-0.39616776,-0.3655526,0.05998261,3.0783796,-0.62407714,0.00012646281,-0.07757587,0.035617385,0.0017375915,-0.010711113,0.0030030706,-0.00013278237,0.49298865,-1.3756038,1.8968824,-2.0909183,-1.5702027,2.467494,-0.13555315,0.06506492,-0.08364275,0.010902492,0.007900131,-0.135387,-0.05746084,0.17238252,-9.423578,0.83365434,47.692257,-1.1362739,-2.3113155,-3.2097998,-0.20290333,0.099983394,-0.46400955,28.4375,29.75,28.75,32.5625,35.0625,36.125
0.18205222,-0.1278511,-0.4629296,-0.41240126,-0.018588968,0.051521413,-0.19517298,-0.3963211,-0.36547166,0.060003683,3.0783741,-0.62407094,0.0001140025,-0.078264534,0.036028203,0.0016383687,-0.011043628,0.0021661997,0.006802557,0.49271274,-1.3755074,1.8967036,-2.0908463,-1.5702027,2.467215,-0.1372608,0.06595877,-0.0846389,0.011588901,0.008594715,-0.14403024,-0.095768064,0.095768064,-9.404425,0.8157518,47.657326,-1.1755688,-2.3571205,-3.2330637,-0.218987,0.11011337,-0.4049561,28.4375,29.75,28.75,32.5625,35.0625,36.125
0.18405257,-0.22245009,-0.19625245,-0.6840337,-0.016816866,0.06777322,-0.18807493,-0.3964656,-0.36540887,0.059984308,3.0783837,-0.6239702,0.00015325402,-0.07949234,0.036842484,0.0016018001,-0.0106990365,0.0021486385,0.015689788,0.49246064,-1.3753388,1.8965477,-2.0908463,-1.5701789,2.466899,-0.13952534,0.066988915,-0.08588056,0.011991478,0.008301064,-0.1551812,-0.19153613,0.22984336,-9.423578,0.8291774,47.68062,-1.0646538,-2.3120902,-3.2674716,-0.24295172,0.09009647,-0.30298337,28.4375,29.75,28.75,32.5625,35.0625,36.125
0.186052,-0.72116524,-0.06658835,-0.4724663,-0.011229247,0.06733837,-0.19209588,-0.3966243,-0.36534256,0.060007397,3.0783675,-0.62388617,0.00012241802,-0.08034789,0.036621273,0.0017746872,-0.012203845,0.0028700107,0.021465346,0.49219695,-1.3752307,1.896356,-2.0907986,-1.5701665,2.466585,-0.14049917,0.06761018,-0.08677395,0.010920945,0.009291648,-0.16193087,-0.3256114,0.15322891,-9.481039,0.8247004,47.672558,-1.0831412,-2.3182824,-3.2514086,-0.23828197,0.10416872,-0.20996353,28.4375,29.75,28.75,32.5625,35.0625,36.125
0.18805213,-0.98035157,0.0036605494,-0.27904567,-0.009053902,0.078376636,-0.18693942,-0.39678943,-0.36526972,0.060004875,3.0783277,-0.62383765,9.093929e-05,-0.08084748,0.036755852,0.0017898505,-0.012311568,0.0025056168,0.023475572,0.4919091,-1.3750982,1.8962125,-2.090834,-1.5701421,2.4662719,-0.1413031,0.068368934,-0.08785273,0.011518572,0.009568732,-0.16474444,-0.45968673,0.095768064,-9.423578,0.8314132,47.684196,-0.9941353,-2.3137088,-3.2855377,-0.2559324,0.08632023,-0.16610754,28.4375,29.75,28.75,32.5625,35.0625,36.125
0.19005217,-1.278443,0.08098318,-0.2905756,0.0023293763,0.080816984,-0.18091197,-0.39693847,-0.36519644,0.060013857,3.078309,-0.6237803,0.00015370223,-0.08232164,0.038086385,0.0012845041,-0.012034307,0.0019393585,0.016353045,0.4916204,-1.3749776,1.8960327,-2.0907629,-1.570094,2.4659498,-0.14484994,0.06981655,-0.08836199,0.011218778,0.00958875,-0.16116844,-0.51714754,-0.15322891,-9.423578,0.7978386,47.667187,-1.03703,-2.2951899,-3.3100314,-0.25252777,0.07695073,-0.1647974,28.4375,29.75,28.75,32.5625,35.0625,36.125
0.1920522,-0.44779778,0.46193314,-0.17430267,0.006656933,0.10896643,-0.19062844,-0.39711842,-0.3651222,0.0600181,3.0782576,-0.62374973,0.0001349298,-0.08152466,0.037613723,0.00014824119,-0.010414264,-2.4078492e-05,0.013463088,0.49130985,-1.3748326,1.8958534,-2.0907738,-1.5700582,2.4656267,-0.14297108,0.07221262,-0.08874489,0.0117086535,0.009094474,-0.15639822,-0.5363012,-0.15322891,-9.442732,0.8224646,47.685097,-1.2475433,-2.3089297,-3.3614335,-0.25451177,0.08377391,-0.20370603,28.4375,29.75,28.75,32.5625,35.0625,36.125
0.1940524,-0.44604257,1.1341558,0.16197792,-0.0032188254,0.11544857,-0.1963316,-0.39727056,-0.36505273,0.060025096,3.0782847,-0.62366205,9.42685e-05,-0.08411863,0.037598517,0.0018769647,-0.012765282,0.0033723172,0.0068911584,0.4910696,-1.3747004,1.8956727,-2.090739,-1.5700821,2.4653285,-0.14554054,0.0719481,-0.092303514,0.011422379,0.009559169,-0.15239473,-0.6703765,-0.15322891,-9.251195,0.76874626,47.675243,-1.1551725,-2.1965213,-3.258182,-0.25380626,0.06525715,-0.29797947,28.4375,29.75,28.75,32.5625,35.0625,36.125
0.1960527,-1.3359979,0.48826304,-0.11372515,0.01983219,0.09064155,-0.18557139,-0.39743325,-0.3649655,0.05999517,3.0782647,-0.6237349,0.0002035414,-0.084383026,0.03931321,0.0002791689,-0.011248064,0.00083182985,0.003546429,0.49074528,-1.374508,1.8955067,-2.0907152,-1.5700339,2.4650521,-0.14852954,0.07356429,-0.09050284,0.010972032,0.009416248,-0.15203978,-0.57460845,-0.15322891,-9.346964,0.8605109,47.67166,-1.3423963,-2.2170694,-3.3795378,-0.26185983,0.06461686,-0.3352849,28.4375,29.75,28.75,32.5625,35.0625,36.125
0.19805169,-0.7712625,1.0120289,-0.12843661,0.015646804,0.09362948,-0.18566413,-0.39761814,-0.36488947,0.06001406,3.0782602,-0.623618,0.000119834236,-0.085695855,0.039364945,-0.0005157515,-0.00992751,0.00019121064,0.0022365218,0.49045774,-1.3743744,1.8953022,-2.0907028,-1.5700468,2.4646924,-0.149219,0.077515244,-0.093438365,0.011147301,0.008557456,-0.15141617,-0.61291564,-0.21068975,-9.308657,0.842603,47.67345,-1.238457,-2.4050126,-3.3245115,-0.27174383,0.069356084,-0.3613038,28.4375,29.75,28.75,32.5625,35.0625,36.125
0.20005207,-0.8460382,0.43793246,0.07438205,0.02506358,0.081022784,-0.18098156,-0.39781034,-0.36479452,0.060009036,3.07822,-0.6236864,0.00013014585,-0.086947694,0.04080308,0.00028716386,-0.010654248,0.0017343014,0.00044565968,0.49010903,-1.3742068,1.8951119,-2.0906913,-1.570023,2.4643915,-0.15266223,0.07552094,-0.092837095,0.010844929,0.008477013,-0.15306892,-0.7086837,-0.24899697,-9.270349,0.83589023,47.703903,-1.0614198,-2.275924,-3.2751997,-0.2772118,0.060625926,-0.392456,28.4375,29.75,28.75,32.5625,35.0625,36.125
0.20205243,-0.9166365,0.58837175,0.13491926,0.022909952,0.08488988,-0.18762338,-0.3979777,-0.3647244,0.060012296,3.0781846,-0.6236745,0.00017931071,-0.0878339,0.041052252,-0.00020524084,-0.010168331,0.0015358169,0.005639883,0.48980963,-1.3740501,1.8949074,-2.0906427,-1.5699748,2.4640892,-0.15362224,0.077563755,-0.09406674,0.010451263,0.008142645,-0.159222,-0.7086837,-0.21068975,-9.11712,0.8157518,47.703007,-1.216811,-2.2906086,-3.3798652,-0.27170548,0.07294252,-0.35707778,28.4375,29.75,28.75,32.5625,35.0625,36.125
0.20405284,-0.8031362,0.7014326,-0.07475319,0.025685892,0.09973817,-0.1894403,-0.39813504,-0.3646379,0.06000891,3.0782127,-0.6235389,0.00018051757,-0.08920496,0.040934812,0.000188951,-0.010492723,0.0023180519,0.0144418515,0.48952174,-1.3739173,1.8947519,-2.0906188,-1.5699748,2.4637132,-0.1545642,0.07909368,-0.09689618,0.010917777,0.008062096,-0.16896458,-0.59376204,-0.21068975,-9.270349,0.8537928,47.707485,-1.1648366,-2.33268,-3.2435198,-0.27694637,0.06276397,-0.28911856,28.4375,29.75,28.75,32.5625,35.0625,36.125
0.20605218,-0.56670624,0.53147674,0.02558834,0.032433752,0.10537828,-0.19395648,-0.39832518,-0.36455944,0.060001474,3.0781865,-0.6235061,0.00014943814,-0.08992452,0.04079292,0.0005462679,-0.011042599,0.0027389203,0.024815667,0.48921046,-1.3737369,1.8945597,-2.0906427,-1.5699629,2.4633849,-0.15509829,0.07970053,-0.09853684,0.011333404,0.008360643,-0.17987183,-0.4213795,-0.15322891,-9.251195,0.8090337,47.686886,-1.2478898,-2.262768,-3.291506,-0.27186102,0.0656698,-0.15101393,28.4375,29.75,28.75,32.5625,35.0625,36.125
0.20805217,-0.6864991,0.7629274,0.16599447,0.015566851,0.10148828,-0.18970302,-0.3985254,-0.36447197,0.060016003,3.0781517,-0.62351584,0.00011946796,-0.09049236,0.0412832,-0.0001298521,-0.010231852,0.0015093333,0.029072315,0.4888747,-1.3735801,1.8943323,-2.090607,-1.5699505,2.4630597,-0.15629312,0.0816732,-0.09945104,0.011751017,0.008233005,-0.1853223,-0.49799395,-0.076614454,-9.136273,0.8179876,47.661808,-1.2844696,-2.3658993,-3.2451477,-0.28567687,0.06463755,-0.07633234,28.4375,29.75,28.75,32.5625,35.0625,36.125
0.21005231,-0.6235315,0.09355544,-0.22877303,0.012423437,0.085371345,-0.18613805,-0.39871594,-0.36437905,0.06000901,3.0781612,-0.6234234,0.00013213692,-0.09148508,0.041718017,0.00046211845,-0.010113596,0.0027307572,0.024759345,0.48853892,-1.3734001,1.8941287,-2.0905826,-1.5699385,2.462665,-0.1574367,0.08152282,-0.10072322,0.012155644,0.007553723,-0.18215187,-0.51714754,0.05746084,-9.251195,0.8403672,47.693153,-1.3718655,-2.4309804,-3.3119469,-0.28577042,0.06859122,-0.044598192,28.4375,29.75,28.75,32.5625,35.0625,36.125
0.21205251,-0.24938536,-0.05206965,-0.05777039,-0.0074608484,0.081420325,-0.1890672,-0.3988879,-0.36428145,0.06001393,3.0781853,-0.62335306,0.00012033848,-0.09233607,0.042277467,0.0005712385,-0.010073954,0.0034021586,0.017269896,0.4882272,-1.3732679,1.8939494,-2.090535,-1.5699509,2.4623065,-0.15887131,0.081744395,-0.10116316,0.011796491,0.0072008925,-0.17609648,-0.45968673,0.05746084,-9.251195,0.8224646,47.705692,-1.3311005,-2.329083,-3.1584024,-0.2940282,0.08548794,-0.107198425,28.4375,29.75,28.75,32.5625,35.0625,36.125
0.2140527,-0.15229838,-0.43664753,-0.23968595,-0.019597637,0.067585446,-0.18075028,-0.3990863,-0.36420098,0.059989695,3.0781622,-0.6233341,0.00015907575,-0.093233004,0.04352773,-0.0015125212,-0.007865728,-0.00038341235,0.0077171307,0.48789078,-1.3730379,1.8937339,-2.0905468,-1.5699152,2.4619613,-0.16160984,0.086533256,-0.1023085,0.01253604,0.0070226374,-0.169281,-0.49799395,0.15322891,-9.174581,0.7329411,47.698532,-1.2756815,-2.43515,-3.4108896,-0.3023435,0.11495738,-0.21084696,28.4375,29.75,28.75,32.5625,35.0625,36.125
0.21605183,-0.12669376,-0.48844588,-0.053060718,-0.025056189,0.05015525,-0.17725752,-0.39925143,-0.36410558,0.059982326,3.07818,-0.62334204,0.00025458672,-0.095357575,0.044141814,0.00057936436,-0.009661829,0.0036587545,-0.0029393986,0.48756668,-1.3728709,1.8935302,-2.090451,-1.5698913,2.46164,-0.16429612,0.084107324,-0.10416011,0.012401999,0.006698743,-0.16131052,-0.3256114,0.21068975,-9.270349,0.8717007,47.71554,-1.3509986,-2.3342333,-3.169729,-0.31871423,0.08474983,-0.30033413,28.4375,29.75,28.75,32.5625,35.0625,36.125
0.21805216,-0.046386983,-0.42571792,-0.39118332,-0.026778646,0.047543015,-0.17346574,-0.39947507,-0.36399296,0.059990462,3.0781302,-0.62344867,0.00017275331,-0.09609317,0.044695586,-0.0006851909,-0.0083099445,0.0021766024,-0.007327894,0.48718324,-1.3727134,1.8933271,-2.090463,-1.5699033,2.4613295,-0.16551098,0.08733877,-0.10505253,0.012005558,0.0062057097,-0.15813518,-0.19153614,0.19153613,-9.32781,0.86498255,47.70211,-1.1847768,-2.4393861,-3.2377105,-0.32250792,0.10131882,-0.3869807,28.4375,29.75,28.75,32.5625,35.0625,36.125
0.22005223,0.5271267,-0.33245742,-0.40146855,-0.021051366,0.04377024,-0.18267111,-0.39967665,-0.3639235,0.06000669,3.078071,-0.6234564,0.00012335196,-0.098591834,0.045600567,-2.3798987e-06,-0.009224533,0.0040256013,-0.013339472,0.48687065,-1.372545,1.8930873,-2.0904515,-1.5698799,2.4610293,-0.1691748,0.0881436,-0.10747437,0.01156449,0.0061525297,-0.15578593,-0.038307227,0.22984336,-9.442732,0.8314132,47.682407,-1.0853744,-2.4941702,-3.2125564,-0.32324743,0.12528227,-0.4681787,28.4375,29.75,28.75,32.5625,35.0625,36.125
0.22205223,0.684627,-0.34761223,-0.389307,-0.020940414,0.038130052,-0.18509726,-0.39984298,-0.36382246,0.059960652,3.078102,-0.6234381,0.0002363239,-0.09940996,0.04511569,0.00032998537,-0.00998987,0.0051583815,-0.008234124,0.48653573,-1.3723286,1.8929318,-2.0904396,-1.5698551,2.460679,-0.16911633,0.08907092,-0.109234646,0.011048119,0.0062882025,-0.16083255,-0.05746084,0.24899697,-9.385271,0.80456203,47.68062,-1.1072165,-2.5135617,-3.1370664,-0.3202859,0.11571988,-0.50000817,28.4375,29.75,28.75,32.5625,35.0625,36.125
0.22405244,0.63060415,-0.63722354,-0.42817265,-0.026249867,0.04498948,-0.18190667,-0.40005144,-0.36370692,0.059975028,3.0780933,-0.62354374,0.00017207109,-0.09947897,0.044806067,-0.00013094691,-0.01090976,0.0034100977,0.0026696352,0.48617622,-1.3721837,1.8927158,-2.0903919,-1.5698909,2.4603868,-0.16960181,0.09065533,-0.11019527,0.011540205,0.0079306215,-0.17222263,-0.095768064,0.24899697,-9.32781,0.80679786,47.687782,-1.1168104,-2.5545962,-3.098506,-0.33293572,0.12081258,-0.420229,28.4375,29.75,28.75,32.5625,35.0625,36.125
0.22605164,0.7615061,-0.5217459,-0.575466,-0.020080745,0.05084186,-0.18312132,-0.40025648,-0.3636208,0.05996174,3.07809,-0.62347853,0.00017108297,-0.100824885,0.045165423,4.4378055e-05,-0.01173068,0.0038287232,0.013580276,0.48583993,-1.3719673,1.8924884,-2.0903914,-1.5698789,2.4600103,-0.17167206,0.09167,-0.11178115,0.011371639,0.008468814,-0.1852032,-0.05746084,0.2681506,-9.423578,0.8672237,47.682407,-1.0389482,-2.5798864,-3.1033401,-0.3438133,0.13369337,-0.32329214,28.4375,29.75,28.75,32.5625,35.0625,36.125
0.2280517,0.628698,-0.4079295,-0.5675117,-0.030348385,0.050952718,-0.18909626,-0.4004442,-0.36352754,0.059944846,3.078086,-0.62347203,0.00025124257,-0.10203972,0.045755453,0.00017564479,-0.011661007,0.004153232,0.020541903,0.48549223,-1.3717626,1.8922724,-2.0903437,-1.5698427,2.459659,-0.17355101,0.09260128,-0.113281205,0.011704199,0.008254073,-0.19404322,-0.05746084,0.24899697,-9.423578,0.8179876,47.684196,-1.1156526,-2.5766995,-3.059188,-0.34469947,0.11975786,-0.2030248,28.4375,29.75,28.75,32.5625,35.0625,36.125
0.23005174,0.45694378,-0.5795866,-0.4161817,-0.04108409,0.05469421,-0.19218358,-0.40065444,-0.36343285,0.05996641,3.0780683,-0.623371,0.00018137446,-0.1029539,0.04646218,-2.6654712e-05,-0.011873227,0.0034533332,0.02142715,0.4851443,-1.3716182,1.8920459,-2.0903194,-1.5698422,2.4592505,-0.17581008,0.09359297,-0.114091136,0.012046502,0.008783367,-0.19718714,-0.019153614,0.24899697,-9.423578,0.80679786,47.699425,-1.127943,-2.521969,-3.1182003,-0.3334272,0.128705,-0.15333042,28.4375,29.75,28.75,32.5625,35.0625,36.125
0.23205177,0.2649369,-0.6710048,-0.78964555,-0.028686343,0.038554356,-0.18408103,-0.40087426,-0.36333025,0.059971433,3.078035,-0.6234055,0.00019191319,-0.104331814,0.047261033,0.00054957875,-0.012899049,0.004216658,0.014480557,0.4847601,-1.3714262,1.891795,-2.0902712,-1.5698184,2.458892,-0.17864609,0.09328914,-0.115088664,0.0121969255,0.009336492,-0.19307667,-0.038307227,0.2681506,-9.481039,0.8560339,47.672558,-0.9855566,-2.48217,-3.1363287,-0.35704052,0.13889858,-0.15978208,28.4375,29.75,28.75,32.5625,35.0625,36.125
0.23405205,0.85525376,-0.3755323,-0.5476215,-0.029416893,0.046372406,-0.18415697,-0.40104985,-0.36325404,0.059937775,3.0780764,-0.62326306,0.0002751357,-0.10543736,0.04804377,0.0003867044,-0.013275929,0.0037116602,0.0050820145,0.48446006,-1.3711855,1.8915795,-2.0902474,-1.5697945,2.458498,-0.18122958,0.09426591,-0.11593504,0.012337066,0.009893516,-0.18626218,-0.17238252,0.15322891,-9.576807,0.86945957,47.672558,-0.9561615,-2.6052036,-3.1797838,-0.35503536,0.1209657,-0.26966769,28.4375,29.75,28.75,32.5625,35.0625,36.125
0.23605217,-0.25552344,-0.34536877,-0.5748138,-0.029123075,0.029467117,-0.18052267,-0.40127495,-0.3631546,0.059931874,3.078028,-0.62329155,0.00025591275,-0.10543303,0.048308674,-0.00027956086,-0.012553198,0.0032434482,0.0026032003,0.48407653,-1.3709809,1.891352,-2.0902603,-1.5697702,2.4581385,-0.18133034,0.09528582,-0.11549472,0.011635336,0.009479941,-0.1838834,-0.13407528,0.15322891,-9.5385,0.8247004,47.66091,-0.9408496,-2.519723,-3.1603448,-0.3572138,0.1392848,-0.32766575,28.4375,29.75,28.75,32.5625,35.0625,36.125
0.23805217,0.14617807,0.20464894,-0.4546435,-0.01792645,0.05787714,-0.18963984,-0.40149605,-0.36306944,0.05994504,3.0780041,-0.62320995,0.00021000503,-0.10706341,0.048058834,0.0014334675,-0.014753608,0.0059439763,0.0014950049,0.48372853,-1.3707893,1.8910884,-2.0902355,-1.5697583,2.4577427,-0.18270819,0.09423541,-0.11823789,0.012018161,0.010178713,-0.1841524,-0.15322891,0.095768064,-9.634268,0.88289046,47.686886,-0.92640394,-2.4412184,-3.269206,-0.36034787,0.14804906,-0.35138744,28.4375,29.75,28.75,32.5625,35.0625,36.125
0.24005216,-0.22074032,0.6537827,-0.5788643,-0.008735475,0.067437865,-0.1918833,-0.40171742,-0.36296362,0.059948467,3.0779703,-0.62321883,0.00018210687,-0.106668845,0.04961859,-0.0010949773,-0.0125725595,0.0014782655,0.0016317612,0.48334497,-1.370608,1.8908619,-2.0902236,-1.5697454,2.457369,-0.18500093,0.09730498,-0.1161178,0.011804462,0.010339376,-0.18658204,-0.22984336,0.019153614,-9.557653,0.7911258,47.666286,-0.9837474,-2.6198583,-3.2848907,-0.3590251,0.12648237,-0.38752925,28.4375,29.75,28.75,32.5625,35.0625,36.125
0.2420522,0.10902911,1.1844614,-0.41835827,-0.0040504495,0.09238658,-0.20121053,-0.40190944,-0.36287582,0.059948634,3.077919,-0.62326,0.0003099886,-0.10692428,0.048523348,0.00052697357,-0.014843713,0.0040438464,0.009901054,0.48297423,-1.3704164,1.8906115,-2.0901282,-1.5696615,2.4570305,-0.18380746,0.09539693,-0.117554545,0.011846455,0.01115625,-0.19365877,-0.21068975,-0.095768064,-9.634268,0.85826975,47.62867,-1.1021855,-2.431203,-3.2635846,-0.35207772,0.11977139,-0.32889366,28.4375,29.75,28.75,32.5625,35.0625,36.125
0.24405253,-0.72857183,0.5187587,-0.34392026,0.022887953,0.07345389,-0.18755963,-0.40212,-0.36277813,0.059939492,3.077928,-0.62313795,0.00031053313,-0.10670896,0.049218036,-0.0017067313,-0.012730465,0.00034750754,0.02080376,0.48261493,-1.3702109,1.8903846,-2.0901158,-1.5696496,2.456594,-0.18461943,0.0993284,-0.11717592,0.011810794,0.011013277,-0.2053728,-0.05746084,-0.13407528,-9.595961,0.8023209,47.672558,-1.1812707,-2.563854,-3.383215,-0.3452222,0.12833016,-0.23855168,28.4375,29.75,28.75,32.5625,35.0625,36.125
0.24605167,-0.60277295,0.6795614,-0.4157383,0.024877131,0.076815374,-0.19033666,-0.40233016,-0.36269367,0.05992507,3.077923,-0.62299883,0.00027672367,-0.107788555,0.050583486,-0.0009210229,-0.0127785895,0.0022252987,0.025905758,0.48227876,-1.3699955,1.890169,-2.0901525,-1.5696381,2.4561718,-0.18729393,0.09737901,-0.11658793,0.011503876,0.01020028,-0.2131488,-0.22984336,-0.19153613,-9.519346,0.85155696,47.67166,-1.2813894,-2.4206975,-3.4998307,-0.34655797,0.1251481,-0.10157618,28.4375,29.75,28.75,32.5625,35.0625,36.125
0.24805161,0.13766104,1.2464862,-0.24798712,0.015281898,0.08650681,-0.20226432,-0.4025612,-0.36259434,0.059954327,3.0778623,-0.62296546,0.00024055952,-0.108903766,0.049870703,-0.00043137863,-0.013829083,0.0033448385,0.026503632,0.48188362,-1.3698388,1.8899049,-2.0901043,-1.5696014,2.4557636,-0.18725136,0.09885499,-0.11945488,0.011426999,0.010621972,-0.21370253,-0.3256114,-0.22984336,-9.500193,0.88289046,47.64927,-1.3343573,-2.4932373,-3.2947946,-0.3322702,0.10776107,-0.08468043,28.4375,29.75,28.75,32.5625,35.0625,36.125
0.25005257,-0.49681833,0.8892245,-0.5814577,0.027879843,0.0560334,-0.19258405,-0.40275472,-0.3625101,0.059938017,3.0778656,-0.6228539,0.00029275563,-0.108531505,0.05095307,-0.0008009937,-0.012250248,0.00244932,0.019948985,0.4815481,-1.3696228,1.8896788,-2.09008,-1.5695661,2.455358,-0.18806006,0.09822284,-0.11805612,0.01219351,0.009638323,-0.20795673,-0.28730422,-0.19153613,-9.500193,0.87617236,47.698532,-1.2393248,-2.393955,-3.618433,-0.34006304,0.1146342,-0.10255548,28.4375,29.75,28.75,32.5625,35.0625,36.125
0.25205252,-0.5603182,0.63121355,-0.41148236,0.022835737,0.05062026,-0.19029875,-0.40301317,-0.36239335,0.059961196,3.0778577,-0.6228552,0.00015772184,-0.1099791,0.05047543,0.00039925045,-0.012556165,0.0055296775,0.011655107,0.48115242,-1.3694304,1.8893913,-2.0900557,-1.5696148,2.4549644,-0.18772867,0.098499656,-0.12110455,0.012081439,0.008488223,-0.1993288,-0.45968673,-0.22984336,-9.5385,0.8537928,47.72002,-1.3059238,-2.3343,-3.4508643,-0.34298256,0.15015519,-0.22946787,28.4375,29.75,28.75,32.5625,35.0625,36.125
0.25405255,-1.0642658,0.6360795,-0.26543054,0.012446694,0.04860728,-0.20004115,-0.40319753,-0.36228892,0.059950385,3.077821,-0.62279475,0.00024419595,-0.11068514,0.050445095,-0.00042934596,-0.0121053085,0.004272298,0.0028765432,0.48076874,-1.3692732,1.889223,-2.0900319,-1.5695428,2.4545476,-0.18833432,0.10154946,-0.12288882,0.012146657,0.00866155,-0.19115499,-0.47884035,-0.019153614,-9.500193,0.83365434,47.71554,-1.4149301,-2.3396034,-3.4054587,-0.33146942,0.15123948,-0.3304088,28.4375,29.75,28.75,32.5625,35.0625,36.125
0.2560525,-0.7862067,0.64966154,-0.57122934,0.003679971,0.06458228,-0.19374932,-0.40344393,-0.36218837,0.059955876,3.0777972,-0.62285095,0.00016282809,-0.11207858,0.05069054,0.0010050231,-0.01436836,0.0060625533,-0.004229036,0.4803957,-1.3690456,1.8889364,-2.0900204,-1.5695661,2.454213,-0.19061351,0.10009554,-0.124536134,0.012603414,0.009847309,-0.18632866,-0.38307226,0.05746084,-9.481039,0.9321212,47.682407,-1.3875768,-2.3050966,-3.4368405,-0.34600508,0.1469007,-0.45030165,28.4375,29.75,28.75,32.5625,35.0625,36.125
0.2580526,-0.5394922,0.014474524,-0.59975004,-0.00455804,0.063496456,-0.19712555,-0.4036763,-0.36209145,0.059958052,3.07772,-0.622873,0.00023435295,-0.11288269,0.05164189,-0.00010720678,-0.012338407,0.004106274,-0.004545821,0.47997516,-1.3688283,1.8886613,-2.0899718,-1.5694822,2.453816,-0.19228104,0.10318672,-0.12594949,0.0136230225,0.008957138,-0.18767786,-0.19153613,0.038307227,-9.595961,0.9231726,47.675243,-1.3837,-2.2515936,-3.4979725,-0.3550332,0.15844017,-0.49461144,28.4375,29.75,28.75,32.5625,35.0625,36.125
0.2600528,-0.6261506,-0.89276695,-0.42620414,-0.025931343,0.06461435,-0.20286518,-0.40389976,-0.36195084,0.05995103,3.077759,-0.6229134,0.00017334988,-0.114669725,0.0522231,0.0011583833,-0.013208679,0.006707052,0.0046890625,0.47957826,-1.3686484,1.8884572,-2.089948,-1.5695428,2.4534395,-0.19449121,0.102354616,-0.12785754,0.013661604,0.008538249,-0.19912209,-0.30645782,0.15322891,-9.615114,0.8717007,47.678825,-1.2442863,-2.4001334,-3.402254,-0.37189955,0.14560165,-0.43322885,28.4375,29.75,28.75,32.5625,35.0625,36.125
0.2620519,-0.4427297,-0.72183007,-0.39857522,-0.051306624,0.072081015,-0.1982034,-0.40413994,-0.3618525,0.059975404,3.0777373,-0.6228246,0.00012796228,-0.11602054,0.053751986,0.0007603863,-0.012382514,0.0062507545,0.01624307,0.47919327,-1.368456,1.8881587,-2.0898883,-1.5695308,2.453002,-0.19785316,0.10347275,-0.12834682,0.013844006,0.00804155,-0.21403708,-0.34476504,0.22984336,-9.576807,0.9321212,47.677036,-1.1368959,-2.269271,-3.4081712,-0.3825603,0.17928135,-0.31440818,28.4375,29.75,28.8125,32.5625,35.0625,36.125
0.26405212,-0.13613008,-1.0316496,-0.6383737,-0.0446144,0.07991786,-0.19791523,-0.40438876,-0.36176342,0.06000358,3.077687,-0.6227142,5.079194e-05,-0.11740866,0.05388927,0.00065986736,-0.0126721505,0.006623309,0.023866262,0.47880888,-1.3682629,1.8878587,-2.089864,-1.5695065,2.4525552,-0.19927067,0.10551948,-0.13050182,0.013507234,0.008151938,-0.22307608,-0.21068975,0.24899697,-9.576807,0.7665104,47.705692,-1.2605346,-2.3164446,-3.4266312,-0.35814556,0.19872373,-0.17845023,28.4375,29.75,28.8125,32.5625,35.0625,36.125
0.26605216,-0.5661376,-1.0177442,-0.6326564,-0.06130595,0.071592435,-0.1949463,-0.40458924,-0.36163473,0.05995527,3.077732,-0.62270504,0.00019404975,-0.11839616,0.054361325,0.00077373075,-0.013365994,0.0064800675,0.02123748,0.4784004,-1.3680104,1.8876561,-2.0898159,-1.5694822,2.4521353,-0.20125805,0.106191084,-0.13165504,0.013802201,0.008814342,-0.22243541,-0.24899697,0.28730422,-9.710882,0.90527004,47.668976,-1.2456201,-2.3749971,-3.366159,-0.3605964,0.1778849,-0.1580305,28.4375,29.75,28.8125,32.5625,35.0625,36.125
0.2680522,-0.7804987,-1.4710941,-0.28284276,-0.05722106,0.06815809,-0.19598652,-0.40485603,-0.36155236,0.060005404,3.0776644,-0.62254333,2.9111393e-06,-0.12065732,0.055292293,0.0013731502,-0.015050767,0.0075955293,0.011120295,0.47802696,-1.3678422,1.8873442,-2.0898283,-1.5694822,2.4516697,-0.20532344,0.10673745,-0.13359535,0.013422895,0.009825084,-0.21638194,-0.57460845,0.34476504,-9.557653,0.8985519,47.717335,-1.1102622,-2.3057098,-3.3850036,-0.3540324,0.17845897,-0.23161295,28.4375,29.75,28.8125,32.5625,35.0625,36.125
0.27005216,-1.0272118,-1.3959893,-0.22361904,-0.042281307,0.063579604,-0.19265921,-0.4051097,-0.36142424,0.060004264,3.0775971,-0.6226483,3.5507263e-05,-0.12260057,0.055475872,0.0018630823,-0.015631465,0.009437865,0.005097215,0.47755846,-1.3676256,1.8870801,-2.0897925,-1.569434,2.4512753,-0.2070206,0.10817643,-0.13630618,0.012802412,0.009491195,-0.2120545,-0.53630114,0.36391866,-9.519346,0.8784135,47.6636,-1.19525,-2.3701,-3.1940117,-0.33436316,0.19597246,-0.29528317,28.4375,29.75,28.8125,32.5625,35.0625,36.125
0.2720522,-0.75415176,-0.65310067,-0.31459892,-0.03202143,0.07919382,-0.19123983,-0.40535358,-0.36133084,0.05998883,3.077594,-0.6225509,-7.4651834e-06,-0.12411376,0.054688964,0.0028426219,-0.0164697,0.0120392,0.0028289428,0.47718695,-1.367361,1.8868045,-2.0898163,-1.569434,2.4508436,-0.20663835,0.10927666,-0.13980359,0.012505756,0.009043068,-0.20940202,-0.45968673,0.2681506,-9.442732,0.7709874,47.693153,-1.1718922,-2.3314528,-3.202873,-0.3149255,0.1947218,-0.3801893,28.4375,29.75,28.8125,32.5625,35.0625,36.125
0.27405235,-0.8289886,-0.10099582,-0.25036556,-0.016425507,0.072959684,-0.20106821,-0.40559354,-0.36123952,0.060012124,3.0774956,-0.6225317,-2.16955e-05,-0.12435191,0.055129986,0.0014207849,-0.016673313,0.009398644,0.0012067734,0.47677797,-1.3671798,1.8865298,-2.0897925,-1.5693616,2.4504352,-0.20835118,0.11193132,-0.1396356,0.011949672,0.010456929,-0.20949224,-0.38307226,0.24899697,-9.404425,0.87617236,47.66987,-1.130895,-2.4081979,-3.161459,-0.31031597,0.20688179,-0.43005806,28.4375,29.75,28.8125,32.5625,35.0625,36.125
0.27605247,-0.53827304,-0.17904402,0.041095115,-0.0019973714,0.072303586,-0.20328963,-0.4058689,-0.36110595,0.060015447,3.0775056,-0.6225083,-0.00010216727,-0.12527108,0.05475285,0.0017931229,-0.017735362,0.009935914,0.009810183,0.47633398,-1.3669391,1.8862294,-2.0897686,-1.5693978,2.4499755,-0.20884222,0.11301029,-0.1418296,0.012106922,0.011175094,-0.21858563,-0.3256114,0.13407528,-9.289502,0.8247004,47.686886,-1.1069539,-2.3929138,-3.0747795,-0.29592714,0.18928367,-0.34103447,28.4375,29.75,28.8125,32.5625,35.0625,36.125
0.27805245,-1.1913742,0.098872714,0.12957257,0.006990762,0.05342369,-0.20319799,-0.4061209,-0.36100122,0.060016505,3.0774617,-0.6224323,-0.00012492418,-0.12541814,0.053970903,0.0018097694,-0.018106839,0.0105575435,0.024833564,0.47591463,-1.3667108,1.8859543,-2.0897691,-1.5693616,2.4495144,-0.20758405,0.114092015,-0.14305942,0.011563576,0.011250411,-0.23234977,-0.45968673,0.0,-9.212888,0.85155696,47.66987,-1.2350439,-2.377553,-3.141954,-0.28856656,0.18238792,-0.23315614,28.4375,29.75,28.8125,32.5625,35.0625,36.125
0.28005248,-1.3266138,0.35878843,0.12455657,0.014624126,0.05502734,-0.200024,-0.40637574,-0.3609017,0.060022656,3.077431,-0.6222885,-0.000118502205,-0.12475773,0.05355842,0.0013283208,-0.017523915,0.009332533,0.034046937,0.47549447,-1.36647,1.8856443,-2.089733,-1.5693134,2.4490085,-0.20623687,0.115092814,-0.1433368,0.012223081,0.011318565,-0.2402155,-0.38307226,-0.019153614,-9.212888,0.90527004,47.65464,-1.3898621,-2.577504,-3.0360894,-0.25670412,0.19835567,-0.12662116,28.4375,29.75,28.8125,32.5625,35.0625,36.125
0.28205255,-0.38281104,0.6870122,0.117556736,0.028922638,0.06973864,-0.19941442,-0.40665045,-0.36080205,0.060056746,3.0773637,-0.6222768,-0.00025111332,-0.12616003,0.053664643,0.0014198597,-0.017734462,0.009528363,0.028488763,0.47508633,-1.3662653,1.8853196,-2.089721,-1.5693129,2.4486017,-0.207591,0.11709538,-0.14605947,0.012671211,0.011438301,-0.23600902,-0.38307226,-0.05746084,-9.193734,0.8873621,47.672558,-1.4484838,-2.4399278,-2.9790173,-0.24999398,0.20299959,-0.09859744,28.4375,29.75,28.8125,32.5625,35.0625,36.125
0.28405264,-0.19511792,0.4929049,0.13862786,0.026601974,0.05334604,-0.19674931,-0.40690833,-0.36069024,0.060040772,3.0773742,-0.6221514,-0.00025060182,-0.1261122,0.05516033,0.0010447281,-0.017294604,0.0075048814,0.016102595,0.47466588,-1.3659892,1.885023,-2.0897086,-1.5693015,2.4481018,-0.21028133,0.11644489,-0.14476691,0.014021769,0.011973681,-0.2263139,-0.38307226,-0.019153614,-9.136273,0.9164598,47.667187,-1.4953637,-2.5601387,-3.1413608,-0.25199008,0.19831273,-0.19486728,28.4375,29.75,28.8125,32.5625,35.0625,36.125
0.28605184,-0.06682632,0.44893232,0.20069186,0.0064484016,0.03941958,-0.2073989,-0.40716672,-0.36054972,0.060056582,3.0773318,-0.62220645,-0.00028158852,-0.12719397,0.057047866,-0.00010566891,-0.015513569,0.005768325,0.003738124,0.47419658,-1.3658081,1.8847598,-2.0896604,-1.5692896,2.4476724,-0.21380219,0.118503295,-0.14468636,0.014239576,0.011185112,-0.21746959,-0.28730422,-0.11492168,-9.040505,0.87617236,47.651955,-1.3740361,-2.4680855,-3.1694884,-0.24432424,0.20978971,-0.3374766,28.4375,29.75,28.8125,32.5625,35.0625,36.125
0.28805178,-0.2432565,0.53651184,0.17540248,0.009504367,0.01905579,-0.20810208,-0.40740475,-0.36044997,0.06002552,3.0773385,-0.6220775,-0.00023003813,-0.12863615,0.05860247,-0.00033856157,-0.014374976,0.005863529,-0.0060060387,0.47379956,-1.3655196,1.8844851,-2.08966,-1.5692543,2.447194,-0.21691062,0.11944722,-0.14535856,0.014408995,0.010120033,-0.2108336,-0.22984336,-0.21068975,-9.155427,0.8851263,47.684196,-1.3491026,-2.5789788,-3.284391,-0.23833734,0.23753989,-0.44826373,28.4375,29.75,28.8125,32.5625,35.0625,36.125
0.29005188,0.015352112,0.55581874,0.13777725,0.005741703,0.012822041,-0.20784484,-0.40769356,-0.36033702,0.060056727,3.0772388,-0.62217176,-0.00032274378,-0.12970182,0.059354827,-0.0005491855,-0.014679323,0.005427287,-0.006727958,0.47334287,-1.365303,1.8841499,-2.089636,-1.5692295,2.446809,-0.21927445,0.1205722,-0.14625524,0.014440855,0.010615635,-0.21247414,-0.095768064,-0.28730422,-9.212888,0.82022345,47.694946,-1.3296692,-2.4996386,-3.251153,-0.22917289,0.22452065,-0.49978155,28.4375,29.75,28.8125,32.5625,35.0625,36.125
0.29205194,0.62938404,0.75871944,0.3811039,0.008660394,0.01691943,-0.20927086,-0.4079276,-0.36021549,0.060037956,3.0772598,-0.6221104,-0.00030686564,-0.12956117,0.059737336,-0.0018836178,-0.013388333,0.0025871908,0.005756213,0.47293472,-1.365062,1.8838986,-2.0896122,-1.5692295,2.44636,-0.21979202,0.123305455,-0.14672375,0.015315887,0.010781642,-0.22547558,0.038307227,-0.11492168,-9.11712,0.9030289,47.655537,-1.2655544,-2.5217335,-3.3355145,-0.21937217,0.24330407,-0.4426068,28.4375,29.75,28.8125,32.5625,35.0625,36.125
0.29405203,0.16600034,0.35000238,0.24843957,0.029300405,0.00070922205,-0.20131354,-0.40820578,-0.36009476,0.060038988,3.0772538,-0.62202495,-0.0003515888,-0.1316509,0.060614727,0.0004746383,-0.015362066,0.0067587905,0.01762225,0.47248986,-1.3647987,1.8835758,-2.0895884,-1.5692295,2.4458628,-0.2228826,0.120125934,-0.14834942,0.015536108,0.010671519,-0.24043185,0.05746084,-0.11492168,-9.040505,0.84484416,47.639416,-1.146833,-2.376367,-3.3228312,-0.21682447,0.2539521,-0.28294697,28.4375,29.75,28.8125,32.5625,35.0625,36.125
0.29605213,0.80127966,0.6393502,-0.00726059,0.038211,0.014961007,-0.20769078,-0.40845776,-0.35997078,0.06003825,3.0772111,-0.62197506,-0.00033258717,-0.13247243,0.061325394,-7.621644e-05,-0.01549291,0.00512213,0.022604572,0.47203293,-1.364582,1.8833126,-2.089564,-1.5691813,2.4453802,-0.2252124,0.121919654,-0.14943047,0.016246289,0.01155376,-0.24774316,-0.05746084,-0.11492168,-9.155427,0.92093146,47.64479,-1.0874279,-2.5045137,-3.3407168,-0.2117397,0.2570703,-0.16716175,28.4375,29.75,28.8125,32.5625,35.0625,36.125
0.2980522,0.5251021,-0.02761729,-0.20801023,0.04192616,0.018733606,-0.1933282,-0.40872565,-0.35985053,0.06004196,3.0771937,-0.621881,-0.0003123154,-0.13490096,0.062081404,0.0018856073,-0.017417012,0.008577011,0.015195032,0.47157604,-1.3643302,1.8829893,-2.089504,-1.5691451,2.444867,-0.2285424,0.12029651,-0.15202859,0.016523005,0.011695216,-0.24366288,-0.21068975,-0.038307227,-9.136273,0.8717007,47.687782,-1.067832,-2.2329423,-3.3724675,-0.18966457,0.2506477,-0.16232556,28.4375,29.75,28.8125,32.5625,35.0625,36.125
0.30005223,0.1955506,0.75326866,-0.227243,0.006620707,0.027403621,-0.20098731,-0.4089588,-0.35971943,0.06002361,3.0772069,-0.62183,-0.00021713876,-0.13384992,0.06344949,0.00015060195,-0.015890047,0.003998844,0.0064897425,0.47113144,-1.3640896,1.8827266,-2.089432,-1.5691093,2.4443889,-0.23026171,0.121415734,-0.14977756,0.017925244,0.012405301,-0.23667829,-0.17238252,0.0,-9.212888,0.81351066,47.666286,-1.0475807,-2.158245,-3.5233898,-0.19877023,0.24065635,-0.27472687,28.4375,29.75,28.8125,32.5625,35.0625,36.125
0.3020521,-0.12800543,-0.1830489,-0.37106493,0.00465884,0.048324827,-0.1958279,-0.40924525,-0.35958633,0.06004422,3.077155,-0.62189615,-0.00026192167,-0.13349487,0.062053632,0.00066198263,-0.015664516,0.004463473,0.004504169,0.47065234,-1.363861,1.8823923,-2.0893714,-1.5690974,2.4439578,-0.2272156,0.12228517,-0.15231156,0.019280083,0.011999425,-0.23164515,-0.22984336,-0.095768064,-9.32781,0.9030289,47.728977,-1.1366227,-2.290682,-3.3783429,-0.18505651,0.24755666,-0.34224302,28.4375,29.75,28.8125,32.5625,35.0625,36.125
0.30405205,-1.153437,-0.7477251,-0.44851983,0.004672239,0.062956706,-0.1928266,-0.40948898,-0.35949287,0.06004,3.0771093,-0.6217512,-0.00019586358,-0.13419326,0.060889885,0.0015551732,-0.01665033,0.005617971,0.005212409,0.470233,-1.3636086,1.8820914,-2.0893352,-1.5690135,2.4434538,-0.22595327,0.123275995,-0.15578583,0.020309968,0.012356498,-0.23108962,-0.36391866,0.0,-9.481039,0.9097417,47.690468,-1.3264848,-2.244834,-3.350017,-0.199759,0.25587106,-0.40097094,28.4375,29.75,28.8125,32.5625,35.0625,36.125
0.30605224,-1.1539319,-0.36592096,-0.5708898,-0.018255414,0.09097996,-0.20303823,-0.40975675,-0.3593524,0.060018513,3.0771408,-0.621712,-0.00014933327,-0.1349473,0.060250923,0.0019865085,-0.017470883,0.0060169394,0.015261332,0.46976513,-1.3633199,1.8817805,-2.0892746,-1.569013,2.4429576,-0.22573993,0.12457487,-0.15851882,0.02103778,0.012914873,-0.2409246,-0.38307226,0.1340753,-9.5385,0.9410752,47.66539,-1.4562328,-2.1762538,-3.2868874,-0.20401789,0.25531793,-0.35934126,28.4375,29.75,28.8125,32.5625,35.0625,36.125
0.30805227,-1.0988339,-0.5330532,-0.7860319,-0.018741531,0.10069641,-0.19669123,-0.41000655,-0.3592084,0.060006853,3.0771456,-0.6216279,-8.2274404e-05,-0.13389573,0.06147867,-0.00048859854,-0.015167574,0.0016650611,0.027238185,0.46928504,-1.3630909,1.8815192,-2.0892155,-1.5689768,2.4424245,-0.22674456,0.12705787,-0.1558659,0.020863038,0.012852893,-0.2539071,-0.34476504,0.19153613,-9.672575,0.80679786,47.693153,-1.5313895,-2.310075,-3.3707676,-0.22065459,0.26210535,-0.21238527,28.4375,29.75,28.8125,32.5625,35.0625,36.125
0.31005222,-0.953357,-0.7372136,-1.176879,-0.024684418,0.086186744,-0.2034072,-0.4102732,-0.3590949,0.060013097,3.0771573,-0.6215329,-9.688368e-05,-0.1352545,0.061999444,-0.00032782328,-0.01588039,0.002333656,0.030476388,0.46886435,-1.3628262,1.8811716,-2.0891435,-1.5689768,2.4419432,-0.22887273,0.12791908,-0.15719333,0.020424427,0.013196901,-0.25927278,-0.28730422,0.28730422,-9.902418,0.779936,47.699425,-1.5289607,-2.215539,-3.3245573,-0.19674547,0.26975656,-0.09642303,28.4375,29.75,28.8125,32.5625,35.0625,36.125
0.31205222,-0.9490886,-1.4818227,-1.0271782,-0.039856415,0.07196176,-0.19245213,-0.41056716,-0.35896206,0.060036574,3.0771375,-0.6214557,-0.0001977328,-0.13735172,0.06260796,-0.00029508822,-0.01567701,0.0035674528,0.024605598,0.46839553,-1.3625975,1.8808359,-2.0891078,-1.5689892,2.441429,-0.23111033,0.13018942,-0.15988117,0.019832248,0.012468308,-0.2556374,-0.40222588,0.30645782,-9.864111,0.8291774,47.686886,-1.4990599,-2.1954248,-3.4203153,-0.20501176,0.27826738,-0.10438961,28.4375,29.75,28.8125,32.5625,35.0625,36.125
0.314051,-0.38308415,-1.4580616,-1.13306,-0.0549415,0.07531851,-0.19724475,-0.410848,-0.35883734,0.06001734,3.0770845,-0.6214515,-0.00018042672,-0.13863944,0.06306105,0.00059474405,-0.016849995,0.0054353317,0.013031843,0.46791476,-1.3623092,1.8805369,-2.0891201,-1.568941,2.4409523,-0.23295566,0.12943824,-0.16094716,0.019453472,0.012665112,-0.24590847,-0.4405331,0.30645782,-9.959879,0.8717007,47.709274,-1.4878289,-2.322974,-3.319384,-0.19456072,0.29033008,-0.21862516,28.4375,29.75,28.8125,32.5625,35.0625,36.125
0.31605217,-0.9073793,-1.8913559,-1.3875669,-0.04040842,0.058809903,-0.18924126,-0.41111577,-0.35870248,0.060029622,3.0771,-0.6213456,-0.0001926272,-0.14009339,0.064420946,-0.0014380307,-0.014728253,0.0026452732,1.38039895e-05,0.46745795,-1.3620791,1.8802141,-2.0890362,-1.568941,2.4404275,-0.23596472,0.13460137,-0.16252106,0.019301316,0.012016538,-0.23589808,-0.40222588,0.28730422,-9.9790325,0.90750587,47.658226,-1.4783686,-2.440826,-3.3902144,-0.18909802,0.2808953,-0.34678727,28.4375,29.75,28.8125,32.5625,35.0625,36.125
0.31805208,-0.45721468,-1.0955374,-1.0493907,-0.05366142,0.07239206,-0.1973171,-0.41141057,-0.3585894,0.060054842,3.0770376,-0.62133807,-0.000257422,-0.14197578,0.06579989,-0.0006540382,-0.016088028,0.0037800516,-0.010366464,0.46700037,-1.3618274,1.8798441,-2.0889885,-1.5689172,2.4399734,-0.24018414,0.13387148,-0.16346246,0.019344542,0.012728457,-0.22973613,-0.51714754,0.28730422,-9.940725,0.8940802,47.692257,-1.3243272,-2.31546,-3.4207644,-0.18507859,0.2937334,-0.4745704,28.4375,29.75,28.8125,32.5625,35.0625,36.125
0.3200521,-0.79748386,-0.89076406,-0.8852058,-0.045566883,0.07730215,-0.20540401,-0.41169807,-0.35847244,0.06003296,3.0769746,-0.62133914,-0.00022671443,-0.14277245,0.065914996,-0.0012538069,-0.016280605,0.0028768342,-0.0041339076,0.46652025,-1.3615141,1.8795208,-2.0890005,-1.5688566,2.439502,-0.24127461,0.1362407,-0.16495396,0.019218663,0.013325413,-0.23705798,-0.4213795,0.21068975,-9.730036,0.7911258,47.65912,-1.2363179,-2.495164,-3.3656626,-0.16787806,0.2895204,-0.49254793,28.4375,29.75,28.8125,32.5625,35.0625,36.125
0.32205218,-0.726069,-0.2112843,-0.78892404,-0.0233225,0.085284,-0.20626366,-0.41198993,-0.35832483,0.060036752,3.0769522,-0.62132776,-0.00024403576,-0.14433224,0.06757648,-0.0022132234,-0.016873581,0.0013635765,0.005598934,0.46601462,-1.3612611,1.879198,-2.0889533,-1.5688442,2.4389923,-0.24601685,0.13819505,-0.16496581,0.018394291,0.014567915,-0.25153226,-0.36391866,0.11492168,-9.595961,0.83813137,47.66987,-1.0016896,-2.552734,-3.435623,-0.15375036,0.3035683,-0.3703981,28.4375,29.75,28.8125,32.5625,35.0625,36.125
0.32405218,-0.41112888,0.40301892,-0.8781602,-0.0007528896,0.08290808,-0.19950926,-0.41225958,-0.35820583,0.06002906,3.0769174,-0.621257,-0.00018709098,-0.14586209,0.06635101,-0.0007428828,-0.019652013,0.0043738475,0.017762806,0.46554694,-1.360985,1.8788732,-2.088905,-1.5687836,2.438485,-0.24581245,0.1384459,-0.1684937,0.017775508,0.015714478,-0.26349026,-0.19153613,-0.05746084,-9.672575,0.9365982,47.66987,-1.0256295,-2.4528413,-3.4714868,-0.15568608,0.2721383,-0.21888527,28.4375,29.75,28.8125,32.5625,35.0625,36.125
0.32605222,-0.48056686,-0.06571765,-0.44665894,0.015249131,0.074088536,-0.1969887,-0.4125916,-0.35808733,0.060064834,3.0768037,-0.62123626,-0.0003274803,-0.1455374,0.06678666,-0.0011832684,-0.019728217,0.003379828,0.016591718,0.46504244,-1.3607329,1.8784922,-2.088917,-1.5687479,2.437982,-0.24643515,0.13838394,-0.16741627,0.017628687,0.01627284,-0.26294002,-0.34476507,0.05746084,-9.576807,0.9186956,47.71465,-1.2470994,-2.532827,-3.460122,-0.12630492,0.27585614,-0.20373148,28.4375,29.75,28.8125,32.5625,35.0625,36.125
0.32805225,-0.14901769,0.6196091,-0.12404723,-0.0038753739,0.08008473,-0.20032308,-0.41288117,-0.35793334,0.060047578,3.0768557,-0.62115276,-0.00032149442,-0.1453807,0.06605177,-0.001996183,-0.01854173,0.0027275523,0.011849157,0.46455142,-1.3604325,1.878157,-2.088857,-1.5687722,2.4374325,-0.2444347,0.14111619,-0.16885017,0.017436316,0.015487752,-0.25619677,-0.5746084,0.038307227,-9.289502,0.86945957,47.70659,-1.3928349,-2.4159627,-3.3835351,-0.10377232,0.27589712,-0.2831128,28.4375,29.75,28.8125,32.5625,35.0625,36.125
0.33005255,-0.58779806,0.39128917,-0.35441956,0.022208879,0.048955046,-0.18967572,-0.41319972,-0.357828,0.06009471,3.0767121,-0.62112683,-0.00042955024,-0.1458585,0.06675301,-0.0014560134,-0.018537384,0.0028161262,0.005332349,0.46405885,-1.3602048,1.8777741,-2.088845,-1.5686997,2.436942,-0.24584346,0.14037053,-0.16951181,0.018782273,0.015477897,-0.25108662,-0.36391866,-0.13407528,-9.404425,0.8784135,47.66539,-1.3368845,-2.4570763,-3.494288,-0.075187825,0.28329605,-0.37443352,28.4375,29.75,28.8125,32.5625,35.0625,36.125
0.3320519,-0.29722878,0.28756073,-0.14500283,0.016934367,0.046401937,-0.19620115,-0.41346842,-0.35768837,0.060073584,3.076727,-0.6211081,-0.00044023892,-0.146526,0.06690905,-0.0016521409,-0.017250434,0.002108134,0.0077735754,0.46360302,-1.3599284,1.8774871,-2.0888321,-1.5687121,2.436473,-0.24602784,0.14249626,-0.17202355,0.02038944,0.014651098,-0.2537116,-0.11492168,-0.21068975,-9.404425,0.90750587,47.658226,-1.4460835,-2.5235307,-3.4289072,-0.09005098,0.26864043,-0.42369908,28.4375,29.75,28.8125,32.5625,35.0625,36.125
0.33405194,-0.36422345,0.23871173,0.533856,0.012631198,0.044185992,-0.19547331,-0.41377905,-0.35754836,0.060069796,3.0766838,-0.6210565,-0.0004254456,-0.14752102,0.06589687,-0.00034621125,-0.01858852,0.0042646793,0.018417114,0.4630746,-1.3596287,1.8771275,-2.0887964,-1.5686644,2.4359179,-0.24515538,0.14273183,-0.17546956,0.021112045,0.014909402,-0.26348114,-0.2873042,-0.17238252,-9.155427,0.9030289,47.67166,-1.3793113,-2.4570801,-3.4379888,-0.06544931,0.30889177,-0.3472767,28.4375,29.75,28.8125,32.5625,35.0625,36.125
0.33605218,0.41790208,1.0311954,0.070636384,0.027138818,0.053198256,-0.2122632,-0.41407326,-0.35744032,0.06007714,3.076621,-0.62090176,-0.00045801347,-0.14903718,0.066792816,0.0005169974,-0.01911518,0.0060374793,0.029498113,0.46260664,-1.3593531,1.8767799,-2.0887964,-1.5686044,2.4353614,-0.24762118,0.14210798,-0.17674021,0.02123799,0.014639248,-0.2770269,-0.095768064,-0.15322891,-9.212888,0.87393653,47.66091,-1.4838605,-2.3542397,-3.3766642,-0.06906429,0.29469234,-0.19416586,28.4375,29.75,28.8125,32.5625,35.0625,36.125
0.33805212,0.14367607,1.1038808,0.17025113,0.041839316,0.04826294,-0.19925816,-0.41437712,-0.3572947,0.06009504,3.0765884,-0.6208574,-0.00048061914,-0.15101828,0.06741946,0.0011017512,-0.020249257,0.006671535,0.02934159,0.46208978,-1.3591009,1.8764199,-2.088724,-1.5685805,2.4348211,-0.2506451,0.14324854,-0.17962289,0.021924613,0.015389922,-0.27989227,-0.095768064,-0.15322891,-9.11712,0.8627467,47.64658,-1.4397937,-2.236472,-3.2288036,-0.063176945,0.27733156,-0.12073219,28.4375,29.75,28.8125,32.5625,35.0625,36.125
0.34005216,0.21826205,1.0833251,0.08200972,0.035835043,0.03674668,-0.19635074,-0.41468003,-0.35716724,0.06008056,3.0765712,-0.6208022,-0.00044450225,-0.15205173,0.06824153,0.0012214937,-0.019756004,0.0066320878,0.021209715,0.46159694,-1.358765,1.876038,-2.0886757,-1.5685443,2.4342961,-0.2524717,0.14403501,-0.18110113,0.022876887,0.014958495,-0.27358678,-0.11492168,-0.05746084,-9.021352,0.8806493,47.655537,-1.3592671,-2.2751026,-3.163437,-0.051446833,0.30332923,-0.17164683,28.4375,29.75,28.8125,32.5625,35.0625,36.125
0.3420521,0.5623188,0.65895796,-0.13407286,0.021311926,0.04278274,-0.20031515,-0.41497555,-0.3569941,0.060071196,3.0765853,-0.62077475,-0.00042914748,-0.15358941,0.06985166,0.00029659527,-0.018833505,0.0046541053,0.0061737276,0.46105593,-1.3585001,1.875727,-2.0886157,-1.5685443,2.4337363,-0.25634068,0.14683776,-0.18260798,0.023746222,0.014992167,-0.26241907,-0.2873042,-0.038307227,-9.136273,0.9410752,47.64389,-1.2865157,-2.3316724,-3.2650757,-0.02457051,0.30883387,-0.2736382,28.4375,29.75,28.8125,32.5625,35.0625,36.125
0.3440522,-0.49890235,-0.0062766564,-0.24624689,-1.3958021e-05,0.026459929,-0.18438697,-0.4152909,-0.3568635,0.060094614,3.0765486,-0.6207161,-0.00049598614,-0.1552524,0.07106817,0.0024460093,-0.019593243,0.007873713,-0.005899528,0.4605629,-1.3582257,1.8753303,-2.088555,-1.5685323,2.4332116,-0.25915623,0.143713,-0.184065,0.025099037,0.014244507,-0.25316107,-0.4213795,0.076614454,-9.232041,0.9097417,47.651955,-1.1619831,-2.2304146,-3.1988456,-0.035126872,0.3192345,-0.42411312,28.4375,29.75,28.8125,32.5625,35.0625,36.125
0.34605256,-0.41683412,-0.7573406,-0.38893795,-0.011518656,0.048979916,-0.18894902,-0.41560158,-0.35671982,0.060110986,3.0764444,-0.6208843,-0.00048248863,-0.15500753,0.07124196,0.0023661074,-0.019446075,0.006547502,-0.0034511078,0.46002278,-1.3579618,1.8749593,-2.0884826,-1.5684723,2.4327898,-0.25935993,0.14398612,-0.18459414,0.026635963,0.014726777,-0.25581238,-0.45968673,0.15322891,-9.404425,0.8179876,47.66091,-1.183981,-2.1988301,-3.2283645,-0.04661796,0.31927425,-0.49366152,28.4375,29.75,28.8125,32.5625,35.0625,36.125
0.34805268,-0.6520042,-0.72135496,-0.36203393,-0.034965333,0.07221916,-0.19838554,-0.41589266,-0.35655993,0.060095653,3.0764742,-0.62078756,-0.00040227553,-0.15597734,0.07204969,0.0023527634,-0.019056171,0.005751068,0.008438607,0.45949417,-1.3576616,1.8746113,-2.0883868,-1.5684484,2.432197,-0.26138848,0.14517805,-0.18638669,0.028169189,0.014754881,-0.26973075,-0.22984336,0.17238252,-9.385271,0.83589023,47.64927,-1.2078336,-2.0819736,-3.1370342,-0.065535374,0.33826745,-0.39856973,28.4375,29.75,28.8125,32.5625,35.0625,36.125
0.350052,-0.7701249,-1.0368755,-0.4263231,-0.02495182,0.08432941,-0.20115712,-0.4162232,-0.35640615,0.060108595,3.076467,-0.6207615,-0.0004587815,-0.1570035,0.072776735,0.0022483822,-0.019601561,0.005215073,0.02033938,0.458965,-1.3573616,1.8742045,-2.0883148,-1.5684603,2.4316528,-0.26376098,0.14620307,-0.18750478,0.028535696,0.015526804,-0.28400263,-0.21068975,0.21068975,-9.3661175,0.90750587,47.684196,-1.0608585,-2.0404954,-3.2630897,-0.0656284,0.3053873,-0.24089709,28.4375,29.75,28.8125,32.5625,35.0625,36.125
0.35205182,-0.93167275,-0.57007056,-0.6117962,-0.027470004,0.09128836,-0.19115244,-0.41652545,-0.35627794,0.060102288,3.076444,-0.6206606,-0.0004520514,-0.15641367,0.07275903,0.0012439216,-0.0187587,0.00339289,0.022786396,0.45847324,-1.3570493,1.873835,-2.088279,-1.5684236,2.431101,-0.2631066,0.14778443,-0.18720794,0.028686594,0.01559496,-0.2857949,-0.2681506,0.21068975,-9.5385,0.92093146,47.689575,-1.0772054,-2.0578022,-3.2759855,-0.08056523,0.32771647,-0.18443295,28.4375,29.75,28.8125,32.5625,35.0625,36.125
0.35405186,-0.9115055,-0.34769002,-0.755296,-0.015021963,0.08205415,-0.19041356,-0.41683802,-0.35612318,0.060110003,3.0763965,-0.62059724,-0.000451373,-0.15652248,0.072732806,-0.0007272907,-0.017850583,-0.00036226044,0.014472946,0.4579218,-1.3567841,1.8734874,-2.0882313,-1.568376,2.4305162,-0.2634902,0.15260988,-0.18867952,0.029102746,0.016436914,-0.27786273,-0.38307226,0.095768064,-9.576807,0.8851263,47.70032,-1.2539513,-2.0640564,-3.3894413,-0.08525561,0.33359325,-0.25792107,28.4375,29.75,28.8125,32.5625,35.0625,36.125
0.3560522,-0.44842538,0.21751674,-0.39952508,-0.029474383,0.08420933,-0.20270304,-0.4171541,-0.3559671,0.06007891,3.0764065,-0.62062126,-0.00042165932,-0.15651742,0.072340675,-8.9055786e-05,-0.019059666,0.00063352427,0.00870149,0.45739433,-1.3564248,1.8731169,-2.088195,-1.5683755,2.4300027,-0.26302904,0.15164283,-0.18897127,0.028925907,0.017064359,-0.2716302,-0.63206923,0.15322891,-9.442732,0.8851263,47.6421,-1.3331621,-2.075917,-3.4500282,-0.06882677,0.3119249,-0.36876562,28.4375,29.75,28.8125,32.5625,35.0625,36.125
0.3580522,0.4067192,0.60117906,-0.48423183,-0.018746976,0.08595381,-0.19729565,-0.4174456,-0.35583526,0.060085766,3.076335,-0.6205687,-0.00037222862,-0.15730584,0.072407,-0.00059250987,-0.018520033,0.00047995028,0.00789179,0.45687798,-1.3561599,1.8727688,-2.088135,-1.568292,2.4294627,-0.26337776,0.15396392,-0.19059697,0.028638287,0.016653381,-0.27116832,-0.36391866,0.038307227,-9.500193,0.947788,47.64479,-1.5576866,-2.3108857,-3.388002,-0.06859254,0.3152845,-0.4348509,28.4375,29.75,28.8125,32.5625,35.0625,36.125
0.36005217,0.02942586,0.70729,-0.69910604,-0.011683084,0.062961,-0.2013734,-0.41778842,-0.35567868,0.06008831,3.0763035,-0.62051666,-0.00039504762,-0.15781245,0.07302956,-0.0020797274,-0.017148945,-0.0013086267,0.019523975,0.45631358,-1.3558352,1.8723611,-2.0880873,-1.5682677,2.42887,-0.2644092,0.1572982,-0.19117858,0.028144393,0.01625088,-0.28383115,-0.2681506,-0.038307227,-9.595961,0.8940802,47.672558,-1.4761138,-2.3461642,-3.513177,-0.066694885,0.32527626,-0.31788057,28.4375,29.75,28.8125,32.5625,35.0625,36.125
0.3620521,0.12775357,0.5237317,-0.21713142,-0.017796172,0.07544343,-0.19305718,-0.4181047,-0.35553208,0.060096007,3.0763187,-0.6203999,-0.00038355956,-0.15986152,0.074846745,-0.0019152866,-0.016469676,-0.0011711604,0.028406586,0.45579627,-1.355523,1.8719429,-2.087979,-1.5682563,2.428278,-0.26860446,0.15837182,-0.19314378,0.029258303,0.015610515,-0.29690892,-0.38307226,0.05746084,-9.461885,0.92764956,47.694054,-1.3491625,-2.3831174,-3.4602377,-0.0625287,0.32013792,-0.18569821,28.4375,29.75,28.8125,32.5625,35.0625,36.125
0.3640523,-0.016625836,0.5196678,-0.2564206,-0.0067291656,0.064687744,-0.19339225,-0.41844794,-0.35539958,0.060108766,3.0762155,-0.62036157,-0.00041985023,-0.16074045,0.07502607,-0.0022783456,-0.016441695,-0.0030324531,0.026899276,0.4552436,-1.3552105,1.8715347,-2.0879667,-1.5681838,2.4277146,-0.26993382,0.16107,-0.19605356,0.031180676,0.016429542,-0.29672784,-0.24899697,0.095768064,-9.3661175,0.9545008,47.70211,-1.2570906,-2.3665361,-3.3927536,-0.087765835,0.34125608,-0.14402685,28.4375,29.75,28.8125,32.5625,35.0625,36.125
0.36605254,0.30533305,0.5478401,-0.42875153,0.006512783,0.053110454,-0.18768102,-0.4187729,-0.35523608,0.060108908,3.0762017,-0.6203837,-0.00040968688,-0.1608991,0.07516811,-0.0019787946,-0.016772619,-0.0030996234,0.017391393,0.45469114,-1.3548988,1.8711394,-2.0878823,-1.5681719,2.427178,-0.27030328,0.16086417,-0.19670118,0.031936996,0.01673779,-0.28758907,-0.24899697,0.076614454,-9.481039,0.94331104,47.694054,-1.3355603,-2.4699497,-3.4064248,-0.09895091,0.32897586,-0.20482077,28.4375,29.75,28.8125,32.5625,35.0625,36.125
0.3680517,0.1355365,-0.18990836,-0.16729368,-0.0047312924,0.05420777,-0.18270098,-0.41910297,-0.35509557,0.060119975,3.0761418,-0.6203024,-0.00043852013,-0.16055706,0.07567136,-0.0024768969,-0.016203636,-0.0054286635,0.005036497,0.4541512,-1.354599,1.8707446,-2.087846,-1.5681232,2.426595,-0.27098158,0.16161773,-0.19693701,0.03375228,0.017243605,-0.27591103,-0.30645782,0.076614454,-9.461885,0.8918391,47.672558,-1.3143933,-2.2657735,-3.359869,-0.09914523,0.32889178,-0.3578128,28.4375,29.75,28.8125,32.5625,35.0625,36.125
0.37005174,-0.036481645,0.043550648,0.0586909,-0.022392172,0.05859543,-0.19608279,-0.41941935,-0.35493279,0.060127303,3.0761619,-0.62021434,-0.00046531172,-0.1620674,0.07710467,-0.0018319325,-0.0170993,-0.0056144632,-0.00484759,0.45362204,-1.3543112,1.8703617,-2.0877616,-1.5681347,2.4260085,-0.2749965,0.16124797,-0.19834208,0.035288963,0.018120801,-0.27004057,-0.32561144,0.11492168,-9.212888,0.9365982,47.66271,-1.2673644,-2.4702928,-3.3904238,-0.13774551,0.33392525,-0.4961267,28.4375,29.75,28.8125,32.5625,35.0625,36.125
0.37205166,0.066443995,0.26164642,-0.22237557,-0.0059485314,0.04104367,-0.19909038,-0.4197789,-0.35476458,0.060117505,3.0761127,-0.620316,-0.00043314387,-0.16462815,0.0788271,-0.0017942504,-0.016363826,-0.004728433,0.0022052065,0.45301998,-1.3539386,1.8699182,-2.08769,-1.5680994,2.4254763,-0.2791757,0.16322193,-0.20090371,0.035456024,0.017094428,-0.28127256,-0.076614454,0.0,-9.289503,0.89631605,47.68599,-1.0745836,-2.439495,-3.290178,-0.15855269,0.3208608,-0.45405972,28.4375,29.75,28.8125,32.5625,35.0625,36.125
0.37405166,0.44131887,0.17276813,-0.036629997,-0.0084796455,0.04542682,-0.21617396,-0.42006215,-0.35463238,0.06009353,3.0760972,-0.6201878,-0.00027027208,-0.16498315,0.07818942,-0.0016153447,-0.01715824,-0.0038431915,0.01899701,0.4525051,-1.3536029,1.8695458,-2.0875943,-1.5680035,2.4248834,-0.27842835,0.16401763,-0.20218703,0.034878876,0.017439615,-0.2973174,0.019153614,0.05746084,-9.270349,0.88960326,47.668976,-1.0566201,-2.3130531,-3.3932707,-0.14889996,0.33060962,-0.30474815,28.4375,29.75,28.8125,32.5625,35.0625,36.125
