Tylouw/Master_Thesis_Code/training_data/batch_1/rect_rod_t0.3/sample_50_session_2.csv
timestamp[s],tcp_force_x[N],tcp_force_y[N],tcp_force_z[N],tcp_force_rx[Nm?],tcp_force_ry[Nm?],tcp_force_rz[Nm?],tcp_pose_x[m],tcp_pose_y[m],tcp_pose_z[m],tcp_pose_rx[rot_vec_x],tcp_pose_ry[rot_vec_y],tcp_pose_rz[rot_vec_z],tcp_velo_x[m/s],tcp_velo_y[m/s],tcp_velo_z[m/s],tcp_velo_rx[rot_vec_x/s],tcp_velo_ry[rot_vec_y/s],tcp_velo_rz[rot_vec_z/s],q1[rad],q2[rad],q3[rad],q4[rad],q5[rad],q6[rad],qd1[rad/s],qd2[rad/s],qd3[rad/s],qd4[rad/s],qd5[rad/s],qd6[rad/s],tool_acc_x,tool_acc_y,tool_acc_z,current_of_whole_robot[A],voltage_of_whole_robot[V],current_J1[A],current_J2[A],current_J3[A],current_J4[A],current_J5[A],current_J6[A],temp_J1[C],temp_J2[C],temp_J3[C],temp_J4[C],temp_J5[C],temp_J6[C]
8.160132e-07,-0.2214748,-0.6550579,-0.109471515,-0.015248904,0.01705018,0.0019027817,-0.3893436,-0.36871737,0.060022984,-3.078739,0.6249739,0.0002157836,-0.0010977341,-0.0006075559,-0.0005317149,-0.002919873,0.005024486,3.6517737e-05,0.5050088,-1.3816799,1.9042119,-2.0919197,-1.5708297,2.4800253,-7.29356e-05,-1.00439046e-07,0.003269208,-0.009079504,0.00011040857,-0.00010998205,0.095768064,0.2681506,-8.580819,0.784413,47.685097,-0.22335175,-2.9385324,-2.3234386,-0.1676765,0.080206715,-0.042917203,28.4375,29.75,28.8125,32.625,35.0625,36.125
0.002021011,-0.07985573,-0.5118586,-0.10533687,-0.026487391,0.031090653,0.0017905659,-0.38933355,-0.36871725,0.060016688,-3.0787396,0.6249163,0.0002537386,-0.0016993255,-0.00094795943,-0.0018961149,-0.0028403348,0.0048687845,4.4128486e-05,0.5050329,-1.3816907,1.9042472,-2.0919554,-1.5708536,2.4800134,-6.4017826e-05,0.0032900607,0.0031715578,-0.012097275,0.00010874113,-0.00010778679,0.05746084,0.2873042,-8.580819,0.7463667,47.701214,-0.16510949,-3.3394833,-2.5772734,-0.037688516,0.089451775,-0.047667414,28.4375,29.75,28.8125,32.625,35.0625,36.125
0.004020386,-0.09183223,-0.8018181,-0.14684212,-0.0043482706,0.01773016,0.0044231485,-0.38935795,-0.36872366,0.060031384,-3.0787613,0.62492007,0.000293935,-0.00047756033,-0.00026872102,-0.0014777704,-0.00081897114,0.00124182,4.3170876e-05,0.50502086,-1.3816792,1.9041995,-2.091953,-1.5708536,2.480001,-6.244076e-05,0.00214612,0.0021343536,-0.00576393,0.00010712321,-0.0001056773,0.0,0.21068975,-8.561666,0.71279734,47.716442,-0.21272957,-3.3415,-2.5259113,-0.06049663,0.097795665,-0.046511255,28.4375,29.75,28.8125,32.625,35.0625,36.125
0.00602063,0.2516552,0.37755278,-0.53008914,0.015488825,-0.00032109427,-0.004626252,-0.38931108,-0.36872068,0.05999367,-3.078721,0.6249317,0.00016779445,0.0005675914,0.00031258052,-0.00058019883,0.00058445404,-0.0012703186,4.1994805e-05,0.5050448,-1.3816679,1.9042715,-2.0919511,-1.5708297,2.4800372,-6.102821e-05,0.000108524284,0.0011643191,0.00012126595,0.00010597593,-0.000103648985,-0.038307227,0.15322891,-8.810662,0.7083204,47.694054,-0.22428772,-3.1776698,-2.4412704,-0.09743273,0.103835315,-0.046126183,28.4375,29.75,28.8125,32.625,35.0625,36.125
0.008020433,-0.23803163,0.04046385,-1.0698692,0.040055655,-0.014913654,0.0077494704,-0.3893026,-0.36870715,0.05996862,-3.078672,0.6248835,0.00011951635,0.0014397772,0.0008079396,-0.00071695773,0.0021821924,-0.004139165,3.6155034e-05,0.5050448,-1.3816319,1.9042829,-2.0919378,-1.5708536,2.4800134,-7.724234e-05,1.4559918e-06,0.00073593075,0.003940475,0.00010376385,-0.00011427384,-0.05746084,0.15322891,-8.944737,0.70608455,47.687782,-0.75142324,-2.771923,-2.9146008,-0.15220794,0.06136203,-0.11300911,28.4375,29.75,28.8125,32.625,35.0625,36.125
0.010020577,-0.21413164,-0.287659,-1.1690145,0.0044069183,0.008699027,-0.0007707333,-0.3893457,-0.36870453,0.059986405,-3.0786746,0.6249433,0.00017476942,-0.0009922299,0.002309344,-0.0011072085,0.0021813952,-0.004106678,-0.0045423186,0.5050075,-1.3816069,1.9042104,-2.0919263,-1.5708655,2.4800131,-0.0048676063,0.0021065283,-0.00070609123,0.0032486415,8.381737e-05,-0.00032513175,0.095768064,0.11492168,-9.155427,0.76874626,47.67166,-0.93467003,-2.7700257,-2.9806366,-0.13653027,0.069745556,-0.18047121,28.4375,29.75,28.8125,32.625,35.0625,36.125
0.012020494,-0.8760184,-1.6443255,-1.5491285,-0.017361332,0.02806358,0.005155708,-0.38933533,-0.3686856,0.05996496,-3.0786006,0.62494576,7.102192e-05,-0.004504075,0.004394986,-0.003943126,0.004197238,-0.0077660545,-0.001123058,0.5049928,-1.3815681,1.9041971,-2.0918548,-1.5708774,2.4800093,-0.011665396,0.010521432,-0.003973582,0.0022772371,7.953778e-05,-0.010539404,0.05746084,0.05746084,-9.3661175,0.71279734,47.701214,-0.4940669,-3.1719491,-2.9501042,-0.10831067,0.05786077,-0.1343572,28.4375,29.75,28.8125,32.625,35.0625,36.125
0.014020703,-1.2804569,-1.5304343,-1.4165043,-0.053113073,0.053782795,-0.013984302,-0.3893209,-0.3686962,0.059957083,-3.0786183,0.62490726,5.989875e-05,-0.005170254,0.004235733,-0.0036443805,0.0036174955,-0.006721182,0.005505636,0.5050167,-1.381568,1.9042205,-2.0918791,-1.5708655,2.480007,-0.012019908,0.010782336,-0.004823983,0.0016707401,7.766305e-05,-0.017522153,-0.24899697,0.076614454,-9.442732,0.7396539,47.70659,-0.5695325,-3.2447882,-2.9520845,-0.10601409,0.061821744,-0.056462623,28.4375,29.75,28.8125,32.625,35.0625,36.125
0.016020373,-1.4092467,-1.598982,-1.501306,-0.055269513,0.07599424,-0.03668775,-0.38932663,-0.36870125,0.059954107,-3.0786366,0.62486917,2.1408983e-05,-0.004554049,0.0042903787,-0.002955314,0.0035466775,-0.006582572,0.01114583,0.5050049,-1.3815447,1.9041971,-2.0918672,-1.5708417,2.479969,-0.011532876,0.008756629,-0.0043053445,0.0030219113,7.601285e-05,-0.022675991,-0.47884032,0.17238252,-9.500193,0.7284641,47.66271,-0.7526463,-2.9331594,-3.133864,-0.064431295,0.040032774,-0.022291142,28.4375,29.75,28.8125,32.625,35.0625,36.125
0.01802086,-1.8940129,-1.2031412,-1.5631187,-0.01772556,0.07478306,-0.059299488,-0.3893373,-0.3686782,0.05993389,-3.0786004,0.624883,-3.8969243e-05,-0.0043742782,0.0058461404,-0.0033943711,0.0056979004,-0.01045478,0.008707395,0.5049561,-1.3815086,1.9041971,-2.091853,-1.5708417,2.4799335,-0.013982058,0.009182068,-0.004837202,0.0075579835,7.444037e-05,-0.022686934,-0.51714754,0.05746084,-9.634268,0.7217513,47.670765,-0.8713467,-2.840314,-3.3530848,-0.11793588,0.049808245,-0.023161756,28.4375,29.75,28.8125,32.625,35.0625,36.125
0.020021295,-1.1543734,-0.005757985,-1.781735,0.005455991,0.080926955,-0.08639959,-0.38933697,-0.36867508,0.059932623,-3.0786161,0.6248121,-6.540189e-05,-0.006019731,0.0059515,-0.0034826084,0.0055810628,-0.010252071,0.0033679688,0.5049437,-1.3815076,1.9041961,-2.091841,-1.5708297,2.4798748,-0.015699519,0.011656969,-0.007564554,0.00757726,7.293216e-05,-0.01906346,-0.45968673,0.05746084,-9.80665,0.7642693,47.684196,-0.875762,-2.8817122,-3.3452682,-0.13512936,0.05519356,-0.08767587,28.4375,29.75,28.8125,32.625,35.0625,36.125
0.022020731,-1.6219478,-0.24784255,-1.8593322,0.012204349,0.07498172,-0.09207586,-0.38934052,-0.3686579,0.059915777,-3.0785697,0.624805,-0.0001233527,-0.008127397,0.0062261587,-0.0029168616,0.004294596,-0.00793961,-0.00045035203,0.5049189,-1.3814713,1.9041837,-2.0918062,-1.5708417,2.4798515,-0.018133052,0.012418195,-0.009393392,0.0059986385,7.1483904e-05,-0.017677637,-0.53630114,-0.019153614,-9.825804,0.78217715,47.668976,-0.8724345,-2.9155922,-3.3458316,-0.12057559,0.028318223,-0.09595312,28.4375,29.75,28.8125,32.625,35.0625,36.125
0.024020486,-2.200608,-0.90364397,-1.8582511,0.0066396035,0.07320062,-0.10364395,-0.38939902,-0.36864045,0.059932817,-3.078585,0.62492365,-5.238419e-05,-0.009121185,0.0059335977,-0.002927575,0.0038145087,-0.0070518004,-0.0015654446,0.50483483,-1.3814588,1.9041356,-2.09183,-1.5708417,2.4798396,-0.018560464,0.013909424,-0.010907936,0.0050128507,5.709061e-05,-0.016988967,-0.7086837,-0.095768064,-9.653421,0.784413,47.672558,-0.9062083,-2.8094175,-3.3822775,-0.07541193,0.027714806,-0.13294135,28.4375,29.75,28.8125,32.625,35.0625,36.125
0.026020752,-1.566286,-0.66445035,-1.9678553,-0.007592592,0.103487425,-0.12753592,-0.38936663,-0.36862427,0.059875928,-3.0785186,0.6248717,-0.0002497472,-0.009625836,0.005814457,-0.002880661,0.0038380104,-0.0070923995,-0.0024642185,0.5048227,-1.3813865,1.9041713,-2.0917938,-1.5708174,2.4798033,-0.018830676,0.014877973,-0.0122557515,0.0054395236,5.1860385e-05,-0.016359745,-0.7278373,-0.1340753,-9.730036,0.7553206,47.689575,-0.8968992,-2.799426,-3.3720334,-0.07873349,0.020825444,-0.12533803,28.4375,29.75,28.8125,32.625,35.0625,36.125
0.028020378,-2.0188084,-0.9380038,-2.0447223,-0.014951784,0.111292586,-0.12515748,-0.38939688,-0.36862397,0.05987832,-3.0785272,0.6249124,-0.0002484353,-0.010205953,0.0064194016,-0.0032811824,0.0050859125,-0.008974681,-0.0045088003,0.50478643,-1.3813497,1.9041222,-2.0917928,-1.5708054,2.4797914,-0.020278664,0.016717752,-0.014009507,0.0076054605,-0.00012878614,-0.01576205,-0.7278373,-0.19153613,-9.749189,0.78217715,47.686886,-0.91190827,-2.83285,-3.3326344,-0.086161524,0.0028862767,-0.15112424,28.4375,29.75,28.8125,32.625,35.0625,36.125
0.03002056,-2.1909895,-1.1951429,-1.960145,-0.0016133813,0.10210456,-0.13057348,-0.38940367,-0.36857852,0.05984768,-3.0784168,0.6249677,-0.00033985978,-0.010391866,0.006816071,-0.0029593834,0.005496068,-0.009558824,-0.0057417853,0.5047262,-1.3813018,1.9041218,-2.0917327,-1.5708417,2.4797797,-0.021072725,0.016435852,-0.014816081,0.009403344,-0.00020502252,-0.015322874,-0.80445176,-0.1340753,-9.730036,0.84484416,47.698532,-0.9979049,-2.78376,-3.3798218,-0.09140541,0.0016782,-0.1789962,28.4375,29.75,28.8125,32.625,35.0625,36.125
0.032020293,-1.5965596,-0.61387813,-1.9731796,0.0040096752,0.10742762,-0.15019992,-0.38943863,-0.36859256,0.059859727,-3.0784917,0.6248865,-0.0002937528,-0.011177764,0.007008533,-0.0030893777,0.0055621103,-0.009693054,-0.005926935,0.5047019,-1.3812773,1.9040736,-2.0917685,-1.5708174,2.4796953,-0.022133851,0.017659096,-0.015989097,0.009502786,-0.00019991188,-0.016198209,-0.7086837,-0.05746084,-9.730036,0.71951014,47.65912,-0.9939265,-2.7472982,-3.3261185,-0.10085219,0.006372652,-0.18890108,28.4375,29.75,28.8125,32.625,35.0625,36.125
0.034020826,-1.8028398,-0.5818373,-1.9012461,0.008895703,0.086699374,-0.15655714,-0.38945895,-0.3685732,0.059853353,-3.0784473,0.6248973,-0.0003111323,-0.012875924,0.007239181,-0.002031223,0.0042634876,-0.0072875964,-0.0070626545,0.50466543,-1.3812416,1.9040378,-2.0917332,-1.5708417,2.4796712,-0.02408853,0.01716969,-0.01769814,0.008967343,-0.0002325204,-0.017016424,-0.63206923,-0.038307227,-9.730036,0.800085,47.674347,-0.96918905,-2.7259758,-3.3456712,-0.09365061,0.0043199486,-0.20647196,28.4375,29.75,28.8125,32.625,35.0625,36.125
0.036020458,-2.0201905,-0.5064362,-2.0570326,0.009510686,0.06275555,-0.16606249,-0.38952172,-0.36855492,0.05987511,-3.0784407,0.62508863,-0.00028187866,-0.0140204225,0.007996147,-0.002044322,0.004160568,-0.0071079438,-0.007754916,0.5045686,-1.3812172,1.9039539,-2.0917084,-1.5708297,2.4796946,-0.026430035,0.01776221,-0.018331438,0.008801059,-0.00023184819,-0.018665306,-0.45968673,-0.05746084,-9.710882,0.69041777,47.634937,-0.9025434,-2.739733,-3.3274136,-0.0839023,0.0004786267,-0.20000073,28.4375,29.75,28.8125,32.625,35.0625,36.125
0.038020663,-2.2132418,-0.76478004,-1.914092,0.0053846813,0.04993087,-0.1737008,-0.3895332,-0.3685355,0.0598599,-3.0784068,0.6250618,-0.00032439956,-0.015272157,0.0077761756,-0.0014437347,0.0033757472,-0.0056304573,-0.006800281,0.5045326,-1.381181,1.9039406,-2.0916855,-1.5708417,2.4796462,-0.02720871,0.01842061,-0.020422237,0.0085603185,-0.00026598337,-0.020397559,-0.4405331,0.019153614,-9.730036,0.74413085,47.64479,-0.8876928,-2.7312078,-3.3094702,-0.06037541,-0.02565626,-0.22416589,28.4375,29.75,28.8125,32.625,35.0625,36.125
0.04002034,-1.8268325,-1.2688756,-1.9288456,0.007336962,0.054386735,-0.18706699,-0.38959432,-0.36852455,0.05988653,-3.0784233,0.6251225,-0.00021363646,-0.016395677,0.007990306,-0.0006858078,0.0029390238,-0.0039298004,-0.0072156726,0.5044722,-1.3811691,1.9038686,-2.0916975,-1.570866,2.4796216,-0.028339878,0.01807173,-0.021724384,0.008512442,-0.00070777757,-0.021112079,-0.40222588,-0.038307227,-9.672575,0.7620334,47.66091,-0.90081006,-2.7195535,-3.287408,-0.069194056,-0.024072852,-0.21629903,28.4375,29.75,28.8125,32.625,35.0625,36.125
0.042020563,-2.1185517,-1.5371202,-1.9991053,0.0103343,0.03939962,-0.18781742,-0.38960227,-0.36850908,0.059865084,-3.0783834,0.6251339,-0.00033925686,-0.017028611,0.008921538,-0.0011469595,0.004422966,-0.0045661246,-0.0075456677,0.5044238,-1.3811088,1.9038323,-2.091637,-1.5708421,2.4795854,-0.029878415,0.019158391,-0.022084538,0.009064139,-0.0017013857,-0.022318434,-0.28730422,-0.076614454,-9.730036,0.7351769,47.694054,-0.96291935,-2.7469065,-3.349781,-0.061441362,-0.028378965,-0.24250531,28.4375,29.75,28.8125,32.625,35.0625,36.125
0.04402062,-1.0365477,-0.84992456,-1.8498586,-0.008840341,0.051906597,-0.2085322,-0.3896431,-0.36848378,0.059863973,-3.0783777,0.6251519,-0.00031298076,-0.018470405,0.009799929,-0.0009378429,0.005029431,-0.0037485366,-0.007976499,0.5043508,-1.3810844,1.903809,-2.0916493,-1.5708545,2.4795244,-0.032121938,0.019814156,-0.023387088,0.009290925,-0.0026306566,-0.024128797,-0.11492168,0.11492168,-9.595961,0.7284641,47.63852,-0.938587,-2.6294894,-3.3171844,-0.06115762,-0.026906362,-0.24909246,28.4375,29.75,28.8125,32.625,35.0625,36.125
0.04602068,-0.50240767,-1.0201474,-1.676423,-0.014599356,0.047666393,-0.20225981,-0.38970378,-0.3684595,0.059871353,-3.0783534,0.6251265,-0.00022128518,-0.020206366,0.009954452,0.0002551548,0.004037601,-0.0013665956,-0.007862984,0.5042907,-1.3810365,1.9037355,-2.0916493,-1.5709146,2.4794517,-0.033820543,0.019481678,-0.025736384,0.009407083,-0.00291846,-0.025939561,-0.095768064,0.13407528,-9.634268,0.65013564,47.667187,-0.84277153,-2.6686654,-3.2414365,-0.046157062,-0.021131923,-0.261719,28.4375,29.75,28.8125,32.625,35.0625,36.125
0.048020437,-0.47277412,-1.390401,-1.7756299,-0.0031565877,0.025940357,-0.16536233,-0.38974482,-0.36844292,0.059883956,-3.0783582,0.62524253,-0.00028689657,-0.020596588,0.010689893,-0.0003750187,0.0046897223,-0.003614013,-0.007516291,0.5041944,-1.3810118,1.903664,-2.0915887,-1.5708665,2.479427,-0.03574189,0.020997137,-0.026422998,0.0108597325,-0.0024033398,-0.028208151,-0.15322891,0.21068975,-9.500193,0.7553206,47.6421,-0.8321587,-2.7034802,-3.2498665,-0.06310026,-0.02933418,-0.2421626,28.4375,29.75,28.8125,32.625,35.0625,36.125
0.050020706,0.1280179,-1.0084767,-1.7174149,-0.014234378,0.026985904,-0.1795055,-0.38981092,-0.36841622,0.059896715,-3.078347,0.6252787,-0.0002088594,-0.021660104,0.01136725,-0.00039380515,0.004467572,-0.0042222193,-0.0077390014,0.50410974,-1.3809756,1.903592,-2.0915883,-1.5709018,2.4793665,-0.038175162,0.021866996,-0.02756692,0.011555603,-0.0019161432,-0.030419152,-0.019153614,0.21068975,-9.595961,0.69937176,47.615234,-0.8176043,-2.6747901,-3.2538934,-0.05607249,-0.0345401,-0.2596256,28.4375,29.75,28.8125,32.625,35.0625,36.125
0.052020337,0.235857,-0.6902247,-1.660871,-0.024439074,0.029081222,-0.18339574,-0.38983166,-0.36839917,0.059880983,-3.0783274,0.6252555,-0.0002527648,-0.021777475,0.01142078,-0.0003628881,0.0044675656,-0.004403006,-0.00718619,0.50406164,-1.3809276,1.9035681,-2.0915759,-1.5709018,2.4793065,-0.038426947,0.022014396,-0.02788739,0.011886403,-0.0018304536,-0.03122372,-0.038307227,0.19153613,-9.557653,0.7530795,47.639416,-0.7655895,-2.6397505,-3.3175642,-0.059574097,-0.04387754,-0.2508211,28.4375,29.75,28.8125,32.625,35.0625,36.125
0.054020796,-0.3895436,-0.6790024,-1.5858257,-0.017647928,0.019880634,-0.18285626,-0.38984725,-0.3683741,0.059871107,-3.0782926,0.6252854,-0.00036232683,-0.022397434,0.010957613,0.0004050991,0.003642875,-0.0032101986,-0.0059182867,0.50399,-1.3808916,1.9035319,-2.0915043,-1.5708779,2.4792578,-0.038312424,0.021918405,-0.029606765,0.012258896,-0.0016904001,-0.032376595,0.038307227,0.19153613,-9.423578,0.69937176,47.652847,-0.85217893,-2.574313,-3.298203,-0.045510635,-0.046062775,-0.2844571,28.4375,29.75,28.8125,32.625,35.0625,36.125
0.056020457,-0.58159786,-1.1383967,-1.6268768,-0.0019487193,0.027980953,-0.1702193,-0.38992673,-0.36836064,0.05988723,-3.078312,0.62534744,-0.000305517,-0.024219824,0.011665751,0.00072005246,0.0033467466,-0.0026200146,-0.007352213,0.5038931,-1.380831,1.9034237,-2.0915043,-1.5708779,2.4791973,-0.041181453,0.023024494,-0.03170825,0.012594171,-0.0017193252,-0.033810727,0.11492168,0.22984336,-9.385271,0.7329411,47.653748,-0.85240406,-2.6013231,-3.2075925,-0.050793864,-0.065782376,-0.28015935,28.4375,29.75,28.8125,32.625,35.0625,36.125
0.058020607,-0.6100629,-1.2424339,-1.6999571,0.0048437915,0.029496016,-0.1662376,-0.38998422,-0.36834672,0.059893664,-3.0783353,0.62535185,-0.0002897726,-0.024852315,0.012313142,0.0004224798,0.004306932,-0.0034329642,-0.007386332,0.50380886,-1.3807826,1.9033517,-2.0915039,-1.5708665,2.4791129,-0.04257714,0.024190964,-0.032619797,0.013516395,-0.0021676593,-0.035171043,0.05746084,0.22984336,-9.346964,0.8291774,47.703007,-0.78606176,-2.550779,-3.191421,-0.055989556,-0.07425591,-0.29976133,28.4375,29.75,28.8125,32.625,35.0625,36.125
0.06002028,-0.31429708,-1.2601959,-1.5561639,-0.003320569,0.03439906,-0.15528828,-0.39002958,-0.3683201,0.059903882,-3.07831,0.62538487,-0.00026549047,-0.02553882,0.012599668,0.00046084484,0.0042100693,-0.0036536912,-0.007696923,0.5037366,-1.3807583,1.9032916,-2.091468,-1.5708903,2.4790645,-0.043815017,0.024871444,-0.033616375,0.01397718,-0.0019781007,-0.036098216,-0.05746084,0.21068975,-9.385271,0.7351769,47.696735,-0.78044736,-2.5436275,-3.2116547,-0.05980459,-0.080210894,-0.3073272,28.4375,29.75,28.8125,32.625,35.0625,36.125
0.062020604,-0.90113646,-1.333888,-1.4568362,-0.013278766,0.027397852,-0.15977165,-0.39008242,-0.36830407,0.059903014,-3.078319,0.62538624,-0.00027904706,-0.026262742,0.0126376925,0.0005567791,0.004122157,-0.003497626,-0.0073441425,0.5036525,-1.3806981,1.9032196,-2.0914557,-1.5708779,2.47898,-0.04454906,0.025767947,-0.0349557,0.014240983,-0.0019796146,-0.037184376,-0.05746084,0.1340753,-9.3661175,0.7732232,47.688675,-0.83066744,-2.5780365,-3.217581,-0.07660115,-0.091184095,-0.3191606,28.4375,29.75,28.8125,32.625,35.0625,36.125
0.06402033,-0.7171011,-0.8453546,-1.5371474,-0.017725486,0.043444093,-0.16508298,-0.3901521,-0.3682837,0.05991274,-3.0783093,0.625422,-0.00022637179,-0.02756648,0.012853049,0.0012739857,0.0032292248,-0.0020644385,-0.0073034316,0.50356805,-1.380638,1.9031237,-2.0914438,-1.5709018,2.4789193,-0.046175335,0.025677582,-0.036461677,0.01414945,-0.0018927528,-0.038850963,-0.05746084,0.11492168,-9.308656,0.76874626,47.723602,-0.8087487,-2.4813702,-3.2600026,-0.068730615,-0.10765605,-0.34684324,28.4375,29.75,28.8125,32.625,35.0625,36.125
0.06602105,-0.41774648,-0.78010947,-1.4399964,-0.0053983512,0.06524078,-0.16737735,-0.3901624,-0.36825055,0.059901748,-3.078291,0.62535894,-0.00030937107,-0.028101934,0.013527417,0.0009779072,0.0040320694,-0.002935337,-0.005893864,0.5034959,-1.3806257,1.9031233,-2.0913956,-1.5708908,2.47881,-0.04763068,0.026599338,-0.037066754,0.014983739,-0.0021789295,-0.041714914,-0.15322891,0.076614454,-9.423578,0.800085,47.698532,-0.80078435,-2.4940274,-3.2751198,-0.068424955,-0.0856787,-0.32577753,28.4375,29.75,28.8125,32.625,35.0625,36.125
0.06802049,-1.5120598,-0.95129246,-1.4807132,0.0063132416,0.059499554,-0.15780409,-0.39021206,-0.3682318,0.059873875,-3.078263,0.62537247,-0.00047196672,-0.028707204,0.01353807,0.0011992208,0.0043569924,-0.0023543993,-0.0048517208,0.50338787,-1.3804934,1.9030141,-2.091324,-1.5708426,2.478714,-0.04785093,0.02719406,-0.038354833,0.015328659,-0.0027508943,-0.04297539,-0.2873042,0.17238252,-9.385271,0.7553206,47.64389,-0.8763845,-2.5132422,-3.2188234,-0.10620958,-0.10922287,-0.34483093,28.4375,29.75,28.8125,32.625,35.0625,36.125
0.070020616,-1.4687556,-0.7606111,-1.4162362,0.01072111,0.07115389,-0.16648877,-0.39028126,-0.36818755,0.059885185,-3.0782452,0.6254279,-0.00036744354,-0.030607216,0.01476527,0.0014594013,0.0042680465,-0.001720231,-0.0087997615,0.5032789,-1.3804811,1.9029793,-2.091348,-1.5708908,2.478642,-0.0515387,0.027777558,-0.039666034,0.01545646,-0.0029797265,-0.042714186,-0.4405331,0.1340753,-9.346964,0.7418897,47.635834,-0.7970065,-2.5231667,-3.266971,-0.096040756,-0.13459815,-0.35529247,28.4375,29.75,28.8125,32.625,35.0625,36.125
0.07202029,-2.1096294,-0.5732118,-1.5478005,0.009090359,0.05730511,-0.15943716,-0.39033753,-0.36816457,0.059893347,-3.078244,0.6253864,-0.000356213,-0.030977517,0.014835625,0.0013219322,0.005120189,-0.0010562753,-0.0055051716,0.50319517,-1.3804328,1.9028953,-2.0913117,-1.5709027,2.4785326,-0.051328972,0.028541459,-0.040157307,0.015015645,-0.0040503102,-0.045796603,-0.47884035,0.038307227,-9.251195,0.81351066,47.64389,-0.785041,-2.510066,-3.2108912,-0.09962861,-0.12214346,-0.37531722,28.4375,29.75,28.8125,32.625,35.0625,36.125
0.07402076,-1.7477816,-0.89674926,-1.4436227,0.013594341,0.07502355,-0.16921115,-0.39042038,-0.36816233,0.059920006,-3.0782778,0.6254306,-0.00033607899,-0.031629346,0.014895461,0.0015553097,0.005604107,-0.0003953638,-0.0032428512,0.5030996,-1.3803606,1.9027385,-2.091264,-1.5708793,2.4784603,-0.051563628,0.029158987,-0.041508686,0.015406769,-0.004794683,-0.048291706,-0.45968673,-0.076614454,-9.346964,0.82022345,47.72271,-0.9305147,-2.454631,-3.2703698,-0.09673378,-0.104845315,-0.35232347,28.4375,29.75,28.8125,32.625,35.0625,36.125
0.076020375,-1.8871305,-0.6268053,-1.4100126,0.004955311,0.08231145,-0.16721092,-0.3904499,-0.36811218,0.059896648,-3.0781984,0.625412,-0.00042789857,-0.033038534,0.016108144,0.0012050809,0.0077204444,0.00027639815,-0.00031253666,0.5030028,-1.3802999,1.9027036,-2.0911925,-1.5709037,2.478362,-0.053550664,0.030673003,-0.04247859,0.015299675,-0.006982715,-0.053203564,-0.47884035,-0.019153614,-9.385271,0.8247004,47.679718,-0.88388574,-2.4519114,-3.2310696,-0.101685345,-0.10987555,-0.32643503,28.4375,29.75,28.8125,32.625,35.0625,36.125
0.07802088,-1.4545257,-0.46606052,-1.5102654,0.009325375,0.090595275,-0.16888906,-0.39053464,-0.36808398,0.059901614,-3.07821,0.62547314,-0.00041000973,-0.03519868,0.017989682,0.0014606715,0.010055657,0.0018419306,-0.0027778912,0.50286984,-1.3802277,1.9026068,-2.091192,-1.5708932,2.4782658,-0.05697164,0.031355858,-0.04400695,0.015908642,-0.00978493,-0.05415314,-0.49799395,-0.019153614,-9.346964,0.78217715,47.678825,-0.79128385,-2.4756122,-3.2274568,-0.11355995,-0.072221145,-0.30672562,28.4375,29.75,28.8125,32.625,35.0625,36.125
0.080020435,-1.7534587,-0.6282574,-1.5528203,0.017873652,0.079986155,-0.15953487,-0.39060223,-0.36803946,0.059881654,-3.0781658,0.62538564,-0.0004054264,-0.035391714,0.018469958,0.0010862866,0.01256148,0.0019083647,-0.00020378441,0.50276226,-1.3801312,1.9025353,-2.0911796,-1.5709418,2.4781094,-0.0565618,0.032472648,-0.044625968,0.016564071,-0.012016065,-0.05631219,-0.49799395,-0.095768064,-9.442732,0.7732232,47.68599,-0.788054,-2.4634476,-3.238675,-0.13179009,-0.04595917,-0.31927702,28.4375,29.75,28.8125,32.625,35.0625,36.125
0.08202057,-2.0921247,-0.3918824,-1.3665049,0.011296547,0.07509656,-0.15711781,-0.39068505,-0.36802146,0.05991605,-3.078201,0.62536883,-0.00034814965,-0.03557777,0.018452417,0.0008292234,0.01345154,0.0019043066,0.0043916903,0.50265485,-1.3800949,1.9024032,-2.091132,-1.5709418,2.477987,-0.056210265,0.033519253,-0.045290936,0.01661533,-0.01279529,-0.06055474,-0.45968673,-0.17238252,-9.500193,0.7463667,47.684196,-1.0007935,-2.4852817,-3.310838,-0.15392885,-0.025939852,-0.27987465,28.4375,29.75,28.8125,32.625,35.0625,36.125
0.08402035,-1.8706383,-0.46311244,-1.4983635,0.008655042,0.07028809,-0.16041324,-0.39074516,-0.36797264,0.05990514,-3.0781353,0.6253549,-0.0003581641,-0.03708811,0.018259667,0.00096333335,0.010838737,0.001770394,0.005790127,0.50254613,-1.380022,1.9023312,-2.0910842,-1.570989,2.477878,-0.05874689,0.035022125,-0.04720884,0.015875245,-0.010452523,-0.06449282,-0.4405331,-0.11492168,-9.442732,0.73741806,47.699425,-0.9175321,-2.4903316,-3.2548625,-0.14516813,-0.03252545,-0.23195563,28.4375,29.75,28.8125,32.625,35.0625,36.125
0.08602085,-1.4525973,-0.49773216,-1.5975436,-0.008329811,0.063138984,-0.16665871,-0.39083055,-0.36794096,0.059908703,-3.0781748,0.6253413,-0.00038236578,-0.037777763,0.017206658,0.0015457862,0.00713314,0.0013274337,0.008150734,0.50239015,-1.3799499,1.9022349,-2.0910718,-1.5709518,2.4777086,-0.05975955,0.035608474,-0.049239956,0.015911162,-0.0069974624,-0.06787223,-0.36391866,-0.095768064,-9.404425,0.7530795,47.684196,-0.9373411,-2.5699325,-3.157836,-0.15248613,-0.0746647,-0.19919138,28.4375,29.75,28.8125,32.625,35.0625,36.125
0.08802166,-0.5964382,-0.8494606,-1.503629,-0.011790396,0.061008025,-0.16231972,-0.39091712,-0.36790872,0.059926245,-3.0781758,0.62532157,-0.00033047027,-0.03683959,0.017558036,0.0004264813,0.0072583086,-0.0018749102,0.010127644,0.50227016,-1.3798897,1.9021157,-2.091036,-1.5709757,2.4775763,-0.060364004,0.036344472,-0.04769682,0.016490696,-0.0055607916,-0.07045718,-0.4213795,0.0,-9.442732,0.78217715,47.705692,-1.0072427,-2.4987268,-3.2548766,-0.1466925,-0.08994802,-0.14301978,28.4375,29.75,28.8125,32.625,35.0625,36.125
0.090020515,-1.2814332,-1.0141373,-1.4120718,-0.013987213,0.041187655,-0.15658504,-0.39097863,-0.3678794,0.059922934,-3.0781527,0.6252581,-0.00030943126,-0.03790994,0.0175068,0.0003535683,0.0068769916,-0.0018522771,0.010980395,0.5021859,-1.379817,1.9020318,-2.0910122,-1.5710114,2.4774554,-0.06146434,0.03808045,-0.0495712,0.016420964,-0.0052440367,-0.072409794,-0.22984336,0.019153614,-9.346964,0.7553206,47.684196,-0.94548494,-2.4702415,-3.3347898,-0.17197567,-0.07943049,-0.1209016,28.4375,29.75,28.8125,32.625,35.0625,36.125
0.09202089,-0.20149435,-0.37336743,-1.4764175,-0.01676989,0.065950185,-0.17174855,-0.3910814,-0.3678293,0.059919845,-3.0781188,0.62534595,-0.00033950177,-0.03917673,0.01765361,0.0011729752,0.0067352746,-0.0001750768,0.011060462,0.502006,-1.3797086,1.9018997,-2.0909636,-1.5710114,2.4773347,-0.062445406,0.03814669,-0.05161816,0.016864508,-0.0059335493,-0.07346862,-0.22984336,0.019153614,-9.385271,0.7732232,47.67345,-1.0519443,-2.531832,-3.216298,-0.1808019,-0.10486267,-0.084929466,28.4375,29.75,28.8125,32.625,35.0625,36.125
0.09402039,-0.39210406,-0.67919904,-1.6152644,0.0056915004,0.069642685,-0.15886289,-0.39118078,-0.3677896,0.059947263,-3.0781574,0.6252578,-0.00024335449,-0.04064678,0.017638745,0.001351542,0.006828433,0.00026154766,0.0100807445,0.501862,-1.3796722,1.9017915,-2.0909517,-1.5710357,2.477131,-0.06359182,0.040203653,-0.05458908,0.017438903,-0.006226566,-0.073633626,-0.19153613,0.076614454,-9.3661175,0.6971306,47.61613,-1.0221946,-2.6117907,-3.1262412,-0.18931201,-0.08968818,-0.08465266,28.4375,29.75,28.8125,32.625,35.0625,36.125
0.09602084,-0.3387082,-0.6601076,-1.5074741,-0.0014562517,0.06779381,-0.17676768,-0.39123434,-0.367748,0.059917793,-3.0781078,0.6252288,-0.00034433106,-0.040094744,0.018353295,0.00038946103,0.008163334,-0.0017106887,0.009031676,0.5017421,-1.3795638,1.9017195,-2.090904,-1.5710357,2.4769993,-0.064134814,0.04082837,-0.053230945,0.017827496,-0.0064507863,-0.07312707,-0.05746084,0.11492168,-9.32781,0.77545905,47.652847,-1.114979,-2.5208673,-3.224557,-0.1993644,-0.09557552,-0.07138807,28.4375,29.75,28.8125,32.625,35.0625,36.125
0.09802048,-0.76299196,-1.02296,-1.6986045,-0.010456419,0.05269426,-0.15501527,-0.39129865,-0.3677145,0.059919752,-3.0780945,0.6252072,-0.00034695902,-0.040966585,0.01929294,0.00039645543,0.00921918,-0.0018578343,0.006164605,0.5016337,-1.3795036,1.9016355,-2.0908678,-1.5710481,2.4768791,-0.065984346,0.04133264,-0.054064438,0.01879536,-0.007306265,-0.072107375,-0.076614454,0.17238252,-9.3661175,0.74413085,47.70032,-1.1261088,-2.605469,-3.371716,-0.21107468,-0.09310563,-0.0813753,28.4375,29.75,28.8125,32.625,35.0625,36.125
0.10002062,-0.029077075,-1.1666125,-1.6918086,-0.02947784,0.055725418,-0.16933791,-0.3913914,-0.3676638,0.05990306,-3.0780456,0.6251598,-0.00039370297,-0.04256634,0.0198849,0.00041001444,0.010877413,-0.00012406637,0.003746054,0.50147766,-1.3793708,1.901503,-2.0908082,-1.5710729,2.4766998,-0.0670223,0.043019827,-0.05598665,0.018313287,-0.00960348,-0.0707204,0.0,0.24899697,-9.385271,0.7933669,47.668976,-1.0891459,-2.5095248,-3.2151625,-0.22775882,-0.10874639,-0.08011441,28.4375,29.75,28.8125,32.625,35.0625,36.125
0.102020234,-0.027307365,-1.5347643,-1.6406057,-0.032171965,0.04692327,-0.1576226,-0.39149144,-0.36764744,0.0599183,-3.078079,0.6251864,-0.0003228571,-0.043920305,0.020618275,0.0005815741,0.012220231,0.0012629172,0.0009605448,0.5013575,-1.3792864,1.9013709,-2.0908196,-1.5710734,2.476592,-0.06835034,0.04390206,-0.05742089,0.018300548,-0.0114464285,-0.06925898,0.0,0.24899697,-9.442732,0.7486078,47.695843,-1.1278124,-2.6295028,-3.2252698,-0.22863069,-0.03126691,-0.10936783,28.4375,29.75,28.8125,32.625,35.0625,36.125
0.10402068,-0.043644793,-1.5541587,-1.5353985,-0.028273113,0.04097016,-0.15911004,-0.39157572,-0.36760378,0.059920695,-3.0780652,0.6251274,-0.00034130577,-0.044686653,0.02138786,0.00077846897,0.0125843445,0.0012296146,-0.0024584346,0.5012132,-1.3792025,1.9012526,-2.09076,-1.5710853,2.4764128,-0.070154585,0.043916047,-0.05808076,0.019149879,-0.011750662,-0.06764315,0.038307227,0.30645782,-9.32781,0.7284641,47.691364,-1.1475174,-2.507852,-3.2188687,-0.22895354,-0.037640445,-0.13182698,28.4375,29.75,28.8125,32.625,35.0625,36.125
0.10602044,0.23920564,-0.96797085,-1.6539111,-0.03497979,0.043980286,-0.16183922,-0.39162904,-0.3675501,0.059906565,-3.077988,0.6251891,-0.00042920402,-0.045364957,0.021713868,0.00041151722,0.013388669,0.00072082476,-0.0043504853,0.5010811,-1.3791296,1.9011797,-2.090676,-1.5710977,2.476329,-0.07103383,0.045551516,-0.05927172,0.019537734,-0.012219006,-0.06662765,0.019153614,0.24899697,-9.289502,0.7083204,47.67166,-1.1504338,-2.4918265,-3.2391071,-0.24776131,-0.01787142,-0.16445369,28.4375,29.75,28.8125,32.625,35.0625,36.125
0.108020805,0.014193582,-1.0222961,-1.5699427,-0.025331663,0.043921426,-0.16190577,-0.39173853,-0.3674977,0.05990756,-3.077965,0.6252037,-0.0003816721,-0.045939703,0.021575721,-8.782544e-05,0.012072762,-0.0012466325,-0.006975999,0.500913,-1.3790329,1.90106,-2.0906637,-1.5711325,2.4761732,-0.07262637,0.047583666,-0.0606406,0.019956684,-0.0101214945,-0.0655985,-0.05746084,0.2681506,-9.385271,0.7709874,47.658226,-1.1556716,-2.7242174,-3.2327118,-0.26346466,-0.018125083,-0.19604948,28.4375,29.75,28.8125,32.625,35.0625,36.125
0.11002066,-0.24928646,-0.9605361,-1.5239576,-0.024158727,0.044643726,-0.15807725,-0.39182213,-0.36746365,0.059916385,-3.0779366,0.6252179,-0.00037059013,-0.046706133,0.02090018,0.001437083,0.008648469,0.0007014964,-0.008579517,0.500793,-1.3789496,1.9009279,-2.090604,-1.5711564,2.4760656,-0.073471904,0.045675136,-0.06178579,0.019647436,-0.00805724,-0.064844705,-0.038307227,0.19153613,-9.346964,0.8090337,47.66987,-1.1759868,-2.4732606,-3.2462678,-0.27063644,-0.049351066,-0.21354619,28.4375,29.75,28.8125,32.625,35.0625,36.125
0.112020664,-0.41372493,-0.8636033,-1.5470909,-0.03049766,0.046347808,-0.15442784,-0.39192507,-0.3674349,0.059917495,-3.0779595,0.6251825,-0.00034409712,-0.047472097,0.020728493,0.0013089364,0.007642579,0.00040434318,-0.007966686,0.50064886,-1.3788409,1.9007968,-2.0906045,-1.5711559,2.4758966,-0.07451308,0.04704142,-0.06304002,0.01930764,-0.007035829,-0.066500336,-0.095768064,0.24899697,-9.385271,0.8023209,47.701214,-1.2108054,-2.5152268,-3.2671204,-0.27752173,-0.085356355,-0.25570485,28.4375,29.75,28.8125,32.625,35.0625,36.125
0.11402031,-0.3747584,-0.985971,-1.8004147,-0.020586638,0.05062896,-0.15522867,-0.39202005,-0.3673786,0.05991162,-3.0778878,0.6252828,-0.00037901185,-0.0476595,0.020768944,0.0008464173,0.008223957,-0.0007928645,-0.0076333666,0.5004812,-1.3787323,1.9006652,-2.090532,-1.5711802,2.4758008,-0.07477797,0.048629843,-0.06403954,0.020044815,-0.0069761565,-0.06709776,-0.095768064,0.15322891,-9.3661175,0.81351066,47.66987,-1.2511756,-2.496129,-3.241475,-0.27487466,-0.08471596,-0.25292584,28.4375,29.75,28.8125,32.625,35.0625,36.125
0.11602084,-0.9188963,-0.7850644,-1.6124164,-0.018930547,0.045085862,-0.15485768,-0.39213213,-0.36737695,0.05993625,-3.077973,0.6252258,-0.00030449618,-0.04944523,0.022654036,8.361863e-06,0.009809808,-0.0025845128,-0.013196541,0.5003597,-1.3786353,1.9004968,-2.0905435,-1.5711564,2.475633,-0.07925821,0.051153764,-0.06538802,0.0212054,-0.0075026294,-0.06601347,-0.11492168,0.11492168,-9.385271,0.7150385,47.651955,-1.1369302,-2.6139894,-3.2714443,-0.30147403,-0.0766913,-0.31351566,28.4375,29.75,28.8125,32.625,35.0625,36.125
0.118020535,-0.8017045,-0.92699784,-1.6419973,-0.004874712,0.05235375,-0.15575914,-0.3922302,-0.36731046,0.059936266,-3.0779393,0.6253125,-0.0003326879,-0.04901576,0.02200983,0.0006215005,0.010832935,-0.00075911265,-0.009618586,0.5001573,-1.3785635,1.900401,-2.0904958,-1.5711569,2.475489,-0.07665237,0.050377954,-0.06591012,0.021396736,-0.009280148,-0.066981554,-0.15322891,0.0,-9.385271,0.8157518,47.707485,-1.4169161,-2.61134,-3.296242,-0.3192321,-0.061328817,-0.34009087,28.4375,29.75,28.8125,32.625,35.0625,36.125
0.12002069,-0.72049963,-0.7950497,-1.4785373,0.0013891017,0.067561895,-0.15411866,-0.39231038,-0.367274,0.059917405,-3.07788,0.6252798,-0.00039444014,-0.050969463,0.022561386,0.001954615,0.009740015,0.0023600422,-0.010236012,0.5000368,-1.3784198,1.9002575,-2.0904243,-1.5711812,2.4753556,-0.07903292,0.049291898,-0.0675399,0.020849738,-0.009828185,-0.06874228,-0.2681506,0.038307227,-9.346964,0.800085,47.698532,-1.391293,-2.456287,-3.3090703,-0.30390114,-0.06632597,-0.35353142,28.4375,29.75,28.8125,32.625,35.0625,36.125
0.12202055,-0.75167155,-0.3496142,-1.6133903,-0.0026948755,0.07352028,-0.16119622,-0.39240766,-0.36721304,0.059918903,-3.0778375,0.62537116,-0.00043971124,-0.05218677,0.023267156,0.0012177516,0.009068516,0.0004835909,-0.015960412,0.4998439,-1.378335,1.9001373,-2.0903518,-1.5711807,2.4752252,-0.08225578,0.05162746,-0.06865634,0.020949572,-0.008342789,-0.06624291,-0.28730422,-0.019153614,-9.3661175,0.76874626,47.694946,-1.1819258,-2.4722533,-3.2954645,-0.3230253,-0.057574674,-0.41264516,28.4375,29.75,28.8125,32.625,35.0625,36.125
0.12402066,-0.5548172,0.0015943407,-1.7841269,-0.004086781,0.08462085,-0.15858033,-0.39251238,-0.3671813,0.059911896,-3.0778224,0.6254029,-0.00042853274,-0.052127246,0.022647662,0.0010350851,0.0087093,0.0005334399,-0.012813525,0.4997007,-1.3782024,1.8999938,-2.0903409,-1.5711921,2.4751039,-0.081318535,0.052538622,-0.06919167,0.020353813,-0.008056203,-0.06845279,-0.4213795,0.0,-9.461885,0.84708,47.716442,-1.38011,-2.535694,-3.3317633,-0.31690842,-0.09363535,-0.45904744,28.4375,29.75,28.8125,32.625,35.0625,36.125
0.12602048,-1.1300086,-0.8145459,-1.6128546,0.0094593335,0.08244623,-0.14560403,-0.39261395,-0.3671327,0.05990677,-3.0777988,0.62535787,-0.00046000988,-0.054619502,0.022086464,0.0026570011,0.0062462017,0.0033657672,-0.0107601,0.49953237,-1.3780822,1.8998493,-2.0902808,-1.5712041,2.4749105,-0.08315087,0.053194623,-0.07370837,0.020541413,-0.007266431,-0.07233818,-0.45968673,-0.095768064,-9.3661175,0.7553206,47.66271,-1.319233,-2.497972,-3.0625036,-0.31186137,-0.087502494,-0.46815526,28.4375,29.75,28.8125,32.625,35.0625,36.125
0.1280209,-1.240467,-0.43023723,-1.6664,0.010633872,0.0811745,-0.15305153,-0.39275017,-0.36706832,0.059924185,-3.0777733,0.6254471,-0.0003572746,-0.054404274,0.02377368,0.0012338011,0.008361633,0.00071742944,-0.009776619,0.4993281,-1.3779976,1.8997067,-2.090268,-1.5712522,2.4747653,-0.08540513,0.05409897,-0.07162183,0.020883903,-0.007849303,-0.07557569,-0.47884035,0.019153614,-9.3661175,0.8291774,47.68062,-1.3416158,-2.498612,-3.291809,-0.32218134,-0.11197084,-0.4583617,28.4375,29.75,28.8125,32.625,35.0625,36.125
0.13002041,-1.3728893,-0.5490327,-2.0085847,0.01476875,0.08694193,-0.15281284,-0.3928641,-0.36701915,0.059919327,-3.0777466,0.62545645,-0.00037341507,-0.056486603,0.024102753,0.002158747,0.0074074757,0.0022253606,-0.004442859,0.4991478,-1.3778654,1.8995503,-2.0902202,-1.5712646,2.4745944,-0.08792406,0.054812897,-0.07471228,0.021472633,-0.007747289,-0.083427146,-0.45968673,0.038307227,-9.519346,0.8157518,47.685097,-1.3797832,-2.4349332,-3.2883425,-0.33856973,-0.09224507,-0.41670552,28.4375,29.75,28.8125,32.625,35.0625,36.125
0.13202062,-1.4552886,-0.5202103,-1.8899317,0.0063602286,0.10289414,-0.1574706,-0.39293924,-0.36697748,0.059916805,-3.0777264,0.62539303,-0.00040547448,-0.05749002,0.02353803,0.0020755886,0.0072394414,0.0023314382,-0.0012097772,0.4990157,-1.3777803,1.8994416,-2.0901601,-1.5712765,2.4744253,-0.087939754,0.057303928,-0.07750759,0.021599188,-0.0076622325,-0.08667434,-0.53630114,-0.038307227,-9.461885,0.8023209,47.68599,-1.3062961,-2.604512,-3.0317564,-0.33629155,-0.1183142,-0.41152668,28.4375,29.75,28.8125,32.625,35.0625,36.125
0.13402033,-1.5071725,-0.44773123,-1.7136148,-0.00028302995,0.11414519,-0.16063473,-0.39304706,-0.3669192,0.05990851,-3.07768,0.62535906,-0.00038602122,-0.057165287,0.024566399,0.001860771,0.007986821,0.0020339654,0.0046545505,0.498848,-1.3776609,1.899311,-2.0901248,-1.5713247,2.4742424,-0.089027725,0.05594974,-0.07538383,0.021440553,-0.0081801545,-0.09362633,-0.7661445,-0.019153614,-9.461885,0.7463667,47.70032,-1.4312623,-2.4124694,-3.276586,-0.34652722,-0.10984082,-0.36443424,28.4375,29.75,28.8125,32.625,35.0625,36.125
0.13602085,-2.068457,-0.79523075,-1.8297839,-0.00012480553,0.12131721,-0.1575036,-0.39318752,-0.36688113,0.05992023,-3.07768,0.62535906,-0.00038721965,-0.06043648,0.026348433,0.002766288,0.0075007444,0.0038410956,0.005059062,0.49865428,-1.3775045,1.8990825,-2.0900524,-1.5713247,2.4740489,-0.0947367,0.056499645,-0.07820489,0.021888496,-0.008628241,-0.09973762,-0.6895301,-0.05746084,-9.576807,0.8112748,47.684196,-1.1944679,-2.454487,-3.2950335,-0.3562583,-0.12231852,-0.2633894,28.4375,29.75,28.8125,32.625,35.0625,36.125
0.13802046,-1.7539203,-1.129812,-1.8717643,-0.0013499,0.119871505,-0.1514658,-0.39332387,-0.36682796,0.059930097,-3.0776985,0.62537825,-0.0003475687,-0.060590997,0.026030637,0.0013259528,0.008692228,0.0012389214,0.0094417455,0.49843907,-1.3773949,1.8989276,-2.0900404,-1.5713247,2.4738433,-0.094439566,0.060654264,-0.07995928,0.022338385,-0.008433571,-0.1038226,-0.49799395,-0.019153614,-9.576807,0.8224646,47.691364,-1.412991,-2.525173,-3.1882644,-0.36366716,-0.09893808,-0.23861682,28.4375,29.75,28.8125,32.625,35.0625,36.125
0.14002062,-1.5331143,-0.73789227,-1.9530131,-0.023234412,0.111556806,-0.15925443,-0.3934294,-0.3667757,0.05993635,-3.0777047,0.6253208,-0.0003887002,-0.06208663,0.02753173,0.0017721623,0.008353092,0.0023841688,0.009577012,0.49824607,-1.3772991,1.8987836,-2.089969,-1.5713123,2.4736137,-0.09816096,0.059656296,-0.079698816,0.021906111,-0.008689655,-0.107678704,-0.5746084,0.0,-9.672575,0.82694155,47.686886,-1.2628864,-2.5657315,-3.2548635,-0.35076147,-0.12146859,-0.17610684,28.4375,29.75,28.8125,32.625,35.0625,36.125
0.14202029,-1.3884343,-1.0097564,-1.8047713,-0.01784488,0.1100778,-0.15398505,-0.39354575,-0.36668822,0.059918158,-3.077621,0.62526613,-0.00041518125,-0.06424039,0.02867112,0.0025831866,0.007969654,0.004882981,0.0073397825,0.4980293,-1.3771672,1.8986524,-2.089897,-1.5713729,2.4733737,-0.10149673,0.059243646,-0.080883615,0.021119235,-0.009560113,-0.10877409,-0.63206923,0.038307227,-9.5385,0.7620334,47.661808,-1.180441,-2.402753,-3.2199793,-0.35325515,-0.10323994,-0.12541941,28.4375,29.75,28.8125,32.625,35.0625,36.125
0.14402327,-1.6202745,-0.77270126,-2.0162725,-0.008267938,0.08803694,-0.15070501,-0.39369383,-0.3666507,0.059923913,-3.077657,0.6252358,-0.00033273327,-0.06534544,0.029267512,0.0018581767,0.008263589,0.004296767,0.004491166,0.49783716,-1.3770224,1.8984731,-2.0899217,-1.5713848,2.4731581,-0.103502035,0.06143783,-0.081673115,0.020367408,-0.009534668,-0.107930675,-0.51714754,0.038307227,-9.653421,0.80456203,47.668976,-1.0101256,-2.4300551,-3.2538285,-0.33224565,-0.13596892,-0.1389237,28.4375,29.75,28.8125,32.625,35.0625,36.125
0.14602037,-1.068839,-0.7734117,-1.9055214,-0.00990259,0.090851285,-0.1523474,-0.39382938,-0.3665799,0.059939776,-3.0776496,0.62525606,-0.00027928952,-0.06684031,0.03059822,0.0020471057,0.0090281535,0.005463217,-0.0020875824,0.49760863,-1.3769381,1.8983291,-2.089886,-1.5714096,2.4729433,-0.10632516,0.061497547,-0.082114786,0.02009169,-0.010759243,-0.10417226,-0.68953013,-0.038307227,-9.595961,0.7150385,47.66539,-0.94622386,-2.4748673,-3.3007736,-0.32155925,-0.1024936,-0.16168728,28.4375,29.75,28.8125,32.625,35.0625,36.125
0.1480205,-1.1920755,-0.9060048,-1.7529439,-0.00725338,0.088113025,-0.14802007,-0.39395794,-0.36652172,0.059927717,-3.0776234,0.6252727,-0.00032233668,-0.069588654,0.030098597,0.0037066762,0.006757542,0.009163026,-0.008610687,0.49739242,-1.3767817,1.8981603,-2.0898383,-1.5714096,2.472741,-0.10811802,0.06217111,-0.086575,0.019543724,-0.010539584,-0.09944023,-0.7086837,0.019153614,-9.481039,0.8090337,47.66091,-0.9524226,-2.3823953,-3.1406317,-0.30786622,-0.116790354,-0.19963081,28.4375,29.75,28.8125,32.625,35.0625,36.125
0.15002023,-0.1584419,-0.1564743,-1.6986904,-0.013933529,0.119287826,-0.16417788,-0.3940933,-0.36647293,0.059929438,-3.0776048,0.62523115,-0.00031601125,-0.06916069,0.03090212,0.002591336,0.007079129,0.006584282,-0.013529152,0.4972003,-1.3766253,1.8979572,-2.0897777,-1.571433,2.4725254,-0.109638855,0.06289283,-0.08490838,0.019569986,-0.009586034,-0.09604527,-0.57460845,-0.038307227,-9.557653,0.84484416,47.64389,-0.9430522,-2.3985767,-3.3180928,-0.31150985,-0.111930534,-0.27671686,28.4375,29.75,28.8125,32.625,35.0625,36.125
0.15202081,-1.3535731,-0.37306792,-1.7145433,-0.0033186208,0.0932496,-0.15366915,-0.39423326,-0.36641672,0.059956055,-3.0776079,0.62532765,-0.0002461567,-0.07112998,0.030630277,0.003924587,0.0058197724,0.009227374,-0.015063091,0.49698448,-1.3765413,1.8977889,-2.089742,-1.5714449,2.4723694,-0.110860676,0.06324225,-0.08841169,0.019797757,-0.009740865,-0.09573184,-0.5554548,-0.05746084,-9.481039,0.83813137,47.677036,-0.94304204,-2.3366466,-3.2167466,-0.31894565,-0.11161468,-0.29969788,28.4375,29.75,28.8125,32.625,35.0625,36.125
0.15402035,-1.5203644,-0.58399,-1.8203691,0.0064728134,0.089328535,-0.15231869,-0.39439794,-0.36635348,0.059947517,-3.0775638,0.62535596,-0.00020061251,-0.071073584,0.03112256,0.003000303,0.00666864,0.0075683948,-0.014941582,0.49675667,-1.3763485,1.8975743,-2.089718,-1.571493,2.472165,-0.111627966,0.0646506,-0.08799805,0.019831171,-0.009695224,-0.0966207,-0.2681506,0.019153614,-9.32781,0.7933669,47.68062,-0.97575575,-2.4156735,-3.1659274,-0.2816381,-0.09119921,-0.30103266,28.4375,29.75,28.8125,32.625,35.0625,36.125
0.15602066,-1.3863308,-0.48410666,-1.8009595,0.013550337,0.07696836,-0.1520115,-0.39453104,-0.36630714,0.05995834,-3.0776014,0.62538207,-0.00018352871,-0.07190467,0.030683998,0.0034377775,0.005514326,0.008345486,-0.014225687,0.49654105,-1.3762401,1.8974184,-2.0897062,-1.5714682,2.471961,-0.11201909,0.06533544,-0.08978145,0.01969376,-0.009051411,-0.09772871,-0.28730422,0.019153614,-9.404425,0.76874626,47.690468,-1.069069,-2.3831744,-3.2293591,-0.26508927,-0.13532141,-0.33202812,28.4375,29.75,28.8125,32.625,35.0625,36.125
0.15802033,-1.2976189,-0.5208596,-1.9372321,0.0075409594,0.056174763,-0.15325285,-0.3946882,-0.366253,0.059981566,-3.0776145,0.6254222,-0.000113936345,-0.072251454,0.030633701,0.0035039156,0.0063566538,0.0089591695,-0.014067249,0.49631375,-1.3761199,1.8972148,-2.0896704,-1.5714811,2.4717572,-0.11157482,0.06603945,-0.09081644,0.019886976,-0.0100802155,-0.09744053,-0.17238252,-0.038307227,-9.442732,0.80679786,47.67166,-1.0898638,-2.2724721,-3.213708,-0.2724303,-0.1254539,-0.35854274,28.4375,29.75,28.8125,32.625,35.0625,36.125
0.16002086,-0.61443055,-0.44475162,-1.8244544,2.899594e-05,0.05222676,-0.15580028,-0.39483088,-0.3661718,0.05996467,-3.0775585,0.62548566,-0.00013489283,-0.0733924,0.031877197,0.0030532354,0.007969139,0.008649117,-0.013943952,0.49606135,-1.3759633,1.8970593,-2.0896342,-1.5715054,2.4715517,-0.11388637,0.06744234,-0.0915475,0.020253217,-0.011355823,-0.09987168,-0.19153613,0.038307227,-9.270349,0.8403672,47.687782,-0.9900631,-2.3352246,-3.2165513,-0.2212683,-0.11864503,-0.3526265,28.4375,29.75,28.8125,32.625,35.0625,36.125
0.1620205,0.03263597,-0.4867087,-1.8313609,-0.011040673,0.05901165,-0.16105305,-0.3949729,-0.36608732,0.05996334,-3.077482,0.62550753,-9.218746e-05,-0.07407792,0.031979527,0.0035682619,0.0072775255,0.009255427,-0.015349286,0.4958337,-1.375831,1.896892,-2.0895746,-1.5715774,2.4713476,-0.11485012,0.06725379,-0.09258259,0.020604042,-0.011038599,-0.09943022,-0.11492168,0.038307227,-9.385271,0.83365434,47.71286,-1.2260637,-2.2374032,-3.2217138,-0.2378444,-0.0991605,-0.40491375,28.4375,29.75,28.8125,32.625,35.0625,36.125
0.16402066,-0.59186906,-1.4344319,-1.867945,0.0014650638,0.04451289,-0.1475035,-0.39514115,-0.36603162,0.05999782,-3.0774994,0.6256034,4.8117395e-06,-0.075049676,0.032947637,0.0028232455,0.008880366,0.007965266,-0.010338093,0.49559358,-1.375722,1.896676,-2.0895383,-1.5715898,2.4711652,-0.116834395,0.06957237,-0.09382952,0.021422517,-0.011832848,-0.106423944,-0.095768064,0.076614454,-9.289502,0.8023209,47.73256,-0.9142599,-2.3340492,-3.3111346,-0.22967105,-0.10311079,-0.37829107,28.4375,29.75,28.8125,32.625,35.0625,36.125
0.16602047,0.019984445,-0.56051224,-1.6639895,-0.025598833,0.054518428,-0.1592019,-0.39528847,-0.36595336,0.060004655,-3.0774553,0.62565005,-1.5377789e-06,-0.07558967,0.033188127,0.0028685902,0.008330938,0.007323116,-0.0080467295,0.49534175,-1.37559,1.8964847,-2.0894544,-1.5716137,2.4709482,-0.118182816,0.07010935,-0.094726056,0.022074256,-0.011049342,-0.110064834,-0.038307227,0.095768064,-9.385271,0.7083204,47.652847,-1.0676994,-2.2771423,-3.316062,-0.20479849,-0.10003581,-0.34174162,28.4375,29.75,28.8125,32.625,35.0625,36.125
0.16802078,-0.40849915,-1.2233665,-1.8360505,-0.0161308,0.040825676,-0.14629322,-0.3954377,-0.36587596,0.05999945,-3.0774152,0.6257143,5.955973e-06,-0.07610992,0.03354402,0.0025425288,0.008777952,0.0065012416,-0.0018583937,0.49508974,-1.3754452,1.8963164,-2.0894177,-1.5716375,2.4707415,-0.119213924,0.07140277,-0.095655546,0.022633892,-0.01105932,-0.11728362,-0.019153614,0.19153613,-9.32781,0.842603,47.689575,-1.0672344,-2.3291354,-3.2475777,-0.19624965,-0.11658605,-0.29481673,28.4375,29.75,28.8125,32.625,35.0625,36.125
0.1700203,-0.2053438,-1.2460251,-1.7480096,-0.023382597,0.053901486,-0.14870973,-0.39559376,-0.36580977,0.05998804,-3.0773814,0.6256472,6.403148e-05,-0.077917725,0.034714513,0.0026393516,0.008929899,0.006439727,0.0010050053,0.49487293,-1.3752649,1.8961257,-2.0894058,-1.5716976,2.4704874,-0.12272852,0.07259321,-0.097466044,0.023364993,-0.011170821,-0.12366055,0.019153614,0.21068975,-9.308657,0.8247004,47.67345,-1.0911992,-2.3176894,-3.2664332,-0.18464121,-0.11184546,-0.21971852,28.4375,29.75,28.8125,32.625,35.0625,36.125
0.17202069,0.16207004,-0.9296912,-1.7745866,-0.029177811,0.058595516,-0.15782727,-0.39575312,-0.36573896,0.06000061,-3.077349,0.62563413,5.662221e-05,-0.07657234,0.03357406,0.0022183482,0.009330419,0.0051990994,0.009534279,0.4946229,-1.3751082,1.8958868,-2.089298,-1.5717214,2.4702334,-0.11968224,0.07337694,-0.097586036,0.023971269,-0.010940427,-0.1291437,0.076614454,0.22984336,-9.461885,0.8537928,47.666286,-1.222757,-2.2773075,-3.360042,-0.17708535,-0.106136926,-0.10911681,28.4375,29.75,28.8125,32.625,35.0625,36.125
0.17402029,-0.09988031,-1.6420509,-1.7478229,-0.018773677,0.0417898,-0.14190556,-0.39591035,-0.36570662,0.060024977,-3.077441,0.62553847,0.00015987319,-0.07934994,0.034338396,0.0032948712,0.0076601105,0.0070368294,0.008027088,0.49441746,-1.3749882,1.8956941,-2.0893219,-1.5717095,2.4699566,-0.12383566,0.07396969,-0.10079114,0.02416791,-0.0103381025,-0.13179097,0.05746084,0.22984336,-9.385271,0.8940802,47.672558,-1.0634226,-2.2740195,-3.3334222,-0.18216947,-0.11918566,-0.1116953,28.4375,29.75,28.8125,32.625,35.0625,36.125
0.17602104,-0.26267192,-1.5707369,-1.7886118,-0.023055455,0.027858764,-0.14363675,-0.3960515,-0.36561397,0.060004897,-3.0773606,0.62559927,0.00011973879,-0.077985674,0.03458906,0.00042944538,0.010092559,0.0022812043,0.005714298,0.49415454,-1.3748306,1.8955392,-2.0892622,-1.5717448,2.469742,-0.123047486,0.07800421,-0.0989554,0.023633575,-0.010226416,-0.12868968,0.038307227,0.24899697,-9.32781,0.842603,47.698532,-1.2141203,-2.3592825,-3.3269439,-0.17191288,-0.114576176,-0.105526865,28.4375,29.75,28.8125,32.625,35.0625,36.125
0.17802043,0.18130744,-0.9847417,-1.8562028,-0.03614004,0.034948517,-0.15413672,-0.3962406,-0.36553392,0.06001622,-3.0773745,0.62560296,0.00017470695,-0.08014316,0.034436937,0.003200639,0.0070151067,0.0072743916,-9.393272e-05,0.4938547,-1.3746753,1.8953236,-2.0892384,-1.5717567,2.4694428,-0.12491835,0.07495795,-0.10161764,0.02348512,-0.009883,-0.12475288,0.019153614,0.21068975,-9.308656,0.83589023,47.701214,-1.1846889,-2.3017538,-3.4208183,-0.1423403,-0.13109767,-0.118004575,28.4375,29.75,28.8125,32.625,35.0625,36.125
0.18002059,-0.036680587,-1.4173834,-1.7404968,-0.021735204,0.032954272,-0.14526735,-0.39636,-0.36549327,0.06001154,-3.0773802,0.6255493,0.00010543964,-0.079922296,0.035351057,0.00191519,0.009031722,0.0045412574,-0.0055010747,0.49366257,-1.3745188,1.895132,-2.0891664,-1.5717329,2.4692166,-0.1259259,0.07686527,-0.10120848,0.024538454,-0.010361041,-0.12035183,-0.019153614,0.22984336,-9.251195,0.83589023,47.684196,-1.220267,-2.1805797,-3.2895117,-0.10282333,-0.1178416,-0.1872135,28.4375,29.75,28.8125,32.625,35.0625,36.125
0.18202062,-0.11881899,-1.4049356,-1.8009074,-0.006535594,0.028693795,-0.13906972,-0.3965572,-0.3654228,0.060041957,-3.077388,0.6255907,0.00022282203,-0.08086306,0.035583712,0.0006880558,0.010210795,0.0014913857,-0.011094219,0.49338678,-1.3743728,1.8948811,-2.0891292,-1.5717691,2.4689658,-0.12738097,0.08141681,-0.10421929,0.026238045,-0.009946652,-0.11621362,0.0,0.21068975,-9.270349,0.82022345,47.672558,-1.2241781,-2.3933742,-3.3809524,-0.10690432,-0.13741562,-0.25322205,28.4375,29.75,28.8125,32.625,35.0625,36.125
0.18402052,-0.2052223,-0.5636639,-1.437749,-0.018151866,0.03841715,-0.14178339,-0.39670792,-0.36536017,0.060039878,-3.0773401,0.6256203,0.00020276033,-0.081798814,0.035447408,0.0022575124,0.00839309,0.0032072894,-0.014331438,0.4931589,-1.3741934,1.8946537,-2.0890453,-1.571793,2.4687626,-0.12844709,0.079751074,-0.10608399,0.027391044,-0.00916262,-0.11404356,-0.076614454,0.19153613,-9.251195,0.83589023,47.66987,-1.2681944,-2.167581,-3.279066,-0.10220527,-0.13282506,-0.29331255,28.4375,29.75,28.8125,32.625,35.0625,36.125
0.1860205,-0.57449204,-0.89461976,-1.7403582,0.00017868396,0.045325574,-0.1440758,-0.3968769,-0.3652847,0.06004278,-3.077326,0.62573296,0.00018866897,-0.08258535,0.036238454,0.0010191875,0.0096403975,0.0008246174,-0.017601525,0.49287072,-1.3740361,1.8944491,-2.0889971,-1.571781,2.4685466,-0.1304642,0.08297107,-0.107249394,0.028025774,-0.009134689,-0.11278975,-0.17238252,0.21068975,-9.308657,0.800085,47.66091,-1.2403038,-2.2829921,-3.267632,-0.09546201,-0.14249314,-0.3526277,28.4375,29.75,28.8125,32.625,35.0625,36.125
0.18802062,-1.619192,-0.91013014,-1.8560256,0.003446011,0.04179462,-0.15223633,-0.3970268,-0.36522314,0.06005027,-3.0773244,0.62573385,0.0001847847,-0.08335653,0.036915913,0.0006786956,0.010265182,-0.00030898582,-0.02113766,0.49263072,-1.3738914,1.8942465,-2.0889366,-1.571781,2.4683075,-0.13225394,0.08442705,-0.108451515,0.029066043,-0.009149169,-0.11104272,-0.17238252,0.15322891,-9.32781,0.8493211,47.678825,-1.1819363,-2.4173412,-3.2894068,-0.07217203,-0.14128286,-0.39770502,28.4375,29.75,28.8125,32.625,35.0625,36.125
0.1900206,-0.91153663,-0.68912435,-1.519875,-0.020554056,0.08415199,-0.15068968,-0.39719477,-0.3651509,0.060053006,-3.0773025,0.6257102,0.00022066821,-0.08586144,0.036794383,0.0023808023,0.0081752185,0.0021214613,-0.023803156,0.49237835,-1.3737231,1.8940295,-2.088889,-1.5718163,2.4680433,-0.13470182,0.08473037,-0.11293101,0.030104104,-0.008464757,-0.11082494,-0.28730422,0.15322891,-9.270349,0.80456203,47.677036,-1.1740571,-2.3137908,-3.1983712,-0.08061066,-0.16756576,-0.45740288,28.4375,29.75,28.8125,32.625,35.0625,36.125
0.19202064,-1.4400859,-0.8744283,-1.4867761,-0.016991444,0.090976946,-0.1475877,-0.39735815,-0.3650777,0.06002614,-3.0772388,0.6257716,0.00015373724,-0.08489595,0.039472952,-0.0011960375,0.012528123,-0.0050622695,-0.024470376,0.49211413,-1.3734934,1.893804,-2.0888283,-1.5718282,2.4678257,-0.13801326,0.0884931,-0.10957344,0.031367015,-0.008906419,-0.11346849,-0.47884032,0.038307227,-9.289502,0.83589023,47.670765,-1.2300489,-2.4389505,-3.3390653,-0.08734161,-0.16361436,-0.49201682,28.4375,29.75,28.8125,32.625,35.0625,36.125
0.19402021,-1.2425401,-0.3013483,-1.3310882,-0.027387315,0.10593197,-0.16089073,-0.3974912,-0.364996,0.06000186,-3.0771716,0.62582916,8.129913e-05,-0.08613342,0.03714533,0.0020204503,0.009943536,0.0007493904,-0.015277285,0.49186373,-1.3733261,1.8936466,-2.0887682,-1.5718411,2.46762,-0.13487397,0.08652402,-0.114737004,0.032147683,-0.009398169,-0.11951892,-0.5746084,0.05746084,-9.289502,0.8806493,47.677036,-1.2665718,-2.2960114,-3.146165,-0.07788768,-0.16570702,-0.49992788,28.4375,29.75,28.8125,32.625,35.0625,36.125
0.19602132,-1.8176482,-0.48227334,-1.4624422,-0.007926622,0.109989755,-0.15721665,-0.39768317,-0.3649308,0.06002028,-3.0771928,0.6258298,0.0001475113,-0.086846605,0.038582493,0.0005867416,0.010991895,-0.0018301837,-0.010321643,0.49158695,-1.3731573,1.8933958,-2.0887325,-1.5718526,2.467341,-0.13806437,0.08889368,-0.114294805,0.03209058,-0.009106246,-0.12766589,-0.49799395,-0.019153614,-9.308656,0.784413,47.67166,-1.1247821,-2.2663505,-3.290399,-0.061478578,-0.1846708,-0.4130151,28.4375,29.75,28.8125,32.625,35.0625,36.125
0.19802046,-1.423861,-0.42134723,-1.3508568,0.010369413,0.11806901,-0.1531211,-0.39787424,-0.36484906,0.06003839,-3.0771713,0.6259313,0.00014438647,-0.08756435,0.03809249,0.0010345851,0.010771315,-0.0011508241,0.0014271988,0.49127614,-1.3729886,1.8931321,-2.0886357,-1.5718526,2.4670963,-0.1377451,0.08992705,-0.11670394,0.032748055,-0.009247757,-0.13909411,-0.63206923,-0.05746084,-9.308656,0.8247004,47.6636,-1.3452582,-2.4551563,-3.2425613,-0.05518806,-0.19507188,-0.31422532,28.4375,29.75,28.8125,32.625,35.0625,36.125
0.20002066,-1.1713257,-0.26464835,-1.3249003,0.020615613,0.124899246,-0.15073669,-0.39804718,-0.36476463,0.06003082,-3.0771298,0.62588173,0.00013663739,-0.089443505,0.038782272,0.0013385052,0.01082706,8.656777e-05,0.005507168,0.4909998,-1.3727959,1.8929042,-2.0885646,-1.5718888,2.4667945,-0.14015381,0.09114609,-0.11881912,0.032566544,-0.009897643,-0.14557996,-0.7469909,-0.05746084,-9.193734,0.8537928,47.678825,-1.303041,-2.3228724,-3.1596115,-0.050989956,-0.19434929,-0.24667908,28.4375,29.75,28.8125,32.625,35.0625,36.125
0.2020203,-1.4499428,-0.15803365,-1.6530961,0.029971153,0.10799363,-0.14766845,-0.3982227,-0.3646742,0.060024705,-3.077094,0.62583464,0.00014001112,-0.091109425,0.039941154,0.0006394903,0.0109779965,-0.0014688134,0.0064979745,0.49071115,-1.3726149,1.8926891,-2.088504,-1.571925,2.4664812,-0.14392379,0.09377699,-0.12047785,0.03302141,-0.009309869,-0.1503409,-0.7086837,-0.1340753,-9.212888,0.83589023,47.674347,-1.3045602,-2.4406683,-3.0845938,-0.05948924,-0.18832983,-0.1649557,28.4375,29.75,28.8125,32.625,35.0625,36.125
0.20402053,-1.2643021,-0.13077621,-1.6660084,0.029012265,0.10116356,-0.13735187,-0.39839336,-0.3646052,0.06002034,-3.077067,0.6258071,0.00010819685,-0.09107472,0.039391894,0.001193199,0.011516611,-0.0005032381,0.008577791,0.49044818,-1.3724108,1.8924373,-2.0884206,-1.5719374,2.4662046,-0.14233322,0.09373766,-0.12190184,0.033885356,-0.01024843,-0.15082714,-0.6703765,-0.1340753,-9.385271,0.83365434,47.670765,-1.4010334,-2.3930924,-3.1135411,-0.03805373,-0.22623502,-0.14790472,28.4375,29.75,28.8125,32.625,35.0625,36.125
0.20602053,-1.3548911,-0.4018274,-1.650525,0.011477192,0.1026298,-0.14160042,-0.3986217,-0.36450762,0.060050245,-3.0770717,0.62586945,0.00022777193,-0.092758924,0.041011333,0.00049747684,0.013805688,-0.0011467964,-0.00038110948,0.4901,-1.3722537,1.8921741,-2.0883844,-1.5719737,2.465895,-0.1454547,0.09625858,-0.1234936,0.03460628,-0.011953439,-0.14498553,-0.842759,-0.095768064,-9.3661175,0.84708,47.65106,-1.1316452,-2.5437918,-3.0731566,-0.026680607,-0.20662862,-0.16399065,28.4375,29.75,28.8125,32.625,35.0625,36.125
0.20802073,-1.8506509,-0.8371729,-1.7530242,0.0043002144,0.10676053,-0.13476956,-0.3987836,-0.36441743,0.06002006,-3.0769944,0.6258744,0.00017270952,-0.09275608,0.04170329,-0.00019032069,0.014655519,-0.0035187395,-0.0059356443,0.48982412,-1.3720372,1.8919715,-2.0883238,-1.5720094,2.4656322,-0.14678998,0.097492896,-0.12376255,0.036129575,-0.011593367,-0.14076613,-0.78529817,-0.076614454,-9.289502,0.8493211,47.694946,-1.2144964,-2.452146,-3.0408692,-0.01933222,-0.19633093,-0.21505606,28.4375,29.75,28.8125,32.625,35.0625,36.125
0.2100203,-1.3565463,-0.55935115,-1.7912772,0.0008843967,0.12416384,-0.14579925,-0.39896226,-0.36435094,0.06001291,-3.076955,0.625925,5.9692204e-05,-0.09245837,0.042544898,-0.00040335348,0.016078588,-0.0054904623,-0.010614903,0.48953637,-1.3717971,1.891672,-2.0881913,-1.5719861,2.4653811,-0.14767326,0.097515434,-0.12389668,0.038656622,-0.011925939,-0.13696869,-0.7469909,-0.076614454,-9.500193,0.8806493,47.666286,-1.3401465,-2.4858317,-3.1446936,-0.04541329,-0.2100988,-0.2809568,28.4375,29.75,28.8125,32.625,35.0625,36.125
0.2120207,-1.2390882,-0.6214858,-1.7314131,-0.009718435,0.13238144,-0.14735506,-0.39917362,-0.36426872,0.060036846,-3.0769522,0.6259425,0.00017670609,-0.09384184,0.04212858,0.00036722183,0.015701745,-0.0047003133,-0.011642845,0.48923686,-1.3716283,1.8914083,-2.0881546,-1.5720338,2.4650931,-0.14813122,0.09902826,-0.12780678,0.040170293,-0.011964831,-0.1363977,-0.7661445,0.0,-9.481039,0.90750587,47.707485,-1.2878861,-2.4875493,-3.0750656,-0.07461466,-0.2040099,-0.33219224,28.4375,29.75,28.8125,32.625,35.0625,36.125
0.21402031,-1.551506,-1.2631224,-1.842745,0.0041294713,0.10899153,-0.14441082,-0.3993621,-0.364164,0.06002898,-3.0768678,0.62602085,0.00013688848,-0.09267953,0.043466713,-0.001234969,0.017196076,-0.007754773,-0.013232689,0.4889131,-1.3714241,1.8911589,-2.0880473,-1.57207,2.4648292,-0.14934495,0.099098444,-0.12420001,0.03988322,-0.011854115,-0.13602254,-0.61291564,0.095768064,-9.481039,0.9097417,47.72719,-1.2955244,-2.4673605,-3.2526417,-0.05315622,-0.22099935,-0.35371712,28.4375,29.75,28.8125,32.625,35.0625,36.125
0.21602081,-0.6981713,-0.75779873,-1.8676105,0.00197615,0.10226043,-0.14820312,-0.39953798,-0.3640759,0.060014807,-3.076825,0.6260296,8.805691e-05,-0.093522854,0.04363716,-0.0009731339,0.017837148,-0.007819094,-0.012984343,0.48861375,-1.3712194,1.890931,-2.0879748,-1.5720819,2.464541,-0.14999557,0.10026939,-0.12655513,0.04142087,-0.012403648,-0.1369186,-0.40222588,0.0,-9.442732,0.81351066,47.690468,-1.3723786,-2.5261106,-3.1121488,-0.06828088,-0.20983359,-0.3818776,28.4375,29.75,28.8125,32.625,35.0625,36.125
0.2180204,-0.23405056,-0.30611596,-1.8395551,-0.0029062252,0.08664002,-0.14486,-0.3997433,-0.3639854,0.060021814,-3.07678,0.62601715,0.00014598001,-0.09442198,0.044380035,-0.00054582034,0.018492425,-0.007764329,-0.010293241,0.48831376,-1.3710154,1.8906559,-2.0879028,-1.572142,2.4642391,-0.15161143,0.10043023,-0.12810427,0.043052547,-0.013016826,-0.14122358,-0.34476504,0.019153614,-9.423578,0.81351066,47.698532,-1.3820789,-2.419775,-3.2538505,-0.074065536,-0.23874564,-0.36970592,28.4375,29.75,28.8125,32.625,35.0625,36.125
0.22002056,0.2920835,0.017248802,-1.9303659,-0.00426053,0.06802403,-0.15840963,-0.3999304,-0.3638868,0.060000293,-3.0766928,0.6261098,0.00010627877,-0.09443583,0.046313103,-0.0012958029,0.02103599,-0.010510305,-0.0057586366,0.4880019,-1.3707871,1.8904165,-2.0878298,-1.5721782,2.4639964,-0.1542157,0.10080521,-0.12744477,0.045620218,-0.013990093,-0.1483596,-0.15322891,0.038307227,-9.423578,0.87617236,47.672558,-1.4840939,-2.4302442,-3.3321834,-0.11948626,-0.21059248,-0.3140475,28.4375,29.75,28.8125,32.625,35.0625,36.125
0.22202025,-0.19361295,-0.62843275,-1.9179752,0.012815021,0.03257366,-0.14366874,-0.40013984,-0.3637876,0.060009506,-3.076691,0.6261038,0.00012786243,-0.09391579,0.046364143,-0.0022219978,0.021665085,-0.013127316,0.0030467785,0.48765406,-1.3706061,1.8901662,-2.0877697,-1.5721902,2.4636452,-0.15417467,0.102467135,-0.12757398,0.046672426,-0.013332471,-0.15712564,-0.038307227,0.0,-9.442732,0.88960326,47.685097,-1.3559085,-2.5585866,-3.4097538,-0.14497317,-0.20963705,-0.23308772,28.4375,29.75,28.8125,32.625,35.0625,36.125
0.22402066,0.5340579,-0.15429218,-2.051734,0.0025649648,0.03566067,-0.15096194,-0.4003201,-0.36370334,0.059999563,-3.0766253,0.62610537,6.4265674e-05,-0.0970561,0.047345683,-0.0008897364,0.019754209,-0.009658036,0.0069329147,0.48736534,-1.370378,1.8898901,-2.08765,-1.5722145,2.463366,-0.15860371,0.10229021,-0.13013177,0.04542683,-0.013304571,-0.16543895,0.038307227,0.076614454,-9.270349,0.9388393,47.694946,-1.0971254,-2.3880458,-3.262437,-0.14062881,-0.2240498,-0.10632607,28.4375,29.75,28.8125,32.625,35.0625,36.125
0.22602049,1.2073879,-0.5056965,-1.9769862,0.009470312,0.041485433,-0.15508032,-0.40050685,-0.3635788,0.05997462,-3.0765285,0.6260832,-1.019142e-05,-0.09674102,0.048548322,-0.002233633,0.021295637,-0.014087871,0.009050379,0.4870173,-1.370161,1.8896636,-2.0875413,-1.5722617,2.4630167,-0.16071248,0.1042501,-0.1300019,0.047951914,-0.012615454,-0.16966578,0.2681506,-0.076614454,-9.404425,0.98135734,47.686886,-1.1122069,-2.5260215,-3.5477333,-0.15713191,-0.2095297,-0.057550155,28.4375,29.75,28.8125,32.625,35.0625,36.125
0.22802068,1.1423458,-0.15615025,-1.8471994,-0.007686672,0.028202197,-0.14933145,-0.4007076,-0.36348453,0.059981503,-3.0765023,0.6260808,-2.3298608e-06,-0.09762811,0.049560163,-0.0018228758,0.022235785,-0.014443567,0.0022317013,0.48669365,-1.3699688,1.8893999,-2.0874574,-1.572286,2.4626951,-0.1627324,0.104325645,-0.13154489,0.050175432,-0.013281408,-0.16486463,0.17238252,-0.038307227,-9.442732,0.8157518,47.66271,-1.0823581,-2.3983092,-3.428382,-0.20885909,-0.23038633,-0.04483812,28.4375,29.75,28.8125,32.625,35.0625,36.125
0.23002052,0.7169403,-0.7387618,-1.9742928,-0.0030874847,0.020300781,-0.14908403,-0.4009348,-0.3633963,0.060009,-3.0764644,0.6259795,9.3445036e-05,-0.099400625,0.0497125,-0.0009170437,0.021340717,-0.013048628,-0.005780152,0.48639342,-1.3697524,1.8890523,-2.0873373,-1.5723699,2.4623368,-0.16458765,0.10500298,-0.1345922,0.050885905,-0.013144413,-0.15870738,0.05746084,0.095768064,-9.404425,0.8179876,47.655537,-1.0633612,-2.3950481,-3.3781726,-0.22237453,-0.21253334,-0.111757286,28.4375,29.75,28.8125,32.625,35.0625,36.125
0.23202065,0.67004365,-0.5859847,-1.8833598,-0.012256208,0.03499886,-0.14200737,-0.4011377,-0.36331126,0.059999745,-3.0764496,0.62603587,-3.2247153e-06,-0.09962174,0.049449503,-0.0005242514,0.020758059,-0.012638937,-0.012564551,0.48604652,-1.3695122,1.8887652,-2.0872414,-1.5723342,2.462027,-0.16446659,0.104938164,-0.1355133,0.051248703,-0.012827869,-0.15180188,0.019153614,0.17238252,-9.385271,0.86498255,47.689575,-1.2601309,-2.2739058,-3.38734,-0.2633237,-0.23472384,-0.20800653,28.4375,29.75,28.8125,32.625,35.0625,36.125
0.23402025,0.7656837,-0.58905435,-2.163246,-0.02066142,0.052660137,-0.15152438,-0.40131128,-0.36318666,0.059977114,-3.0763297,0.6261292,-7.59822e-05,-0.09991226,0.049279705,-0.00094196765,0.020658258,-0.014006893,-0.018671975,0.48571095,-1.3693196,1.8885626,-2.0871332,-1.5723819,2.4617653,-0.16482437,0.10680574,-0.13698022,0.052006755,-0.01211612,-0.1460523,0.076614454,0.24899697,-9.519346,0.83813137,47.703903,-1.249798,-2.2244773,-3.3720124,-0.28286612,-0.22342128,-0.26791376,28.4375,29.75,28.8125,32.625,35.0625,36.125
0.23602074,0.14037669,-1.561213,-2.0912611,-0.027537584,0.057783507,-0.14155549,-0.40151003,-0.36307713,0.059972674,-3.0762384,0.62618625,-0.00016975931,-0.1011757,0.049711633,-0.0004291319,0.019345619,-0.013074997,-0.022772668,0.4853633,-1.3690913,1.8882626,-2.0869663,-1.5724052,2.4614651,-0.16704714,0.10674099,-0.13801257,0.05166033,-0.011411622,-0.144175,0.095768064,0.2681506,-9.557653,0.800085,47.67793,-1.1670339,-2.3907835,-3.3573196,-0.3089177,-0.25928652,-0.3339638,28.4375,29.75,28.8125,32.625,35.0625,36.125
0.23802038,-0.3790621,-1.9618071,-2.2083585,-0.044721127,0.060391825,-0.13572173,-0.40169752,-0.3629749,0.05996549,-3.0761666,0.62625223,-0.00021966273,-0.10282794,0.050117407,-0.0004645397,0.019367281,-0.012295891,-0.028887182,0.48503906,-1.3688868,1.8880109,-2.0868585,-1.57243,2.4611914,-0.168896,0.108659044,-0.14013171,0.051183928,-0.011808414,-0.13990633,-0.038307227,0.2681506,-9.672575,0.86498255,47.688675,-1.1524203,-2.2452784,-3.319931,-0.32261953,-0.25912413,-0.43535075,28.4375,29.75,28.8125,32.625,35.0625,36.125
0.24002056,-0.01488701,-1.6283162,-2.2889118,-0.053388834,0.07526994,-0.14741963,-0.40187207,-0.36287504,0.059940036,-3.0760682,0.626346,-0.0003706096,-0.1038918,0.051134825,-0.00045412465,0.019926514,-0.01298837,-0.030513588,0.48471507,-1.3686459,1.8877486,-2.086714,-1.57243,2.4609387,-0.17137377,0.109495826,-0.14149007,0.052574407,-0.012005426,-0.14075515,-0.076614454,0.30645782,-9.730036,0.8940802,47.66987,-1.0585207,-2.4333737,-3.3742802,-0.35699093,-0.24819231,-0.496454,28.4375,29.75,28.8125,32.625,35.0625,36.125
0.24202026,-0.55367726,-2.0865476,-2.1778529,-0.06372857,0.08212052,-0.1493416,-0.40212345,-0.36279106,0.059993513,-3.0761056,0.6263275,-0.00019224096,-0.10579045,0.051499728,-0.0006578093,0.01935169,-0.010637939,-0.024207052,0.48437902,-1.3684771,1.8874124,-2.0866559,-1.5724777,2.4605865,-0.17322136,0.11116626,-0.14230992,0.04935344,-0.012605164,-0.14890796,-0.1340753,0.36391866,-9.864111,0.82694155,47.664497,-0.95602417,-2.340406,-3.3598633,-0.3568547,-0.27364376,-0.47498935,28.4375,29.75,28.8125,32.625,35.0625,36.125
0.24402058,-0.4072184,-1.8923917,-1.8865654,-0.07962127,0.11289734,-0.1526631,-0.40228847,-0.3626837,0.059936658,-3.075993,0.6263936,-0.0004096957,-0.10775106,0.05008475,0.00037212885,0.017195204,-0.0067422534,-0.012067896,0.4840438,-1.3682004,1.8871845,-2.0865366,-1.5724658,2.4603071,-0.17254399,0.11272256,-0.14601398,0.04702709,-0.012574293,-0.16036601,-0.2681506,0.34476504,-9.710882,0.85826975,47.64479,-1.0376104,-2.293247,-3.212143,-0.33938417,-0.25779742,-0.38105643,28.4375,29.75,28.8125,32.625,35.0625,36.125
0.24602044,-1.4133246,-2.1497889,-2.2222242,-0.057757404,0.11193294,-0.14296834,-0.40253022,-0.36260608,0.059987254,-3.0760126,0.6263511,-0.00030199028,-0.11000347,0.049312852,0.0015457688,0.014465308,-0.0030271336,-0.001857056,0.48372024,-1.368008,1.886813,-2.086418,-1.572502,2.4599547,-0.17356952,0.113470495,-0.14908397,0.044758543,-0.011911383,-0.17160386,-0.4405331,0.34476504,-9.768343,0.8291774,47.658226,-1.0505642,-2.3204505,-3.291923,-0.3442685,-0.30276942,-0.26150167,28.4375,29.75,28.8125,32.625,35.0625,36.125
0.24802272,-1.5281582,-1.8742148,-2.0302396,-0.046764236,0.12941104,-0.14268987,-0.4027447,-0.36252892,0.05998779,-3.076034,0.6263715,-0.0003182309,-0.110324964,0.050179314,0.0003220052,0.015121331,-0.004823527,0.0026760108,0.48338425,-1.367779,1.8865274,-2.0863698,-1.5724772,2.4596288,-0.1753801,0.11534179,-0.14841145,0.04409869,-0.011669884,-0.17794834,-0.49799395,0.36391866,-9.787497,0.842603,47.64658,-1.0500281,-2.4112144,-3.2054539,-0.33491123,-0.2968256,-0.18551788,28.4375,29.75,28.8125,32.625,35.0625,36.125
0.25002113,-1.6176201,-1.1469303,-1.7090954,-0.04342045,0.13020681,-0.14944084,-0.40297037,-0.3624217,0.059989613,-3.0760083,0.62636316,-0.00028264005,-0.11119805,0.049176548,0.00069217465,0.013528175,-0.0027384127,0.0050577726,0.4830255,-1.3675627,1.8862518,-2.0863116,-1.5725135,2.4592683,-0.1746475,0.11633572,-0.1500145,0.042106386,-0.011242256,-0.17959802,-0.59376204,0.21068975,-9.595961,0.8717007,47.675243,-1.260853,-2.3391795,-3.255258,-0.30947584,-0.32140368,-0.13540904,28.4375,29.75,28.8125,32.625,35.0625,36.125
0.25202042,-1.4370524,-1.0207164,-1.664941,-0.027989145,0.12959349,-0.14365323,-0.40321395,-0.36231872,0.060007606,-3.0759714,0.62639546,-0.00022167398,-0.113608524,0.04891332,0.0013845514,0.012232797,0.0018351998,3.1706186e-05,0.48266587,-1.3673341,1.8859166,-2.0862167,-1.5725621,2.4589338,-0.17564578,0.11744316,-0.15210667,0.038437277,-0.012225057,-0.17556608,-0.6703765,0.15322891,-9.653421,0.85155696,47.657326,-1.2740248,-2.387969,-3.2534363,-0.27895778,-0.32204056,-0.16244492,28.4375,29.75,28.8125,32.625,35.0625,36.125
0.25402078,-1.3049738,-0.696265,-1.5650682,-0.024844417,0.12519984,-0.14590368,-0.40341187,-0.36222377,0.059967577,-3.0759256,0.62638927,-0.00031297765,-0.114686936,0.04941509,0.00045249166,0.012548106,0.0021673832,-0.008811427,0.48233038,-1.367057,1.8856658,-2.0861695,-1.5725621,2.4586005,-0.17709738,0.119700216,-0.15219498,0.03613187,-0.012665395,-0.16817172,-0.7469909,0.17238252,-9.557653,0.84708,47.684196,-1.4757068,-2.3737025,-3.2519493,-0.23121579,-0.31326133,-0.24692684,28.4375,29.75,28.8125,32.625,35.0625,36.125
0.25602195,-0.97610396,-0.26090923,-1.505778,-0.02373999,0.12736681,-0.14610225,-0.40369198,-0.36213037,0.060005732,-3.07595,0.6264314,-0.00016412092,-0.115331806,0.049503416,-6.7256995e-05,0.0132132955,0.0018959527,-0.011873346,0.48194724,-1.3668281,1.8852948,-2.0861218,-1.5725983,2.4582407,-0.17743321,0.121773615,-0.15345356,0.035862025,-0.013113468,-0.16544463,-0.6512228,0.038307227,-9.461885,0.800085,47.675243,-1.3855023,-2.5889559,-3.1465812,-0.21519029,-0.33932868,-0.304879,28.4375,29.75,28.8125,32.625,35.0625,36.125
0.25802037,-0.71805114,-0.29191616,-1.6176558,-0.009648012,0.121366285,-0.15225431,-0.40391618,-0.36203313,0.06000298,-3.0759232,0.6264267,-0.0001598604,-0.11568832,0.050065283,-0.0017437874,0.014957823,-0.00047248093,-0.0139176445,0.48159966,-1.3665862,1.8849958,-2.0860503,-1.5726222,2.4578938,-0.17832895,0.12542953,-0.1539888,0.03564406,-0.013566207,-0.16429372,-0.51714754,-0.019153614,-9.481039,0.87617236,47.65464,-1.3613951,-2.571454,-3.3941221,-0.19069609,-0.33851895,-0.36075288,28.4375,29.75,28.8125,32.625,35.0625,36.125
0.26002073,-1.0649222,-0.6400155,-1.2858148,-0.011903869,0.108411394,-0.1450183,-0.4041648,-0.36195448,0.06000601,-3.0759287,0.62652194,-0.00014525079,-0.11689158,0.05012307,0.0007686732,0.012817622,0.0043082964,-0.0143296765,0.48123989,-1.3663114,1.8846496,-2.086002,-1.5726103,2.457593,-0.17919101,0.12138915,-0.15482113,0.035286024,-0.013884245,-0.16474344,-0.5363012,0.038307227,-9.442732,0.8627467,47.67166,-1.4842899,-2.4926066,-3.3091137,-0.15542151,-0.3545304,-0.3581028,28.4375,29.75,28.8125,32.625,35.0625,36.125
0.26202032,-1.2567499,-0.11394148,-1.0724808,-0.021321176,0.0998886,-0.15739825,-0.40441212,-0.36184132,0.060019277,-3.075879,0.6265653,-7.435961e-05,-0.1172281,0.050096385,-0.0008275093,0.014612917,0.0024656449,-0.007803171,0.48086816,-1.366082,1.8843263,-2.0859187,-1.5726708,2.457255,-0.1788857,0.12558413,-0.15613176,0.034841582,-0.0146368025,-0.17096134,-0.57460845,-0.11492168,-9.270349,0.8940802,47.698532,-1.5448531,-2.628626,-3.3100772,-0.11578738,-0.34307915,-0.35542753,28.4375,29.75,28.8125,32.625,35.0625,36.125
0.2640206,-0.5987763,0.5277492,-1.024141,-0.0068848147,0.10317916,-0.16512488,-0.4046272,-0.36175236,0.060019713,-3.0758767,0.6264837,-5.3687676e-05,-0.11821233,0.051153254,-0.00044544594,0.014577518,0.0025605343,-0.0014293352,0.4805431,-1.365854,1.8840393,-2.0858586,-1.5726947,2.4568794,-0.1814291,0.12520224,-0.15677133,0.0357365,-0.014664862,-0.17987846,-0.36391866,-0.21068975,-9.212888,0.86498255,47.682407,-1.4906179,-2.4626093,-3.380294,-0.10805185,-0.37449622,-0.27240995,28.4375,29.75,28.8125,32.625,35.0625,36.125
0.26602042,0.03785362,0.48900908,-1.168293,0.030700747,0.085425146,-0.15947315,-0.40491563,-0.36164588,0.06005807,-3.0758796,0.62653685,0.00011867589,-0.11997464,0.052026402,0.00013524559,0.014441796,0.0033218057,0.00610292,0.48014647,-1.3656255,1.8836678,-2.08581,-1.5727547,2.4565158,-0.18419342,0.12583034,-0.15906894,0.03663182,-0.014899771,-0.19017489,-0.05746084,-0.24899697,-9.174581,0.8873621,47.67166,-1.4270375,-2.5485244,-3.3399975,-0.080921754,-0.3515622,-0.18344924,28.4375,29.75,28.8125,32.625,35.0625,36.125
0.26802063,-0.1540593,0.30673498,-0.89345276,0.051959574,0.041455723,-0.14628279,-0.40513098,-0.36151648,0.060012557,-3.0757995,0.62651896,4.7214275e-05,-0.12151926,0.053624853,-4.4694356e-05,0.015378879,0.0027574128,0.0074368194,0.47976112,-1.3653488,1.8834294,-2.0857618,-1.572791,2.4561298,-0.18778822,0.12697786,-0.16028637,0.03761461,-0.015496847,-0.19510001,-0.076614454,-0.24899697,-9.021352,0.83365434,47.647476,-1.3242283,-2.3730745,-3.350751,-0.045309514,-0.37371486,-0.073138446,28.4375,29.75,28.8125,32.625,35.0625,36.125
0.27002043,0.7290266,0.741008,-0.5761482,0.049919847,0.03392011,-0.16073872,-0.4053954,-0.36143216,0.060027555,-3.0758176,0.6265241,0.00013998392,-0.12247767,0.054226197,-0.0006557812,0.016395316,0.0015123277,0.0041824095,0.47940102,-1.3650839,1.8830703,-2.085726,-1.5728148,2.4557707,-0.18934038,0.12948869,-0.16213664,0.038522452,-0.015813919,-0.19339673,-0.24899697,-0.21068975,-8.90643,0.8717007,47.668976,-1.3114923,-2.464047,-3.3954525,-0.018138204,-0.36299133,-0.06099088,28.4375,29.75,28.8125,32.625,35.0625,36.125
0.27202076,0.6938104,0.95638555,-1.0744123,0.05371032,0.020822603,-0.15275177,-0.40564623,-0.3613241,0.060046736,-3.075798,0.62650514,0.0002140924,-0.122461446,0.054822493,0.0005996134,0.01671238,0.0027925274,-0.0021280516,0.47902843,-1.3648565,1.8827356,-2.0856416,-1.5728635,2.455389,-0.18969753,0.12674187,-0.16211893,0.040262487,-0.016669873,-0.18744181,-0.17238252,-0.15322891,-9.021352,0.88960326,47.67793,-1.3329499,-2.4822745,-3.3747625,0.0042156265,-0.3669598,-0.11463471,28.4375,29.75,28.8125,32.625,35.0625,36.125
0.2740203,0.682748,0.7269101,-1.1384813,0.041997824,0.030687453,-0.16242291,-0.40590513,-0.36119017,0.060023196,-3.0756888,0.6266033,0.00022146189,-0.12355717,0.055543758,-0.00013412727,0.01752669,-5.7958452e-05,-0.014019861,0.47861978,-1.364555,1.8824118,-2.0855687,-1.5729355,2.455056,-0.19213499,0.13007882,-0.16504382,0.042754352,-0.016076889,-0.17798708,-0.11492168,-0.17238252,-9.078813,0.8717007,47.678825,-1.3108747,-2.4584365,-3.2834044,0.0014321245,-0.36209017,-0.21416405,28.4375,29.75,28.8125,32.625,35.0625,36.125
0.27602074,-0.1417516,-0.21813563,-1.1866658,0.018582042,0.03070404,-0.1565367,-0.4061142,-0.36106476,0.060009714,-3.075595,0.6266261,0.00013849093,-0.12515144,0.05593997,0.0026074152,0.0163552,0.0032068545,-0.021585567,0.4782471,-1.364316,1.8821238,-2.0854242,-1.5729712,2.4547098,-0.19381994,0.12699331,-0.16825208,0.045613308,-0.016549725,-0.17210287,-0.21068975,-0.11492168,-9.155427,1.0104496,47.668976,-1.1594976,-2.2335694,-3.1895018,-0.019501118,-0.38328195,-0.3064529,28.4375,29.75,28.8125,32.625,35.0625,36.125
0.2780206,-0.35821697,-0.35388443,-1.1072873,-0.013838078,0.05601431,-0.15879428,-0.40638378,-0.36095247,0.060032044,-3.075576,0.6267607,0.00012206663,-0.12656786,0.056323484,0.0030919672,0.0160513,0.0026934834,-0.028338447,0.47781432,-1.3640633,1.8817405,-2.0852916,-1.5729593,2.4543636,-0.19590333,0.12840292,-0.17157386,0.047845375,-0.01604027,-0.16743371,-0.3256114,0.038307227,-9.155427,0.9254084,47.701214,-1.0948287,-2.1634073,-3.182915,-0.030812498,-0.3857922,-0.4021232,28.4375,29.75,28.8125,32.625,35.0625,36.125
0.2800208,-0.7809037,-1.1740806,-1.3764294,-0.0074625527,0.08104142,-0.15488338,-0.4066242,-0.36083877,0.06004416,-3.075508,0.62682366,0.0001334473,-0.12561779,0.05831749,0.0017199162,0.018811217,-0.0013206637,-0.030496467,0.47744158,-1.3638229,1.8813952,-2.085159,-1.573007,2.454039,-0.1979531,0.12857576,-0.1692004,0.05012134,-0.016642788,-0.16732419,-0.4213795,0.17238252,-9.251195,0.8985519,47.70838,-1.0139756,-2.2169435,-3.3577566,-0.03868985,-0.38633794,-0.46062994,28.4375,29.75,28.8125,32.625,35.0625,36.125
0.28202024,-0.90970516,-1.0428053,-1.5889828,-0.026461521,0.11025584,-0.1658748,-0.40685531,-0.36069605,0.060024977,-3.0754018,0.6269313,6.0889484e-05,-0.126251,0.059180465,0.0009108486,0.020210482,-0.0035810354,-0.024058793,0.47702128,-1.36357,1.8811086,-2.0850384,-1.5730432,2.4536998,-0.19971536,0.13101947,-0.17069413,0.051790975,-0.016880944,-0.1755212,-0.36391866,0.15322891,-9.385271,0.842603,47.645687,-1.085454,-2.2026353,-3.2781157,-0.05442077,-0.3778867,-0.46962076,28.4375,29.75,28.8125,32.625,35.0625,36.125
0.28402063,-1.589317,-1.6033996,-1.8662813,-0.032577276,0.10956975,-0.16506666,-0.4070981,-0.36059818,0.060025632,-3.0753906,0.62692195,2.774621e-06,-0.1276156,0.059082504,0.0018589143,0.01854308,-0.0020604087,-0.013720737,0.47663686,-1.3632935,1.8807491,-2.0849192,-1.5730313,2.4533112,-0.20109501,0.13100936,-0.17288189,0.051838905,-0.016134528,-0.18724011,-0.28730422,0.19153613,-9.557653,0.8157518,47.693153,-1.0578511,-2.2131658,-3.310411,-0.052912124,-0.40462327,-0.36814708,28.4375,29.75,28.8125,32.625,35.0625,36.125
0.28602034,-1.6180434,-1.6452227,-1.8951211,-0.044946272,0.11170714,-0.15667206,-0.40736133,-0.36046526,0.060024556,-3.0753236,0.6269593,-2.4332363e-05,-0.12778749,0.058917858,0.0010400681,0.019282833,-0.0030950243,-0.0016536114,0.47620508,-1.3630165,1.88039,-2.084788,-1.5730671,2.4529116,-0.20071903,0.13340904,-0.1738898,0.05166594,-0.016356166,-0.1989291,-0.4213795,0.21068975,-9.595961,0.842603,47.67345,-1.1495385,-2.1914153,-3.3168688,-0.061248727,-0.41196728,-0.24047074,28.4375,29.75,28.8125,32.625,35.0625,36.125
0.28802052,-1.4295614,-1.7642714,-2.0749717,-0.04352472,0.111097336,-0.16181742,-0.40763086,-0.3603557,0.06003059,-3.0752964,0.62692904,5.9096106e-05,-0.1268617,0.05784315,0.0006273802,0.019954802,-0.004155464,0.0063421316,0.47582233,-1.3627398,1.880031,-2.0847275,-1.5731272,2.4525137,-0.19791475,0.13480118,-0.17482574,0.05243036,-0.016477823,-0.20412011,-0.47884035,0.19153613,-9.730036,0.90527004,47.709274,-1.3432426,-2.1902843,-3.36055,-0.049093407,-0.41486883,-0.15767351,28.4375,29.75,28.8125,32.625,35.0625,36.125
0.29002047,-1.3730699,-1.6424158,-2.105737,-0.048459385,0.117511764,-0.16502361,-0.40787098,-0.3602201,0.060028445,-3.075225,0.6268567,1.304293e-05,-0.12681594,0.057737995,-0.00080631097,0.022428842,-0.0061400966,0.004796206,0.4754146,-1.362486,1.8796967,-2.084572,-1.5731758,2.4520702,-0.19679378,0.138648,-0.17633115,0.052980915,-0.017786426,-0.20144647,-0.45968673,0.21068975,-9.730036,0.9545008,47.686886,-1.4639106,-2.3449037,-3.3847136,-0.050520282,-0.4124154,-0.129472,28.4375,29.75,28.8125,32.625,35.0625,36.125
0.29202068,-0.96065253,-1.3058423,-2.1609051,-0.03559676,0.108164795,-0.16439268,-0.40812182,-0.36009556,0.060021557,-3.0751889,0.62695056,7.1033305e-06,-0.12766252,0.058953058,0.0001398818,0.02236307,-0.004855091,-0.004081717,0.47499382,-1.3622347,1.8793973,-2.0845115,-1.5731877,2.4517128,-0.19914232,0.13666251,-0.17631163,0.05378252,-0.018310001,-0.19491549,-0.36391866,0.21068975,-9.730036,0.8918391,47.694946,-1.5051682,-2.2671778,-3.389041,-0.050433796,-0.40514517,-0.23751907,28.4375,29.75,28.8125,32.625,35.0625,36.125
0.2940203,-0.6506546,-1.3646431,-2.0492747,-0.028164094,0.09170676,-0.16748403,-0.40840757,-0.3600155,0.06005043,-3.0752094,0.62692,0.00012296348,-0.12835234,0.061025362,-0.0017801248,0.025022496,-0.008842091,-0.012215277,0.4746329,-1.3619452,1.8789681,-2.084439,-1.5732244,2.4513304,-0.20278561,0.1400691,-0.17639212,0.055217844,-0.018833786,-0.19042425,-0.24899697,0.24899697,-9.691729,0.9545008,47.668976,-1.470186,-2.4614582,-3.5013409,-0.07029538,-0.39633924,-0.28819275,28.4375,29.75,28.8125,32.625,35.0625,36.125
0.29602063,-0.50579286,-1.2854488,-1.8981838,-0.015380617,0.06871828,-0.15585764,-0.40866283,-0.35986084,0.060025256,-3.075074,0.6270106,4.7108468e-05,-0.1294548,0.0622935,-0.0027260717,0.027501956,-0.010622225,-0.01842937,0.47418788,-1.3616438,1.8786315,-2.084295,-1.573285,2.4509597,-0.20490032,0.14314467,-0.17831871,0.05678087,-0.020248437,-0.18631692,-0.19153613,0.1340753,-9.634268,0.87393653,47.657326,-1.3688844,-2.4313915,-3.378879,-0.094159506,-0.3958677,-0.3556058,28.4375,29.75,28.8125,32.625,35.0625,36.125
0.29802024,-0.1904315,-1.2997195,-2.2292402,0.014184329,0.04107801,-0.15966703,-0.40893096,-0.35976738,0.06003814,-3.0750475,0.62702453,0.000118069474,-0.13134202,0.06351085,-0.0027209832,0.027882593,-0.01102523,-0.021202333,0.47382694,-1.361355,1.8782367,-2.0842106,-1.5733327,2.450611,-0.20837055,0.14493807,-0.18078762,0.057971623,-0.020411147,-0.18701304,-0.019153614,0.11492168,-9.595961,0.8940802,47.694054,-1.3574791,-2.5198352,-3.365744,-0.113254264,-0.39576206,-0.40503234,28.4375,29.75,28.8125,32.625,35.0625,36.125
0.30002075,0.78330183,-0.14587331,-1.8567083,-0.0031471048,0.041070707,-0.17387405,-0.40922087,-0.35962978,0.06004476,-3.0750282,0.6270942,0.00016449332,-0.1315137,0.06452271,-0.003196704,0.029152941,-0.012994214,-0.016547324,0.47335854,-1.3610904,1.8778905,-2.08415,-1.5733565,2.4501889,-0.20993945,0.14584285,-0.1812446,0.059826408,-0.020659668,-0.19323644,0.019153614,0.05746084,-9.615114,0.91421866,47.687782,-1.3049604,-2.5023894,-3.4998012,-0.11344981,-0.39085272,-0.36054963,28.4375,29.75,28.8125,32.625,35.0625,36.125
0.30202124,0.19881177,-0.456531,-1.7127455,-0.0021760394,0.01752736,-0.1721499,-0.40950567,-0.35951608,0.060066704,-3.0749981,0.62711924,0.00023420162,-0.13167255,0.06516461,-0.0037803974,0.030942105,-0.016762622,-0.005862518,0.47294995,-1.3608133,1.8774832,-2.0840404,-1.5734047,2.4498,-0.2110931,0.14837381,-0.18396291,0.064134166,-0.020560898,-0.20507468,0.0,0.019153614,-9.461885,0.9925471,47.64927,-1.2408302,-2.6297507,-3.4169884,-0.15224734,-0.3843013,-0.27056757,28.4375,29.75,28.8125,32.625,35.0625,36.125
0.3040206,0.36328802,-0.5002345,-1.5359277,0.0014789959,0.030806819,-0.17257038,-0.4097568,-0.35938632,0.060063735,-3.0749602,0.627068,0.00019893791,-0.13435705,0.06557341,-0.0014273663,0.02859176,-0.011411687,0.0018731492,0.4725291,-1.3605508,1.877148,-2.0839217,-1.573429,2.4493523,-0.21374726,0.1461939,-0.18645504,0.062932074,-0.020954117,-0.21546173,0.019153614,-0.019153614,-9.289502,0.9835985,47.683304,-1.0763857,-2.3370929,-3.5107837,-0.14618659,-0.3770159,-0.15033479,28.4375,29.75,28.8125,32.625,35.0625,36.125
0.30602038,0.37290016,-0.48001122,-1.4562439,0.016498359,0.032388974,-0.16272211,-0.41004154,-0.35925093,0.0600629,-3.0749047,0.6270754,0.00021210314,-0.13528097,0.06660862,-0.0016038672,0.029759793,-0.01254571,0.0017433536,0.47208458,-1.3602506,1.8767651,-2.0838134,-1.5734771,2.4489198,-0.21582538,0.14755383,-0.18814018,0.06477585,-0.02149777,-0.21740703,-0.019153614,-0.076614454,-9.212888,0.9321212,47.645687,-1.0735284,-2.4098043,-3.4110713,-0.17728266,-0.37999028,-0.06989433,28.4375,29.75,28.8125,32.625,35.0625,36.125
0.30802068,0.5561384,-0.22400425,-1.23458,0.020454869,0.04876005,-0.16565381,-0.41028562,-0.35912478,0.060052924,-3.07484,0.62702936,0.000126241,-0.13565508,0.06781155,-0.0019473032,0.032398406,-0.016049976,-0.0076834843,0.47167608,-1.359962,1.8764056,-2.0836556,-1.573501,2.448491,-0.21759143,0.14960156,-0.19101632,0.06993524,-0.022263087,-0.20974067,-0.095768064,-0.11492168,-9.212888,0.8918391,47.657326,-1.0955675,-2.445992,-3.2748098,-0.2500822,-0.37212306,-0.11489466,28.4375,29.75,28.8125,32.625,35.0625,36.125
0.31002042,-0.58534735,-0.030271497,-1.201597,0.020976909,0.03958979,-0.16171841,-0.41056484,-0.35897768,0.06004663,-3.0747254,0.6270872,0.00010668763,-0.13686857,0.06802752,-0.001818588,0.031592462,-0.014775421,-0.01824988,0.471232,-1.35965,1.8760103,-2.0835006,-1.5735735,2.4480982,-0.21895295,0.15041775,-0.19203888,0.06864107,-0.022136774,-0.20053418,-0.34476504,-0.15322891,-9.078813,0.8537928,47.674347,-1.0878438,-2.385605,-3.2378213,-0.27443513,-0.35849357,-0.23633057,28.4375,29.75,28.8125,32.625,35.0625,36.125
0.3120207,-0.24259432,0.01701448,-1.3019671,0.016418234,0.06686616,-0.16456664,-0.41084003,-0.35884488,0.06006576,-3.0746632,0.6271341,0.000121383484,-0.13720398,0.066990174,-0.000790406,0.030773574,-0.0126352925,-0.023621103,0.47080055,-1.3593863,1.875615,-2.0833452,-1.5736212,2.4477043,-0.21721937,0.15011619,-0.19405568,0.06868336,-0.02238309,-0.19342732,-0.34476504,0.019153614,-9.136273,0.8605109,47.70211,-1.1513398,-2.3056138,-3.2755141,-0.28594363,-0.36106128,-0.31726933,28.4375,29.75,28.8125,32.625,35.0625,36.125
0.31402025,-0.6925876,-0.22273369,-1.2964079,-0.00018088134,0.087388605,-0.1711871,-0.41110852,-0.35871962,0.06006921,-3.0746057,0.6271634,0.00010982113,-0.13748051,0.06633988,-0.0003603696,0.030420048,-0.011557301,-0.028926661,0.47038075,-1.3590984,1.8752316,-2.0832136,-1.5736574,2.4473104,-0.21612902,0.15052828,-0.19555995,0.068657726,-0.022563167,-0.1870294,-0.45968673,0.1340753,-9.232041,0.83365434,47.70211,-1.3071504,-2.2279959,-3.2196789,-0.30043608,-0.36107016,-0.43057215,28.4375,29.75,28.8125,32.625,35.0625,36.125
0.31606433,-1.498247,-1.3565226,-1.4181991,-0.009002798,0.106867656,-0.16969027,-0.41138616,-0.35857162,0.06004791,-3.0744557,0.62728435,4.5560082e-05,-0.13774578,0.066017814,-0.0002250858,0.030092074,-0.010232781,-0.02747416,0.469937,-1.3587507,1.8748244,-2.0830467,-1.5737294,2.4469619,-0.21547817,0.15070444,-0.19584353,0.06741149,-0.022906719,-0.1878273,-0.4405331,0.076614454,-9.232041,0.9231726,47.686886,-1.517813,-2.2185493,-3.2938976,-0.31541362,-0.34829205,-0.495363,28.4375,29.75,28.8125,32.625,35.0625,36.125
0.31808028,-1.0770216,-1.0994612,-1.3871348,-0.03848998,0.14186391,-0.17918523,-0.41161638,-0.35842755,0.060040608,-3.0743778,0.6273192,-6.390788e-05,-0.13916044,0.0661416,-0.001596169,0.03007058,-0.009948429,-0.018191999,0.46950442,-1.3585094,1.8745135,-2.0828803,-1.5737418,2.4465613,-0.21668816,0.15454231,-0.19661777,0.0640418,-0.023079377,-0.19831568,-0.38307226,0.11492168,-9.289502,0.93436235,47.64837,-1.4471192,-2.3258638,-3.2636456,-0.30922112,-0.31890172,-0.44386575,28.4375,29.75,28.8125,32.625,35.0625,36.125
0.3200635,-1.9931583,-1.9025091,-1.6083761,-0.040276606,0.123150624,-0.17615393,-0.41190487,-0.35829735,0.060020138,-3.0743015,0.6272964,-0.0001336492,-0.14098845,0.06660765,-2.6981554e-05,0.029090084,-0.0061600436,-0.00557907,0.46905982,-1.3581386,1.8740815,-2.0827363,-1.573778,2.4461126,-0.2183484,0.15307584,-0.19830541,0.06331646,-0.023985088,-0.21258318,-0.22984336,0.17238252,-9.442732,0.8985519,47.637623,-1.444768,-2.0842698,-3.2797031,-0.30375668,-0.32522437,-0.32718506,28.4375,29.75,28.8125,32.625,35.0625,36.125
0.3220761,-1.5517919,-1.7568846,-1.6188034,-0.05780416,0.116261795,-0.16933644,-0.4121931,-0.35818544,0.060054187,-3.074291,0.6271711,5.6072304e-06,-0.1427698,0.06593295,0.0014129297,0.026577849,-0.0011304452,0.0049651465,0.46867603,-1.357875,1.8736633,-2.0826304,-1.5738624,2.4456522,-0.2185662,0.15216032,-0.19976722,0.06001169,-0.024049928,-0.22334574,-0.36391866,0.19153613,-9.3661175,0.9298854,47.652847,-1.5689006,-2.1181283,-3.35919,-0.2893921,-0.31542253,-0.18801902,28.4375,29.75,28.8125,32.625,35.0625,36.125
0.32406968,-1.3606343,-2.0277712,-1.5024058,-0.04835279,0.101167284,-0.16025251,-0.41248482,-0.35806248,0.060051735,-3.0742743,0.6271889,-2.446703e-05,-0.1459787,0.06594075,0.0021174597,0.024478216,0.0048686652,0.004309563,0.4682193,-1.357551,1.8732551,-2.0825245,-1.5738624,2.445209,-0.2206527,0.15331224,-0.20151237,0.05429218,-0.02491528,-0.22477171,-0.40222588,0.19153613,-9.3661175,0.9231726,47.703007,-1.5189075,-2.0465736,-3.223905,-0.22433707,-0.28989053,-0.14600241,28.4375,29.75,28.8125,32.625,35.0625,36.125
0.326078,-0.7894583,-1.0572884,-1.7616291,-0.04409861,0.08655789,-0.16967627,-0.4128322,-0.3579258,0.060087156,-3.0742664,0.6271519,0.000183999,-0.1476226,0.06641374,0.0019948054,0.024480643,0.007164637,-0.0047144527,0.46775115,-1.3572507,1.8728002,-2.082466,-1.5739588,2.444719,-0.22207071,0.15469432,-0.20235066,0.051695615,-0.025923876,-0.21716358,-0.53630114,0.05746084,-9.519346,0.8940802,47.66808,-1.4926283,-2.0066528,-3.3090062,-0.17751187,-0.27579755,-0.20054749,28.4375,29.75,28.8125,32.625,35.0625,36.125
0.328068,-0.46688554,-1.0019399,-1.9324685,-0.011624317,0.07747078,-0.16629028,-0.41311023,-0.35777324,0.060068667,-3.0741441,0.62732464,0.00016297777,-0.14793503,0.06743639,0.0013264751,0.025371868,0.005714331,-0.013600836,0.4672937,-1.3569386,1.8724421,-2.0823576,-1.5740188,2.4443855,-0.22383541,0.15570864,-0.20222057,0.052246954,-0.026062792,-0.21003976,-0.4405331,0.076614454,-9.576807,0.8851263,47.701214,-1.4467378,-2.0734248,-3.4903526,-0.14844942,-0.25056937,-0.28656495,28.4375,29.75,28.8125,32.625,35.0625,36.125
0.3300722,-0.89296687,-0.73441267,-1.7594464,-0.010971453,0.05867638,-0.1594024,-0.4134001,-0.3576245,0.06004801,-3.0740674,0.62732965,0.00013058649,-0.14996059,0.068536445,0.00028188384,0.02511407,0.005115829,-0.021311563,0.46682498,-1.3566011,1.8720587,-2.0822508,-1.574066,2.4439301,-0.22756763,0.1590834,-0.20360635,0.050666228,-0.02557569,-0.20606065,-0.34476504,0.076614454,-9.576807,0.90527004,47.672558,-1.2513404,-2.1940584,-3.5178323,-0.13028876,-0.25099483,-0.3709886,28.4375,29.75,28.8125,32.625,35.0625,36.125
0.33207896,-0.96514463,-0.6860873,-1.8245921,-0.016699241,0.071620494,-0.15780215,-0.41370958,-0.3575035,0.06006668,-3.07405,0.62734723,0.00019092718,-0.15270631,0.069517866,-0.0005188701,0.024718972,0.0053766235,-0.025004232,0.46637976,-1.3562886,1.8716158,-2.0821435,-1.5741023,2.4434984,-0.23154087,0.1631021,-0.2062736,0.048884053,-0.025349,-0.20634116,-0.6512229,0.15322891,-9.442732,0.8605109,47.657326,-1.1739073,-2.2507672,-3.5035038,-0.06479078,-0.22437653,-0.39731464,28.4375,29.75,28.8125,32.625,35.0625,36.125
0.33407363,-1.1861509,-0.4788926,-1.9345863,-0.013415554,0.075689204,-0.17006043,-0.414008,-0.35736847,0.060064822,-3.0740016,0.62731296,0.0002294291,-0.15340751,0.070737235,-0.00044678472,0.025150735,0.0036940658,-0.018503392,0.46593493,-1.3559647,1.8712081,-2.0820467,-1.5741619,2.4430387,-0.2342465,0.16347758,-0.20749721,0.051373564,-0.025004208,-0.21554856,-0.4213795,0.095768064,-9.576807,0.8784135,47.666286,-1.0894867,-2.2452297,-3.5539901,-0.060765043,-0.2369298,-0.36718982,28.4375,29.75,28.8125,32.625,35.0625,36.125
0.33602595,-1.1150755,-0.45496628,-1.9722918,-0.014580985,0.08132511,-0.17016803,-0.41430765,-0.35724005,0.060073543,-3.0739691,0.6272989,0.00021782349,-0.1532786,0.07179474,-0.001653846,0.02726467,0.00025091015,-0.0077210967,0.46547893,-1.3556405,1.8707651,-2.0819023,-1.5741862,2.4425783,-0.23552862,0.16571863,-0.20800501,0.053609774,-0.025383364,-0.22761063,-0.19153613,0.05746084,-9.672575,0.9298854,47.689575,-1.1625006,-2.3569975,-3.4953055,-0.08024983,-0.22216219,-0.22298068,28.4375,29.75,28.8125,32.625,35.0625,36.125
0.3380206,-1.6552756,-0.99952555,-1.6701881,-0.025953759,0.08283034,-0.16627325,-0.4145958,-0.3570826,0.060047902,-3.0738854,0.62729585,0.00017177981,-0.15374412,0.071481116,-0.0016838614,0.02755568,0.00022834582,-0.00065771944,0.46499905,-1.3553041,1.8703936,-2.0817945,-1.5742348,2.4421077,-0.23506984,0.16726941,-0.20997442,0.054134425,-0.025675949,-0.23421153,-0.4213795,0.038307227,-9.615114,0.87617236,47.664497,-1.2179978,-2.3704276,-3.4240503,-0.058557868,-0.19429192,-0.118641034,28.4375,29.75,28.8125,32.625,35.0625,36.125
0.34002033,-0.85792935,-0.72915673,-1.5427346,-0.023397144,0.098701335,-0.16204952,-0.41493142,-0.35694766,0.060081203,-3.0738473,0.62734735,0.0002956146,-0.1545719,0.07022818,-0.0010558728,0.026764244,0.0014237803,-0.0011053027,0.46453136,-1.3549917,1.8699144,-2.0816743,-1.5743068,2.4416773,-0.23360254,0.16901927,-0.21366979,0.05463453,-0.02550068,-0.23229712,-0.47884035,-0.038307227,-9.461885,0.8985519,47.65912,-1.3142601,-2.4376328,-3.4333262,-0.04954744,-0.19725496,-0.10408791,28.4375,29.75,28.8125,32.625,35.0625,36.125
0.34202033,-0.9964969,-0.85328656,-2.0084043,0.008365473,0.06836666,-0.15073185,-0.41519898,-0.35679424,0.060047768,-3.0737638,0.62731445,0.00023474064,-0.15509014,0.07028983,-0.000813458,0.026280424,0.0014730067,-0.010962727,0.46407542,-1.3546678,1.8695782,-2.0815785,-1.574354,2.441212,-0.23425534,0.1694499,-0.21491854,0.055201728,-0.025091445,-0.22309169,-0.34476504,-0.038307227,-9.519346,0.92764956,47.686886,-1.3830779,-2.4501746,-3.5231915,-0.01053554,-0.17506471,-0.16416158,28.4375,29.75,28.8125,32.625,35.0625,36.125
0.34402034,0.29417205,0.37624744,-1.3363502,-0.027882868,0.09238309,-0.17553373,-0.41553143,-0.35665593,0.06005964,-3.0737152,0.627482,0.00029354182,-0.1561959,0.06996677,-0.0005606959,0.02610295,0.0020780447,-0.020600978,0.46358353,-1.3543309,1.8691233,-2.0814826,-1.5743903,2.4408312,-0.23441814,0.17130978,-0.21790506,0.05572289,-0.025183942,-0.21361513,-0.4405331,0.019153614,-9.461885,1.0395473,47.67345,-1.4326863,-2.4713137,-3.4215155,0.020913165,-0.16809809,-0.28127813,28.4375,29.75,28.8125,32.625,35.0625,36.125
0.34602034,-0.6173486,-0.5739874,-1.6272919,0.0006913708,0.0524653,-0.15741515,-0.41587898,-0.3565489,0.06009341,-3.0737393,0.62743354,0.0004388576,-0.1560219,0.06980184,-0.001062544,0.026729543,0.0004519558,-0.027178688,0.46313912,-1.353983,1.8686079,-2.0813982,-1.5744385,2.4403536,-0.23393533,0.17300409,-0.21915393,0.05701662,-0.024986437,-0.2065569,-0.34476504,0.13407528,-9.270349,0.88289046,47.651955,-1.3874272,-2.511568,-3.4223552,0.03147713,-0.15019786,-0.41448715,28.4375,29.75,28.8125,32.625,35.0625,36.125
0.34802026,-0.6208332,-0.71658385,-1.8617963,-0.0003137114,0.04432857,-0.16559894,-0.4161686,-0.35639152,0.06008173,-3.0736296,0.6275648,0.00039299804,-0.15748146,0.070121236,0.0006057491,0.025611246,0.0020169343,-0.030955166,0.4626591,-1.35366,1.8682121,-2.0812538,-1.5744861,2.43997,-0.23572415,0.17199452,-0.22227195,0.059229698,-0.024701003,-0.20456797,-0.28730422,0.15322891,-9.308656,0.92764956,47.66987,-1.480858,-2.2507968,-3.3657098,0.022416173,-0.13321923,-0.4972804,28.4375,29.75,28.8125,32.625,35.0625,36.125
0.3500204,-0.42356208,-0.6843434,-1.5560098,-0.013001972,0.061158273,-0.17432564,-0.41650426,-0.35624602,0.06008735,-3.073545,0.6275612,0.0004656939,-0.15850241,0.07123742,0.0010760116,0.026220586,0.00086128584,-0.02413007,0.46219012,-1.3532883,1.867721,-2.0811207,-1.5745825,2.43951,-0.23825093,0.17244603,-0.2246524,0.06239841,-0.02476061,-0.21391882,-0.15322891,0.11492168,-9.308656,0.9186956,47.679718,-1.4837646,-2.284617,-3.3439412,0.01721777,-0.12788789,-0.4799654,28.4375,29.75,28.8125,32.625,35.0625,36.125
0.35202083,0.06787813,-0.23219174,-1.7934945,-0.020383952,0.066909894,-0.1721035,-0.41679043,-0.35610762,0.06007876,-3.0734541,0.6276297,0.00043144025,-0.15841345,0.07284666,0.00041230716,0.027854657,-0.0034753333,-0.012580281,0.46174547,-1.3529524,1.8673023,-2.0809758,-1.5746301,2.4391203,-0.2409853,0.17349665,-0.22542076,0.066648975,-0.0243397,-0.22820331,-0.076614454,0.038307227,-9.385271,0.9612189,47.678825,-1.4200141,-2.2640347,-3.3386211,-0.023214959,-0.11679976,-0.3503343,28.4375,29.75,28.8125,32.625,35.0625,36.125
0.3540205,-0.5810548,-0.97755766,-1.923358,0.0018322556,0.039216287,-0.15606861,-0.4171344,-0.35596764,0.06010197,-3.0734806,0.62759334,0.00049377495,-0.15807207,0.07404692,-0.0012560708,0.029740404,-0.009337845,-0.005159782,0.46122804,-1.3526276,1.8668355,-2.0808785,-1.5746421,2.438577,-0.24308226,0.17673504,-0.22645792,0.0704819,-0.023435462,-0.23772508,-0.19153614,0.05746084,-9.385271,0.99702406,47.70659,-1.2230955,-2.1765661,-3.3543816,-0.06455999,-0.11912264,-0.21733114,28.4375,29.75,28.8125,32.625,35.0625,36.125
0.35602066,-1.0706347,-0.38057336,-1.6414902,-0.027313314,0.029139694,-0.15852593,-0.41742313,-0.35579738,0.060071077,-3.0733373,0.6276232,0.00037091854,-0.15937135,0.07538886,0.0008667195,0.02859525,-0.008514983,-0.008256465,0.46073556,-1.3522569,1.8664144,-2.0806854,-1.5747017,2.438122,-0.24664877,0.17377046,-0.22861956,0.07433266,-0.022817124,-0.23819438,-0.21068975,-0.019153614,-9.346964,0.8537928,47.657326,-1.1280358,-2.0900881,-3.2564964,-0.12066464,-0.12253476,-0.18250737,28.4375,29.75,28.8125,32.625,35.0625,36.125
0.35802057,0.5444237,-0.1601175,-1.3323032,-0.02515578,0.06875966,-0.16354127,-0.41777295,-0.35562754,0.06006811,-3.0732384,0.62766415,0.00039968104,-0.15912004,0.07588191,-0.00019102261,0.029939296,-0.01244021,-0.015825728,0.46020734,-1.3518724,1.8659242,-2.0805414,-1.5747851,2.4376326,-0.24741286,0.17640327,-0.23013051,0.0773188,-0.022274954,-0.23139,-0.2681506,-0.038307227,-9.251195,0.8873621,47.62867,-1.2109458,-2.1590834,-3.2869911,-0.15108357,-0.12289789,-0.24812263,28.4375,29.75,28.8125,32.625,35.0625,36.125
0.36002088,-0.44492602,-0.4115934,-1.5232362,-0.0016710529,0.04742323,-0.15956108,-0.4180849,-0.35549766,0.060082756,-3.0732145,0.6277002,0.0003611996,-0.158706,0.07623921,-0.0009863195,0.030745942,-0.015837833,-0.021520492,0.45972735,-1.3515362,1.8654464,-2.0803726,-1.5747846,2.4371784,-0.24797459,0.17816682,-0.2310981,0.07993345,-0.021489747,-0.22625932,-0.17238252,-0.038307227,-9.3661175,0.90750587,47.683304,-1.1647282,-2.1502345,-3.3891664,-0.18286686,-0.12265302,-0.33285955,28.4375,29.75,28.8125,32.625,35.0625,36.125
0.36202028,-1.0840136,-0.61599874,-1.3453996,0.010196002,0.047906756,-0.14703043,-0.41839823,-0.35536343,0.060103036,-3.073179,0.6278287,0.00036846232,-0.16027497,0.07648916,-0.0006987009,0.03009186,-0.015489314,-0.025471607,0.45924675,-1.3512236,1.8649901,-2.0802286,-1.5747966,2.4367828,-0.24979176,0.17986108,-0.23398156,0.08051497,-0.02107024,-0.22412604,-0.21068975,-0.05746084,-9.251195,0.98135734,47.701214,-1.19933,-2.1764307,-3.3876495,-0.2330032,-0.12410549,-0.37698722,28.4375,29.75,28.8125,32.625,35.0625,36.125
0.36402234,0.26531965,-0.11494168,-1.3144995,0.0049341787,0.08631251,-0.16808474,-0.41871414,-0.35520333,0.060101397,-3.0731032,0.62782896,0.00033487682,-0.16069786,0.07639909,-0.0003629715,0.028557304,-0.015813634,-0.020636955,0.45874265,-1.3508759,1.8645357,-2.0800612,-1.5748442,2.436289,-0.2507189,0.17998406,-0.23507032,0.08104228,-0.01959593,-0.22989292,-0.076614454,-0.076614454,-9.155427,0.9254084,47.698532,-1.2547141,-2.229586,-3.4255261,-0.25553524,-0.13342132,-0.36692998,28.4375,29.75,28.8125,32.625,35.0625,36.125
0.36602044,-0.06318459,-0.051834516,-1.3687644,-0.0021114287,0.0761062,-0.16683121,-0.41901633,-0.35500896,0.06005654,-3.0729172,0.6278986,0.00020474182,-0.1604811,0.0760762,-0.0010685724,0.028219448,-0.016523667,-0.008810552,0.45821473,-1.35048,1.8641161,-2.0798705,-1.5749282,2.4358292,-0.2501546,0.18127762,-0.23484965,0.079937436,-0.019068059,-0.24115449,-0.095768064,-0.15322891,-9.289502,0.9612189,47.694946,-1.242007,-1.9848615,-3.4219694,-0.27387124,-0.15871203,-0.28333423,28.4375,29.75,28.8125,32.625,35.0625,36.125
0.36802092,-0.4477099,-0.37934944,-1.0067989,-0.014881185,0.0811669,-0.16696414,-0.41937065,-0.35488993,0.060101748,-3.0729344,0.6279364,0.0003117417,-0.16149932,0.076734476,-3.002139e-05,0.028305907,-0.014956745,-0.00020213256,0.4577344,-1.3501445,1.8635777,-2.0797384,-1.574953,2.4353704,-0.25142995,0.1803132,-0.23631872,0.080950566,-0.01986462,-0.25103593,-0.30645782,-0.076614454,-9.174581,0.9455522,47.691364,-1.3259428,-2.0073276,-3.3998294,-0.30130902,-0.14006147,-0.14993617,28.4375,29.75,28.8125,32.625,35.0625,36.125
0.37002045,-1.2054373,-0.7366864,-1.3013768,-0.008808858,0.0724536,-0.1520296,-0.41969103,-0.3547159,0.060082026,-3.0728536,0.6279966,0.00020048082,-0.164178,0.07561443,0.0007512259,0.025642881,-0.009074602,-0.0004080961,0.45718247,-1.3497723,1.8631347,-2.0795724,-1.5749649,2.434867,-0.2514374,0.18200022,-0.23895986,0.075439714,-0.02012794,-0.25083315,-0.24899697,-0.11492168,-9.097966,0.9768804,47.64927,-1.3966038,-2.1416364,-3.4327922,-0.2587086,-0.15378045,-0.1155173,28.4375,29.75,28.8125,32.625,35.0625,36.125
0.37202063,-1.0355284,-0.5982925,-1.5970358,0.0066574416,0.076536715,-0.15258102,-0.42001614,-0.35458115,0.060076293,-3.0728092,0.62795424,0.00021154287,-0.16465022,0.07454402,-0.00019176527,0.025118152,-0.009060334,-0.00682916,0.4567146,-1.3493875,1.862655,-2.0794532,-1.5750126,2.4343786,-0.2501365,0.18542422,-0.24057192,0.07339403,-0.01966274,-0.24311177,-0.2681506,-0.11492168,-9.251195,0.93436235,47.66987,-1.4379209,-2.1141214,-3.3177288,-0.2258296,-0.14618418,-0.13944554,28.4375,29.75,28.8125,32.625,35.0625,36.125
0.37402073,-1.3058625,-0.43721038,-1.4857608,-0.024256049,0.08301492,-0.16014406,-0.42031968,-0.3544281,0.060046054,-3.072699,0.627937,0.00010255085,-0.16594245,0.0752798,-0.00076457503,0.024939364,-0.00850726,-0.01798734,0.45623434,-1.3489792,1.8621892,-2.0792744,-1.5750602,2.4339023,-0.2522166,0.18712461,-0.2409861,0.07155163,-0.0197604,-0.23403054,-0.47884035,0.076614454,-9.3661175,0.99702406,47.677036,-1.5061872,-2.2265205,-3.3840053,-0.24381849,-0.15980573,-0.2830068,28.4375,29.75,28.8125,32.625,35.0625,36.125
