Tylouw/Master_Thesis_Code/training_data/batch_1/rect_rod_t0.3/sample_5_session_1.csv
timestamp[s],tcp_force_x[N],tcp_force_y[N],tcp_force_z[N],tcp_force_rx[Nm?],tcp_force_ry[Nm?],tcp_force_rz[Nm?],tcp_pose_x[m],tcp_pose_y[m],tcp_pose_z[m],tcp_pose_rx[rot_vec_x],tcp_pose_ry[rot_vec_y],tcp_pose_rz[rot_vec_z],tcp_velo_x[m/s],tcp_velo_y[m/s],tcp_velo_z[m/s],tcp_velo_rx[rot_vec_x/s],tcp_velo_ry[rot_vec_y/s],tcp_velo_rz[rot_vec_z/s],q1[rad],q2[rad],q3[rad],q4[rad],q5[rad],q6[rad],qd1[rad/s],qd2[rad/s],qd3[rad/s],qd4[rad/s],qd5[rad/s],qd6[rad/s],tool_acc_x,tool_acc_y,tool_acc_z,current_of_whole_robot[A],voltage_of_whole_robot[V],current_J1[A],current_J2[A],current_J3[A],current_J4[A],current_J5[A],current_J6[A],temp_J1[C],temp_J2[C],temp_J3[C],temp_J4[C],temp_J5[C],temp_J6[C]
6.570481e-07,0.09018181,0.30043182,1.2358267,-0.02040277,-0.0076942993,-0.009038296,-0.38935536,-0.36872494,0.060029898,-3.0787246,0.62493235,0.00026091406,0.0015801459,0.00087771524,-0.0015497069,0.0021532443,-0.004231384,-6.793251e-06,0.50503284,-1.3816556,1.9041637,-2.091903,-1.5708655,2.4800253,-0.00010611261,0.0007278502,0.0022694918,0.0017469698,0.00017189578,-0.00010055973,0.095768064,0.11492168,-8.619126,0.7866488,47.72002,-0.20346901,-3.1153302,-2.4090335,-0.19181201,0.16305402,0.036982104,28.1875,29.625,28.6875,32.4375,34.875,36.0
0.002052767,-0.23724256,0.2724373,1.0111567,-0.009844937,-0.013998612,-0.0058219647,-0.3893416,-0.3687057,0.060017776,-3.0786963,0.624965,0.00025091742,-0.0013689556,-0.00076232775,-0.00091044215,-0.0028500755,0.004772363,1.2590921e-06,0.5050208,-1.3816794,1.9042233,-2.0919201,-1.5708774,2.4800372,-0.000103668026,0.0012819023,0.002726501,-0.009564604,0.00016892285,-0.00010506208,0.05746084,0.17238252,-8.599973,0.7284641,47.691364,-0.1571717,-3.0359054,-2.3059623,-0.12887636,0.16538575,0.010665906,28.1875,29.625,28.6875,32.4375,34.875,36.0
0.00405259,0.084679596,0.6944208,1.2633228,-0.028724039,0.0036342898,-0.0140255205,-0.38932905,-0.36870837,0.05999453,-3.0786822,0.62486565,0.0002188242,-0.0019485346,-0.0010843633,-0.0012875572,-0.0032530737,0.0055024386,2.6616096e-06,0.50504476,-1.3816429,1.9042357,-2.0919316,-1.5708898,2.480001,-0.00010133378,0.0027014965,0.0023282801,-0.011419884,0.00016302933,-0.00010354249,0.05746084,0.1340753,-8.714894,0.7329411,47.694054,-0.18157604,-3.3005447,-2.5339782,-0.022809573,0.17020045,0.013273742,28.1875,29.625,28.6875,32.4375,34.875,36.0
0.006051852,-0.012176542,0.46298796,1.3349545,-0.015124023,-0.003619218,-0.009682209,-0.38933185,-0.36871627,0.060011398,-3.0787163,0.6249116,0.00020964532,-0.0007272956,-0.00040433585,-0.0011171985,-0.0012619867,0.0019370035,2.1554715e-06,0.50503284,-1.3816671,1.9042228,-2.0919178,-1.5708536,2.4800134,-9.910208e-05,0.0018267657,0.0017089238,-0.0058420748,0.000157343,-0.00010127091,0.019153614,0.17238252,-8.695741,0.7530795,47.679718,-0.13537039,-3.3071141,-2.4951544,-0.074852064,0.16467486,0.021076435,28.1875,29.625,28.6875,32.4375,34.875,36.0
0.008051834,0.57896596,1.2555898,0.89904463,0.006265958,-0.017770546,-0.014721856,-0.38930982,-0.36870846,0.05996759,-3.078678,0.6249039,0.00010886321,0.00038375362,0.0002091161,-0.0004754522,0.00023245571,-0.00076240697,1.4341871e-06,0.50503284,-1.3816198,1.9042715,-2.0919397,-1.5708417,2.4800134,-9.6966505e-05,6.903964e-05,0.0010852998,-0.00037526738,0.00016693136,-9.904571e-05,-0.019153614,0.21068975,-8.772355,0.7620334,47.684196,-0.15955053,-3.1929255,-2.5123854,-0.11104451,0.15516262,0.014289709,28.1875,29.625,28.6875,32.4375,34.875,36.0
0.010051955,0.56044924,1.3380448,0.41104802,0.01575324,-0.015036326,-0.023847101,-0.38934183,-0.36872184,0.059994996,-3.0787063,0.6249478,0.00020473365,0.0015506919,0.00086090993,-0.0007457482,0.002319657,-0.004534087,-1.1502301e-05,0.50503284,-1.3816198,1.9042114,-2.0919497,-1.5708536,2.4800372,-0.000107410095,9.262549e-07,0.0007001074,0.0043887002,0.0001754582,-9.691269e-05,-0.038307227,0.19153613,-9.059659,0.7016076,47.690468,-0.7220731,-2.8464947,-2.8607183,-0.15992309,0.13817954,-0.030136071,28.1875,29.625,28.6875,32.4375,34.875,36.0
0.012051892,-0.04241076,0.64801204,0.2803355,-0.0020972604,-0.010215162,-0.010520125,-0.38932452,-0.36870494,0.059992522,-3.0786767,0.62494224,0.0001492904,0.00038786366,0.00052852125,-5.8210753e-05,0.0010452684,-0.002180897,-0.0004747963,0.5050206,-1.3816439,1.9042348,-2.0919025,-1.5708536,2.4800253,-0.00061779254,1.2426891e-08,-0.000536771,0.0029505775,0.00014610663,-0.00014330649,0.095768064,0.19153613,-9.11712,0.7016076,47.660015,-0.9032128,-2.6388443,-2.9672143,-0.12831238,0.14020197,-0.091539554,28.1875,29.625,28.6875,32.4375,34.875,36.0
0.014051897,0.12739511,0.47636002,0.14912836,-0.042389598,0.0235131,-0.023507118,-0.3893433,-0.36869,0.059963953,-3.0786266,0.62493193,0.00011288606,-0.004553295,0.004394354,-0.0047948146,0.0047862143,-0.008954519,-0.0034359007,0.5049928,-1.3815674,1.9042095,-2.091903,-1.5708774,2.4799974,-0.011748058,0.012412994,-0.004191472,0.001928823,0.00013827781,-0.008308883,-0.05746084,0.095768064,-9.270349,0.7463667,47.705692,-0.49166885,-3.282889,-2.947545,-0.1159716,0.13847274,-0.10518906,28.1875,29.625,28.6875,32.4375,34.875,36.0
0.01605183,-0.68774784,-0.48782033,0.0029131398,-0.051264353,0.032504715,-0.028929798,-0.38931566,-0.36867177,0.05992891,-3.0785613,0.6249924,-1.157608e-05,-0.005559261,0.0044520157,-0.003142087,0.0030998283,-0.0059039593,0.0042721326,0.50498044,-1.3815444,1.9042567,-2.0918791,-1.5708655,2.480031,-0.012782668,0.009890561,-0.0049176984,0.0016904429,0.000133943,-0.017051611,-0.24899697,0.21068975,-9.404425,0.74413085,47.685097,-0.43702894,-3.1996353,-2.985246,-0.09077966,0.12423225,-0.022535525,28.1875,29.625,28.6875,32.4375,34.875,36.0
0.01805247,-1.2379491,-0.32789457,0.09588911,-0.05090464,0.049241208,-0.045839127,-0.38931614,-0.3686643,0.05992663,-3.0785694,0.625011,-7.6470176e-05,-0.0050501414,0.004121097,-0.002588011,0.0026035612,-0.0049980134,0.008317724,0.5049451,-1.381545,1.9042572,-2.0918553,-1.5708297,2.4800062,-0.011746043,0.008291631,-0.004271316,0.0016102549,0.00013005728,-0.020061085,-0.38307226,0.17238252,-9.442732,0.8291774,47.68599,-0.69204557,-2.8744633,-3.1722188,-0.07431383,0.11814141,0.012763772,28.1875,29.625,28.6875,32.4375,34.875,36.0
0.020052576,-0.98497295,0.8028156,-0.13275036,-0.02757452,0.06916607,-0.0742148,-0.38933647,-0.36866894,0.05993454,-3.0785785,0.6248986,-1.5345318e-05,-0.0045487843,0.005623975,-0.0033977353,0.005375702,-0.009982703,0.0067314417,0.5049562,-1.3815203,1.9042095,-2.091853,-1.5708655,2.4799461,-0.013804223,0.009471561,-0.005017649,0.006879541,0.00012640326,-0.02053304,-0.38307226,0.15322891,-9.461885,0.78217715,47.668976,-0.83661777,-2.920712,-3.3296986,-0.122491196,0.1098283,-0.013363309,28.1875,29.625,28.6875,32.4375,34.875,36.0
0.022052526,-1.6010484,0.86251664,-0.31265244,0.018874597,0.05408518,-0.085032836,-0.38934067,-0.36866996,0.059917245,-3.0785978,0.62486595,-7.917259e-05,-0.0061704027,0.0058972165,-0.0031577111,0.0051658596,-0.009606101,0.0031752351,0.5049316,-1.3814837,1.9042085,-2.0918658,-1.5708297,2.4798987,-0.015779978,0.01112995,-0.0076454496,0.0074187955,0.00012294899,-0.018951302,-0.4405331,0.038307227,-9.615114,0.7329411,47.639416,-0.9353671,-2.9070177,-3.3652987,-0.12254444,0.11694983,-0.05552755,28.1875,29.625,28.6875,32.4375,34.875,36.0
0.024051959,-1.138144,1.0091382,-0.3846573,0.014624935,0.062854834,-0.10164468,-0.3893494,-0.3686549,0.059904844,-3.0785818,0.6248449,-0.00017446965,-0.008559206,0.0058835023,-0.0020150403,0.0034235334,-0.006468439,0.0009147217,0.50488293,-1.3814477,1.9041833,-2.0918176,-1.5708054,2.4798388,-0.017989624,0.0115278745,-0.010447418,0.0062343627,0.00011967886,-0.018899102,-0.5363012,0.0,-9.634268,0.800085,47.67166,-0.8258028,-2.7912762,-3.3388762,-0.087455675,0.09548627,-0.07191284,28.1875,29.625,28.6875,32.4375,34.875,36.0
0.026051775,-1.6571995,0.6905798,-0.35553753,0.0030755142,0.058468204,-0.11087779,-0.38935098,-0.3686308,0.05987661,-3.0785155,0.62483144,-0.00018258429,-0.009458688,0.0055328044,-0.002524939,0.0033735058,-0.0063850735,-0.0007229934,0.50487095,-1.3814107,1.9042066,-2.09183,-1.5708536,2.479827,-0.018240917,0.014097929,-0.01209164,0.0052106837,0.00011657835,-0.01751149,-0.6895301,-0.019153614,-9.730036,0.679228,47.716442,-0.83961904,-2.839149,-3.3211637,-0.0690822,0.08276227,-0.059872378,28.1875,29.625,28.6875,32.4375,34.875,36.0
0.028051764,-1.8570092,0.3096118,-0.52976,-0.011276764,0.06900356,-0.12422249,-0.38935438,-0.368646,0.05989052,-3.0785415,0.62479895,-0.0002350651,-0.009666104,0.0057557453,-0.0028705255,0.004061685,-0.0076228,-0.0025129393,0.5048707,-1.3813982,1.9041466,-2.0917695,-1.5708174,2.479803,-0.018808799,0.015337729,-0.013020895,0.006317107,0.00011363428,-0.016288962,-0.7852981,-0.095768064,-9.768343,0.7396539,47.675243,-0.9102703,-2.8021607,-3.3913817,-0.07769077,0.08833325,-0.105512366,28.1875,29.625,28.6875,32.4375,34.875,36.0
0.030051794,-1.8168833,0.15850319,-0.47949514,-0.024849556,0.08108795,-0.14044803,-0.38938633,-0.368603,0.059861388,-3.0784447,0.62485707,-0.0002723968,-0.009949698,0.0062407525,-0.002900696,0.005077221,-0.009412405,-0.004271555,0.5047985,-1.3813258,1.9041218,-2.0917447,-1.5708655,2.4797795,-0.019876631,0.016282605,-0.014702249,0.0091105485,9.158529e-05,-0.015597604,-0.7661445,-0.076614454,-9.902418,0.73069996,47.683304,-0.93489766,-2.8763223,-3.3064797,-0.078846976,0.08265389,-0.10798575,28.1875,29.625,28.6875,32.4375,34.875,36.0
0.0320518,-1.7340728,0.4324333,-0.49001428,-0.025439449,0.08472702,-0.1571906,-0.38940105,-0.36859852,0.059857983,-3.0784504,0.62487805,-0.00031224624,-0.010134727,0.0066902703,-0.0031816347,0.0057289787,-0.010558082,-0.0053694025,0.5047623,-1.3813015,1.9040979,-2.0917323,-1.5708417,2.4797556,-0.020796394,0.017005729,-0.015155063,0.010158688,7.6095064e-05,-0.015419303,-0.7278373,0.0,-9.864111,0.78217715,47.690468,-0.98983514,-2.7959328,-3.4056473,-0.11252265,0.056389555,-0.1427969,28.1875,29.625,28.6875,32.4375,34.875,36.0
0.034051683,-1.5500337,0.6087427,-0.52000463,-0.013494869,0.089662865,-0.16604225,-0.38942018,-0.36858952,0.05984637,-3.0784378,0.6249143,-0.00038037245,-0.011006763,0.0067638755,-0.0027865563,0.0051172846,-0.009435284,-0.0055527133,0.504714,-1.3812535,1.9040622,-2.0917084,-1.5708174,2.4797316,-0.021727525,0.017078964,-0.016034286,0.009686416,6.41098e-05,-0.016166683,-0.7278373,0.038307227,-9.730036,0.72622824,47.65912,-0.93056405,-2.8641386,-3.3812833,-0.093561605,0.04795815,-0.15520905,28.1875,29.625,28.6875,32.4375,34.875,36.0
0.036051635,-1.708404,0.37264854,-0.3866139,0.0039131907,0.07533703,-0.17166203,-0.38944253,-0.36856133,0.059834026,-3.0784023,0.62496483,-0.00039608323,-0.012686531,0.00723971,-0.0023297889,0.0045360792,-0.008147132,-0.0070567136,0.5046534,-1.3812293,1.9040617,-2.0917084,-1.5708297,2.479707,-0.02402384,0.017711349,-0.017747123,0.009358412,-5.5848206e-05,-0.016957935,-0.5554548,-0.038307227,-9.730036,0.7530795,47.70838,-0.92986834,-2.7641723,-3.372366,-0.09854698,0.0429255,-0.16686772,28.1875,29.625,28.6875,32.4375,34.875,36.0
0.038052484,-1.2459364,0.113204956,-0.65040296,0.012092533,0.06668853,-0.18483572,-0.38948712,-0.36854818,0.059844524,-3.0783777,0.625037,-0.00035662786,-0.014146524,0.008015275,-0.0017290803,0.003798045,-0.0066651683,-0.007929804,0.50460446,-1.3811934,1.9039901,-2.0916855,-1.5708536,2.4797063,-0.026645482,0.017201217,-0.018401137,0.008868073,-0.00012983693,-0.01870611,-0.5554548,-0.019153614,-9.787497,0.7463667,47.71465,-0.9336221,-2.765337,-3.3643236,-0.07751316,0.040171128,-0.1737901,28.1875,29.625,28.6875,32.4375,34.875,36.0
0.04005246,-1.6144334,0.16567641,-0.59655,0.0038345014,0.037893746,-0.19683407,-0.38949662,-0.3685392,0.059818983,-3.0783556,0.6249934,-0.00041306077,-0.015268255,0.007810069,-0.0015094978,0.0034073927,-0.005845856,-0.006475068,0.50458044,-1.3811328,1.9039768,-2.0916855,-1.5708536,2.479658,-0.02731114,0.018545901,-0.020443667,0.008659734,-0.00019097919,-0.02082531,-0.40222588,-0.019153614,-9.768343,0.7105615,47.703007,-0.8988783,-2.8136888,-3.3530195,-0.057064183,0.021163635,-0.18258965,28.1875,29.625,28.6875,32.4375,34.875,36.0
0.042052187,-0.8631261,0.21695077,-0.52178025,-0.0066887722,0.04153407,-0.2115362,-0.3895587,-0.3685164,0.05984571,-3.0783663,0.6250534,-0.00037083417,-0.016239226,0.008294883,-0.0012416749,0.0042413445,-0.005392391,-0.0071982844,0.50448424,-1.3811207,1.9038934,-2.0916493,-1.5708541,2.4795978,-0.028438302,0.019220645,-0.02206804,0.009618887,-0.0011416351,-0.02122677,-0.30645782,0.095768064,-9.653421,0.7642693,47.695843,-0.927662,-2.729948,-3.3292623,-0.06593504,0.025728844,-0.19977693,28.1875,29.625,28.6875,32.4375,34.875,36.0
0.044052333,-0.6534465,0.366733,-0.48097843,-0.01778029,0.03593884,-0.21189179,-0.38960856,-0.36850113,0.059855808,-3.0783706,0.62515026,-0.00032771262,-0.017267872,0.008685443,-0.0006282703,0.0037245972,-0.003909031,-0.007557554,0.50441194,-1.3810968,1.9038447,-2.0916607,-1.5708541,2.4795854,-0.029886954,0.018683828,-0.022757418,0.009297447,-0.0014085625,-0.022315461,-0.3256114,0.05746084,-9.595961,0.77545905,47.693153,-0.8875661,-2.7328017,-3.3559084,-0.07501107,0.019882798,-0.22205575,28.1875,29.625,28.6875,32.4375,34.875,36.0
0.046052214,-0.43211114,0.18785062,-0.45943865,-0.02139872,0.029262258,-0.18932903,-0.38961527,-0.36849728,0.05984306,-3.0783591,0.625051,-0.00038501428,-0.018639017,0.00935496,-0.00058367796,0.0038247423,-0.0037087474,-0.007894981,0.5043992,-1.3810484,1.9038085,-2.091625,-1.5708541,2.4795122,-0.032177236,0.019783141,-0.024210231,0.009524368,-0.0015976949,-0.024267143,-0.15322891,0.05746084,-9.557653,0.77545905,47.64927,-0.9177657,-2.7303143,-3.2784772,-0.05240266,0.00803745,-0.2224566,28.1875,29.625,28.6875,32.4375,34.875,36.0
0.048052195,-0.27019718,-0.50624233,-0.42683125,-0.007947717,0.016058879,-0.18014632,-0.3896678,-0.3684647,0.059844125,-3.0783389,0.6251037,-0.00037363954,-0.019943021,0.00972613,-0.00020142752,0.0034861795,-0.0031556613,-0.007166806,0.5043027,-1.3810121,1.9037603,-2.0916126,-1.570866,2.4794512,-0.0340328,0.020476261,-0.026002074,0.009974292,-0.0015730698,-0.026850134,-0.19153613,0.19153613,-9.595961,0.7463667,47.682407,-0.82040167,-2.6357162,-3.2551303,-0.04856827,0.0020519423,-0.2142658,28.1875,29.625,28.6875,32.4375,34.875,36.0
0.050052453,-0.10598934,-0.021544611,-0.55469817,-0.020143798,0.010516687,-0.17704797,-0.38972482,-0.36845335,0.059854798,-3.07835,0.6251252,-0.00034577682,-0.020355321,0.010194951,-9.446412e-05,0.0037388029,-0.0039170966,-0.006205699,0.5042303,-1.380964,1.9036764,-2.0916002,-1.570866,2.4793909,-0.035295125,0.020724518,-0.02685549,0.011367148,-0.0014256439,-0.029073644,-0.1340753,0.17238252,-9.576807,0.79560274,47.696735,-0.79674995,-2.6397967,-3.2694201,-0.049374454,0.017284293,-0.22860391,28.1875,29.625,28.6875,32.4375,34.875,36.0
0.05205241,0.10780342,-0.18929575,-0.33918986,-0.013230808,0.008849962,-0.17614509,-0.38975522,-0.36842445,0.059836067,-3.0782914,0.6252667,-0.00042895868,-0.02142965,0.011162691,-0.00015617374,0.003984564,-0.0045764935,-0.0070538344,0.5041458,-1.3809037,1.9036397,-2.0915644,-1.5708541,2.479402,-0.037988096,0.021445487,-0.027769642,0.012255978,-0.0013252975,-0.030918201,0.019153614,0.19153613,-9.595961,0.77545905,47.703007,-0.77272654,-2.6385322,-3.2870178,-0.058119904,0.00452472,-0.2180211,28.1875,29.625,28.6875,32.4375,34.875,36.0
0.054051664,-0.3432057,-0.17461622,-0.3039678,-0.004464481,-0.0037920706,-0.17498608,-0.3898211,-0.36839047,0.059849527,-3.0782902,0.6252473,-0.00035060855,-0.0215187,0.011488678,-0.00051139126,0.0045214407,-0.0059870956,-0.0067030676,0.50404966,-1.3808794,1.9035801,-2.091564,-1.5708903,2.479294,-0.03874869,0.022360438,-0.028292462,0.013356081,-0.0011126922,-0.032029774,0.15322891,0.21068975,-9.5385,0.7620334,47.696735,-0.7314776,-2.6773224,-3.3685522,-0.06175836,0.0011816968,-0.25284076,28.1875,29.625,28.6875,32.4375,34.875,36.0
0.05605264,0.16006413,0.108935155,-0.26750624,-0.013903241,0.008321723,-0.17234065,-0.38985962,-0.36836043,0.05984824,-3.07825,0.62527627,-0.00035547285,-0.02213349,0.010741519,-0.00011586142,0.0038235174,-0.0048766416,-0.005202883,0.503978,-1.380843,1.9035319,-2.0915277,-1.5709141,2.4792457,-0.038105946,0.0232434,-0.030164128,0.013034077,-0.0010443483,-0.032886386,0.095768064,0.24899697,-9.404425,0.7553206,47.694946,-0.8385531,-2.6545668,-3.2977262,-0.06577148,-0.014232499,-0.23262739,28.1875,29.625,28.6875,32.4375,34.875,36.0
0.058052473,0.23210222,0.094349675,-0.26940387,-0.012378255,0.01690047,-0.18269654,-0.38989052,-0.36836645,0.059849314,-3.0782907,0.6252655,-0.00040242713,-0.024016468,0.01128826,0.0007221792,0.00313763,-0.0034529532,-0.0060980306,0.5039292,-1.380795,1.9034699,-2.0915158,-1.570866,2.4791849,-0.040723648,0.0235231,-0.03251545,0.0135293715,-0.0011362147,-0.034607813,0.076614454,0.22984336,-9.423578,0.7642693,47.65912,-0.8022779,-2.5755038,-3.2695725,-0.04190573,-0.031602293,-0.28096986,28.1875,29.625,28.6875,32.4375,34.875,36.0
0.060052387,-0.15482664,-0.28744894,-0.23788786,-0.0017065338,0.008581479,-0.16427548,-0.38996544,-0.36833465,0.05985759,-3.0782764,0.6252816,-0.00036424326,-0.024865506,0.011752133,0.0009506965,0.0033883592,-0.0030140996,-0.006148425,0.5038209,-1.3807348,1.9033746,-2.091492,-1.5708903,2.4790885,-0.04202046,0.023837287,-0.03350049,0.013937337,-0.0015695365,-0.035852995,0.019153614,0.1340753,-9.423578,0.7396539,47.65912,-0.72909796,-2.5991747,-3.2452047,-0.053101294,-0.037063316,-0.25038794,28.1875,29.625,28.6875,32.4375,34.875,36.0
0.062052473,0.007528999,0.044973686,-0.05072444,-0.013570279,0.021285245,-0.17517404,-0.39001155,-0.36830586,0.059878796,-3.0782595,0.62535393,-0.00033932243,-0.025695274,0.012510848,0.0010456885,0.004329588,-0.0031553272,-0.0063767135,0.50373685,-1.3807346,1.903315,-2.0914433,-1.5709022,2.4790518,-0.043596137,0.024377648,-0.034616873,0.015093323,-0.0023260124,-0.03719852,-0.076614454,0.19153613,-9.385271,0.75084364,47.64479,-0.783637,-2.5525036,-3.2727337,-0.063504815,-0.03565807,-0.2862839,28.1875,29.625,28.6875,32.4375,34.875,36.0
0.06405157,-0.37022474,0.049849313,-0.023503775,-0.014134214,0.02388916,-0.17769477,-0.3900674,-0.36830103,0.059891388,-3.0782824,0.6252816,-0.00032516095,-0.026163755,0.012662905,0.0008694219,0.0049421676,-0.0034324678,-0.006186703,0.5036766,-1.3806741,1.9032067,-2.0914075,-1.5709022,2.4789436,-0.044032596,0.025509773,-0.03565652,0.015540451,-0.002730108,-0.03782369,-0.05746084,0.17238252,-9.32781,0.71279734,47.687782,-0.8071453,-2.6139214,-3.2461944,-0.079382345,-0.048626162,-0.2831514,28.1875,29.625,28.6875,32.4375,34.875,36.0
0.06605221,-0.25844368,0.079552926,-0.157063,-0.015183139,0.04225619,-0.17067012,-0.39011243,-0.36826336,0.059870698,-3.0782385,0.62538683,-0.00042369997,-0.027158529,0.013366689,0.00079144596,0.005053008,-0.0036628132,-0.0061583277,0.50355625,-1.3806016,1.90316,-2.0913713,-1.5708784,2.4788945,-0.046146594,0.026292933,-0.03647177,0.015827935,-0.0027212293,-0.039965488,-0.15322891,0.095768064,-9.3661175,0.71951014,47.652847,-0.8420876,-2.5595303,-3.2402554,-0.08449277,-0.06918625,-0.31683493,28.1875,29.625,28.6875,32.4375,34.875,36.0
0.06805188,-0.442042,0.15968493,-0.084251225,-0.0040628547,0.046194375,-0.17617044,-0.39015982,-0.3682493,0.05988155,-3.0782454,0.6253489,-0.0003953427,-0.027930535,0.013137305,0.00091510336,0.0042796847,-0.0031753047,-0.0047461228,0.5034961,-1.3805653,1.903087,-2.091348,-1.5708908,2.4788098,-0.046749666,0.027203994,-0.037727546,0.015369867,-0.0022837026,-0.04198096,-0.05746084,0.05746084,-9.461885,0.7665104,47.67166,-0.7801347,-2.603217,-3.251134,-0.08175339,-0.07788879,-0.30875817,28.1875,29.625,28.6875,32.4375,34.875,36.0
0.0700518,-0.870944,0.45508316,0.010965634,-0.006942863,0.047131468,-0.17292583,-0.39023894,-0.36823088,0.059899293,-3.0782747,0.6253741,-0.00039251012,-0.02892283,0.012960674,0.0015311284,0.0034384744,-0.0020489849,-0.004465579,0.5033761,-1.3805052,1.9029673,-2.0913117,-1.5708665,2.4787018,-0.047487967,0.027487427,-0.03948445,0.015450827,-0.0020938832,-0.042999476,-0.22984336,0.17238252,-9.346964,0.7284641,47.64658,-0.87890136,-2.5266943,-3.244977,-0.09237815,-0.07691782,-0.31031066,28.1875,29.625,28.6875,32.4375,34.875,36.0
0.07205173,-0.71366644,0.70840544,0.10002799,-0.007925985,0.0629725,-0.18892407,-0.3902976,-0.36818978,0.059885323,-3.0782495,0.6253696,-0.00038129077,-0.030264711,0.014043547,0.0012542895,0.003656288,-0.0019351905,-0.0075890687,0.5032674,-1.3804449,1.9029306,-2.091324,-1.5708908,2.4785936,-0.05040101,0.028404605,-0.039806895,0.01486115,-0.002342406,-0.042788185,-0.2681506,0.15322891,-9.270349,0.7665104,47.63225,-0.8612499,-2.5184178,-3.2198367,-0.10560084,-0.103473485,-0.36181313,28.1875,29.625,28.6875,32.4375,34.875,36.0
0.074051805,-1.1497744,0.39324722,0.05027164,0.0035015899,0.06353021,-0.16914414,-0.39030746,-0.36816823,0.05986035,-3.0781987,0.6253571,-0.00053556374,-0.031303808,0.01469336,0.0014110283,0.004685644,-0.0011712812,-0.004944393,0.503207,-1.3803725,1.9028829,-2.0912402,-1.570867,2.4785318,-0.05166427,0.029033523,-0.040998124,0.015255543,-0.0036214073,-0.04669269,-0.36391866,0.019153614,-9.32781,0.76874626,47.62867,-0.75575125,-2.5691085,-3.3075304,-0.10511881,-0.10154818,-0.3310846,28.1875,29.625,28.6875,32.4375,34.875,36.0
0.07605184,-0.74797857,0.8819553,0.10350229,-0.0029411435,0.080318786,-0.17988446,-0.39038074,-0.36813173,0.059875924,-3.0781798,0.6253892,-0.00047046805,-0.031451497,0.014276832,0.001343887,0.005629504,-0.00083945924,-0.00082440046,0.50309986,-1.3803362,1.902799,-2.0912163,-1.5709032,2.4784472,-0.050476715,0.030273939,-0.042382628,0.015564961,-0.0046115126,-0.04962247,-0.4405331,-0.019153614,-9.32781,0.8605109,47.701214,-0.97662723,-2.464913,-3.2782066,-0.10168795,-0.097828075,-0.3506653,28.1875,29.625,28.6875,32.4375,34.875,36.0
0.078051835,-1.2593291,0.86812955,0.23282602,-0.0014255479,0.070184164,-0.17533861,-0.390469,-0.36811376,0.05988865,-3.0782025,0.62529624,-0.00040434438,-0.033026032,0.015723547,0.0013673231,0.007324335,-0.00034171497,0.0014137258,0.5030028,-1.3802518,1.9026674,-2.0912035,-1.570928,2.4782894,-0.053292144,0.031124245,-0.04361723,0.016333684,-0.006338594,-0.054672167,-0.45968673,0.05746084,-9.308657,0.71951014,47.647476,-0.82451487,-2.501156,-3.2725613,-0.12676534,-0.09168191,-0.28547505,28.1875,29.625,28.6875,32.4375,34.875,36.0
0.08005181,-1.2441715,0.6195678,-0.15589063,0.012238111,0.0682428,-0.16393983,-0.39051306,-0.3680939,0.0598845,-3.0782022,0.62531674,-0.00048315825,-0.03439982,0.017030349,0.0014271776,0.008775845,0.00012907325,-0.0010008736,0.5029063,-1.3801913,1.9025944,-2.0911553,-1.5708927,2.4782057,-0.05582902,0.03172287,-0.04462105,0.017032789,-0.007840257,-0.054790724,-0.49799395,-0.038307227,-9.442732,0.7866488,47.658226,-0.8494377,-2.5004673,-3.2813845,-0.1523152,-0.07866348,-0.3069577,28.1875,29.625,28.6875,32.4375,34.875,36.0
0.08205233,-1.0736772,0.18073143,-0.1328182,0.02212516,0.06839664,-0.17033702,-0.39059877,-0.36804298,0.059895687,-3.07816,0.6252478,-0.00040956997,-0.03613459,0.018253293,0.001647394,0.010873627,0.0026026685,0.00016943907,0.502786,-1.3801311,1.9024872,-2.091108,-1.5709652,2.4780478,-0.05760023,0.03228463,-0.045626424,0.016325243,-0.0108764,-0.057725485,-0.45968673,-0.05746084,-9.346964,0.8179876,47.66271,-0.7932733,-2.4976277,-3.2735279,-0.14321275,-0.054616142,-0.30151814,28.1875,29.625,28.6875,32.4375,34.875,36.0
0.08405256,-0.9106449,0.70781547,-0.023222636,0.006261583,0.08327159,-0.17266041,-0.3906781,-0.36801744,0.059896868,-3.0781662,0.62530255,-0.00043312347,-0.035918634,0.018318314,0.0013011688,0.013945767,0.0037284724,0.0068428125,0.5026551,-1.380047,1.9023794,-2.0910842,-1.5709428,2.4779503,-0.055479582,0.033143453,-0.04581905,0.016163172,-0.014114727,-0.06227137,-0.49799395,-0.11492168,-9.404425,0.77545905,47.658226,-0.9626274,-2.4836712,-3.3084989,-0.14361821,-0.0061292876,-0.256638,28.1875,29.625,28.6875,32.4375,34.875,36.0
0.086052395,-1.1078963,0.4789595,0.17601459,0.003360026,0.07841413,-0.17333665,-0.39073345,-0.36798632,0.05990241,-3.0781622,0.6252824,-0.00042055096,-0.038033072,0.018374018,0.0016460344,0.01251393,0.0041738534,0.0075695044,0.50255835,-1.3800101,1.9023179,-2.0910604,-1.5709542,2.4778416,-0.058178872,0.035255652,-0.049128696,0.016273899,-0.013083631,-0.065697804,-0.4213795,-0.11492168,-9.404425,0.8179876,47.711063,-0.91185117,-2.5647683,-3.1655943,-0.16112861,0.013645214,-0.21107545,28.1875,29.625,28.6875,32.4375,34.875,36.0
0.088052236,-0.71355176,0.69195247,-0.11805705,-0.0035880436,0.07417977,-0.18122424,-0.39083508,-0.3679551,0.059904076,-3.0781438,0.6252762,-0.00039927545,-0.03828255,0.018657383,0.0011498085,0.0119750025,0.0023728714,0.009437236,0.502426,-1.3798896,1.9021634,-2.0910242,-1.570978,2.4777079,-0.059710182,0.03637307,-0.049439218,0.01677676,-0.011745927,-0.06909931,-0.38307226,-0.019153614,-9.442732,0.73741806,47.683304,-0.89720297,-2.544562,-3.1609488,-0.1719917,-0.007898958,-0.18541017,28.1875,29.625,28.6875,32.4375,34.875,36.0
0.09005218,-0.49993518,0.7825806,-0.035434663,-0.014394018,0.057106342,-0.17246416,-0.3909051,-0.36791417,0.059914235,-3.0781415,0.62523645,-0.00036305623,-0.03726022,0.018705843,0.0002944007,0.01116066,-0.00050862,0.011481874,0.5023062,-1.3798534,1.9020919,-2.0909998,-1.5710009,2.4775636,-0.06014458,0.036563836,-0.047781955,0.01705078,-0.009641688,-0.07158342,-0.40222588,0.0,-9.481039,0.7486078,47.694054,-0.95455253,-2.5344553,-3.3765612,-0.16342908,-0.031276252,-0.14240444,28.1875,29.625,28.6875,32.4375,34.875,36.0
0.09205225,-0.72795856,0.14756976,-0.11325859,-0.010766219,0.029316496,-0.16552903,-0.39098966,-0.3678763,0.059897795,-3.078107,0.62518954,-0.00035737205,-0.038464792,0.01853133,0.0007891898,0.009888683,-0.00021381219,0.012002897,0.5021858,-1.3797331,1.9019841,-2.0909874,-1.5710362,2.4774184,-0.06156335,0.037502088,-0.05014637,0.017598415,-0.008676148,-0.07352392,-0.24899697,-0.076614454,-9.404425,0.7777002,47.67345,-0.96748126,-2.5480754,-3.290052,-0.16658571,-0.0472592,-0.098684564,28.1875,29.625,28.6875,32.4375,34.875,36.0
0.094052486,-0.20753154,0.6515408,-0.1870728,-0.012167536,0.03025952,-0.17124309,-0.391058,-0.36783987,0.059903003,-3.0781124,0.62513226,-0.0003975131,-0.03995264,0.018356577,0.0014537205,0.009737724,0.0009046985,0.01225509,0.50205386,-1.3796728,1.9018873,-2.0909274,-1.5710248,2.47725,-0.062385738,0.038835064,-0.053444263,0.018511083,-0.0090901805,-0.07459598,-0.2873042,-0.019153614,-9.442732,0.7777002,47.681515,-1.0149,-2.4525826,-3.2576346,-0.19629854,-0.04716032,-0.07259696,28.1875,29.625,28.6875,32.4375,34.875,36.0
0.09605233,-0.41541055,0.06303417,-0.32294625,0.0069464752,0.018811673,-0.16763054,-0.39116025,-0.36776996,0.0599162,-3.0780473,0.6252151,-0.00031044602,-0.04084163,0.018554816,0.0011568498,0.009897547,0.0007646256,0.010601615,0.501886,-1.3796239,1.9017915,-2.090892,-1.5710968,2.4771423,-0.06348695,0.040486954,-0.054671936,0.018280178,-0.009165558,-0.07404289,-0.17238252,0.095768064,-9.423578,0.784413,47.664497,-0.9711416,-2.6168437,-3.1592534,-0.19836155,-0.056432758,-0.05274669,28.1875,29.625,28.6875,32.4375,34.875,36.0
0.09805265,-0.6285003,-0.34665424,-0.36575285,0.0044687004,0.019771548,-0.16313459,-0.39123803,-0.36772552,0.05991079,-3.078032,0.6251161,-0.00031634278,-0.040022023,0.019312631,0.00024145436,0.011119979,-0.0017230256,0.009415935,0.50175405,-1.3795398,1.9016961,-2.0908554,-1.5711211,2.4769506,-0.06407101,0.0407225,-0.053083636,0.019222107,-0.009037217,-0.07344201,-0.1340753,0.19153613,-9.423578,0.683705,47.674347,-1.0144963,-2.5281956,-3.3194594,-0.20099224,-0.03484354,-0.07511645,28.1875,29.625,28.6875,32.4375,34.875,36.0
0.10005252,-0.2561446,-0.13780594,-0.20124625,-0.016931945,0.032818265,-0.17216183,-0.39130828,-0.36769918,0.05990255,-3.078059,0.6250832,-0.00036806797,-0.041758474,0.0195208,0.0006792609,0.011057539,-0.00023922633,0.007163704,0.50162184,-1.3794553,1.9016122,-2.090844,-1.5710849,2.4767945,-0.06560911,0.04204265,-0.055620447,0.019111952,-0.009703096,-0.07272513,-0.076614454,0.15322891,-9.385271,0.8224646,47.66987,-1.0582073,-2.5404081,-3.2769587,-0.21931103,-0.021469392,-0.05545717,28.1875,29.625,28.6875,32.4375,34.875,36.0
0.10205246,0.17549238,-0.2087415,-0.2151758,-0.030239444,0.041537788,-0.16900425,-0.39140904,-0.3676788,0.05993023,-3.0781028,0.6249774,-0.00029803114,-0.043097507,0.020131482,0.00089151337,0.011619106,0.0009138139,0.004349543,0.5015017,-1.3793828,1.9014553,-2.0908077,-1.5710973,2.4766028,-0.0672139,0.042795647,-0.056962725,0.018962434,-0.010749556,-0.0715134,0.019153614,0.22984336,-9.442732,0.7396539,47.703007,-1.0582889,-2.5730865,-3.2629209,-0.21568292,-0.005629893,-0.08461082,28.1875,29.625,28.6875,32.4375,34.875,36.0
0.10405181,-0.14137769,-0.73081124,-0.4295579,-0.02682682,0.018154208,-0.16311485,-0.39148325,-0.36763313,0.05990747,-3.0780034,0.6249972,-0.00032625368,-0.043606807,0.020629529,0.00053199416,0.012701744,-0.00030800593,0.0015964349,0.5013933,-1.3792504,1.9013366,-2.090747,-1.5711573,2.4765196,-0.06828793,0.044302125,-0.058239747,0.020321455,-0.011116002,-0.06983214,0.076614454,0.3256114,-9.481039,0.7933669,47.678825,-1.0374154,-2.5710902,-3.219703,-0.24443726,-0.020416304,-0.10302501,28.1875,29.625,28.6875,32.4375,34.875,36.0
0.10605227,-0.61028343,-0.87707645,-0.48987794,-0.029694527,-0.0042914636,-0.15138339,-0.3915791,-0.36757877,0.059913214,-3.0779846,0.6250528,-0.0003392476,-0.0445412,0.021611955,0.0009878005,0.013481224,0.0004086982,-0.0018884048,0.50121313,-1.3791784,1.9012274,-2.090699,-1.5711578,2.4763765,-0.07015296,0.043813553,-0.05890529,0.021224067,-0.012144155,-0.06820991,0.019153614,0.21068975,-9.442732,0.6926589,47.68599,-1.0748917,-2.5563264,-3.3232808,-0.24382912,0.003510022,-0.13838491,28.1875,29.625,28.6875,32.4375,34.875,36.0
0.10805233,0.4326901,-0.25541136,-0.2362574,-0.036900815,0.012677262,-0.17242461,-0.3916598,-0.36753595,0.05991095,-3.0779629,0.6250674,-0.00031600837,-0.044923447,0.021590367,-7.852349e-05,0.0134547185,-0.0020028234,-0.004073247,0.501081,-1.3791053,1.9011434,-2.0906875,-1.5711817,2.4762564,-0.071196556,0.04680102,-0.06008288,0.02150953,-0.010964446,-0.06707027,0.0,0.21068975,-9.346964,0.7866488,47.68599,-1.0830455,-2.5536628,-3.2702837,-0.25405812,0.014491051,-0.14634407,28.1875,29.625,28.6875,32.4375,34.875,36.0
0.11005232,0.0657158,-0.49260587,-0.31647554,-0.024398196,0.0019499311,-0.16547556,-0.39175168,-0.36750808,0.059901755,-3.0779476,0.625065,-0.00034558275,-0.04611493,0.021724507,0.0003728858,0.01243663,-0.00068426144,-0.0060358,0.50094885,-1.3789732,1.9009999,-2.0906518,-1.5711817,2.4761248,-0.07267056,0.04698992,-0.061169997,0.02076014,-0.010711201,-0.066581465,0.038307227,0.22984336,-9.385271,0.8112748,47.682407,-1.0734417,-2.6502895,-3.2516398,-0.27028236,0.017551562,-0.19551358,28.1875,29.625,28.6875,32.4375,34.875,36.0
0.11205237,-0.53250545,-0.7756485,-0.40468135,-0.019592196,0.004181952,-0.15381084,-0.3918223,-0.36745986,0.05990328,-3.0778954,0.6250734,-0.0003799311,-0.04694052,0.021694824,0.001709505,0.0112259565,0.0014963754,-0.007304221,0.500817,-1.3789016,1.9008926,-2.0905674,-1.5712055,2.4760048,-0.07338009,0.045293186,-0.0622746,0.021064617,-0.010701611,-0.06602194,0.019153614,0.2681506,-9.3661175,0.800085,47.723602,-1.0954496,-2.441142,-3.2775795,-0.27247357,0.007870026,-0.22252297,28.1875,29.625,28.6875,32.4375,34.875,36.0
0.11405224,-0.051425934,-0.110065125,-0.19868474,-0.032499243,0.035550687,-0.17244728,-0.39195648,-0.36743668,0.059935622,-3.0779245,0.6251545,-0.00027019664,-0.047354832,0.021831084,0.00084230874,0.010941084,-0.001006011,-0.0063799364,0.5006608,-1.3788046,1.9007014,-2.0905554,-1.571217,2.4758956,-0.07487901,0.0477758,-0.06340222,0.021759165,-0.009248178,-0.06844836,0.038307227,0.28730422,-9.3661175,0.8090337,47.701214,-1.1821477,-2.5562363,-3.2995405,-0.29906496,-0.008439695,-0.24241239,28.1875,29.625,28.6875,32.4375,34.875,36.0
0.11605202,-0.71749157,-0.3672241,-0.24180527,-0.015133615,0.029542092,-0.15638639,-0.39204982,-0.36738697,0.059933558,-3.0779068,0.6250744,-0.00027546496,-0.047419176,0.021377727,0.000587103,0.0104710385,-0.0019320527,-0.007368677,0.5005051,-1.3787082,1.9005812,-2.0905077,-1.5712403,2.4756923,-0.074693516,0.049087655,-0.06445136,0.022077836,-0.0083947275,-0.06727515,-0.019153614,0.28730422,-9.32781,0.8112748,47.666286,-1.1564314,-2.4837284,-3.2833762,-0.3223368,-0.012855409,-0.2685458,28.1875,29.625,28.6875,32.4375,34.875,36.0
0.118051864,-0.5279474,-0.5255757,-0.27252632,-0.0048279003,0.037856255,-0.15306267,-0.39210787,-0.36734864,0.05991445,-3.0778828,0.6250517,-0.00038649197,-0.04951261,0.022672106,0.00026924,0.010394189,-0.0023609253,-0.0116868075,0.50037193,-1.3786113,1.9004964,-2.0904477,-1.5712165,2.475548,-0.07896555,0.051071767,-0.066077836,0.022059185,-0.008130854,-0.06722808,-0.05746084,0.19153613,-9.32781,0.7351769,47.668976,-1.1321533,-2.6607885,-3.295532,-0.3166908,-0.008131307,-0.30775458,28.1875,29.625,28.6875,32.4375,34.875,36.0
0.120051764,-0.23478286,0.4880613,-0.14330097,-0.021044988,0.040350035,-0.17562199,-0.3922161,-0.36729828,0.05992047,-3.0778322,0.6250759,-0.0003530897,-0.049193807,0.021552535,0.0014639137,0.008845354,-0.0005756316,-0.006962854,0.50021696,-1.3785038,1.9003419,-2.090388,-1.5712646,2.4754148,-0.07707772,0.049373746,-0.06681782,0.022179896,-0.0076334868,-0.07006521,-0.11492168,0.17238252,-9.346964,0.75755644,47.655537,-1.2277297,-2.5359411,-3.302967,-0.31664616,-0.024076648,-0.32635227,28.1875,29.625,28.6875,32.4375,34.875,36.0
0.1220518,-0.5652378,-0.038925376,-0.13225822,-0.00632552,0.02797413,-0.15572645,-0.39233372,-0.36725587,0.05992945,-3.0778246,0.62515455,-0.00033874644,-0.05067669,0.021715043,0.001747814,0.007885051,0.0008036209,-0.011285579,0.50003666,-1.3783954,1.900185,-2.0903518,-1.5712646,2.4752846,-0.078814,0.05020977,-0.06820554,0.021060254,-0.007455722,-0.06747846,-0.21068975,0.05746084,-9.251195,0.7665104,47.657326,-1.2967465,-2.4241033,-3.2460861,-0.31661853,-0.03982626,-0.3540734,28.1875,29.625,28.6875,32.4375,34.875,36.0
0.12405213,-0.59011525,0.12011946,-0.21013722,-0.0028258006,0.030615982,-0.15849774,-0.39242846,-0.36721465,0.059925124,-3.077817,0.6251914,-0.0003397397,-0.052342903,0.023339372,0.0010410395,0.009196547,0.00019038841,-0.014633572,0.49987963,-1.3782986,1.9000777,-2.0903409,-1.5712646,2.4751515,-0.08253775,0.05216702,-0.06889765,0.020963747,-0.008315353,-0.06785171,-0.28730422,-0.019153614,-9.32781,0.83813137,47.691364,-1.0712041,-2.510305,-3.3323872,-0.32086793,-0.040590655,-0.43872446,28.1875,29.625,28.6875,32.4375,34.875,36.0
0.12605198,-0.15667823,0.5436481,-0.015288349,-0.0007435594,0.057273813,-0.16119696,-0.39253798,-0.36716694,0.059922367,-3.0777845,0.62522006,-0.00033098066,-0.05350142,0.021850698,0.0025041543,0.007949754,0.0031532547,-0.009750426,0.4997128,-1.3781785,1.8999332,-2.0903041,-1.5712885,2.4750068,-0.080874205,0.052735377,-0.07297548,0.021271598,-0.008652954,-0.071068764,-0.2681506,0.038307227,-9.385271,0.8717007,47.66091,-1.330576,-2.469654,-3.254868,-0.32157332,-0.027808063,-0.44462657,28.1875,29.625,28.6875,32.4375,34.875,36.0
0.12805183,-0.45274872,0.57201326,0.010723599,0.01126813,0.06306673,-0.16832504,-0.39265424,-0.36714658,0.05994711,-3.0778358,0.6252096,-0.00030040252,-0.053741712,0.023086647,0.0017273999,0.008672994,0.00088824227,-0.008816856,0.49955624,-1.3780819,1.8997544,-2.090268,-1.5712646,2.4748373,-0.08343757,0.05349251,-0.07231663,0.022187045,-0.008198641,-0.07456734,-0.22984336,0.038307227,-9.346964,0.7284641,47.701214,-1.2951417,-2.48554,-3.162544,-0.34052348,-0.035942964,-0.45703262,28.1875,29.625,28.6875,32.4375,34.875,36.0
0.130052,-0.75470614,0.9748297,-0.27380314,0.008268776,0.06733713,-0.16915226,-0.39275172,-0.3670928,0.059930306,-3.0777981,0.6251994,-0.0003727445,-0.05485422,0.023898305,0.0017609823,0.00897213,0.0009601232,-0.0054675695,0.49937585,-1.3779496,1.8996223,-2.0902078,-1.5712651,2.4746554,-0.08562173,0.054145597,-0.07325514,0.022549141,-0.008506326,-0.08009917,-0.30645782,-0.076614454,-9.423578,0.7172743,47.64837,-1.2448817,-2.4542208,-3.291853,-0.346477,-0.054850146,-0.45644087,28.1875,29.625,28.6875,32.4375,34.875,36.0
0.13205196,-0.9106051,0.83008283,-0.17320457,0.004449819,0.0785036,-0.16928607,-0.39285517,-0.36704808,0.059932377,-3.0777736,0.62519014,-0.000363467,-0.057179578,0.02361211,0.0023873593,0.008387412,0.003064782,-0.0006776346,0.49921986,-1.3778408,1.8994778,-2.0901601,-1.571289,2.4744968,-0.0869517,0.056466814,-0.07735578,0.022195915,-0.009016707,-0.08621579,-0.38307226,-0.076614454,-9.461885,0.7933669,47.689575,-1.3309681,-2.5080276,-3.1068096,-0.351932,-0.049548525,-0.4110047,28.1875,29.625,28.6875,32.4375,34.875,36.0
0.13405238,-1.1223444,0.5501543,-0.31560653,-0.0049271705,0.08711549,-0.17460223,-0.3929376,-0.36699614,0.059932824,-3.0777464,0.62512565,-0.00040982798,-0.057246007,0.024315214,0.0017926472,0.008580623,0.0019049984,0.002070644,0.49906343,-1.3777566,1.8993582,-2.0900767,-1.5713004,2.4743037,-0.08841642,0.056833565,-0.07638969,0.021967597,-0.008637604,-0.09042955,-0.63206923,-0.019153614,-9.461885,0.79560274,47.709274,-1.1932569,-2.5086873,-3.1241713,-0.34460515,-0.056444656,-0.3836249,28.1875,29.625,28.6875,32.4375,34.875,36.0
0.1360521,-0.99143636,0.30169055,-0.34145996,-0.010644383,0.09911942,-0.17135052,-0.39308488,-0.36693126,0.059945583,-3.0777118,0.62518775,-0.0003336521,-0.057424746,0.023972504,0.0021160804,0.008233922,0.0020915014,0.0118906535,0.49884823,-1.3776362,1.8991784,-2.0900404,-1.5713485,2.4741318,-0.0881064,0.057041828,-0.07750628,0.02253322,-0.008429718,-0.099939816,-0.6512228,-0.019153614,-9.615114,0.7866488,47.72629,-1.4029894,-2.4505842,-3.2368684,-0.33932388,-0.075411335,-0.3076968,28.1875,29.625,28.6875,32.4375,34.875,36.0
0.13805206,-1.4745612,0.18478085,-0.40836444,-0.019586252,0.096815735,-0.16248001,-0.39317462,-0.3668892,0.059921306,-3.0776641,0.6251408,-0.00040899904,-0.060331095,0.026421549,0.0024033082,0.008845024,0.0029323883,0.008904393,0.49870232,-1.37748,1.8990349,-2.0899804,-1.571361,2.4739628,-0.094298765,0.057625156,-0.07895324,0.022949615,-0.009381218,-0.10314245,-0.49799395,-0.076614454,-9.653421,0.800085,47.71554,-1.1279207,-2.3557932,-3.2079592,-0.3535092,-0.07534431,-0.25454763,28.1875,29.625,28.6875,32.4375,34.875,36.0
0.14005227,-1.6774548,0.0386615,-0.5033089,-0.0124891335,0.09482312,-0.16535845,-0.3932796,-0.36681458,0.05991799,-3.0776434,0.625075,-0.00044287433,-0.060256053,0.02600182,0.00080095493,0.010449964,0.00090474944,0.014255215,0.49848726,-1.3773944,1.8989276,-2.0899208,-1.5713729,2.4737093,-0.093223006,0.061699074,-0.08003933,0.022505594,-0.00983309,-0.10741496,-0.63206923,-0.05746084,-9.672575,0.7933669,47.71554,-1.357884,-2.596231,-3.2535703,-0.34820986,-0.0777023,-0.19512816,28.1875,29.625,28.6875,32.4375,34.875,36.0
0.14205214,-0.93878955,0.010396513,-0.35824105,-0.011458099,0.11009662,-0.17330138,-0.39343223,-0.36677906,0.059924487,-3.0776618,0.62506014,-0.00038720143,-0.062370285,0.027126802,0.002358552,0.008307634,0.0041693645,0.012497944,0.49829417,-1.3772273,1.898712,-2.0899093,-1.5713848,2.4735048,-0.09722964,0.059230644,-0.08043301,0.02147039,-0.009513655,-0.109665595,-0.7852981,0.038307227,-9.500193,0.78217715,47.672558,-1.2397716,-2.4819102,-3.3275135,-0.3357113,-0.06131447,-0.1615234,28.1875,29.625,28.6875,32.4375,34.875,36.0
0.14405225,-0.9360198,0.50260144,-0.3492641,-0.015128419,0.110470936,-0.16944496,-0.3935408,-0.36671978,0.05992369,-3.077657,0.6250021,-0.00038959543,-0.06444239,0.028019547,0.0025302141,0.008079383,0.005264765,0.009183501,0.49810174,-1.3771309,1.8985914,-2.0898736,-1.5713967,2.4732769,-0.100412965,0.060504064,-0.082209274,0.020900106,-0.009842894,-0.10953263,-0.7469909,0.0,-9.461885,0.7642693,47.67614,-1.1082622,-2.3463862,-3.2710965,-0.33545774,-0.10495065,-0.14708859,28.1875,29.625,28.6875,32.4375,34.875,36.0
0.14605236,-1.0872505,0.6051465,-0.48520908,-0.005817594,0.085547484,-0.16846983,-0.39368796,-0.36667392,0.05994927,-3.077665,0.62502444,-0.0003361625,-0.06594906,0.029289674,0.0019874435,0.00912205,0.005124618,0.0038371037,0.49789703,-1.37701,1.8983763,-2.0898135,-1.5714096,2.4730852,-0.10337986,0.062245265,-0.08296109,0.020533254,-0.010688567,-0.10715088,-0.63206923,-0.019153614,-9.634268,0.8247004,47.70032,-1.0216947,-2.536012,-3.2478027,-0.31999764,-0.07005278,-0.13687655,28.1875,29.625,28.6875,32.4375,34.875,36.0
0.14805232,-1.0401964,0.25189355,-0.36101514,-0.0043690074,0.073758215,-0.15674941,-0.39385387,-0.36660704,0.059952807,-3.0776238,0.6250383,-0.00026260555,-0.068238325,0.029702844,0.0032424778,0.00814145,0.007950476,-0.002646633,0.4976688,-1.3768418,1.8981608,-2.0897777,-1.5714692,2.472871,-0.105840944,0.062216956,-0.08576378,0.020409202,-0.011177571,-0.10312611,-0.61291564,-0.05746084,-9.672575,0.8090337,47.701214,-0.96440697,-2.3734486,-3.31815,-0.31850842,-0.087020114,-0.19984584,28.1875,29.625,28.6875,32.4375,34.875,36.0
0.15005241,-1.1306014,0.4858138,-0.32154,-0.011603218,0.065170735,-0.15620638,-0.39394942,-0.3665351,0.059929445,-3.0775936,0.625035,-0.00034768987,-0.06870813,0.030767854,0.0026636485,0.00945437,0.007614887,-0.008510462,0.49745268,-1.3767334,1.8980774,-2.089742,-1.5714577,2.4726567,-0.10742397,0.0628257,-0.08509569,0.0200595,-0.012172245,-0.0988424,-0.5746084,-0.019153614,-9.557653,0.80679786,47.719128,-0.8902631,-2.408056,-3.2008975,-0.3158021,-0.053743728,-0.26798043,28.1875,29.625,28.6875,32.4375,34.875,36.0
0.15205242,-0.8472242,0.16409063,-0.51668376,-0.0013132676,0.07232421,-0.15779711,-0.39412495,-0.36648935,0.05995421,-3.077616,0.6250583,-0.000212271,-0.0694048,0.031055171,0.0025862507,0.008733539,0.0069551384,-0.011445971,0.4972365,-1.3765892,1.8978499,-2.089742,-1.5714935,2.4724524,-0.109102845,0.06362291,-0.08593389,0.020327922,-0.011215444,-0.09758857,-0.5363012,-0.095768064,-9.500193,0.84484416,47.672558,-0.8880415,-2.4220936,-3.3415823,-0.29693714,-0.075221844,-0.29483974,28.1875,29.625,28.6875,32.4375,34.875,36.0
0.15405175,-0.35581988,0.36494243,-0.43442804,-0.00013215974,0.09018083,-0.16541874,-0.39425978,-0.36644897,0.059977558,-3.0776355,0.62508076,-0.0001690859,-0.0719598,0.030340854,0.0039991536,0.006782582,0.009858662,-0.0117756,0.49704462,-1.3764806,1.8976573,-2.0896943,-1.5714935,2.4722722,-0.11041649,0.06508498,-0.09089031,0.020335764,-0.010892703,-0.09857153,-0.49799395,-0.038307227,-9.423578,0.82694155,47.664497,-0.863739,-2.3764834,-3.1046028,-0.2677134,-0.078694046,-0.3035562,28.1875,29.625,28.6875,32.4375,34.875,36.0
0.15605235,-1.2423261,0.48197013,-0.20546907,0.005898494,0.062579796,-0.1530655,-0.39440936,-0.36636353,0.05997981,-3.0775924,0.62510926,-0.00012216136,-0.07142819,0.030671066,0.0033181873,0.0074166986,0.008299071,-0.011193529,0.49679306,-1.3763603,1.8975013,-2.089658,-1.5715412,2.472044,-0.1105667,0.06553227,-0.08993852,0.02060131,-0.010703417,-0.099304594,-0.4213795,-0.038307227,-9.442732,0.7530795,47.67614,-0.96999586,-2.3351154,-3.3006003,-0.2581575,-0.09423435,-0.33909106,28.1875,29.625,28.6875,32.4375,34.875,36.0
0.15805224,-0.5560753,0.66492915,-0.3638899,0.00957461,0.073126,-0.1697203,-0.39451715,-0.36628255,0.059929352,-3.0775075,0.6251295,-0.00024122892,-0.07209851,0.030319149,0.0038251707,0.0064053675,0.008853681,-0.011510753,0.49656543,-1.3761799,1.8973941,-2.0896223,-1.5715536,2.47184,-0.11094371,0.06589148,-0.09160635,0.020934587,-0.01009132,-0.09936403,-0.28730422,-0.038307227,-9.442732,0.8717007,47.681515,-0.9624739,-2.3263862,-3.1434913,-0.24112797,-0.113825694,-0.35112178,28.1875,29.625,28.6875,32.4375,34.875,36.0
0.16005209,-0.71185225,0.47907144,-0.34222674,0.014639894,0.049727492,-0.16047262,-0.39468578,-0.36625335,0.05999775,-3.0775673,0.6251778,-0.00011332053,-0.07223969,0.030802052,0.0030683314,0.008260828,0.0078051267,-0.010116784,0.49636185,-1.3760952,1.8971189,-2.0895383,-1.5715541,2.471659,-0.111148104,0.06760831,-0.09204229,0.021460094,-0.011212988,-0.100960515,-0.19153613,0.038307227,-9.481039,0.8090337,47.696735,-1.0251417,-2.3337164,-3.2132668,-0.2517059,-0.08123641,-0.37897426,28.1875,29.625,28.6875,32.4375,34.875,36.0
0.16205223,0.0017814665,0.20867352,-0.38013065,0.009837324,0.046102352,-0.15562531,-0.3948604,-0.3661831,0.059999943,-3.0775177,0.6252269,-4.0678748e-05,-0.07403904,0.032733783,0.003059383,0.009402618,0.008287406,-0.014685449,0.4961208,-1.375915,1.896892,-2.089502,-1.5716141,2.471455,-0.115241095,0.067963034,-0.092502356,0.021681106,-0.012445026,-0.10048198,-0.21068975,-0.019153614,-9.423578,0.82694155,47.698532,-0.89296305,-2.2975693,-3.2445502,-0.22530733,-0.0927019,-0.40591085,28.1875,29.625,28.6875,32.4375,34.875,36.0
0.16405223,-0.08435682,0.37173334,-0.31882676,-0.014280505,0.037900664,-0.16836,-0.3950096,-0.3660923,0.05998776,-3.0774746,0.62530786,-3.154688e-05,-0.0737045,0.03204542,0.0029618423,0.010682083,0.0087473225,-0.0065937345,0.49584633,-1.3757826,1.8967599,-2.0894902,-1.5716385,2.4712367,-0.112900354,0.068979315,-0.093544364,0.021904875,-0.013796068,-0.10622919,-0.15322891,0.19153613,-9.3661175,0.8560339,47.701214,-1.1707765,-2.260871,-3.2618904,-0.2035507,-0.051705375,-0.41217953,28.1875,29.625,28.6875,32.4375,34.875,36.0
0.16605222,0.120206356,-0.04976996,-0.4061465,-0.011957471,0.038738158,-0.16180156,-0.39512005,-0.36602426,0.05997243,-3.0774093,0.62525666,-8.409284e-05,-0.075715706,0.03339953,0.0027895356,0.010240828,0.007868943,-0.007158387,0.49565285,-1.3756379,1.896604,-2.0894058,-1.5716742,2.4710197,-0.117487125,0.0706358,-0.095267765,0.022521382,-0.013003263,-0.110251315,-0.076614454,0.13407528,-9.32781,0.8179876,47.658226,-0.80840564,-2.3527696,-3.2776701,-0.18846981,-0.069938794,-0.34117293,28.1875,29.625,28.6875,32.4375,34.875,36.0
0.16805236,0.2582195,0.006448545,-0.26370314,-0.016989052,0.031671304,-0.1639346,-0.39530125,-0.36597812,0.060011983,-3.0774791,0.62526494,1.5751837e-05,-0.075531945,0.033278488,0.0025010165,0.0098912055,0.006117821,-0.00066258037,0.49540162,-1.3755174,1.8963655,-2.089382,-1.5716618,2.4707649,-0.117780626,0.071504496,-0.09590638,0.023653205,-0.011856406,-0.117044166,-0.076614454,0.095768064,-9.3661175,0.7642693,47.66271,-1.0342635,-2.3082047,-3.3161201,-0.19227423,-0.08716698,-0.30532426,28.1875,29.625,28.6875,32.4375,34.875,36.0
0.17005247,0.13956909,-0.2580071,-0.15227494,-0.025747666,0.024651568,-0.1622966,-0.39544967,-0.3658987,0.060006738,-3.0774326,0.62527055,4.7577458e-05,-0.07626206,0.033407133,0.0023893297,0.009620225,0.005281381,0.004321121,0.49516174,-1.3753728,1.8961977,-2.0893457,-1.5717095,2.4705346,-0.1190187,0.07291327,-0.09751268,0.024441067,-0.011228481,-0.123266466,-0.038307227,0.17238252,-9.346964,0.78217715,47.667187,-1.0077367,-2.3003142,-3.2918868,-0.16309434,-0.099436015,-0.23695752,28.1875,29.625,28.6875,32.4375,34.875,36.0
0.17205232,0.70973563,0.068417266,-0.17108639,-0.040330008,0.03723962,-0.17528366,-0.3956175,-0.3658387,0.06001126,-3.0774345,0.62524724,9.840232e-05,-0.077124156,0.033745818,0.0025545196,0.008524074,0.004851815,0.009523401,0.49492177,-1.3752044,1.8959821,-2.0893219,-1.5717329,2.47028,-0.12105655,0.073351696,-0.09851165,0.024841828,-0.010063777,-0.13050908,0.019153614,0.19153613,-9.289502,0.75084364,47.67345,-1.0829663,-2.4149857,-3.2651267,-0.17168951,-0.10063985,-0.12994616,28.1875,29.625,28.6875,32.4375,34.875,36.0
0.1740525,0.4391591,-0.2103589,-0.46947983,-0.024765681,0.025258273,-0.17328279,-0.39576837,-0.36577404,0.06001298,-3.0774288,0.6251857,9.40715e-05,-0.07665761,0.033252068,0.002219444,0.009316218,0.0047074207,0.013220306,0.49468273,-1.3750482,1.895779,-2.0892618,-1.5717453,2.4700034,-0.119367495,0.07419247,-0.09872966,0.02471854,-0.010696439,-0.13251516,0.05746084,0.21068975,-9.251195,0.8605109,47.65912,-1.1296654,-2.287553,-3.3702734,-0.15641524,-0.10621758,-0.12226164,28.1875,29.625,28.6875,32.4375,34.875,36.0
0.17605223,0.19164634,-0.22957575,-0.4432055,-0.026009692,0.02153889,-0.15248361,-0.39593005,-0.36571467,0.060032114,-3.0774186,0.62512976,0.00017197669,-0.07965632,0.034871947,0.0021455826,0.009827816,0.0054402803,0.006872146,0.49446535,-1.374903,1.8955497,-2.0892022,-1.5717939,2.4697526,-0.12429411,0.07668837,-0.10150525,0.024591748,-0.011496605,-0.13109061,0.095768064,0.17238252,-9.3661175,0.7530795,47.613445,-1.0814048,-2.3619852,-3.2274928,-0.13289787,-0.09774387,-0.094619796,28.1875,29.625,28.6875,32.4375,34.875,36.0
0.17805217,0.29698104,-0.11485708,-0.3480158,-0.029380916,0.022712225,-0.16154042,-0.39607456,-0.36563706,0.06002474,-3.0774093,0.6250881,0.00013806297,-0.0781321,0.03482269,0.0018692514,0.011243478,0.0043332665,0.005052153,0.4942028,-1.3747592,1.8953847,-2.0891535,-1.5717939,2.4694653,-0.122336075,0.075739555,-0.10000852,0.025693705,-0.012212536,-0.12731151,0.05746084,0.21068975,-9.308657,0.784413,47.65106,-1.2010938,-2.4179082,-3.4432235,-0.110288605,-0.096902736,-0.11168055,28.1875,29.625,28.6875,32.4375,34.875,36.0
0.18005218,0.29770532,0.38781175,-0.131065,-0.031274118,0.01800499,-0.15929152,-0.39624384,-0.365586,0.060020525,-3.0773978,0.6251464,0.00013853319,-0.08046681,0.03500922,0.003498126,0.011151429,0.007204998,-0.0018118392,0.49396268,-1.3745549,1.8951434,-2.0891173,-1.5717944,2.469263,-0.12393689,0.076053865,-0.10445408,0.02726042,-0.013495201,-0.12204381,0.019153614,0.21068975,-9.3661175,0.8112748,47.67166,-1.1576378,-2.231255,-3.1955152,-0.11611912,-0.08930403,-0.17832768,28.1875,29.625,28.6875,32.4375,34.875,36.0
0.18205221,1.0028411,0.4216315,-0.3214829,-0.022100244,0.032023948,-0.16777731,-0.39639428,-0.36548167,0.06000665,-3.0773063,0.62520677,0.00013575517,-0.07979119,0.035968754,0.00079633377,0.013019409,0.0013407464,-0.007766119,0.49368662,-1.3744093,1.8949884,-2.0890567,-1.5718535,2.4690366,-0.12560426,0.08017128,-0.103409834,0.028137859,-0.01235919,-0.117758706,0.05746084,0.2681506,-9.289502,0.80679786,47.658226,-1.1512816,-2.3871238,-3.400107,-0.11069429,-0.07305553,-0.24446149,28.1875,29.625,28.6875,32.4375,34.875,36.0
0.1840521,-0.09039903,-0.17499982,-0.41549936,-0.009999151,-0.0046821255,-0.15791276,-0.3965385,-0.36541563,0.060010836,-3.0772772,0.62514466,0.000116269046,-0.081102274,0.035798445,0.0023924361,0.010897417,0.0035785562,-0.011891906,0.49345884,-1.3742537,1.8947724,-2.088961,-1.5718774,2.4687738,-0.12696972,0.078785345,-0.10552206,0.028654784,-0.011556624,-0.1149993,0.038307227,0.24899697,-9.270349,0.88960326,47.709274,-1.1228639,-2.369305,-3.3869047,-0.08675553,-0.10809363,-0.30398566,28.1875,29.625,28.6875,32.4375,34.875,36.0
0.18605213,0.5310525,0.009255823,-0.2608257,-0.016342044,0.008189761,-0.16159023,-0.3967104,-0.3653574,0.060039952,-3.0772886,0.62522376,0.00022411147,-0.08199383,0.035399493,0.0023089603,0.010257743,0.002829635,-0.014173952,0.49321908,-1.3741328,1.8945569,-2.0889366,-1.5719012,2.4685822,-0.12763654,0.08103446,-0.108186744,0.02942028,-0.0106337285,-0.11338566,-0.019153614,0.22984336,-9.232041,0.82022345,47.7254,-1.15481,-2.3440766,-3.2527442,-0.07616216,-0.108100116,-0.35364467,28.1875,29.625,28.6875,32.4375,34.875,36.0
0.18805201,0.14470415,-0.15360977,-0.37481073,-0.01475761,0.020092389,-0.16069032,-0.3968498,-0.3653045,0.060035147,-3.077288,0.62514704,0.00019144206,-0.08258765,0.036163095,0.0011936738,0.011094086,4.6175443e-05,-0.017196624,0.49300283,-1.3739637,1.8943533,-2.088876,-1.5719007,2.4683182,-0.12978233,0.08380802,-0.10920617,0.030510724,-0.010055542,-0.11250913,-0.19153614,0.19153613,-9.289503,0.842603,47.701214,-1.154798,-2.2675934,-3.319217,-0.077280045,-0.13666417,-0.42146054,28.1875,29.625,28.6875,32.4375,34.875,36.0
0.19005184,-0.14058769,0.23439176,-0.3590465,-0.020422252,0.04121241,-0.16125837,-0.39701152,-0.3651886,0.06001491,-3.0771499,0.62525254,9.426426e-05,-0.08422613,0.036965713,0.0011584051,0.012300833,5.8070233e-05,-0.019725937,0.4926908,-1.3737708,1.8941377,-2.088733,-1.5719494,2.4680898,-0.1319051,0.08589599,-0.11187884,0.03165172,-0.011142339,-0.1120975,-0.24899697,0.22984336,-9.308657,0.8247004,47.645687,-1.112282,-2.2774534,-3.2986703,-0.08269892,-0.10568993,-0.45493037,28.1875,29.625,28.6875,32.4375,34.875,36.0
0.19205187,-0.5854289,-0.01526034,-0.29748362,-0.017255383,0.06541977,-0.16056854,-0.39718822,-0.36514476,0.060026888,-3.0771995,0.62530106,8.450583e-05,-0.08424445,0.0383475,-0.00012929486,0.013542472,-0.0030124,-0.020233203,0.49242648,-1.3735901,1.8938874,-2.0886962,-1.5719012,2.4678495,-0.13441865,0.087317035,-0.11084292,0.032486286,-0.010780327,-0.11410531,-0.2681506,0.21068975,-9.32781,0.7172743,47.668976,-1.0697262,-2.31483,-3.2887273,-0.08528721,-0.1408311,-0.4925863,28.1875,29.625,28.6875,32.4375,34.875,36.0
0.19405185,-1.3826901,-0.22206247,-0.18624721,-0.011306027,0.067849584,-0.15096147,-0.39733508,-0.36506414,0.06001622,-3.0771306,0.6253014,7.3919655e-05,-0.08596276,0.03767066,0.0013580046,0.012153141,-0.00068198,-0.015282574,0.49218723,-1.3734218,1.8936952,-2.0886242,-1.5719494,2.4676194,-0.13486323,0.08777211,-0.11500086,0.03346376,-0.0106768245,-0.11949868,-0.40222588,0.11492168,-9.32781,0.79560274,47.655537,-1.1839031,-2.41448,-3.315931,-0.06927186,-0.1403823,-0.5043311,28.1875,29.625,28.6875,32.4375,34.875,36.0
0.19605173,-1.4994313,-0.15191613,-0.037411433,-0.010832759,0.087874666,-0.1608109,-0.39751327,-0.36498663,0.060007848,-3.077111,0.62532926,1.7124967e-05,-0.085592024,0.038086794,0.001142144,0.012699668,-0.0013910189,-0.0060827574,0.49188757,-1.3732177,1.8934554,-2.0885522,-1.5719374,2.4673398,-0.13507412,0.08739347,-0.114170566,0.033882603,-0.010836575,-0.12890908,-0.57460845,0.11492168,-9.346964,0.9164598,47.678825,-1.0917145,-2.2633216,-3.288548,-0.06622952,-0.1588469,-0.42578605,28.1875,29.625,28.6875,32.4375,34.875,36.0
0.19805166,-0.9012648,0.68378836,-0.050208807,-0.00978819,0.10261551,-0.17216197,-0.39769104,-0.36492708,0.060010247,-3.0771332,0.6253854,1.6982614e-05,-0.08736789,0.03896113,-0.00014613025,0.012844417,-0.0038944774,0.001796175,0.49161068,-1.373036,1.8932284,-2.0885284,-1.5719126,2.4670951,-0.13874803,0.091743656,-0.11647927,0.03409906,-0.009797562,-0.14046317,-0.57460845,0.019153614,-9.385271,0.8403672,47.672558,-1.0759397,-2.4492044,-3.2488375,-0.05670207,-0.17909327,-0.35139877,28.1875,29.625,28.6875,32.4375,34.875,36.0
0.20005178,-1.805682,0.5472893,-0.19622497,0.0028156813,0.07877558,-0.16142742,-0.3978745,-0.36485004,0.060041357,-3.0771139,0.62535655,0.00014816919,-0.088037916,0.037649974,0.0023460898,0.011023316,0.0007428102,0.0100321565,0.49135995,-1.3729049,1.8929881,-2.0884678,-1.5719856,2.466829,-0.13672997,0.08904192,-0.11900103,0.034356322,-0.010386127,-0.14667965,-0.63206923,0.038307227,-9.289502,0.88289046,47.694054,-1.2293775,-2.3077374,-3.2083182,-0.042953994,-0.16183099,-0.2463006,28.1875,29.625,28.6875,32.4375,34.875,36.0
0.20205171,-1.1103021,0.7038928,0.13799874,0.0036674738,0.09321807,-0.16861276,-0.39806306,-0.3647805,0.060028914,-3.0770872,0.62536675,0.00010170737,-0.089304656,0.03852359,0.0012097477,0.01316605,-0.00046661837,0.013319831,0.49107227,-1.3726634,1.892713,-2.0883963,-1.5719861,2.4665513,-0.13846466,0.09269093,-0.120834276,0.03461312,-0.011720481,-0.15169714,-0.80445176,-0.038307227,-9.289503,0.8179876,47.70211,-1.2824847,-2.460351,-3.0885742,-0.022052094,-0.18161598,-0.1825032,28.1875,29.625,28.6875,32.4375,34.875,36.0
0.20405169,-1.2948889,0.9392196,-0.10041119,0.011774794,0.087932885,-0.16460916,-0.3982288,-0.36469254,0.060035728,-3.077075,0.62524885,0.00012018531,-0.090110846,0.039026696,0.00097026286,0.013246617,-0.0017079778,0.012543969,0.49079606,-1.3725187,1.8925089,-2.0883238,-1.5720214,2.4662032,-0.14030688,0.094167486,-0.12231237,0.035735734,-0.01121191,-0.15276392,-0.7469909,-0.05746084,-9.346964,0.800085,47.694946,-1.2178856,-2.4150252,-3.081624,-0.02839466,-0.17828731,-0.13919713,28.1875,29.625,28.6875,32.4375,34.875,36.0
0.2060527,-0.6435435,1.0511019,-0.12344041,0.0107993055,0.10011616,-0.16088305,-0.39841884,-0.36460757,0.06002064,-3.0770326,0.6252428,9.818892e-05,-0.09038536,0.039701622,0.00059062283,0.0149889365,-0.0033209187,0.006030034,0.49049643,-1.3722901,1.8922576,-2.0882633,-1.5720462,2.4659054,-0.14115208,0.09556676,-0.12361995,0.037891004,-0.011989132,-0.14709233,-0.7469909,-0.15322891,-9.423578,0.8224646,47.693153,-1.1627127,-2.428097,-3.0660315,-0.053003564,-0.20981464,-0.16192156,28.1875,29.625,28.6875,32.4375,34.875,36.0
0.2080524,-1.0786902,0.7122858,-0.011170069,0.0061512277,0.09461778,-0.16266194,-0.39858446,-0.36453903,0.060022797,-3.0770047,0.6252992,6.611001e-05,-0.09231137,0.041533586,0.0005566194,0.015587133,-0.004018521,-0.0031167387,0.4902313,-1.3721094,1.8920187,-2.0881793,-1.5720462,2.4656792,-0.14579888,0.0966283,-0.12512504,0.039235335,-0.01219029,-0.14259093,-0.90021986,-0.095768064,-9.32781,0.8873621,47.694946,-1.0375329,-2.5131862,-3.0399485,-0.058122393,-0.1978988,-0.21079224,28.1875,29.625,28.6875,32.4375,34.875,36.0
0.21005234,-1.0460454,0.39567104,-0.04320415,0.009139606,0.10309006,-0.15958573,-0.39878193,-0.36444703,0.060030073,-3.076962,0.6252515,5.625869e-05,-0.092230864,0.041589916,-4.273989e-05,0.016962532,-0.0046209455,-0.006270825,0.4899205,-1.3719049,1.8917316,-2.0880597,-1.5720824,2.4653442,-0.14518131,0.098064765,-0.12551856,0.03937096,-0.013125562,-0.1388161,-0.8619126,-0.11492168,-9.32781,0.8605109,47.667187,-1.1692884,-2.4851532,-3.1355531,-0.047833085,-0.2074672,-0.29054067,28.1875,29.625,28.6875,32.4375,34.875,36.0
0.21205243,-1.2683904,0.24462104,-0.26082486,0.010478148,0.10454119,-0.15995438,-0.3989695,-0.3643547,0.060031842,-3.0768905,0.6252927,8.50113e-05,-0.09329812,0.041410983,0.0012511925,0.016468095,-0.0034546377,-0.006958261,0.48963293,-1.3717128,1.8914798,-2.0879748,-1.5721425,2.4650917,-0.14571123,0.097844645,-0.12869497,0.04149438,-0.01324647,-0.13865697,-0.7086837,-0.076614454,-9.308656,0.8672237,47.66271,-1.1920313,-2.4344473,-3.1264048,-0.043254968,-0.20668185,-0.31986004,28.1875,29.625,28.6875,32.4375,34.875,36.0
0.21405259,-1.4529539,0.09717133,-0.2725349,0.01676412,0.090876326,-0.14927216,-0.39914283,-0.36426228,0.060009267,-3.0768323,0.6253385,-7.3158067e-06,-0.09185143,0.043177497,-0.0011557584,0.019607183,-0.009383616,-0.008827501,0.48932096,-1.3714958,1.8912538,-2.0878904,-1.5721425,2.4648159,-0.14733303,0.099716105,-0.12593764,0.043570608,-0.013233063,-0.13840957,-0.5554548,-0.17238252,-9.346964,0.7709874,47.67166,-1.2179927,-2.4537969,-3.1666074,-0.09068632,-0.22090478,-0.3411764,28.1875,29.625,28.6875,32.4375,34.875,36.0
0.21605249,-0.8393027,0.5710865,-0.085884824,0.009765219,0.08745361,-0.1579644,-0.39936683,-0.36415926,0.06002785,-3.0767689,0.6254002,0.00010263054,-0.092930324,0.043390933,-0.00013370522,0.020114465,-0.008932972,-0.009015125,0.48899755,-1.3713037,1.8909663,-2.0878174,-1.5722264,2.4645393,-0.14818664,0.10000586,-0.1292708,0.046440195,-0.013896451,-0.13907306,-0.57460845,-0.11492168,-9.423578,0.784413,47.66808,-1.2795861,-2.4140449,-3.0981166,-0.11952187,-0.22521123,-0.37491655,28.1875,29.625,28.6875,32.4375,34.875,36.0
0.2180521,-0.2618915,0.51441824,-0.11280429,0.016893867,0.07108679,-0.16158825,-0.39955178,-0.3640727,0.060016476,-3.0767307,0.6254287,4.15251e-05,-0.092646584,0.044353854,-0.0010846815,0.02169234,-0.011679364,-0.0062588253,0.48868555,-1.371087,1.890715,-2.087733,-1.5722269,2.46425,-0.14942086,0.101175815,-0.12888153,0.0480368,-0.014012894,-0.14306273,-0.3256114,-0.1340753,-9.32781,0.7642693,47.666286,-1.3044858,-2.4703658,-3.2273448,-0.14400418,-0.20965174,-0.35728997,28.1875,29.625,28.6875,32.4375,34.875,36.0
0.2200521,0.15979953,0.8639274,-0.2260095,0.013331061,0.04815205,-0.15617916,-0.3997389,-0.3640117,0.060018264,-3.076734,0.62536657,5.1646257e-05,-0.09359379,0.044767793,-0.0005815904,0.020896861,-0.0096642105,-0.00045012712,0.48842177,-1.370871,1.8904403,-2.087674,-1.5722388,2.4639473,-0.15074804,0.10034947,-0.12872164,0.046535295,-0.01427329,-0.15019803,-0.095768064,-0.2681506,-9.3661175,0.8717007,47.670765,-1.2662671,-2.367876,-3.2858844,-0.13742611,-0.22510317,-0.3145219,28.1875,29.625,28.6875,32.4375,34.875,36.0
0.22205205,0.54149413,0.59216374,-0.17906758,0.018198658,0.036417995,-0.16500747,-0.3999436,-0.36389008,0.060008056,-3.0766306,0.62545365,7.775084e-06,-0.09293084,0.045329545,-0.0032460275,0.024210824,-0.0151947085,0.008501659,0.48806244,-1.3706529,1.8901767,-2.0875537,-1.5722865,2.4636557,-0.15081432,0.10553995,-0.12926376,0.048300724,-0.014633417,-0.15921323,0.095768064,-0.05746084,-9.442732,0.86498255,47.68062,-1.2853097,-2.5158825,-3.3933752,-0.15722066,-0.22442323,-0.2236762,28.1875,29.625,28.6875,32.4375,34.875,36.0
0.22405204,0.40837005,0.44330657,-0.04987645,0.016720949,0.01456211,-0.15175726,-0.40014696,-0.363788,0.060009167,-3.0765908,0.6253833,2.5921472e-05,-0.09499069,0.046347357,-0.000287657,0.022889083,-0.01106764,0.013405284,0.4877382,-1.3704501,1.8899134,-2.0874689,-1.5723356,2.4632928,-0.15382347,0.10151054,-0.13169849,0.05047733,-0.015422361,-0.16712339,0.05746084,-0.038307227,-9.251195,0.79560274,47.658226,-1.205878,-2.3954515,-3.310965,-0.21145663,-0.20465927,-0.12424542,28.1875,29.625,28.6875,32.4375,34.875,36.0
0.22605199,0.7484094,0.7918261,-0.23353368,0.009122739,0.010435412,-0.1599002,-0.4003127,-0.3636985,0.0599867,-3.0765243,0.62525535,-6.047072e-05,-0.09566726,0.049428165,-0.0037774025,0.026123123,-0.01742239,0.010698649,0.4874608,-1.3702203,1.8896636,-2.0873492,-1.5723714,2.4629443,-0.1596254,0.10646078,-0.12972534,0.050667714,-0.015325203,-0.1702175,0.17238252,0.019153614,-9.212888,0.82022345,47.65912,-0.97427475,-2.4879205,-3.4910793,-0.19827318,-0.22138143,-0.045443416,28.1875,29.625,28.6875,32.4375,34.875,36.0
0.22805184,0.5396629,0.24170868,-0.38010693,0.017592397,-0.0037756136,-0.15700458,-0.40049946,-0.36358926,0.059979778,-3.076478,0.62530357,-0.00016118783,-0.09713045,0.0486369,-0.0013143499,0.02372065,-0.013106381,0.006438543,0.4871016,-1.370029,1.8894242,-2.0872295,-1.572359,2.4626212,-0.15959282,0.10423898,-0.13277127,0.051000442,-0.015243979,-0.16592321,0.24899697,0.05746084,-9.270349,0.8157518,47.65912,-1.116372,-2.4185672,-3.3166146,-0.23433381,-0.21513334,-0.06578837,28.1875,29.625,28.6875,32.4375,34.875,36.0
0.23005298,0.76483065,-0.109422915,-0.42331502,0.0065889973,-0.00014651693,-0.14336571,-0.40071386,-0.36348873,0.059986755,-3.0764284,0.6253161,-0.000103358325,-0.09868168,0.049415804,-0.0011256367,0.023480078,-0.013166571,-0.0025236076,0.48677725,-1.3698243,1.8891481,-2.0871575,-1.572419,2.4623113,-0.16237363,0.10539866,-0.1347791,0.051784184,-0.015004012,-0.15974171,0.15322891,0.11492168,-9.423578,0.8873621,47.651955,-0.9300313,-2.3719976,-3.3575425,-0.256751,-0.24031176,-0.11755797,28.1875,29.625,28.6875,32.4375,34.875,36.0
0.23205183,0.6428359,-0.48357713,-0.51100296,-0.004081796,-0.000965608,-0.14314063,-0.4009009,-0.36338592,0.05998655,-3.076351,0.6252832,-0.00014483891,-0.09952347,0.049378294,-0.00093136093,0.023254162,-0.012654796,-0.008936936,0.48646605,-1.3696198,1.8888725,-2.087014,-1.5724667,2.4619896,-0.16297115,0.106365055,-0.13641621,0.05189514,-0.015056412,-0.15392394,0.05746084,0.24899697,-9.404425,0.83365434,47.66808,-1.0654488,-2.378489,-3.3659499,-0.28542465,-0.24465139,-0.20574407,28.1875,29.625,28.6875,32.4375,34.875,36.0
0.23405188,0.7603108,-0.37769172,-0.61206824,-0.025511377,0.02261785,-0.15607901,-0.40111032,-0.36329824,0.05998269,-3.07632,0.625317,-0.00019108268,-0.09993431,0.048554067,0.000391221,0.022297896,-0.009951058,-0.0148439985,0.48613116,-1.36938,1.8885735,-2.0869176,-1.5724672,2.46168,-0.16161743,0.105167486,-0.1380097,0.05185827,-0.015479272,-0.14666091,0.038307227,0.2681506,-9.442732,0.8873621,47.658226,-1.0944525,-2.2823446,-3.3555002,-0.28226084,-0.24195889,-0.3000543,28.1875,29.625,28.6875,32.4375,34.875,36.0
0.23605187,0.8670411,-0.13148694,-0.7524895,-0.047477107,0.045971867,-0.16338848,-0.4013107,-0.36319026,0.059981175,-3.076209,0.6254301,-0.00021035112,-0.09992829,0.04961806,-0.0017645522,0.024262173,-0.01504586,-0.019450955,0.48580697,-1.3691622,1.8882874,-2.0867856,-1.5725268,2.4614408,-0.16373067,0.109311506,-0.13845713,0.05357278,-0.014845799,-0.14416756,0.13407528,0.30645782,-9.576807,0.90750587,47.701214,-1.0228484,-2.4363456,-3.3591156,-0.3242072,-0.25896546,-0.36576998,28.1875,29.625,28.6875,32.4375,34.875,36.0
0.23805171,0.07196709,-1.246521,-0.8281186,-0.048723314,0.04618941,-0.14649498,-0.4015024,-0.3630793,0.05997983,-3.076142,0.6254364,-0.00024621238,-0.10203034,0.049489632,-0.00010883117,0.021395722,-0.010584248,-0.024445632,0.4854712,-1.3689706,1.8880352,-2.0866668,-1.572563,2.4611177,-0.16559447,0.107886806,-0.14002311,0.05127395,-0.014412522,-0.1410367,0.0,0.30645782,-9.5385,0.82694155,47.694054,-1.0746478,-2.2919838,-3.3862863,-0.35951853,-0.25733075,-0.4470937,28.1875,29.625,28.6875,32.4375,34.875,36.0
0.2400516,0.26287836,-0.8238082,-0.67555666,-0.081209324,0.06675711,-0.1600029,-0.4016922,-0.36298624,0.059972186,-3.0760753,0.62543964,-0.00031447693,-0.10344776,0.049810838,-0.0018937598,0.021699488,-0.011981622,-0.024049422,0.48515937,-1.3687406,1.8877486,-2.0865362,-1.5725864,2.4608166,-0.1675561,0.11273366,-0.14126441,0.049032845,-0.014058229,-0.1433933,-0.076614454,0.45968673,-9.653421,0.9030289,47.66808,-0.999308,-2.4827738,-3.394455,-0.34725648,-0.27884254,-0.48863918,28.1875,29.625,28.6875,32.4375,34.875,36.0
0.24205256,0.14654148,-1.3528162,-0.92500216,-0.08055277,0.0767068,-0.17404348,-0.40190163,-0.36289576,0.059995804,-3.076044,0.6254665,-0.00030499123,-0.10553887,0.05009273,-0.00040553548,0.019776072,-0.0076878727,-0.017341934,0.48483512,-1.368549,1.8874367,-2.086405,-1.5726107,2.4605134,-0.16961609,0.11135381,-0.14255978,0.046989515,-0.014389286,-0.15215917,-0.019153614,0.38307226,-9.864111,0.842603,47.677036,-0.92893815,-2.3600159,-3.3540525,-0.32863614,-0.29109085,-0.46396,28.1875,29.625,28.6875,32.4375,34.875,36.0
0.24405263,0.018677766,-1.1818539,-0.59842676,-0.09499467,0.074297145,-0.16433872,-0.40213713,-0.36277357,0.059979808,-3.0759468,0.62559223,-0.0002652618,-0.10794653,0.04993152,0.0007692992,0.018104019,-0.0052641365,-0.007542578,0.48446357,-1.3682966,1.8871611,-2.0863574,-1.5726823,2.460233,-0.17160057,0.112451084,-0.14655225,0.046920888,-0.014078476,-0.1639421,-0.019153614,0.4405331,-9.940725,0.800085,47.70032,-0.97630924,-2.2851365,-3.1695828,-0.34107158,-0.2835059,-0.37615538,28.1875,29.625,28.6875,32.4375,34.875,36.0
0.24605241,-0.46433687,-1.296272,-0.6779112,-0.08220085,0.06800589,-0.16209462,-0.4023381,-0.36271498,0.05998121,-3.0759978,0.6255191,-0.00028842644,-0.109387286,0.049701717,0.0005055609,0.017033145,-0.0035119357,0.0024889333,0.48416376,-1.3680676,1.8868741,-2.086311,-1.5726465,2.459881,-0.17248294,0.11435022,-0.14758207,0.04398277,-0.013977188,-0.17485563,-0.3256114,0.38307226,-9.80665,0.83589023,47.70211,-0.904768,-2.3729248,-3.3654222,-0.33614975,-0.29577422,-0.25612348,28.1875,29.625,28.6875,32.4375,34.875,36.0
0.24805228,-0.14762294,-0.6374148,-0.35210535,-0.073106356,0.09438055,-0.16856316,-0.40258014,-0.3626131,0.060004298,-3.0759692,0.6256062,-0.00025175203,-0.11150518,0.04977019,0.00071710505,0.015499165,-0.00011336691,0.0065463036,0.48379177,-1.367851,1.8865389,-2.0862043,-1.5726708,2.4595673,-0.17423984,0.11546569,-0.14853708,0.040080648,-0.014223783,-0.1806685,-0.45968673,0.36391866,-9.80665,0.82694155,47.71554,-0.965168,-2.3126593,-3.31187,-0.28332043,-0.30254287,-0.17091316,28.1875,29.625,28.6875,32.4375,34.875,36.0
0.25005215,-1.5152963,-0.60580266,-0.44898903,-0.04595384,0.08261132,-0.15320706,-0.40277007,-0.36250117,0.059968576,-3.0758975,0.62551296,-0.00033521373,-0.11294429,0.04956742,0.001017149,0.0153988255,0.0021638963,0.006095388,0.4834567,-1.3675983,1.8862995,-2.0861208,-1.572707,2.4591835,-0.17449158,0.11683643,-0.15056358,0.038666494,-0.015220814,-0.1804636,-0.4213795,0.38307226,-9.710882,0.85155696,47.70032,-1.1637516,-2.4496078,-3.2729428,-0.25268614,-0.32854724,-0.15693426,28.1875,29.625,28.6875,32.4375,34.875,36.0
0.252052,-0.5176953,0.111864395,-0.3918876,-0.042162124,0.1222117,-0.16574359,-0.40298045,-0.36242333,0.059973046,-3.0758955,0.6254754,-0.00032622291,-0.11341834,0.04867503,0.0015753881,0.014506642,0.0039016097,0.0016729666,0.48314598,-1.36737,1.8860005,-2.0860493,-1.572719,2.4588497,-0.17332132,0.11721808,-0.15214437,0.037916955,-0.015234426,-0.17487018,-0.4213795,0.2681506,-9.576807,0.85155696,47.70211,-1.1506336,-2.3568895,-3.2494593,-0.2439204,-0.3062282,-0.16826925,28.1875,29.625,28.6875,32.4375,34.875,36.0
0.25405198,-0.90998775,0.16267087,-0.25917205,-0.015987178,0.114153095,-0.16778468,-0.40324354,-0.36233082,0.06000652,-3.075906,0.62549806,-0.00018137648,-0.11370915,0.048742723,0.00045430605,0.0147392545,0.0028249768,-0.0045976406,0.4827863,-1.3671528,1.8856543,-2.0860016,-1.5727671,2.458503,-0.17378862,0.119630754,-0.15220973,0.036628332,-0.014920178,-0.16906866,-0.47884035,0.13407528,-9.595961,0.8851263,47.668976,-1.2232846,-2.4685051,-3.236731,-0.20791161,-0.3430314,-0.27792403,28.1875,29.625,28.6875,32.4375,34.875,36.0
0.25605178,-1.1338189,0.7371117,-0.27768812,-0.016681248,0.10059427,-0.15976006,-0.40348086,-0.3622662,0.060020797,-3.0759478,0.6255055,-0.00016424434,-0.11450407,0.04748658,0.00068013964,0.013174604,0.0037808057,-0.005510402,0.48245165,-1.3669,1.8853062,-2.0859425,-1.5727423,2.4581678,-0.1728681,0.121538594,-0.15484123,0.03577905,-0.01397744,-0.16723767,-0.61291564,0.076614454,-9.461885,0.91198283,47.72271,-1.2080374,-2.4839208,-3.185258,-0.18191235,-0.35918733,-0.32425126,28.1875,29.625,28.6875,32.4375,34.875,36.0
0.2580517,-1.3009424,0.79414105,-0.15696007,-0.005696257,0.089290455,-0.16472398,-0.4037352,-0.3621698,0.060032368,-3.0759425,0.62558055,-8.6598295e-05,-0.11500519,0.048922244,-0.0009090696,0.0155994985,0.0015467731,-0.0065278397,0.48207924,-1.366659,1.8849839,-2.0859063,-1.5727671,2.457843,-0.17494725,0.124266475,-0.15452468,0.035831157,-0.015084725,-0.1682962,-0.5554548,-0.05746084,-9.519346,0.8717007,47.682407,-1.2015662,-2.526731,-3.307619,-0.13741843,-0.37856403,-0.36694866,28.1875,29.625,28.6875,32.4375,34.875,36.0
0.2600525,-0.80977017,0.8449569,-0.034093697,-0.0016606717,0.08548496,-0.16734771,-0.40396318,-0.3620752,0.060024455,-3.075897,0.6255328,-4.470808e-05,-0.11609779,0.050136395,-7.863597e-06,0.015412218,0.0026224041,-0.009555247,0.4817551,-1.3663952,1.884673,-2.0858462,-1.5728272,2.4574952,-0.17766258,0.12271257,-0.15495501,0.036762577,-0.015419429,-0.1679831,-0.4213795,-0.19153613,-9.481039,0.8627467,47.686886,-1.1681973,-2.5276926,-3.3434937,-0.117867425,-0.37731418,-0.3697945,28.1875,29.625,28.6875,32.4375,34.875,36.0
0.26205242,-0.458361,0.8252488,0.18907577,0.007352971,0.07714122,-0.16697776,-0.40420458,-0.36197987,0.060044877,-3.0758967,0.62554497,1.8327604e-05,-0.11631317,0.05050812,-0.0014260755,0.018454859,0.00041147292,-0.0018684603,0.48139635,-1.3661776,1.8843502,-2.0857742,-1.572852,2.4571443,-0.17734852,0.12658016,-0.15663877,0.037928294,-0.01710231,-0.17534989,-0.36391866,-0.3256114,-9.3661175,0.90750587,47.68599,-1.3005474,-2.548972,-3.4423432,-0.1019468,-0.37667572,-0.3372236,28.1875,29.625,28.6875,32.4375,34.875,36.0
0.26405227,-0.08157112,1.0454824,0.44985583,0.021136312,0.078291185,-0.17341846,-0.40442646,-0.36185527,0.060003523,-3.0758264,0.6254851,-5.1417523e-05,-0.11642517,0.050699484,-0.00063422736,0.01835017,0.0008614663,0.0077887033,0.4810125,-1.3658898,1.8840865,-2.0857136,-1.5728878,2.4567323,-0.17758918,0.12536083,-0.15733854,0.03936663,-0.017251631,-0.18524596,-0.49799395,-0.34476504,-9.212888,0.8537928,47.67614,-1.4126384,-2.5573206,-3.360901,-0.07048636,-0.38532603,-0.25204837,28.1875,29.625,28.6875,32.4375,34.875,36.0
0.26605216,-0.3641393,1.5590506,0.4562264,0.04328938,0.056983635,-0.16463986,-0.40466496,-0.3617664,0.060015127,-3.0758564,0.6254478,-1.2228871e-05,-0.11759698,0.05080999,-0.00032456208,0.018170118,0.0010357766,0.015858108,0.48065227,-1.365661,1.8837756,-2.0856655,-1.5728878,2.456345,-0.17875326,0.12668735,-0.1598672,0.040304855,-0.017188692,-0.19447923,-0.34476507,-0.34476504,-9.021352,0.8493211,47.695843,-1.4180112,-2.4582162,-3.4231372,-0.064086355,-0.37750053,-0.12886032,28.1875,29.625,28.6875,32.4375,34.875,36.0
0.2680522,0.8865258,2.5965567,0.4670754,0.05652983,0.055179615,-0.17665266,-0.40491417,-0.36166075,0.060013726,-3.0757987,0.6254548,2.7699678e-05,-0.118699685,0.051797222,8.9661306e-05,0.017807798,0.00084026,0.015727347,0.4802915,-1.3653848,1.8834294,-2.085581,-1.5729479,2.4559963,-0.1815364,0.12656756,-0.16096851,0.041507017,-0.016786812,-0.19713248,-0.19153613,-0.4213795,-9.11712,0.8717007,47.690468,-1.3669996,-2.5063787,-3.3181918,-0.037050456,-0.41543627,-0.072355494,28.1875,29.625,28.6875,32.4375,34.875,36.0
0.27005246,1.1149247,2.3321986,0.52916634,0.057818417,0.030968115,-0.18045433,-0.40516922,-0.36155272,0.060029954,-3.0757813,0.6255128,0.00010346064,-0.11952072,0.052307,0.00014442259,0.01848132,0.0006617914,0.010276582,0.47990692,-1.3651564,1.8831056,-2.0855205,-1.5729836,2.4556503,-0.18270484,0.12757401,-0.16255923,0.042558916,-0.017291404,-0.19284847,-0.21068975,-0.36391866,-9.059659,0.8560339,47.70659,-1.3047183,-2.4657729,-3.3696105,-0.020855747,-0.4107036,-0.08421494,28.1875,29.625,28.6875,32.4375,34.875,36.0
0.2720524,0.77678496,2.0335872,0.7770149,0.03877915,0.018027311,-0.16940346,-0.4054114,-0.36144456,0.06004627,-3.0757704,0.6254178,0.00013577582,-0.120143466,0.053830285,0.00021662311,0.020688862,0.00051910355,0.0015861325,0.47953448,-1.364928,1.8827709,-2.0854123,-1.5730208,2.4552202,-0.18455958,0.12737261,-0.16288258,0.04423808,-0.01917229,-0.18600675,-0.30645782,-0.34476504,-8.90643,0.8672237,47.6636,-1.2616313,-2.4295373,-3.3096385,-0.0045090844,-0.415405,-0.14323795,28.1875,29.625,28.6875,32.4375,34.875,36.0
0.27405238,1.3691573,1.5855184,0.20794426,0.031366732,0.027048072,-0.17655742,-0.40566185,-0.36133888,0.060060248,-3.0757003,0.625523,0.00019050931,-0.12194649,0.054899096,-5.459926e-05,0.022070566,-0.00033138783,-0.007313101,0.47917327,-1.3646749,1.8824118,-2.085304,-1.5730809,2.454934,-0.18733405,0.13016765,-0.16603193,0.045983806,-0.020002054,-0.17987783,-0.28730422,-0.24899697,-9.078813,0.8627467,47.655537,-1.1229438,-2.3838434,-3.156386,-0.0020341238,-0.40099883,-0.22682476,28.1875,29.625,28.6875,32.4375,34.875,36.0
0.2760523,0.22026236,0.68813956,0.112451404,0.019895162,0.010556614,-0.16749011,-0.40585518,-0.3612126,0.060018104,-3.0755832,0.6255043,4.7367932e-05,-0.12378078,0.055621978,0.0028356544,0.020618329,0.002965475,-0.017582532,0.47881275,-1.3644,1.8821486,-2.085171,-1.5731167,2.454577,-0.18992886,0.12667659,-0.16913012,0.048983727,-0.020247115,-0.1721992,-0.17238252,-0.15322891,-9.11712,0.92764956,47.70032,-1.2838321,-2.1797948,-3.2065458,-0.016123652,-0.39278862,-0.32678795,28.1875,29.625,28.75,32.4375,34.875,36.0
0.27805224,0.43484515,0.27768642,0.24189593,-0.014343124,0.03651613,-0.16877757,-0.40609512,-0.3611028,0.06000657,-3.075525,0.6255338,3.6804922e-05,-0.12527905,0.056449365,0.0030627595,0.02133354,0.002376182,-0.023331078,0.47843975,-1.3641231,1.8818244,-2.085087,-1.5731534,2.45423,-0.19231078,0.12832284,-0.1721493,0.05120502,-0.020614477,-0.16882944,-0.2873042,-0.019153614,-9.078813,0.83589023,47.668976,-1.1657498,-2.1802151,-3.1899252,-0.02937052,-0.41811797,-0.4322505,28.1875,29.625,28.75,32.4375,34.875,36.0
0.28005207,-0.5631886,-0.54942447,-0.06310429,-0.019041326,0.03162215,-0.16439027,-0.4063868,-0.3609773,0.06003894,-3.075489,0.625641,9.546447e-05,-0.12534769,0.058886066,0.0017657913,0.02363843,-0.00047776903,-0.025270596,0.47799462,-1.3638706,1.8814186,-2.084955,-1.5731891,2.4538567,-0.19589743,0.12876672,-0.16997452,0.05216448,-0.021344205,-0.17047542,-0.36391866,0.095768064,-9.232041,0.842603,47.694946,-1.0905987,-2.2049406,-3.298004,-0.026845684,-0.39445382,-0.48742396,28.1875,29.625,28.75,32.4375,34.875,36.0
0.28205192,-0.5139644,-0.8641247,-0.30225828,-0.028819408,0.06413905,-0.17336042,-0.406596,-0.36085278,0.060032204,-3.0753608,0.6256842,4.5212608e-05,-0.12622035,0.059615687,0.001637788,0.023756579,-0.0017686673,-0.016080137,0.47764596,-1.36363,1.8811082,-2.0847871,-1.5732611,2.4535518,-0.1980778,0.12999138,-0.1715061,0.053622235,-0.020899033,-0.18184523,-0.21068975,0.24899697,-9.423578,0.9321212,47.67793,-1.0862956,-2.1332755,-3.3347464,-0.039287776,-0.40567285,-0.411633,28.1875,29.625,28.75,32.4375,34.875,36.0
0.28405192,-0.88556635,-0.86055017,-0.52931195,-0.047845565,0.087800175,-0.17453963,-0.4068594,-0.36075902,0.060039163,-3.0753856,0.6256044,2.8406692e-05,-0.12600775,0.05934089,0.0013882065,0.024505699,-0.003514738,-0.0013005366,0.47725013,-1.3633412,1.8807243,-2.0846903,-1.5732492,2.453103,-0.1973795,0.13151397,-0.17326899,0.055715986,-0.020794911,-0.19592625,-0.19153613,0.2681506,-9.576807,0.78217715,47.682407,-1.1599755,-2.191676,-3.2917132,-0.05768236,-0.39952448,-0.29548165,28.1875,29.625,28.75,32.4375,34.875,36.0
0.28605178,-1.1975178,-0.8315507,-0.61475635,-0.04949102,0.09124757,-0.17457211,-0.4071067,-0.36062723,0.060039908,-3.0753114,0.62562406,1.1742058e-05,-0.12689392,0.06056392,0.00077357306,0.026270041,-0.0050105993,0.0045069093,0.4768416,-1.3630885,1.88039,-2.0845582,-1.5732974,2.4527166,-0.19954719,0.13343586,-0.1745263,0.057155505,-0.021707417,-0.20389658,-0.22984336,0.3256114,-9.864111,0.88289046,47.72808,-1.1135408,-2.0870326,-3.3451986,-0.06858427,-0.3892258,-0.1905275,28.1875,29.625,28.75,32.4375,34.875,36.0
0.28805172,-1.1720381,-1.0996958,-0.6369587,-0.03991738,0.092154704,-0.16975115,-0.40735003,-0.3604845,0.060016587,-3.0752122,0.62560266,-8.191135e-06,-0.1270834,0.06087334,0.00043031483,0.027271563,-0.0066085076,0.006415974,0.47643328,-1.3628116,1.8800896,-2.084462,-1.5733699,2.452308,-0.20002,0.13494048,-0.17598902,0.058963988,-0.021890158,-0.20627572,-0.4022259,0.2681506,-9.883265,0.8717007,47.729877,-1.0805054,-2.1664705,-3.299481,-0.09251779,-0.3968024,-0.13203454,28.1875,29.625,28.75,32.4375,34.875,36.0
0.29005253,-1.0969454,-0.70430297,-0.58602774,-0.052519403,0.087713115,-0.16154009,-0.40762687,-0.36038008,0.06004103,-3.0751865,0.62561953,3.4168144e-05,-0.12652938,0.060704913,-0.0008219572,0.028634965,-0.010018297,0.0018444766,0.4760375,-1.3625343,1.8796719,-2.0843298,-1.5734051,2.4519262,-0.19935672,0.13796635,-0.17722276,0.06082447,-0.021532176,-0.20104165,-0.7469909,0.21068975,-9.80665,0.90750587,47.672558,-1.1728683,-2.2050524,-3.3754778,-0.112186626,-0.40376556,-0.17051984,28.1875,29.625,28.75,32.4375,34.875,36.0
0.29205233,-0.8843592,-0.24584298,-0.5132082,-0.04212825,0.08548481,-0.17491247,-0.40788254,-0.36025727,0.06003747,-3.0751326,0.62562907,2.1949209e-05,-0.12641148,0.061002918,-0.0002857822,0.02919953,-0.009470131,-0.0050265193,0.47563004,-1.3622583,1.8793248,-2.0842216,-1.5734414,2.451532,-0.19918342,0.13680848,-0.17731626,0.06185322,-0.02228409,-0.1939941,-0.61291564,0.22984336,-9.691729,0.88960326,47.67614,-1.3860567,-2.2181592,-3.357799,-0.14890744,-0.4122641,-0.25417602,28.1875,29.625,28.75,32.4375,34.875,36.0
0.29405224,-0.6351243,0.042266,-0.5733212,-0.013675098,0.07426464,-0.17629573,-0.40813315,-0.3601384,0.060032096,-3.0750725,0.62565625,6.1686906e-06,-0.12605213,0.061708387,-0.0025569093,0.032625876,-0.012947925,-0.008661032,0.47523415,-1.3619806,1.8789796,-2.0841138,-1.5734781,2.451161,-0.1990548,0.14101179,-0.17733315,0.062327072,-0.023746606,-0.19022414,-0.4405331,0.19153613,-9.653421,0.86498255,47.67793,-1.5535176,-2.4079497,-3.4456453,-0.16260017,-0.3906594,-0.30311498,28.1875,29.625,28.75,32.4375,34.875,36.0
0.296052,-0.09622908,0.70927304,-0.43683547,0.001633469,0.06740142,-0.18323733,-0.4083875,-0.36002654,0.060028378,-3.0750067,0.625663,3.1090596e-05,-0.12598646,0.062344756,-0.0029193605,0.035042036,-0.01564083,-0.010216594,0.47486168,-1.361692,1.87862,-2.0840166,-1.5735387,2.4508014,-0.19939506,0.14270225,-0.1794522,0.06624214,-0.024671776,-0.1890041,-0.3256114,0.13407528,-9.653421,0.90527004,47.701214,-1.4584105,-2.3192172,-3.3448582,-0.20640442,-0.37568718,-0.37148225,28.1875,29.625,28.75,32.4375,34.875,36.0
0.298052,0.22381683,0.9436595,-0.2891814,0.005258437,0.04937525,-0.1771301,-0.4086646,-0.35989237,0.06004242,-3.0749795,0.6256557,6.3382045e-05,-0.1285248,0.06286349,-0.0027770903,0.03435012,-0.013468702,-0.010566434,0.47441715,-1.3614389,1.8782605,-2.0839097,-1.5735749,2.450356,-0.2021079,0.14488596,-0.181998,0.064333275,-0.025077205,-0.19136429,-0.095768064,-0.05746084,-9.519346,0.8157518,47.67793,-1.3540269,-2.4478822,-3.3298333,-0.22749767,-0.36343622,-0.40744966,28.1875,29.625,28.75,32.4375,34.875,36.0
0.30005187,0.29177538,1.191713,0.05387612,0.0053231935,0.028011052,-0.18922956,-0.40892395,-0.35976982,0.0600635,-3.0748804,0.6256492,0.00010752919,-0.12900409,0.0637241,-0.00361287,0.03618835,-0.014626848,-0.0020021102,0.4740445,-1.361174,1.8778542,-2.0837295,-1.5736707,2.4499924,-0.20316088,0.14682068,-0.18254682,0.06476559,-0.026223706,-0.20097604,-0.17238252,0.0,-9.481039,0.9030289,47.701214,-1.3359976,-2.4772077,-3.4787776,-0.209203,-0.37387758,-0.3191015,28.1875,29.625,28.75,32.4375,34.875,36.0
0.3020517,0.5490372,0.79558593,0.097642526,0.0038184207,0.018512117,-0.18145835,-0.40919557,-0.3596512,0.060046382,-3.074839,0.6256352,7.968325e-05,-0.12952243,0.064861245,-0.005001453,0.039384406,-0.019060424,0.008102922,0.47362402,-1.3608481,1.8774828,-2.0836442,-1.5736951,2.4495687,-0.20487545,0.15107803,-0.18544191,0.068759345,-0.027090319,-0.21279004,0.038307227,-0.15322891,-9.404425,0.91421866,47.698532,-1.2400883,-2.5466397,-3.3784547,-0.26363152,-0.33114642,-0.20230848,28.1875,29.625,28.75,32.4375,34.875,36.0
0.30405247,0.76163465,1.1189604,0.2166086,0.004693448,0.010398092,-0.18681954,-0.40947056,-0.3594862,0.06003448,-3.0747383,0.6256122,0.00011505969,-0.13240883,0.065127194,-0.0011478874,0.036230512,-0.011301944,0.011898646,0.47316712,-1.3605744,1.87716,-2.0835493,-1.5737914,2.4491107,-0.2072278,0.1462453,-0.18826509,0.06802358,-0.027866539,-0.21893379,0.13407528,-0.17238252,-9.270349,0.88289046,47.682407,-1.269326,-2.3537564,-3.4686496,-0.30334312,-0.3248569,-0.11597994,28.1875,29.625,28.75,32.4375,34.875,36.0
0.30605224,0.7053064,1.1097547,0.34467223,-0.00069859484,0.0074257343,-0.18356392,-0.40974265,-0.35940605,0.060085617,-3.074758,0.62552243,0.00020427299,-0.13410945,0.06597482,-0.0014795795,0.035431664,-0.011349968,0.0059269797,0.47281852,-1.3603219,1.8767055,-2.0833938,-1.5738271,2.4487038,-0.21045649,0.14804475,-0.18950552,0.067132145,-0.02713103,-0.21619415,0.0,-0.095768064,-9.193734,0.90750587,47.679718,-1.2193909,-2.5235357,-3.3199124,-0.28350645,-0.29969162,-0.08100879,28.1875,29.625,28.75,32.4375,34.875,36.0
0.30805224,0.9573868,1.0995439,0.1705533,0.0048335865,0.012991892,-0.18413961,-0.4099947,-0.35923955,0.060047217,-3.0746439,0.6255231,0.000101628946,-0.13605821,0.066160165,-0.0011923162,0.034340397,-0.01037901,-0.005250524,0.47234988,-1.3600215,1.8764051,-2.0832741,-1.5738753,2.4482505,-0.21265128,0.14994346,-0.19239827,0.06676869,-0.026624614,-0.2072089,-0.11492168,-0.15322891,-9.155427,0.8403672,47.70211,-1.1471517,-2.3525915,-3.2678995,-0.29144806,-0.29697496,-0.16049813,28.1875,29.625,28.75,32.4375,34.875,36.0
0.3100522,-0.1245231,0.4805024,-0.020474033,0.01880467,0.001825402,-0.17074463,-0.41027462,-0.3591187,0.060068298,-3.0745792,0.625535,0.0001278149,-0.1379348,0.066888675,-0.0010306422,0.03414905,-0.008731052,-0.016361326,0.47194114,-1.3597333,1.8759736,-2.0831068,-1.5739349,2.4478579,-0.21501638,0.15116097,-0.19400337,0.06560879,-0.02720332,-0.1984595,-0.17238252,-0.05746084,-9.193734,0.84484416,47.705692,-1.0718222,-2.45966,-3.235351,-0.2951658,-0.2926935,-0.29726338,28.1875,29.625,28.75,32.4375,34.875,36.0
0.31205204,-0.042132083,0.29429668,0.06500954,0.00051626866,0.041325193,-0.17341883,-0.41056192,-0.35898384,0.060063362,-3.0744977,0.62559915,0.00011425364,-0.13996911,0.06730582,2.1467951e-05,0.032586448,-0.0050788354,-0.024965065,0.471496,-1.3594099,1.8755668,-2.082976,-1.5739836,2.4474635,-0.21716897,0.1505759,-0.195256,0.063483655,-0.02748153,-0.19200557,-0.26815057,0.05746084,-9.232041,0.8403672,47.682407,-0.97684836,-2.249086,-3.2076612,-0.28370366,-0.25544274,-0.3981166,28.1875,29.625,28.75,32.4375,34.875,36.0
0.314052,-0.87730724,-0.23944554,-0.0016760253,-0.018404918,0.06583696,-0.1774406,-0.41080147,-0.3588338,0.06004087,-3.0743806,0.6256721,-2.7823644e-05,-0.14120205,0.06768478,0.0005003531,0.031128362,-0.0038277688,-0.028792212,0.47105125,-1.359122,1.8752316,-2.0827968,-1.5740069,2.4470797,-0.21918228,0.15048636,-0.19607955,0.06260727,-0.026783042,-0.19019079,-0.51714754,0.15322891,-9.2703495,0.8291774,47.672558,-1.0381837,-2.2507048,-3.2362247,-0.27899253,-0.25967818,-0.46354318,28.1875,29.625,28.75,32.4375,34.875,36.0
0.31605193,-1.4636526,-0.739714,0.10845569,-0.048916843,0.10522026,-0.17984313,-0.41106048,-0.35871485,0.06006486,-3.074331,0.6256541,-1.4538515e-05,-0.13999118,0.06582483,0.00062494946,0.030499956,-0.0038603398,-0.017770136,0.4706572,-1.3588704,1.8748368,-2.082629,-1.5740546,2.446681,-0.21522318,0.1508959,-0.19691698,0.06273458,-0.026240023,-0.19725516,-0.57460845,0.24899697,-9.385271,0.8717007,47.70838,-1.2046396,-2.203099,-3.2907264,-0.30392256,-0.25713503,-0.49985892,28.1875,29.625,28.75,32.4375,34.875,36.0
0.31805176,-1.5391744,-0.7167239,0.02666073,-0.07339475,0.14452073,-0.19226216,-0.41134566,-0.35857046,0.06004562,-3.0742009,0.62575316,-4.866994e-05,-0.14104223,0.064971976,-0.00062671694,0.029815553,-0.002806967,-0.004452469,0.47021323,-1.3585213,1.8744291,-2.0824873,-1.5741271,2.446316,-0.21460102,0.15478961,-0.19783902,0.05844503,-0.026177911,-0.20994788,-0.6512228,0.15322891,-9.461885,0.87617236,47.705692,-1.4496634,-2.1499164,-3.3313823,-0.26279935,-0.24591908,-0.38321328,28.1875,29.625,28.75,32.4375,34.875,36.0
0.3200517,-1.659035,-1.0242407,-0.07938875,-0.06771362,0.15908234,-0.18325193,-0.4116321,-0.35844994,0.06005851,-3.0741973,0.6256288,1.1807034e-05,-0.14225268,0.06388412,0.0014010925,0.027328867,0.0024367142,0.009251929,0.46979374,-1.3582343,1.8740333,-2.0823925,-1.5741752,2.4458196,-0.2135508,0.15272361,-0.19952677,0.056334127,-0.026381264,-0.22260141,-0.5554548,0.2681506,-9.5385,0.8627467,47.71286,-1.4738866,-2.1131678,-3.3250208,-0.24322173,-0.24272272,-0.23507933,28.1875,29.625,28.75,32.4375,34.875,36.0
0.32205263,-2.0939,-0.706318,-0.1982604,-0.06383816,0.12966467,-0.17383203,-0.41190705,-0.35834175,0.060061518,-3.074185,0.62550867,2.6270589e-05,-0.14349736,0.06442256,0.0020222475,0.02723137,0.0041198176,0.012245553,0.46939746,-1.3579226,1.8736271,-2.0822842,-1.574211,2.4453502,-0.21496658,0.15261154,-0.20080164,0.056145262,-0.027078038,-0.22700724,-0.57460845,0.19153613,-9.519346,0.92764956,47.691364,-1.4941067,-2.1717386,-3.3934927,-0.22077537,-0.22699237,-0.15423284,28.1875,29.625,28.75,32.4375,34.875,36.0
0.32405248,-0.99272513,-0.2959928,-0.44400674,-0.04305164,0.0973218,-0.17784074,-0.4122227,-0.35820043,0.060083997,-3.074138,0.6255229,0.00015013063,-0.1454523,0.06481854,0.0020005747,0.026580846,0.0066911033,0.0050845193,0.4689409,-1.3576345,1.8732084,-2.0821898,-1.5742959,2.4449089,-0.21680954,0.15409514,-0.2019054,0.053167682,-0.027650554,-0.22168705,-0.4405331,0.21068975,-9.500193,0.84484416,47.65106,-1.4554889,-2.0991533,-3.2526221,-0.18629792,-0.2035336,-0.17432803,28.1875,29.625,28.75,32.4375,34.875,36.0
0.32605234,-0.34226036,-0.009780715,-0.37206087,-0.025244696,0.06348312,-0.17299636,-0.41252163,-0.35805508,0.06006119,-3.0740535,0.6255477,0.00017333346,-0.14783934,0.065102674,0.0020425778,0.025679836,0.010104796,-0.00395106,0.46848437,-1.357286,1.872825,-2.0821197,-1.5743679,2.444479,-0.21873459,0.15591349,-0.20338565,0.049377386,-0.028391324,-0.21457152,-0.51714754,0.15322891,-9.5385,0.90527004,47.691364,-1.5012956,-2.0428002,-3.3786042,-0.12957281,-0.17129326,-0.2670343,28.1875,29.625,28.75,32.4375,34.875,36.0
0.3280522,-0.07605561,0.32733956,-0.29192105,-0.009889426,0.041515566,-0.17225228,-0.41282535,-0.3579463,0.06008106,-3.0740464,0.6255496,0.00024606386,-0.14820433,0.06621384,0.0013838757,0.026660776,0.008352254,-0.0103745125,0.46806335,-1.356974,1.8723825,-2.082023,-1.5744036,2.4440603,-0.22072616,0.15703161,-0.20350301,0.05038062,-0.028455881,-0.21014023,-0.5554548,0.15322891,-9.519346,0.9231726,47.653748,-1.4330688,-2.0522118,-3.5219457,-0.097041674,-0.17730105,-0.34604666,28.1875,29.625,28.75,32.4375,34.875,36.0
0.3300522,0.28097206,0.5662293,-0.6847206,0.0068236054,0.030322736,-0.17737152,-0.41312617,-0.35780331,0.060070846,-3.073976,0.62559307,0.00024221803,-0.14879169,0.06697107,-0.0007562501,0.028584594,0.0040678144,-0.013500246,0.46759486,-1.3566363,1.8719748,-2.0819151,-1.5744513,2.4436283,-0.22248107,0.16233404,-0.20534877,0.05159716,-0.028249538,-0.20876792,-0.26815057,0.038307227,-9.500193,0.88289046,47.679718,-1.493886,-2.323886,-3.5052164,-0.07157493,-0.14977272,-0.37243375,28.1875,29.625,28.75,32.4375,34.875,36.0
0.33205214,0.4143697,0.7249991,-0.49298286,0.0030513182,0.031072576,-0.17508589,-0.41344374,-0.3576842,0.060094338,-3.0740054,0.6255397,0.00033341968,-0.15060112,0.06797999,-0.0008489244,0.02823262,0.0034078658,-0.012045131,0.467138,-1.3563362,1.8715438,-2.0818427,-1.5744752,2.4431345,-0.22593108,0.16429567,-0.20772934,0.052408975,-0.027646497,-0.21367623,-0.19153613,-0.038307227,-9.634268,0.9388393,47.677036,-1.4274495,-2.1608255,-3.443839,-0.06210339,-0.14654765,-0.36366183,28.1875,29.625,28.75,32.4375,34.875,36.0
0.33405212,-0.21325326,0.6526547,-0.2508419,-0.011942501,0.039162997,-0.18626006,-0.41372055,-0.35751927,0.06006808,-3.0738783,0.62558377,0.00028229892,-0.15158446,0.06901627,-0.00065861,0.028179005,0.0025478164,-0.0028254339,0.46666887,-1.3560123,1.8711838,-2.0817106,-1.5745476,2.4427097,-0.22860329,0.16469774,-0.20905186,0.053998843,-0.027268754,-0.225567,-0.36391866,-0.076614454,-9.461885,0.9164598,47.70032,-1.2752762,-2.3482823,-3.4430566,-0.027138118,-0.13999373,-0.27112278,28.1875,29.625,28.75,32.4375,34.875,36.0
0.33605197,-0.6291283,0.5006856,-0.4436025,-0.003357001,0.048099108,-0.17574699,-0.41401887,-0.35741252,0.06008829,-3.0738661,0.6254435,0.0003478758,-0.15275218,0.07057789,-0.0016490172,0.028412787,-0.0010623637,0.00233603,0.46627134,-1.3556877,1.8707169,-2.081578,-1.5746068,2.4422264,-0.23292194,0.16738921,-0.21056536,0.05608537,-0.025881093,-0.23505268,-0.15322891,-0.095768064,-9.500193,0.83813137,47.704796,-1.0367596,-2.3606148,-3.4939022,-0.028405208,-0.12475348,-0.14915977,28.1875,29.625,28.75,32.4375,34.875,36.0
0.33805165,0.22725695,0.7083914,-0.41411647,-0.00059788825,0.07826064,-0.16835184,-0.41434807,-0.35724086,0.060089067,-3.073789,0.6255617,0.00035889735,-0.15317135,0.07070247,-0.0016838532,0.02765367,-0.0025224898,0.0018893449,0.46573147,-1.3553635,1.8702973,-2.0814579,-1.574654,2.4417706,-0.23412378,0.16845676,-0.21215129,0.057535246,-0.024562515,-0.23581234,-0.11492168,-0.17238252,-9.653421,0.8157518,47.73077,-0.9441259,-2.453423,-3.5274773,-0.022290312,-0.15023085,-0.09059347,28.1875,29.625,28.75,32.4375,34.875,36.0
0.34005263,-0.40233558,0.33631426,-0.2361846,-0.0018166471,0.053077996,-0.17274766,-0.4146392,-0.35711348,0.060080685,-3.073733,0.6255725,0.00037152902,-0.15330681,0.069674596,-0.0014096014,0.027320595,-0.0031968704,-0.003973651,0.46529928,-1.3550274,1.8698896,-2.0813615,-1.5747021,2.4413526,-0.23273322,0.1701492,-0.21529785,0.059447676,-0.023956431,-0.22855958,-0.21068975,-0.076614454,-9.595961,0.91198283,47.655537,-0.9850813,-2.4967213,-3.3336363,-0.013868914,-0.12982623,-0.14708841,28.1875,29.625,28.75,32.4375,34.875,36.0
0.34205264,0.03827937,0.6129366,0.21330185,-0.0179626,0.06209508,-0.167358,-0.41493437,-0.35695553,0.06007541,-3.0736604,0.6255421,0.00036333507,-0.15271796,0.06977189,-0.0016296939,0.027612638,-0.004934772,-0.013085509,0.46481955,-1.3547155,1.8694957,-2.0812294,-1.5747617,2.4408636,-0.2325689,0.17035066,-0.21546121,0.061104797,-0.023427105,-0.21928458,-0.47884035,-0.095768064,-9.32781,0.9365982,47.709274,-1.1664417,-2.4610405,-3.4114552,-0.014952505,-0.15611571,-0.25283414,28.1875,29.625,28.75,32.4375,34.875,36.0
0.3440525,0.3175893,0.7909121,-0.21583627,0.006001146,0.049767822,-0.16832297,-0.41523945,-0.35683766,0.060073875,-3.0736015,0.62555325,0.00040178507,-0.15273368,0.07027099,-0.002293865,0.028956858,-0.007533121,-0.021938937,0.46439964,-1.3543544,1.8690394,-2.0811207,-1.5748223,2.4404585,-0.23325409,0.17231537,-0.21692432,0.063539244,-0.02344919,-0.2111153,-0.36391866,-0.095768064,-9.32781,0.90750587,47.71286,-1.275267,-2.503392,-3.3959646,-0.012227298,-0.1364195,-0.36795843,28.1875,29.625,28.75,32.4375,34.875,36.0
0.34605235,0.7707979,1.1270292,-0.3253027,0.010322509,0.039897434,-0.19181259,-0.41558665,-0.3566795,0.060090747,-3.073522,0.6256539,0.00046388412,-0.15241003,0.070832625,-0.0026002289,0.030482862,-0.010742935,-0.026718816,0.4638837,-1.3540069,1.8685492,-2.0809753,-1.5748943,2.440016,-0.23379622,0.17355964,-0.2186965,0.06761117,-0.023370627,-0.20687734,-0.11492168,-0.095768064,-9.481039,0.92093146,47.683304,-1.3468847,-2.3713648,-3.4191656,-0.051289342,-0.14225481,-0.48024166,28.1875,29.625,28.75,32.4375,34.875,36.0
0.34805208,0.17056316,0.052738603,0.120647624,-0.00995672,0.03725733,-0.16992776,-0.41586354,-0.35653913,0.060090248,-3.0734618,0.6257507,0.00043915727,-0.15287547,0.07041433,-0.0007844585,0.029549465,-0.010072465,-0.019658515,0.4634278,-1.3537198,1.8681768,-2.0808547,-1.5749177,2.4396286,-0.2336459,0.17220609,-0.22205122,0.071256824,-0.02287218,-0.21378812,-0.19153614,0.095768064,-9.289503,0.7978386,47.684196,-1.4304135,-2.2529583,-3.4071922,-0.098769814,-0.14744452,-0.4840927,28.1875,29.625,28.75,32.4375,34.875,36.0
0.35005185,0.5759998,0.35968804,0.13640407,-0.015013123,0.048478305,-0.18570384,-0.416152,-0.35641423,0.060065392,-3.0733933,0.62565106,0.00035082942,-0.15387146,0.070425555,0.0005698047,0.029276412,-0.010110481,-0.0059169163,0.4629959,-1.3533242,1.8677205,-2.0806978,-1.5749534,2.4391437,-0.23447105,0.17224455,-0.22609735,0.075097635,-0.022684673,-0.2283527,-0.34476504,0.11492168,-9.11712,0.87617236,47.67793,-1.5626844,-2.1852627,-3.3326752,-0.12532619,-0.14472848,-0.35807633,28.1875,29.625,28.75,32.4375,34.875,36.0
0.3520519,-0.49589428,0.2538335,-0.28654438,0.007853818,0.027542658,-0.1588865,-0.41649488,-0.35627127,0.060105197,-3.073358,0.62569505,0.00044637933,-0.15356365,0.07125183,-4.692383e-05,0.03042717,-0.013639949,0.004446796,0.46250296,-1.3530118,1.8672179,-2.0805414,-1.5750135,2.438683,-0.23573704,0.17346437,-0.22693914,0.078315996,-0.022171691,-0.2399854,-0.076614454,0.1340753,-9.289502,0.85826975,47.70032,-1.4662533,-2.2563033,-3.2988636,-0.17326605,-0.13636924,-0.24507788,28.1875,29.625,28.75,32.4375,34.875,36.0
0.35405183,-0.59546334,0.53669125,-0.25947762,-0.0075967032,0.03197219,-0.17063013,-0.4167941,-0.35611346,0.06008123,-3.073275,0.625563,0.00037670162,-0.15373711,0.07308801,-0.0014039999,0.03247144,-0.018500803,0.003012016,0.4620219,-1.3526399,1.8667878,-2.080384,-1.5750731,2.4381306,-0.23899913,0.17589977,-0.22764032,0.08181089,-0.021869985,-0.2418117,-0.05746084,0.19153613,-9.308657,0.8806493,47.6636,-1.4315326,-2.1438699,-3.31385,-0.23843858,-0.1610806,-0.16314045,28.1875,29.625,28.75,32.4375,34.875,36.0
0.35605177,-0.19748911,-0.28159055,-0.11768574,-0.021453852,0.045360167,-0.16449863,-0.41708934,-0.3559654,0.06009054,-3.0731761,0.6255664,0.00030133873,-0.15442276,0.07374332,-0.00022873368,0.03145438,-0.017325398,-0.005586397,0.46155387,-1.3523048,1.8663081,-2.0801442,-1.5751213,2.4376779,-0.24074902,0.17394082,-0.2282283,0.08285977,-0.021497471,-0.2349631,-0.15322891,0.19153613,-9.232041,0.9612189,47.717335,-1.3518891,-2.0326407,-3.319466,-0.26320148,-0.15649676,-0.2352484,28.1875,29.625,28.75,32.4375,34.875,36.0
0.358052,-0.062959634,-0.17239605,-0.05928873,-0.037619002,0.04011658,-0.16750532,-0.41739386,-0.35580987,0.06006683,-3.0730872,0.625708,0.00017730882,-0.15644151,0.07516631,-0.0005729449,0.031836186,-0.017941033,-0.015709512,0.46103644,-1.3519322,1.8658766,-2.0799887,-1.5751213,2.4372606,-0.24461894,0.17633037,-0.23054115,0.083521515,-0.021586655,-0.22870636,-0.17238252,0.21068975,-9.251195,0.9298854,47.68062,-1.32166,-2.1824641,-3.3117251,-0.29351532,-0.13676603,-0.31606686,28.1875,29.625,28.75,32.4375,34.875,36.0
0.3600526,-0.3194279,-0.59699565,-0.23684554,-0.037516512,0.03586719,-0.15834002,-0.41773108,-0.3556688,0.060090818,-3.0730252,0.62575513,0.0002822729,-0.15840681,0.07550325,-0.0007668841,0.031130683,-0.016631873,-0.019949043,0.46056736,-1.3515955,1.8653859,-2.0798576,-1.5752052,2.4368293,-0.2466836,0.17870049,-0.23261493,0.08171975,-0.021547161,-0.22653115,-0.2873042,0.076614454,-9.32781,0.9097417,47.717335,-1.0622042,-2.1608853,-3.3726034,-0.31955734,-0.17565198,-0.39017534,28.1875,29.625,28.75,32.4375,34.875,36.0
0.3620525,-0.14839965,0.1717581,-0.11219711,-0.040432096,0.04613303,-0.17079678,-0.41804308,-0.35549593,0.060085896,-3.0729,0.62584025,0.00021734356,-0.15995005,0.07476889,-0.00039245968,0.03013614,-0.014552453,-0.015235912,0.4600518,-1.3512471,1.8649305,-2.079655,-1.5752653,2.4363835,-0.24652009,0.18075123,-0.23570631,0.08041135,-0.021640753,-0.23107713,-0.17238252,0.15322891,-9.32781,0.87617236,47.67793,-1.1370916,-2.1958003,-3.3332832,-0.33267933,-0.1590204,-0.3873109,28.1875,29.625,28.75,32.4375,34.875,36.0
0.36405239,-0.7237061,-0.45631355,-0.108687885,-0.017826375,0.050172627,-0.1672803,-0.41834843,-0.35536644,0.060090132,-3.072898,0.62575734,0.00014359424,-0.16150405,0.07434381,-0.00015047206,0.027307382,-0.010717745,-0.0050677024,0.45957118,-1.3508996,1.8644632,-2.079489,-1.5752534,2.4358516,-0.24739976,0.18098482,-0.23541558,0.07513593,-0.020878952,-0.2421279,-0.19153613,0.11492168,-9.308656,0.9231726,47.66808,-1.1636887,-2.226195,-3.4350228,-0.28808844,-0.16305238,-0.3042559,28.1875,29.625,28.75,32.4375,34.875,36.0
0.36605227,-0.4159784,0.07473446,0.13591048,-0.025671458,0.07854838,-0.17248425,-0.41869795,-0.35522118,0.060092103,-3.0728397,0.6257976,0.00022118472,-0.16310044,0.075375855,0.0001015733,0.026335275,-0.009804385,0.003650111,0.45907825,-1.3505157,1.863973,-2.0793936,-1.5753249,2.4353917,-0.25053123,0.18124986,-0.23618771,0.074310936,-0.020463806,-0.25397947,-0.22984336,0.11492168,-9.155427,0.8784135,47.716442,-1.1249536,-2.025198,-3.4253821,-0.26739794,-0.1780709,-0.157089,28.1875,29.625,28.75,32.4375,34.875,36.0
0.36805224,-0.5670893,0.67021245,0.040435497,-0.031487845,0.07774112,-0.1812247,-0.41900027,-0.3550627,0.06007097,-3.0727756,0.6257647,0.00013716382,-0.16513488,0.074480675,0.0013434847,0.023867797,-0.0041926554,0.0052815005,0.45857424,-1.3501561,1.8635539,-2.0792515,-1.5753492,2.4348757,-0.2503597,0.18115148,-0.23799884,0.07007496,-0.020785686,-0.25543556,-0.19153613,0.038307227,-9.232041,0.8918391,47.723602,-1.1298157,-2.042098,-3.4599972,-0.2641224,-0.19545823,-0.09612049,28.1875,29.625,28.75,32.4375,34.875,36.0
0.3700522,-0.28817055,0.37279478,0.09839566,-0.02305435,0.08293762,-0.17093931,-0.41933316,-0.35488093,0.0600421,-3.0726619,0.6257845,9.7571545e-05,-0.16684374,0.07297232,0.0017737949,0.021816563,-0.0002773923,-0.0015455581,0.45803487,-1.3497596,1.8631104,-2.0791209,-1.5754212,2.4343638,-0.24912295,0.183307,-0.24081208,0.06632247,-0.020692708,-0.24736919,-0.5554548,-0.019153614,-9.251195,0.91198283,47.681515,-1.204932,-2.1133354,-3.4008293,-0.17859414,-0.20517686,-0.13277906,28.1875,29.625,28.75,32.4375,34.875,36.0
0.3720522,-1.2604041,-0.005908543,-0.07292692,-0.028871424,0.069201134,-0.15349616,-0.41967317,-0.35478115,0.060087156,-3.0726955,0.625797,0.00019254973,-0.16764691,0.07289707,0.001067015,0.021886189,5.994345e-05,-0.011026358,0.4575909,-1.349423,1.8625711,-2.0789897,-1.5754327,2.4339235,-0.24936989,0.18569063,-0.24177535,0.06466282,-0.020864923,-0.23813511,-0.6703765,0.019153614,-9.155427,0.900793,47.71017,-1.2825766,-2.1668744,-3.4232347,-0.13175595,-0.2022857,-0.24162553,28.1875,29.625,28.75,32.4375,34.875,36.0
0.37405217,-1.2097135,-0.20025493,-0.2595177,-0.020757655,0.07425828,-0.16147852,-0.4199765,-0.3546001,0.06003539,-3.0725427,0.625845,2.5936724e-05,-0.16788776,0.07155184,0.0008097189,0.02192907,0.0006699123,-0.017830823,0.45706362,-1.3490027,1.8621396,-2.078811,-1.5754808,2.4334464,-0.24694084,0.18827684,-0.24425928,0.06405525,-0.021190926,-0.22889535,-0.61291564,0.095768064,-9.289503,0.8605109,47.66808,-1.4126422,-2.2215874,-3.4079432,-0.11377549,-0.21785825,-0.371534,28.1875,29.625,28.75,32.4375,34.875,36.0
