Tylouw/Master_Thesis_Code/training_data/batch_1/rect_rod_t0.3/sample_80_session_3.csv
timestamp[s],tcp_force_x[N],tcp_force_y[N],tcp_force_z[N],tcp_force_rx[Nm?],tcp_force_ry[Nm?],tcp_force_rz[Nm?],tcp_pose_x[m],tcp_pose_y[m],tcp_pose_z[m],tcp_pose_rx[rot_vec_x],tcp_pose_ry[rot_vec_y],tcp_pose_rz[rot_vec_z],tcp_velo_x[m/s],tcp_velo_y[m/s],tcp_velo_z[m/s],tcp_velo_rx[rot_vec_x/s],tcp_velo_ry[rot_vec_y/s],tcp_velo_rz[rot_vec_z/s],q1[rad],q2[rad],q3[rad],q4[rad],q5[rad],q6[rad],qd1[rad/s],qd2[rad/s],qd3[rad/s],qd4[rad/s],qd5[rad/s],qd6[rad/s],tool_acc_x,tool_acc_y,tool_acc_z,current_of_whole_robot[A],voltage_of_whole_robot[V],current_J1[A],current_J2[A],current_J3[A],current_J4[A],current_J5[A],current_J6[A],temp_J1[C],temp_J2[C],temp_J3[C],temp_J4[C],temp_J5[C],temp_J6[C]
7.370254e-07,0.063876845,-0.57267535,-0.2834331,-0.026016472,0.017358046,-0.005663333,-0.38932553,-0.36871278,0.06001536,-3.0787039,0.6249281,0.00019349025,0.00084510894,0.0004628257,-0.00063177175,0.0009890927,-0.0020239763,6.6288485e-05,0.5050329,-1.3816799,1.9042228,-2.0918915,-1.5708536,2.4800253,-6.21392e-05,-1.5956002e-05,0.0012187848,0.0010465798,0.00011876181,-0.00012921264,0.13407528,0.19153613,-8.6574335,0.7620334,47.7254,-0.20655996,-3.0625916,-2.41897,-0.20089811,0.15718839,-0.015985943,28.5625,29.875,28.9375,32.6875,35.125,36.25
0.002055345,-0.060318425,-0.60888875,-0.3861751,-0.01648472,0.01863951,-0.008203832,-0.38932833,-0.3687072,0.060011983,-3.078687,0.624944,0.00016884532,-0.0013172665,-0.0007395823,-0.0003647824,-0.0032193204,0.0055504404,8.133641e-05,0.50502086,-1.3816679,1.9042119,-2.091872,-1.5708536,2.4800253,-6.0065497e-05,-2.1407014e-07,0.0029553594,-0.009370752,0.00011656451,-0.00014178682,0.15322891,0.24899697,-8.791509,0.7530795,47.71017,-0.2491454,-2.8106494,-2.4023438,-0.15105072,0.18731534,-0.016547605,28.5625,29.875,28.9375,32.6875,35.125,36.25
0.0040540053,-0.08323148,-0.4406042,-0.23964229,-0.030355114,0.02036329,0.0016888158,-0.38933563,-0.36871126,0.059995536,-3.078698,0.6249653,0.00019604959,-0.0018686102,-0.0010479202,-0.0019086299,-0.0027751657,0.004737622,8.60502e-05,0.50502086,-1.3816425,1.9042357,-2.091944,-1.5708536,2.4800372,-5.8125715e-05,0.0038156367,0.0025163714,-0.0118213715,0.0001144469,-0.00014350816,0.17238252,0.19153613,-8.7532015,0.7620334,47.713753,-0.22684503,-3.3624911,-2.5288324,-0.036279898,0.1811854,-0.015847191,28.5625,29.875,28.9375,32.6875,35.125,36.25
0.006053501,-0.25495574,-0.54967076,-0.32316652,-0.02026148,0.0015930802,0.0013486473,-0.38932598,-0.36873612,0.06001369,-3.0787604,0.62486225,0.00021352906,-0.0008601972,-0.0004871805,-0.0012333775,-0.001284049,0.0020670854,8.454295e-05,0.50505686,-1.381667,1.9042228,-2.0919416,-1.5708297,2.480001,-5.6307366e-05,0.0022492753,0.0015657963,-0.006245816,0.0001124049,-0.0001406279,0.019153614,0.24899697,-8.619126,0.7642693,47.705692,-0.24078578,-3.3326046,-2.517152,-0.07887094,0.18278664,-0.0072444445,28.5625,29.875,28.9375,32.6875,35.125,36.25
0.00805388,0.473311,0.31969365,-0.7041567,0.008865492,-0.003604081,-0.0066172983,-0.38934284,-0.36870643,0.060003433,-3.078686,0.6250011,0.0002455967,0.00015499767,7.7890974e-05,-0.000100584504,-0.00023504904,0.00019732879,8.2461636e-05,0.50502086,-1.3816559,1.9042352,-2.0919511,-1.5708774,2.480061,-5.459953e-05,-0.0004298117,0.0009106345,-0.0007676709,0.00011043439,-0.00013757798,0.038307227,0.30645782,-8.772355,0.75755644,47.729877,-0.19658944,-3.221921,-2.4936972,-0.13218811,0.1720053,-0.031567924,28.5625,29.875,28.9375,32.6875,35.125,36.25
0.010054088,0.42080647,0.7472892,-1.0391407,0.00829082,-0.0057063405,-0.001477864,-0.38934404,-0.36872038,0.06001354,-3.0787196,0.6249315,0.00019407952,0.0007599594,0.00042467884,0.00025232145,0.00052774313,-0.0011658614,7.7605306e-05,0.50502086,-1.3816444,1.9041876,-2.0919025,-1.5708417,2.4800134,-7.040378e-05,-0.0014774716,0.0007072289,0.002045486,0.00010853199,-0.000148907,0.038307227,0.19153613,-8.90643,0.7105615,47.689575,-0.8162815,-2.7149346,-2.8502145,-0.1332662,0.16223827,-0.089796275,28.5625,29.875,28.9375,32.6875,35.125,36.25
0.012054333,0.43705696,0.024233714,-1.1456642,-0.010243529,0.013797872,-0.01640558,-0.38930494,-0.36869147,0.059954677,-3.0786173,0.6249661,2.2153343e-05,0.0008074637,0.0005421359,-0.0001873475,0.0014216686,-0.0027772838,0.0035059561,0.50500876,-1.3815958,1.9042586,-2.0918782,-1.5708417,2.4800358,-0.00022348629,-0.00012636938,-0.00020686848,0.0034507278,0.00010669388,-0.0037299127,0.19153613,0.038307227,-9.136273,0.7978386,47.66987,-1.0063062,-2.718266,-2.9162028,-0.16315491,0.16839471,-0.15229407,28.5625,29.875,28.9375,32.6875,35.125,36.25
0.01405391,-0.27449295,-0.451031,-1.2277839,-0.049860306,0.026539573,-0.020174423,-0.38931763,-0.36869848,0.0599577,-3.0786479,0.62491643,8.781496e-05,-0.0036008086,0.0058996226,-0.005526587,0.0059618144,-0.010994304,-0.0005847758,0.50501615,-1.381592,1.9042581,-2.0919263,-1.5708536,2.4800084,-0.013368023,0.010838593,-0.0007842486,0.0024495486,0.00010491694,-0.012781623,0.1340753,0.095768064,-9.308657,0.7597976,47.701214,-0.49838078,-3.133325,-2.9760137,-0.13468578,0.17148548,-0.09107363,28.5625,29.875,28.9375,32.6875,35.125,36.25
0.016054196,-0.7278511,-1.0431383,-1.2484003,-0.067282185,0.044643793,-0.033460375,-0.38932374,-0.36868045,0.059958786,-3.078627,0.6249085,4.7679805e-05,-0.0056257877,0.0050494345,-0.00450439,0.0040920703,-0.0076343296,0.0059097162,0.5049801,-1.3815918,1.9042448,-2.0918796,-1.5708536,2.47997,-0.013831863,0.011929946,-0.0040112818,0.0007389601,0.00010319857,-0.01973828,-0.17238252,0.076614454,-9.404425,0.7978386,47.71554,-0.54985034,-3.3531165,-2.956266,-0.1090841,0.16538027,-0.04258308,28.5625,29.875,28.9375,32.6875,35.125,36.25
0.01805337,-1.4926028,-1.0566169,-1.3248136,-0.06825932,0.06341188,-0.047556587,-0.38929906,-0.3686741,0.059925545,-3.0785785,0.6248379,-6.6090855e-05,-0.005375235,0.0046114163,-0.0025543196,0.0023584997,-0.0044975276,0.011568877,0.5049925,-1.3815452,1.9042572,-2.0918434,-1.5708536,2.4799445,-0.0128572825,0.0077080564,-0.0034864603,0.00085132424,0.0001015352,-0.024423765,-0.45968673,0.13407528,-9.308657,0.7709874,47.752266,-0.74564546,-2.9921036,-3.0599747,-0.099969044,0.17469858,0.0034762726,28.5625,29.875,28.9375,32.6875,35.125,36.25
0.020053603,-1.5901688,-0.36252117,-1.6062577,-0.019709935,0.080489434,-0.07137588,-0.38937384,-0.36867705,0.0599603,-3.078651,0.62491256,6.270307e-05,-0.0058558006,0.0056181913,-0.0027903959,0.0028279647,-0.005348558,0.0081232535,0.50492,-1.3815331,1.9041747,-2.091891,-1.5708417,2.4799094,-0.0150024565,0.0077968864,-0.003187464,0.0014359084,0.000106954634,-0.023123482,-0.47884035,0.05746084,-9.3661175,0.78217715,47.73077,-0.9309258,-2.8197165,-3.2594104,-0.09983598,0.17219876,-0.020971963,28.5625,29.875,28.9375,32.6875,35.125,36.25
0.022053769,-1.5044371,0.30470258,-1.8278905,0.01641908,0.07720564,-0.09116529,-0.38933617,-0.36866716,0.059909783,-3.0785902,0.62482584,-0.000107574706,-0.0058092107,0.006899412,-0.0038438882,0.005028971,-0.009333413,0.0035537037,0.50493115,-1.3814723,1.9042095,-2.0918543,-1.5708297,2.4798741,-0.017120497,0.009690752,-0.0037597332,0.0046672085,0.000112081056,-0.020671804,-0.51714754,0.05746084,-9.672575,0.75084364,47.70838,-0.9045663,-2.9355469,-3.3226635,-0.12616907,0.16670525,-0.051572964,28.5625,29.875,28.9375,32.6875,35.125,36.25
0.024053795,-1.7233881,0.38378462,-1.7240105,0.01781581,0.06880719,-0.1058326,-0.3893335,-0.36865038,0.05988389,-3.0785642,0.6248611,-0.00022918345,-0.0074954494,0.006736137,-0.003183432,0.0041205627,-0.007732418,-0.00011766355,0.50488275,-1.3814359,1.90422,-2.0918305,-1.5707935,2.479851,-0.018432403,0.010785267,-0.006515121,0.0044883713,0.00012499065,-0.018311052,-0.63206923,-0.076614454,-9.691729,0.800085,47.71554,-0.85941076,-2.9037201,-3.2855997,-0.12695448,0.16238624,-0.06979492,28.5625,29.875,28.9375,32.6875,35.125,36.25
0.026053483,-1.505861,0.19602577,-1.748224,0.0030669887,0.0788362,-0.12331328,-0.389352,-0.36864465,0.059888534,-3.0785623,0.6248219,-0.00018915326,-0.009632433,0.0058962563,-0.0019068365,0.0021390154,-0.0042108884,-0.0017769912,0.5048707,-1.3814238,1.9041952,-2.091831,-1.5708174,2.4798148,-0.019031022,0.011608979,-0.010104889,0.0032133998,0.00014558985,-0.017248642,-0.7661445,-0.15322891,-9.749189,0.77545905,47.744205,-0.965981,-2.8463283,-3.271889,-0.12381398,0.1880925,-0.10798648,28.5625,29.875,28.9375,32.6875,35.125,36.25
0.028053626,-1.9430115,-0.12504426,-2.1384609,-0.009683602,0.09187374,-0.12685002,-0.38937685,-0.3686272,0.059869695,-3.0785482,0.6248581,-0.0002306473,-0.010105872,0.0060646813,-0.0025579561,0.002295702,-0.0045375163,-0.002970096,0.5048106,-1.3813751,1.9041833,-2.0918434,-1.5708054,2.479779,-0.01976828,0.013132546,-0.010176576,0.002123385,0.00016314315,-0.016792445,-0.68953013,-0.22984336,-9.864111,0.7463667,47.70838,-1.0199186,-2.8817444,-3.3142498,-0.09866358,0.18996519,-0.12237196,28.5625,29.875,28.9375,32.6875,35.125,36.25
0.030054018,-1.7013566,-0.55858713,-2.168183,-0.02861609,0.11640153,-0.14205043,-0.3893957,-0.36861873,0.05988565,-3.0785348,0.6248754,-0.00021949304,-0.010812627,0.0061845747,-0.0027660993,0.0019425448,-0.0048428476,-0.004371521,0.50478613,-1.3813746,1.9041356,-2.0917952,-1.5708174,2.479767,-0.020914791,0.014324693,-0.011064043,0.0019133268,0.0006174332,-0.016537754,-0.7278373,-0.17238252,-9.959879,0.7351769,47.707485,-0.9866884,-2.8553472,-3.3461537,-0.09679797,0.16598341,-0.14847654,28.5625,29.875,28.9375,32.6875,35.125,36.25
0.032053832,-2.7463884,-0.8352658,-2.154436,-0.022842992,0.09445289,-0.14437492,-0.38940272,-0.36859933,0.059857134,-3.0784872,0.62486607,-0.00025124554,-0.011867281,0.0063034603,-0.0022700997,0.0015491054,-0.0046973005,-0.004646628,0.5047618,-1.3813263,1.9041461,-2.0918071,-1.5708412,2.479743,-0.022270776,0.015000426,-0.013265239,0.0031195944,0.00088817906,-0.01761827,-0.842759,-0.1340753,-9.902418,0.77545905,47.7254,-1.0565674,-2.8755221,-3.3370104,-0.109432206,0.16208807,-0.1542176,28.5625,29.875,28.9375,32.6875,35.125,36.25
0.034053788,-2.5242703,-0.6771911,-2.127071,-0.00018060813,0.09043689,-0.15610166,-0.38942164,-0.36859006,0.059853714,-3.0785115,0.6247944,-0.0002925618,-0.011852661,0.007398042,-0.0027085578,0.0030796404,-0.0071999812,-0.0053080386,0.5047133,-1.3813021,1.9041222,-2.0917938,-1.5708169,2.4796467,-0.024020825,0.015558205,-0.01352299,0.0057511013,0.0007633884,-0.018706778,-0.842759,-0.076614454,-9.921572,0.74413085,47.72719,-1.0622331,-2.7785668,-3.3269544,-0.1194195,0.17645669,-0.17567605,28.5625,29.875,28.9375,32.6875,35.125,36.25
0.03605378,-1.9195231,-0.2988689,-2.1277583,0.007767894,0.08648695,-0.18058518,-0.38944715,-0.3685557,0.05982572,-3.0784392,0.6250099,-0.00040210295,-0.013313197,0.007964871,-0.0024627121,0.0026170292,-0.006398678,-0.005856382,0.5046167,-1.3812419,1.9041094,-2.09177,-1.570793,2.4796937,-0.026346844,0.016214868,-0.014787082,0.0054337424,0.00077460427,-0.020483876,-0.5746084,-0.019153614,-9.921572,0.779936,47.72002,-1.0138023,-2.9034863,-3.3513627,-0.13737285,0.16970348,-0.1644277,28.5625,29.875,28.9375,32.6875,35.125,36.25
0.038053464,-1.7770002,-0.42278945,-2.0914962,-0.004153015,0.07132828,-0.18105836,-0.389504,-0.3685619,0.059882127,-3.0785055,0.6249272,-0.00019495694,-0.014071188,0.008158195,-0.0023937598,0.0021371595,-0.00534463,-0.0057894858,0.50460434,-1.3812778,1.9040264,-2.0917828,-1.5708417,2.4796214,-0.02732164,0.016411321,-0.014894207,0.004188932,0.0006842553,-0.0215251,-0.45968673,0.0,-9.921572,0.83813137,47.72719,-0.96775496,-2.7985826,-3.399075,-0.110578,0.1659894,-0.18086046,28.5625,29.875,28.9375,32.6875,35.125,36.25
0.04005354,-1.3944871,-1.3936439,-2.018567,-0.004512238,0.07312801,-0.19729762,-0.38953212,-0.36855695,0.059866786,-3.0785203,0.6250077,-0.0002847593,-0.01574657,0.008026274,-0.0011513724,0.0005393047,-0.0023076695,-0.0068265274,0.5045322,-1.381218,1.9039906,-2.0917833,-1.5707816,2.4795976,-0.028615613,0.015818613,-0.01681441,0.0032724852,0.0006076287,-0.021781124,-0.51714754,-0.019153614,-9.730036,0.7553206,47.699425,-1.0386481,-2.718767,-3.3581715,-0.08335199,0.18468204,-0.20935152,28.5625,29.875,28.9375,32.6875,35.125,36.25
0.0420536,-1.5897418,-1.2284251,-1.8827984,-0.023429796,0.060022667,-0.21044017,-0.38954926,-0.3685199,0.05984307,-3.0784545,0.6249941,-0.0002922076,-0.016489094,0.008352073,-0.0014047495,0.00064116257,-0.0023729366,-0.0064697317,0.5044839,-1.3811815,1.9040016,-2.0917833,-1.5708297,2.4795492,-0.029819796,0.016910043,-0.017448181,0.0029201906,0.00054610503,-0.023341551,-0.38307226,-0.038307227,-9.653421,0.7530795,47.699425,-1.1034005,-2.784244,-3.3877902,-0.09356953,0.18643324,-0.2125044,28.5625,29.875,28.9375,32.6875,35.125,36.25
0.044053677,-0.7247007,-1.4012837,-2.0326371,-0.011001503,0.067776166,-0.2314452,-0.38960642,-0.36849886,0.05986919,-3.0784643,0.62507135,-0.0002763014,-0.018071396,0.008724925,-0.00026909236,-0.0003101589,-0.0005529911,-0.0062277257,0.5043873,-1.3811698,1.9039172,-2.0917346,-1.5708174,2.4794996,-0.03189074,0.016318223,-0.019458022,0.0034690418,0.00049588666,-0.025653727,-0.22984336,0.095768064,-9.595961,0.7709874,47.670765,-0.9911019,-2.6710086,-3.3328385,-0.08185731,0.18262118,-0.24187168,28.5625,29.875,28.9375,32.6875,35.125,36.25
0.046054225,-0.39155173,-0.9959055,-1.9260318,-0.017491588,0.054260526,-0.22255154,-0.38963357,-0.36848658,0.05984281,-3.0784633,0.62512916,-0.0003149223,-0.019432215,0.0098522855,-0.00048805936,0.00018929229,-0.0013753364,-0.0067588864,0.50432634,-1.3811094,1.9039167,-2.0917828,-1.5707935,2.4794748,-0.035032377,0.017630039,-0.020716978,0.0043780324,0.00045413527,-0.02826351,-0.1340753,0.15322891,-9.710882,0.7642693,47.716442,-0.9289772,-2.677813,-3.3038344,-0.08699338,0.17564937,-0.21907568,28.5625,29.875,28.9375,32.6875,35.125,36.25
0.048053764,-0.11789403,-0.7575658,-1.65699,-0.015193548,0.039904714,-0.20613328,-0.38969058,-0.368469,0.05986474,-3.0784554,0.6251457,-0.00023559264,-0.019768607,0.010383256,-0.00060169457,0.00043346398,-0.0017429336,-0.0056346655,0.5042661,-1.3810852,1.9038328,-2.0917585,-1.5708297,2.479426,-0.0362146,0.01776646,-0.020680077,0.0046433564,0.00041887577,-0.030569898,-0.05746084,0.1340753,-9.576807,0.75755644,47.701214,-0.92774737,-2.6558347,-3.3427868,-0.08964508,0.18870777,-0.24726121,28.5625,29.875,28.9375,32.6875,35.125,36.25
0.05005341,-0.26243842,-0.79500586,-1.7389705,-0.0085178325,0.03123796,-0.20101595,-0.38974375,-0.36845085,0.059887256,-3.07848,0.625093,-0.00018165288,-0.02153349,0.010771985,-2.5227162e-05,-0.00047912425,-3.7107122e-05,-0.0050817896,0.5041933,-1.381073,1.9037617,-2.0917346,-1.5708417,2.4793172,-0.038494933,0.018206192,-0.022352684,0.003941161,0.00038869842,-0.033402212,-0.095768064,0.1340753,-9.481039,0.78217715,47.703903,-0.8724278,-2.6457558,-3.2990355,-0.08657196,0.19628379,-0.23055288,28.5625,29.875,28.9375,32.6875,35.125,36.25
0.052054126,0.010199832,-0.6533547,-1.837804,-0.019551981,0.03153025,-0.19192304,-0.38978735,-0.3683992,0.059851356,-3.0784152,0.62517536,-0.00024011261,-0.023445264,0.010959685,0.0005840365,-0.0014773473,0.0017163017,-0.0057873474,0.5040731,-1.3810006,1.9037608,-2.091747,-1.5708536,2.4792566,-0.040605143,0.019095242,-0.024654275,0.0033355986,0.00040703194,-0.03480578,0.019153614,0.11492168,-9.653421,0.7866488,47.661808,-0.82845277,-2.6244783,-3.1833653,-0.05406912,0.19025801,-0.25018942,28.5625,29.875,28.9375,32.6875,35.125,36.25
0.054053564,-0.2653215,-0.4069507,-1.761334,-0.039624438,0.026670178,-0.19817609,-0.38982123,-0.36838955,0.059858818,-3.0784304,0.62513906,-0.00022615113,-0.023354653,0.01060918,0.0007390942,-0.0015921377,0.0019475884,-0.003972095,0.50402516,-1.3809767,1.9037126,-2.0917346,-1.5708536,2.4791842,-0.039920576,0.019148335,-0.025100991,0.0034711468,0.00039533924,-0.035936262,-0.038307227,0.21068975,-9.576807,0.81351066,47.713753,-0.9123212,-2.6331549,-3.236245,-0.06085135,0.20727922,-0.25965714,28.5625,29.875,28.9375,32.6875,35.125,36.25
0.0560541,-0.24589634,-0.42125434,-1.5913837,-0.037179343,0.027709752,-0.20231375,-0.3898827,-0.36836633,0.059855703,-3.0784276,0.62519604,-0.00021066183,-0.024751943,0.011254641,0.0011212127,-0.0019227026,0.002493985,-0.004757427,0.50392866,-1.3809164,1.9036511,-2.0917466,-1.5708536,2.4791236,-0.042321112,0.019581283,-0.02657463,0.0038734488,0.0004189103,-0.037550878,-0.019153614,0.21068975,-9.3661175,0.7597976,47.65912,-0.90637267,-2.6273522,-3.221419,-0.059997432,0.20976752,-0.26744658,28.5625,29.875,28.9375,32.6875,35.125,36.25
0.058053702,-0.60616153,-0.5608707,-1.5632628,-0.02338055,0.019416513,-0.19455056,-0.38995817,-0.3683393,0.059891235,-3.0784404,0.62523717,-0.00014377374,-0.025030393,0.012207755,0.00045924878,-0.0008090973,0.00064496906,-0.0054457197,0.5038202,-1.3809041,1.9035448,-2.0916984,-1.5708655,2.4790392,-0.04413038,0.020661242,-0.026592618,0.004968072,0.0003406135,-0.038671635,0.019153614,0.17238252,-9.404425,0.81351066,47.66091,-0.8130387,-2.702577,-3.3269403,-0.050224148,0.23073605,-0.27660298,28.5625,29.875,28.9375,32.6875,35.125,36.25
0.060053404,-0.3106127,-0.37120697,-1.5728952,-0.016119353,0.017840141,-0.189754,-0.3899823,-0.36830974,0.059854556,-3.0784142,0.62525064,-0.00018657003,-0.026137512,0.012593517,0.0010087535,-0.0013309653,0.0014622123,-0.005896372,0.5037479,-1.380844,1.9035681,-2.091746,-1.5708655,2.4789786,-0.045847476,0.020615852,-0.027871782,0.005324588,0.00039951626,-0.03993772,0.095768064,0.21068975,-9.3661175,0.7553206,47.692257,-0.880334,-2.579397,-3.2797956,-0.0695752,0.22104046,-0.297126,28.5625,29.875,28.9375,32.6875,35.125,36.25
0.06205414,-0.2217728,-0.3513104,-1.3195364,-0.01338924,0.023611603,-0.19194604,-0.39003447,-0.3683139,0.059869967,-3.0784783,0.62520534,-0.00020557907,-0.027059907,0.011880113,0.0017542318,-0.0034781157,0.0027686388,-0.005482963,0.5036758,-1.380796,1.9034709,-2.0917227,-1.5708169,2.4788702,-0.046279076,0.020797366,-0.029651292,0.00473938,0.001645172,-0.04078408,-0.038307227,0.1340753,-9.385271,0.8224646,47.698532,-0.8744055,-2.5995235,-3.1981273,-0.04863131,0.2151897,-0.3168756,28.5625,29.875,28.9375,32.6875,35.125,36.25
0.06405346,-0.47055322,-0.6121992,-1.5508238,-0.005737399,0.025924666,-0.18797986,-0.3901166,-0.36829332,0.059902962,-3.0784903,0.6252838,-9.77305e-05,-0.028087504,0.012369406,0.0016403431,-0.003820116,0.0023637603,-0.004412275,0.50357944,-1.3807714,1.9033641,-2.0917103,-1.5708407,2.4788213,-0.048363157,0.02188209,-0.03071115,0.004901018,0.0021407746,-0.043938976,-0.15322891,0.19153613,-9.423578,0.784413,47.716442,-0.8892727,-2.6011953,-3.2032819,-0.045646492,0.21445712,-0.30403632,28.5625,29.875,28.9375,32.6875,35.125,36.25
0.06605401,-1.0359262,-0.5109559,-1.5748073,-0.008729355,0.026773011,-0.17967768,-0.3901455,-0.36826116,0.059892885,-3.078501,0.625286,-0.00013630131,-0.028612483,0.012793527,0.0013511257,-0.003947761,0.0012931826,-0.0046106647,0.5034832,-1.380759,1.903375,-2.0917222,-1.5708164,2.478725,-0.049955707,0.022839893,-0.031300593,0.0054076095,0.0027685827,-0.04533388,-0.095768064,0.05746084,-9.385271,0.8090337,47.694946,-0.8776868,-2.5904877,-3.2166455,-0.045673225,0.1979926,-0.31801766,28.5625,29.875,28.9375,32.6875,35.125,36.25
0.06805373,-0.64331764,-0.14274064,-1.4470072,-0.01906672,0.055607215,-0.18445231,-0.39020061,-0.3682346,0.059891194,-3.0784924,0.625207,-0.00018132567,-0.028595554,0.013177997,0.0008668492,-0.0028551866,-0.0003765484,-0.0052922643,0.50338703,-1.3806868,1.9032797,-2.0916617,-1.5708164,2.4785807,-0.05048805,0.024006166,-0.031901963,0.0068332157,0.0026176525,-0.04518419,-0.22984336,0.13407528,-9.442732,0.8023209,47.723602,-0.92614675,-2.5797255,-3.2722216,-0.07452656,0.19534683,-0.34246212,28.5625,29.875,28.9375,32.6875,35.125,36.25
0.07005362,-1.4827667,-0.33607483,-1.3613131,-0.017652212,0.05436546,-0.18502933,-0.39025545,-0.36821073,0.059878144,-3.0784943,0.62538016,-0.00023008975,-0.030224219,0.014488346,0.0012277671,-0.0030861658,0.00012457721,-0.0054593086,0.503266,-1.3806267,1.9032439,-2.091686,-1.5707687,2.4785674,-0.054179475,0.023890937,-0.032662746,0.0071612163,0.0025766403,-0.048708245,-0.21068975,0.095768064,-9.346964,0.83589023,47.754948,-0.8265809,-2.4942899,-3.2435737,-0.06888169,0.21833631,-0.34071946,28.5625,29.875,28.9375,32.6875,35.125,36.25
0.072053365,-1.2035356,-0.27814922,-1.5292172,-0.01233535,0.07434807,-0.18527894,-0.3903102,-0.36817724,0.059897006,-3.0785103,0.6253808,-0.00020126569,-0.03003943,0.013961498,0.0012354967,-0.0032757802,9.50688e-05,-0.0013295484,0.50315857,-1.3806266,1.9031953,-2.0916617,-1.5707687,2.4784584,-0.053227253,0.024325103,-0.03320235,0.0072004707,0.0027565192,-0.051885743,-0.28730422,0.11492168,-9.346964,0.90750587,47.72808,-0.81031996,-2.588163,-3.2138028,-0.062054448,0.19313623,-0.3456899,28.5625,29.875,28.9375,32.6875,35.125,36.25
0.074054025,-1.2672949,-0.5209059,-1.4908433,-0.0076651685,0.079978794,-0.18658397,-0.39038202,-0.36814138,0.059899952,-3.0784984,0.6253936,-0.00019062737,-0.030898655,0.013955645,0.0014555412,-0.004311911,0.0006232202,0.0027839975,0.5030384,-1.3805662,1.9031118,-2.0916378,-1.5707802,2.4783478,-0.05441541,0.02478987,-0.034143146,0.00671119,0.0034054364,-0.057188045,-0.4213795,0.11492168,-9.289502,0.800085,47.719128,-0.98288023,-2.5179687,-3.2687988,-0.07021127,0.19633505,-0.30759794,28.5625,29.875,28.9375,32.6875,35.125,36.25
0.07605354,-0.9966601,0.108007275,-1.3453007,-0.0224482,0.09101868,-0.1897246,-0.39043137,-0.3681116,0.05987801,-3.0784864,0.6252575,-0.0002626666,-0.03221951,0.014122068,0.0017061862,-0.0052236854,0.0012776315,0.001172637,0.50294226,-1.3804699,1.9030398,-2.091602,-1.5707802,2.4781682,-0.05621785,0.025700755,-0.03571253,0.0063554035,0.0038813897,-0.057379354,-0.40222588,0.019153614,-9.346964,0.784413,47.674347,-0.9082092,-2.5283225,-3.2146173,-0.06736018,0.19394866,-0.3043974,28.5625,29.875,28.9375,32.6875,35.125,36.25
0.07805433,-1.0715622,-0.55097663,-1.5583273,-0.0016005666,0.08049489,-0.17942658,-0.39050275,-0.3681095,0.059894115,-3.0785427,0.6252298,-0.00023061129,-0.033315882,0.015242346,0.0013515266,-0.0054204226,-0.0001868745,0.0012054533,0.50285697,-1.3804094,1.9029316,-2.091602,-1.5707558,2.4780586,-0.059665434,0.02673968,-0.03630242,0.0070930813,0.004762203,-0.060860753,-0.36391866,0.019153614,-9.423578,0.80456203,47.65464,-0.8098606,-2.5986454,-3.2818375,-0.07312894,0.17364076,-0.28733093,28.5625,29.875,28.9375,32.6875,35.125,36.25
0.08005404,-1.2912492,-0.71487963,-1.601276,0.0015194478,0.06806561,-0.1705009,-0.39057368,-0.36807987,0.05990312,-3.0785682,0.62523144,-0.00024303386,-0.0328416,0.0143073965,0.0012705575,-0.005980368,-0.0005698489,0.0073335655,0.5027259,-1.3803612,1.9028486,-2.0915778,-1.5707315,2.4779253,-0.05806206,0.027426552,-0.036933705,0.0071027833,0.005435945,-0.06538623,-0.49799395,0.076614454,-9.3661175,0.7172743,47.73614,-0.920655,-2.5579252,-3.239927,-0.07140844,0.14929095,-0.24454826,28.5625,29.875,28.9375,32.6875,35.125,36.25
0.082053676,-0.7059485,-0.36425978,-1.4334768,-0.009670906,0.07684506,-0.18318771,-0.3906576,-0.36804855,0.059940007,-3.0786023,0.6251981,-0.00010563957,-0.033447925,0.014685345,0.0009259526,-0.0057772165,-0.0012837817,0.009715773,0.50261766,-1.3803608,1.9027642,-2.0915778,-1.5707678,2.477792,-0.059359852,0.028656216,-0.037650537,0.007310804,0.005605974,-0.06906558,-0.47884035,0.038307227,-9.423578,0.82022345,47.72271,-1.0294596,-2.5592086,-3.2817292,-0.07464736,0.1632111,-0.21370065,28.5625,29.875,28.9375,32.6875,35.125,36.25
0.084053546,-1.317094,-0.28450218,-1.5212821,-0.008442725,0.062507376,-0.18441261,-0.39069414,-0.3679989,0.059873383,-3.078522,0.6252188,-0.0003021089,-0.034787964,0.015074172,0.0011005923,-0.006497183,-0.0007585215,0.010954389,0.50248516,-1.3802162,1.9027394,-2.091554,-1.5707439,2.4776826,-0.06148395,0.029494064,-0.038969792,0.006986044,0.0059696566,-0.072429046,-0.38307226,0.038307227,-9.3661175,0.7351769,47.729877,-0.94303095,-2.5247052,-3.2159252,-0.061301846,0.14233454,-0.16408294,28.5625,29.875,28.9375,32.6875,35.125,36.25
0.08605364,-0.70987314,-0.1077269,-1.5389959,-0.010523026,0.080362335,-0.18616459,-0.39079064,-0.3679918,0.05992286,-3.078649,0.625204,-0.00019449797,-0.035085708,0.015213143,0.0010955029,-0.006511321,-0.00095930725,0.01336246,0.50235337,-1.3802161,1.9026321,-2.0915778,-1.5706958,2.4775255,-0.062055267,0.029861018,-0.03945801,0.0072803586,0.006087671,-0.07540762,-0.28730422,0.0,-9.3661175,0.800085,47.71554,-1.0133958,-2.5409517,-3.27274,-0.06428224,0.13107108,-0.13794574,28.5625,29.875,28.9375,32.6875,35.125,36.25
0.088054225,-0.9155543,-0.5801022,-1.691001,-0.0037124148,0.07897981,-0.17741676,-0.39085183,-0.36794809,0.059913974,-3.078611,0.62506044,-0.00023016517,-0.03603901,0.015680188,0.0010584677,-0.0059309783,-0.00077777455,0.014301258,0.5022451,-1.3801317,1.9025363,-2.0915062,-1.5707315,2.4773326,-0.063345656,0.03092577,-0.04070383,0.0075817946,0.0054848255,-0.07763551,-0.3256114,0.05746084,-9.3661175,0.83589023,47.72271,-1.0563861,-2.5740204,-3.2522206,-0.061655544,0.14638618,-0.10981782,28.5625,29.875,28.9375,32.6875,35.125,36.25
0.09005402,-0.89418614,-0.542838,-1.5903605,-0.005135709,0.07587146,-0.17323864,-0.39091176,-0.36790612,0.059892457,-3.0786123,0.6251183,-0.00032130693,-0.036558915,0.015996588,0.0011868516,-0.0052308035,-0.00011310474,0.014780238,0.5020893,-1.3800596,1.9025,-2.0915062,-1.5706843,2.4772127,-0.06376867,0.031166326,-0.041311886,0.0077116145,0.004547473,-0.07853582,-0.30645782,0.019153614,-9.385271,0.78888994,47.70211,-1.1104826,-2.5094757,-3.2628431,-0.070077464,0.14525747,-0.05810117,28.5625,29.875,28.9375,32.6875,35.125,36.25
0.09205358,-0.7940298,-0.3414881,-1.6936568,-0.009336578,0.0689097,-0.17786002,-0.39100954,-0.36786568,0.05989544,-3.078605,0.6251357,-0.00027060616,-0.03714653,0.016832154,0.0005241373,-0.0043084035,-0.0004826321,0.01300921,0.50194514,-1.3799751,1.9023932,-2.0915062,-1.5707082,2.4770803,-0.06531686,0.032235876,-0.040912785,0.0070118313,0.0039180284,-0.078311734,-0.3256114,0.11492168,-9.423578,0.8112748,47.71286,-1.0895514,-2.5839334,-3.334206,-0.08151533,0.14220542,-0.060443692,28.5625,29.875,28.9375,32.6875,35.125,36.25
0.094054095,-0.41303223,-0.715577,-1.6500832,-0.014314513,0.06448965,-0.18339947,-0.3910877,-0.367833,0.059904452,-3.0786266,0.62502474,-0.00024246554,-0.03889646,0.016667651,0.001321816,-0.004645125,0.0015994337,0.011324482,0.50182515,-1.3799148,1.902296,-2.0914824,-1.5707206,2.4768884,-0.06621257,0.033328768,-0.044031322,0.0070522893,0.0032063979,-0.07752003,-0.2681506,0.019153614,-9.442732,0.779936,47.723602,-1.1292498,-2.547676,-3.2210011,-0.067102924,0.14442171,-0.06428222,28.5625,29.875,28.9375,32.6875,35.125,36.25
0.096053965,-0.4644599,-0.40474138,-1.6698319,-0.020993771,0.04549289,-0.17762347,-0.3911722,-0.36780012,0.05990152,-3.0786529,0.62503195,-0.00027965652,-0.03944553,0.017359111,0.0009329609,-0.0036115337,0.001182171,0.008838192,0.501669,-1.3798304,1.9022001,-2.0914705,-1.5706848,2.4767334,-0.067435004,0.034285687,-0.044328306,0.007261118,0.002501458,-0.07625473,-0.095768064,0.019153614,-9.308657,0.8157518,47.7254,-1.2154999,-2.5718064,-3.1761065,-0.071323,0.15952402,-0.07417531,28.5625,29.875,28.9375,32.6875,35.125,36.25
0.09805397,-0.29729116,-0.2321415,-1.6431541,-0.024881424,0.03828454,-0.18232746,-0.39122856,-0.36775532,0.05990278,-3.0786614,0.6249383,-0.0002697932,-0.039529964,0.018315176,-0.00033830042,-0.0022575995,-0.00077697914,0.0059635947,0.5015487,-1.3798057,1.9021653,-2.0914586,-1.5706967,2.4765537,-0.068964556,0.03596196,-0.043356273,0.006981922,0.002258166,-0.07490938,0.0,0.095768064,-9.32781,0.82694155,47.728977,-1.1428671,-2.602826,-3.3672094,-0.06649083,0.16221705,-0.09499332,28.5625,29.875,28.9375,32.6875,35.125,36.25
0.10005364,-0.3836404,-0.3816273,-1.7452048,-0.023149157,0.029560708,-0.18274452,-0.39134684,-0.36772522,0.059905056,-3.0786786,0.62501943,-0.00023867888,-0.04111306,0.018457359,0.00074895495,-0.003284701,0.0013462568,0.0027039608,0.50138074,-1.3796856,1.9020208,-2.0914705,-1.5706848,2.4764342,-0.07058026,0.0356455,-0.045478933,0.007067201,0.002137012,-0.073264375,0.019153614,0.1340753,-9.404425,0.8247004,47.698532,-1.2018986,-2.60534,-3.2745686,-0.07559139,0.16610774,-0.13121971,28.5625,29.875,28.9375,32.6875,35.125,36.25
0.102053694,0.21015283,-0.18441151,-1.7176735,-0.02500825,0.038118877,-0.183599,-0.39142942,-0.367677,0.059926607,-3.078663,0.624979,-0.0001360348,-0.042089682,0.018777745,0.0006846167,-0.0032474764,0.0011935254,-0.00012760157,0.50126034,-1.3796612,1.9019374,-2.0914462,-1.5707449,2.4762907,-0.072041616,0.03691454,-0.046903253,0.0073700966,0.0021784601,-0.07189342,-0.095768064,0.095768064,-9.404425,0.83589023,47.701214,-1.1827967,-2.628732,-3.253335,-0.067099325,0.16800061,-0.15779315,28.5625,29.875,28.9375,32.6875,35.125,36.25
0.10405474,-0.7962301,-0.7702276,-1.8068632,-0.021264374,0.016475655,-0.18171808,-0.391516,-0.36764264,0.059927586,-3.078685,0.62502265,-0.00019767953,-0.04389182,0.018767783,0.0014926386,-0.0044047288,0.0026531843,-0.0028742407,0.50109214,-1.3795769,1.9018272,-2.09141,-1.5706967,2.476147,-0.07387461,0.03775434,-0.049785458,0.007579088,0.0024862776,-0.07097902,-0.076614454,0.095768064,-9.385271,0.7351769,47.698532,-1.1503167,-2.631733,-3.1720562,-0.08637127,0.17740528,-0.20332891,28.5625,29.875,28.9375,32.6875,35.125,36.25
0.10605336,0.035929944,-0.78047985,-1.8668975,-0.029042454,0.044791143,-0.17882352,-0.39158323,-0.36763316,0.05993423,-3.0787308,0.6250135,-0.000235024,-0.043597188,0.019603645,0.00077333377,-0.003980651,0.00076433644,-0.0050662817,0.5009838,-1.3795048,1.9017214,-2.091386,-1.5706486,2.476027,-0.07533341,0.037880734,-0.048374526,0.007903865,0.0030266265,-0.070247225,-0.038307227,0.21068975,-9.442732,0.7396539,47.65464,-1.1999892,-2.5753388,-3.2505398,-0.08338216,0.1784246,-0.21983132,28.5625,29.875,28.9375,32.6875,35.125,36.25
0.1080542,-0.31505707,-0.97090304,-1.9695714,-0.033988427,0.04053816,-0.1742712,-0.3916744,-0.36756316,0.059917416,-3.0786777,0.6249816,-0.0002561557,-0.043583956,0.020043321,0.00013317147,-0.0034403717,-0.00045906805,-0.0032201498,0.50080395,-1.3794084,1.9016374,-2.0913503,-1.5706848,2.4758341,-0.07611788,0.038749054,-0.047960073,0.007951316,0.0031376584,-0.072878204,-0.038307227,0.19153613,-9.481039,0.82022345,47.68062,-1.243333,-2.558348,-3.3781543,-0.08241567,0.18131424,-0.25206596,28.5625,29.875,28.9375,32.6875,35.125,36.25
0.1100538,0.042010542,-0.6437988,-1.7419789,-0.054537814,0.06124891,-0.19407985,-0.39176577,-0.36749136,0.05992633,-3.078626,0.62508714,-0.00016546504,-0.045278095,0.020102402,0.00080448284,-0.003970133,0.00056035054,-0.0062617897,0.5006358,-1.379384,1.9015883,-2.0913503,-1.5707449,2.4757385,-0.077758335,0.03993777,-0.051069066,0.008719334,0.0031103925,-0.07147553,-0.05746084,0.24899697,-9.576807,0.7933669,47.71465,-1.2918444,-2.5717034,-3.2343268,-0.08767821,0.17494637,-0.26098305,28.5625,29.875,28.9375,32.6875,35.125,36.25
0.11205357,-0.1693687,-0.8329965,-1.7483207,-0.042799067,0.06269821,-0.18416275,-0.39185107,-0.36746365,0.059907448,-3.07865,0.6250337,-0.00025923157,-0.045621138,0.019959813,0.00086029165,-0.0042556063,0.00061736937,-0.006665683,0.50048006,-1.3792516,1.9014691,-2.0913265,-1.5706967,2.4755464,-0.07795795,0.04051043,-0.05189449,0.00878824,0.0033296063,-0.07127133,-0.11492168,0.21068975,-9.404425,0.8314132,47.685097,-1.3022321,-2.5901804,-3.2548318,-0.09788216,0.1759581,-0.33377856,28.5625,29.875,28.9375,32.6875,35.125,36.25
0.11405348,0.058035556,-0.35847473,-1.79641,-0.039829064,0.07497996,-0.18336818,-0.3919582,-0.3674152,0.05991343,-3.078662,0.6250932,-0.00021714077,-0.04742042,0.021435063,0.00096539134,-0.004670461,0.0006759969,-0.0075860866,0.5002989,-1.3791795,1.9013728,-2.091338,-1.5706962,2.475401,-0.082299925,0.040871263,-0.052580018,0.00886194,0.0036665741,-0.07469302,-0.1340753,0.17238252,-9.500193,0.74413085,47.677036,-1.1723572,-2.4995372,-3.2879324,-0.11980671,0.17271248,-0.33141476,28.5625,29.875,28.9375,32.6875,35.125,36.25
0.11605417,-0.7432539,-0.9708733,-1.9727527,-0.02924357,0.053982306,-0.16609912,-0.39204422,-0.36741576,0.059920646,-3.0787537,0.62507474,-0.0002616979,-0.046744768,0.020588497,-0.00010827928,-0.0040474324,-0.00096490997,-0.00875361,0.5001679,-1.3790826,1.9012417,-2.091338,-1.5706123,2.4752467,-0.080384746,0.043366197,-0.053024508,0.008555806,0.0039084638,-0.07160998,-0.17238252,0.11492168,-9.481039,0.86498255,47.691364,-1.3479061,-2.6480713,-3.2481456,-0.10612593,0.16740757,-0.38550404,28.5625,29.875,28.9375,32.6875,35.125,36.25
0.11805398,-0.59411633,-0.6036419,-1.904814,-0.036220085,0.062004343,-0.18210414,-0.3921148,-0.36736453,0.059896134,-3.0787232,0.6250291,-0.00030658478,-0.048100065,0.021083796,0.0005353872,-0.005469516,-0.00017831933,-0.010247305,0.5000234,-1.3789865,1.9011811,-2.0913265,-1.5706238,2.4750776,-0.08299982,0.043083865,-0.05417112,0.008609323,0.004773529,-0.072732575,-0.21068975,0.11492168,-9.346964,0.842603,47.72719,-1.3945348,-2.619205,-3.3043168,-0.11049676,0.15992051,-0.45619228,28.5625,29.875,28.9375,32.6875,35.125,36.25
0.120053485,-0.7726,-0.50896937,-1.8143743,-0.023167653,0.06651648,-0.17527826,-0.39224106,-0.36732373,0.05992562,-3.0787325,0.6251455,-0.00027524604,-0.04967624,0.021725236,0.0016198397,-0.0064056907,0.0016214777,-0.0092483265,0.49983078,-1.3789028,1.9010013,-2.0912664,-1.5706123,2.4749565,-0.08548901,0.04218697,-0.055661023,0.008970062,0.0047327154,-0.076220095,-0.21068975,0.076614454,-9.385271,0.842603,47.737934,-1.2374309,-2.4319055,-3.318018,-0.11321594,0.15941992,-0.4648656,28.5625,29.875,28.9375,32.6875,35.125,36.25
0.12205349,-1.2881039,-0.44416997,-1.846181,-0.014101146,0.06254267,-0.16742516,-0.39235395,-0.36728835,0.059940927,3.0787377,-0.6251625,0.0002313025,-0.04990562,0.02163228,0.00091667206,-0.006152188,0.00055493525,-0.0060319845,0.4996513,-1.37883,1.9008831,-2.0912788,-1.5705875,2.474787,-0.085706346,0.04415178,-0.056338325,0.00874227,0.005024067,-0.07965335,-0.22984336,0.076614454,-9.461885,0.79560274,47.711063,-1.3984919,-2.5358305,-3.2899334,-0.11239208,0.1454471,-0.45882213,28.5625,29.875,28.9375,32.6875,35.125,36.25
0.12405388,-0.57812864,0.03391795,-1.8044919,-0.019507578,0.09094524,-0.17775011,-0.39243397,-0.36724377,0.05992274,3.078752,-0.6251231,0.00027239684,-0.05087849,0.022210909,0.00079372944,-0.0061866506,0.000110726425,0.00013159846,0.49949485,-1.3787335,1.9008101,-2.0912783,-1.5705756,2.4746041,-0.087714545,0.045194626,-0.057383083,0.00911952,0.0052633216,-0.0878251,-0.36391866,0.019153614,-9.3661175,0.84484416,47.71465,-1.4052557,-2.5209484,-3.3100438,-0.12188092,0.12709838,-0.44800723,28.5625,29.875,28.9375,32.6875,35.125,36.25
0.1260537,-0.87694585,-0.17407651,-1.7208505,-0.009219432,0.09204967,-0.17372751,-0.39254007,-0.36718792,0.059929658,3.0787456,-0.62511927,0.0002597314,-0.05179964,0.022743799,0.0001444516,-0.005505975,-0.0006680305,0.0028040726,0.49930274,-1.3786608,1.9007028,-2.0912545,-1.5705756,2.4744105,-0.08930375,0.04733209,-0.05841972,0.009030703,0.0050372076,-0.0920856,-0.4213795,0.038307227,-9.3661175,0.842603,47.667187,-1.3375198,-2.6659281,-3.2444277,-0.117272355,0.14012352,-0.41308525,28.5625,29.875,28.9375,32.6875,35.125,36.25
0.1280537,-1.0165514,-0.46668926,-1.6630944,0.007309794,0.09409007,-0.16438375,-0.39263695,-0.36712924,0.059911408,-3.078764,0.62508076,-0.0003043534,-0.05382694,0.023987833,0.00085804646,-0.0062722103,0.00089758204,0.0069198115,0.49912181,-1.3785408,1.9005941,-2.0912187,-1.5705875,2.4742033,-0.09319934,0.04688581,-0.059463434,0.008780388,0.0049524903,-0.10009667,-0.34476504,0.0,-9.346964,0.80456203,47.70032,-1.3643603,-2.5432377,-3.2643018,-0.111951,0.14878386,-0.35304546,28.5625,29.875,28.9375,32.6875,35.125,36.25
0.1300538,-0.42432454,0.03363432,-1.5405556,-0.00416767,0.11100852,-0.1757418,-0.3927748,-0.36712766,0.059963126,3.0786805,-0.6249832,0.00020893355,-0.053483482,0.023423282,0.0014931398,-0.0068904217,0.0013291134,0.014165544,0.49895445,-1.378469,1.9003915,-2.0912182,-1.5705274,2.4739857,-0.09212073,0.045973428,-0.060008354,0.009569648,0.0053030006,-0.10626368,-0.4405331,0.019153614,-9.3661175,0.7866488,47.74241,-1.3642997,-2.5108838,-3.3153977,-0.11586051,0.1172754,-0.28931916,28.5625,29.875,28.9375,32.6875,35.125,36.25
0.13205358,-0.6574431,0.23731391,-1.509634,-0.00477881,0.1023884,-0.18054312,-0.39286214,-0.3670432,0.059936304,3.0787504,-0.62505335,0.00024574075,-0.055419516,0.02488884,0.0013242546,-0.006746432,0.0010850705,0.014936916,0.4987616,-1.3783726,1.90033,-2.091182,-1.5705756,2.4738278,-0.09634801,0.047292795,-0.06123371,0.009755454,0.005283862,-0.11126201,-0.5554548,-0.19153613,-9.385271,0.800085,47.709274,-1.4410694,-2.5299754,-3.353805,-0.13161922,0.11971865,-0.20238364,28.5625,29.875,28.9375,32.6875,35.125,36.25
0.1340561,-0.8113811,0.3387192,-1.4426756,-0.0027229434,0.102784395,-0.17406294,-0.392984,-0.36698598,0.059933044,3.0787728,-0.62493956,0.00027300362,-0.05613132,0.025065646,0.0010991872,-0.0062526097,0.0011815109,0.017947594,0.49854568,-1.3782519,1.9001864,-2.0911462,-1.5705642,2.4735382,-0.09697741,0.04866347,-0.062321786,0.009629011,0.0048004254,-0.11490074,-0.5746084,-0.22984336,-9.346964,0.784413,47.71286,-1.2454202,-2.5255332,-3.377258,-0.12803288,0.11397125,-0.17713954,28.5625,29.875,28.9375,32.6875,35.125,36.25
0.13605405,-0.61895174,0.119003534,-1.6494828,0.0060993913,0.107303545,-0.1722896,-0.39309373,-0.36695233,0.059928298,3.0787532,-0.6248587,0.00029635706,-0.05719614,0.026263839,0.0009546559,-0.0057887435,0.00075872557,0.016418552,0.49836525,-1.3781316,1.9000548,-2.0911462,-1.5705279,2.4733098,-0.099826634,0.04915776,-0.06269138,0.010103463,0.004597253,-0.11622038,-0.4405331,-0.1340753,-9.32781,0.78888994,47.745995,-1.275318,-2.5622635,-3.300062,-0.13847625,0.13177887,-0.1465016,28.5625,29.875,28.9375,32.6875,35.125,36.25
0.13805392,-1.4617139,-0.22230525,-1.6588739,0.007677939,0.083146736,-0.17035095,-0.39321017,-0.3668919,0.059921823,3.0787437,-0.62482005,0.00029387523,-0.059775677,0.026766375,0.0020498964,-0.0066334507,0.0030276584,0.011491311,0.4981487,-1.3780353,1.899958,-2.0911582,-1.570516,2.4730704,-0.10280977,0.049944937,-0.06619218,0.010423634,0.004250651,-0.11427419,-0.61291564,-0.11492168,-9.3661175,0.8090337,47.74241,-1.2125877,-2.4568524,-3.2656174,-0.15826264,0.11852014,-0.14726123,28.5625,29.875,28.9375,32.6875,35.125,36.25
0.14005397,-0.9183737,-0.17928033,-1.7111053,0.0077705975,0.093821056,-0.1681081,-0.3933486,-0.36686486,0.059965055,3.0786664,-0.6247695,0.00016355955,-0.060926095,0.027726265,0.0020243006,-0.006857097,0.0032996368,0.0046521635,0.49796823,-1.3779751,1.8997911,-2.09117,-1.5705041,2.4728682,-0.10550433,0.050208393,-0.06634419,0.009967494,0.0043303086,-0.110129066,-0.53630114,-0.11492168,-9.404425,0.83589023,47.71823,-1.0432177,-2.5132337,-3.1961074,-0.13718925,0.12243982,-0.171691,28.5625,29.875,28.9375,32.6875,35.125,36.25
0.14205383,-0.44699755,0.1076846,-1.942626,-0.00871891,0.10442292,-0.175604,-0.39345756,-0.3667745,0.059927262,3.078731,-0.6248438,0.00031018336,-0.06135936,0.029170591,0.00038849624,-0.00482737,-0.0001125514,-0.0026271162,0.4977157,-1.377818,1.8996719,-2.0910861,-1.5705041,2.4726539,-0.10821195,0.053094428,-0.066282436,0.010987771,0.0041669523,-0.10555737,-0.49799395,-0.05746084,-9.423578,0.84708,47.711063,-1.0118959,-2.5372767,-3.3567636,-0.14809728,0.13129173,-0.26225352,28.5625,29.875,28.9375,32.6875,35.125,36.25
0.14405333,-0.1736938,0.15449479,-1.7073805,-0.024960043,0.11201205,-0.17752114,-0.3935704,-0.36672828,0.059935022,3.078689,-0.6248358,0.0003191542,-0.0636469,0.029450277,0.0019143231,-0.0059936894,0.0023727324,-0.0072407005,0.49751148,-1.377734,1.8995517,-2.0910733,-1.5704678,2.47245,-0.11065935,0.052984677,-0.06983733,0.011916614,0.0040032538,-0.10338953,-0.51714754,-0.095768064,-9.481039,0.7530795,47.709274,-0.91767836,-2.5437853,-3.198998,-0.1692946,0.13160667,-0.2906281,28.5625,29.875,28.9375,32.6875,35.125,36.25
0.14605352,-1.2601924,-0.4233851,-1.8586512,-0.020181758,0.08134669,-0.1681019,-0.3937129,-0.3666644,0.059946798,3.0787046,-0.6248581,0.00026810504,-0.064898714,0.029665612,0.002658136,-0.0067244656,0.0038266028,-0.007920201,0.49729532,-1.3776139,1.899372,-2.0910256,-1.5705041,2.472246,-0.112108946,0.052882902,-0.0714287,0.0119808875,0.003950912,-0.10415889,-0.63206923,-0.095768064,-9.519346,0.77545905,47.709274,-0.9718013,-2.444641,-3.13357,-0.1703135,0.1219556,-0.31540057,28.5625,29.875,28.9375,32.6875,35.125,36.25
0.14805432,-0.9079375,-0.26816127,-1.802599,-0.026425803,0.104110286,-0.17462811,-0.39384001,-0.36658958,0.059952717,3.0787196,-0.62484056,0.00023132181,-0.06455163,0.030887423,0.0016335861,-0.005489022,0.0017718867,-0.007929438,0.49706727,-1.3775296,1.8992532,-2.0910017,-1.5705279,2.4720051,-0.113757394,0.053168334,-0.069476135,0.012137201,0.0038519274,-0.10579868,-0.7278373,0.038307227,-9.481039,0.83813137,47.71017,-0.97130966,-2.411722,-3.308661,-0.1832494,0.13086751,-0.34593648,28.5625,29.875,28.9375,32.6875,35.125,36.25
0.15005417,-1.1549497,-0.561324,-2.0116646,-0.029267738,0.11246739,-0.17548546,-0.39396802,-0.36653742,0.059954636,3.0786784,-0.6249086,0.00026920173,-0.0656793,0.03063702,0.00096490834,-0.005135761,0.0011059744,-0.008939778,0.49683955,-1.3774083,1.8990968,-2.0909655,-1.5704921,2.4718251,-0.11434404,0.056680575,-0.07209269,0.011999909,0.0038535835,-0.10537338,-0.5363012,0.076614454,-9.461885,0.85155696,47.69763,-0.97051835,-2.5212016,-3.2606983,-0.19336708,0.13358533,-0.3429855,28.5625,29.875,28.9375,32.6875,35.125,36.25
0.15205395,-1.5333893,-0.5234887,-1.9281245,-0.039641768,0.10304962,-0.18061489,-0.39409906,-0.3664639,0.059971098,3.0786462,-0.6249763,0.00026476505,-0.06632918,0.030438371,0.0019879132,-0.006456734,0.0027032357,-0.0069728936,0.49658793,-1.3773367,1.8989638,-2.0909178,-1.5704802,2.4716198,-0.11482365,0.055571415,-0.073134996,0.0121190455,0.0042542573,-0.107820205,-0.36391866,0.1340753,-9.500193,0.80679786,47.701214,-1.0223541,-2.5072172,-3.154684,-0.21520859,0.12445651,-0.36745676,28.5625,29.875,28.9375,32.6875,35.125,36.25
0.15405394,-1.2882509,-0.88821757,-2.0971708,-0.029742071,0.09248172,-0.15964325,-0.39424482,-0.36639395,0.059938136,3.078643,-0.6250346,0.000281814,-0.06686344,0.030328672,0.0022794707,-0.0071304617,0.0031940993,-0.007942044,0.49633628,-1.3771565,1.8988332,-2.0909536,-1.5704802,2.471405,-0.11531633,0.055787444,-0.07405253,0.012067807,0.004610708,-0.10734396,-0.45968673,0.11492168,-9.519346,0.8023209,47.691364,-1.0394311,-2.406585,-3.2529135,-0.20844726,0.12801903,-0.4061095,28.5625,29.875,28.9375,32.6875,35.125,36.25
0.1560533,-0.85669875,-0.41361943,-2.0533235,-0.035909206,0.074543804,-0.16777326,-0.39433149,-0.36632654,0.059902065,3.0787196,-0.62493074,0.0003843776,-0.06840572,0.031938624,0.0015852109,-0.0061005554,0.002122544,-0.004705575,0.49614322,-1.3770237,1.8987497,-2.0909178,-1.5704802,2.4711375,-0.11917065,0.05764831,-0.074749164,0.01234021,0.0042053256,-0.11443396,-0.34476507,0.11492168,-9.519346,0.7978386,47.694946,-1.0037478,-2.4544268,-3.2073913,-0.21199048,0.12970075,-0.35654643,28.5625,29.875,28.9375,32.6875,35.125,36.25
0.15805401,0.1375267,0.09562866,-2.0084994,-0.042541128,0.07648751,-0.18348871,-0.39451602,-0.3662438,0.059929438,3.078687,-0.62507296,0.00029058792,-0.0683113,0.030732064,0.0020087285,-0.007046422,0.0035906027,0.0018399471,0.49585682,-1.3769034,1.8985342,-2.0908706,-1.570516,2.4709442,-0.11709272,0.057820093,-0.07570418,0.0113797,0.004340972,-0.118901074,-0.17238252,0.1340753,-9.500193,0.76874626,47.689575,-1.187764,-2.4689684,-3.1873035,-0.23125899,0.12392546,-0.37016377,28.5625,29.875,28.9375,32.6875,35.125,36.25
0.16005357,-0.15676686,-0.5194396,-2.1107132,-0.0257821,0.054309078,-0.17841505,-0.39466152,-0.3662088,0.05995479,3.0786166,-0.6249975,0.00027971805,-0.07048354,0.03221757,0.0022560146,-0.0075744744,0.004344473,0.0057269493,0.49562746,-1.3767954,1.898343,-2.0908468,-1.5704564,2.4706767,-0.1216152,0.058302738,-0.07677106,0.011059483,0.00445219,-0.12730995,-0.1340753,0.095768064,-9.461885,0.76874626,47.658226,-0.9505961,-2.4581819,-3.1779468,-0.2173891,0.12894018,-0.27306646,28.5625,29.875,28.9375,32.6875,35.125,36.25
0.16205357,-0.11192486,-0.69429195,-2.1417394,-0.0153835155,0.049993932,-0.17426042,-0.3948004,-0.36613092,0.05992486,3.0786529,-0.6249795,0.0003126215,-0.07125725,0.032099377,0.0024156657,-0.007689291,0.0047006253,0.013354854,0.49537617,-1.3766266,1.8982109,-2.0908468,-1.5704678,2.4704096,-0.12204431,0.059387784,-0.07849199,0.011329372,0.0043774806,-0.1353662,-0.05746084,0.05746084,-9.442732,0.77545905,47.67166,-1.0423052,-2.4091868,-3.2582192,-0.21559195,0.13496657,-0.19266987,28.5625,29.875,28.9375,32.6875,35.125,36.25
0.16405351,0.23483622,-0.48956245,-2.0339165,-0.022027357,0.05634207,-0.17774291,-0.3949481,-0.3660776,0.05994947,3.078605,-0.62489176,0.0002505943,-0.07171415,0.0325268,0.0021768801,-0.0076781693,0.004473631,0.014815494,0.49513632,-1.3765423,1.898055,-2.0908468,-1.570444,2.4701211,-0.1232114,0.059924833,-0.0785222,0.011032193,0.0044863713,-0.13799366,0.0,0.15322891,-9.5385,0.82022345,47.658226,-1.0908146,-2.4511163,-3.1977625,-0.23143114,0.13748981,-0.14486063,28.5625,29.875,28.9375,32.6875,35.125,36.25
0.16605349,0.36958915,0.035562735,-2.049962,-0.032548297,0.054993223,-0.17553817,-0.3950874,-0.36600342,0.059941296,3.0786164,-0.624874,0.00026663757,-0.07315624,0.033889655,0.0018288377,-0.007842405,0.0036414447,0.013235315,0.49488363,-1.3764099,1.897911,-2.0908225,-1.5704435,2.469856,-0.12712514,0.06097092,-0.07899805,0.011116206,0.0050254404,-0.14032775,0.11492168,0.038307227,-9.461885,0.8291774,47.705692,-1.1368359,-2.3745203,-3.2364821,-0.21292469,0.13031618,-0.07787272,28.5625,29.875,28.9375,32.6875,35.125,36.25
0.16805331,0.02081347,-0.13163587,-1.9827852,-0.02651095,0.037685,-0.174397,-0.39522207,-0.36594638,0.059944846,3.0786295,-0.6247229,0.00026440492,-0.074086845,0.031779107,0.003618454,-0.009701741,0.0071196817,0.011994703,0.49465695,-1.3762898,1.897755,-2.0907986,-1.5704316,2.4695334,-0.124372825,0.061236523,-0.08344311,0.011353529,0.0050047385,-0.13633296,0.095768064,0.05746084,-9.481039,0.8537928,47.71465,-1.146108,-2.396956,-3.1426723,-0.23480067,0.12115208,-0.092119135,28.5625,29.875,28.9375,32.6875,35.125,36.25
0.17005396,0.121737376,-0.31573257,-1.9814655,-0.02881263,0.033154916,-0.16764192,-0.39539567,-0.36588576,0.059984352,3.0785677,-0.6247343,0.00012486699,-0.07478165,0.033899218,0.0025711583,-0.008557709,0.005800982,0.0029207417,0.49440393,-1.3762056,1.8975652,-2.0907986,-1.570444,2.4692955,-0.12830731,0.061558735,-0.08126682,0.010558317,0.004642869,-0.13119322,0.038307227,0.038307227,-9.519346,0.8403672,47.723602,-1.0642965,-2.38423,-3.217885,-0.22038448,0.13806227,-0.18919209,28.5625,29.875,28.9375,32.6875,35.125,36.25
0.17205362,0.072899565,-0.25288132,-1.8434305,-0.031262103,0.028668486,-0.17861798,-0.39555436,-0.36581758,0.059970524,3.0785415,-0.6247683,0.00014965405,-0.07505319,0.033028252,0.0025634007,-0.0093552815,0.005477683,-0.00058713515,0.494129,-1.3760368,1.8973964,-2.0907986,-1.5704197,2.4690452,-0.12757641,0.06316625,-0.08322434,0.01081488,0.0054967157,-0.12695462,0.05746084,0.17238252,-9.404425,0.8179876,47.71286,-1.2250417,-2.3490572,-3.1456647,-0.2254026,0.137655,-0.22735587,28.5625,29.875,28.9375,32.6875,35.125,36.25
0.17405364,0.10782618,-0.36545402,-1.9429685,-0.032089792,0.02745053,-0.173313,-0.39568326,-0.3657493,0.05997843,3.0785441,-0.6247125,0.00016336632,-0.07556388,0.03369871,0.0024256103,-0.009235592,0.0045624175,-0.0053651645,0.49388894,-1.3759406,1.8972534,-2.0907505,-1.5704077,2.46877,-0.12934239,0.063637994,-0.08366473,0.011646929,0.0058279024,-0.12394287,0.0,0.24899697,-9.404425,0.83813137,47.71823,-1.1611488,-2.4183917,-3.2023969,-0.24961737,0.12969454,-0.27563906,28.5625,29.875,28.9375,32.6875,35.125,36.25
0.17605329,0.291114,-0.5109633,-1.969348,-0.03804091,0.036732454,-0.16954772,-0.3958251,-0.36567473,0.059972472,3.0785801,-0.62470186,0.0001678485,-0.07644724,0.03431176,0.0022625749,-0.009537041,0.0043743113,-0.009725329,0.49364874,-1.3757964,1.8970851,-2.0907028,-1.5704316,2.4685187,-0.13136181,0.064349875,-0.08408605,0.01137575,0.006179839,-0.12160246,0.05746084,0.19153613,-9.385271,0.8806493,47.729877,-1.1755338,-2.3072278,-3.2650125,-0.2541867,0.13060294,-0.36120903,28.5625,29.875,28.9375,32.6875,35.125,36.25
0.17805411,0.18392134,-0.77097136,-1.9273316,-0.03494345,0.042820193,-0.16782989,-0.39599708,-0.36560586,0.05998895,3.078518,-0.6248051,0.00015082526,-0.076863855,0.03478036,0.0020652537,-0.009032097,0.0036549207,-0.012209353,0.4933611,-1.3756638,1.8968819,-2.0906665,-1.5704077,2.4683034,-0.13242248,0.06514122,-0.08475492,0.012130699,0.0060824854,-0.12017846,0.05746084,0.22984336,-9.442732,0.83813137,47.701214,-1.1622852,-2.419219,-3.286652,-0.2782845,0.13495901,-0.3906077,28.5625,29.875,28.9375,32.6875,35.125,36.25
0.18005407,-0.29064226,-0.8522978,-1.8004367,-0.043000787,0.04797439,-0.17387387,-0.39613825,-0.3655389,0.059981823,3.0784867,-0.62481755,0.00018884946,-0.07776359,0.035493094,0.0018424458,-0.009061757,0.0030129277,-0.0148337195,0.4930969,-1.3755314,1.8967384,-2.0906546,-1.570371,2.468051,-0.1346079,0.06611706,-0.085484825,0.012440963,0.0064134584,-0.11973957,-0.095768064,0.21068975,-9.3661175,0.8717007,47.774654,-1.249686,-2.323244,-3.2987285,-0.25412178,0.12654561,-0.4576853,28.5625,29.875,28.9375,32.6875,35.125,36.25
0.18205334,0.4371833,-0.21130005,-1.6744977,-0.052732747,0.08416325,-0.18363899,-0.39630544,-0.3654869,0.060004786,3.0784502,-0.6248077,0.00011836156,-0.078619294,0.0356306,0.0017621731,-0.009831713,0.002656262,-0.013711808,0.492857,-1.3753988,1.8965234,-2.0906308,-1.570371,2.4678097,-0.13610175,0.06727414,-0.08668026,0.012428609,0.0072670514,-0.122355424,-0.17238252,0.22984336,-9.32781,0.8537928,47.691364,-1.158956,-2.3724513,-3.3250256,-0.2744261,0.10499163,-0.5048725,28.5625,29.875,28.9375,32.6875,35.125,36.25
0.18405321,-0.103578225,0.035300717,-1.6899841,-0.040183783,0.082061425,-0.18790467,-0.39643624,-0.365407,0.05998888,3.0784314,-0.6248367,0.00018259541,-0.08006899,0.03622601,0.0022433298,-0.010279818,0.0039029454,-0.008464033,0.4925812,-1.3752787,1.8964142,-2.0906184,-1.5703353,2.4675543,-0.13826217,0.06748387,-0.087984025,0.0122221885,0.0070692324,-0.12976298,-0.21068975,0.17238252,-9.481039,0.8179876,47.729877,-1.1542492,-2.35158,-3.316188,-0.29052523,0.10683161,-0.4891022,28.5625,29.875,28.9375,32.6875,35.125,36.25
0.18605343,-0.14714096,0.15086772,-1.5359924,-0.03922385,0.09913842,-0.18267573,-0.39661878,-0.36533904,0.059993606,3.0783863,-0.6249014,0.00015488891,-0.08091216,0.036508877,0.002007794,-0.010281097,0.0038040297,-0.0016250551,0.49229297,-1.37511,1.8962005,-2.090607,-1.5703229,2.4673123,-0.13948561,0.068826,-0.08899918,0.011988445,0.0071226247,-0.13782462,-0.24899697,0.11492168,-9.481039,0.83589023,47.705692,-1.0768447,-2.3057976,-3.261538,-0.29683453,0.106654994,-0.40229017,28.5625,29.875,28.9375,32.6875,35.125,36.25
0.18805419,-0.7208235,-0.30055782,-1.5406779,-0.025340587,0.09807028,-0.1730742,-0.39679286,-0.36526063,0.060023192,3.078323,-0.62492037,0.0001329749,-0.08218286,0.0374523,0.0023003183,-0.01066476,0.004085098,0.0072720055,0.49198052,-1.375014,1.8960084,-2.0905588,-1.5702871,2.4670198,-0.14231077,0.068902604,-0.08983819,0.0123332795,0.0073389676,-0.14954647,-0.22984336,0.15322891,-9.404425,0.7911258,47.67614,-0.9296554,-2.2988143,-3.319311,-0.31147248,0.10253414,-0.30861923,28.5625,29.875,28.9375,32.6875,35.125,36.25
0.1900539,-1.0738866,-0.0014303372,-1.4719598,-0.022271533,0.10320283,-0.17400877,-0.39694637,-0.36518025,0.05999943,3.078351,-0.62490153,0.00018002688,-0.08226147,0.03758389,0.00067018537,-0.00990502,0.001364573,0.013462077,0.4917054,-1.3748325,1.8958415,-2.090535,-1.5702866,2.4667294,-0.14293994,0.07237704,-0.09018798,0.011968362,0.007950062,-0.15636608,-0.4213795,-0.076614454,-9.289502,0.779936,47.717335,-1.2205977,-2.2669423,-3.3351958,-0.31454453,0.087023765,-0.21748435,28.5625,29.875,28.9375,32.6875,35.125,36.25
0.1920538,-1.4667627,-0.20727198,-1.7016424,-0.005760997,0.102455035,-0.16819933,-0.39711276,-0.36512828,0.0600089,3.0783021,-0.62475365,0.00018203296,-0.084365286,0.03682038,0.0029838511,-0.011970918,0.0058812313,0.01707844,0.4914295,-1.3746887,1.8956493,-2.090535,-1.5702266,2.4663675,-0.14331798,0.07136967,-0.09429988,0.012145356,0.007641724,-0.16035831,-0.47884032,-0.038307227,-9.308657,0.8314132,47.728977,-1.1629868,-2.147288,-3.1426902,-0.30504453,0.08206232,-0.15416725,28.5625,29.875,28.9375,32.6875,35.125,36.25
0.19405368,-1.1792574,0.33492485,-1.3997225,-0.015825083,0.11555495,-0.1703343,-0.39726317,-0.36502945,0.059993263,3.0783668,-0.6247284,0.00023181035,-0.08355762,0.038096275,0.0010600606,-0.009770785,0.0023176735,0.015377813,0.49114197,-1.3745321,1.8954824,-2.090463,-1.5702513,2.466056,-0.1445302,0.073012285,-0.09192584,0.01230771,0.007381032,-0.15987076,-0.59376204,-0.1340753,-9.32781,0.8291774,47.707485,-1.2502302,-2.2375207,-3.4038057,-0.3228696,0.0875774,-0.1375285,28.5625,29.875,28.9375,32.6875,35.125,36.25
0.19605342,-1.0001154,0.110713154,-1.3689276,-0.0046020206,0.11992355,-0.16648415,-0.39742234,-0.36495757,0.05999235,3.078324,-0.62472254,0.00024045842,-0.085016355,0.038002513,0.00018428394,-0.009077023,0.0012883565,0.009673041,0.49085408,-1.3743984,1.8953255,-2.090463,-1.5702151,2.46577,-0.14556713,0.07741137,-0.095194936,0.012418701,0.0072520906,-0.15520063,-0.6512229,-0.1340753,-9.308657,0.88960326,47.71017,-1.2610452,-2.309063,-3.3266287,-0.30013713,0.07253617,-0.20165977,28.5625,29.875,28.9375,32.6875,35.125,36.25
0.19805339,-1.1028795,-0.033924486,-1.397072,0.0056543485,0.11013533,-0.16525419,-0.39761662,-0.36489072,0.06002268,3.078281,-0.6246604,0.0001385588,-0.08597014,0.039152417,0.0007906135,-0.010548833,0.0023718395,-0.00012232162,0.49056518,-1.3742671,1.8950981,-2.0904515,-1.5702146,2.465448,-0.14880309,0.07546571,-0.0940844,0.011600795,0.0080531575,-0.14864224,-0.63206923,-0.2681506,-9.270349,0.9567419,47.72092,-1.1839217,-2.2240438,-3.3079088,-0.30832136,0.07047856,-0.27582994,28.5625,29.875,28.9375,32.6875,35.125,36.25
0.2000534,-0.9869253,0.17799939,-1.2888983,0.0046977573,0.10503644,-0.1642636,-0.39780018,-0.364801,0.06002896,3.0782619,-0.62471545,0.00015281755,-0.08892322,0.040803183,0.00075529754,-0.009808896,0.0033395013,-0.006310228,0.49024078,-1.3741099,1.8948835,-2.0903919,-1.5702032,2.4651604,-0.15350878,0.07784117,-0.09680245,0.011445822,0.0069399625,-0.14715731,-0.6703765,-0.22984336,-9.289503,0.8291774,47.72808,-1.1463295,-2.3057132,-3.403232,-0.3101188,0.082568794,-0.32283482,28.5625,29.875,28.9375,32.6875,35.125,36.25
0.20205428,-0.86851174,0.13371393,-1.1155974,0.0039937734,0.1068355,-0.16143341,-0.39798814,-0.3647084,0.060029905,3.0782387,-0.6247668,7.117188e-05,-0.08936585,0.040507574,0.0008952737,-0.009417343,0.003953854,-0.0060686152,0.4899296,-1.3739655,1.8947152,-2.0904157,-1.570227,2.4648843,-0.1529634,0.078811154,-0.09832893,0.011645402,0.006311792,-0.1468518,-0.7086837,-0.15322891,-9.193734,0.8224646,47.703903,-1.1955178,-2.334037,-3.259997,-0.30108958,0.07510715,-0.34194866,28.5625,29.875,28.9375,32.6875,35.125,36.25
0.20405409,-1.064118,-0.073173694,-1.2386553,0.011460758,0.1126229,-0.15695783,-0.39816177,-0.36462975,0.060015377,3.0782242,-0.62478167,0.00013712505,-0.090035796,0.040193662,0.0010272973,-0.009493303,0.0043742717,-0.005181453,0.48961824,-1.373773,1.8945111,-2.090379,-1.5701917,2.464584,-0.15289943,0.080071144,-0.10018576,0.011843654,0.0061765243,-0.14767411,-0.7661445,-0.095768064,-9.212888,0.8717007,47.68599,-1.2264912,-2.3000531,-3.2623353,-0.30760968,0.0771135,-0.38271737,28.5625,29.875,28.9375,32.6875,35.125,36.25
0.20605367,-0.6214146,0.14203012,-1.2523484,0.008249465,0.13108262,-0.16505173,-0.398336,-0.36455432,0.060019348,3.0781991,-0.6247732,0.00014795671,-0.09041434,0.04062438,0.00044137714,-0.0096787745,0.0028709106,-0.0029965562,0.48931867,-1.3736163,1.894308,-2.0903437,-1.5701674,2.4642825,-0.1544527,0.0813901,-0.10048358,0.012066652,0.0070520877,-0.15141293,-0.57460845,-0.05746084,-9.232041,0.8224646,47.692257,-1.2692952,-2.2196677,-3.260435,-0.31337565,0.078235745,-0.37806976,28.5625,29.875,28.9375,32.6875,35.125,36.25
0.2080542,-0.99405855,-0.25016615,-1.3917682,0.00017472285,0.123206556,-0.16747543,-0.39850548,-0.36447608,0.060009334,3.0782006,-0.6246717,0.00017298586,-0.09231262,0.040309463,0.001321804,-0.010315356,0.0043630847,0.0033538518,0.4890188,-1.3734475,1.8941272,-2.0903313,-1.5701431,2.4639192,-0.15549152,0.08304814,-0.104679994,0.012999315,0.0069105555,-0.15880021,-0.47884035,-0.019153614,-9.270349,0.8179876,47.701214,-1.3061669,-2.4540617,-3.2093577,-0.333892,0.07514246,-0.32880455,28.5625,29.875,28.9375,32.6875,35.125,36.25
0.2100538,-0.66578615,-0.44013745,-1.3929176,-0.013574873,0.12250186,-0.17463633,-0.39870095,-0.36442038,0.06002694,3.0781403,-0.6246348,0.00016475939,-0.09147536,0.041357018,0.00046189636,-0.008752877,0.002901566,0.012155536,0.48871914,-1.3732674,1.893865,-2.0902956,-1.5700954,2.4636042,-0.15601623,0.08252244,-0.10211423,0.013001273,0.00623618,-0.16812669,-0.4213795,-0.05746084,-9.308656,0.8560339,47.73077,-1.3325438,-2.2976406,-3.2910423,-0.3469258,0.07020294,-0.22711697,28.5625,29.875,28.9375,32.6875,35.125,36.25
0.2120536,-0.79421383,-0.73105645,-1.594034,-0.010338481,0.09297008,-0.16748661,-0.39888775,-0.36430508,0.060013596,3.078172,-0.6246551,0.00017221674,-0.09338064,0.041626025,-8.034924e-05,-0.008051071,0.0024473951,0.018484429,0.48837155,-1.373098,1.8936857,-2.0902593,-1.5701197,2.4632654,-0.15787216,0.08648268,-0.10568251,0.01334421,0.005823256,-0.17630924,-0.34476504,-0.019153614,-9.3661175,0.83589023,47.705692,-1.359858,-2.4834518,-3.2676835,-0.33792257,0.065127395,-0.111364715,28.5625,29.875,28.9375,32.6875,35.125,36.25
0.21405345,-0.16355115,0.09220209,-1.4879628,-0.033779923,0.08464832,-0.17724016,-0.39909124,-0.36420748,0.06001019,3.078164,-0.62468976,0.00017127745,-0.09412633,0.042566705,0.0008411059,-0.008422111,0.0045970227,0.019810528,0.48802388,-1.3729067,1.8934578,-2.0902236,-1.5701197,2.4629405,-0.1596393,0.0841678,-0.10492314,0.012833535,0.0051467945,-0.17940238,-0.30645782,0.05746084,-9.32781,0.7933669,47.672558,-1.4213998,-2.436941,-3.2115278,-0.3477531,0.0806722,-0.049816564,28.5625,29.875,28.9375,32.6875,35.125,36.25
0.21605411,-0.64693767,-0.6321216,-1.6622547,-0.02575924,0.05956,-0.16367038,-0.39930412,-0.3641219,0.0600339,3.0781353,-0.62457025,7.265687e-05,-0.095239334,0.042712826,0.00020091476,-0.007791094,0.0039679157,0.01416566,0.48768815,-1.3727616,1.8932313,-2.0902236,-1.5701197,2.462534,-0.16066016,0.08717638,-0.10705064,0.012803939,0.0048947074,-0.17477642,-0.2681506,0.15322891,-9.289502,0.87393653,47.68599,-1.346728,-2.3978977,-3.2247329,-0.33447424,0.09281456,-0.07394649,28.5625,29.875,28.9375,32.6875,35.125,36.25
0.21805395,0.7478284,-0.39493346,-1.6670809,-0.03440151,0.07345486,-0.17213012,-0.39944994,-0.3640397,0.059984162,3.0781806,-0.6245279,0.00017184619,-0.09769219,0.043969188,0.00020293934,-0.008152127,0.004523299,0.0030912373,0.48741108,-1.3725446,1.8930863,-2.0902236,-1.5701078,2.4622247,-0.16495647,0.08898743,-0.10914253,0.012424238,0.0049351063,-0.1679976,-0.17238252,0.21068975,-9.32781,0.84484416,47.711063,-1.1410995,-2.5344367,-3.1422248,-0.3367129,0.10076368,-0.13666737,28.5625,29.875,28.9375,32.6875,35.125,36.25
0.22005363,0.12534705,-0.7502386,-1.7981763,-0.032415498,0.048199706,-0.16972326,-0.39968705,-0.36393115,0.060013458,3.0781243,-0.62461454,9.978546e-05,-0.09914664,0.04460418,0.0002934674,-0.008423495,0.0046172976,-0.005238163,0.48701522,-1.3723881,1.8928226,-2.0901759,-1.5701078,2.4618902,-0.16737562,0.09024994,-0.110934034,0.012740917,0.0051383656,-0.16208644,-0.05746084,0.21068975,-9.3661175,0.91198283,47.71554,-1.1633508,-2.517044,-3.1162572,-0.3153826,0.091399625,-0.21908787,28.5625,29.875,28.9375,32.6875,35.125,36.25
0.22205338,0.16846192,-0.52909887,-1.7915037,-0.046704393,0.043370996,-0.16436167,-0.39991048,-0.36383232,0.06001955,3.0780745,-0.6247221,1.8743398e-05,-0.09983905,0.045161966,-0.00024868554,-0.0077903643,0.0035907533,-0.011554669,0.4866555,-1.3722072,1.8925961,-2.0901873,-1.5701197,2.461604,-0.16881503,0.0920108,-0.111905664,0.013152549,0.005067484,-0.1572084,-0.15322891,0.30645782,-9.404425,0.8717007,47.679718,-1.0397835,-2.5801897,-3.0803623,-0.33646277,0.1122586,-0.33239403,28.5625,29.875,28.9375,32.6875,35.125,36.25
0.22405334,0.25587463,-1.0009296,-1.8189535,-0.050314598,0.05632361,-0.1678217,-0.4000763,-0.36374858,0.059996232,3.0781024,-0.62463444,0.00012806906,-0.10086336,0.045566883,7.5484924e-05,-0.008372456,0.0039907093,-0.01748021,0.4863432,-1.372003,1.8923925,-2.0901277,-1.5700835,2.4612336,-0.17055026,0.09234054,-0.1131098,0.013404855,0.0053839968,-0.15301827,-0.11492168,0.3256114,-9.404425,0.8224646,47.695843,-1.050405,-2.5542748,-3.087828,-0.33689916,0.108382374,-0.40496606,28.5625,29.875,28.9375,32.6875,35.125,36.25
0.22605413,0.15433794,-1.0748689,-1.7280104,-0.055545174,0.06867977,-0.16681816,-0.40028757,-0.3636434,0.059986956,3.078067,-0.6248562,0.00011750174,-0.101952754,0.046098195,0.00055043644,-0.008993501,0.0043906155,-0.021074632,0.485984,-1.3717988,1.8921651,-2.0901034,-1.5700954,2.4610174,-0.17256992,0.09240165,-0.114415064,0.014003242,0.00574676,-0.15144347,-0.095768064,0.24899697,-9.461885,0.87617236,47.684196,-1.2379707,-2.572589,-3.078123,-0.35391003,0.12152985,-0.47330445,28.5625,29.875,28.9375,32.6875,35.125,36.25
0.22805373,0.30437508,-1.1810107,-1.9431561,-0.049307674,0.07701563,-0.17853534,-0.40049985,-0.36354584,0.059982695,3.0780666,-0.6248695,9.2925366e-05,-0.10138724,0.045643244,-5.2716434e-05,-0.009010091,0.0026249385,-0.014093283,0.4856369,-1.3715942,1.8919257,-2.090079,-1.5701073,2.4606788,-0.17174526,0.093722455,-0.11476732,0.014589437,0.0065931994,-0.15760073,0.095768064,0.24899697,-9.519346,0.8627467,47.7254,-1.2028008,-2.5248327,-3.1478777,-0.3676715,0.09910019,-0.502987,28.5625,29.875,28.9375,32.6875,35.125,36.25
0.2300534,0.17494875,-0.4228872,-1.8919325,-0.06719257,0.074461825,-0.17981306,-0.4007038,-0.3634836,0.060006607,3.077989,-0.6248285,8.1175756e-05,-0.102529675,0.046407238,-6.804028e-05,-0.0094048735,0.002652837,-0.0048921234,0.48531237,-1.3714259,1.891663,-2.0900438,-1.5700473,2.4603386,-0.17419381,0.094382025,-0.1155059,0.014477859,0.006944511,-0.16925006,0.019153614,0.24899697,-9.557653,0.8940802,47.729877,-1.1132653,-2.5859795,-3.10895,-0.3631481,0.09768815,-0.4246278,28.5625,29.875,28.9375,32.6875,35.125,36.25
0.2320539,-0.025684059,-0.9238772,-1.8340076,-0.04879474,0.058602285,-0.1682031,-0.4008982,-0.36336714,0.059973046,3.0780625,-0.62479675,0.00011912764,-0.105364315,0.046748284,0.001313675,-0.011117163,0.005749116,0.0047844956,0.48496443,-1.3711973,1.8914589,-2.0900075,-1.570083,2.4599617,-0.17726853,0.09487427,-0.119170934,0.01411751,0.007004552,-0.1820004,0.019153614,0.21068975,-9.5385,0.7777002,47.716442,-1.043654,-2.4638128,-3.0176558,-0.35737148,0.090558216,-0.28670517,28.5625,29.875,28.9375,32.6875,35.125,36.25
0.23405382,0.7012371,-0.36455223,-1.9054861,-0.043147013,0.059574764,-0.1783634,-0.4010854,-0.36327127,0.059961475,3.0780704,-0.6247944,0.00016310887,-0.104440816,0.048570685,-0.00048821903,-0.009052725,0.0026087752,0.010290221,0.48462823,-1.3710049,1.8912452,-2.0899599,-1.5700711,2.459623,-0.17922445,0.09515726,-0.115351476,0.013766352,0.0066499487,-0.18946329,0.0,0.21068975,-9.595961,0.78217715,47.74062,-0.99117863,-2.518849,-3.2183967,-0.34401447,0.097816944,-0.18611318,28.5625,29.875,28.9375,32.6875,35.125,36.25
0.23605356,0.14823833,-0.20666645,-1.8239056,-0.04105077,0.047837008,-0.16809672,-0.40131113,-0.36319932,0.05997729,3.0779905,-0.6247194,0.00013434587,-0.10726921,0.048042208,0.0014895458,-0.0119657535,0.006814751,0.010804492,0.4842684,-1.3708129,1.8909806,-2.0899603,-1.570011,2.4592266,-0.18115501,0.095225446,-0.11978261,0.013064107,0.007275835,-0.19190654,-0.1340753,0.1340753,-9.5385,0.8247004,47.741516,-0.9266156,-2.478618,-3.0516896,-0.33192953,0.11505742,-0.14133203,28.5625,29.875,28.9375,32.6875,35.125,36.25
0.23805417,-0.33202186,-0.5005851,-1.8499082,-0.025219843,0.0450834,-0.1585157,-0.40151352,-0.3630775,0.05996342,3.0780134,-0.62474465,0.0001294059,-0.106584385,0.04903863,-0.0012738028,-0.009907757,0.0017943649,0.005540664,0.48389703,-1.3706312,1.8907903,-2.0899365,-1.5700344,2.4588683,-0.18246943,0.09912059,-0.11812599,0.012907517,0.0077926354,-0.18795781,-0.1340753,0.019153614,-9.615114,0.8314132,47.7245,-1.0868211,-2.596827,-3.2948718,-0.32044512,0.08951344,-0.16914076,28.5625,29.875,28.9375,32.6875,35.125,36.25
0.24005365,0.2601668,0.6277313,-1.6893948,-0.025494574,0.07919794,-0.1742974,-0.4017532,-0.36298305,0.059981853,3.077945,-0.62475157,9.254039e-05,-0.106782295,0.048627753,0.00072581065,-0.011609921,0.0051298533,-0.0005562101,0.48350224,-1.3704405,1.8905157,-2.0899122,-1.5699986,2.4584866,-0.18183644,0.095550194,-0.11847089,0.013083581,0.0077588977,-0.18122795,-0.11492168,-0.05746084,-9.557653,0.7239871,47.695843,-1.1027923,-2.4647129,-3.2722716,-0.31616837,0.10216579,-0.25378075,28.5625,29.875,28.9375,32.6875,35.125,36.25
0.24205351,-0.6103169,0.5864379,-1.6829983,-0.01844202,0.07980029,-0.16599123,-0.40196007,-0.36289054,0.059964508,3.0779402,-0.6247697,0.00012110052,-0.106485404,0.049183346,-0.0019439497,-0.009463655,-5.9793656e-05,-0.004082377,0.48315477,-1.3702103,1.8902754,-2.0898883,-1.5699867,2.458151,-0.18274781,0.10072939,-0.118758135,0.013785527,0.008269951,-0.17861293,-0.21068975,-0.095768064,-9.500193,0.90750587,47.721813,-1.1108837,-2.5411968,-3.3231962,-0.3215924,0.096788704,-0.3259049,28.5625,29.875,28.9375,32.6875,35.125,36.25
0.24405351,-0.10199391,0.7330448,-1.8302305,-0.006217434,0.10173331,-0.17442669,-0.40214875,-0.36281735,0.05996716,3.0778854,-0.6247191,0.00017772,-0.10754439,0.048751958,0.00041912982,-0.012029858,0.004105852,-0.0036906777,0.48281914,-1.3700315,1.8900479,-2.089852,-1.5699147,2.4577909,-0.18309331,0.09742601,-0.12017098,0.01363595,0.008609333,-0.17935038,-0.21068975,-0.21068975,-9.557653,0.8403672,47.709274,-1.1790525,-2.4487114,-3.4753914,-0.31020457,0.089374445,-0.353634,28.5625,29.875,28.9375,32.6875,35.125,36.25
0.24605322,-1.0843779,0.3178597,-1.6034645,0.008326706,0.08688764,-0.16190879,-0.4023901,-0.36270872,0.05997947,3.0778537,-0.6247868,8.644278e-05,-0.106476784,0.04877661,-0.0013438466,-0.011304751,0.00035806108,-0.002228987,0.48243603,-1.3698384,1.8897871,-2.0898402,-1.5699381,2.4574542,-0.18278438,0.099803746,-0.11905285,0.013792607,0.00972275,-0.18050377,-0.19153613,-0.24899697,-9.557653,0.95226496,47.698532,-1.172099,-2.399829,-3.4456754,-0.29660183,0.071101226,-0.4022771,28.5625,29.875,28.9375,32.6875,35.125,36.25
0.2480538,-0.47325078,0.3328849,-1.7075577,0.011697112,0.09867714,-0.1768961,-0.40261653,-0.36259273,0.0599905,3.0778503,-0.6247621,6.9693655e-05,-0.10905476,0.048836738,0.0006790344,-0.012549583,0.005092869,0.003094427,0.48203984,-1.3696585,1.8895339,-2.08978,-1.5699385,2.4570432,-0.18441086,0.09903246,-0.122658156,0.013410165,0.008630552,-0.18745132,-0.34476504,-0.22984336,-9.481039,0.98807013,47.71554,-1.2385182,-2.4095235,-3.4442015,-0.29804197,0.08021727,-0.3328911,28.5625,29.875,28.9375,32.6875,35.125,36.25
0.25005415,-0.63800114,0.09303746,-1.8822219,0.017710723,0.08830733,-0.17174685,-0.40282398,-0.36252633,0.059981674,3.077796,-0.62470543,0.00015488821,-0.10997016,0.050216988,0.0005494849,-0.011804456,0.0046878797,0.011951426,0.48169208,-1.369418,1.8892592,-2.0897443,-1.5698546,2.456667,-0.1871768,0.09923367,-0.1227727,0.014058267,0.008169054,-0.19907391,-0.34476504,-0.30645782,-9.461885,0.90527004,47.693153,-1.0944467,-2.367882,-3.4411016,-0.3119912,0.09052518,-0.22941598,28.5625,29.875,28.9375,32.6875,35.125,36.25
0.25205377,-0.6404985,0.44807374,-2.001167,0.0029514001,0.07917025,-0.17792712,-0.4030319,-0.3624111,0.05997084,3.0777996,-0.62469965,0.00013025616,-0.1107249,0.049713764,-0.00024424487,-0.0112354895,0.0037978976,0.020882796,0.48132098,-1.3692367,1.8890675,-2.0897443,-1.5698665,2.456292,-0.18686453,0.10292095,-0.12538029,0.01403933,0.008081694,-0.20769131,-0.21068975,-0.15322891,-9.595961,0.8605109,47.698532,-1.3773997,-2.363233,-3.33534,-0.29698408,0.07201324,-0.10655831,28.5625,29.875,28.9375,32.6875,35.125,36.25
0.25405374,-0.98924416,-0.3051616,-1.9000105,-0.006913657,0.07547671,-0.17285097,-0.4032525,-0.3623036,0.059970032,3.077817,-0.6245669,0.00014118156,-0.11107809,0.049900323,0.0010373378,-0.011635115,0.0058523244,0.02169532,0.48093742,-1.3690332,1.8888158,-2.0896962,-1.5698551,2.4558234,-0.1870366,0.10070423,-0.12581472,0.014692875,0.007490039,-0.20867568,-0.45968673,-0.038307227,-9.557653,0.8537928,47.694054,-1.3987329,-2.3144484,-3.3491933,-0.29654783,0.08458882,-0.064452164,28.5625,29.875,28.9375,32.6875,35.125,36.25
0.25605354,-1.0088418,-0.12005766,-1.8332639,-0.032728255,0.08837542,-0.18442251,-0.40347487,-0.36220473,0.059974022,3.077809,-0.6245514,6.0446626e-05,-0.1117862,0.05034789,4.6835106e-05,-0.010088088,0.004353703,0.01481596,0.48058903,-1.3688402,1.8885764,-2.0896962,-1.5698794,2.4554665,-0.18791723,0.103811614,-0.12740983,0.015219741,0.0068183616,-0.20267503,-0.5554548,0.0,-9.519346,0.8806493,47.696735,-1.4528203,-2.3047876,-3.3736808,-0.29626903,0.08700633,-0.09928356,28.5625,29.875,28.9375,32.6875,35.125,36.25
0.25805354,-0.8954672,-0.49461037,-2.2124074,-0.0351425,0.09355961,-0.17536135,-0.4036833,-0.36209336,0.059968136,3.0777884,-0.624573,0.00017936248,-0.11324361,0.051577736,0.00079957314,-0.0104023,0.0051930347,0.0026035223,0.48018,-1.3686364,1.8883246,-2.0895994,-1.5698193,2.4550736,-0.19111471,0.103081375,-0.12847482,0.016132772,0.006697379,-0.19366013,-0.36391866,0.13407528,-9.653421,0.9164598,47.677036,-1.4468869,-2.3729162,-3.3649216,-0.28889692,0.0836235,-0.20141014,28.5625,29.875,28.9375,32.6875,35.125,36.25
0.2600541,-0.9034972,-1.0693922,-2.0586894,-0.04894873,0.08381622,-0.16947289,-0.40394735,-0.3619901,0.05999877,3.07776,-0.6245907,4.3892745e-05,-0.11468475,0.05285605,0.0005953217,-0.010235951,0.0045008273,-0.0074130357,0.47979486,-1.3684317,1.8880028,-2.089564,-1.5698551,2.4547033,-0.19455066,0.104290925,-0.12961014,0.016738793,0.006883374,-0.1870786,-0.34476507,0.19153613,-9.730036,0.8537928,47.661808,-1.3345106,-2.3262959,-3.417472,-0.28357977,0.103384316,-0.29923326,28.5625,29.875,28.9375,32.6875,35.125,36.25
0.2620542,-0.36039343,-0.5017189,-1.6443121,-0.091019556,0.09236914,-0.18227011,-0.40417948,-0.36187395,0.060009427,3.0776985,-0.6246955,-2.280726e-06,-0.1154151,0.052814424,0.00014484792,-0.009742251,0.003962858,-0.013251281,0.47938704,-1.3682625,1.8877739,-2.0895517,-1.5698432,2.4543688,-0.19491577,0.106659845,-0.13147658,0.01694238,0.00669833,-0.18160397,-0.38307226,0.2681506,-9.5385,0.88289046,47.658226,-1.4016757,-2.3936923,-3.364842,-0.2791974,0.108072564,-0.4080614,28.5625,29.875,28.9375,32.6875,35.125,36.25
0.26405427,-0.25021592,-0.89905345,-1.8759954,-0.07978385,0.09145951,-0.18792932,-0.40442932,-0.36177346,0.060021136,3.0776758,-0.624653,-3.258042e-05,-0.1167729,0.053585403,0.0003409566,-0.009354755,0.0048594913,-0.015592595,0.47899044,-1.3680342,1.8874639,-2.089504,-1.5698317,2.4539487,-0.19684389,0.10741244,-0.1328436,0.016946936,0.005947225,-0.18118943,-0.36391866,0.36391866,-9.710882,0.85826975,47.642998,-1.3097293,-2.3602197,-3.3716078,-0.27120107,0.104913644,-0.4873929,28.5625,29.875,28.9375,32.6875,35.125,36.25
0.2660543,-0.8281923,-1.1331671,-1.9420605,-0.07874123,0.07710918,-0.18039455,-0.40463787,-0.36165687,0.060003392,3.0776958,-0.6247095,-1.1718196e-06,-0.1196534,0.053355295,0.002081265,-0.011753168,0.008599824,-0.008294472,0.47861734,-1.3678178,1.887235,-2.0894563,-1.5698432,2.4536085,-0.19915025,0.107869156,-0.13725853,0.016487775,0.006346475,-0.1907927,-0.19153613,0.34476504,-9.615114,0.8806493,47.67345,-1.2661226,-2.410442,-3.1823618,-0.26947942,0.13766268,-0.45715624,28.5625,29.875,28.9375,32.6875,35.125,36.25
0.2680543,-0.37664846,-1.0316505,-1.7848761,-0.07205251,0.09015778,-0.19277959,-0.40487844,-0.36155757,0.059998795,3.0776396,-0.6246907,4.371359e-06,-0.11980457,0.053971626,0.0010558815,-0.0117336195,0.0067250575,0.0041655023,0.47820893,-1.367589,1.8869723,-2.0894563,-1.5697955,2.4531956,-0.2007516,0.109396614,-0.13668385,0.016080845,0.0072144386,-0.20485446,-0.21068975,0.3256114,-9.595961,0.9254084,47.70659,-1.1767709,-2.3137937,-3.202408,-0.2651619,0.12685603,-0.36372924,28.5625,29.875,28.9375,32.6875,35.125,36.25
0.27005342,-0.8991387,-0.9482331,-1.6895039,-0.0560713,0.07417322,-0.18460897,-0.40514544,-0.36145046,0.060025796,3.077605,-0.62463975,-0.00010813251,-0.12176714,0.053717416,0.0020143043,-0.013645614,0.009154119,0.012507936,0.47780055,-1.3673844,1.8866614,-2.089433,-1.5698065,2.45276,-0.202304,0.110117316,-0.1395361,0.015183933,0.007816874,-0.21474789,-0.3256114,0.30645782,-9.5385,0.8493211,47.711063,-1.1423976,-2.4161224,-3.0747352,-0.25148606,0.11062463,-0.2112599,28.5625,29.875,28.9375,32.6875,35.125,36.25
0.27205423,-0.02781286,-0.2254859,-1.4912735,-0.053089436,0.106045984,-0.19097614,-0.4053929,-0.36136746,0.060029726,3.0775163,-0.6246013,-8.177966e-05,-0.12316242,0.05445495,0.001513182,-0.013381995,0.008542936,0.014061403,0.47739172,-1.3671435,1.886362,-2.0894206,-1.5697225,2.4523385,-0.20469695,0.112443455,-0.14120848,0.015219278,0.007879144,-0.21869308,-0.38307226,0.21068975,-9.3661175,0.8717007,47.685097,-1.0841782,-2.415154,-3.1496718,-0.23177135,0.13440779,-0.16497192,28.5625,29.875,28.9375,32.6875,35.125,36.25
0.27405417,-1.1200798,-0.2954999,-1.4151583,-0.030600656,0.08541445,-0.17793067,-0.4056511,-0.3612636,0.060033575,3.0774925,-0.6245239,-0.00012702546,-0.12465372,0.05485932,0.0015946834,-0.014071446,0.009194832,0.007177034,0.4769829,-1.3669028,1.886063,-2.0894086,-1.5697106,2.4518845,-0.20676787,0.113762036,-0.1428669,0.014663361,0.008198718,-0.21387863,-0.4213795,0.15322891,-9.289503,0.88289046,47.68599,-1.0768464,-2.4590416,-3.0374231,-0.2026803,0.12661777,-0.1767183,28.5625,29.875,28.9375,32.6875,35.125,36.25
0.27605397,-0.3476881,0.42976615,-1.3617437,-0.024078669,0.089982346,-0.19014247,-0.4058985,-0.36114827,0.060047384,3.0774803,-0.6244874,-0.0002239604,-0.12591556,0.054779984,0.0019155385,-0.015213901,0.009411221,-0.0015483305,0.47658646,-1.3667103,1.8857988,-2.0893967,-1.5697345,2.451467,-0.20819889,0.11511454,-0.14531307,0.0150283,0.009121511,-0.20658319,-0.28730422,0.076614454,-9.32781,0.92093146,47.686886,-1.0787158,-2.356605,-2.9216197,-0.18776107,0.10221283,-0.25508702,28.5625,29.875,28.9375,32.6875,35.125,36.25
0.27805358,-0.5130526,0.31910726,-1.1393385,-0.012776626,0.079922915,-0.18672572,-0.40615585,-0.36105463,0.060046207,3.0773938,-0.62452954,-0.00022184628,-0.12580812,0.055090204,0.001580336,-0.014774896,0.008995388,-0.0065541533,0.47616643,-1.3664578,1.8854998,-2.0893967,-1.5696744,2.4510844,-0.2083921,0.11537301,-0.1448573,0.014896893,0.008933681,-0.20177028,-0.49799395,0.0,-9.232041,0.8605109,47.694946,-1.1563075,-2.553008,-3.239352,-0.17041433,0.11112966,-0.3402202,28.5625,29.875,28.9375,32.6875,35.125,36.25
0.28005412,-0.7111658,0.35134116,-1.048415,-0.007518094,0.08126088,-0.18042208,-0.4064327,-0.36093074,0.060059726,3.077357,-0.6245782,-0.00030427476,-0.12449536,0.054808725,6.492814e-05,-0.012866872,0.005921299,-0.0047128405,0.47572327,-1.3662288,1.8851899,-2.0893729,-1.5696868,2.4506764,-0.20648445,0.11772216,-0.14444105,0.01574061,0.008666249,-0.20170325,-0.63206923,0.0,-9.078813,0.8627467,47.72719,-1.4446781,-2.4310184,-3.1180406,-0.17197326,0.12372889,-0.39015225,28.5625,29.875,28.9375,32.6875,35.125,36.25
0.28205383,-0.4999269,0.2693541,-1.2100527,0.009713524,0.09332184,-0.18337218,-0.40666074,-0.36083478,0.06005809,3.0773447,-0.624533,-0.00025312163,-0.12470783,0.054347225,0.0010831367,-0.013737337,0.0072968495,0.0007558647,0.47533974,-1.3659892,1.8848909,-2.0893009,-1.56965,2.4502664,-0.20588002,0.116660506,-0.14566208,0.016417438,0.008816538,-0.20656753,-0.4213795,-0.038307227,-9.193734,0.9365982,47.709274,-1.6388834,-2.4642324,-3.1833997,-0.15564904,0.11139746,-0.39076656,28.5625,29.875,28.9375,32.6875,35.125,36.25
0.2840534,-0.56030273,0.60223526,-1.1464478,0.0030198738,0.08728537,-0.19211203,-0.40693942,-0.36071217,0.060071234,3.0772913,-0.62449586,-0.00034133994,-0.1249143,0.055498738,-0.00010826174,-0.012076297,0.0046974383,0.010520163,0.47488296,-1.365772,1.8846039,-2.0893118,-1.5696386,2.4497933,-0.20772226,0.11872123,-0.14568384,0.01746989,0.008566147,-0.21817312,-0.19153613,-0.17238252,-9.232041,0.8940802,47.71823,-1.5105482,-2.501872,-3.2020972,-0.14131203,0.10623628,-0.31764486,28.5625,29.875,28.9375,32.6875,35.125,36.25
0.28605428,-0.44558764,0.116481155,-0.8284995,0.00826533,0.07510633,-0.19032842,-0.4071727,-0.36057848,0.060050927,3.0773463,-0.6244629,-0.0002784403,-0.1266197,0.05685446,-0.0001819826,-0.011857182,0.004360121,0.019348592,0.47446167,-1.3655194,1.8843287,-2.089228,-1.5696505,2.4493446,-0.21136509,0.12001189,-0.14724426,0.018154548,0.008527826,-0.23064421,-0.11492168,-0.24899697,-9.155427,0.86945957,47.70659,-1.4108114,-2.5415416,-3.2263258,-0.13737112,0.13784695,-0.15706626,28.5625,29.875,28.9375,32.6875,35.125,36.25
0.28805396,-0.053606357,0.16974324,-0.9206733,0.007534236,0.057272777,-0.17788364,-0.40743127,-0.36047566,0.060054623,3.077305,-0.62437695,-0.00030091262,-0.12711556,0.05755342,-0.0003342513,-0.011434542,0.0044028014,0.020871378,0.47404125,-1.365279,1.8840302,-2.0892165,-1.5696148,2.448876,-0.2126222,0.12027935,-0.14721689,0.018031156,0.008149865,-0.23342364,-0.1340753,-0.30645782,-9.136273,0.8247004,47.713753,-1.3720598,-2.4902344,-3.2647254,-0.12725303,0.115229875,-0.07890424,28.5625,29.875,28.9375,32.6875,35.125,36.25
0.29005355,1.1319543,0.38690984,-0.981431,0.011565358,0.054163583,-0.17938991,-0.40770212,-0.3603515,0.06005415,3.0772715,-0.62439567,-0.00035818128,-0.12818928,0.057922702,-0.001213053,-0.010831082,0.0034483343,0.012091157,0.47359645,-1.3650378,1.8837427,-2.0892165,-1.5696148,2.4484472,-0.21399455,0.12338876,-0.14890023,0.017725583,0.008049822,-0.22601429,-0.038307227,-0.19153613,-8.963891,0.800085,47.71465,-1.2830858,-2.5694919,-3.2803793,-0.10661023,0.14530106,-0.14499266,28.5625,29.875,28.9375,32.6875,35.125,36.25
0.29205406,1.2417917,0.4672488,-1.093073,0.018379271,0.022414727,-0.18415986,-0.40795448,-0.3602366,0.060052395,3.0772724,-0.62434405,-0.0003452302,-0.12955682,0.059029322,0.0006285835,-0.012074048,0.0066938535,-0.00021251437,0.4731759,-1.3647867,1.8834327,-2.0891564,-1.5696024,2.4479945,-0.21669301,0.11998536,-0.14905861,0.017828863,0.0076688,-0.21640953,-0.076614454,-0.1340753,-9.059659,0.8537928,47.73077,-1.2499228,-2.3404834,-3.2678232,-0.073792174,0.14319077,-0.24488334,28.5625,29.875,28.9375,32.6875,35.125,36.25
0.2940541,0.86231166,0.17172405,-1.2368748,0.013077049,0.009210226,-0.17212285,-0.4082357,-0.36012843,0.06007709,3.077216,-0.624319,-0.00043595102,-0.13041191,0.06107424,-0.00054683455,-0.009832189,0.003927258,-0.011867927,0.47274286,-1.3645577,1.883097,-2.089132,-1.5695914,2.4475532,-0.22030741,0.12210783,-0.14932615,0.019457186,0.006948333,-0.2083675,-0.076614454,-0.05746084,-9.021352,0.8537928,47.716442,-1.2262901,-2.4557326,-3.3210468,-0.07893666,0.15761384,-0.35199013,28.5625,29.875,28.9375,32.6875,35.125,36.25
0.2960539,0.5163793,0.2885477,-1.3422793,0.008021409,0.008340637,-0.18289419,-0.40850875,-0.3599751,0.06007233,3.0772114,-0.624436,-0.0004581323,-0.13143869,0.0617995,0.0007141494,-0.010631382,0.004464493,-0.018130971,0.4722621,-1.3643181,1.88281,-2.0890834,-1.5696148,2.4471462,-0.22257937,0.12078734,-0.15115577,0.02175772,0.00741559,-0.20437627,-0.05746084,-0.076614454,-9.097966,0.8537928,47.72808,-1.1292293,-2.2166634,-3.3434105,-0.075267255,0.1745657,-0.47694594,28.5625,29.875,28.9375,32.6875,35.125,36.25
0.29805368,0.22616273,-0.040897828,-1.5656953,0.00060765375,0.025431892,-0.1857666,-0.40874517,-0.35986435,0.06006915,3.0771787,-0.6244852,-0.00038070494,-0.13322312,0.062268622,0.0016195928,-0.0119364895,0.004917179,-0.016410068,0.47184116,-1.3640776,1.8825101,-2.088999,-1.5695666,2.4467602,-0.22538784,0.12134901,-0.1542639,0.023322582,0.008373365,-0.20890498,-0.038307227,0.038307227,-9.193734,0.9567419,47.71286,-1.0421913,-2.1936572,-3.1757355,-0.07906091,0.16528893,-0.5049121,28.5625,29.875,28.9375,32.6875,35.125,36.25
0.3000543,-0.39246362,-0.58074284,-1.7251816,-0.014095356,0.045256294,-0.1847318,-0.4089931,-0.35969642,0.06003776,3.07722,-0.62450504,-0.00026355282,-0.1330668,0.06306925,0.00096981047,-0.011108337,0.0025175086,-0.0048635984,0.47133636,-1.3638251,1.8822597,-2.0889146,-1.5695547,2.4462626,-0.22670315,0.12225311,-0.15427403,0.024963355,0.008730637,-0.22176763,-0.038307227,0.019153614,-9.346964,0.8940802,47.72271,-0.91979694,-2.1749454,-3.3342094,-0.09700376,0.1535703,-0.4109285,28.5625,29.875,28.9375,32.6875,35.125,36.25
0.30205396,-0.32600525,-0.45591992,-1.8854519,-0.033828586,0.08144823,-0.19565254,-0.40926638,-0.35958737,0.06006437,3.077189,-0.6244714,-0.00033634002,-0.13376684,0.06313416,0.0008519007,-0.01082593,0.0019711242,0.008586137,0.47091645,-1.3635963,1.8819116,-2.088854,-1.5695547,2.4458258,-0.22730432,0.12396403,-0.15629488,0.025908645,0.008757771,-0.23581718,-0.19153613,0.095768064,-9.442732,0.85155696,47.694946,-0.91855425,-2.1123164,-3.260375,-0.10225542,0.15875606,-0.28378433,28.5625,29.875,28.9375,32.6875,35.125,36.25
0.30405357,-1.5444726,-0.9238828,-2.0011547,-0.044815306,0.09225384,-0.18845741,-0.4095266,-0.35948247,0.06007468,3.0771618,-0.6243851,-0.0003003639,-0.13336077,0.062424775,0.00017661319,-0.010988878,2.5119187e-05,0.015201044,0.47048515,-1.363343,1.8815659,-2.0887706,-1.569506,2.4453442,-0.22626957,0.12606291,-0.15747787,0.026671868,0.009796129,-0.24139689,-0.34476504,0.17238252,-9.461885,0.85155696,47.71017,-1.1855069,-2.216415,-3.1330767,-0.11420964,0.16923574,-0.15773022,28.5625,29.875,28.9375,32.6875,35.125,36.25
0.30605343,-1.2758949,-0.8433995,-2.1219962,-0.0559577,0.12462638,-0.18940298,-0.40977228,-0.35936683,0.06004897,3.0771663,-0.6242732,-0.00018404573,-0.13402794,0.061156277,0.0011442733,-0.01253973,0.0015917247,0.011562496,0.4700415,-1.3630549,1.8812655,-2.088711,-1.569446,2.4448302,-0.22498582,0.12665367,-0.16049004,0.027004356,0.010448371,-0.23647414,-0.5746084,0.15322891,-9.710882,0.8851263,47.705692,-1.376716,-2.247685,-3.2871828,-0.13505793,0.1560311,-0.19962412,28.5625,29.875,28.9375,32.6875,35.125,36.25
0.3080539,-1.6792679,-1.2801384,-2.2439451,-0.052258022,0.122514024,-0.18077059,-0.41004452,-0.35921913,0.060041536,3.0771782,-0.62432,-0.0002038609,-0.13448179,0.06259562,-0.00044488214,-0.010756948,-0.0007107907,0.002099854,0.46957305,-1.3628017,1.880968,-2.0886629,-1.5694703,2.4443896,-0.22733477,0.12913415,-0.15982015,0.026706304,0.009895321,-0.22936021,-0.4405331,0.24899697,-9.787497,0.9030289,47.70211,-1.4330397,-2.1765854,-3.3488424,-0.13472873,0.15937829,-0.28645772,28.5625,29.875,28.9375,32.6875,35.125,36.25
0.3100537,-1.1434168,-1.3710932,-2.3526244,-0.06750315,0.12485829,-0.18610772,-0.41029257,-0.35908782,0.060027767,3.0771682,-0.62433976,-0.00012404656,-0.13596876,0.06304933,-0.00081925426,-0.010619902,-0.0006655699,-0.0047207833,0.46911612,-1.3625486,1.8806795,-2.0885909,-1.569434,2.4439464,-0.22915842,0.13158603,-0.16185144,0.026314339,0.009735089,-0.22436243,-0.4213795,0.21068975,-9.883265,0.9388393,47.658226,-1.4454365,-2.3041668,-3.3603601,-0.12430224,0.1740167,-0.36094064,28.5625,29.875,28.9375,32.6875,35.125,36.25
0.3120535,-1.2588947,-1.7170147,-2.6106102,-0.069863364,0.090935394,-0.17490019,-0.41056165,-0.35896194,0.06002568,3.0771885,-0.6242847,-0.00010748893,-0.13634394,0.062621914,0.00022615369,-0.011150257,0.0020229009,-0.0040902672,0.46867296,-1.3622729,1.8803347,-2.0885074,-1.5694345,2.4434664,-0.22817077,0.13031642,-0.16259432,0.025695324,0.008988998,-0.22400515,-0.40222588,0.3256114,-9.825804,0.8537928,47.701214,-1.5081247,-2.249452,-3.3767033,-0.12105395,0.18166324,-0.40941536,28.5625,29.875,28.9375,32.6875,35.125,36.25
0.31405357,-0.3549515,-1.4643899,-2.5193367,-0.07953236,0.0968044,-0.19053763,-0.41084868,-0.3588386,0.060017515,3.0771425,-0.6242698,-0.00014191403,-0.13761699,0.06370839,-0.001370564,-0.009148913,0.00080758973,0.0041126874,0.468204,-1.361995,1.8800229,-2.0885198,-1.5694107,2.442994,-0.230208,0.1343216,-0.16358222,0.02469356,0.00777245,-0.2342436,-0.40222588,0.3256114,-9.80665,0.83589023,47.655537,-1.4637502,-2.503519,-3.3217225,-0.11593819,0.1990766,-0.35904676,28.5625,29.875,28.9375,32.6875,35.125,36.25
0.3160544,-0.6101019,-1.7417852,-2.4836025,-0.059039466,0.08547245,-0.18111959,-0.41114667,-0.35872498,0.060068637,3.077104,-0.62417686,-0.0003135458,-0.1392402,0.06396276,-0.0009551709,-0.010164028,0.002222131,0.014701605,0.46777168,-1.3617907,1.879651,-2.0884721,-1.5694345,2.442509,-0.23207173,0.13526967,-0.16552252,0.023978554,0.008080956,-0.24669458,-0.3256114,0.24899697,-9.921572,0.86945957,47.672558,-1.3875831,-2.370305,-3.331872,-0.09362769,0.20578817,-0.22774458,28.5625,29.875,28.9375,32.6875,35.125,36.25
0.31805366,-0.4282709,-0.5106941,-2.524319,-0.057164636,0.07576325,-0.19589986,-0.41140613,-0.35858455,0.06003748,3.0771139,-0.62414044,-0.00021752389,-0.139589,0.06447179,-0.0018649697,-0.010214489,0.00053261913,0.01914534,0.46729058,-1.3615018,1.8793644,-2.0884244,-1.5693983,2.442004,-0.23358947,0.13708855,-0.16563004,0.023770846,0.008884511,-0.2526564,-0.11492168,0.21068975,-9.825804,0.90750587,47.68062,-1.3818867,-2.447818,-3.3684964,-0.08604705,0.21217069,-0.12931925,28.5625,29.875,28.9375,32.6875,35.125,36.25
0.32005426,-0.41089714,-0.6928838,-2.3268096,-0.03455284,0.07769362,-0.19004261,-0.4117198,-0.35845724,0.060045656,3.0770574,-0.62409294,-0.0002542215,-0.14129329,0.06626204,-0.0024251428,-0.01013099,-0.00019898306,0.011390011,0.46678552,-1.361213,1.8789939,-2.0884006,-1.569362,2.4414766,-0.23806664,0.13853082,-0.16605322,0.023450993,0.009150382,-0.24937749,-0.38307226,0.11492168,-9.730036,0.84484416,47.73614,-1.1850436,-2.4732559,-3.421371,-0.08329649,0.20123106,-0.11763294,28.5625,29.875,28.9375,32.6875,35.125,36.25
0.32205385,-1.2588345,-0.435866,-1.8796918,-0.021319797,0.0686391,-0.17104158,-0.41200602,-0.3583325,0.060064908,3.076987,-0.6241244,-0.00031874535,-0.14383546,0.06735863,-0.0018136983,-0.011444077,0.0012888705,-0.0018393612,0.4663162,-1.3609846,1.8786706,-2.0883763,-1.5693382,2.441036,-0.24224713,0.1393993,-0.16841176,0.02301751,0.009655435,-0.24032708,-0.49799395,0.05746084,-9.500193,0.8179876,47.691364,-1.1416222,-2.4512136,-3.3094463,-0.059348486,0.22393098,-0.2015821,28.5625,29.875,28.9375,32.6875,35.125,36.25
0.3240536,-0.3811055,0.17637642,-2.0742555,-0.00070111547,0.09164284,-0.17260464,-0.41228253,-0.3581988,0.06004808,3.0769942,-0.62411374,-0.0002776787,-0.1454542,0.06786002,-0.0008296242,-0.0131731,0.002533859,-0.015251344,0.46584725,-1.3606848,1.8783354,-2.0883167,-1.5693258,2.4405596,-0.24491909,0.13906832,-0.17037359,0.023410222,0.010620353,-0.22958684,-0.38307226,-0.11492168,-9.595961,0.8873621,47.701214,-0.99783516,-2.4865184,-3.3387942,-0.041173276,0.19442537,-0.34716457,28.5625,29.875,28.9375,32.6875,35.125,36.25
0.32605398,-0.42908433,0.9424188,-1.6224941,-0.009895986,0.08768007,-0.18517774,-0.41258284,-0.3580646,0.060074706,3.0769126,-0.6241584,-0.000328488,-0.1445309,0.06836782,-0.0028182021,-0.010656184,-0.0017956994,-0.02274603,0.46534327,-1.3604559,1.8779892,-2.088268,-1.56929,2.440094,-0.24465199,0.14230545,-0.1701225,0.024924127,0.010326884,-0.22182406,-0.40222588,-0.11492168,-9.423578,0.85155696,47.694054,-1.0192312,-2.5442405,-3.3957515,-0.044734042,0.19071828,-0.47264433,28.5625,29.875,28.9375,32.6875,35.125,36.25
0.32805368,-1.1494964,0.09509396,-1.3956627,-0.01382658,0.07354905,-0.18015823,-0.41290045,-0.357952,0.060089257,3.0768454,-0.6241785,-0.000420694,-0.14489734,0.067601785,-0.0015757823,-0.01156981,-0.00039707273,-0.017019015,0.46487558,-1.3601564,1.8775939,-2.0882561,-1.5692776,2.4396477,-0.24363871,0.14169158,-0.1725603,0.02632989,0.010541584,-0.22653636,-0.4213795,-0.19153613,-9.289502,0.92764956,47.750473,-1.1619465,-2.408761,-3.504466,-0.045387194,0.19656147,-0.51255727,28.5625,29.875,28.9375,32.6875,35.125,36.25
0.3300533,-0.19896048,0.33367422,-1.3561977,-0.008875177,0.098717794,-0.1798502,-0.4131732,-0.3578206,0.060073916,3.0768447,-0.624131,-0.0003815806,-0.14456613,0.068036094,-0.002753289,-0.009823665,-0.0024559966,-0.0023009288,0.46440792,-1.3598682,1.8772715,-2.088208,-1.5692543,2.4391506,-0.24356969,0.14372735,-0.17250212,0.026893336,0.009924665,-0.24118544,-0.38307226,-0.21068975,-9.193734,0.900793,47.755844,-1.3051523,-2.4339929,-3.4922252,-0.035780147,0.20909397,-0.41171625,28.5625,29.875,28.9375,32.6875,35.125,36.25
0.33205405,-0.16493773,0.36381343,-1.3394532,0.020971283,0.08287991,-0.1845625,-0.41347829,-0.35768226,0.060085423,3.0768173,-0.6241558,-0.00042597778,-0.14628069,0.06784474,-0.0011655265,-0.0108092325,0.00057766674,0.010011199,0.46391574,-1.3595924,1.8769006,-2.0881479,-1.5692543,2.4386775,-0.24426657,0.1433889,-0.17586142,0.027463153,0.009471828,-0.25419313,-0.095768064,-0.21068975,-9.251195,0.8918391,47.72719,-1.4300263,-2.3779783,-3.396124,-0.0156385,0.22382064,-0.2692939,28.5625,29.875,28.9375,32.6875,35.125,36.25
0.33405498,-0.5020623,0.34988236,-1.1274027,0.015417326,0.06731798,-0.17387854,-0.4137685,-0.35755667,0.0600826,3.0768013,-0.6240168,-0.00042051647,-0.14762203,0.06712546,0.0003971478,-0.012502237,0.0030148518,0.011972461,0.4634358,-1.3593047,1.8765529,-2.0881112,-1.569218,2.438113,-0.24429977,0.14317508,-0.1793656,0.02825958,0.009902437,-0.25618628,-0.13407528,-0.19153613,-9.174581,0.82022345,47.72002,-1.4541583,-2.309196,-3.2476754,-0.015411867,0.23212093,-0.20237818,28.5625,29.875,28.9375,32.6875,35.125,36.25
0.33605403,0.030902445,0.6266748,-1.2690623,0.0144977495,0.060091417,-0.17266534,-0.41408414,-0.357432,0.060108487,3.0767236,-0.6240437,-0.00050212094,-0.14882995,0.06771705,0.0006786761,-0.012557196,0.002804732,0.0040696776,0.46294376,-1.3590406,1.8761686,-2.088075,-1.5691942,2.4376478,-0.24624698,0.14423594,-0.1816205,0.029618377,0.010059599,-0.25022906,-0.3256114,-0.21068975,-9.040505,0.89631605,47.71465,-1.5684607,-2.227981,-3.2156894,-0.031189669,0.2220601,-0.27605584,28.5625,29.875,28.9375,32.6875,35.125,36.25
0.33805382,-0.23578818,0.54594487,-1.4639457,0.021413809,0.04712488,-0.17133541,-0.41436902,-0.35727873,0.060097236,3.076697,-0.6240628,-0.00042469843,-0.14856778,0.06832303,0.00056044786,-0.011392628,0.0013173071,-0.0025287098,0.4624151,-1.3587649,1.8758463,-2.0880024,-1.569146,2.4371345,-0.24665444,0.14436874,-0.18203554,0.031760335,0.009672903,-0.24403848,-0.2681506,-0.038307227,-9.097966,0.9567419,47.699425,-1.5087595,-2.3017259,-3.2429876,-0.05582522,0.23428828,-0.36634505,28.5625,29.875,28.9375,32.6875,35.125,36.25
0.3400543,-0.089180835,0.70206624,-1.6244622,-0.0014931113,0.055595327,-0.18542266,-0.41466483,-0.35714716,0.060091026,3.0767233,-0.6240701,-0.00043210012,-0.14973226,0.06974997,-0.00050348666,-0.0103239585,-0.0016881749,-0.008457319,0.46195826,-1.3584397,1.87545,-2.0879176,-1.5691704,2.4366791,-0.25011966,0.1474632,-0.18380436,0.03359479,0.0100518195,-0.24157424,-0.095768064,0.076614454,-9.11712,0.8224646,47.70211,-1.4392266,-2.3036036,-3.184154,-0.06231951,0.21982685,-0.41905856,28.5625,29.875,28.9375,32.6875,35.125,36.25
0.34205398,-0.320538,-0.5990295,-1.5949693,-0.010353628,0.055361204,-0.17222711,-0.41494778,-0.35699093,0.060091916,3.0766976,-0.6241388,-0.00039390847,-0.15023923,0.07140764,0.000295321,-0.009495564,-0.0028444726,-0.00396982,0.46144137,-1.3581889,1.8751272,-2.0878327,-1.569146,2.4362085,-0.25305712,0.14597836,-0.18473625,0.037439562,0.009841969,-0.24899958,0.076614454,0.1340753,-9.212888,0.9321212,47.695843,-1.4409225,-2.1046705,-3.2015698,-0.11116855,0.23683229,-0.41969383,28.5625,29.875,28.9375,32.6875,35.125,36.25
0.34405378,-0.20071176,-0.6668173,-1.711836,-0.04829204,0.06183152,-0.18277785,-0.41526577,-0.35684696,0.060108833,3.0766609,-0.6241253,-0.00044317226,-0.15275438,0.07313813,0.001659612,-0.009367659,-0.00097491214,0.0057519935,0.46092373,-1.3579134,1.8747438,-2.0877726,-1.5691346,2.4356873,-0.25736037,0.1454752,-0.18768449,0.03930749,0.008929165,-0.26302359,-0.11492168,0.21068975,-9.270349,0.90527004,47.716442,-1.248919,-2.1001792,-3.2580373,-0.15975781,0.2584919,-0.29218125,28.5625,29.875,28.9375,32.6875,35.125,36.25
0.34605378,-0.30831262,-1.3260134,-1.8091663,-0.05141787,0.07605664,-0.17962031,-0.41555217,-0.35670412,0.060087275,3.0766962,-0.6240317,-0.0003188771,-0.15199947,0.073372126,0.00055692624,-0.008819122,-0.0030739668,0.015175124,0.4604198,-1.3575771,1.8743609,-2.087653,-1.5690984,2.4351206,-0.25723,0.14654188,-0.18648791,0.039196283,0.009369466,-0.27231735,-0.17238252,0.22984336,-9.308657,0.94331104,47.703007,-1.1365504,-2.0874052,-3.3367121,-0.16377169,0.26691434,-0.17929402,28.5625,29.875,28.9375,32.6875,35.125,36.25
0.3480533,-0.376972,-1.0864718,-1.9051751,-0.053241435,0.09311738,-0.16652639,-0.4158742,-0.3565398,0.060119245,3.07668,-0.6240114,-0.0003902555,-0.15272464,0.07366404,0.0006836708,-0.0091046775,-0.0031616646,0.012969019,0.4598795,-1.3573372,1.873978,-2.087557,-1.5691103,2.4345698,-0.25834313,0.14730433,-0.18784761,0.03974439,0.009674325,-0.2712234,-0.2873042,0.22984336,-9.385271,0.95897776,47.70032,-1.1868608,-2.0272613,-3.3182535,-0.19192469,0.2669009,-0.1284632,28.5625,29.875,28.9375,32.6875,35.125,36.25
0.35005406,-0.47497493,-0.36386704,-1.8452395,-0.057112962,0.09747244,-0.18103828,-0.41614315,-0.35640597,0.060097195,3.0766778,-0.62401783,-0.0002693569,-0.15313306,0.07475262,0.00022476754,-0.008194216,-0.0053498633,0.0013770827,0.45939875,-1.357025,1.8736304,-2.0874608,-1.5690621,2.4340935,-0.26044703,0.148477,-0.18873356,0.041824006,0.009800974,-0.26173562,-0.36391866,0.15322891,-9.385271,0.8940802,47.658226,-1.1444148,-2.0037322,-3.2437844,-0.24091217,0.26177233,-0.22205168,28.5625,29.875,28.9375,32.6875,35.125,36.25
0.35205424,-0.38356972,-0.4394914,-1.9671422,-0.029558059,0.09166201,-0.17537542,-0.41648227,-0.3562657,0.060108457,3.0766387,-0.6240171,-0.0003153808,-0.15338118,0.074264474,-0.0016619642,-0.007884002,-0.008278559,-0.009726042,0.45887044,-1.3566995,1.8731993,-2.0874012,-1.5690497,2.43357,-0.26026356,0.15348358,-0.19039233,0.04122498,0.010808636,-0.25044715,-0.34476504,0.13407528,-9.404425,0.9791215,47.711063,-1.0770555,-2.1573658,-3.2427864,-0.26702535,0.27281874,-0.36509377,28.5625,29.875,28.9375,32.6875,35.125,36.25
0.35405332,-0.4132925,-0.10014254,-2.0787938,-0.024181174,0.08056386,-0.17212257,-0.41681054,-0.3560686,0.060104005,3.0766168,-0.6241687,-0.00032893717,-0.15487546,0.07470941,-0.0013864017,-0.009171975,-0.006640894,-0.018109713,0.45827076,-1.3564239,1.8728641,-2.087342,-1.5690616,2.4330678,-0.26233515,0.1539914,-0.19129084,0.039568584,0.011221185,-0.2441346,-0.40222588,0.076614454,-9.500193,0.947788,47.686886,-1.1967716,-2.094809,-3.2524693,-0.26318875,0.2625322,-0.48594248,28.5625,29.875,28.9375,32.6875,35.125,36.25
0.35605404,-0.30104238,-0.020606631,-1.9977072,-0.022838697,0.075839326,-0.18795905,-0.4170809,-0.35593954,0.06006477,3.0766184,-0.6241458,-0.0001814454,-0.15498771,0.07470417,-0.001992683,-0.00910457,-0.0068173367,-0.010867001,0.45779046,-1.3560756,1.8725175,-2.0872705,-1.5690016,2.432573,-0.2622702,0.15520687,-0.1911798,0.03846285,0.011228285,-0.25131312,-0.36391866,0.019153614,-9.5385,0.95226496,47.690468,-1.3508523,-2.2521415,-3.4163043,-0.26282197,0.25234187,-0.4874826,28.5625,29.875,28.9375,32.6875,35.125,36.25
0.35805377,-0.60982347,-0.0638985,-1.9498012,-0.02980916,0.085525095,-0.17521292,-0.41742784,-0.35580248,0.060104076,3.0765522,-0.6241624,-0.00027459054,-0.15613176,0.074855566,-0.002613132,-0.009782803,-0.007534511,0.004697132,0.4572622,-1.3557869,1.8720616,-2.087187,-1.5689892,2.4320638,-0.26387724,0.1579163,-0.19294995,0.037903585,0.012195361,-0.26848233,-0.21068975,-0.019153614,-9.557653,1.0126908,47.686886,-1.4284865,-2.2532673,-3.457221,-0.2713222,0.2599612,-0.35520628,28.5625,29.875,28.9375,32.6875,35.125,36.25
0.3600536,-0.33228683,0.13726367,-2.013386,-0.027057266,0.09229365,-0.19163534,-0.41771924,-0.35565388,0.060072064,3.0765333,-0.6241336,-7.827012e-05,-0.15643083,0.07411818,-0.0026308673,-0.009767356,-0.00736703,0.016073989,0.4567103,-1.3554388,1.8716902,-2.0870788,-1.5688933,2.4314964,-0.26265278,0.1596383,-0.19511557,0.038255528,0.012094655,-0.2786349,-0.076614454,-0.076614454,-9.385271,0.90527004,47.66539,-1.4702442,-2.4047842,-3.402711,-0.29197562,0.25922802,-0.22020225,28.5625,29.875,28.9375,32.6875,35.125,36.25
0.3620543,-0.34899813,-0.20853622,-1.8779047,-0.024201037,0.09172294,-0.15856397,-0.4180417,-0.35548523,0.060071614,3.076587,-0.62410897,-0.00013588893,-0.15680721,0.07441076,-0.003736231,-0.009550327,-0.009201248,0.012339258,0.45619416,-1.3551261,1.8712953,-2.0869954,-1.5689534,2.4309583,-0.26365346,0.16227783,-0.19578178,0.038006946,0.012700222,-0.27590024,-0.36391866,-0.05746084,-9.442732,0.9097417,47.703903,-1.5454975,-2.3576655,-3.4188724,-0.30660763,0.26331678,-0.19826356,28.5625,29.875,28.9375,32.6875,35.125,36.25
0.36405402,-0.17961827,-0.12867004,-1.6339861,-0.041273445,0.106860094,-0.17622109,-0.4183681,-0.3553396,0.060081203,3.0765424,-0.6240494,-9.501065e-05,-0.15953577,0.07605695,-0.003104942,-0.009940296,-0.0065957243,0.00043350956,0.45564067,-1.3548144,1.8708762,-2.0869005,-1.5688933,2.4303734,-0.26800987,0.16265185,-0.19743243,0.036784947,0.0118870875,-0.2683502,-0.5746084,-0.019153614,-9.423578,0.8717007,47.691364,-1.3232074,-2.4675972,-3.4324794,-0.30877808,0.25741404,-0.2834043,28.5625,29.875,28.9375,32.6875,35.125,36.25
0.36605355,-0.88780063,0.10211868,-1.7924188,-0.04853782,0.087894194,-0.17927703,-0.41868484,-0.35517967,0.060081728,3.0764997,-0.62413985,-0.00011352656,-0.16048989,0.07573621,-0.0034428432,-0.00971275,-0.0066615026,-0.0052677495,0.45510083,-1.3545256,1.8705157,-2.0868518,-1.5688814,2.4298956,-0.26796824,0.16544801,-0.20008616,0.03680129,0.011702345,-0.2626058,-0.36391866,0.05746084,-9.308657,0.947788,47.67793,-1.3430274,-2.2955582,-3.3418558,-0.3078887,0.2720986,-0.39590248,28.5625,29.875,28.9375,32.6875,35.125,36.25
0.36805424,-0.2513855,-0.3398002,-2.0041225,-0.033956807,0.08720443,-0.17880675,-0.41901615,-0.35502395,0.060064666,3.0764728,-0.6242082,-7.842878e-05,-0.16120481,0.07498309,-0.0011627259,-0.011915921,-0.0022858088,-0.0019754716,0.4545491,-1.3541671,1.8701085,-2.0867922,-1.5688576,2.4293902,-0.26713035,0.16235144,-0.20148392,0.03641426,0.011756538,-0.26506042,-0.22984336,0.11492168,-9.404425,0.99702406,47.686886,-1.3570468,-2.3200746,-3.352613,-0.3385173,0.2708364,-0.4320043,28.5625,29.875,28.9375,32.6875,35.125,36.25
0.37005377,-0.18174548,-0.120059595,-1.2266016,-0.05405299,0.09228619,-0.17408182,-0.41932723,-0.3548657,0.060065195,3.07651,-0.62407404,-9.0758214e-05,-0.16315953,0.076216444,-0.001365469,-0.0120167835,-0.00056808116,0.00894057,0.4540323,-1.3538668,1.8697261,-2.0867093,-1.56887,2.428785,-0.27025384,0.1635478,-0.20200764,0.034185503,0.011110152,-0.27909967,-0.24899697,0.17238252,-9.3661175,0.9835985,47.695843,-1.3962299,-2.2883153,-3.3135786,-0.33426484,0.2845691,-0.31686372,28.5625,29.875,28.9375,32.6875,35.125,36.25
0.37205344,0.07305102,-0.13517505,-1.51275,-0.044481482,0.09249945,-0.17982975,-0.41966185,-0.35472336,0.060074084,3.0764346,-0.6240544,-9.4072755e-05,-0.16550839,0.07712003,-0.001485339,-0.013875535,0.00047332305,0.016804121,0.45347884,-1.3535545,1.8693184,-2.086662,-1.5688094,2.428229,-0.27427238,0.16537325,-0.20352599,0.032169756,0.012351369,-0.2909804,-0.34476504,0.11492168,-9.2703495,0.90527004,47.64837,-1.226962,-2.3175085,-3.52982,-0.3145094,0.2919397,-0.16748382,28.5625,29.875,28.9375,32.6875,35.125,36.25
0.37405333,0.15389666,0.1071215,-1.6898301,-0.035872035,0.08328891,-0.17539142,-0.4199934,-0.35458523,0.06007466,3.0763888,-0.6240301,-0.000102203005,-0.16589138,0.07736824,-0.0017099102,-0.013751629,-9.324324e-05,0.013497439,0.45295015,-1.3532183,1.8689002,-2.0866134,-1.5687732,2.4276912,-0.2748956,0.1664397,-0.20445412,0.032606497,0.012495654,-0.2882962,-0.19153613,0.05746084,-9.461885,0.8806493,47.658226,-1.0917346,-2.2646012,-3.6108088,-0.3044037,0.2792676,-0.13374849,28.5625,29.875,28.9375,32.6875,35.125,36.25
