Tylouw/Master_Thesis_Code/training_data/batch_1/rect_rod_t0.3/sample_43_session_2.csv
timestamp[s],tcp_force_x[N],tcp_force_y[N],tcp_force_z[N],tcp_force_rx[Nm?],tcp_force_ry[Nm?],tcp_force_rz[Nm?],tcp_pose_x[m],tcp_pose_y[m],tcp_pose_z[m],tcp_pose_rx[rot_vec_x],tcp_pose_ry[rot_vec_y],tcp_pose_rz[rot_vec_z],tcp_velo_x[m/s],tcp_velo_y[m/s],tcp_velo_z[m/s],tcp_velo_rx[rot_vec_x/s],tcp_velo_ry[rot_vec_y/s],tcp_velo_rz[rot_vec_z/s],q1[rad],q2[rad],q3[rad],q4[rad],q5[rad],q6[rad],qd1[rad/s],qd2[rad/s],qd3[rad/s],qd4[rad/s],qd5[rad/s],qd6[rad/s],tool_acc_x,tool_acc_y,tool_acc_z,current_of_whole_robot[A],voltage_of_whole_robot[V],current_J1[A],current_J2[A],current_J3[A],current_J4[A],current_J5[A],current_J6[A],temp_J1[C],temp_J2[C],temp_J3[C],temp_J4[C],temp_J5[C],temp_J6[C]
1.4380203e-06,0.56481797,0.20775732,0.84175295,-0.017794054,0.010003404,-0.018422944,-0.38931936,-0.36871377,0.06000707,-3.0787125,0.62493,0.00018078051,0.0018732542,0.0010639005,-0.0014359577,0.0022312414,-0.0042613666,-1.5916947e-05,0.50503284,-1.3816799,1.9042472,-2.0919154,-1.5708417,2.4800253,-0.00011227418,-0.00012599527,0.0029702762,0.0019642033,0.000120171186,-9.7977216e-05,0.11492168,0.11492168,-8.714894,0.7329411,47.698532,-0.18374783,-3.0763028,-2.3728743,-0.19175437,0.0923137,0.025090514,28.375,29.75,28.75,32.625,35.0,36.125
0.0020553581,0.14262457,0.018908294,0.9194394,-0.012537053,0.0048588114,-0.000577177,-0.38934445,-0.3687277,0.060031615,-3.0787568,0.6249581,0.00027083585,-0.00088836957,-0.0004716138,-0.0006416277,-0.0025808061,0.0043987753,-1.5307354e-05,0.50503284,-1.3816919,1.9042119,-2.0919435,-1.5708417,2.4800372,-0.000110550245,-1.6903871e-06,0.003385962,-0.008483047,0.000117921925,-9.588936e-05,0.15322891,0.1340753,-8.6574335,0.75755644,47.694946,-0.1301313,-2.9648566,-2.3527315,-0.17810121,0.07635634,0.026485985,28.375,29.75,28.75,32.625,35.0,36.125
0.004055837,-0.11645739,-0.028408954,0.8835213,-0.018059826,0.002850807,-0.0041317837,-0.38934737,-0.3687276,0.06001469,-3.0787346,0.62493443,0.00027967105,-0.001542562,-0.0008367559,-0.0019604247,-0.0025743216,0.0043757935,-1.4721108e-05,0.50504476,-1.3816546,1.9042119,-2.0919678,-1.5708655,2.4800372,-0.00010887858,0.0032675196,0.0032241899,-0.011567239,0.00011575518,-9.388862e-05,0.1340753,0.1340753,-8.619126,0.7284641,47.698532,-0.09551057,-3.3414197,-2.6177535,-0.047096133,0.09275144,0.019224018,28.375,29.75,28.75,32.625,35.0,36.125
0.006055692,0.5660993,0.4199016,0.9256953,-0.0084117055,0.0077774227,-0.010260118,-0.38934386,-0.36872923,0.060015902,-3.0787659,0.6249602,0.00022884813,-0.0005773614,-0.00029990808,-0.0013855789,-0.001075702,0.0016911221,-1.5403877e-05,0.5050208,-1.3816671,1.9042233,-2.0919654,-1.5708174,2.4800253,-0.00010725663,0.0019416655,0.002267296,-0.0062098633,0.00011366674,-9.196967e-05,0.076614454,0.22984336,-8.465898,0.7150385,47.68599,-0.13427906,-3.3835201,-2.5107193,-0.07283902,0.083886385,0.018264025,28.375,29.75,28.75,32.625,35.0,36.125
0.008056923,0.75368667,1.0271586,0.4658963,0.027399544,-0.013930094,-0.013937136,-0.3893187,-0.36872762,0.060015786,-3.0787432,0.62489784,0.00022438797,0.00043701718,0.00026418534,-0.0009961575,0.00052387186,-0.0011766359,-1.6082717e-05,0.5050568,-1.3816916,1.9042467,-2.0919397,-1.5708417,2.4800253,-0.00010568232,0.00084533874,0.0015113554,-0.0010739078,0.00011165219,-9.012751e-05,-0.05746084,0.19153613,-8.714894,0.7642693,47.688675,-0.17677397,-3.2548566,-2.471459,-0.12193707,0.08827128,0.02203384,28.375,29.75,28.75,32.625,35.0,36.125
0.010055473,0.52398634,1.0717499,0.059281964,0.04083168,-0.02823303,-0.006216438,-0.38932258,-0.36871114,0.05998694,-3.0786917,0.62494487,0.00017762398,0.0011487128,0.0006594441,-5.1616098e-05,0.0014354003,-0.0028031836,-6.66588e-06,0.50503284,-1.3816442,1.9042586,-2.0919497,-1.5708536,2.4800372,-0.00010281159,-0.001009957,0.0004753367,0.0036819424,0.0001097077,-9.705254e-05,0.05746084,0.15322891,-8.868123,0.7463667,47.651955,-0.72780514,-2.723869,-2.814394,-0.15381482,0.0577442,-0.03693839,28.375,29.75,28.75,32.625,35.0,36.125
0.012056094,0.5516197,0.8946083,-0.20534077,4.167814e-05,-0.0063991873,-0.014991558,-0.38933817,-0.36868706,0.059972953,-3.0786145,0.6249501,0.00015519458,-0.0008422388,0.0024214766,-0.000500157,0.001681876,-0.0031526133,-0.004533855,0.5050075,-1.3815956,1.9042224,-2.0919025,-1.5709013,2.480025,-0.004900592,0.00032232187,2.6101767e-05,0.0032240762,6.0912884e-05,-0.00036713126,0.1340753,0.15322891,-9.155427,0.8493211,47.686886,-0.921101,-2.7332754,-2.9360008,-0.15136021,0.06316793,-0.11493397,28.375,29.75,28.75,32.625,35.0,36.125
0.0140548125,-0.16305618,0.13217345,-0.24418296,-0.036331642,0.014302164,-0.025385063,-0.3893171,-0.3687048,0.059956487,-3.0786412,0.6249741,9.033984e-06,-0.0036032351,0.005054438,-0.004925625,0.0052588372,-0.0096042445,-0.0023589786,0.50500464,-1.3815681,1.9042219,-2.0918791,-1.5708174,2.4800336,-0.011910364,0.010504642,-0.001684198,0.0021278777,4.4625223e-05,-0.009549321,0.076614454,0.038307227,-9.308656,0.70608455,47.668976,-0.4423986,-3.1589592,-3.0772083,-0.120040074,0.064754136,-0.106156155,28.375,29.75,28.75,32.625,35.0,36.125
0.016055064,-1.1005399,-0.50323546,-0.2261345,-0.060801342,0.027076507,-0.022949392,-0.38933355,-0.3686772,0.059953403,-3.07859,0.6249208,4.2686224e-05,-0.0059727775,0.0045655863,-0.003509005,0.0034511343,-0.006352959,0.00467308,0.5049803,-1.3815558,1.904209,-2.0918553,-1.5708774,2.4799826,-0.013304018,0.011181548,-0.005597013,0.0016416488,4.2602805e-05,-0.01797327,-0.21068975,0.05746084,-9.385271,0.7284641,47.70211,-0.45120817,-3.2481253,-2.9025674,-0.106334254,0.05462531,-0.028247945,28.375,29.75,28.75,32.625,35.0,36.125
0.018055081,-1.4836209,-0.29317585,-0.3652951,-0.060333714,0.055093896,-0.050105657,-0.38932648,-0.36869112,0.059945054,-3.0786455,0.62483466,-4.38329e-06,-0.0056812526,0.004194826,-0.0023732954,0.0024054581,-0.004458139,0.008878143,0.50498056,-1.3815448,1.9042205,-2.0918791,-1.5708297,2.479922,-0.012405097,0.008620186,-0.005142552,0.0015847621,4.1556093e-05,-0.021279996,-0.47884035,0.13407528,-9.423578,0.7083204,47.68062,-0.69290996,-2.9654632,-3.0346737,-0.09186624,0.05878561,-0.018496206,28.375,29.75,28.75,32.625,35.0,36.125
0.020054871,-1.2147136,0.4568355,-0.69381714,-0.026614321,0.07389731,-0.075884335,-0.38931042,-0.368681,0.05992567,-3.0786216,0.6248881,-0.000115323906,-0.0047180126,0.005877071,-0.002892417,0.0047893845,-0.008745603,0.0074420385,0.50495595,-1.381533,1.9042448,-2.0918534,-1.5707935,2.4799337,-0.01433425,0.007958453,-0.0042360835,0.0062464057,4.0614323e-05,-0.021774018,-0.51714754,0.019153614,-9.5385,0.7486078,47.66271,-0.9126325,-2.8339376,-3.2740211,-0.12012096,0.051064417,-0.027788717,28.375,29.75,28.75,32.625,35.0,36.125
0.022054475,-1.3380587,0.7204257,-0.7348009,0.014469703,0.06803951,-0.08577315,-0.38931325,-0.36866876,0.05990649,-3.0785897,0.62478703,-0.00012239012,-0.005699219,0.0064471676,-0.0041120267,0.006108751,-0.011136293,0.0042623803,0.5049553,-1.3814956,1.9042443,-2.0918534,-1.5708297,2.4798741,-0.016213667,0.011760898,-0.0061417567,0.007079612,3.97178e-05,-0.02047248,-0.40222588,-0.05746084,-9.672575,0.7530795,47.70211,-0.8279449,-2.8548326,-3.3449938,-0.14706773,0.052124247,-0.04440599,28.375,29.75,28.75,32.625,35.0,36.125
0.024054658,-1.7617481,0.14943299,-0.8201536,0.0293478,0.048811242,-0.09818734,-0.38936093,-0.3686639,0.059924442,-3.078614,0.62483287,-9.169274e-05,-0.008357275,0.0063835466,-0.0026684632,0.0039025475,-0.007163052,0.0003391525,0.50489473,-1.3814715,1.9041723,-2.091842,-1.5708174,2.479839,-0.018591246,0.011745739,-0.009039803,0.005448602,3.886023e-05,-0.018925471,-0.6512228,0.0,-9.691729,0.7620334,47.653748,-0.7962279,-2.8906374,-3.276926,-0.11427604,0.042004254,-0.053889293,28.375,29.75,28.75,32.625,35.0,36.125
0.026054772,-1.8837768,0.548542,-0.705877,0.0042282124,0.057459626,-0.11350824,-0.38933948,-0.36863053,0.05987309,-3.0785007,0.62492585,-0.00026229757,-0.0095853275,0.0059269834,-0.0022699537,0.0027870503,-0.0051627867,-0.0015061753,0.5048586,-1.3814112,1.9042071,-2.0917943,-1.5708174,2.4798753,-0.018972825,0.012617181,-0.010617081,0.003864345,3.803905e-05,-0.017460776,-0.842759,-0.1340753,-9.730036,0.74413085,47.64389,-0.8334801,-2.7801647,-3.322645,-0.09995277,0.038349025,-0.087769985,28.375,29.75,28.75,32.625,35.0,36.125
0.0280547,-1.8184704,-0.04749358,-0.8041171,0.0006399795,0.07391954,-0.121983655,-0.38935968,-0.36863187,0.0598782,-3.0785282,0.6249131,-0.00024644003,-0.010020473,0.0059402827,-0.0027438959,0.0031151185,-0.0057583083,-0.0026672822,0.50483453,-1.3813984,1.9041833,-2.0918067,-1.5708054,2.4798398,-0.019402027,0.014281804,-0.011477389,0.0037402303,3.7251844e-05,-0.01672824,-0.68953013,0.019153614,-9.768343,0.7016076,47.639416,-0.8747261,-2.853919,-3.3073168,-0.08329126,0.031126142,-0.105664164,28.375,29.75,28.75,32.625,35.0,36.125
0.03005551,-1.6473908,0.17210712,-0.9198958,-0.017599618,0.091292866,-0.1424363,-0.38938946,-0.36863396,0.059894037,-3.0785434,0.6248773,-0.00023204129,-0.01092164,0.0062977886,-0.0029387712,0.0037860922,-0.0069728936,-0.0042113983,0.50481015,-1.3813739,1.9041098,-2.09177,-1.5708054,2.4797912,-0.020846285,0.0162338,-0.013721414,0.0054198704,3.6496465e-05,-0.016627328,-0.8236054,-0.095768064,-9.883265,0.7083204,47.678825,-0.89577264,-2.8892453,-3.3352022,-0.08487381,0.027077327,-0.13709313,28.375,29.75,28.75,32.625,35.0,36.125
0.03205465,-2.2420855,-0.36274388,-1.0038235,-0.00072911393,0.07987003,-0.14592423,-0.3894248,-0.36860636,0.05988535,-3.0785146,0.6249288,-0.00023666323,-0.0104904715,0.006942294,-0.002933081,0.0050188056,-0.0091593135,-0.0040251603,0.5047381,-1.3813379,1.904087,-2.091769,-1.5708174,2.479755,-0.021516353,0.015993537,-0.014177533,0.008625911,2.0230671e-05,-0.017483797,-0.8810662,-0.05746084,-9.787497,0.78217715,47.67166,-0.91480124,-2.8133945,-3.35198,-0.10058291,0.0224533,-0.1479053,28.375,29.75,28.75,32.625,35.0,36.125
0.034055028,-2.274585,0.7200497,-0.9926769,-0.0016749181,0.071024105,-0.17479141,-0.38941687,-0.3685919,0.05985919,-3.0784743,0.6249402,-0.0003341016,-0.011592069,0.0070656845,-0.0028552515,0.004680736,-0.00855438,-0.004003847,0.5047137,-1.3813014,1.9040979,-2.0917451,-1.5708054,2.4797428,-0.022753721,0.017091228,-0.015559007,0.008216786,1.7690176e-05,-0.018741693,-0.78529817,-0.11492168,-9.730036,0.73741806,47.664497,-0.9906815,-2.8526554,-3.2953978,-0.11206704,0.025522655,-0.17681381,28.375,29.75,28.75,32.625,35.0,36.125
0.036054786,-2.1722667,0.2296363,-1.0171708,0.017208626,0.053863205,-0.17623684,-0.3894608,-0.36857593,0.059858628,-3.0784807,0.62494105,-0.00029338506,-0.0128057655,0.0075365384,-0.0021988829,0.003691258,-0.006769684,-0.004190589,0.50465316,-1.3812658,1.9040626,-2.0917695,-1.5708174,2.479682,-0.024678256,0.016343918,-0.015970673,0.007334693,1.7211862e-05,-0.020479344,-0.57460845,-0.095768064,-9.80665,0.7217513,47.66091,-0.92225516,-2.7655635,-3.3363988,-0.114540175,0.019764783,-0.1580441,28.375,29.75,28.75,32.625,35.0,36.125
0.038054544,-0.6938056,0.3892684,-0.8591189,0.0058214953,0.07880484,-0.20734268,-0.38949043,-0.36856866,0.059857924,-3.0784519,0.62495494,-0.00028207345,-0.014519742,0.00795647,-0.0018388906,0.0030143524,-0.0055255448,-0.005039933,0.50462836,-1.3812174,1.9040016,-2.0917456,-1.5708417,2.4796696,-0.026977273,0.017213436,-0.017689608,0.006767116,2.211927e-06,-0.021928089,-0.47884035,-0.15322891,-9.825804,0.78217715,47.666286,-0.84362346,-2.7235193,-3.3196406,-0.0785671,0.00571764,-0.19760923,28.375,29.75,28.75,32.625,35.0,36.125
0.040054817,-0.94519395,0.26763046,-0.7385127,-0.003997437,0.055523157,-0.20694807,-0.38954517,-0.36852604,0.05986043,-3.0784197,0.62502474,-0.00025680618,-0.015590969,0.00783129,-0.001003066,0.0020703354,-0.0038214363,-0.0049803234,0.50452036,-1.3811934,1.9039649,-2.0917337,-1.5708655,2.4796093,-0.027764006,0.016980985,-0.019291747,0.0066529335,1.4442303e-07,-0.022773799,-0.5554548,0.0,-9.691729,0.7978386,47.652847,-0.8679521,-2.6840725,-3.3150792,-0.07474603,-0.0076856464,-0.19797996,28.375,29.75,28.75,32.625,35.0,36.125
0.042054962,-0.68124956,0.25400054,-0.7336183,-0.0037468602,0.0507789,-0.21712475,-0.389557,-0.3685244,0.059842613,-3.0784156,0.6250239,-0.00035128376,-0.016007086,0.008114123,-0.0010982612,0.002352056,-0.004335426,-0.0045059924,0.5044842,-1.3811331,1.9039286,-2.0917094,-1.5708297,2.479573,-0.028628394,0.017677967,-0.020045405,0.0072963764,9.429792e-09,-0.024112169,-0.40222588,0.038307227,-9.653421,0.67475104,47.689575,-0.9381013,-2.7164938,-3.308863,-0.06998442,-0.014451061,-0.21858734,28.375,29.75,28.75,32.625,35.0,36.125
0.04405447,-0.594329,-0.25453377,-0.86676544,0.005586151,0.044339087,-0.22186346,-0.38959542,-0.36848238,0.059837967,-3.0783548,0.6251072,-0.00034423097,-0.016854908,0.008626341,-0.0010169317,0.0024587035,-0.004533774,-0.004456407,0.50439984,-1.3811089,1.9039053,-2.0916855,-1.5708655,2.4795485,-0.030281443,0.018297506,-0.021115981,0.00797145,6.15698e-10,-0.02581434,-0.28730422,-0.038307227,-9.672575,0.6971306,47.694946,-0.8543478,-2.6978836,-3.3094203,-0.08315447,0.010629126,-0.22702989,28.375,29.75,28.75,32.625,35.0,36.125
0.046054438,0.018148331,0.1451495,-0.680621,-0.01176121,0.048565086,-0.22479546,-0.38964713,-0.3684953,0.059864648,-3.07842,0.6250816,-0.00032302117,-0.01861512,0.009292324,-8.334023e-05,0.0015523294,-0.0028980789,-0.004792042,0.5043509,-1.381073,1.9037966,-2.0916612,-1.5708297,2.4794753,-0.033042982,0.017890876,-0.022814315,0.008206986,4.020068e-11,-0.02823964,-0.13407528,0.038307227,-9.710882,0.7642693,47.64837,-0.8257793,-2.5956023,-3.2856805,-0.0821073,-0.00020923838,-0.2640389,28.375,29.75,28.75,32.625,35.0,36.125
0.048055097,-0.091766894,-0.27152753,-0.8000695,-0.009289565,0.023986721,-0.18749353,-0.38969108,-0.36845368,0.05986386,-3.078384,0.6251688,-0.00029817206,-0.019965287,0.009581203,4.55851e-05,0.0014691622,-0.0023577688,-0.003753889,0.5042547,-1.3810606,1.9037837,-2.0916612,-1.5708536,2.479438,-0.03466799,0.019216452,-0.024680713,0.008234181,-0.00019356555,-0.030901473,-0.076614454,0.095768064,-9.595961,0.7642693,47.677036,-0.8503554,-2.6679726,-3.2935147,-0.054128565,-0.018194344,-0.24450827,28.375,29.75,28.75,32.625,35.0,36.125
0.05005507,-0.24333347,-0.46295786,-0.8398326,0.0013578611,0.008602311,-0.18890716,-0.38974017,-0.36844125,0.059887577,-3.078382,0.62514913,-0.00019247254,-0.021410467,0.010416878,0.00025214994,0.0021804771,-0.0013984187,-0.0034330855,0.504218,-1.3810483,1.9037126,-2.0916498,-1.5709018,2.4793894,-0.036742363,0.019932836,-0.026028331,0.008371114,-0.0012819075,-0.03329404,-0.076614454,0.1340753,-9.5385,0.7463667,47.679718,-0.79960656,-2.6328058,-3.2542431,-0.05903091,-0.0237722,-0.24180974,28.375,29.75,28.75,32.625,35.0,36.125
0.052054737,0.25867105,0.18662988,-0.5933264,-0.018247759,0.022360863,-0.19728623,-0.3898028,-0.36842635,0.05987064,-3.0784147,0.62517554,-0.00026771997,-0.022575209,0.011339046,0.0004652717,0.0028016549,-0.0005489892,-0.003747428,0.50409746,-1.3809522,1.9036402,-2.0916612,-1.5708426,2.4792812,-0.038779467,0.020064622,-0.026691878,0.008464227,-0.002238632,-0.035014767,0.0,0.1340753,-9.576807,0.7351769,47.65912,-0.7246665,-2.5982714,-3.269304,-0.049295157,0.006071661,-0.22945625,28.375,29.75,28.75,32.625,35.0,36.125
0.054054223,0.16987117,0.2810633,-0.53452957,-0.026751647,0.017065516,-0.19756006,-0.38982865,-0.3683838,0.059864424,-3.0783727,0.6252227,-0.00032602425,-0.022515524,0.011364961,0.000121793244,0.0032038684,-0.001143956,-0.0024115404,0.5040017,-1.3809397,1.9036287,-2.0916135,-1.5708426,2.4792202,-0.03872404,0.02078384,-0.026779251,0.008547458,-0.0023058925,-0.03629485,0.038307227,0.22984336,-9.519346,0.7038487,47.677036,-0.7334018,-2.6961148,-3.3165174,-0.068452224,0.011958369,-0.2658201,28.375,29.75,28.75,32.625,35.0,36.125
0.056054868,-0.23020875,-0.0008459085,-0.51440173,-0.018098593,0.0048623807,-0.1891941,-0.3899117,-0.36838534,0.05989471,-3.0784087,0.62526804,-0.00018740149,-0.023003459,0.011549407,1.7108398e-05,0.0032569447,-0.0016043658,-0.0017002934,0.5039416,-1.3808914,1.9035081,-2.091637,-1.5708665,2.479184,-0.039594945,0.021640778,-0.027656144,0.008994304,-0.0021280656,-0.037877094,-0.038307227,0.17238252,-9.3661175,0.69041777,47.664497,-0.8070158,-2.6054072,-3.336608,-0.058503225,-0.005927482,-0.26491308,28.375,29.75,28.75,32.625,35.0,36.125
0.05805498,-0.05845233,-0.1609597,-0.60043514,-0.017932318,0.006831995,-0.18712609,-0.38992667,-0.3683763,0.059888583,-3.0784104,0.62519234,-0.00024204058,-0.024734609,0.011894365,0.0008308491,0.0021452978,-0.00022261715,-0.002872831,0.50390464,-1.3808554,1.9034714,-2.0916011,-1.5708541,2.4790995,-0.041977458,0.02184536,-0.029792309,0.009178222,-0.0018278378,-0.039086655,0.05746084,0.21068975,-9.32781,0.7597976,47.66271,-0.7053356,-2.595325,-3.2379103,-0.04520758,-0.011337108,-0.29320523,28.375,29.75,28.75,32.625,35.0,36.125
0.060054317,-0.1899661,-0.37457913,-0.59757876,-0.0043012537,0.00015352876,-0.17892891,-0.3899931,-0.36832574,0.059883226,-3.0783699,0.62526065,-0.00023291702,-0.025854386,0.01225703,0.0011505353,0.0017362763,1.8893677e-05,-0.0033589609,0.50377244,-1.380807,1.9034237,-2.0915892,-1.5708779,2.479015,-0.043776568,0.022435084,-0.03134244,0.009727393,-0.0015894207,-0.04039938,-0.038307227,0.24899697,-9.385271,0.78217715,47.699425,-0.8063134,-2.574704,-3.222921,-0.04297869,-0.014014164,-0.2786696,28.375,29.75,28.75,32.625,35.0,36.125
0.062054925,-0.44438708,0.051691033,-0.48469657,-0.0073212255,-0.0032752603,-0.18560699,-0.39004266,-0.36832634,0.05990826,-3.0784361,0.62521577,-0.00018750339,-0.02604823,0.012519953,0.0012417106,0.0020244792,-0.0011664609,-0.003016553,0.5037123,-1.380795,1.9033521,-2.0915883,-1.5708541,2.4789186,-0.04459733,0.022857826,-0.032478057,0.011617016,-0.001265773,-0.04156288,-0.019153614,0.24899697,-9.346964,0.82694155,47.70211,-0.7441288,-2.6141922,-3.2395995,-0.048065845,-0.026126493,-0.32821798,28.375,29.75,28.75,32.625,35.0,36.125
0.06405443,-0.046779606,0.23813875,-0.3463082,-0.0077552297,0.018609472,-0.18434583,-0.39007202,-0.36829263,0.05988582,-3.0783868,0.62518466,-0.00028848278,-0.026739003,0.012935143,0.0010741401,0.0021302537,-0.0017222757,-0.000993232,0.50362813,-1.3807225,1.903304,-2.0915282,-1.5708541,2.4788213,-0.04604447,0.023832642,-0.03334867,0.012049387,-0.0010960383,-0.045033086,-0.076614454,0.114921674,-9.3661175,0.85155696,47.67614,-0.7531399,-2.515796,-3.233828,-0.07059928,-0.022668574,-0.3100859,28.375,29.75,28.75,32.625,35.0,36.125
0.066054836,-1.0854326,0.25990772,-0.7073951,-0.0020165043,0.01578701,-0.18557808,-0.39013883,-0.36826363,0.05990404,-3.0783923,0.62518597,-0.0002204241,-0.027237818,0.01326089,0.0008065963,0.0024978009,-0.0024726286,-0.00097012037,0.5035319,-1.3806982,1.903231,-2.0915163,-1.5708779,2.4787252,-0.04707804,0.02495493,-0.0341927,0.012604193,-0.0010553959,-0.04608942,-0.076614454,0.11492168,-9.3661175,0.7777002,47.701214,-0.76637673,-2.5654163,-3.226544,-0.062023424,-0.0319793,-0.32409948,28.375,29.75,28.75,32.5625,35.0,36.125
0.068054534,-0.59723604,-0.00056437356,-0.35732463,0.003813932,0.048526697,-0.1876703,-0.39019525,-0.36824644,0.05991005,-3.0784025,0.6251878,-0.0002595109,-0.02809702,0.013648753,0.00071745587,0.002499561,-0.002444629,-0.0027001738,0.50343543,-1.3806378,1.9031352,-2.0914686,-1.5708541,2.4786286,-0.048515543,0.02586005,-0.035043843,0.012527656,-0.0010732684,-0.045796327,-0.095768064,0.076614454,-9.308656,0.6971306,47.62688,-0.81435466,-2.5075662,-3.2404275,-0.078944266,-0.028543245,-0.34366006,28.375,29.75,28.75,32.5625,35.0,36.125
0.07005443,-0.91600853,0.24201462,-0.3443323,-0.0032189258,0.053003117,-0.18068261,-0.3902349,-0.3682186,0.059899747,-3.0783918,0.62516373,-0.0002882156,-0.028956234,0.013718057,0.0010656575,0.0023234864,-0.0016737024,0.00030517814,0.50335157,-1.3805896,1.903099,-2.0914567,-1.5708541,2.4785311,-0.049290504,0.026320066,-0.036415596,0.012679288,-0.001296328,-0.04957559,-0.28730422,0.019153614,-9.270349,0.7396539,47.658226,-0.8467919,-2.5127199,-3.2417822,-0.07638246,-0.047899626,-0.3611797,28.375,29.75,28.75,32.5625,35.0,36.125
0.07205445,-1.2266234,-0.12902594,-0.43040198,0.011014328,0.053629648,-0.18537581,-0.39031973,-0.36818483,0.05989564,-3.0783653,0.62519723,-0.00026627592,-0.030670086,0.014962097,0.0014294444,0.0022672282,-0.0014104993,5.8006615e-05,0.50323045,-1.3804934,1.9029917,-2.0914438,-1.5708779,2.4784343,-0.052923135,0.026617497,-0.03778057,0.013487488,-0.0013767371,-0.052960385,-0.28730422,0.05746084,-9.32781,0.784413,47.674347,-0.7484852,-2.4677799,-3.1928625,-0.08074725,-0.04425874,-0.3425597,28.375,29.75,28.75,32.5625,35.0,36.125
0.07405535,-1.1446859,0.28807205,-0.34268302,0.009421758,0.05555523,-0.17917922,-0.3903767,-0.36817142,0.059929024,-3.0784135,0.6251636,-0.0002206706,-0.030143669,0.014192789,0.001232694,0.0024508217,-0.001667148,0.007081588,0.50314736,-1.3804932,1.9029073,-2.091408,-1.570866,2.4783242,-0.05110875,0.027378516,-0.038233474,0.013492521,-0.0014141434,-0.058169276,-0.4405331,0.019153614,-9.404425,0.7105615,47.684196,-0.84692264,-2.4876213,-3.2619953,-0.084834665,-0.052610114,-0.30380177,28.375,29.75,28.75,32.5625,35.0,36.125
0.076054886,-0.9170226,-0.012238309,-0.26770338,0.019806776,0.06527714,-0.17715828,-0.3904207,-0.36812684,0.059898764,-3.078374,0.62508005,-0.00029475742,-0.0312673,0.01498951,0.0012577329,0.0025374605,-0.0016213276,0.0048757517,0.5030387,-1.3804089,1.902871,-2.0913842,-1.5708779,2.4781685,-0.053427715,0.027976494,-0.039049428,0.013711642,-0.001517922,-0.05828171,-0.45968673,-0.05746084,-9.423578,0.7284641,47.698532,-0.88168776,-2.51208,-3.2384157,-0.090828314,-0.056991067,-0.2956002,28.375,29.75,28.75,32.5625,35.0,36.125
0.0780543,-1.4755523,0.3928912,-0.35874817,0.0149461655,0.0524119,-0.1743587,-0.3905001,-0.36810818,0.05991638,-3.0783994,0.62512165,-0.0002912149,-0.032504164,0.015267411,0.0014771137,0.0021273608,-0.0010561075,0.0070319693,0.5029185,-1.3803483,1.9027513,-2.0913484,-1.5708541,2.478071,-0.05509045,0.028878521,-0.04060873,0.013676338,-0.0014349018,-0.06210007,-0.51714754,0.019153614,-9.270349,0.7105615,47.651955,-0.7918022,-2.5127606,-3.243457,-0.10306557,-0.05717469,-0.28996146,28.375,29.75,28.75,32.5625,35.0,36.125
0.080055125,-0.9611898,0.95982844,-0.27841267,0.0026621323,0.06140924,-0.18771937,-0.39055032,-0.3680811,0.059921283,-3.0784092,0.62502635,-0.00027996395,-0.03372941,0.016590396,0.0008871206,0.0028460955,-0.0022663665,0.008657983,0.5028335,-1.380312,1.9026917,-2.0913246,-1.570866,2.4779253,-0.058422904,0.0304013,-0.041167792,0.014117929,-0.0014836972,-0.06705803,-0.4405331,-0.15322891,-9.3661175,0.6971306,47.65912,-0.7246541,-2.4825163,-3.2427812,-0.089240424,-0.062797666,-0.24435972,28.375,29.75,28.75,32.5625,35.0,36.125
0.08205433,-0.7447662,0.6670445,-0.43250597,0.0060096267,0.07056473,-0.18759629,-0.3906462,-0.36804026,0.059921823,-3.0783963,0.62499994,-0.00025499682,-0.03361185,0.015543779,0.0011868603,0.0025469677,-0.0015907403,0.014156762,0.5026906,-1.3802155,1.9025711,-2.0913007,-1.5708903,2.4777677,-0.056499045,0.031035937,-0.04262126,0.014198339,-0.0015518573,-0.070632145,-0.4405331,-0.1340753,-9.3661175,0.80679786,47.68062,-0.85527825,-2.4687948,-3.2092223,-0.10898858,-0.06098306,-0.19921032,28.375,29.75,28.75,32.5625,35.0,36.125
0.084054984,-1.537996,0.58909166,-0.33287558,0.0044531217,0.051543,-0.18317606,-0.39067754,-0.36799943,0.059902333,-3.0783658,0.62505054,-0.00037958715,-0.0340926,0.01640078,0.0007661712,0.0034207301,-0.0026950198,0.015823796,0.5025701,-1.3801672,1.9025472,-2.091252,-1.5708541,2.4776826,-0.05823591,0.031880077,-0.042836275,0.014960546,-0.0017913828,-0.07403533,-0.61291564,0.019153614,-9.270349,0.7463667,47.668976,-0.9309162,-2.4509006,-3.192592,-0.09980084,-0.07774714,-0.16878346,28.375,29.75,28.75,32.5625,35.0,36.125
0.08605524,-1.4914869,0.46282262,-0.3989346,0.008191896,0.051882856,-0.1821252,-0.39075664,-0.36799473,0.059917774,-3.0784245,0.62492776,-0.00037677074,-0.03479611,0.017213074,0.00044846666,0.0039539495,-0.0034624413,0.01647084,0.50247365,-1.3800828,1.9024042,-2.0912163,-1.5708302,2.477502,-0.060187303,0.03273634,-0.04323583,0.0154348295,-0.0018886793,-0.07663338,-0.45968673,-0.038307227,-9.3661175,0.7866488,47.686886,-0.83753145,-2.440372,-3.2465773,-0.13880326,-0.06704439,-0.13377768,28.375,29.75,28.75,32.5625,35.0,36.125
0.08805492,-0.7071251,0.18273757,-0.39464453,0.008155125,0.06084759,-0.17920548,-0.39081722,-0.36794356,0.059911225,-3.0783975,0.6248434,-0.00036925287,-0.035657175,0.01738334,0.00030192512,0.004432643,-0.0032630183,0.017831277,0.5023537,-1.3800341,1.902356,-2.0911925,-1.5708665,2.477333,-0.06094367,0.034189224,-0.044618446,0.015418827,-0.0024107173,-0.078748345,-0.38307226,0.0,-9.3661175,0.6971306,47.639416,-0.960015,-2.5162773,-3.259606,-0.15500659,-0.06452958,-0.09894766,28.375,29.75,28.75,32.5625,35.0,36.125
0.090054736,-0.7796814,0.3290926,-0.37746182,-0.00408337,0.0487019,-0.17126091,-0.3908899,-0.36790082,0.059907556,-3.0783894,0.6247642,-0.00038462094,-0.037884694,0.016907683,0.0014716333,0.0030230416,4.726798e-05,0.017360779,0.5022216,-1.3799617,1.9022707,-2.0911567,-1.5708784,2.4771526,-0.06197505,0.03508866,-0.048126277,0.014447172,-0.0027812999,-0.07930679,-0.3256114,0.0,-9.289502,0.7217513,47.61434,-0.95356154,-2.5380301,-3.1341805,-0.15268525,-0.08607413,-0.05537214,28.375,29.75,28.75,32.5625,35.0,36.125
0.09205534,-0.9355274,-0.39949366,-0.57527006,0.010143675,0.037596587,-0.17901614,-0.39098585,-0.36784607,0.05992549,-3.0783582,0.6247586,-0.0002978134,-0.037343383,0.01748259,0.0005824623,0.003905109,-0.0013059567,0.016448086,0.5020777,-1.3799137,1.9021648,-2.0911205,-1.5709385,2.4770093,-0.06235493,0.035400297,-0.046367485,0.013982875,-0.002898758,-0.07877443,-0.3256114,0.019153614,-9.32781,0.8112748,47.635834,-0.9675212,-2.5501149,-3.2642956,-0.1466495,-0.083740026,-0.07442065,28.375,29.75,28.75,32.5625,35.0,36.125
0.09405481,-0.53729284,-0.15226535,-0.5152085,0.0015650549,0.043440588,-0.1746474,-0.39104718,-0.36782202,0.05989534,-3.0783634,0.62472105,-0.0003908121,-0.03831863,0.017726056,0.00036173474,0.0038374125,-0.0013150519,0.014456815,0.50195754,-1.3797932,1.9020909,-2.0911205,-1.5709022,2.476865,-0.063698575,0.03686864,-0.04753295,0.013657852,-0.0028420554,-0.07812605,-0.30645782,0.095768064,-9.3661175,0.72622824,47.68062,-1.0168653,-2.550901,-3.3608136,-0.15148436,-0.07365318,-0.0748834,28.375,29.75,28.75,32.5625,35.0,36.125
0.09605497,-0.37435347,0.03480068,-0.49354726,-0.0057565533,0.03626185,-0.1799482,-0.39116338,-0.36779767,0.059924517,-3.0784092,0.6247703,-0.00031801985,-0.039400198,0.017870052,0.0007717707,0.0035767418,-0.00061998976,0.012170282,0.50180143,-1.3797209,1.9019364,-2.091109,-1.5708908,2.476734,-0.064865775,0.037505027,-0.049314376,0.014069217,-0.0029452362,-0.077005945,-0.21068975,0.05746084,-9.385271,0.71279734,47.67345,-0.99676156,-2.5574188,-3.3223195,-0.15757999,-0.08595629,-0.07894799,28.375,29.75,28.75,32.5625,35.0,36.125
0.09805497,-0.1918137,-0.047876917,-0.683274,-0.0063518807,0.02814505,-0.17206188,-0.39123085,-0.3677433,0.0599142,-3.0783641,0.62470347,-0.00033816072,-0.041155476,0.017533699,0.0014012118,0.0028766182,0.0013309274,0.009577926,0.50166947,-1.3796481,1.901863,-2.0910614,-1.5709265,2.476566,-0.06571327,0.038975596,-0.052388087,0.0136236455,-0.0032803838,-0.07525878,-0.15322891,0.15322891,-9.404425,0.73069996,47.660015,-1.0494531,-2.6076674,-3.146782,-0.17966737,-0.08020355,-0.09268689,28.375,29.75,28.75,32.5625,35.0,36.125
0.100055724,-0.17143454,-0.04826563,-0.8454946,-0.020150756,0.025286363,-0.18242563,-0.39132863,-0.36771423,0.05992973,-3.0783768,0.62466884,-0.0002986372,-0.041402802,0.018464085,0.0007890852,0.004112216,0.00012170864,0.006683859,0.5015374,-1.379564,1.9017199,-2.091025,-1.570939,2.4764109,-0.06718525,0.039774474,-0.05206343,0.014155292,-0.0037781792,-0.07383587,-0.019153614,0.22984336,-9.3661175,0.75084364,47.651955,-1.0793575,-2.5755336,-3.152961,-0.1762246,-0.07799921,-0.14383464,28.375,29.75,28.75,32.5625,35.0,36.125
0.10205436,-0.2464622,-0.35959744,-0.75012213,-0.025314096,0.025403462,-0.18274586,-0.3913765,-0.36767548,0.059900984,-3.078365,0.62459,-0.00043714477,-0.04165998,0.019427087,0.00020145619,0.0053601265,-0.0007978937,0.0036862334,0.5014051,-1.3794675,1.9016603,-2.0909774,-1.5709027,2.4762309,-0.068628594,0.040392075,-0.051516466,0.014401872,-0.0044343756,-0.07228011,0.019153614,0.22984336,-9.442732,0.8247004,47.668976,-1.1009724,-2.5190907,-3.363556,-0.16607967,-0.080493934,-0.15746067,28.375,29.75,28.75,32.5625,35.0,36.125
0.10405497,0.02638789,-0.5442578,-0.83003706,-0.028069368,0.028523978,-0.17375831,-0.39146274,-0.36763263,0.05992696,-3.0783627,0.62466764,-0.00038205294,-0.04334785,0.019900434,0.0007714399,0.0060027614,0.00040186182,0.001165597,0.50126094,-1.379443,1.901564,-2.0909407,-1.5709156,2.4761355,-0.07026855,0.041494604,-0.054340612,0.015382971,-0.0055758306,-0.07139611,-0.05746084,0.28730422,-9.461885,0.7217513,47.63046,-1.0771284,-2.5133371,-3.230681,-0.19546342,-0.04044604,-0.21274534,28.375,29.75,28.75,32.5625,35.0,36.125
0.10605533,0.04075659,-0.46418348,-0.9179331,-0.035810728,0.028300552,-0.17429835,-0.39155105,-0.36759445,0.059926983,-3.0783432,0.62452966,-0.00032204276,-0.044281565,0.0207238,0.0004062085,0.007202802,-7.7609475e-05,-0.0013923666,0.50115246,-1.3793466,1.9014443,-2.0909164,-1.5709761,2.4759436,-0.07199669,0.042942557,-0.055352993,0.015942803,-0.0063987733,-0.070564084,-0.05746084,0.30645782,-9.461885,0.7732232,47.637623,-1.0485015,-2.5634656,-3.1923697,-0.21066962,-0.056608,-0.2240486,28.375,29.75,28.75,32.5625,35.0,36.125
0.10805501,-0.16649804,-0.4726248,-0.72090185,-0.031058678,0.021903599,-0.17420004,-0.39166632,-0.3675432,0.059913978,-3.0783184,0.6247155,-0.0003873809,-0.045336615,0.020889021,0.001092212,0.0061754207,0.0014976262,0.00020949061,0.50093657,-1.3792145,1.9013122,-2.090893,-1.5709399,2.4758468,-0.07331976,0.04246743,-0.0562414,0.015431253,-0.006261221,-0.07348882,-0.019153614,0.19153613,-9.461885,0.7911258,47.642998,-1.1213397,-2.53036,-3.2459033,-0.22244002,-0.04681484,-0.25854737,28.375,29.75,28.75,32.5625,35.0,36.125
0.11005457,-0.42551202,-0.46466023,-0.85709125,-0.028277902,0.018694503,-0.17100038,-0.39173073,-0.36750814,0.0598958,-3.0782862,0.62457514,-0.00041011683,-0.046002805,0.021035975,0.00061340706,0.006366126,0.0010441965,-0.002559871,0.5008404,-1.3791059,1.9012169,-2.0908568,-1.5709761,2.4756672,-0.074204475,0.044201836,-0.05712702,0.015068888,-0.006216263,-0.07160329,-0.019153614,0.2681506,-9.500193,0.7911258,47.690468,-1.067255,-2.572252,-3.2394474,-0.22538307,-0.047198135,-0.28620225,28.375,29.75,28.75,32.5625,35.0,36.125
0.11205507,-0.8640883,-1.248231,-0.9675417,-0.0055064685,0.018125474,-0.1589613,-0.39184517,-0.3674741,0.05993733,-3.0783226,0.62462026,-0.00029896034,-0.046629887,0.021332048,-1.0291562e-05,0.0072160983,0.00016321262,-0.002846709,0.5006845,-1.3790691,1.9010733,-2.090833,-1.570988,2.475535,-0.07506817,0.04629888,-0.058234073,0.015258972,-0.0065356647,-0.07217927,-0.076614454,0.21068975,-9.519346,0.7597976,47.694946,-1.1229979,-2.587642,-3.2518961,-0.23495457,-0.031081624,-0.32700145,28.375,29.75,28.75,32.5625,35.0,36.125
0.114054374,-0.02665084,0.06655852,-0.64210486,-0.028456526,0.04735569,-0.1706568,-0.39193985,-0.3674293,0.05993842,-3.0783267,0.62463844,-0.00025739812,-0.047836367,0.021236425,0.0013606828,0.005301207,0.0027227283,-0.0014547664,0.5005284,-1.3789974,1.9009889,-2.0908453,-1.5709995,2.4753897,-0.07628774,0.044815924,-0.05950807,0.014847208,-0.006087612,-0.074791506,-0.15322891,0.22984336,-9.519346,0.7418897,47.65912,-1.1660554,-2.592504,-3.2094882,-0.23380777,-0.02722664,-0.33694983,28.375,29.75,28.75,32.5625,35.0,36.125
0.11605463,-0.3627565,0.090344094,-0.78317016,-0.018592209,0.041276105,-0.17878614,-0.3920136,-0.36738124,0.05990697,-3.0782893,0.62459606,-0.00037121164,-0.049168628,0.021939754,0.001406963,0.0044617252,0.002529724,-0.007482291,0.5003717,-1.3788652,1.9008931,-2.0907972,-1.5709876,2.4752114,-0.07920534,0.045583658,-0.060533576,0.014869419,-0.0052652652,-0.071682215,-0.1340753,0.17238252,-9.442732,0.7709874,47.65912,-1.1747017,-2.471502,-3.2438335,-0.22208837,-0.052609906,-0.4230044,28.375,29.75,28.75,32.5625,35.0,36.125
0.11805432,0.054472372,0.06692527,-0.6851513,-0.006497709,0.04917266,-0.17976013,-0.39210403,-0.36735412,0.059909895,-3.0782592,0.624606,-0.00033687544,-0.04892404,0.021226805,0.0012081664,0.0043090982,0.0015677627,-0.004384284,0.5002643,-1.3787565,1.9007496,-2.0907614,-1.5710229,2.475114,-0.07813471,0.046867393,-0.06176775,0.01558483,-0.004672124,-0.073710166,-0.17238252,0.17238252,-9.346964,0.7777002,47.677036,-1.197317,-2.4965112,-3.282915,-0.23940448,-0.057402838,-0.45812857,28.375,29.75,28.75,32.5625,35.0,36.125
0.12005453,0.019788457,0.8883415,-0.5507356,-0.023854889,0.050549872,-0.18125075,-0.39223903,-0.36729744,0.059930846,-3.078291,0.6246099,-0.00030757693,-0.049066477,0.021608435,0.000115156974,0.0047784257,-0.00097124424,-0.0018289718,0.5000365,-1.3786716,1.9005932,-2.0907247,-1.571011,2.4748847,-0.07938918,0.049166515,-0.06212059,0.016087435,-0.003865798,-0.077521265,-0.21068975,0.095768064,-9.3661175,0.81351066,47.64837,-1.3512785,-2.5672371,-3.2958336,-0.2586379,-0.06397951,-0.4770096,28.375,29.75,28.75,32.5625,35.0,36.125
0.122054406,-0.6106434,0.32577646,-0.54502183,-0.0018549794,0.050594337,-0.17308116,-0.39231792,-0.36727297,0.059929054,-3.078311,0.6245949,-0.00030625644,-0.05142571,0.023268275,0.00026507198,0.004371623,-0.00097330153,-0.0029156979,0.49991482,-1.3785872,1.9004973,-2.0907247,-1.570999,2.4747512,-0.084572084,0.05012631,-0.063697964,0.016509779,-0.0035118177,-0.08161745,-0.28730422,0.11492168,-9.3661175,0.842603,47.678825,-1.1372857,-2.611127,-3.2442517,-0.25789806,-0.080489114,-0.47203603,28.375,29.75,28.75,32.5625,35.0,36.125
0.12405426,-0.34006527,0.6598721,-0.6167049,0.006905281,0.06484819,-0.17904739,-0.39242592,-0.3672191,0.059932645,-3.0782979,0.6246241,-0.0003199459,-0.050877757,0.022052534,0.0016165582,0.0031573651,0.001363979,0.0080577135,0.4997242,-1.3784918,1.9003652,-2.090677,-1.570999,2.4745805,-0.08196036,0.047924805,-0.06418116,0.016558256,-0.0035727746,-0.08997915,-0.22984336,-0.05746084,-9.423578,0.68818194,47.64479,-1.2934406,-2.6120439,-3.2708025,-0.2681559,-0.07588427,-0.42302787,28.375,29.75,28.75,32.5625,35.0,36.125
0.12605502,-0.18209088,1.0351216,-0.6092454,0.0028625105,0.084546715,-0.17611004,-0.39252505,-0.36718762,0.05993307,-3.0783162,0.62449116,-0.00033680964,-0.052364852,0.023041248,0.0014690018,0.0038209618,0.0014446062,0.009515538,0.49957955,-1.3783712,1.9002107,-2.0906293,-1.570999,2.4743507,-0.08459156,0.049292352,-0.06551958,0.016776863,-0.004199763,-0.09406615,-0.19153613,-0.095768064,-9.404425,0.7709874,47.637623,-1.3016056,-2.453701,-3.2987852,-0.26673877,-0.0698591,-0.40860763,28.375,29.75,28.75,32.5625,35.0,36.125
0.12805523,-1.6836333,0.39897212,-0.5992009,0.018466128,0.049665034,-0.17109749,-0.39263886,-0.36716607,0.05994804,-3.0783653,0.6244567,-0.0003186117,-0.053635504,0.023548055,0.0011067752,0.003581668,0.00077346846,0.016998146,0.49942318,-1.3782625,1.9000424,-2.0906055,-1.5709752,2.4741666,-0.08692585,0.051232565,-0.06700151,0.01679015,-0.0036730825,-0.10388334,-0.38307226,-0.095768064,-9.32781,0.7709874,47.64479,-1.2350602,-2.4748688,-3.2852073,-0.2781166,-0.08185944,-0.32678646,28.375,29.75,28.75,32.5625,35.0,36.125
0.13005456,-0.6806476,0.6158954,-0.48847362,0.02070456,0.07898277,-0.17685288,-0.39275068,-0.36707437,0.059937946,-3.0783076,0.6244433,-0.00031360568,-0.054888982,0.02365648,0.0017953569,0.0029423481,0.0016709316,0.019692846,0.49919522,-1.3781785,1.8999575,-2.0905688,-1.5710229,2.4739377,-0.08832264,0.05162548,-0.06919615,0.017490366,-0.0035506852,-0.10797408,-0.45968673,-0.17238252,-9.32781,0.842603,47.661808,-1.284848,-2.4650846,-3.2971506,-0.29923594,-0.09301284,-0.27900425,28.375,29.75,28.75,32.5625,35.0,36.125
0.1320551,-1.035978,0.17540625,-0.8611603,0.03337472,0.065853894,-0.1705775,-0.39283413,-0.36707067,0.05993344,-3.078382,0.62426484,-0.0003911465,-0.056350317,0.024493782,0.0018810792,0.0030305623,0.0017870481,0.022284718,0.4990745,-1.3780458,1.8998026,-2.090533,-1.5709628,2.4736962,-0.09097663,0.052627694,-0.07068209,0.017919607,-0.0036902823,-0.11321892,-0.4405331,-0.17238252,-9.423578,0.78217715,47.679718,-1.1252911,-2.453945,-3.1082294,-0.30320653,-0.11644527,-0.21876019,28.375,29.75,28.75,32.5625,35.0,36.125
0.13405497,-0.6598537,0.36726075,-0.7586035,0.026150197,0.07933636,-0.17253095,-0.39292952,-0.36699778,0.059925642,-3.0783467,0.624235,-0.00043690903,-0.055825524,0.024328044,0.0015766657,0.003455104,0.0013267649,0.02623504,0.4988714,-1.3779618,1.8997072,-2.0904734,-1.5709752,2.473479,-0.0900962,0.052806072,-0.07018997,0.017854039,-0.0038492149,-0.116288476,-0.57460845,-0.095768064,-9.3661175,0.8247004,47.682407,-1.3983723,-2.5022943,-3.2765765,-0.30839425,-0.10350347,-0.1503483,28.375,29.75,28.75,32.5625,35.0,36.125
0.13605441,-0.8362692,0.5889819,-0.7654068,0.011741312,0.08677451,-0.17216697,-0.3930719,-0.36693588,0.05993453,-3.0783334,0.62419635,-0.0003604459,-0.05959335,0.026198328,0.0017623453,0.0036924568,0.0019115036,0.020106653,0.49866548,-1.3778405,1.8995379,-2.090449,-1.5710229,2.4732509,-0.09638772,0.0557483,-0.074269935,0.01858725,-0.0043419157,-0.11644868,-0.59376204,-0.076614454,-9.461885,0.800085,47.689575,-1.123821,-2.4562755,-3.215303,-0.32253817,-0.0984257,-0.15472114,28.375,29.75,28.75,32.5625,35.0,36.125
0.13805391,-1.5497485,0.18807517,-0.9801426,0.014370116,0.078664035,-0.16916692,-0.39316368,-0.3668912,0.05993255,-3.0783567,0.62404686,-0.00040174767,-0.059191108,0.02584756,0.0020265554,0.0041963127,0.0021612248,0.01875469,0.49849847,-1.3777447,1.8994178,-2.0904005,-1.5710114,2.4729877,-0.095056854,0.05543567,-0.074673004,0.019328069,-0.004904269,-0.113764554,-0.57460845,0.0,-9.461885,0.7396539,47.625084,-1.224821,-2.558127,-3.0829124,-0.34022444,-0.097644046,-0.1628342,28.375,29.75,28.75,32.5625,35.0,36.125
0.14005455,-0.8939899,0.22341649,-0.81131834,-0.0053345873,0.10032856,-0.17912267,-0.39329445,-0.36684394,0.059941556,-3.0783432,0.62406665,-0.00039103275,-0.060488403,0.027664742,0.0015711769,0.0052633625,0.001977599,0.010424713,0.4983057,-1.3776122,1.899227,-2.0903413,-1.5710233,2.472809,-0.09875766,0.055919487,-0.0741383,0.018983187,-0.0057507954,-0.10913375,-0.78529817,0.05746084,-9.500193,0.7978386,47.639416,-1.246733,-2.404431,-3.2313178,-0.35266072,-0.09396689,-0.18722892,28.375,29.75,28.75,32.5625,35.0,36.125
0.14205492,-2.339271,-0.5863329,-0.8910379,-0.010097715,0.07923366,-0.15495028,-0.3934098,-0.36676472,0.059917368,-3.078299,0.6239847,-0.00041361034,-0.06269949,0.02891807,0.0020661058,0.0056496398,0.0035174803,0.0028247067,0.49808887,-1.3774799,1.8991197,-2.090317,-1.5710601,2.4725468,-0.10220793,0.056553204,-0.07604609,0.01908928,-0.006832608,-0.1049806,-0.7278373,0.095768064,-9.519346,0.8090337,47.637623,-1.151362,-2.4009578,-3.1830254,-0.34187824,-0.097305425,-0.2718767,28.375,29.75,28.75,32.5625,35.0,36.125
0.14405538,-1.7017831,-0.21383224,-0.9819808,-0.01380088,0.08414803,-0.1686344,-0.3935582,-0.36671293,0.059940845,-3.0783005,0.62408185,-0.00034669947,-0.064159416,0.030114416,0.0008210331,0.0075216456,0.0018603238,-0.00072901684,0.49787238,-1.3773705,1.8989285,-2.0902812,-1.571072,2.472391,-0.10500648,0.060196385,-0.07759422,0.019344948,-0.0076833833,-0.10422282,-0.6512229,0.076614454,-9.519346,0.9612189,47.66271,-1.0293344,-2.5945368,-3.197722,-0.35038263,-0.07207374,-0.30833837,28.375,29.75,28.75,32.5625,35.0,36.125
0.14605522,-0.83587044,-0.1350923,-0.9209535,-0.02136005,0.09908324,-0.1739987,-0.39368585,-0.3666511,0.05996233,-3.0783322,0.62405014,-0.00032891225,-0.06573166,0.031133851,0.0022563234,0.00619105,0.004660228,-0.0028694996,0.49764368,-1.3772994,1.8987845,-2.090233,-1.5710605,2.4721384,-0.108034454,0.0577155,-0.07783845,0.018974384,-0.007850505,-0.10511043,-0.6512228,0.1340753,-9.519346,0.7553206,47.63673,-0.88285184,-2.4438035,-3.208999,-0.3604415,-0.07865707,-0.30552867,28.375,29.75,28.75,32.5625,35.0,36.125
0.14805533,-1.1630529,-0.046720974,-0.9818131,-0.020183606,0.081414215,-0.17446673,-0.39381832,-0.3665919,0.0599543,-3.0783005,0.62402314,-0.00028194182,-0.066436484,0.031627133,0.0018138264,0.006575889,0.0039144773,-0.0030559376,0.49745178,-1.3771547,1.8986286,-2.0902212,-1.5711082,2.4719338,-0.10949499,0.059172906,-0.07859727,0.019107781,-0.007834753,-0.106384054,-0.7469909,0.095768064,-9.442732,0.75755644,47.63404,-0.8551314,-2.430947,-3.1847587,-0.3661028,-0.058342747,-0.3542266,28.375,29.75,28.75,32.5625,35.0,36.125
0.15005404,-0.7180279,0.15824872,-0.96581924,-0.013678603,0.091682166,-0.18129908,-0.39395157,-0.36655667,0.059950884,-3.0783155,0.62404644,-0.00033428436,-0.06759748,0.032077525,0.0014285404,0.006838046,0.0040327827,-0.0047745877,0.49724764,-1.3769859,1.8984255,-2.090174,-1.5710725,2.4717424,-0.11110738,0.060953088,-0.079690814,0.018445604,-0.008126801,-0.106276326,-0.68953013,0.05746084,-9.481039,0.8247004,47.664497,-0.8866106,-2.4333348,-3.2202082,-0.37470758,-0.061064206,-0.36941975,28.375,29.75,28.75,32.5625,35.0,36.125
0.15205446,-1.3028342,-0.32441238,-0.8228176,0.0062041264,0.08156692,-0.16286594,-0.39410102,-0.3664526,0.059933424,-3.078245,0.624088,-0.000304788,-0.06837423,0.03228076,0.0015581123,0.0058977692,0.00461149,-0.0055149696,0.4969718,-1.3768538,1.8983058,-2.0901616,-1.5711316,2.4715016,-0.11246915,0.061142854,-0.080033995,0.017631307,-0.0075817443,-0.10689843,-0.63206923,0.095768064,-9.461885,0.7777002,47.6636,-0.8797842,-2.487077,-3.331646,-0.37571567,-0.075932145,-0.36969724,28.375,29.75,28.75,32.5625,35.0,36.125
0.15405428,-1.0554785,0.70066166,-0.5458815,-0.0030139762,0.08539231,-0.1818609,-0.3942222,-0.36640126,0.059957027,-3.0782902,0.62417215,-0.00030870715,-0.070559666,0.031031525,0.0034124576,0.0025394121,0.007863068,-0.0041672187,0.4967441,-1.3767936,1.8981727,-2.0901263,-1.5710834,2.4713206,-0.11320977,0.061516214,-0.08464929,0.017411733,-0.0061863586,-0.10898802,-0.4405331,0.019153614,-9.404425,0.69041777,47.64121,-0.8670522,-2.378662,-3.199124,-0.3676476,-0.07827333,-0.43408147,28.375,29.75,28.75,32.5625,35.0,36.125
0.15605447,-0.41251406,0.8154222,-0.7336689,-0.0018101012,0.08319516,-0.18069755,-0.39436626,-0.36633137,0.059937883,-3.0782557,0.6240831,-0.0003179426,-0.0697988,0.03149687,0.002155188,0.0036205454,0.0054884753,0.0022663828,0.49651664,-1.3766129,1.8979939,-2.0900905,-1.5711197,2.4710422,-0.11337157,0.062629476,-0.08310586,0.017349252,-0.006009376,-0.11558402,-0.2681506,0.038307227,-9.423578,0.80456203,47.67166,-0.987019,-2.4651303,-3.225286,-0.34801096,-0.099260844,-0.3695308,28.375,29.75,28.75,32.5625,35.0,36.125
0.15805411,-0.55921113,0.537353,-0.64998823,0.004616427,0.05565834,-0.17802414,-0.39453253,-0.36629224,0.05997038,-3.0782995,0.62408805,-0.00017853173,-0.071282096,0.030843925,0.0033486334,0.0024467595,0.008167576,0.009048979,0.49631298,-1.3764927,1.8977774,-2.0900905,-1.5711435,2.4708362,-0.113442354,0.06295822,-0.086175695,0.017169544,-0.006251848,-0.12243622,-0.24899697,-0.05746084,-9.308656,0.800085,47.63852,-1.0260684,-2.3831244,-3.2152438,-0.34015396,-0.08216851,-0.3197432,28.375,29.75,28.75,32.5625,35.0,36.125
0.16005436,0.2883455,0.7073316,-0.7165222,-0.0021059695,0.047410928,-0.18762703,-0.3946889,-0.3662104,0.059973914,-3.078293,0.6241216,-0.00020772433,-0.07259818,0.03221271,0.0027997843,0.0036059534,0.007977562,0.013355641,0.4960244,-1.3763602,1.8975986,-2.0900304,-1.5711316,2.4705694,-0.11633326,0.06433827,-0.0864937,0.016826421,-0.007186173,-0.12963147,-0.076614454,-0.095768064,-9.385271,0.7732232,47.652847,-0.84435624,-2.3588448,-3.107575,-0.32211313,-0.067861415,-0.2656982,28.375,29.75,28.75,32.5625,35.0,36.125
0.16205482,0.2320044,0.42242265,-0.7833888,0.0053884494,0.030620597,-0.17263569,-0.3948406,-0.366156,0.059987057,-3.078314,0.6240427,-0.00014027003,-0.07342312,0.03208636,0.0031815185,0.0028717658,0.008707277,0.021243399,0.4958089,-1.376228,1.8974065,-2.0900066,-1.5711559,2.470302,-0.11702353,0.06481339,-0.087922335,0.016779235,-0.0068891756,-0.13820972,-0.076614454,-0.076614454,-9.385271,0.7732232,47.66808,-1.1631265,-2.4037578,-3.210979,-0.31114006,-0.05933793,-0.14730352,28.375,29.75,28.75,32.5625,35.0,36.125
0.1640542,0.4280656,1.0018778,-0.8651554,-0.0024714882,0.03049112,-0.18417633,-0.3949783,-0.36608225,0.059981626,-3.0783124,0.62394613,-9.296118e-05,-0.074273534,0.03266614,0.0031667352,0.003346798,0.008650332,0.021450408,0.4955808,-1.3761076,1.8972758,-2.090006,-1.5711917,2.470014,-0.11850236,0.0656081,-0.088953055,0.017285427,-0.007279069,-0.1398944,-0.05746084,0.019153614,-9.385271,0.7665104,47.687782,-0.8604553,-2.3295279,-3.1162825,-0.31313825,-0.05690819,-0.12682287,28.375,29.75,28.75,32.5625,35.0,36.125
0.1660541,0.23866282,0.71785223,-0.8685112,0.0039775753,0.029075453,-0.17530268,-0.39512077,-0.36600095,0.059973955,-3.078267,0.6239562,-0.00011258058,-0.07505412,0.033430416,0.0030330103,0.004132672,0.008598704,0.019279806,0.4953288,-1.3759631,1.8971084,-2.0899465,-1.5712165,2.4697742,-0.1200509,0.066295,-0.089545205,0.01760721,-0.007949776,-0.13927044,0.038307227,0.019153614,-9.385271,0.7978386,47.6636,-1.0322003,-2.318069,-3.202905,-0.31302136,-0.04651289,-0.09625813,28.375,29.75,28.75,32.5625,35.0,36.125
0.16805415,-0.5042892,0.025887692,-0.86184317,-0.000715241,0.021982104,-0.169743,-0.39528188,-0.36594447,0.0599929,-3.0782833,0.62386495,-6.0785333e-05,-0.07527509,0.033839587,0.0026185224,0.0043540625,0.00716162,0.014251698,0.49510083,-1.3758187,1.8968805,-2.089887,-1.5712398,2.4694874,-0.12120897,0.067292534,-0.08997499,0.01840445,-0.007454333,-0.13540134,0.0,0.15322891,-9.385271,0.7709874,47.63136,-0.9314852,-2.2841682,-3.24493,-0.30479506,-0.055465534,-0.116469674,28.375,29.75,28.75,32.5625,35.0,36.125
0.17005397,-0.21576284,-0.34736818,-0.70381,-0.015857304,0.026420327,-0.16664593,-0.39542186,-0.36587945,0.05998987,-3.0782957,0.62381333,-0.00011806185,-0.07633482,0.034637406,0.002094074,0.0037959476,0.0056919116,0.006699362,0.4948482,-1.3756738,1.8967017,-2.0898263,-1.5712155,2.469201,-0.12422146,0.068888105,-0.09072745,0.018589137,-0.0062665953,-0.13086314,0.0,0.13407528,-9.442732,0.78217715,47.642998,-0.98525536,-2.3815763,-3.259625,-0.31367314,-0.05628874,-0.17884393,28.375,29.75,28.75,32.5625,35.0,36.125
0.17205428,0.12715712,-0.6426393,-0.87119514,-0.018314227,0.023538351,-0.1606715,-0.39557952,-0.3658004,0.059983034,-3.0782852,0.6238108,-8.091353e-05,-0.075728044,0.03321872,0.002417443,0.002816632,0.005931191,0.00445355,0.49458584,-1.3755298,1.8965462,-2.0898263,-1.5712394,2.4689386,-0.12170462,0.069162674,-0.091832414,0.018739194,-0.005515501,-0.12610161,0.038307227,0.19153613,-9.461885,0.8806493,47.709274,-1.1084944,-2.279764,-3.2349296,-0.30876228,-0.056443747,-0.2499125,28.375,29.75,28.75,32.5625,35.0,36.125
0.17405418,0.15919454,-0.6755215,-0.9046748,-0.029170882,0.016393194,-0.16243571,-0.39570644,-0.36574143,0.0599919,-3.0782723,0.6236951,-6.0024075e-05,-0.07725745,0.034332007,0.0018787087,0.0033811256,0.0050551784,-0.0014136276,0.49439308,-1.3754089,1.8963665,-2.0897548,-1.5712756,2.4686754,-0.124892525,0.07129356,-0.09320701,0.019018132,-0.005598508,-0.12342127,0.019153614,0.22984336,-9.557653,0.7911258,47.672558,-0.96837276,-2.3289437,-3.238197,-0.30225545,-0.06462931,-0.3090055,28.375,29.75,28.75,32.5625,35.0,36.125
0.1760539,-0.055407908,-0.82237536,-0.997737,-0.034118887,0.011243708,-0.16270018,-0.39587942,-0.36566183,0.059995234,-3.0782588,0.6238058,-7.271047e-05,-0.07783263,0.033996277,0.0023981477,0.0033323225,0.0062950496,-0.0024795516,0.49409398,-1.3752526,1.8961624,-2.0897067,-1.5712641,2.4684472,-0.12446562,0.07160638,-0.094809934,0.019196196,-0.0061450447,-0.1219267,0.0,0.28730422,-9.346964,0.7150385,47.709274,-1.0964171,-2.4004095,-3.2200887,-0.30066162,-0.054797404,-0.36965096,28.375,29.75,28.75,32.5625,35.0,36.125
0.178054,0.20835932,-0.60658306,-0.92191434,-0.032925878,0.027193774,-0.1722794,-0.39602044,-0.36560735,0.06000111,-3.0782712,0.62382996,-7.3569245e-05,-0.07850494,0.03506856,0.001612209,0.0036105888,0.0048836777,-0.0068124416,0.4938656,-1.37512,1.8959836,-2.089671,-1.5712513,2.4682324,-0.12711078,0.07281488,-0.09441414,0.018966133,-0.0057176515,-0.12023985,0.0,0.28730422,-9.423578,0.7978386,47.67345,-1.131144,-2.318898,-3.3222852,-0.28203946,-0.06681748,-0.43218276,28.375,29.75,28.75,32.5625,35.0,36.125
0.18005396,0.31451926,-0.12452097,-0.7499864,-0.037724014,0.03453789,-0.17343786,-0.3961918,-0.36554593,0.060003407,-3.0782619,0.62386495,-4.8518996e-05,-0.07920629,0.035293277,0.0018090289,0.002934141,0.0049478184,-0.007535442,0.4936136,-1.3749398,1.8957561,-2.0896347,-1.5712637,2.4680035,-0.12843268,0.07310634,-0.09525883,0.019137139,-0.0051521147,-0.12083959,0.038307227,0.24899697,-9.32781,0.7172743,47.62419,-1.0840056,-2.3412902,-3.3287344,-0.25877285,-0.06512876,-0.47956148,28.375,29.75,28.75,32.5625,35.0,36.125
0.18205379,-0.13518867,-0.55562156,-0.8652737,-0.027073894,0.031783376,-0.16986789,-0.39636695,-0.36546397,0.060007688,-3.078258,0.62378496,-1.8508456e-07,-0.080491,0.035317868,0.0013303857,0.0028374605,0.0042984798,-0.005694243,0.4933379,-1.3747826,1.8955516,-2.0895984,-1.571299,2.4676785,-0.12983939,0.076042436,-0.097665116,0.019124525,-0.0047641527,-0.12408693,-0.019153614,0.2681506,-9.423578,0.85155696,47.66091,-1.1857296,-2.4408896,-3.1958206,-0.2600028,-0.07338992,-0.5019152,28.375,29.75,28.75,32.5625,35.0,36.125
0.18405408,0.2081598,-0.25184447,-0.71032095,-0.022370804,0.0438994,-0.17697343,-0.39650267,-0.36540356,0.0600219,-3.0782843,0.62382203,3.052023e-06,-0.08042709,0.036377188,0.0012231941,0.0029973264,0.0038735145,0.002810718,0.49309778,-1.3746868,1.8953975,-2.0895631,-1.5712751,2.4674582,-0.13156313,0.074764825,-0.09590111,0.019084021,-0.0047014174,-0.13431677,0.0,0.19153614,-9.404425,0.800085,47.65106,-1.0966114,-2.3169432,-3.4868827,-0.2591093,-0.082632504,-0.44369864,28.375,29.75,28.75,32.5625,35.0,36.125
0.18605483,-0.27793536,-0.15387842,-0.59055376,-0.017266462,0.041642405,-0.17509493,-0.39666995,-0.3653167,0.06001127,-3.0782516,0.6238097,2.5591282e-05,-0.083226494,0.036050577,0.0030327074,0.0014280186,0.007479487,0.010686212,0.49282172,-1.3745185,1.8952163,-2.0895393,-1.5713114,2.4671788,-0.13330379,0.075448796,-0.10093519,0.019504191,-0.0050404198,-0.1439302,-0.076614454,0.11492168,-9.308656,0.779936,47.64389,-1.0955585,-2.266208,-3.255427,-0.25205284,-0.075826265,-0.38536426,28.375,29.75,28.75,32.5625,35.0,36.125
0.18805486,-0.028549545,0.44192228,-0.39422327,-0.01723427,0.056412283,-0.1696299,-0.3968031,-0.36525485,0.06000362,-3.078276,0.6236946,-3.198376e-05,-0.08274884,0.037260875,0.00031196716,0.003944118,0.0027259116,0.018574828,0.49258167,-1.374373,1.8950499,-2.0894911,-1.5712875,2.4668639,-0.13488626,0.079337925,-0.09935828,0.019413214,-0.0050135083,-0.15340123,-0.15322891,0.095768064,-9.308656,0.800085,47.709274,-1.1331515,-2.4473157,-3.4824545,-0.22816963,-0.10236851,-0.2820171,28.375,29.75,28.75,32.5625,35.0,36.125
0.1900542,-0.7534032,0.5577834,-0.4570759,-0.0021324586,0.049062684,-0.16839299,-0.39701748,-0.36518455,0.06003503,-3.0782957,0.62363696,0.00012938248,-0.08465643,0.03729411,0.0015921532,0.0022644326,0.0053451573,0.02249563,0.4923057,-1.3742049,1.8947734,-2.0894668,-1.5713476,2.4665496,-0.13676792,0.079052135,-0.10186857,0.019092113,-0.0047668875,-0.15920363,-0.30645782,0.11492168,-9.385271,0.7665104,47.68062,-0.9556093,-2.1894186,-3.336729,-0.21001746,-0.08735728,-0.20029351,28.375,29.75,28.8125,32.5625,35.0,36.125
0.19205457,-0.90050185,0.5714003,-0.2849512,0.003216502,0.060968615,-0.17629047,-0.39717144,-0.36510688,0.060014177,-3.0782936,0.6236753,1.870778e-05,-0.08612296,0.038333405,0.0008343041,0.0028549116,0.0035562455,0.021397026,0.49200487,-1.3740238,1.8945946,-2.0894186,-1.571299,2.466273,-0.13999765,0.08188915,-0.10373118,0.019977381,-0.0044522444,-0.16133405,-0.4213795,0.076614454,-9.346964,0.800085,47.68062,-0.93854105,-2.3239908,-3.279745,-0.20971838,-0.10010512,-0.15996279,28.375,29.75,28.8125,32.5625,35.0,36.125
0.19405451,-0.5959591,0.976249,-0.19567093,0.007858989,0.08294215,-0.18175884,-0.3973259,-0.36503705,0.06001848,-3.0783222,0.62348926,3.013157e-05,-0.08622396,0.037595555,0.0012360491,0.0026875741,0.0037468171,0.018196903,0.49175444,-1.3738793,1.8944024,-2.089371,-1.5713109,2.465903,-0.13883758,0.08256623,-0.10569546,0.021017065,-0.0043940526,-0.15697321,-0.61291564,0.038307227,-9.251195,0.83589023,47.664497,-1.1920235,-2.382386,-3.194382,-0.19613522,-0.09126526,-0.16323572,28.375,29.75,28.8125,32.5625,35.0,36.125
0.19605513,-1.1356424,0.6223169,-0.34331918,0.022009738,0.08336937,-0.16266234,-0.39752012,-0.36495748,0.060031906,-3.0783129,0.6235076,0.00010759029,-0.08643635,0.037870374,0.0011196337,0.0026972103,0.0032489407,0.0128810145,0.49146676,-1.3737112,1.894164,-2.0893352,-1.5713471,2.4656281,-0.13958132,0.08291824,-0.10593558,0.021343905,-0.0041593267,-0.15240158,-0.7661445,-0.019153614,-9.32781,0.800085,47.65912,-1.1025535,-2.3103461,-3.3852115,-0.17929998,-0.12482436,-0.22817779,28.375,29.75,28.8125,32.5625,35.0,36.125
0.19805494,-1.955608,0.6976123,-0.3787769,0.00442383,0.08140184,-0.16229416,-0.3976771,-0.3648781,0.060010117,-3.0782995,0.6234102,4.613725e-05,-0.087112606,0.038309976,-0.00024727525,0.0045938157,0.0011062244,0.00825902,0.491191,-1.3735175,1.8939723,-2.0892866,-1.5713476,2.4652934,-0.1404738,0.086826004,-0.10761454,0.021902801,-0.004828858,-0.14866935,-0.7469909,-0.1340753,-9.308656,0.7911258,47.685097,-1.1657807,-2.3844528,-3.1379573,-0.17255114,-0.1099143,-0.2984414,28.375,29.75,28.8125,32.5625,35.0,36.125
0.20005499,-1.2252,1.0102965,-0.1317106,-0.0132700885,0.11140388,-0.1791974,-0.39784524,-0.36481094,0.05999795,-3.0782933,0.6234672,-3.4159006e-05,-0.08790423,0.038688526,0.001107259,0.0037988457,0.0030256528,0.006527504,0.49090308,-1.373314,1.8937443,-2.0892265,-1.5713114,2.4650419,-0.14164367,0.084785536,-0.10847453,0.022740966,-0.0050379303,-0.14810722,-0.6703765,-0.11492168,-9.251195,0.8112748,47.670765,-1.1154044,-2.3180015,-3.3406117,-0.17781979,-0.12793085,-0.31996828,28.375,29.75,28.8125,32.5625,35.0,36.125
0.20205542,-1.39419,0.4491916,-0.2998918,0.009933996,0.10222966,-0.17615798,-0.39803708,-0.36472133,0.06000964,-3.0783122,0.6234904,8.045375e-06,-0.08979407,0.04004834,0.0007425665,0.0048880996,0.0026204048,0.0025576309,0.49057853,-1.3731693,1.8935403,-2.0892026,-1.5713114,2.4647295,-0.14510937,0.08699391,-0.11041981,0.023350138,-0.0058048354,-0.14760068,-0.7086837,-0.11492168,-9.251195,0.82022345,47.668976,-1.0470812,-2.2560906,-3.1619887,-0.16661328,-0.1215489,-0.35381824,28.375,29.75,28.8125,32.5625,35.0,36.125
0.20405495,-1.4505606,0.87296605,-0.43046293,0.0035339394,0.08319524,-0.17096741,-0.3982082,-0.36466464,0.060034264,-3.0783255,0.62343353,9.9527446e-05,-0.09131893,0.040443737,0.0011355338,0.0045983708,0.0038578028,0.0024899363,0.4903507,-1.3730247,1.8933014,-2.0891545,-1.5713476,2.4644647,-0.14690013,0.08781528,-0.112249516,0.023123987,-0.0061304523,-0.14932255,-0.63206923,-0.19153613,-9.289502,0.8627467,47.651955,-1.1482012,-2.4982185,-3.2660875,-0.1556609,-0.11816305,-0.38723463,28.375,29.75,28.8125,32.5625,35.0,36.125
0.20605564,-1.323042,0.5401402,-0.17812356,0.007689847,0.0856345,-0.16835229,-0.39842203,-0.36456153,0.060028985,-3.0783057,0.62348264,0.000110449306,-0.09237395,0.04031194,0.0013911604,0.00435177,0.004926756,0.007635809,0.48999146,-1.37282,1.893062,-2.0891192,-1.57136,2.4641387,-0.1473829,0.08894065,-0.114111185,0.022794584,-0.0064229076,-0.15494974,-0.6703765,-0.019153614,-9.385271,0.8940802,47.682407,-1.1535702,-2.2729712,-3.1935892,-0.12277187,-0.116363496,-0.3656636,28.375,29.75,28.8125,32.5625,35.0,36.125
0.20805594,-0.9699734,1.2109991,-0.17598215,0.0018605253,0.09304691,-0.17248121,-0.39860472,-0.36448514,0.060011383,-3.078278,0.62335515,0.00012811986,-0.09328141,0.040634938,0.0008384769,0.00548194,0.0039389767,0.016099365,0.4897276,-1.3725908,1.8928212,-2.089083,-1.5714082,2.463799,-0.14835458,0.09157993,-0.11620405,0.023637883,-0.006965807,-0.16438265,-0.59376204,0.019153614,-9.289502,0.8806493,47.71823,-1.2048895,-2.5068204,-3.1576514,-0.114232026,-0.10947766,-0.28770605,28.375,29.75,28.8125,32.5625,35.0,36.125
0.21005538,-0.5138137,1.2634186,-0.2539591,0.012114269,0.09916157,-0.17720002,-0.39877483,-0.3643982,0.060021617,-3.078278,0.62330955,0.00010968601,-0.09405062,0.0413348,0.0007152276,0.0062713823,0.003156199,0.025464544,0.48942763,-1.3724464,1.8926071,-2.0889986,-1.5714082,2.4634707,-0.1499636,0.09267469,-0.11752833,0.024921063,-0.007301898,-0.17535555,-0.53630114,0.038307227,-9.308656,0.84708,47.71286,-1.1453818,-2.476942,-3.1299324,-0.11920227,-0.12305859,-0.18188992,28.375,29.75,28.8125,32.5625,35.0,36.125
0.21205488,-0.58918905,0.8242825,-0.39610165,0.009594152,0.09331313,-0.17534329,-0.39896223,-0.36432984,0.060014296,-3.0783155,0.6231792,6.900254e-05,-0.0942812,0.041147314,0.00038287655,0.006686009,0.002016612,0.030387564,0.48912835,-1.3722297,1.8923548,-2.0889504,-1.5713838,2.4630854,-0.14989549,0.09446548,-0.119157486,0.025958594,-0.0071383,-0.1802099,-0.51714754,0.0,-9.3661175,0.842603,47.698532,-1.203954,-2.5185127,-3.0818033,-0.119423285,-0.106022045,-0.09344,28.375,29.75,28.8125,32.5625,35.0,36.125
0.21405472,-0.8271169,0.0017728541,-0.3978821,-0.0010706882,0.07590223,-0.16106376,-0.39915475,-0.3642228,0.06002115,-3.078286,0.6231354,0.0001150045,-0.09507113,0.041512795,0.0007055388,0.006302737,0.0020537272,0.027869275,0.4888044,-1.3720734,1.8921398,-2.0888903,-1.571432,2.462738,-0.15135933,0.09470642,-0.12035744,0.026693603,-0.0068183546,-0.17915568,-0.51714754,0.05746084,-9.32781,0.7665104,47.70659,-1.2491889,-2.5285466,-3.1328433,-0.105825394,-0.13314992,-0.058750167,28.375,29.75,28.8125,32.5625,35.0,36.125
0.21605514,-0.47673267,-0.25502154,-0.53251725,-0.0064663156,0.06851391,-0.1604288,-0.39933816,-0.3641261,0.06000296,-3.078264,0.6231339,4.2539818e-05,-0.09569519,0.04199473,0.00041922767,0.0071493974,0.0015816534,0.021128604,0.48846892,-1.3718687,1.8919238,-2.0888298,-1.5714201,2.4624045,-0.15234135,0.09599694,-0.12138716,0.02725302,-0.0073514986,-0.1733951,-0.47884035,0.11492168,-9.289502,0.8247004,47.64927,-1.2962428,-2.507408,-3.10012,-0.10557179,-0.110565126,-0.091312096,28.375,29.75,28.8125,32.5625,35.0,36.125
0.21805447,0.12264279,0.30495277,-0.4581214,-0.035775498,0.069002405,-0.17143175,-0.39953467,-0.36404523,0.06000032,-3.0782323,0.62305415,9.9716024e-05,-0.09608486,0.04299558,2.061864e-05,0.009002747,0.001078164,0.011944633,0.48819304,-1.3716525,1.8916615,-2.088782,-1.5714802,2.462083,-0.15345068,0.096700214,-0.12149935,0.027974917,-0.008747159,-0.16531758,-0.36391866,0.24899697,-9.3661175,0.8672237,47.672558,-1.262286,-2.441268,-3.1236176,-0.09101427,-0.111501664,-0.18950807,28.375,29.75,28.8125,32.5625,35.0,36.125
0.22005482,-0.07948034,-0.27197614,-0.5193686,-0.034486953,0.05297105,-0.17031594,-0.39974636,-0.36394435,0.06000433,-3.07822,0.6231126,9.750394e-05,-0.097822405,0.043509115,0.001068682,0.008211432,0.0028073245,0.0033250528,0.48783275,-1.3714602,1.8914098,-2.0887215,-1.5714802,2.461761,-0.15573552,0.09650261,-0.12379982,0.028576916,-0.008860141,-0.15898183,-0.21068975,0.24899697,-9.442732,0.87617236,47.67166,-1.159475,-2.476499,-3.0734653,-0.09829676,-0.0970988,-0.2679965,28.375,29.75,28.8125,32.5625,35.0,36.125
0.2220542,0.30041337,-0.4829191,-0.5924465,-0.026557872,0.05088534,-0.16120104,-0.39994717,-0.36386868,0.060019787,-3.0782423,0.62306046,0.00014874143,-0.0981188,0.045618143,-0.0008469785,0.0095129,-0.0012944516,-0.0041942243,0.48753256,-1.3712792,1.8911484,-2.0886738,-1.5714926,2.4614255,-0.15996973,0.09856468,-0.12199976,0.02894355,-0.008077228,-0.15569904,-0.1340753,0.22984336,-9.519346,0.842603,47.703903,-1.251104,-2.5358384,-3.3416896,-0.068280175,-0.085081205,-0.34332928,28.375,29.75,28.8125,32.5625,35.0,36.125
0.22405468,0.5645148,-0.016846737,-0.48232794,-0.02424924,0.03823984,-0.1699985,-0.40012828,-0.36375567,0.059975088,-3.0781355,0.6231358,9.392514e-05,-0.0991441,0.045179777,0.00020311824,0.008339102,0.0005140987,-0.007930622,0.48720908,-1.371039,1.8909558,-2.0886376,-1.5715402,2.4611628,-0.16019939,0.09841277,-0.124294564,0.029234976,-0.00790378,-0.1521912,-0.019153614,0.22984336,-9.442732,0.84484416,47.677036,-1.1029847,-2.41229,-3.1110785,-0.05753507,-0.10215425,-0.45038337,28.375,29.75,28.8125,32.5625,35.0,36.125
0.22605447,0.36826667,0.1787728,-0.5485258,-0.009998109,0.017051978,-0.16519006,-0.40034914,-0.36367786,0.059978977,-3.0781412,0.62315464,8.0243066e-05,-0.10092181,0.04684252,0.000634932,0.008486908,0.0018000691,-0.009382226,0.48687243,-1.3707991,1.8906449,-2.088566,-1.5715283,2.4608374,-0.16405925,0.097913146,-0.124655254,0.029027982,-0.008640061,-0.15459791,0.038307227,0.19153614,-9.461885,0.85155696,47.705692,-1.0012397,-2.414526,-3.306776,-0.05362853,-0.09771771,-0.50725245,28.375,29.75,28.8125,32.5625,35.0,36.125
0.22805475,1.0038296,0.5049895,-0.54628915,-0.018988784,0.020650908,-0.17295906,-0.40056852,-0.3635807,0.059997957,-3.0781443,0.6230901,0.0002086985,-0.09995628,0.04688583,-0.0019620762,0.010364965,-0.0031981112,0.0006029254,0.48654935,-1.3706293,1.8903941,-2.0885422,-1.5715884,2.4604738,-0.16361736,0.10245853,-0.124257416,0.029358322,-0.007958559,-0.16414253,0.05746084,0.17238252,-9.442732,0.8314132,47.678825,-1.0499525,-2.5447068,-3.334262,-0.0477025,-0.09577747,-0.4612832,28.375,29.75,28.8125,32.5625,35.0,36.125
0.23005567,0.7826806,0.2680081,-0.5695345,-0.012936641,0.019980634,-0.17072918,-0.40075886,-0.36347565,0.060004476,-3.0781353,0.62309974,0.00019324856,-0.10025687,0.046784464,8.354908e-06,0.008546503,-0.0002514438,0.012977461,0.4862016,-1.3704746,1.8901786,-2.0884697,-1.5715879,2.4601333,-0.16378282,0.098725684,-0.12439312,0.029757705,-0.007738608,-0.1766835,0.038307227,0.17238252,-9.346964,0.80679786,47.703903,-1.0290302,-2.339231,-3.4061193,-0.028604068,-0.10480749,-0.36323264,28.375,29.75,28.8125,32.5625,35.0,36.125
0.23205489,1.0847008,0.5359965,-0.63234174,-0.0048904065,0.03106674,-0.17722234,-0.40096876,-0.36339208,0.06001193,-3.0781326,0.623112,0.00016167434,-0.10165249,0.047481067,-0.0014445554,0.009878453,-0.002916626,0.021696722,0.48586565,-1.3702565,1.8898801,-2.088374,-1.571576,2.4598055,-0.16616492,0.10354638,-0.12703414,0.030546721,-0.007686235,-0.18778318,0.13407528,0.11492168,-9.385271,0.84708,47.699425,-1.0051782,-2.4939713,-3.367291,-0.033153005,-0.10995182,-0.24888948,28.375,29.75,28.8125,32.5625,35.0,36.125
0.23405504,0.8260349,0.9494629,-0.6299634,-0.011062428,0.03067178,-0.17856172,-0.40117455,-0.36327928,0.059973773,-3.0780816,0.6230384,9.5209216e-05,-0.101358786,0.048198346,-0.0012660065,0.009418939,-0.0036553482,0.026550328,0.48550633,-1.369993,1.8896416,-2.0883257,-1.5715998,2.4594069,-0.1674915,0.10197356,-0.125753,0.03126212,-0.00695095,-0.19396523,0.22984336,0.019153614,-9.442732,0.81351066,47.651955,-1.1491528,-2.4245493,-3.5823884,-0.021697544,-0.08523806,-0.16922861,28.375,29.75,28.8125,32.5625,35.0,36.125
0.23605542,0.585243,0.83877724,-0.44078308,-0.012544836,0.028936042,-0.16882469,-0.401361,-0.36321607,0.05998528,-3.078137,0.62293655,9.8661236e-05,-0.10285963,0.04821788,-0.00059799274,0.008343329,-0.0035335456,0.022405261,0.48521823,-1.3698125,1.8893894,-2.0882776,-1.5715755,2.4590483,-0.16935074,0.10315161,-0.12903124,0.03275446,-0.006056196,-0.19168015,0.076614454,-0.076614454,-9.385271,0.80456203,47.66987,-1.0373573,-2.3953404,-3.4147685,-0.033571027,-0.119430855,-0.15936232,28.375,29.75,28.8125,32.5625,35.0,36.125
0.23805414,0.49668133,0.6493603,-0.48332497,0.004665365,0.012300319,-0.17042547,-0.401575,-0.36310238,0.059994623,-3.0781043,0.6228772,0.00010276301,-0.10408841,0.049556904,-0.0005433838,0.008815886,-0.004372377,0.011682252,0.48485804,-1.36962,1.8891143,-2.0881693,-1.5716118,2.4586554,-0.17260878,0.103763364,-0.13025878,0.034330476,-0.0060849143,-0.18421456,0.019153614,-0.038307227,-9.423578,0.85155696,47.693153,-0.9454231,-2.3737674,-3.4288764,-0.046551526,-0.1096821,-0.23652434,28.375,29.75,28.8125,32.5625,35.0,36.125
0.2400545,0.7161801,0.63306826,-0.73601395,-0.0025245806,0.020643242,-0.17029744,-0.40176505,-0.36301875,0.05997388,-3.078091,0.62276083,0.000121730736,-0.10558048,0.05032017,0.0009311165,0.008744048,-0.0019303723,0.0056416565,0.48457,-1.3693922,1.8888868,-2.0881565,-1.571648,2.4582965,-0.1744901,0.102271184,-0.13211231,0.035481423,-0.007162259,-0.18005258,0.0,0.019153614,-9.519346,0.86945957,47.664497,-0.8931241,-2.2739444,-3.40182,-0.053383585,-0.12306224,-0.3075195,28.375,29.75,28.8125,32.5625,35.0,36.125
0.2420541,0.25851265,0.21749224,-0.7172326,-0.010324841,0.032753576,-0.16723867,-0.40197286,-0.36290547,0.05996489,-3.0780435,0.6228473,3.4100907e-05,-0.10615329,0.050764237,-0.0009872545,0.010818667,-0.004903085,0.0028517768,0.48418656,-1.3691744,1.8886231,-2.0880492,-1.5716361,2.4579732,-0.17538516,0.10715731,-0.13365889,0.03574163,-0.0076293577,-0.178155,-0.11492168,0.038307227,-9.519346,0.83589023,47.635834,-0.9344142,-2.4723654,-3.3948998,-0.05362559,-0.1136771,-0.35195866,28.375,29.75,28.8125,32.5625,35.0,36.125
0.24405496,0.5078721,0.7550363,-0.65633243,-0.027028674,0.06941232,-0.17842267,-0.4021999,-0.36280027,0.059982654,-3.0780385,0.62286454,5.8957015e-05,-0.10627781,0.0516398,0.00025865788,0.010170987,-0.0050969985,0.0010286709,0.48381454,-1.3689833,1.8883356,-2.0879643,-1.571648,2.4576128,-0.17729726,0.104431264,-0.13389643,0.038568307,-0.0069612004,-0.17824616,-0.24899697,0.038307227,-9.557653,0.8537928,47.66539,-1.002181,-2.2714486,-3.4671192,-0.06418071,-0.107275024,-0.38367265,28.375,29.75,28.8125,32.5625,35.0,36.125
0.24605495,-0.79361033,-0.017234331,-0.9035712,-0.013008625,0.07012721,-0.1740804,-0.40241212,-0.3627094,0.05999256,-3.0780554,0.6227274,6.55819e-05,-0.10593582,0.051344614,-0.001564438,0.011736831,-0.009750729,0.007434005,0.48347968,-1.368777,1.888048,-2.08788,-1.5716594,2.4571903,-0.17689599,0.109280154,-0.13604,0.04069858,-0.0061918106,-0.1842505,-0.38307226,0.15322891,-9.615114,0.8090337,47.70211,-1.1261564,-2.3753605,-3.3951445,-0.08533344,-0.12977283,-0.35368097,28.375,29.75,28.8125,32.5625,35.0,36.125
0.24805419,-1.1799269,-0.044037547,-0.9923301,-0.01845295,0.08978842,-0.17569493,-0.40262657,-0.36262092,0.060007185,-3.0780609,0.62274003,4.93785e-05,-0.10552229,0.051134802,-0.0005480238,0.011589436,-0.01041407,0.017877124,0.4831326,-1.3685737,1.88775,-2.0877826,-1.5716475,2.4568505,-0.17636015,0.107965924,-0.137557,0.044038236,-0.0057610865,-0.19415864,-0.36391866,0.15322891,-9.768343,0.8314132,47.65912,-1.158052,-2.3021872,-3.4505765,-0.12928523,-0.15022855,-0.2972441,28.375,29.75,28.8125,32.5625,35.0,36.125
0.2500543,-1.202346,0.18387212,-0.73547345,-0.029872973,0.10151873,-0.18142226,-0.40282476,-0.3625102,0.059976965,-3.07801,0.6226258,-3.161729e-05,-0.10563806,0.051754612,-0.00093848474,0.013250261,-0.012334254,0.028396951,0.48278502,-1.3683208,1.8874978,-2.0876977,-1.5716718,2.4564383,-0.1770606,0.10932305,-0.13885581,0.046436716,-0.0063684955,-0.20537661,-0.36391866,0.1340753,-9.653421,0.94331104,47.67166,-1.1518607,-2.322369,-3.3893619,-0.20013037,-0.1516896,-0.15246692,28.375,29.75,28.8125,32.5625,35.0,36.125
0.2520541,-1.0755424,0.35412207,-0.65162706,-0.03830319,0.10767161,-0.18916906,-0.40304014,-0.36242744,0.059999265,-3.0780509,0.62245727,8.991462e-06,-0.10783905,0.05047946,0.00044033752,0.011604064,-0.007922143,0.033936147,0.4824618,-1.368128,1.8871983,-2.0876157,-1.5716838,2.4560049,-0.17641355,0.11064908,-0.14322047,0.04479629,-0.0069748955,-0.21026559,-0.51714754,0.1340753,-9.653421,0.87617236,47.692257,-1.2197194,-2.3880413,-3.2526822,-0.20587754,-0.13386449,-0.08365065,28.375,29.75,28.8125,32.5625,35.0,36.125
0.25405496,-1.1650077,-0.09592631,-0.56731343,-0.03256738,0.09906799,-0.1743876,-0.40327013,-0.36229137,0.059990264,-3.0779736,0.6224437,5.239809e-06,-0.10803446,0.051626887,-0.00035498964,0.01268271,-0.009891396,0.028912038,0.4820657,-1.3678994,1.8869241,-2.087519,-1.5717438,2.4556103,-0.17840287,0.1116475,-0.14281468,0.045625117,-0.007027946,-0.20723045,-0.6512228,0.15322891,-9.595961,0.9164598,47.668976,-1.198061,-2.3064573,-3.3092973,-0.20687404,-0.1437076,-0.06368558,28.375,29.75,28.8125,32.5625,35.0,36.125
0.2560544,-0.74781543,0.21840878,-0.58922166,-0.03163974,0.09972564,-0.1784971,-0.4034704,-0.36221033,0.059987266,-3.0779893,0.6223919,-7.599424e-05,-0.10960522,0.052498505,-0.00037396525,0.013141731,-0.010213694,0.01860243,0.48172963,-1.3676708,1.8866361,-2.087423,-1.5717081,2.45524,-0.18102044,0.113392964,-0.14512166,0.04669874,-0.007293845,-0.1995365,-0.61291564,0.095768064,-9.576807,0.8605109,47.63404,-1.1618955,-2.3665876,-3.1887374,-0.25268662,-0.14446774,-0.13789904,28.375,29.75,28.8125,32.5625,35.0,36.125
0.25805464,-0.51547533,0.4636273,-0.5372472,-0.021187581,0.0816912,-0.17990784,-0.40371212,-0.36209136,0.059999906,-3.0779607,0.62244666,-7.986856e-05,-0.110724136,0.05220436,0.00018911806,0.012872711,-0.008197632,0.010858775,0.48132285,-1.3674544,1.8863248,-2.0873158,-1.5717205,2.4548712,-0.18099006,0.11411812,-0.1471532,0.046098705,-0.007996399,-0.19175984,-0.49799395,0.11492168,-9.691729,0.8672237,47.666286,-1.3030975,-2.3877728,-3.1655664,-0.2680676,-0.16418065,-0.23673263,28.375,29.75,28.8125,32.5625,35.0,36.125
0.26005492,-0.30516583,0.24505493,-0.24942654,-0.018989809,0.07752181,-0.17159411,-0.40392303,-0.36197984,0.059993237,-3.077934,0.62236744,-0.00010360634,-0.111464046,0.051886857,-9.211895e-05,0.013019127,-0.0076159798,0.0039189155,0.48096317,-1.3672372,1.8860615,-2.0872319,-1.5717443,2.4544656,-0.18077761,0.116064206,-0.14866109,0.045214154,-0.008406165,-0.18460536,-0.47884035,0.1340753,-9.461885,0.84708,47.68062,-1.3751811,-2.340266,-3.1517966,-0.27956295,-0.124022976,-0.3697433,28.375,29.75,28.8125,32.5625,35.0,36.125
0.26205412,-0.24354294,0.033644415,-0.1805231,-0.010505786,0.082361795,-0.17669818,-0.40413484,-0.3619028,0.059992258,-3.0779405,0.62235075,-0.00012961395,-0.11252028,0.051905222,-0.0004553404,0.012405506,-0.0077640936,-0.00013973341,0.48063883,-1.3669963,1.8857597,-2.0871603,-1.5717324,2.4541302,-0.18203169,0.11811589,-0.15015237,0.04450167,-0.0078020566,-0.18180126,-0.4405331,0.13407528,-9.3661175,0.82694155,47.686886,-1.4369305,-2.4798996,-3.079963,-0.2746205,-0.1549409,-0.4509178,28.375,29.75,28.8125,32.5625,35.0,36.125
0.26405427,-0.17117818,0.74917364,-0.46869633,-0.006538463,0.07180566,-0.19024773,-0.40438783,-0.361791,0.060015596,-3.077936,0.6223484,-8.172174e-05,-0.11508969,0.052373134,0.00113556,0.010891101,-0.0045183767,0.0015862833,0.48024184,-1.3667803,1.8854269,-2.0870645,-1.5717562,2.4537325,-0.18488382,0.11779171,-0.15339872,0.044482686,-0.007970917,-0.18637805,-0.17238252,0.13407528,-9.385271,0.86945957,47.682407,-1.44208,-2.3855486,-3.1553721,-0.28469908,-0.15042047,-0.4827118,28.375,29.75,28.8125,32.5625,35.0,36.125
0.2660542,-0.5091393,0.42576644,-0.33794057,-0.0069959145,0.05257968,-0.1882997,-0.40462896,-0.36167708,0.060018003,-3.077885,0.622312,-1.5156577e-05,-0.1147348,0.05379281,-0.0011289048,0.012961313,-0.008099626,0.011613767,0.4798816,-1.366539,1.8851169,-2.086993,-1.5718282,2.4533563,-0.18674994,0.12038647,-0.15123037,0.04382363,-0.008165228,-0.1982716,-0.17238252,0.13407528,-9.404425,0.90750587,47.684196,-1.4101688,-2.7026627,-3.2399147,-0.30964002,-0.16123751,-0.3973484,28.375,29.75,28.8125,32.5625,35.0,36.125
0.26805496,-0.39737236,-0.34225738,0.10884094,-0.02062881,0.054009154,-0.17963363,-0.40486866,-0.36157864,0.060019184,-3.0779188,0.62223405,-1.252732e-05,-0.11605224,0.05439849,-0.00047226824,0.012550816,-0.0060323705,0.023739167,0.4794972,-1.3662993,1.884817,-2.0869458,-1.5718163,2.452919,-0.18845783,0.1199014,-0.15198979,0.043031257,-0.008773061,-0.21210337,-0.22984336,0.17238252,-9.251195,0.8493211,47.69763,-1.3362135,-2.345369,-3.2638984,-0.3114855,-0.14130323,-0.27632788,28.375,29.75,28.8125,32.5625,35.0,36.125
0.2700543,0.4108706,0.40932325,0.06409841,-0.03169757,0.057183184,-0.18580297,-0.40510306,-0.36146367,0.060013656,-3.0778885,0.6220917,-6.638271e-05,-0.11726331,0.055610877,-0.0008361455,0.012852902,-0.0068288874,0.027467128,0.47911206,-1.3660344,1.8844832,-2.0868142,-1.5718406,2.452449,-0.19151711,0.121131994,-0.1527424,0.04338324,-0.008698809,-0.21888988,-0.22984336,0.05746084,-9.11712,0.9030289,47.687782,-1.1651154,-2.5538177,-3.364546,-0.3070476,-0.14068562,-0.16002259,28.375,29.75,28.8125,32.5625,35.0,36.125
0.27205482,0.22838071,0.3035293,0.11600628,-0.016389962,0.047267325,-0.17617379,-0.40533367,-0.36137295,0.060011636,-3.0778942,0.6220166,-5.8361245e-05,-0.118503496,0.05615655,-0.0010102119,0.012598461,-0.0062490935,0.023458663,0.47876346,-1.3657815,1.8841718,-2.086754,-1.5718521,2.452053,-0.19340305,0.12233257,-0.15358719,0.04239293,-0.008746744,-0.2167667,-0.13407528,0.019153614,-9.136273,0.90750587,47.734352,-1.2310374,-2.416392,-3.287814,-0.3244503,-0.15575555,-0.15173943,28.375,29.75,28.8125,32.5625,35.0,36.125
0.27405438,0.16282158,1.004043,0.36727473,-0.017823098,0.042843323,-0.19348627,-0.4056016,-0.36124653,0.06003526,-3.077893,0.62208056,2.3790211e-05,-0.12078482,0.05679637,-0.0007209859,0.011749012,-0.0032193426,0.014287356,0.4783303,-1.3655772,1.8838605,-2.0866954,-1.5718769,2.4516602,-0.19598119,0.12327642,-0.15474896,0.039531212,-0.009384926,-0.21017168,-0.19153613,-0.1340753,-9.097966,0.84708,47.690468,-1.2029352,-2.4341266,-3.375568,-0.29744995,-0.1444934,-0.23704037,28.375,29.75,28.8125,32.5625,35.0,36.125
0.27605498,-0.17594793,0.5355864,0.47096145,0.016846588,0.031438846,-0.16942056,-0.4058321,-0.36113983,0.06002481,-3.0779183,0.62201166,-1.8594066e-05,-0.12250476,0.057239383,-0.00022534176,0.009845047,-0.0021671485,0.007571576,0.47793296,-1.3653368,1.8835858,-2.0866477,-1.5718521,2.4512167,-0.19887508,0.12371966,-0.15626927,0.0387999,-0.008185912,-0.2063519,-0.15322891,-0.15322891,-8.925584,0.83365434,47.67166,-1.0249795,-2.4223683,-3.3110955,-0.27739275,-0.16057643,-0.2920985,28.375,29.75,28.8125,32.5625,35.0,36.125
0.2780541,0.40465024,1.4640145,0.36593786,0.028417246,0.04427744,-0.18843277,-0.40608856,-0.36102477,0.06002788,-3.0778859,0.6219875,-2.5946322e-06,-0.123533174,0.058046646,-0.0020635026,0.010286288,-0.0046788906,0.0025431402,0.47753626,-1.3650708,1.8832392,-2.0865524,-1.5718879,2.4508092,-0.20149484,0.12786508,-0.15681902,0.037627447,-0.0074306726,-0.20394406,-0.19153614,-0.22984336,-9.002198,0.83365434,47.679718,-1.0416716,-2.494176,-3.3088422,-0.26721266,-0.16187176,-0.37852016,28.375,29.75,28.8125,32.5625,35.0,36.125
0.2800539,0.10933899,1.5262759,0.22512318,0.034839865,0.048390172,-0.18934134,-0.40632948,-0.36091885,0.060026538,-3.0778759,0.6219267,7.427054e-05,-0.12499516,0.05720421,0.0010232693,0.007896669,0.0007501118,0.0036909536,0.4771767,-1.3648319,1.8829507,-2.0865276,-1.5719365,2.4504132,-0.20102283,0.124511085,-0.1599771,0.038207717,-0.0078056734,-0.20461862,-0.22984336,-0.19153613,-9.097966,0.91198283,47.66271,-1.1427966,-2.3550327,-3.2651892,-0.24751718,-0.18168959,-0.40988326,28.375,29.75,28.8125,32.5625,35.0,36.125
0.28205442,0.032748315,1.1600755,0.299775,0.027108887,0.05848176,-0.18615128,-0.40656745,-0.3608062,0.060020752,-3.0778706,0.6219,-3.9336282e-05,-0.1264972,0.057504546,0.0010858101,0.0073924726,0.0012483398,0.011431483,0.47675627,-1.3645669,1.8826169,-2.0863965,-1.5719002,2.449977,-0.20285389,0.12617025,-0.16208291,0.03797282,-0.0076148487,-0.2141892,-0.1340753,-0.15322891,-9.174581,0.8605109,47.668976,-1.0726342,-2.3766062,-3.4006271,-0.25690103,-0.17464477,-0.3435395,28.375,29.75,28.8125,32.5625,35.0,36.125
0.28405416,-0.10664487,0.7750924,0.062596925,0.008935288,0.057942897,-0.1879199,-0.40682358,-0.36069265,0.060045063,-3.077897,0.621802,-2.2836699e-07,-0.12653314,0.05745791,0.001168474,0.0066486746,0.0015022578,0.02398163,0.4763481,-1.364351,1.8822817,-2.086301,-1.5719117,2.4495044,-0.20302328,0.12588961,-0.16183308,0.037414644,-0.0070788963,-0.2269104,-0.34476507,-0.076614454,-9.174581,0.83813137,47.687782,-1.1723881,-2.185718,-3.3045626,-0.23387416,-0.19136688,-0.24319623,28.375,29.75,28.8125,32.5625,35.0,36.125
0.28605416,-1.1028174,0.5710217,-0.11272086,-0.015851106,0.05827306,-0.19206801,-0.40707767,-0.3605266,0.060008593,-3.0778155,0.62180054,-6.860749e-05,-0.12716308,0.05617669,0.002355578,0.0055722473,0.0041947505,0.03275713,0.47586876,-1.3640747,1.8820175,-2.0862296,-1.5719479,2.4490347,-0.20111477,0.12588319,-0.16450383,0.03718683,-0.0073887887,-0.23377512,-0.47884035,-0.019153614,-9.251195,0.8247004,47.696735,-1.2802743,-2.203358,-3.237558,-0.22285968,-0.18383658,-0.118227206,28.375,29.75,28.8125,32.5625,35.0,36.125
0.28805476,-0.5792636,-0.032635305,-0.2022028,-0.027702473,0.097605444,-0.18824555,-0.40732825,-0.3604293,0.060021512,-3.0778122,0.6216671,-3.66657e-05,-0.12743007,0.055889376,0.0022336924,0.0065091425,0.0038750465,0.029952178,0.47550872,-1.3638102,1.881647,-2.0861213,-1.5719846,2.448592,-0.20033507,0.1275373,-0.16646689,0.03820502,-0.00807367,-0.2301879,-0.59376204,0.05746084,-9.308656,0.8851263,47.684196,-1.4201798,-2.1785297,-3.1516013,-0.2253691,-0.19742355,-0.10409765,28.375,29.75,28.8125,32.5625,35.0,36.125
0.29005402,-0.85601026,0.27187485,-0.49216557,-0.028751466,0.09803581,-0.19397725,-0.40758225,-0.3603256,0.060044155,-3.077844,0.6215828,-1.1117899e-05,-0.12900412,0.056335423,0.0025019576,0.006835134,0.0050145066,0.01874692,0.47511265,-1.3635815,1.8812999,-2.086025,-1.5719846,2.4481394,-0.20185257,0.12893522,-0.16879313,0.03828142,-0.008874642,-0.2204973,-0.53630114,0.095768064,-9.461885,0.8672237,47.658226,-1.3875844,-2.193255,-3.2434578,-0.22328517,-0.19768807,-0.1964435,28.375,29.75,28.8125,32.5625,35.0,36.125
0.29205444,-0.97004634,-0.54855335,-0.9913171,-0.032316715,0.0987697,-0.18051496,-0.4078242,-0.36019525,0.060019176,-3.0777826,0.6215168,-6.695308e-05,-0.12928121,0.057363026,0.0012656079,0.0074385544,0.0028865696,0.008267839,0.4747043,-1.3632926,1.880989,-2.08593,-1.5720204,2.4476979,-0.2039818,0.13069159,-0.16804853,0.037946884,-0.00844435,-0.21214797,-0.47884035,0.1340753,-9.557653,0.86945957,47.65643,-1.4661632,-2.2119384,-3.313365,-0.20393497,-0.196111,-0.33243957,28.375,29.75,28.8125,32.5625,35.0,36.125
0.29405472,-0.74184483,-0.5947838,-1.0847944,-0.046842862,0.090723954,-0.18611006,-0.40808362,-0.36007476,0.06000906,-3.0777564,0.62155634,-7.473765e-05,-0.13133925,0.058270026,0.001574113,0.006712501,0.0043469784,-0.0022696115,0.47428295,-1.3630158,1.8806666,-2.08587,-1.5720323,2.4473047,-0.20716807,0.13159475,-0.16965753,0.037025806,-0.008466465,-0.20479588,-0.5363012,0.2681506,-9.844957,0.8784135,47.666286,-1.378964,-2.1486409,-3.3338935,-0.20088507,-0.20092621,-0.4280384,28.375,29.75,28.8125,32.5625,35.0,36.125
0.29605445,-0.6426667,-0.49686846,-1.091806,-0.06009646,0.075201645,-0.18368462,-0.40834776,-0.35996145,0.060011517,-3.077749,0.62155354,-9.169245e-05,-0.13292174,0.059350736,0.0009900006,0.007935469,0.0047130776,-0.0043513756,0.4738628,-1.3627387,1.8803076,-2.0857751,-1.5720328,2.446884,-0.2094662,0.13383564,-0.17086907,0.036229804,-0.0097288145,-0.2050081,-0.3256114,0.2681506,-9.825804,0.86498255,47.63404,-1.3913195,-2.2367668,-3.2628622,-0.1959995,-0.18597925,-0.501266,28.375,29.75,28.8125,32.5625,35.0,36.125
0.2980539,-0.39300698,-1.0026423,-1.2791924,-0.0547085,0.061625533,-0.18207456,-0.4086185,-0.3598541,0.060009796,-3.0777693,0.6215118,-4.0484414e-05,-0.13375443,0.059735503,-0.000453922,0.008642581,0.003037743,0.006560494,0.47345445,-1.3624611,1.8799733,-2.0857518,-1.5720452,2.4464471,-0.21078998,0.13755485,-0.17187448,0.035306793,-0.009604767,-0.21724346,-0.15322891,0.22984336,-9.844957,0.88289046,47.67345,-1.355345,-2.3129752,-3.334762,-0.1571407,-0.18858016,-0.4712996,28.375,29.75,28.8125,32.5625,35.0,36.125
0.30005437,-0.11514699,-0.99138707,-1.3080013,-0.049477626,0.053355783,-0.19249062,-0.4088965,-0.35970566,0.060006827,-3.0777183,0.6215121,-5.1043502e-05,-0.13534279,0.060686134,0.0012627917,0.007623829,0.0057298904,0.01925405,0.4729853,-1.362186,1.8796257,-2.0856435,-1.572081,2.4459848,-0.21342476,0.13525227,-0.17321678,0.036059715,-0.009950846,-0.2325706,-0.095768064,0.19153613,-9.940725,0.8918391,47.664497,-1.2569921,-2.2791305,-3.3309379,-0.14866579,-0.1722266,-0.30076066,28.375,29.75,28.8125,32.5625,35.0,36.125
0.302054,-0.4051668,-0.5615643,-1.0427628,-0.05004686,0.039564013,-0.1812948,-0.40919378,-0.35960093,0.06003847,-3.0777736,0.6213294,0.00013271907,-0.13568076,0.062077664,-0.00037101004,0.009547754,0.002497274,0.025950715,0.47258824,-1.3619324,1.8792442,-2.0856187,-1.572141,2.445467,-0.21578798,0.13809742,-0.173126,0.036848404,-0.010174858,-0.24163067,-0.114921674,0.15322891,-9.787497,0.9701675,47.70838,-1.1092248,-2.4496937,-3.348545,-0.13613918,-0.17611273,-0.17285532,28.375,29.75,28.8125,32.5625,35.0,36.125
0.30405438,-0.11319582,-0.36200485,-1.1697797,-0.029537706,0.036650352,-0.17526174,-0.4094354,-0.35946846,0.06001204,-3.0777295,0.6212824,2.575892e-05,-0.1368134,0.06279005,-0.0013594824,0.009450621,-9.480537e-06,0.020801283,0.47215575,-1.3616431,1.8789328,-2.0855114,-1.5721406,2.445011,-0.21859322,0.14132184,-0.17496924,0.037650447,-0.008969392,-0.23928769,-0.15322891,0.15322891,-9.825804,0.8493211,47.693153,-1.0121256,-2.4916306,-3.5058682,-0.11069705,-0.18765342,-0.16102695,28.375,29.75,28.8125,32.5625,35.0,36.125
0.30605423,-0.059324525,0.14826247,-1.0953453,-0.017891925,0.031674568,-0.18095809,-0.4097287,-0.3593508,0.06001483,-3.0777473,0.62129146,9.0725596e-05,-0.13673769,0.06355449,-0.0025126582,0.010597302,-0.0028426307,0.012140757,0.47171134,-1.3613541,1.8785743,-2.0854867,-1.5721525,2.44457,-0.21985105,0.14333452,-0.17505653,0.03877289,-0.008684383,-0.2318859,-0.22984336,0.095768064,-9.710882,0.8224646,47.65106,-0.9912564,-2.5064068,-3.474325,-0.10795337,-0.18998024,-0.23259759,28.375,29.75,28.8125,32.5625,35.0,36.125
0.30805397,0.33797482,0.53361195,-1.0652457,-0.009412816,0.0441465,-0.18477689,-0.4100288,-0.35923177,0.060050774,-3.0777714,0.6212617,0.00018309918,-0.13763502,0.06382456,-0.0023194128,0.010408033,-0.0026851709,0.005620454,0.4712664,-1.3611014,1.8781675,-2.0853903,-1.5721763,2.4441037,-0.2210061,0.1441983,-0.17668605,0.03931072,-0.008574108,-0.22652078,-0.22984336,-0.05746084,-9.730036,0.842603,47.689575,-0.97724634,-2.5434234,-3.4363933,-0.09955131,-0.20464832,-0.33907673,28.375,29.75,28.8125,32.5625,35.0,36.125
0.3100547,-0.39810517,0.083451614,-0.98768055,0.011880903,0.037953034,-0.17770398,-0.41028696,-0.35910478,0.060020063,-3.0777695,0.6212037,0.00012403214,-0.13778755,0.06417535,-0.0034790125,0.011063757,-0.005045515,0.0027037878,0.4708225,-1.3608001,1.8778676,-2.0853546,-1.5721644,2.443624,-0.22189614,0.1467872,-0.17729786,0.039735004,-0.008097621,-0.22449452,-0.22984336,-0.076614454,-9.749189,0.91421866,47.71286,-0.99350667,-2.699389,-3.5220609,-0.075445324,-0.20282412,-0.3830549,28.375,29.75,28.8125,32.5625,35.0,36.125
0.3120549,-0.63809997,-0.024623994,-0.53603584,0.008499958,0.053991847,-0.18118031,-0.4105941,-0.35898143,0.06005991,-3.07778,0.6211239,0.00023085499,-0.13801877,0.06272377,-0.0014251593,0.008399122,-0.001971988,0.010103284,0.4703794,-1.3605379,1.8774351,-2.0852349,-1.5722121,2.44313,-0.22010714,0.14448103,-0.17930506,0.04007516,-0.007117326,-0.23010758,-0.2873042,-0.095768064,-9.461885,0.85155696,47.698532,-1.2117913,-2.3472214,-3.4231606,-0.06986059,-0.23268153,-0.37747604,28.375,29.75,28.8125,32.5625,35.0,36.125
0.31405404,-0.41165465,0.52084213,-0.244916,0.003258073,0.080183305,-0.19030632,-0.41087908,-0.35889378,0.06008116,-3.0778751,0.6210385,0.00031770783,-0.1387189,0.0623015,-0.001218427,0.008521383,-0.002032422,0.023486909,0.46997163,-1.3602736,1.8770665,-2.085222,-1.5721878,2.442657,-0.21981296,0.14620745,-0.18215851,0.041295845,-0.0071952357,-0.24319632,-0.24899697,-0.15322891,-9.346964,0.8873621,47.690468,-1.3134972,-2.5068238,-3.435596,-0.05672867,-0.22786067,-0.2759945,28.375,29.75,28.8125,32.5625,35.0,36.125
0.31605414,-0.82928526,0.7134653,-0.27929989,0.022481006,0.06648044,-0.18437478,-0.4111417,-0.3587488,0.060063355,-3.077823,0.62083083,0.0002855824,-0.13997565,0.06292657,-0.0013305678,0.009523284,-0.0023725708,0.030897142,0.46953887,-1.359973,1.8767189,-2.0851023,-1.5722483,2.4421015,-0.22134967,0.14822477,-0.18463458,0.042483103,-0.007966134,-0.25213987,-0.19153613,-0.21068975,-9.461885,0.8985519,47.679718,-1.3640237,-2.44298,-3.3523006,-0.05357763,-0.2618945,-0.15750279,28.375,29.75,28.8125,32.5625,35.0,36.125
0.31805485,-0.6995371,0.784445,-0.4297889,0.033574644,0.051115684,-0.17090826,-0.41141126,-0.35861528,0.060047697,-3.0778089,0.6208284,0.00025455462,-0.14186235,0.06281431,7.4602955e-05,0.008171664,0.000780685,0.029327419,0.4690826,-1.3596851,1.8763951,-2.0850427,-1.5722483,2.4416456,-0.22250275,0.14803462,-0.1875684,0.042181645,-0.0082016485,-0.2517215,-0.21068975,-0.1340753,-9.32781,0.90750587,47.687782,-1.3501701,-2.5080183,-3.2087471,-0.036707744,-0.23474142,-0.10090745,28.375,29.75,28.8125,32.5625,35.0,36.125
0.32005462,0.1727355,0.8135721,-0.18374987,0.01905643,0.046594672,-0.17845652,-0.41169196,-0.35851333,0.06006133,-3.0778468,0.62076473,0.0002705947,-0.14258856,0.06275757,0.00092719484,0.00789676,0.002322023,0.020286504,0.4686628,-1.3593976,1.8759998,-2.0849588,-1.5722364,2.4411814,-0.22262025,0.14764935,-0.18919918,0.042713318,-0.008641609,-0.24279678,-0.38307226,-0.019153614,-9.212888,0.8918391,47.66987,-1.4528258,-2.3688688,-3.205677,-0.011396267,-0.2508684,-0.16667643,28.375,29.75,28.8125,32.5625,35.0,36.125
0.32205406,-0.043405622,0.35631484,-0.13457194,0.01564964,0.03903062,-0.17540173,-0.41202113,-0.3583564,0.06007319,-3.0778303,0.6208069,0.00037391516,-0.14373384,0.06386329,0.0014095017,0.008524426,0.0027634564,0.007683987,0.4681461,-1.3591099,1.875616,-2.0849102,-1.5722846,2.4406934,-0.22484793,0.14761218,-0.19058317,0.0440268,-0.009380664,-0.23242025,-0.5363012,0.11492168,-9.174581,0.8560339,47.71554,-1.4101744,-2.1919754,-3.2243073,0.004365515,-0.22886771,-0.2988702,28.375,29.75,28.8125,32.5625,35.0,36.125
0.3240547,-0.5517783,0.22856376,-0.5101827,0.010381516,0.021754231,-0.17965302,-0.41228727,-0.3582319,0.060084403,-3.0778127,0.6207876,0.00030055724,-0.14401147,0.064634316,0.0011889081,0.00991988,0.0009838112,-0.0012493881,0.46770176,-1.3588339,1.8752207,-2.0847418,-1.5722731,2.4402394,-0.22597621,0.1487303,-0.1920426,0.046598207,-0.009825622,-0.22461314,-0.30645782,0.076614454,-9.232041,0.9254084,47.68599,-1.4238596,-2.2526288,-3.255178,0.0030802079,-0.23075132,-0.4442885,28.375,29.75,28.8125,32.5625,35.0,36.125
0.32605445,-0.20142101,0.54796237,-0.61235225,-0.013030288,0.035564188,-0.19154511,-0.4125532,-0.35809475,0.060081217,-3.077754,0.62068015,0.00029387785,-0.14394033,0.06556991,-0.0003119881,0.011962718,-0.0031144912,-0.0020093657,0.4672803,-1.358545,1.8748506,-2.0846093,-1.5723332,2.4397585,-0.2273695,0.15184969,-0.19295627,0.0489533,-0.009813494,-0.22524542,-0.3256114,0.095768064,-9.308656,0.89631605,47.694946,-1.3736789,-2.1685774,-3.2724965,-0.02888941,-0.24104774,-0.5212865,28.375,29.75,28.8125,32.5625,35.0,36.125
0.32805458,-0.46759772,-0.3546784,-0.3350479,-0.024630828,0.064403094,-0.18324248,-0.41286656,-0.3579771,0.06010101,-3.077778,0.62073374,0.00029840818,-0.14517541,0.06753224,0.0013592285,0.011985711,-0.0016204197,0.0071669337,0.46680003,-1.3582344,1.8744076,-2.084501,-1.5723094,2.439309,-0.23113555,0.14854778,-0.19335148,0.051309917,-0.010513064,-0.2381869,-0.4213795,0.17238252,-9.270349,0.88960326,47.658226,-1.1873568,-2.1569743,-3.1530347,-0.048300877,-0.22759336,-0.4532357,28.375,29.75,28.8125,32.5625,35.0,36.125
0.33005425,-0.71592623,-0.03476624,-0.20735,-0.029209176,0.08619133,-0.18647482,-0.4131528,-0.3578416,0.06009142,-3.077754,0.62068474,0.00028977022,-0.14650384,0.06932104,0.0017024943,0.01174755,-0.0035125576,0.017935399,0.46634242,-1.3579227,1.8740352,-2.0844162,-1.5723332,2.438824,-0.23577124,0.14862438,-0.19496071,0.054387145,-0.00947038,-0.25359312,-0.2873042,0.21068975,-9.212888,0.8314132,47.66808,-1.0878928,-2.1139274,-3.2175684,-0.08770721,-0.24578908,-0.3091571,28.375,29.75,28.8125,32.5625,35.0,36.125
0.3320547,-1.3870642,0.071574464,-0.45436463,-0.008321381,0.07859519,-0.18143848,-0.41344342,-0.35770324,0.060096134,-3.0777686,0.62056994,0.00026882524,-0.14739534,0.070225805,0.0014822275,0.011870825,-0.005501315,0.021934217,0.46586168,-1.3576345,1.8736533,-2.0843074,-1.5723327,2.4382699,-0.23837447,0.15014851,-0.19681925,0.0565364,-0.00870083,-0.26019627,-0.19153614,0.038307227,-9.32781,0.90750587,47.677036,-1.0098915,-2.0782003,-3.3579407,-0.10830392,-0.26913103,-0.18297264,28.375,29.75,28.8125,32.5625,35.0,36.125
0.33405426,-0.43688405,0.4307454,-0.48264372,-0.0065874606,0.082185976,-0.18014334,-0.4137407,-0.35755518,0.060096845,-3.077739,0.6205118,0.0002759144,-0.14807071,0.07027643,0.0015582308,0.012032989,-0.006052758,0.015002692,0.46538138,-1.3573344,1.8732661,-2.0841997,-1.5723685,2.4377573,-0.23894316,0.15159023,-0.19907932,0.057917245,-0.008603623,-0.25383264,-0.34476504,-0.038307227,-9.346964,0.8717007,47.687782,-1.02341,-2.0248928,-3.166471,-0.13080607,-0.27954596,-0.23130175,28.375,29.75,28.8125,32.5625,35.0,36.125
0.33605418,-0.3596391,0.509093,-0.16068,-0.0035427692,0.069875225,-0.17685322,-0.41404012,-0.35743117,0.06009852,-3.0777338,0.620475,0.00027971566,-0.14779189,0.07039687,0.0010541088,0.013549449,-0.0075356783,0.008989961,0.4649257,-1.3570099,1.8728498,-2.0841029,-1.5723809,2.4372795,-0.23833513,0.1529999,-0.20002484,0.05946527,-0.009291911,-0.24720971,-0.5554548,-0.05746084,-8.90643,0.9030289,47.683304,-1.0796145,-1.986928,-3.2378755,-0.14836228,-0.26984078,-0.32414517,28.375,29.75,28.8125,32.5625,35.0,36.125
0.3380538,-0.11400282,0.7530324,-0.4794007,0.028087098,0.048562367,-0.1761369,-0.41432348,-0.35728595,0.060088985,-3.077685,0.6203687,0.00026171043,-0.14596501,0.07052297,-0.0017019706,0.016728817,-0.014260082,0.0075344904,0.46447015,-1.3566964,1.8724669,-2.0839827,-1.5724291,2.436764,-0.23695627,0.15751356,-0.19986895,0.062220357,-0.009130675,-0.24437493,-0.34476504,-0.11492168,-9.155427,0.900793,47.683304,-1.2652528,-2.1732597,-3.3511748,-0.18632543,-0.2804848,-0.39415857,28.375,29.75,28.8125,32.5625,35.0,36.125
0.34005404,-0.032085933,0.97134906,-0.9685203,0.04544716,0.0207777,-0.17920636,-0.4146403,-0.35714033,0.060101524,-3.0776582,0.62036014,0.0002935257,-0.14762774,0.07082179,-0.0012000717,0.016164608,-0.011814036,0.010991914,0.46397835,-1.356385,1.8720363,-2.083863,-1.5724648,2.4362705,-0.23833416,0.15812525,-0.20145302,0.060733948,-0.009743134,-0.24920805,-0.11492168,-0.19153613,-9.461885,0.8672237,47.677036,-1.2628528,-2.0220087,-3.4023523,-0.1933944,-0.2809285,-0.39692074,28.375,29.75,28.8125,32.5625,35.0,36.125
0.3420543,0.30222207,0.90209955,-0.48046738,0.016823055,0.03237859,-0.18765071,-0.41490275,-0.35699403,0.060082216,-3.077616,0.6203057,0.00018733356,-0.1480377,0.070569366,-0.0012293058,0.017021138,-0.012230642,0.024286391,0.46351016,-1.3560843,1.8716882,-2.083731,-1.5724653,2.4357738,-0.237739,0.1598967,-0.20387475,0.06211602,-0.010369622,-0.26190394,-0.13407528,-0.21068975,-9.346964,0.8806493,47.66808,-1.2978863,-2.2345295,-3.3664832,-0.21864676,-0.26808167,-0.30935913,28.375,29.75,28.8125,32.5625,35.0,36.125
0.3440537,-0.2582249,0.4769691,-0.46586612,0.015087445,0.022197504,-0.17088966,-0.4152261,-0.35687032,0.060099103,-3.0776505,0.6203458,0.0001751914,-0.14664161,0.070989184,-0.0029751759,0.019334525,-0.018269189,0.0350688,0.46300632,-1.3557596,1.8712338,-2.0836217,-1.5724291,2.4352908,-0.23747566,0.16282776,-0.20439662,0.06612766,-0.009750442,-0.27242452,-0.22984336,-0.076614454,-9.212888,0.8985519,47.653748,-1.443268,-2.3323684,-3.384511,-0.29622552,-0.28487864,-0.15397793,28.375,29.75,28.8125,32.5625,35.0,36.125
0.34605378,0.25790668,0.6620031,-0.7045674,0.011045523,0.04917768,-0.18367095,-0.41551566,-0.35670966,0.060093105,-3.0775814,0.6201222,0.00019147282,-0.14827162,0.07203376,-0.0033781887,0.019316614,-0.01775749,0.032591157,0.4625498,-1.3554473,1.870839,-2.0834792,-1.5725249,2.4347038,-0.24031797,0.16447404,-0.20521183,0.064800784,-0.0099957865,-0.27278748,-0.19153613,-0.095768064,-9.32781,0.88960326,47.655537,-1.405846,-2.3570466,-3.4268436,-0.32771012,-0.27855352,-0.121732585,28.375,29.75,28.8125,32.5625,35.0,36.125
0.3480549,0.37166098,1.0386418,-0.6405289,-0.027366867,0.06798876,-0.18465742,-0.4158052,-0.3565672,0.0600969,-3.0775537,0.6199884,0.00014155009,-0.14991665,0.073265195,-0.004000894,0.01975322,-0.018290414,0.021524802,0.4620803,-1.3551346,1.8704156,-2.0833113,-1.5725487,2.4341545,-0.2435228,0.16680232,-0.20658897,0.06452536,-0.010169664,-0.26492414,-0.076614454,0.038307227,-9.3661175,0.8806493,47.681515,-1.3879242,-2.4742029,-3.287251,-0.31220078,-0.29438272,-0.18683791,28.375,29.75,28.8125,32.5625,35.0,36.125
0.35005447,0.045169596,0.2621083,-0.6507272,-0.035105318,0.057239138,-0.18211867,-0.41609314,-0.3564161,0.06007467,-3.0775025,0.6199853,5.1340144e-06,-0.1511839,0.073105775,-0.0033100299,0.01863848,-0.016552899,0.009128972,0.46157604,-1.3547872,1.8700122,-2.0831563,-1.5725368,2.433655,-0.2442889,0.16728543,-0.20870116,0.06412085,-0.009973821,-0.25329325,-0.095768064,0.05746084,-9.461885,0.91198283,47.703007,-1.3165464,-2.3290327,-3.2734122,-0.34294945,-0.2823295,-0.32546353,28.375,29.75,28.8125,32.5625,35.0,36.125
0.3520542,-0.06422024,-0.38725415,-0.4709087,-0.030942252,0.05369261,-0.16968198,-0.4163951,-0.35624507,0.060059287,-3.0774035,0.6200489,-1.3821933e-05,-0.15382233,0.074691035,-0.0040342435,0.018928094,-0.015544838,-0.0031736798,0.46107098,-1.3544624,1.8696283,-2.0830367,-1.5725974,2.4332025,-0.24857402,0.1701795,-0.21008052,0.061829794,-0.0107055325,-0.24527204,-0.15322891,0.11492168,-9.251195,0.95002913,47.65912,-1.250588,-2.4323974,-3.3980532,-0.3481117,-0.28996664,-0.45547235,28.375,29.75,28.8125,32.5625,35.0,36.125
0.35405448,0.11176862,0.19389199,-0.6277484,-0.04871748,0.043942746,-0.1854166,-0.41673845,-0.35611525,0.0600902,-3.0774584,0.6201138,2.5482905e-05,-0.15669674,0.07464246,-0.0015341089,0.0153394155,-0.008700455,-0.00028742224,0.46054208,-1.3541516,1.869162,-2.0829427,-1.5725616,2.4327073,-0.25081244,0.16775975,-0.21215451,0.058591112,-0.010548618,-0.2503974,-0.34476504,0.19153613,-9.289503,0.86498255,47.655537,-1.1393557,-2.1771388,-3.4282131,-0.33149445,-0.2870841,-0.50123537,28.375,29.75,28.8125,32.5625,35.0,36.125
0.3560543,-0.3298099,-0.83786315,-0.72709525,-0.03154101,0.056728825,-0.18106194,-0.41705203,-0.35596934,0.060105104,-3.0774465,0.62002707,8.479057e-05,-0.1577881,0.07371679,-0.0010830939,0.012965217,-0.0058313664,0.015269762,0.4600621,-1.3538519,1.8687423,-2.082836,-1.5726088,2.432175,-0.25050202,0.16830528,-0.21315895,0.055377346,-0.009729528,-0.26564622,-0.22984336,0.2681506,-9.481039,0.9097417,47.64837,-1.1542412,-2.2264903,-3.500946,-0.2957703,-0.2989477,-0.3730966,28.375,29.75,28.8125,32.5625,35.0,36.125
0.35805458,-0.7435441,-0.54565614,-0.44319978,-0.05833861,0.08053517,-0.18846828,-0.41733712,-0.35581255,0.06005566,-3.0773666,0.6198697,-4.624819e-05,-0.15930718,0.074388854,-0.0005546768,0.013251389,-0.004477436,0.026257325,0.45958152,-1.3534557,1.8683466,-2.0827043,-1.5726455,2.4316065,-0.2521895,0.16893964,-0.2152631,0.05572608,-0.010649784,-0.27831665,-0.2681506,0.22984336,-9.3661175,0.9186956,47.687782,-1.1295897,-2.1631901,-3.4703405,-0.2995237,-0.30366814,-0.21410437,28.375,29.75,28.8125,32.5625,35.0,36.125
0.36005422,-0.8908478,-0.7636648,-0.47105017,-0.060408223,0.10926845,-0.17238261,-0.41767725,-0.35565624,0.0600628,-3.0773468,0.6198869,-5.3326305e-05,-0.16210945,0.07478813,-0.00011899964,0.0106744515,-0.0010597555,0.023099843,0.45904067,-1.3531076,1.8678807,-2.0825741,-1.572657,2.4310791,-0.2554886,0.17019305,-0.21697336,0.051965773,-0.009875564,-0.27845964,-0.5554548,0.13407528,-9.404425,0.8940802,47.677036,-1.0660946,-2.2287705,-3.4242492,-0.27298665,-0.30541462,-0.18254414,28.375,29.75,28.8125,32.5625,35.0,36.125
0.3620546,-1.3016193,-0.59302956,-0.76562846,-0.05194114,0.10918775,-0.16589923,-0.41797715,-0.35552445,0.060063515,-3.077379,0.6197834,-6.523881e-05,-0.16353771,0.07384775,0.00082465226,0.008235858,0.0024070865,0.015741684,0.45856082,-1.352796,1.867484,-2.0824907,-1.5726451,2.4305308,-0.25532562,0.17045869,-0.21892454,0.049474113,-0.0092245545,-0.2709397,-0.6512228,0.24899697,-9.404425,0.8179876,47.684196,-1.1381307,-2.1864667,-3.3241882,-0.24844018,-0.32554027,-0.27372125,28.375,29.75,28.8125,32.5625,35.0,36.125
0.36405405,-1.3507776,-0.33309618,-0.5223208,-0.051781233,0.109529644,-0.1739553,-0.41831207,-0.3553729,0.060061462,-3.0773544,0.61974156,-0.000104002516,-0.16415091,0.07268481,0.0009932345,0.0071417866,0.0039621955,0.01146743,0.45803332,-1.3524231,1.8670057,-2.0823472,-1.572657,2.4299805,-0.25386435,0.17201784,-0.22092669,0.04804088,-0.008940926,-0.26520383,-0.6895301,0.15322891,-9.519346,0.86945957,47.653748,-1.2521911,-2.3186443,-3.3770025,-0.21091895,-0.3274613,-0.35869637,28.375,29.75,28.8125,32.5625,35.0,36.125
0.36605418,-0.9407846,-0.12262272,-0.73742807,-0.043631054,0.11128897,-0.17266731,-0.4186227,-0.3552347,0.06005787,-3.0773628,0.61966574,-0.0001218697,-0.16463725,0.07253982,0.00036812664,0.0082424665,0.0028813856,0.011147617,0.45754173,-1.3520865,1.8665856,-2.0822513,-1.572657,2.4294407,-0.25353587,0.1749065,-0.22325228,0.04893298,-0.009456022,-0.26455277,-0.6512228,0.15322891,-9.423578,0.91421866,47.65106,-1.2928834,-2.242744,-3.5015144,-0.20549023,-0.35099298,-0.42158303,28.375,29.75,28.8125,32.5625,35.0,36.125
0.3680541,-0.59250563,0.50823027,-0.95380723,-0.02930126,0.107444845,-0.17752755,-0.4189867,-0.35506552,0.06006418,-3.0773373,0.6196328,-3.594855e-05,-0.16569217,0.07138241,0.0013036514,0.0062106308,0.006077103,0.024424838,0.45699042,-1.3517272,1.8661183,-2.0821683,-1.5727171,2.4288723,-0.25250122,0.17516053,-0.22528176,0.046898182,-0.009064793,-0.27679613,-0.45968673,0.019153614,-9.461885,0.9992599,47.66271,-1.3341112,-2.1828783,-3.478333,-0.18392025,-0.34051794,-0.33186272,28.375,29.75,28.8125,32.5625,35.0,36.125
0.37005466,-0.36278346,0.71884507,-0.884764,-0.013490617,0.096981585,-0.17621493,-0.4193031,-0.35493895,0.06006755,-3.0773585,0.6195552,1.9058239e-06,-0.16721117,0.07213956,0.0006202252,0.006315775,0.0070213717,0.035020117,0.45652157,-1.3513906,1.8656877,-2.0820978,-1.572729,2.4283526,-0.25453493,0.17725663,-0.225769,0.04445818,-0.009593644,-0.28942332,-0.4213795,0.019153614,-9.481039,0.95897776,47.694946,-1.5011476,-2.237101,-3.4394405,-0.119641036,-0.35472655,-0.18536028,28.375,29.75,28.8125,32.5625,35.0,36.125
0.37205413,-0.13604762,1.4132019,-0.43640077,-0.018925011,0.09854772,-0.18901064,-0.4196798,-0.35477555,0.060081117,-3.0773466,0.61957407,7.609233e-05,-0.16829875,0.07428455,-0.00013515953,0.008395025,0.005236506,0.03193609,0.45595607,-1.3510184,1.8651851,-2.082001,-1.5727657,2.4278007,-0.25817966,0.1787933,-0.22631115,0.045969218,-0.010661288,-0.28998098,-0.51714754,-0.095768064,-9.461885,0.9254084,47.677036,-1.465042,-2.286872,-3.4364915,-0.08755061,-0.35052192,-0.1328465,28.375,29.75,28.8125,32.5625,35.0,36.125
0.37405446,-0.2320276,1.1822394,-0.6190282,0.0011381548,0.083053485,-0.16599779,-0.4200132,-0.35461274,0.060080014,-3.077335,0.6195028,0.00011066094,-0.16930065,0.075280905,0.0002553118,0.00783765,0.0048417747,0.020372042,0.4554271,-1.3506827,1.8647627,-2.081917,-1.572801,2.427229,-0.26091084,0.17874299,-0.22749421,0.047312204,-0.009972114,-0.28114995,-0.47884035,-0.05746084,-9.423578,0.9186956,47.664497,-1.2591878,-2.251754,-3.3922305,-0.07596486,-0.35877264,-0.21411756,28.375,29.75,28.8125,32.5625,35.0,36.125
0.37605402,0.49626368,1.4099505,-0.65017164,0.013412593,0.06577574,-0.17542715,-0.42033213,-0.35447916,0.060045104,-3.0773554,0.61937785,3.47373e-05,-0.16983669,0.075213715,-0.0001669036,0.00864622,0.00404068,0.008951825,0.45492342,-1.3502743,1.864334,-2.081857,-1.5727767,2.4266448,-0.26082754,0.18113066,-0.2297015,0.048233755,-0.010342492,-0.26964396,-0.28730422,-0.038307227,-9.519346,0.90750587,47.651955,-1.3537631,-2.2869081,-3.4598372,-0.06356128,-0.366436,-0.33939832,28.375,29.75,28.8125,32.5625,35.0,36.125
