Tylouw/Master_Thesis_Code/training_data/batch_1/rect_rod_t0.3/sample_17_session_1.csv
timestamp[s],tcp_force_x[N],tcp_force_y[N],tcp_force_z[N],tcp_force_rx[Nm?],tcp_force_ry[Nm?],tcp_force_rz[Nm?],tcp_pose_x[m],tcp_pose_y[m],tcp_pose_z[m],tcp_pose_rx[rot_vec_x],tcp_pose_ry[rot_vec_y],tcp_pose_rz[rot_vec_z],tcp_velo_x[m/s],tcp_velo_y[m/s],tcp_velo_z[m/s],tcp_velo_rx[rot_vec_x/s],tcp_velo_ry[rot_vec_y/s],tcp_velo_rz[rot_vec_z/s],q1[rad],q2[rad],q3[rad],q4[rad],q5[rad],q6[rad],qd1[rad/s],qd2[rad/s],qd3[rad/s],qd4[rad/s],qd5[rad/s],qd6[rad/s],tool_acc_x,tool_acc_y,tool_acc_z,current_of_whole_robot[A],voltage_of_whole_robot[V],current_J1[A],current_J2[A],current_J3[A],current_J4[A],current_J5[A],current_J6[A],temp_J1[C],temp_J2[C],temp_J3[C],temp_J4[C],temp_J5[C],temp_J6[C]
7.500057e-07,0.020351458,0.54838073,0.8691724,-0.029758854,-0.0043400847,-0.01111245,-0.3893425,-0.36870518,0.06002905,-3.078717,0.6250268,0.0002243301,0.00078573206,0.0004448936,-0.0005898459,0.00092395325,-0.0019435952,-8.5367645e-08,0.50499684,-1.381704,1.9042228,-2.0919034,-1.5708417,2.4800491,-9.870557e-05,-6.5443996e-06,0.0011136037,0.0010404314,0.00013655986,-9.9380806e-05,0.038307227,0.11492168,-8.6574335,0.7284641,47.689575,-0.18144445,-3.091258,-2.3645313,-0.1946738,0.07583827,0.018862417,28.25,29.625,28.6875,32.5,34.9375,36.0
0.002058377,-0.29758745,-0.2009458,0.7469616,-0.007117086,-0.0008922012,-0.0007394785,-0.38932818,-0.36871424,0.06001915,-3.078698,0.62496525,0.00019639212,-0.0011059659,-0.00060681714,-0.0012874972,-0.0023859376,0.0040091327,6.4252436e-07,0.50503284,-1.3816794,1.9042119,-2.0918834,-1.5708536,2.4800491,-9.718314e-05,0.001607322,0.0031722905,-0.009443165,0.00013319138,-9.80572e-05,0.019153614,0.1340753,-8.619126,0.683705,47.68599,-0.16582175,-2.9783955,-2.368855,-0.1426979,0.07678863,0.027648363,28.25,29.625,28.6875,32.5,34.9375,36.0
0.004057163,-0.20973803,0.137892,0.7450082,-0.021607947,0.0036134666,-0.012183509,-0.3893265,-0.36869457,0.05998695,-3.07867,0.62490183,0.0001514385,-0.0017343103,-0.0009564924,-0.001933408,-0.0027927645,0.004738877,1.2652893e-06,0.50500876,-1.3816426,1.9042472,-2.0919077,-1.5708655,2.479989,-9.5706644e-05,0.0034808682,0.0030051447,-0.0119850375,0.00012998516,-9.656891e-05,0.038307227,0.15322891,-8.6574335,0.7329411,47.701214,-0.20315723,-3.408815,-2.5697174,-0.035696596,0.08554649,0.013130577,28.25,29.625,28.6875,32.5,34.9375,36.0
0.006057976,-0.33094877,0.81558245,0.8047942,-0.017018195,-0.018258244,-0.0071253576,-0.38932797,-0.36870867,0.059986234,-3.0787063,0.62496734,0.00015419841,-0.00044357844,-0.00023824513,-0.0015155042,-0.0007904612,0.0011497707,6.941608e-07,0.50500876,-1.3816432,1.9042596,-2.0919526,-1.5708297,2.4800253,-9.427457e-05,0.0021424491,0.002222263,-0.005753883,0.0001269298,-9.511164e-05,0.019153614,0.17238252,-8.599973,0.7620334,47.679718,-0.15810606,-3.3071227,-2.5467267,-0.08597549,0.07980314,0.01791352,28.25,29.625,28.6875,32.5,34.9375,36.0
0.008057751,0.48705754,1.3496753,0.32977587,0.021713471,-0.025878906,-0.015435638,-0.38932928,-0.3687283,0.060003664,-3.0787463,0.62493694,0.00018525906,-0.0004000456,-0.00021321942,-1.6762306e-05,-0.0008376853,0.0012510238,7.1643973e-07,0.50503284,-1.3816559,1.9042348,-2.0919516,-1.5708174,2.4800253,-9.2884584e-05,0.000107810105,0.0003564239,-0.0019648517,0.00012401449,-9.369708e-05,0.019153614,0.2681506,-8.6574335,0.76874626,47.70032,-0.24339199,-3.1959667,-2.3875446,-0.12826893,0.07437907,0.01631996,28.25,29.625,28.6875,32.5,34.9375,36.0
0.010057699,0.41895804,1.1845173,0.059427723,0.030272335,-0.021771217,-0.013426695,-0.38934427,-0.3687295,0.06001405,-3.0787535,0.62497675,0.00021258391,0.00044722366,0.00026318917,-0.00023069362,0.00062184205,-0.0013682238,-8.220656e-06,0.5050208,-1.3816559,1.9042109,-2.0919507,-1.5708174,2.4800372,-0.0001001446,1.4464101e-06,0.00023754907,0.0012588362,0.00012123024,-9.2324364e-05,0.019153614,0.28730422,-8.983045,0.68818194,47.64837,-0.71467614,-2.7587018,-2.8344572,-0.13375,0.06520973,-0.04643989,28.25,29.625,28.6875,32.5,34.9375,36.0
0.012057463,0.30382144,0.7177966,0.029416295,-0.007837499,-0.0020874257,-0.01987436,-0.3893345,-0.3687098,0.059996326,-3.0786867,0.6249271,0.0001619089,-0.0006529412,0.0027513446,-0.0013899874,0.0027365838,-0.005176158,-0.005118791,0.5050194,-1.3816311,1.9042109,-2.091902,-1.5708536,2.4800134,-0.005315459,0.0019198387,3.1870238e-06,0.0039305375,0.0001185681,-0.00019695617,0.095768064,0.19153613,-9.136273,0.68146914,47.670765,-0.96601796,-2.7843313,-2.9238963,-0.17377193,0.062744856,-0.11180126,28.25,29.625,28.6875,32.5,34.9375,36.0
0.014052862,-1.130182,0.022159636,-0.20944645,-0.03775415,-0.0024166775,-0.019964311,-0.38932323,-0.36866885,0.05996098,-3.0786083,0.6249859,7.0741386e-05,-0.0027132176,0.005619429,-0.005686661,0.0062835705,-0.011595742,-0.0016882619,0.5049685,-1.3816161,1.904271,-2.0918906,-1.5708655,2.480009,-0.012073194,0.0104232095,4.275799e-08,0.0027628948,0.00011602068,-0.010383748,0.019153614,0.095768064,-9.3661175,0.7463667,47.685097,-0.45642197,-3.19512,-3.0315914,-0.14121391,0.070560336,-0.07880556,28.25,29.625,28.6875,32.5,34.9375,36.0
0.016052516,-0.93899834,-0.5111297,-0.225455,-0.057505388,0.037797328,-0.030444738,-0.38931724,-0.3686885,0.059958894,-3.0786319,0.6249298,3.5282592e-05,-0.005055841,0.0048834328,-0.004088434,0.0041935504,-0.007832454,0.0040497994,0.50499225,-1.381592,1.9042448,-2.0918791,-1.5708417,2.4799948,-0.0130252605,0.010872037,-0.0039947336,0.0020034022,0.00011358045,-0.017072085,-0.15322891,0.095768064,-9.385271,0.75755644,47.6636,-0.5312569,-3.1934786,-2.9355898,-0.13207057,0.06733087,-0.023200333,28.25,29.625,28.6875,32.5,34.9375,36.0
0.018052131,-1.4112892,-0.067322694,-0.15948516,-0.063655324,0.052781828,-0.049055196,-0.389327,-0.36867976,0.059939384,-3.0786169,0.624887,-7.597761e-06,-0.0057056146,0.0043525314,-0.0024045939,0.0023268682,-0.004459712,0.0073452177,0.5049684,-1.3815448,1.9042333,-2.0918791,-1.5708417,2.4799461,-0.012736683,0.008423606,-0.0047968603,0.0013986744,0.000111240595,-0.020078924,-0.34476504,0.17238252,-9.404425,0.779936,47.687782,-0.8093903,-3.0082603,-2.9925137,-0.1260091,0.06671422,-0.02581071,28.25,29.625,28.6875,32.5,34.9375,36.0
0.02005195,-1.9108177,0.28335416,-0.5850154,-0.01664905,0.058191046,-0.067053184,-0.38933975,-0.3686678,0.059935037,-3.0785925,0.62488246,-2.4551311e-05,-0.0059794695,0.0055250647,-0.0025696785,0.0028960744,-0.005478934,0.006636476,0.5049438,-1.3815209,1.9042095,-2.0918548,-1.5708536,2.4799218,-0.014963936,0.007949367,-0.0040678326,0.0023108027,0.000108995155,-0.021597905,-0.4405331,0.038307227,-9.5385,0.7732232,47.690468,-0.82668257,-2.8542395,-3.1879787,-0.09676556,0.067240655,-0.022161245,28.25,29.625,28.6875,32.5,34.9375,36.0
0.022051724,-1.5985886,0.86370724,-0.5510305,0.005395059,0.057118025,-0.08654414,-0.38935506,-0.36866525,0.059931315,-3.0786154,0.6249087,-9.045874e-05,-0.0059550004,0.0067405375,-0.004040463,0.005159241,-0.009594319,0.0028065217,0.5048951,-1.3814961,1.9041857,-2.091842,-1.5708054,2.4798865,-0.016996773,0.010580209,-0.004365222,0.004675166,0.0001234589,-0.019800523,-0.45968673,0.076614454,-9.595961,0.68146914,47.66271,-0.81937873,-2.87416,-3.3608046,-0.1297982,0.0693448,-0.03712841,28.25,29.625,28.6875,32.5,34.9375,36.0
0.024051797,-1.035166,1.2858638,-0.5928188,0.006146251,0.06409471,-0.102321684,-0.38936228,-0.3686527,0.059927672,-3.0785978,0.624907,-6.39467e-05,-0.007290569,0.0071842913,-0.004068911,0.0050966707,-0.009485192,-0.00054285774,0.5048824,-1.3814955,1.9041961,-2.0918543,-1.5708297,2.479875,-0.018992944,0.012023935,-0.006026968,0.0047671124,0.00012214929,-0.018446412,-0.59376204,-0.038307227,-9.653421,0.7396539,47.704796,-0.7402133,-2.9402318,-3.3416786,-0.13344322,0.067212924,-0.056131355,28.25,29.625,28.6875,32.5,34.9375,36.0
0.026052209,-0.9991076,1.3357328,-0.52550745,-0.003161342,0.07606025,-0.12546107,-0.38935512,-0.36863917,0.059890255,-3.0785575,0.6248802,-0.00017640687,-0.009239334,0.0062273666,-0.002541159,0.003031021,-0.005766324,-0.0021514778,0.50485855,-1.3814354,1.9042076,-2.0918424,-1.5708174,2.4798396,-0.019204846,0.012292423,-0.009607419,0.0038254415,0.000119895514,-0.017048093,-0.7278373,-0.038307227,-9.710882,0.72622824,47.64121,-0.847527,-2.853835,-3.3113427,-0.11812155,0.062986165,-0.09179729,28.25,29.625,28.6875,32.5,34.9375,36.0
0.028052254,-1.2563083,0.78898615,-0.7851816,-0.009558418,0.092044935,-0.13546222,-0.38938162,-0.36863947,0.05990377,-3.078573,0.62488294,-0.00014756892,-0.009999297,0.0059742793,-0.0027300958,0.0027673247,-0.0053104227,-0.0030422646,0.50483423,-1.3814229,1.9041594,-2.091831,-1.5708174,2.479815,-0.01949356,0.013839707,-0.010807917,0.0029521377,0.00012593242,-0.016445197,-0.7086837,-0.05746084,-9.864111,0.83813137,47.686886,-0.8824662,-2.8559754,-3.2910008,-0.10618995,0.061144054,-0.10042566,28.25,29.625,28.6875,32.5,34.9375,36.0
0.03005229,-1.4609561,0.53403795,-0.6982406,-0.023667173,0.10434893,-0.1473875,-0.38940075,-0.36860523,0.05988453,-3.0784938,0.62494445,-0.0002090882,-0.010919436,0.006365916,-0.0026200204,0.002766886,-0.0053273914,-0.004627396,0.50477386,-1.3813745,1.9041351,-2.0917828,-1.5708417,2.479803,-0.021016777,0.014600391,-0.012075663,0.0034734346,0.000131447,-0.016382718,-0.61291564,-0.11492168,-9.749189,0.79560274,47.692257,-0.91453964,-2.8553352,-3.3663955,-0.10732769,0.066655695,-0.11913466,28.25,29.625,28.6875,32.5,34.9375,36.0
0.032052305,-1.9877554,0.13627008,-0.86463803,-0.01402208,0.099661425,-0.15517484,-0.3893894,-0.36860675,0.059865665,-3.0785115,0.6249298,-0.00032837936,-0.0116673345,0.006597148,-0.0026372022,0.0031416789,-0.006006091,-0.0055114906,0.50474954,-1.3813499,1.9041461,-2.09177,-1.5707816,2.4797673,-0.022105409,0.015924377,-0.013887525,0.0047375932,0.00012959141,-0.016586442,-0.6895301,-0.076614454,-9.80665,0.78217715,47.698532,-0.98583424,-2.8853106,-3.2875266,-0.11105404,0.07053903,-0.14482896,28.25,29.625,28.6875,32.5,34.9375,36.0
0.034052595,-2.0830708,0.32332483,-0.92656195,-0.0007063887,0.08661143,-0.16002955,-0.389443,-0.3685894,0.059861924,-3.0785103,0.624929,-0.00030205707,-0.012043886,0.0071629835,-0.0026851548,0.0036049015,-0.0068381093,-0.005965884,0.5046776,-1.3812898,1.9040865,-2.0917823,-1.5707935,2.479695,-0.02340642,0.016277824,-0.014463088,0.0059117232,0.00012733288,-0.017432887,-0.63206923,-0.038307227,-9.787497,0.77545905,47.67793,-0.99207693,-2.8047643,-3.3091002,-0.12968086,0.05924055,-0.16275054,28.25,29.625,28.6875,32.5,34.9375,36.0
0.036051854,-1.1764667,0.8750759,-0.8618934,0.0024338195,0.089351796,-0.18194938,-0.3894632,-0.36859292,0.05987155,-3.0785143,0.6249883,-0.00027329434,-0.013375342,0.0077356487,-0.0023216896,0.0029953397,-0.0057360856,-0.0074886098,0.50466466,-1.3812777,1.9040502,-2.0917823,-1.5707935,2.4797187,-0.02561267,0.016378177,-0.015288006,0.005376855,0.00012512224,-0.018115995,-0.6512228,-0.1340753,-9.864111,0.6926589,47.686886,-0.94497204,-2.8869991,-3.2796655,-0.11771168,0.056958407,-0.1818198,28.25,29.625,28.6875,32.5,34.9375,36.0
0.038051903,-1.7534593,0.42965025,-0.73910475,0.008131228,0.05691773,-0.18487972,-0.38949934,-0.3685539,0.059851818,-3.0784626,0.62503576,-0.00029179864,-0.01475119,0.007917781,-0.0019657917,0.0021674277,-0.0042467676,-0.0071730106,0.5045801,-1.3812295,1.9040383,-2.0917828,-1.5708174,2.4796703,-0.027202977,0.016903907,-0.016485874,0.004344382,0.00012298513,-0.02002122,-0.51714754,-0.17238252,-9.940725,0.75084364,47.655537,-0.91528064,-2.7871032,-3.3342824,-0.09121564,0.068169,-0.18323654,28.25,29.625,28.6875,32.5,34.9375,36.0
0.04005184,-1.7320964,0.48219633,-0.7226883,-0.0074854065,0.045815572,-0.19323236,-0.38952565,-0.36854702,0.05984993,-3.0784404,0.6250686,-0.00032011347,-0.015689444,0.00806131,-0.0013876817,0.0013682611,-0.002804232,-0.006127551,0.50454384,-1.3811816,1.9039778,-2.0917466,-1.5708174,2.4796574,-0.028318593,0.016534861,-0.017249044,0.0038272326,0.00012091961,-0.02218199,-0.53630114,-0.1340753,-9.768343,0.7329411,47.677036,-0.9504849,-2.7299755,-3.3388405,-0.09205584,0.058488134,-0.16780591,28.25,29.625,28.6875,32.5,34.9375,36.0
0.04205178,-1.1944274,0.0659944,-0.80837363,-0.010399713,0.048456363,-0.21379034,-0.38956115,-0.36851922,0.059852287,-3.0784426,0.6250885,-0.00027895824,-0.016825788,0.008018676,-0.0011514951,0.0010030055,-0.0021472184,-0.0062959134,0.5044716,-1.3811811,1.9039773,-2.0917704,-1.5708297,2.4795973,-0.029306686,0.017714638,-0.019180855,0.0038271823,0.000118922406,-0.023000736,-0.4405331,-0.095768064,-9.768343,0.7597976,47.677036,-0.9455386,-2.8068228,-3.3126824,-0.07801095,0.06590988,-0.20776811,28.25,29.625,28.6875,32.5,34.9375,36.0
0.044051804,-0.88808346,0.08189556,-0.6824011,-0.009191997,0.048283286,-0.20966473,-0.3896088,-0.36851168,0.059851397,-3.0784616,0.6251695,-0.0002739621,-0.017820083,0.008587237,-0.00052077573,0.0007199642,-0.0016310049,-0.0070692976,0.5043992,-1.3811333,1.9039282,-2.0917943,-1.5708054,2.479573,-0.031188149,0.017333169,-0.020394556,0.0048340973,0.00011699005,-0.02410848,-0.22984336,-0.05746084,-9.730036,0.82694155,47.672558,-0.9206109,-2.709132,-3.335177,-0.09105727,0.072426036,-0.2253791,28.25,29.625,28.6875,32.5,34.9375,36.0
0.046052646,-0.6810572,0.24110517,-0.84935266,-0.017283767,0.03302042,-0.21132828,-0.3896562,-0.36850467,0.05986659,-3.0784674,0.62516946,-0.0002351676,-0.018987412,0.00989189,-0.0006532994,0.0009348496,-0.0020161523,-0.008260421,0.50435054,-1.3810971,1.9038452,-2.09177,-1.5708174,2.4795237,-0.034470327,0.017647013,-0.020522019,0.005088224,0.00011511953,-0.026199454,-0.095768064,0.038307227,-9.749189,0.7329411,47.6636,-0.85607517,-2.731844,-3.2443533,-0.0884707,0.048234954,-0.2438423,28.25,29.625,28.6875,32.5,34.9375,36.0
0.048051883,0.034258388,0.28726795,-0.6220592,-0.018330721,0.027704952,-0.18961026,-0.38968706,-0.3684575,0.059852704,-3.0783994,0.62527037,-0.00032064196,-0.020252239,0.010139866,-0.0004083649,0.00061108713,-0.0014394427,-0.007284512,0.50424224,-1.3810608,1.9038204,-2.0917099,-1.5708174,2.479487,-0.03606698,0.018633204,-0.022267707,0.005186068,0.00011330791,-0.028771164,-0.095768064,0.095768064,-9.634268,0.7396539,47.68062,-0.8708422,-2.700282,-3.2713623,-0.06694194,0.06797857,-0.22769856,28.25,29.625,28.6875,32.5,34.9375,36.0
0.050052445,-0.13107659,0.26635057,-0.63348216,-0.013955858,0.011349239,-0.1844647,-0.3897275,-0.36843893,0.05984507,-3.0783985,0.6252322,-0.00030696485,-0.021892376,0.010420297,0.00046999776,-0.0004283868,0.00043662492,-0.006534172,0.50418097,-1.3810127,1.9037837,-2.0917222,-1.5708297,2.479402,-0.038066935,0.018533992,-0.024102556,0.0049746274,0.00011155234,-0.031520702,0.05746084,0.17238252,-9.576807,0.7530795,47.698532,-0.782182,-2.695557,-3.2782812,-0.0699298,0.07707001,-0.22870415,28.25,29.625,28.6875,32.5,34.9375,36.0
0.052052666,0.2297172,0.57583666,-0.55884963,-0.02910406,0.020946613,-0.19331044,-0.38979465,-0.36841285,0.05987226,-3.0784135,0.6252541,-0.00018548287,-0.02306149,0.010868786,0.0004928728,-0.00059985,0.000748487,-0.0064929267,0.5040967,-1.3810123,1.9037241,-2.0917342,-1.5708655,2.4793296,-0.039908167,0.019512104,-0.02527311,0.0048097554,0.000109850334,-0.033402517,0.05746084,0.1340753,-9.519346,0.84708,47.694946,-0.70924294,-2.7303758,-3.2271533,-0.062174708,0.08025715,-0.22701648,28.25,29.625,28.6875,32.5,34.9375,36.0
0.054052357,0.15916397,0.20256114,-0.5681913,-0.022187969,0.012744291,-0.19123563,-0.38984442,-0.3683928,0.059875518,-3.0784056,0.62534684,-0.00022367956,-0.023273023,0.010586967,0.00059909193,-0.0006512836,0.00084072433,-0.0049526636,0.50400156,-1.3809642,1.9036516,-2.0916984,-1.5708417,2.4792933,-0.039626442,0.020097798,-0.026279487,0.0051254653,0.00010819955,-0.034660585,0.05746084,0.095768064,-9.442732,0.71951014,47.692257,-0.8035496,-2.6880574,-3.1974933,-0.05688166,0.076586284,-0.24525377,28.25,29.625,28.6875,32.5,34.9375,36.0
0.056051914,0.057735562,-0.06218643,-0.4152577,-0.021415774,0.013073012,-0.18344769,-0.38987234,-0.3683677,0.059874915,-3.0783882,0.6253049,-0.00024147426,-0.023639385,0.011267458,0.0004752095,-0.00036447853,0.0003240812,-0.0053475923,0.50394064,-1.3809401,1.9036163,-2.0916622,-1.5708536,2.4792085,-0.041110624,0.020147935,-0.02615043,0.005536613,0.00010659762,-0.035749927,-0.019153614,0.19153613,-9.481039,0.78888994,47.690468,-0.8673522,-2.6073985,-3.2613502,-0.054356508,0.06423232,-0.26475942,28.25,29.625,28.6875,32.5,34.9375,36.0
0.058052078,0.46636477,0.26815745,-0.5095022,-0.020178894,0.030878553,-0.19341372,-0.38990602,-0.36834705,0.059845004,-3.0783937,0.62534463,-0.00033399093,-0.024737794,0.01227837,0.00028575768,-0.00018837322,2.9819312e-06,-0.006908973,0.5038444,-1.3808677,1.9036044,-2.0916865,-1.5708054,2.4791362,-0.04383331,0.020830642,-0.0265461,0.0056174137,0.00010504249,-0.036910977,-0.019153614,0.17238252,-9.5385,0.74413085,47.67345,-0.78057456,-2.6214335,-3.2984262,-0.061368473,0.09035687,-0.25848877,28.25,29.625,28.6875,32.5,34.9375,36.0
0.06005207,-0.025637893,0.05581583,-0.60474974,-0.010967131,0.013460182,-0.18199725,-0.38999546,-0.36832124,0.059899796,-3.0784233,0.62540823,-0.00014095646,-0.025872912,0.012435654,0.00044070484,-0.0002623325,0.00014225139,-0.006741477,0.5037475,-1.3808913,1.9035076,-2.0916865,-1.5708536,2.4790754,-0.0451498,0.02215244,-0.028587118,0.006176977,0.00010353196,-0.03839396,0.0,0.17238252,-9.481039,0.7530795,47.672558,-0.7480901,-2.6510205,-3.2721076,-0.068935096,0.08013121,-0.2839298,28.25,29.625,28.6875,32.5,34.9375,36.0
0.06205183,-0.33747578,0.25186837,-0.48370665,-0.012799782,0.008721256,-0.16787238,-0.39005408,-0.36830825,0.059885785,-3.0784392,0.62541085,-0.00014053962,-0.026554266,0.012530605,0.0007741579,-0.00045883056,0.00049911375,-0.0064083966,0.5036635,-1.3808072,1.903448,-2.0917218,-1.5708417,2.478991,-0.04593895,0.022466436,-0.029839337,0.006708136,0.0001020644,-0.039515685,-0.076614454,0.17238252,-9.423578,0.73741806,47.67166,-0.755561,-2.5979757,-3.2160666,-0.058064163,0.09840435,-0.28826937,28.25,29.625,28.6875,32.5,34.9375,36.0
0.06405186,0.59492636,1.0564885,-0.15599121,-0.023586335,0.03752062,-0.19189954,-0.39009714,-0.36829844,0.059893124,-3.0784614,0.6253567,-0.00017959288,-0.027511854,0.012998984,0.0013208841,-0.0006955979,0.0009289358,-0.0068853875,0.5035916,-1.3807591,1.9033636,-2.0916736,-1.5708174,2.4788826,-0.04761503,0.02234376,-0.031154146,0.007655736,0.000100637764,-0.040714357,-0.11492168,0.15322891,-9.404425,0.76874626,47.66987,-0.8037547,-2.5296865,-3.202538,-0.06014429,0.08150943,-0.3249069,28.25,29.625,28.6875,32.5,34.9375,36.0
0.06605226,-0.680789,0.283097,-0.37139463,-0.0021181474,0.022434926,-0.16881457,-0.39017552,-0.36826152,0.05990367,-3.0784395,0.6254472,-0.00012717838,-0.028067077,0.013482429,0.0011058074,-0.00040988388,0.00045147387,-0.0052321316,0.5034715,-1.3807108,1.9032797,-2.0916612,-1.5708417,2.4788218,-0.04892715,0.023103308,-0.031623453,0.007920235,8.073695e-05,-0.043679416,-0.17238252,0.076614454,-9.32781,0.77545905,47.67345,-0.81136864,-2.6019702,-3.271047,-0.053039655,0.09446212,-0.2990073,28.25,29.625,28.6875,32.5,34.9375,36.0
0.06805238,-0.5150151,0.5692906,-0.2899946,-0.009975116,0.046680555,-0.1751669,-0.39019743,-0.36824116,0.05989773,-3.0784671,0.6253763,-0.0002203369,-0.028617863,0.01352033,0.0010593934,-0.00038419792,0.00037746495,-0.0043447567,0.50338674,-1.3806865,1.9032563,-2.0916255,-1.5707935,2.4786892,-0.049508207,0.024042226,-0.032670904,0.008107922,9.0140646e-05,-0.04514731,-0.21068975,0.0,-9.346964,0.78888994,47.68062,-0.82622063,-2.6063118,-3.2770119,-0.068375915,0.08043531,-0.32321733,28.25,29.625,28.6875,32.5,34.9375,36.0
0.07005242,-0.798033,0.6050166,-0.25242805,-0.019117279,0.057219353,-0.1782193,-0.39023823,-0.36820307,0.059892587,-3.0784125,0.625384,-0.00019938397,-0.030060545,0.014429666,0.0010153758,-0.00036101622,0.0003014976,-0.0073447055,0.5033146,-1.38065,1.9032196,-2.0916016,-1.5708417,2.4786289,-0.05238916,0.025090994,-0.0338605,0.008324283,0.00010340543,-0.045027714,-0.2681506,0.1340753,-9.385271,0.7620334,47.64389,-0.8087447,-2.6349845,-3.226781,-0.05357576,0.10900298,-0.34185812,28.25,29.625,28.6875,32.5,34.9375,36.0
0.07205237,-0.8221712,0.5629725,-0.06648682,-0.009992882,0.06678585,-0.185228,-0.39030588,-0.36817545,0.059881072,-3.078413,0.62540185,-0.00028047417,-0.03051963,0.014920769,0.0009830609,-7.692813e-05,-0.00024879703,-0.004895449,0.5031824,-1.3805538,1.9031237,-2.0915654,-1.5708054,2.4785078,-0.053645022,0.025486851,-0.03443932,0.00912753,0.00011769256,-0.048732653,-0.30645782,0.076614454,-9.385271,0.73741806,47.658226,-0.7527034,-2.53618,-3.2390501,-0.053314824,0.096599214,-0.3451056,28.25,29.625,28.6875,32.5,34.9375,36.0
0.07405232,-0.5468694,1.1332105,-0.19467226,-0.01645424,0.081895895,-0.1856192,-0.3903842,-0.36815926,0.0599139,-3.0784574,0.6254287,-0.00022068461,-0.03045295,0.013863469,0.001084786,-0.0013159055,-0.0001154358,-0.00054413296,0.50307447,-1.3805296,1.903015,-2.0915415,-1.570793,2.478411,-0.052431375,0.02628127,-0.035510723,0.008686921,0.0011376148,-0.05187148,-0.3256114,0.076614454,-9.385271,0.7732232,47.675243,-0.9478295,-2.534968,-3.2041688,-0.0721256,0.10719776,-0.32636863,28.25,29.625,28.6875,32.5,34.9375,36.0
0.07605242,-0.82224464,0.73553437,-0.45149955,-0.0034967063,0.07675235,-0.17969191,-0.3904354,-0.36813322,0.059898276,-3.078437,0.62544054,-0.00022444408,-0.03189565,0.014651202,0.0013544757,-0.0017765494,0.0005300055,0.0012842753,0.5029903,-1.3804573,1.9029678,-2.0915534,-1.570805,2.4783368,-0.05515076,0.02661592,-0.036489185,0.008541852,0.0012256958,-0.056418978,-0.38307226,-0.019153614,-9.3661175,0.7530795,47.64658,-0.8384452,-2.502769,-3.2306087,-0.06102948,0.08071588,-0.30455697,28.25,29.625,28.6875,32.5,34.9375,36.0
0.07805252,-1.5807804,0.75921935,-0.45166746,0.00379014,0.04981072,-0.1821169,-0.39054126,-0.36810538,0.0599384,-3.0784938,0.6254741,-0.0001101463,-0.03345685,0.0155104045,0.0018002155,-0.0022710606,0.0010217322,-0.001527161,0.50284487,-1.3804333,1.9028481,-2.0915534,-1.570805,2.4782052,-0.058163162,0.0268714,-0.03792028,0.009047741,0.0014256375,-0.05661959,-0.4405331,-0.11492168,-9.346964,0.7642693,47.65106,-0.8313351,-2.4936316,-3.2590709,-0.06836567,0.085931614,-0.2879358,28.25,29.625,28.6875,32.5,34.9375,36.0
0.08005248,-0.67121756,0.9208409,-0.22913581,-0.003257343,0.06652789,-0.17935096,-0.39056417,-0.36808455,0.059910603,-3.0784695,0.62540853,-0.0002363889,-0.033538006,0.015779614,0.0012231447,-0.0016733157,9.5781244e-05,0.0016734282,0.5027735,-1.3803488,1.9028004,-2.0915053,-1.5707811,2.478096,-0.058637545,0.027960366,-0.037894025,0.009033364,0.001342396,-0.06029438,-0.4405331,-0.15322891,-9.346964,0.7665104,47.689575,-0.7520847,-2.502633,-3.2189174,-0.069072194,0.07210363,-0.2921722,28.25,29.625,28.6875,32.5,34.9375,36.0
0.082052015,-1.8322091,0.36335114,-0.37893933,0.006129735,0.04088735,-0.18005009,-0.3906255,-0.3680388,0.059899695,-3.078453,0.6253242,-0.00023936271,-0.03377713,0.015251926,0.0012337327,-0.0016497833,0.00039254164,0.0067660506,0.50265425,-1.3802884,1.9027513,-2.0914938,-1.570805,2.4779263,-0.057860564,0.029036187,-0.039183885,0.008997574,0.0011734003,-0.06460906,-0.45968673,-0.095768064,-9.3661175,0.77545905,47.686886,-0.96623474,-2.5363052,-3.182848,-0.06465963,0.09860994,-0.23594612,28.25,29.625,28.6875,32.5,34.9375,36.0
0.084052384,-0.6060525,0.62048924,-0.281148,0.0017424101,0.07755697,-0.18544813,-0.39071968,-0.36800307,0.05992098,-3.0784583,0.62536263,-0.00015727543,-0.03529035,0.016041612,0.0013884375,-0.0020429261,0.0013601714,0.008042767,0.50252163,-1.3802401,1.9026431,-2.091482,-1.5708293,2.477817,-0.060510438,0.029527202,-0.039942887,0.008226743,0.0010507432,-0.06853492,-0.4213795,-0.019153614,-9.404425,0.78217715,47.682407,-0.8864448,-2.4800928,-3.2150295,-0.07467626,0.08224567,-0.20985258,28.25,29.625,28.6875,32.5,34.9375,36.0
0.08605247,-1.2686276,0.6386824,-0.28453255,-0.0036481179,0.058116585,-0.17924583,-0.3908174,-0.36798215,0.059926473,-3.078524,0.62537426,-0.00015119735,-0.035765838,0.016595379,0.00096419425,-0.0013862998,0.00047506084,0.00998385,0.5023654,-1.3801558,1.9025363,-2.0915058,-1.5707811,2.4776597,-0.061780836,0.030648137,-0.040404264,0.00866287,0.0009043074,-0.07174579,-0.3256114,0.0,-9.423578,0.6948948,47.68062,-0.8671377,-2.5163317,-3.2407646,-0.09161173,0.08862148,-0.16022097,28.25,29.625,28.6875,32.5,34.9375,36.0
0.08805241,-0.91786075,0.28357166,-0.25010687,-0.0034965,0.05419549,-0.17253391,-0.39085695,-0.3679333,0.05990407,-3.0784554,0.62530196,-0.00021570035,-0.036437202,0.01660183,0.0011254215,-0.0016484037,0.0009518271,0.012215027,0.5022687,-1.3800834,1.9024881,-2.0914457,-1.5708169,2.4775267,-0.062406693,0.031221122,-0.041429754,0.008568529,0.00089532806,-0.07460237,-0.3256114,-0.095768064,-9.423578,0.79560274,47.68599,-0.97621095,-2.4961996,-3.2459815,-0.06898095,0.09636938,-0.14915912,28.25,29.625,28.6875,32.5,34.9375,36.0
0.09005234,-0.7982358,0.5943793,-0.24241886,-0.007072895,0.04467954,-0.17217466,-0.39095274,-0.36790556,0.05990858,-3.0784838,0.62532437,-0.00018579188,-0.036698762,0.017129662,0.00014255884,-0.00062681583,-0.0007307666,0.01287338,0.50212544,-1.3799987,1.9023803,-2.091458,-1.570805,2.4773939,-0.063474864,0.03322031,-0.04158946,0.008696795,0.0008120509,-0.07632836,-0.30645782,-0.019153614,-9.346964,0.8090337,47.684196,-1.0125512,-2.5391202,-3.2425156,-0.08022692,0.08452938,-0.08423636,28.25,29.625,28.6875,32.5,34.9375,36.0
0.09205242,-0.85410655,0.46903315,-0.30517608,-0.003824558,0.030965324,-0.17291445,-0.39103633,-0.36785692,0.059911404,-3.0784845,0.6253051,-0.00013183577,-0.03821272,0.017105041,0.00092521025,-0.0011353804,0.00051063,0.012712764,0.5019813,-1.3799503,1.9023193,-2.0914695,-1.5708297,2.4772377,-0.06473436,0.034013513,-0.044483766,0.009463614,0.0006575941,-0.07742574,-0.24899697,-0.038307227,-9.385271,0.78217715,47.694946,-1.0421729,-2.6383832,-3.1961749,-0.08945985,0.10510115,-0.08325856,28.25,29.625,28.6875,32.5,34.9375,36.0
0.09405243,-0.5178461,0.53564715,-0.34839708,-0.0037220947,0.030887613,-0.16586643,-0.3911207,-0.36783677,0.05994784,-3.0785542,0.6252037,-7.31497e-05,-0.039183717,0.017305382,0.0012809907,-0.0015915275,0.0014144294,0.011197736,0.5018612,-1.3799261,1.9021996,-2.0914338,-1.5708174,2.4770455,-0.06594147,0.034276925,-0.04556033,0.0092662005,0.00062469166,-0.07711723,-0.1340753,0.05746084,-9.423578,0.83589023,47.709274,-1.0138444,-2.598888,-3.0999572,-0.089353204,0.1108817,-0.06821857,28.25,29.625,28.6875,32.5,34.9375,36.0
0.09605179,0.026981767,0.70759135,-0.36490393,-0.0125661455,0.040395834,-0.18080236,-0.39117533,-0.36777875,0.059913717,-3.07849,0.62524945,-0.0002019601,-0.038668774,0.017827077,0.00023786952,-0.0005647168,-0.00051759253,0.009992848,0.50170535,-1.3798298,1.9021524,-2.0913856,-1.5708054,2.4769263,-0.06634961,0.035208557,-0.04428936,0.00925237,0.0006493234,-0.07632096,-0.1340753,0.114921674,-9.423578,0.73069996,47.689575,-1.0894752,-2.597819,-3.2821,-0.083712794,0.094877765,-0.05284643,28.25,29.625,28.6875,32.5,34.9375,36.0
0.09805184,0.06662985,0.64301383,-0.40380204,-0.027944848,0.037448023,-0.17964998,-0.3912742,-0.36775458,0.059941173,-3.07855,0.6251859,-0.00011675286,-0.04025093,0.018386291,0.0004316653,-0.00083865714,-6.2667656e-05,0.0066384887,0.5015728,-1.3797814,1.9020327,-2.0913856,-1.5708054,2.4767466,-0.0687614,0.03638556,-0.046161313,0.009416847,0.00067269034,-0.07537746,-0.05746084,0.19153613,-9.346964,0.7642693,47.70211,-1.0981822,-2.5642326,-3.2738485,-0.08368868,0.10370912,-0.07473326,28.25,29.625,28.6875,32.5,34.9375,36.0
0.10005189,0.039249524,0.34473994,-0.47301304,-0.02955049,0.029803716,-0.17163531,-0.39135453,-0.3677001,0.05991943,-3.0784855,0.62521154,-0.00013857323,-0.041012064,0.018616451,0.0003671626,-0.0007960327,-0.000535104,0.0036985686,0.5014288,-1.3796729,1.9019483,-2.0913613,-1.5708412,2.4766269,-0.06996081,0.03757912,-0.047579344,0.010073076,0.0008576651,-0.07363661,0.0,0.038307227,-9.3661175,0.6926589,47.71286,-1.1420419,-2.59791,-3.205757,-0.08158993,0.10961677,-0.094523236,28.25,29.625,28.6875,32.5,34.9375,36.0
0.10205262,-0.017141355,-0.16777736,-0.78836083,-0.023865882,0.023710936,-0.16398671,-0.3913886,-0.36768666,0.059905656,-3.0784981,0.6251006,-0.00027351748,-0.04243923,0.018527592,0.0012613889,-0.0017472403,0.0009601193,0.0005325647,0.50134444,-1.3795885,1.9018635,-2.0912893,-1.570793,2.4764717,-0.07119621,0.037889168,-0.05008046,0.010499186,0.00096404966,-0.071705244,-0.019153614,0.15322891,-9.32781,0.784413,47.705692,-1.0850707,-2.6747377,-3.0685735,-0.09188583,0.120470025,-0.10562678,28.25,29.625,28.6875,32.5,34.9375,36.0
0.10405258,-0.007547687,-0.2890632,-0.6198473,-0.026444832,0.021256426,-0.17391667,-0.3915226,-0.36762837,0.059937503,-3.0785227,0.6251447,-9.643227e-05,-0.042872824,0.019702366,0.0006878354,-0.001115709,-0.000233229,-0.0033493163,0.50115204,-1.3795525,1.9017566,-2.0913255,-1.5708412,2.4763038,-0.073575474,0.03830848,-0.049307574,0.010653883,0.0009938659,-0.070202835,0.019153614,0.15322891,-9.3661175,0.70608455,47.70838,-1.1061885,-2.504715,-3.1594524,-0.111178756,0.122768335,-0.14883648,28.25,29.625,28.6875,32.5,34.9375,36.0
0.10605208,0.34970388,0.053820893,-0.62142175,-0.038099516,0.033003565,-0.18290165,-0.39158177,-0.36761293,0.059927575,-3.078521,0.62508714,-0.00018028414,-0.042996887,0.020154754,-8.2907216e-05,-0.0005736391,-0.001738915,-0.0055099595,0.5010559,-1.3794438,1.901637,-2.0912654,-1.5708169,2.476172,-0.07459602,0.03965223,-0.049171127,0.010755728,0.0012390858,-0.06906307,0.076614454,0.24899697,-9.442732,0.8179876,47.692257,-1.1301613,-2.5787017,-3.311183,-0.10821309,0.11508725,-0.17148367,28.25,29.625,28.6875,32.5,34.9375,36.0
0.10805198,0.49541777,0.35121045,-0.44156942,-0.04695698,0.03625401,-0.17532824,-0.39165556,-0.36755553,0.059904147,-3.0784976,0.6251408,-0.00026118272,-0.044555698,0.019845774,0.000837153,-0.0016558158,-0.00013928124,-0.0073772552,0.50087595,-1.3793595,1.9015878,-2.0912535,-1.570793,2.4760284,-0.07561724,0.040388957,-0.052230664,0.011157077,0.001411232,-0.06821605,-0.019153614,0.19153613,-9.3661175,0.7620334,47.684196,-1.1131718,-2.625977,-3.1890926,-0.1245574,0.10783237,-0.21261494,28.25,29.625,28.6875,32.5,34.9375,36.0
0.11005194,0.086438894,-0.32619277,-0.5901981,-0.031654306,0.036653187,-0.17293334,-0.39179435,-0.36752364,0.05994792,-3.078533,0.62518436,-0.00012494944,-0.04494312,0.020095572,0.00046375344,-0.0017593171,-0.0011093189,-0.00653592,0.50070816,-1.3792871,1.9013971,-2.0912292,-1.5708164,2.4758835,-0.07672586,0.04148165,-0.05272085,0.011352234,0.0019732206,-0.07016647,-0.076614454,0.24899697,-9.32781,0.7530795,47.67345,-1.1632447,-2.5298836,-3.2409074,-0.12652342,0.12254405,-0.24068886,28.25,29.625,28.6875,32.5,34.9375,36.0
0.11205193,-0.37403783,0.08070409,-0.62643397,-0.0317847,0.034641795,-0.16579206,-0.39186907,-0.36747807,0.059941757,-3.0785332,0.62528175,-0.00017570736,-0.045791313,0.020197324,0.0011281545,-0.0026775207,0.00018734224,-0.007631291,0.5005399,-1.3792272,1.9013375,-2.0912178,-1.5707806,2.475776,-0.07778194,0.040955063,-0.053564996,0.0111469375,0.0021533424,-0.07012723,-0.1340753,0.2681506,-9.3661175,0.78217715,47.678825,-1.2100873,-2.5964422,-3.2113152,-0.12610954,0.1083207,-0.24520673,28.25,29.625,28.6875,32.5,34.9375,36.0
0.114052184,-0.060226392,0.65078175,-0.3952764,-0.03936211,0.0461588,-0.17338803,-0.3919426,-0.36741138,0.05989961,-3.078453,0.6253234,-0.00030678572,-0.046538193,0.02106079,-5.1735275e-05,-0.0018123422,-0.0024047915,-0.010933615,0.5003595,-1.3790942,1.901265,-2.091169,-1.5707806,2.4756317,-0.08021447,0.04379599,-0.054404456,0.011833625,0.0026304442,-0.06925782,-0.076614454,0.22984336,-9.461885,0.79560274,47.678825,-1.2551415,-2.5677495,-3.225422,-0.14257291,0.08808987,-0.3100803,28.25,29.625,28.6875,32.5,34.9375,36.0
0.11605239,-0.1716801,0.11822838,-0.47204757,-0.026300188,0.051238287,-0.16900739,-0.39205664,-0.3673986,0.059914093,-3.0785127,0.6252178,-0.00020903866,-0.046705335,0.020853115,6.9845014e-06,-0.0018794417,-0.0026670103,-0.008540269,0.50023973,-1.3789856,1.9011091,-2.0911934,-1.5707926,2.4754386,-0.08011817,0.04440559,-0.055394948,0.012411049,0.0028185202,-0.07155457,-0.11492168,0.17238252,-9.442732,0.7418897,47.67345,-1.1730188,-2.7250228,-3.2215674,-0.13628453,0.10616383,-0.33249912,28.25,29.625,28.6875,32.5,34.9375,36.0
0.11805247,-0.36325437,0.68596673,-0.4689396,-0.03193159,0.049575437,-0.17813,-0.39212087,-0.3673494,0.0599229,-3.0785048,0.6253328,-0.00032731384,-0.047974937,0.020781651,0.0015234507,-0.0036086077,0.00042515792,-0.010783705,0.50005996,-1.3789505,1.9010257,-2.0910976,-1.5707325,2.4753315,-0.08117655,0.04266924,-0.05667188,0.011886446,0.002845995,-0.07036941,-0.3256114,0.1340753,-9.404425,0.79560274,47.683304,-1.3556644,-2.5333328,-3.2006364,-0.15317674,0.12535879,-0.35356438,28.25,29.625,28.6875,32.5,34.9375,36.0
0.12005244,-0.86813784,0.4972892,-0.466928,-0.020133661,0.046573788,-0.16070774,-0.3922513,-0.36730084,0.059943154,-3.078488,0.62537074,-0.00016896367,-0.050192587,0.022616709,0.0011674623,-0.0033934617,3.5000874e-05,-0.016305165,0.4999024,-1.3788657,1.9008821,-2.09111,-1.5708045,2.4752,-0.0862978,0.044198725,-0.057651065,0.011777146,0.0028472554,-0.06996836,-0.30645782,-0.019153614,-9.442732,0.77545905,47.682407,-1.1273158,-2.5409117,-3.2338781,-0.15943989,0.096028216,-0.44162315,28.25,29.625,28.6875,32.5,34.9375,36.0
0.12205242,-0.72420704,0.44997385,-0.52270305,-0.008700703,0.061814953,-0.16808076,-0.392346,-0.3672688,0.059919592,-3.078511,0.62537104,-0.00027338148,-0.04963934,0.02143451,0.00084698544,-0.003625814,-0.00027804336,-0.011214635,0.49972367,-1.3787212,1.900762,-2.091098,-1.5707449,2.4750185,-0.08399542,0.04554505,-0.05843186,0.011378352,0.0031955717,-0.072756656,-0.36391866,-0.038307227,-9.481039,0.7978386,47.683304,-1.3375431,-2.519355,-3.263163,-0.17200562,0.09626612,-0.46270144,28.25,29.625,28.6875,32.5,34.9375,36.0
0.12405238,-0.53744596,0.7952588,-0.35745698,-0.008945463,0.076690204,-0.17227913,-0.39241132,-0.36721176,0.05990922,-3.0784838,0.62534505,-0.00033399175,-0.050535243,0.021993708,0.00017220268,-0.004114384,-0.0022185964,-0.00996579,0.4995669,-1.3786603,1.9007024,-2.0910494,-1.5707444,2.474849,-0.08659715,0.047606267,-0.059431627,0.011781671,0.0045482013,-0.07660913,-0.34476504,-0.05746084,-9.404425,0.7105615,47.655537,-1.2994246,-2.5310407,-3.238864,-0.15847865,0.081291184,-0.46216235,28.25,29.625,28.6875,32.5,34.9375,36.0
0.12605262,-1.0055315,0.92631954,-0.34319797,-0.0024013366,0.06969769,-0.17255154,-0.3925271,-0.36717302,0.05991833,-3.078491,0.62540156,-0.0003318029,-0.05187032,0.022510963,0.00060876156,-0.004997233,-0.0015920848,-0.007293903,0.4993866,-1.3785522,1.9005455,-2.0910137,-1.5707315,2.474703,-0.08897383,0.047825072,-0.06070777,0.011866182,0.005020091,-0.08165794,-0.38307226,0.019153614,-9.3661175,0.7284641,47.650166,-1.2933545,-2.6797218,-3.2000022,-0.15734589,0.061317928,-0.46091637,28.25,29.625,28.6875,32.5,34.9375,36.0
0.12805246,-1.1164228,1.1637732,-0.46577454,0.002707751,0.07306199,-0.17479092,-0.39261982,-0.3671356,0.059911955,-3.0784996,0.62536025,-0.00035993115,-0.052809637,0.02294756,0.0017430658,-0.0058482117,0.00031882853,-0.0018798766,0.4992308,-1.3784447,1.9004272,-2.0909894,-1.5707201,2.4745204,-0.09045065,0.04613098,-0.061342664,0.012112322,0.004848418,-0.0885486,-0.40222588,-0.05746084,-9.442732,0.7597976,47.67614,-1.3459961,-2.4697924,-3.2569308,-0.1531421,0.045495793,-0.40901917,28.25,29.625,28.6875,32.5,34.9375,36.0
0.13005157,-1.2178106,1.0869974,-0.6008314,0.004690442,0.07414351,-0.17509678,-0.39273617,-0.36709234,0.059924517,-3.0785573,0.6252741,-0.00028723365,-0.053476557,0.02347673,0.0014518745,-0.005231297,-0.00045450657,0.00124504,0.4990505,-1.378372,1.900318,-2.0910137,-1.5707201,2.4742792,-0.0918317,0.047386892,-0.062330816,0.012820284,0.004681141,-0.09305346,-0.4213795,-0.17238252,-9.308656,0.80456203,47.686886,-1.2099651,-2.54892,-3.292845,-0.16918734,0.04628012,-0.39087284,28.25,29.625,28.6875,32.5,34.9375,36.0
0.1320523,-1.189596,1.1797553,-0.40346703,0.005529669,0.07959183,-0.18085988,-0.39285195,-0.36704203,0.05992743,-3.0785396,0.62535965,-0.00028869402,-0.054047164,0.023393521,0.0009646371,-0.004566398,-0.0006378623,0.011038475,0.49885893,-1.3782632,1.9001745,-2.090978,-1.5707201,2.4741433,-0.091884784,0.04943524,-0.063581504,0.012504336,0.0041793166,-0.10289827,-0.49799395,-0.21068975,-9.385271,0.7620334,47.696735,-1.3773286,-2.4967353,-3.2960143,-0.17945333,0.048788033,-0.3023256,28.25,29.625,28.6875,32.5,34.9375,36.0
0.13405222,-1.1103987,1.2741382,-0.41676107,0.0029406627,0.089043766,-0.18334074,-0.3929733,-0.36700124,0.05992645,-3.078583,0.6254081,-0.00033752932,-0.05643895,0.026232094,0.00083093526,-0.0035908546,-0.0010504558,0.008044375,0.49864107,-1.3781431,1.9000314,-2.090965,-1.5706605,2.4739501,-0.09843462,0.049802918,-0.06389604,0.013289747,0.0035215027,-0.10645274,-0.47884035,-0.05746084,-9.346964,0.78217715,47.687782,-1.0752561,-2.503696,-3.2771535,-0.20952058,0.057043314,-0.26179704,28.25,29.625,28.6875,32.5,34.9375,36.0
0.13605238,-1.1564039,1.2537929,-0.56882346,0.004957506,0.077585325,-0.1760142,-0.39307854,-0.3669364,0.059920985,-3.0785856,0.6252318,-0.00033944842,-0.058169924,0.02478936,0.0024728402,-0.0053725005,0.0027317675,0.013470079,0.49844995,-1.3780468,1.8999218,-2.0909297,-1.5706848,2.4736488,-0.09742144,0.050441466,-0.068299316,0.012879849,0.0032642977,-0.11086299,-0.5554548,-0.11492168,-9.423578,0.78217715,47.68599,-1.2937758,-2.5244572,-3.1742244,-0.19629064,0.062008083,-0.18955654,28.25,29.625,28.6875,32.5,34.9375,36.0
0.13805255,-1.4240007,1.1593906,-0.52731836,-0.0011896497,0.07367226,-0.17656416,-0.39318907,-0.3668701,0.059911747,-3.078565,0.6253044,-0.0004103271,-0.05843993,0.026732624,0.0013618554,-0.00396164,0.00032161048,0.012575113,0.4982213,-1.3779384,1.8998035,-2.0908816,-1.5706605,2.473468,-0.10086479,0.050960977,-0.066500604,0.013356912,0.0031778142,-0.11341205,-0.5554548,-0.1340753,-9.404425,0.8291774,47.666286,-1.2241287,-2.5157266,-3.2406602,-0.21359703,0.028817536,-0.14706917,28.25,29.625,28.6875,32.5,34.9375,36.0
0.14005241,-1.1034013,0.73167396,-0.5863585,-0.0026376098,0.08470878,-0.17534128,-0.39333484,-0.3668086,0.05992791,-3.0785563,0.625227,-0.00027991453,-0.060400184,0.0281974,0.000702276,-0.0032351778,-0.00017087591,0.0082715945,0.49802822,-1.3778296,1.8996352,-2.0908701,-1.5707325,2.473228,-0.104860045,0.053294748,-0.0676851,0.012981313,0.0027773655,-0.11310207,-0.6703765,-0.05746084,-9.500193,0.7933669,47.68599,-1.0927087,-2.539465,-3.2586465,-0.22337887,0.05845753,-0.13080259,28.25,29.625,28.6875,32.5,34.9375,36.0
0.1420525,-0.9187823,0.67029303,-0.7302971,-0.0039039731,0.08685463,-0.17185353,-0.39344257,-0.3667434,0.059931114,-3.0785534,0.62520957,-0.00032107494,-0.06316833,0.028431611,0.002349932,-0.004619755,0.003028807,0.0026955614,0.49781173,-1.3777454,1.8995146,-2.0908096,-1.5707206,2.473001,-0.107579626,0.053491488,-0.07176381,0.013394028,0.0024564862,-0.11024351,-0.61291564,-0.076614454,-9.5385,0.7597976,47.650166,-0.9930917,-2.5463548,-3.0688071,-0.21752931,0.047040526,-0.14493921,28.25,29.625,28.6875,32.5,34.9375,36.0
0.14405233,-1.205922,0.54687905,-0.93105763,-0.016875539,0.078671314,-0.17088589,-0.39355242,-0.3666908,0.059922405,-3.0785584,0.6251943,-0.0003754079,-0.063940726,0.0295411,0.002253715,-0.00421734,0.0033483803,-0.0045310687,0.4976075,-1.3776253,1.8993839,-2.0907738,-1.5706972,2.4727867,-0.10981773,0.05325491,-0.07117084,0.012953857,0.0019503251,-0.10525439,-0.6703764,-0.019153614,-9.557653,0.842603,47.704796,-0.9456898,-2.3954375,-3.1179314,-0.24462306,0.046819817,-0.20636989,28.25,29.625,28.6875,32.5,34.9375,36.0
0.14605181,-0.7823924,0.46998188,-0.6986814,-0.02817082,0.09477933,-0.16916378,-0.39369848,-0.3666281,0.059932455,-3.0785809,0.62527806,-0.0003042797,-0.064389214,0.030423962,0.0019980778,-0.0037288282,0.002961698,-0.009906853,0.49736753,-1.3775293,1.8992528,-2.0907981,-1.5706972,2.4725962,-0.11153691,0.053373653,-0.07073996,0.012978533,0.001714836,-0.101597436,-0.7469909,0.076614454,-9.5385,0.81351066,47.681515,-0.9546329,-2.4292681,-3.3546302,-0.24225605,0.06189523,-0.26611832,28.25,29.625,28.6875,32.5,34.9375,36.0
0.14805251,-1.1573522,0.13404134,-0.85257035,-0.029427927,0.09671055,-0.16604134,-0.39382285,-0.3665881,0.05996616,-3.0786297,0.6252887,-0.0002996133,-0.06579188,0.0309155,0.0007928139,-0.0026361344,0.0012651965,-0.012608393,0.4971632,-1.3774557,1.8990725,-2.0907261,-1.570661,2.4723923,-0.11353231,0.05762393,-0.07305766,0.0130628245,0.0015632318,-0.10088939,-0.6895301,0.076614454,-9.500193,0.75084364,47.691364,-0.8603858,-2.590757,-3.2360077,-0.262972,0.0815429,-0.29894325,28.25,29.625,28.6875,32.5,34.9375,36.0
0.1500522,-0.79227656,0.3830974,-0.5925049,-0.030743085,0.1134098,-0.17805912,-0.39395928,-0.36651123,0.059937563,-3.0785637,0.6253303,-0.00034683693,-0.06681831,0.031226099,0.0019185151,-0.0035498785,0.0031989724,-0.012577677,0.49692348,-1.3772761,1.8989166,-2.0906904,-1.5706853,2.472187,-0.11488799,0.056260053,-0.07406467,0.013296689,0.0014371304,-0.10227552,-0.57460845,0.15322891,-9.5385,0.7777002,47.66808,-0.8555087,-2.5732818,-3.1409254,-0.27622575,0.05306339,-0.32111484,28.25,29.625,28.6875,32.5,34.9375,36.0
0.15205204,-0.93087524,0.5703357,-0.64223725,-0.030781722,0.104851775,-0.17825274,-0.3940909,-0.36644772,0.059935946,-3.0785565,0.62536734,-0.00034699103,-0.06737494,0.031317633,0.002290833,-0.0040741423,0.004027805,-0.012265819,0.49669555,-1.377156,1.8987726,-2.0906665,-1.5706853,2.4719832,-0.11556227,0.0560284,-0.074593924,0.0130792605,0.0015021912,-0.10326159,-0.5554548,0.15322891,-9.500193,0.7463667,47.66271,-0.9342483,-2.328877,-3.20109,-0.27832088,0.061729543,-0.33823532,28.25,29.625,28.6875,32.5,34.9375,36.0
0.15405181,-0.3350774,0.8735449,-0.45633906,-0.03420206,0.09743891,-0.180119,-0.39424682,-0.36641368,0.05998196,-3.0786572,0.62535006,-0.0002301976,-0.06805825,0.0312774,0.0017017018,-0.00430265,0.0033548486,-0.013883018,0.49647966,-1.3770831,1.8985814,-2.0906665,-1.5706605,2.4717438,-0.11641457,0.05815356,-0.075641334,0.012485346,0.00203349,-0.10249657,-0.47884035,0.019153614,-9.461885,0.779936,47.686886,-0.947712,-2.498144,-3.2167187,-0.29158515,0.067564584,-0.34355238,28.25,29.625,28.6875,32.5,34.9375,36.0
0.15605168,-0.32071304,0.18071283,-0.8308365,-0.013592561,0.065966636,-0.16761748,-0.39436153,-0.3663176,0.059941545,-3.078568,0.625425,-0.00030692166,-0.06931524,0.031635843,0.0021868893,-0.005088513,0.004504544,-0.0134244645,0.49622768,-1.3769389,1.898497,-2.0906422,-1.5706848,2.47155,-0.11822698,0.05827402,-0.07682247,0.01215846,0.0021659557,-0.104767434,-0.4213795,0.076614454,-9.461885,0.78217715,47.674347,-1.0547143,-2.4607081,-3.248554,-0.28677666,0.058391195,-0.369035,28.25,29.625,28.6875,32.5,34.9375,36.0
0.1580517,-0.067530796,0.702997,-0.8531154,-0.020453852,0.047565985,-0.1751948,-0.39453074,-0.36624816,0.05995802,-3.0785623,0.62552035,-0.00025248673,-0.069126114,0.031008426,0.002104813,-0.0050911154,0.0049761506,-0.012225735,0.49596325,-1.3768067,1.8982948,-2.0906074,-1.5706972,2.471346,-0.11681997,0.05886233,-0.07719738,0.011529198,0.0019469359,-0.10455842,-0.30645782,0.038307227,-9.500193,0.7978386,47.682407,-1.0404794,-2.3771486,-3.2226007,-0.28307772,0.06817936,-0.42182332,28.25,29.625,28.6875,32.5,34.9375,36.0
0.16005243,0.17344952,0.6226633,-0.68984,-0.012309396,0.038707413,-0.17010885,-0.39468154,-0.3661905,0.059970897,-3.0785959,0.6255809,-0.00013996285,-0.0728479,0.032501522,0.0031166105,-0.00604645,0.00731833,-0.010712013,0.49573532,-1.3767102,1.8981618,-2.0906546,-1.5707091,2.4711516,-0.12253799,0.06005956,-0.08092687,0.011547041,0.0016744875,-0.11178791,-0.17238252,0.05746084,-9.404425,0.78888994,47.693153,-0.98171985,-2.47375,-3.1168373,-0.29006094,0.067057475,-0.35454118,28.25,29.625,28.6875,32.5,34.9375,36.0
0.16205241,0.08420148,0.48158142,-0.8491782,-0.0076464857,0.037727892,-0.17376988,-0.39482743,-0.36612883,0.059954397,-3.078623,0.62560093,-0.00023036073,-0.071674295,0.032404877,0.002316565,-0.0051519964,0.006171565,-0.0040640533,0.49546045,-1.3765419,1.8979944,-2.0906312,-1.570649,2.4708858,-0.121111706,0.06019559,-0.07917813,0.011104825,0.0014346475,-0.11700989,-0.076614454,0.095768064,-9.385271,0.7642693,47.66539,-1.0176388,-2.4285479,-3.2561212,-0.29133633,0.07151419,-0.3323872,28.25,29.625,28.6875,32.5,34.9375,36.0
0.16405219,0.4956854,0.83084553,-0.6784086,-0.013354914,0.04071962,-0.17979096,-0.3949693,-0.36605978,0.05996977,-3.0786135,0.6255755,-0.00014037022,-0.0732864,0.032505475,0.0026550726,-0.0055076587,0.007187556,0.0022352627,0.49524418,-1.3764453,1.8978394,-2.0906074,-1.5706972,2.470655,-0.1226168,0.061711453,-0.08174762,0.011090933,0.0012639966,-0.12481273,0.095768064,0.11492168,-9.442732,0.78217715,47.667187,-1.0672277,-2.37711,-3.273127,-0.28197843,0.09148601,-0.27764627,28.25,29.625,28.6875,32.5,34.9375,36.0
0.16605209,-0.21329868,0.45388755,-0.688903,-0.0048990273,0.02264185,-0.16802299,-0.39511937,-0.3659912,0.05997153,-3.078631,0.62563056,-0.00017702929,-0.07457739,0.03218784,0.0037063814,-0.006146412,0.008837882,0.0098606795,0.49496883,-1.376313,1.8976701,-2.0905707,-1.570661,2.4704118,-0.12308268,0.06207327,-0.08478476,0.012016721,0.0010392987,-0.13290252,0.076614454,0.15322891,-9.346964,0.78888994,47.68062,-1.0801536,-2.464585,-3.026457,-0.28230375,0.09157303,-0.18464199,28.25,29.625,28.6875,32.5,34.9375,36.0
0.16805194,0.06453739,0.50562286,-0.6982307,-0.0043199896,0.023176525,-0.17438157,-0.39525855,-0.3659153,0.059960954,-3.0786161,0.62553096,-0.00018272312,-0.07439899,0.032769185,0.003164652,-0.0055835904,0.0075768563,0.011182935,0.4947288,-1.3761688,1.8975152,-2.090535,-1.5706853,2.4701116,-0.123927996,0.06238892,-0.083997175,0.012287294,0.0011440166,-0.13507059,0.038307227,0.15322891,-9.270349,0.8247004,47.693153,-1.0122614,-2.2873962,-3.2133994,-0.28786415,0.10304764,-0.11722775,28.25,29.625,28.6875,32.5,34.9375,36.0
0.17005184,0.27058226,0.16718815,-0.7110401,-0.0044715614,0.015253048,-0.16789028,-0.39540365,-0.3658676,0.059980985,-3.0786686,0.6255208,-0.00015147241,-0.07577835,0.033598866,0.0032284376,-0.006257258,0.006708376,0.009973382,0.49450043,-1.3760604,1.8973354,-2.0905106,-1.5706605,2.4698703,-0.12717517,0.06342462,-0.0856076,0.013306818,0.0021563112,-0.13710904,0.038307227,0.1340753,-9.308656,0.7978386,47.668976,-1.1656467,-2.361799,-3.1171126,-0.29964462,0.07686008,-0.08755636,28.25,29.625,28.6875,32.5,34.9375,36.0
0.17205174,0.4861829,0.11881065,-0.64429677,-0.015726177,0.014232736,-0.16295332,-0.39558616,-0.36581478,0.06001032,3.0786474,-0.6255173,6.481801e-05,-0.07561116,0.033142854,0.0031692768,-0.0067222686,0.006049497,0.006478392,0.49423736,-1.3759279,1.8971089,-2.0904987,-1.5706486,2.4696078,-0.12666175,0.06403931,-0.08631031,0.013753655,0.0028913482,-0.13310122,0.038307227,0.15322891,-9.404425,0.80679786,47.634937,-1.1352978,-2.3374338,-3.1695051,-0.31034625,0.07794587,-0.09605135,28.25,29.625,28.6875,32.5,34.9375,36.0
0.17405157,0.3710931,-0.034688942,-0.79481727,-0.023553986,0.017903985,-0.16520151,-0.39572617,-0.36570898,0.059992477,-3.0786736,0.625506,-6.0459435e-05,-0.076201916,0.033643287,0.0028359988,-0.006325611,0.005743293,0.0004220046,0.49396124,-1.3758075,1.8970011,-2.0904748,-1.5706967,2.4693215,-0.12787959,0.06500814,-0.086675815,0.013603158,0.002683838,-0.12826218,0.0,0.28730422,-9.385271,0.7777002,47.66987,-1.1596315,-2.297986,-3.1571999,-0.29840106,0.08586638,-0.14153025,28.25,29.625,28.6875,32.5,34.9375,36.0
0.17605166,0.1674449,-0.16638261,-0.6391607,-0.0309919,0.030357903,-0.16699705,-0.39585721,-0.36566928,0.059981607,-3.078697,0.62545705,-0.00015460845,-0.07711997,0.03484584,0.0024217984,-0.0055697854,0.0048721354,-0.0072278255,0.49374485,-1.375627,1.896798,-2.0904148,-1.5706486,2.4690716,-0.13054636,0.06593597,-0.086956136,0.014088442,0.0024289724,-0.12327864,0.038307227,0.24899697,-9.461885,0.75755644,47.66539,-1.1273761,-2.3458679,-3.2237678,-0.3023961,0.08770388,-0.23492244,28.25,29.625,28.6875,32.5,34.9375,36.0
0.17805265,0.10830307,-0.23731604,-0.79163617,-0.03083678,0.03747303,-0.16594076,-0.3960136,-0.36559296,0.059965402,-3.078687,0.62549347,-0.00012983894,-0.07757568,0.035030115,0.0021817328,-0.0049348106,0.004326951,-0.010774772,0.4934814,-1.3754705,1.8966545,-2.0904381,-1.570661,2.4688323,-0.131045,0.06724913,-0.088122554,0.014722778,0.0021302658,-0.12022926,-0.019153614,0.28730422,-9.423578,0.7709874,47.64121,-1.2052691,-2.269313,-3.289668,-0.3227301,0.1021249,-0.27169663,28.25,29.625,28.6875,32.5,34.9375,36.0
0.18005253,0.10062123,0.10272089,-0.7252806,-0.036892876,0.03989075,-0.16497491,-0.3961938,-0.3655123,0.0600091,3.078653,-0.625545,5.8299047e-05,-0.078460746,0.035711717,0.002044501,-0.0045758937,0.004044336,-0.014849666,0.4931814,-1.375386,1.8964385,-2.0903661,-1.570661,2.4685688,-0.13284133,0.06816882,-0.08898938,0.015090025,0.001955898,-0.11794987,-0.095768064,0.30645782,-9.423578,0.86498255,47.686886,-1.1214428,-2.3789423,-3.2636533,-0.33356553,0.09242548,-0.3428715,28.25,29.625,28.6875,32.5,34.9375,36.0
0.18205245,0.035679415,-0.2909476,-0.48240545,-0.031450268,0.048572417,-0.16400115,-0.3963363,-0.3654453,0.060008015,3.0786824,-0.625532,4.9415252e-05,-0.079580545,0.03602692,0.0021762406,-0.0053361896,0.0045690285,-0.01751819,0.4929535,-1.3752416,1.8962587,-2.0903184,-1.5706848,2.4683292,-0.1346123,0.06885575,-0.08999972,0.014587565,0.0023738716,-0.117052436,-0.15322891,0.2681506,-9.32781,0.800085,47.682407,-1.1646966,-2.2739942,-3.2914517,-0.33786392,0.09950393,-0.40098304,28.25,29.625,28.6875,32.5,34.9375,36.0
0.18405233,-0.5862897,0.17331307,-0.60738903,-0.029107364,0.03611422,-0.16583264,-0.39650598,-0.36536852,0.059999008,3.0786688,-0.62560666,2.3998227e-05,-0.08062806,0.036475483,0.0021439977,-0.006032748,0.0045922766,-0.020701893,0.49267715,-1.3750733,1.8960794,-2.090319,-1.5706967,2.4681013,-0.13664769,0.069674455,-0.090832755,0.014249066,0.002977143,-0.11590452,-0.22984336,0.13407528,-9.32781,0.8493211,47.68062,-1.0856824,-2.2723753,-3.3043532,-0.34817475,0.089569606,-0.43758333,28.25,29.625,28.6875,32.5,34.9375,36.0
0.18605231,-0.21671917,0.019803049,-0.6167727,-0.023418317,0.05811198,-0.16711015,-0.39665177,-0.36531535,0.06001156,3.0786097,-0.62563264,4.49606e-05,-0.08154312,0.037110876,0.0019401859,-0.0068393108,0.0037677232,-0.021460142,0.4924248,-1.3749528,1.8958997,-2.0902832,-1.5706481,2.4678726,-0.13919094,0.07051474,-0.091388956,0.014312775,0.0040810998,-0.117690735,-0.21068975,0.0,-9.385271,0.79560274,47.66271,-1.007,-2.3312464,-3.2793498,-0.343521,0.08045833,-0.4960072,28.25,29.625,28.6875,32.5,34.9375,36.0
0.18805224,-0.8507376,0.11869577,-0.35303754,-0.0142550655,0.0554218,-0.16094442,-0.3968103,-0.3652502,0.060018666,3.0785618,-0.6256587,5.4321736e-05,-0.083032325,0.037705816,0.0012302917,-0.0063405107,0.0026500586,-0.018551167,0.49214873,-1.3748196,1.8957199,-2.0902588,-1.5706123,2.467619,-0.14155506,0.0736711,-0.09359412,0.0145878885,0.004170051,-0.122962534,-0.34476507,0.13407528,-9.442732,0.800085,47.65912,-1.1101,-2.2214937,-3.3153746,-0.35116625,0.07900572,-0.5165681,28.25,29.625,28.6875,32.5,34.9375,36.0
0.19005221,-0.89802927,0.6950867,-0.26939988,-0.012299961,0.07596163,-0.16631639,-0.39697674,-0.3651694,0.060028777,3.078549,-0.6256872,4.18645e-05,-0.08264481,0.03771451,0.0013180902,-0.0060617863,0.002567401,-0.008727514,0.4918615,-1.3746876,1.8955292,-2.0902107,-1.5706123,2.4673512,-0.14104322,0.07312788,-0.093249105,0.014993521,0.003968354,-0.1322743,-0.4405331,0.076614454,-9.32781,0.86945957,47.672558,-1.0472224,-2.2060623,-3.250083,-0.34658533,0.07774007,-0.44202185,28.25,29.625,28.6875,32.5,34.9375,36.0
0.19205199,-1.374387,0.7391363,-0.46945384,0.0070132907,0.082976356,-0.16848597,-0.39718017,-0.36510953,0.06004691,3.0784612,-0.62575907,-3.2454256e-05,-0.084003076,0.038460642,0.00079459004,-0.006161584,0.001725727,0.0004382382,0.49156085,-1.3745189,1.8952903,-2.0902226,-1.570588,2.4671066,-0.14377928,0.075247906,-0.09456408,0.014887545,0.0044644037,-0.14417562,-0.40222588,-0.038307227,-9.404425,0.8291774,47.687782,-0.96021146,-2.1941051,-3.4227004,-0.36180884,0.063428864,-0.3363576,28.25,29.625,28.6875,32.5,34.9375,36.0
0.19405198,-1.5563312,1.2880223,-0.28166178,-0.0034190412,0.08618546,-0.1766085,-0.39729518,-0.3650087,0.05999557,3.0785456,-0.6257318,0.00011521526,-0.083818786,0.037519142,-0.0007149167,-0.0060014008,-0.000977668,0.008462191,0.49128637,-1.374349,1.8951944,-2.090175,-1.5705875,2.4668045,-0.14268629,0.07948907,-0.096136235,0.014675868,0.005578315,-0.15110748,-0.45968673,-0.076614454,-9.251195,0.86945957,47.694946,-1.195679,-2.4666402,-3.2224514,-0.350937,0.06356279,-0.24972081,28.25,29.625,28.6875,32.5,34.9375,36.0
0.19605206,-1.5961412,1.1455835,-0.124941245,-0.0036391707,0.093028694,-0.1682223,-0.39748752,-0.36495262,0.060016487,3.0785022,-0.6257014,5.3886368e-05,-0.08519592,0.038147826,0.00063719036,-0.0073293964,0.0019276356,0.011669277,0.49101007,-1.3741816,1.8949426,-2.0901515,-1.5705756,2.4665148,-0.14481404,0.07738724,-0.0965798,0.014037906,0.00538716,-0.15644184,-0.59376204,-0.076614454,-9.232041,0.8090337,47.672558,-1.1337957,-2.2830367,-3.3234708,-0.35903665,0.038555313,-0.16952303,28.25,29.625,28.6875,32.5,34.9375,36.0
0.19805185,-0.7265817,0.892798,-0.20215148,0.012471625,0.10483384,-0.16650273,-0.39764544,-0.3648768,0.060015358,3.0784812,-0.62565845,0.00011775134,-0.08733916,0.039420385,0.0005483639,-0.006962886,0.0021675872,0.009519904,0.49070945,-1.3740369,1.8947624,-2.0901034,-1.5705274,2.46619,-0.14857513,0.07920985,-0.09859007,0.0141978115,0.004946439,-0.15805195,-0.6512229,-0.15322891,-9.289502,0.8537928,47.677036,-1.1435467,-2.3406725,-3.3047705,-0.32148355,0.039503407,-0.14813569,28.25,29.625,28.6875,32.5,34.9375,36.0
0.20005251,-1.1230049,0.9456266,-0.18622868,0.014914752,0.082736656,-0.16221535,-0.39782256,-0.36478105,0.060007133,3.0785089,-0.6256286,6.805983e-05,-0.08770527,0.038665824,0.00070887315,-0.006853985,0.0027894443,0.0038433261,0.49041054,-1.3738804,1.894595,-2.0901034,-1.5705642,2.4658692,-0.14734107,0.08058859,-0.100644894,0.014372821,0.004556223,-0.15113974,-0.5554548,-0.076614454,-9.32781,0.784413,47.68062,-1.176686,-2.3285344,-3.2023993,-0.31857634,0.035929777,-0.19260538,28.25,29.625,28.6875,32.5,34.9375,36.0
0.20205241,-1.2297971,1.2502548,-0.23386137,0.00053275906,0.076195404,-0.17548053,-0.39801338,-0.36468568,0.06001439,3.0784678,-0.6257382,9.285297e-05,-0.08907625,0.03949158,0.0010080669,-0.006712275,0.0035373482,-0.0032055182,0.49006248,-1.373724,1.894379,-2.0900433,-1.5705403,2.4655948,-0.14961447,0.08104083,-0.10192945,0.014618188,0.0040785093,-0.1463631,-0.63206923,0.0,-9.212888,0.7665104,47.699425,-1.1210663,-2.3229978,-3.2949715,-0.33358762,0.03509911,-0.22649422,28.25,29.625,28.6875,32.5,34.9375,36.0
0.2040522,-0.5437295,0.74027586,-0.2028671,0.012152859,0.0993074,-0.16420484,-0.3981824,-0.36462858,0.06002676,3.078436,-0.62565523,6.1503764e-05,-0.08956196,0.040259074,-0.0005324708,-0.00484614,0.0013457016,-0.0074472246,0.48979872,-1.3735787,1.8941754,-2.090031,-1.5705165,2.4652834,-0.15091573,0.084368914,-0.10238111,0.014559987,0.0034697428,-0.14342095,-0.7086837,-0.038307227,-9.232041,0.8224646,47.713753,-1.1166216,-2.3650184,-3.311478,-0.33323783,0.07187694,-0.30603057,28.25,29.625,28.6875,32.5,34.9375,36.0
0.206052,-1.1761334,0.868948,-0.19793035,0.003513789,0.10094913,-0.16832261,-0.3983644,-0.36451632,0.06000586,3.0784867,-0.6257421,7.219758e-05,-0.09062862,0.040782377,0.00069185544,-0.005791946,0.0031058907,-0.009565922,0.4894747,-1.373387,1.8939842,-2.0899832,-1.5705642,2.4650073,-0.15270375,0.08273837,-0.10338371,0.015189277,0.0034704073,-0.1430904,-0.6895301,-0.076614454,-9.270349,0.8918391,47.672558,-1.1981337,-2.4084992,-3.170279,-0.32408997,0.045492657,-0.33479768,28.25,29.625,28.6875,32.5,34.9375,36.0
0.20805185,-1.0873773,0.32637298,-0.24723259,0.0017693638,0.1082504,-0.16238618,-0.39856988,-0.36444786,0.060026158,3.0784183,-0.6257461,3.6860532e-05,-0.091098756,0.04057604,0.0008115935,-0.0061378353,0.0033281907,-0.010064351,0.48915142,-1.3732185,1.8937324,-2.0899594,-1.5705279,2.4646952,-0.15284173,0.08349811,-0.104593255,0.015285919,0.0036790813,-0.14272948,-0.5554548,0.019153614,-9.212888,0.8247004,47.658226,-1.206671,-2.3300638,-3.3313034,-0.34190196,0.045329638,-0.37100458,28.25,29.625,28.6875,32.5,34.9375,36.0
0.21005183,-0.71182394,0.38385296,-0.3730244,-0.0068186345,0.10636243,-0.17033996,-0.39873978,-0.3643652,0.06000685,3.0784152,-0.6258779,0.00011136864,-0.09222154,0.040812444,-0.00048893946,-0.005207225,0.0015325823,-0.009382339,0.4888515,-1.3730127,1.8935179,-2.0898993,-1.570516,2.464478,-0.15420586,0.08781126,-0.10675437,0.015159467,0.0036902328,-0.14477432,-0.45968673,-0.019153614,-9.3661175,0.84708,47.645687,-1.2094111,-2.54388,-3.1064415,-0.33959657,0.04517279,-0.3877041,28.25,29.625,28.6875,32.5,34.9375,36.0
0.21205157,-0.754572,0.36560825,-0.49684152,-0.008445465,0.08107169,-0.16825595,-0.39891455,-0.364272,0.059993356,3.0784483,-0.6258042,8.60119e-05,-0.09332546,0.040918756,0.0010714581,-0.006558029,0.0045007397,-0.00477805,0.48855203,-1.3728454,1.8933495,-2.0898993,-1.5705403,2.4641285,-0.155197,0.08576598,-0.10785827,0.015053131,0.0034889434,-0.15036938,-0.34476504,0.05746084,-9.270349,0.8112748,47.65912,-1.2533683,-2.3346286,-3.269249,-0.3344913,0.027367355,-0.3563493,28.25,29.625,28.6875,32.5,34.9375,36.0
0.21405238,-0.36986107,0.47804844,-0.3880202,-0.015001151,0.062385343,-0.16750689,-0.39912397,-0.36420488,0.06002317,3.0783668,-0.6257616,6.80411e-06,-0.09457206,0.04125396,0.0004732008,-0.0055977833,0.0038951032,0.0026817585,0.48822817,-1.3727003,1.8931092,-2.0898993,-1.5705045,2.4637885,-0.1564731,0.08878704,-0.110166684,0.015336272,0.0029386238,-0.15910292,-0.2681506,0.019153614,-9.32781,0.81351066,47.687782,-1.2700005,-2.4568517,-3.1875238,-0.33311278,0.05164157,-0.29079142,28.25,29.625,28.6875,32.5,34.9375,36.0
0.21605241,-0.39281574,0.070884496,-0.56511337,-0.0025663637,0.03917741,-0.15932602,-0.39931628,-0.3640852,0.060007945,3.0783825,-0.62589407,2.8207838e-05,-0.09649746,0.04213304,0.0005510412,-0.0055432166,0.0048984936,0.010607046,0.48786822,-1.3725196,1.892918,-2.0898516,-1.5705284,2.4635093,-0.15929694,0.0902117,-0.11193748,0.014822967,0.0024126833,-0.16985053,-0.11492168,0.1340753,-9.289502,0.8023209,47.66987,-1.226547,-2.5535407,-3.0540454,-0.32422435,0.056780826,-0.18421471,28.25,29.625,28.6875,32.5,34.9375,36.0
0.21805196,0.15956981,0.24684343,-0.57505906,-0.010830644,0.044600077,-0.1708464,-0.39950877,-0.36402103,0.06000016,3.0784013,-0.6257615,4.2829397e-05,-0.097964115,0.043168906,0.00025014684,-0.0048432206,0.004627454,0.011737249,0.48757985,-1.3722907,1.8926553,-2.0898154,-1.570517,2.463136,-0.16198951,0.09191952,-0.113373116,0.015123517,0.0019208773,-0.17367189,-0.1340753,0.19153613,-9.346964,0.85155696,47.70032,-1.238147,-2.5261168,-3.0875974,-0.31741583,0.06122105,-0.099175304,28.25,29.625,28.6875,32.5,34.9375,36.0
0.22005162,0.5434,0.23201703,-0.5769179,-0.029579058,0.051661927,-0.17634249,-0.39972162,-0.36391932,0.060000703,3.0783937,-0.62577826,-2.4294006e-05,-0.09885001,0.04349626,0.00015861858,-0.0048464746,0.004780179,0.010770282,0.48723233,-1.3721102,1.8924392,-2.0898154,-1.5705413,2.4628,-0.16322517,0.09300995,-0.11444139,0.01496175,0.0018579653,-0.17393987,-0.095768064,0.30645782,-9.289502,0.7329411,47.693153,-1.1472769,-2.5489938,-3.0903711,-0.3036994,0.07148199,-0.061653465,28.25,29.625,28.6875,32.5,34.9375,36.0
0.22205251,0.25198102,-0.04803607,-0.6527706,-0.046552032,0.036838695,-0.16447955,-0.39989716,-0.3638195,0.059976216,3.0784137,-0.6257666,0.00010016078,-0.10033521,0.04466066,0.0005201743,-0.0051748287,0.00491571,0.0026162576,0.4868838,-1.371906,1.8922356,-2.0897439,-1.5705045,2.4624417,-0.16658874,0.09314243,-0.11561407,0.015733888,0.002073246,-0.16914947,-0.038307227,0.2681506,-9.3661175,0.83365434,47.658226,-1.010628,-2.6400576,-3.0253515,-0.29272628,0.08702926,-0.10178001,28.25,29.625,28.6875,32.5,34.9375,36.0
0.22405244,0.5741543,-0.2981624,-0.5992332,-0.05475448,0.043984026,-0.17394221,-0.4000721,-0.36372167,0.05997134,3.0784712,-0.6257049,9.5478215e-05,-0.10023225,0.044321187,0.0004067761,-0.005779616,0.004055887,-0.005679337,0.4865844,-1.3717376,1.8920325,-2.0896833,-1.5705408,2.4620967,-0.16644223,0.09379635,-0.116251655,0.016184462,0.0030066832,-0.16070846,-0.114921674,0.22984336,-9.461885,0.80679786,47.672558,-1.0816631,-2.5292246,-3.0891201,-0.30555865,0.08358675,-0.16059428,28.25,29.625,28.6875,32.5,34.9375,36.0
0.22605246,-0.02507008,-0.5915787,-0.59492415,-0.055607677,0.043769408,-0.16063072,-0.40031123,-0.3636403,0.059991527,3.0783687,-0.62580466,3.194714e-05,-0.10085489,0.04439972,0.00030861073,-0.00589828,0.0038641274,-0.012084279,0.48621053,-1.3715451,1.8917574,-2.0896833,-1.5705045,2.4617982,-0.16717365,0.09494126,-0.11744569,0.016352832,0.0032137372,-0.15503438,-0.21068975,0.2873042,-9.404425,0.73741806,47.66808,-1.0533645,-2.5602334,-3.0808754,-0.31509674,0.079709716,-0.24364325,28.25,29.625,28.6875,32.5,34.9375,36.0
0.22805235,0.34481862,-0.06799375,-0.76987725,-0.051232304,0.059925888,-0.17466086,-0.40049502,-0.36354002,0.059975956,3.0783799,-0.6258608,7.545639e-05,-0.10273103,0.044686172,0.0014366522,-0.0072920276,0.0059035704,-0.016583446,0.48587692,-1.371353,1.8915533,-2.0896356,-1.5705045,2.4614983,-0.16943704,0.09482333,-0.11991657,0.016487084,0.003484984,-0.15279819,-0.076614454,0.22984336,-9.423578,0.8537928,47.67166,-0.9781107,-2.4471807,-3.1616104,-0.29927492,0.06765104,-0.33438498,28.25,29.625,28.6875,32.5,34.9375,36.0
0.23005216,0.46946284,0.26490325,-0.7033741,-0.044671044,0.06446621,-0.1711933,-0.4007286,-0.36346123,0.059982903,3.0782812,-0.62597764,5.4163404e-05,-0.10200555,0.04589319,-6.938598e-05,-0.0055929585,0.0032017275,-0.022871314,0.48550558,-1.3711364,1.8912796,-2.0896356,-1.5704569,2.4612124,-0.17059425,0.095644854,-0.11747442,0.01641415,0.003259279,-0.1476679,0.0,0.22984336,-9.5385,0.8090337,47.666286,-1.1054916,-2.538627,-3.1824884,-0.29652172,0.066956535,-0.42395854,28.25,29.625,28.6875,32.5,34.9375,36.0
0.23205197,0.023286855,0.35914284,-0.48230782,-0.03946332,0.052357737,-0.16269447,-0.40092254,-0.36336574,0.059975836,3.0783186,-0.6260043,4.66712e-05,-0.10479949,0.04553955,0.0015292864,-0.0075344993,0.006547062,-0.024793765,0.48519334,-1.3709317,1.8910383,-2.089576,-1.5704926,2.4609122,-0.17251672,0.09662415,-0.12228312,0.016374137,0.0034042485,-0.14766622,-0.05746084,0.17238252,-9.442732,0.83589023,47.696735,-1.1049945,-2.493534,-3.0801077,-0.2805758,0.0755126,-0.48142266,28.25,29.625,28.6875,32.5,34.9375,36.0
0.23405188,0.6404462,0.48271027,-0.7062122,-0.0231593,0.04553508,-0.17485847,-0.40114728,-0.36328018,0.06000864,3.07822,-0.62609565,-4.1493844e-05,-0.104442365,0.047238905,7.4820746e-05,-0.0068890043,0.0037212812,-0.020458695,0.4848331,-1.370788,1.8907899,-2.0895646,-1.5704678,2.4606216,-0.17545126,0.096862264,-0.119143404,0.0158013,0.0041744863,-0.15493762,0.095768064,0.22984336,-9.404425,0.8224646,47.674347,-0.9754436,-2.3462267,-3.2480493,-0.27158657,0.0724123,-0.4843899,28.25,29.625,28.6875,32.5,34.9375,36.0
0.23605181,1.1265428,1.0598564,-0.69763654,-0.021123951,0.040123124,-0.17816299,-0.401391,-0.3631781,0.06001956,3.0782168,-0.62614435,-0.00014692864,-0.10532442,0.048126116,0.00013844763,-0.006609829,0.0033555324,-0.011001481,0.48447332,-1.3705713,1.8905014,-2.0895402,-1.570516,2.4602928,-0.1776053,0.0972804,-0.12000875,0.016698984,0.0041110343,-0.16654833,0.15322891,0.038307227,-9.519346,0.800085,47.667187,-0.91739357,-2.585302,-3.2635558,-0.25539815,0.067844674,-0.41733512,28.25,29.625,28.6875,32.5,34.9375,36.0
0.23805174,0.52186346,1.3208023,-0.34422407,-0.025091162,0.026516326,-0.17476013,-0.40155053,-0.36313406,0.060019024,3.0781472,-0.62604606,-7.71116e-05,-0.10584417,0.048776627,-0.0004103551,-0.006295976,0.0025443514,-0.00019424132,0.48419753,-1.3704029,1.8902992,-2.0895278,-1.5704201,2.4599645,-0.17916642,0.098389246,-0.12005842,0.016524354,0.004219326,-0.17891656,0.0,-0.019153614,-9.481039,0.8493211,47.70211,-0.9133293,-2.352623,-3.357624,-0.21894336,0.073447205,-0.2760125,28.25,29.625,28.6875,32.5,34.9375,36.0
0.2400517,0.18240564,1.1167021,-0.362019,-0.0046998565,0.028383369,-0.17251419,-0.401788,-0.36300886,0.059994895,3.0781658,-0.6261229,-7.048861e-05,-0.10664623,0.04959878,-0.0006159236,-0.0061180214,0.0020993745,0.0043886816,0.48378965,-1.3701502,1.8900474,-2.089504,-1.570444,2.4596024,-0.18120773,0.099105775,-0.12051897,0.016744321,0.004267833,-0.18554074,-0.038307227,-0.076614454,-9.442732,0.8627467,47.70032,-0.90912557,-2.5870886,-3.448757,-0.21684362,0.04960546,-0.19143128,28.25,29.625,28.6875,32.5,34.9375,36.0
0.24205191,0.12740158,1.3773153,-0.3909977,0.010103714,0.050255835,-0.16859326,-0.40197122,-0.36291537,0.059988953,3.078186,-0.6260098,-1.5767253e-05,-0.10691959,0.049657933,-0.0007108733,-0.0062807663,0.0016002127,0.005478179,0.4834543,-1.3699698,1.8898324,-2.089444,-1.5704201,2.459194,-0.18171044,0.09981214,-0.1212521,0.017142469,0.0046405485,-0.18713318,-0.095768064,-0.15322891,-9.423578,0.8314132,47.69763,-1.0425248,-2.3736076,-3.3794084,-0.21334927,0.054962847,-0.12543704,28.25,29.625,28.6875,32.5,34.9375,36.0
0.24405195,0.5569005,1.7912984,-0.3300983,0.0011904226,0.08264544,-0.17125528,-0.40218633,-0.3628047,0.05998025,3.0781868,-0.62612677,2.5821041e-06,-0.10739588,0.048559748,0.00015844531,-0.007566,0.0028211048,0.0017651329,0.48308346,-1.3697535,1.8895806,-2.0893843,-1.5704316,2.4588962,-0.18055041,0.10018607,-0.123806134,0.017640626,0.0052031013,-0.18225996,-0.21068975,-0.19153613,-9.557653,0.9254084,47.709274,-1.1308908,-2.434958,-3.5196161,-0.21899796,0.047651574,-0.16593154,28.25,29.625,28.6875,32.5,34.9375,36.0
0.24605209,-0.56569767,1.4745209,-0.45728904,0.012273356,0.062268298,-0.15912443,-0.40239266,-0.3627003,0.059966795,3.0782022,-0.6261313,3.4664634e-05,-0.10720267,0.048875827,-0.00034280308,-0.007087218,0.0012346325,-0.005035223,0.48272416,-1.369537,1.8893422,-2.0893362,-1.5704316,2.4585378,-0.18102443,0.100982785,-0.12383155,0.018495806,0.005513471,-0.17593414,-0.24899697,-0.22984336,-9.519346,0.83365434,47.684196,-1.16673,-2.4093237,-3.4357316,-0.19333577,0.03485247,-0.2629013,28.25,29.625,28.6875,32.5,34.9375,36.0
0.24805343,-0.49817023,1.1666096,-0.4090314,0.011572551,0.06980958,-0.16515815,-0.40263575,-0.3626111,0.05998207,3.0781713,-0.62606597,-7.7654484e-05,-0.10787284,0.04826173,0.00086291274,-0.008142642,0.0033420546,-0.0066954372,0.48236528,-1.3693333,1.889067,-2.0893476,-1.5704435,2.4581423,-0.18047282,0.10026163,-0.1258059,0.018834315,0.0054828576,-0.17372125,-0.34476504,-0.076614454,-9.404425,0.8560339,47.696735,-1.2617949,-2.219614,-3.3809454,-0.19363804,0.03798631,-0.33001682,28.25,29.625,28.6875,32.5,34.9375,36.0
0.25005227,-0.4979054,1.4209542,-0.29764664,-0.011551985,0.0755258,-0.17564772,-0.40283516,-0.36251575,0.05998344,3.078148,-0.626118,-1.2031193e-05,-0.10890785,0.048788853,8.3748906e-05,-0.007426843,0.0019464381,-0.0076773483,0.48200554,-1.3691399,1.8888143,-2.0892637,-1.5704077,2.457818,-0.18220659,0.10313359,-0.12759005,0.019323438,0.005491134,-0.1744722,-0.47884035,-0.019153614,-9.461885,0.8717007,47.66808,-1.2595656,-2.4771218,-3.406698,-0.180418,0.052699246,-0.36229438,28.25,29.625,28.6875,32.5,34.9375,36.0
0.25205222,-0.54208356,0.96640736,-0.5564456,-0.015971618,0.079581946,-0.18507244,-0.40301862,-0.36242783,0.059956875,3.078129,-0.6260939,9.325121e-05,-0.11009924,0.049669202,0.0013033397,-0.007911896,0.0038628369,-0.009218236,0.48165762,-1.3689244,1.8886122,-2.0892398,-1.5703477,2.4574575,-0.18438359,0.10135405,-0.12841703,0.020021362,0.005028455,-0.17510802,-0.40222588,-0.05746084,-9.5385,0.8090337,47.675243,-1.1246455,-2.2437239,-3.3793435,-0.18223797,0.024112616,-0.39124262,28.25,29.625,28.6875,32.5,34.9375,36.0
0.25405225,-0.44713107,0.57043195,-0.5751836,-0.026147338,0.08105576,-0.17647754,-0.403282,-0.36230516,0.05999234,3.0781305,-0.62614584,-6.205259e-05,-0.110058896,0.049906142,-0.0007699307,-0.00578389,7.3145864e-05,-0.0022765924,0.4812621,-1.3687423,1.8883008,-2.0891793,-1.5704197,2.4570944,-0.18457942,0.106112786,-0.1295659,0.020747907,0.004912617,-0.18224391,-0.4405331,0.05746084,-9.595961,0.80456203,47.701214,-1.2982334,-2.4017062,-3.4101257,-0.17244469,0.026018605,-0.32085487,28.25,29.625,28.6875,32.5,34.9375,36.0
0.2560521,-0.57329416,0.3469245,-0.5057616,-0.04854383,0.09750522,-0.18030548,-0.40348706,-0.3622211,0.05999157,3.0780933,-0.62609375,-3.547154e-06,-0.11075734,0.04968969,0.0002590795,-0.0066406904,0.0020937007,0.0083293915,0.48090214,-1.3685386,1.8880485,-2.0891316,-1.5703601,2.4567068,-0.18464072,0.10518886,-0.13082291,0.02075842,0.0047390973,-0.19291072,-0.61291564,0.19153613,-9.595961,0.8605109,47.660015,-1.4222617,-2.3063614,-3.4224062,-0.17849419,0.031321276,-0.23624834,28.25,29.625,28.6875,32.5,34.9375,36.0
0.25805238,-0.69070226,-0.19687383,-0.7053674,-0.041114584,0.114698604,-0.17282254,-0.40370473,-0.36209583,0.059968334,3.078134,-0.6261354,6.0766062e-05,-0.11211152,0.050174963,0.000820937,-0.0066815033,0.002993539,0.015756581,0.4805059,-1.3682984,1.8877982,-2.089059,-1.570372,2.4563315,-0.18632889,0.10571576,-0.13292515,0.02152132,0.0043486124,-0.20202512,-0.47884035,0.30645782,-9.576807,0.8873621,47.68062,-1.4248164,-2.326036,-3.40725,-0.19491869,0.033800155,-0.12851255,28.25,29.625,28.6875,32.5,34.9375,36.0
0.2600523,-1.1378576,-0.04763513,-0.7874523,-0.041954756,0.09780657,-0.16992429,-0.40395775,-0.362007,0.06001248,3.0780678,-0.62604606,-9.8330216e-05,-0.11335504,0.051289927,0.0002282902,-0.0057708584,0.0021082181,0.014986262,0.48013276,-1.3681415,1.8875107,-2.089059,-1.570372,2.4559112,-0.18897592,0.10771214,-0.13405317,0.021862647,0.003977403,-0.20390017,-0.30645782,0.34476504,-9.768343,0.81351066,47.674347,-1.3963536,-2.3211179,-3.399675,-0.18458116,0.031981874,-0.054562487,28.25,29.625,28.6875,32.5,34.9375,36.0
0.26205257,-0.7086362,-0.47567523,-0.5714602,-0.05651889,0.08795495,-0.16998376,-0.40418577,-0.36191645,0.060012277,3.0780685,-0.6259933,-8.6412896e-05,-0.11675229,0.051541444,0.0018604856,-0.007898664,0.0055490783,0.0058917874,0.47977155,-1.3679008,1.8872102,-2.0889995,-1.5703601,2.455517,-0.19248077,0.10867238,-0.13889642,0.021712044,0.0042654085,-0.19830893,-0.36391866,0.36391866,-9.595961,0.8157518,47.666286,-1.3225594,-2.3468268,-3.2040486,-0.16737285,0.030692577,-0.095911525,28.25,29.625,28.6875,32.5,34.9375,36.0
0.2640525,-0.93509334,-0.8827424,-0.43246853,-0.05765548,0.06705114,-0.1663592,-0.40441087,-0.36181775,0.059999153,3.0780513,-0.62603396,-7.290568e-05,-0.117105514,0.052630678,0.0008266764,-0.0069896686,0.004143519,-0.0045209024,0.47939932,-1.3676603,1.8869475,-2.0889761,-1.5703481,2.4551725,-0.19443595,0.10999873,-0.13803999,0.021197157,0.004107698,-0.18985139,-0.49799395,0.34476504,-9.442732,0.83589023,47.687782,-1.3346239,-2.3408008,-3.2645478,-0.14160107,0.033637103,-0.16079181,28.25,29.625,28.6875,32.5,34.9375,36.0
0.26605257,-0.45620424,-0.06940707,-0.5461106,-0.046812236,0.056485355,-0.17602354,-0.4046641,-0.36171925,0.060030032,3.0779865,-0.62608194,-0.000146673,-0.11869593,0.05229965,0.0018687528,-0.0076897615,0.006724892,-0.01104459,0.47900295,-1.3674678,1.8866366,-2.088928,-1.5703362,2.4548144,-0.19482578,0.11054753,-0.14104553,0.021044113,0.0035457092,-0.18371548,-0.34476507,0.28730422,-9.500193,0.7732232,47.666286,-1.2761652,-2.322371,-3.1312451,-0.14042008,0.054454975,-0.26167578,28.25,29.625,28.6875,32.5,34.9375,36.0
0.26805255,-0.14443423,0.40119424,-0.3184956,-0.047300562,0.06352892,-0.17879832,-0.4048861,-0.36158818,0.06000929,3.0780096,-0.6261674,-9.897283e-05,-0.12022849,0.053157497,0.0014092679,-0.0075785327,0.006460686,-0.020097136,0.47859406,-1.3672389,1.8863968,-2.0888684,-1.5703481,2.454456,-0.19753364,0.11264797,-0.14243913,0.02061997,0.0035570972,-0.17737013,-0.22984336,0.19153614,-9.519346,0.9030289,47.658226,-1.3113065,-2.319707,-3.122694,-0.12193127,0.0430129,-0.36503804,28.25,29.625,28.6875,32.5,34.9375,36.0
0.2700525,-0.14891486,0.5926519,-0.015577041,-0.04453915,0.06164912,-0.17929971,-0.4051487,-0.3615033,0.06003879,3.077908,-0.6261863,-0.00019335997,-0.121300034,0.05328901,0.0010653485,-0.008028156,0.0057423175,-0.023343544,0.4781978,-1.3670338,1.8860849,-2.0888684,-1.5703119,2.4540846,-0.19904384,0.11487835,-0.14437412,0.020760022,0.004304685,-0.17563327,-0.28730422,0.17238252,-9.346964,0.90750587,47.657326,-1.2087284,-2.4982157,-3.1168246,-0.09174687,0.04050025,-0.4749902,28.25,29.625,28.6875,32.5,34.9375,36.0
0.27205232,-0.40115425,0.7250176,-0.016392328,-0.026340174,0.051842924,-0.17981285,-0.40539244,-0.36138338,0.060021322,3.0779104,-0.6262991,-0.00017396633,-0.12291729,0.05367024,0.0021340286,-0.009030698,0.0072248117,-0.019747356,0.477789,-1.3667696,1.8857979,-2.0888202,-1.5703238,2.453746,-0.2011281,0.11473658,-0.1468511,0.021602666,0.004511619,-0.18131325,-0.38307226,0.1340753,-9.385271,0.900793,47.666286,-1.1275452,-2.401115,-2.984068,-0.07770284,0.043773126,-0.47298527,28.25,29.625,28.6875,32.5,34.9375,36.0
0.2740524,-0.28388855,0.92479223,0.14415973,-0.010110006,0.06433484,-0.18292439,-0.40565577,-0.3613025,0.06003372,3.0778368,-0.6262591,-0.0002097105,-0.1230275,0.054889552,-6.5270426e-05,-0.0069574863,0.002699974,-0.010025677,0.47739226,-1.3665158,1.8854636,-2.0888078,-1.5702761,2.4533339,-0.20332466,0.11874705,-0.14691128,0.022638958,0.0047743726,-0.19323093,-0.24899697,0.15322891,-9.270349,0.8918391,47.672558,-1.0873399,-2.6243033,-3.2052355,-0.08489995,0.039957363,-0.39585164,28.25,29.625,28.6875,32.5,34.9375,36.0
0.27605242,0.36890402,2.1860168,0.26064086,-0.015787017,0.08714684,-0.20366408,-0.40593305,-0.36115125,0.060054727,3.0778217,-0.6263643,-0.00031483333,-0.123636946,0.05584296,0.0010501988,-0.008038125,0.0038687058,0.0010239882,0.4769235,-1.3663247,1.8851765,-2.0887597,-1.5703233,2.4529328,-0.20561843,0.1161649,-0.14652729,0.023299808,0.0052199806,-0.20657519,-0.19153613,-0.038307227,-9.251195,0.8247004,47.661808,-1.1443288,-2.3170702,-3.1334033,-0.0734325,0.027195036,-0.25925344,28.25,29.625,28.6875,32.5,34.9375,36.0
0.2780524,-0.77102816,1.6852295,0.10593785,-0.0003563704,0.05958953,-0.19039448,-0.40619147,-0.36105293,0.06008149,3.0778031,-0.6262425,-0.00042778577,-0.12382422,0.056417298,-1.8324778e-05,-0.0070473133,0.001701942,0.006302054,0.4765392,-1.3661196,1.8848652,-2.0887358,-1.5703357,2.452475,-0.20672287,0.118400715,-0.14691657,0.02383476,0.0053578815,-0.21295698,-0.22984336,-0.1340753,-9.308656,0.84484416,47.682407,-1.1377947,-2.6179953,-3.176099,-0.057736933,0.02049191,-0.15586911,28.25,29.625,28.6875,32.5,34.9375,36.0
0.28005227,-0.39627394,1.3665987,0.42468408,-0.006016698,0.07058299,-0.18620762,-0.40641293,-0.36094224,0.06004537,3.0777774,-0.6262764,-0.00025340554,-0.12320072,0.056453552,-0.00064148323,-0.0065334197,-0.00016384893,0.0040420354,0.4761073,-1.3658432,1.8846029,-2.0886753,-1.5702518,2.4520676,-0.20637348,0.11921433,-0.14670713,0.02472319,0.005743323,-0.2103484,-0.5554548,-0.17238252,-9.212888,0.7642693,47.674347,-1.2281933,-2.5053477,-3.296781,-0.06053751,0.015553473,-0.14843825,28.25,29.625,28.6875,32.5,34.9375,36.0
0.28205237,-0.6161036,1.3558041,0.6840047,0.00094547524,0.07338026,-0.17989828,-0.40669346,-0.3608401,0.06007278,3.0777464,-0.62631047,-0.0003880798,-0.123349,0.0557868,-0.00059633475,-0.0062437654,0.00017205435,-0.00086829823,0.4757121,-1.3656026,1.8842448,-2.088639,-1.5702876,2.4516978,-0.20501344,0.120480426,-0.14840947,0.024987122,0.0053429133,-0.20407648,-0.6703765,-0.19153613,-9.040505,0.8403672,47.705692,-1.4706373,-2.4562557,-3.2551174,-0.061459355,0.028673142,-0.23173198,28.25,29.625,28.6875,32.5,34.9375,36.0
0.2840522,0.33847332,1.993254,0.5595803,0.011957783,0.093535185,-0.19639724,-0.4069185,-0.36073238,0.060057867,3.0777426,-0.62629265,-0.00028075508,-0.12328001,0.05541805,-0.00070753857,-0.006211626,1.7890367e-05,-0.004437472,0.47530448,-1.3653501,1.8839577,-2.0885556,-1.5702394,2.4512796,-0.20424844,0.12123833,-0.14911717,0.025098609,0.005372097,-0.19974229,-0.36391866,-0.2681506,-9.097966,0.8605109,47.68599,-1.6396921,-2.4628775,-3.2984352,-0.03580317,0.023387533,-0.2934683,28.25,29.625,28.6875,32.5,34.9375,36.0
0.2860524,0.12365822,2.2020574,0.5507918,0.023517916,0.06442122,-0.18910465,-0.40718186,-0.3606171,0.060079347,3.0777173,-0.62628955,-0.00039067533,-0.12476065,0.056187056,-0.0011072406,-0.0055127842,-0.00063399854,-0.009768468,0.47489557,-1.3651452,1.8836583,-2.0885313,-1.5702637,2.4508722,-0.20652828,0.123747006,-0.15138161,0.025750903,0.00505831,-0.19668937,-0.19153613,-0.2681506,-9.136273,0.8560339,47.65106,-1.5632293,-2.3842087,-3.268613,-0.0224762,0.0154291615,-0.36647213,28.25,29.625,28.6875,32.5,34.9375,36.0
0.28805226,0.5752484,2.273547,0.77985084,0.023381626,0.04771539,-0.19095343,-0.4074193,-0.36049953,0.060075812,3.0777228,-0.62631124,-0.00040234503,-0.12624313,0.05772863,-0.00018686477,-0.005795817,0.00093961245,-0.0127924085,0.4744982,-1.3649173,1.8833827,-2.088483,-1.5702761,2.4504879,-0.21002284,0.12213608,-0.15164872,0.026101507,0.004592344,-0.19715987,-0.15322891,-0.22984336,-9.078813,0.84708,47.66539,-1.393115,-2.3718038,-3.3069592,-0.017367184,-0.003549331,-0.41091332,28.25,29.625,28.6875,32.5,34.9375,36.0
0.29005226,0.62681776,2.0848885,0.31329536,0.021763874,0.023432396,-0.18649724,-0.4076906,-0.36038938,0.06006017,3.077668,-0.6263707,-0.00039267776,-0.12703283,0.058209155,-0.0009413737,-0.0048566423,-0.00027535984,-0.005782718,0.4740542,-1.3646282,1.8830723,-2.088483,-1.5702399,2.450088,-0.2112291,0.124711685,-0.153155,0.026556332,0.004320722,-0.20537467,-0.22984336,-0.076614454,-9.059659,0.8717007,47.694054,-1.3962698,-2.3999186,-3.4152417,-0.00444036,0.021932732,-0.34912187,28.25,29.625,28.6875,32.5,34.9375,36.0
0.29205242,1.010364,1.1327643,0.0219419,0.026620133,0.016836382,-0.1826944,-0.4079376,-0.36024925,0.06005201,3.077712,-0.6263604,-0.0003723402,-0.12746991,0.05916156,7.2260016e-05,-0.004759479,0.0009002254,0.0048081665,0.47361833,-1.3643888,1.8827852,-2.0883992,-1.5702642,2.4496403,-0.21272156,0.12246531,-0.15305503,0.027705848,0.0037025874,-0.21745822,-0.019153614,-0.095768064,-9.059659,0.85826975,47.694054,-1.2557721,-2.2087603,-3.3093646,0.004415748,0.012859069,-0.22470155,28.25,29.625,28.6875,32.5,34.9375,36.0
0.29405236,0.11864596,0.4346842,-0.28450784,0.015014502,-0.004113779,-0.18533103,-0.4081936,-0.36011913,0.060045168,3.077733,-0.62637556,-0.00032556977,-0.12895316,0.060125183,0.00048791326,-0.004330378,0.0004128161,0.009600152,0.47317675,-1.3641242,1.8824619,-2.0883024,-1.5702642,2.4492056,-0.2154164,0.123530254,-0.15583691,0.0300581,0.0035399671,-0.22494408,0.22984336,0.0,-9.212888,0.83365434,47.68599,-1.228016,-2.3019419,-3.200664,-0.009748773,0.038056657,-0.109585196,28.25,29.625,28.6875,32.5,34.9375,36.0
0.29605198,0.316408,-0.08971717,-0.11219778,-0.009420461,0.012281396,-0.1757507,-0.40846425,-0.36001027,0.060070295,3.0777044,-0.6262755,-0.00035822456,-0.1305316,0.0613659,0.0009450105,-0.004249042,-0.00014711916,0.0056695873,0.47274357,-1.3638957,1.8821148,-2.08823,-1.5702399,2.4487138,-0.21886791,0.12418494,-0.15819149,0.032299794,0.0037336352,-0.22446427,-0.05746084,0.095768064,-9.308657,0.85826975,47.677036,-1.237437,-2.2163553,-3.3196778,-0.04013831,0.029687224,-0.07628546,28.25,29.625,28.6875,32.5,34.9375,36.0
0.2980522,0.4285172,0.42465183,-0.16956492,-0.045413677,0.03861607,-0.1853044,-0.4086855,-0.3598732,0.060035463,3.0777206,-0.626323,-0.00021819567,-0.13153395,0.062051326,0.0012761414,-0.004233091,-0.0006677683,-0.004337192,0.47229892,-1.3636432,1.8818749,-2.088157,-1.5702041,2.4482968,-0.2209082,0.1248036,-0.16011833,0.03408373,0.003933022,-0.21649763,-0.19153613,0.22984336,-9.270349,0.8605109,47.691364,-1.1140896,-2.1476717,-3.2126205,-0.06715988,0.040814847,-0.14615695,28.25,29.625,28.6875,32.5,34.9375,36.0
0.30005205,0.17049658,-0.20290825,-0.6503189,-0.037834857,0.05305862,-0.18607561,-0.40896642,-0.35973927,0.060028784,3.077735,-0.62637055,-0.0001709341,-0.13204697,0.06369444,-0.00037170353,-0.0026900182,-0.0039734216,-0.016587144,0.47183004,-1.3633419,1.8815049,-2.0880497,-1.5702041,2.447856,-0.2240619,0.1274842,-0.15976137,0.034688767,0.004050381,-0.20740147,-0.19153613,0.19153613,-9.461885,0.82694155,47.67345,-1.0393306,-2.2512078,-3.2170396,-0.07687941,0.045771915,-0.27642477,28.25,29.625,28.6875,32.5,34.9375,36.0
0.30205205,-0.13834919,0.40717697,-0.7105554,-0.06114023,0.06298609,-0.19235438,-0.40920314,-0.3596104,0.0600352,3.0777647,-0.62636614,-0.00020488558,-0.13286628,0.064286016,0.00017284027,-0.0028633813,-0.004043807,-0.025484554,0.47143015,-1.3631378,1.8812293,-2.0879772,-1.5702399,2.4474497,-0.22576913,0.12740013,-0.16127692,0.036262482,0.0042320145,-0.20021106,-0.22984336,0.22984336,-9.634268,0.80679786,47.658226,-0.938768,-2.124036,-3.1465726,-0.09507446,0.042878814,-0.38258135,28.25,29.625,28.6875,32.5,34.9375,36.0
0.30405197,-0.28486052,-0.23639223,-0.7267815,-0.05504123,0.073462084,-0.19098829,-0.40947714,-0.35946223,0.060018703,3.077732,-0.626548,-0.00013412807,-0.13309054,0.06426678,-0.0004529297,-0.0026108078,-0.006034516,-0.028072838,0.47092882,-1.3628608,1.8809184,-2.0879052,-1.5702156,2.447066,-0.22621037,0.12968637,-0.16291024,0.037501764,0.004899531,-0.198064,-0.2681506,0.24899697,-9.710882,0.83365434,47.703903,-0.88794446,-2.2670982,-3.30344,-0.12997302,0.04063125,-0.4540736,28.25,29.625,28.6875,32.5,34.9375,36.0
0.306052,-0.7942927,-0.5388385,-0.74320054,-0.05494098,0.08399694,-0.18380508,-0.4097091,-0.35935274,0.06001565,3.0777364,-0.6265417,-3.7467373e-05,-0.13270065,0.0634112,-0.00038921816,-0.0029557531,-0.0065865805,-0.018916931,0.4705222,-1.3626084,1.8805956,-2.0877845,-1.5701798,2.446655,-0.22465783,0.13043307,-0.16417564,0.038367603,0.005448459,-0.2056677,-0.4213795,0.36391866,-9.749189,0.842603,47.64389,-1.2035745,-2.1641293,-3.2996554,-0.15287806,0.026989093,-0.47865325,28.25,29.625,28.6875,32.5,34.9375,36.0
0.30805197,-1.09917,0.13544135,-0.9186772,-0.05800646,0.09567549,-0.19254032,-0.41001883,-0.3592395,0.060037974,3.0776494,-0.6266125,-8.5654625e-05,-0.13178128,0.063176244,-0.0011490843,-0.0021001245,-0.009809556,-0.00508726,0.47004214,-1.362331,1.8802012,-2.087736,-1.5701436,2.4462304,-0.22376397,0.13207848,-0.16501658,0.040839437,0.0061681625,-0.21860349,-0.3256114,0.38307226,-9.749189,0.8291774,47.65912,-1.3493822,-2.4161248,-3.3116632,-0.20453505,0.014983764,-0.37229267,28.25,29.625,28.6875,32.5,34.9375,36.0
0.31005198,-1.1410515,-0.05031019,-0.84342474,-0.043925263,0.10286624,-0.19448777,-0.41025817,-0.35908937,0.060016837,3.0777352,-0.626585,9.992371e-06,-0.13256085,0.063991845,-0.0026682713,-0.0010977534,-0.012388018,0.0059703216,0.46959773,-1.3620658,1.8799013,-2.0876043,-1.5701674,2.445758,-0.2258548,0.13571954,-0.16598703,0.04092602,0.0064203953,-0.23175189,-0.19153613,0.24899697,-9.921572,0.9254084,47.670765,-1.4562469,-2.3792837,-3.3793983,-0.2303455,0.0050880453,-0.2262684,28.25,29.625,28.6875,32.5,34.9375,36.0
0.3120518,-1.0003498,0.17562906,-0.9703256,-0.048052285,0.094942495,-0.18060234,-0.4105341,-0.35900518,0.060030166,3.0776772,-0.62641835,-4.647962e-05,-0.13498342,0.06410287,-0.001427769,-0.0029638489,-0.00795635,0.0075418833,0.46918926,-1.3618017,1.8795546,-2.0876057,-1.5701197,2.4452531,-0.22778475,0.13551663,-0.16801451,0.038377166,0.006087524,-0.23525177,-0.21068975,0.24899697,-9.825804,0.84484416,47.674347,-1.4980057,-2.376251,-3.363883,-0.23521656,0.00628715,-0.1456747,28.25,29.625,28.6875,32.5,34.9375,36.0
0.3140516,-0.18109024,-0.045700915,-0.9068034,-0.036566056,0.09151835,-0.18538299,-0.41079754,-0.35886893,0.060024023,3.0777037,-0.6264458,1.6788561e-05,-0.1342909,0.06417607,-0.0032363245,-0.00068164425,-0.01053465,0.0029571538,0.46873334,-1.3615242,1.8792084,-2.0874856,-1.5701197,2.444811,-0.22664419,0.13867609,-0.16770473,0.03824181,0.0051991125,-0.22952558,-0.30645782,0.17238252,-9.749189,0.8717007,47.66091,-1.5185282,-2.5348659,-3.4273443,-0.21851356,0.009957794,-0.18824728,28.25,29.625,28.6875,32.5,34.9375,36.0
0.3160527,0.07134088,0.12694064,-0.5510645,-0.029789824,0.068444446,-0.182428,-0.41109258,-0.3587294,0.06002862,3.077679,-0.62650317,-3.9253067e-05,-0.13604948,0.064628884,-0.0029904994,-0.0006786164,-0.00951695,-0.0068224855,0.46825263,-1.3612595,1.8788723,-2.0874498,-1.5701321,2.4443696,-0.2284884,0.14036179,-0.1703253,0.03826667,0.004731161,-0.22158837,-0.3256114,0.11492168,-9.710882,0.9097417,47.66539,-1.5137634,-2.5020485,-3.5007966,-0.25633824,0.018762073,-0.28040394,28.25,29.625,28.6875,32.5,34.9375,36.0
0.31805164,-0.11521451,0.4130078,-0.76562077,-0.0138429655,0.04453783,-0.17449518,-0.41136417,-0.3586152,0.060026705,3.077674,-0.62648475,-2.5079513e-05,-0.1364182,0.06549871,-0.0032792073,-0.0005556316,-0.009686559,-0.012775276,0.4678201,-1.3609715,1.8785146,-2.0873783,-1.5701202,2.4439263,-0.2301128,0.14032735,-0.16954423,0.03772925,0.004692103,-0.2172603,-0.19153613,0.076614454,-9.5385,0.93436235,47.672558,-1.4772022,-2.497361,-3.48042,-0.25048688,0.028582036,-0.3623047,28.25,29.625,28.6875,32.5,34.9375,36.0
0.32005256,0.13453366,1.0830355,-0.70524156,-0.008278082,0.035531655,-0.19094129,-0.41165325,-0.35847932,0.060045116,3.0776455,-0.6264662,-5.524936e-05,-0.13822816,0.06616011,-0.0026078243,-0.0016173278,-0.008101253,-0.015378709,0.4673361,-1.360731,1.878168,-2.0873063,-1.5701078,2.4434345,-0.23277596,0.14059702,-0.17133959,0.037365664,0.0049243644,-0.21731943,-0.21068975,0.05746084,-9.615114,0.8560339,47.668976,-1.3750473,-2.554473,-3.426015,-0.25346202,0.016835578,-0.40240738,28.25,29.625,28.6875,32.5,34.9375,36.0
0.32205245,0.024337089,0.4938844,-0.36714545,-0.0069044014,0.04870699,-0.17832218,-0.41195267,-0.35835645,0.060060002,3.0775733,-0.6265372,-0.000105246014,-0.13955098,0.06728639,-0.003626305,-0.0011059297,-0.009188684,-0.008088499,0.46685806,-1.3604666,1.8778089,-2.0872715,-1.5700835,2.44301,-0.23568332,0.14325613,-0.17210118,0.036683794,0.0049698884,-0.2275161,-0.2681506,0.076614454,-9.481039,0.9254084,47.6421,-1.1938127,-2.4290252,-3.4726274,-0.2573986,0.018238721,-0.35200667,28.25,29.625,28.6875,32.5,34.9375,36.0
0.3240524,-0.7348668,0.9783034,-0.098328434,-0.023237644,0.05305345,-0.18747988,-0.41221902,-0.35820436,0.060031835,3.0776446,-0.62654555,-2.3817589e-05,-0.14200838,0.06852022,-0.0022648177,-0.0024630858,-0.006783867,1.8310842e-05,0.4663892,-1.3601552,1.8774742,-2.0871627,-1.5701078,2.4425375,-0.23979463,0.14245996,-0.17433897,0.03696382,0.0050797863,-0.23973416,-0.34476504,-0.15322891,-9.404425,0.8493211,47.657326,-1.1753359,-2.4281893,-3.3939414,-0.27152687,0.023445554,-0.22055313,28.25,29.625,28.6875,32.5,34.9375,36.0
0.32605222,-0.39051467,1.3599912,-0.08101428,-0.0062568244,0.076434284,-0.19372822,-0.41251218,-0.3580718,0.060041267,3.0776348,-0.62650454,-2.7162752e-05,-0.14428982,0.06933385,-0.0018836582,-0.0031665154,-0.006250376,0.0021944896,0.46590814,-1.3598788,1.8771018,-2.0870793,-1.5700954,2.4420323,-0.24319813,0.14426823,-0.17755231,0.03758409,0.0054665427,-0.24531281,-0.2873042,-0.1340753,-9.3661175,0.8537928,47.62867,-1.0003277,-2.5425017,-3.4295807,-0.2852611,0.014583981,-0.1182719,28.25,29.625,28.6875,32.5,34.9375,36.0
0.32805195,-0.5449963,1.1612794,0.061332174,0.01289326,0.074604005,-0.17511387,-0.4127957,-0.35795325,0.060046755,3.0776017,-0.6264226,-6.160782e-05,-0.14485125,0.06880526,-0.0013160051,-0.0045097936,-0.0052270023,-0.00023067312,0.4654519,-1.359615,1.876767,-2.0870554,-1.5700711,2.4415293,-0.24309441,0.14443432,-0.17902836,0.037380897,0.006212058,-0.24278386,-0.30645782,-0.11492168,-9.2703495,0.8717007,47.66271,-1.0941077,-2.3702974,-3.3638053,-0.2983377,0.008568693,-0.10231578,28.25,29.625,28.6875,32.5,34.9375,36.0
0.33005205,-0.55281895,1.1656073,0.26392168,0.005780474,0.07454065,-0.17722626,-0.41307038,-0.35781583,0.060047414,3.0776036,-0.6264284,5.3436306e-06,-0.14642909,0.06792207,0.00037351577,-0.007108784,-0.0015214209,-0.009846261,0.464972,-1.3593396,1.8764075,-2.0869358,-1.5700473,2.441053,-0.24319439,0.14376794,-0.1818787,0.03642004,0.006849949,-0.23326816,-0.45968673,-0.15322891,-9.078813,0.83589023,47.67345,-1.2218218,-2.2725892,-3.2762187,-0.29561687,-0.016148943,-0.19695638,28.25,29.625,28.6875,32.5,34.9375,36.0
0.33205217,-0.57275057,1.7316262,0.2284186,-0.0016313464,0.06970136,-0.18676676,-0.41337967,-0.35768017,0.06005765,3.0775514,-0.6265746,-3.864795e-05,-0.14662479,0.06719167,0.00069860544,-0.006911116,-0.0004689079,-0.018025588,0.4644808,-1.3590516,1.8760246,-2.0868762,-1.5700477,2.4406598,-0.24157283,0.14454855,-0.18361545,0.036522776,0.006201612,-0.2234658,-0.49799395,-0.019153614,-9.040505,0.9254084,47.66539,-1.3308747,-2.2371092,-3.2240322,-0.29879427,-0.005050025,-0.32972682,28.25,29.625,28.6875,32.5,34.9375,36.0
0.334052,-0.46629742,1.2212924,-0.2589366,0.022519048,0.054153666,-0.18907459,-0.41365194,-0.35754403,0.060057342,3.0775447,-0.6265951,-1.1116293e-05,-0.14764515,0.06774722,0.0012278735,-0.0065195053,0.00072224723,-0.026154557,0.46401262,-1.3587877,1.8756889,-2.0867918,-1.5700353,2.4402053,-0.2426859,0.14460966,-0.18503068,0.036991138,0.005310745,-0.21644877,-0.4213795,0.019153614,-9.251195,0.9388393,47.67345,-1.353687,-2.1491213,-3.2074106,-0.31581882,-0.013998063,-0.44743186,28.25,29.625,28.6875,32.5,34.9375,36.0
0.33605194,-0.48391747,0.7867771,-0.21644178,-0.009172064,0.059337888,-0.18663444,-0.41396156,-0.35740045,0.06005973,3.0775192,-0.626685,-2.5309668e-05,-0.14822185,0.06735212,4.8814185e-05,-0.0056451713,6.33899e-05,-0.023405194,0.46350843,-1.3584864,1.875305,-2.0867202,-1.5700358,2.4397607,-0.24204995,0.14840557,-0.18670316,0.035854064,0.0048222835,-0.21856052,-0.3256114,0.095768064,-9.32781,0.8291774,47.655537,-1.3909721,-2.270228,-3.2796137,-0.31293732,0.019103665,-0.50779706,28.25,29.625,28.6875,32.5,34.9375,36.0
0.33805183,-0.49376935,0.45875755,-0.054474957,-0.03785446,0.07590234,-0.18336658,-0.41423607,-0.35727403,0.06004735,3.0775068,-0.62667245,3.720586e-05,-0.14875522,0.067427725,0.0011435257,-0.0064907037,0.003035695,-0.010158691,0.46304107,-1.3581878,1.8749579,-2.0866492,-1.57,2.4392872,-0.24213122,0.14637649,-0.1865226,0.03468793,0.004252407,-0.23188831,-0.38307226,0.13407528,-9.289502,0.9164598,47.688675,-1.5842911,-2.0787115,-3.2175858,-0.30899775,0.014208181,-0.434043,28.25,29.625,28.6875,32.5,34.9375,36.0
0.34005257,-0.83078784,0.21222015,-0.38339645,-0.050529808,0.08856798,-0.18836544,-0.41453713,-0.3571283,0.060045548,3.0775354,-0.6266526,5.575978e-05,-0.1502892,0.06860688,0.0016491803,-0.0065626055,0.0034330708,0.0015188451,0.4625481,-1.3578758,1.8745621,-2.086541,-1.570012,2.4387784,-0.24518867,0.14660123,-0.18823287,0.035796557,0.004143168,-0.24662282,-0.34476504,0.1340753,-9.461885,0.8918391,47.713753,-1.5232904,-2.1148427,-3.170988,-0.31038845,0.03062648,-0.28738683,28.25,29.625,28.6875,32.5,34.9375,36.0
0.34205246,-0.8852153,-0.11645225,-0.5197496,-0.05368652,0.09153045,-0.17820509,-0.4148477,-0.35700008,0.060072478,3.0774846,-0.62662125,4.879514e-06,-0.15157904,0.069474205,0.001470582,-0.007120004,0.0033656342,0.0047228234,0.46205512,-1.3576118,1.8741673,-2.08647,-1.5699881,2.4382725,-0.24790546,0.14770538,-0.18909504,0.03537713,0.004690457,-0.25254342,-0.24899697,0.24899697,-9.519346,0.9410752,47.672558,-1.5020368,-2.0579305,-3.1927047,-0.3242017,0.013945071,-0.18653283,28.25,29.625,28.6875,32.5,34.9375,36.0
0.34405228,-0.67429596,-0.21643618,-0.7411927,-0.056304853,0.082213975,-0.18343624,-0.41514975,-0.35683614,0.060044907,3.0775232,-0.6266746,4.4131593e-05,-0.15278889,0.07035308,0.0012908673,-0.007444817,0.0033706278,-0.0042605875,0.46153829,-1.3572756,1.8738087,-2.0863974,-1.5700115,2.4377842,-0.2504115,0.1487267,-0.18987231,0.03497495,0.0049634515,-0.24606618,-0.3256114,0.22984336,-9.5385,0.92764956,47.70838,-1.3698466,-2.101539,-3.3583136,-0.32363755,0.010189056,-0.22162718,28.25,29.625,28.6875,32.5,34.9375,36.0
0.34605214,-0.7101164,-0.5090672,-0.86499,-0.046734937,0.061257258,-0.17228286,-0.41546926,-0.3566973,0.06004538,3.0774815,-0.6267481,5.1724553e-05,-0.15653987,0.07147742,0.002389998,-0.009016412,0.0072722184,-0.0151823275,0.46102083,-1.3569516,1.8734015,-2.0863264,-1.5699881,2.437318,-0.25508186,0.14989552,-0.19340263,0.033148125,0.004626042,-0.239813,-0.34476504,0.3256114,-9.5385,0.90750587,47.691364,-1.3652697,-2.0623975,-3.3083143,-0.30707628,0.018805433,-0.3045752,28.25,29.625,28.6875,32.5,34.9375,36.0
0.34805214,-0.47522956,-0.08683395,-0.841708,-0.04255117,0.04703282,-0.17352526,-0.41578722,-0.3565609,0.060068734,3.0774097,-0.6268313,-2.4736013e-05,-0.15671909,0.0722567,-0.00034246856,-0.0070757945,0.0040848097,-0.01911461,0.46051612,-1.356686,1.8730181,-2.0862796,-1.5699762,2.4368746,-0.25618446,0.15477274,-0.19269112,0.031281576,0.004321835,-0.23698221,-0.36391866,0.15322891,-9.615114,0.8985519,47.664497,-1.1835458,-2.2585135,-3.4112,-0.28712437,0.042474333,-0.37535113,28.25,29.625,28.6875,32.5,34.9375,36.0
0.350052,0.10252341,0.36532152,-0.7457994,-0.044939257,0.060610693,-0.19093487,-0.41610578,-0.35640317,0.060065523,3.0774179,-0.6268685,-0.00011588599,-0.15776484,0.072130375,-0.00014623659,-0.007966405,0.0064030155,-0.016131852,0.4600121,-1.3563865,1.8726596,-2.0862563,-1.5700244,2.436393,-0.25653967,0.15527907,-0.19323604,0.028841835,0.004097888,-0.24031955,-0.30645782,0.22984336,-9.557653,0.8493211,47.658226,-1.1379013,-2.0250504,-3.479144,-0.25446606,0.01785022,-0.3975342,28.25,29.625,28.6875,32.5,34.9375,36.0
0.35205188,-0.51769036,0.68973184,-0.6361329,-0.033022188,0.062379528,-0.18135643,-0.41642693,-0.35626146,0.060046446,3.077362,-0.6269306,-1.4582232e-05,-0.15890843,0.0728685,-0.00035728322,-0.007937012,0.0064323037,-0.007537272,0.4594595,-1.3560262,1.8722523,-2.0861843,-1.5699519,2.4358864,-0.258534,0.1565945,-0.19435267,0.028658384,0.004061346,-0.25090808,-0.21068975,0.19153613,-9.557653,0.900793,47.687782,-1.2402294,-2.311953,-3.4672039,-0.22694713,0.04897003,-0.29956266,28.25,29.625,28.6875,32.5,34.9375,36.0
0.3540517,-0.4186035,1.0487996,-0.6127482,-0.026614768,0.0736356,-0.18659052,-0.4167364,-0.3561021,0.060063276,3.0773427,-0.6269651,-6.886701e-05,-0.15974112,0.073523276,-0.00123931,-0.008060009,0.0039411285,0.001854335,0.45893896,-1.3557734,1.8718933,-2.0861123,-1.5699638,2.43539,-0.2609144,0.15935855,-0.19594812,0.02967281,0.0052953707,-0.26268005,-0.1340753,0.11492168,-9.634268,0.8985519,47.729877,-1.0888838,-2.3325245,-3.4525616,-0.23119739,0.01777632,-0.18584707,28.25,29.625,28.6875,32.5,34.9375,36.0
0.35605162,-0.334616,1.0500122,-0.5723511,-0.020876085,0.078047685,-0.17770287,-0.4170822,-0.35596773,0.060066056,3.0773053,-0.62691265,-0.0001300947,-0.15985827,0.072612405,-0.0013546727,-0.009252963,0.003592942,0.0040336796,0.45841524,-1.355425,1.8714617,-2.0860884,-1.5699509,2.4348385,-0.2600386,0.16085827,-0.19751035,0.029522585,0.0065356847,-0.26398358,-0.24899697,0.019153614,-9.557653,0.81351066,47.679718,-1.1760125,-2.3924732,-3.3706253,-0.21781021,0.008740487,-0.09149006,28.25,29.625,28.6875,32.5,34.9375,36.0
0.35805252,-0.2883706,0.74935615,-0.53745496,-0.015868375,0.0754783,-0.18536468,-0.41741264,-0.35582793,0.06009451,3.0772855,-0.6268753,-0.00021538931,-0.16065916,0.07289965,-0.0021005077,-0.008661228,0.0029791659,-0.0041581234,0.45791104,-1.3551364,1.8710302,-2.0860045,-1.5699633,2.4343138,-0.26085377,0.16339819,-0.19882923,0.029109081,0.006285821,-0.2566056,-0.45968673,-0.019153614,-9.519346,0.8493211,47.675243,-1.2660544,-2.4549847,-3.4229708,-0.19115923,0.019548304,-0.13921061,28.25,29.625,28.6875,32.5,34.9375,36.0
0.3600524,-0.8504076,0.61416686,-0.3918801,-0.032349072,0.08048306,-0.1671634,-0.41773105,-0.35569403,0.060067087,3.0772157,-0.6269439,-0.00017261448,-0.16183133,0.07230956,-0.0012541485,-0.009385203,0.004980167,-0.013352568,0.45738333,-1.3547767,1.8706588,-2.0860045,-1.5699037,2.433838,-0.2605041,0.16420104,-0.2017816,0.029155247,0.0060441317,-0.24706022,-0.63206923,0.0,-9.500193,0.85826975,47.67793,-1.4129863,-2.3556724,-3.4543452,-0.18203649,0.022044752,-0.2658123,28.25,29.625,28.6875,32.5,34.9375,36.0
0.3620523,-0.8212143,0.43932384,-0.3430334,-0.02279674,0.08562354,-0.17186855,-0.41805735,-0.3555263,0.06008201,3.0772154,-0.6270059,-0.00020842718,-0.1618111,0.072674155,-0.002801351,-0.007832784,0.0024063494,-0.022909457,0.4568433,-1.3544878,1.870252,-2.0858967,-1.5699276,2.4333367,-0.26075944,0.16748507,-0.20233637,0.029411534,0.005785274,-0.23775785,-0.47884035,0.019153614,-9.385271,0.9321212,47.65912,-1.4843299,-2.3964238,-3.4843464,-0.14942227,0.021245021,-0.40918586,28.25,29.625,28.6875,32.5,34.9375,36.0
0.3640522,-0.46248975,1.2793992,-0.31237608,-0.022960788,0.07622437,-0.17971475,-0.41837046,-0.35539454,0.06008239,3.0771384,-0.6271254,-0.00022033771,-0.16293158,0.072393656,0.00031879384,-0.0104654515,0.006991118,-0.023254434,0.45633888,-1.3541775,1.8698686,-2.085861,-1.5698918,2.4329169,-0.26124844,0.16308522,-0.20442541,0.030635197,0.0061382446,-0.23790203,-0.47884035,-0.05746084,-9.385271,0.92764956,47.68062,-1.5283144,-2.2618241,-3.3284903,-0.13818067,0.011801004,-0.48881644,28.25,29.625,28.6875,32.5,34.9375,36.0
0.3660521,-0.6967992,1.3579395,-0.13008608,-0.025251688,0.070207335,-0.19649622,-0.41868746,-0.35525706,0.060073026,3.0771124,-0.62707496,-0.00019887458,-0.16446975,0.07420959,-0.00031660678,-0.00960375,0.0058529605,-0.013748075,0.45582163,-1.3538413,1.8694733,-2.0858123,-1.5698556,2.4323716,-0.26524356,0.16489726,-0.20534277,0.031166954,0.0058844043,-0.25140285,-0.4213795,0.076614454,-9.32781,0.94331104,47.67614,-1.3541224,-2.3451257,-3.324531,-0.11726418,0.0027207232,-0.43627778,28.25,29.625,28.6875,32.5,34.9375,36.0
0.3680521,-0.17215057,1.8176602,-0.041885685,-0.018714236,0.073844306,-0.19410942,-0.4190635,-0.35507572,0.060088124,3.0770955,-0.6271981,-0.0003054888,-0.16524401,0.074564055,-0.00042147576,-0.009342716,0.0051530353,-0.00043342722,0.45523334,-1.3535048,1.8690165,-2.0857403,-1.5699037,2.4318626,-0.26633018,0.16646653,-0.2073084,0.032310296,0.005986788,-0.26580316,-0.24899697,0.038307227,-9.251195,0.8985519,47.658226,-1.2885327,-2.217249,-3.3993273,-0.10347718,0.0026150611,-0.2524739,28.25,29.625,28.6875,32.5,34.9375,36.0
0.37005216,0.68839353,1.8424932,-0.23750801,-0.004814244,0.07516906,-0.19227678,-0.41941497,-0.3549523,0.060112618,3.0770016,-0.6271775,-0.0003765637,-0.16659006,0.07453246,0.00037624093,-0.00938089,0.006077255,0.004377895,0.45470476,-1.3531808,1.8685616,-2.0857036,-1.5698556,2.4313333,-0.26697582,0.16759655,-0.21089919,0.033946455,0.005646162,-0.2712582,-0.095768064,0.095768064,-9.32781,0.8672237,47.67345,-1.2799758,-2.2441585,-3.3906934,-0.086220145,0.014223062,-0.16964261,28.25,29.625,28.6875,32.5,34.9375,36.0
0.37205213,0.36736575,1.2036834,0.04073922,-0.019643478,0.07413214,-0.17619023,-0.41971272,-0.35476398,0.060061008,3.0770683,-0.6272529,-0.00021242199,-0.16757257,0.07475788,0.0011502802,-0.009701191,0.0070164055,-0.0026034147,0.45414108,-1.3528091,1.8682026,-2.085584,-1.5698556,2.4308083,-0.26789153,0.16765538,-0.21303067,0.035033133,0.0054840934,-0.26519266,-0.53630114,0.05746084,-9.193734,0.91421866,47.658226,-1.2640454,-2.2433012,-3.3473299,-0.090923265,0.031384654,-0.20009062,28.25,29.625,28.6875,32.5,34.9375,36.0
0.37405208,-0.33109358,0.47217253,0.007693012,-0.02115451,0.05738783,-0.16940235,-0.42004284,-0.35464194,0.06007762,3.077002,-0.6273028,-0.00026233197,-0.16974097,0.07617328,0.00069351954,-0.008895452,0.0061430903,-0.01470218,0.45364803,-1.3524841,1.8677586,-2.0855234,-1.5698317,2.430355,-0.2716674,0.17075087,-0.21601743,0.036065318,0.005151398,-0.25686792,-0.49799395,0.0,-9.174581,0.85155696,47.668976,-1.2587869,-2.3926687,-3.286055,-0.0911374,0.02435394,-0.29750732,28.25,29.625,28.6875,32.5,34.9375,36.0
0.37605187,0.23126617,0.6236125,-0.41748273,-0.010486782,0.062242802,-0.16772777,-0.42041007,-0.35447457,0.06008906,3.0769782,-0.6272851,-0.00034714208,-0.17069508,0.07823139,-0.000100872196,-0.00812501,0.0038573886,-0.02337814,0.45307025,-1.3521483,1.8673161,-2.0854752,-1.5698436,2.4297695,-0.27589807,0.17193659,-0.21596076,0.037210215,0.005478132,-0.2524225,-0.21068975,0.095768064,-9.32781,0.8985519,47.667187,-1.1446313,-2.1172705,-3.2889454,-0.08714719,0.024388282,-0.37766123,28.25,29.625,28.6875,32.5,34.9375,36.0
