Tylouw/Master_Thesis_Code/training_data/batch_1/rect_rod_t0.3/sample_31_session_2.csv
timestamp[s],tcp_force_x[N],tcp_force_y[N],tcp_force_z[N],tcp_force_rx[Nm?],tcp_force_ry[Nm?],tcp_force_rz[Nm?],tcp_pose_x[m],tcp_pose_y[m],tcp_pose_z[m],tcp_pose_rx[rot_vec_x],tcp_pose_ry[rot_vec_y],tcp_pose_rz[rot_vec_z],tcp_velo_x[m/s],tcp_velo_y[m/s],tcp_velo_z[m/s],tcp_velo_rx[rot_vec_x/s],tcp_velo_ry[rot_vec_y/s],tcp_velo_rz[rot_vec_z/s],q1[rad],q2[rad],q3[rad],q4[rad],q5[rad],q6[rad],qd1[rad/s],qd2[rad/s],qd3[rad/s],qd4[rad/s],qd5[rad/s],qd6[rad/s],tool_acc_x,tool_acc_y,tool_acc_z,current_of_whole_robot[A],voltage_of_whole_robot[V],current_J1[A],current_J2[A],current_J3[A],current_J4[A],current_J5[A],current_J6[A],temp_J1[C],temp_J2[C],temp_J3[C],temp_J4[C],temp_J5[C],temp_J6[C]
7.9895835e-07,0.5336218,0.4679542,1.1284244,-0.02412385,0.0050804787,-0.010091112,-0.38935083,-0.36870548,0.060006008,-3.0786886,0.62496364,0.00017888033,-7.263965e-05,-5.841078e-05,-0.00037741484,2.282726e-05,-0.00033921562,4.8861915e-05,0.5049969,-1.3816315,1.9041871,-2.091892,-1.5708536,2.4800134,-5.9403978e-05,0.00082730554,-9.249097e-07,-0.0005190064,0.00014292578,-0.00010828695,0.22984336,0.15322891,-8.714894,0.72622824,47.693153,-0.108621374,-3.0572183,-2.292348,-0.20093262,0.18125808,0.019106146,28.3125,29.6875,28.75,32.5625,35.0,36.0625
0.00205283,0.12696365,0.22436273,1.1847799,-0.008900922,-0.0051775794,-0.0028916062,-0.38936427,-0.3687095,0.06002567,-3.0786889,0.6249825,0.00030148384,-0.0014681121,-0.0008341448,-0.0014339737,-0.0025787475,0.0043375315,4.7931964e-05,0.50502086,-1.3816551,1.9041766,-2.0919197,-1.5709013,2.4800491,-5.8439597e-05,0.0025025122,0.0026100911,-0.010156878,0.00014021501,-0.00010615825,0.076614454,0.24899697,-8.6574335,0.69041777,47.681515,-0.17840666,-2.999053,-2.3247285,-0.1332125,0.16624369,0.024829034,28.3125,29.6875,28.75,32.5625,35.0,36.0625
0.004052057,-0.09871213,-0.098165296,1.0519656,-0.008860266,-0.004198225,-0.0029328237,-0.38934034,-0.3686729,0.05998597,-3.0786288,0.6249513,0.00024057708,-0.001483837,-0.00084256695,-0.0018683082,-0.0025788855,0.004340565,4.679404e-05,0.5049969,-1.3816549,1.904272,-2.0919435,-1.5709256,2.4800134,-5.7506062e-05,0.0030797136,0.0031763855,-0.011303086,0.00013754108,-0.00010411144,0.05746084,0.19153613,-8.6574335,0.7530795,47.68599,-0.14650169,-3.3459501,-2.586186,-0.04558144,0.1762172,0.024349406,28.3125,29.6875,28.75,32.5625,35.0,36.0625
0.0060523488,0.3082436,0.36892986,1.1401646,-0.008229718,-0.0065268297,-0.014637316,-0.38933802,-0.36871532,0.059991803,-3.078699,0.62494624,0.00021986442,-0.00039243206,-0.00023500054,-0.0012538916,-0.0008949804,0.0013237566,4.528582e-05,0.5050329,-1.3816313,1.9042357,-2.091965,-1.5708655,2.4800372,-5.6602043e-05,0.0016114148,0.0021674535,-0.005370911,0.00013496331,-0.00010214198,0.038307227,0.24899697,-8.504205,0.72622824,47.685097,-0.14605868,-3.2834935,-2.6348696,-0.08296059,0.19195536,0.031577725,28.3125,29.6875,28.75,32.5625,35.0,36.0625
0.008052711,0.37044156,0.52897334,0.5131185,0.03898603,-0.029865181,-0.0062302207,-0.38934845,-0.36870953,0.060000487,-3.0786867,0.624963,0.00023255746,-0.00013614574,-0.00011173392,0.00019173471,-0.0009522137,0.0013748549,5.732357e-05,0.50502086,-1.3816322,1.9042114,-2.0919402,-1.5708774,2.4800372,-4.2350053e-05,-0.00083525636,0.00095511094,-0.0017844144,0.00016607597,-0.00010024594,-0.019153614,0.24899697,-8.676587,0.7418897,47.679718,-0.096456036,-3.1841307,-2.4907577,-0.11150903,0.18504542,0.017662974,28.3125,29.6875,28.75,32.5625,35.0,36.0625
0.010051737,0.5937657,1.2680018,0.10894319,0.036240175,-0.021663371,-0.01026153,-0.38933107,-0.3687159,0.05999501,-3.0786774,0.6249418,0.00015055838,0.00061376084,0.0003103722,0.00015302253,0.00033045092,-0.00092851184,5.954953e-05,0.5050329,-1.3816202,1.9041985,-2.091891,-1.5708536,2.4800372,-5.019667e-05,-0.0011274336,0.0006563622,0.0014429337,0.00016484804,-0.00011059183,0.0,0.095768064,-8.868123,0.7396539,47.66271,-0.7151924,-2.7399125,-2.820911,-0.14521652,0.16636333,-0.06116088,28.3125,29.6875,28.75,32.5625,35.0,36.0625
0.012051792,0.10894416,0.6542751,0.018605731,0.0001936416,-0.01143669,-0.01336419,-0.38931662,-0.36871246,0.059972376,-3.0786426,0.6248985,0.00012950411,-0.00075854076,0.00249613,-0.0024568841,0.0033906437,-0.0064489213,-0.0048075016,0.5050555,-1.3815945,1.9042224,-2.0919025,-1.5708774,2.4800372,-0.005012101,0.0046235425,-0.0006142462,0.0032744305,0.0001593284,-0.00020420215,0.13407528,0.095768064,-9.193734,0.76874626,47.686886,-0.906309,-2.74779,-2.8417654,-0.17483126,0.18788083,-0.12797928,28.3125,29.6875,28.75,32.5625,35.0,36.0625
0.014051957,-0.186167,-0.25284868,-0.11921223,-0.037112158,0.013726151,-0.011753478,-0.389322,-0.36868683,0.059941944,-3.0786176,0.6249105,3.0771764e-05,-0.0032590094,0.0054971585,-0.005629752,0.005980627,-0.011131596,-0.0016621924,0.5049924,-1.3815557,1.9042457,-2.0919025,-1.5708536,2.4799848,-0.012401926,0.011096963,-0.0008373688,0.0023737017,0.00015389924,-0.010738121,0.0,-0.019153614,-9.385271,0.73069996,47.70211,-0.42981505,-3.2977052,-2.9526973,-0.14945704,0.19419545,-0.10845129,28.3125,29.6875,28.75,32.5625,35.0,36.0625
0.0160527,-0.89471734,-0.87822604,-0.057568703,-0.060502555,0.040510584,-0.022383546,-0.3893169,-0.36870253,0.059930883,-3.0786202,0.6248306,-2.2469234e-05,-0.0047372757,0.0051685837,-0.0039082477,0.0036392163,-0.0069016335,0.0060548903,0.50501615,-1.3815086,1.90421,-2.0918796,-1.5708417,2.4799583,-0.013227472,0.009066263,-0.0019784896,0.00070965645,0.0001488104,-0.019280426,-0.28730422,0.1340753,-9.308656,0.78888994,47.679718,-0.5669797,-3.1726968,-3.0373387,-0.10536651,0.1766384,-0.029085558,28.3125,29.6875,28.75,32.5625,35.0,36.0625
0.01805236,-1.318411,-0.36959857,-0.2611461,-0.063294694,0.0611171,-0.053428285,-0.3893043,-0.3686787,0.059915457,-3.0785959,0.6248433,-9.035265e-05,-0.0052449545,0.004536677,-0.0020555602,0.0018224426,-0.0036577373,0.009750446,0.5049804,-1.3815215,1.9042577,-2.0918677,-1.5708297,2.4799335,-0.012648432,0.0064083315,-0.0030584633,0.0007293671,0.0001653762,-0.02239696,-0.4405331,0.076614454,-9.346964,0.7329411,47.691364,-0.74549425,-2.9715362,-3.1348176,-0.11141428,0.18768987,-0.009602286,28.3125,29.6875,28.75,32.5625,35.0,36.0625
0.020052547,-1.5468321,0.30080014,-0.50527745,-0.0060634506,0.05602495,-0.06991337,-0.38933566,-0.36867175,0.059933268,-3.0786273,0.62489,-4.655443e-05,-0.006316356,0.005611876,-0.00247535,0.002334603,-0.004636384,0.0066237766,0.5049316,-1.381533,1.9042333,-2.0918791,-1.5708174,2.47991,-0.0154762445,0.0076482096,-0.0036778538,0.0012133843,0.00019122944,-0.022097737,-0.4596867,0.019153614,-9.672575,0.7463667,47.691364,-0.85138667,-2.8775067,-3.2062354,-0.11574372,0.18063092,-0.028704152,28.3125,29.6875,28.75,32.5625,35.0,36.0625
0.022051672,-0.9384405,1.4990578,-0.65352684,0.020749155,0.06290953,-0.09555522,-0.38933834,-0.36865586,0.059900437,-3.0785968,0.6248475,-0.00014634633,-0.00645881,0.00674683,-0.0036417688,0.0041916445,-0.008515803,0.0028345736,0.5048949,-1.3814721,1.9042333,-2.0918667,-1.5708054,2.4798505,-0.017679958,0.010018681,-0.0044306205,0.0038888422,0.00044557234,-0.020512288,-0.4213795,0.019153614,-9.710882,0.7553206,47.70211,-0.7902987,-2.8987694,-3.305859,-0.12842335,0.17904034,-0.04433606,28.3125,29.6875,28.75,32.5625,35.0,36.0625
0.024051722,-1.2473639,0.82539314,-0.6806502,0.031685267,0.051247805,-0.09838102,-0.38935006,-0.368639,0.059903592,-3.0785675,0.62486273,-0.00013583137,-0.007403835,0.0068057305,-0.0033269874,0.0034988567,-0.007945622,-0.00047482687,0.5048705,-1.381472,1.9042205,-2.0918424,-1.5708293,2.4798393,-0.018867923,0.010526383,-0.0057389424,0.003853923,0.0007732193,-0.018390795,-0.5746084,0.038307227,-9.653421,0.7732232,47.72719,-0.8105259,-2.9808085,-3.306283,-0.17162451,0.18678056,-0.07765634,28.3125,29.6875,28.75,32.5625,35.0,36.0625
0.026052073,-1.6515607,0.12004528,-0.8053584,0.020946888,0.05331398,-0.11013875,-0.38935396,-0.36863866,0.05988394,-3.0785658,0.6248045,-0.00019156143,-0.00860522,0.0059235287,-0.0030214153,0.0010353703,-0.0071024178,-0.0022094029,0.5048582,-1.3814236,1.9042081,-2.091843,-1.5708164,2.479791,-0.019594403,0.012014545,-0.007909162,0.0026003998,0.0025133898,-0.017384488,-0.7661445,-0.019153614,-9.691729,0.7620334,47.675243,-0.8352141,-2.843057,-3.3813345,-0.15645054,0.16727175,-0.10276067,28.3125,29.6875,28.75,32.5625,35.0,36.0625
0.028051894,-1.9317816,0.15909329,-0.80833685,-0.006436392,0.07986266,-0.13099948,-0.38934988,-0.36860523,0.059836317,-3.0784957,0.6248482,-0.0003307625,-0.010003978,0.005538868,-0.002368735,5.082066e-05,-0.004940264,-0.0030704364,0.50479823,-1.381363,1.9042424,-2.0918314,-1.5708045,2.479767,-0.020135913,0.012725902,-0.010014577,0.0016269186,0.0023204617,-0.0170638,-0.80445176,-0.15322891,-9.749189,0.800085,47.696735,-0.8901448,-2.9306755,-3.3383012,-0.119042635,0.15721643,-0.11395122,28.3125,29.6875,28.75,32.5625,35.0,36.0625
0.030052057,-1.8251848,-0.07496916,-0.8684223,-0.0148951,0.103212714,-0.14041886,-0.3893599,-0.36862633,0.059847303,-3.0785275,0.6248174,-0.00034158863,-0.010920588,0.005939529,-0.0024443667,0.00064642174,-0.004623996,-0.004418295,0.5048098,-1.3813387,1.9041833,-2.0918076,-1.5707811,2.4797554,-0.02124535,0.013816855,-0.011143477,0.0016789766,0.0016441703,-0.016823485,-0.7661445,-0.24899697,-9.787497,0.77545905,47.68599,-0.95705664,-2.8831258,-3.3527455,-0.1272589,0.17648922,-0.15055412,28.3125,29.6875,28.75,32.5625,35.0,36.0625
0.032052085,-2.0290427,-0.33862093,-0.8292054,0.0045584315,0.098520584,-0.1503118,-0.38941488,-0.3685881,0.05987025,-3.0785267,0.62493193,-0.00027214864,-0.011877284,0.0062102284,-0.002306169,0.0007146421,-0.0043025045,-0.004937117,0.5047015,-1.3813624,1.904159,-2.0918076,-1.570793,2.4797187,-0.02245841,0.014676987,-0.012539484,0.0019671395,0.0014267478,-0.01751658,-0.7469909,-0.21068975,-9.902418,0.800085,47.690468,-0.9397392,-2.880796,-3.348125,-0.11950294,0.18094581,-0.16766316,28.3125,29.6875,28.75,32.5625,35.0,36.0625
0.034051653,-1.9387332,0.124882735,-0.97762495,0.02230668,0.08172835,-0.16346714,-0.38940674,-0.36856726,0.05981176,-3.078432,0.6248752,-0.0004063863,-0.012667247,0.007139453,-0.00228682,0.0016243542,-0.0053553246,-0.0058270996,0.50468886,-1.3812541,1.9041585,-2.0917828,-1.5708169,2.4796827,-0.024582207,0.015344556,-0.013821041,0.0039430745,0.001138424,-0.018749613,-0.842759,-0.19153613,-9.902418,0.679228,47.71554,-0.9663387,-2.7669518,-3.297676,-0.10799903,0.16873881,-0.18918419,28.3125,29.6875,28.75,32.5625,35.0,36.0625
0.036051814,-1.3907694,0.5128792,-0.90032583,0.027004473,0.07124939,-0.18284671,-0.38946313,-0.36857405,0.059861053,-3.0784948,0.6249645,-0.0002897565,-0.013479058,0.008304994,-0.0025546115,0.0020551349,-0.00599649,-0.0062053716,0.5046401,-1.381278,1.9040745,-2.0917828,-1.570805,2.4796817,-0.027259316,0.015662977,-0.01365192,0.004225325,0.0010733483,-0.021048257,-0.7469909,-0.13407528,-9.844957,0.7620334,47.701214,-0.8964155,-2.82817,-3.3262398,-0.13666552,0.16627386,-0.18118504,28.3125,29.6875,28.75,32.5625,35.0,36.0625
0.03805186,-1.1630776,0.2943274,-0.8812205,0.0083192,0.055683974,-0.19574976,-0.38948298,-0.36855635,0.05986502,-3.0784948,0.62496364,-0.00028997374,-0.014731101,0.008153054,-0.0020920625,0.0010592111,-0.004114505,-0.00512085,0.50459176,-1.3812778,1.9040626,-2.091771,-1.570805,2.4796329,-0.028145537,0.016128913,-0.014964685,0.0029432331,0.0010284865,-0.023018172,-0.57460845,-0.019153614,-9.80665,0.7530795,47.71823,-0.8939465,-2.789979,-3.3412623,-0.1348501,0.19773245,-0.17950694,28.3125,29.6875,28.75,32.5625,35.0,36.0625
0.040051717,-1.22702,-0.96221834,-0.8753452,0.0039878245,0.05029349,-0.19719586,-0.38952824,-0.3685153,0.05982714,-3.078424,0.625027,-0.00033606263,-0.015933638,0.0083374,-0.0013701885,0.00018587618,-0.002145977,-0.0058979406,0.5044955,-1.381182,1.9040383,-2.0917833,-1.5708293,2.4795852,-0.02945711,0.015696978,-0.015928758,0.0021939906,0.000835682,-0.023551956,-0.40222588,-0.095768064,-9.730036,0.75084364,47.703903,-0.94179726,-2.8337698,-3.3931062,-0.12759477,0.19701573,-0.20715538,28.3125,29.6875,28.75,32.5625,35.0,36.0625
0.04205215,-0.99995166,-0.5886962,-0.669734,-0.016490031,0.06052288,-0.22567558,-0.3895628,-0.36853078,0.059850525,-3.0784945,0.6250988,-0.00029919346,-0.017055022,0.008519277,-0.0012699129,-5.5797595e-05,-0.0014917378,-0.006102498,0.5044592,-1.3811816,1.9039901,-2.0918076,-1.5707811,2.4795847,-0.030742448,0.01673144,-0.017299851,0.0018425351,0.00072850066,-0.02463172,-0.36391866,0.0,-9.768343,0.7597976,47.686886,-0.94019186,-2.7118592,-3.336757,-0.109423354,0.19192871,-0.21202251,28.3125,29.6875,28.75,32.5625,35.0,36.0625
0.04405227,-1.0350723,-0.5162368,-0.56975377,-0.011810468,0.052845865,-0.20940873,-0.3895965,-0.36847886,0.05982577,-3.0784044,0.62513703,-0.00036158707,-0.018720126,0.008922299,-0.00024347674,-0.0012979674,0.0006865132,-0.006413766,0.5043626,-1.3811218,1.9039649,-2.0917594,-1.5708169,2.4795234,-0.03299212,0.016086826,-0.018790737,0.0014695838,0.0007562968,-0.026569694,-0.2681506,0.095768064,-9.844957,0.7083204,47.65106,-0.8948082,-2.7430987,-3.30645,-0.099558696,0.21714583,-0.2492677,28.3125,29.6875,28.75,32.5625,35.0,36.0625
0.046051785,-0.39262652,-0.054870475,-0.6735182,-0.001412113,0.042051956,-0.20735884,-0.3896507,-0.36848438,0.05985301,-3.0784736,0.6251124,-0.00027465547,-0.019812437,0.009671181,-0.00045349033,-0.0011784398,0.00040828198,-0.0058407895,0.50431377,-1.3811094,1.9038938,-2.0917838,-1.570805,2.4794505,-0.035288144,0.017140184,-0.019562036,0.0014888119,0.0007857962,-0.029438203,-0.05746084,0.076614454,-9.691729,0.7777002,47.68599,-0.82318985,-2.7693956,-3.3414865,-0.08961913,0.22378854,-0.24107455,28.3125,29.6875,28.75,32.5625,35.0,36.0625
0.048051856,0.015261226,-0.3453084,-0.87657094,0.016273702,0.023130616,-0.18253207,-0.38967818,-0.36845675,0.059850898,-3.0784583,0.62514704,-0.00028971126,-0.020290107,0.010028429,-0.00015501109,-0.0015257514,-7.726539e-05,-0.004494587,0.5042416,-1.3810973,1.9038814,-2.091771,-1.570805,2.4794018,-0.036669876,0.01704965,-0.020403799,0.0026762101,0.001324194,-0.032166917,-0.095768064,0.19153613,-9.557653,0.7597976,47.692257,-0.83033204,-2.692859,-3.2924752,-0.080969244,0.2117669,-0.2427919,28.3125,29.6875,28.75,32.5625,35.0,36.0625
0.05005213,0.14061698,0.033698283,-0.7193533,-0.002598752,0.011152015,-0.18687089,-0.38975066,-0.3684439,0.05986112,-3.0784905,0.62523025,-0.00023030926,-0.021777008,0.0107853655,0.00017237123,-0.0020925894,6.751069e-05,-0.005014369,0.50414485,-1.3810492,1.9038094,-2.0918071,-1.570793,2.479353,-0.039592996,0.01758834,-0.02191587,0.003247736,0.0017499499,-0.034570277,-0.05746084,0.13407528,-9.461885,0.7732232,47.694946,-0.7887447,-2.7580671,-3.2860937,-0.102005735,0.20915571,-0.22613394,28.3125,29.6875,28.75,32.5625,35.0,36.0625
0.052052293,0.184048,-0.10318845,-0.54201794,-0.013708226,0.007913728,-0.19628264,-0.38978073,-0.36840352,0.059866317,-3.078465,0.62524503,-0.00027213746,-0.022937553,0.010695894,0.0005598474,-0.003136986,0.00097345654,-0.0049290266,0.50404847,-1.3810489,1.9037837,-2.091747,-1.5707926,2.479269,-0.040818468,0.018293882,-0.023546943,0.0028738994,0.0022209892,-0.035881173,0.0,0.15322891,-9.461885,0.7642693,47.68599,-0.7232051,-2.6672692,-3.2748609,-0.10398436,0.21812677,-0.25539866,28.3125,29.6875,28.75,32.5625,35.0,36.0625
0.054052368,-0.14662334,-0.3980521,-0.55198187,-0.017389271,0.006091483,-0.18447642,-0.3898145,-0.36838958,0.05984389,-3.078434,0.6252362,-0.00030290624,-0.02346454,0.009997408,0.0014329221,-0.0044519566,0.002650966,-0.003216039,0.50400084,-1.3809649,1.9037355,-2.091747,-1.5708045,2.47922,-0.04034178,0.01785945,-0.024964847,0.0026205808,0.0025570532,-0.03711763,0.11492168,0.22984336,-9.461885,0.7530795,47.64389,-0.81623805,-2.6052554,-3.2053285,-0.07482238,0.20221297,-0.2529467,28.3125,29.6875,28.75,32.5625,35.0,36.0625
0.056052506,0.023784507,-0.5498396,-0.50713193,-0.016269756,0.015772853,-0.18306114,-0.38990176,-0.36837772,0.059881706,-3.0785031,0.62528944,-0.00018760652,-0.024545234,0.011089559,0.00090694305,-0.003913328,0.0018680876,-0.004715339,0.503892,-1.3809525,1.9036402,-2.091771,-1.5707926,2.4791355,-0.043125313,0.019160599,-0.02530119,0.0026023635,0.002466738,-0.03840109,0.11492168,0.24899697,-9.423578,0.78217715,47.71554,-0.7512487,-2.6892774,-3.241273,-0.0673492,0.20761034,-0.2817875,28.3125,29.6875,28.75,32.5625,35.0,36.0625
0.058052383,-0.19773377,-0.41482297,-0.5581007,-0.009790958,0.010848658,-0.18185654,-0.3899144,-0.36832824,0.05984691,-3.0784264,0.62529284,-0.0002374189,-0.024994189,0.011775085,0.00047167693,-0.003612633,0.0008408123,-0.004712319,0.5038195,-1.3809161,1.9036764,-2.091771,-1.5708288,2.479075,-0.044841878,0.019943072,-0.025293922,0.0028551368,0.0026968927,-0.04012117,0.076614454,0.22984336,-9.423578,0.79560274,47.698532,-0.7541127,-2.6258337,-3.222532,-0.07440424,0.21470755,-0.28218868,28.3125,29.6875,28.75,32.5625,35.0,36.0625
0.06005231,0.009067615,-0.30282253,-0.60889655,-0.0017075421,0.0056987456,-0.17993632,-0.38998932,-0.3683172,0.059858896,-3.0784695,0.6252829,-0.00019362554,-0.025599275,0.012143627,0.00069812045,-0.004258066,0.0005899797,-0.0055102995,0.5037232,-1.3808563,1.903581,-2.0917828,-1.5708164,2.478967,-0.046449114,0.019907137,-0.025889883,0.003393314,0.0033851184,-0.040931314,0.019153614,0.21068975,-9.346964,0.7284641,47.679718,-0.71538186,-2.6359768,-3.2541573,-0.06865586,0.21662743,-0.2957709,28.3125,29.6875,28.75,32.5625,35.0,36.0625
0.062052358,0.0018513533,0.11093441,-0.48517838,0.0026792192,0.0030376157,-0.18134792,-0.39007598,-0.36830562,0.05989132,-3.0785408,0.62529546,-9.085482e-05,-0.026375014,0.011785978,0.0010635637,-0.0058444394,0.00053512363,-0.0044165757,0.50361514,-1.3808318,1.9034837,-2.0918067,-1.570804,2.4788578,-0.047446884,0.020594763,-0.027603611,0.0036973488,0.0048018754,-0.043024026,0.019153614,0.15322891,-9.385271,0.8179876,47.68062,-0.78593606,-2.6154473,-3.2499404,-0.05790204,0.20336866,-0.32783926,28.3125,29.6875,28.75,32.5625,35.0,36.0625
0.0640523,-0.2144508,-0.1785751,-0.42148307,0.012178472,0.0037118734,-0.18446045,-0.39011165,-0.36828157,0.05987712,-3.078518,0.6253869,-0.00018652248,-0.027355937,0.011598821,0.0012601942,-0.0071828826,0.0007722636,-0.002999431,0.50351876,-1.3807714,1.9034365,-2.091771,-1.5707678,2.4788213,-0.048699606,0.021548312,-0.029111437,0.0033960775,0.005853427,-0.045695107,-0.1340753,0.15322891,-9.212888,0.7105615,47.691364,-0.74825406,-2.6176891,-3.1885858,-0.0669194,0.17693758,-0.30620456,28.3125,29.6875,28.75,32.5625,35.0,36.0625
0.06605187,-0.09686274,0.22542346,-0.32715273,0.003731611,0.023907833,-0.1858116,-0.39014557,-0.36828065,0.059895348,-3.0785782,0.6252646,-0.00018124862,-0.028071605,0.011819254,0.001534923,-0.008214273,0.00085446,-0.003828176,0.5034704,-1.3807595,1.9033755,-2.091747,-1.5707434,2.478689,-0.05027299,0.021548783,-0.029753033,0.0034657863,0.0067171557,-0.04644078,-0.17238252,0.095768064,-9.289503,0.77545905,47.687782,-0.731948,-2.492321,-3.1513584,-0.060579583,0.16918749,-0.33279964,28.3125,29.6875,28.75,32.5625,35.0,36.0625
0.0680518,-0.3956671,0.30028275,-0.2473555,-0.0026704133,0.034766298,-0.19194068,-0.39022908,-0.36823985,0.0599026,-3.0785718,0.6253196,-0.00011671148,-0.02838346,0.011792686,0.0013481419,-0.008818813,3.900973e-06,-0.0034635456,0.5033384,-1.3807111,1.9033045,-2.0917585,-1.5707668,2.4785922,-0.051098388,0.022427337,-0.030422227,0.003706176,0.0076581226,-0.047631726,-0.15322891,0.095768064,-9.385271,0.7665104,47.686886,-0.8276036,-2.564137,-3.2316778,-0.06760521,0.15258434,-0.3564617,28.3125,29.6875,28.75,32.5625,35.0,36.0625
0.070051745,-0.6305306,-0.1610927,-0.28864276,-0.002820485,0.05075344,-0.18635643,-0.39028057,-0.36821225,0.05989526,-3.0785773,0.62530184,-0.00017003769,-0.02967312,0.013277423,0.0011578386,-0.008179712,-0.0009149346,-0.0035648632,0.5032293,-1.3806508,1.9032444,-2.0917342,-1.5707434,2.4784713,-0.054720934,0.023152918,-0.03108732,0.0047610514,0.007541029,-0.051152676,-0.17238252,0.1340753,-9.385271,0.7978386,47.686886,-0.69224924,-2.6028905,-3.2654195,-0.058219686,0.14706425,-0.34899515,28.3125,29.6875,28.75,32.5625,35.0,36.0625
0.07205181,-0.58725023,0.25126415,-0.30795586,-0.009365887,0.061063215,-0.18535215,-0.3903194,-0.36818624,0.05989631,-3.0785887,0.6252996,-0.0002092347,-0.029079335,0.0126853725,0.0009949892,-0.0074169096,-0.0016449456,0.003262495,0.5031342,-1.3806264,1.9032077,-2.0917099,-1.5707191,2.4783733,-0.05296961,0.023941966,-0.031879712,0.005774761,0.0072240834,-0.05622793,-0.3256114,0.076614454,-9.385271,0.8157518,47.71554,-0.81470937,-2.5433717,-3.257422,-0.07652405,0.1577685,-0.33421052,28.3125,29.6875,28.75,32.5625,35.0,36.0625
0.07405189,-1.4403964,0.39837247,-0.45775965,0.0062058247,0.05364163,-0.1857265,-0.39038637,-0.36815333,0.05988188,-3.0785913,0.62537634,-0.00023474994,-0.030489769,0.013546573,0.0011074215,-0.007269956,-0.0012203016,0.0034329344,0.5030015,-1.3805541,1.9031605,-2.0917342,-1.5706953,2.4782882,-0.055516407,0.024667433,-0.033021796,0.0058937226,0.0068881162,-0.05894405,-0.40222588,0.038307227,-9.385271,0.75084364,47.72092,-0.8380216,-2.597046,-3.228457,-0.086812854,0.135128,-0.3059944,28.3125,29.6875,28.75,32.5625,35.0,36.0625
0.076052144,-0.8154388,0.72481704,-0.32194063,0.0050151073,0.07589453,-0.17918131,-0.39043757,-0.36814502,0.05988504,-3.0786405,0.6252712,-0.0002726268,-0.03177491,0.013979123,0.0012339114,-0.007678116,-0.0005035594,0.0028526674,0.5029172,-1.3804939,1.9030765,-2.0917099,-1.570659,2.478132,-0.057440672,0.02546137,-0.03413569,0.0053917044,0.006896578,-0.06028744,-0.38307226,-0.019153614,-9.404425,0.74413085,47.65643,-0.819365,-2.5371792,-3.2416797,-0.08816269,0.12211824,-0.3143168,28.3125,29.6875,28.75,32.5625,35.0,36.0625
0.07805217,-0.99803907,0.6178575,-0.29058388,0.006974284,0.077782765,-0.1824908,-0.39053515,-0.36812454,0.059930615,-3.078704,0.6253203,-0.00016874919,-0.03340753,0.014930528,0.0014954682,-0.007670088,0.00066028204,0.0050855367,0.50278443,-1.3804817,1.9029559,-2.0916984,-1.5706471,2.4780219,-0.060197853,0.025858369,-0.03509854,0.0049455925,0.0063313716,-0.06527543,-0.51714754,-0.019153614,-9.3661175,0.7978386,47.704796,-0.7007166,-2.5448842,-3.257433,-0.064936884,0.12291077,-0.28995937,28.3125,29.6875,28.75,32.5625,35.0,36.0625
0.080052294,-1.1811637,0.6280016,-0.3887992,0.0054661566,0.07908664,-0.18424386,-0.39057642,-0.36806864,0.059895206,-3.0786295,0.62518525,-0.00020677857,-0.032929912,0.014191154,0.0015548606,-0.006985613,0.0013359009,0.011885778,0.5026896,-1.3803974,1.9029316,-2.091675,-1.5707077,2.4778523,-0.057923876,0.026162684,-0.03557602,0.0048565133,0.0053989757,-0.06980044,-0.59376204,0.0,-9.442732,0.82022345,47.723602,-0.93394077,-2.5430076,-3.2174482,-0.06501766,0.13187304,-0.23561086,28.3125,29.6875,28.75,32.5625,35.0,36.0625
0.082052596,-1.4774109,0.31314737,-0.34694737,0.010220411,0.06742217,-0.176536,-0.39062864,-0.3680675,0.059909232,-3.0787382,0.6251867,-0.0003289785,-0.03399487,0.015152367,0.00147616,-0.006332577,0.0013810408,0.013301184,0.502557,-1.3803613,1.9028486,-2.0916383,-1.5705761,2.4777067,-0.060154032,0.026795546,-0.036211047,0.0051462078,0.004804878,-0.07344464,-0.63206923,-0.019153614,-9.385271,0.8627467,47.71554,-0.974761,-2.512037,-3.2511024,-0.07148474,0.13802698,-0.18167901,28.3125,29.6875,28.75,32.5625,35.0,36.0625
0.084051624,-1.1436005,0.62559885,-0.44147372,0.0046003675,0.070205584,-0.18563001,-0.3906999,-0.36802906,0.059888065,-3.0787148,0.6251241,-0.00030673845,-0.035136756,0.015740234,0.001397053,-0.0059503764,0.0014154381,0.014578401,0.5024485,-1.3802649,1.902788,-2.0916622,-1.5706123,2.4775622,-0.061977368,0.028007638,-0.03752503,0.0054014567,0.0044500898,-0.07654397,-0.51714754,0.0,-9.404425,0.7597976,47.71823,-0.9047512,-2.549683,-3.292274,-0.08624764,0.1397136,-0.1659421,28.3125,29.6875,28.75,32.5625,35.0,36.0625
0.08605205,-1.1603242,0.3132324,-0.5201225,0.008127061,0.057574112,-0.17661798,-0.3907874,-0.36797878,0.05991905,-3.078708,0.6251389,-0.00022739539,-0.035759754,0.015817646,0.0015068867,-0.0058277603,0.0019740644,0.016795209,0.5023048,-1.3802526,1.9026922,-2.0916145,-1.5706481,2.4774287,-0.062442847,0.02859613,-0.038449142,0.005305917,0.0040743793,-0.07922501,-0.4213795,-0.038307227,-9.423578,0.75084364,47.70211,-0.9250024,-2.5419934,-3.259913,-0.087791905,0.14503717,-0.098513804,28.3125,29.6875,28.75,32.5625,35.0,36.0625
0.0880521,-1.0945166,0.6773467,-0.33726358,-0.0062418864,0.047438692,-0.18828227,-0.39085767,-0.36796373,0.059924044,3.078777,-0.62503844,0.0002180152,-0.0367341,0.016270101,0.0014643415,-0.005876849,0.002370954,0.016314013,0.50218433,-1.3802043,1.9026321,-2.0916512,-1.5706004,2.4772367,-0.06400953,0.029361423,-0.039163716,0.004888617,0.003928106,-0.08030962,-0.4405331,-0.038307227,-9.423578,0.80456203,47.728977,-1.0140643,-2.5486894,-3.2125432,-0.078838505,0.14665128,-0.07845054,28.3125,29.6875,28.75,32.5625,35.0,36.0625
0.09005231,-0.8514853,-0.21245982,-0.62999153,0.0108625945,0.05095395,-0.1710629,-0.39092144,-0.36790034,0.059886448,-3.0787091,0.6250627,-0.00028298635,-0.03749184,0.01613486,0.0016334681,-0.0065079047,0.0028414177,0.015159203,0.50204057,-1.380096,1.902584,-2.091627,-1.5706362,2.4771168,-0.06467726,0.030126624,-0.040401276,0.004641402,0.0042456384,-0.07982276,-0.30645782,0.019153614,-9.461885,0.7866488,47.71286,-1.08414,-2.55093,-3.195622,-0.067476675,0.14174913,-0.066022396,28.3125,29.6875,28.75,32.5625,35.0,36.0625
0.092052385,-0.62947196,-0.25575265,-0.8269297,0.007430052,0.04600414,-0.17099394,-0.3910252,-0.36788517,0.059916597,3.0787895,-0.62502205,0.00023523533,-0.0377242,0.016830832,0.00075522286,-0.00557357,0.0014381208,0.013501807,0.5018963,-1.3800353,1.9024409,-2.091615,-1.5706004,2.476937,-0.065965205,0.03153905,-0.040058386,0.004569785,0.0041086883,-0.0794527,-0.21068975,0.019153614,-9.519346,0.800085,47.72719,-1.0454292,-2.5276287,-3.1848392,-0.08486903,0.1521093,-0.07487228,28.3125,29.6875,28.75,32.5625,35.0,36.0625
0.094052374,-0.27583283,-0.108171426,-0.5381948,-0.004793766,0.04862529,-0.17515811,-0.3910729,-0.36784026,0.059891775,-3.078784,0.62494415,-0.00027869907,-0.038022257,0.017229624,0.0001378965,-0.0048251986,0.00036394925,0.011499358,0.50177634,-1.3799747,1.9024285,-2.091627,-1.5706004,2.4767692,-0.06681958,0.03296494,-0.04038962,0.0047777556,0.0039667585,-0.07830421,-0.076614454,0.019153614,-9.3661175,0.7642693,47.701214,-1.1126312,-2.631236,-3.311191,-0.079409644,0.1518639,-0.07052792,28.3125,29.6875,28.75,32.5625,35.0,36.0625
0.09605262,-0.5601642,-0.20323084,-0.63965684,-0.0030529737,0.028730102,-0.17162631,-0.39116594,-0.367815,0.059899736,3.078797,-0.6249292,0.00027499045,-0.039980736,0.017271705,0.001208454,-0.005909898,0.0023576126,0.0079224445,0.50163215,-1.3798904,1.9023079,-2.0916145,-1.5705761,2.476614,-0.06868925,0.033456363,-0.04348553,0.005114949,0.003955655,-0.07659556,-0.11492168,0.038307227,-9.404425,0.8224646,47.70838,-1.1047351,-2.569385,-3.195075,-0.07560892,0.15099983,-0.09755844,28.3125,29.6875,28.75,32.5625,35.0,36.0625
0.098051906,-0.30182317,-0.2836481,-0.5295867,0.0007141661,0.0154713495,-0.16413076,-0.39126155,-0.3677543,0.059905887,3.0787969,-0.6249879,0.00021087036,-0.04044204,0.017810417,0.000946657,-0.005701419,0.001997111,0.0049706553,0.5014638,-1.3798423,1.9022368,-2.0916145,-1.5706123,2.4764824,-0.0700074,0.033965535,-0.04346821,0.005002594,0.003948667,-0.07496174,-0.11492168,0.05746084,-9.423578,0.78217715,47.704796,-1.1073097,-2.6139827,-3.2228968,-0.07773675,0.14921284,-0.11931515,28.3125,29.6875,28.75,32.5625,35.0,36.0625
0.10005203,0.18223582,-0.3697691,-0.7557937,-0.0070159645,0.017122736,-0.17475794,-0.39134,-0.36774933,0.05992381,3.0787795,-0.62486976,0.00019274454,-0.040767003,0.018767932,0.0003323286,-0.0051895096,0.0010424145,0.0018233235,0.5013674,-1.3797699,1.9021052,-2.0915911,-1.570588,2.4763145,-0.07191781,0.03442736,-0.04255258,0.004710414,0.003963127,-0.07372497,-0.11492168,0.11492168,-9.404425,0.7911258,47.71286,-1.1098232,-2.6233835,-3.3058803,-0.065544546,0.14253396,-0.164297,28.3125,29.6875,28.75,32.5625,35.0,36.0625
0.10205209,0.36165822,-0.33394244,-0.72064024,-0.014773154,0.009694956,-0.17050521,-0.3914308,-0.36770386,0.05993493,3.078751,-0.6248841,0.00017563188,-0.042635232,0.018918602,0.0011992228,-0.0062740087,0.002955314,-0.0010320239,0.5011991,-1.379722,1.9020203,-2.0915787,-1.5705761,2.4761589,-0.07390922,0.034898393,-0.045042973,0.0045324247,0.003991703,-0.07285988,-0.038307227,0.05746084,-9.385271,0.784413,47.698532,-1.0849695,-2.561923,-3.3005161,-0.057779267,0.18157774,-0.18394953,28.3125,29.6875,28.75,32.5625,35.0,36.0625
0.104052015,0.1523887,-0.14838676,-0.689193,-0.016434839,0.0046889107,-0.16891475,-0.39150468,-0.36764997,0.05991361,3.0788038,-0.6248762,0.0002100162,-0.04335975,0.01903803,0.0006183161,-0.006356028,0.0021793463,-0.0029527966,0.501055,-1.3796251,1.9019488,-2.0915549,-1.5706004,2.4760032,-0.075046435,0.036916144,-0.046021424,0.0041314415,0.0044306107,-0.072076455,-0.076614454,0.095768064,-9.404425,0.7732232,47.687782,-1.1085753,-2.6493137,-3.2863142,-0.07057785,0.16039187,-0.22517735,28.3125,29.6875,28.75,32.5625,35.0,36.0625
0.1060517,0.107406534,-0.34018433,-0.64440227,-0.017461793,0.013584766,-0.17158517,-0.3915886,-0.36761683,0.05991336,3.0787652,-0.6248864,0.00023187634,-0.04495343,0.018841524,0.0017195442,-0.00780762,0.0043437434,-0.0020040004,0.5008988,-1.3795528,1.9018639,-2.0915549,-1.5705642,2.4758582,-0.07632237,0.036915053,-0.04850278,0.0040210932,0.0046603386,-0.074300475,-0.019153614,0.19153613,-9.385271,0.76874626,47.694946,-1.120842,-2.666869,-3.1656857,-0.06131807,0.1555495,-0.24388313,28.3125,29.6875,28.75,32.5625,35.0,36.0625
0.10805253,-0.4785868,-0.41148308,-0.7271151,-0.020843364,0.015473378,-0.16952583,-0.3916851,-0.36758024,0.059932,3.0787516,-0.62488353,0.00017892629,-0.044428166,0.019325335,0.0013437211,-0.0077852523,0.002548613,-0.0035374132,0.5007548,-1.379493,1.9017452,-2.0915306,-1.5705756,2.4757142,-0.07716425,0.03656862,-0.047434703,0.0048815613,0.005510571,-0.07361065,-0.019153614,0.19153613,-9.404425,0.72622824,47.64389,-1.2045848,-2.6248016,-3.2472134,-0.055722535,0.1712771,-0.2632557,28.3125,29.6875,28.75,32.5625,35.0,36.0625
0.110052526,-0.2128939,-0.5215762,-0.6432597,-0.01931436,0.03446848,-0.1784462,-0.39177683,-0.3675469,0.059934214,3.0787225,-0.624898,0.0001897966,-0.044616994,0.02009173,0.00028554603,-0.006986836,0.0002524537,-0.006203063,0.5005987,-1.3794085,1.9016374,-2.0915186,-1.5705518,2.475571,-0.07886738,0.038345017,-0.047226056,0.0052951467,0.005915379,-0.07264853,-0.038307227,0.21068975,-9.442732,0.78217715,47.686886,-1.205124,-2.557417,-3.321879,-0.06544556,0.15822053,-0.32718486,28.3125,29.6875,28.75,32.5625,35.0,36.0625
0.11205242,-0.39162743,-0.40714246,-0.7006707,-0.017973838,0.033945076,-0.17018805,-0.39187157,-0.36750206,0.059952658,3.0786855,-0.6249656,0.00011987473,-0.046083193,0.0198577,0.00089701486,-0.007985771,0.001063938,-0.0039813076,0.5004426,-1.3793718,1.9015521,-2.0915186,-1.5705632,2.4754617,-0.08011998,0.039567664,-0.050189216,0.005843187,0.0064014266,-0.07612197,0.05746084,0.19153613,-9.500193,0.7530795,47.68062,-1.315251,-2.5908482,-3.2211676,-0.09451254,0.14452443,-0.34076476,28.3125,29.6875,28.75,32.5625,35.0,36.0625
0.114052504,-0.31002894,-0.24014182,-0.754968,-0.019852059,0.04035076,-0.16443029,-0.39193875,-0.3674548,0.059930187,3.0787058,-0.6249724,0.00021761804,-0.047058944,0.02050239,0.0012569234,-0.008889021,0.0014933172,-0.009166112,0.500286,-1.3792758,1.9014815,-2.0914829,-1.5705394,2.4753067,-0.08245928,0.039167937,-0.050521016,0.0057649342,0.006983327,-0.07327767,-0.05746084,0.21068975,-9.423578,0.7732232,47.66987,-1.0865278,-2.5514517,-3.2207904,-0.09501829,0.14023975,-0.39038414,28.3125,29.6875,28.75,32.5625,35.0,36.0625
0.11605165,-0.5794717,-0.47838902,-0.76786345,-0.008987806,0.03955985,-0.17831858,-0.39206916,-0.36742908,0.059962746,3.078642,-0.6248794,0.00012673424,-0.04719515,0.019827232,0.0012165507,-0.009198463,0.0019838752,-0.0068883835,0.50010675,-1.3792036,1.9013246,-2.0914948,-1.570515,2.4750776,-0.08145172,0.040149048,-0.051449623,0.005136726,0.0070242765,-0.074546635,-0.17238252,0.13407528,-9.500193,0.78217715,47.658226,-1.3807375,-2.494022,-3.229051,-0.092638,0.14105305,-0.4412836,28.3125,29.6875,28.75,32.5625,35.0,36.0625
0.11805172,-0.42102432,-0.09910544,-0.7451975,-0.015929123,0.052994423,-0.1749942,-0.39214006,-0.367379,0.059919454,3.078661,-0.62497956,0.00022786818,-0.0490085,0.021697776,0.00020357866,-0.008628319,0.00042927993,-0.008249296,0.49994937,-1.3790704,1.9012655,-2.0914948,-1.5705031,2.4749804,-0.086416095,0.04241914,-0.051767025,0.0048235273,0.007263095,-0.078150466,-0.2681506,0.1340753,-9.423578,0.78888994,47.670765,-1.2180547,-2.7040858,-3.2678156,-0.09628351,0.12996174,-0.470407,28.3125,29.6875,28.75,32.5625,35.0,36.0625
0.12005159,-0.82160515,-0.3569352,-0.4978988,-0.0036037005,0.05171032,-0.16740838,-0.39224795,-0.36732754,0.059934292,3.0786514,-0.6249546,0.00017278054,-0.049149808,0.02065534,0.00088030845,-0.009426947,0.0018020896,-0.0030740185,0.4997703,-1.3790104,1.9011582,-2.0914834,-1.570515,2.474787,-0.08479994,0.042495888,-0.053390287,0.0047833147,0.0073061897,-0.08170872,-0.30645782,0.05746084,-9.404425,0.784413,47.71465,-1.265058,-2.6143467,-3.2169242,-0.08010849,0.13211535,-0.46726426,28.3125,29.6875,28.75,32.5625,35.0,36.0625
0.122051746,-0.902673,-0.16718987,-0.7177056,0.0023036283,0.059608467,-0.16781844,-0.39233196,-0.36729875,0.059938364,3.0786223,-0.62486863,0.00020692598,-0.05051285,0.021297608,0.0020191479,-0.010788835,0.0033606044,0.002532682,0.49961382,-1.3789389,1.9010614,-2.091471,-1.5704664,2.4745805,-0.087404,0.0410963,-0.054420456,0.005198016,0.007755865,-0.089919895,-0.34476504,0.038307227,-9.346964,0.80679786,47.71286,-1.3103385,-2.482143,-3.2256136,-0.08049807,0.119573474,-0.43437728,28.3125,29.6875,28.75,32.5625,35.0,36.0625
0.12405178,-0.8841636,0.119786,-0.55953956,0.0067135985,0.06239995,-0.17321359,-0.39243728,-0.36724854,0.059927918,3.078593,-0.62491786,0.00025900407,-0.051408745,0.021933824,0.001301363,-0.010430328,0.0021734096,0.0048421603,0.49940962,-1.3788301,1.9009537,-2.091459,-1.5704306,2.4744108,-0.089441225,0.04315225,-0.055216566,0.0051571485,0.008008399,-0.09426643,-0.3256114,-0.038307227,-9.423578,0.8090337,47.71554,-1.2952459,-2.4951136,-3.2689404,-0.09530948,0.12164975,-0.413448,28.3125,29.6875,28.75,32.5625,35.0,36.0625
0.1260522,-1.1005262,0.26853427,-0.5855476,0.012454702,0.062565155,-0.17012104,-0.39253035,-0.36721575,0.05992736,3.07858,-0.6248138,0.00025520445,-0.05209881,0.022152126,0.0012870539,-0.010652264,0.0022473847,0.012543663,0.4992535,-1.3787458,1.9008578,-2.091471,-1.5704068,2.4741914,-0.09052878,0.043852843,-0.055997193,0.00507151,0.008169515,-0.103055105,-0.36391866,-0.095768064,-9.404425,0.78888994,47.65464,-1.3198144,-2.480945,-3.2430053,-0.08288397,0.12153634,-0.37142423,28.3125,29.6875,28.75,32.5625,35.0,36.0625
0.12805246,-0.8391947,0.29704016,-0.6188306,0.013801103,0.07298244,-0.17701633,-0.3926509,-0.36719042,0.05993701,3.0785546,-0.6247305,0.00023810528,-0.05366835,0.02345756,0.0005437289,-0.010337761,0.00090876914,0.01400837,0.49908432,-1.3786248,1.90069,-2.091459,-1.5703825,2.4739735,-0.094382145,0.046061642,-0.056941044,0.005136707,0.008537325,-0.108372696,-0.45968673,-0.11492168,-9.385271,0.80679786,47.689575,-1.2055217,-2.610466,-3.2936153,-0.08195768,0.10841867,-0.282375,28.3125,29.6875,28.75,32.5625,35.0,36.0625
0.13005182,-0.36149794,1.1763902,-0.41769198,-0.0047392533,0.08945826,-0.19078968,-0.3927753,-0.3671168,0.059950605,3.0785444,-0.62470436,0.00020990276,-0.053379107,0.022861335,0.0009398879,-0.010272662,0.0014533533,0.02056483,0.4988456,-1.378565,1.9005827,-2.0914352,-1.5703825,2.4737198,-0.092892095,0.045837805,-0.05770251,0.005679788,0.008223622,-0.11343826,-0.47884035,-0.17238252,-9.3661175,0.82694155,47.70032,-1.4179837,-2.5902324,-3.21938,-0.08387202,0.094151944,-0.24296553,28.3125,29.6875,28.75,32.5625,35.0,36.0625
0.13205191,-0.91650426,0.4383899,-0.7083971,0.017686576,0.084364094,-0.17929797,-0.39286563,-0.36706713,0.05994286,3.0785413,-0.6246663,0.00024878245,-0.05605394,0.02519331,0.0017878612,-0.010593285,0.0029168313,0.018181128,0.4986637,-1.3784813,1.9004983,-2.0914223,-1.5703586,2.4735146,-0.099005744,0.04486381,-0.05857562,0.006095348,0.00780439,-0.117167585,-0.5746084,-0.076614454,-9.385271,0.8247004,47.691364,-1.1517386,-2.4785037,-3.2451477,-0.100984305,0.10691963,-0.17061141,28.3125,29.6875,28.75,32.5625,35.0,36.0625
0.1340519,-1.6193031,0.4860903,-0.782498,0.024434691,0.06844961,-0.17044857,-0.39298102,-0.36702096,0.059942976,3.0785367,-0.6246062,0.00024678864,-0.056270648,0.024986679,0.0015051641,-0.010224482,0.0029355036,0.019561822,0.4984724,-1.3783726,1.9003667,-2.0914109,-1.5703472,2.4732864,-0.09862778,0.04605889,-0.059277866,0.00576689,0.0074721216,-0.11816928,-0.5746084,-0.1340753,-9.3661175,0.7866488,47.734352,-1.299336,-2.536305,-3.2630801,-0.10295666,0.08340579,-0.1472049,28.3125,29.6875,28.75,32.5625,35.0,36.0625
0.13605216,-1.3356304,0.31678116,-0.58327764,0.024040112,0.076492384,-0.17145398,-0.39308465,-0.36696085,0.05992735,3.07855,-0.62457204,0.00028917188,-0.057522375,0.02573479,0.0011300539,-0.010117534,0.0024484363,0.014987795,0.4982679,-1.3782638,1.9002708,-2.091399,-1.5703348,2.473059,-0.10110455,0.04770108,-0.06035558,0.0056831394,0.007606858,-0.1160717,-0.61291564,-0.22984336,-9.404425,0.7486078,47.716442,-1.3098435,-2.5306554,-3.251483,-0.08145379,0.08618988,-0.15877739,28.3125,29.6875,28.75,32.5625,35.0,36.0625
0.13805212,-1.5639434,0.7423869,-0.52133816,0.007736496,0.07305004,-0.17152964,-0.39322424,-0.36691293,0.05996303,3.0785062,-0.6244708,0.00020206925,-0.059728105,0.02734173,0.0014048008,-0.010412041,0.0028807442,0.0061068344,0.4980508,-1.3782037,1.9001158,-2.091387,-1.5703224,2.4727843,-0.10585011,0.048231475,-0.061670527,0.0059485626,0.007667338,-0.11193517,-0.59376204,-0.21068975,-9.32781,0.8157518,47.691364,-1.126828,-2.5675805,-3.294352,-0.08202304,0.10073163,-0.17887756,28.3125,29.6875,28.75,32.5625,35.0,36.0625
0.14005205,-1.2073785,0.72453034,-0.817959,0.018360017,0.07559331,-0.17195062,-0.39334604,-0.36685526,0.059953336,3.0784855,-0.62452793,0.0002136011,-0.060932353,0.028085994,0.001570618,-0.010350361,0.0033336375,-0.0007628201,0.49783435,-1.3780833,1.8999952,-2.091387,-1.570311,2.4726062,-0.10801675,0.04872255,-0.06266617,0.006086807,0.007395951,-0.10723135,-0.47884035,-0.19153613,-9.3661175,0.7777002,47.684196,-1.0627227,-2.482152,-3.328147,-0.08071588,0.0896593,-0.25535935,28.3125,29.6875,28.75,32.5625,35.0,36.0625
0.14205204,-1.2504892,0.70186734,-0.72959894,0.013595118,0.060927127,-0.1707321,-0.39347148,-0.36680135,0.059954066,3.078458,-0.6244851,0.00023548452,-0.063355975,0.028555788,0.002662281,-0.011281239,0.0054773665,-0.0053368863,0.49760586,-1.3779752,1.8998626,-2.0913746,-1.5702752,2.4723544,-0.11087958,0.049331855,-0.0659566,0.006445451,0.0071871397,-0.10551838,-0.51714754,-0.19153613,-9.423578,0.8023209,47.666286,-0.93818057,-2.4973755,-3.1359394,-0.10815352,0.087326884,-0.314889,28.3125,29.6875,28.75,32.5625,35.0,36.0625
0.14405195,-1.2175541,0.5058254,-0.7215217,0.0065192087,0.06637615,-0.17393698,-0.39361143,-0.36674798,0.059980687,3.0784247,-0.6245538,0.00014197288,-0.06279732,0.029757712,0.0007746834,-0.009485186,0.0018873767,-0.0056732344,0.49740198,-1.3778903,1.8996962,-2.0913508,-1.570299,2.4721978,-0.11245125,0.051255845,-0.06396916,0.006544936,0.007334687,-0.10675398,-0.61291564,-0.095768064,-9.385271,0.7486078,47.637623,-0.9462336,-2.421601,-3.302171,-0.1054613,0.091416076,-0.32727426,28.3125,29.6875,28.75,32.5625,35.0,36.0625
0.14605229,-0.6933786,0.59488666,-0.43001878,-0.0035316092,0.08827543,-0.18384671,-0.39372593,-0.36666954,0.05995833,3.0784485,-0.62457806,0.00025328205,-0.06424931,0.030154936,0.0009406655,-0.00991852,0.002641002,-0.006478237,0.49714974,-1.3777579,1.8995765,-2.0912912,-1.5702752,2.4719577,-0.11443623,0.05234558,-0.065562814,0.0061846864,0.0073458157,-0.10793368,-0.63206923,-0.095768064,-9.442732,0.8023209,47.709274,-0.9809787,-2.542592,-3.2963893,-0.11246903,0.07292353,-0.33563417,28.3125,29.6875,28.75,32.5625,35.0,36.0625
0.1480525,-1.3225485,0.4409258,-0.53037363,-0.007602444,0.09241914,-0.17896032,-0.39384863,-0.3666287,0.059964243,3.0783975,-0.6245292,0.0002309079,-0.06665103,0.029743604,0.0031641906,-0.0120085925,0.0068589672,-0.0078749675,0.49694562,-1.3776622,1.899455,-2.0913146,-1.570239,2.4717295,-0.115810774,0.051481947,-0.06965952,0.0064469217,0.007170597,-0.10790944,-0.61291564,-0.05746084,-9.442732,0.779936,47.694054,-0.9229139,-2.4376454,-3.0775614,-0.09235121,0.07853128,-0.39362198,28.3125,29.6875,28.75,32.5625,35.0,36.0625
0.15005243,-1.9948988,0.20359756,-0.6702422,-0.0075179357,0.079222925,-0.16706237,-0.39397267,-0.36655575,0.05995341,3.0783696,-0.624618,0.00027127194,-0.065620214,0.030674212,0.0019086852,-0.010432316,0.003876612,-0.0076538287,0.49669397,-1.3775538,1.8993486,-2.091303,-1.5702151,2.4715369,-0.11642841,0.05192098,-0.06750869,0.007234847,0.007214131,-0.108749256,-0.51714754,0.17238252,-9.385271,0.83589023,47.71465,-0.99690527,-2.4240005,-3.1517262,-0.11662164,0.08420488,-0.36644983,28.3125,29.6875,28.75,32.5625,35.0,36.0625
0.1520525,-1.0264015,-0.22557291,-0.69707954,-0.008917915,0.093091816,-0.17220914,-0.39412177,-0.36648133,0.059951253,3.078398,-0.6245829,0.00022243446,-0.06626683,0.030793129,0.0007546848,-0.0096689565,0.0022189987,-0.0060812463,0.49645424,-1.3774204,1.8991927,-2.0912907,-1.5702513,2.4712718,-0.117264055,0.05528973,-0.06883236,0.007009364,0.007332647,-0.111156486,-0.4405331,0.17238252,-9.557653,0.8537928,47.707485,-1.0329024,-2.5228887,-3.2311914,-0.12589684,0.07739176,-0.42516395,28.3125,29.6875,28.75,32.5625,35.0,36.0625
0.15405196,-1.0521649,-0.023928266,-0.6853778,-0.019810224,0.068391204,-0.18071574,-0.39424205,-0.36641067,0.059937622,3.0783753,-0.62467146,0.00030294305,-0.06797679,0.03110143,0.0014263382,-0.010313723,0.00381751,-0.0018802915,0.49620226,-1.3773001,1.899073,-2.091255,-1.5702151,2.471078,-0.11919775,0.055867262,-0.07103235,0.006928789,0.007132188,-0.11729018,-0.2681506,0.11492168,-9.576807,0.72622824,47.681515,-1.1447365,-2.6120512,-3.2557907,-0.13259465,0.08507791,-0.3893869,28.3125,29.6875,28.75,32.5625,35.0,36.0625
0.1560518,-0.11577419,-0.31256023,-0.86161697,-0.014711999,0.05929659,-0.17518035,-0.39439774,-0.36635616,0.059965134,3.078328,-0.62463754,0.00017441908,-0.06811903,0.030545674,0.0026732392,-0.011168581,0.006242466,0.006054949,0.49597505,-1.3772167,1.8989171,-2.0912793,-1.570227,2.4708357,-0.11811144,0.054048065,-0.07170504,0.0068860915,0.0067434404,-0.124137975,-0.24899697,0.19153613,-9.500193,0.80679786,47.67793,-1.096229,-2.426241,-3.22106,-0.13645025,0.10769504,-0.318002,28.3125,29.6875,28.75,32.5625,35.0,36.0625
0.15805179,-0.4564997,-0.2926654,-0.9028361,-0.01559562,0.030636946,-0.16794647,-0.3945207,-0.36628667,0.05994799,3.0783741,-0.62456846,0.00023431127,-0.07019971,0.033014134,0.0014470243,-0.009805702,0.004417325,0.007203053,0.49574524,-1.3770717,1.8987731,-2.0912306,-1.570227,2.470557,-0.12393923,0.05661661,-0.071956635,0.0068290196,0.006409882,-0.13111329,-0.24899697,0.13407528,-9.385271,0.8090337,47.67166,-1.0111907,-2.4673822,-3.2044785,-0.13472253,0.10096664,-0.27157575,28.3125,29.6875,28.75,32.5625,35.0,36.0625
0.16005178,0.20440717,0.080274984,-0.759399,-0.01839155,0.03381363,-0.17086253,-0.39469814,-0.3662244,0.059981957,3.0783029,-0.6245663,0.00013195116,-0.07055308,0.032264333,0.0019121193,-0.010387145,0.0056717517,0.016656276,0.4954704,-1.3769755,1.8985819,-2.0912306,-1.5702151,2.47029,-0.122910425,0.057023205,-0.07343095,0.006524519,0.0063383956,-0.13953635,-0.15322891,0.19153613,-9.385271,0.7777002,47.672558,-1.0781002,-2.4299037,-3.159009,-0.12954497,0.10951701,-0.18054289,28.3125,29.6875,28.75,32.5625,35.0,36.0625
0.16205192,-0.030791452,-0.23484278,-0.95112765,-0.0032852262,0.02564521,-0.18497103,-0.3948444,-0.36615324,0.059991945,3.0782533,-0.624516,0.00010988862,-0.07166157,0.032441415,0.0022541443,-0.011703071,0.006228698,0.017597122,0.49519438,-1.3768913,1.8984622,-2.0912435,-1.5701793,2.4699888,-0.12474449,0.05738491,-0.07456409,0.0061855433,0.007238752,-0.14231144,-0.15322891,0.19153613,-9.442732,0.73741806,47.664497,-1.0267522,-2.4842002,-3.257666,-0.11932634,0.105308495,-0.10984871,28.3125,29.6875,28.75,32.5625,35.0,36.0625
0.16405189,-0.05554066,-0.2919095,-0.8367163,-0.00325712,0.02740984,-0.16456679,-0.39498502,-0.36609134,0.05998361,3.0783336,-0.62437934,9.182475e-05,-0.07179828,0.032546453,0.0018663462,-0.01176336,0.0054209763,0.015662488,0.4949907,-1.3767228,1.8982705,-2.0911958,-1.5702266,2.4696898,-0.12528253,0.058278345,-0.074741915,0.006144618,0.007673338,-0.14091532,-0.076614454,0.1340753,-9.442732,0.784413,47.66091,-1.1240792,-2.4604497,-3.2602196,-0.11120741,0.08938788,-0.0964282,28.3125,29.6875,28.75,32.5625,35.0,36.0625
0.16605197,0.03199141,-0.116424315,-0.8352051,-0.005654728,0.02491169,-0.16523917,-0.3951101,-0.36601737,0.05995415,3.0782998,-0.62439346,0.00018140982,-0.073641025,0.031986285,0.0032377483,-0.013511721,0.0078759715,0.010576489,0.49471468,-1.3765906,1.8981861,-2.0912192,-1.570167,2.4694269,-0.12621562,0.05869041,-0.07842022,0.0064271144,0.008037278,-0.13676155,-0.114921674,0.05746084,-9.404425,0.779936,47.672558,-1.0518813,-2.4103522,-3.1166654,-0.1068387,0.09293114,-0.14499292,28.3125,29.6875,28.75,32.5625,35.0,36.0625
0.16805202,-0.054801524,-0.04740878,-0.92859054,-0.0034564417,0.017717656,-0.1683098,-0.39526576,-0.36596954,0.059969768,3.0782263,-0.62438244,0.00016032968,-0.07417882,0.034233794,0.002041841,-0.012441875,0.0051744473,0.0010061152,0.49446186,-1.3764702,1.8980078,-2.0912192,-1.5701188,2.4691765,-0.13066955,0.059294384,-0.07650761,0.006800577,0.008392088,-0.13164575,-0.05746084,0.19153613,-9.500193,0.7642693,47.655537,-1.1234113,-2.4005442,-3.2056828,-0.12685503,0.09790847,-0.18009222,28.3125,29.6875,28.75,32.5625,35.0,36.0625
0.17005207,0.6934021,0.055775598,-0.76572925,-0.009312765,0.02891423,-0.1730997,-0.3954195,-0.3659025,0.05997063,3.0782294,-0.62434375,9.358478e-05,-0.07396286,0.03288975,0.0023937775,-0.013204549,0.0054676207,-0.001059234,0.4942233,-1.3763378,1.8978513,-2.0912306,-1.5701426,2.4689136,-0.12850134,0.06012654,-0.07840062,0.007236142,0.008926829,-0.12741165,0.019153614,0.095768064,-9.404425,0.779936,47.682407,-1.1567287,-2.3660305,-3.2418253,-0.121527135,0.098016605,-0.26809305,28.3125,29.6875,28.75,32.5625,35.0,36.0625
0.17205207,0.5060398,0.06307056,-0.8406048,-0.0056990567,0.013478434,-0.16827501,-0.3955561,-0.3658274,0.059977937,3.0781722,-0.6244308,0.00016802746,-0.07651546,0.03300576,0.0037630093,-0.014489553,0.0083019445,-0.0061365287,0.49393478,-1.3762413,1.8977069,-2.091171,-1.5700825,2.4686866,-0.13085105,0.060726453,-0.08226927,0.007409497,0.008707124,-0.12468232,0.11492168,0.11492168,-9.442732,0.81351066,47.686886,-1.1673195,-2.3829234,-3.013292,-0.12562147,0.08922488,-0.31921673,28.3125,29.6875,28.75,32.5625,35.0,36.0625
0.17405206,0.18737048,-0.038619816,-0.8397864,-0.0027793937,0.0039957366,-0.17286348,-0.39572397,-0.36575738,0.059987403,3.0781446,-0.62446296,0.00010038895,-0.07595233,0.03437239,0.002368608,-0.012494962,0.0059036734,-0.008557515,0.493671,-1.3761092,1.8975285,-2.091171,-1.5700945,2.4684465,-0.1322177,0.061387207,-0.07989601,0.0074350284,0.008101414,-0.12362783,0.095768064,0.17238252,-9.461885,0.8112748,47.70032,-1.1061331,-2.3536425,-3.2083387,-0.13063525,0.09644784,-0.3719672,28.3125,29.6875,28.75,32.5625,35.0,36.0625
0.17605215,0.46377686,-0.045256596,-0.88538283,-0.0065782038,0.015193295,-0.16971807,-0.3958734,-0.36569306,0.05999614,3.078124,-0.6244411,8.402438e-05,-0.0768303,0.034739465,0.0025256956,-0.012511732,0.0053631007,-0.011556572,0.493419,-1.3759887,1.8973602,-2.0911467,-1.5700825,2.4681835,-0.13376616,0.06233948,-0.0816859,0.008742455,0.008376418,-0.122176595,0.095768064,0.114921674,-9.461885,0.8493211,47.68599,-1.1290097,-2.3385093,-3.1828446,-0.14412248,0.1036528,-0.45151663,28.3125,29.6875,28.75,32.5625,35.0,36.0625
0.17805217,-0.08710153,-0.7304146,-1.0245134,0.0010439964,0.009241125,-0.16075678,-0.39600858,-0.36563456,0.05998008,3.0780914,-0.62441415,0.00013359672,-0.077571064,0.034921624,0.0028362633,-0.013591972,0.005932333,-0.012020992,0.493167,-1.3758447,1.8972286,-2.0911586,-1.5700339,2.4679189,-0.13513224,0.062230557,-0.082178906,0.008337792,0.009059439,-0.12307876,0.038307227,0.21068975,-9.481039,0.8112748,47.701214,-1.1904514,-2.3085966,-3.2143898,-0.14348993,0.09047046,-0.48295376,28.3125,29.6875,28.75,32.5625,35.0,36.0625
0.18005219,0.38558006,0.13456653,-0.77804184,-0.031450942,0.04371889,-0.17066891,-0.3961645,-0.36554787,0.05998782,3.0780632,-0.62452143,0.00012109763,-0.07834154,0.03559699,0.0020846697,-0.012957939,0.0048955567,-0.010416562,0.49287924,-1.3757359,1.8970736,-2.0911224,-1.5700344,2.4677017,-0.13688955,0.06416562,-0.08273665,0.008178952,0.008995962,-0.12643982,0.0,0.24899697,-9.404425,0.87617236,47.688675,-1.1573993,-2.277381,-3.274941,-0.1499785,0.09064597,-0.50766325,28.3125,29.6875,28.75,32.5625,35.0,36.0625
0.18205202,-0.45637307,-0.016338432,-0.7071487,-0.025806332,0.0429278,-0.1731282,-0.3963104,-0.36548835,0.059994068,3.0780709,-0.6244012,0.00011946536,-0.07894063,0.036487706,0.0021141213,-0.012767604,0.0040641916,-0.0021206478,0.49263877,-1.3756036,1.8968943,-2.0910866,-1.5700225,2.4673853,-0.1390398,0.06424721,-0.08317854,0.009371819,0.009232123,-0.13688608,-0.19153613,0.11492168,-9.500193,0.8023209,47.707485,-1.114277,-2.3351552,-3.2683656,-0.14695548,0.09568024,-0.44542462,28.3125,29.6875,28.75,32.5625,35.0,36.0625
0.18405198,-0.8721651,-0.05442653,-0.7468743,-0.022795567,0.05177937,-0.17389704,-0.39646623,-0.3654263,0.059995286,3.0780246,-0.62440497,0.00015424227,-0.079735726,0.037283283,0.00156077,-0.012532516,0.0025001802,0.0076333275,0.49236256,-1.3754591,1.8967146,-2.0910628,-1.5699743,2.4671173,-0.1413938,0.065849744,-0.08399375,0.010089979,0.009774202,-0.148994,-0.1340753,0.095768064,-9.461885,0.8717007,47.72719,-1.0455278,-2.2955337,-3.2752447,-0.16339916,0.078076184,-0.36891043,28.3125,29.6875,28.75,32.5625,35.0,36.0625
0.18605216,-0.5557213,0.1419845,-0.6178106,-0.012816021,0.06903464,-0.17662998,-0.39665145,-0.36533186,0.06001924,3.07801,-0.6244176,7.3713025e-05,-0.081537746,0.038436655,0.0017637194,-0.013236892,0.003040106,0.011571745,0.49204987,-1.3753507,1.8965234,-2.0910265,-1.5699981,2.4668145,-0.1451553,0.0663426,-0.0849738,0.009772201,0.010150633,-0.15669334,-0.22984336,0.076614454,-9.404425,0.8112748,47.707485,-0.9882785,-2.307014,-3.2739875,-0.17255194,0.07299814,-0.2696339,28.3125,29.6875,28.75,32.5625,35.0,36.0625
0.18805239,-0.9881169,0.34299716,-0.57971656,-0.007472027,0.078059465,-0.16962038,-0.39682478,-0.365264,0.060023777,3.0779712,-0.624366,4.1381078e-05,-0.08092569,0.037569843,0.0012089966,-0.012741643,0.0022917755,0.019500937,0.49176332,-1.3752061,1.8963441,-2.0910385,-1.5699743,2.4665008,-0.14304405,0.0679199,-0.085578516,0.0097043915,0.010079123,-0.16251029,-0.38307226,0.095768064,-9.442732,0.7911258,47.719128,-1.1115886,-2.176896,-3.311132,-0.16494805,0.077793546,-0.18591863,28.3125,29.6875,28.75,32.5625,35.0,36.0625
0.19005239,-0.7655908,0.48277998,-0.6184151,0.00070135354,0.09650864,-0.16830736,-0.39695176,-0.365198,0.060012765,3.077987,-0.6241758,0.0001467998,-0.08181758,0.03821179,0.00071945717,-0.012102385,0.0012252278,0.019961363,0.49149948,-1.3750733,1.8962005,-2.0909903,-1.5699142,2.4661162,-0.14485663,0.069794506,-0.08684758,0.010355364,0.010014864,-0.1647829,-0.63206923,0.11492168,-9.404425,0.8224646,47.723602,-1.0587103,-2.1923172,-3.2959652,-0.17969018,0.081143856,-0.14098759,28.3125,29.6875,28.75,32.5625,35.0,36.0625
0.1920523,-1.407311,0.7934194,-0.4074926,-0.008411933,0.100421354,-0.1709731,-0.39713407,-0.36512703,0.06001699,3.0779464,-0.62420875,0.00014317558,-0.08252597,0.038266998,0.0001368477,-0.011914102,0.0011806712,0.013007332,0.49119973,-1.3749044,1.895985,-2.0909665,-1.5698904,2.4658422,-0.14544682,0.07174824,-0.08761418,0.00929866,0.009867918,-0.15841801,-0.7278373,0.019153614,-9.442732,0.83365434,47.694946,-1.2222893,-2.2829826,-3.3534517,-0.19739646,0.07410599,-0.19491917,28.3125,29.6875,28.75,32.5625,35.0,36.0625
0.19405243,-0.5732133,0.7356701,-0.19779709,-0.0021468052,0.121674076,-0.17868437,-0.39730126,-0.3650508,0.060014624,3.0779102,-0.6241848,9.816718e-05,-0.08289088,0.0384195,0.00022433866,-0.012495656,0.00087749073,0.007184227,0.49091202,-1.3747721,1.8958415,-2.0910027,-1.569878,2.4655442,-0.14639473,0.0719414,-0.08811971,0.009602643,0.010529787,-0.15354274,-0.7086837,-0.038307227,-9.289502,0.7530795,47.692257,-1.2264307,-2.3952727,-3.3414936,-0.19656184,0.064968176,-0.24792427,28.3125,29.6875,28.75,32.5625,35.0,36.0625
0.19605274,-1.609555,0.36540186,-0.44756216,0.011829292,0.09156423,-0.16494377,-0.39748365,-0.36496317,0.06004905,3.0778828,-0.62416106,3.7276863e-05,-0.08616977,0.038737122,0.002498558,-0.014732025,0.0056796735,0.00130292,0.49059945,-1.3746765,1.895636,-2.0909426,-1.5698785,2.4652205,-0.14966218,0.071097754,-0.092211545,0.0092508495,0.010238048,-0.15092663,-0.7661445,-0.15322891,-9.308656,0.8090337,47.705692,-1.1039904,-2.166769,-3.198752,-0.19706595,0.06823051,-0.3120571,28.3125,29.6875,28.75,32.5625,35.0,36.0625
0.19805174,-1.0767229,0.7756048,-0.2750024,0.010640309,0.09165219,-0.17460081,-0.39762926,-0.36490685,0.060011692,3.0778623,-0.62411815,0.00013138191,-0.08610691,0.04108649,-0.00031866998,-0.011027595,0.0009347051,-0.0023636166,0.4903354,-1.3744711,1.8954824,-2.0909665,-1.5698184,2.4649322,-0.15287898,0.074589826,-0.09003472,0.009527583,0.009208605,-0.1504767,-0.7086837,-0.1340753,-9.289502,0.82022345,47.698532,-1.2020209,-2.2178838,-3.4064589,-0.20187664,0.078868054,-0.3433175,28.3125,29.6875,28.75,32.5625,35.0,36.0625
0.20005204,-0.6142872,0.7166897,-0.2379601,0.015836095,0.09845083,-0.17104891,-0.39783373,-0.36480165,0.060041826,3.0778232,-0.6242052,3.3118547e-05,-0.087159455,0.040276784,0.00071420736,-0.012205704,0.0029760632,-0.0020444072,0.48998797,-1.3743626,1.8952769,-2.0909307,-1.5698422,2.4646442,-0.15245673,0.07496087,-0.09284917,0.009614668,0.009292701,-0.15037201,-0.7469909,-0.17238252,-9.212888,0.85155696,47.696735,-1.1491985,-2.4165804,-3.329002,-0.2062872,0.09085977,-0.3741283,28.3125,29.6875,28.75,32.5625,35.0,36.0625
0.20205201,-0.9494022,0.9509558,0.0061921407,0.01952959,0.09004376,-0.17321926,-0.39799204,-0.3647103,0.06001918,3.0778372,-0.6241674,0.000102689104,-0.08689494,0.041015595,-0.00018298821,-0.011145287,0.0015971378,0.00025629043,0.4896764,-1.3741945,1.8951234,-2.0909069,-1.5698189,2.4643073,-0.15323514,0.07562827,-0.09156414,0.009388153,0.009006572,-0.15345165,-0.6512228,-0.21068975,-9.193734,0.85155696,47.70659,-1.1712102,-2.2023191,-3.2712002,-0.20496342,0.08268149,-0.38066652,28.3125,29.6875,28.75,32.5625,35.0,36.0625
0.20405203,-0.41297096,1.0508503,-0.1603969,0.02595095,0.09983595,-0.17744003,-0.3981975,-0.36463434,0.06001589,3.077766,-0.62422484,8.176307e-05,-0.08883078,0.04140049,0.00015473111,-0.011505127,0.0027820277,0.004752624,0.4893403,-1.3740015,1.8949069,-2.0909307,-1.5697826,2.4640162,-0.15542245,0.077223614,-0.094205834,0.009235283,0.008775238,-0.16013344,-0.59376204,-0.30645782,-9.308657,0.84708,47.713753,-1.1900947,-2.317465,-3.328248,-0.19255863,0.09340585,-0.32962465,28.3125,29.6875,28.75,32.5625,35.0,36.0625
0.20605212,-0.8353314,0.73357767,-0.12706897,0.028659081,0.08844441,-0.17776734,-0.39837998,-0.36453563,0.060017467,3.0777762,-0.62418175,5.415301e-05,-0.090067,0.04095599,0.0011833659,-0.012667134,0.0049090576,0.013837391,0.48901695,-1.3738574,1.8947266,-2.0909069,-1.569795,2.4636648,-0.15575124,0.07732201,-0.09665625,0.00917315,0.008807578,-0.16954596,-0.45968673,-0.1340753,-9.174581,0.84708,47.701214,-1.235723,-2.2751994,-3.287116,-0.18907191,0.08336428,-0.24864036,28.3125,29.6875,28.75,32.5625,35.0,36.0625
0.20805213,-0.84341115,1.1252475,-0.17601347,0.0072806356,0.07637231,-0.18018684,-0.39853984,-0.36446676,0.060016252,3.0777814,-0.6240613,7.99097e-05,-0.09029652,0.041204743,0.0008727974,-0.012527405,0.0037920251,0.02268686,0.4887413,-1.373701,1.8945354,-2.090871,-1.5697702,2.4633133,-0.15657957,0.078304656,-0.09729273,0.009893175,0.009218499,-0.17922378,-0.34476504,-0.05746084,-9.136273,0.85155696,47.701214,-1.2543474,-2.3083894,-3.2698681,-0.20414045,0.08410102,-0.13395521,28.3125,29.6875,28.75,32.5625,35.0,36.0625
0.21005204,-0.34757012,0.30021438,-0.41492334,0.018592915,0.07375358,-0.16366331,-0.3987383,-0.3643582,0.06002066,3.0777493,-0.62405217,0.00010344784,-0.09141731,0.04171549,-0.0004425373,-0.011161863,0.00205834,0.025498163,0.4883576,-1.3735554,1.8943442,-2.0908349,-1.5697349,2.462928,-0.15814576,0.08240374,-0.099181704,0.00987042,0.008830157,-0.18359953,-0.24899697,0.0,-9.232041,0.73741806,47.705692,-1.2720206,-2.3539824,-3.2640634,-0.20915896,0.08492128,-0.05019307,28.3125,29.6875,28.75,32.5625,35.0,36.0625
0.21205209,0.115868,0.23804794,-0.3046282,-0.009476773,0.06608859,-0.17752354,-0.39893416,-0.36426482,0.06001632,3.0777764,-0.6239817,3.825361e-05,-0.092041194,0.041977935,0.00091244373,-0.011082567,0.0046408693,0.0211793,0.48804626,-1.373376,1.8941406,-2.0908344,-1.5697712,2.4625695,-0.15829393,0.08036708,-0.09998932,0.010467812,0.0075522456,-0.1794278,-0.24899697,0.076614454,-9.270349,0.784413,47.69763,-1.3388762,-2.3598537,-3.2824488,-0.23484948,0.11281537,-0.06986894,28.3125,29.6875,28.75,32.5625,35.0,36.0625
0.21405199,-0.41972983,-0.58378834,-0.4227608,-0.014773585,0.0481884,-0.15825029,-0.39910793,-0.36419237,0.06002643,3.0777414,-0.6239413,4.6352845e-05,-0.09284642,0.043014713,0.00044567607,-0.010186402,0.0037116373,0.012519476,0.4877456,-1.3732313,1.8939375,-2.0907986,-1.5697354,2.462248,-0.16048732,0.08155222,-0.100471154,0.011009096,0.0071981354,-0.17296065,-0.19153613,0.11492168,-9.232041,0.8157518,47.683304,-1.2640297,-2.2685857,-3.1692739,-0.23162715,0.117772005,-0.11426972,28.3125,29.6875,28.75,32.5625,35.0,36.0625
0.21605213,0.2040416,-0.8201159,-0.6017817,-0.011369428,0.048398703,-0.16069801,-0.39930573,-0.36408767,0.060029183,3.0777965,-0.6238993,1.7075676e-05,-0.09449663,0.04522711,-0.001456601,-0.008918395,-0.0001654184,0.00042682054,0.48742053,-1.3730497,1.893699,-2.0907266,-1.5697826,2.46189,-0.16606507,0.08555277,-0.101053126,0.011595584,0.007888851,-0.16644555,-0.21068975,0.2681506,-9.289503,0.8157518,47.66987,-1.0695925,-2.5404541,-3.3781743,-0.22730431,0.12209161,-0.21271072,28.3125,29.6875,28.75,32.5625,35.0,36.0625
0.21805212,0.22739431,-0.77935845,-0.68178505,-0.01160792,0.039382916,-0.16153479,-0.39951912,-0.36400768,0.06001792,3.0776994,-0.6239394,2.9089357e-05,-0.096230485,0.04500994,0.00083380344,-0.011044368,0.004032604,-0.00651285,0.48704934,-1.3728464,1.8934935,-2.0907738,-1.5697106,2.4615562,-0.16712478,0.08329064,-0.103610314,0.01171947,0.0078025036,-0.16056457,-0.11492168,0.30645782,-9.32781,0.84484416,47.658226,-1.1548737,-2.3254168,-3.0932975,-0.23709896,0.13510773,-0.32585073,28.3125,29.6875,28.75,32.5625,35.0,36.0625
0.22005208,0.60755944,-0.81038445,-0.8657575,-0.010944988,0.033364326,-0.15544876,-0.39968777,-0.3638889,0.05998368,3.0777407,-0.6240277,7.8631325e-05,-0.09724458,0.046114933,-0.00043903408,-0.009820815,0.0020316865,-0.013773033,0.48671302,-1.3726652,1.8933505,-2.0907505,-1.5697354,2.4612699,-0.16974483,0.08631822,-0.10434458,0.0117617315,0.007645038,-0.15592407,-0.05746084,0.30645782,-9.404425,0.83589023,47.658226,-1.0084842,-2.4351938,-3.2569542,-0.26071316,0.14028637,-0.4145589,28.3125,29.6875,28.75,32.5625,35.0,36.0625
0.22205214,0.30676755,-0.8447876,-0.7058664,-0.021787813,0.019238824,-0.15895723,-0.39988235,-0.36380675,0.059995353,3.0776968,-0.6240567,0.00010009571,-0.09885824,0.046105344,8.309395e-05,-0.011681655,0.002885833,-0.0172518,0.486377,-1.3724967,1.8931102,-2.0906913,-1.5696982,2.4609575,-0.17187552,0.08726163,-0.10659341,0.011444758,0.008888276,-0.15457577,0.0,0.28730422,-9.385271,0.8672237,47.672558,-1.0633851,-2.4796555,-3.1999683,-0.2627918,0.1354512,-0.48883748,28.3125,29.6875,28.75,32.5625,35.0,36.0625
0.22405218,0.7889926,-0.21406692,-0.5440596,-0.033260457,0.04466368,-0.17117031,-0.4000654,-0.36369383,0.059985068,3.0777197,-0.62411326,0.00013367203,-0.09935418,0.045645393,-6.287861e-05,-0.011754909,0.0026452474,-0.010433914,0.48603022,-1.3723279,1.892919,-2.0906308,-1.5697106,2.4606433,-0.17159031,0.08909907,-0.108525604,0.011725183,0.009063407,-0.16110793,0.019153614,0.22984336,-9.346964,0.8247004,47.691364,-1.2043295,-2.528904,-3.1459305,-0.26228455,0.14678457,-0.4989408,28.3125,29.6875,28.75,32.5625,35.0,36.0625
0.22605236,-0.008047536,-0.9366443,-0.82818127,-0.008080282,0.035095252,-0.15589687,-0.40028518,-0.3636294,0.060012177,3.0776296,-0.6240671,6.83264e-05,-0.09973419,0.045772307,-0.000612177,-0.011174355,0.0018491053,0.0009929511,0.48569465,-1.3721589,1.8926562,-2.0906308,-1.569662,2.4602904,-0.17199206,0.090883434,-0.10944392,0.011858124,0.00894718,-0.17293505,0.095768064,0.2681506,-9.423578,0.87393653,47.672558,-1.2433184,-2.5858905,-3.0962176,-0.26552927,0.15479374,-0.40266615,28.3125,29.6875,28.75,32.5625,35.0,36.0625
0.2280524,0.26981318,-0.36442098,-0.7351971,-0.03236024,0.05183247,-0.16335167,-0.40047553,-0.3635398,0.059993956,3.0776162,-0.6240773,0.00010663223,-0.10103969,0.046165418,-0.00043277928,-0.012457495,0.0017599642,0.011154093,0.48535848,-1.3719546,1.8924516,-2.0906184,-1.5696381,2.4599624,-0.17448552,0.0917975,-0.11098396,0.01198086,0.010130878,-0.18558988,0.095768064,0.2681506,-9.385271,0.85826975,47.692257,-1.1427009,-2.5554318,-3.078889,-0.28539556,0.13881356,-0.28952593,28.3125,29.6875,28.75,32.5625,35.0,36.0625
0.23005237,0.41486508,-0.37807783,-0.6671445,-0.039057672,0.055384874,-0.16883709,-0.40066546,-0.36344096,0.059973806,3.0776548,-0.62396634,0.00013706976,-0.10256348,0.04701674,2.3961682e-05,-0.0131092295,0.0026688247,0.015682716,0.48502198,-1.3717504,1.892249,-2.0905945,-1.5696381,2.4595518,-0.17730805,0.09188988,-0.11214228,0.011949778,0.010284524,-0.19294098,0.05746084,0.28730422,-9.3661175,0.8090337,47.694946,-1.0551895,-2.5148597,-3.071961,-0.29576072,0.1581971,-0.18973018,28.3125,29.6875,28.75,32.5625,35.0,36.0625
0.23205252,0.1300379,-0.836549,-0.95068896,-0.022699587,0.04187207,-0.15218042,-0.40084687,-0.36334568,0.05996283,3.077632,-0.62396145,0.00024120872,-0.10343016,0.047970627,-5.3183176e-05,-0.0129490625,0.0021855312,0.014828471,0.4846621,-1.3715701,1.8920459,-2.090535,-1.569578,2.4591918,-0.17966981,0.09234922,-0.11266017,0.012527388,0.010365212,-0.19444875,-0.076614454,0.24899697,-9.404425,0.90750587,47.716442,-0.98640186,-2.484727,-3.1004243,-0.29458034,0.15345559,-0.14540848,28.3125,29.6875,28.75,32.5625,35.0,36.0625
0.23405255,0.29397744,-0.52958673,-0.951529,-0.027322147,0.040442467,-0.16348602,-0.4010921,-0.36325404,0.059979293,3.077552,-0.6239474,0.0001758116,-0.104586616,0.048222676,0.00020339875,-0.014108135,0.0029460392,0.007738379,0.48426625,-1.3713778,1.8917822,-2.0905468,-1.5695418,2.4587975,-0.18145512,0.09284008,-0.11369007,0.011856279,0.011048111,-0.18914308,-0.17238252,0.21068975,-9.404425,0.7642693,47.709274,-0.9344934,-2.4935255,-3.1311975,-0.30184278,0.1575019,-0.1963214,28.3125,29.6875,28.75,32.5625,35.0,36.0625
0.23605256,-0.13077345,-0.55346465,-0.7705434,-0.022005007,0.043992892,-0.1588973,-0.40129146,-0.3631608,0.059980974,3.0775445,-0.6239473,0.00016207129,-0.10515637,0.04818162,4.9840775e-05,-0.014461776,0.0032724543,0.0016290199,0.4839312,-1.3711971,1.8915552,-2.0905116,-1.5695418,2.4584634,-0.18191715,0.093820564,-0.11434692,0.011075744,0.011206493,-0.18349528,-0.28730422,0.17238252,-9.3661175,0.8157518,47.66808,-1.0083115,-2.4739485,-3.180104,-0.30295756,0.1533887,-0.28224212,28.3125,29.6875,28.75,32.5625,35.0,36.0625
0.23805247,-0.5982074,-0.20939378,-0.79408514,-0.008066667,0.054705974,-0.15987925,-0.4015195,-0.3630772,0.059991904,3.0774858,-0.62391555,9.990078e-05,-0.10485476,0.048100714,-0.00031778085,-0.014081281,0.0024624164,0.00026008033,0.483572,-1.3710047,1.8913039,-2.0905235,-1.5695175,2.458092,-0.18145871,0.094493486,-0.11439079,0.011346979,0.01126156,-0.1816671,-0.24899697,0.019153614,-9.423578,0.8157518,47.66091,-1.0921559,-2.4180403,-3.1584737,-0.3197167,0.17921798,-0.33525133,28.3125,29.6875,28.75,32.5625,35.0,36.0625
0.2400525,-0.4797208,0.17123763,-0.7186407,0.0032163744,0.07580624,-0.15762433,-0.40170532,-0.36297798,0.059982304,3.077486,-0.62389475,0.00015322077,-0.106121995,0.048081677,0.0009776921,-0.015849557,0.004639815,-0.00052142615,0.48322424,-1.3708249,1.8911008,-2.0904758,-1.5694932,2.4577312,-0.18282178,0.09342108,-0.11607431,0.011360313,0.011811127,-0.18224883,-0.17238252,-0.076614454,-9.519346,0.8157518,47.677036,-1.06157,-2.3741422,-3.3351705,-0.3210105,0.15550613,-0.36465847,28.3125,29.6875,28.75,32.5625,35.0,36.0625
0.24205169,-0.30315804,1.0003469,-0.56105363,-0.00015446765,0.09128202,-0.17572303,-0.40192235,-0.3628623,0.05997084,3.077479,-0.6239275,0.0001820818,-0.10606852,0.048711345,-0.0010435734,-0.014630941,0.0015510081,0.0022476553,0.48282874,-1.3706193,1.8908738,-2.09044,-1.5694813,2.4573572,-0.18397644,0.09681987,-0.11537078,0.010569976,0.012170865,-0.18617268,-0.19153613,-0.095768064,-9.500193,0.82022345,47.69763,-1.165309,-2.6016374,-3.223409,-0.31815913,0.15007925,-0.38502997,28.3125,29.6875,28.75,32.5625,35.0,36.0625
0.24405187,-0.70347905,0.70016944,-0.7909456,0.022921858,0.081085324,-0.17006819,-0.40211606,-0.3627877,0.05998287,3.0774157,-0.6238517,0.00018320445,-0.10663239,0.048019163,0.000406642,-0.016810827,0.0042498037,0.009074111,0.48249364,-1.370464,1.8906587,-2.090428,-1.5694212,2.4569829,-0.1836598,0.095006034,-0.11639172,0.010023881,0.012863664,-0.19268222,-0.24899697,-0.17238252,-9.519346,0.8403672,47.701214,-1.2256933,-2.4032516,-3.318298,-0.32551247,0.1545474,-0.34122214,28.3125,29.6875,28.75,32.5625,35.0,36.0625
0.24605183,-0.52761316,0.9384867,-0.6006287,0.021239808,0.08031432,-0.18113445,-0.4023368,-0.36268017,0.0599547,3.0774534,-0.623777,0.0002558629,-0.107381195,0.04948469,-0.0014244776,-0.014793509,0.0014664361,0.018096918,0.4821089,-1.3701986,1.8903955,-2.09038,-1.5694093,2.4565468,-0.18640713,0.09846243,-0.11636309,0.00996491,0.012371502,-0.20445223,-0.2681506,-0.19153613,-9.557653,0.85155696,47.678825,-1.1031476,-2.5422773,-3.3423586,-0.32763517,0.15012518,-0.20409134,28.3125,29.6875,28.75,32.5625,35.0,36.0625
0.24805187,-0.60875076,1.155289,-0.81011724,0.019358952,0.071930856,-0.17857885,-0.4025754,-0.36256823,0.059967823,3.077405,-0.62374216,0.00017948214,-0.108111724,0.05071019,-0.0011893527,-0.013912901,0.0026452364,0.024043104,0.4817014,-1.3700308,1.8901685,-2.0903924,-1.5693978,2.4561238,-0.18822345,0.09753744,-0.11573916,0.009651849,0.011070733,-0.21221358,-0.28730422,-0.24899697,-9.615114,0.8291774,47.684196,-1.1202497,-2.483752,-3.400435,-0.32634264,0.174102,-0.117916465,28.3125,29.6875,28.75,32.5625,35.0,36.0625
0.25005183,-0.41185355,1.0190463,-0.6417558,0.022099068,0.061848,-0.17647815,-0.4027606,-0.3624889,0.05994704,3.0773854,-0.62367946,0.00026849497,-0.109186485,0.05015957,-0.0005768022,-0.0146764275,0.0034153657,0.02405379,0.48136634,-1.3698142,1.8899521,-2.090368,-1.5693377,2.4557521,-0.18836617,0.09880695,-0.118849434,0.010472112,0.01138389,-0.21236616,-0.3256114,-0.22984336,-9.634268,0.84484416,47.67793,-1.3187327,-2.3494027,-3.377636,-0.34301743,0.16956142,-0.06629522,28.3125,29.6875,28.75,32.5625,35.0,36.0625
0.25205174,-0.6013662,0.7663948,-0.5600128,0.014548456,0.05709698,-0.16427779,-0.4029921,-0.36238584,0.05995293,3.077395,-0.6235677,0.00021400428,-0.107726775,0.050692167,-0.0015898307,-0.013414393,0.0017400512,0.019501753,0.48099488,-1.3696103,1.8896903,-2.0903447,-1.5693496,2.4553099,-0.18767625,0.0981984,-0.11574372,0.010039917,0.011051995,-0.20712493,-0.45968673,-0.21068975,-9.519346,0.9164598,47.667187,-1.4271462,-2.4324062,-3.5824223,-0.33676893,0.18176676,-0.11703548,28.3125,29.6875,28.75,32.5625,35.0,36.0625
0.25405177,-0.4278511,1.0490685,-0.4016722,-0.0025022412,0.066203214,-0.1781593,-0.40325508,-0.36229023,0.059988588,3.0772867,-0.6235897,7.6910066e-05,-0.11037295,0.05030224,0.00020121121,-0.015658053,0.0054575647,0.00955747,0.48058626,-1.3694417,1.8894137,-2.090368,-1.5693258,2.4549289,-0.18942931,0.09850665,-0.12013418,0.009785579,0.011334313,-0.19893068,-0.4405331,-0.05746084,-9.385271,0.8537928,47.667187,-1.398577,-2.3939414,-3.376649,-0.34050995,0.17827496,-0.2301672,28.3125,29.6875,28.75,32.5625,35.0,36.0625
0.2560519,0.021501545,0.7579274,-0.69416195,0.006113734,0.07398916,-0.1719681,-0.40343308,-0.36217827,0.059952702,3.077324,-0.62358415,0.00020493384,-0.11125079,0.051527128,-0.0011908597,-0.01446672,0.0023656338,-0.002380617,0.48022535,-1.3692245,1.8892225,-2.090308,-1.569302,2.4545598,-0.19241618,0.101762705,-0.121104516,0.010787318,0.01168477,-0.18997982,-0.3256114,0.0,-9.519346,0.8537928,47.684196,-1.3410027,-2.3246453,-3.465726,-0.33607742,0.18336487,-0.32295424,28.3125,29.6875,28.75,32.5625,35.0,36.0625
0.2580521,-0.26607195,0.0032215926,-0.9843527,0.01627335,0.047129076,-0.17433521,-0.4036804,-0.36207706,0.059972,3.0772736,-0.62355685,0.00012982383,-0.11279765,0.052347872,0.00032167762,-0.015507126,0.0044945832,-0.009560169,0.4798286,-1.369033,1.8889474,-2.0902956,-1.5692896,2.4541526,-0.19503362,0.099995166,-0.122666195,0.011748471,0.011635917,-0.18541668,-0.24899697,-0.019153614,-9.595961,0.8985519,47.679718,-1.3451345,-2.3413868,-3.3906283,-0.34571177,0.21301448,-0.4385041,28.3125,29.6875,28.75,32.5625,35.0,36.0625
0.2600522,-0.7951411,-0.5038453,-0.7989068,-0.015326748,0.03854013,-0.16944668,-0.40390354,-0.36197364,0.059967015,3.0771954,-0.6236753,0.00017681759,-0.113803215,0.05287625,-0.0006123426,-0.014639776,0.0033084766,-0.009859413,0.4794202,-1.3688277,1.8887085,-2.0902717,-1.5692295,2.453828,-0.19658412,0.10300522,-0.124140374,0.011683724,0.011417728,-0.18666676,-0.38307226,0.11492168,-9.519346,0.86498255,47.658226,-1.367826,-2.2826905,-3.458888,-0.35092074,0.211754,-0.4817142,28.3125,29.6875,28.75,32.5625,35.0,36.0625
0.2620522,-0.916815,-0.6191464,-0.7918235,-0.01945036,0.038145352,-0.18020092,-0.40414187,-0.36186284,0.059985183,3.0771701,-0.62364465,0.00011713772,-0.115365334,0.053459067,0.0006887292,-0.015642937,0.0058576623,-0.00027579593,0.4790233,-1.368648,1.8884448,-2.090236,-1.5692295,2.4534154,-0.19868255,0.10172812,-0.12559386,0.011712751,0.011155745,-0.19834788,-0.30645782,0.21068975,-9.461885,0.83589023,47.657326,-1.266763,-2.322031,-3.3789911,-0.35887933,0.22284299,-0.40818983,28.3125,29.6875,28.75,32.5625,35.0,36.0625
0.26405218,-0.6713031,-0.40869042,-0.8948545,-0.035639804,0.05394473,-0.18813717,-0.4043705,-0.3617369,0.05997772,3.077163,-0.623598,0.00011506235,-0.116282165,0.054428272,0.0003884347,-0.015526661,0.0050919964,0.012002892,0.47860223,-1.3684555,1.8882293,-2.0902236,-1.5692176,2.4529662,-0.2011968,0.10267998,-0.12614858,0.012077265,0.01142871,-0.21314055,-0.21068975,0.22984336,-9.691729,0.83589023,47.64389,-1.2132796,-2.331922,-3.4675798,-0.35548472,0.23582454,-0.27985284,28.3125,29.6875,28.75,32.5625,35.0,36.0625
0.26605242,-0.3884786,-0.83315617,-0.7129599,-0.0478794,0.07996798,-0.18005572,-0.40458992,-0.36164477,0.059970915,3.0771756,-0.6235008,0.00010172247,-0.117610395,0.054530963,0.00052565115,-0.015628418,0.005186522,0.019681767,0.47825378,-1.3682266,1.887966,-2.0901997,-1.5692176,2.4525557,-0.20248345,0.10457564,-0.12891693,0.012836606,0.011487694,-0.22210474,-0.34476507,0.22984336,-9.653421,0.8493211,47.699425,-1.1938231,-2.2598732,-3.323741,-0.36743158,0.24306862,-0.18545136,28.3125,29.6875,28.75,32.5625,35.0,36.0625
0.26805255,-1.0331775,-1.0517591,-0.6933346,-0.04587389,0.07149588,-0.17214309,-0.40485793,-0.3615154,0.059997953,3.077116,-0.6235095,5.221756e-05,-0.11859548,0.055029184,0.0005561229,-0.016126158,0.0053665126,0.016847242,0.47778505,-1.3680462,1.8876785,-2.090152,-1.5691932,2.4521,-0.2043048,0.10527718,-0.12979212,0.012629521,0.011862027,-0.2210906,-0.61291564,0.30645782,-9.653421,0.74413085,47.686886,-1.048661,-2.3431063,-3.3940508,-0.36916795,0.24225901,-0.13810363,28.3125,29.6875,28.75,32.5625,35.0,36.0625
0.27005225,-1.0987791,-0.99796176,-0.59284973,-0.040695846,0.087798014,-0.17265244,-0.4050917,-0.3614215,0.060001157,3.077031,-0.6234962,6.5853535e-05,-0.119804464,0.05527159,0.0007469972,-0.01752927,0.0055436497,0.008261203,0.47737673,-1.3678417,1.8874272,-2.090152,-1.5691208,2.4516943,-0.20639037,0.10612837,-0.13120642,0.012396871,0.013030468,-0.21458922,-0.63206923,0.30645782,-9.615114,0.88960326,47.70032,-1.0332788,-2.2397883,-3.3481045,-0.37149674,0.24456933,-0.23336077,28.3125,29.6875,28.75,32.5625,35.0,36.0625
0.27205214,-1.159164,-0.8606952,-0.55483603,-0.031520482,0.09402797,-0.17250812,-0.4053348,-0.3612939,0.05998699,3.0770466,-0.6235041,6.9184185e-05,-0.12243685,0.055371135,0.0014502787,-0.018966537,0.0077523226,0.0010458917,0.47695568,-1.3676008,1.8871635,-2.0901163,-1.5691327,2.4512763,-0.20891647,0.10804008,-0.13492274,0.011574108,0.01328024,-0.20989852,-0.47884035,0.19153613,-9.557653,0.8806493,47.70659,-1.1131481,-2.3220901,-3.11477,-0.35644788,0.2419504,-0.317807,28.3125,29.6875,28.75,32.5625,35.0,36.0625
0.2740522,-0.9040689,-0.25436994,-0.53516436,-0.020597242,0.08247984,-0.17616358,-0.40556428,-0.36120287,0.059988663,3.07701,-0.62345874,0.00010216257,-0.12371736,0.05546581,0.0017025012,-0.020099726,0.008391157,-0.0034158267,0.47657132,-1.3673723,1.886876,-2.0900686,-1.5690845,2.4508684,-0.21053337,0.10906965,-0.1366623,0.011204627,0.013994235,-0.20705293,-0.45968673,0.21068975,-9.500193,0.8717007,47.73077,-1.0501318,-2.3393497,-3.179129,-0.36281145,0.23667523,-0.38113964,28.3125,29.6875,28.75,32.5625,35.0,36.0625
0.2760524,-0.5880673,-0.41339582,-0.35526007,-0.0054792003,0.079098485,-0.1799002,-0.4058577,-0.36108488,0.060025122,3.076923,-0.62347806,-5.7100508e-05,-0.12403295,0.055180255,0.001174298,-0.019838551,0.008002819,-0.002539703,0.4761155,-1.3671794,1.8865656,-2.0900805,-1.5690845,2.4504359,-0.21018445,0.11107577,-0.13778272,0.010791259,0.013971784,-0.20757765,-0.57460845,0.21068975,-9.461885,0.82022345,47.64479,-1.1566341,-2.375567,-3.1019304,-0.36279514,0.23147255,-0.4138829,28.3125,29.6875,28.75,32.5625,35.0,36.0625
0.27805236,-0.28577107,0.73862755,0.07066348,-0.018939914,0.08369683,-0.1970381,-0.40608191,-0.36099306,0.060014933,3.0768726,-0.6234032,-2.2651166e-06,-0.12437468,0.05412878,0.0013322971,-0.02077127,0.008706247,0.008030949,0.47572017,-1.3669505,1.8863128,-2.090069,-1.5690125,2.4500003,-0.20892861,0.112423,-0.13966295,0.010306398,0.014495299,-0.21689148,-0.59376204,0.15322891,-9.289503,0.84708,47.67614,-1.383271,-2.4464543,-3.1606197,-0.35364443,0.26385236,-0.3477226,28.3125,29.6875,28.75,32.5625,35.0,36.0625
0.28005242,-0.7450454,0.4569435,-0.18098079,0.0058494383,0.075069286,-0.18955885,-0.40632287,-0.36085734,0.059985857,3.0769181,-0.62330794,1.6731254e-05,-0.12465024,0.053830326,0.0012720705,-0.020831749,0.008932177,0.02133816,0.47528842,-1.3666981,1.8860744,-2.0900567,-1.5690249,2.4495034,-0.20853895,0.1134025,-0.1406886,0.010149798,0.014462256,-0.22980894,-0.40222588,-0.019153614,-9.270349,0.8627467,47.71286,-1.514919,-2.345394,-3.1014361,-0.34393528,0.24081382,-0.21813247,28.3125,29.6875,28.75,32.5625,35.0,36.0625
0.28205162,-0.2173634,0.8605362,-0.31017527,0.0069963667,0.07731538,-0.19180311,-0.4066084,-0.36078468,0.060036536,3.0767806,-0.6232585,-0.000114081544,-0.12613794,0.054479662,0.0014013776,-0.021185292,0.009453787,0.026440965,0.47487944,-1.3664935,1.8857149,-2.0900567,-1.5689644,2.4490812,-0.21087676,0.11451261,-0.14230676,0.010064982,0.01458832,-0.23724668,-0.17238252,-0.05746084,-9.308656,0.9030289,47.72092,-1.4696541,-2.6297631,-2.9732008,-0.33447185,0.23551175,-0.1352166,28.3125,29.6875,28.75,32.5625,35.0,36.0625
0.28405172,-0.37789494,0.29620934,-0.09421284,0.017387902,0.053394124,-0.17793058,-0.40687883,-0.36066058,0.060045425,3.0767667,-0.62318224,-0.00017208676,-0.12808138,0.055295564,0.0016881533,-0.021012241,0.01035954,0.020412965,0.47443467,-1.3662648,1.8854159,-2.0900323,-1.5689648,2.4485908,-0.21347898,0.115997426,-0.14482695,0.010376175,0.0140294405,-0.23381919,-0.2681506,-0.038307227,-9.193734,0.8627467,47.755844,-1.3943775,-2.366728,-3.1748173,-0.31861815,0.2560147,-0.09762797,28.3125,29.6875,28.75,32.5625,35.0,36.0625
0.2860517,0.60877734,0.56794196,-0.028483387,0.013171536,0.057900067,-0.18698847,-0.40711537,-0.36054373,0.060033206,3.076748,-0.6230892,-0.00012392296,-0.12740195,0.05632045,0.00096400175,-0.020271026,0.008183517,0.00965818,0.47400203,-1.3660368,1.8851656,-2.0900085,-1.5689167,2.4481025,-0.21470729,0.11561647,-0.14292268,0.011126215,0.014362049,-0.22429359,-0.30645782,-0.095768064,-9.155427,0.9254084,47.70659,-1.322282,-2.5680475,-3.145803,-0.33056164,0.257681,-0.18743613,28.3125,29.6875,28.75,32.5625,35.0,36.0625
0.28805166,0.2917199,0.37694544,-0.061285295,0.0071526305,0.028745262,-0.18454553,-0.407397,-0.36042982,0.06004709,3.0766802,-0.62315613,-0.00019828438,-0.12792216,0.056962006,8.782627e-05,-0.019275822,0.0069399844,-0.00010440643,0.4735576,-1.3657957,1.8848432,-2.0899966,-1.5689048,2.4477086,-0.21592098,0.11769178,-0.14344047,0.0111239385,0.014051385,-0.2157433,-0.19153613,-0.15322891,-9.251195,0.8605109,47.70659,-1.2223091,-2.4541922,-3.1995802,-0.3114432,0.25743145,-0.3241142,28.3125,29.6875,28.75,32.5625,35.0,36.0625
0.2900517,0.7075968,0.495412,0.055286743,-0.004196431,0.0212603,-0.18647586,-0.4076671,-0.36032933,0.060073752,3.076649,-0.6230595,-0.0003250556,-0.12855387,0.05847623,-0.0007321715,-0.018776363,0.0047696037,-0.011293112,0.47316048,-1.3655791,1.8845209,-2.0899842,-1.5689162,2.4472554,-0.21924278,0.118782535,-0.14305939,0.011798507,0.01461086,-0.20787503,0.019153614,-0.076614454,-9.212888,0.8605109,47.70659,-1.1949861,-2.5031254,-3.2451825,-0.3070118,0.28070545,-0.43444833,28.3125,29.6875,28.75,32.5625,35.0,36.0625
0.29205173,0.9635744,0.18350537,0.1503,-0.008482685,0.023632448,-0.18799469,-0.40791422,-0.3602028,0.060041882,3.0766237,-0.6231129,-0.00023497161,-0.13047513,0.059834834,-0.00044283716,-0.018495739,0.005563827,-0.01419814,0.47270352,-1.3653027,1.8842572,-2.0899603,-1.568869,2.446835,-0.22270387,0.11953704,-0.14473143,0.012156545,0.0139957,-0.20843112,0.019153614,-0.11492168,-9.11712,0.8717007,47.688675,-1.177552,-2.440962,-3.3023362,-0.29495102,0.28727645,-0.51805145,28.3125,29.6875,28.75,32.5625,35.0,36.0625
0.29405174,0.92630637,0.5212706,0.14516655,-0.0044657816,0.02341763,-0.19052298,-0.40816003,-0.36007157,0.060031198,3.076576,-0.6231728,-0.00021140453,-0.13081019,0.060714144,-0.0020853055,-0.017768335,0.0022635744,-0.0034875849,0.47224656,-1.3650854,1.8840188,-2.0899484,-1.5688323,2.4464216,-0.22490355,0.1226906,-0.14486593,0.01244283,0.014879276,-0.22134063,0.038307227,-0.05746084,-9.059659,0.8672237,47.694946,-1.0891048,-2.4218304,-3.3769524,-0.28013444,0.29394728,-0.45443314,28.3125,29.6875,28.75,32.5625,35.0,36.0625
0.29605186,0.5337953,0.6102353,-0.02957797,0.018416718,0.01524611,-0.19558403,-0.40844283,-0.35995224,0.06004752,3.0765057,-0.62314975,-0.0002656352,-0.13233073,0.061188187,-9.246722e-05,-0.01940307,0.0051803384,0.009699053,0.47177812,-1.364858,1.8837069,-2.089936,-1.568796,2.445948,-0.22698933,0.12030055,-0.14678016,0.013450094,0.015055501,-0.23661181,0.095768064,-0.11492168,-9.136273,0.8627467,47.71017,-1.0156875,-2.4811852,-3.2963686,-0.28145856,0.26665872,-0.31165147,28.3125,29.6875,28.75,32.5625,35.0,36.0625
0.29805234,-0.3658358,0.8252267,0.019505177,0.028585978,0.0037318526,-0.1835938,-0.4087303,-0.35982096,0.060061276,3.0764544,-0.6230773,-0.00030266328,-0.13267973,0.06140285,-0.0011522229,-0.019444676,0.003287951,0.0177051,0.47128576,-1.3646288,1.883396,-2.0899122,-1.5687598,2.445417,-0.22808677,0.12282534,-0.14736606,0.013209024,0.015986705,-0.2457136,0.019153614,-0.05746084,-9.136273,0.8179876,47.70211,-0.9196582,-2.473947,-3.30742,-0.2738999,0.282412,-0.18104756,28.3125,29.6875,28.75,32.5625,35.0,36.0625
0.3000522,0.38116667,1.1640052,0.018055646,0.02637997,0.031847764,-0.19240612,-0.40896514,-0.35970086,0.060035143,3.076468,-0.6230254,-0.00023697676,-0.13353632,0.061575815,0.00088485895,-0.021076042,0.0062531284,0.013069108,0.4708656,-1.3643658,1.8831323,-2.089876,-1.568736,2.4449627,-0.22906211,0.11966962,-0.14843158,0.014052635,0.016084665,-0.24205372,-0.19153614,-0.038307227,-9.174581,0.800085,47.72092,-0.8998954,-2.2175965,-3.3970418,-0.26571065,0.28735977,-0.1496595,28.3125,29.6875,28.75,32.5625,35.0,36.0625
0.3020522,-0.11408993,0.9838253,0.038528964,0.02303067,0.04457871,-0.19200441,-0.409213,-0.35957935,0.06002851,3.076456,-0.6228922,-0.00016190943,-0.13289553,0.06090952,0.00063896517,-0.02164225,0.0050242497,0.007438634,0.4704098,-1.3641253,1.8828458,-2.0898154,-1.5686759,2.4444253,-0.22790992,0.12030913,-0.14879237,0.014616756,0.01713825,-0.23527084,-0.21068975,-0.05746084,-9.097966,0.93436235,47.71554,-1.2161453,-2.2115917,-3.2884543,-0.28482687,0.28852734,-0.25566435,28.3125,29.6875,28.75,32.5625,35.0,36.0625
0.30405223,-0.75787866,0.6121159,-0.35039878,0.016176352,0.0524603,-0.18349718,-0.40948954,-0.35946777,0.06003448,3.0764394,-0.6228701,-0.00023213863,-0.13392298,0.060198907,0.0013707728,-0.022155358,0.0057225004,0.002461089,0.4699902,-1.3638605,1.8825096,-2.089791,-1.5686873,2.4439943,-0.22755447,0.12177645,-0.15256669,0.016061971,0.017282015,-0.22993553,-0.2681506,-0.095768064,-9.212888,0.900793,47.66271,-1.3509316,-2.173525,-3.2163386,-0.28799233,0.2876324,-0.3318198,28.3125,29.6875,28.75,32.5625,35.0,36.0625
0.3060523,-0.16832988,0.40399566,-0.49434194,0.0056308,0.08056083,-0.18545423,-0.40974468,-0.35933042,0.060035855,3.0764174,-0.6228683,-0.00015580324,-0.13431361,0.06095618,0.00087580417,-0.02149641,0.004254147,-0.0008211178,0.4695095,-1.3636318,1.8822111,-2.0896957,-1.5686396,2.4435153,-0.2290879,0.122984424,-0.15314059,0.017050864,0.017358031,-0.2281869,-0.26815057,-0.019153614,-9.385271,0.88960326,47.71286,-1.308084,-2.2163887,-3.3390884,-0.2946502,0.279077,-0.40625852,28.3125,29.6875,28.75,32.5625,35.0,36.0625
0.3080523,-0.11782462,0.19311088,-0.78419125,-0.014999387,0.07925904,-0.20031929,-0.4100136,-0.35919142,0.060007162,3.0763931,-0.6228961,-0.00013158187,-0.13522403,0.0613251,0.0007831883,-0.021609465,0.0038594403,0.0063378136,0.46902877,-1.3633552,1.8819474,-2.0897071,-1.5686153,2.4430552,-0.23054434,0.124355786,-0.15473008,0.017601138,0.017656585,-0.23680156,-0.19153613,0.076614454,-9.442732,0.80679786,47.698532,-1.3337187,-2.2864547,-3.237617,-0.31424755,0.26044327,-0.3742904,28.3125,29.6875,28.75,32.5625,35.0,36.0625
0.3100523,-0.4326928,-0.44543794,-1.0076246,-0.019626686,0.059246153,-0.18458638,-0.41027442,-0.3590868,0.060037274,3.076391,-0.6227139,-0.00017891629,-0.13587603,0.061681427,0.0009867203,-0.020901358,0.004907857,0.018794013,0.46862116,-1.3631388,1.8816007,-2.0896232,-1.5686039,2.4425342,-0.23092192,0.12466254,-0.15557572,0.017565768,0.016589176,-0.2496347,-0.17238252,0.17238252,-9.5385,0.8717007,47.693153,-1.4013716,-2.1388752,-3.2079048,-0.2995178,0.28959632,-0.24746974,28.3125,29.6875,28.75,32.5625,35.0,36.0625
0.31205234,-0.48604766,-0.7783244,-1.2137722,-0.03843981,0.06033,-0.18872106,-0.41054913,-0.35894772,0.060010355,3.0763712,-0.6227076,-0.00012910717,-0.13762562,0.061893888,0.0009999685,-0.02115328,0.0055664037,0.024359224,0.46812847,-1.3628497,1.8813127,-2.0896113,-1.5685676,2.4420402,-0.23260662,0.12702577,-0.15843189,0.017390596,0.016526869,-0.25688353,-0.30645782,0.21068975,-9.653421,0.9835985,47.693153,-1.4933219,-2.1953669,-3.3354137,-0.30565783,0.29982153,-0.1261597,28.3125,29.6875,28.75,32.5625,35.0,36.0625
0.31405222,-0.8330851,-0.76287085,-1.5514823,-0.045705937,0.061788883,-0.17779654,-0.41079497,-0.358812,0.060003977,3.0763834,-0.6226163,-2.3145789e-05,-0.13786128,0.06309414,0.0002905786,-0.019576922,0.0045348853,0.020432685,0.46765983,-1.3626094,1.8810147,-2.0895035,-1.5685204,2.441513,-0.23412406,0.1277885,-0.1578317,0.017677112,0.015576376,-0.25447574,-0.36391866,0.2681506,-9.768343,0.8605109,47.658226,-1.4397225,-2.157485,-3.3214784,-0.31510857,0.3128054,-0.10192256,28.3125,29.6875,28.75,32.5625,35.0,36.0625
0.3160524,-0.8072079,-1.6600852,-1.6815271,-0.035606645,0.07276011,-0.17199628,-0.4110956,-0.35869724,0.060010605,3.0763013,-0.6226066,-6.394439e-05,-0.13994174,0.06403015,0.0004315695,-0.020382952,0.0052671726,0.007870321,0.46717894,-1.3623322,1.8806676,-2.089504,-1.5684718,2.4410367,-0.23757036,0.12922129,-0.15978703,0.017180676,0.015968079,-0.24535756,-0.4213795,0.24899697,-9.959879,0.8806493,47.65464,-1.3696506,-2.3364484,-3.3670244,-0.3090849,0.31613624,-0.2103714,28.3125,29.6875,28.75,32.5625,35.0,36.0625
0.31805238,-1.1455469,-1.7484304,-1.3834221,-0.05452476,0.09003715,-0.17126456,-0.4113623,-0.35856745,0.060023133,3.0762742,-0.6225688,-4.2074924e-05,-0.14119191,0.06552654,-0.0012682921,-0.01949167,0.0024984353,-0.0056136847,0.46670997,-1.3621029,1.8803452,-2.08942,-1.568436,2.4405477,-0.24129565,0.13292389,-0.16033101,0.016887931,0.016406715,-0.23559777,-0.6703764,0.30645782,-9.940725,0.8179876,47.688675,-1.2060404,-2.295332,-3.3674996,-0.3010252,0.33291098,-0.34737206,28.3125,29.6875,28.75,32.5625,35.0,36.0625
0.32005244,-1.1089067,-1.2477068,-1.3123391,-0.061937314,0.10716791,-0.1761932,-0.41163492,-0.35844308,0.06002082,3.0762248,-0.62260294,-6.396347e-05,-0.14328785,0.06673041,-0.00076583447,-0.02074826,0.0037053577,-0.01702194,0.46625236,-1.3618506,1.8800453,-2.0894082,-1.5684117,2.4401178,-0.24532658,0.13316007,-0.1616558,0.016327564,0.01698193,-0.22821914,-0.68953013,0.28730422,-9.825804,0.8806493,47.67345,-1.1045027,-2.3426256,-3.3677435,-0.28902048,0.31477207,-0.46827787,28.3125,29.6875,28.75,32.5625,35.0,36.0625
0.32205227,-1.2606248,-0.69077057,-1.2751228,-0.047520082,0.105082266,-0.18359125,-0.4119449,-0.35829982,0.060038608,3.0761356,-0.6226778,-0.00011754629,-0.14437528,0.06659837,-0.00086040946,-0.022185795,0.003735561,-0.014041661,0.46572396,-1.3616099,1.879711,-2.0893853,-1.5683755,2.4396477,-0.24666362,0.1348594,-0.16335878,0.015681444,0.018278733,-0.23253383,-0.45968673,0.22984336,-9.883265,0.85826975,47.678825,-1.0069656,-2.472572,-3.302472,-0.28948694,0.2934055,-0.51397616,28.3125,29.6875,28.75,32.5625,35.0,36.0625
0.32405242,-0.84590584,0.024325762,-1.0742418,-0.037299916,0.09738663,-0.19432302,-0.4122614,-0.35816878,0.060033515,3.0760524,-0.62267005,-0.00013168933,-0.14363658,0.06577109,-0.0018956835,-0.021822417,0.0023795767,0.0027469606,0.4651964,-1.3613087,1.8793639,-2.0893967,-1.5683154,2.439126,-0.24467485,0.13702333,-0.16351248,0.015104546,0.018610599,-0.24733225,-0.4213795,0.095768064,-9.80665,0.8403672,47.7451,-1.0731703,-2.494396,-3.408862,-0.2786383,0.29981133,-0.39422327,28.3125,29.6875,28.75,32.5625,35.0,36.0625
0.3260526,-1.1421844,-0.36579156,-0.67630374,-0.0136496425,0.08434552,-0.1788415,-0.41255474,-0.3580466,0.060050078,3.0760221,-0.6225982,-0.00021932615,-0.1448302,0.066037714,-0.0015526683,-0.022925105,0.004039774,0.014558187,0.46474034,-1.3610563,1.8790182,-2.0893734,-1.5683149,2.4386292,-0.24616303,0.13720797,-0.16422012,0.013689155,0.018897757,-0.26062998,-0.51714754,0.038307227,-9.615114,0.8560339,47.684196,-1.213757,-2.4956257,-3.4013805,-0.2542799,0.304723,-0.24882881,28.3125,29.6875,28.75,32.5625,35.0,36.0625
0.3280518,-0.088859096,0.8265357,-0.8138628,0.0030578312,0.086046554,-0.18971886,-0.41281778,-0.35794458,0.060028758,3.076009,-0.6223858,-0.00017729696,-0.14652248,0.06575164,-0.0011465669,-0.023894833,0.0055667064,0.015663635,0.46430779,-1.3607557,1.8787059,-2.0893734,-1.5682548,2.4380658,-0.24709272,0.13904107,-0.16724719,0.013111874,0.01908631,-0.2626635,-0.45968673,0.0,-9.576807,0.8873621,47.71465,-1.2906537,-2.640792,-3.2467594,-0.23741591,0.30051166,-0.16852768,28.3125,29.6875,28.75,32.5625,35.0,36.0625
0.33005205,-0.32394496,0.81616694,-0.87373906,0.024457058,0.059146743,-0.17597407,-0.4131527,-0.35781336,0.060063794,3.0758848,-0.6224796,-0.00029377377,-0.14767924,0.065496154,-0.00040717333,-0.02419338,0.007750283,0.008786276,0.4637802,-1.3605043,1.878322,-2.089362,-1.5682191,2.4376128,-0.24704105,0.13955061,-0.16948503,0.012758289,0.018395443,-0.2557319,-0.45968673,-0.11492168,-9.481039,0.8717007,47.71465,-1.3582158,-2.3982909,-3.380631,-0.18758771,0.30914143,-0.26345792,28.3125,29.6875,28.75,32.5625,35.0,36.0625
0.33205214,-0.1898102,0.6597068,-0.29046836,0.010807851,0.05769232,-0.18367356,-0.4134518,-0.35766748,0.060057297,3.075845,-0.6224179,-0.00027674742,-0.14807692,0.066734016,-0.0010458978,-0.023551432,0.006223433,-0.00048037682,0.46325132,-1.3602281,1.8779997,-2.0893376,-1.5681714,2.4370506,-0.24936883,0.14030394,-0.16909274,0.013269163,0.018504899,-0.24879271,-0.45968673,-0.17238252,-9.2703495,0.8537928,47.716442,-1.4147148,-2.41413,-3.3011165,-0.18072411,0.32169974,-0.3596971,28.3125,29.6875,28.75,32.5625,35.0,36.0625
0.33405212,0.1808021,0.84811324,-0.26223785,0.013265808,0.05238957,-0.19379212,-0.4137731,-0.35754594,0.060075883,3.0757616,-0.62247896,-0.00035537197,-0.1479777,0.06663356,-0.0015416777,-0.023317225,0.004890904,-0.00034810748,0.46275938,-1.3599397,1.8776058,-2.0893133,-1.5681471,2.4366076,-0.24919574,0.1417365,-0.16987471,0.01392911,0.018918008,-0.24874972,-0.38307226,-0.15322891,-9.251195,0.842603,47.739727,-1.4122245,-2.4861135,-3.4602914,-0.15596667,0.31647646,-0.40936214,28.3125,29.6875,28.75,32.5625,35.0,36.0625
0.33605218,0.20159128,0.8861217,0.075410955,0.013157075,0.05558273,-0.18612921,-0.4140544,-0.35739246,0.06005712,3.0757542,-0.62243426,-0.00035867468,-0.14828955,0.06714355,-0.0016131059,-0.022766765,0.0046479306,0.007296935,0.4622553,-1.3596758,1.8773311,-2.0893128,-1.5681351,2.4360766,-0.24995105,0.142122,-0.17034397,0.014511611,0.018563502,-0.25715014,-0.22984336,-0.1340753,-9.232041,0.90750587,47.69763,-1.433973,-2.5223942,-3.4064422,-0.15676314,0.31655416,-0.3749209,28.3125,29.6875,28.75,32.5625,35.0,36.0625
0.33805215,-0.027315218,0.70512104,-0.115153566,0.02369223,0.040340614,-0.19162497,-0.41435465,-0.3572852,0.060078166,3.0756445,-0.6223664,-0.00035785045,-0.15048775,0.06792126,-0.00026791156,-0.024151204,0.0064291838,0.018397834,0.46176186,-1.3594121,1.8769587,-2.089277,-1.5680388,2.435555,-0.25325614,0.14188397,-0.17339991,0.015665242,0.019065628,-0.2715536,0.019153614,-0.1340753,-9.078813,0.91198283,47.67793,-1.3528283,-2.3964958,-3.3004196,-0.1423473,0.29511163,-0.2400936,28.3125,29.6875,28.75,32.5625,35.0,36.0625
0.34005228,0.4899823,1.2442476,0.043427914,0.021490617,0.039416425,-0.18903473,-0.41465476,-0.35714978,0.06008228,3.0756276,-0.62230504,-0.00041714203,-0.1531656,0.068798296,0.0012385444,-0.02542173,0.009157296,0.02186219,0.46128026,-1.3591363,1.8766125,-2.0892527,-1.5680388,2.4350374,-0.25680137,0.14173806,-0.17680307,0.016234202,0.019020557,-0.27856135,0.076614454,-0.1340753,-9.059659,0.84484416,47.66808,-1.1970006,-2.2749724,-3.2659867,-0.13516167,0.33059233,-0.12628603,28.3125,29.6875,28.75,32.5625,35.0,36.0625
0.34205222,0.80805856,1.0186679,0.06932176,0.023576993,0.0342656,-0.17953275,-0.41496933,-0.35699508,0.060070597,3.0756192,-0.62217224,-0.00042748175,-0.15488072,0.06951491,0.0018148113,-0.02582199,0.010270742,0.014839859,0.4607397,-1.3588364,1.8762759,-2.0892408,-1.568015,2.434415,-0.25919557,0.14241503,-0.17905328,0.01663691,0.018886028,-0.2739321,-0.15322891,-0.038307227,-9.040505,0.83365434,47.651955,-1.0324953,-2.25084,-3.194237,-0.12590545,0.32046482,-0.10939996,28.3125,29.6875,28.75,32.5625,35.0,36.0625
0.34405217,0.16304168,0.9964919,-0.12047946,0.016720656,0.026572887,-0.18686892,-0.41525975,-0.35684285,0.060080223,3.0756035,-0.62215734,-0.00040448332,-0.15518515,0.07015016,0.00076033885,-0.025168743,0.0075490475,0.0027357528,0.46022376,-1.358584,1.8759288,-2.0891445,-1.5679907,2.433892,-0.26073107,0.1449238,-0.17996548,0.017753966,0.019494321,-0.2633623,-0.3256114,0.076614454,-9.11712,0.76874626,47.685097,-1.173921,-2.1745324,-3.1776047,-0.121698305,0.31568876,-0.24679735,28.3125,29.6875,28.75,32.5625,35.0,36.0625
0.34605226,-0.33708763,0.7230116,-0.22410756,0.0016180942,0.035339624,-0.18793327,-0.4155767,-0.35671663,0.060099415,3.0755012,-0.6221997,-0.0004362685,-0.15582186,0.07051656,0.002243516,-0.026293598,0.008810604,-0.009028844,0.45970753,-1.3583089,1.8755463,-2.0891082,-1.5679301,2.4334154,-0.26197508,0.14282183,-0.18122432,0.019479822,0.019945147,-0.25283992,-0.40222588,0.15322891,-9.078813,0.90527004,47.687782,-1.1586262,-2.140164,-3.1862085,-0.10650571,0.3131873,-0.383713,28.3125,29.6875,28.75,32.5625,35.0,36.0625
0.34805238,-0.55502516,0.40010738,-0.33002165,-0.02725935,0.061394144,-0.16920379,-0.41588914,-0.35656843,0.060082324,3.0754464,-0.6222872,-0.0003908806,-0.15630506,0.07167949,0.0016180609,-0.024998605,0.006347787,-0.013568208,0.4591665,-1.3579843,1.8751863,-2.089071,-1.5678829,2.4329362,-0.26412374,0.14451742,-0.18241028,0.021767989,0.019882584,-0.25044888,-0.47884035,0.17238252,-9.270349,0.88289046,47.705692,-1.1180837,-2.2026427,-3.195756,-0.11581294,0.3122852,-0.48960644,28.3125,29.6875,28.75,32.5625,35.0,36.0625
0.35005248,-0.9512301,-0.43494943,-0.55932444,-0.040461924,0.07657661,-0.17550701,-0.41619796,-0.35640883,0.060087454,3.0754473,-0.6222416,-0.00040788949,-0.15634672,0.07216805,0.001653576,-0.025386596,0.004674887,-0.002457934,0.45863822,-1.3577087,1.8748268,-2.088999,-1.5678824,2.4323795,-0.26550078,0.14462106,-0.18309313,0.023717718,0.021017844,-0.26293477,-0.34476504,0.21068975,-9.346964,0.92093146,47.70032,-1.1413859,-2.039967,-3.2789483,-0.14177714,0.2941074,-0.44635415,28.3125,29.6875,28.75,32.5625,35.0,36.0625
0.3520525,-1.1666697,-0.9630368,-0.80310416,-0.035994448,0.08030757,-0.18410918,-0.41650105,-0.35626993,0.060084227,3.0753813,-0.62223864,-0.00032606427,-0.15541483,0.07153643,0.001079459,-0.025507355,0.002823508,0.013958435,0.4580987,-1.3574086,1.8744568,-2.0889266,-1.567798,2.4318466,-0.26407373,0.14563632,-0.18323451,0.02452515,0.021992216,-0.2779232,-0.24899697,0.19153613,-9.423578,0.8918391,47.70032,-1.1853781,-2.1307716,-3.316886,-0.15114515,0.27575403,-0.29995304,28.3125,29.6875,28.75,32.5625,35.0,36.0625
0.35405254,-0.81944966,-0.42411792,-0.5731468,-0.046961963,0.09479643,-0.17679627,-0.41682252,-0.35612467,0.060116228,3.0753233,-0.6221668,-0.00040976584,-0.15623483,0.07162292,0.0012559312,-0.025801962,0.0035502876,0.019800233,0.45757023,-1.3571686,1.8740844,-2.0888784,-1.5677737,2.4312809,-0.2647145,0.14644471,-0.18459229,0.024330115,0.021979678,-0.28440353,-0.4213795,0.1340753,-9.500193,0.85155696,47.64927,-1.2262958,-2.0335052,-3.2664738,-0.13986805,0.28977972,-0.16458929,28.3125,29.6875,28.75,32.5625,35.0,36.0625
0.3560526,-1.0211288,-0.37139776,-0.77812696,-0.027337499,0.08420276,-0.16853994,-0.41715118,-0.35597783,0.060087666,3.0752609,-0.6221762,-0.0004093484,-0.1563831,0.0703599,0.0006397521,-0.02624014,0.0034892014,0.015979528,0.4570191,-1.3568202,1.8737382,-2.088915,-1.567726,2.4307437,-0.2627751,0.1492965,-0.1864104,0.023164583,0.02239555,-0.27864113,-0.5363012,0.05746084,-9.519346,0.900793,47.658226,-1.3728045,-2.0639145,-3.3208318,-0.13860506,0.2575225,-0.21108353,28.3125,29.6875,28.75,32.5625,35.0,36.0625
0.35805163,-0.28293735,0.2896805,-0.68996155,-0.01584185,0.08292048,-0.17006911,-0.41745082,-0.35581583,0.060064822,3.075253,-0.6222012,-0.0002922308,-0.15888752,0.07044378,0.001547127,-0.02898184,0.0056187892,0.003131463,0.45646644,-1.3564956,1.8733777,-2.0888202,-1.5676774,2.4302077,-0.2657307,0.15042,-0.18962331,0.022123935,0.02387425,-0.26874697,-0.4213795,0.1340753,-9.634268,0.85155696,47.657326,-1.4326825,-2.2073293,-3.3015947,-0.12678725,0.24353495,-0.33680427,28.3125,29.6875,28.75,32.5625,35.0,36.0625
0.36005175,-0.009322725,0.6424603,-0.454385,-0.021473033,0.07676899,-0.16879779,-0.41776916,-0.35569537,0.060079686,3.0751932,-0.6220755,-0.00030867284,-0.1600209,0.07157304,-0.00016594831,-0.027994137,0.0030184945,-0.0015269427,0.45596132,-1.3561945,1.8729705,-2.088772,-1.5676168,2.429632,-0.26855907,0.15452157,-0.19065937,0.02184958,0.024149103,-0.26691437,-0.40222588,0.1340753,-9.423578,0.8605109,47.66091,-1.4049602,-2.3067076,-3.3766007,-0.10106417,0.2340092,-0.40822616,28.3125,29.6875,28.75,32.5625,35.0,36.0625
0.3620516,0.23221473,0.8229117,-0.44839826,-0.01049505,0.06877625,-0.18224187,-0.4180999,-0.3555362,0.060086202,3.075135,-0.6220784,-0.00033496702,-0.16035566,0.07326646,-0.0014730517,-0.026386274,0.00108663,0.00504935,0.4553964,-1.3559062,1.8726004,-2.0887363,-1.5675815,2.4290764,-0.27116448,0.15597685,-0.18945597,0.021687277,0.023602607,-0.27609608,-0.36391866,-0.076614454,-9.442732,0.8918391,47.666286,-1.1831547,-2.357584,-3.2976737,-0.08371699,0.22247684,-0.3779106,28.3125,29.6875,28.75,32.5625,35.0,36.0625
0.36405173,0.3220327,0.93471175,-0.8220333,0.011104993,0.050273873,-0.1797601,-0.41844714,-0.35538974,0.060106236,3.0750387,-0.6220705,-0.00040994422,-0.16114414,0.07398575,-0.002082533,-0.025165081,0.0004569932,0.016843688,0.45483217,-1.355618,1.8722051,-2.088724,-1.5675339,2.4285197,-0.27236816,0.1580241,-0.19065805,0.022015369,0.022849899,-0.28909248,-0.05746084,-0.019153614,-9.615114,0.90750587,47.684196,-1.2949052,-2.3550222,-3.4159746,-0.08246885,0.22169074,-0.2457687,28.3125,29.6875,28.75,32.5625,35.0,36.0625
0.36605173,0.7827686,0.5350126,-0.51110196,-0.0030346091,0.06601653,-0.17973614,-0.41875318,-0.35525572,0.060097206,3.0750027,-0.6220045,-0.00035467115,-0.16198894,0.07442565,-0.0022660864,-0.02493176,-6.867669e-05,0.022413757,0.4543155,-1.3552938,1.8718213,-2.0886643,-1.5674733,2.4279666,-0.27365378,0.15957204,-0.19232374,0.022759506,0.022894043,-0.29594755,-0.19153613,-0.038307227,-9.423578,0.89631605,47.679718,-1.3216093,-2.4433365,-3.3901472,-0.07314861,0.21650815,-0.108615816,28.3125,29.6875,28.75,32.5625,35.0,36.0625
0.36805254,0.18631844,0.32381743,-0.45972934,-0.014884398,0.060638648,-0.17249611,-0.4191045,-0.35508072,0.06009801,3.074966,-0.6220217,-0.000362477,-0.1628757,0.074995674,-0.002609872,-0.02522729,-0.0011317008,0.013896167,0.4537151,-1.3549695,1.871415,-2.0886042,-1.5674495,2.4273818,-0.27558184,0.16123523,-0.19372271,0.023317479,0.023618212,-0.2893559,-0.28730422,0.05746084,-9.308656,0.900793,47.687782,-1.2923982,-2.4335425,-3.3608327,-0.07703166,0.21293521,-0.16402948,28.3125,29.6875,28.75,32.5625,35.0,36.0625
0.37005252,0.56228524,0.2752702,-0.7895905,-0.008041186,0.05758898,-0.17484297,-0.4194356,-0.35495827,0.06011422,3.0748963,-0.62190044,-0.00039845626,-0.16472022,0.07624599,-0.001731631,-0.02640905,-7.1600945e-05,-0.0015592673,0.4531983,-1.3546579,1.8709944,-2.088568,-1.5673894,2.4267983,-0.2793703,0.16073264,-0.19527927,0.023894211,0.024206785,-0.27768606,-0.22984336,0.076614454,-9.308657,0.90750587,47.668976,-1.1820819,-2.4077094,-3.3871555,-0.061969653,0.18411815,-0.29907945,28.3125,29.6875,28.75,32.5625,35.0,36.0625
0.37205246,-0.087696075,-0.08488688,-0.5744644,-0.020075258,0.046484377,-0.16768757,-0.41977492,-0.35479966,0.06010843,3.0748174,-0.6219862,-0.00039843374,-0.16677898,0.076587886,-0.001085769,-0.02718274,0.0008766748,-0.0124745695,0.4526212,-1.3543332,1.8706106,-2.0885437,-1.5673407,2.426285,-0.28160056,0.16241413,-0.19901085,0.024749903,0.024472464,-0.26899835,-0.17238252,0.095768064,-9.385271,0.9097417,47.642998,-0.99105346,-2.5328927,-3.3920536,-0.072622195,0.16577284,-0.4387911,28.3125,29.6875,28.75,32.5625,35.0,36.0625
0.3740524,-0.045704424,-0.017799478,-0.2268006,-0.032719348,0.040684737,-0.18786357,-0.42010173,-0.35466367,0.060135193,3.0747461,-0.6219287,-0.0004445064,-0.16637309,0.076345205,-0.0021064598,-0.025988957,-0.00089689257,-0.0071264054,0.45209348,-1.3540571,1.8702034,-2.0884836,-1.567293,2.4257307,-0.28049898,0.16479456,-0.19972265,0.025239568,0.024211448,-0.27324325,-0.095768064,0.1340753,-9.346964,0.800085,47.657326,-1.1106399,-2.3689752,-3.4276175,-0.057589233,0.17054272,-0.49634913,28.3125,29.6875,28.75,32.5625,35.0,36.0625
0.37605253,0.3674754,0.18480203,-0.054690428,-0.035166025,0.046003565,-0.18114987,-0.4204096,-0.35450128,0.06009646,3.0747435,-0.6218822,-0.0003161925,-0.16664945,0.07617562,-0.0011306806,-0.027185021,0.0008759221,0.007989275,0.45152968,-1.3536979,1.8698443,-2.088424,-1.567233,2.4251382,-0.2804525,0.1632918,-0.20014805,0.025132632,0.024546789,-0.28831378,-0.15322891,0.11492168,-9.289502,0.92764956,47.65912,-1.2178131,-2.3895552,-3.330242,-0.04717692,0.14737691,-0.38150474,28.3125,29.6875,28.75,32.5625,35.0,36.0625
