Tylouw/Master_Thesis_Code/training_data/batch_1/rect_rod_t0.3/sample_87_session_3.csv
timestamp[s],tcp_force_x[N],tcp_force_y[N],tcp_force_z[N],tcp_force_rx[Nm?],tcp_force_ry[Nm?],tcp_force_rz[Nm?],tcp_pose_x[m],tcp_pose_y[m],tcp_pose_z[m],tcp_pose_rx[rot_vec_x],tcp_pose_ry[rot_vec_y],tcp_pose_rz[rot_vec_z],tcp_velo_x[m/s],tcp_velo_y[m/s],tcp_velo_z[m/s],tcp_velo_rx[rot_vec_x/s],tcp_velo_ry[rot_vec_y/s],tcp_velo_rz[rot_vec_z/s],q1[rad],q2[rad],q3[rad],q4[rad],q5[rad],q6[rad],qd1[rad/s],qd2[rad/s],qd3[rad/s],qd4[rad/s],qd5[rad/s],qd6[rad/s],tool_acc_x,tool_acc_y,tool_acc_z,current_of_whole_robot[A],voltage_of_whole_robot[V],current_J1[A],current_J2[A],current_J3[A],current_J4[A],current_J5[A],current_J6[A],temp_J1[C],temp_J2[C],temp_J3[C],temp_J4[C],temp_J5[C],temp_J6[C]
8.440111e-07,-0.012196531,-0.6375315,-0.2548168,-0.004249855,0.014699496,-0.0031941384,-0.38934252,-0.36872664,0.06001708,-3.0787282,0.6249714,0.00022406202,0.0004295042,0.00029679498,-0.00014314886,0.00013015982,-0.0004917283,-4.5800436e-05,0.50503284,-1.3816562,1.904199,-2.0919273,-1.5708417,2.4800491,-0.00017603919,-0.0007098593,0.0011528238,4.9870792e-05,0.00012664274,-0.00013100775,0.22984336,0.11492168,-8.6574335,0.73741806,47.711964,-0.2560793,-3.0728421,-2.300545,-0.20653558,0.13462749,-0.037086267,28.5625,29.9375,28.9375,32.75,35.1875,36.25
0.0020546229,0.11703774,-0.7705145,-0.15765014,-0.008689019,0.022287255,-0.0055727297,-0.38935181,-0.36871395,0.060013667,-3.078701,0.6249658,0.00028967098,-0.00088269665,-0.00043431422,-0.001393255,-0.002405781,0.004067676,-3.2505046e-05,0.50503284,-1.3816556,1.9042124,-2.091955,-1.5708898,2.4800491,-0.00017183737,0.0010805819,0.004151755,-0.009956699,0.00012317572,-0.00013997448,0.13407528,0.22984336,-8.561666,0.7642693,47.709274,-0.30268723,-3.0002034,-2.386404,-0.13817674,0.13872854,-0.034753926,28.5625,29.9375,28.9375,32.75,35.1875,36.25
0.004053887,-0.43953136,-0.87116385,-0.34584752,-0.011466201,0.015890948,-0.0048374454,-0.3893602,-0.36871508,0.06001689,-3.0787446,0.62501335,0.00026922533,-0.00090100046,-0.00044635203,-0.002341488,-0.001770245,0.0029219433,-3.14895e-05,0.50499684,-1.3816668,1.9042238,-2.0919793,-1.5708417,2.4800372,-0.00016783191,0.003061914,0.0041119023,-0.010587962,0.00011989392,-0.00013657832,0.076614454,0.17238252,-8.580819,0.7150385,47.694054,-0.22953573,-3.4147515,-2.5993319,-0.05925583,0.16115217,-0.01280477,28.5625,29.9375,28.9375,32.75,35.1875,36.25
0.006054647,-0.38588512,-0.5864406,-0.17961699,0.0046272757,0.004629786,0.007053266,-0.38932768,-0.36872548,0.059988752,-3.0787094,0.62491024,0.00016772827,-0.00040514424,-0.00017119924,-0.001010673,-0.0011584093,0.0018382914,-3.185744e-05,0.50504476,-1.3816195,1.9042233,-2.091941,-1.5708417,2.4800253,-0.00016400917,0.00090258726,0.0024961818,-0.0055685043,0.000116782285,-0.00013260901,0.038307227,0.1340753,-8.561666,0.7553206,47.690468,-0.20688038,-3.3407443,-2.5226464,-0.0772292,0.13491772,-0.019298492,28.5625,29.9375,28.9375,32.75,35.1875,36.25
0.00805403,0.601684,0.70772535,-0.5174757,0.023286207,0.0027362604,-0.013252506,-0.38936415,-0.36874133,0.060031876,-3.0787647,0.6249788,0.00032136787,0.0001288001,0.00012482032,-0.00047383926,-0.00023195372,0.00018248678,-3.2103064e-05,0.50504476,-1.3816559,1.9041761,-2.091976,-1.5708536,2.480061,-0.0001603562,1.2109359e-05,0.0014591642,-0.0017436467,0.00011382803,-0.00012881588,-0.038307227,0.24899697,-8.619126,0.71279734,47.685097,-0.22190645,-3.186923,-2.4947119,-0.11038461,0.12913753,-0.038306154,28.5625,29.9375,28.9375,32.75,35.1875,36.25
0.010054415,0.2962663,0.51405454,-1.0468605,0.04216306,-0.0006010958,-0.006798523,-0.38934022,-0.3687254,0.05999509,-3.0787196,0.6249314,0.00019368091,0.00087939977,0.0005410538,-0.00062518934,0.0011629785,-0.0023208684,-2.0117996e-05,0.50503284,-1.3816198,1.9042114,-2.0919507,-1.5708417,2.4800253,-0.0001568837,1.6246251e-07,0.0010786253,0.0015146105,0.00011101968,-0.00013752776,0.05746084,0.15322891,-9.040505,0.7642693,47.672558,-0.7563133,-2.8789616,-2.8701625,-0.12054166,0.1209302,-0.13223898,28.5625,29.9375,28.9375,32.75,35.1875,36.25
0.012054029,-0.0068431357,-0.61222255,-1.3710748,0.023603408,0.015198261,-0.008027323,-0.3893383,-0.36870575,0.059983443,-3.0786383,0.6249545,0.00017199643,-0.00051033363,0.002503256,-0.0010127078,0.0021374072,-0.004072344,-0.003932525,0.50503165,-1.3815957,1.9041985,-2.0919025,-1.5708898,2.480049,-0.004757458,0.00087899994,0.000546358,0.0031721955,0.00010834625,-0.00082551595,0.038307227,0.1340753,-9.11712,0.7620334,47.68062,-1.0235486,-2.7297978,-2.9586072,-0.14027847,0.107026175,-0.1885098,28.5625,29.9375,28.9375,32.75,35.1875,36.25
0.01405429,-0.93547547,-0.83067614,-1.3376608,-0.020655574,0.027732067,-0.014700093,-0.38930848,-0.36870798,0.059967853,-3.0786488,0.6248383,6.085619e-05,-0.004035875,0.0046430808,-0.0045554377,0.004905088,-0.0090951575,0.00062504463,0.5050407,-1.3815918,1.9042214,-2.0918672,-1.5708536,2.479984,-0.011661742,0.011006943,-0.0032124303,0.00253611,0.00010579918,-0.012284154,-0.038307227,0.17238252,-9.193734,0.7463667,47.68062,-0.55232894,-3.2581058,-3.0238342,-0.11175288,0.10134593,-0.118272975,28.5625,29.9375,28.9375,32.75,35.1875,36.25
0.016054463,-0.9160322,-0.72273076,-1.3412399,-0.06040607,0.060232673,-0.034163505,-0.38933182,-0.36871552,0.05996382,-3.0786796,0.6248591,6.616533e-05,-0.005407956,0.004112533,-0.0031235034,0.0031332339,-0.005899079,0.010421704,0.5050166,-1.3815562,1.9041966,-2.091903,-1.5708297,2.479969,-0.012050251,0.010153643,-0.005301303,0.0018228462,0.00010336863,-0.02246852,-0.26815057,0.21068975,-9.385271,0.78217715,47.66987,-0.62229574,-3.2472842,-2.9649744,-0.109766886,0.100866035,-0.026300827,28.5625,29.9375,28.9375,32.75,35.1875,36.25
0.018054454,-1.8732972,-1.3958377,-1.4536834,-0.049460027,0.07536416,-0.047451384,-0.3893284,-0.36867183,0.059944473,-3.0786076,0.62484336,1.7000888e-05,-0.0050138794,0.004439132,-0.0026340098,0.0031229442,-0.005872472,0.013664866,0.50496864,-1.3815569,1.9042333,-2.0918672,-1.5708655,2.4799204,-0.012229013,0.008392769,-0.004558622,0.0028114012,0.00010104726,-0.025891138,-0.40222588,0.22984336,-9.481039,0.779936,47.668976,-0.7441412,-2.9369113,-3.078126,-0.08711928,0.11469461,0.013980057,28.5625,29.9375,28.9375,32.75,35.1875,36.25
0.020054115,-1.6647464,-0.76204604,-1.7856598,-0.017899333,0.092597775,-0.075014554,-0.38931727,-0.36867604,0.059909813,-3.0785844,0.62486166,-0.00013465347,-0.004243874,0.0059223305,-0.0035264534,0.005548429,-0.010237378,0.00825566,0.504956,-1.3814845,1.9042209,-2.0918415,-1.5708174,2.479922,-0.014003684,0.008863625,-0.0039780177,0.0067551755,9.882817e-05,-0.022257188,-0.4405331,0.19153613,-9.423578,0.7083204,47.613445,-0.9184432,-2.9416022,-3.3064632,-0.12706359,0.10526957,-0.027917076,28.5625,29.9375,28.9375,32.75,35.1875,36.25
0.02205565,-1.6569273,-0.0070752795,-2.095969,0.012512667,0.08874631,-0.09954548,-0.38931236,-0.36865672,0.059913233,-3.078558,0.62482005,-0.00013857515,-0.0059334254,0.006447352,-0.0034174153,0.0052853134,-0.009766033,0.0028569303,0.5049433,-1.3815081,1.9042329,-2.0918057,-1.5708417,2.4798868,-0.01646793,0.010345906,-0.005970167,0.0067251297,9.670426e-05,-0.01932165,-0.5554548,0.114921674,-9.730036,0.82022345,47.678825,-0.94034326,-2.9040477,-3.3986626,-0.1470946,0.0904649,-0.0900158,28.5625,29.9375,28.9375,32.75,35.1875,36.25
0.024053767,-1.7056646,-0.18434769,-1.9857807,0.019699987,0.089514665,-0.0995146,-0.38935336,-0.36866498,0.059921186,-3.0785844,0.6248081,-9.561055e-05,-0.008270142,0.0060980385,-0.0023323465,0.0034580322,-0.0064752162,-0.000366794,0.5049188,-1.3814598,1.9041604,-2.0918176,-1.5708417,2.4798515,-0.018064069,0.011143246,-0.0090453895,0.0052391635,9.466974e-05,-0.017692514,-0.51714754,0.019153614,-9.672575,0.80679786,47.694946,-0.84546053,-2.855953,-3.3195343,-0.123974375,0.0917255,-0.10464051,28.5625,29.9375,28.9375,32.6875,35.1875,36.25
0.026053594,-1.7023218,-0.22540392,-1.970679,0.017872639,0.08948157,-0.124120414,-0.38935384,-0.36865726,0.059904467,-3.0785782,0.62478673,-0.00020233175,-0.009294685,0.0057191327,-0.002875498,0.00331898,-0.006236163,-0.0009875221,0.50488275,-1.381423,1.904147,-2.0917828,-1.5708054,2.4798028,-0.018385394,0.013896796,-0.010766062,0.0039304756,9.271903e-05,-0.017391833,-0.6703765,0.076614454,-9.768343,0.69937176,47.729877,-0.966013,-2.926334,-3.2814345,-0.09079699,0.08940987,-0.108046845,28.5625,29.9375,28.9375,32.6875,35.1875,36.25
0.028053526,-2.072448,-0.4979864,-2.132537,0.011036004,0.096075654,-0.1290132,-0.38935605,-0.36861634,0.059864044,-3.078474,0.62480515,-0.00029563042,-0.010009446,0.0058528623,-0.002755797,0.0031523858,-0.005939206,-0.002520081,0.5048344,-1.3813626,1.9041594,-2.0917466,-1.5708417,2.4797792,-0.019278638,0.014504664,-0.011769167,0.0039846967,9.0847236e-05,-0.016752025,-0.78529817,-0.15322891,-9.883265,0.78217715,47.694054,-0.9936329,-2.8969965,-3.3674836,-0.07537993,0.08194535,-0.1299309,28.5625,29.9375,28.9375,32.6875,35.1875,36.25
0.030054204,-1.8133966,-0.58708453,-2.1495938,-0.0063248146,0.11701453,-0.14370203,-0.3894122,-0.3686216,0.05988675,-3.0785072,0.62487036,-0.0001834965,-0.01065064,0.006213304,-0.0028664758,0.003806612,-0.007098352,-0.0043224785,0.5047981,-1.3813381,1.904087,-2.0917823,-1.5708536,2.4797795,-0.020477168,0.015896708,-0.013553464,0.0057078646,8.0287085e-05,-0.016147362,-0.7469909,-0.11492168,-9.883265,0.7933669,47.688675,-1.0268931,-2.8572984,-3.2825189,-0.07153435,0.08082461,-0.15231362,28.5625,29.9375,28.9375,32.6875,35.1875,36.25
0.032054063,-2.4535503,-0.9074876,-2.07826,-0.00080037833,0.09737388,-0.14130455,-0.38941848,-0.36860362,0.059866685,-3.0784757,0.62486416,-0.00024262226,-0.010681799,0.0067292065,-0.0028519812,0.004616936,-0.008539969,-0.00473368,0.504762,-1.381302,1.904087,-2.091769,-1.5708536,2.4797435,-0.021368498,0.016094673,-0.01432542,0.007935528,7.044784e-05,-0.016627366,-0.68953013,-0.1340753,-9.768343,0.77545905,47.672558,-1.008886,-2.8295822,-3.329145,-0.10772836,0.07281548,-0.1689528,28.5625,29.9375,28.9375,32.6875,35.1875,36.25
0.03405429,-1.9587867,-0.41737953,-2.103216,0.0029977444,0.10821424,-0.17347223,-0.38940623,-0.36857256,0.05983515,-3.0784206,0.6248715,-0.00036829748,-0.011201791,0.006976988,-0.0031146915,0.004880108,-0.009020092,-0.004582224,0.5047137,-1.3812776,1.9041218,-2.0917332,-1.5708417,2.4797068,-0.022272112,0.017199853,-0.015077002,0.008129496,6.856594e-05,-0.017681977,-0.7278373,-0.076614454,-9.787497,0.7284641,47.701214,-1.04168,-2.8673015,-3.3242042,-0.11419782,0.06713198,-0.17931885,28.5625,29.9375,28.9375,32.6875,35.1875,36.25
0.036053542,-1.8558016,-0.28262106,-2.0309644,0.004250072,0.09756987,-0.17365505,-0.3894553,-0.3685585,0.059857126,-3.078436,0.62497103,-0.00036349805,-0.012754017,0.007586559,-0.0025264889,0.0040084724,-0.0074324426,-0.0047923536,0.504629,-1.3812658,1.9040498,-2.091698,-1.5708174,2.4796822,-0.024741003,0.01700667,-0.016039457,0.0074741524,5.897613e-05,-0.019940287,-0.63206923,-0.095768064,-9.825804,0.7329411,47.705692,-1.0459385,-2.8467355,-3.3747423,-0.10895322,0.06051001,-0.19009659,28.5625,29.9375,28.9375,32.6875,35.1875,36.25
0.03805338,-1.3937889,-0.3220215,-2.0252912,0.007211681,0.09407171,-0.18817872,-0.38948765,-0.36855274,0.059857108,-3.0784287,0.6249118,-0.00033937523,-0.014522455,0.00793191,-0.0017794631,0.002845547,-0.0053215697,-0.005259822,0.5046042,-1.3812175,1.9039901,-2.091686,-1.5708417,2.4796214,-0.026968494,0.017023914,-0.017553905,0.006560628,5.006823e-05,-0.021699576,-0.49799395,0.0,-9.730036,0.7284641,47.684196,-0.9211446,-2.779012,-3.3142715,-0.081741616,0.056702066,-0.19926877,28.5625,29.9375,28.9375,32.6875,35.1875,36.25
0.04005326,-0.9340508,-0.5700099,-1.9119483,0.010237677,0.08199651,-0.19829413,-0.3895129,-0.36854967,0.05984544,-3.078419,0.6250069,-0.0003513186,-0.015494954,0.007997862,-0.0015594608,0.0026432688,-0.0047943327,-0.0059011993,0.5045679,-1.3811692,1.9039649,-2.0917094,-1.5708297,2.4796457,-0.027937036,0.017915934,-0.019140294,0.006696189,-3.1231073e-05,-0.022025812,-0.45968673,0.038307227,-9.672575,0.7105615,47.705692,-0.96738034,-2.8248553,-3.3469994,-0.07154843,0.043586805,-0.20353496,28.5625,29.9375,28.9375,32.6875,35.1875,36.25
0.0420541,-0.87929744,-0.8362964,-1.7983377,0.0092145465,0.07375488,-0.2107941,-0.3895271,-0.3685174,0.059824493,-3.0783799,0.6249605,-0.00040998103,-0.016266469,0.0082685305,-0.0010760791,0.0023098637,-0.004095707,-0.0060318015,0.5045078,-1.3811333,1.9039649,-2.091686,-1.5708417,2.4795616,-0.02908245,0.01771448,-0.020088123,0.0070724934,-8.035833e-05,-0.023040213,-0.30645782,0.038307227,-9.653421,0.78888994,47.693153,-0.9379613,-2.796998,-3.3387682,-0.07204519,0.058830414,-0.21933228,28.5625,29.9375,28.9375,32.6875,35.1875,36.25
0.044053633,-0.6463008,-0.5371383,-2.0636559,0.0025940635,0.05921977,-0.23063713,-0.38959175,-0.36849338,0.059841875,-3.0783808,0.62511396,-0.0003811862,-0.017091742,0.008783659,-0.0009997103,0.0023810077,-0.00414015,-0.005958944,0.5043995,-1.3811091,1.9038938,-2.0916736,-1.5708297,2.479549,-0.030690836,0.018220432,-0.020959897,0.0075118057,-0.00012248494,-0.02472099,-0.15322891,0.17238252,-9.576807,0.73741806,47.690468,-1.0146143,-2.7020574,-3.3274379,-0.08432867,0.05082685,-0.2495017,28.5625,29.9375,28.9375,32.6875,35.1875,36.25
0.04605351,0.021493712,-0.4359438,-1.8211809,-0.0098680435,0.060593132,-0.24034393,-0.3896386,-0.3684973,0.059847828,-3.0784001,0.6250978,-0.00035156822,-0.01892563,0.009575955,-0.000630353,0.0026688327,-0.0029183906,-0.0063370243,0.5043626,-1.3810487,1.903809,-2.0916736,-1.5708302,2.4794996,-0.033206727,0.019134235,-0.022904884,0.007615257,-0.00096933235,-0.026856285,-0.1340753,0.11492168,-9.634268,0.68146914,47.66539,-0.90761054,-2.7488208,-3.2848978,-0.06041646,0.036851753,-0.24894801,28.5625,29.9375,28.9375,32.6875,35.1875,36.25
0.048054274,-0.32985938,-1.2441756,-1.9606462,-0.0030719726,0.045069218,-0.21136951,-0.38969147,-0.3684864,0.059863206,-3.0784338,0.6250461,-0.00028148873,-0.020192685,0.009833963,0.00031958352,0.0021047145,-0.0012429875,-0.005228354,0.50430226,-1.3810248,1.9037484,-2.0916855,-1.5708421,2.4794028,-0.034622278,0.018667432,-0.024614748,0.008052931,-0.0012875316,-0.029379392,-0.076614454,0.11492168,-9.595961,0.78888994,47.679718,-0.85496455,-2.7157462,-3.2842493,-0.063460834,0.06355225,-0.255094,28.5625,29.9375,28.9375,32.6875,35.1875,36.25
0.05005418,-0.86745214,-1.0368823,-2.013125,-0.005105024,0.017564833,-0.18786468,-0.38972518,-0.36845133,0.05986368,-3.0783563,0.62508744,-0.00028968017,-0.021413643,0.010308101,0.00034661018,0.0019654674,-0.0012655347,-0.0045299097,0.50424176,-1.3809882,1.9036878,-2.0916135,-1.5708903,2.479378,-0.0366393,0.01983638,-0.026124202,0.008343411,-0.0011599713,-0.032094266,0.0,0.15322891,-9.576807,0.7530795,47.677036,-0.88274205,-2.7130744,-3.2401514,-0.057099298,0.04839442,-0.23954654,28.5625,29.9375,28.9375,32.6875,35.1875,36.25
0.05205418,-0.45245457,-1.250776,-1.9234128,-0.006742832,0.027493985,-0.18746819,-0.38976106,-0.36843613,0.0598678,-3.0784044,0.6251173,-0.00033726534,-0.022534562,0.011141196,0.00016349452,0.002060074,-0.0015533876,-0.0058454447,0.50414515,-1.3809761,1.903664,-2.0916135,-1.5708302,2.4792938,-0.039119463,0.020769307,-0.026825758,0.008411244,-0.0011054224,-0.033258583,0.095768064,0.19153613,-9.576807,0.74413085,47.691364,-0.78300875,-2.7159839,-3.2449503,-0.06293818,0.03932427,-0.2619688,28.5625,29.9375,28.9375,32.6875,35.1875,36.25
0.054053783,-0.6817022,-1.3918868,-1.7786129,-0.0061909687,0.022637071,-0.17660266,-0.38982338,-0.36840048,0.05986255,-3.0783737,0.62512857,-0.0003025894,-0.022362746,0.011225888,6.424823e-05,0.002224373,-0.0021259456,-0.0043766103,0.50404924,-1.380916,1.9036049,-2.091613,-1.570866,2.479209,-0.039180174,0.020800803,-0.026743684,0.008876344,-0.00097236864,-0.034788456,0.05746084,0.19153614,-9.519346,0.78217715,47.70211,-0.8020532,-2.6175752,-3.3180876,-0.061610587,0.028986316,-0.26194197,28.5625,29.9375,28.9375,32.6875,35.1875,36.25
0.05605363,0.83709365,-0.19085674,-1.3584989,-0.026997216,0.055483967,-0.20887662,-0.38986653,-0.36838445,0.059871804,-3.0783536,0.62518096,-0.00029097535,-0.022849575,0.011091039,0.00037643054,0.0018502278,-0.0017086683,-0.0029553426,0.5039894,-1.3808799,1.9035329,-2.0915768,-1.5708779,2.4791844,-0.039481744,0.021073498,-0.027839707,0.009152358,-0.00084887334,-0.036511064,0.019153614,0.1340753,-9.3661175,0.7709874,47.711063,-0.92278725,-2.6816504,-3.3317804,-0.06761952,0.027095113,-0.2767611,28.5625,29.9375,28.9375,32.6875,35.1875,36.25
0.058053512,0.17654623,-0.4394283,-1.5421946,-0.015480809,0.04413365,-0.19648919,-0.38992232,-0.3683667,0.059882134,-3.0783913,0.62520903,-0.0002705787,-0.024732964,0.011580307,0.00066927256,0.0013735667,-0.0009115142,-0.004844453,0.50389254,-1.3808554,1.9034833,-2.0915892,-1.5708541,2.4791002,-0.04207684,0.022475146,-0.030161869,0.009145224,-0.00082054763,-0.037215963,0.05746084,0.15322891,-9.3661175,0.7486078,47.682407,-0.8718183,-2.6359963,-3.263585,-0.050227325,0.02734331,-0.27070463,28.5625,29.9375,28.9375,32.6875,35.1875,36.25
0.060053658,-0.24039073,-0.58691335,-1.6306587,-0.0061148233,0.031636972,-0.19239968,-0.38997796,-0.3683431,0.059874993,-3.0783858,0.6251494,-0.0002737706,-0.025623074,0.011968802,0.0008980553,0.0012344765,-0.0008321222,-0.0049755187,0.5038083,-1.3807831,1.9034113,-2.0915768,-1.570866,2.4789796,-0.04360755,0.022948997,-0.031382173,0.009753961,-0.00073942146,-0.03861524,0.019153614,0.1340753,-9.32781,0.76874626,47.677036,-0.8463035,-2.5865512,-3.2291098,-0.049229138,0.017381486,-0.29268903,28.5625,29.9375,28.9375,32.6875,35.1875,36.25
0.06205362,0.081698656,-0.6532812,-1.5998883,-0.00689284,0.03839147,-0.19365062,-0.39003968,-0.36832282,0.059888344,-3.078373,0.6252043,-0.0002484724,-0.026132485,0.012356677,0.001112912,0.001381713,-0.001070726,-0.005485134,0.503724,-1.380735,1.9033159,-2.0915406,-1.5708779,2.4789312,-0.04472204,0.023083195,-0.032263197,0.01078025,-0.0007526239,-0.039219826,0.0,0.1340753,-9.289502,0.7351769,47.666286,-0.8653486,-2.5735404,-3.2010317,-0.04299756,0.022397976,-0.31712812,28.5625,29.9375,28.9375,32.6875,35.1875,36.25
0.064053975,-0.37260607,-0.35132882,-1.4197277,-0.009025773,0.038563747,-0.1861432,-0.39008313,-0.36827382,0.059879765,-3.078325,0.62526965,-0.00025328906,-0.026722463,0.012804079,0.0010595284,0.0016822844,-0.001628516,-0.00391677,0.50361586,-1.3807107,1.903304,-2.0915287,-1.5709018,2.47887,-0.046024647,0.023791065,-0.03316657,0.011607728,-0.000748961,-0.042090394,-0.038307227,0.1340753,-9.308657,0.7530795,47.678825,-0.8800585,-2.6011648,-3.2599707,-0.07265038,0.009466356,-0.32719618,28.5625,29.9375,28.9375,32.6875,35.1875,36.25
0.06605378,-0.6581698,-0.42978907,-1.3961724,-0.0039288155,0.04776075,-0.1854846,-0.3901434,-0.3682706,0.059907258,-3.0783865,0.62526274,-0.00023280735,-0.02721023,0.013156992,0.0010276805,0.0019508308,-0.0022182472,-0.0028536795,0.50353163,-1.3806865,1.9032072,-2.0915043,-1.5708655,2.4787736,-0.047099188,0.024450026,-0.034077093,0.012506333,-0.0006983938,-0.04422777,-0.1340753,0.1340753,-9.385271,0.7239871,47.634937,-0.8891442,-2.6378927,-3.2672315,-0.07505511,0.012210792,-0.33388117,28.5625,29.9375,28.9375,32.6875,35.1875,36.25
0.068054,-0.4781914,-0.18907937,-1.4013686,-0.004091074,0.067429096,-0.19127989,-0.39017716,-0.36823213,0.059875365,-3.0783253,0.6252892,-0.00033445377,-0.027866358,0.01358859,0.00094284886,0.0021099634,-0.0025889983,-0.0043399567,0.5034353,-1.3806021,1.9031719,-2.0914686,-1.5708655,2.4787016,-0.04845655,0.025188113,-0.03485967,0.012952178,-0.0006635611,-0.044098478,-0.19153613,0.15322891,-9.32781,0.7732232,47.687782,-0.8337892,-2.57361,-3.2413177,-0.08671333,0.007031022,-0.33694786,28.5625,29.9375,28.9375,32.6875,35.1875,36.25
0.070053935,-1.2330672,-0.26886004,-1.370996,0.0030566186,0.06613266,-0.18346627,-0.39023152,-0.36823097,0.05991341,-3.0784028,0.62522626,-0.0002461321,-0.028778432,0.013689052,0.0010487712,0.0019167847,-0.002365492,-0.0032241885,0.50337523,-1.3806137,1.903099,-2.091468,-1.5708536,2.4785924,-0.049509194,0.026207594,-0.036345847,0.013129833,-0.0006022093,-0.046266306,-0.2681506,0.11492168,-9.270349,0.7486078,47.652847,-0.8914678,-2.5793936,-3.2294552,-0.06798047,-0.00391762,-0.37581992,28.5625,29.9375,28.9375,32.6875,35.1875,36.25
0.07205413,-0.6743747,-0.31468907,-1.3192282,0.009154334,0.0910044,-0.18074389,-0.39027497,-0.36818582,0.0598836,-3.0783362,0.6251942,-0.0003498977,-0.0304617,0.014751581,0.0011793623,0.0018170477,-0.0023459657,-0.0031231572,0.5032661,-1.3805175,1.9030393,-2.091408,-1.5708655,2.4784718,-0.05290636,0.027103657,-0.037820976,0.013642232,-0.0005326022,-0.049763896,-0.36391866,0.076614454,-9.251195,0.842603,47.67166,-0.8178796,-2.5896778,-3.1766133,-0.07575959,0.0020959065,-0.344782,28.5625,29.9375,28.9375,32.6875,35.1875,36.25
0.074053384,-0.5783746,-0.62523836,-1.3690923,0.023292517,0.098909006,-0.18132663,-0.39034617,-0.3681544,0.059893217,-3.0783374,0.62522876,-0.0003354112,-0.029897228,0.014189121,0.0008089834,0.0021723304,-0.0031121667,0.0031267772,0.5031469,-1.3804691,1.9029549,-2.0913842,-1.5708655,2.478374,-0.05146187,0.027992371,-0.038077407,0.013851437,-0.00047624903,-0.054569233,-0.45968673,-0.019153614,-9.251195,0.80679786,47.693153,-0.9102071,-2.559392,-3.249153,-0.067056626,-0.019923568,-0.32355344,28.5625,29.9375,28.9375,32.6875,35.1875,36.25
0.076053426,-1.5344023,-0.8469119,-1.3670387,0.029179007,0.080832906,-0.16801855,-0.39042315,-0.36814415,0.059891276,-3.0783758,0.62515885,-0.0003211091,-0.030976791,0.01467136,0.0010395712,0.0019500443,-0.002653288,0.0033817017,0.5030504,-1.3803728,1.9028481,-2.091396,-1.5708536,2.478229,-0.053253178,0.028436704,-0.039159346,0.013980256,-0.00050475117,-0.056614928,-0.47884035,-0.05746084,-9.308656,0.7284641,47.685097,-0.924591,-2.519035,-3.254097,-0.093499824,-0.03866548,-0.31099448,28.5625,29.9375,28.9375,32.6875,35.1875,36.25
0.07805405,-0.45799673,-0.27262408,-1.2755221,0.0128929,0.11253125,-0.18453225,-0.39046276,-0.36809748,0.059871554,-3.0783148,0.6251843,-0.00039373827,-0.032328073,0.014914083,0.0012888227,0.0016548007,-0.0019348767,0.0029887084,0.5029423,-1.3803126,1.9028109,-2.0913484,-1.5708655,2.4781446,-0.054856826,0.029524827,-0.041013505,0.013973956,-0.00060133176,-0.057824437,-0.4405331,-0.076614454,-9.32781,0.8090337,47.655537,-0.9537373,-2.4625301,-3.2624755,-0.074740954,-0.03453866,-0.2989505,28.5625,29.9375,28.9375,32.6875,35.1875,36.25
0.08005395,-0.2488219,-0.32157588,-1.3377955,0.019028563,0.10982011,-0.18016551,-0.39055702,-0.36808908,0.059920315,-3.0783725,0.6251755,-0.00032091056,-0.033555947,0.016309734,0.00091452757,0.002367815,-0.0028762026,0.004040512,0.50283325,-1.380276,1.9026431,-2.0912879,-1.5708541,2.4780228,-0.058233224,0.030561617,-0.041536752,0.014629373,-0.00077002414,-0.062252056,-0.47884035,-0.019153614,-9.270349,0.7597976,47.66987,-0.83332694,-2.5542443,-3.2607613,-0.09443498,-0.05078177,-0.28831923,28.5625,29.9375,28.9375,32.6875,35.1875,36.25
0.082053326,-1.4831753,-0.5565156,-1.3658934,0.020873243,0.078401774,-0.16610421,-0.39062038,-0.36804187,0.059891485,-3.0783415,0.62512696,-0.00036650276,-0.033578213,0.015394588,0.0014624837,0.0019826388,-0.0018927291,0.009890344,0.5027022,-1.3801798,1.9025949,-2.0912879,-1.570866,2.4778655,-0.056616813,0.030745817,-0.04307333,0.014933358,-0.0009143447,-0.06648455,-0.51714754,-0.076614454,-9.385271,0.7732232,47.694054,-0.8882949,-2.5641954,-3.256784,-0.0974347,-0.055735447,-0.22735375,28.5625,29.9375,28.9375,32.6875,35.1875,36.25
0.084053285,-0.4825888,-0.039561573,-1.1903445,0.0012191229,0.10182407,-0.1825447,-0.39069816,-0.3680365,0.05993591,-3.078397,0.6251364,-0.00032026338,-0.034054473,0.01606443,0.0009603425,0.0029213754,-0.0028720843,0.012429843,0.50260586,-1.3801554,1.9024514,-2.0912278,-1.5708421,2.477768,-0.05796107,0.03194562,-0.043463793,0.015436689,-0.0012627456,-0.07036741,-0.45968673,0.019153614,-9.3661175,0.800085,47.701214,-1.0094587,-2.5241897,-3.3039136,-0.11100224,-0.05469522,-0.20950568,28.5625,29.9375,28.9375,32.6875,35.1875,36.25
0.08605327,-0.9745993,-0.091757335,-1.2921102,0.0017742151,0.09073175,-0.17767678,-0.39073792,-0.3679808,0.0598877,-3.078313,0.6250603,-0.00041417943,-0.034941092,0.017009024,0.0009504991,0.0034809047,-0.0030397666,0.01312914,0.5024974,-1.3800472,1.9024276,-2.0912035,-1.5708779,2.4776227,-0.06011101,0.032274436,-0.043967012,0.016025903,-0.0016815657,-0.0732155,-0.30645782,-0.05746084,-9.442732,0.7709874,47.70032,-0.9375732,-2.5152006,-3.317163,-0.1358637,-0.073010854,-0.1509394,28.5625,29.9375,28.9375,32.6875,35.1875,36.25
0.08805331,-0.87555677,-0.36850372,-1.5458579,0.0031793157,0.08610799,-0.17469461,-0.39079374,-0.36794752,0.059895586,-3.0783172,0.6250026,-0.00042853295,-0.036168072,0.016721973,0.0010586174,0.0030418644,-0.0020828862,0.0149529865,0.5023894,-1.3800105,1.9023556,-2.0911562,-1.5708779,2.4774783,-0.060710754,0.033985786,-0.0460946,0.015391788,-0.0017662267,-0.075637706,-0.30645782,-0.05746084,-9.442732,0.74413085,47.67345,-0.9937016,-2.5649338,-3.3140757,-0.14905201,-0.07050188,-0.13270578,28.5625,29.9375,28.9375,32.6875,35.1875,36.25
0.09005385,-0.60251987,-0.70522374,-1.4808849,-0.0031457217,0.09166434,-0.17950885,-0.39089352,-0.36790532,0.059892837,-3.078319,0.624983,-0.00040262638,-0.037760075,0.016589087,0.0015053612,0.0022900614,-0.00045328448,0.015515297,0.5022332,-1.3799142,1.9022478,-2.0911562,-1.5708903,2.4773097,-0.061872978,0.035219796,-0.04841424,0.01468612,-0.0018989457,-0.077360794,-0.38307226,0.019153614,-9.32781,0.7284641,47.657326,-1.048626,-2.5642948,-3.1247468,-0.15346916,-0.068202,-0.083713666,28.5625,29.9375,28.9375,32.6875,35.1875,36.25
0.09205376,-1.3320827,-0.47907007,-1.4232302,-0.01185169,0.06686017,-0.17560576,-0.39097884,-0.36786968,0.05990238,-3.0783443,0.6248919,-0.00036209458,-0.03736697,0.017276416,0.0003601997,0.0035131075,-0.0022190383,0.014575733,0.5021013,-1.3798536,1.902152,-2.0911448,-1.5709022,2.4771178,-0.062517904,0.036237538,-0.046931397,0.014321679,-0.0021170578,-0.07706618,-0.34476504,0.076614454,-9.3661175,0.76874626,47.657326,-1.051576,-2.5791488,-3.2949605,-0.14881086,-0.09313138,-0.08012809,28.5625,29.9375,28.9375,32.6875,35.1875,36.25
0.09405388,-0.71366847,-0.50270045,-1.5354716,-0.010962162,0.0780298,-0.18235257,-0.39105573,-0.36782375,0.059897844,-3.0783336,0.6249088,-0.00040362042,-0.03839816,0.017506426,0.0004898807,0.003370352,-0.0015069637,0.012964707,0.5019453,-1.3797812,1.9020685,-2.091109,-1.5708908,2.4769738,-0.0637145,0.037051804,-0.048120443,0.014005006,-0.0023401168,-0.07665062,-0.21068975,0.095768064,-9.442732,0.78888994,47.658226,-1.0786841,-2.609723,-3.299582,-0.15662593,-0.07112992,-0.06061273,28.5625,29.9375,28.9375,32.6875,35.1875,36.25
0.09605391,-0.42501885,-0.5715006,-1.5836043,-0.014748797,0.07177276,-0.17369899,-0.39113846,-0.36779073,0.059911095,-3.0783567,0.62483674,-0.00038771826,-0.03965194,0.018066425,0.0010830472,0.0041070078,0.00023295291,0.011220123,0.5018132,-1.3797214,1.9019593,-2.0910728,-1.5708913,2.4767938,-0.06488524,0.03710033,-0.049586,0.014256216,-0.0038246056,-0.076073326,-0.1340753,0.1340753,-9.461885,0.6971306,47.699425,-1.1346465,-2.5715108,-3.3115091,-0.17003004,-0.08575696,-0.07064554,28.5625,29.9375,28.9375,32.6875,35.1875,36.25
0.09805418,-0.78373706,-0.866699,-1.76488,-4.1004837e-06,0.04732058,-0.18012685,-0.39121458,-0.36774993,0.059897017,-3.0783017,0.6249033,-0.000434478,-0.041370813,0.018213363,0.0010433142,0.0051124855,0.0012625171,0.009052496,0.50168115,-1.3796123,1.9018515,-2.091025,-1.5709032,2.4767103,-0.065855935,0.039732516,-0.05260746,0.01423027,-0.005211274,-0.07487179,-0.11492168,0.19153613,-9.481039,0.7777002,47.686886,-1.151871,-2.5782347,-3.1790323,-0.16006629,-0.059749648,-0.07797596,28.5625,29.9375,28.9375,32.6875,35.1875,36.25
0.10005403,-0.4691818,-0.26740944,-1.7104131,-0.015455839,0.04613876,-0.17538716,-0.39130569,-0.3677286,0.059905812,-3.0783348,0.62485355,-0.00039231495,-0.04171037,0.019594925,0.0007310872,0.006808447,0.0009282841,0.005829287,0.50156087,-1.3795282,1.9017318,-2.0910246,-1.5709037,2.4765549,-0.06766037,0.03945367,-0.05167318,0.014687824,-0.0065313857,-0.07345107,-0.076614454,0.24899697,-9.461885,0.7486078,47.69763,-1.1262146,-2.608549,-3.2380953,-0.16818833,-0.05146775,-0.1093742,28.5625,29.9375,28.9375,32.6875,35.1875,36.25
0.10205369,-0.21604955,-0.37709084,-1.7440362,-0.021375764,0.04686164,-0.1845658,-0.3913838,-0.3676722,0.059915,-3.078314,0.6248121,-0.0003552231,-0.04248213,0.020751,0.00030089286,0.009399285,0.0012378154,0.0030077668,0.5014166,-1.3794919,1.9016598,-2.0909884,-1.5709409,2.4763875,-0.06880429,0.040489174,-0.051975477,0.014934162,-0.008951723,-0.07176843,-0.038307227,0.19153613,-9.423578,0.7777002,47.686886,-1.115419,-2.4733796,-3.3326735,-0.16650106,-0.020933542,-0.13924658,28.5625,29.9375,28.9375,32.6875,35.1875,36.25
0.10405412,-0.95490795,-0.589775,-1.7671995,-0.021511946,0.032551356,-0.17206967,-0.39146152,-0.36764047,0.059891403,-3.0782917,0.6248081,-0.00042353623,-0.044720612,0.021992866,0.00063065806,0.01244145,0.0040276907,-0.00019735895,0.5012844,-1.3793592,1.9015511,-2.0909646,-1.5709304,2.4762557,-0.07045738,0.04198743,-0.05452012,0.015010541,-0.012968717,-0.070206605,0.038307227,0.22984336,-9.385271,0.784413,47.672558,-1.1572227,-2.5897694,-3.254406,-0.19618058,0.022786569,-0.17320314,28.5625,29.9375,28.9375,32.6875,35.1875,36.25
0.10605474,-0.26291266,-0.6288687,-1.6589899,-0.021424295,0.053861476,-0.17511623,-0.3915223,-0.36758918,0.059891466,-3.0782602,0.6247065,-0.00043184022,-0.045838732,0.022924751,0.00085757335,0.013604615,0.004706091,-0.00264438,0.50116396,-1.3793111,1.9014806,-2.090905,-1.5709661,2.476076,-0.07221422,0.042335067,-0.055608645,0.015716378,-0.014318001,-0.069512755,-0.019153614,0.28730422,-9.385271,0.8090337,47.640312,-1.1186546,-2.5873747,-3.2521822,-0.19991146,0.060464725,-0.19801098,28.5625,29.9375,28.9375,32.6875,35.1875,36.25
0.10805388,-0.57520723,-1.1239122,-1.6766803,-0.015390025,0.04713378,-0.17011577,-0.39165646,-0.3675474,0.05990558,-3.0782428,0.6248181,-0.00036517426,-0.046578884,0.022840343,0.0011248208,0.011870396,0.00470203,-0.004401785,0.500984,-1.3791909,1.9013008,-2.090881,-1.57099,2.475968,-0.07368724,0.042601086,-0.056484703,0.015487354,-0.012795172,-0.06923155,-0.076614454,0.2681506,-9.423578,0.80456203,47.685097,-1.1504908,-2.58579,-3.2544568,-0.21053644,0.06974004,-0.25625262,28.5625,29.9375,28.9375,32.6875,35.1875,36.25
0.11005367,0.21680632,-0.5793185,-1.7455684,-0.037703,0.05383452,-0.18819427,-0.39173257,-0.3675116,0.059912525,-3.078259,0.6247432,-0.00036868834,-0.046134286,0.02166591,0.0005647279,0.008517408,0.0011666063,-0.0022893937,0.500852,-1.3791302,1.901205,-2.0908449,-1.570988,2.4757872,-0.07417653,0.044399545,-0.057498645,0.016174696,-0.008158692,-0.07184197,-0.05746084,0.24899697,-9.500193,0.83589023,47.682407,-1.1514581,-2.5458117,-3.2594886,-0.23004207,0.03765862,-0.23385322,28.5625,29.9375,28.9375,32.6875,35.1875,36.25
0.1120536,-0.6180096,-1.5616777,-1.7652389,-0.028548453,0.021848984,-0.16477428,-0.39185613,-0.36746165,0.059919994,-3.0782468,0.6248757,-0.0003157521,-0.04644045,0.020889446,2.4817553e-05,0.0057940762,-0.0009657403,-0.005353876,0.5006602,-1.3790333,1.9010733,-2.0908453,-1.570999,2.4756796,-0.07526109,0.046478663,-0.058651008,0.015797118,-0.004746476,-0.0698683,-0.11492168,0.17238252,-9.442732,0.80679786,47.701214,-1.2522807,-2.6240005,-3.3453982,-0.24149576,0.016585367,-0.2963177,28.5625,29.9375,28.9375,32.6875,35.1875,36.25
0.11405365,-0.24812733,-1.3646955,-1.7717136,-0.027817149,0.03638826,-0.16713859,-0.39191833,-0.3674406,0.05992492,-3.0782661,0.6248032,-0.00036730143,-0.04718322,0.020241618,0.0016900765,0.002230639,0.0010358423,-0.005996922,0.50055194,-1.378962,1.9009641,-2.0907853,-1.5709747,2.4755237,-0.07619272,0.044231083,-0.059756126,0.015676852,-0.002585566,-0.07016102,-0.1340753,0.22984336,-9.442732,0.7642693,47.691364,-1.2312578,-2.6012201,-3.2611213,-0.21961516,-0.008441156,-0.33094597,28.5625,29.9375,28.9375,32.6875,35.1875,36.25
0.11605381,-0.62781334,-0.668461,-1.9093779,-0.016229184,0.041695505,-0.17889944,-0.39200985,-0.36738938,0.05990928,-3.0782256,0.62483203,-0.00037411452,-0.048398778,0.020838426,0.0014648824,0.0018822512,0.0006460496,-0.0055972273,0.5003954,-1.3788534,1.9008683,-2.0907729,-1.5709981,2.4753904,-0.07861225,0.04560419,-0.06084931,0.015567139,-0.0020988963,-0.072980516,-0.11492168,0.15322891,-9.442732,0.7530795,47.642998,-1.2720399,-2.4389033,-3.2732272,-0.23361555,-0.039322272,-0.34204602,28.5625,29.9375,28.9375,32.6875,35.1875,36.25
0.118053794,-0.561881,-0.3661395,-1.6687689,-0.007406056,0.066923596,-0.17470045,-0.39210755,-0.3673363,0.059915837,-3.078198,0.62488556,-0.00040422272,-0.048370082,0.020842314,0.0009913503,0.0027181576,-0.0008157839,-0.008641475,0.5002159,-1.378769,1.9007372,-2.0907009,-1.5709985,2.4752479,-0.07855683,0.047134757,-0.061848246,0.016719818,-0.0021308365,-0.0698802,-0.15322891,0.17238252,-9.385271,0.7866488,47.677036,-1.2473242,-2.5908728,-3.3121402,-0.23182708,-0.039804637,-0.41971248,28.5625,29.9375,28.9375,32.6875,35.1875,36.25
0.12005403,-0.5183399,-0.18546376,-1.5338832,-0.0063922983,0.07939609,-0.16696127,-0.3922208,-0.3673077,0.059931267,-3.0782232,0.62496525,-0.00038741223,-0.049010813,0.021503188,0.00014451357,0.0041464837,-0.0019840049,-0.007817274,0.500048,-1.378672,1.9005817,-2.090677,-1.5709747,2.4751265,-0.07981159,0.04934867,-0.06260447,0.016975475,-0.0028242967,-0.07195721,-0.1340753,0.15322891,-9.346964,0.82022345,47.684196,-1.3830229,-2.5266929,-3.3324885,-0.25650465,-0.054432716,-0.45743322,28.5625,29.9375,28.9375,32.6875,35.1875,36.25
0.1220538,-0.6689002,-0.39590058,-1.5190237,0.0057854005,0.080010444,-0.17128593,-0.39230397,-0.36726773,0.05992024,-3.0782075,0.6248283,-0.00037930356,-0.051462185,0.023556639,0.00053854607,0.004863277,-0.0005262162,-0.008320737,0.4999263,-1.3785639,1.9004735,-2.0906532,-1.571011,2.4749215,-0.084690556,0.049433373,-0.06360033,0.016951472,-0.0041590882,-0.07632951,-0.30645782,0.0,-9.385271,0.800085,47.647476,-1.2032273,-2.6531563,-3.3366714,-0.27946138,-0.039703425,-0.45983315,28.5625,29.9375,28.9375,32.6875,35.1875,36.25
0.12405429,-0.71308637,0.08089187,-1.6486728,-0.0043674707,0.08330384,-0.17390762,-0.39240912,-0.3672283,0.059919577,-3.078204,0.6249375,-0.00040408428,-0.05091237,0.022208873,0.0016803396,0.003840595,0.0014060838,-0.001873313,0.49974778,-1.3784565,1.9003423,-2.0906293,-1.5709871,2.4748116,-0.08187292,0.047940854,-0.06447738,0.017135173,-0.004191544,-0.07995914,-0.22984336,0.038307227,-9.442732,0.78888994,47.592846,-1.3971937,-2.491103,-3.2870748,-0.27345294,-0.04065786,-0.46116507,28.5625,29.9375,28.9375,32.6875,35.1875,36.25
0.12605415,-0.7823357,-0.34315804,-1.537221,-0.0034494656,0.07672523,-0.17132723,-0.39252767,-0.36718166,0.059930377,-3.078211,0.6249357,-0.00036363804,-0.052557033,0.022836778,0.0015948779,0.0035229838,0.0014436499,0.003289151,0.49956706,-1.3783598,1.9001979,-2.0906055,-1.570999,2.474629,-0.08458812,0.049632546,-0.06627061,0.01704664,-0.0039374162,-0.08783643,-0.2681506,0.038307227,-9.442732,0.8247004,47.661808,-1.3404608,-2.509027,-3.3087368,-0.27602232,-0.04749642,-0.43760914,28.5625,29.9375,28.9375,32.6875,35.1875,36.25
0.12805396,-1.2019496,-0.6460353,-1.5805166,0.004917909,0.071476884,-0.1692156,-0.3926571,-0.3671092,0.059924714,-3.078154,0.6249026,-0.00033430546,-0.053178538,0.023925297,0.0009460997,0.0048338235,-0.0001685152,0.0053502712,0.49936286,-1.3782269,1.9000424,-2.0905569,-1.5710591,2.4744115,-0.08673541,0.05106175,-0.06673597,0.018119676,-0.004319484,-0.09204367,-0.4213795,0.038307227,-9.3661175,0.8560339,47.66271,-1.3292018,-2.542447,-3.270608,-0.27899382,-0.053590342,-0.39767194,28.5625,29.9375,28.9375,32.6875,35.1875,36.25
0.13005356,-1.0328624,-0.22443146,-1.7192768,0.018695826,0.08538753,-0.16889809,-0.39272702,-0.36711258,0.059942123,-3.0782495,0.624744,-0.00036485525,-0.055448666,0.02363608,0.0025219205,0.0037120732,0.0031797918,0.012650756,0.4992668,-1.3781549,1.8999094,-2.090521,-1.5709995,2.4742043,-0.0879386,0.05135962,-0.07072752,0.01834156,-0.0049486114,-0.10054455,-0.4213795,-0.038307227,-9.442732,0.8112748,47.667187,-1.3878182,-2.5301077,-3.2336059,-0.29238003,-0.04496093,-0.3610917,28.5625,29.9375,28.9375,32.6875,35.1875,36.25
0.13205348,-0.923236,-0.16742872,-1.6727268,0.0314286,0.107164204,-0.17103203,-0.392834,-0.36703512,0.0599328,-3.0782218,0.62471807,-0.00042460414,-0.05650272,0.025580708,0.0016129507,0.005910263,0.0022485661,0.014048204,0.4990379,-1.3780583,1.8998026,-2.090461,-1.571,2.4739628,-0.09123681,0.052617196,-0.070165075,0.018394148,-0.0064393356,-0.10523691,-0.38307226,-0.1340753,-9.385271,0.80679786,47.70032,-1.1853117,-2.5183554,-3.175408,-0.31064695,-0.041751567,-0.2651863,28.5625,29.9375,28.9375,32.6875,35.1875,36.25
0.1340541,-0.9936133,0.5641534,-1.5909309,0.018551737,0.12275433,-0.18371017,-0.39297333,-0.36696872,0.05993112,-3.0781736,0.6247613,-0.00035092578,-0.056294736,0.025351297,0.0015977321,0.0066437204,0.0023844244,0.01995958,0.49883488,-1.3779262,1.8996471,-2.0904486,-1.5710601,2.473793,-0.090190805,0.052933134,-0.07058506,0.018723082,-0.0071504493,-0.11010072,-0.5363012,-0.076614454,-9.442732,0.80456203,47.701214,-1.442455,-2.4875515,-3.2549205,-0.32600546,-0.025624262,-0.22277519,28.5625,29.9375,28.9375,32.6875,35.1875,36.25
0.13605382,-1.6715043,-0.03372455,-1.5294626,0.020865861,0.116586536,-0.1701981,-0.39306095,-0.36692017,0.059897393,-3.078155,0.62462366,-0.00046498634,-0.06045986,0.027041133,0.0019184072,0.00673372,0.0037848921,0.017194256,0.49866512,-1.3777689,1.8995265,-2.0904005,-1.5710486,2.4735398,-0.09638146,0.056215722,-0.075258985,0.018929267,-0.007920851,-0.113521434,-0.51714754,-0.076614454,-9.481039,0.8247004,47.717335,-1.2493703,-2.6223302,-3.1652732,-0.32766014,-0.011618966,-0.1652196,28.5625,29.9375,28.9375,32.6875,35.1875,36.25
0.1380536,-1.6828412,-0.19253667,-1.782327,0.010352719,0.11413547,-0.16973446,-0.39322606,-0.36688563,0.0599624,-3.0782607,0.62456644,-0.00026520225,-0.059938654,0.026811404,0.0024389247,0.0071784235,0.0049355645,0.01937957,0.4984621,-1.3777214,1.8993224,-2.0904005,-1.5710605,2.4732878,-0.0949055,0.05481236,-0.074818306,0.019094156,-0.008842768,-0.1142306,-0.5554548,0.05746084,-9.461885,0.7978386,47.686886,-1.3406436,-2.4677198,-3.0844624,-0.3321501,0.002778663,-0.13234544,28.5625,29.9375,28.9375,32.6875,35.1875,36.25
0.14005363,-1.8146131,-0.7773598,-2.0105238,-0.0020853614,0.10242643,-0.15667553,-0.393294,-0.3668268,0.059926912,-3.0782077,0.62448084,-0.00042222242,-0.060889374,0.028405461,0.0016914676,0.008320078,0.0039245766,0.014082025,0.49829325,-1.3775887,1.899227,-2.090317,-1.5710491,2.4730723,-0.09812041,0.055806767,-0.07428183,0.01899947,-0.009373787,-0.11214585,-0.61291564,0.11492168,-9.595961,0.8291774,47.684196,-1.2420719,-2.5079913,-3.2632844,-0.32830948,0.014771268,-0.131407,28.5625,29.9375,28.9375,32.6875,35.1875,36.25
0.1420536,-1.3353441,-0.54011774,-1.679096,-0.03925824,0.11533583,-0.17196888,-0.3934202,-0.36677298,0.05993314,-3.0782042,0.62440693,-0.0003999637,-0.06280248,0.028747307,0.0022832938,0.007071135,0.0047860746,0.007141731,0.49810088,-1.3774683,1.8990592,-2.0902689,-1.5710725,2.4728343,-0.10085746,0.056793477,-0.07685567,0.019227773,-0.008690744,-0.10794289,-0.6512228,0.076614454,-9.576807,0.7418897,47.6636,-1.1719792,-2.3872857,-3.2605424,-0.33954418,0.03235602,-0.17235687,28.5625,29.9375,28.9375,32.6875,35.1875,36.25
0.14405328,-1.4595593,-0.76055944,-1.9581362,-0.032445617,0.090314396,-0.16821693,-0.3935642,-0.366687,0.059916027,-3.0781286,0.6244326,-0.0003856495,-0.0638912,0.029505745,0.001139396,0.006936197,0.0023410178,-0.0004985406,0.49786025,-1.3773111,1.8989037,-2.090233,-1.5711316,2.4726195,-0.1039073,0.05983531,-0.077879876,0.019282807,-0.007407361,-0.10335403,-0.57460845,0.038307227,-9.634268,0.7105615,47.70211,-1.0867705,-2.6368937,-3.1259413,-0.3462738,-0.0011243426,-0.2378554,28.5625,29.9375,28.9375,32.6875,35.1875,36.25
0.14605355,-1.4876819,-0.58067816,-1.9877445,-0.02711065,0.077211134,-0.1666301,-0.3937071,-0.3666408,0.059936635,-3.078145,0.6245527,-0.00033967596,-0.064803,0.03026714,0.0022955483,0.0053404886,0.003973159,-0.005064587,0.4976438,-1.377204,1.8987244,-2.0902092,-1.5711201,2.472476,-0.10638552,0.057390437,-0.07761361,0.019263728,-0.006777734,-0.10126839,-0.5554548,0.11492168,-9.634268,0.71951014,47.699425,-0.9894483,-2.4167175,-3.242056,-0.34635627,-0.0031565195,-0.29207495,28.5625,29.9375,28.9375,32.6875,35.1875,36.25
0.14805353,-0.9451862,-0.17365679,-1.8779699,-0.02595281,0.09172199,-0.17594844,-0.39382404,-0.36656594,0.059929043,-3.0781095,0.62446713,-0.00032117378,-0.066254616,0.030362858,0.0021590248,0.004792262,0.004599448,-0.0059466055,0.49743983,-1.3770951,1.8986048,-2.090174,-1.5711678,2.4722233,-0.107966214,0.059308372,-0.07935786,0.018270934,-0.0066036456,-0.10196619,-0.57460845,0.11492168,-9.576807,0.8537928,47.686886,-0.9513209,-2.4641292,-3.2344685,-0.3439126,-0.006780167,-0.3263331,28.5625,29.9375,28.9375,32.6875,35.1875,36.25
0.1500541,-0.9515869,-0.3842098,-1.8709562,-0.008442741,0.09807354,-0.16868699,-0.39394656,-0.3665177,0.05994247,-3.0781329,0.62453026,-0.00034438734,-0.067629874,0.030810596,0.002147585,0.004491193,0.005013218,-0.006780683,0.49722338,-1.3769985,1.8984488,-2.0901263,-1.5711316,2.4720433,-0.10999486,0.060612574,-0.08080006,0.017903235,-0.0065396237,-0.10316016,-0.51714754,0.038307227,-9.5385,0.8291774,47.692257,-0.8805159,-2.488305,-3.3135417,-0.33945233,0.0016591025,-0.30907154,28.5625,29.9375,28.9375,32.6875,35.1875,36.25
0.15205398,-1.0797502,-0.697576,-1.765891,0.009257667,0.10891581,-0.17132875,-0.39410874,-0.36648065,0.059962388,-3.0781655,0.6245557,-0.00024579946,-0.06819474,0.031160852,0.0024386332,0.004005145,0.005519777,-0.008465855,0.4970196,-1.3768545,1.8982328,-2.0901263,-1.571144,2.4718513,-0.11118513,0.060252454,-0.081020094,0.017803358,-0.006346449,-0.1026661,-0.45968673,0.076614454,-9.423578,0.83813137,47.694946,-0.9238559,-2.3961918,-3.2870288,-0.33843648,-0.017016944,-0.3319695,28.5625,29.9375,28.9375,32.6875,35.1875,36.25
0.15405379,-1.0562123,-0.13955475,-1.802243,0.0011931455,0.11454775,-0.16889161,-0.39422807,-0.366399,0.059956547,-3.0781226,0.62456304,-0.00029339196,-0.069739714,0.030913496,0.003193539,0.0036222711,0.0075786924,-0.0061930544,0.49677992,-1.3767462,1.8981012,-2.0900538,-1.5711559,2.4716218,-0.11175124,0.061215118,-0.08385788,0.017684404,-0.007003717,-0.10550205,-0.30645782,0.019153614,-9.557653,0.7351769,47.678825,-0.9979348,-2.3876483,-3.1070209,-0.34701493,-0.011011988,-0.38931996,28.5625,29.9375,28.9375,32.6875,35.1875,36.25
0.15605439,-0.71647626,-0.41006613,-1.658904,0.013035397,0.11568426,-0.15942708,-0.39437976,-0.36634195,0.05996497,-3.0781393,0.6245481,-0.00023941549,-0.06936809,0.031546302,0.002410508,0.0053383703,0.006421364,-0.00706431,0.49655232,-1.3766137,1.8979224,-2.0900424,-1.5711683,2.4713829,-0.11184905,0.06188637,-0.08293371,0.017925119,-0.007953381,-0.104727186,-0.1340753,-0.076614454,-9.557653,0.8314132,47.672558,-1.0454998,-2.4026499,-3.333019,-0.35058033,0.007968445,-0.37982708,28.5625,29.9375,28.9375,32.6875,35.1875,36.25
0.15805352,-0.3458056,-0.36461926,-1.7290747,0.010163941,0.09543718,-0.16938601,-0.39452028,-0.36627176,0.05995861,-3.078113,0.62463254,-0.00022670318,-0.07127866,0.030584158,0.0036549629,0.0036804792,0.009294162,-0.00037397837,0.49631286,-1.3764813,1.897777,-2.09003,-1.5711807,2.4711995,-0.11199657,0.0630275,-0.08704645,0.017574415,-0.007876508,-0.11156337,-0.22984336,0.038307227,-9.385271,0.78888994,47.675243,-1.0522712,-2.3339984,-3.2028549,-0.34422284,0.01709126,-0.3938998,28.5625,29.9375,28.9375,32.6875,35.1875,36.25
0.16005348,-0.08509266,-0.5645612,-1.7904055,0.009531097,0.07061219,-0.16019203,-0.39464155,-0.36618873,0.059929658,-3.0780334,0.6246536,-0.00027976002,-0.07227815,0.032252535,0.002810339,0.003786646,0.00800806,-0.00013599177,0.49608374,-1.376325,1.8976468,-2.0899827,-1.571216,2.4709938,-0.116009876,0.063799635,-0.08587671,0.016804421,-0.0073664603,-0.115815476,-0.21068975,0.076614454,-9.423578,0.83813137,47.658226,-0.92468727,-2.3646307,-3.1761527,-0.32362837,0.005375594,-0.3646554,28.5625,29.9375,28.9375,32.6875,35.1875,36.25
0.1620535,-0.10093073,-0.16901028,-1.8078303,-0.00018268968,0.0536809,-0.16386549,-0.39481387,-0.36612663,0.059961107,-3.078069,0.6246343,-0.0002227725,-0.07264044,0.031017048,0.0035558748,0.0028536334,0.009578355,0.009461945,0.49582124,-1.3762046,1.8974189,-2.0899231,-1.571216,2.4707148,-0.11426265,0.06431634,-0.08818217,0.016761988,-0.0072958907,-0.1236657,-0.19153613,0.0,-9.385271,0.72622824,47.677036,-1.1792722,-2.3728008,-3.1713269,-0.30405697,0.013938492,-0.2921819,28.5625,29.9375,28.9375,32.6875,35.1875,36.25
0.16405374,0.2426341,-0.22523725,-1.7560853,0.0005398518,0.053318307,-0.17041278,-0.39498517,-0.36609524,0.06001366,-3.0781643,0.62459433,-9.252643e-05,-0.07436459,0.032563537,0.003469391,0.003049846,0.00939654,0.012401355,0.49560407,-1.3761082,1.8971795,-2.0898988,-1.5712041,2.4704607,-0.118354626,0.06509666,-0.08897431,0.01702382,-0.00737041,-0.1306974,-0.076614454,-0.019153614,-9.289502,0.74413085,47.621502,-0.86080205,-2.2937746,-3.197291,-0.2997706,0.009589352,-0.23610294,28.5625,29.9375,28.9375,32.6875,35.1875,36.25
0.16605352,0.30711725,-0.6085321,-1.9391255,0.0026391477,0.057921883,-0.1678028,-0.39512014,-0.3659971,0.059982214,-3.0780857,0.62455547,-0.00010603354,-0.07428358,0.032820713,0.0029921867,0.0035250979,0.007561953,0.016678572,0.49535254,-1.3759516,1.8970598,-2.0898745,-1.5712641,2.470195,-0.11895915,0.06618287,-0.08946701,0.018256305,-0.0069236355,-0.13557938,0.019153614,0.05746084,-9.385271,0.7732232,47.625084,-1.0178202,-2.3630826,-3.2477374,-0.30632246,0.00026410818,-0.14978182,28.5625,29.9375,28.9375,32.6875,35.1875,36.25
0.16805363,0.0024339778,-0.4293921,-1.8076079,-0.011988753,0.058831446,-0.16725646,-0.39528072,-0.36596072,0.059995677,-3.0781283,0.6245047,-7.783662e-05,-0.07488376,0.033015493,0.0029688282,0.0029618717,0.0071155075,0.018834563,0.49513662,-1.3757834,1.8968214,-2.0898387,-1.5712517,2.469942,-0.12023544,0.06687897,-0.09031105,0.018525265,-0.0062131896,-0.13901292,-0.076614454,0.0,-9.442732,0.78888994,47.677036,-1.0310473,-2.2548144,-3.2775078,-0.31243408,0.02710951,-0.07905628,28.5625,29.9375,28.9375,32.6875,35.1875,36.25
0.17005351,-0.13966426,-0.28350902,-1.8162527,-0.02875664,0.064273395,-0.17450726,-0.39537075,-0.365874,0.059955735,-3.0781014,0.62432915,-0.00019490803,-0.07640111,0.033987053,0.0028739264,0.0026294766,0.006826977,0.0115521075,0.49490792,-1.3756627,1.8967608,-2.0898025,-1.5712513,2.4696074,-0.12349437,0.06801984,-0.09148786,0.018656608,-0.0057957084,-0.13498905,-0.038307227,0.24899697,-9.404425,0.7911258,47.666286,-1.0825669,-2.3530612,-3.344102,-0.28522965,-0.009855684,-0.10745615,28.5625,29.9375,28.9375,32.6875,35.1875,36.25
0.1720538,0.20608905,-0.30523086,-1.9270561,-0.036462273,0.06427489,-0.17779435,-0.39557168,-0.3658165,0.06000669,-3.0781248,0.6243339,-3.352689e-05,-0.07564799,0.03309786,0.0025463174,0.003326118,0.00609515,0.009487658,0.49465737,-1.3755304,1.8964742,-2.0897424,-1.5712994,2.469357,-0.1211035,0.0691962,-0.09227745,0.019240385,-0.006045541,-0.13053335,0.05746084,0.28730422,-9.519346,0.81351066,47.677036,-1.1708378,-2.240065,-3.3470914,-0.28545952,-0.0074955504,-0.14842048,28.5625,29.9375,28.9375,32.6875,35.1875,36.25
0.17405385,-0.40761414,-0.77436626,-1.9174416,-0.037358083,0.037648104,-0.1738746,-0.39574745,-0.3657569,0.060027186,-3.0781522,0.6243825,6.4422864e-05,-0.077425055,0.03499621,0.0021227892,0.0043721627,0.0055633215,0.0004940592,0.49440417,-1.3753977,1.8962702,-2.0897424,-1.5713118,2.4691308,-0.12546806,0.07047758,-0.092916004,0.019564234,-0.0067022406,-0.12590307,0.038307227,0.3256114,-9.442732,0.86498255,47.658226,-0.9702742,-2.3053188,-3.2944698,-0.27652666,0.0041588014,-0.20490535,28.5625,29.9375,28.9375,32.6875,35.1875,36.25
0.176054,0.21174839,-0.74758285,-1.878088,-0.050857864,0.045535665,-0.17705587,-0.3958798,-0.36565664,0.060009256,-3.0780857,0.6243873,2.4160213e-06,-0.07757312,0.033975355,0.002391423,0.0040245955,0.0064878324,-0.0014520631,0.49412963,-1.3752654,1.8961376,-2.089671,-1.5713362,2.4688678,-0.12376173,0.07143605,-0.09462057,0.019329565,-0.006845279,-0.12224903,0.0,0.28730422,-9.346964,0.7709874,47.686886,-1.235462,-2.3275645,-3.2749543,-0.28168833,0.00035085436,-0.2724185,28.5625,29.9375,28.9375,32.6875,35.1875,36.25
0.17805381,0.24689999,-0.96647364,-1.9325243,-0.038047433,0.04457846,-0.17168874,-0.39603853,-0.3655992,0.060006447,-3.0781126,0.6244702,-7.18283e-06,-0.078496836,0.03463146,0.0023219527,0.0038532615,0.0061675794,-0.006012495,0.49386555,-1.375109,1.8959583,-2.089671,-1.5712999,2.468652,-0.12585461,0.07214842,-0.09537467,0.019575126,-0.0065386626,-0.119781874,0.0,0.28730422,-9.404425,0.83589023,47.686886,-1.1663778,-2.262517,-3.3483357,-0.2747386,0.0018290104,-0.32262942,28.5625,29.9375,28.9375,32.6875,35.1875,36.25
0.18005387,0.335887,-1.2207218,-1.8149544,-0.028642371,0.045912005,-0.16619873,-0.39617774,-0.36554903,0.060005046,-3.07811,0.6244323,1.0838669e-06,-0.07937488,0.034908965,0.0021754026,0.0036126182,0.0056015598,-0.008703886,0.49366125,-1.3749522,1.8957671,-2.0896342,-1.5713114,2.4684246,-0.12738241,0.073518,-0.09677053,0.019982133,-0.00605958,-0.11861851,-0.038307227,0.28730422,-9.346964,0.83589023,47.66808,-1.1492964,-2.1392875,-3.3920245,-0.2538272,-0.0038636844,-0.37996137,28.5625,29.9375,28.9375,32.6875,35.1875,36.25
0.18205373,0.16918911,-0.916137,-1.839089,-0.023880022,0.053604864,-0.17232503,-0.39634752,-0.36548874,0.060044568,-3.0781555,0.62440324,4.3714805e-05,-0.079642594,0.03539027,0.0007606899,0.0047267904,0.003318025,-0.011279729,0.49339756,-1.374843,1.8955287,-2.0895507,-1.5712994,2.468137,-0.12845652,0.07647179,-0.09703334,0.019830428,-0.005953303,-0.11711668,-0.038307227,0.21068975,-9.308657,0.800085,47.68062,-1.2053524,-2.3290033,-3.3116481,-0.23971638,0.008008661,-0.45349598,28.5625,29.9375,28.9375,32.6875,35.1875,36.25
0.18405364,0.37690783,-0.3586313,-1.6268649,-0.026694246,0.0722665,-0.18253992,-0.39651316,-0.36541253,0.06003024,-3.0781147,0.62443274,3.785518e-05,-0.08078025,0.035844043,0.001367181,0.0041931802,0.0043074815,-0.011724775,0.49313352,-1.3746511,1.8953251,-2.0895145,-1.5713238,2.4678967,-0.13020813,0.07629865,-0.09828821,0.020129161,-0.0059570335,-0.118422695,-0.038307227,0.19153613,-9.308657,0.8627467,47.71554,-1.2148495,-2.21977,-3.4911394,-0.23193687,0.0058696666,-0.47864473,28.5625,29.9375,28.9375,32.6875,35.1875,36.25
0.18605387,-0.039661065,0.003906428,-1.4752886,-0.024405055,0.08439734,-0.1734591,-0.39664248,-0.3653445,0.06001223,-3.0780902,0.6244451,-3.402312e-05,-0.08185881,0.03591552,0.0010692998,0.0038067594,0.003730993,-0.009535442,0.49289352,-1.3744941,1.8951687,-2.0894663,-1.5713114,2.4676676,-0.13164726,0.07844067,-0.100184165,0.02020383,-0.0053550536,-0.122051015,-0.1340753,0.11492168,-9.251195,0.8314132,47.71554,-1.1653885,-2.2665129,-3.246608,-0.21156684,-0.0052496498,-0.49668628,28.5625,29.9375,28.9375,32.6875,35.1875,36.25
0.1880539,-0.9176675,-0.22466005,-1.5663729,-0.009859544,0.071912944,-0.16486831,-0.39682493,-0.3652772,0.0600303,-3.0780995,0.62449807,6.1526654e-05,-0.08263256,0.036785025,0.0006495641,0.004104767,0.002535835,-0.0016300387,0.4926293,-1.3743495,1.8949531,-2.089455,-1.5713357,2.4674354,-0.13395332,0.07959641,-0.10074607,0.020792205,-0.0050493693,-0.13226306,-0.1340753,0.21068975,-9.289502,0.8537928,47.686886,-1.0774515,-2.451428,-3.4555328,-0.20513704,-0.009828214,-0.43972486,28.5625,29.9375,28.9375,32.6875,35.1875,36.25
0.19005342,-0.47501427,-0.045852754,-1.2723792,-0.00725419,0.09383119,-0.17875336,-0.39697847,-0.3651919,0.060004063,-3.0780654,0.6244267,-1.4705416e-06,-0.084165335,0.037173938,0.00128524,0.0034020299,0.003307337,0.0075960876,0.4923532,-1.3741572,1.8947734,-2.0894063,-1.5713471,2.4671192,-0.13610394,0.08015261,-0.10302587,0.021492817,-0.0048121647,-0.1436391,-0.17238252,0.076614454,-9.289502,0.8157518,47.737934,-1.1407896,-2.2591248,-3.342832,-0.19700085,-0.033811703,-0.36641985,28.5625,29.9375,28.9375,32.6875,35.1875,36.25
0.19205417,-0.30932334,-0.1683185,-1.3659134,0.0039250366,0.10518427,-0.16684926,-0.39714694,-0.36511937,0.060029898,-3.078065,0.62440383,7.703665e-05,-0.08606664,0.038275085,0.0011072041,0.003676317,0.0032332598,0.011962317,0.49210048,-1.3740366,1.8945578,-2.0893466,-1.5713834,2.4668524,-0.13950719,0.082024455,-0.10489425,0.021673456,-0.0050209886,-0.15140735,-0.40222588,-0.038307227,-9.346964,0.8179876,47.73077,-1.1490631,-2.232098,-3.238684,-0.19357476,-0.0373014,-0.2635013,28.5625,29.9375,28.9375,32.6875,35.1875,36.25
0.1940541,-0.92533934,0.118906,-1.2039937,-0.0013673821,0.10821233,-0.16301133,-0.3973373,-0.3650564,0.06003552,-3.078116,0.62435055,0.00012077477,-0.08572331,0.03689804,0.001433891,0.003895673,0.0042490545,0.020656701,0.4918142,-1.373856,1.8943304,-2.0893466,-1.5713714,2.4665265,-0.13640375,0.08284916,-0.106665164,0.021827135,-0.0056926506,-0.15699646,-0.59376204,-0.038307227,-9.251195,0.8247004,47.705692,-1.1874413,-2.3165493,-3.270937,-0.16989732,-0.033243254,-0.19246346,28.5625,29.9375,28.9375,32.6875,35.1875,36.25
0.196054,-1.4146008,-0.24521163,-1.3386409,0.015131707,0.11179989,-0.15530223,-0.39748415,-0.36498722,0.06001936,-3.0781295,0.6242185,3.6615304e-05,-0.08754001,0.03771167,0.0020563193,0.0034541418,0.005175522,0.019620711,0.49154967,-1.3736756,1.8941392,-2.0892866,-1.5713476,2.466178,-0.13933869,0.08329963,-0.10877366,0.022461344,-0.005751989,-0.1588942,-0.6703765,0.0,-9.3661175,0.85155696,47.72271,-1.0772955,-2.3432405,-3.3242755,-0.16681296,-0.023526879,-0.14886509,28.5625,29.9375,28.9375,32.6875,35.1875,36.25
0.19805387,-0.76496243,-0.21291767,-1.3217639,0.012374726,0.13766405,-0.16078179,-0.39767352,-0.3649142,0.060025994,-3.0781338,0.62422216,7.363559e-05,-0.086284615,0.038155656,-0.0008249409,0.0061999895,-0.00034009773,0.01427005,0.4912624,-1.3734939,1.8938998,-2.0892503,-1.5713595,2.4658926,-0.13901281,0.08770327,-0.10760371,0.02304598,-0.0055603147,-0.153218,-0.6512228,-0.05746084,-9.270349,0.79560274,47.711063,-1.3521653,-2.4575086,-3.2777438,-0.16320813,-0.048259873,-0.17956801,28.5625,29.9375,28.9375,32.6875,35.1875,36.25
0.20005363,-0.97646505,-0.01107822,-1.1351374,0.0011458074,0.14045078,-0.16413963,-0.39785326,-0.36483362,0.060039256,-3.0781224,0.62418413,0.00012505856,-0.089653276,0.03850887,0.0020870364,0.003503968,0.005247031,0.0059535275,0.49098605,-1.3733385,1.8936714,-2.0891907,-1.5713953,2.465594,-0.14244063,0.08563286,-0.11178678,0.023098601,-0.0058226646,-0.14832759,-0.7852981,-0.038307227,-9.232041,0.83813137,47.694946,-1.3023015,-2.3037357,-3.3291762,-0.15316215,-0.051176067,-0.2212005,28.5625,29.9375,28.9375,32.6875,35.1875,36.25
0.20205347,-0.65266293,0.13931823,-1.190511,0.0071574864,0.14125168,-0.1678567,-0.39801306,-0.3647664,0.060023777,-3.0781214,0.62414885,8.05223e-05,-0.090627,0.040837213,-7.665463e-05,0.006278461,0.0018669771,-0.001806314,0.49072102,-1.3731453,1.8934687,-2.0891545,-1.5713838,2.4653072,-0.14666316,0.0890757,-0.11098855,0.023152022,-0.0066764555,-0.14478825,-0.7661445,-0.076614454,-9.32781,0.83589023,47.68599,-1.2415411,-2.3469918,-3.2119465,-0.13347478,-0.045137744,-0.30438462,28.5625,29.9375,28.9375,32.6875,35.1875,36.25
0.20405382,-1.402136,0.41011903,-1.3507844,0.0065498007,0.115712345,-0.16401097,-0.3982061,-0.36467654,0.06002886,-3.0780768,0.6242718,0.00010272362,-0.09101511,0.040141124,0.0010126102,0.005639172,0.0034508575,-0.0013149172,0.4904101,-1.3729652,1.8932294,-2.089094,-1.5714082,2.4650788,-0.1456675,0.08853323,-0.11303485,0.02403806,-0.0068612336,-0.14428301,-0.7278373,-0.114921674,-9.346964,0.7642693,47.67793,-1.264971,-2.4299767,-3.1967824,-0.10294648,-0.05156955,-0.32512435,28.5625,29.9375,28.9375,32.6875,35.1875,36.25
0.20605388,-0.950702,-0.032880533,-1.3249444,0.008352103,0.11140993,-0.15879455,-0.39839232,-0.36458868,0.060021415,-3.0780897,0.62425476,8.810884e-05,-0.092329085,0.04085228,0.0008757008,0.0061396672,0.002662689,-0.0037846463,0.4900861,-1.3727844,1.8930258,-2.08907,-1.5713958,2.4647427,-0.14794818,0.090402454,-0.11525125,0.025316315,-0.00693363,-0.1440928,-0.80445176,-0.19153613,-9.270349,0.8403672,47.67166,-1.1153429,-2.3495224,-3.2015111,-0.11577934,-0.04670066,-0.36541414,28.5625,29.9375,28.9375,32.6875,35.1875,36.25
0.20805368,-0.6778237,0.6281247,-1.2455735,0.004405195,0.11665821,-0.16731483,-0.39859763,-0.36451027,0.060041517,-3.078091,0.624253,0.00020684268,-0.09312583,0.04074106,0.00084794324,0.0058105756,0.0022859923,-0.0028581063,0.48979843,-1.3726158,1.892774,-2.0890458,-1.5714439,2.464454,-0.14870988,0.091990195,-0.11721282,0.025855968,-0.0064614215,-0.14578141,-0.7469909,-0.1340753,-9.212888,0.8247004,47.668976,-1.1857748,-2.375134,-3.1548214,-0.11043829,-0.059423894,-0.38160983,28.5625,29.9375,28.9375,32.6875,35.1875,36.25
0.21005347,-0.7913639,0.4457935,-1.6692042,0.020958155,0.11659157,-0.1739409,-0.39876497,-0.3644406,0.060020324,-3.0780706,0.62420666,0.0001212592,-0.09405568,0.041093677,0.0011881063,0.005715294,0.0024793898,0.0013517464,0.4895226,-1.3723873,1.8925341,-2.0889742,-1.571432,2.4641519,-0.15007508,0.092499144,-0.11880767,0.026722535,-0.006481453,-0.15135546,-0.59376204,-0.21068975,-9.346964,0.842603,47.683304,-1.2739613,-2.4791534,-3.1226082,-0.0920451,-0.044486947,-0.3636945,28.5625,29.9375,28.9375,32.6875,35.1875,36.25
0.21205364,-1.0190567,0.56687814,-1.3925607,0.007824533,0.118297525,-0.17470796,-0.39896595,-0.36435184,0.06002999,-3.0780692,0.6241998,0.00014392447,-0.09457738,0.04127837,0.00043842118,0.0071266294,0.001120685,0.009665153,0.48919922,-1.3722061,1.8922828,-2.0889137,-1.5714439,2.4638245,-0.1504135,0.09524906,-0.120591514,0.027611202,-0.0070934896,-0.16000514,-0.51714754,-0.05746084,-9.32781,0.8247004,47.679718,-1.3275827,-2.5759928,-3.1210973,-0.086881176,-0.0816283,-0.28699744,28.5625,29.9375,28.9375,32.6875,35.1875,36.25
0.21405353,-1.0949765,-0.18457197,-1.5149746,0.0009480898,0.12051668,-0.1678446,-0.39913723,-0.36425382,0.06002686,-3.078042,0.624129,9.5957585e-05,-0.09526773,0.042303808,9.7002645e-05,0.009136918,0.0006089831,0.019351719,0.48888743,-1.3720376,1.8920678,-2.0888178,-1.5714563,2.4634721,-0.15174757,0.09640754,-0.121455185,0.028705714,-0.008641785,-0.17102194,-0.49799395,0.095768064,-9.289502,0.76874626,47.66808,-1.3229115,-2.5206876,-3.0765996,-0.083985284,-0.035934515,-0.19542554,28.5625,29.9375,28.9375,32.6875,35.1875,36.25
0.21605343,-1.0239937,-0.55736136,-1.7505181,-0.00453215,0.1105695,-0.15685819,-0.39935368,-0.3641537,0.060034946,-3.0779898,0.624097,0.00019206184,-0.09571984,0.04262339,0.00064139575,0.008969051,0.0011187167,0.022800433,0.48857582,-1.3718337,1.8917931,-2.0887578,-1.5715402,2.4631474,-0.15256727,0.09577978,-0.12213425,0.029463599,-0.008734053,-0.17529021,-0.47884035,0.17238252,-9.423578,0.82022345,47.657326,-1.3937775,-2.5187492,-3.1145568,-0.08579575,-0.07796674,-0.108708054,28.5625,29.9375,28.9375,32.6875,35.1875,36.25
0.2180545,-0.71308345,-0.31757164,-1.7742159,-0.024371773,0.10334,-0.17389223,-0.39953575,-0.36405146,0.05999772,-3.0779443,0.62404877,8.826887e-05,-0.09659314,0.04368874,0.00013167023,0.010259485,0.0008070534,0.02127149,0.48823997,-1.371593,1.8915776,-2.0886977,-1.5715407,2.4627874,-0.15446053,0.09700203,-0.12244488,0.029433085,-0.009744539,-0.17565143,-0.40222588,0.11492168,-9.461885,0.8224646,47.67345,-1.3450868,-2.5262856,-3.1826382,-0.07850739,-0.043783367,-0.047346838,28.5625,29.9375,28.9375,32.6875,35.1875,36.25
0.22005363,-0.74552774,-0.8313226,-1.7927418,-0.031715374,0.08365404,-0.15534718,-0.39970466,-0.36397895,0.06000482,-3.0779798,0.6239639,6.2484956e-05,-0.09784731,0.044856846,0.00017001679,0.010670345,0.0007474057,0.013179688,0.4879512,-1.3714367,1.8913616,-2.088637,-1.5715169,2.4624412,-0.15728994,0.09753392,-0.1233119,0.030020483,-0.010078173,-0.17038798,-0.30645782,0.13407528,-9.442732,0.8179876,47.66987,-1.3088949,-2.4339879,-3.1122963,-0.06959506,-0.027340554,-0.078136094,28.5625,29.9375,28.9375,32.6875,35.1875,36.25
0.2220535,0.13702081,-1.0464993,-1.8227065,-0.026818909,0.07844631,-0.16400433,-0.39993542,-0.36387843,0.06000666,-3.077939,0.6240153,0.00012284819,-0.099249594,0.04422146,0.0011907677,0.008806977,0.0024934062,0.0040452126,0.48760426,-1.3712082,1.8910745,-2.0885894,-1.571565,2.4621317,-0.15791564,0.09807287,-0.1263015,0.030048272,-0.009251007,-0.16187984,-0.24899697,0.11492168,-9.3661175,0.86945957,47.699425,-1.3732822,-2.5426722,-3.2673624,-0.06762834,-0.021769922,-0.1724834,28.5625,29.9375,28.9375,32.6875,35.1875,36.25
0.22405362,0.478285,-0.47860676,-1.7531519,-0.030242462,0.0657115,-0.16677924,-0.40015805,-0.3637843,0.060012538,-3.0779216,0.62407273,0.0001988246,-0.098920316,0.04598223,-0.00056254346,0.010632095,-0.0007765118,-0.0040229033,0.487268,-1.3710037,1.8908123,-2.0885656,-1.5716008,2.4618337,-0.16046731,0.0993088,-0.12380848,0.03005964,-0.009319252,-0.15636438,-0.05746084,0.095768064,-9.385271,0.8493211,47.655537,-1.1617436,-2.4704714,-3.2880192,-0.048660353,-0.02120439,-0.2533971,28.5625,29.9375,28.9375,32.6875,35.1875,36.25
0.2260534,0.2512911,-0.5011472,-2.0846426,-0.0143190175,0.03391549,-0.16144943,-0.40033436,-0.3636951,0.060006946,-3.0779119,0.623995,0.00018022738,-0.100362584,0.047183637,0.00018528769,0.010015289,0.00014918405,-0.009547822,0.48696727,-1.3708239,1.8905972,-2.0885055,-1.5716132,2.4614859,-0.16378847,0.09837709,-0.12454022,0.030613342,-0.009211919,-0.15416056,0.05746084,0.15322891,-9.385271,0.7933669,47.645687,-1.1324705,-2.3761427,-3.2885404,-0.04090157,-0.031135011,-0.32801247,28.5625,29.9375,28.9375,32.6875,35.1875,36.25
0.2280533,1.2165906,0.00053133164,-1.8331555,-0.019786358,0.047807865,-0.16864808,-0.40057173,-0.363588,0.060025897,-3.0778763,0.6241436,0.00025574342,-0.100369036,0.047116205,-0.0013106592,0.010971697,-0.002692931,-0.0147519875,0.4865959,-1.3706304,1.8903102,-2.088446,-1.5716485,2.461212,-0.16390385,0.10203641,-0.1255964,0.030963944,-0.0087234,-0.14907216,0.11492168,0.11492168,-9.404425,0.8314132,47.66987,-1.0330997,-2.5801911,-3.3329563,-0.033298504,-0.019212171,-0.42558634,28.5625,29.9375,28.9375,32.6875,35.1875,36.25
0.23005426,0.4444618,-0.4316286,-1.6547267,-0.014838675,0.03451528,-0.16668366,-0.40074515,-0.36350405,0.06000566,-3.077857,0.62413955,0.00015671739,-0.10091478,0.047874853,-0.00018348734,0.010036634,-0.0010820788,-0.016419725,0.48628408,-1.3704151,1.8900832,-2.0883734,-1.5716242,2.4609,-0.16564527,0.09940168,-0.12510294,0.031244835,-0.008659297,-0.14914612,0.095768064,0.019153614,-9.423578,0.8247004,47.66271,-1.0410045,-2.3895922,-3.4942517,-0.018339552,-0.023294412,-0.5032293,28.5625,29.9375,28.9375,32.6875,35.1875,36.25
0.23205398,0.7355889,-0.03182171,-1.7241863,-0.009096283,0.051099185,-0.16730282,-0.4009777,-0.36340767,0.060017362,-3.0778148,0.6242785,0.00021849306,-0.10148175,0.049057227,-0.002274007,0.012156731,-0.0057113706,-0.010780944,0.485936,-1.3701972,1.8897833,-2.0883133,-1.5716604,2.4606442,-0.16824171,0.10409731,-0.12632853,0.032841314,-0.008374425,-0.15738109,0.2873042,0.019153614,-9.404425,0.83589023,47.694946,-1.0923498,-2.5517535,-3.4226215,-0.021761432,-0.02052768,-0.48450688,28.5625,29.9375,28.9375,32.6875,35.1875,36.25
0.23405378,0.7832341,0.15302102,-1.8731449,-0.0071436213,0.05336975,-0.17243221,-0.40117952,-0.3633098,0.06000001,-3.0777824,0.624224,0.00022468716,-0.102298155,0.04828333,-0.00018069704,0.010278772,-0.0033282724,0.0015588443,0.48561305,-1.3699697,1.8895434,-2.088277,-1.5716966,2.4602916,-0.16792656,0.10227429,-0.1293523,0.034682013,-0.007842792,-0.16940598,0.28730422,0.019153614,-9.576807,0.8806493,47.689575,-1.1809142,-2.3631773,-3.4988074,-0.035026547,-0.036520857,-0.3846661,28.5625,29.9375,28.9375,32.6875,35.1875,36.25
0.23605387,0.11319216,0.054039594,-1.7688565,-0.015971918,0.035807855,-0.17019174,-0.40134716,-0.3632012,0.05999249,-3.0777524,0.624192,9.357868e-05,-0.1024805,0.04910545,-0.0012800107,0.010880581,-0.0064117326,0.011358352,0.48526505,-1.3698008,1.8893293,-2.088145,-1.5716718,2.4599276,-0.16995884,0.10434856,-0.12960896,0.03585967,-0.0069604013,-0.18123873,0.22984336,0.038307227,-9.461885,0.87393653,47.71554,-1.1054033,-2.4174726,-3.477468,-0.056928255,-0.043217584,-0.2745079,28.5625,29.9375,28.9375,32.6875,35.1875,36.25
0.2380535,0.084730476,-0.2730937,-2.008829,-0.006259173,0.02792934,-0.1637693,-0.40157637,-0.3631159,0.05999122,-3.0777638,0.62413424,9.130918e-05,-0.104786284,0.04963528,0.000121268946,0.0093525015,-0.0035530326,0.015010949,0.48491666,-1.3695487,1.8890179,-2.088085,-1.5716718,2.4595418,-0.17282835,0.103844896,-0.1321779,0.03568241,-0.0069555556,-0.18775997,0.22984336,0.095768064,-9.423578,0.83589023,47.66271,-0.992569,-2.413504,-3.357715,-0.02799137,-0.07800818,-0.18813798,28.5625,29.9375,28.9375,32.6875,35.1875,36.25
0.24005331,0.7680634,-0.7844926,-2.2352452,-0.00027508888,0.03989833,-0.1640702,-0.40180182,-0.36300853,0.060001496,-3.0777435,0.62416774,0.00015391968,-0.105157465,0.05053989,0.00056187046,0.010120286,-0.0041087638,0.013945395,0.48455706,-1.3693568,1.8887547,-2.0880363,-1.5717081,2.4592059,-0.17434418,0.10322112,-0.13296136,0.03793104,-0.0073712682,-0.18820953,0.13407528,0.095768064,-9.500193,0.85826975,47.672558,-1.0119298,-2.204432,-3.4687037,-0.036248855,-0.04664553,-0.13787608,28.5625,29.9375,28.9375,32.6875,35.1875,36.25
0.2420532,0.3131253,-0.5533094,-2.104162,-0.015544066,0.038650595,-0.16592473,-0.4019809,-0.36292073,0.059988797,-3.077722,0.6240308,9.04924e-05,-0.10530669,0.05141134,-0.00089975743,0.01262954,-0.0075443876,0.0072831493,0.4842572,-1.3691393,1.8885025,-2.08794,-1.5717205,2.4588234,-0.17549261,0.10657663,-0.13411626,0.039942667,-0.008000362,-0.18269311,-0.095768064,0.15322891,-9.557653,0.7709874,47.67166,-0.96029943,-2.4977496,-3.4076538,-0.09218453,-0.054132745,-0.1705378,28.5625,29.9375,28.9375,32.6875,35.1875,36.25
0.2440542,-0.34134462,-0.3291721,-1.8089763,-0.023127323,0.05658167,-0.16250347,-0.4022103,-0.36280668,0.060005896,-3.0776644,0.62411696,0.0001620679,-0.105724044,0.05206801,8.829109e-05,0.012491108,-0.007935197,-7.958425e-05,0.48389786,-1.3689476,1.8882159,-2.0878556,-1.5717806,2.4585254,-0.17707902,0.1052766,-0.13549694,0.042896252,-0.007690445,-0.17691751,-0.2681506,0.11492168,-9.557653,0.89631605,47.687782,-1.0978786,-2.2589831,-3.397741,-0.11645302,-0.041039877,-0.276132,28.5625,29.9375,28.9375,32.6875,35.1875,36.25
0.24605393,-0.36296934,-0.81097436,-1.9626633,-0.010168304,0.09018615,-0.17464192,-0.40240547,-0.3626988,0.05997374,-3.0776405,0.6240149,1.4864024e-05,-0.10493312,0.051522706,-0.001232904,0.014044629,-0.01229391,-0.0007637982,0.48352712,-1.368694,1.8879641,-2.0877578,-1.5717558,2.4580941,-0.17577738,0.10901768,-0.13766283,0.045903776,-0.0070579494,-0.17493121,-0.30645782,0.19153613,-9.576807,0.9097417,47.709274,-1.138837,-2.5061839,-3.314076,-0.15925838,-0.07807495,-0.3258549,28.5625,29.9375,28.9375,32.6875,35.1875,36.25
0.24805385,-1.0889581,-0.64623034,-1.9756277,-0.014014763,0.1106376,-0.17510504,-0.40259647,-0.3626144,0.059983134,-3.077626,0.6240104,-1.6035872e-05,-0.10595077,0.05157056,-0.00058407855,0.012758986,-0.011018578,-0.0012497071,0.48321512,-1.368502,1.8876895,-2.0876505,-1.5717558,2.4577813,-0.17702031,0.108815596,-0.13883471,0.045546304,-0.0065258406,-0.17568891,-0.34476504,0.22984336,-9.615114,0.83589023,47.692257,-1.0613683,-2.2920442,-3.3379633,-0.17339738,-0.068731114,-0.36797607,28.5625,29.9375,28.9375,32.6875,35.1875,36.25
0.25005364,-1.2791733,-0.9503176,-1.7644472,-0.020656692,0.12631951,-0.16733003,-0.40278807,-0.3624959,0.05995327,-3.0775282,0.6239686,-0.00012822339,-0.10623132,0.051899288,-0.0010823641,0.013621246,-0.01166282,0.00078060204,0.48286763,-1.3682495,1.8874263,-2.087519,-1.571792,2.4574203,-0.17744957,0.11013016,-0.13932647,0.04568516,-0.007020215,-0.17814617,-0.4213795,0.17238252,-9.519346,0.8023209,47.672558,-1.2316726,-2.3723352,-3.4156938,-0.18495822,-0.0813548,-0.375436,28.5625,29.9375,28.9375,32.6875,35.1875,36.25
0.25205418,-1.3086011,-0.5455819,-1.7910833,-0.03435968,0.1314399,-0.1793582,-0.40302327,-0.36240396,0.059987094,-3.077564,0.6239884,-8.459161e-05,-0.10724684,0.05141035,-0.0003767889,0.013319954,-0.011306824,0.007333408,0.4824966,-1.3680687,1.8871144,-2.0874345,-1.5717801,2.4570572,-0.17749801,0.11147626,-0.14296986,0.047519714,-0.0069261906,-0.18474655,-0.59376204,0.21068975,-9.595961,0.85826975,47.66987,-1.2777183,-2.3599513,-3.1590762,-0.24356315,-0.08441915,-0.33763582,28.5625,29.9375,28.9375,32.6875,35.1875,36.25
0.25405416,-0.90460235,-0.4410256,-1.803701,-0.03345975,0.13607353,-0.17546667,-0.40325785,-0.36232048,0.060008436,-3.0776057,0.62389565,-4.3089916e-05,-0.10960393,0.051605992,0.00062765,0.012047964,-0.009221938,0.016248088,0.4821479,-1.3678521,1.8867911,-2.087363,-1.5717801,2.4566455,-0.17991735,0.11249599,-0.14650756,0.04758596,-0.0067828055,-0.1960797,-0.51714754,0.19153613,-9.481039,0.80456203,47.67166,-1.1382086,-2.3406408,-3.2033176,-0.25539523,-0.10883905,-0.21745726,28.5625,29.9375,28.9375,32.6875,35.1875,36.25
0.25605443,-1.3244511,-0.28260583,-1.7487128,-0.020461215,0.11450624,-0.1778249,-0.40348032,-0.36221954,0.060016688,-3.0775974,0.62385046,-4.739237e-05,-0.110587336,0.052895486,-0.0003083527,0.013457765,-0.009498355,0.022074513,0.4817884,-1.3676354,1.8864921,-2.087268,-1.5717925,2.456259,-0.18217322,0.11416386,-0.14613186,0.04643148,-0.007920688,-0.20415905,-0.38307226,0.21068975,-9.519346,0.8157518,47.68062,-1.273951,-2.3233194,-3.224073,-0.2782919,-0.090222284,-0.11170637,28.5625,29.9375,28.9375,32.6875,35.1875,36.25
0.25805417,-1.0378828,-0.39608327,-1.7278681,-0.010780372,0.10363498,-0.17835985,-0.4036894,-0.36210236,0.060008444,-3.077565,0.62382084,-0.00012229226,-0.11149015,0.051887736,0.0006008282,0.012598133,-0.0067367004,0.024166172,0.48140588,-1.367419,1.886228,-2.0871599,-1.5717925,2.4558623,-0.18086001,0.114584036,-0.1485242,0.04555618,-0.008463471,-0.20493472,-0.5363012,0.05746084,-9.595961,0.79560274,47.70032,-1.3496056,-2.4172807,-3.2427783,-0.2835178,-0.10092529,-0.059778616,28.5625,29.9375,28.9375,32.6875,35.1875,36.25
0.26005444,-0.8324629,-0.39326814,-1.4497806,-0.01837325,0.103973396,-0.17498356,-0.40392327,-0.36202168,0.060006574,-3.0775878,0.623695,-9.9623845e-05,-0.11244638,0.05158475,0.00039758687,0.012632902,-0.0063769417,0.017842598,0.4810704,-1.367154,1.8859047,-2.0871117,-1.5718044,2.4554455,-0.18098356,0.1168113,-0.15066332,0.04516761,-0.00866232,-0.19873315,-0.7278373,0.076614454,-9.404425,0.8179876,47.69763,-1.4700358,-2.3636374,-3.1826408,-0.29115114,-0.074003145,-0.09222436,28.5625,29.9375,28.9375,32.6875,35.1875,36.25
0.26205435,-0.89161277,-0.48334804,-1.4925054,-0.013287124,0.10314781,-0.17892015,-0.40413144,-0.3619168,0.060023665,-3.0775821,0.6237182,-0.00010242294,-0.112406336,0.052281164,-0.00082533096,0.013941393,-0.007589219,0.008485161,0.48071006,-1.3669853,1.8856429,-2.0870168,-1.5718049,2.4551005,-0.18167222,0.11838719,-0.14955981,0.04417672,-0.009258042,-0.19006303,-0.57460845,0.13407528,-9.308657,0.9030289,47.685097,-1.5925264,-2.5167332,-3.121833,-0.29809934,-0.109318525,-0.19163552,28.5625,29.9375,28.9375,32.6875,35.1875,36.25
0.2640546,-0.87444973,-0.00072573766,-1.721674,-0.003997325,0.10018281,-0.18086061,-0.40436777,-0.36180896,0.059996825,-3.077519,0.6236902,-0.00011625887,-0.11403214,0.053099506,-0.0006893419,0.013407762,-0.0067817043,-0.0007863327,0.48034903,-1.366685,1.8853315,-2.0869567,-1.5718526,2.4547303,-0.18444952,0.11922102,-0.15076321,0.043578424,-0.00916948,-0.18356806,-0.40222588,0.11492168,-9.385271,0.88960326,47.672558,-1.4700142,-2.3511662,-3.1063912,-0.29577142,-0.09525697,-0.29179516,28.5625,29.9375,28.9375,32.6875,35.1875,36.25
0.26605394,-0.61076385,0.033836182,-1.4267658,-0.021343939,0.08670616,-0.18275271,-0.40463305,-0.3616978,0.060040135,-3.0774982,0.62370837,-2.3204884e-06,-0.11452035,0.053497776,-0.00076063373,0.013016791,-0.007538313,-0.0075435834,0.47996452,-1.3664804,1.8849615,-2.0868375,-1.5719122,2.45436,-0.18588294,0.11979566,-0.15144151,0.044162188,-0.008464517,-0.17824611,-0.36391866,0.095768064,-9.461885,0.8403672,47.684196,-1.4311447,-2.531314,-3.2751484,-0.34214354,-0.1186135,-0.40861368,28.5625,29.9375,28.9375,32.6875,35.1875,36.25
0.26805437,-0.78643835,-0.7032764,-1.1741279,-0.03421706,0.073863894,-0.17608424,-0.4048631,-0.3615797,0.060009327,-3.0774581,0.6237584,-9.121518e-05,-0.11564719,0.05432103,-0.0018981476,0.013720123,-0.0084880795,-0.010683572,0.47955546,-1.3662033,1.8846868,-2.086778,-1.5719002,2.4539874,-0.18804371,0.122647464,-0.15205516,0.043091975,-0.008669418,-0.17726517,-0.4405331,0.1340753,-9.289503,0.8090337,47.695843,-1.2752889,-2.3342502,-3.3323426,-0.31878713,-0.10144776,-0.46843258,28.5625,29.9375,28.9375,32.6875,35.1875,36.25
0.2700545,-0.17558053,-0.36289153,-1.1318911,-0.035538793,0.08136757,-0.18286784,-0.40510124,-0.36146948,0.06002072,-3.0774286,0.62380564,-3.935658e-05,-0.11853279,0.054899935,-0.0002245238,0.011575405,-0.0025992033,-0.0042997003,0.47918275,-1.3659877,1.8843874,-2.0867078,-1.571937,2.453648,-0.19094765,0.121180676,-0.15334219,0.039613653,-0.009504406,-0.18655059,-0.36391866,0.019153614,-9.136273,0.84708,47.687782,-1.2388493,-2.4226253,-3.305511,-0.28979895,-0.10317212,-0.47199178,28.5625,29.9375,28.9375,32.6875,35.1875,36.25
0.27205378,0.07007727,-0.060166962,-1.1650702,-0.018507218,0.083569534,-0.20123142,-0.40535343,-0.36136577,0.060030706,-3.077433,0.62377924,-4.3653374e-05,-0.11955054,0.055988956,-0.00094710564,0.012047209,-0.0034659577,0.0063637663,0.4787862,-1.3657346,1.8840402,-2.0866115,-1.571937,2.4532347,-0.19354862,0.12281733,-0.15359017,0.039192222,-0.009542265,-0.1998146,-0.114921674,-0.038307227,-9.174581,0.800085,47.6636,-1.2819657,-2.5200295,-3.3516357,-0.2995609,-0.11513317,-0.36710465,28.5625,29.9375,28.9375,32.6875,35.1875,36.25
0.27405417,-0.29807565,-0.11131647,-1.0673741,-0.0010988896,0.06590839,-0.17761172,-0.4056205,-0.36126354,0.060053993,-3.0774612,0.6237236,7.5696254e-05,-0.121558845,0.056181606,-0.00032770782,0.010606471,-0.0015238383,0.014431165,0.47840136,-1.3655062,1.883706,-2.0865757,-1.5719727,2.4528117,-0.19576071,0.123759575,-0.15591903,0.038166773,-0.009163842,-0.21009465,-0.019153614,-0.19153613,-9.097966,0.80456203,47.66987,-1.1770966,-2.3904102,-3.374445,-0.27960885,-0.11638813,-0.23238274,28.5625,29.9375,28.9375,32.6875,35.1875,36.25
0.27605462,0.07345582,0.22263043,-0.957101,0.023235034,0.06299834,-0.17935812,-0.40585193,-0.36112404,0.060042657,-3.0774379,0.62373763,3.5480407e-06,-0.12318445,0.057708405,-0.00049454626,0.010346368,-0.0016538893,0.015192475,0.4779556,-1.3652896,1.8834537,-2.0864923,-1.5719603,2.4523778,-0.19982499,0.1244718,-0.15635107,0.037874278,-0.008892317,-0.21492024,-0.21068975,-0.1340753,-9.002198,0.91421866,47.666286,-1.1344631,-2.4633508,-3.3115363,-0.23832883,-0.11480163,-0.14591941,28.5625,29.9375,28.9375,32.6875,35.1875,36.25
0.27805382,0.54019254,0.74433017,-0.8879366,0.036565177,0.077792086,-0.17467198,-0.40610686,-0.3610359,0.06004443,-3.077459,0.623706,2.9281378e-05,-0.12442858,0.05799834,-0.0010632164,0.01000392,-0.0015316029,0.009853912,0.47758353,-1.3650124,1.8831075,-2.0864456,-1.5719603,2.4519835,-0.20144765,0.12671289,-0.15745671,0.036473483,-0.00864403,-0.21120434,-0.34476504,-0.076614454,-9.040505,0.8717007,47.63136,-1.1009005,-2.52228,-3.4279916,-0.23762983,-0.10779636,-0.16212794,28.5625,29.9375,28.9375,32.6875,35.1875,36.25
0.28005427,-0.40107033,0.78583056,-0.9147606,0.03545588,0.064571165,-0.17708835,-0.40633854,-0.3609224,0.060024127,-3.077417,0.6236241,5.2435666e-06,-0.124855705,0.056876015,0.00033122112,0.0073383464,0.0015919982,0.0042652227,0.4772116,-1.3647373,1.8828081,-2.0863736,-1.5719966,2.451566,-0.20040011,0.12500885,-0.15828685,0.035003144,-0.007721746,-0.20456994,-0.3256114,-0.11492168,-9.021352,0.8627467,47.65464,-1.1372976,-2.2706344,-3.338211,-0.21768312,-0.15338138,-0.26677153,28.5625,29.9375,28.9375,32.6875,35.1875,36.25
0.2820538,-0.16467355,0.319427,-1.1666198,0.026712764,0.08198263,-0.17825505,-0.40657404,-0.3607881,0.060013246,-3.0773687,0.623673,-7.006865e-05,-0.12744062,0.05706317,0.0019255697,0.006562729,0.005456773,-0.0023375428,0.47677925,-1.3644966,1.8825206,-2.0862663,-1.5719966,2.4511704,-0.20219564,0.12520234,-0.16214027,0.034880437,-0.008823016,-0.19975802,-0.24899697,-0.038307227,-9.021352,0.8940802,47.687782,-1.1207526,-2.327525,-3.2051773,-0.1912807,-0.13969737,-0.30421725,28.5625,29.9375,28.9375,32.6875,35.1875,36.25
0.28405413,-0.55530363,-0.4508366,-1.1998051,0.013546011,0.08296309,-0.17421043,-0.40683985,-0.36068475,0.06002831,-3.0773466,0.6237077,-1.0539624e-05,-0.1280493,0.057702035,0.002085757,0.007654794,0.0052886214,-0.0044004964,0.476395,-1.3642322,1.8821505,-2.0861814,-1.5720328,2.450811,-0.20314203,0.12572393,-0.1634895,0.036352724,-0.009709855,-0.19863899,-0.38307226,-0.019153614,-9.232041,0.8023209,47.703903,-1.1358497,-2.1784358,-3.2746477,-0.18195173,-0.14041789,-0.40063596,28.5625,29.9375,28.9375,32.6875,35.1875,36.25
0.28605425,-0.46395633,-0.2518655,-1.2082219,-0.013719267,0.100329876,-0.18956695,-0.40710923,-0.36056197,0.0600491,-3.077323,0.6237201,3.74183e-05,-0.12824826,0.056995932,0.0022239108,0.007401298,0.004782841,-0.0013127779,0.47597516,-1.3639916,1.881791,-2.0860736,-1.572069,2.450402,-0.20228995,0.12715717,-0.1658215,0.037569243,-0.009254611,-0.20087495,-0.47884035,0.019153614,-9.385271,0.91421866,47.707485,-1.2174804,-2.1290035,-3.2831793,-0.19305566,-0.12684776,-0.42169002,28.5625,29.9375,28.9375,32.6875,35.1875,36.25
0.28805375,-1.3040725,-0.6054805,-1.5677538,-0.020386532,0.104222775,-0.18586245,-0.40731457,-0.36044508,0.060006753,-3.0772738,0.6236265,-0.00012630357,-0.12742707,0.056908075,0.0012050583,0.008240057,0.0027420137,0.0093996,0.4755914,-1.3637028,1.8815168,-2.0859659,-1.5720567,2.4499662,-0.20142832,0.12850244,-0.16520302,0.037789438,-0.009099782,-0.21072513,-0.51714754,0.038307227,-9.404425,0.82022345,47.683304,-1.314827,-2.167453,-3.3061333,-0.17896688,-0.15926749,-0.33094072,28.5625,29.9375,28.9375,32.6875,35.1875,36.25
0.2900546,-1.2472312,-0.44053426,-1.9698733,-0.02683551,0.114285745,-0.19023985,-0.40757066,-0.36032626,0.06001747,-3.0772936,0.62350845,-7.588591e-05,-0.128618,0.057331413,0.0015212843,0.007989007,0.0033772707,0.020353466,0.47518292,-1.3634745,1.8812054,-2.0859058,-1.572081,2.4494817,-0.20301697,0.1292035,-0.16683982,0.0380203,-0.009180238,-0.22326702,-0.36391866,0.11492168,-9.557653,0.87617236,47.691364,-1.5124354,-2.119045,-3.1879525,-0.17099836,-0.15168527,-0.20821458,28.5625,29.9375,28.9375,32.6875,35.1875,36.25
0.29205444,-1.1667454,-1.1216004,-2.113873,-0.03188604,0.11641887,-0.19337353,-0.40783322,-0.36021978,0.06000589,-3.0772943,0.6234669,-9.373987e-05,-0.12945572,0.057428643,0.0012708958,0.008213382,0.0030158618,0.025999943,0.47477484,-1.3631734,1.8808573,-2.0858457,-1.572081,2.4490478,-0.2037634,0.13112138,-0.16868116,0.03835592,-0.009228427,-0.22965881,-0.2681506,0.22984336,-9.710882,0.87393653,47.68062,-1.4606676,-2.2206068,-3.3251615,-0.17526926,-0.15153548,-0.115365,28.5625,29.9375,28.9375,32.6875,35.1875,36.25
0.29405463,-0.95011395,-1.1934285,-2.1233523,-0.050891556,0.10905513,-0.19042213,-0.4080815,-0.36008048,0.059998993,-3.0772424,0.6233837,-0.0001075894,-0.1311634,0.058480438,0.0012411556,0.008237075,0.0037340545,0.017997177,0.47435382,-1.3629206,1.880546,-2.0857384,-1.5721291,2.4485817,-0.20668948,0.13227877,-0.16990173,0.037784822,-0.009587039,-0.22458014,-0.40222588,0.30645782,-9.730036,0.94331104,47.698532,-1.4337604,-2.145337,-3.3177292,-0.15303248,-0.16593081,-0.086435616,28.5625,29.9375,28.9375,32.6875,35.1875,36.25
0.29605398,-0.7346474,-1.623574,-2.291312,-0.04899063,0.09055077,-0.18139534,-0.40837047,-0.35994393,0.060001656,-3.0771832,0.6234352,-5.2835163e-05,-0.13244267,0.059139967,0.0015847395,0.008802074,0.004863895,0.007057313,0.47390953,-1.3626325,1.8801755,-2.085654,-1.5721892,2.4481773,-0.20816202,0.13290739,-0.17152488,0.038032025,-0.010597586,-0.2151095,-0.36391866,0.28730422,-9.787497,0.88960326,47.723602,-1.4291704,-2.2255473,-3.287498,-0.15268537,-0.13243811,-0.22179946,28.5625,29.9375,28.9375,32.6875,35.1875,36.25
0.29805404,-0.92058796,-1.7409116,-2.5687275,-0.05275806,0.070209615,-0.1758128,-0.40862846,-0.35986453,0.060038958,-3.0772622,0.6233204,-8.531829e-06,-0.13304828,0.059848577,0.00019162745,0.010109258,0.0024582788,-0.0029609976,0.47353715,-1.3624027,1.8797935,-2.0855587,-1.5721654,2.4477234,-0.20973383,0.13628533,-0.1725202,0.038400214,-0.010643204,-0.20666263,-0.3256114,0.24899697,-9.940725,0.83589023,47.694946,-1.3976793,-2.4565609,-3.392292,-0.14285523,-0.14388901,-0.3307009,28.5625,29.9375,28.9375,32.6875,35.1875,36.25
0.30005464,-0.39986518,-1.6646394,-2.4382396,-0.056679215,0.06326576,-0.18084648,-0.40891978,-0.3597097,0.060025916,-3.0771646,0.62344104,2.908932e-05,-0.13451406,0.061253857,-0.0006872101,0.011142461,0.0011019742,-0.013977822,0.4730679,-1.3621019,1.8794464,-2.0854867,-1.5722374,2.4473422,-0.21305555,0.13890505,-0.17377117,0.038702738,-0.010944348,-0.1989657,-0.26815057,0.2681506,-9.921572,0.84484416,47.704796,-1.2134758,-2.2612631,-3.3382053,-0.12245543,-0.13626061,-0.44401684,28.5625,29.9375,28.9375,32.6875,35.1875,36.25
0.30205384,-0.4628414,-1.5604135,-2.1495519,-0.05346114,0.06301411,-0.1777917,-0.4092049,-0.3595949,0.060038622,-3.0771909,0.62348676,0.00012480289,-0.13571416,0.062623076,-0.00052017765,0.011062668,0.0012313137,-0.016683187,0.47263488,-1.3618495,1.8791121,-2.0854747,-1.5722493,2.4469345,-0.21628043,0.13873912,-0.17404743,0.03898581,-0.010920551,-0.19948605,-0.36391866,0.19153613,-9.864111,0.83365434,47.694946,-1.1382562,-2.3053102,-3.4490747,-0.11759193,-0.14419594,-0.5035651,28.5625,29.9375,28.9375,32.6875,35.1875,36.25
0.30405423,-0.08325685,-0.6992204,-2.3167942,-0.038115457,0.06566865,-0.19317318,-0.40945032,-0.35946968,0.06001853,-3.0771365,0.62346816,7.031258e-05,-0.1374448,0.062364817,-0.0004883955,0.009720492,0.0011068297,-0.0075117266,0.47222617,-1.3615601,1.8787888,-2.085379,-1.5722731,2.4465213,-0.21797682,0.14156523,-0.17759222,0.039174717,-0.00970262,-0.21035483,-0.13407528,0.17238252,-9.80665,0.83813137,47.66987,-1.02255,-2.462601,-3.3142858,-0.0939209,-0.1481612,-0.4515996,28.5625,29.9375,28.9375,32.6875,35.1875,36.25
0.30605447,-0.13027024,-0.418669,-2.3735769,-0.007902317,0.061973304,-0.19044189,-0.40974784,-0.35935014,0.060035426,-3.0771646,0.62338847,0.00014910664,-0.13777143,0.062819466,-0.0009945763,0.009806566,-0.0005187504,0.0061002704,0.47178197,-1.3612835,1.878405,-2.0853188,-1.5722965,2.446024,-0.21928516,0.14293183,-0.17829719,0.039965678,-0.009048493,-0.225277,0.05746084,-0.019153614,-9.749189,0.8537928,47.687782,-1.0236497,-2.5103874,-3.4721794,-0.072987996,-0.18177272,-0.34341186,28.5625,29.9375,28.9375,32.6875,35.1875,36.25
0.30805394,-0.39161152,-0.7838185,-2.160097,0.015456261,0.06311383,-0.18183595,-0.41003892,-0.35923493,0.060048223,-3.0771825,0.62336886,0.00017437998,-0.1382809,0.063536026,-0.00095824304,0.009776751,-0.00022998183,0.015241809,0.47133687,-1.3609954,1.8780111,-2.0852349,-1.572297,2.4455645,-0.22072053,0.14268716,-0.17805907,0.039681587,-0.009162099,-0.23585403,-0.076614454,-0.095768064,-9.730036,0.83589023,47.67166,-0.9209129,-2.4967139,-3.4451408,-0.06907189,-0.16399561,-0.20659332,28.5625,29.9375,28.9375,32.6875,35.1875,36.25
0.31005496,-0.2003525,-0.42741683,-1.7528272,0.020080354,0.07803076,-0.17285317,-0.41030866,-0.35912126,0.06005106,-3.0772216,0.62329936,0.00018757008,-0.13834487,0.06383303,-0.0015281615,0.009908296,-0.0020209816,0.01446025,0.4709049,-1.3607309,1.8776764,-2.0851872,-1.5722841,2.4450843,-0.22157364,0.14402086,-0.17859435,0.040535692,-0.00846271,-0.23592728,-0.2873042,-0.05746084,-9.557653,0.83813137,47.695843,-0.9730787,-2.576519,-3.4950309,-0.045292817,-0.19549018,-0.16066521,28.5625,29.9375,28.9375,32.6875,35.1875,36.25
0.31205425,-0.10258868,0.2548153,-1.4268675,0.013083652,0.09253344,-0.1793946,-0.4105997,-0.35899267,0.060072202,-3.0772343,0.6233433,0.00022664017,-0.13777915,0.063548505,-0.002674557,0.011456036,-0.0046128677,0.007984003,0.47043762,-1.3604786,1.8773063,-2.0851028,-1.5722841,2.444643,-0.2203514,0.14681345,-0.17967148,0.041841168,-0.008653849,-0.2282279,-0.45968673,-0.1340753,-9.423578,0.8717007,47.694946,-1.2059202,-2.3714972,-3.529986,-0.025964078,-0.194276,-0.23973253,28.5625,29.9375,28.9375,32.6875,35.1875,36.25
0.31405464,-0.55135757,0.23424374,-1.3629273,0.021448048,0.09251614,-0.17936413,-0.4108825,-0.35888898,0.060078602,-3.0772398,0.62321293,0.00027560288,-0.13910064,0.062597215,-0.0009042585,0.010086895,-0.000889744,0.0020112933,0.4700421,-1.360167,1.8768986,-2.0850189,-1.5723208,2.4441657,-0.2194675,0.14619091,-0.18298446,0.04183835,-0.009120586,-0.22136922,-0.36391866,-0.15322891,-9.32781,1.0171678,47.674347,-1.4169767,-2.4249005,-3.4274235,-0.017522488,-0.18801796,-0.3245528,28.5625,29.9375,28.9375,32.6875,35.1875,36.25
0.31605387,-0.020815922,-0.19236472,-1.3067036,0.04172054,0.10416895,-0.16949937,-0.41114527,-0.35874933,0.060047325,-3.0771933,0.6232627,0.00017129586,-0.14114237,0.06271675,-0.00059024454,0.009413909,-0.00065903686,-0.002938754,0.46957344,-1.3598542,1.8765749,-2.0849345,-1.5723084,2.4437342,-0.22158504,0.14880165,-0.18710347,0.04283788,-0.00864718,-0.21853551,-0.2681506,-0.076614454,-9.11712,0.8784135,47.687782,-1.395681,-2.4807603,-3.3156905,0.003623384,-0.21582377,-0.4153892,28.5625,29.9375,28.9375,32.6875,35.1875,36.25
0.3180542,-0.1697452,0.28915724,-1.3211546,0.02403409,0.08305443,-0.18263298,-0.4114427,-0.358615,0.060067702,-3.0771806,0.6232771,0.00030155812,-0.14225033,0.063041866,0.00020871875,0.008790762,-6.5542714e-05,-0.0009798111,0.46912867,-1.3596026,1.8762153,-2.0848863,-1.5723685,2.4433002,-0.22312006,0.14882827,-0.1892805,0.044153836,-0.008354087,-0.22203012,-0.21068975,-0.019153614,-9.232041,0.83589023,47.67793,-1.4046974,-2.4045615,-3.169538,0.01650168,-0.20991719,-0.4118929,28.5625,29.9375,28.9375,32.6875,35.1875,36.25
0.3200542,0.08776395,0.3122871,-1.4389195,0.016149428,0.06455017,-0.19291723,-0.4117381,-0.35850033,0.0600958,-3.0772042,0.6231777,0.00036667843,-0.14201982,0.06326125,0.00072500337,0.010225698,-0.00015411172,0.010591454,0.4686971,-1.3593268,1.8757957,-2.0847776,-1.5723928,2.4428039,-0.22238617,0.14826758,-0.1903373,0.04647659,-0.009595976,-0.23286465,-0.22984336,0.019153614,-9.155427,0.9164598,47.66808,-1.5227604,-2.3166924,-3.259089,-0.010263206,-0.22871602,-0.32176512,28.5625,29.9375,28.9375,32.6875,35.1875,36.25
0.32205462,-0.2021934,-0.4189972,-1.4217942,0.011361188,0.05414129,-0.17872775,-0.4119746,-0.35837942,0.06006206,-3.0771866,0.6230539,0.00022205558,-0.1428066,0.06432383,0.00085243373,0.011635778,-0.0005688001,0.021114018,0.46827656,-1.359015,1.8754729,-2.0846694,-1.5723695,2.4423084,-0.22405005,0.14877158,-0.19168961,0.048317365,-0.010703918,-0.24504697,-0.40222588,0.15322891,-9.097966,0.8717007,47.691364,-1.4178951,-2.2869122,-3.202087,0.0017015727,-0.21154079,-0.19201475,28.5625,29.9375,28.9375,32.6875,35.1875,36.25
0.324054,-0.30710223,-0.5350534,-1.722861,0.0041330713,0.061959546,-0.17868897,-0.41228244,-0.3582364,0.06007624,-3.0771453,0.62302333,0.00027774443,-0.14312078,0.06472954,0.001623665,0.011386433,-0.0010473129,0.023158474,0.46780878,-1.3587157,1.8750538,-2.0845492,-1.5724291,2.441827,-0.22511806,0.14802445,-0.19314393,0.050807443,-0.010269106,-0.24816042,-0.3256114,0.21068975,-9.193734,0.9097417,47.672558,-1.470716,-2.2212155,-3.1814327,-0.022497818,-0.213711,-0.107938126,28.5625,29.9375,28.9375,32.6875,35.1875,36.25
0.32605398,-0.82293886,-1.1316187,-1.8329867,-0.008042348,0.06836841,-0.17901176,-0.41257888,-0.35810181,0.060109165,-3.0771453,0.6229532,0.0003392704,-0.14419757,0.065961495,0.0013066588,0.0132310195,-0.0037177913,0.013728133,0.46735096,-1.3584629,1.8746451,-2.0844162,-1.5724653,2.4413257,-0.227703,0.15050836,-0.1963258,0.054720644,-0.010700233,-0.24131292,-0.3256114,0.17238252,-9.308656,0.83365434,47.657326,-1.3364661,-2.350953,-3.2372174,-0.051974818,-0.22022425,-0.1449044,28.5625,29.9375,28.9375,32.6875,35.1875,36.25
0.32805413,-1.0447922,-1.1300201,-1.5186231,-0.03734084,0.084355325,-0.17677203,-0.4128444,-0.35797364,0.06008226,-3.0771065,0.62297106,0.00020717853,-0.14472799,0.06784735,0.0005334489,0.014682534,-0.006868078,0.00021778951,0.46689382,-1.3581269,1.8742746,-2.084295,-1.5724415,2.4408848,-0.23126279,0.15173009,-0.1966759,0.05733322,-0.010586603,-0.23136166,-0.4405331,0.24899697,-9.174581,0.9254084,47.66271,-1.1086326,-2.1144054,-3.3090224,-0.086888835,-0.2203413,-0.27065194,28.5625,29.9375,28.9375,32.6875,35.1875,36.25
0.33005428,-1.5992026,-0.7247672,-1.4114989,-0.043967217,0.08529437,-0.1830983,-0.41314822,-0.35784927,0.060112417,-3.0771277,0.62301946,0.00026350218,-0.145059,0.069648504,0.00064543705,0.014838594,-0.008254758,-0.012347453,0.46642506,-1.3578637,1.8738679,-2.0841992,-1.572441,2.4404438,-0.23472972,0.15037431,-0.1957226,0.059053592,-0.01008102,-0.22226587,-0.5746084,0.21068975,-9.32781,0.88960326,47.667187,-1.1731257,-2.028889,-3.2403648,-0.13272667,-0.22153541,-0.3935268,28.5625,29.9375,28.9375,32.6875,35.1875,36.25
0.33205447,-0.83417195,-0.34368378,-1.6599258,-0.025998976,0.09940128,-0.18536903,-0.41341752,-0.35768962,0.060084544,-3.0770168,0.62303895,0.00017269795,-0.14621659,0.07095735,0.000814933,0.015398344,-0.009375908,-0.019702837,0.465956,-1.3575395,1.8735083,-2.0840542,-1.5724887,2.4400012,-0.23777159,0.15109144,-0.1975443,0.061403915,-0.010101496,-0.21795069,-0.40222588,0.13407528,-9.289502,0.8784135,47.709274,-1.000953,-2.0798323,-3.313313,-0.15365162,-0.23468554,-0.51169777,28.5625,29.9375,28.9375,32.6875,35.1875,36.25
0.33405373,-1.3082598,-0.26096216,-1.7005323,-0.007971861,0.07305777,-0.17742006,-0.41372836,-0.35755438,0.060107782,-3.077028,0.6230933,0.00021295369,-0.14613022,0.071843006,0.00026015905,0.01633436,-0.012462102,-0.01297635,0.4654639,-1.3572634,1.8731016,-2.083958,-1.5724887,2.4395418,-0.23936217,0.15223646,-0.19833231,0.06420382,-0.009557874,-0.22626933,-0.21068975,0.11492168,-9.3661175,0.8806493,47.716442,-1.078938,-2.0535576,-3.3961766,-0.21910852,-0.24720731,-0.52504206,28.5625,29.9375,28.9375,32.6875,35.1875,36.25
0.33605376,-0.053245876,-0.46269667,-1.4290375,0.011680445,0.095101915,-0.17802621,-0.41402352,-0.35741502,0.060091674,-3.076975,0.6230144,0.0001974405,-0.14713661,0.071089774,0.0004853621,0.01497369,-0.0103580905,0.0025310148,0.46500787,-1.3569154,1.8726948,-2.0838506,-1.5725368,2.4390435,-0.23894085,0.15340103,-0.19978905,0.061962485,-0.009331839,-0.24135488,-0.30645782,0.0,-9.385271,0.88289046,47.723602,-1.1170418,-2.0199966,-3.3450809,-0.19599207,-0.2528799,-0.38641798,28.5625,29.9375,28.9375,32.6875,35.1875,36.25
0.33805406,-0.7618096,0.25058925,-1.6869338,0.034095224,0.07391153,-0.17929806,-0.4143221,-0.35726482,0.060087815,-3.076939,0.62298155,0.0001724535,-0.1466088,0.070713826,-0.0007863724,0.016811267,-0.01220397,0.01513224,0.46451643,-1.3566022,1.8722996,-2.083731,-1.5725611,2.4385364,-0.23719245,0.15633196,-0.20053233,0.06222175,-0.010179607,-0.25220445,-0.2681506,-0.019153614,-9.212888,0.83589023,47.68062,-1.2836695,-2.1994743,-3.375222,-0.20948617,-0.27153075,-0.260314,28.5625,29.9375,28.9375,32.6875,35.1875,36.25
0.3400545,-0.17709802,0.67346907,-1.9617882,0.04528052,0.067231,-0.17207628,-0.4146096,-0.35713747,0.060077313,-3.0769124,0.6228988,0.00014457072,-0.14594206,0.07135272,-0.0029495205,0.020017384,-0.018593138,0.015823241,0.46407282,-1.3562652,1.8718928,-2.0836217,-1.572585,2.4380448,-0.23754708,0.16118369,-0.20246473,0.06643896,-0.010200731,-0.2532485,-0.05746084,-0.17238252,-9.404425,0.8806493,47.684196,-1.2670882,-2.27298,-3.371504,-0.28692248,-0.2601785,-0.19744423,28.5625,29.9375,28.9375,32.6875,35.1875,36.25
0.34205455,-0.62014216,-0.1510572,-1.6160281,0.03816027,0.055262826,-0.16100065,-0.4149038,-0.357001,0.060079843,-3.0768893,0.622803,0.00014977806,-0.14767325,0.07123565,-0.0020561835,0.018776985,-0.015099585,0.00844012,0.46361613,-1.3559533,1.8714846,-2.083503,-1.5726212,2.4375315,-0.23838048,0.16129544,-0.2042113,0.064394906,-0.010670701,-0.24669659,-0.26815057,-0.21068975,-9.461885,0.86945957,47.667187,-1.3755264,-2.2139387,-3.3599381,-0.29201487,-0.27812868,-0.27819815,28.5625,29.9375,28.9375,32.6875,35.1875,36.25
0.34405363,-0.3666977,0.034430176,-1.6237735,0.0058620144,0.06244207,-0.17383389,-0.4152098,-0.35685232,0.060084127,-3.0768604,0.62287813,8.972437e-05,-0.14767307,0.07101587,-0.003040675,0.019836234,-0.016113097,0.0031653638,0.46309975,-1.3556409,1.871066,-2.0833595,-1.5726093,2.4370658,-0.23754191,0.16387057,-0.20504591,0.064045504,-0.011180375,-0.24058078,-0.40222588,-0.11492168,-9.32781,0.83813137,47.686886,-1.3038179,-2.3686461,-3.381897,-0.29266736,-0.27015048,-0.34748262,28.5625,29.9375,28.9375,32.6875,35.1875,36.25
0.34605435,-0.8184381,-0.59452033,-1.8998522,0.0022549767,0.05379534,-0.17730641,-0.41551396,-0.35669696,0.060088232,-3.0768106,0.6228865,5.2343017e-05,-0.14983143,0.07109714,-0.0024182117,0.018474944,-0.014435471,0.001232934,0.46259585,-1.3553288,1.8706454,-2.083204,-1.5726331,2.4365737,-0.23961322,0.16549626,-0.20836985,0.06362215,-0.010742348,-0.24071908,-0.13407528,-0.11492168,-9.423578,0.9186956,47.72629,-1.3598971,-2.3506975,-3.3268895,-0.32383308,-0.2684297,-0.4182792,28.5625,29.9375,28.9375,32.6875,35.1875,36.25
0.34805378,-0.56800604,-0.90016764,-1.7126203,-0.029833283,0.075907126,-0.18198556,-0.41579762,-0.35656345,0.060085062,-3.0767732,0.62283707,-1.2862814e-05,-0.15156575,0.07142434,-0.0021856392,0.01801864,-0.012771491,0.0070949784,0.46213934,-1.3550047,1.8702267,-2.083049,-1.5726455,2.4360914,-0.24124943,0.16689062,-0.21037948,0.06252424,-0.011118212,-0.24821474,0.0,-0.038307227,-9.442732,0.94331104,47.67166,-1.4599056,-2.4398146,-3.392924,-0.32865402,-0.28761148,-0.36199313,28.5625,29.9375,28.9375,32.6875,35.1875,36.25
0.3500541,0.018274164,-0.37750402,-1.6380253,-0.05730523,0.08897976,-0.20128608,-0.41609353,-0.35643715,0.06009356,-3.076776,0.62263894,3.1783402e-05,-0.15345407,0.07241646,-0.0019413972,0.01710541,-0.010066046,0.017868351,0.46170643,-1.3546926,1.8698071,-2.0829422,-1.5726932,2.4355347,-0.2440974,0.16692068,-0.21035835,0.059602946,-0.011541105,-0.26183486,-0.05746084,0.019153614,-9.3661175,0.90750587,47.692257,-1.3460815,-2.3164108,-3.4154835,-0.32745838,-0.26251742,-0.24332154,28.5625,29.9375,28.9375,32.6875,35.1875,36.25
0.35205463,-0.1832679,-0.81236535,-1.6729727,-0.052011903,0.08594639,-0.18362057,-0.41642168,-0.35627696,0.060076725,-3.0767338,0.6227823,-2.863763e-05,-0.15477426,0.07279353,-0.0023307411,0.016446307,-0.008422365,0.023654629,0.46115336,-1.3543324,1.8693894,-2.0828474,-1.5726813,2.4350767,-0.2455563,0.1682632,-0.2104715,0.05659227,-0.011719647,-0.26907882,-0.11492168,0.21068975,-9.308657,0.8493211,47.6636,-1.1882923,-2.4848676,-3.3610168,-0.2973027,-0.30216795,-0.1196564,28.5625,29.9375,28.9375,32.6875,35.1875,36.25
0.35405454,-0.6676017,-1.3649052,-1.8290864,-0.03465306,0.07879567,-0.16723116,-0.41671932,-0.35610914,0.060080536,-3.076666,0.6226755,8.589255e-06,-0.15666725,0.074829556,-0.0029476124,0.017417554,-0.00897544,0.015427995,0.46067253,-1.3540441,1.8690032,-2.0827153,-1.5727662,2.4345381,-0.2500291,0.17008674,-0.21129288,0.05649924,-0.012356232,-0.2653222,-0.22984336,0.28730422,-9.423578,0.9545008,47.64389,-1.1305292,-2.2674308,-3.4155655,-0.28734025,-0.27719605,-0.10573071,28.5625,29.9375,28.9375,32.6875,35.1875,36.25
0.35605386,-0.77933985,-1.5944384,-1.8846699,-0.04260671,0.08288721,-0.16983278,-0.41703638,-0.35597673,0.060088757,-3.0767033,0.6225555,-3.3572804e-05,-0.1592351,0.073672615,-0.00092626864,0.013058339,-0.0021173875,0.0040001143,0.46016833,-1.3537089,1.8685507,-2.0825856,-1.5727414,2.4339545,-0.25057882,0.16900507,-0.21357009,0.051796943,-0.011506367,-0.25444573,-0.40222588,0.30645782,-9.423578,0.8605109,47.670765,-1.1385024,-2.2449093,-3.448277,-0.24457893,-0.27814355,-0.20620638,28.5625,29.9375,28.9375,32.6875,35.1875,36.25
0.35805398,-1.0873399,-1.3960981,-1.8631006,-0.05408972,0.09258269,-0.16336744,-0.41734588,-0.35583693,0.060079522,-3.0766666,0.6225737,-4.0450013e-05,-0.16129816,0.07291495,0.0004038773,0.010678086,0.002203756,-0.0067790165,0.45968834,-1.3533612,1.8681306,-2.0824907,-1.5727657,2.4334908,-0.25099173,0.16925682,-0.2164264,0.0494818,-0.0112949535,-0.24407887,-0.45968673,0.38307226,-9.423578,0.8224646,47.664497,-1.2305079,-2.1849873,-3.3862183,-0.2213698,-0.30566207,-0.35423493,28.5625,29.9375,28.9375,32.6875,35.1875,36.25
0.36005422,-1.024496,-0.977232,-1.8707587,-0.06073108,0.11415433,-0.17330515,-0.41768208,-0.35566124,0.06008506,-3.0765903,0.6226766,-1.6082369e-06,-0.1634872,0.07354738,0.00077091093,0.009619508,0.0036778944,-0.014631103,0.45914748,-1.353037,1.8676995,-2.082371,-1.5728253,2.4330242,-0.25388035,0.17070918,-0.21888413,0.048685677,-0.011003233,-0.23911518,-0.51714754,0.30645782,-9.404425,0.8918391,47.678825,-1.1770067,-2.2031398,-3.4287477,-0.18537614,-0.29143935,-0.46903455,28.5625,29.9375,28.9375,32.6875,35.1875,36.25
0.3620544,-0.8121726,-0.776941,-1.8530284,-0.04841742,0.120130286,-0.1899885,-0.4179909,-0.35551795,0.060062073,-3.076531,0.6227743,-5.4440967e-05,-0.16390575,0.07375534,0.00011127395,0.009868226,0.0013069867,-0.0070594633,0.45865503,-1.3526647,1.8672804,-2.0822747,-1.5728368,2.4326005,-0.25489303,0.17322548,-0.22086304,0.05035583,-0.010203473,-0.24770065,-0.49799395,0.22984336,-9.5385,0.94331104,47.709274,-1.1657383,-2.0651941,-3.4667466,-0.1840483,-0.3268326,-0.4444427,28.5625,29.9375,28.9375,32.6875,35.1875,36.25
0.3640537,-1.2697612,-0.60906535,-1.8975697,-0.04141696,0.1165518,-0.17652665,-0.41833872,-0.35538676,0.060077794,-3.076561,0.62269396,1.2576179e-06,-0.16456585,0.0728572,0.0014823797,0.008279268,0.0056982664,0.011422496,0.4581516,-1.3523058,1.8667897,-2.0821803,-1.5728496,2.4320433,-0.25340414,0.17155597,-0.22147109,0.047950853,-0.010747485,-0.26469254,-0.36391866,0.19153613,-9.595961,0.8940802,47.678825,-1.2157733,-2.1273606,-3.4419389,-0.1680433,-0.32174367,-0.31436563,28.5625,29.9375,28.9375,32.6875,35.1875,36.25
0.3660539,-1.084322,-0.32643446,-1.7608714,-0.038806934,0.12988167,-0.1827532,-0.41867995,-0.3552422,0.060086634,-3.0765908,0.6226565,4.1189192e-05,-0.16509686,0.07263941,0.0006218274,0.00842833,0.0055087963,0.020983703,0.45762375,-1.3519689,1.8663462,-2.0821083,-1.5728496,2.4314885,-0.25324953,0.17413217,-0.22234964,0.046464518,-0.01080793,-0.2740987,-0.51714754,0.095768064,-9.500193,0.8985519,47.67166,-1.3296306,-2.2044873,-3.3423095,-0.12481959,-0.3530211,-0.16916105,28.5625,29.9375,28.9375,32.6875,35.1875,36.25
0.36805433,-1.0030148,0.28367546,-1.7327013,-0.037803914,0.13605492,-0.1713348,-0.41900337,-0.3551124,0.060091954,-3.0766063,0.62256795,6.301517e-05,-0.16531205,0.072440386,0.00030803052,0.0094593605,0.0041807066,0.01768781,0.4571432,-1.3516204,1.8658913,-2.0820124,-1.5728616,2.4309509,-0.25271004,0.17634511,-0.22478957,0.04833975,-0.011138326,-0.27026144,-0.61291564,0.038307227,-9.595961,0.9455522,47.67614,-1.3813999,-2.1784227,-3.389482,-0.1148787,-0.3434463,-0.16572824,28.5625,29.9375,28.9375,32.6875,35.1875,36.25
0.37005383,-0.82536405,0.24362707,-1.784879,-0.005553917,0.1213092,-0.17146811,-0.4193548,-0.35494122,0.060093086,-3.0765605,0.62263805,0.00011847244,-0.16594218,0.0726816,-0.00017709308,0.01032304,0.0032019834,0.009019326,0.45659193,-1.3512719,1.8654484,-2.081928,-1.5729092,2.4304495,-0.25324088,0.17864326,-0.226725,0.049236648,-0.01146894,-0.26212204,-0.5554548,-0.095768064,-9.634268,0.9254084,47.699425,-1.4725957,-2.2648067,-3.4271555,-0.097839616,-0.35334456,-0.2822183,28.5625,29.9375,28.9375,32.6875,35.1875,36.25
0.37205434,-0.057423137,0.61610353,-1.6551393,-0.0076134214,0.12291906,-0.1714847,-0.41968536,-0.35480714,0.060085103,-3.0765777,0.62247336,0.000112523856,-0.16848418,0.073259465,0.0006946567,0.009123926,0.0054539097,0.00051430304,0.45609897,-1.350888,1.8649806,-2.0818326,-1.5729212,2.4298518,-0.25618288,0.17975532,-0.23003261,0.04888588,-0.011387462,-0.25655794,-0.5363012,-0.095768064,-9.442732,0.95897776,47.68062,-1.4627376,-2.251238,-3.4051423,-0.075665124,-0.3688038,-0.3529088,28.5625,29.9375,28.9375,32.6875,35.1875,36.25
