Tylouw/Master_Thesis_Code/training_data/batch_1/rect_rod_t0.3/sample_21_session_1.csv
timestamp[s],tcp_force_x[N],tcp_force_y[N],tcp_force_z[N],tcp_force_rx[Nm?],tcp_force_ry[Nm?],tcp_force_rz[Nm?],tcp_pose_x[m],tcp_pose_y[m],tcp_pose_z[m],tcp_pose_rx[rot_vec_x],tcp_pose_ry[rot_vec_y],tcp_pose_rz[rot_vec_z],tcp_velo_x[m/s],tcp_velo_y[m/s],tcp_velo_z[m/s],tcp_velo_rx[rot_vec_x/s],tcp_velo_ry[rot_vec_y/s],tcp_velo_rz[rot_vec_z/s],q1[rad],q2[rad],q3[rad],q4[rad],q5[rad],q6[rad],qd1[rad/s],qd2[rad/s],qd3[rad/s],qd4[rad/s],qd5[rad/s],qd6[rad/s],tool_acc_x,tool_acc_y,tool_acc_z,current_of_whole_robot[A],voltage_of_whole_robot[V],current_J1[A],current_J2[A],current_J3[A],current_J4[A],current_J5[A],current_J6[A],temp_J1[C],temp_J2[C],temp_J3[C],temp_J4[C],temp_J5[C],temp_J6[C]
7.280032e-07,-0.8559511,-0.6056767,0.70838946,-0.0027572282,-0.026009683,0.008149707,-0.3893335,-0.3687199,0.06001705,-3.0786982,0.6249078,0.00020447296,0.00087556435,0.00048509182,-0.0010316464,0.0013374566,-0.0026999207,1.4023432e-05,0.5050448,-1.3816556,1.9041876,-2.0918796,-1.5708655,2.4800253,-8.538109e-05,0.0008312789,0.0011266179,0.0010515422,0.00014078041,-0.00010004931,0.11492168,0.1340753,-8.6574335,0.8090337,47.686886,-0.12317181,-3.1480613,-2.3894908,-0.18921152,0.19439921,0.036259413,28.25,29.6875,28.6875,32.5,34.9375,36.0625
0.002052131,-0.87035966,-0.78870827,0.8677251,-0.0012286524,-0.020178974,0.004026004,-0.38933593,-0.368723,0.060007527,-3.0787263,0.6249518,0.00021327639,-0.0012668604,-0.00070583256,-0.0014050637,-0.0023358716,0.0039079734,1.0784124e-05,0.5050329,-1.3816552,1.9042233,-2.0919435,-1.5708417,2.4800372,-8.405212e-05,0.0022295886,0.0027171923,-0.009497593,0.00013720385,-9.477935e-05,0.076614454,0.19153613,-8.676587,0.7150385,47.698532,-0.1356254,-3.0293543,-2.317493,-0.16209677,0.1978899,0.017639004,28.25,29.6875,28.6875,32.5,34.9375,36.0625
0.00405183,-1.060126,-0.4713384,0.7582584,-0.015601414,-0.01803615,0.0035022933,-0.3893283,-0.36870447,0.05998323,-3.0786877,0.6249443,0.00014103191,-0.0018714265,-0.0010468947,-0.0012327279,-0.0032231836,0.0055104014,1.6741382e-05,0.5050088,-1.381631,1.9042472,-2.091931,-1.5708417,2.4800134,-7.368227e-05,0.0024609766,0.0024615133,-0.011304983,0.00013380348,-9.0036774e-05,0.095768064,0.19153613,-8.561666,0.7083204,47.70032,-0.19345349,-3.3722124,-2.5828042,-0.03461723,0.18128008,0.036214005,28.25,29.6875,28.6875,32.5,34.9375,36.0625
0.0060520163,0.043945305,-0.19145212,0.7451927,-0.009290003,-0.004055543,-0.0047040344,-0.3893473,-0.3687035,0.059997026,-3.0787044,0.6249668,0.000208303,-0.00070035324,-0.00039789974,-0.0011158601,-0.0011685943,0.0018241378,1.7798528e-05,0.5049969,-1.3816432,1.9042352,-2.091953,-1.5708536,2.4800134,-6.799209e-05,0.0018595561,0.001622274,-0.0056441473,0.00013056824,-8.574638e-05,0.0,0.19153613,-8.580819,0.76874626,47.693153,-0.11708622,-3.3051658,-2.5262275,-0.07714483,0.18523565,0.008467532,28.25,29.6875,28.6875,32.5,34.9375,36.0625
0.00805193,0.5711687,0.55811876,0.36714646,0.024686996,-0.018444473,-0.0015417902,-0.38933116,-0.36872575,0.059996363,-3.07871,0.6248909,0.00021937069,0.000104744075,5.0786683e-05,-0.00032480698,-0.00019558416,8.897779e-05,4.992911e-05,0.50505686,-1.3816319,1.9042228,-2.0919511,-1.5708655,2.4800253,-6.6919565e-05,3.4074445e-05,0.0009643914,-0.0011714579,0.00012748556,-0.00011729653,-0.05746084,0.19153613,-8.810662,0.7530795,47.684196,-0.18298092,-3.194942,-2.490423,-0.11059861,0.19201216,0.02731387,28.25,29.6875,28.6875,32.5,34.9375,36.0625
0.010051869,-0.3180411,0.78986686,-0.25179255,0.035674024,-0.039291408,0.0031026297,-0.38932285,-0.36869258,0.059976414,-3.0786684,0.6249404,0.00016260875,0.0002311007,0.00012095427,-0.00024224087,0.00011670113,-0.0004981467,4.2018608e-05,0.5050088,-1.3816439,1.9042825,-2.0919511,-1.5708655,2.4800134,-7.462106e-05,4.5715217e-07,0.0005679233,-7.648783e-05,0.00013993644,-0.000117071344,-0.019153614,0.17238252,-9.021352,0.7329411,47.674347,-0.7181146,-2.8409536,-2.9050584,-0.1276872,0.17029744,-0.061596006,28.25,29.6875,28.6875,32.5,34.9375,36.0625
0.012051754,-0.6494899,-0.2770539,-0.1944839,0.013998156,-0.03026713,0.0010072383,-0.38932234,-0.36871368,0.05997399,-3.07866,0.62490016,0.00013260815,0.0008152783,0.00053185876,-0.0011914868,0.0023373372,-0.00440385,8.3806815e-05,0.50504476,-1.381595,1.9042219,-2.0919144,-1.5708655,2.4800253,-0.00019106746,0.0022022682,-0.00067453965,0.0034568498,9.1848e-05,-0.00027475317,0.11492168,0.05746084,-9.212888,0.7978386,47.691364,-0.8348204,-2.7210774,-2.9151764,-0.15675133,0.18133548,-0.12519771,28.25,29.6875,28.6875,32.5,34.9375,36.0625
0.014052571,-1.2985053,-1.2157735,-0.48003602,-0.008369792,-0.014713317,-0.0028925065,-0.3893021,-0.36868748,0.059953973,-3.0786304,0.6248926,1.8908337e-05,-0.003773475,0.004937929,-0.0047331755,0.005299549,-0.009755146,-0.0008048248,0.50500476,-1.3816041,1.90427,-2.0918787,-1.5708417,2.4799843,-0.011897436,0.010799991,-0.0026587946,0.0029582914,8.1531056e-05,-0.011090248,0.038307227,0.019153614,-9.385271,0.74413085,47.64927,-0.4328427,-3.2402904,-3.0615396,-0.11544816,0.1563882,-0.09983699,28.25,29.6875,28.6875,32.5,34.9375,36.0625
0.016052479,-1.6243163,-1.0925186,-0.37043333,-0.042866983,0.0134773785,-0.017832173,-0.38932127,-0.3687078,0.059959386,-3.0786538,0.62485516,7.591665e-05,-0.0051683295,0.0047657206,-0.0035972681,0.003752864,-0.0069606476,0.006766939,0.5050284,-1.3815682,1.9042209,-2.091903,-1.5708536,2.4799817,-0.012909186,0.010067192,-0.0041605565,0.0019973938,7.761156e-05,-0.019673152,-0.1340753,0.076614454,-9.442732,0.7083204,47.62061,-0.4236612,-3.2247407,-3.0015166,-0.104960844,0.17291501,-0.017858617,28.25,29.6875,28.6875,32.5,34.9375,36.0625
0.018052384,-1.9064564,-1.0830388,-0.42178345,-0.0459106,0.044835433,-0.03542544,-0.38934523,-0.36867407,0.059952404,-3.0786304,0.6248496,6.050717e-05,-0.005313493,0.004303583,-0.00217467,0.0023904725,-0.004493563,0.01012481,0.50495666,-1.3815571,1.9042209,-2.091891,-1.5708655,2.4799094,-0.012263633,0.007620069,-0.004499043,0.001964057,7.437758e-05,-0.022385715,-0.30645782,0.15322891,-9.500193,0.7866488,47.670765,-0.64708006,-2.9237938,-3.1339664,-0.1053251,0.180469,-0.0136742145,28.25,29.6875,28.6875,32.5,34.9375,36.0625
0.020052219,-2.4237726,-0.6249966,-0.6505397,-0.0072849747,0.04687442,-0.05138644,-0.3893521,-0.36867225,0.059938483,-3.0786278,0.6248691,5.2138835e-06,-0.00527095,0.0052362857,-0.0027722178,0.003626825,-0.0067529166,0.008266472,0.5049323,-1.3815207,1.9042095,-2.09189,-1.5708417,2.4798975,-0.013802689,0.008347121,-0.0043937447,0.0037077279,8.8903515e-05,-0.022066569,-0.4405331,0.076614454,-9.481039,0.6769922,47.6421,-0.84273994,-2.857789,-3.2773843,-0.08606386,0.16559318,-0.031558614,28.25,29.6875,28.6875,32.5,34.9375,36.0625
0.022052208,-1.5957264,0.21215731,-0.77945286,0.02502856,0.05816861,-0.08487682,-0.38934392,-0.36868778,0.05995124,-3.0786645,0.6248213,-3.3430326e-05,-0.0061603007,0.0062967753,-0.0037462872,0.0052039563,-0.009630121,0.0038996513,0.50494343,-1.3815318,1.9041852,-2.0918534,-1.5708054,2.4798741,-0.016429203,0.011259107,-0.006084702,0.005768728,0.00010185548,-0.020325346,-0.45968673,0.1340753,-9.653421,0.7709874,47.65643,-0.82014906,-2.909135,-3.370307,-0.10709421,0.16139548,-0.045755707,28.25,29.6875,28.6875,32.5,34.9375,36.0625
0.024052007,-2.0880613,0.19579092,-0.78256553,0.02751541,0.04138664,-0.09248675,-0.38935518,-0.3686446,0.059913084,-3.0785587,0.624898,-0.0001087352,-0.007907333,0.0064667943,-0.002865877,0.0042620813,-0.007934981,-0.00015111765,0.5048828,-1.3814716,1.9041957,-2.09183,-1.5708417,2.4798748,-0.018348506,0.01161498,-0.008545988,0.0059344983,9.917982e-05,-0.018192839,-0.49799395,0.019153614,-9.653421,0.79560274,47.678825,-0.7532994,-2.8469968,-3.3540287,-0.112924874,0.15391563,-0.06852037,28.25,29.6875,28.6875,32.5,34.9375,36.0625
0.026052514,-2.2556424,-0.21502464,-0.9666083,0.022400577,0.03372143,-0.10418004,-0.38936108,-0.36863363,0.059902735,-3.0785587,0.62485963,-0.00012317144,-0.009099935,0.0058405907,-0.0025176508,0.0034200295,-0.006419324,-0.00097489584,0.50485885,-1.3814591,1.9042071,-2.091842,-1.5708417,2.479827,-0.01840909,0.013071834,-0.0108613,0.0050592204,9.573219e-05,-0.017428368,-0.7469909,-0.038307227,-9.672575,0.7463667,47.70211,-0.8202579,-2.8618765,-3.3009553,-0.1034822,0.16816449,-0.092069484,28.25,29.6875,28.6875,32.5,34.9375,36.0625
0.028052397,-2.6351209,-0.22301108,-1.0047878,-0.001572124,0.046512235,-0.114142746,-0.3893454,-0.36862838,0.059862252,-3.0785067,0.62486863,-0.00033031986,-0.009770902,0.0059615397,-0.0026940233,0.0033605285,-0.006315121,-0.0022070692,0.50483453,-1.3813747,1.9041833,-2.0917704,-1.5707935,2.4798148,-0.019239321,0.01412284,-0.011605465,0.004633286,9.245833e-05,-0.017025918,-0.80445176,-0.019153614,-9.749189,0.80679786,47.739727,-0.8819085,-2.8123353,-3.3779054,-0.085086085,0.15521273,-0.13880685,28.25,29.6875,28.6875,32.5,34.9375,36.0625
0.030052228,-2.6161568,-0.6017053,-1.0126206,-0.01574948,0.07120427,-0.13280615,-0.38937575,-0.36859697,0.059849817,-3.0784523,0.6248197,-0.00027211607,-0.010609028,0.0062703607,-0.0029198132,0.0040121228,-0.007491375,-0.0033050715,0.50479823,-1.381338,1.9041709,-2.0917819,-1.5708655,2.479755,-0.02054183,0.016062194,-0.013729878,0.006161772,8.939694e-05,-0.017229404,-0.7661445,0.076614454,-9.787497,0.7933669,47.72719,-0.9439259,-2.8909588,-3.3582268,-0.09405937,0.14970604,-0.14665124,28.25,29.6875,28.6875,32.5,34.9375,36.0625
0.032052122,-2.3708386,-0.8827444,-0.9664443,-0.007517137,0.08573942,-0.13994464,-0.3894139,-0.36860117,0.05987059,-3.0784965,0.62480885,-0.00022575013,-0.010831009,0.006568987,-0.0026232654,0.004242481,-0.007898234,-0.0034000275,0.5047622,-1.3813261,1.9041094,-2.0917814,-1.5708536,2.4797065,-0.021248516,0.015866054,-0.014498115,0.0075937966,8.653131e-05,-0.017840993,-0.7661445,-0.05746084,-9.80665,0.72622824,47.711964,-0.9105058,-2.7955518,-3.3008666,-0.09936972,0.12990774,-0.1512866,28.25,29.6875,28.6875,32.5,34.9375,36.0625
0.034051795,-2.6927423,-0.44890818,-1.0232778,-0.0012877804,0.07472489,-0.15887652,-0.38942,-0.36859637,0.059855424,-3.0785031,0.62479186,-0.00030762423,-0.011433192,0.0068119103,-0.0028682968,0.0045702863,-0.008491596,-0.0032321182,0.50472575,-1.3812896,1.9040979,-2.091769,-1.5708174,2.4796586,-0.022219304,0.017164236,-0.01557925,0.00805516,8.38441e-05,-0.01897909,-0.8810662,-0.05746084,-9.844957,0.76874626,47.694946,-0.9696001,-2.855492,-3.3487163,-0.10451625,0.12920313,-0.17536068,28.25,29.6875,28.6875,32.5,34.9375,36.0625
0.036051925,-2.6988869,-0.2612614,-0.98262095,0.0069437316,0.05526675,-0.1618441,-0.38946167,-0.36857894,0.05985254,-3.0784495,0.6249338,-0.00032255505,-0.012757548,0.007569152,-0.0021881945,0.003692103,-0.0069045792,-0.0036647709,0.50466514,-1.3812299,1.9040259,-2.0917337,-1.5708297,2.4796934,-0.024728023,0.01625908,-0.015932394,0.007499172,8.131864e-05,-0.021055095,-0.6512228,-0.019153614,-9.768343,0.7933669,47.691364,-0.94657904,-2.7678618,-3.4053283,-0.085755825,0.11061481,-0.16848919,28.25,29.6875,28.6875,32.5,34.9375,36.0625
0.038051903,-2.08105,-0.3178373,-1.1003995,0.020496713,0.040813874,-0.17864299,-0.3894828,-0.36855727,0.05985876,-3.078452,0.624915,-0.0002959807,-0.014277258,0.008020185,-0.002087454,0.0034382166,-0.006228611,-0.0037865106,0.5046164,-1.3812414,1.9040254,-2.0917337,-1.5708417,2.4796326,-0.026839381,0.017511077,-0.01756544,0.0071656182,-2.8455863e-05,-0.023043608,-0.49799395,-0.038307227,-9.787497,0.7978386,47.716442,-0.88450205,-2.7705388,-3.3465786,-0.092455044,0.10950725,-0.19640857,28.25,29.6875,28.6875,32.5,34.9375,36.0625
0.040051773,-1.8627189,-0.58966416,-1.0566381,0.019279206,0.027314972,-0.19426142,-0.3895106,-0.36853436,0.059843108,-3.0784192,0.6250047,-0.0003514232,-0.015070189,0.008157319,-0.0015737315,0.0028595559,-0.005123893,-0.004341197,0.5045443,-1.3811934,1.9040016,-2.0917218,-1.5708297,2.4796207,-0.027790414,0.017234933,-0.018371852,0.0070017143,-5.957726e-05,-0.023439594,-0.5554548,0.05746084,-9.768343,0.78217715,47.70838,-0.8440066,-2.7651489,-3.4113193,-0.0895055,0.12274569,-0.20072895,28.25,29.6875,28.6875,32.5,34.9375,36.0625
0.042051665,-2.2976816,-0.8127178,-1.048769,0.007976475,0.0037489058,-0.1970481,-0.38954115,-0.36853957,0.059851825,-3.0784223,0.6249482,-0.00033823706,-0.016385239,0.008068551,-0.00091457134,0.0019522113,-0.0034954431,-0.004319596,0.504532,-1.3811452,1.9039167,-2.091686,-1.5708417,2.4795728,-0.02886986,0.01760494,-0.020223387,0.0066186367,-5.790238e-05,-0.02453979,-0.4213795,0.0,-9.691729,0.8112748,47.71286,-0.92880833,-2.7016506,-3.3344202,-0.096393436,0.13477662,-0.23207393,28.25,29.6875,28.6875,32.5,34.9375,36.0625
0.044051677,-1.4198905,-0.80679834,-0.95974433,0.0035797555,0.030196726,-0.20919737,-0.38959455,-0.3685092,0.059843585,-3.07842,0.6250035,-0.00035145468,-0.01766657,0.008393476,-0.00070443423,0.0016378704,-0.0029431889,-0.0035945754,0.5044235,-1.3810968,1.903881,-2.091698,-1.5708297,2.479499,-0.030613702,0.018556383,-0.021831833,0.00664019,-5.453376e-05,-0.027007854,-0.24899697,0.076614454,-9.691729,0.7284641,47.674347,-0.8631756,-2.705621,-3.2793694,-0.07201523,0.10997754,-0.22859333,28.25,29.6875,28.6875,32.5,34.9375,36.0625
0.04605197,-1.328419,-0.5606282,-0.88201183,-0.011513142,0.019662872,-0.19897698,-0.38964683,-0.36849067,0.05986026,-3.0784187,0.62504095,-0.00031088415,-0.01857973,0.00935173,-0.0005612182,0.001759313,-0.0031694719,-0.0033825473,0.50435084,-1.381073,1.9038094,-2.091674,-1.5708417,2.47945,-0.03307829,0.018540185,-0.022308834,0.0073894598,-5.1425897e-05,-0.029684365,-0.095768064,0.095768064,-9.653421,0.7665104,47.701214,-0.8354425,-2.7005014,-3.351457,-0.054649178,0.116204076,-0.2356455,28.25,29.6875,28.6875,32.5,34.9375,36.0625
0.048051983,-1.5263394,-1.1060076,-0.9535276,0.000898024,-0.0013352017,-0.17022112,-0.38966656,-0.36847293,0.059847634,-3.0783882,0.62503415,-0.0003687444,-0.019651301,0.009571476,-0.00020552611,0.0014301526,-0.0025899895,-0.002124569,0.50430256,-1.3810246,1.9037727,-2.0916374,-1.5708417,2.4794014,-0.034450162,0.019112762,-0.023868447,0.007709704,-4.8645546e-05,-0.032313526,-0.1340753,0.076614454,-9.615114,0.7777002,47.694054,-0.811404,-2.6890051,-3.310379,-0.061660565,0.10433008,-0.23928788,28.25,29.6875,28.6875,32.5,34.9375,36.0625
0.05005214,-1.2055186,-1.030942,-0.8721126,0.0016441176,-0.0059032138,-0.17453454,-0.38971832,-0.36845592,0.059850514,-3.0784242,0.62506026,-0.00032344135,-0.02090715,0.010042261,-2.0580945e-05,0.0012751463,-0.0022483557,-0.0018780248,0.5042181,-1.3810004,1.9037484,-2.0916855,-1.5708297,2.4793286,-0.036392666,0.019988645,-0.025385797,0.007977375,-8.019746e-05,-0.034501787,-0.038307227,0.15322891,-9.595961,0.8090337,47.723602,-0.82279,-2.7248487,-3.2455878,-0.057610832,0.099944636,-0.22978719,28.25,29.6875,28.6875,32.5,34.9375,36.0625
0.052052006,-0.99472415,-0.57261693,-0.8571027,-0.008510446,-0.008221455,-0.18008628,-0.38976958,-0.36843672,0.059870344,-3.0784154,0.6250982,-0.0002967108,-0.022479638,0.01076165,0.00049100164,0.0006118862,-0.0010389076,-0.0033097854,0.5041453,-1.3809763,1.903664,-2.0916374,-1.5708417,2.4792807,-0.03906391,0.02000779,-0.026511017,0.0077035083,-8.700673e-05,-0.035740767,0.038307227,0.15322891,-9.557653,0.7709874,47.72808,-0.74261105,-2.6136947,-3.274372,-0.06475587,0.08598526,-0.2515579,28.25,29.625,28.6875,32.5,34.9375,36.0625
0.054051947,-0.13772848,-0.5799804,-0.8758718,-0.008321345,0.0058766785,-0.18684313,-0.38980746,-0.36840338,0.05985215,-3.0783887,0.6251101,-0.00031220412,-0.02271064,0.010818139,0.00038549374,0.0008219167,-0.0013669177,-0.0020009961,0.5040613,-1.380928,1.9036511,-2.0916498,-1.5708536,2.4792075,-0.03935517,0.020658951,-0.027119894,0.0080493,-0.0001145673,-0.03734045,0.11492168,0.15322891,-9.519346,0.83365434,47.699425,-0.7794535,-2.6420588,-3.2637343,-0.06649276,0.08627653,-0.24798109,28.25,29.625,28.6875,32.5,34.9375,36.0625
0.05605224,-0.78260773,-0.7776169,-0.802518,-0.0131383,-0.009058082,-0.1706037,-0.38984516,-0.36837903,0.05984812,-3.0783775,0.62508756,-0.00036989065,-0.022627883,0.010968534,-3.7207097e-05,0.0015440255,-0.0026686334,-0.00080643775,0.5039776,-1.3808796,1.903592,-2.0916011,-1.5708417,2.4791112,-0.039525725,0.021682698,-0.027577946,0.008972452,-0.000119269316,-0.0387053,-0.019153614,0.17238252,-9.404425,0.7933669,47.705692,-0.8387461,-2.6540608,-3.350725,-0.06482849,0.09527111,-0.2813798,28.25,29.625,28.6875,32.5,34.9375,36.0625
0.058052246,-1.0100404,-0.82142305,-0.676245,-0.004269705,-0.008211002,-0.17313576,-0.3899027,-0.36836055,0.05983293,-3.078377,0.62508816,-0.00037107695,-0.024455506,0.011533852,0.0004620636,0.0008494698,-0.0014295065,-0.001986016,0.5038927,-1.3807954,1.9035324,-2.091625,-1.5708417,2.4790268,-0.042181578,0.02234076,-0.029446375,0.008762111,-0.000114833994,-0.040180698,-0.038307227,0.17238252,-9.461885,0.7620334,47.699425,-0.76578426,-2.5778115,-3.2626214,-0.04837275,0.086609125,-0.2829007,28.25,29.625,28.6875,32.5,34.9375,36.0625
0.06005223,-0.907846,-0.7949861,-0.5902128,0.0069177533,-0.0017045585,-0.16883564,-0.38995323,-0.3683296,0.059860557,-3.0783718,0.6251835,-0.00028783118,-0.025490653,0.011905105,0.0010388677,0.0006198185,-0.0009510318,-0.0026539767,0.50380844,-1.3808193,1.9034952,-2.091613,-1.5708655,2.4790027,-0.043750104,0.02243779,-0.031107223,0.009795031,-0.00014441853,-0.041080628,0.05746084,0.13407528,-9.500193,0.7463667,47.689575,-0.80566424,-2.5719848,-3.2333555,-0.060503248,0.072730534,-0.29238936,28.25,29.625,28.6875,32.5,34.9375,36.0625
0.06205221,-1.2021953,-0.8651642,-0.6939939,0.007401337,-0.005932524,-0.16717096,-0.39002657,-0.3683363,0.059878275,-3.0784082,0.6251312,-0.00029926025,-0.026343292,0.0120937405,0.001411848,0.00031005312,-0.00040085628,-0.0017414482,0.50373626,-1.3807231,1.9033273,-2.0915525,-1.5708417,2.4788933,-0.044858262,0.02270698,-0.03235488,0.0101428125,-0.00014099649,-0.04310081,0.0,0.19153613,-9.500193,0.7642693,47.698532,-0.7397216,-2.585772,-3.2450247,-0.05011356,0.077552736,-0.3157242,28.25,29.625,28.6875,32.5,34.9375,36.0625
0.06405215,-1.4096258,-0.8578327,-0.5425892,0.002789681,-0.0037835112,-0.16543391,-0.3900994,-0.36828938,0.05988438,-3.0783832,0.62520117,-0.0002615586,-0.026768524,0.012571264,0.001072672,0.0009593075,-0.001288378,0.00013706702,0.50360423,-1.3806868,1.9032677,-2.0915406,-1.5708655,2.4788082,-0.045965016,0.023748672,-0.03296401,0.010799884,-0.00028179277,-0.04608548,-0.076614454,0.17238252,-9.423578,0.80679786,47.694946,-0.8176993,-2.607103,-3.2962115,-0.063458964,0.060506932,-0.31998003,28.25,29.625,28.6875,32.5,34.9375,36.0625
0.06605201,-1.0470163,-0.54303753,-0.5493509,0.00063289475,0.018037077,-0.17308608,-0.3901309,-0.3682655,0.059883095,-3.078404,0.62518716,-0.00028718947,-0.027428826,0.013027936,0.00094625325,0.0014911654,-0.0021991115,-0.00073811284,0.5035198,-1.3806742,1.9032558,-2.09154,-1.5708417,2.4787123,-0.047330294,0.024893826,-0.034316543,0.012062701,-0.00030856623,-0.046574928,-0.17238252,0.11492168,-9.385271,0.784413,47.68062,-0.773908,-2.5630398,-3.2875261,-0.051637996,0.07054813,-0.33564037,28.25,29.625,28.6875,32.5,34.9375,36.0625
0.06805401,-1.2651181,-0.44107947,-0.57925206,0.0017130639,0.025225729,-0.17480236,-0.39017525,-0.36824906,0.059889186,-3.0784185,0.6251318,-0.00034018184,-0.02824237,0.013349146,0.0010568929,0.0014837027,-0.002123166,-0.0006974408,0.50343555,-1.3806261,1.9031714,-2.0914805,-1.5708174,2.4785917,-0.048604388,0.025553828,-0.03543862,0.012455728,-0.00034202452,-0.047889106,-0.22984336,0.1340753,-9.423578,0.8023209,47.686886,-0.80808413,-2.5798345,-3.2380528,-0.08020712,0.050683163,-0.34603006,28.25,29.625,28.6875,32.5,34.9375,36.0625
0.07005264,-1.911521,-0.8353952,-0.39168882,0.0109067615,0.023314275,-0.15840608,-0.39025477,-0.3682244,0.059917305,-3.0784512,0.62511706,-0.00025689512,-0.028914241,0.013629313,0.00101397,0.0014386598,-0.0020701876,0.0015765406,0.50332767,-1.3806018,1.903076,-2.0914686,-1.5708297,2.4784706,-0.049703345,0.026233552,-0.03613246,0.012400592,-0.00032830896,-0.051261693,-0.24899697,0.076614454,-9.3661175,0.7016076,47.65912,-0.84507465,-2.542201,-3.2537537,-0.079019204,0.046412807,-0.35306525,28.25,29.625,28.6875,32.5,34.9375,36.0625
0.072052814,-2.0628374,-0.45935646,-0.34525543,0.0077245464,0.029492302,-0.16959308,-0.39030507,-0.36818394,0.05989398,-3.0783823,0.62512153,-0.00026459896,-0.030870823,0.0145529285,0.0014140782,0.00089254574,-0.0010408418,0.003009164,0.5032424,-1.3805176,1.9030269,-2.0914567,-1.5708774,2.478397,-0.05306092,0.026832433,-0.037710343,0.012211252,-0.00035460992,-0.056051075,-0.28730422,0.019153614,-9.308656,0.7642693,47.66987,-0.7919967,-2.468972,-3.238703,-0.08302052,0.04837636,-0.33666468,28.25,29.625,28.6875,32.5,34.9375,36.0625
0.07405181,-1.4039962,-0.095257595,-0.3537011,0.007830375,0.053635154,-0.17806639,-0.39035028,-0.36815244,0.05989648,-3.078386,0.62502265,-0.00029455035,-0.030823413,0.01371337,0.0014867332,0.0006402368,-0.00057179714,0.007208537,0.5031472,-1.3804812,1.9029673,-2.0914085,-1.5708774,2.4782395,-0.05159277,0.027649537,-0.038778793,0.01192954,-0.0003653387,-0.05878168,-0.4405331,0.095768064,-9.308656,0.7486078,47.68062,-0.7964106,-2.542087,-3.201364,-0.07295866,0.041483395,-0.29820198,28.25,29.625,28.6875,32.5,34.9375,36.0625
0.07605237,-1.7357912,-0.1404094,-0.30606952,0.009678604,0.052769136,-0.16883191,-0.39042154,-0.36815223,0.0599216,-3.078459,0.62499964,-0.00028698542,-0.031583935,0.014500705,0.0014427494,0.0009909176,-0.0011959673,0.0070784455,0.5030506,-1.3804331,1.9028476,-2.0913842,-1.5708297,2.4781194,-0.05361569,0.028154584,-0.039485257,0.012849416,-0.0003690395,-0.060674246,-0.53630114,0.095768064,-9.346964,0.8157518,47.691364,-0.88659453,-2.4868662,-3.2232752,-0.08696383,0.032089993,-0.30438614,28.25,29.625,28.6875,32.5,34.9375,36.0625
0.07805241,-1.9147035,-0.31282514,-0.6618428,0.010228359,0.04618456,-0.16928324,-0.39048105,-0.36812103,0.05990415,-3.0784407,0.62501156,-0.00031628617,-0.032436576,0.014894943,0.001460309,0.0010154943,-0.0010370214,0.010183071,0.5029426,-1.3803487,1.9027876,-2.0913842,-1.5708297,2.4780211,-0.055002704,0.028863996,-0.040379353,0.012906438,-0.0004723352,-0.06516522,-0.5363012,0.0,-9.346964,0.80456203,47.711964,-0.8443447,-2.4806612,-3.2778778,-0.09464793,0.0080090035,-0.2773814,28.25,29.625,28.6875,32.5,34.9375,36.0625
0.08005239,-1.0881162,0.42192823,-0.2937113,-0.0010523935,0.056178425,-0.18829173,-0.390542,-0.36809182,0.059902668,-3.0784545,0.6249181,-0.0003846619,-0.034271326,0.016083727,0.0014305091,0.0012072717,-0.001121371,0.010971244,0.5028215,-1.3802762,1.9026917,-2.0913246,-1.5708054,2.47784,-0.058621578,0.030186841,-0.041978303,0.013350423,-0.00060653547,-0.06957119,-0.59376204,0.0,-9.346964,0.8314132,47.71554,-0.7789431,-2.5050175,-3.2547784,-0.08789551,0.019384634,-0.2181029,28.25,29.625,28.6875,32.5,34.9375,36.0625
0.08205172,-2.2307618,0.17077674,-0.559844,0.0015355599,0.02707337,-0.17477992,-0.3905996,-0.36803696,0.059882056,-3.078415,0.6249049,-0.00040301587,-0.033757407,0.015200061,0.0014937794,0.0012433027,-0.001095823,0.016974906,0.5026907,-1.3802159,1.9026674,-2.0913246,-1.5708297,2.477706,-0.056619156,0.030639695,-0.04272456,0.0136366915,-0.00065587065,-0.07357197,-0.47884035,-0.038307227,-9.423578,0.8023209,47.672558,-0.81405276,-2.5012264,-3.255037,-0.09540929,0.017744217,-0.19110307,28.25,29.625,28.6875,32.5,34.9375,36.0625
0.084051654,-1.8431894,-0.27807412,-0.50407594,0.010474667,0.036995824,-0.16330197,-0.3906891,-0.36802197,0.059911147,-3.0784411,0.62485254,-0.00037527835,-0.034748826,0.015774375,0.001239705,0.0015991672,-0.0016822201,0.018172076,0.5025821,-1.3801435,1.9024991,-2.091252,-1.5708297,2.4775615,-0.058479346,0.03209518,-0.04397903,0.0141206365,-0.00068662374,-0.0766286,-0.49799395,0.0,-9.32781,0.7597976,47.677036,-0.9224591,-2.464122,-3.2343502,-0.10414703,-0.0041234004,-0.15254417,28.25,29.625,28.6875,32.5,34.9375,36.0625
0.08605232,-0.7892065,0.36528093,-0.4607071,-0.0028631361,0.06591293,-0.18828307,-0.39074382,-0.36798322,0.05989957,-3.0784316,0.62477213,-0.0003922245,-0.03530727,0.016797174,0.0008915392,0.0024681857,-0.002354652,0.018672446,0.50247365,-1.3800832,1.9024514,-2.0912402,-1.5708421,2.477404,-0.060440034,0.03253921,-0.043801084,0.014506739,-0.0011263313,-0.079088844,-0.45968673,0.0,-9.32781,0.7486078,47.70659,-0.87055767,-2.5037072,-3.185934,-0.120987475,0.0011328743,-0.12001863,28.25,29.625,28.6875,32.5,34.9375,36.0625
0.08805225,-1.6292292,-0.023948016,-0.5337915,0.0061529945,0.038361836,-0.17019789,-0.3908334,-0.3679598,0.05992618,-3.0784512,0.62469864,-0.00032655784,-0.03590325,0.016839266,0.0006118496,0.0025727006,-0.002491413,0.019138426,0.5023657,-1.3800225,1.9023083,-2.0911925,-1.570866,2.477248,-0.061038725,0.03390107,-0.04471318,0.014225098,-0.0011527666,-0.08015289,-0.3256114,0.038307227,-9.385271,0.80679786,47.709274,-0.9530709,-2.5584145,-3.2750616,-0.1197575,0.006622599,-0.07041249,28.25,29.625,28.6875,32.5,34.9375,36.0625
0.09005216,-1.4657133,-0.88612646,-0.50936735,0.011549456,0.03894674,-0.16347492,-0.39089796,-0.3679143,0.059915196,-3.0784528,0.6246601,-0.00036712494,-0.03762927,0.016448775,0.001649773,0.0013195962,-0.00037869543,0.018074235,0.50222164,-1.3799622,1.9022592,-2.09118,-1.5708541,2.4770796,-0.062023643,0.034590326,-0.047902767,0.014270936,-0.0010806043,-0.080072336,-0.24899697,0.019153614,-9.385271,0.7016076,47.70211,-0.9740336,-2.5569386,-3.177725,-0.14645539,-0.008897809,-0.066630706,28.25,29.625,28.6875,32.5,34.9375,36.0625
0.09205211,-1.118242,-0.2889043,-0.47317564,-0.005645725,0.033896167,-0.16454937,-0.3909989,-0.36787748,0.059921794,-3.0784826,0.62466675,-0.00031110927,-0.03732782,0.016996829,0.0007194309,0.0020001947,-0.0017613866,0.01727443,0.5020658,-1.3798901,1.9021643,-2.0912044,-1.5708541,2.4769242,-0.06269906,0.035307903,-0.046506777,0.013696572,-0.0010064427,-0.07994853,-0.2681506,0.0,-9.32781,0.82022345,47.709274,-0.95274335,-2.553112,-3.1897597,-0.13764235,-0.015097288,-0.057392664,28.25,29.625,28.6875,32.5,34.9375,36.0625
0.094051875,-1.8068223,-0.68004036,-0.733791,0.005477316,0.009190088,-0.15863036,-0.39106688,-0.36783487,0.05991175,-3.0784416,0.62458175,-0.00035949462,-0.037974007,0.017393073,9.7524746e-05,0.0026345914,-0.002548313,0.015049818,0.5019457,-1.3797934,1.9020566,-2.0911329,-1.5708779,2.4767563,-0.06384449,0.037139203,-0.04723674,0.013589179,-0.0011904566,-0.078868344,-0.24899697,0.019153614,-9.385271,0.77545905,47.72719,-1.027458,-2.5425897,-3.3660364,-0.1319632,-0.020763304,-0.08182277,28.25,29.625,28.6875,32.5,34.9375,36.0625
0.09605209,-1.3698388,-0.7067707,-0.6230955,0.0068639074,0.012386172,-0.15760337,-0.3911208,-0.36780205,0.059908986,-3.078467,0.62454957,-0.00038350504,-0.039370053,0.017490018,0.00073739,0.0021453148,-0.0007157071,0.012333082,0.50182545,-1.379757,1.9020199,-2.0911329,-1.5708541,2.4766128,-0.065012194,0.037492648,-0.0490195,0.013180154,-0.0016475806,-0.07731762,-0.05746084,0.076614454,-9.423578,0.7642693,47.65912,-1.052405,-2.6087503,-3.2609034,-0.14746943,-0.014008813,-0.087690085,28.25,29.625,28.6875,32.5,34.9375,36.0625
0.098052435,-0.6148595,-0.382012,-0.6610149,-0.007159853,0.019813746,-0.16117635,-0.39122277,-0.3677754,0.059917968,-3.0784733,0.6245133,-0.0003560784,-0.041072067,0.01729038,0.0014817445,0.0017831018,0.0010727148,0.0098645305,0.50169355,-1.3796486,1.901863,-2.091097,-1.5708665,2.4764576,-0.06590243,0.03874124,-0.0522482,0.013419163,-0.0021951061,-0.0757368,-0.15322891,0.15322891,-9.385271,0.76874626,47.68599,-1.0886126,-2.5630298,-3.1776552,-0.16224071,-0.051202405,-0.11917512,28.25,29.625,28.6875,32.5,34.9375,36.0625
0.10005227,-0.3587518,-0.5906834,-0.7323568,-0.008714332,0.018645693,-0.16963045,-0.39130035,-0.36773962,0.059913635,-3.0784724,0.62447566,-0.00037219655,-0.041682247,0.01807382,0.00085815496,0.0025229768,0.00028483148,0.0065405183,0.5015612,-1.3795643,1.9017676,-2.0910728,-1.5708665,2.476302,-0.0676084,0.039974153,-0.05224925,0.013234871,-0.0024657382,-0.074118,-0.019153614,0.17238252,-9.423578,0.80456203,47.698532,-1.0892366,-2.6403322,-3.148226,-0.16626003,-0.014203293,-0.16211376,28.25,29.625,28.6875,32.5,34.9375,36.0625
0.1020523,-0.3016498,-0.96851045,-0.7695629,-0.015780585,0.013978543,-0.1629883,-0.39138696,-0.3676927,0.05992469,-3.0784497,0.6244908,-0.00034893787,-0.0414299,0.019047713,0.00034214562,0.0033935173,-0.0015918096,0.0039272774,0.501417,-1.3795041,1.9016603,-2.0910246,-1.5708908,2.47617,-0.06909092,0.039898522,-0.05124399,0.014366879,-0.00232194,-0.07298809,-0.076614454,0.2681506,-9.481039,0.7709874,47.711063,-1.0705587,-2.565166,-3.3410745,-0.17002791,-0.023987552,-0.19685596,28.25,29.625,28.6875,32.5,34.9375,36.0625
0.10405218,-1.0502484,-1.0852551,-0.8623105,-0.028063163,-0.011889464,-0.16209427,-0.39146817,-0.3676448,0.059915267,-3.0784345,0.6244882,-0.00037844028,-0.043095388,0.01903985,0.0009224138,0.002683172,-0.00043975346,0.001323898,0.50126094,-1.3794196,1.9015764,-2.0910008,-1.5708908,2.4760144,-0.07065066,0.04111696,-0.054066576,0.014618987,-0.0022599022,-0.071943216,-0.019153614,0.22984336,-9.481039,0.8314132,47.707485,-1.0933616,-2.573546,-3.2369795,-0.18231566,-0.030397413,-0.21501544,28.25,29.625,28.6875,32.5,34.9375,36.0625
0.10605193,-0.92736554,-1.5089144,-0.82746434,-0.025708003,-0.0067864615,-0.16229099,-0.39155656,-0.3676131,0.05992174,-3.0784245,0.624485,-0.00034032692,-0.04390342,0.019733233,0.00053140265,0.0033438108,-0.0011182327,0.0017272079,0.5011404,-1.379335,1.9014562,-2.090977,-1.5709146,2.4758933,-0.0723965,0.042440545,-0.05482442,0.014964196,-0.0025145453,-0.07409143,0.0,0.30645782,-9.423578,0.7620334,47.657326,-1.0313472,-2.5759077,-3.2754397,-0.19819778,-0.041922092,-0.25743648,28.25,29.625,28.6875,32.5,34.9375,36.0625
0.108051844,-0.5738843,-1.1983774,-0.7437044,-0.025091354,0.010798261,-0.16949785,-0.39166865,-0.36755645,0.05992891,-3.0784113,0.6244643,-0.00034357305,-0.044820413,0.0200546,0.0011193671,0.0028297314,-0.000200712,-0.0005833642,0.5009485,-1.3792391,1.9013127,-2.0909169,-1.5709265,2.4756901,-0.07377522,0.04212271,-0.05585713,0.015261919,-0.0025068137,-0.073159225,-0.038307227,0.28730422,-9.32781,0.779936,47.658226,-1.060344,-2.518372,-3.2364373,-0.18743509,-0.039641235,-0.2555579,28.25,29.625,28.6875,32.5,34.9375,36.0625
0.110052615,-0.66503394,-0.8273669,-0.81066024,-0.024100812,0.019846799,-0.16629,-0.39173886,-0.36752996,0.059920784,-3.0784264,0.6244871,-0.00039527,-0.04521976,0.02037826,0.00056754326,0.0036666722,-0.0010982917,-0.0020124866,0.50081646,-1.3791544,1.9012283,-2.0909045,-1.5708908,2.4755704,-0.07448935,0.043714985,-0.056557637,0.015562919,-0.0028116126,-0.072443105,-0.038307227,0.17238252,-9.385271,0.75084364,47.687782,-1.1167152,-2.5479093,-3.304987,-0.22502638,-0.03234136,-0.3321576,28.25,29.625,28.6875,32.5,34.9375,36.0625
0.112052456,-1.0413766,-0.9379643,-0.82457614,-0.014736473,0.020640047,-0.1634796,-0.3918486,-0.36750326,0.05993116,-3.078439,0.6244478,-0.0003297446,-0.04595871,0.020512424,5.9052167e-07,0.0040741665,-0.0016232952,0.0004914654,0.5006846,-1.3790457,1.9010733,-2.090893,-1.5709146,2.4754126,-0.07531687,0.045824982,-0.057697974,0.015247046,-0.0029196567,-0.07577365,0.019153614,0.22984336,-9.385271,0.8112748,47.68062,-1.1817905,-2.620789,-3.2344122,-0.2368573,-0.050012164,-0.34978908,28.25,29.625,28.6875,32.5,34.9375,36.0625
0.11405245,-0.836356,-1.1535944,-0.74569374,-0.006135023,0.037599,-0.15602759,-0.3918948,-0.36746198,0.059906222,-3.0783987,0.6243845,-0.00045674868,-0.047066417,0.020580744,0.0013867201,0.0027864801,0.0007341506,-0.0035282269,0.5005645,-1.37895,1.9010004,-2.0908206,-1.5709022,2.475258,-0.07644292,0.04426577,-0.059065063,0.015488369,-0.0029297895,-0.07287944,-0.05746084,0.22984336,-9.461885,0.7732232,47.66271,-1.2427909,-2.5925162,-3.2590883,-0.22927028,-0.06598632,-0.41254097,28.25,29.625,28.6875,32.5,34.9375,36.0625
0.11605187,-1.253201,-1.1375809,-0.6264636,0.003285136,0.027271684,-0.16427864,-0.39199036,-0.36743566,0.05992306,-3.0784478,0.62433594,-0.0003863251,-0.048703242,0.02160674,0.0013648429,0.0028737606,0.0014713185,-0.005054523,0.5004317,-1.3788898,1.9008936,-2.090833,-1.5709022,2.4750888,-0.07940219,0.045133304,-0.059900396,0.014852205,-0.0033598742,-0.07431121,-0.076614454,0.17238252,-9.404425,0.83365434,47.67793,-1.1885322,-2.4352913,-3.2602935,-0.21876192,-0.058633134,-0.4570812,28.25,29.625,28.6875,32.5,34.9375,36.0625
0.11805192,-1.1014595,-0.6158277,-0.75739175,-0.0038993817,0.03105707,-0.16455789,-0.39211267,-0.36739796,0.05993077,-3.0784585,0.6244127,-0.00039601704,-0.048774015,0.02136232,0.001158116,0.0038678627,0.0017321063,-0.0005021457,0.5002404,-1.3787693,1.9007252,-2.0907972,-1.5708789,2.474944,-0.07841258,0.046220537,-0.060717914,0.014834638,-0.0043599233,-0.07787157,-0.05746084,0.11492168,-9.481039,0.85826975,47.658226,-1.1918759,-2.5625618,-3.2777913,-0.21567905,-0.04633803,-0.4771152,28.25,29.625,28.6875,32.5,34.9375,36.0625
0.12005177,-1.6936564,-0.77388155,-0.70322937,0.0081039835,0.020669252,-0.15637754,-0.39224285,-0.36734477,0.059943393,-3.0784523,0.6244082,-0.00029157827,-0.049324434,0.022116188,0.00027034132,0.00587449,0.0005729963,0.002344945,0.5000606,-1.3786724,1.9005817,-2.0907967,-1.5709275,2.4747624,-0.07942147,0.048445895,-0.06144517,0.015314871,-0.005563679,-0.08172487,-0.2681506,0.095768064,-9.404425,0.8403672,47.670765,-1.3866136,-2.5445914,-3.3299146,-0.23300341,-0.029245654,-0.46612513,28.25,29.625,28.6875,32.5,34.9375,36.0625
0.12205173,-1.4202486,-0.14861584,-0.6010179,0.010357435,0.03760258,-0.16010177,-0.39232385,-0.36729023,0.05992933,-3.0784326,0.6244018,-0.00038846297,-0.05203933,0.024301754,0.0003245572,0.0070943367,0.0011988784,0.005469138,0.49987897,-1.3785758,1.9004859,-2.090737,-1.5709037,2.4745793,-0.084736004,0.049751744,-0.06323817,0.01584175,-0.006946488,-0.09015968,-0.22984336,0.019153614,-9.404425,0.80679786,47.66271,-1.1686859,-2.5839787,-3.2373295,-0.23842765,-0.033185013,-0.44754523,28.25,29.625,28.6875,32.5,34.9375,36.0625
0.12405165,-1.570627,-0.008510189,-0.743168,0.025897192,0.04855583,-0.16162667,-0.39241627,-0.36725157,0.059931967,-3.0784502,0.6243047,-0.000361542,-0.051433057,0.023365699,0.00147072,0.0070646233,0.0033891967,0.0125434,0.49973643,-1.3784922,1.9003781,-2.0907247,-1.5709165,2.474374,-0.08194426,0.047855377,-0.06369906,0.016263029,-0.007971361,-0.09444044,-0.24899697,-0.15322891,-9.500193,0.8493211,47.694946,-1.3873818,-2.5764103,-3.276666,-0.25287825,0.00012691482,-0.41254237,28.25,29.625,28.6875,32.5,34.9375,36.0625
0.12605189,-1.8982382,0.20562306,-0.5508536,0.020757258,0.053732954,-0.17234598,-0.39248672,-0.3671956,0.059901215,-3.0783951,0.624211,-0.00043924904,-0.052713327,0.024187904,0.0013023991,0.0071259057,0.0030399677,0.018720021,0.49959186,-1.3783718,1.9002947,-2.090677,-1.5709404,2.474178,-0.084561765,0.04908303,-0.06482805,0.016494423,-0.0078728115,-0.10323349,-0.40222588,-0.095768064,-9.385271,0.8179876,47.690468,-1.3624101,-2.4260695,-3.2662709,-0.28300366,-0.008549512,-0.3570141,28.25,29.625,28.6875,32.5,34.9375,36.0625
0.12805173,-2.1048918,0.27219358,-0.51803035,0.013157843,0.046132363,-0.17066084,-0.3926107,-0.36716107,0.059925158,-3.0784423,0.62414217,-0.00040973743,-0.053831175,0.024527058,0.00095341157,0.0062663252,0.0021493838,0.021831824,0.49941137,-1.3782752,1.9001149,-2.0906293,-1.570928,2.4739487,-0.08687719,0.050840124,-0.066090055,0.016363837,-0.006694128,-0.10866256,-0.40222588,-0.17238252,-9.3661175,0.842603,47.711063,-1.3487177,-2.5827284,-3.2827945,-0.29000413,0.0046787024,-0.2673141,28.25,29.625,28.6875,32.5,34.9375,36.0625
0.13005225,-1.9873372,0.17450368,-0.73415065,0.01408193,0.046447646,-0.17204198,-0.3927354,-0.36715302,0.059950124,-3.0785184,0.62405926,-0.00036268577,-0.05484657,0.02448913,0.0014016968,0.004815841,0.0026017777,0.025602471,0.4992672,-1.378155,1.8999103,-2.0906055,-1.5709032,2.4737432,-0.08838532,0.051192906,-0.06753242,0.016358625,-0.0056365295,-0.113943174,-0.4213795,-0.15322891,-9.346964,0.81351066,47.723602,-1.3873475,-2.4345186,-3.375805,-0.29517764,-0.035617035,-0.22593254,28.25,29.625,28.6875,32.5,34.9375,36.0625
0.13205212,-1.45077,-0.049080312,-0.60772395,0.011950201,0.048520852,-0.15875138,-0.39284036,-0.36705464,0.05993277,-3.0784497,0.62406194,-0.000400575,-0.05669184,0.024567656,0.0022502816,0.0029221368,0.0031104048,0.026255233,0.49902686,-1.3780706,1.8998388,-2.0905569,-1.570939,2.4735134,-0.09107745,0.05201644,-0.07065495,0.017293401,-0.0042305826,-0.11728925,-0.5363012,-0.05746084,-9.32781,0.8157518,47.68062,-1.2944251,-2.5283194,-3.0909183,-0.3038881,-0.03193514,-0.17597497,28.25,29.625,28.6875,32.5,34.9375,36.0625
0.13405208,-1.6671858,0.06230493,-0.76971453,0.0067736628,0.044683184,-0.16047755,-0.39296338,-0.36700678,0.059936285,-3.0784552,0.623985,-0.00036316505,-0.055740885,0.024812529,0.0011905652,0.0033868256,0.00083089137,0.02724283,0.49884728,-1.3779502,1.8996829,-2.090533,-1.5709623,2.4732852,-0.091016695,0.052592456,-0.068908446,0.017188717,-0.0035433788,-0.11821813,-0.57460845,-0.076614454,-9.270349,0.7866488,47.63404,-1.445718,-2.4999573,-3.3286715,-0.29884326,-0.045795217,-0.1417167,28.25,29.625,28.6875,32.5,34.9375,36.0625
0.13605216,-1.934963,0.11411423,-0.74443513,0.0016563069,0.05031266,-0.16799566,-0.39305586,-0.36694047,0.059932046,-3.0784361,0.62390834,-0.00036743592,-0.05888652,0.02659748,0.001112317,0.0029235538,0.0004952154,0.018653492,0.49866542,-1.3778772,1.899598,-2.0904973,-1.5709866,2.473058,-0.09725531,0.055058375,-0.07175817,0.017640892,-0.0029828302,-0.115866974,-0.6512228,-0.095768064,-9.481039,0.7933669,47.678825,-1.1960042,-2.494954,-3.3256798,-0.30254364,-0.05336213,-0.1572769,28.25,29.625,28.6875,32.5,34.9375,36.0625
0.13805205,-2.1528425,-0.12060888,-0.6848819,0.008038088,0.06418073,-0.15625468,-0.39318022,-0.3669111,0.05994018,-3.0784833,0.62376493,-0.00039460015,-0.059832163,0.025795385,0.0021266171,0.0019409092,0.0022823915,0.01486219,0.49848616,-1.3777331,1.8993949,-2.0904367,-1.5709623,2.4727833,-0.096753865,0.055407424,-0.07458712,0.018084746,-0.002977373,-0.1115731,-0.63206923,-0.05746084,-9.500193,0.8873621,47.711063,-1.3002794,-2.5954509,-3.064166,-0.32045606,-0.083840206,-0.20420787,28.25,29.625,28.6875,32.5,34.9375,36.0625
0.14005196,-2.0072603,-0.26016185,-0.86186916,0.0022656156,0.07699328,-0.16634086,-0.39328435,-0.36684376,0.05993229,-3.0784643,0.6237844,-0.0004510715,-0.059918653,0.02747534,0.0012904912,0.0034006347,0.00060097774,0.007912803,0.49826962,-1.3776369,1.899288,-2.090389,-1.5709509,2.4725814,-0.09934347,0.055401906,-0.072764866,0.018446112,-0.003452602,-0.10721301,-0.7278373,0.0,-9.5385,0.7284641,47.693153,-1.253308,-2.3962243,-3.297052,-0.33377582,-0.06831622,-0.24419302,28.25,29.625,28.6875,32.5,34.9375,36.0625
0.14205204,-2.2068233,-0.8347251,-0.7963707,-0.0054635173,0.08018039,-0.1600045,-0.39342174,-0.3667955,0.059933633,-3.0784767,0.6237491,-0.00038326162,-0.062409617,0.028382156,0.0023468682,0.0025687078,0.0028245156,0.0028414885,0.4980769,-1.377505,1.8991312,-2.0904005,-1.5709752,2.4723651,-0.10292884,0.055504326,-0.07531864,0.018545063,-0.003784856,-0.105725504,-0.7469909,0.038307227,-9.519346,0.80456203,47.691364,-1.0575988,-2.4043589,-3.2491822,-0.33810782,-0.08070162,-0.28851658,28.25,29.625,28.6875,32.5,34.9375,36.0625
0.14405267,-2.3369129,-0.80369335,-0.8537377,-0.012337215,0.073235616,-0.16176331,-0.39356184,-0.36672062,0.059947062,-3.0784357,0.6238169,-0.00037553482,-0.06355399,0.029204436,0.0007632303,0.003863299,0.0007827848,0.001540188,0.49783662,-1.3773953,1.8989519,-2.0903175,-1.570999,2.4721725,-0.1052346,0.05953512,-0.07636905,0.017973725,-0.00395262,-0.10672847,-0.59376204,0.15322891,-9.615114,0.8403672,47.687782,-1.0671346,-2.565432,-3.1511421,-0.3579939,-0.0636702,-0.33646363,28.25,29.625,28.6875,32.5,34.9375,36.0625
0.14605215,-2.0985868,-0.98219246,-0.98237354,-0.012626084,0.062619224,-0.16177887,-0.39368674,-0.36665115,0.059934266,-3.078403,0.62381136,-0.00037925126,-0.06541734,0.03028302,0.0020895342,0.0032185216,0.003785394,-2.9036964e-05,0.4976198,-1.3772638,1.8988198,-2.0902936,-1.5710233,2.4719565,-0.10819326,0.05778186,-0.07724281,0.017653883,-0.0048254845,-0.10811594,-0.53630114,0.076614454,-9.634268,0.73741806,47.70211,-0.92090094,-2.5020986,-3.2212396,-0.35241562,-0.07773458,-0.313604,28.25,29.625,28.6875,32.5,34.9375,36.0625
0.14805198,-1.8549594,-0.608922,-0.80506927,-0.021174766,0.06036002,-0.1606141,-0.393832,-0.36660948,0.059959516,-3.078459,0.62372625,-0.00030918408,-0.06672365,0.030870287,0.0024971094,0.0034616143,0.0049223024,-0.001760348,0.497416,-1.3771555,1.8986286,-2.0902693,-1.5710233,2.4716926,-0.109881856,0.058174312,-0.078676246,0.017813595,-0.0055776304,-0.108071394,-0.59376204,0.076614454,-9.500193,0.7620334,47.65106,-0.9008243,-2.379352,-3.237702,-0.3587547,-0.052697547,-0.3684027,28.25,29.625,28.6875,32.5,34.9375,36.0625
0.15005206,-1.9489858,-0.6008329,-0.8517515,-0.0050316146,0.05258164,-0.16413647,-0.39396492,-0.36654034,0.059965808,-3.0784247,0.623833,-0.00024474127,-0.0671248,0.031603966,0.0015218589,0.004711492,0.0036308,-0.002333597,0.49719992,-1.3770589,1.898497,-2.090258,-1.5710596,2.4715476,-0.11115843,0.06004084,-0.0786343,0.01763286,-0.006057741,-0.10877362,-0.59376204,0.1340753,-9.481039,0.69937176,47.692257,-0.8638296,-2.4160767,-3.2496786,-0.366149,-0.06460836,-0.39579457,28.25,29.625,28.6875,32.5,34.9375,36.0625
0.1520521,-1.6926497,-0.12473156,-0.5688758,0.0011681397,0.06992589,-0.16269884,-0.39408153,-0.3664835,0.05993356,-3.0784538,0.62372273,-0.00037893973,-0.06818981,0.03201886,0.0018706323,0.0043673553,0.0047407593,-0.0013739967,0.4969599,-1.3768907,1.8983654,-2.0902336,-1.571,2.471235,-0.11265819,0.060134247,-0.07945686,0.017227488,-0.006294968,-0.11123177,-0.51714754,0.076614454,-9.500193,0.8157518,47.688675,-0.8756087,-2.4758441,-3.2672892,-0.37727982,-0.055606775,-0.4065461,28.25,29.625,28.6875,32.5,34.9375,36.0625
0.1540524,-2.03386,0.18085697,-0.49637628,0.0036694543,0.066691466,-0.16572061,-0.3942218,-0.36641583,0.05994695,-3.0784144,0.62378705,-0.00036886454,-0.07053369,0.031623673,0.003035151,0.003861661,0.008091815,0.004098609,0.49673223,-1.3767701,1.8981732,-2.09015,-1.5710243,2.4710526,-0.113387495,0.061519112,-0.08367311,0.016870042,-0.007461779,-0.1174293,-0.4213795,0.076614454,-9.519346,0.8179876,47.701214,-0.9452543,-2.3898435,-3.1711826,-0.35966665,-0.04272048,-0.37773943,28.25,29.625,28.6875,32.5,34.9375,36.0625
0.15605226,-1.4587582,0.4386384,-0.628589,0.0056273267,0.074808285,-0.1799021,-0.39436212,-0.36635542,0.05994808,-3.0784338,0.6237093,-0.0003036845,-0.07055742,0.032520875,0.0022680196,0.0056682746,0.007885423,0.010057886,0.49651676,-1.3766499,1.8980306,-2.090162,-1.5710486,2.4707863,-0.11396147,0.06205096,-0.08238926,0.016095256,-0.008949316,-0.12396019,-0.17238252,-0.05746084,-9.500193,0.85155696,47.70032,-1.015908,-2.4570384,-3.2235231,-0.35427076,-0.003091508,-0.35268122,28.25,29.625,28.6875,32.5,34.9375,36.0625
0.15805246,-1.1082723,0.4153448,-0.7374872,0.0023247951,0.050986342,-0.17919509,-0.39455152,-0.3663072,0.059984766,-3.078485,0.62371486,-0.00014964491,-0.0712856,0.032278724,0.0028390684,0.005233645,0.00885901,0.017041316,0.49627694,-1.3765175,1.8977903,-2.090162,-1.5710729,2.4705436,-0.114130765,0.062340688,-0.08412254,0.01646831,-0.00902228,-0.13111305,-0.095768064,-0.019153614,-9.461885,0.7866488,47.68062,-1.0451818,-2.3486307,-3.2891278,-0.34467387,-0.03630117,-0.24803168,28.25,29.625,28.6875,32.5,34.9375,36.0625
0.16005264,-1.1188811,-0.39492074,-0.903731,0.011886246,0.016791072,-0.16177876,-0.39466667,-0.36622292,0.05996509,-3.0784361,0.62371933,-0.0002092594,-0.07349172,0.03200407,0.003813696,0.0041352436,0.011228352,0.023650445,0.49603686,-1.3763969,1.8976811,-2.0901144,-1.5710849,2.4703126,-0.115550734,0.06371137,-0.08793378,0.016296256,-0.009203084,-0.13913953,-0.076614454,-0.038307227,-9.3661175,0.8023209,47.68599,-0.9416052,-2.446623,-3.116258,-0.3174848,-0.0034317574,-0.15658946,28.25,29.625,28.6875,32.5,34.9375,36.0625
0.16205204,-0.5287455,0.102833815,-0.7453951,-0.007819846,0.0019454007,-0.1631487,-0.39481637,-0.36615053,0.059961308,-3.0784416,0.6235649,-0.00022959974,-0.07375664,0.033155847,0.003192723,0.0045685093,0.009866711,0.024453033,0.4957848,-1.3762407,1.8974909,-2.0900543,-1.5710963,2.4699636,-0.11785987,0.06397127,-0.08685144,0.016351812,-0.0089371605,-0.14225197,-0.11492168,0.019153614,-9.481039,0.7642693,47.688675,-1.1346109,-2.3294806,-3.2225232,-0.33208233,0.0070629483,-0.1431277,28.25,29.625,28.6875,32.5,34.9375,36.0625
0.16405194,-0.2836658,-0.21855779,-0.80327255,-0.00413313,-0.004816644,-0.15655601,-0.39498717,-0.36610937,0.059994224,-3.0784898,0.6235369,-6.6203014e-05,-0.074244246,0.0329649,0.0030528028,0.0035475385,0.008903996,0.022467004,0.495581,-1.3761202,1.8972758,-2.0900662,-1.5711316,2.4697363,-0.11879504,0.065229386,-0.08811195,0.016704274,-0.0075661973,-0.14120398,-0.095768064,0.038307227,-9.461885,0.7665104,47.655537,-0.9370744,-2.308575,-3.2341216,-0.30789664,-0.0056067314,-0.08071821,28.25,29.625,28.6875,32.5,34.9375,36.0625
0.16605191,0.04843366,-0.6387686,-0.887285,-0.004988061,-0.0003483557,-0.1666483,-0.39511704,-0.36600447,0.05996156,-3.0784388,0.6234707,-0.00015571603,-0.07476513,0.033025112,0.002924976,0.0026596729,0.008122966,0.017168352,0.4952931,-1.3759758,1.897168,-2.0900185,-1.571144,2.4694138,-0.12005047,0.06613834,-0.088953234,0.016895503,-0.006423321,-0.13716194,-0.019153614,0.038307227,-9.481039,0.7978386,47.687782,-1.0491562,-2.4042459,-3.2594006,-0.3286706,0.0065321354,-0.12576982,28.25,29.625,28.6875,32.5,34.9375,36.0625
0.16805196,-0.6472781,-1.1040843,-0.9143989,-0.0033558265,-0.005282282,-0.1499933,-0.39527157,-0.36594176,0.059982304,-3.0784519,0.6234369,-0.0001167872,-0.07497252,0.033212457,0.0029769437,0.0021234476,0.0074025425,0.011093966,0.4950533,-1.3758556,1.8969644,-2.0899584,-1.5711554,2.4691513,-0.12102614,0.06624498,-0.08935727,0.01756834,-0.0056015267,-0.13206488,-0.019153614,0.21068975,-9.442732,0.77545905,47.678825,-0.99576914,-2.3281403,-3.2735305,-0.3085128,-0.0005103523,-0.19569375,28.25,29.625,28.6875,32.5,34.9375,36.0625
0.17005208,-0.4083671,-0.75813264,-0.73204666,-0.017075645,0.01893272,-0.16140299,-0.39540923,-0.36588058,0.059982702,-3.0784538,0.6234216,-0.0001200748,-0.07591145,0.03466146,0.001792331,0.003152947,0.004917819,0.0033265117,0.49482435,-1.3757225,1.8967975,-2.0899222,-1.5711554,2.4689126,-0.12446139,0.068584755,-0.08957267,0.018119266,-0.005323778,-0.12773281,0.038307227,0.17238252,-9.461885,0.8314132,47.657326,-0.9305873,-2.368156,-3.3500235,-0.33206865,-0.016142508,-0.2531547,28.25,29.625,28.6875,32.5,34.9375,36.0625
0.17205222,-0.9208638,-0.8731664,-0.78346676,-0.011087584,0.01157208,-0.1620717,-0.39557746,-0.3658171,0.05999897,-3.0784502,0.6234198,-4.0892257e-05,-0.07530875,0.033381265,0.0022110194,0.0027576745,0.0052595125,0.0030944906,0.49458593,-1.3755785,1.8965815,-2.0898864,-1.5711912,2.4686737,-0.12183127,0.06874569,-0.09087008,0.018762326,-0.0051328246,-0.12487077,0.019153614,0.21068975,-9.3661175,0.842603,47.611652,-1.1223352,-2.3532653,-3.2854872,-0.3187106,-0.019706618,-0.32017165,28.25,29.625,28.6875,32.5,34.9375,36.0625
0.17405254,-0.50807726,-0.7149738,-0.85557425,-0.024545543,0.019921513,-0.158397,-0.39571998,-0.36574814,0.05998633,-3.078456,0.62345886,-0.00013378411,-0.07660578,0.034172717,0.0019697458,0.0031692046,0.005150705,-0.00034675407,0.49431002,-1.3754218,1.8964132,-2.0898383,-1.5711435,2.4684215,-0.124112405,0.07023637,-0.09211216,0.01881104,-0.0054492103,-0.12370916,0.019153614,0.24899697,-9.423578,0.7933669,47.619713,-0.9958851,-2.3965456,-3.2713304,-0.33304745,-0.015662676,-0.40274644,28.25,29.625,28.6875,32.5,34.9375,36.0625
0.17605239,-0.89989215,-1.1031159,-0.8304956,-0.019168844,0.005765153,-0.1546623,-0.39589337,-0.36567914,0.06001626,-3.0784833,0.623408,-1.3955861e-05,-0.07768218,0.034447886,0.002073723,0.00323489,0.0057946956,-0.0031176563,0.49405804,-1.3753134,1.896211,-2.089814,-1.5711797,2.4681344,-0.12529162,0.07125444,-0.09353185,0.01867313,-0.005805826,-0.122116454,-0.05746084,0.28730422,-9.404425,0.8806493,47.694946,-1.2160723,-2.3861506,-3.3464494,-0.31565523,-0.013226163,-0.44158047,28.25,29.625,28.6875,32.5,34.9375,36.0625
0.17805247,-0.3203593,-0.6720701,-0.8156381,-0.032312177,0.01797948,-0.16382305,-0.3960288,-0.3656195,0.060008865,-3.0784633,0.62338436,-3.190792e-05,-0.07908249,0.03563107,0.0020624122,0.004081934,0.0063545206,-0.004631582,0.4938415,-1.3751569,1.8960313,-2.0897663,-1.5711917,2.4679058,-0.12789363,0.07193831,-0.09433417,0.018700723,-0.0068213977,-0.12320207,-0.019153614,0.22984336,-9.423578,0.8314132,47.68062,-1.1099559,-2.3234465,-3.2851205,-0.29889792,0.0062692864,-0.49108583,28.25,29.625,28.6875,32.5,34.9375,36.0625
0.1800523,-0.32983124,-0.6483063,-0.5840816,-0.034609243,0.020201156,-0.16672519,-0.39618933,-0.36554092,0.060006227,-3.0784497,0.6233974,6.692405e-06,-0.079349756,0.03586315,0.0018187979,0.0042829094,0.0060223704,-0.0011703759,0.49357784,-1.3750126,1.8958634,-2.0897548,-1.571216,2.467652,-0.1284728,0.07259963,-0.09456331,0.018649599,-0.0068408535,-0.12724233,0.0,0.22984336,-9.385271,0.8224646,47.701214,-1.1483761,-2.3190215,-3.3315983,-0.3006479,0.015448758,-0.51926374,28.25,29.625,28.6875,32.5,34.9375,36.0625
0.1820523,-0.43288508,-0.36836573,-0.4898885,-0.037120607,0.020766476,-0.18094088,-0.39634886,-0.36548194,0.0600076,-3.078455,0.6234118,-8.816939e-06,-0.08161847,0.035840258,0.0019455454,0.003803921,0.0069284444,0.0065722037,0.49332577,-1.3748434,1.8956484,-2.0897067,-1.5712041,2.4674084,-0.13044502,0.075639986,-0.09842683,0.01844303,-0.0068605323,-0.13695507,0.038307227,0.21068975,-9.385271,0.8247004,47.684196,-1.1473236,-2.4206924,-3.2691588,-0.29581437,0.024484769,-0.43062472,28.25,29.625,28.6875,32.5,34.9375,36.0625
0.18405226,-0.9606955,-0.95095634,-0.7004204,-0.021315202,0.022319721,-0.16892046,-0.396517,-0.36543062,0.060028944,-3.078502,0.62333673,4.776286e-05,-0.081152044,0.036468297,0.0019908731,0.0027844144,0.0059568426,0.017669942,0.49308592,-1.3747,1.8954214,-2.089671,-1.5712036,2.4671159,-0.13187593,0.073890604,-0.09650464,0.018630829,-0.0054950044,-0.14948764,-0.05746084,0.17238252,-9.289502,0.81351066,47.685097,-1.1379269,-2.3487265,-3.3663597,-0.28032398,-0.002556384,-0.36704397,28.25,29.625,28.6875,32.5,34.9375,36.0625
0.18605252,-0.6215002,-0.55272657,-0.6838275,-0.012986203,0.04924803,-0.16670035,-0.3966766,-0.36534876,0.06002617,-3.078506,0.6231985,3.040204e-05,-0.08279107,0.036257602,0.0028197528,0.00089733384,0.0071983193,0.023955258,0.49280992,-1.3745435,1.8952283,-2.0896108,-1.571215,2.4667532,-0.13362736,0.0745773,-0.099224396,0.018666245,-0.0044312514,-0.15752509,-0.11492168,0.24899697,-9.385271,0.8403672,47.677036,-1.1342134,-2.3072758,-3.383612,-0.2650862,-0.004477386,-0.26382792,28.25,29.625,28.6875,32.5,34.9375,36.0625
0.18805243,-0.7705701,-0.060316477,-0.6180205,-0.008325815,0.051551223,-0.16353461,-0.3968157,-0.3652759,0.060016647,-3.0785193,0.62317926,-1.2699627e-05,-0.082851,0.037526403,0.00011332193,0.0030001039,0.0022113961,0.02708076,0.4925456,-1.3744098,1.8950857,-2.089587,-1.5711907,2.4664752,-0.13609184,0.0791655,-0.09856143,0.018801773,-0.003927236,-0.16311553,-0.13407528,0.17238252,-9.3661175,0.8784135,47.728977,-1.1150097,-2.477198,-3.359622,-0.24956277,-0.015929174,-0.18729344,28.25,29.625,28.6875,32.5,34.9375,36.0625
0.19005233,-1.4011132,-0.4830066,-0.56201375,0.008796223,0.047967225,-0.15924446,-0.3970074,-0.36519253,0.060025692,-3.0785315,0.62310284,3.9656705e-05,-0.08393482,0.037368447,0.0015701842,0.001692004,0.004441613,0.027876856,0.49224612,-1.3742423,1.8948578,-2.0895503,-1.571215,2.4661267,-0.13681635,0.07793,-0.10056518,0.019451236,-0.003827872,-0.16463591,-0.30645782,0.17238252,-9.251195,0.85155696,47.737934,-1.077366,-2.188943,-3.4088876,-0.22835678,-0.009095444,-0.1497843,28.25,29.625,28.6875,32.5,34.9375,36.0625
0.19205219,-1.2166541,0.06222665,-0.5205994,-0.000647326,0.061012153,-0.16263331,-0.39715132,-0.36510876,0.060001805,-3.0784981,0.62306195,-9.40353e-06,-0.08584542,0.03782492,0.00091754686,0.002231196,0.003520861,0.01887025,0.49198166,-1.3740726,1.8947023,-2.0895145,-1.571227,2.465841,-0.13924806,0.0818462,-0.1038451,0.019881917,-0.0038788784,-0.15805888,-0.5554548,0.076614454,-9.2703495,0.83365434,47.695843,-0.9706046,-2.2773044,-3.322291,-0.21193159,-0.019580942,-0.19864604,28.25,29.625,28.6875,32.5,34.9375,36.0625
0.19405217,-1.2133243,-0.09597921,-0.5520626,0.017399024,0.06806278,-0.15827054,-0.39732972,-0.36506185,0.06004118,-3.0785809,0.6229842,2.4567851e-05,-0.08617024,0.038032126,0.0005580492,0.0025693162,0.0029797135,0.012960258,0.49171826,-1.3739401,1.8944391,-2.0894425,-1.5711907,2.4655187,-0.13981694,0.08293954,-0.1043483,0.019935971,-0.003910591,-0.15271759,-0.59376204,0.038307227,-9.308656,0.7642693,47.684196,-1.1808761,-2.4172769,-3.270646,-0.22519478,-0.036477905,-0.26311946,28.25,29.625,28.6875,32.5,34.9375,36.0625
0.19605204,-1.7561734,0.13316652,-0.5335126,0.007135788,0.06291802,-0.16509353,-0.39749658,-0.3649747,0.060020916,-3.0785499,0.62295866,4.574183e-05,-0.086619474,0.038172737,0.0008066956,0.0028138696,0.0032967438,0.010136948,0.49144262,-1.3737597,1.8942708,-2.0894425,-1.571227,2.4652312,-0.14018492,0.083181,-0.10534836,0.020526592,-0.0042771017,-0.1502612,-0.6703765,0.0,-9.3661175,0.8291774,47.678825,-1.1187351,-2.3562179,-3.316431,-0.2099508,-0.03024192,-0.3244682,28.25,29.625,28.6875,32.5,34.9375,36.0625
0.19805203,-2.0835307,-0.49729115,-0.4710789,0.006253121,0.07747624,-0.15026155,-0.39767686,-0.3649026,0.060022224,-3.0785794,0.6229068,2.0889229e-05,-0.089110576,0.037744258,0.0018407062,0.0020096782,0.005426541,0.008450106,0.49114293,-1.3735788,1.8940419,-2.0893943,-1.5712031,2.4648955,-0.14147687,0.085439764,-0.11055554,0.02122141,-0.004581617,-0.14986342,-0.6703765,-0.076614454,-9.385271,0.8560339,47.68062,-1.1929941,-2.3204846,-3.1413593,-0.19838387,-0.04511979,-0.35589877,28.25,29.625,28.6875,32.5,34.9375,36.0625
0.20005186,-1.9002595,-0.42546645,-0.41736794,0.0078123687,0.08570901,-0.15587227,-0.39784935,-0.36483425,0.06002883,-3.0785618,0.6229799,4.4173892e-05,-0.08806565,0.03914468,0.00064843026,0.0032232984,0.0028496971,0.007265377,0.49087897,-1.3734108,1.8938164,-2.0893466,-1.571215,2.4646795,-0.14293027,0.08476178,-0.10705612,0.021241074,-0.0044271313,-0.15013394,-0.78529817,-0.095768064,-9.308656,0.8403672,47.694946,-1.2098169,-2.3869803,-3.325778,-0.19532269,-0.039519817,-0.38819116,28.25,29.625,28.6875,32.5,34.9375,36.0625
0.20205174,-2.4186342,0.12353092,-0.4744682,0.005953799,0.07655328,-0.16237168,-0.3980063,-0.3647589,0.06000603,-3.078553,0.62287945,-4.0716423e-05,-0.091201596,0.038971916,0.0027834324,0.0012283031,0.0070780674,0.0082322005,0.49060258,-1.3732066,1.8936118,-2.0892866,-1.5712031,2.4643416,-0.14527047,0.08493142,-0.1121968,0.021542512,-0.004680355,-0.15343824,-0.6703764,-0.15322891,-9.3661175,0.8560339,47.717335,-1.0292994,-2.3297813,-3.1720464,-0.17569566,-0.04549373,-0.40497923,28.25,29.625,28.6875,32.5,34.9375,36.0625
0.20405257,-1.9166838,-0.45459217,-0.47660553,0.020829327,0.08052741,-0.15653343,-0.39818785,-0.3646415,0.05999741,-3.078488,0.6228808,-1.2834384e-05,-0.09189328,0.04120465,-0.00011864253,0.00437711,0.0021567862,0.011368163,0.49027815,-1.3730488,1.893433,-2.089239,-1.5712637,2.4640265,-0.14931485,0.089793004,-0.11143459,0.021730023,-0.0051444224,-0.16061714,-0.63206923,-0.19153613,-9.385271,0.86945957,47.67614,-1.1730356,-2.501263,-3.290913,-0.15725759,-0.049796,-0.35171306,28.25,29.625,28.6875,32.5,34.9375,36.0625
0.20605244,-1.2742175,0.20213118,-0.3813046,0.0042030206,0.09270669,-0.17557584,-0.39840814,-0.3645708,0.06002655,-3.0785449,0.6227885,8.606806e-05,-0.092611946,0.04027676,0.001879225,0.0029118701,0.005919155,0.022196578,0.48996732,-1.3728696,1.8931454,-2.0892031,-1.5712756,2.463651,-0.14803635,0.087742336,-0.11359579,0.021925658,-0.005618551,-0.17016608,-0.63206923,-0.17238252,-9.404425,0.8537928,47.67345,-1.1313258,-2.3167994,-3.1904101,-0.15792614,-0.051321305,-0.25224176,28.25,29.625,28.6875,32.5,34.9375,36.0625
0.20805238,-2.44033,0.041409813,-0.6163358,0.018287245,0.066355154,-0.16188091,-0.39858416,-0.3645202,0.060043827,-3.0786066,0.62264156,0.00011472263,-0.09374599,0.040193997,0.001206337,0.0036342503,0.005448604,0.0306233,0.48971573,-1.3727001,1.8928937,-2.089155,-1.5712637,2.4633,-0.14860605,0.09111578,-0.11605538,0.02176417,-0.0060369107,-0.17916045,-0.49799395,-0.11492168,-9.423578,0.8403672,47.657326,-1.1889721,-2.4668276,-3.1125422,-0.15946384,-0.045696735,-0.13083008,28.25,29.625,28.6875,32.5,34.9375,36.0625
0.21005249,-1.9475055,0.54714996,-0.58155084,0.024645286,0.0673788,-0.16685219,-0.3987817,-0.36441508,0.060039658,-3.0786057,0.62256145,0.000111210655,-0.09487684,0.040661532,0.0014005805,0.0031058604,0.005837813,0.032779776,0.4893678,-1.3725196,1.8926777,-2.0891073,-1.5712756,2.4629023,-0.15052126,0.09171023,-0.117210895,0.021725938,-0.005758713,-0.18323207,-0.5554548,-0.095768064,-9.385271,0.79560274,47.684196,-1.2046664,-2.4427638,-3.1252935,-0.13477683,-0.04476165,-0.07660424,28.25,29.625,28.6875,32.5,34.9375,36.0625
0.2120523,-1.3887155,-0.12679695,-0.4140036,0.016760563,0.083616905,-0.16097276,-0.3989525,-0.3643297,0.06002439,-3.0785882,0.6224253,0.000114131166,-0.09538654,0.040974747,0.0011490678,0.004105635,0.004808699,0.028251061,0.48909205,-1.3723271,1.892475,-2.0890706,-1.5713114,2.462544,-0.15120533,0.09330993,-0.11888726,0.023176558,-0.0061603514,-0.17938578,-0.5363012,0.019153614,-9.346964,0.80456203,47.67166,-1.2378591,-2.480833,-3.0671344,-0.10151861,-0.05555229,-0.07539029,28.25,29.625,28.6875,32.5,34.9375,36.0625
0.21405229,-1.5431465,-0.35271266,-0.35268652,0.0022861608,0.06340062,-0.16157089,-0.39917088,-0.364246,0.06003593,-3.078617,0.6225313,0.00011968923,-0.09577332,0.041631024,0.0010966826,0.0053744605,0.0039125076,0.020539157,0.48873246,-1.3721346,1.8922113,-2.0890338,-1.5712761,2.462247,-0.15215805,0.0940285,-0.12005791,0.025026266,-0.006848667,-0.17262517,-0.5746084,0.095768064,-9.423578,0.8157518,47.67793,-1.1968423,-2.5280213,-3.0464458,-0.11600231,-0.032902684,-0.1311602,28.25,29.625,28.6875,32.5,34.9375,36.0625
0.21605222,-1.0440499,-0.8003996,-0.68278164,0.0012857005,0.058518488,-0.14231002,-0.39933774,-0.3641424,0.05999639,-3.0785186,0.6224363,4.6928504e-05,-0.09606187,0.042319868,0.00050150923,0.0068150084,0.002652662,0.013100858,0.4884448,-1.3718939,1.8919958,-2.08895,-1.5713362,2.4619126,-0.15309487,0.0954174,-0.12058835,0.02595069,-0.0075440444,-0.1661213,-0.38307226,0.095768064,-9.404425,0.8291774,47.65464,-1.306639,-2.5299888,-3.085538,-0.113745846,-0.03970202,-0.22262861,28.25,29.625,28.6875,32.5,34.9375,36.0625
0.21805257,-0.5271573,-0.6094237,-0.79836243,-0.020733235,0.05225603,-0.16129743,-0.39955184,-0.36404613,0.059995916,-3.078512,0.6224558,6.98656e-05,-0.09645762,0.042570703,0.000497319,0.0070160613,0.002297943,0.0070967525,0.4880974,-1.3716896,1.8917454,-2.0889137,-1.5713481,2.4615784,-0.15379727,0.09601018,-0.12145682,0.026632924,-0.0075517986,-0.16081932,-0.3256114,0.15322891,-9.346964,0.8291774,47.679718,-1.2666683,-2.5025647,-3.1110272,-0.114343464,-0.024456246,-0.3375203,28.25,29.625,28.6875,32.5,34.9375,36.0625
0.22005229,-0.6734965,-0.96880877,-0.73418385,-0.022300674,0.04217576,-0.15254457,-0.39975423,-0.36396435,0.06001417,-3.0785143,0.6225168,0.00012552908,-0.09870635,0.042745583,0.0018399799,0.005473573,0.004868723,9.131253e-05,0.48778504,-1.3715212,1.8914927,-2.088866,-1.57136,2.461304,-0.15614274,0.09610728,-0.12466529,0.026748713,-0.007393301,-0.15615872,-0.2873042,0.15322891,-9.32781,0.9164598,47.70032,-1.24877,-2.4347086,-3.149067,-0.120830834,-0.02897964,-0.40408343,28.25,29.625,28.6875,32.5,34.9375,36.0625
0.22205232,-0.09435169,-0.65289026,-0.6866705,-0.025648573,0.04518294,-0.16345513,-0.39996123,-0.3638731,0.060012773,-3.0785086,0.62247944,0.00015805184,-0.099294275,0.046044614,-0.0003180974,0.007909407,0.00066956424,-0.0073499153,0.4874601,-1.3713164,1.8912438,-2.0888298,-1.5713838,2.4609566,-0.16204628,0.09769846,-0.121749066,0.027087998,-0.0075690076,-0.1546217,-0.05746084,0.13407528,-9.385271,0.77545905,47.698532,-1.1284175,-2.4704835,-3.1679187,-0.08614485,-0.015879262,-0.48837346,28.25,29.625,28.6875,32.5,34.9375,36.0625
0.22405218,-0.5704215,-0.5861244,-0.8221503,-0.02225841,0.020615743,-0.16659996,-0.40014067,-0.3637749,0.059998322,-3.0784435,0.62251806,0.000109822795,-0.10106005,0.045106605,0.0013468901,0.006221157,0.0036956035,-0.0011375105,0.48714867,-1.3711122,1.8910145,-2.0887454,-1.5714082,2.4606776,-0.16202405,0.09801211,-0.12603964,0.027590133,-0.00751493,-0.16080992,0.0,0.22984336,-9.423578,0.8918391,47.66808,-1.1328619,-2.4277387,-3.0971937,-0.08476453,-0.027498659,-0.5014825,28.25,29.625,28.6875,32.5,34.9375,36.0625
0.22605221,0.34563622,0.100600265,-0.7983284,-0.035753846,0.022831453,-0.16906828,-0.40034798,-0.3636831,0.06000489,-3.0784724,0.6224976,0.00012380659,-0.10112057,0.04688176,0.0004748477,0.006980886,0.0019364308,0.008003701,0.48680043,-1.3709321,1.890777,-2.0887105,-1.5713958,2.460313,-0.16508797,0.09768367,-0.12364482,0.027424674,-0.0073604444,-0.17301652,0.15322891,0.1340753,-9.519346,0.8627467,47.687782,-0.99840045,-2.4056692,-3.2649903,-0.09092595,-0.0029578123,-0.42047346,28.25,29.625,28.6875,32.5,34.9375,36.0625
0.22805217,-0.013422831,-0.7665113,-0.7105963,-0.015075335,-0.0017762361,-0.15914571,-0.40056846,-0.3635952,0.060014978,-3.078487,0.62239486,0.00020015013,-0.101297,0.047061957,-0.0012885579,0.007801874,-0.0015024042,0.020252338,0.4864771,-1.3707266,1.8905009,-2.0886738,-1.571432,2.459924,-0.16602015,0.10176003,-0.12456841,0.027674478,-0.0064800843,-0.18619832,0.114921674,0.11492168,-9.423578,0.8627467,47.707485,-1.0486081,-2.411489,-3.2664723,-0.069026306,-0.02614016,-0.30983973,28.25,29.625,28.6875,32.5,34.9375,36.0625
0.23005205,0.4863806,0.042375803,-0.72803944,-0.023963785,0.0079406835,-0.17064431,-0.40074497,-0.36348683,0.059986312,-3.0784152,0.6222596,0.00013098358,-0.10095521,0.046463225,0.00023063786,0.006476049,0.00090051343,0.028930381,0.486166,-1.3704995,1.8902739,-2.0885785,-1.5714797,2.4595377,-0.16466092,0.09870364,-0.124438636,0.027840693,-0.0064530284,-0.19351718,0.019153614,0.076614454,-9.3661175,0.83365434,47.694946,-1.1316949,-2.4220176,-3.3488288,-0.05289215,-0.011028086,-0.19333212,28.25,29.625,28.6875,32.5,34.9375,36.0625
0.23205177,-0.13534582,-0.36702853,-0.72977483,-0.0023084613,-0.0061633843,-0.16017327,-0.40096152,-0.36336365,0.059968755,-3.078352,0.62230355,0.00014570462,-0.102117814,0.04706007,-0.00083691586,0.007405879,-0.0010853173,0.028669694,0.48579422,-1.3702819,1.8900465,-2.0885422,-1.5715274,2.4592016,-0.16669247,0.102365285,-0.12653427,0.028451687,-0.006358076,-0.19528678,0.19153613,0.05746084,-9.404425,0.9254084,47.64389,-1.0217167,-2.4357743,-3.4852042,-0.0469857,-0.02547066,-0.14453018,28.25,29.625,28.6875,32.5,34.9375,36.0625
0.23405172,-0.08774972,-0.301515,-0.5427354,0.003200344,0.0033986554,-0.16362113,-0.40117955,-0.36330178,0.059985854,-3.078429,0.62226385,0.00012581004,-0.10212045,0.048354298,-0.0006038127,0.00751039,-0.0015534073,0.021244125,0.48545817,-1.3700664,1.889737,-2.0884817,-1.5714678,2.458831,-0.16887689,0.10048077,-0.12503222,0.029310057,-0.0062191472,-0.1900471,0.13407528,0.0,-9.385271,0.86945957,47.691364,-1.0569978,-2.4120965,-3.4533648,-0.028632298,-0.013656948,-0.18820134,28.25,29.625,28.6875,32.5,34.9375,36.0625
0.23605171,0.20667556,0.011172737,-0.610782,0.00037139305,0.014171236,-0.1601361,-0.40138617,-0.3632192,0.059998382,-3.0784624,0.62221617,0.00016765895,-0.104035616,0.04821996,-7.691763e-05,0.0064558988,-0.00082994567,0.013432512,0.48513418,-1.3698856,1.8894848,-2.088446,-1.5714673,2.4584732,-0.17065656,0.10250652,-0.12880021,0.029921163,-0.0056224754,-0.18401486,0.076614454,-0.019153614,-9.3661175,0.83589023,47.681515,-1.057935,-2.4138641,-3.3441796,-0.028179646,-0.024688095,-0.27952316,28.25,29.625,28.6875,32.5,34.9375,36.0625
0.2380526,0.03283553,0.06963889,-0.6324113,0.004405823,0.005476386,-0.1623181,-0.40159628,-0.363117,0.06000517,-3.0784662,0.62216014,0.00015103427,-0.10515774,0.048949454,0.00022239207,0.005623648,-0.00082480913,0.0087221395,0.4847742,-1.3696933,1.8892211,-2.088362,-1.5714668,2.458078,-0.17326011,0.102631405,-0.12974349,0.030344298,-0.004892216,-0.18190908,0.095768064,-0.05746084,-9.500193,0.84708,47.746887,-0.94336045,-2.3963296,-3.4659607,-0.027742077,-0.040340196,-0.3593828,28.25,29.625,28.6875,32.5,34.9375,36.0625
0.24005242,-0.1340906,0.15230922,-0.74267477,1.8910001e-05,0.0021104382,-0.1648417,-0.4018096,-0.36302847,0.060010307,-3.078473,0.6221029,0.00020227948,-0.10628067,0.049870387,0.00043501751,0.0059818,-0.0012171709,0.0066637313,0.48445013,-1.3694888,1.8889574,-2.0883253,-1.5714916,2.4577174,-0.17565317,0.10324834,-0.1313117,0.031803902,-0.0050235605,-0.18224306,-0.05746084,-0.019153614,-9.519346,0.88960326,47.70838,-0.90298975,-2.3595798,-3.3676448,-0.026964739,-0.056252476,-0.36390036,28.25,29.625,28.6875,32.5,34.9375,36.0625
0.24205251,-0.6420944,-0.26206186,-0.7453444,-0.0016235221,0.008080851,-0.17059296,-0.4019957,-0.3628975,0.059971422,-3.0783758,0.6220597,6.1501334e-05,-0.10623631,0.050482724,-0.0008891813,0.008804205,-0.004215495,0.010798186,0.48407865,-1.3692477,1.8887309,-2.088205,-1.5715159,2.4573314,-0.1758813,0.1064598,-0.13262059,0.03386323,-0.006152956,-0.18660185,-0.1340753,0.05746084,-9.423578,0.8672237,47.689575,-0.92929673,-2.3924959,-3.413464,-0.04552777,-0.03849917,-0.38717848,28.25,29.625,28.6875,32.5,34.9375,36.0625
0.24405243,-0.6720229,-0.2571003,-0.69506997,-0.014504686,0.038357977,-0.16764219,-0.4022081,-0.3628087,0.059995197,-3.0783997,0.6219252,0.000112623886,-0.10688221,0.05118592,0.0005554466,0.008352245,-0.0027141692,0.01684705,0.48375466,-1.3690683,1.8884438,-2.0881207,-1.5715398,2.4569206,-0.17737624,0.10395129,-0.13329789,0.035498437,-0.0064512985,-0.1941455,-0.15322891,0.1340753,-9.595961,0.8112748,47.67793,-0.9241506,-2.2971654,-3.424547,-0.07024111,-0.023691066,-0.3121159,28.25,29.625,28.6875,32.5,34.9375,36.0625
0.24605252,-1.1451123,-0.41617644,-0.7604394,-0.016435143,0.05866101,-0.16752681,-0.40242416,-0.3627139,0.060010146,-3.078432,0.6218865,0.00012673566,-0.10776463,0.05162911,-0.0010118787,0.009011728,-0.0058692144,0.026354644,0.4833951,-1.3688867,1.8881797,-2.0880606,-1.5715274,2.456533,-0.17936857,0.108385995,-0.13516144,0.03601514,-0.005575895,-0.20564601,-0.2681506,0.1340753,-9.615114,0.79560274,47.678825,-1.0619718,-2.362622,-3.4033566,-0.0712369,-0.041769594,-0.22186562,28.25,29.625,28.6875,32.5,34.9375,36.0625
0.24805227,-1.2113013,-0.38020676,-0.78871864,-0.030410327,0.08396982,-0.17040682,-0.40261242,-0.36262545,0.05999227,-3.0784435,0.6218238,2.0276545e-06,-0.107554615,0.050372545,0.00027822095,0.0074583306,-0.0044970345,0.035500035,0.48304868,-1.3686589,1.8879293,-2.0879762,-1.5714787,2.456146,-0.177434,0.10715897,-0.1368812,0.03702538,-0.0048594256,-0.21285765,-0.36391866,0.17238252,-9.557653,0.85155696,47.682407,-1.0905299,-2.354518,-3.3638635,-0.07553424,-0.049323596,-0.08731228,28.25,29.625,28.6875,32.5,34.9375,36.0625
0.25005215,-2.3714507,-1.0102087,-0.81982493,-0.017548282,0.06848345,-0.15738262,-0.40283033,-0.36251655,0.059977703,-3.0783877,0.621754,-1.1961464e-05,-0.107292704,0.05054845,-0.00016438757,0.008546257,-0.0069283904,0.034579813,0.48270136,-1.3684063,1.8876418,-2.0878913,-1.5715269,2.4557624,-0.17751494,0.10859712,-0.13818459,0.03953754,-0.004704082,-0.212018,-0.47884035,0.1340753,-9.730036,0.8090337,47.684196,-1.2269847,-2.3417878,-3.402574,-0.10623626,-0.071522966,-0.065229446,28.25,29.625,28.6875,32.5,34.9375,36.0625
0.25205287,-1.743362,-0.7550369,-0.6495703,-0.031591333,0.08624799,-0.16247113,-0.4030836,-0.36243662,0.06002783,-3.0784795,0.6216788,0.00013235434,-0.107732944,0.050790224,-0.00037024973,0.009701278,-0.007544558,0.028467063,0.4823423,-1.3682373,1.887318,-2.0878556,-1.5715274,2.455345,-0.17777754,0.11006619,-0.13975492,0.040726237,-0.0054173893,-0.20616625,-0.59376204,0.076614454,-9.634268,0.83365434,47.694946,-1.3055797,-2.3297093,-3.448394,-0.13511983,-0.06487827,-0.12022571,28.25,29.625,28.6875,32.5,34.9375,36.0625
0.2540523,-1.5484098,-1.0370096,-0.7004571,-0.023672251,0.088320196,-0.16281591,-0.40326306,-0.36234576,0.060017787,-3.0784664,0.62150645,4.1410087e-05,-0.10838538,0.051552504,-0.00026682593,0.011370634,-0.0081029385,0.019249523,0.48203036,-1.3680209,1.8870553,-2.087735,-1.5715278,2.4549272,-0.1788113,0.11091455,-0.14151931,0.0429204,-0.0066501484,-0.1979789,-0.53630114,0.22984336,-9.557653,0.87393653,47.71465,-1.3047254,-2.3866587,-3.2516088,-0.1764713,-0.06514831,-0.24013507,28.25,29.625,28.6875,32.5,34.9375,36.0625
0.25605208,-1.4790732,-0.19782507,-0.71179783,-0.020555621,0.069984995,-0.16513754,-0.4034789,-0.36224562,0.06000349,-3.078447,0.6214499,-1.8619286e-05,-0.11071493,0.051709283,0.00029591608,0.010790441,-0.0064937957,0.008328121,0.4816704,-1.367768,1.8867668,-2.087651,-1.5715278,2.4545345,-0.18090431,0.11299586,-0.1453149,0.042945664,-0.006897838,-0.18914795,-0.51714754,0.1340753,-9.5385,0.900793,47.694054,-1.2351724,-2.3433447,-3.0896745,-0.18827465,-0.0622385,-0.33609727,28.25,29.625,28.6875,32.5,34.9375,36.0625
0.25805217,-0.9799368,-0.42534107,-0.6680643,-0.0121043045,0.067115866,-0.17088772,-0.40372396,-0.36212236,0.06000975,-3.078414,0.62146246,4.0387054e-05,-0.111228906,0.051560145,4.24518e-05,0.009931409,-0.006061541,0.0036341697,0.48127526,-1.3675516,1.8864807,-2.087592,-1.5715755,2.4541516,-0.18135996,0.11393209,-0.14554007,0.04144384,-0.0063399477,-0.18491061,-0.5363012,0.13407528,-9.5385,0.8314132,47.678825,-1.3370109,-2.4737206,-3.21105,-0.18502003,-0.059142724,-0.44603646,28.25,29.625,28.6875,32.5,34.9375,36.0625
0.26005208,-1.3425626,-0.37628955,-0.46448547,-0.017825937,0.05658165,-0.17038515,-0.40396294,-0.3620241,0.06001967,-3.0784233,0.6215006,4.0724935e-05,-0.11182733,0.051350474,0.0004893813,0.009686743,-0.006104555,0.0055696913,0.48089105,-1.367323,1.8861688,-2.0875194,-1.5715636,2.4537902,-0.18158539,0.11469575,-0.14781608,0.042878468,-0.0061079795,-0.1870713,-0.51714754,0.17238252,-9.442732,0.8806493,47.672558,-1.4520683,-2.3006203,-3.15414,-0.19804688,-0.06875286,-0.488593,28.25,29.625,28.6875,32.5,34.9375,36.0625
0.2620521,-1.0423812,-0.19460018,-0.4564824,-0.012403218,0.061774302,-0.18094859,-0.40419367,-0.36192495,0.060025673,-3.0783849,0.62150663,5.897633e-05,-0.11355027,0.05171436,0.00064323185,0.010139386,-0.0059467033,0.015675811,0.4805425,-1.367082,1.8858455,-2.0874236,-1.5715998,2.4534504,-0.1833285,0.11702651,-0.15123186,0.044015493,-0.0066009313,-0.19891788,-0.47884035,0.038307227,-9.346964,0.8090337,47.677036,-1.4578507,-2.4765482,-3.1180859,-0.2214401,-0.06869814,-0.41059098,28.25,29.625,28.6875,32.5,34.9375,36.0625
0.26405188,-1.6289005,0.02915013,-0.7795494,0.0043976605,0.03893321,-0.19346154,-0.4044004,-0.36184207,0.06002683,-3.0784292,0.6212957,9.170847e-07,-0.11371897,0.053246174,-0.00086331734,0.011782921,-0.008319379,0.027926149,0.48020568,-1.366853,1.8855475,-2.0873272,-1.571576,2.4529765,-0.18574032,0.11868345,-0.1497478,0.043729715,-0.0069787996,-0.21357939,-0.17238252,0.038307227,-9.404425,0.86498255,47.666286,-1.4032183,-2.440707,-3.1563709,-0.23034523,-0.07136993,-0.26840258,28.25,29.625,28.6875,32.5,34.9375,36.0625
0.26605192,-0.87547094,-0.21637774,-0.3584385,0.009297987,0.03966568,-0.16915679,-0.4046482,-0.36173615,0.06003101,-3.0784407,0.621276,1.2944786e-05,-0.115169376,0.055115823,-0.002504504,0.013216787,-0.010843153,0.031904884,0.4798087,-1.3666116,1.8852361,-2.087268,-1.571576,2.452566,-0.1899975,0.12212013,-0.15011136,0.043548197,-0.0070953323,-0.22181448,-0.17238252,0.038307227,-9.385271,0.86945957,47.672558,-1.3813715,-2.546196,-3.1287818,-0.23872578,-0.046958975,-0.18901898,28.25,29.625,28.6875,32.5,34.9375,36.0625
0.26805207,-1.0941812,-0.18459328,-0.07821494,-0.01634547,0.035976246,-0.168036,-0.40488905,-0.36161107,0.060030982,-3.078426,0.62113905,-1.0104756e-05,-0.11601999,0.05501624,-0.0004210412,0.010828321,-0.007449286,0.030545386,0.4794005,-1.3663727,1.8849262,-2.0871599,-1.5715998,2.4520743,-0.1908121,0.11876665,-0.15085824,0.04352615,-0.0065574786,-0.22127081,-0.34476504,0.095768064,-9.155427,0.8672237,47.678825,-1.4361571,-2.467817,-3.2814798,-0.26513714,-0.072891966,-0.16669965,28.25,29.625,28.6875,32.5,34.9375,36.0625
0.2700522,-1.0630124,-0.67509884,-0.27267817,0.0004772722,0.032286365,-0.1651194,-0.4051293,-0.36149764,0.060038716,-3.0783951,0.6210988,3.424371e-05,-0.116458885,0.05591544,-0.0022959036,0.012834214,-0.010306875,0.022505915,0.47902763,-1.366143,1.8846153,-2.087077,-1.571648,2.4516804,-0.19233367,0.122641325,-0.15124851,0.043497115,-0.007021442,-0.21475118,-0.38307226,0.019153614,-9.155427,0.9030289,47.65464,-1.3287499,-2.5920615,-3.3314762,-0.2722193,-0.07512361,-0.20713511,28.25,29.625,28.6875,32.5,34.9375,36.0625
0.2720521,-0.7111296,-0.24509133,-0.13226229,-0.00083174254,0.035433926,-0.1623245,-0.40537202,-0.36140287,0.060045246,-3.078436,0.62097496,6.372593e-05,-0.118762165,0.056605536,-0.00032178048,0.011752546,-0.0058526536,0.015709825,0.47865483,-1.3659036,1.8843035,-2.0870292,-1.5716485,2.4512253,-0.19474515,0.12075216,-0.15341191,0.043103445,-0.008115829,-0.2103639,-0.21068975,-0.05746084,-9.251195,0.8403672,47.66091,-1.2242186,-2.4082413,-3.2494564,-0.28499147,-0.06306256,-0.29962814,28.25,29.625,28.6875,32.5,34.9375,36.0625
0.2740524,-0.5925919,0.3216819,0.09381971,0.0014618175,0.035313044,-0.17655538,-0.40562516,-0.36126947,0.06004546,-3.0783865,0.6210436,5.334399e-05,-0.11909949,0.05734594,-0.0015890945,0.012368272,-0.0077061956,0.01145898,0.4782224,-1.3656623,1.8839926,-2.086933,-1.5716723,2.4508421,-0.19636819,0.12294842,-0.15303998,0.042457335,-0.007818507,-0.20773633,-0.15322891,-0.19153613,-9.155427,0.8179876,47.672558,-1.148434,-2.422546,-3.3475995,-0.28319114,-0.052640967,-0.38530096,28.25,29.625,28.6875,32.5,34.9375,36.0625
0.27605247,-1.4134403,0.12613484,0.15278268,0.026728805,0.009878247,-0.1766865,-0.40586066,-0.36115497,0.060030818,-3.078357,0.6209809,3.0639418e-05,-0.12039712,0.05733369,-0.0011717693,0.010915044,-0.007439294,0.010190836,0.4778375,-1.365398,1.8836936,-2.0868614,-1.5716962,2.450422,-0.19809784,0.123982385,-0.15533322,0.04279893,-0.006667808,-0.20819919,-0.19153613,-0.15322891,-9.021352,0.8672237,47.67345,-1.070349,-2.4352448,-3.3046436,-0.2912779,-0.06319848,-0.39651877,28.25,29.625,28.6875,32.5,34.9375,36.0625
0.27805248,-0.7393374,0.934712,0.2838099,0.030336061,0.03116124,-0.18347175,-0.40612876,-0.36106375,0.06006236,-3.07843,0.6208933,0.00010309412,-0.12180202,0.057702392,-0.0008147708,0.00985567,-0.005810798,0.017650789,0.47744113,-1.3651699,1.8833355,-2.0868018,-1.5716838,2.449962,-0.19995295,0.12429336,-0.15623721,0.041449394,-0.0064766845,-0.2175147,-0.21068975,-0.15322891,-9.002198,0.9254084,47.691364,-0.9995494,-2.3171885,-3.3289728,-0.29283,-0.094981015,-0.34643692,28.25,29.625,28.6875,32.5,34.9375,36.0625
0.2800524,-0.5304119,1.1393524,0.25464824,0.04419044,0.043444127,-0.1924442,-0.4063473,-0.36092776,0.060036995,-3.0783918,0.6208203,-1.4307992e-07,-0.12410949,0.057851475,3.935562e-05,0.0078995135,-0.0019764926,0.028685665,0.47702065,-1.3649292,1.8830837,-2.0867074,-1.5716838,2.4495008,-0.20208997,0.12449151,-0.15776767,0.03846245,-0.006542023,-0.23068517,-0.095768064,-0.19153613,-8.983045,0.8291774,47.703007,-1.1054771,-2.482551,-3.425044,-0.26621345,-0.07727887,-0.23288894,28.25,29.625,28.6875,32.5,34.9375,36.0625
0.2820525,-0.9681159,0.6376991,0.04071682,0.042947017,0.031646922,-0.1757675,-0.4065971,-0.36080727,0.060010653,-3.0783534,0.6206567,1.1319409e-05,-0.124118656,0.058778483,-0.001762686,0.009766701,-0.0053879726,0.034350548,0.47663602,-1.3646281,1.8827723,-2.0866592,-1.5717438,2.4490192,-0.20348862,0.12770803,-0.1576869,0.039030224,-0.0066508846,-0.23774788,-0.15322891,-0.19153613,-9.174581,0.8224646,47.639416,-1.0759851,-2.338521,-3.3658593,-0.2607299,-0.072394654,-0.124759145,28.25,29.625,28.6875,32.5,34.9375,36.0625
0.2840524,-0.17763656,0.8658709,-0.017907834,0.010467964,0.05512932,-0.19262289,-0.4068368,-0.3607055,0.060023822,-3.0783868,0.62058824,-1.2891163e-05,-0.12553328,0.0581906,0.0011696736,0.0073950547,8.347782e-06,0.030178938,0.47624037,-1.3644012,1.882449,-2.0865633,-1.57172,2.4485767,-0.20339818,0.12412728,-0.16011903,0.0391689,-0.0070221946,-0.23348472,-0.34476504,-0.1340753,-9.11712,0.81351066,47.658226,-1.0930008,-2.2097635,-3.197223,-0.2592846,-0.09718118,-0.09239933,28.25,29.625,28.6875,32.5,34.9375,36.0625
0.28605235,-1.4399749,-0.07787165,-0.11457821,0.0018447854,0.039727002,-0.16754997,-0.4070723,-0.3605886,0.060020894,-3.0783691,0.62047356,-6.342644e-05,-0.12552188,0.0569652,0.0014600293,0.0073614134,-5.7131576e-05,0.022870116,0.4758451,-1.3641483,1.8821257,-2.0864432,-1.5717319,2.4481122,-0.20125532,0.1256863,-0.16297841,0.040516052,-0.00697029,-0.22403166,-0.61291564,0.05746084,-9.270349,0.9254084,47.68062,-1.3392894,-2.1297262,-3.2963662,-0.28302002,-0.089038566,-0.20513491,28.25,29.625,28.6875,32.5,34.9375,36.0625
0.28805223,-1.5190808,-0.54422444,-0.52934724,-0.0049690027,0.054027867,-0.1700428,-0.40733734,-0.36045387,0.06002135,-3.0783312,0.62052655,-5.7991256e-05,-0.12630478,0.055936202,0.0017969707,0.006944667,0.001038358,0.015348173,0.47540152,-1.3638953,1.8818029,-2.0863597,-1.5717558,2.4477067,-0.20000888,0.12756804,-0.16602735,0.040519867,-0.0071047815,-0.2152615,-0.49799395,0.17238252,-9.32781,0.9254084,47.711063,-1.5133768,-2.2418249,-3.2597342,-0.27795032,-0.09439695,-0.31742966,28.25,29.625,28.6875,32.5,34.9375,36.0625
0.2900522,-1.534689,-0.5252855,-0.84507096,-0.025784705,0.06511116,-0.17757927,-0.4075958,-0.3603316,0.060030203,-3.078313,0.62043244,-3.9247127e-05,-0.1268241,0.057804246,0.0008058438,0.008292435,0.0005896675,0.005821032,0.47499284,-1.3636429,1.8814563,-2.0862525,-1.5717925,2.4472418,-0.2028854,0.12778424,-0.16372238,0.039014284,-0.008094502,-0.20860925,-0.36391866,0.17238252,-9.5385,0.93436235,47.711063,-1.459394,-2.1702452,-3.2796497,-0.26964915,-0.08340527,-0.4373827,28.25,29.625,28.6875,32.5,34.9375,36.0625
0.2920521,-1.6848294,-1.536509,-1.0330293,-0.035909925,0.07158427,-0.17948382,-0.40784502,-0.36021176,0.060006585,-3.0782678,0.6203648,-6.656721e-05,-0.12892781,0.05865356,0.0003865817,0.0075728837,0.0010040767,0.004229229,0.47459567,-1.3633418,1.881133,-2.086181,-1.5718278,2.4468083,-0.20630306,0.13017614,-0.16533592,0.03752462,-0.007664162,-0.21043476,-0.34476504,0.24899697,-9.634268,0.89631605,47.693153,-1.3713155,-2.2522435,-3.2904897,-0.26174492,-0.091049105,-0.5131946,28.25,29.625,28.6875,32.5,34.9375,36.0625
0.29405186,-1.541265,-1.1395398,-1.0667504,-0.06439006,0.06657662,-0.18369776,-0.40807685,-0.36008027,0.059983738,-3.0782192,0.6204055,-0.00023541584,-0.13064598,0.05919674,0.0012124218,0.0069861296,0.003037497,0.014575389,0.4741508,-1.3630657,1.8808216,-2.0860374,-1.5717925,2.4463952,-0.20832816,0.1302239,-0.16725433,0.037311096,-0.008112055,-0.22280344,-0.2873042,0.2873042,-9.80665,0.8717007,47.67166,-1.3416082,-2.1561599,-3.313608,-0.24569663,-0.080438055,-0.44191644,28.25,29.625,28.6875,32.5,34.9375,36.0625
0.29605177,-1.3463303,-1.9451395,-1.5101677,-0.055277437,0.06724185,-0.17345306,-0.40834305,-0.35996985,0.060000606,-3.0782158,0.62024325,-0.00012592529,-0.13244103,0.06029652,0.00047865248,0.007666621,0.002343776,0.026348174,0.47377768,-1.3628124,1.8804635,-2.0859654,-1.5718645,2.4459214,-0.21143843,0.13318458,-0.16911978,0.037109166,-0.008413404,-0.23768495,-0.19153613,0.2681506,-9.940725,0.88289046,47.67166,-1.196398,-2.3258317,-3.2920074,-0.24854454,-0.08195475,-0.28982934,28.25,29.625,28.6875,32.5,34.9375,36.0625
0.29805225,-1.280729,-1.7023093,-1.5729173,-0.06331685,0.054837935,-0.1811289,-0.408635,-0.35984352,0.06000829,-3.0782824,0.62019604,-7.887869e-05,-0.13399278,0.061006412,0.00025753604,0.0077198953,0.0033683304,0.031597756,0.47329685,-1.3625599,1.8801407,-2.085954,-1.5718406,2.4454029,-0.21352763,0.13471554,-0.1701747,0.03574129,-0.00892702,-0.24502233,-0.076614454,0.30645782,-10.113108,0.85826975,47.684196,-1.2066749,-2.1776574,-3.3863606,-0.24051006,-0.0815069,-0.18869326,28.25,29.625,28.6875,32.5,34.9375,36.0625
0.30005226,-0.9687575,-1.7615333,-1.4960501,-0.064164296,0.051050093,-0.16553241,-0.40888467,-0.35972396,0.060000535,-3.0782702,0.62000406,-8.9652356e-05,-0.13514894,0.06094613,0.000855472,0.006218253,0.0054278565,0.027133966,0.4729009,-1.3622835,1.8798054,-2.085859,-1.5718764,2.4448888,-0.21455103,0.13459985,-0.17109138,0.03424674,-0.008539402,-0.24158224,-0.22984336,0.36391866,-10.093954,0.8314132,47.684196,-1.1890235,-2.3257384,-3.3806496,-0.1841735,-0.09390952,-0.15920973,28.25,29.625,28.6875,32.5,34.9375,36.0625
0.302052,-0.5652,-1.3043658,-1.3643297,-0.07162848,0.052714035,-0.18509819,-0.40918702,-0.35961533,0.060030703,-3.0783255,0.62002003,2.1089225e-05,-0.13628319,0.0621285,-0.001202516,0.0075920383,0.0023365647,0.017163213,0.472456,-1.3620293,1.879424,-2.0858233,-1.5718764,2.444447,-0.21751183,0.1393236,-0.17202,0.03383328,-0.008329705,-0.2345725,-0.22984336,0.38307226,-9.921572,0.8672237,47.687782,-0.99300325,-2.4945707,-3.4001079,-0.18853743,-0.08223431,-0.2594343,28.25,29.625,28.6875,32.5,34.9375,36.0625
0.30405197,-1.143661,-1.3762794,-1.3481972,-0.0430945,0.029424932,-0.16927138,-0.40945995,-0.3594773,0.060018107,-3.0783222,0.619926,-2.4884834e-05,-0.13747197,0.06290639,-0.001150057,0.00750522,0.0032659771,0.009855674,0.47198743,-1.3617411,1.8790878,-2.0857394,-1.5718764,2.4439204,-0.2195022,0.13980973,-0.17258134,0.033045057,-0.008682218,-0.22925393,-0.17238252,0.30645782,-9.902418,0.91198283,47.679718,-1.0049928,-2.4066133,-3.4346623,-0.13700289,-0.07376343,-0.33494863,28.25,29.625,28.6875,32.5,34.9375,36.0625
0.306052,-0.94004273,-0.7929427,-1.2887884,-0.021982726,0.028015897,-0.16617507,-0.40975803,-0.35937858,0.060048394,-3.0783646,0.6199186,0.00011200785,-0.13972014,0.064120345,-0.0011604829,0.0071688364,0.002592205,0.004470183,0.4715781,-1.3614762,1.878693,-2.0857031,-1.5719002,2.4435012,-0.22372992,0.14207406,-0.1755712,0.03420841,-0.008058039,-0.22809711,-0.15322891,0.15322891,-9.825804,0.90527004,47.67166,-0.9135405,-2.5142596,-3.3255115,-0.12708218,-0.067001335,-0.3964303,28.25,29.625,28.6875,32.5,34.9375,36.0625
0.30805185,-0.6472083,0.04817263,-0.9960754,-0.008995145,0.026779966,-0.18494546,-0.4100222,-0.35922712,0.06003545,-3.0783324,0.6199067,0.000103101986,-0.14001344,0.06430003,-0.0017640843,0.0073253373,0.0008772175,0.012334585,0.47110966,-1.3612232,1.8784055,-2.0856435,-1.5719241,2.4430296,-0.22454165,0.14398605,-0.17671098,0.035013925,-0.007433269,-0.23677392,-0.095768064,0.076614454,-9.749189,0.842603,47.64837,-0.9804702,-2.5694778,-3.477735,-0.11152053,-0.11452089,-0.37153697,28.25,29.625,28.6875,32.5,34.9375,36.0625
0.3100518,-0.8151677,-0.042599335,-0.93038625,0.0103845475,0.03235809,-0.17812194,-0.41028556,-0.35912758,0.06003473,-3.078367,0.6197675,0.00011294873,-0.13810988,0.062995926,-0.0030199517,0.008197564,-0.0018398736,0.029427687,0.47071487,-1.3609346,1.8780469,-2.085583,-1.5719241,2.4425437,-0.22085239,0.14590801,-0.17631248,0.03549049,-0.006986551,-0.25017884,-0.15322891,0.0,-9.481039,0.8985519,47.66987,-1.1191351,-2.4954305,-3.454791,-0.09622586,-0.108132005,-0.23843822,28.25,29.625,28.6875,32.5,34.9375,36.0625
0.31205183,-1.104153,0.5477687,-0.7091485,0.012784151,0.03857989,-0.18389052,-0.4105837,-0.35901237,0.060034584,-3.0784059,0.61963624,0.00016470414,-0.13789953,0.062544964,-0.0018079978,0.007326394,-0.0006479945,0.037332755,0.4702713,-1.3606234,1.8776654,-2.0855467,-1.571936,2.4420135,-0.21991386,0.1439919,-0.1770796,0.036701594,-0.0067483955,-0.25714636,-0.15322891,-0.15322891,-9.5385,0.8537928,47.68062,-1.289154,-2.4932284,-3.6025176,-0.07475521,-0.11732307,-0.1274149,28.25,29.625,28.6875,32.5,34.9375,36.0625
0.31405178,-0.8465883,0.7706834,-0.28677025,0.01171123,0.05762845,-0.1822044,-0.41084093,-0.35888407,0.060030404,-3.078372,0.61949635,0.0001633602,-0.13748501,0.0623907,-0.0026372308,0.0081752185,-0.003211777,0.034938972,0.4698634,-1.3603464,1.8773178,-2.085438,-1.5719842,2.4415228,-0.21942109,0.14613083,-0.17816408,0.038304746,-0.0063519506,-0.25425994,-0.24899697,-0.19153613,-9.461885,0.8560339,47.664497,-1.337364,-2.546114,-3.561194,-0.06832062,-0.12582602,-0.10924482,28.25,29.625,28.6875,32.5,34.9375,36.0625
0.3160517,-0.49994662,0.76978964,-0.17692398,0.018750304,0.05809005,-0.18766607,-0.41112697,-0.35876995,0.060040895,-3.0784345,0.6194559,0.00014356922,-0.13866945,0.061783995,-0.0015425654,0.0070218,-0.0015136659,0.025849603,0.46939558,-1.360071,1.8769468,-2.0853665,-1.5719355,2.441022,-0.2194389,0.14658785,-0.1814107,0.039077826,-0.0060862587,-0.245188,-0.24899697,-0.19153613,-9.289502,0.8627467,47.70211,-1.3759918,-2.4196558,-3.4390297,-0.051919296,-0.1387834,-0.20482825,28.25,29.625,28.6875,32.5,34.9375,36.0625
0.31805262,-0.46451414,0.48190302,-0.28375855,0.023744129,0.033671368,-0.18178567,-0.41141337,-0.35865447,0.060043134,-3.078464,0.6193726,0.0001972866,-0.14115639,0.06235165,-0.00089490495,0.0068874056,6.4893225e-05,0.013290283,0.46896282,-1.3597822,1.8765868,-2.0853302,-1.5719479,2.4405336,-0.2220315,0.14852126,-0.18537068,0.03964444,-0.006672622,-0.23521854,-0.28730422,-0.17238252,-9.2703495,0.8873621,47.682407,-1.374353,-2.5480642,-3.3160832,-0.04360327,-0.13991609,-0.33915883,28.25,29.625,28.6875,32.5,34.9375,36.0625
0.32005247,-0.69549114,0.6166242,-0.25649834,0.01595089,0.010973257,-0.17904602,-0.4117314,-0.35851324,0.06006855,-3.0784514,0.61939454,0.00030195515,-0.14315543,0.06315774,0.00090723304,0.0068768836,0.0035696342,0.0037682233,0.4684821,-1.3595072,1.8761796,-2.0852458,-1.5719966,2.4400685,-0.22399013,0.14712721,-0.18802983,0.040566765,-0.008233985,-0.22765136,-0.2681506,-0.11492168,-9.212888,0.9858343,47.686886,-1.4351776,-2.4231129,-3.2708538,-0.016556688,-0.12046285,-0.47529316,28.25,29.625,28.6875,32.5,34.9375,36.0625
0.3220524,-0.60906047,0.234312,-0.32125738,0.020512713,0.008983509,-0.17122328,-0.41201106,-0.35839006,0.060062174,-3.0784492,0.61931264,0.000323354,-0.14380708,0.063781224,0.0013509296,0.006952993,0.0038831932,0.007747761,0.46804973,-1.3592076,1.8758205,-2.0851862,-1.5720204,2.4395854,-0.22532807,0.14680056,-0.18889506,0.041498505,-0.008447039,-0.23296827,-0.24899697,0.038307227,-9.212888,0.9231726,47.667187,-1.4055166,-2.3203044,-3.2595735,-0.012837922,-0.1283264,-0.50361156,28.25,29.625,28.6875,32.5,34.9375,36.0625
0.3240528,-0.18382645,0.33807445,-0.53679186,0.00732531,0.03224924,-0.18288033,-0.41228637,-0.35826758,0.060075436,-3.0784688,0.61923045,0.00026655942,-0.14439835,0.06437704,0.001346195,0.007090372,0.0026868624,0.021330755,0.46759337,-1.3589314,1.8754257,-2.0850418,-1.5719966,2.4390755,-0.22694084,0.14764571,-0.19031858,0.043188218,-0.008047208,-0.24816427,-0.2681506,0.15322891,-9.232041,0.94331104,47.666286,-1.465797,-2.2517269,-3.2109547,-0.014536214,-0.12394969,-0.39471677,28.25,29.625,28.6875,32.5,34.9375,36.0625
0.32605183,-1.2237213,-0.33514124,-0.58872896,-0.0029387453,0.029527532,-0.18824185,-0.41258723,-0.35812005,0.060098417,-3.078432,0.6192181,0.00033872065,-0.1462023,0.06582774,0.0022427854,0.0068328013,0.0036034884,0.029240925,0.46712437,-1.3586681,1.8750299,-2.084922,-1.5720562,2.4386036,-0.23065808,0.1471091,-0.19203193,0.044471,-0.008236729,-0.25979102,-0.15322891,0.1340753,-9.289502,0.92093146,47.68062,-1.416256,-2.1568542,-3.2075028,-0.009463071,-0.14742085,-0.2583635,28.25,29.625,28.6875,32.5,34.9375,36.0625
0.32805184,-1.4728518,-0.88554823,-0.43516102,-0.022287281,0.061534237,-0.168591,-0.41284803,-0.35799795,0.060076457,-3.0784607,0.6190718,0.00021477186,-0.14785315,0.066848844,0.002541261,0.0077662533,0.0035083839,0.029016363,0.46666726,-1.3583555,1.8746818,-2.0848248,-1.572009,2.4380517,-0.23315188,0.14860083,-0.19499381,0.046455044,-0.009047324,-0.2620568,-0.49799395,0.1340753,-9.270349,0.9388393,47.672558,-1.2295892,-2.2153144,-3.257057,-0.019337215,-0.13143928,-0.17714569,28.25,29.625,28.6875,32.5,34.9375,36.0625
0.33005184,-1.8315563,-1.1038504,-0.40726814,-0.027165113,0.07399211,-0.16824245,-0.41313952,-0.35784793,0.060077474,-3.0784116,0.61899126,0.00026608046,-0.14811088,0.068949156,0.0006347311,0.009410336,-0.0016364409,0.018150069,0.46620992,-1.358067,1.8743109,-2.084729,-1.5720805,2.4375505,-0.23728266,0.15138765,-0.19452286,0.04851545,-0.008195477,-0.25532308,-0.59376204,0.17238252,-9.289502,0.91421866,47.67793,-0.9904152,-2.1600106,-3.362728,-0.028244242,-0.13345467,-0.27054265,28.25,29.625,28.6875,32.5,34.9375,36.0625
0.33205202,-1.8955142,-1.167175,-0.81269383,-0.018207526,0.070894696,-0.15894307,-0.41345772,-0.35771516,0.060083535,-3.078411,0.61897564,0.00031563835,-0.14829816,0.06914196,0.0018639049,0.008309644,-0.00055743573,0.010955473,0.46572968,-1.3577441,1.8738922,-2.0846565,-1.5721039,2.4370608,-0.23791319,0.14917004,-0.19495836,0.04970777,-0.007686203,-0.24876073,-0.4213795,0.21068975,-9.442732,0.8717007,47.678825,-1.0204079,-2.029531,-3.3410406,-0.050729856,-0.15862006,-0.34533817,28.25,29.625,28.6875,32.5,34.9375,36.0625
0.334052,-1.9660927,-1.093665,-0.79041004,-0.011794429,0.057359427,-0.16896848,-0.41376474,-0.35758677,0.060097955,-3.0784247,0.619036,0.00030399117,-0.14815028,0.06863182,0.0020552387,0.008750549,-0.00063643145,0.012618449,0.46523815,-1.357444,1.873474,-2.0845487,-1.5720805,2.4366055,-0.23654886,0.14981428,-0.19646332,0.050840273,-0.008045219,-0.24905814,-0.4213795,0.17238252,-9.442732,0.9791215,47.686886,-1.0499758,-1.9725325,-3.3048985,-0.072625555,-0.13538028,-0.4117455,28.25,29.625,28.6875,32.5,34.9375,36.0625
0.33605188,-1.2466805,0.018234922,-0.33574852,-0.029058667,0.071117654,-0.17073685,-0.4140494,-0.35743934,0.0600942,-3.0784209,0.6188365,0.000306189,-0.1483193,0.06928764,0.0012824225,0.010044269,-0.0026326969,0.020216051,0.46477002,-1.357156,1.873114,-2.084452,-1.5721163,2.4360135,-0.23748307,0.15164833,-0.19724728,0.052131597,-0.00832093,-0.25758874,-0.49799395,0.038307227,-9.251195,0.93436235,47.711964,-1.1650157,-2.0154266,-3.324201,-0.071448855,-0.16778457,-0.36404914,28.25,29.625,28.6875,32.5,34.9375,36.0625
0.33805212,-1.6197649,0.23666762,-0.8845811,0.010782633,0.026906969,-0.17525327,-0.41434482,-0.35729995,0.06010495,-3.0783966,0.6187672,0.00034997857,-0.14851736,0.069379605,0.0005463643,0.010342331,-0.0051123216,0.033819918,0.46431383,-1.3568674,1.8727177,-2.0843437,-1.5721639,2.4355173,-0.23816375,0.15409338,-0.19890477,0.053655613,-0.0074920985,-0.27187443,-0.30645782,-0.076614454,-9.289502,0.9254084,47.72271,-1.3085572,-1.9852762,-3.2709699,-0.08003394,-0.1555771,-0.22658198,28.25,29.625,28.6875,32.5,34.9375,36.0625
0.34005198,-1.1785601,0.2997915,-0.9514032,0.035029463,0.013298843,-0.16230753,-0.4146636,-0.35715964,0.060092133,-3.0784168,0.6187681,0.00029686742,-0.14855708,0.06982936,0.00026278128,0.011517133,-0.006186154,0.03992405,0.4637859,-1.3565191,1.872311,-2.0842717,-1.5721287,2.4349875,-0.23842986,0.15498413,-0.19969554,0.055041037,-0.008074871,-0.27824298,-0.11492168,-0.15322891,-9.481039,0.8717007,47.72719,-1.3845057,-2.1608586,-3.3797789,-0.104519874,-0.17821896,-0.13330598,28.25,29.625,28.6875,32.5,34.9375,36.0625
0.3420518,-0.7464392,0.5128457,-0.5072374,0.024130085,0.015017466,-0.16796689,-0.41496688,-0.35705104,0.060104877,-3.0784533,0.61860627,0.00033248749,-0.14910583,0.070989035,-0.002090536,0.014278688,-0.01061227,0.032424908,0.46335366,-1.3561934,1.871868,-2.0841753,-1.5721406,2.43445,-0.24039467,0.16031583,-0.20111248,0.05632312,-0.008561354,-0.2727065,-0.22984336,-0.15322891,-9.308657,0.9612189,47.70211,-1.3920536,-2.3708923,-3.3415976,-0.11758454,-0.1673504,-0.10850516,28.25,29.625,28.6875,32.5,34.9375,36.0625
0.34405178,-0.3548726,0.73150796,-0.6264277,0.024252087,0.016429553,-0.16608174,-0.41526103,-0.35689297,0.060113877,-3.0784266,0.618512,0.0003324947,-0.1492358,0.07168974,-0.002021889,0.015921447,-0.013069103,0.021451347,0.46286106,-1.3559177,1.8714851,-2.0840414,-1.5721768,2.433902,-0.2413041,0.16136959,-0.20355138,0.06064216,-0.008936102,-0.26264057,-0.2681506,-0.11492168,-9.232041,0.94331104,47.68599,-1.4590569,-2.3124123,-3.3326237,-0.15760887,-0.16634421,-0.24291596,28.25,29.625,28.6875,32.5,34.9375,36.0625
0.3460518,-1.2565295,0.3959266,-0.7546053,0.019011965,-0.002128126,-0.17007475,-0.41554728,-0.35672268,0.060079463,-3.078326,0.6184389,0.000255209,-0.14952227,0.07155156,-0.0026611383,0.016505433,-0.013414493,0.011754167,0.4623694,-1.3555691,1.8711137,-2.0839107,-1.5722369,2.4333777,-0.24092498,0.16339324,-0.20446828,0.060101718,-0.009335926,-0.2525618,-0.22984336,-0.019153614,-9.346964,0.97464454,47.664497,-1.4519876,-2.2859738,-3.406735,-0.19236237,-0.17826375,-0.3830966,28.25,29.625,28.6875,32.5,34.9375,36.0625
0.34805185,-0.68977267,-0.0867713,-0.5741756,0.0047868006,0.020917494,-0.17363979,-0.41583157,-0.3566077,0.06009637,-3.078318,0.6183627,0.00020697656,-0.15106633,0.07297617,-0.0030685372,0.017191628,-0.015095996,0.0063161966,0.4619361,-1.355257,1.8706583,-2.08373,-1.5722369,2.432898,-0.24454767,0.1656013,-0.20665424,0.061889313,-0.00921745,-0.25074553,-0.1340753,-0.038307227,-9.308657,0.947788,47.67345,-1.2991691,-2.4580376,-3.4346368,-0.20368329,-0.16336387,-0.4930842,28.25,29.625,28.6875,32.5,34.9375,36.0625
0.3500518,-0.2799305,-0.30750152,-0.5697724,-0.01826819,0.022661543,-0.17907673,-0.4161641,-0.356444,0.060107775,-3.0783038,0.6184101,0.0002550427,-0.15169331,0.074892394,-0.0031445848,0.018821137,-0.017699502,0.016174808,0.46139497,-1.354957,1.8702515,-2.083645,-1.5722607,2.4323885,-0.2479342,0.1659825,-0.20785318,0.06573443,-0.00952985,-0.26398996,0.15322891,0.0,-9.346964,0.86945957,47.67614,-1.2713917,-2.335454,-3.3852203,-0.28546682,-0.16972,-0.43206418,28.25,29.625,28.6875,32.5,34.9375,36.0625
0.35205263,-0.17027666,-0.50439477,-0.33367422,-0.028338287,0.01976513,-0.17590298,-0.41646,-0.35628015,0.060083278,-3.0782351,0.6184089,0.00014613933,-0.15366916,0.07616577,-0.0025140885,0.017514061,-0.017074091,0.026918778,0.46087754,-1.3546093,1.8698553,-2.083501,-1.5722727,2.4318793,-0.25209022,0.1660666,-0.20953342,0.06615569,-0.00869355,-0.27889073,0.057460837,0.019153614,-9.212888,0.9030289,47.682407,-1.1297891,-2.4055822,-3.3542368,-0.3329183,-0.16905159,-0.2664307,28.25,29.625,28.6875,32.5,34.9375,36.0625
0.35405263,-0.10520358,-0.32276282,-0.38524622,-0.026196012,0.024072783,-0.1730013,-0.41674626,-0.35612676,0.060066298,-3.0782206,0.618211,6.607649e-05,-0.15432043,0.07539555,-0.0021968528,0.01655494,-0.014230967,0.03391996,0.46038613,-1.354285,1.8694733,-2.0833714,-1.5722846,2.4312663,-0.25091344,0.1664169,-0.21009903,0.063383326,-0.009143284,-0.2847131,-0.076614454,0.1340753,-9.174581,0.88960326,47.68599,-1.0721767,-2.3435457,-3.3507981,-0.31289312,-0.16419356,-0.17756107,28.25,29.625,28.6875,32.5,34.9375,36.0625
0.35605177,-0.29894215,-0.06296937,-0.49581465,-0.02076575,0.026495075,-0.16445155,-0.41703245,-0.3559755,0.06005393,-3.0781841,0.6180739,-3.1236114e-06,-0.15491085,0.075374246,-0.0026115084,0.01641104,-0.01461963,0.02644368,0.4599059,-1.3539606,1.8690776,-2.0832274,-1.5723084,2.4307053,-0.25138885,0.1682316,-0.21132898,0.063082136,-0.008867094,-0.2777117,-0.28730422,0.22984336,-9.174581,0.89631605,47.72092,-1.1492357,-2.3678892,-3.353776,-0.33294448,-0.17193772,-0.22804809,28.25,29.625,28.6875,32.5,34.9375,36.0625
0.35805187,-0.5771953,-0.4889328,-0.2687707,-0.02091153,0.053750496,-0.15455389,-0.41737577,-0.35584387,0.060082413,-3.0782366,0.6180149,4.3257158e-05,-0.15685886,0.075535044,-0.0017573817,0.014189916,-0.012131601,0.015398042,0.45938933,-1.3536372,1.8685983,-2.08312,-1.5722965,2.4301455,-0.25364742,0.168433,-0.21321899,0.061565377,-0.007974059,-0.2689267,-0.4405331,0.21068975,-9.212888,0.8985519,47.687782,-1.0792336,-2.1778746,-3.4146473,-0.3322818,-0.1741076,-0.30377048,28.25,29.625,28.6875,32.5,34.9375,36.0625
0.36005184,-0.9173523,-0.35349268,-0.3206644,-0.03404229,0.07151076,-0.17253655,-0.41767684,-0.35567942,0.06006778,-3.078183,0.618025,-6.2262945e-05,-0.15884076,0.07451214,-0.0005400304,0.012087006,-0.007852266,0.013369214,0.45886058,-1.3533013,1.8681911,-2.0829656,-1.5722965,2.42963,-0.2533869,0.16920993,-0.2164493,0.05925063,-0.0080252765,-0.26663536,-0.38307226,0.11492168,-9.212888,0.91421866,47.695843,-1.0396175,-2.1402295,-3.324561,-0.34680498,-0.20190823,-0.40989494,28.25,29.625,28.6875,32.5,34.9375,36.0625
0.3620518,-1.637417,-0.7257909,-0.52692044,-0.026284553,0.0717606,-0.16844012,-0.41801566,-0.35550544,0.06006005,-3.0781217,0.6179853,-4.959966e-05,-0.16145712,0.074541055,0.00016930145,0.010266042,-0.0037607395,0.020907272,0.45832112,-1.3529413,1.8677472,-2.0828474,-1.5723566,2.4290738,-0.25530395,0.17036098,-0.21874668,0.055887837,-0.008243345,-0.27608863,-0.22984336,0.17238252,-9.481039,0.8806493,47.686886,-1.125097,-2.1878095,-3.4243178,-0.31642738,-0.19681539,-0.38126677,28.25,29.625,28.6875,32.5,34.9375,36.0625
0.3640517,-1.3630146,-0.68685526,-0.64739686,-0.035366435,0.09248946,-0.16095221,-0.41831234,-0.3553972,0.06005051,-3.0781493,0.6178314,-0.000121006226,-0.16200937,0.0744175,-0.0011527643,0.011131755,-0.005432707,0.033600517,0.45787668,-1.3525684,1.8672913,-2.0827272,-1.5723327,2.42853,-0.25534585,0.1743116,-0.22050382,0.055560388,-0.00831596,-0.28882217,-0.5554548,0.19153613,-9.461885,0.9164598,47.699425,-1.2729065,-2.1533856,-3.344205,-0.31692517,-0.2069518,-0.2179249,28.25,29.625,28.6875,32.5,34.9375,36.0625
0.3660518,-1.1829475,-0.33493564,-0.5183088,-0.053929962,0.11536517,-0.17795232,-0.41863632,-0.35522726,0.060041714,-3.0781221,0.6177063,-0.0001076785,-0.16292864,0.073621586,0.0008027261,0.0076780086,-0.0010031634,0.040297877,0.45734933,-1.3522338,1.8668855,-2.0826323,-1.57238,2.4279282,-0.2552695,0.17145741,-0.22107165,0.05345069,-0.0072001815,-0.29544646,-0.7086837,0.1340753,-9.423578,0.9321212,47.666286,-1.3713171,-2.090591,-3.375811,-0.29138848,-0.22813386,-0.13275264,28.25,29.625,28.6875,32.5,34.9375,36.0625
0.36805174,-1.4497011,-0.43566903,-0.9438578,-0.0376627,0.10420495,-0.16815625,-0.41898245,-0.35508016,0.0600649,-3.0781574,0.6176032,-5.0654813e-05,-0.1645982,0.072980285,0.0005059655,0.0069974097,0.0022046878,0.033833396,0.45682117,-1.3519092,1.8664168,-2.0825264,-1.5723923,2.4273314,-0.2548983,0.17406018,-0.222647,0.049251433,-0.0079997685,-0.2886078,-0.61291564,0.076614454,-9.634268,0.95002913,47.647476,-1.5200622,-2.1366787,-3.3944843,-0.24701184,-0.23173788,-0.17354289,28.25,29.625,28.6875,32.5,34.9375,36.0625
0.37005273,-2.0143087,-0.8628488,-0.9722568,-0.03881509,0.097418495,-0.16066746,-0.4193034,-0.35494334,0.060051203,-3.0781646,0.61761135,-6.5905915e-05,-0.16618833,0.07311368,0.00032512852,0.00725119,0.0040298775,0.02181977,0.4563171,-1.3515487,1.8659986,-2.0824673,-1.5723809,2.4268317,-0.2556346,0.17626178,-0.22454898,0.047447182,-0.009026652,-0.27732664,-0.61291564,0.15322891,-9.672575,0.91198283,47.67345,-1.4681995,-2.218997,-3.3718905,-0.21776631,-0.22694947,-0.2855203,28.25,29.625,28.6875,32.5,34.9375,36.0625
0.37205163,-1.581067,-0.606494,-0.62005574,-0.040678974,0.097352795,-0.16267459,-0.41965738,-0.3547664,0.060057867,-3.0781333,0.6176309,-6.4301144e-05,-0.16772991,0.07485605,-0.00044513925,0.0075424593,0.002574005,0.008933924,0.45573968,-1.3512002,1.8655323,-2.0823348,-1.5724043,2.4262707,-0.2598748,0.17828898,-0.22535823,0.047666464,-0.008641152,-0.26868147,-0.63206923,0.15322891,-9.442732,0.9701675,47.64837,-1.2614238,-2.3110893,-3.4767106,-0.18695417,-0.22756039,-0.45872247,28.25,29.625,28.6875,32.5,34.9375,36.0625
0.37405276,-1.8705717,-0.46342197,-0.9778365,-0.006455051,0.060866054,-0.1653183,-0.41998506,-0.35463542,0.06004267,-3.078157,0.6175167,-6.7014014e-05,-0.16878724,0.07517869,-0.00011150019,0.0073873247,0.0034507578,0.012320741,0.45524752,-1.3508161,1.8650888,-2.0822752,-1.5724043,2.4257045,-0.26094654,0.17893974,-0.22699189,0.047783628,-0.008897047,-0.27313882,-0.40222588,0.15322891,-9.461885,0.9097417,47.655537,-1.2829745,-2.290014,-3.538013,-0.18475841,-0.25054905,-0.51555943,28.25,29.625,28.6875,32.5,34.9375,36.0625
