Tylouw/Master_Thesis_Code/training_data/batch_1/rect_rod_t0.3/sample_52_session_2.csv
timestamp[s],tcp_force_x[N],tcp_force_y[N],tcp_force_z[N],tcp_force_rx[Nm?],tcp_force_ry[Nm?],tcp_force_rz[Nm?],tcp_pose_x[m],tcp_pose_y[m],tcp_pose_z[m],tcp_pose_rx[rot_vec_x],tcp_pose_ry[rot_vec_y],tcp_pose_rz[rot_vec_z],tcp_velo_x[m/s],tcp_velo_y[m/s],tcp_velo_z[m/s],tcp_velo_rx[rot_vec_x/s],tcp_velo_ry[rot_vec_y/s],tcp_velo_rz[rot_vec_z/s],q1[rad],q2[rad],q3[rad],q4[rad],q5[rad],q6[rad],qd1[rad/s],qd2[rad/s],qd3[rad/s],qd4[rad/s],qd5[rad/s],qd6[rad/s],tool_acc_x,tool_acc_y,tool_acc_z,current_of_whole_robot[A],voltage_of_whole_robot[V],current_J1[A],current_J2[A],current_J3[A],current_J4[A],current_J5[A],current_J6[A],temp_J1[C],temp_J2[C],temp_J3[C],temp_J4[C],temp_J5[C],temp_J6[C]
6.160117e-07,0.36299357,0.021554736,-0.01144134,-0.031506166,0.014117444,-0.008026441,-0.38932404,-0.36874676,0.06001981,-3.0787497,0.6249182,0.0001846646,0.00031853546,0.00013121574,-0.0002438333,0.0004992801,-0.001153362,0.00012969539,0.5050688,-1.3816558,1.9041871,-2.0919034,-1.5708174,2.4800491,0.0,0.00028511864,-1.3575005e-06,0.00096671283,0.00012339406,-0.00012992763,0.1340753,0.17238252,-8.734048,0.7911258,47.696735,-0.2098629,-3.0310216,-2.283821,-0.19194148,0.164347,-0.024572266,28.4375,29.75,28.8125,32.625,35.0625,36.125
0.002052193,0.19125004,0.13780428,-0.12815075,-0.027487166,0.0139566185,-0.004563189,-0.38937718,-0.36871925,0.060043883,-3.0787292,0.6248941,0.00037155586,-0.00097262557,-0.0005916534,-0.0011930622,-0.0025698615,0.0043344195,0.00013101648,0.5050329,-1.3816674,1.9041523,-2.091931,-1.5709137,2.480001,0.0,0.0010353213,0.003710397,-0.009782964,0.00013716142,-0.0001315161,0.1340753,0.19153613,-8.63828,0.6926589,47.679718,-0.18947487,-2.9923897,-2.3233337,-0.1492224,0.16590706,-0.02616116,28.4375,29.75,28.8125,32.625,35.0625,36.125
0.004052632,-0.15066451,-0.08437976,-0.15639445,-0.030785004,0.0126452735,-0.0030086313,-0.38934666,-0.36872897,0.060017645,-3.078741,0.6249548,0.00024127601,-0.0013651518,-0.0008100617,-0.0020949263,-0.0026021989,0.004385816,0.0001294178,0.5050329,-1.3816549,1.9042,-2.091944,-1.5708417,2.4800372,0.0,0.0030903853,0.0038450547,-0.012033302,0.00013563037,-0.000129411,0.076614454,0.1340753,-8.580819,0.8023209,47.67166,-0.21794775,-3.3843074,-2.6482673,-0.0141899325,0.17216656,-0.012608852,28.4375,29.75,28.8125,32.625,35.0625,36.125
0.006051841,0.2553963,0.19129272,-0.11446574,-0.021113975,0.015406626,-0.009251818,-0.38932818,-0.3687356,0.059988488,-3.0787039,0.6249279,0.00019287983,-0.00038439018,-0.00026367622,-0.0015788361,-0.000858131,0.0012586002,0.00012690367,0.5050688,-1.381607,1.9042119,-2.091953,-1.5708536,2.480061,0.0,0.0020894615,0.0025114734,-0.006118129,0.00013319019,-0.00012714257,0.038307227,0.1340753,-8.523358,0.76874626,47.666286,-0.15647253,-3.3066943,-2.5668542,-0.065616146,0.17085934,-0.02315655,28.4375,29.75,28.8125,32.625,35.0625,36.125
0.008051893,0.10282707,0.5981095,-0.6041461,0.016613806,-0.014320318,-0.002426128,-0.38933328,-0.3687286,0.060011096,-3.0787437,0.6249362,0.00023918539,-0.000425573,-0.00028512225,9.1999005e-05,-0.000915135,0.0013767959,0.00012488989,0.5050448,-1.3816679,1.9042348,-2.091964,-1.5708417,2.4800372,0.0,3.7878926e-05,0.00016604018,-0.0018521138,0.00013077544,-0.00012493743,-0.076614454,0.1340753,-8.676587,0.7217513,47.657326,-0.23260003,-3.186827,-2.4509134,-0.085262895,0.1760948,-0.020052865,28.4375,29.75,28.8125,32.625,35.0625,36.125
0.010052139,0.3845565,1.1211692,-1.018528,0.017384786,-0.0076550595,-0.008670082,-0.38930905,-0.36871958,0.059982475,-3.0786874,0.6249439,0.00011165073,0.00069775345,0.00034027104,-0.00023905614,0.0010483597,-0.00215016,0.0001224158,0.5050448,-1.3816319,1.9042462,-2.091915,-1.5708297,2.4800491,0.0,5.0819415e-07,2.2276408e-06,0.0023857467,0.00012844279,-0.00012286197,0.0,0.1340753,-8.983045,0.72622824,47.637623,-0.7910219,-2.832687,-2.7535768,-0.10089957,0.15117215,-0.12843049,28.4375,29.75,28.8125,32.625,35.0625,36.125
0.012052223,0.09561416,0.076966844,-1.137628,-0.0056155524,0.0077204197,-0.007351876,-0.38931498,-0.36869702,0.059966315,-3.0786548,0.6249741,9.267694e-05,0.0012695389,0.00073236524,-0.0010525117,0.0025137945,-0.004788192,0.0033778723,0.50500876,-1.3816196,1.904271,-2.0919259,-1.5708417,2.480036,-0.00012432096,0.0012245871,2.9886642e-08,0.0041811117,0.00012619163,-0.0035026346,0.17238252,0.095768064,-9.11712,0.80679786,47.672558,-0.9967763,-2.7037244,-2.8769097,-0.1627169,0.1484027,-0.16146791,28.4375,29.75,28.8125,32.625,35.0625,36.125
0.01405235,-0.13860336,-0.12645893,-1.0859385,-0.057763472,0.041105743,-0.016636547,-0.38933703,-0.36870655,0.059988502,-3.0786946,0.6248863,0.00013215737,-0.0031649198,0.0060753464,-0.0057827774,0.006324784,-0.011684922,0.0002811058,0.50500417,-1.3816159,1.9042109,-2.0919025,-1.5708417,2.4799716,-0.013267137,0.010628108,4.009675e-10,0.0026557774,0.00012401797,-0.013547019,0.0,0.076614454,-9.32781,0.76874626,47.694054,-0.52038664,-3.1800702,-3.0448794,-0.14322963,0.18118507,-0.09775525,28.4375,29.75,28.8125,32.625,35.0625,36.125
0.0160525,-0.82690525,-0.6915954,-1.284276,-0.080130786,0.060272504,-0.029668422,-0.38934198,-0.3686861,0.05996537,-3.0786374,0.62492836,0.00010225059,-0.005381583,0.0053861546,-0.0039748456,0.0037698026,-0.0070828707,0.0074388846,0.50497997,-1.3815801,1.9042214,-2.0919034,-1.5708655,2.479981,-0.014179846,0.009990018,-0.0029877785,0.0010162279,0.00012191798,-0.021616213,-0.30645782,0.11492168,-9.385271,0.7553206,47.667187,-0.48294616,-3.329615,-3.0557652,-0.12232124,0.15810561,-0.019769166,28.4375,29.75,28.8125,32.625,35.0625,36.125
0.018052502,-1.9219973,-1.1381187,-1.3463571,-0.06628228,0.070869274,-0.046281297,-0.38930732,-0.36869004,0.059937425,-3.0786328,0.6247336,-3.501045e-05,-0.006425396,0.004539965,-0.0017019755,0.0014071687,-0.0028203067,0.011561555,0.5050041,-1.3815452,1.9042329,-2.0918553,-1.5708417,2.4798841,-0.013730644,0.0073419823,-0.00497769,0.00078059867,0.00012005186,-0.025289271,-0.5554548,0.15322891,-9.385271,0.7978386,47.66539,-0.73387635,-2.9187517,-2.9762168,-0.11691195,0.16227934,0.016698245,28.4375,29.75,28.8125,32.625,35.0625,36.125
0.02005261,-1.8644862,-0.18951596,-1.7502714,-0.020753708,0.08046343,-0.07666945,-0.38933602,-0.36868426,0.059947047,-3.0786214,0.6248693,-6.3581992e-06,-0.0067507518,0.0054839817,-0.0015580201,0.0015941148,-0.0031267137,0.0064347237,0.5049676,-1.3815334,1.9041971,-2.0918553,-1.5708417,2.4799337,-0.0156148765,0.006453327,-0.0044097113,0.0014604094,0.00010841049,-0.022047097,-0.5554548,0.1340753,-9.5385,0.8247004,47.664497,-0.8615731,-2.8460417,-3.1308775,-0.099001735,0.19428262,-0.023033917,28.4375,29.75,28.8125,32.625,35.0625,36.125
0.02205187,-1.8287932,0.51716,-1.924916,0.003187753,0.078832634,-0.09449608,-0.3893318,-0.3686603,0.059906784,-3.0785816,0.62482446,-9.466744e-05,-0.006018557,0.006799003,-0.0036717674,0.004669692,-0.008743106,0.0023743887,0.50493115,-1.3814844,1.9042333,-2.0918667,-1.5708417,2.4798744,-0.017164895,0.009566487,-0.003910209,0.004251325,0.00013991266,-0.019536847,-0.5554548,0.038307227,-9.825804,0.72622824,47.650166,-0.83398443,-2.891221,-3.2911966,-0.14638615,0.18312623,-0.05123699,28.4375,29.75,28.8125,32.625,35.0625,36.125
0.024051799,-2.0045438,0.4248254,-1.7913003,0.0046371776,0.06664239,-0.10589305,-0.38931882,-0.36864308,0.059898663,-3.0785668,0.62478495,-0.0001653384,-0.006383054,0.0070786397,-0.004192001,0.003963524,-0.010647732,-0.0010925618,0.50490654,-1.3814958,1.9042572,-2.0918305,-1.5708293,2.479827,-0.018938698,0.010860592,-0.0043638474,0.0047310563,0.0016786574,-0.017846018,-0.6512229,-0.05746084,-9.787497,0.78217715,47.66987,-0.8316242,-2.9423518,-3.38633,-0.14517492,0.16443655,-0.09071085,28.4375,29.75,28.8125,32.625,35.0625,36.125
0.026052348,-1.4714407,0.21983206,-1.8214699,-0.005419677,0.0844346,-0.12222193,-0.38935265,-0.36863813,0.059895355,-3.0785701,0.62482363,-0.00017675509,-0.008787782,0.0057713096,-0.0022055516,0.0007664607,-0.005955377,-0.0019868892,0.5048585,-1.3814478,1.9042081,-2.091831,-1.5708164,2.4798026,-0.019309165,0.010933196,-0.008642621,0.0032823791,0.0021941697,-0.017321127,-0.91937345,-0.1340753,-9.672575,0.8157518,47.637623,-0.9327719,-2.901597,-3.319811,-0.119877785,0.15969321,-0.10462746,28.4375,29.75,28.8125,32.625,35.0625,36.125
0.0280524,-1.4947305,0.55998206,-1.9151407,-0.024170222,0.09978518,-0.1390398,-0.389364,-0.36864856,0.059893154,-3.0785632,0.62482256,-0.00021739631,-0.00996318,0.005646843,-0.002417999,0.0005822257,-0.005453205,-0.0031228068,0.50485826,-1.3813989,1.904147,-2.0917947,-1.570805,2.4798026,-0.02014516,0.012999631,-0.010414648,0.0024598849,0.0021064093,-0.017019963,-0.80445176,-0.17238252,-9.80665,0.7620334,47.637623,-0.93297446,-2.895729,-3.2336993,-0.14140706,0.159105,-0.13808437,28.4375,29.75,28.8125,32.625,35.0625,36.125
0.030052599,-1.7327111,0.03649831,-1.952803,-0.026036086,0.11556219,-0.14577594,-0.3893714,-0.36863095,0.059880823,-3.0785668,0.62480587,-0.00021699272,-0.010998704,0.006013706,-0.0023101587,0.00037094994,-0.004409771,-0.004887626,0.5048217,-1.3813988,1.9041833,-2.0918314,-1.570805,2.4797552,-0.0215294,0.013452824,-0.010994188,0.001572073,0.0017832615,-0.016638417,-0.7086837,-0.19153613,-9.902418,0.78217715,47.699425,-0.94199914,-2.878019,-3.3498755,-0.10514331,0.15745413,-0.13558385,28.4375,29.75,28.8125,32.625,35.0625,36.125
0.03205168,-1.7600272,0.21515001,-1.8013965,-0.025935413,0.114380434,-0.16397841,-0.3894022,-0.36861852,0.059876703,-3.0785706,0.6248836,-0.0002683478,-0.012070366,0.0061401115,-0.002395193,0.00064956746,-0.0041344957,-0.004932491,0.50474966,-1.3813621,1.9041466,-2.091819,-1.5707692,2.479731,-0.022505831,0.015107393,-0.012756833,0.0015759912,0.0014016684,-0.01756835,-0.80445176,-0.17238252,-9.9790325,0.7553206,47.629562,-1.0565131,-2.8511372,-3.3418598,-0.093401715,0.16751456,-0.17105952,28.4375,29.75,28.8125,32.625,35.0625,36.125
0.034052137,-2.0581849,-0.14195372,-2.0288935,0.001457696,0.09472085,-0.16132899,-0.3894602,-0.3685784,0.05987295,-3.0785074,0.62496585,-0.00020732495,-0.012640261,0.0069504995,-0.002230034,0.0010972496,-0.0044143144,-0.0055125714,0.5046654,-1.3813143,1.9040984,-2.0918186,-1.5708293,2.4797063,-0.024240682,0.01489805,-0.013120427,0.0026101766,0.0011460474,-0.018722666,-0.6512228,-0.095768064,-9.787497,0.8672237,47.658226,-1.0163516,-2.8200958,-3.325902,-0.10982976,0.17639604,-0.17062901,28.4375,29.75,28.8125,32.625,35.0625,36.125
0.036051694,-1.6129701,-0.16585389,-2.132609,0.015292306,0.08561359,-0.17986844,-0.3894672,-0.36857668,0.05986826,-3.0785246,0.6248928,-0.00026212938,-0.013548563,0.007814438,-0.0026206558,0.0019312177,-0.005695412,-0.006340084,0.5046407,-1.3812897,1.9040745,-2.0917943,-1.570805,2.4796338,-0.026474835,0.016428972,-0.014308659,0.00379285,0.0010345876,-0.020128533,-0.6703765,-0.05746084,-9.883265,0.73069996,47.650166,-1.0051007,-2.8818722,-3.3710318,-0.11801665,0.17637038,-0.18285686,28.4375,29.75,28.8125,32.625,35.0625,36.125
0.038051713,-0.7515231,0.038674284,-1.9621277,-9.862168e-05,0.0814624,-0.19796588,-0.38947326,-0.36853963,0.059832145,-3.078437,0.62500983,-0.00034845032,-0.014407458,0.008317656,-0.0018098055,0.00134808,-0.0044801696,-0.0064978083,0.50458014,-1.381242,1.9040979,-2.0917828,-1.5708169,2.4796574,-0.028074175,0.015281274,-0.014883747,0.004169868,0.00095459673,-0.021570073,-0.51714754,-0.076614454,-9.825804,0.7642693,47.686886,-0.9159553,-2.6994977,-3.3381572,-0.12012311,0.17026901,-0.1863307,28.4375,29.75,28.8125,32.625,35.0625,36.125
0.040051714,-0.94886243,-0.2364645,-1.7868838,-0.021033814,0.06957618,-0.21011378,-0.38952,-0.36855537,0.05985772,-3.0785062,0.62494755,-0.00027441222,-0.015785005,0.00839222,-0.001514859,0.0008296375,-0.0030802924,-0.0074849804,0.50455576,-1.3812176,1.9040135,-2.0917947,-1.5708054,2.4795854,-0.029343445,0.016220406,-0.016479999,0.0033519964,0.00072766724,-0.021850808,-0.49799395,0.019153614,-9.672575,0.78217715,47.68062,-1.015722,-2.822454,-3.3199253,-0.11333966,0.18759298,-0.21303451,28.4375,29.75,28.8125,32.625,35.0625,36.125
0.04205166,-1.6329097,-1.102578,-1.8467869,-0.017795334,0.05461144,-0.21143615,-0.38954455,-0.3685165,0.059842926,-3.0784664,0.62503505,-0.00034419424,-0.016680036,0.008537089,-0.0010267752,-3.2299806e-06,-0.0016264729,-0.006810588,0.5044597,-1.3811938,1.9040135,-2.091771,-1.570793,2.479549,-0.03043565,0.015874192,-0.016998326,0.002541346,0.00074908946,-0.023617238,-0.38307226,0.076614454,-9.710882,0.73741806,47.657326,-1.025222,-2.735343,-3.3437366,-0.09559175,0.1937047,-0.22275382,28.4375,29.75,28.8125,32.625,35.0625,36.125
0.044051845,-1.3183105,-0.92419547,-1.9073135,-0.025354736,0.058379717,-0.22454746,-0.38961467,-0.36850604,0.05988135,-3.078498,0.62505925,-0.00019126911,-0.018188722,0.00869812,-0.000421997,-0.0011451017,-0.0004043178,-0.0065476503,0.5043991,-1.3811935,1.9039286,-2.0917833,-1.5708293,2.4794996,-0.03236619,0.016312592,-0.018843653,0.0023238806,0.0011551969,-0.025810504,-0.17238252,0.05746084,-9.749189,0.7709874,47.66987,-0.9848262,-2.740291,-3.284624,-0.09813878,0.20430571,-0.24624485,28.4375,29.75,28.8125,32.625,35.0625,36.125
0.04605254,-0.5932721,-0.72305626,-1.8372835,-0.030878976,0.060626462,-0.21989484,-0.3896557,-0.36849448,0.059874877,-3.0784924,0.6251354,-0.0002322541,-0.019759696,0.009540452,-0.00016194089,-0.0018781194,-0.00020764054,-0.0071073375,0.5043261,-1.3811334,1.9038695,-2.091771,-1.570805,2.4794748,-0.035588037,0.016843617,-0.020111423,0.0025326568,0.0016985466,-0.028473057,-0.05746084,0.095768064,-9.730036,0.7777002,47.666286,-0.8551677,-2.6341608,-3.3133254,-0.09131713,0.18492836,-0.229551,28.4375,29.75,28.8125,32.625,35.0625,36.125
0.048051722,-0.5542786,-0.969776,-1.9254569,-0.010880467,0.032780983,-0.18306503,-0.38969988,-0.36846194,0.059863593,-3.0784888,0.625153,-0.00023369984,-0.02002238,0.009990177,-7.2376206e-05,-0.002262688,-0.0005350204,-0.005561883,0.5042298,-1.3810974,1.9038581,-2.0917947,-1.5708045,2.47939,-0.036896076,0.016442278,-0.01990924,0.0028307075,0.00219379,-0.0313276,-0.17238252,0.1340753,-9.481039,0.7665104,47.65464,-0.8712927,-2.641501,-3.309604,-0.087378316,0.18116333,-0.24718183,28.4375,29.75,28.8125,32.625,35.0625,36.125
0.050052248,-0.26270851,-0.63327503,-1.7477751,-0.009628408,0.025903199,-0.18197912,-0.38972422,-0.36843044,0.059860613,-3.0784526,0.6251644,-0.00023632811,-0.021463467,0.01038836,-3.2732307e-05,-0.0026763899,-0.00042479928,-0.0059047947,0.50416917,-1.3810849,1.9038447,-2.091771,-1.5708288,2.479341,-0.039101552,0.017892722,-0.021730373,0.002903043,0.0024977168,-0.033189792,0.05746084,0.19153613,-9.404425,0.800085,47.679718,-0.7930931,-2.6583471,-3.2278323,-0.08723384,0.20404537,-0.22852272,28.4375,29.75,28.8125,32.625,35.0625,36.125
0.052052252,0.07527456,-0.2933631,-1.779228,-0.021555323,0.026415374,-0.19118273,-0.38979727,-0.368412,0.05987158,-3.07845,0.6252031,-0.00016929458,-0.02311096,0.010581457,0.00093487964,-0.0039304225,0.0013321169,-0.0070837177,0.50408477,-1.381025,1.9037489,-2.091771,-1.5708526,2.4792812,-0.04111296,0.017786635,-0.023819294,0.002952352,0.0027437743,-0.034021787,0.05746084,0.095768064,-9.500193,0.7239871,47.66271,-0.7836629,-2.5715961,-3.2063847,-0.082825005,0.18932426,-0.2532642,28.4375,29.75,28.8125,32.625,35.0625,36.125
0.05405225,-0.27811906,-0.8710697,-1.6371365,-0.020310467,0.013815544,-0.186414,-0.3898347,-0.36838755,0.059860982,-3.0784287,0.62527347,-0.00021092361,-0.023310117,0.009894094,0.0010870252,-0.0045478023,0.00181087,-0.0046642264,0.5040012,-1.3809766,1.9037131,-2.091759,-1.5708407,2.4792442,-0.040329844,0.018506711,-0.024947314,0.002642199,0.003048931,-0.035658166,-0.038307227,0.17238252,-9.442732,0.7777002,47.66808,-0.860988,-2.688088,-3.219387,-0.06831678,0.18158463,-0.2564091,28.4375,29.75,28.8125,32.625,35.0625,36.125
0.056051727,0.056966156,-0.32696903,-1.4616395,-0.04026077,0.032030366,-0.18443961,-0.38989425,-0.36836505,0.05987097,-3.0784774,0.62524545,-0.00019243754,-0.02453998,0.010797345,0.0009431992,-0.004561994,0.0017150973,-0.006071624,0.50389254,-1.3809524,1.9036645,-2.091771,-1.5708164,2.479112,-0.04302956,0.019334713,-0.025569977,0.0025147148,0.0031073117,-0.036950078,-0.019153614,0.13407528,-9.442732,0.784413,47.668976,-0.85679245,-2.6199827,-3.2475286,-0.060492292,0.20469639,-0.2656722,28.4375,29.75,28.8125,32.625,35.0625,36.125
0.058051795,0.035045356,-0.48176304,-1.617261,-0.034242183,0.035495177,-0.18771945,-0.38992128,-0.36835754,0.05988208,-3.078512,0.6252142,-0.0002296968,-0.024912164,0.011294239,0.0008923316,-0.0051642726,0.0011282224,-0.0066766404,0.50383204,-1.3809403,1.9036168,-2.0917351,-1.5707802,2.4790275,-0.04471659,0.019226179,-0.025351482,0.0026263949,0.0039187553,-0.038033616,0.038307227,0.11492168,-9.404425,0.80456203,47.66539,-0.76058716,-2.5933976,-3.2498608,-0.065084204,0.20412841,-0.28029254,28.4375,29.75,28.8125,32.625,35.0625,36.125
0.06005173,0.14738362,-0.2579234,-1.420785,-0.029506948,0.027803415,-0.1842003,-0.38999245,-0.36833364,0.059884153,-3.0785158,0.6252526,-0.0001221326,-0.025432259,0.011688697,0.0007967232,-0.0056407317,0.00029237036,-0.0067889593,0.5037477,-1.3808922,1.9035686,-2.0917947,-1.5708159,2.4789667,-0.046373628,0.019730227,-0.025840096,0.0031087697,0.0047418196,-0.039579254,0.05746084,0.1340753,-9.404425,0.7933669,47.65106,-0.80948603,-2.6446805,-3.2934318,-0.064952075,0.17473702,-0.30163166,28.4375,29.75,28.8125,32.625,35.0625,36.125
0.06205184,0.3840083,0.23612429,-1.2042084,-0.026670381,0.03746371,-0.19401313,-0.39004016,-0.36831662,0.059886955,-3.0785165,0.6253483,-0.00017504672,-0.025994945,0.011332662,0.0007570849,-0.0065609342,-0.00046094888,-0.0065071066,0.5036516,-1.3808435,1.9034966,-2.0917585,-1.5707792,2.4789302,-0.047023334,0.021153884,-0.02754607,0.0036043047,0.0059083486,-0.040511973,-0.019153614,0.1340753,-9.423578,0.800085,47.651955,-0.85342646,-2.5992627,-3.2499237,-0.06723968,0.15603366,-0.32246828,28.4375,29.75,28.8125,32.625,35.0625,36.125
0.0640519,-0.44588676,-0.1088646,-1.3989393,-0.008049039,0.027058076,-0.17985973,-0.3901013,-0.36829764,0.059887473,-3.0785413,0.6253131,-0.00017248117,-0.027456218,0.011662095,0.0014287918,-0.007773486,0.0008289155,-0.005239116,0.5035551,-1.3807836,1.9034246,-2.091759,-1.5707673,2.4788086,-0.04920657,0.021121372,-0.02898112,0.0033562172,0.006344336,-0.043963253,-0.15322891,0.095768064,-9.32781,0.78888994,47.653748,-0.7740521,-2.608593,-3.2027016,-0.07005194,0.16492602,-0.32239592,28.4375,29.75,28.8125,32.625,35.0625,36.125
0.0660519,-0.9196045,0.25361624,-1.4293174,-0.012100278,0.025677439,-0.1791535,-0.39014757,-0.3682866,0.05990253,-3.078591,0.62532425,-0.00016637865,-0.02820526,0.01183338,0.0017542411,-0.008661137,0.0010912574,-0.00517748,0.50347084,-1.3807715,1.903376,-2.0917585,-1.570731,2.478725,-0.05059434,0.021177638,-0.029815232,0.003475707,0.0069954502,-0.045413163,-0.1340753,0.095768064,-9.3661175,0.7150385,47.666286,-0.7848445,-2.6060686,-3.1999345,-0.053444684,0.1466468,-0.3075801,28.4375,29.75,28.8125,32.625,35.0625,36.125
0.068052135,-0.36755636,0.7051544,-1.3497111,-0.03440531,0.054924924,-0.18671009,-0.3902012,-0.36826366,0.05989991,-3.0785954,0.62530494,-0.00019467699,-0.028719347,0.01242207,0.0012683321,-0.007604097,0.000431175,-0.006430925,0.5033747,-1.380711,1.9033049,-2.0917346,-1.5707191,2.4786162,-0.051680163,0.022456802,-0.030287245,0.0037601201,0.006387484,-0.045244265,-0.2681506,0.11492168,-9.385271,0.82694155,47.677036,-0.83709455,-2.570547,-3.2358167,-0.04931064,0.12922898,-0.3514888,28.4375,29.75,28.8125,32.625,35.0625,36.125
0.07005237,-0.39859182,0.32450816,-1.2940834,-0.02205291,0.075826794,-0.19594939,-0.3902581,-0.36822483,0.05989329,-3.0786097,0.6253269,-0.00021769093,-0.03029875,0.013861389,0.0011157756,-0.0066953884,0.00023492647,-0.006418347,0.5032417,-1.3806745,1.9032797,-2.0917466,-1.5706958,2.4784951,-0.055130996,0.023491574,-0.031297836,0.0043505966,0.00568519,-0.048706,-0.30645782,0.038307227,-9.308656,0.7866488,47.66987,-0.72486436,-2.5524364,-3.282784,-0.063366786,0.15530203,-0.34367907,28.4375,29.75,28.8125,32.625,35.0625,36.125
0.07205218,-1.4820614,0.5568946,-1.3310285,-0.022335006,0.06842603,-0.182395,-0.3903194,-0.3682201,0.059911534,-3.0786526,0.6253713,-0.0002407732,-0.029723473,0.013323154,0.0010163583,-0.005990365,-0.00061174156,-0.001781664,0.5031465,-1.3806263,1.9031729,-2.0917099,-1.5706476,2.4784222,-0.05355257,0.02417384,-0.032167327,0.005623325,0.0054777614,-0.051763467,-0.36391866,0.076614454,-9.3661175,0.8314132,47.674347,-0.76216924,-2.5452757,-3.1850865,-0.052015666,0.1524802,-0.33423746,28.4375,29.75,28.8125,32.625,35.0625,36.125
0.07405464,-1.7471567,0.3407676,-1.1132143,-0.012736029,0.07998088,-0.17822272,-0.39037487,-0.36819333,0.059929557,-3.078673,0.62535375,-0.00021075089,-0.0308798,0.013833552,0.0013355347,-0.0067260126,-0.0001565078,0.0011029701,0.50304985,-1.3806143,1.9031123,-2.0916865,-1.5706476,2.478312,-0.055747334,0.024368042,-0.03312546,0.005632995,0.0059015905,-0.056842986,-0.47884035,-0.019153614,-9.346964,0.77545905,47.65106,-0.8762917,-2.535214,-3.2102406,-0.08496593,0.13337445,-0.30787286,28.4375,29.75,28.8125,32.625,35.0625,36.125
0.07605175,-1.2813939,0.41647562,-1.1864206,-0.007948947,0.09390632,-0.18093023,-0.39042997,-0.36815244,0.05991397,-3.0786536,0.6253697,-0.00024016827,-0.032235056,0.01419556,0.0017609849,-0.0072984654,0.0010843009,-0.00023381665,0.5029296,-1.380554,1.9030765,-2.0916865,-1.5706476,2.4782043,-0.057549797,0.024723576,-0.034419376,0.005209406,0.0058001936,-0.05730802,-0.49799395,0.0,-9.346964,0.7597976,47.63404,-0.8814561,-2.481348,-3.1673746,-0.061196312,0.12331897,-0.29158866,28.4375,29.75,28.8125,32.625,35.0625,36.125
0.07805182,-1.5816637,0.43632546,-1.2900118,-0.0036114177,0.07985841,-0.17028998,-0.390514,-0.36812,0.05989695,-3.0786533,0.6253686,-0.0002415303,-0.033652127,0.015480805,0.0016831062,-0.0068836687,0.0014601274,0.0001714729,0.50279677,-1.3804458,1.9029926,-2.0917099,-1.5706476,2.4780707,-0.060682207,0.025187384,-0.034729682,0.004929442,0.00525427,-0.06084461,-0.53630114,0.0,-9.404425,0.7553206,47.651955,-0.73948306,-2.490643,-3.2261882,-0.06405191,0.12981986,-0.2937286,28.4375,29.75,28.8125,32.625,35.0625,36.125
0.08005193,-2.0872893,-0.3800153,-1.3239287,0.004464917,0.060886078,-0.17035851,-0.39057475,-0.36809444,0.059931714,-3.0786855,0.6253318,-0.0002246555,-0.033151064,0.014719926,0.0013415775,-0.0059529073,0.0014739828,0.007217123,0.50269,-1.3804454,1.9028968,-2.0916383,-1.5706362,2.477937,-0.05841527,0.026371408,-0.035316523,0.0047731204,0.0044316193,-0.065621436,-0.5554548,-0.095768064,-9.346964,0.7150385,47.67614,-0.91213274,-2.5421882,-3.2475848,-0.067379944,0.1183588,-0.23943281,28.4375,29.75,28.8125,32.625,35.0625,36.125
0.0820524,-1.5206634,0.17229122,-1.284999,-0.007944225,0.07451931,-0.17882508,-0.3906628,-0.36807153,0.05993838,-3.0787194,0.6253179,-0.00016884267,-0.03422594,0.015572966,0.0012995783,-0.0053743413,0.0014701447,0.00908811,0.50256944,-1.380373,1.9028014,-2.0916622,-1.5706362,2.4778035,-0.060527407,0.027126674,-0.03621185,0.0051978757,0.003928696,-0.06960313,-0.51714754,-0.05746084,-9.3661175,0.8291774,47.64389,-0.9512062,-2.5194502,-3.2665763,-0.06736587,0.13623585,-0.21464062,28.4375,29.75,28.8125,32.625,35.0625,36.125
0.08405234,-1.3292232,0.23028383,-1.4320556,-0.004790994,0.07955023,-0.17709588,-0.3907179,-0.36802772,0.059930563,-3.0787215,0.625317,-0.0001943981,-0.035597898,0.016073866,0.0013755372,-0.0054552592,0.0019770765,0.010313469,0.502437,-1.3803365,1.9027761,-2.0916622,-1.5706242,2.4776702,-0.06253019,0.02825512,-0.037690308,0.0050668875,0.003751376,-0.072830245,-0.51714754,0.0,-9.385271,0.8090337,47.653748,-0.89542204,-2.5460353,-3.2146015,-0.07097428,0.15574184,-0.15229234,28.4375,29.75,28.8125,32.625,35.0625,36.125
0.08605184,-0.6354056,0.40627506,-1.3788875,-0.0096855005,0.083754115,-0.17785312,-0.39077914,-0.36798865,0.05991545,-3.0786994,0.62521476,-0.00021509394,-0.0355191,0.016181502,0.0010221906,-0.0055532777,0.0012541162,0.01269569,0.50232905,-1.3802524,1.9027056,-2.0916383,-1.5706481,2.4775014,-0.06290022,0.028670367,-0.037338376,0.0048834,0.0041830787,-0.0755834,-0.3256114,-0.05746084,-9.461885,0.70608455,47.66271,-0.9706583,-2.584668,-3.163817,-0.0900362,0.14822951,-0.1394639,28.4375,29.75,28.8125,32.625,35.0625,36.125
0.0880518,-1.6110358,-0.08086431,-1.5535314,-0.015668511,0.055003323,-0.1760249,-0.39087778,-0.36796096,0.059932087,3.0787182,-0.6252947,0.00020536307,-0.036462255,0.016620442,0.0012360156,-0.005802619,0.0016397318,0.013130298,0.50216097,-1.380192,1.9025964,-2.0916383,-1.5706004,2.4773808,-0.06452455,0.029009493,-0.03825523,0.0050075124,0.0042184545,-0.07764178,-0.30645782,0.019153614,-9.385271,0.82022345,47.670765,-0.99846613,-2.5238237,-3.2469912,-0.06753916,0.13489461,-0.0772012,28.4375,29.75,28.8125,32.625,35.0625,36.125
0.09005187,-0.9250374,-0.113303564,-1.4618133,-0.011056455,0.062430147,-0.1741282,-0.3909248,-0.36790422,0.05990586,-3.0786896,0.62528807,-0.0002930818,-0.037109263,0.016564261,0.0013340883,-0.005934546,0.0015917835,0.013399409,0.5020291,-1.3801197,1.9025596,-2.0915906,-1.5706123,2.4772484,-0.06510791,0.02999605,-0.03976009,0.0055035935,0.0043489984,-0.0784941,-0.30645782,-0.038307227,-9.289502,0.7732232,47.698532,-1.1065154,-2.5627306,-3.2015731,-0.059082326,0.13495328,-0.082075834,28.4375,29.75,28.8125,32.625,35.0625,36.125
0.09205187,-0.68326366,0.10825046,-1.5456095,-0.011685247,0.059018217,-0.16621125,-0.39100197,-0.367887,0.059905123,-3.0787432,0.62514526,-0.00027796524,-0.03741231,0.017296216,0.0008297197,-0.0051897694,0.0009891287,0.011970336,0.5019209,-1.3800353,1.9024643,-2.0916026,-1.5706004,2.4770443,-0.066386715,0.030582702,-0.039264992,0.0053112283,0.0039889324,-0.07834324,-0.1340753,-0.05746084,-9.461885,0.7597976,47.71823,-1.0518017,-2.5172384,-3.2573805,-0.082210794,0.14214274,-0.06434232,28.4375,29.75,28.8125,32.625,35.0625,36.125
0.09405183,-0.5116805,-0.22140253,-1.5231888,-0.017268933,0.056027062,-0.1739625,-0.39111078,-0.36783138,0.05993937,3.0787516,-0.6251844,0.00016874525,-0.03827347,0.017341241,0.0006830191,-0.004928107,0.0012344971,0.010939412,0.50174105,-1.3800229,1.9023689,-2.0915906,-1.5706242,2.476888,-0.06703435,0.03212111,-0.04070914,0.0051278025,0.0036441328,-0.077958286,-0.1340753,-0.019153614,-9.423578,0.73741806,47.691364,-1.0746462,-2.5565567,-3.2820907,-0.06195762,0.13591513,-0.06873287,28.4375,29.75,28.8125,32.625,35.0625,36.125
0.09605223,-0.15093319,-0.13044007,-1.4944195,-0.017565703,0.045739375,-0.17690663,-0.3911703,-0.36779258,0.059914462,-3.0787468,0.62510836,-0.00022669828,-0.04013579,0.017507203,0.0014066602,-0.005674211,0.0030467974,0.007741625,0.5016207,-1.3799266,1.9023088,-2.0915782,-1.5706247,2.4767208,-0.06889443,0.032918632,-0.04325778,0.0049322704,0.0034176586,-0.07661922,-0.17238252,0.076614454,-9.289502,0.74413085,47.619713,-1.1165506,-2.5518513,-3.1773388,-0.08011684,0.15742883,-0.06987149,28.4375,29.75,28.8125,32.625,35.0625,36.125
0.098052405,-0.3895591,-0.6169391,-1.7567018,-0.014239975,0.03364226,-0.16504563,-0.39125454,-0.36777648,0.059930485,3.0787563,-0.6250729,0.00019381155,-0.040770575,0.017923852,0.0011012935,-0.0053920704,0.0028371578,0.005216535,0.5015005,-1.3798661,1.902201,-2.0915787,-1.5706009,2.4765773,-0.07008331,0.033914436,-0.04368699,0.0046877996,0.0032739493,-0.075282276,-0.05746084,0.076614454,-9.423578,0.784413,47.658226,-1.1181228,-2.5663717,-3.1624963,-0.080611825,0.16116631,-0.10404482,28.4375,29.75,28.8125,32.625,35.0625,36.125
0.10005244,0.3368556,-0.18515576,-1.5869862,-0.031682797,0.04278243,-0.17933692,-0.39131713,-0.36771938,0.05991131,-3.0787487,0.6250532,-0.00021643392,-0.04071764,0.01891202,-0.00026101916,-0.0043754275,0.00059413246,0.0016260091,0.5013682,-1.3797935,1.9021534,-2.0915549,-1.5706362,2.4764338,-0.071806155,0.03540523,-0.042244997,0.0042076004,0.003459755,-0.073415354,-0.019153614,0.19153613,-9.442732,0.82022345,47.666286,-1.1407561,-2.5726297,-3.265489,-0.06833122,0.16140027,-0.11173758,28.4375,29.75,28.8125,32.625,35.0625,36.125
0.10205237,0.21567619,-0.1770326,-1.6476862,-0.048913214,0.036216225,-0.18449098,-0.39144275,-0.36770192,0.05995009,3.0787134,-0.625086,0.0001226906,-0.042847335,0.01881183,0.0012278339,-0.006708312,0.0033859515,-0.0020847968,0.50119996,-1.3797336,1.901997,-2.0915673,-1.5706004,2.4762905,-0.074033454,0.035001718,-0.045081545,0.0038788207,0.004165802,-0.07193141,0.05746084,0.21068975,-9.404425,0.78217715,47.686886,-1.1031678,-2.5499935,-3.2393327,-0.06923181,0.1564796,-0.15965179,28.4375,29.75,28.8125,32.625,35.0625,36.125
0.10405238,0.27730083,-0.4253989,-1.8247846,-0.045273237,0.03711516,-0.17373595,-0.39153275,-0.36764723,0.059934713,3.0787227,-0.62508875,0.00011201558,-0.043612998,0.019067708,0.0011219064,-0.006846078,0.002925607,-0.0046731075,0.50103176,-1.379649,1.9019374,-2.0915911,-1.5706123,2.4761229,-0.0753742,0.03613485,-0.046273828,0.004274069,0.00450707,-0.07068374,0.019153614,0.2681506,-9.423578,0.7866488,47.68062,-1.1728489,-2.5937595,-3.1877952,-0.061043985,0.15580454,-0.18673715,28.4375,29.75,28.8125,32.625,35.0625,36.125
0.10605236,0.12671228,-0.77677715,-1.8243262,-0.035129365,0.03717974,-0.170361,-0.39159465,-0.3676215,0.059925642,3.0787284,-0.6250909,0.00015360038,-0.04492173,0.018945815,0.0017258615,-0.008032812,0.0036360407,-0.0067016506,0.50092334,-1.3795649,1.901853,-2.0915668,-1.5705999,2.476015,-0.07680572,0.036893122,-0.048642315,0.004689994,0.0052015954,-0.070086844,-0.019153614,0.28730422,-9.423578,0.8023209,47.686886,-1.1006299,-2.5478244,-3.137965,-0.06701676,0.15732284,-0.22445862,28.4375,29.75,28.8125,32.625,35.0625,36.125
0.10805174,-0.41293237,-0.5586433,-1.9447538,-0.03964689,0.03815963,-0.17025842,-0.39168185,-0.36756033,0.05994364,3.0787163,-0.62510544,0.00016749604,-0.044469647,0.019594006,0.00075291237,-0.0070814956,0.0016483703,-0.0048541334,0.50073177,-1.3795404,1.9017695,-2.0915067,-1.5705875,2.4758341,-0.077541426,0.037644826,-0.04735613,0.0048541706,0.0053256312,-0.07267068,0.076614454,0.19153613,-9.5385,0.7486078,47.63852,-1.2020909,-2.5072157,-3.2338595,-0.07261903,0.15153846,-0.23724473,28.4375,29.75,28.8125,32.625,35.0625,36.125
0.11005175,-0.89681584,-0.83351445,-1.9042635,-0.03593173,0.042048182,-0.16168089,-0.39176852,-0.3675383,0.059938006,3.0786834,-0.62509954,0.0001640488,-0.044949792,0.020279922,0.00069282035,-0.0068966905,0.00087869936,-0.007842426,0.50059944,-1.3794441,1.9016737,-2.0915306,-1.5705637,2.4757023,-0.079257965,0.03787014,-0.047686774,0.0057249526,0.005536574,-0.07139905,0.0,0.19153614,-9.461885,0.8157518,47.68599,-1.1981165,-2.6024928,-3.3334098,-0.088126354,0.1572666,-0.26695898,28.4375,29.75,28.8125,32.625,35.0625,36.125
0.11205178,-0.5540819,-0.7291984,-1.7689785,-0.03532135,0.05386416,-0.15890115,-0.391877,-0.36748934,0.05995754,3.0786777,-0.6250986,9.55082e-05,-0.04660251,0.02007099,0.0012147942,-0.007984267,0.0021313638,-0.009695577,0.50043136,-1.3793839,1.9015526,-2.0915067,-1.5705875,2.4755344,-0.080638684,0.03924705,-0.05045228,0.005490579,0.0058865086,-0.07092556,-0.038307227,0.24899697,-9.404425,0.83365434,47.675243,-1.2434411,-2.5151215,-3.220911,-0.08694625,0.1447224,-0.33043438,28.4375,29.75,28.8125,32.625,35.0625,36.125
0.11405209,-0.93970364,-0.6504413,-2.0227525,-0.033110935,0.048507493,-0.1663851,-0.3919583,-0.36747223,0.059961766,3.0785816,-0.6251736,0.00015403461,-0.04744711,0.020652907,0.0009626232,-0.008396372,0.0012513081,-0.008339454,0.50027466,-1.3793114,1.9014572,-2.0915067,-1.5705031,2.4754367,-0.08287427,0.04025179,-0.051126197,0.005739048,0.00667199,-0.07451786,-0.11492168,0.15322891,-9.346964,0.80679786,47.68062,-1.1107612,-2.5130577,-3.2244234,-0.091167174,0.15262507,-0.32504,28.4375,29.75,28.8125,32.625,35.0625,36.125
0.11605245,-0.7404911,-0.87149864,-1.9347001,-0.026089484,0.054091454,-0.15872915,-0.39206436,-0.36740378,0.059937857,3.0786424,-0.6251682,0.00017615697,-0.047398888,0.01959194,0.0015949962,-0.010249776,0.002191411,-0.010546475,0.50008345,-1.3791794,1.9013499,-2.0914829,-1.5705389,2.4752345,-0.08175508,0.039826594,-0.051963307,0.005281477,0.00784217,-0.071193404,-0.22984336,0.15322891,-9.404425,0.7486078,47.63852,-1.3481182,-2.5139673,-3.1855183,-0.094716355,0.12574227,-0.41559875,28.4375,29.75,28.8125,32.625,35.0625,36.125
0.118052505,-0.22275469,0.27739236,-1.5379735,-0.050295126,0.07377555,-0.1815319,-0.39217812,-0.36739507,0.05996508,3.078527,-0.6252029,0.00012445007,-0.04934429,0.021598132,0.00025730146,-0.008875282,0.0004404665,-0.013954998,0.49992633,-1.3791063,1.9012069,-2.0915067,-1.5704793,2.4751136,-0.0866873,0.042941444,-0.052530807,0.0049368436,0.0074810367,-0.07271511,-0.3256114,0.1340753,-9.442732,0.800085,47.66987,-1.269741,-2.5264053,-3.2168036,-0.09733891,0.1290622,-0.4529044,28.4375,29.75,28.8125,32.625,35.0625,36.125
0.1200523,-0.7139458,-0.1683881,-1.5764183,-0.028140008,0.07036642,-0.16315752,-0.3922439,-0.36733207,0.059948474,3.0785687,-0.6252267,0.00020960867,-0.04907127,0.020660637,0.00052725576,-0.009113546,0.0011012485,-0.008550651,0.4997594,-1.3790339,1.9011453,-2.0914466,-1.5704793,2.4749563,-0.08477438,0.04322847,-0.053481497,0.0049088136,0.007367022,-0.07620648,-0.34476504,0.15322891,-9.442732,0.83589023,47.658226,-1.3296278,-2.6390085,-3.1904593,-0.08554504,0.114932835,-0.46714398,28.4375,29.75,28.8125,32.625,35.0625,36.125
0.12205231,-1.2357427,-0.14769258,-1.7584265,-0.011481754,0.07012216,-0.16354123,-0.3923726,-0.36728853,0.059968255,3.0785189,-0.6252726,0.00013746339,-0.05057215,0.021104084,0.0018356327,-0.010986073,0.00325619,-0.007684382,0.49956676,-1.3789506,1.9010018,-2.091447,-1.5704788,2.4747987,-0.087266736,0.041678865,-0.054598264,0.0047865603,0.0079815695,-0.07956531,-0.34476504,0.076614454,-9.404425,0.83589023,47.686886,-1.3427181,-2.4360023,-3.200818,-0.074979514,0.11959018,-0.4740797,28.4375,29.75,28.8125,32.625,35.0625,36.125
0.12405226,-1.5372102,0.18763271,-1.6041679,-0.00836018,0.06918519,-0.16844726,-0.39244503,-0.36726218,0.05994434,3.0784814,-0.6252609,0.00024057852,-0.05166185,0.02171623,0.0014560848,-0.011081753,0.0027588536,-0.0013375514,0.4994106,-1.3788418,1.9009303,-2.0914595,-1.5704068,2.47464,-0.08948866,0.043174442,-0.055455472,0.004547314,0.008300993,-0.088134125,-0.40222588,-0.05746084,-9.404425,0.72622824,47.65912,-1.3689659,-2.4591897,-3.2148893,-0.07359867,0.115905136,-0.437451,28.4375,29.75,28.8125,32.625,35.0625,36.125
0.12605262,-0.64070904,0.6453651,-1.4569834,-0.012170606,0.08962328,-0.1693427,-0.39254105,-0.367217,0.05993926,3.078479,-0.62521905,0.0002805333,-0.05211228,0.022144746,0.0008692967,-0.010356614,0.0014860692,0.0018095839,0.49923062,-1.3787453,1.900822,-2.0914352,-1.5703825,2.4744341,-0.09059162,0.04485284,-0.05624298,0.0051261503,0.008273753,-0.092383765,-0.47884035,-0.05746084,-9.32781,0.76874626,47.687782,-1.3518736,-2.546554,-3.2205865,-0.07305686,0.10281177,-0.3917619,28.4375,29.75,28.8125,32.625,35.0625,36.125
0.12805288,-0.9512482,0.24179958,-1.5208428,-3.3558958e-05,0.092936814,-0.16981412,-0.39266983,-0.36718246,0.05996899,3.0784407,-0.62511146,0.00013978081,-0.05363616,0.02367021,0.00027875474,-0.009156161,0.0006821439,0.0065741697,0.49906152,-1.3786844,1.9006904,-2.091471,-1.5703954,2.4742029,-0.094133586,0.04662438,-0.057078518,0.0054757795,0.0076155355,-0.10068799,-0.45968673,-0.038307227,-9.346964,0.7284641,47.678825,-1.2298452,-2.5575218,-3.2314029,-0.08303363,0.11407308,-0.36066422,28.4375,29.75,28.8125,32.625,35.0625,36.125
0.13005209,-1.2414722,0.23937571,-1.512912,0.00032740444,0.09166542,-0.16640288,-0.3927866,-0.36711717,0.059978172,3.0784597,-0.625111,0.0001167396,-0.053616595,0.02285112,0.00076707813,-0.009763373,0.0018798895,0.013512922,0.49885863,-1.3786005,1.9005593,-2.0914228,-1.5704192,2.4739974,-0.09268924,0.046494048,-0.05796475,0.0051509445,0.007574722,-0.10618199,-0.45968673,-0.17238252,-9.32781,0.8023209,47.64658,-1.3883643,-2.630323,-3.2463903,-0.09293038,0.0997522,-0.26321635,28.4375,29.75,28.8125,32.625,35.0625,36.125
0.13205214,-0.9033465,0.5617269,-1.5441285,-0.0036436142,0.102616146,-0.17458044,-0.39288446,-0.36707097,0.059961163,3.0784476,-0.62505096,0.00022050815,-0.05638592,0.024886908,0.0020570264,-0.011247165,0.00397805,0.012266514,0.49865282,-1.378481,1.9004511,-2.091399,-1.5703586,2.4737556,-0.09883319,0.044808775,-0.05893294,0.0052607553,0.007870606,-0.1110801,-0.47884035,-0.21068975,-9.3661175,0.800085,47.64479,-1.1618549,-2.4474728,-3.221992,-0.06960494,0.08302192,-0.23155507,28.4375,29.75,28.8125,32.625,35.0625,36.125
0.13405229,-0.8731091,0.5526425,-1.5754029,-2.4486337e-05,0.10375489,-0.17053558,-0.3929914,-0.36703444,0.059952322,3.0784476,-0.6249698,0.0002186592,-0.05648054,0.024952332,0.001473249,-0.010243658,0.0030323723,0.01617879,0.4984855,-1.3783603,1.9003309,-2.0914109,-1.5703472,2.4735377,-0.09874379,0.046441447,-0.0596301,0.00564117,0.0074438895,-0.114901826,-0.51714754,-0.22984336,-9.423578,0.7732232,47.65106,-1.30316,-2.479846,-3.2521732,-0.07604465,0.099714324,-0.17794633,28.4375,29.75,28.8125,32.625,35.0625,36.125
0.13605165,-1.314635,0.2840939,-1.5192934,0.0056238226,0.090863384,-0.16086534,-0.3930917,-0.3669679,0.05995456,3.078449,-0.6249704,0.00022170132,-0.057651144,0.025986461,0.0008354672,-0.009370865,0.001835244,0.014606991,0.49828094,-1.3782996,1.9002484,-2.0913866,-1.5703472,2.4733334,-0.10142389,0.048473503,-0.06070556,0.006155924,0.0072495877,-0.11600918,-0.49799395,-0.19153613,-9.442732,0.8247004,47.686886,-1.1927807,-2.5055525,-3.2501154,-0.08234234,0.09554234,-0.14396143,28.4375,29.75,28.8125,32.625,35.0625,36.125
0.13805172,-0.7602246,0.25964823,-1.4920815,0.0022942172,0.10484045,-0.16943647,-0.39324215,-0.3669236,0.059973463,3.0783954,-0.624904,0.00016033411,-0.059221145,0.027022492,0.0012890516,-0.010152826,0.0023213504,0.009325917,0.4980523,-1.3781915,1.9000801,-2.0913985,-1.5703224,2.4730701,-0.104869656,0.048382606,-0.061698254,0.0064411126,0.0077122413,-0.114173606,-0.61291564,-0.15322891,-9.289502,0.7978386,47.63852,-1.1133827,-2.4235315,-3.263117,-0.07541311,0.08256748,-0.12859677,28.4375,29.75,28.8125,32.625,35.0625,36.125
0.14005177,-0.83800656,0.43477076,-1.7402223,0.0004605064,0.09553027,-0.16196646,-0.39335465,-0.36686358,0.059969705,3.0783985,-0.62488896,0.0001594611,-0.060913216,0.027714148,0.0016634236,-0.0103041055,0.003763797,0.0031023715,0.49784788,-1.378095,1.8999718,-2.091387,-1.5703229,2.472856,-0.10722018,0.04898002,-0.06315274,0.005960733,0.0071527665,-0.11029915,-0.49799395,-0.22984336,-9.3661175,0.779936,47.66539,-1.0639198,-2.557531,-3.3157897,-0.10294233,0.09877585,-0.18569332,28.4375,29.75,28.8125,32.625,35.0625,36.125
0.14205171,-0.62504756,0.5940621,-1.6868131,-0.012776905,0.094905086,-0.16410711,-0.3934657,-0.36679295,0.059948742,3.078412,-0.6249719,0.00024478065,-0.063045554,0.028438395,0.002272753,-0.010672231,0.0050245477,-0.004410049,0.49761924,-1.3779627,1.8998517,-2.0913384,-1.570311,2.4726775,-0.11019838,0.049939502,-0.06576629,0.006333501,0.006864208,-0.10576382,-0.4405331,-0.19153613,-9.385271,0.74413085,47.657326,-0.951908,-2.4142811,-3.040298,-0.084712505,0.08711283,-0.24686408,28.4375,29.75,28.8125,32.625,35.0625,36.125
0.1440518,-0.9812847,-0.033775434,-1.7682017,-0.003888717,0.084796146,-0.15751562,-0.393603,-0.36674148,0.05994134,3.0783877,-0.62496686,0.00025725408,-0.06281937,0.029761424,0.0008043027,-0.008749592,0.0023687547,-0.008154498,0.49739134,-1.3778181,1.8996972,-2.0913384,-1.5702871,2.4724495,-0.111928366,0.051364657,-0.06417659,0.0065748338,0.006448658,-0.10374919,-0.6703765,-0.019153614,-9.442732,0.784413,47.66987,-0.8845786,-2.4613032,-3.30648,-0.10306223,0.08421955,-0.28282136,28.4375,29.75,28.8125,32.625,35.0625,36.125
0.14605229,-0.6462802,0.3306787,-1.6163679,-0.027132662,0.10087774,-0.17220287,-0.39372334,-0.36667883,0.059965003,3.0783646,-0.62488437,0.00018437467,-0.06400416,0.029988816,0.0009767645,-0.009220352,0.002083648,-0.009049487,0.4971752,-1.3777814,1.8995999,-2.0913384,-1.5702871,2.472185,-0.11371942,0.05268518,-0.066329025,0.0074325823,0.0070035304,-0.10464459,-0.7086837,0.019153614,-9.385271,0.8291774,47.668976,-0.9030127,-2.558116,-3.2696257,-0.111108124,0.0877803,-0.30502015,28.4375,29.75,28.8125,32.625,35.0625,36.125
0.1480523,-0.9900848,-0.0055433516,-1.7134817,-0.02153844,0.10665817,-0.17104627,-0.3938679,-0.36660987,0.05996491,3.0783086,-0.6250268,0.00019342765,-0.0658693,0.029568195,0.0030564838,-0.011598083,0.0056569036,-0.008916137,0.49691132,-1.377662,1.8994559,-2.0913265,-1.5702633,2.472017,-0.11492839,0.051295616,-0.06947812,0.007700216,0.0073872735,-0.105986305,-0.51714754,0.038307227,-9.423578,0.8224646,47.658226,-0.9063641,-2.4015672,-3.0215526,-0.1170587,0.077280566,-0.3527708,28.4375,29.75,28.8125,32.625,35.0625,36.125
0.15005223,-1.2101943,0.16459651,-1.8610859,-0.027104635,0.10257641,-0.17754354,-0.39397943,-0.3665612,0.059971858,3.0782857,-0.6250216,0.00017928153,-0.0650993,0.03062611,0.00171766,-0.0095591135,0.0031077575,-0.01029742,0.49671948,-1.3775774,1.8993372,-2.091314,-1.5702513,2.471825,-0.11562298,0.052079342,-0.067460425,0.008116048,0.0068190238,-0.10529949,-0.3256114,0.11492168,-9.481039,0.7620334,47.66987,-0.99148095,-2.39926,-3.1324492,-0.11354104,0.08710851,-0.33645463,28.4375,29.75,28.8125,32.625,35.0625,36.125
0.15205224,-0.9777114,0.036781654,-1.7108188,-0.03952885,0.10056735,-0.171343,-0.39412558,-0.3664728,0.059971347,3.078303,-0.6250614,0.00019711432,-0.06608612,0.030592985,0.00094075856,-0.009129367,0.0021690547,-0.008716863,0.49644378,-1.3774563,1.8991812,-2.0912545,-1.5702633,2.471572,-0.11648147,0.05532409,-0.06950746,0.007949915,0.006883305,-0.107737444,-0.30645782,0.15322891,-9.595961,0.8023209,47.645687,-1.0861275,-2.419472,-3.220937,-0.13909112,0.1027334,-0.36158037,28.4375,29.75,28.8125,32.625,35.0625,36.125
0.15405251,-0.7071582,-0.4275628,-1.7314658,-0.0349495,0.08932756,-0.16874237,-0.3942292,-0.36639678,0.05994715,3.07835,-0.62507004,0.00025774242,-0.067101374,0.030841684,0.0010910261,-0.009357837,0.00258422,-0.010559896,0.496228,-1.3773359,1.8990854,-2.0912187,-1.5702752,2.4713557,-0.11780536,0.056175493,-0.07087463,0.007991848,0.0068784403,-0.10721805,-0.24899697,0.21068975,-9.557653,0.84484416,47.650166,-1.1390728,-2.6062665,-3.2083807,-0.12422833,0.100785695,-0.4274792,28.4375,29.75,28.8125,32.625,35.0625,36.125
0.15605251,-0.43591973,0.009576243,-1.7651926,-0.050405398,0.07091453,-0.17404442,-0.39438877,-0.3663574,0.059970185,3.078265,-0.6251251,0.00018130447,-0.067958534,0.030031284,0.0028626234,-0.011492254,0.0062392736,-0.0028621452,0.49600044,-1.3772165,1.8988942,-2.0912306,-1.5702513,2.4711733,-0.1172753,0.05418689,-0.07238738,0.00726972,0.0070233084,-0.114385,-0.22984336,0.15322891,-9.500193,0.74413085,47.682407,-1.0480398,-2.369503,-3.135185,-0.1437083,0.08016651,-0.36814803,28.4375,29.75,28.8125,32.625,35.0625,36.125
0.15805255,0.2044716,-0.39829755,-1.8993303,-0.04051038,0.07604917,-0.1700891,-0.39456946,-0.36629826,0.05999382,3.078209,-0.62509304,6.710336e-05,-0.06969701,0.032467414,0.0013919215,-0.010194945,0.0041457443,-0.0037496844,0.49573523,-1.3770955,1.8987025,-2.091255,-1.5702513,2.4708953,-0.12284647,0.05664122,-0.071834445,0.0067256144,0.0068932315,-0.11906762,-0.19153614,0.15322891,-9.519346,0.8873621,47.66271,-1.0617039,-2.4185586,-3.1917267,-0.11159604,0.098196134,-0.35925627,28.4375,29.75,28.8125,32.625,35.0625,36.125
0.16005169,0.08337404,-0.11680529,-1.9851426,-0.039531235,0.058900837,-0.17469577,-0.39467227,-0.36622396,0.059955064,3.078265,-0.62507933,0.00019568503,-0.07010694,0.031641886,0.0018052779,-0.010694092,0.005253705,0.0053833965,0.49550813,-1.3769389,1.8985943,-2.0912068,-1.570239,2.4706526,-0.121744394,0.057403006,-0.073653296,0.0065778303,0.006793493,-0.12709832,-0.095768064,0.095768064,-9.481039,0.8090337,47.696735,-1.0553329,-2.50745,-3.2250204,-0.12607175,0.10774985,-0.2836693,28.4375,29.75,28.8125,32.625,35.0625,36.125
0.16205186,-0.18255363,-0.14641337,-1.9236436,-0.033170555,0.04204472,-0.16715527,-0.39482576,-0.36616665,0.05996738,3.0781956,-0.6250596,0.00011980738,-0.07056828,0.03204135,0.0018252287,-0.0111246975,0.0045381915,0.012466738,0.49525625,-1.3768427,1.8984631,-2.091255,-1.5702151,2.4703972,-0.123256676,0.05768589,-0.07419469,0.007267578,0.0075285058,-0.13569406,-0.019153614,0.21068975,-9.461885,0.72622824,47.65464,-1.0798628,-2.4833202,-3.1856601,-0.12296426,0.108735844,-0.18127495,28.4375,29.75,28.8125,32.625,35.0625,36.125
0.16405185,0.2724184,-0.24218737,-1.7827176,-0.028720763,0.05154791,-0.16696729,-0.39496866,-0.36609948,0.059979435,3.0781987,-0.62496257,0.00011989847,-0.07075241,0.03199373,0.0015423303,-0.011671657,0.0038695552,0.014146488,0.49500456,-1.3767344,1.8982962,-2.0912068,-1.5702027,2.4700847,-0.12380728,0.058497813,-0.074473456,0.0070647825,0.0083308015,-0.13792501,-0.095768064,0.21068975,-9.404425,0.76874626,47.652847,-1.0737615,-2.386366,-3.1860752,-0.12957041,0.09427114,-0.136824,28.4375,29.75,28.8125,32.625,35.0625,36.125
0.1660521,-0.45283842,0.060615007,-1.9189042,-0.028924074,0.03215733,-0.17459892,-0.3951347,-0.3660274,0.05999619,3.0781536,-0.6249327,8.4468986e-05,-0.07320843,0.031679954,0.0029557436,-0.01303437,0.007177476,0.014902079,0.49471653,-1.3766259,1.898127,-2.0911953,-1.5701789,2.4697838,-0.12525064,0.059300154,-0.07858994,0.0068288934,0.007960239,-0.14012137,-0.095768064,0.17238252,-9.385271,0.7597976,47.68062,-1.0361211,-2.4529939,-3.1297429,-0.12234314,0.093792155,-0.06420028,28.4375,29.75,28.8125,32.625,35.0625,36.125
0.1680519,-0.48210156,-0.16388524,-2.0125465,-0.025670549,0.029943466,-0.17511286,-0.39525524,-0.36596632,0.059982203,3.0781548,-0.6249162,0.0001403922,-0.073165715,0.033477843,0.0015100852,-0.011507839,0.0045730765,0.008181249,0.4944883,-1.3764936,1.8979963,-2.091171,-1.5701545,2.4695451,-0.12814218,0.060095098,-0.07622107,0.0066855247,0.0078552775,-0.136293,0.0,0.076614454,-9.423578,0.8023209,47.682407,-1.2526116,-2.3830793,-3.2321186,-0.13931057,0.11080831,-0.100102544,28.4375,29.75,28.8125,32.625,35.0625,36.125
0.170052,0.3656765,0.049643025,-1.9191784,-0.03219204,0.04520423,-0.16071397,-0.39541304,-0.36590278,0.05998398,3.0781207,-0.62493044,8.373997e-05,-0.07389861,0.032553636,0.0024623054,-0.012804308,0.0058287536,0.0037209617,0.49423707,-1.3763614,1.8978409,-2.0911949,-1.5701545,2.4693072,-0.12755385,0.060464527,-0.078982785,0.00735465,0.008403318,-0.13124353,-0.05746084,0.076614454,-9.404425,0.8247004,47.672558,-1.1804204,-2.4042659,-3.171791,-0.13082096,0.102397114,-0.1659038,28.4375,29.75,28.8125,32.625,35.0625,36.125
0.17205198,-0.027600713,-0.15077053,-1.9071169,-0.023993628,0.02846377,-0.15869844,-0.39556983,-0.36584425,0.05999601,3.0780818,-0.6249057,9.094717e-05,-0.07539616,0.032470386,0.0030729126,-0.013643135,0.0069749844,-0.0023410919,0.49397308,-1.3762289,1.8976482,-2.0911586,-1.5701188,2.4690328,-0.12885788,0.061481345,-0.08163671,0.007588305,0.008597273,-0.12648433,-0.05746084,0.1340753,-9.404425,0.84708,47.657326,-1.2337959,-2.3948858,-3.0592146,-0.12909119,0.10827259,-0.2223773,28.4375,29.75,28.8125,32.625,35.0625,36.125
0.1740521,0.40305212,-0.18123648,-2.0078444,-0.022695385,0.040568568,-0.16327247,-0.3956923,-0.3657634,0.059975013,3.078106,-0.6249131,0.000108971726,-0.075872526,0.033967495,0.0022700462,-0.012843006,0.005624026,-0.008308503,0.49373254,-1.3761086,1.8975533,-2.091159,-1.5701307,2.4687939,-0.13174221,0.061946765,-0.08032336,0.0073774112,0.008533994,-0.12340184,0.019153614,0.17238252,-9.404425,0.8179876,47.63136,-1.1329277,-2.3222108,-3.2314367,-0.13999304,0.10138053,-0.27092367,28.4375,29.75,28.8125,32.625,35.0625,36.125
0.17605224,0.18478182,-0.39701077,-2.1276655,-0.021428674,0.035543986,-0.16477692,-0.39586878,-0.365706,0.060000554,3.0780022,-0.62500733,7.163642e-05,-0.07672985,0.03407955,0.0024750629,-0.012933626,0.00640396,-0.0109051755,0.493445,-1.3759882,1.8973497,-2.0911472,-1.5700825,2.4685783,-0.13248733,0.06260946,-0.08154417,0.0072140624,0.008252418,-0.12154882,0.038307227,0.076614454,-9.461885,0.8247004,47.613445,-1.2289083,-2.329819,-3.139165,-0.14648439,0.10007906,-0.35434476,28.4375,29.75,28.8125,32.625,35.0625,36.125
0.17805232,0.017967498,-0.22348091,-1.9011272,-0.03146489,0.039164383,-0.16500862,-0.39602518,-0.3656411,0.059996627,3.0780177,-0.6248952,5.8800895e-05,-0.07696933,0.03459926,0.0023600534,-0.01291578,0.00544261,-0.013517337,0.4931931,-1.375832,1.8971704,-2.0911348,-1.5700825,2.4682546,-0.13381371,0.06281766,-0.081726894,0.008043525,0.008697028,-0.12026339,-0.05746084,0.076614454,-9.481039,0.8940802,47.637623,-1.1347488,-2.2918854,-3.177394,-0.14676934,0.095810056,-0.40392703,28.4375,29.75,28.8125,32.625,35.0625,36.125
0.18005238,-0.28799477,-0.5570296,-1.8474205,-0.034074057,0.05259832,-0.15757531,-0.3961462,-0.36557984,0.06000052,3.0779884,-0.6249478,8.419626e-05,-0.07746377,0.035562813,0.001469298,-0.012215947,0.0030955856,-0.016453331,0.4929646,-1.3757354,1.8970388,-2.091099,-1.5700582,2.4680626,-0.13616253,0.06460636,-0.082040034,0.00896948,0.009194818,-0.11967642,-0.22984336,0.1340753,-9.289502,0.8493211,47.658226,-1.1640973,-2.376839,-3.2639694,-0.17057757,0.10325894,-0.44917297,28.4375,29.75,28.8125,32.625,35.0625,36.125
0.18205242,-0.48420417,-0.1090177,-1.8328897,-0.03832405,0.06702421,-0.16670528,-0.39632487,-0.36548844,0.060001824,3.0779467,-0.6250714,8.3226245e-05,-0.078555174,0.0362312,0.0016726803,-0.012496123,0.0033043856,-0.016036296,0.49264055,-1.3755912,1.896859,-2.0910742,-1.5700463,2.4678211,-0.13832547,0.064983636,-0.08302605,0.009267369,0.009346742,-0.12225604,-0.17238252,0.11492168,-9.289502,0.8672237,47.647476,-1.212287,-2.256409,-3.3362827,-0.16620435,0.10138321,-0.49020478,28.4375,29.75,28.8125,32.625,35.0625,36.125
0.18405238,-0.5401445,-0.27110878,-1.7835282,-0.022778034,0.0839258,-0.15773925,-0.3964702,-0.36545384,0.06001792,3.07788,-0.6249759,7.286422e-05,-0.07966777,0.036749236,0.0013975725,-0.013054817,0.0025738736,-0.010483801,0.49241245,-1.3754704,1.8966793,-2.0910742,-1.5699857,2.467542,-0.14069307,0.06647618,-0.08419323,0.009333817,0.010195511,-0.13017571,-0.1340753,0.13407528,-9.423578,0.8179876,47.655537,-1.1205076,-2.3403952,-3.23632,-0.19084355,0.07782247,-0.49038467,28.4375,29.75,28.8125,32.625,35.0625,36.125
0.18605255,-0.6245743,0.43381304,-1.5094668,-0.041273978,0.093214996,-0.1772043,-0.39662254,-0.365369,0.060013343,3.0778725,-0.62500954,0.00010029824,-0.081274524,0.037867904,0.0017140348,-0.013040289,0.0028003738,-0.006049116,0.49212393,-1.375338,1.8965243,-2.0910385,-1.5699743,2.4672754,-0.1439212,0.06699516,-0.08572535,0.010164755,0.010079017,-0.13783796,-0.36391866,0.019153614,-9.3661175,0.8179876,47.66091,-1.1253432,-2.314743,-3.3019648,-0.17994547,0.06924064,-0.40146786,28.4375,29.75,28.8125,32.625,35.0625,36.125
0.18805255,-1.042323,0.47756413,-1.3864691,-0.03438784,0.10023049,-0.1780797,-0.39680216,-0.36528578,0.060028363,3.077828,-0.62502956,5.4876622e-05,-0.08110001,0.037031863,0.0014666278,-0.01315735,0.0030490297,0.0073442673,0.49181315,-1.3752176,1.8963445,-2.0910265,-1.5699624,2.4669828,-0.14230114,0.068185076,-0.08640812,0.009396802,0.010077467,-0.14961031,-0.4213795,0.05746084,-9.346964,0.80679786,47.685097,-1.2439108,-2.1400435,-3.3216624,-0.17786488,0.07253535,-0.30195922,28.4375,29.75,28.8125,32.625,35.0625,36.125
0.1900525,-1.1115124,0.081256,-1.6064037,-0.012350655,0.110606596,-0.17149073,-0.3969447,-0.36521643,0.060006343,3.0778296,-0.62495035,0.00014832593,-0.082665615,0.037894595,0.0012484085,-0.01348517,0.002529147,0.011402537,0.49153665,-1.375049,1.8961891,-2.0910027,-1.5699137,2.4666567,-0.14546251,0.0698511,-0.087943256,0.009583437,0.01060972,-0.15683,-0.59376204,-0.05746084,-9.346964,0.7911258,47.66808,-1.1018329,-2.2126055,-3.2476416,-0.18390161,0.07550141,-0.22335877,28.4375,29.75,28.8125,32.625,35.0625,36.125
0.19205253,-0.9034858,0.60491663,-1.606572,-0.017602066,0.115973085,-0.16757283,-0.39711425,-0.36512822,0.06002783,3.0778341,-0.6249473,9.606255e-05,-0.08257473,0.038080182,0.00012268398,-0.0121027045,0.00075700745,0.015134442,0.49124932,-1.3749398,1.8959969,-2.0909426,-1.5699381,2.466367,-0.14541215,0.07221648,-0.08823251,0.009725555,0.010234529,-0.1605105,-0.51714754,-0.05746084,-9.385271,0.84708,47.678825,-1.2702804,-2.2903938,-3.2693148,-0.1966689,0.06457737,-0.15328169,28.4375,29.75,28.8125,32.625,35.0625,36.125
0.19405249,-1.2156644,0.6049784,-1.2610178,-0.020845395,0.12193303,-0.16489826,-0.39728224,-0.36505812,0.06000332,3.0777986,-0.6249406,0.00014553218,-0.08353835,0.03909346,0.00030779536,-0.011798845,0.0014497632,0.01232996,0.49094927,-1.3747478,1.89583,-2.0909665,-1.5698904,2.4660673,-0.14757155,0.07193655,-0.08831231,0.009630085,0.0096408585,-0.15986493,-0.7469909,-0.05746084,-9.232041,0.8717007,47.68062,-1.2332503,-2.3555737,-3.358902,-0.19429532,0.083787784,-0.13618158,28.4375,29.75,28.8125,32.625,35.0625,36.125
0.1960526,-1.0904607,0.5772839,-1.4633738,-0.0037044932,0.12146729,-0.15820357,-0.3974644,-0.36499083,0.0600406,3.0777175,-0.62492853,7.98934e-05,-0.08632731,0.039898176,0.0020279565,-0.013927821,0.0041936575,0.00345156,0.4906484,-1.3746518,1.895626,-2.0909426,-1.5698541,2.4657693,-0.151762,0.0711556,-0.09140039,0.010078332,0.01023256,-0.15517563,-0.8619126,-0.17238252,-9.289502,0.8493211,47.68062,-1.1089534,-2.1752353,-3.221839,-0.18920909,0.05730483,-0.2050072,28.4375,29.75,28.8125,32.625,35.0625,36.125
0.19805163,-1.007122,0.7132846,-1.2486755,0.0017940863,0.116779156,-0.1627075,-0.39763469,-0.3648915,0.06002968,3.0777714,-0.6248455,5.9834285e-05,-0.08530367,0.040922526,-0.0007437382,-0.010675964,-0.00032772668,-0.0032984572,0.49034932,-1.3744946,1.8954586,-2.0909188,-1.5698904,2.4654117,-0.15205497,0.07472934,-0.08932814,0.009947296,0.009494252,-0.14871836,-0.7469909,-0.05746084,-9.251195,0.85155696,47.682407,-1.2845002,-2.246912,-3.4235113,-0.20891923,0.06270357,-0.26081067,28.4375,29.75,28.8125,32.625,35.0625,36.125
0.20005159,-1.6289127,0.10632541,-1.3141847,0.010727443,0.10334455,-0.14904739,-0.39781398,-0.36481863,0.060032215,3.0777164,-0.6249111,4.119416e-05,-0.087610036,0.04058543,0.0007370483,-0.011721931,0.0034330792,-0.0056694043,0.4900495,-1.374338,1.8952669,-2.0909188,-1.5698665,2.46516,-0.1529887,0.075207666,-0.09317346,0.009512164,0.008643276,-0.14727853,-0.7469909,-0.17238252,-9.251195,0.78217715,47.682407,-1.1822522,-2.3752484,-3.3273888,-0.21073079,0.08593841,-0.33473802,28.4375,29.75,28.8125,32.625,35.0625,36.125
0.20205252,-0.9421256,0.89180386,-1.0043331,-0.0016018028,0.123884626,-0.16603464,-0.39797264,-0.36473393,0.060024675,3.0776753,-0.6248829,0.00010356171,-0.087428264,0.041256845,-9.572307e-05,-0.011278432,0.001976315,-0.0068241376,0.48972577,-1.3742058,1.8951243,-2.0909069,-1.569806,2.4648237,-0.15408841,0.07580225,-0.09191791,0.009166825,0.008941546,-0.14722416,-0.7852981,-0.15322891,-9.212888,0.87617236,47.670765,-1.2225797,-2.2487538,-3.338528,-0.1917119,0.07742904,-0.35459524,28.4375,29.75,28.8125,32.625,35.0625,36.125
0.20405246,-0.6075112,1.0760033,-1.2611423,0.00720474,0.12428284,-0.16244589,-0.39815152,-0.36465323,0.060011853,3.0776618,-0.6249759,0.00017174442,-0.08867489,0.041639447,-0.00015003713,-0.010936303,0.0013158203,-0.008207511,0.48941365,-1.374001,1.8948964,-2.0908468,-1.5697826,2.4645715,-0.1558044,0.07782935,-0.09451826,0.0104904715,0.008944434,-0.14755592,-0.6512229,-0.21068975,-9.155427,0.84484416,47.709274,-1.1988935,-2.3280761,-3.380614,-0.22339675,0.084768414,-0.38593295,28.4375,29.75,28.8125,32.625,35.0625,36.125
0.20605253,-0.5603831,0.7351978,-1.2689186,0.0064213704,0.11763217,-0.16120106,-0.39833927,-0.36456463,0.06002583,3.0776532,-0.62491286,0.00010159645,-0.08964206,0.041459356,0.00028473974,-0.011165659,0.002918243,-0.004411493,0.4891025,-1.3738687,1.8947047,-2.0908349,-1.569795,2.4642222,-0.15597777,0.07844105,-0.09612423,0.0099691115,0.008400934,-0.15152371,-0.49799395,-0.21068975,-9.270349,0.8918391,47.68599,-1.331075,-2.353824,-3.2784605,-0.21138445,0.08070146,-0.39075255,28.4375,29.75,28.8125,32.625,35.0625,36.125
0.20805241,-0.823068,0.3991646,-1.4040344,0.007082204,0.09760942,-0.15815361,-0.39852107,-0.36448318,0.06002116,3.0775967,-0.62501085,0.00012342242,-0.09076558,0.04157425,0.00086451706,-0.012163441,0.003928537,0.0017264935,0.4887788,-1.3737003,1.8945125,-2.090823,-1.5697588,2.4639668,-0.15737976,0.07861214,-0.09766117,0.009988432,0.008813659,-0.15906332,-0.4405331,-0.1340753,-9.346964,0.90750587,47.668976,-1.298725,-2.3557336,-3.2017365,-0.21082363,0.0862058,-0.32093483,28.4375,29.75,28.8125,32.625,35.0625,36.125
0.21005242,-0.35326868,-0.06597904,-1.6606865,0.0025805724,0.09354326,-0.16352813,-0.3987219,-0.36439216,0.06001411,3.0776186,-0.6248945,3.1315616e-05,-0.091387935,0.04209047,-0.0010056533,-0.010551007,0.0013423237,0.009699266,0.48846683,-1.3735187,1.8943208,-2.0908587,-1.569795,2.4635797,-0.1586274,0.083024226,-0.09856528,0.009527175,0.008617291,-0.16828214,-0.3256114,0.0,-9.251195,0.8985519,47.66987,-1.3724535,-2.4291198,-3.2634861,-0.2262217,0.08337138,-0.23975797,28.4375,29.75,28.8125,32.625,35.0625,36.125
0.21205243,-0.6016547,-0.040070213,-1.5236491,-0.022813935,0.07564508,-0.16782898,-0.39890972,-0.364291,0.06000478,3.077614,-0.62494534,7.274969e-05,-0.092625335,0.04212517,0.0008565878,-0.011389581,0.004713388,0.017109,0.48811948,-1.3733392,1.8941177,-2.090811,-1.5697826,2.4632647,-0.15921637,0.08099505,-0.10054763,0.010183745,0.007777921,-0.17628005,-0.30645782,0.11492168,-9.308656,0.800085,47.64389,-1.3667685,-2.3575583,-3.3123164,-0.2282457,0.1140891,-0.11449072,28.4375,29.75,28.8125,32.625,35.0625,36.125
0.21405259,0.07215474,-0.2533805,-1.5100969,-0.04259218,0.08127984,-0.16616833,-0.3990885,-0.3641885,0.059994075,3.0776088,-0.6249226,0.000112239046,-0.09301715,0.043775525,-0.0004916241,-0.009568177,0.0019397404,0.01758769,0.4877713,-1.3731825,1.8939503,-2.0907867,-1.5697592,2.462903,-0.16210316,0.082860775,-0.099895686,0.010981118,0.0074753393,-0.17964546,-0.17238252,0.17238252,-9.251195,0.8672237,47.629562,-1.2647885,-2.285424,-3.2672787,-0.2282014,0.11368136,-0.046737477,28.4375,29.75,28.8125,32.625,35.0625,36.125
0.21605255,0.105077736,-0.4302016,-1.6486845,-0.041829303,0.07166133,-0.1600437,-0.39929944,-0.36408937,0.06000293,3.077588,-0.62496257,5.9570935e-05,-0.095220946,0.045840368,-0.0014812183,-0.008076814,-0.00023996264,0.008029971,0.48742193,-1.3730129,1.8937229,-2.0907624,-1.5697712,2.4625814,-0.16731375,0.08624659,-0.10198816,0.012309665,0.0071820635,-0.17529666,-0.114921674,0.22984336,-9.289502,0.82022345,47.64121,-1.102883,-2.612256,-3.3600078,-0.26201785,0.12987721,-0.06702532,28.4375,29.75,28.8125,32.625,35.0625,36.125
0.21805179,0.31777343,-0.8161368,-1.6853338,-0.033009585,0.059554294,-0.15810618,-0.3994887,-0.36400047,0.059993826,3.077591,-0.62488866,9.880338e-05,-0.095940314,0.045827493,-0.00044807832,-0.009716707,0.0016850097,-0.00027642894,0.48708665,-1.3728215,1.8935078,-2.0907266,-1.5697464,2.4621997,-0.16820545,0.084729075,-0.10242946,0.011797491,0.007721843,-0.16788252,-0.1340753,0.22984336,-9.32781,0.8314132,47.640312,-1.1106801,-2.3739405,-3.2044668,-0.26280844,0.14125898,-0.13773252,28.4375,29.75,28.8125,32.625,35.0625,36.125
0.22005181,-0.08804796,-0.89346915,-2.0237188,-0.03435684,0.044364095,-0.1472084,-0.3996871,-0.36389774,0.059998956,3.077587,-0.62492937,4.6775775e-05,-0.09768691,0.04638258,-0.0008852783,-0.009680797,0.0012178828,-0.008441188,0.4867504,-1.3726643,1.8933038,-2.0907023,-1.5697707,2.4618895,-0.17075624,0.0875968,-0.10485498,0.011777581,0.007904962,-0.16226712,0.0,0.21068975,-9.346964,0.8940802,47.67345,-1.0569189,-2.4865355,-3.188615,-0.24690123,0.12368481,-0.2220234,28.4375,29.75,28.8125,32.625,35.0625,36.125
0.22205178,0.40966725,-0.6446966,-1.6514105,-0.044357367,0.04493031,-0.15639803,-0.39990118,-0.36382034,0.06001191,3.0774815,-0.6249872,2.0641772e-05,-0.09903413,0.04707428,-0.0007140263,-0.009786276,0.0016571931,-0.015313027,0.48639068,-1.3724959,1.8930768,-2.0907147,-1.5697106,2.4615793,-0.17298664,0.08841555,-0.1062686,0.011943204,0.0077998852,-0.15762444,-0.019153614,0.30645782,-9.346964,0.8806493,47.689575,-1.0892729,-2.4785004,-3.2065463,-0.26709768,0.16122697,-0.32063502,28.4375,29.75,28.8125,32.625,35.0625,36.125
0.22405183,0.0069290902,-0.88038224,-1.6591913,-0.045111287,0.04712854,-0.1448015,-0.40007246,-0.36371735,0.05998548,3.0774908,-0.62508583,0.00010641085,-0.09938704,0.04594985,-0.0006848373,-0.011028582,0.0016323577,-0.019354597,0.48605582,-1.3723031,1.8928965,-2.0906665,-1.5696982,2.461305,-0.17202483,0.09019548,-0.1084266,0.011758417,0.008893476,-0.15262121,-0.13407528,0.3256114,-9.423578,0.8717007,47.68062,-1.2385557,-2.5555944,-3.1343772,-0.2731618,0.14524566,-0.40474468,28.4375,29.75,28.8125,32.625,35.0625,36.125
0.22605194,0.055077646,-0.6787104,-1.8446999,-0.045001704,0.054543603,-0.15563585,-0.40026042,-0.36360827,0.05996838,3.077504,-0.6251271,0.00017626851,-0.100171365,0.046019662,-0.0005130758,-0.011595764,0.0019802004,-0.021755096,0.48569623,-1.3721106,1.8926929,-2.0906074,-1.5696863,2.4609694,-0.17298205,0.09086202,-0.10961555,0.011710825,0.009223995,-0.15117808,-0.019153614,0.28730422,-9.461885,0.84708,47.67166,-1.1619132,-2.5348148,-3.0998201,-0.26791543,0.14762402,-0.4903801,28.4375,29.75,28.8125,32.625,35.0625,36.125
0.22805199,-0.0603965,-0.9622848,-1.8628752,-0.047522288,0.065406315,-0.15592907,-0.40045354,-0.36352476,0.059955783,3.0774815,-0.6251753,0.00024276218,-0.10140155,0.046650425,-0.00024332588,-0.0120488545,0.0025276965,-0.017565554,0.48536015,-1.3718942,1.8924531,-2.0905588,-1.56965,2.4606664,-0.17516428,0.09126675,-0.110736385,0.011746225,0.009369842,-0.15754975,-0.019153614,0.3256114,-9.442732,0.87617236,47.64389,-1.0935795,-2.6028364,-3.0734668,-0.29585862,0.15358394,-0.5012677,28.4375,29.75,28.8125,32.625,35.0625,36.125
0.23005196,0.018043898,-1.2523615,-1.8686539,-0.0461384,0.06917401,-0.15805873,-0.4006771,-0.36344564,0.059984066,3.077398,-0.6251903,0.00015266122,-0.10263959,0.047368627,3.1030424e-05,-0.013031853,0.0022382075,-0.008436565,0.4850118,-1.371738,1.8922027,-2.0905588,-1.5696257,2.460338,-0.17803529,0.09168947,-0.11202968,0.012431148,0.0103999525,-0.16954914,0.019153614,0.2681506,-9.461885,0.8672237,47.672558,-1.0763202,-2.550316,-3.0592704,-0.3185087,0.14993969,-0.42583978,28.4375,29.75,28.8125,32.625,35.0625,36.125
0.23205212,0.7674244,-0.24693844,-1.8389927,-0.060874797,0.075053565,-0.17186497,-0.40086585,-0.36334187,0.059962012,3.0774245,-0.6251489,0.0001562346,-0.103913195,0.048231155,-0.0003168944,-0.012894169,0.0021712538,0.002007628,0.48467585,-1.3715452,1.8920234,-2.0905588,-1.5696381,2.459973,-0.1805066,0.09310174,-0.11283049,0.011958819,0.010316636,-0.1824642,0.0,0.24899697,-9.5385,0.7777002,47.65106,-0.99893427,-2.561933,-3.0875044,-0.30749872,0.15608826,-0.2960223,28.4375,29.75,28.8125,32.625,35.0625,36.125
0.23405206,0.31636986,-0.23326617,-1.8562049,-0.05642636,0.060766943,-0.16114274,-0.40110645,-0.36323768,0.059977736,3.0773592,-0.62516916,0.00015986818,-0.1051977,0.048724927,0.00013827985,-0.013626147,0.0035270941,0.0077429786,0.48425597,-1.3713531,1.8917483,-2.0905116,-1.5695904,2.4595742,-0.1824098,0.09313962,-0.11378944,0.011360832,0.0103456015,-0.19010203,-0.17238252,0.22984336,-9.481039,0.8090337,47.6421,-0.8596896,-2.511564,-3.0583234,-0.32407576,0.16989286,-0.17708106,28.4375,29.75,28.8125,32.625,35.0625,36.125
0.23605213,0.10698633,-0.49529135,-1.7596009,-0.048426714,0.06361321,-0.16138329,-0.40129408,-0.3631545,0.059972167,3.0773404,-0.62512416,0.00016908957,-0.105755255,0.048087202,0.00070706115,-0.015310032,0.0042598275,0.009474286,0.483933,-1.371173,1.8915437,-2.0904996,-1.5695657,2.4592257,-0.18247238,0.09336033,-0.11533623,0.011260854,0.011498451,-0.19189596,-0.22984336,0.1340753,-9.500193,0.83589023,47.65912,-0.9989629,-2.4918563,-3.0989575,-0.33335108,0.15753184,-0.14127386,28.4375,29.75,28.8125,32.625,35.0625,36.125
0.23805207,0.5063467,-0.083896056,-1.8000737,-0.031999823,0.093140654,-0.15957199,-0.40149382,-0.3630646,0.059966583,3.0772855,-0.6251352,0.00018981987,-0.10554716,0.048313554,4.7444784e-05,-0.014937365,0.0036564844,0.004731236,0.48357365,-1.3709924,1.8913416,-2.0905,-1.5695175,2.4588802,-0.18256223,0.09399531,-0.11441951,0.01042464,0.011453364,-0.18724272,-0.22984336,0.038307227,-9.576807,0.86498255,47.694946,-1.059659,-2.5202315,-3.1504188,-0.31485346,0.14713329,-0.17528534,28.4375,29.75,28.8125,32.625,35.0625,36.125
0.24005204,-0.54788005,0.21320567,-1.7523532,-0.021547262,0.08981169,-0.15809543,-0.40168542,-0.36297548,0.05994349,3.0773048,-0.625064,0.00025843424,-0.10723664,0.04823272,0.0009103274,-0.015760263,0.005452617,-0.0030689156,0.48323798,-1.370764,1.8911136,-2.0904634,-1.5694937,2.4584978,-0.18378109,0.094799995,-0.11740643,0.010634819,0.011332675,-0.18066055,-0.34476504,0.0,-9.615114,0.8560339,47.65643,-1.0469663,-2.421688,-3.235375,-0.30616271,0.17564738,-0.2759518,28.4375,29.75,28.8125,32.625,35.0625,36.125
0.24205205,-0.911221,0.49416915,-1.7897227,-0.014097437,0.09414126,-0.16019769,-0.4019059,-0.36289367,0.059966847,3.0772302,-0.62501097,0.00024812124,-0.106201775,0.049143307,-0.0008485883,-0.01458107,0.0016055236,-0.0064938604,0.4828665,-1.3705952,1.8908514,-2.0904276,-1.5694331,2.4581027,-0.18477787,0.09613995,-0.11509016,0.010942721,0.012093201,-0.17823297,-0.34476504,-0.019153614,-9.500193,0.8090337,47.66271,-1.1847025,-2.6707406,-3.2836647,-0.31542915,0.17026424,-0.3240029,28.4375,29.75,28.8125,32.625,35.0625,36.125
0.24405208,-0.5919591,1.0075446,-1.6836152,-0.006109035,0.10060716,-0.17080575,-0.40215454,-0.36276567,0.059969615,3.0772254,-0.6251034,0.00015542778,-0.10689833,0.048486285,0.00071307557,-0.016633514,0.004731591,-0.005016704,0.48245943,-1.3703918,1.8906001,-2.0904162,-1.5694813,2.4577541,-0.18442683,0.094244115,-0.11624245,0.010265828,0.012467745,-0.1793587,-0.2681506,-0.038307227,-9.595961,0.8605109,47.65912,-1.2327794,-2.4238079,-3.2673702,-0.323779,0.15863807,-0.3499619,28.4375,29.75,28.8125,32.625,35.0625,36.125
0.24605209,-0.5654923,0.8614804,-1.6642723,0.0035465169,0.0987487,-0.16942143,-0.40235424,-0.36268505,0.05995848,3.0771358,-0.6251036,0.00022472277,-0.10744311,0.049905743,-0.0018394319,-0.01450283,0.0005658866,-0.006130889,0.48208696,-1.3701978,1.890397,-2.090428,-1.5693854,2.4573932,-0.1872561,0.09894794,-0.11601523,0.010037605,0.0125208795,-0.18107295,-0.36391866,-0.22984336,-9.557653,0.90527004,47.65912,-1.1250994,-2.6599143,-3.295897,-0.33273742,0.14945185,-0.38807195,28.4375,29.75,28.8125,32.625,35.0625,36.125
0.24805199,-0.21093385,1.134542,-1.484515,-0.0045071775,0.10314617,-0.17486914,-0.4025945,-0.36257762,0.05997262,3.0771234,-0.62511486,0.00011564857,-0.10812003,0.050986428,-0.000996762,-0.014314835,0.0024942623,-0.0010033755,0.48171502,-1.3700066,1.8901342,-2.0904162,-1.5694216,2.45703,-0.18894356,0.09678105,-0.115336515,0.009914844,0.011482097,-0.18788731,-0.34476504,-0.30645782,-9.5385,0.85155696,47.675243,-1.1104856,-2.373335,-3.4588778,-0.32379496,0.17327201,-0.33043814,28.4375,29.75,28.8125,32.625,35.0625,36.125
0.25005195,-1.0487151,1.0458386,-1.7200555,0.002291397,0.06936212,-0.1671555,-0.40278324,-0.36248168,0.059939843,3.0771258,-0.62506837,0.00022265819,-0.10949681,0.050447736,-0.00026391266,-0.0149722,0.0046014907,0.010216268,0.48135617,-1.3697778,1.8899306,-2.0903924,-1.5693735,2.456642,-0.18893537,0.09786925,-0.118246965,0.009594802,0.011086193,-0.19909786,-0.28730422,-0.3256114,-9.461885,0.78217715,47.716442,-1.2851135,-2.4362068,-3.3255963,-0.32646388,0.17756319,-0.22848634,28.4375,29.75,28.8125,32.625,35.0625,36.125
0.2520521,-0.7228694,0.9702641,-1.5678734,-0.0033504618,0.07351229,-0.16496308,-0.40299493,-0.36237693,0.059939638,3.077129,-0.62500626,0.00023440145,-0.10825228,0.050728943,-0.0012479849,-0.013994843,0.0025153249,0.019298682,0.4809847,-1.3695858,1.8896912,-2.0903447,-1.5693616,2.4562314,-0.18829508,0.098015755,-0.11624195,0.00976259,0.011201358,-0.20754087,-0.47884035,-0.24899697,-9.461885,0.8940802,47.642998,-1.3733027,-2.364673,-3.5450788,-0.3202669,0.18016267,-0.10092832,28.4375,29.75,28.8125,32.625,35.0625,36.125
0.25405207,-0.918503,0.5363849,-1.8469199,-0.002571931,0.076433964,-0.1716925,-0.40322372,-0.3622762,0.05995083,3.0770917,-0.62499785,0.00016075051,-0.110465646,0.05070282,0.0008794785,-0.015595322,0.006446284,0.01881,0.4806124,-1.3694059,1.8894514,-2.0903447,-1.5693616,2.4558587,-0.1898787,0.09683192,-0.1197957,0.010281819,0.010813347,-0.20863387,-0.38307226,-0.19153613,-9.461885,0.90527004,47.642998,-1.4160681,-2.2851431,-3.4075718,-0.34141976,0.18423596,-0.048821427,28.4375,29.75,28.8125,32.625,35.0625,36.125
0.2560521,-0.44700858,0.67804384,-1.733474,-0.004190284,0.0793922,-0.16910827,-0.4034337,-0.36217812,0.05993759,3.077076,-0.6249048,0.00018445251,-0.111442156,0.051796585,-0.0010784237,-0.0142509015,0.0026597092,0.009897866,0.48023924,-1.3692,1.8892359,-2.0903442,-1.5693258,2.4554296,-0.19284603,0.10151032,-0.12108052,0.01086884,0.011369802,-0.2026881,-0.22984336,-0.076614454,-9.519346,0.86498255,47.679718,-1.3453974,-2.4280076,-3.4286904,-0.32241106,0.19783634,-0.099550635,28.4375,29.75,28.8125,32.625,35.0625,36.125
0.25805223,0.11961724,0.7251909,-1.8474511,-0.022392953,0.07837459,-0.17650077,-0.40368882,-0.3620526,0.059968997,3.077017,-0.62499416,0.00013811339,-0.11338957,0.05232269,0.0012863533,-0.016256625,0.0064050537,-0.0015841378,0.47979462,-1.369033,1.8889488,-2.0902717,-1.5693134,2.4550483,-0.19537869,0.09870474,-0.12329166,0.011632126,0.011421556,-0.19373794,-0.30645782,0.019153614,-9.557653,0.8403672,47.65912,-1.3729907,-2.1580782,-3.4351707,-0.33822453,0.19382963,-0.1925117,28.4375,29.75,28.8125,32.625,35.0625,36.125
0.26005217,-0.21790849,-0.0565575,-1.7884384,-0.048711043,0.073946625,-0.1626391,-0.4038847,-0.36195013,0.059944883,3.0770147,-0.62495935,0.0001799217,-0.113634706,0.052970678,-0.0010818648,-0.014021699,0.0022491359,-0.009391368,0.47943428,-1.3688269,1.8887576,-2.0902712,-1.5692896,2.4546666,-0.19656505,0.103874065,-0.12420551,0.012094526,0.011349754,-0.18711612,-0.26815057,0.17238252,-9.442732,0.88960326,47.70659,-1.3509353,-2.406492,-3.4118104,-0.34789264,0.20272431,-0.29392064,28.4375,29.75,28.8125,32.625,35.0625,36.125
0.26205218,-0.41280013,-0.7846436,-1.9795794,-0.045890763,0.06349412,-0.16601312,-0.40415388,-0.36185104,0.05997634,3.0769746,-0.6250129,9.392021e-05,-0.1151171,0.053803973,0.0008458879,-0.015250951,0.0055020186,-0.017381556,0.47903746,-1.3685998,1.888399,-2.0901997,-1.569302,2.4543085,-0.1989166,0.100918934,-0.12518631,0.012572897,0.010948809,-0.18147683,-0.28730422,0.15322891,-9.595961,0.8940802,47.68062,-1.2332644,-2.2769942,-3.4039545,-0.34903076,0.2198801,-0.41187084,28.4375,29.75,28.8125,32.625,35.0625,36.125
0.26405215,-0.54607826,-1.0992864,-2.0524697,-0.060229562,0.07389421,-0.16610214,-0.40436816,-0.3617321,0.05996326,3.076951,-0.6250857,0.00010795335,-0.11629674,0.05470754,4.6620717e-05,-0.014221398,0.0042742724,-0.01984279,0.47864056,-1.3684067,1.8881954,-2.0901873,-1.5692896,2.4539602,-0.20117676,0.103582144,-0.12665373,0.012948739,0.010602227,-0.18127474,-0.36391866,0.19153613,-9.672575,0.82694155,47.67614,-1.2238996,-2.363556,-3.434351,-0.36606652,0.23223375,-0.46803445,28.4375,29.75,28.8125,32.625,35.0625,36.125
0.26605257,-0.5887489,-0.9659092,-1.891722,-0.07868394,0.0894462,-0.17364289,-0.40460017,-0.36162308,0.05997206,3.0768828,-0.62510335,0.00016490667,-0.11730627,0.0547466,0.0003843049,-0.015051979,0.004710715,-0.011039508,0.47820815,-1.3682141,1.8879322,-2.0901277,-1.5692176,2.4535475,-0.20236883,0.10436681,-0.12843175,0.013203177,0.011152736,-0.19126949,-0.34476504,0.30645782,-9.595961,0.86945957,47.66808,-1.1590347,-2.2782066,-3.420062,-0.37307996,0.22929472,-0.4558918,28.4375,29.75,28.8125,32.625,35.0625,36.125
0.26805177,-1.0528364,-1.2441949,-1.9421178,-0.067767836,0.091813274,-0.17529239,-0.40484044,-0.36152482,0.05999571,3.0768201,-0.6251406,9.078957e-05,-0.118402936,0.05503248,0.00030816137,-0.015831348,0.0047021653,0.0012086763,0.47782364,-1.3680335,1.8876575,-2.0901039,-1.5692052,2.4531944,-0.20416018,0.10564659,-0.12973307,0.012899382,0.011879047,-0.20530784,-0.34476504,0.34476504,-9.576807,0.83365434,47.65643,-1.1367824,-2.3136764,-3.420289,-0.37291867,0.23820141,-0.33178353,28.4375,29.75,28.8125,32.625,35.0625,36.125
0.2700518,-1.0942756,-1.0867207,-1.6288536,-0.075061865,0.10268334,-0.17232896,-0.40509582,-0.36140007,0.059985947,3.0767603,-0.62514335,6.7360124e-05,-0.11963009,0.055758882,-0.00014151046,-0.015886856,0.0045728697,0.008869227,0.47736695,-1.3678168,1.8874291,-2.0901396,-1.5691694,2.452747,-0.20643285,0.10732288,-0.13057032,0.01217756,0.012011074,-0.21523999,-0.4405331,0.30645782,-9.481039,0.88289046,47.684196,-1.0456873,-2.3362947,-3.305049,-0.37618506,0.24672921,-0.22138163,28.4375,29.75,28.8125,32.625,35.0625,36.125
0.27205184,-0.7987558,-0.9356797,-1.5110182,-0.05530166,0.108959414,-0.17441478,-0.4053132,-0.36129215,0.059969924,3.0767894,-0.62511057,0.0001099133,-0.1224249,0.05538285,0.0016647142,-0.018755773,0.0082452,0.010135209,0.47699425,-1.3675764,1.887165,-2.0900805,-1.5691694,2.4523504,-0.20868082,0.1076118,-0.1349241,0.011669742,0.012863735,-0.21875295,-0.36391866,0.22984336,-9.481039,0.8873621,47.63404,-1.0980285,-2.317728,-3.146696,-0.3784436,0.23335993,-0.1623754,28.4375,29.75,28.8125,32.625,35.0625,36.125
0.27405182,-0.9063278,-0.037892092,-1.4484688,-0.050890718,0.0952197,-0.17501645,-0.40558165,-0.36118427,0.060001682,3.0767186,-0.62502253,2.5764073e-06,-0.123952396,0.05545716,0.0022194316,-0.019759573,0.009498842,0.0039442726,0.47656178,-1.367396,1.8868774,-2.0900805,-1.5691446,2.451872,-0.21023098,0.1085152,-0.13724162,0.011511961,0.013199563,-0.2141099,-0.5363012,0.1340753,-9.461885,0.8873621,47.66808,-1.1100671,-2.369591,-3.2497883,-0.36679196,0.24450886,-0.16560945,28.4375,29.75,28.8125,32.625,35.0625,36.125
0.2760518,-0.80727595,0.16111141,-1.2584888,-0.037361097,0.08227002,-0.17044361,-0.40586218,-0.36107978,0.060010586,3.076629,-0.6251031,-4.7726393e-05,-0.123870865,0.054972403,0.00087652326,-0.019810457,0.007531026,-0.0028609154,0.47611794,-1.3671426,1.8865546,-2.0900805,-1.5691088,2.4514902,-0.20980594,0.11169165,-0.13780996,0.010627924,0.014156294,-0.20687817,-0.5363012,0.13407528,-9.385271,0.86945957,47.672558,-1.1619555,-2.3603783,-3.1140585,-0.36558676,0.2427916,-0.2638923,28.4375,29.75,28.8125,32.625,35.0625,36.125
0.27805164,-0.7677127,0.50579005,-1.0381981,-0.03598353,0.08369087,-0.17692092,-0.4060947,-0.36097646,0.06000614,3.0765996,-0.6249844,-2.9535775e-05,-0.12467192,0.05399905,0.0013609257,-0.020473482,0.009630359,-0.006220897,0.4757107,-1.366926,1.8863033,-2.090069,-1.5690607,2.4510126,-0.20852801,0.11279304,-0.1400049,0.009561046,0.013781812,-0.20223889,-0.63206923,0.095768064,-9.270349,0.88960326,47.642998,-1.4473503,-2.5418172,-3.090404,-0.33158457,0.24690299,-0.34711882,28.4375,29.75,28.8125,32.625,35.0625,36.125
0.28005257,-0.49290287,0.88730776,-1.0385075,-0.02349024,0.09223767,-0.18404089,-0.40636528,-0.36089075,0.060029306,3.076512,-0.6249833,-0.00013630807,-0.1246685,0.05362922,0.0010358184,-0.0208304,0.008706623,-0.0062357103,0.47531477,-1.3666974,1.8859805,-2.090081,-1.5690364,2.4506273,-0.2082514,0.11409457,-0.14090249,0.009822318,0.014548667,-0.20194557,-0.36391866,-0.019153614,-9.193734,0.9365982,47.66808,-1.5974648,-2.3412373,-3.0582273,-0.31446582,0.25082612,-0.37224668,28.4375,29.75,28.8125,32.625,35.0625,36.125
0.28205255,-0.6622274,0.52920085,-0.94195944,-0.0008592282,0.08212406,-0.17004684,-0.4066043,-0.3607619,0.060015984,3.0764892,-0.6250922,-0.000109245026,-0.126046,0.054405365,0.0014525624,-0.021176258,0.00938668,-0.0038881907,0.47488186,-1.3664688,1.8857292,-2.0900447,-1.5690249,2.4502654,-0.2106565,0.1144148,-0.14233966,0.010193093,0.014554647,-0.2066979,-0.19153613,0.0,-9.308656,0.8627467,47.683304,-1.5547913,-2.6035042,-2.9681683,-0.311468,0.2551297,-0.3776816,28.4375,29.75,28.8125,32.625,35.0625,36.125
0.28405255,-0.45276898,0.122100696,-1.0267991,0.010185897,0.07265743,-0.16951576,-0.40686414,-0.36066014,0.060026187,3.0764377,-0.6250168,-0.00014535357,-0.12767538,0.054822203,0.0013209111,-0.021468772,0.008864079,0.0057613556,0.47446114,-1.3662399,1.8854297,-2.0900323,-1.5689882,2.4498043,-0.21298699,0.11690037,-0.14520268,0.010934537,0.015086787,-0.21867578,-0.11492168,0.038307227,-9.193734,0.8537928,47.664497,-1.4468493,-2.4797406,-3.0527518,-0.3143322,0.24462739,-0.306423,28.4375,29.75,28.8125,32.625,35.0625,36.125
0.28605184,-0.32554406,0.5384012,-1.0087154,-0.006541991,0.057404205,-0.17843777,-0.407125,-0.3605488,0.06002273,3.0763958,-0.62496364,-0.00012753154,-0.12720796,0.056077465,0.00091273536,-0.020038044,0.008209243,0.016668713,0.4740168,-1.3659881,1.8851312,-2.0900085,-1.5689405,2.4493322,-0.21399522,0.115801886,-0.1430389,0.011146996,0.01414906,-0.23059222,-0.17238252,0.019153614,-9.155427,0.89631605,47.658226,-1.3832952,-2.5111356,-3.1627884,-0.30264336,0.25838292,-0.15218097,28.4375,29.75,28.8125,32.625,35.0625,36.125
0.28805196,0.23708923,0.8318751,-1.1067433,-0.020729806,0.055788297,-0.19010082,-0.40740773,-0.36044,0.06004694,3.0763352,-0.62491184,-0.00020434277,-0.12752129,0.056959365,2.5164665e-05,-0.018600807,0.0063023805,0.017734839,0.47357273,-1.3657591,1.884797,-2.0899842,-1.5689167,2.4488637,-0.2153915,0.117673516,-0.14350562,0.012112335,0.013770805,-0.23305325,-0.114921674,-0.019153614,-9.193734,0.8717007,47.68062,-1.3332202,-2.4954665,-3.2442236,-0.28822252,0.2709986,-0.09248779,28.4375,29.75,28.8125,32.625,35.0625,36.125
0.29005197,0.8887994,0.7489376,-1.035135,-0.029059714,0.052718233,-0.18880472,-0.4076342,-0.36030516,0.060044624,3.0763865,-0.6247954,-0.0002130166,-0.12850432,0.058681723,-0.0009722683,-0.01706183,0.004911281,0.0071754227,0.47316355,-1.3655664,1.8845581,-2.0899246,-1.568941,2.4483755,-0.21858928,0.11936044,-0.1432877,0.012136644,0.013026188,-0.22569174,0.0,-0.038307227,-9.270349,0.87617236,47.670765,-1.2810836,-2.5116656,-3.2518964,-0.29381168,0.28943747,-0.14540453,28.4375,29.75,28.8125,32.625,35.0625,36.125
0.29205203,0.3126894,0.018759305,-0.878763,-0.026672592,0.031950492,-0.17325896,-0.4079032,-0.36019868,0.060043573,3.0762866,-0.6248579,-0.00020045649,-0.12999238,0.059947163,-0.0005297292,-0.017624453,0.00473262,-0.0061169076,0.47270614,-1.365314,1.8842586,-2.089924,-1.568869,2.44797,-0.2222417,0.119404025,-0.14464773,0.013358194,0.013608444,-0.21605077,-0.17238252,-0.038307227,-9.136273,0.842603,47.642998,-1.1967915,-2.5338497,-3.318097,-0.29573083,0.28657794,-0.22770222,28.4375,29.75,28.8125,32.625,35.0625,36.125
0.29405227,0.7147631,0.39909557,-1.07581,-0.029153889,0.039346244,-0.19014315,-0.4081803,-0.36006612,0.06004014,3.076266,-0.624898,-0.00025300647,-0.13041285,0.06099398,-0.0022288174,-0.016499426,0.0014764236,-0.016516982,0.4722494,-1.3650606,1.8839606,-2.0899122,-1.5688804,2.447541,-0.22453795,0.12265719,-0.14477442,0.013630341,0.014087143,-0.20794591,-0.15322891,-0.11492168,-9.097966,0.88960326,47.645687,-1.1133157,-2.5536842,-3.3082209,-0.30377397,0.29907012,-0.34699506,28.4375,29.75,28.8125,32.625,35.0625,36.125
0.29605222,-0.05643531,0.8795824,-1.1609738,-0.019768769,0.019740414,-0.18160477,-0.40842962,-0.3599368,0.060016014,3.076248,-0.6249916,-0.00016073143,-0.13213624,0.06085402,0.0003907728,-0.020194914,0.00547461,-0.021766996,0.47179306,-1.3647856,1.8836726,-2.089852,-1.5688442,2.4471455,-0.22656856,0.119385615,-0.14685921,0.013748334,0.01554644,-0.20472674,-0.019153614,-0.11492168,-9.11712,0.8873621,47.657326,-1.0383589,-2.4130282,-3.3132584,-0.29355562,0.29518586,-0.47681135,28.4375,29.75,28.8125,32.625,35.0625,36.125
0.2980525,0.3671975,0.80214137,-1.0275555,6.7824985e-05,0.040677417,-0.18761857,-0.40869907,-0.35981718,0.06002374,3.076167,-0.6250303,-0.00021202501,-0.13239731,0.061449032,-0.00064580067,-0.019293152,0.0036279738,-0.01770053,0.47133622,-1.3645684,1.8833979,-2.089864,-1.5688084,2.4467232,-0.22770727,0.12153796,-0.14715752,0.013973368,0.015610857,-0.2099305,-0.114921674,-0.17238252,-9.174581,0.87617236,47.687782,-0.98207605,-2.4653277,-3.4031408,-0.2992151,0.27193722,-0.48966056,28.4375,29.75,28.8125,32.625,35.0625,36.125
0.30005258,0.049820174,0.881758,-1.1305578,0.0053107445,0.046672393,-0.18083714,-0.40894872,-0.3597055,0.060017362,3.0761108,-0.62500966,-0.00011647004,-0.13317384,0.061538547,0.0007184479,-0.021164479,0.0054707495,-0.006210229,0.4708803,-1.364317,1.883098,-2.089804,-1.568724,2.4462616,-0.22892754,0.11960304,-0.1480494,0.014356316,0.016465956,-0.2226412,-0.1340753,-0.11492168,-9.174581,0.84708,47.716442,-0.9869207,-2.289506,-3.3918242,-0.268508,0.2844644,-0.390777,28.4375,29.75,28.8125,32.625,35.0625,36.125
0.3020526,-0.68824565,0.55452234,-1.1905164,0.011909801,0.06404746,-0.17945112,-0.40922868,-0.35958737,0.060047794,3.0760474,-0.6249701,-0.00019397457,-0.13234699,0.06138002,-0.00023329895,-0.020318301,0.0032467612,0.008643456,0.47042444,-1.3641124,1.8827757,-2.0897677,-1.5686997,2.4457893,-0.22799918,0.12109551,-0.14786297,0.015083628,0.016771253,-0.23656513,-0.19153613,0.0,-9.251195,0.94331104,47.68062,-1.2182446,-2.247725,-3.3576016,-0.26744944,0.28455943,-0.24428603,28.4375,29.75,28.8125,32.625,35.0625,36.125
0.3040525,-0.63344765,0.5806291,-1.3191283,0.0025504609,0.09649063,-0.18658346,-0.40944704,-0.3594545,0.060007863,3.0761054,-0.6249021,-7.953715e-05,-0.13357782,0.06040967,0.0010308416,-0.02171806,0.0050079497,0.013747772,0.47000474,-1.3638477,1.8825358,-2.0897076,-1.5686878,2.44532,-0.22758779,0.1218032,-0.15185921,0.016185913,0.017208368,-0.24125792,-0.22984336,0.05746084,-9.308656,0.94331104,47.68599,-1.3760679,-2.2789521,-3.2639556,-0.2917354,0.2529474,-0.16247049,28.4375,29.75,28.8125,32.625,35.0625,36.125
0.3060519,-0.94262,0.11366714,-1.462345,-0.0060824384,0.10131353,-0.16938458,-0.40975067,-0.3593413,0.0600318,3.0759563,-0.6249335,-0.00014303507,-0.13408588,0.06076302,0.0009052951,-0.021604437,0.004506826,0.007691056,0.46950042,-1.3636193,1.8822135,-2.0897315,-1.5686034,2.4448543,-0.22856139,0.12270599,-0.15280552,0.016745502,0.017359346,-0.23617241,-0.2681506,0.095768064,-9.404425,0.9231726,47.64658,-1.4161551,-2.1917849,-3.3025846,-0.28603768,0.27954322,-0.19099545,28.4375,29.75,28.8125,32.625,35.0625,36.125
0.30805215,-0.86775315,0.0065141334,-1.8833088,-0.030374896,0.094117545,-0.17779751,-0.41000918,-0.35919625,0.060008265,3.0760317,-0.62489533,-0.0001054361,-0.135306,0.0615276,0.0007525557,-0.021029241,0.0044503217,-0.0015566708,0.4690559,-1.3633304,1.8819016,-2.0896475,-1.5686401,2.4443765,-0.23046388,0.12420749,-0.15437572,0.01711018,0.01684814,-0.2288276,-0.21068975,0.15322891,-9.519346,0.92093146,47.694946,-1.4104631,-2.3026447,-3.3320794,-0.29096973,0.28050965,-0.2615524,28.4375,29.75,28.8125,32.625,35.0625,36.125
0.31005216,-0.4468317,-0.4307182,-1.9735525,-0.04706382,0.0794477,-0.18006803,-0.41026014,-0.35908726,0.060008205,3.0759768,-0.6248474,-4.85632e-05,-0.13614863,0.061676458,0.00061742176,-0.02062333,0.004914405,-0.006576656,0.4686119,-1.3630898,1.8816026,-2.0895994,-1.5685676,2.4439096,-0.2309586,0.1256656,-0.15578339,0.016845439,0.016272971,-0.22430165,-0.38307226,0.19153613,-9.653421,0.9388393,47.657326,-1.4382668,-2.2723298,-3.2311711,-0.29320747,0.2805925,-0.35411018,28.4375,29.75,28.8125,32.625,35.0625,36.125
0.3120522,-0.5226297,-0.6887116,-2.07533,-0.056826044,0.0683679,-0.17658599,-0.4105453,-0.35892856,0.059993014,3.0759711,-0.62492394,-6.2689054e-05,-0.13820793,0.062272135,0.001299199,-0.020346038,0.0070217806,-0.008305597,0.46810737,-1.3628252,1.8813146,-2.089576,-1.5685805,2.4434538,-0.23285618,0.12676188,-0.15869163,0.016912013,0.015075643,-0.22446948,-0.45968673,0.30645782,-9.749189,0.87617236,47.679718,-1.466587,-2.2399065,-3.2713246,-0.3071688,0.30761343,-0.38908714,28.4375,29.75,28.8125,32.625,35.0625,36.125
0.3140525,-0.3608848,-1.1349746,-2.3467858,-0.05998669,0.08066771,-0.18375944,-0.4108026,-0.35881776,0.05999815,3.0759428,-0.6248344,-1.6857971e-06,-0.13812791,0.06294216,0.0002530073,-0.019674545,0.005194904,0.000773708,0.46766296,-1.3625727,1.8809813,-2.089492,-1.5685204,2.4429572,-0.23393846,0.12815514,-0.15798974,0.016792193,0.015324973,-0.23463121,-0.3256114,0.2681506,-9.883265,0.84708,47.689575,-1.3929477,-2.1446428,-3.3948846,-0.3025148,0.32777333,-0.35811478,28.4375,29.75,28.8125,32.625,35.0625,36.125
0.31605253,-0.67012775,-1.0348635,-2.671224,-0.062969126,0.08657404,-0.18421844,-0.41109908,-0.3586893,0.060010057,3.0758767,-0.6248328,-3.984947e-05,-0.140072,0.06376775,0.0007273733,-0.020316703,0.006547277,0.010153124,0.46717018,-1.3623197,1.8806456,-2.0894678,-1.5684842,2.442472,-0.23684525,0.12893818,-0.15997612,0.01654274,0.015326896,-0.24691583,-0.19153613,0.28730422,-10.055647,0.88960326,47.66539,-1.4557099,-2.3818486,-3.3175614,-0.2895576,0.32251218,-0.22322437,28.4375,29.75,28.8125,32.625,35.0625,36.125
0.3180528,-0.87078655,-1.5207082,-2.328198,-0.0681112,0.10978914,-0.17970937,-0.4113724,-0.3585629,0.060000088,3.0758467,-0.6247693,-3.246286e-05,-0.1413195,0.0652687,-0.0011867447,-0.019661538,0.0030738746,0.011340718,0.46670094,-1.3620541,1.8803471,-2.0894563,-1.568448,2.441967,-0.24091566,0.13311039,-0.16065091,0.016466662,0.01632487,-0.25217235,-0.40222588,0.24899697,-9.940725,0.85826975,47.647476,-1.2736202,-2.353361,-3.3652067,-0.26377335,0.29915172,-0.11020991,28.4375,29.75,28.8125,32.625,35.0625,36.125
0.32005212,-1.7693732,-1.2303988,-2.2008197,-0.07662468,0.1141326,-0.15788054,-0.41166565,-0.35843027,0.06001724,3.0758007,-0.62476444,-9.477754e-05,-0.14328752,0.06661878,-0.00049557065,-0.020924209,0.0045177327,0.0040005106,0.46621937,-1.3618143,1.8800124,-2.08942,-1.568436,2.4414885,-0.24502133,0.1325994,-0.16152617,0.015997259,0.016814962,-0.24893647,-0.6895301,0.3256114,-9.787497,0.900793,47.66808,-1.0208287,-2.3902788,-3.3557508,-0.28168994,0.32387945,-0.11221584,28.4375,29.75,28.8125,32.625,35.0625,36.125
0.3220522,-1.2430365,-0.5832919,-2.3387864,-0.07339935,0.12593356,-0.17335346,-0.41195634,-0.35830563,0.060031746,3.0757575,-0.6246853,-0.00011816106,-0.14441058,0.06675332,-0.0010875954,-0.021319218,0.0033848407,-0.007192837,0.46573862,-1.3615608,1.8796648,-2.0893724,-1.5683993,2.440964,-0.24657921,0.13548522,-0.1636999,0.016111566,0.017671498,-0.23929866,-0.47884035,0.19153613,-9.921572,0.88289046,47.66271,-1.0538697,-2.466734,-3.3443875,-0.26033455,0.30958232,-0.22450283,28.4375,29.75,28.8125,32.625,35.0625,36.125
0.32405218,-0.41706455,-0.4368351,-2.1336129,-0.053237922,0.12431274,-0.17265369,-0.41225383,-0.35818473,0.060039617,3.0756702,-0.6247485,-0.00017197926,-0.14384419,0.06593571,-0.0016607355,-0.021768348,0.002794488,-0.015045976,0.46525893,-1.3612962,1.8793296,-2.0893729,-1.5683631,2.440535,-0.2449706,0.13665098,-0.16361871,0.015182986,0.018339735,-0.22983517,-0.5554548,0.24899697,-9.883265,0.8784135,47.684196,-1.0613315,-2.4996915,-3.4406424,-0.2596371,0.29810888,-0.34101832,28.4375,29.75,28.8125,32.625,35.0625,36.125
0.32605225,-1.1235063,-0.5748765,-1.7369581,-0.041540254,0.0854485,-0.16435441,-0.41252747,-0.3580658,0.060026743,3.0756283,-0.62478036,-0.00015145731,-0.14463192,0.066339806,-0.0012760316,-0.022078816,0.0041698297,-0.023115272,0.46480346,-1.361008,1.8790077,-2.0893495,-1.5683273,2.440105,-0.24596375,0.13633306,-0.16399221,0.014506637,0.017991986,-0.22275898,-0.7852981,0.19153614,-9.634268,0.85826975,47.68599,-1.1564543,-2.506136,-3.3964977,-0.2514425,0.29671174,-0.4589492,28.4375,29.75,28.8125,32.625,35.0625,36.125
0.3280524,-0.5032136,0.059476543,-1.8477112,-0.023786923,0.083480634,-0.1781344,-0.4128438,-0.35791624,0.060039807,3.0755572,-0.6248592,-0.00022981578,-0.1463016,0.06589163,-0.00081126095,-0.023155814,0.006327146,-0.018886022,0.464275,-1.3607551,1.878672,-2.089338,-1.5683154,2.439635,-0.24647424,0.138013,-0.16680817,0.013255122,0.018012857,-0.22749619,-0.47884035,0.05746084,-9.500193,0.9679317,47.66271,-1.3004497,-2.6490026,-3.2705483,-0.20455515,0.31432152,-0.5006705,28.4375,29.75,28.8125,32.625,35.0625,36.125
0.33005244,-0.12084176,0.23254557,-1.9599046,-0.004668657,0.0866264,-0.17785427,-0.41313323,-0.35779923,0.060040433,3.0754766,-0.6248712,-0.00023129633,-0.14732154,0.065873474,-0.0013927908,-0.022871153,0.005709865,-0.0048371707,0.46379504,-1.360479,1.8783363,-2.0893257,-1.5682553,2.439173,-0.24719417,0.14101994,-0.16915046,0.013328809,0.018079335,-0.24226299,-0.22984336,0.0,-9.5385,0.8918391,47.645687,-1.3994536,-2.4223154,-3.3726811,-0.19030726,0.3091282,-0.40536344,28.4375,29.75,28.8125,32.625,35.0625,36.125
0.3320524,-0.25651446,0.22388464,-1.4212719,-0.0046061813,0.084705375,-0.17555337,-0.41344348,-0.35767186,0.060066506,3.0754287,-0.6247579,-0.00031097114,-0.14775862,0.06700836,-0.0013482174,-0.022476962,0.0058432575,0.0060935155,0.46330252,-1.3602272,1.8779668,-2.0892894,-1.5682315,2.438616,-0.24909343,0.14034486,-0.16850229,0.013460892,0.017724546,-0.2550923,-0.2681506,0.0,-9.442732,0.9791215,47.672558,-1.4589267,-2.417925,-3.4015346,-0.15667686,0.30867285,-0.25224432,28.4375,29.75,28.8125,32.625,35.0625,36.125
0.33405244,-0.4455836,0.39197612,-1.3986232,-0.0011351849,0.06822365,-0.16888335,-0.413718,-0.35754663,0.060037605,3.0754042,-0.6247541,-0.0002084929,-0.148223,0.06704853,-0.001719812,-0.02255381,0.004828321,0.007779977,0.46282202,-1.3599029,1.877632,-2.0892417,-1.5681714,2.4381363,-0.24972413,0.14209181,-0.16993298,0.014046409,0.018247496,-0.25740913,-0.22984336,0.038307227,-9.270349,0.9186956,47.67166,-1.4658077,-2.4299028,-3.4721441,-0.1580312,0.31133267,-0.1885822,28.4375,29.75,28.8125,32.625,35.0625,36.125
0.3360517,0.07513963,0.47933635,-0.9820231,0.0011346128,0.080012865,-0.16944613,-0.41407496,-0.3573942,0.060073685,3.0752964,-0.62481296,-0.0004274425,-0.14827484,0.06725236,-0.0017614266,-0.022759024,0.0042100037,0.00055081677,0.46227,-1.3596631,1.877273,-2.089289,-1.5681828,2.4376352,-0.25022447,0.14230625,-0.17025043,0.014599466,0.018742522,-0.25067684,-0.34476504,-0.05746084,-9.11712,0.90527004,47.66808,-1.4848442,-2.4778576,-3.4450116,-0.14276662,0.30338985,-0.24906173,28.4375,29.75,28.8125,32.625,35.0625,36.125
0.3380519,0.50203675,0.96292144,-1.0273825,0.004428562,0.07013989,-0.18464488,-0.41436037,-0.35726938,0.060078185,3.0752554,-0.6247137,-0.0004273507,-0.15059009,0.067887835,7.572142e-05,-0.024040516,0.0071638706,-0.009125707,0.46178922,-1.3593997,1.8769382,-2.0892532,-1.5681351,2.4370978,-0.2529862,0.14137359,-0.17356166,0.015631493,0.018567914,-0.24376065,-0.13407528,-0.1340753,-9.097966,0.90527004,47.692257,-1.3727965,-2.332002,-3.3251424,-0.13984144,0.3058415,-0.33737308,28.4375,29.75,28.8125,32.625,35.0625,36.125
0.34005186,0.46999696,1.1643342,-1.156533,0.0060749203,0.040863536,-0.17472881,-0.41466329,-0.3571288,0.06006305,3.0751734,-0.6248738,-0.00037173813,-0.15325247,0.06852175,0.0012873369,-0.025768194,0.009438248,-0.013880082,0.4612595,-1.3590878,1.8765897,-2.0892174,-1.5680746,2.4366786,-0.25645614,0.14192456,-0.17704096,0.01577341,0.019101618,-0.24247451,0.0,-0.1340753,-9.078813,0.9254084,47.70032,-1.2385416,-2.2254474,-3.2970948,-0.119289055,0.31609836,-0.39793086,28.4375,29.75,28.8125,32.625,35.0625,36.125
0.34205198,0.42071888,0.76788336,-1.0530176,0.01472425,0.026000796,-0.17281131,-0.41495568,-0.35697827,0.060061716,3.0751781,-0.62483174,-0.0004136547,-0.15496673,0.06940002,0.0017950075,-0.025590211,0.010471327,-0.0078891115,0.46076715,-1.3588237,1.8762668,-2.0891807,-1.5680875,2.4361596,-0.25886106,0.14272301,-0.17934312,0.016461741,0.018514737,-0.25086978,-0.114921674,-0.05746084,-9.078813,0.8537928,47.681515,-1.0920662,-2.284869,-3.1664817,-0.11169657,0.32680935,-0.37415946,28.4375,29.75,28.8125,32.625,35.0625,36.125
0.34405196,-0.075220644,0.19574262,-1.2987355,0.014548225,0.027698906,-0.17347617,-0.4152762,-0.35685414,0.060091127,3.0750902,-0.62476707,-0.00046033238,-0.15534383,0.0701434,0.00057282316,-0.024653532,0.007982358,0.004332382,0.46025106,-1.3585593,1.8758715,-2.089133,-1.5680269,2.4356146,-0.26045203,0.14544757,-0.18003373,0.017135004,0.01884699,-0.26468,-0.15322891,0.019153614,-9.021352,0.81351066,47.658226,-1.176291,-2.1527302,-3.224402,-0.080205135,0.30808675,-0.2516786,28.4375,29.75,28.8125,32.625,35.0625,36.125
0.34605217,-0.45711195,0.23081371,-1.3819281,-0.0027309281,0.05031662,-0.1682477,-0.41559166,-0.35671166,0.060087338,3.0749912,-0.62480074,-0.00039772555,-0.15561515,0.07033939,0.0025263508,-0.026036603,0.009376971,0.012086893,0.45968685,-1.3582604,1.8755125,-2.0890954,-1.5679306,2.435084,-0.26122767,0.14227514,-0.18127576,0.019743757,0.019508643,-0.27320948,-0.24899697,0.19153613,-9.136273,0.87617236,47.679718,-1.234361,-2.1682289,-3.1903882,-0.086397655,0.302565,-0.11924448,28.4375,29.75,28.8125,32.625,35.0625,36.125
0.34805232,-0.4677726,0.32041395,-1.5020499,-0.036767807,0.087884076,-0.17265008,-0.4158884,-0.3565626,0.06008554,3.075012,-0.6247509,-0.00041021776,-0.15562654,0.07148281,0.0018031853,-0.02459646,0.0060712616,0.0077700936,0.45919397,-1.3579718,1.875153,-2.0890229,-1.567943,2.4345577,-0.26311138,0.1437383,-0.18211146,0.022716608,0.019691305,-0.27077594,-0.3256114,0.15322891,-9.232041,0.83589023,47.698532,-1.2136624,-2.195844,-3.2283802,-0.10928801,0.32204038,-0.10822275,28.4375,29.75,28.8125,32.625,35.0625,36.125
0.35005245,-0.6954522,-0.13917463,-1.3995066,-0.055559315,0.10996434,-0.1783102,-0.41619593,-0.3564213,0.060088955,3.0749292,-0.6247599,-0.00038685751,-0.15618052,0.0724133,0.0017207066,-0.024487913,0.004635523,-0.0048968475,0.45865363,-1.357696,1.8748053,-2.0889866,-1.5678705,2.4340336,-0.2652901,0.14428529,-0.18299699,0.024388641,0.020223306,-0.26028624,-0.40222588,0.17238252,-9.423578,0.8717007,47.70032,-1.1800247,-2.0306058,-3.302949,-0.13416839,0.31519145,-0.2025378,28.4375,29.75,28.8125,32.625,35.0625,36.125
0.3520526,-0.7749586,-0.3481289,-1.609791,-0.06696363,0.110678084,-0.17338741,-0.41648528,-0.35627243,0.06008782,3.07491,-0.62481993,-0.0003085167,-0.15537468,0.071767025,0.0011310813,-0.024727203,0.0028111078,-0.014570135,0.45813793,-1.3574082,1.8744344,-2.088867,-1.5678338,2.433558,-0.26396704,0.14545274,-0.18323484,0.024973692,0.021216255,-0.24928936,-0.49799395,0.28730422,-9.404425,0.9992599,47.696735,-1.2138672,-2.0411544,-3.3248854,-0.12528047,0.29204285,-0.35309136,28.4375,29.75,28.8125,32.625,35.0625,36.125
0.3540516,-0.4979626,-0.1895345,-1.5080113,-0.07588777,0.11385217,-0.17418055,-0.41682398,-0.35611874,0.06010332,3.0748136,-0.62489915,-0.00037790413,-0.156083,0.071504295,0.001090411,-0.025457652,0.003026822,-0.02052108,0.4575738,-1.3571317,1.8740638,-2.0888546,-1.567798,2.4330559,-0.2642706,0.14687863,-0.1848095,0.024608366,0.021785231,-0.24363893,-0.6703764,0.22984336,-9.404425,0.9410752,47.67166,-1.3198538,-2.0134845,-3.3185754,-0.131688,0.27982938,-0.4749096,28.4375,29.75,28.8125,32.625,35.0625,36.125
0.3560518,-1.134101,-0.25366774,-1.9072232,-0.060310636,0.09775271,-0.1859653,-0.4171368,-0.3559896,0.060106054,3.074742,-0.62493557,-0.0003527655,-0.1560823,0.07037783,0.00013375928,-0.024961622,0.002377222,-0.009748251,0.45705825,-1.3568192,1.8736681,-2.088796,-1.5677379,2.4325724,-0.2621137,0.15034689,-0.18669228,0.023877058,0.021656537,-0.25225344,-0.4213795,0.13407528,-9.615114,0.95002913,47.67345,-1.430047,-2.0174627,-3.3440742,-0.1264605,0.28554618,-0.45330542,28.4375,29.75,28.8125,32.625,35.0625,36.125
0.35805187,-0.41154838,0.204733,-1.781175,-0.043556146,0.09802398,-0.1777337,-0.4174462,-0.3558326,0.060095426,3.074703,-0.6249372,-0.00030853812,-0.15838934,0.07082405,0.0014001474,-0.026851142,0.005315339,0.0041046366,0.45650613,-1.3565191,1.87332,-2.0887473,-1.5676898,2.4320264,-0.2648793,0.15021186,-0.18928589,0.023208912,0.022100616,-0.26887077,-0.19153613,0.038307227,-9.768343,0.95226496,47.693153,-1.482169,-2.1335468,-3.2128363,-0.116655,0.261821,-0.32889614,28.4375,29.75,28.8125,32.625,35.0625,36.125
0.36005175,-0.50425285,0.07728527,-1.693663,-0.026692515,0.08993575,-0.17230539,-0.4177557,-0.35569912,0.060093105,3.0746763,-0.6248528,-0.00030339044,-0.15992646,0.07156706,0.0002883657,-0.028006403,0.0035623028,0.0101363575,0.45600095,-1.356206,1.8729376,-2.0887,-1.5676531,2.431472,-0.2683558,0.1535798,-0.19066139,0.022325391,0.02394405,-0.2783755,-0.30645782,-0.019153614,-9.557653,0.9254084,47.698532,-1.4537134,-2.3933034,-3.4201627,-0.101356596,0.23521632,-0.20122403,28.4375,29.75,28.8125,32.625,35.0625,36.125
0.36205184,-0.7042104,0.42913657,-1.7391487,-0.019118639,0.07749259,-0.16705206,-0.41812396,-0.35552838,0.060108155,3.07459,-0.62493587,-0.00041389046,-0.16022459,0.07333973,-0.00170644,-0.026071846,0.00078959914,0.0039133593,0.4553999,-1.3559058,1.8725418,-2.0887,-1.5676416,2.4309342,-0.2710799,0.15619566,-0.18916245,0.021560084,0.023453953,-0.2748752,-0.38307226,0.0,-9.3661175,0.8605109,47.679718,-1.242917,-2.3055491,-3.3863122,-0.0702289,0.24071899,-0.18943404,28.4375,29.75,28.8125,32.625,35.0625,36.125
0.36405188,-0.20689653,1.0107526,-1.9438534,-0.011510759,0.06943311,-0.16727574,-0.41842338,-0.3554047,0.06009797,3.0745199,-0.62490636,-0.00032009123,-0.16104303,0.07362339,-0.0017801742,-0.025764285,0.000986163,-0.0044932286,0.45488402,-1.3555812,1.8721603,-2.08864,-1.5675453,2.430409,-0.27182388,0.15748046,-0.19062397,0.021710705,0.023072833,-0.26721257,-0.24899697,0.076614454,-9.500193,0.9030289,47.67166,-1.3264915,-2.3791308,-3.4342341,-0.06844784,0.23497146,-0.28740087,28.4375,29.75,28.8125,32.625,35.0625,36.125
0.366052,-0.076457135,0.39017797,-1.6792847,-0.0217836,0.07307007,-0.17824265,-0.41873604,-0.355255,0.060081135,3.074481,-0.6249027,-0.00027847308,-0.1621687,0.07429087,-0.0022285478,-0.024526175,0.0003394058,-0.011623072,0.45434332,-1.355257,1.8717998,-2.0886047,-1.5674976,2.429871,-0.2731849,0.15995073,-0.19283332,0.022583796,0.022232436,-0.26144376,-0.24899697,-0.038307227,-9.404425,0.88960326,47.658226,-1.3613644,-2.4412215,-3.3462987,-0.04889957,0.22409795,-0.39810336,28.4375,29.75,28.8125,32.625,35.0625,36.125
0.3680521,0.6021038,0.4903845,-1.4213532,-0.049535822,0.090175375,-0.17342733,-0.4190602,-0.35507643,0.06007444,3.07448,-0.62493974,-0.0002384925,-0.1631287,0.07522881,-0.0020340083,-0.024441749,0.00036140846,-0.010644571,0.4537668,-1.3549451,1.8714169,-2.088508,-1.5674862,2.429318,-0.27532122,0.16024101,-0.19384378,0.023347467,0.022154482,-0.26455903,-0.3256114,0.05746084,-9.32781,0.97240865,47.657326,-1.3217301,-2.3997474,-3.3731043,-0.05440843,0.24108404,-0.40836006,28.4375,29.75,28.8125,32.625,35.0625,36.125
0.37005222,-0.19947657,0.6551336,-1.739087,-0.049717393,0.06533334,-0.17358704,-0.41940832,-0.35494402,0.060092755,3.0743852,-0.6249134,-0.00031408152,-0.1647182,0.07646689,-0.0016047987,-0.025198404,0.00030914572,0.00037721402,0.45322582,-1.3546332,1.8709968,-2.088496,-1.567437,2.428773,-0.27898332,0.16057763,-0.19552019,0.024473876,0.022929052,-0.27923954,-0.22984336,0.1340753,-9.404425,0.93436235,47.658226,-1.1617041,-2.4251082,-3.3636565,-0.054137606,0.2058664,-0.31991595,28.4375,29.75,28.8125,32.625,35.0625,36.125
0.37205237,0.2483445,-0.24046536,-1.6786224,-0.04074151,0.07523234,-0.1675001,-0.41973573,-0.35478488,0.0600845,3.0743606,-0.6249039,-0.0003079616,-0.16687186,0.07659622,-0.0008682295,-0.02669401,0.0015181842,0.008339205,0.45267266,-1.3543085,1.870613,-2.0884478,-1.5674132,2.4282172,-0.28129703,0.16222215,-0.19932379,0.024942119,0.0237761,-0.28951252,-0.05746084,0.19153613,-9.519346,0.97240865,47.653748,-1.0887487,-2.4996881,-3.4675488,-0.06458604,0.18892199,-0.17109267,28.4375,29.75,28.8125,32.625,35.0625,36.125
0.3740524,0.34447497,-0.088733666,-1.5523299,-0.0585978,0.06782131,-0.16870283,-0.42005718,-0.35464522,0.060095478,3.0742738,-0.62485015,-0.00028975843,-0.1671013,0.07576653,-0.0010771233,-0.026698489,0.0012580778,0.0071585835,0.4521211,-1.3540201,1.8702296,-2.0884001,-1.5673293,2.4276433,-0.27996525,0.16437097,-0.20156336,0.025293158,0.023903271,-0.2869979,0.0,0.19153613,-9.346964,0.8851263,47.657326,-1.1840228,-2.4987786,-3.439454,-0.05609241,0.18671048,-0.12747784,28.4375,29.75,28.8125,32.625,35.0625,36.125
0.37605265,0.46842784,0.26015815,-1.1114458,-0.055587776,0.07056834,-0.1687846,-0.42041156,-0.35448688,0.060092345,3.074202,-0.62489855,-0.00029326396,-0.1674292,0.07596749,-0.000613399,-0.026852945,0.0024379266,-0.002588209,0.45153338,-1.3536731,1.86981,-2.0883644,-1.5672816,2.4270952,-0.28011984,0.16371103,-0.20181951,0.025076007,0.02351662,-0.2774055,-0.3256114,0.22984336,-9.289502,0.8873621,47.666286,-1.2109566,-2.3346593,-3.347991,-0.04080526,0.18434712,-0.24658898,28.4375,29.75,28.8125,32.625,35.0625,36.125
