Tylouw/Master_Thesis_Code/training_data/batch_1/rect_rod_t0.3/sample_84_session_3.csv
timestamp[s],tcp_force_x[N],tcp_force_y[N],tcp_force_z[N],tcp_force_rx[Nm?],tcp_force_ry[Nm?],tcp_force_rz[Nm?],tcp_pose_x[m],tcp_pose_y[m],tcp_pose_z[m],tcp_pose_rx[rot_vec_x],tcp_pose_ry[rot_vec_y],tcp_pose_rz[rot_vec_z],tcp_velo_x[m/s],tcp_velo_y[m/s],tcp_velo_z[m/s],tcp_velo_rx[rot_vec_x/s],tcp_velo_ry[rot_vec_y/s],tcp_velo_rz[rot_vec_z/s],q1[rad],q2[rad],q3[rad],q4[rad],q5[rad],q6[rad],qd1[rad/s],qd2[rad/s],qd3[rad/s],qd4[rad/s],qd5[rad/s],qd6[rad/s],tool_acc_x,tool_acc_y,tool_acc_z,current_of_whole_robot[A],voltage_of_whole_robot[V],current_J1[A],current_J2[A],current_J3[A],current_J4[A],current_J5[A],current_J6[A],temp_J1[C],temp_J2[C],temp_J3[C],temp_J4[C],temp_J5[C],temp_J6[C]
1.0550139e-06,-0.3177004,-0.81277627,-0.23148648,-0.029417716,0.015367618,0.002616121,-0.3893017,-0.3687182,0.06000165,-3.078694,0.62486863,0.00012502965,0.00024264444,7.543023e-05,0.00022143262,-2.9099736e-05,-0.00043689646,8.9028035e-05,0.50505686,-1.381668,1.9042348,-2.0918682,-1.5708417,2.4800134,-4.8842576e-05,-0.00061403675,-1.4473242e-06,0.0009828573,0.00023915131,-0.00013842898,0.11492168,0.17238252,-8.6574335,0.7217513,47.696735,-0.18923053,-3.1488404,-2.2498446,-0.19522417,0.14648594,-0.0328236,28.5625,29.9375,28.875,32.6875,35.125,36.25
0.002054783,-0.05407846,-0.8904327,-0.32204992,-0.022614827,0.02154779,0.009514547,-0.38932002,-0.36872125,0.059997655,-3.0786917,0.6249639,0.00015551566,-0.0011676926,-0.0007056519,-0.0009189023,-0.0029218693,0.004779476,8.695989e-05,0.5050448,-1.3816435,1.9042238,-2.0919073,-1.5708417,2.480061,-4.7974718e-05,0.00084571127,0.0033016647,-0.009744763,0.00022900665,-0.00013545244,0.05746084,0.21068975,-8.63828,0.69937176,47.72719,-0.19215527,-3.0732412,-2.376223,-0.12867595,0.14393213,-0.008611461,28.5625,29.9375,28.875,32.6875,35.125,36.25
0.00405437,-0.5159548,-1.3307424,-0.40773854,-0.010327623,0.016044874,0.0050455714,-0.38933927,-0.36872044,0.060010944,-3.0787199,0.6249314,0.00022336791,-0.0013959181,-0.0008302402,-0.0017762539,-0.0027142663,0.0044163563,8.53928e-05,0.5050329,-1.3816549,1.9042124,-2.091931,-1.5708536,2.4800253,-4.7137102e-05,0.0027133094,0.0033965588,-0.01128899,0.00021968763,-0.00013260123,0.038307227,0.15322891,-8.580819,0.7732232,47.71554,-0.20807253,-3.4202757,-2.620872,-0.04434448,0.13573523,-0.019719997,28.5625,29.9375,28.875,32.6875,35.125,36.25
0.006054011,-0.21545042,-0.91409487,-0.27728245,-0.0072505875,0.008472839,0.006638614,-0.38932413,-0.36872628,0.059982434,-3.078697,0.62488824,0.00016582126,-0.00056237396,-0.00036376977,-0.0010745545,-0.0013489149,0.0019845846,9.696145e-05,0.50505686,-1.3816072,1.9042233,-2.0919416,-1.5708536,2.4800253,-4.632842e-05,0.0013872099,0.0021505542,-0.0059280577,0.00021109862,-0.00014363017,0.019153614,0.15322891,-8.580819,0.69041777,47.703903,-0.24131039,-3.3741155,-2.53343,-0.059510488,0.14798957,-0.014572352,28.5625,29.9375,28.875,32.6875,35.125,36.25
0.008054262,-0.18361172,-0.32558954,-0.8330353,0.020572003,-0.011455803,0.0015109056,-0.38931587,-0.36869684,0.05996578,-3.0786152,0.6249482,0.00015592294,9.137675e-05,2.9694347e-06,0.00016454217,-0.0006894661,0.00082657294,9.8778575e-05,0.5050448,-1.3816081,1.9042591,-2.0919273,-1.5709013,2.480061,-4.5546913e-05,-0.0010021805,0.0010630995,-0.0011186684,0.00020315478,-0.00014510968,0.0,0.22984336,-8.676587,0.7239871,47.694946,-0.13604605,-3.1879315,-2.493571,-0.1028321,0.15367045,-0.015314756,28.5625,29.9375,28.875,32.6875,35.125,36.25
0.010053393,0.5217282,0.22277452,-1.1485975,0.021204272,0.0050975215,-0.008550683,-0.38930452,-0.36869398,0.059957843,-3.0786307,0.6249325,6.273986e-05,0.0008168448,0.00041439102,5.1709845e-05,0.0006605467,-0.0015863273,8.695551e-05,0.50502086,-1.3816081,1.9042715,-2.0919025,-1.5708536,2.4800253,-5.4619173e-05,-0.0010711997,0.000669499,0.0021088535,0.00019578815,-0.00014254762,0.05746084,0.19153614,-8.963891,0.7642693,47.66091,-0.8190742,-2.8100247,-2.8517742,-0.12547033,0.11774252,-0.11909865,28.5625,29.9375,28.875,32.6875,35.125,36.25
0.012053187,-0.7838299,-0.7313774,-1.3587866,-0.00388822,-0.0016810863,0.0012717843,-0.38932088,-0.3687138,0.05997917,-3.0786738,0.62492204,0.00010813182,-0.00093550433,0.0026673875,-0.00033155354,0.0016532837,-0.0033629537,-0.001862938,0.50503147,-1.3816078,1.9042224,-2.091902,-1.5708417,2.4800239,-0.005481299,-3.8614646e-05,-7.420647e-05,0.003854643,0.00018893677,-0.0036190308,0.076614454,0.15322891,-9.174581,0.7553206,47.684196,-0.97751653,-2.7964976,-2.9570627,-0.1570043,0.13967107,-0.16927047,28.5625,29.9375,28.875,32.6875,35.125,36.25
0.014053438,-0.78765285,-1.0969446,-1.4866182,-0.052646495,0.03360149,-0.0036800534,-0.3893034,-0.36869523,0.0599333,-3.0786076,0.62488776,-2.43061e-05,-0.0031106218,0.0054641147,-0.0057371664,0.0061176727,-0.011438539,0.00059455447,0.50501657,-1.3815436,1.9042457,-2.0918787,-1.5708417,2.479996,-0.012225693,0.011228619,-0.0007815985,0.0025209212,0.00018254932,-0.012818704,0.019153614,0.17238252,-9.308656,0.7978386,47.672558,-0.45994833,-3.3858333,-3.0234926,-0.14141625,0.14456007,-0.09196015,28.5625,29.9375,28.875,32.6875,35.125,36.25
0.016053688,-1.5044873,-1.4741236,-1.5414522,-0.08206931,0.059180584,-0.025381455,-0.38934585,-0.36868843,0.059973665,-3.0786335,0.62494767,0.00010223941,-0.0051993807,0.005020136,-0.0033461642,0.0032254492,-0.006210435,0.006703706,0.50498027,-1.3815805,1.9041976,-2.0918791,-1.5708655,2.4799938,-0.01342686,0.008873392,-0.003158237,0.0012764714,0.00017657911,-0.020128267,-0.22984336,0.13407528,-9.423578,0.73741806,47.677036,-0.618227,-3.2164512,-2.9800992,-0.13135085,0.14079306,-0.028957654,28.5625,29.9375,28.875,32.6875,35.125,36.25
0.018053759,-1.7242236,-1.5508424,-1.5719388,-0.07200129,0.08266644,-0.039354254,-0.38932145,-0.36867672,0.059935357,-3.078588,0.62491614,-4.909764e-05,-0.0056092655,0.004572063,-0.0019054031,0.0016706991,-0.0033967062,0.011673659,0.50496846,-1.3815334,1.9042209,-2.0918434,-1.5708417,2.479968,-0.0130520975,0.006581538,-0.0036255815,0.00082078844,0.00017098706,-0.024723593,-0.38307226,0.15322891,-9.442732,0.7597976,47.64837,-0.7557689,-2.9199638,-3.0910444,-0.1134472,0.13345838,0.024422823,28.5625,29.9375,28.875,32.6875,35.125,36.25
0.020053891,-2.2137182,-1.1541083,-1.770717,-0.019741971,0.08519152,-0.059571777,-0.38933343,-0.36868224,0.05992389,-3.0786252,0.62486947,-8.714001e-05,-0.006053312,0.005554149,-0.0021615766,0.0022051688,-0.0043973355,0.0074900463,0.5049439,-1.3814974,1.90421,-2.0918677,-1.5708054,2.4799097,-0.015131451,0.0067649037,-0.003431225,0.0015784416,0.00018970938,-0.022619495,-0.4405331,0.19153613,-9.615114,0.779936,47.685097,-0.87483543,-2.8501537,-3.2259407,-0.10984622,0.15197921,-0.021674074,28.5625,29.9375,28.875,32.6875,35.125,36.25
0.022053933,-1.76538,-0.4575582,-2.0508637,0.019579265,0.08444454,-0.0878084,-0.3893417,-0.36865872,0.059912242,-3.0785928,0.62480766,-8.031765e-05,-0.005968034,0.006771495,-0.0032554797,0.0043913163,-0.008376714,0.0029737863,0.50491923,-1.3814845,1.9042209,-2.0918663,-1.5708417,2.4798505,-0.017112602,0.008735263,-0.0039756014,0.004692285,0.00020721141,-0.020084213,-0.51714754,-0.057460837,-9.730036,0.78888994,47.698532,-0.88680446,-2.9553041,-3.382059,-0.13754119,0.13403663,-0.057905104,28.5625,29.9375,28.875,32.6875,35.125,36.25
0.024053836,-1.9932339,-0.3014173,-2.094789,0.026705485,0.071358375,-0.09938456,-0.3893309,-0.3686444,0.059884816,-3.0785587,0.6248416,-0.0002171125,-0.007693904,0.0068751727,-0.002734917,0.0036917739,-0.00712652,-0.0005757644,0.5048826,-1.3814481,1.9042324,-2.0918305,-1.5708054,2.4798393,-0.018903174,0.009896037,-0.0065206285,0.0046448773,0.000207552,-0.018324021,-0.51714754,-0.11492168,-9.653421,0.7172743,47.679718,-0.83176327,-2.885495,-3.295907,-0.15270881,0.12931144,-0.08046162,28.5625,29.9375,28.875,32.6875,35.125,36.25
0.026053602,-1.6570429,0.09004669,-2.067684,0.0031305456,0.08223153,-0.119740576,-0.38935396,-0.36864108,0.05988836,-3.0785491,0.6248389,-0.00017688514,-0.009253129,0.006205979,-0.0025121109,0.0027094248,-0.0054733795,-0.001806349,0.5048706,-1.3814235,1.9041952,-2.091831,-1.5708297,2.479827,-0.019268462,0.012048706,-0.00927118,0.00332019,0.00025901195,-0.017457204,-0.8236054,-0.019153614,-9.691729,0.78888994,47.639416,-0.9057772,-3.0315764,-3.3292418,-0.12238643,0.13247877,-0.08399804,28.5625,29.9375,28.875,32.6875,35.125,36.25
0.028053613,-2.2712111,-0.8002634,-2.3005786,-0.0075454037,0.09502364,-0.12393281,-0.38936016,-0.3686251,0.059879795,-3.078541,0.6248571,-0.0002448847,-0.009898634,0.005618768,-0.0022014983,0.0008856019,-0.004772453,-0.003063295,0.50482243,-1.3814111,1.9041947,-2.0918071,-1.570805,2.4797912,-0.019665997,0.0125188995,-0.010326709,0.002405876,0.0015112421,-0.016599415,-0.842759,-0.15322891,-9.864111,0.7329411,47.66539,-0.9714638,-2.8801203,-3.3238807,-0.11490187,0.14163198,-0.12369566,28.5625,29.9375,28.875,32.6875,35.125,36.25
0.030054692,-1.8595835,-1.2934661,-2.1560097,-0.020674542,0.12299187,-0.13777578,-0.38936904,-0.36861554,0.059853308,-3.0784984,0.62490726,-0.00030337425,-0.0108865425,0.005981556,-0.002714429,0.00082355173,-0.0051779225,-0.005147183,0.50479794,-1.3813503,1.9041833,-2.0918076,-1.570805,2.4798033,-0.021355128,0.01434177,-0.011163768,0.0017441263,0.0017574971,-0.016204478,-0.7278373,-0.22984336,-9.9790325,0.7016076,47.71017,-0.9716649,-2.8872476,-3.3294265,-0.100433424,0.12990716,-0.14077301,28.5625,29.9375,28.875,32.6875,35.125,36.25
0.03205368,-2.684717,-1.3324127,-2.155471,-0.017439555,0.107404895,-0.14087862,-0.38941053,-0.36861166,0.059872758,-3.0785432,0.62489706,-0.00028428654,-0.012034663,0.0061283275,-0.0016655085,0.0003770653,-0.0036754238,-0.00546702,0.50473773,-1.3813386,1.9041222,-2.0917947,-1.5707811,2.479731,-0.022462862,0.013850611,-0.013196242,0.0027383738,0.0014196683,-0.01699106,-0.7086837,-0.11492168,-9.883265,0.7978386,47.70838,-0.99987733,-2.881176,-3.3353457,-0.10296129,0.12882233,-0.16480137,28.5625,29.9375,28.875,32.6875,35.125,36.25
0.03405405,-2.6445193,-0.73950773,-2.2439392,-0.0030183261,0.09841822,-0.15549974,-0.38945,-0.36858696,0.05986646,-3.0785065,0.62492776,-0.0002231993,-0.012112182,0.007250573,-0.0026472267,0.0023211031,-0.006650101,-0.00641793,0.5046893,-1.3813019,1.9040984,-2.0918176,-1.5708293,2.4797065,-0.024261875,0.015568053,-0.013467176,0.004835781,0.0011604205,-0.017838528,-0.6703765,-0.076614454,-9.902418,0.8023209,47.687782,-1.038567,-2.8157258,-3.3453908,-0.115563706,0.14087765,-0.16905111,28.5625,29.9375,28.875,32.6875,35.125,36.25
0.036053568,-2.039914,-0.52728456,-2.0997467,0.01007645,0.08960591,-0.17378362,-0.3894313,-0.36859134,0.059846897,-3.0785174,0.6249114,-0.00035466725,-0.013460386,0.0077937255,-0.0019093262,0.0016929843,-0.0052844216,-0.006527866,0.50467664,-1.381278,1.9041094,-2.0917938,-1.5707692,2.4796822,-0.026365288,0.01515685,-0.014692037,0.004974069,0.0010456915,-0.019831443,-0.59376204,-0.21068975,-9.844957,0.7597976,47.684196,-1.0399922,-2.8556316,-3.3280168,-0.13084404,0.14477769,-0.1739167,28.5625,29.9375,28.875,32.6875,35.125,36.25
0.038053494,-1.5570109,-1.0632395,-2.2585847,0.010239896,0.077166304,-0.17903438,-0.38951483,-0.36856985,0.05985989,-3.0785089,0.6249662,-0.00023524412,-0.0144476,0.008231863,-0.0020476135,0.001399585,-0.004589641,-0.0062619653,0.5045921,-1.3812177,1.904014,-2.091818,-1.5708169,2.479633,-0.027970562,0.015840918,-0.014911298,0.0037584468,0.00096347573,-0.021702085,-0.57460845,-0.05746084,-9.730036,0.784413,47.675243,-0.9658779,-2.737889,-3.3767822,-0.09386122,0.12885997,-0.1921829,28.5625,29.9375,28.875,32.6875,35.125,36.25
0.04005334,-1.4692875,-1.3881537,-2.0570893,-0.005438341,0.06882599,-0.18920231,-0.38953274,-0.3685458,0.059853073,-3.0784774,0.62505674,-0.00031661676,-0.015932398,0.008116528,-0.0008634794,-8.518121e-06,-0.0018252525,-0.0069631333,0.50452,-1.3811939,1.9039906,-2.091771,-1.570793,2.4796214,-0.029094,0.01518352,-0.016676117,0.003080987,0.000852919,-0.022123512,-0.47884032,0.038307227,-9.634268,0.7732232,47.67614,-0.9413644,-2.7711618,-3.3270736,-0.08372886,0.12912613,-0.20775281,28.5625,29.9375,28.875,32.6875,35.125,36.25
0.042054106,-1.3726577,-1.7288257,-2.0086696,-0.014923461,0.0686823,-0.20611183,-0.3895526,-0.36851472,0.059836876,-3.078436,0.6250484,-0.00030697137,-0.016733455,0.008390188,-0.0010174746,-3.43775e-05,-0.0015989903,-0.007244243,0.5044717,-1.3811696,1.9040016,-2.0917833,-1.5708293,2.4795732,-0.030246805,0.01614863,-0.017353443,0.0025820795,0.00076265016,-0.02299458,-0.3256114,0.1340753,-9.787497,0.7217513,47.694946,-0.98058677,-2.7292264,-3.3767905,-0.09034294,0.13330252,-0.23458232,28.5625,29.9375,28.875,32.6875,35.125,36.25
0.044053957,-1.0963296,-1.73327,-1.9718666,-0.016576057,0.06679147,-0.21220037,-0.38960135,-0.36851016,0.059852988,-3.078449,0.62510854,-0.00029015826,-0.018505849,0.008776624,0.00024609396,-0.0011893458,0.0006360539,-0.007462772,0.50441104,-1.3811339,1.9039172,-2.091759,-1.5708174,2.4795485,-0.032504227,0.015421164,-0.019437354,0.0028789202,0.0006895194,-0.025032617,-0.22984336,0.1340753,-9.672575,0.7732232,47.688675,-0.96310437,-2.6386619,-3.2733774,-0.061054114,0.1470039,-0.22710535,28.5625,29.9375,28.875,32.6875,35.125,36.25
0.046053726,-0.41806558,-1.1589833,-1.8667126,-0.018035734,0.06454871,-0.22596118,-0.38964397,-0.36847442,0.059852883,-3.0784307,0.62514246,-0.00025238228,-0.019743469,0.009768806,0.00018346822,-0.0006998094,-0.00012714944,-0.008258614,0.5043262,-1.3811214,1.9039053,-2.0917704,-1.5708417,2.4794872,-0.035291012,0.016518936,-0.020874044,0.0041219606,0.00062919565,-0.027022814,-0.13407528,0.15322891,-9.615114,0.75755644,47.694946,-0.8723831,-2.7301705,-3.258677,-0.083543465,0.16585802,-0.23852499,28.5625,29.9375,28.875,32.6875,35.125,36.25
0.048053674,-0.64157593,-1.1699291,-1.9388812,-0.014144573,0.042248644,-0.20880021,-0.38970736,-0.36845675,0.059866082,-3.0784628,0.6251491,-0.00022101673,-0.020092607,0.01042903,0.00010537811,-0.0003694697,-0.00061776105,-0.0070538763,0.50422984,-1.3810855,1.9038328,-2.0917704,-1.5708297,2.4793909,-0.03669203,0.016524186,-0.02082405,0.0046560965,0.00057858304,-0.029628534,-0.076614454,0.17238252,-9.519346,0.8023209,47.698532,-0.8378334,-2.616476,-3.334086,-0.09521271,0.16352186,-0.22411081,28.5625,29.9375,28.875,32.6875,35.125,36.25
0.050054103,0.16211359,-0.9967584,-1.8383847,-0.01091188,0.049250323,-0.20730995,-0.38973802,-0.36844048,0.05985874,-3.0784576,0.6251273,-0.00020956823,-0.021645704,0.010895814,0.00045917477,-0.0009050766,0.0005705721,-0.006509146,0.5041812,-1.3810492,1.9038094,-2.0917828,-1.5708417,2.4793293,-0.038857713,0.017157102,-0.022266863,0.00416646,0.00046834088,-0.032338012,-0.095768064,0.17238252,-9.500193,0.779936,47.696735,-0.81740946,-2.700961,-3.3006358,-0.08164004,0.16784588,-0.22806858,28.5625,29.9375,28.875,32.6875,35.125,36.25
0.052054018,0.16607209,-1.2128495,-1.9738339,-0.017844174,0.04319099,-0.19399524,-0.38978428,-0.3684321,0.059869748,-3.0784767,0.6251705,-0.00021871264,-0.023699045,0.01119426,0.0011748637,-0.0019801275,0.002636673,-0.007584994,0.5041087,-1.3810128,1.903736,-2.091759,-1.5708174,2.4792814,-0.041234534,0.017807936,-0.02449539,0.0034166775,0.00040519223,-0.033637777,0.05746084,0.15322891,-9.519346,0.7463667,47.689575,-0.7789208,-2.6508236,-3.2352176,-0.08790044,0.171823,-0.24077031,28.5625,29.9375,28.875,32.6875,35.125,36.25
0.054053668,0.13491225,-0.6823325,-1.6867476,-0.037591282,0.037714556,-0.202415,-0.3898317,-0.3684106,0.05986866,-3.0784683,0.625263,-0.00025776096,-0.023720484,0.010516587,0.001636261,-0.002615195,0.0037188283,-0.0052818223,0.5040133,-1.3809649,1.9036764,-2.0917351,-1.5707935,2.4792447,-0.040128868,0.017582756,-0.025208656,0.0031014478,0.00043592072,-0.034835055,0.095768064,0.17238252,-9.557653,0.7732232,47.696735,-0.8649447,-2.5671744,-3.1982195,-0.039578415,0.16522574,-0.25737754,28.5625,29.9375,28.875,32.6875,35.125,36.25
0.056053996,-0.8882569,-1.4450755,-1.7449718,-0.022887256,0.018889746,-0.18747403,-0.3899023,-0.36838353,0.05989354,-3.0784805,0.6253028,-0.00016354444,-0.024797704,0.011240909,0.0013901833,-0.0021758422,0.0028255845,-0.0060636904,0.50391674,-1.3809524,1.9036049,-2.0917346,-1.5708174,2.4791715,-0.04237848,0.019094849,-0.026643278,0.004017202,0.00048362854,-0.036302127,0.05746084,0.17238252,-9.385271,0.7620334,47.682407,-0.87476504,-2.6715856,-3.170018,-0.054415766,0.17557162,-0.25536028,28.5625,29.9375,28.875,32.6875,35.125,36.25
0.0580538,-0.986404,-1.2828822,-1.6510022,-0.017024541,0.016212136,-0.18789846,-0.38995072,-0.36833432,0.059888266,-3.0784671,0.6253202,-0.00015252925,-0.025062418,0.012116156,0.0008256406,-0.0017392462,0.0009212863,-0.00723366,0.50379616,-1.38094,1.9036049,-2.091746,-1.5708293,2.4790635,-0.0444319,0.019877784,-0.02649957,0.004966566,0.0010232971,-0.037186533,0.05746084,0.13407528,-9.3661175,0.7284641,47.677036,-0.81574345,-2.5663314,-3.2211933,-0.05726187,0.18460512,-0.2754643,28.5625,29.9375,28.875,32.6875,35.125,36.25
0.060053673,-0.4340227,-0.69093096,-1.5511638,-0.019844903,0.02258648,-0.18911557,-0.38998058,-0.36833116,0.059872456,-3.0784671,0.6253397,-0.00020487189,-0.025972772,0.012568255,0.001147287,-0.0022769824,0.00133326,-0.0075438484,0.50374776,-1.3808681,1.9035558,-2.091746,-1.570805,2.4790273,-0.046207417,0.019856814,-0.027240247,0.005107653,0.001292927,-0.038652074,0.038307227,0.11492168,-9.404425,0.7284641,47.690468,-0.7992302,-2.5794325,-3.2897062,-0.073183194,0.19539821,-0.29342422,28.5625,29.9375,28.875,32.6875,35.125,36.25
0.062053397,-0.30798283,-0.8830708,-1.5772694,-0.0074846377,0.027850991,-0.18324055,-0.39006844,-0.3683115,0.059915937,-3.078489,0.6254586,-9.393434e-05,-0.026967177,0.011896719,0.001752877,-0.0038376818,0.0024706451,-0.0071437107,0.5036398,-1.3808558,1.903437,-2.0917227,-1.5708164,2.4789908,-0.046506297,0.020594683,-0.029419914,0.0047967015,0.002108779,-0.039351292,0.0,0.038307227,-9.385271,0.7620334,47.698532,-0.8172176,-2.6107063,-3.2515976,-0.057005353,0.17458364,-0.3075207,28.5625,29.9375,28.875,32.6875,35.125,36.25
0.064054005,-0.3722253,-0.7897629,-1.5030258,-0.008983124,0.03554079,-0.18585084,-0.39010453,-0.36827844,0.059885822,-3.0784638,0.6253945,-0.00019138854,-0.02807782,0.0124946525,0.0016972147,-0.0038930818,0.0026252603,-0.006065566,0.5035433,-1.3807713,1.9034003,-2.091699,-1.570805,2.4788575,-0.048525754,0.021464769,-0.030286327,0.004631309,0.0020772081,-0.042448487,-0.05746084,0.076614454,-9.308657,0.7978386,47.66808,-0.8160195,-2.556655,-3.1790118,-0.044204757,0.1590052,-0.31749544,28.5625,29.9375,28.875,32.6875,35.125,36.25
0.06605407,-0.8437614,-0.8298056,-1.6686088,-0.0067232014,0.040899597,-0.17599273,-0.3901596,-0.36825463,0.059897985,-3.0784934,0.6253617,-0.0001224633,-0.028899258,0.012787088,0.0019142643,-0.004447286,0.00274258,-0.005662819,0.50345904,-1.3807591,1.9033636,-2.0917222,-1.5708164,2.478749,-0.050046615,0.021793837,-0.031222632,0.004866295,0.002506552,-0.044372305,-0.076614454,0.095768064,-9.289502,0.7172743,47.674347,-0.79497623,-2.594983,-3.2166352,-0.0500865,0.16458605,-0.31781185,28.5625,29.9375,28.875,32.6875,35.125,36.25
0.06805386,-1.3716522,-1.0689167,-1.6557227,-0.0010507852,0.049008485,-0.17590125,-0.3902184,-0.36823472,0.059910107,-3.0784943,0.6254004,-0.00013582966,-0.028947182,0.013014486,0.001862498,-0.0042132,0.0018565347,-0.006191961,0.5033632,-1.3807111,1.9032682,-2.091674,-1.5708045,2.4786773,-0.050607853,0.022066955,-0.031669427,0.0059289886,0.0027308015,-0.044404667,-0.15322891,0.05746084,-9.346964,0.7553206,47.653748,-0.8423285,-2.5120282,-3.2056959,-0.05335161,0.18604155,-0.3221445,28.5625,29.9375,28.875,32.6875,35.125,36.25
0.07005338,-0.76988196,-0.4991135,-1.5336431,-0.014760926,0.08227542,-0.18051247,-0.3902631,-0.36820173,0.059898764,-3.0785015,0.62536305,-0.00013682408,-0.030225493,0.014345726,0.0015250427,-0.003752324,0.0007275033,-0.0073342803,0.50326604,-1.3806746,1.9032563,-2.091698,-1.5708045,2.478556,-0.05412399,0.023200488,-0.03243314,0.0067699924,0.002871721,-0.04677832,-0.28730422,0.038307227,-9.32781,0.78888994,47.64121,-0.81704044,-2.5588458,-3.2752328,-0.0671801,0.17077175,-0.35716248,28.5625,29.9375,28.875,32.6875,35.125,36.25
0.07205402,-0.99430984,-0.61793816,-1.4658405,-0.01188495,0.08753449,-0.17856686,-0.39032435,-0.36816925,0.059899524,-3.078473,0.6254697,-0.0001780031,-0.030008413,0.013780649,0.0013794608,-0.0036212944,0.00047834776,-0.002945471,0.50314677,-1.3806142,1.9031724,-2.0916502,-1.5707926,2.4785068,-0.052966066,0.024063034,-0.03315488,0.006911232,0.0028742421,-0.050008867,-0.28730422,0.05746084,-9.32781,0.7777002,47.678825,-0.7943431,-2.5466075,-3.2246866,-0.06353373,0.1612263,-0.33437806,28.5625,29.9375,28.875,32.6875,35.125,36.25
0.07405421,-1.400279,-1.016289,-1.4409305,-0.002746771,0.08693085,-0.17089966,-0.39036977,-0.36814865,0.059906814,-3.0785048,0.625397,-0.00017657626,-0.03093287,0.014043292,0.001282471,-0.004113671,0.0004784895,0.00048333,0.50306237,-1.3805898,1.9031242,-2.0916378,-1.5707806,2.478373,-0.054532073,0.025071584,-0.03404648,0.0065556318,0.0033024403,-0.055003807,-0.34476504,0.0,-9.289502,0.82694155,47.67345,-0.9592651,-2.5160007,-3.254735,-0.060936853,0.16344881,-0.3142261,28.5625,29.9375,28.875,32.6875,35.125,36.25
0.07605321,-1.6340762,-0.86938065,-1.4316318,-0.0025303704,0.082778245,-0.17390867,-0.39047244,-0.36813867,0.059929702,-3.0785787,0.62535363,-8.937175e-05,-0.03192155,0.014415044,0.0012972426,-0.0045096134,0.00041918963,0.0003044261,0.50294214,-1.3805176,1.9029921,-2.0916617,-1.5707682,2.4782164,-0.05630292,0.025949357,-0.035135638,0.006627731,0.0036804057,-0.056595508,-0.4405331,0.0,-9.346964,0.8247004,47.682407,-0.91312677,-2.5024142,-3.2205763,-0.05550132,0.15936399,-0.2931167,28.5625,29.9375,28.875,32.6875,35.125,36.25
0.07805416,-1.377854,-0.6154706,-1.5888315,-0.005120135,0.081554234,-0.1772831,-0.39052206,-0.36808375,0.059916984,-3.0785162,0.6253236,-9.8017495e-05,-0.033411298,0.015427439,0.0014252965,-0.0049620452,0.00025853972,-0.0014933435,0.5028332,-1.3804693,1.9029559,-2.091626,-1.5708159,2.4780967,-0.05968277,0.026536252,-0.036215898,0.0070396243,0.0041501573,-0.058178056,-0.5363012,0.038307227,-9.3661175,0.78888994,47.67166,-0.79881215,-2.5166311,-3.2960415,-0.062435295,0.16363582,-0.29212537,28.5625,29.9375,28.875,32.6875,35.125,36.25
0.080054134,-1.2085739,-0.60679495,-1.5093126,-0.0059737745,0.08421858,-0.17600983,-0.39056906,-0.36806124,0.05990625,-3.0785239,0.625358,-0.00021744423,-0.033054143,0.014592056,0.0015695653,-0.0051132897,0.0004874939,0.004754189,0.50271404,-1.3803971,1.9028839,-2.0915778,-1.5707558,2.477998,-0.057948675,0.02690173,-0.037015256,0.0072036777,0.0041674534,-0.06269136,-0.5363012,0.019153614,-9.3661175,0.800085,47.703903,-0.8375854,-2.5270522,-3.2355504,-0.06568211,0.15175384,-0.27986667,28.5625,29.9375,28.875,32.6875,35.125,36.25
0.08205356,-1.3206943,-1.1330502,-1.6451286,0.00028322995,0.08189591,-0.16782647,-0.39065072,-0.36802778,0.059902567,-3.0785432,0.62534094,-0.00018941954,-0.03379259,0.015131349,0.0014535519,-0.0049978425,0.00042366135,0.0073138895,0.50258166,-1.3803248,1.9028124,-2.091602,-1.5707558,2.4778526,-0.059490237,0.02750653,-0.03745662,0.0071523828,0.0040969565,-0.06679213,-0.47884035,-0.05746084,-9.289502,0.78888994,47.711063,-1.0067825,-2.454291,-3.2134948,-0.054142676,0.16249081,-0.22562599,28.5625,29.9375,28.875,32.6875,35.125,36.25
0.084053524,-0.7656615,-0.55382377,-1.5835458,-0.007973183,0.09291249,-0.17661588,-0.39072755,-0.3680005,0.059926,-3.0785682,0.6253827,-0.00018665685,-0.035037555,0.015515687,0.0014776242,-0.005559979,0.0004869148,0.008835906,0.50244933,-1.3802884,1.9027051,-2.091554,-1.570732,2.4777431,-0.061573282,0.028648414,-0.03884417,0.0070722364,0.004557159,-0.07039711,-0.45968673,-0.076614454,-9.308657,0.779936,47.693153,-0.9902583,-2.4996362,-3.2388813,-0.05742073,0.1644746,-0.17878982,28.5625,29.9375,28.875,32.6875,35.125,36.25
0.086054154,-0.63616973,-0.71254337,-1.4851208,-0.005820306,0.095485605,-0.17929845,-0.3907702,-0.36797863,0.05990576,-3.0785892,0.62525135,-0.00022776179,-0.03560084,0.015687812,0.0015988906,-0.0057445387,0.00046322923,0.01074583,0.5023651,-1.3802161,1.9026684,-2.0915658,-1.5707196,2.4775743,-0.062487774,0.029084275,-0.039722778,0.0074474616,0.004727286,-0.073221534,-0.34476504,-0.076614454,-9.423578,0.75084364,47.684196,-0.9533578,-2.4816403,-3.2600021,-0.07050199,0.13877898,-0.14609432,28.5625,29.9375,28.875,32.6875,35.125,36.25
0.08805401,-1.169589,-0.80341494,-1.6268805,-0.011141771,0.07361555,-0.17580573,-0.39085972,-0.36793527,0.05990532,-3.0785785,0.6253432,-0.00021241889,-0.03646362,0.01604118,0.0014987814,-0.00543531,0.0008381709,0.012229952,0.5022091,-1.3801439,1.902584,-2.0915663,-1.5707201,2.477477,-0.06359136,0.030059403,-0.040584058,0.0071561513,0.004274103,-0.0758079,-0.30645782,0.0,-9.423578,0.7978386,47.678825,-0.9805703,-2.4713113,-3.2251382,-0.0736634,0.1434936,-0.12663263,28.5625,29.9375,28.875,32.6875,35.125,36.25
0.09005365,-1.0740986,-0.9382263,-1.5098544,-0.009919201,0.07017594,-0.17306064,-0.39091876,-0.36789665,0.059906106,-3.0786042,0.62521386,-0.00021390723,-0.036987484,0.016176924,0.0012603,-0.00530888,0.00081635226,0.01293263,0.5020892,-1.3801074,1.9025363,-2.091554,-1.5707201,2.4772732,-0.06423599,0.031072376,-0.04115965,0.0067996117,0.004171738,-0.077154614,-0.4213795,0.095768064,-9.461885,0.7620334,47.67166,-1.0329034,-2.4665375,-3.2368069,-0.07123691,0.1606272,-0.07764904,28.5625,29.9375,28.875,32.6875,35.125,36.25
0.09205358,-0.8180865,-0.9950621,-1.7407091,-0.014270636,0.06669972,-0.17271313,-0.39102322,-0.3678704,0.059922535,-3.0786362,0.6252598,-0.00019720847,-0.0374876,0.016979335,0.0003753336,-0.0043687588,-0.0002624779,0.011175885,0.501933,-1.3800226,1.9023932,-2.09153,-1.5706962,2.4771416,-0.06584926,0.03263244,-0.04089825,0.0063798544,0.0038693948,-0.07701032,-0.21068975,0.019153614,-9.461885,0.82022345,47.670765,-1.045611,-2.557497,-3.29185,-0.072548434,0.15611628,-0.06873394,28.5625,29.9375,28.875,32.6875,35.125,36.25
0.094053514,-0.3305709,-0.7224848,-1.4459554,-0.02118212,0.06808388,-0.1833859,-0.39108282,-0.36782047,0.059912503,-3.0786355,0.6251433,-0.00021294777,-0.03904761,0.016749978,0.0010777423,-0.0048450553,0.0013129617,0.010061237,0.50180095,-1.3799741,1.902356,-2.0915182,-1.5707082,2.476937,-0.066688925,0.03378603,-0.043921467,0.006640048,0.003521708,-0.07673347,-0.095768064,0.038307227,-9.404425,0.779936,47.684196,-1.090117,-2.558781,-3.2537208,-0.074846454,0.15362416,-0.05749986,28.5625,29.9375,28.875,32.6875,35.125,36.25
0.096053734,-0.4431919,-0.8407655,-1.6556238,-0.017150603,0.049098846,-0.18362705,-0.39118028,-0.36779833,0.05993801,-3.078668,0.62513024,-0.00012883752,-0.03957455,0.017250573,0.0010361536,-0.004442431,0.0012043793,0.008169853,0.50168085,-1.3799138,1.902224,-2.0915062,-1.5707206,2.4768047,-0.06782321,0.034161475,-0.044350047,0.006982612,0.0032258849,-0.07597549,-0.19153613,0.11492168,-9.423578,0.7777002,47.686886,-1.1197598,-2.5828753,-3.1205206,-0.09156987,0.1501579,-0.06603246,28.5625,29.9375,28.875,32.6875,35.125,36.25
0.098054096,0.0027640471,-0.8367344,-1.6927015,-0.016771715,0.055107377,-0.18002701,-0.39125663,-0.3677467,0.059928264,-3.0786562,0.6252064,-0.00020932932,-0.040000234,0.018155197,0.0006494114,-0.004107231,0.0007901736,0.0049169743,0.5015007,-1.3798419,1.9021529,-2.0914705,-1.5706848,2.4766736,-0.06966989,0.034288015,-0.04352647,0.006560495,0.0031299037,-0.07456953,-0.095768064,0.15322891,-9.385271,0.7463667,47.66987,-1.1374058,-2.596587,-3.2923975,-0.069850594,0.15315114,-0.074619696,28.5625,29.9375,28.875,32.6875,35.125,36.25
0.10005367,-0.3282079,-0.8626065,-1.8075383,-0.022850359,0.040446844,-0.17550406,-0.39134628,-0.36772668,0.059924457,-3.0786817,0.62521315,-0.0002204926,-0.04133907,0.018079815,0.0008639314,-0.004752498,0.0017166738,0.0019485503,0.5013686,-1.3797333,1.9020332,-2.091471,-1.5706605,2.4765425,-0.070845485,0.03565348,-0.04552218,0.0060698916,0.003246439,-0.07277579,0.05746084,0.11492168,-9.3661175,0.8023209,47.683304,-1.1440613,-2.5803912,-3.2812333,-0.057120226,0.16416296,-0.11312592,28.5625,29.9375,28.875,32.6875,35.125,36.25
0.1020534,-0.55664754,-1.0172924,-1.7853403,-0.024594564,0.028401222,-0.177389,-0.39142758,-0.36768943,0.05993634,-3.0786872,0.6251197,-0.00012951909,-0.042465687,0.018632602,0.0007892565,-0.00493562,0.0013982446,-0.0020233812,0.5012601,-1.3796849,1.9019488,-2.0914705,-1.5707082,2.476375,-0.073007196,0.036796533,-0.046773024,0.0063647074,0.0035612294,-0.0709653,0.05746084,0.095768064,-9.3661175,0.779936,47.670765,-1.1114545,-2.560444,-3.2147298,-0.06866913,0.17113191,-0.124426514,28.5625,29.9375,28.875,32.6875,35.125,36.25
0.10405331,-0.7744968,-0.94083226,-1.9185783,-0.028123086,0.023841634,-0.17132732,-0.39150795,-0.36763376,0.05993014,-3.0786717,0.6251545,-0.00014387365,-0.043817356,0.018604586,0.0015062946,-0.005337046,0.0026591881,-0.0038755622,0.50109214,-1.3796245,1.9018887,-2.0914586,-1.5707086,2.4762309,-0.07404133,0.03745732,-0.04932228,0.0069559547,0.0033032256,-0.07014581,0.019153614,0.21068975,-9.404425,0.80679786,47.674347,-1.0766819,-2.6128185,-3.1302369,-0.0680744,0.14803863,-0.17666669,28.5625,29.9375,28.875,32.6875,35.125,36.25
0.10605394,-0.79466516,-0.971111,-1.7897947,-0.033340383,0.022659225,-0.17000934,-0.3916259,-0.36760145,0.059956692,-3.0786817,0.6252156,-7.475006e-05,-0.044094127,0.019546557,0.0013043496,-0.004920521,0.0018960633,-0.006367592,0.50093573,-1.3795407,1.9017209,-2.0914223,-1.5707206,2.4761114,-0.075869836,0.037239827,-0.04871706,0.007437328,0.0033109777,-0.069482476,0.019153614,0.17238252,-9.3661175,0.75084364,47.6421,-1.1164415,-2.546133,-3.1757705,-0.0840434,0.16125765,-0.18679418,28.5625,29.9375,28.875,32.6875,35.125,36.25
0.10805361,-0.086514935,-1.062213,-1.6988621,-0.038821183,0.045490425,-0.16810592,-0.39168373,-0.36756104,0.05993227,-3.0786812,0.62519556,-0.00017038229,-0.0441117,0.020022225,0.00038358843,-0.0041035437,0.00018595844,-0.007279369,0.5007918,-1.379456,1.9016737,-2.0914104,-1.5706848,2.475955,-0.07674179,0.038770333,-0.048461255,0.0075459783,0.0034133408,-0.06944286,-0.05746084,0.22984336,-9.404425,0.78888994,47.67793,-1.1625758,-2.5209475,-3.2929697,-0.08410199,0.16311754,-0.24659234,28.5625,29.9375,28.875,32.6875,35.125,36.25
0.11005355,-0.37546432,-1.1256269,-1.7840725,-0.043593127,0.05176065,-0.1766415,-0.3917734,-0.36751264,0.059941877,-3.0786965,0.6252549,-0.00018139806,-0.04563387,0.019807924,0.0010344265,-0.005039646,0.0013569121,-0.0062159174,0.5006117,-1.3794075,1.9015888,-2.091386,-1.57066,2.47581,-0.07793606,0.03988268,-0.05132167,0.007819001,0.0036679045,-0.07169964,-0.1340753,0.2681506,-9.404425,0.7732232,47.64837,-1.1892253,-2.5837014,-3.2109077,-0.08846608,0.1690241,-0.24465264,28.5625,29.9375,28.875,32.6875,35.125,36.25
0.11205347,-0.66847897,-1.4543118,-1.8655045,-0.033741135,0.05161962,-0.16522539,-0.39186317,-0.36751127,0.05995708,3.078737,-0.62518716,0.00014696465,-0.045604777,0.019901877,0.0007797358,-0.0049432293,0.000372077,-0.008124593,0.5005039,-1.3793232,1.9014572,-2.091398,-1.5706242,2.4756548,-0.07829703,0.040474463,-0.051575437,0.008392719,0.0040614116,-0.070152186,-0.019153614,0.17238252,-9.308657,0.76874626,47.698532,-1.3100524,-2.5979958,-3.2467406,-0.09332673,0.17154981,-0.28859642,28.5625,29.9375,28.875,32.6875,35.125,36.25
0.11405363,-0.5591658,-1.09012,-1.9078115,-0.03459991,0.057503764,-0.1710623,-0.39197466,-0.36745632,0.05996149,3.0787392,-0.6252659,0.00012381272,-0.047523692,0.021231802,0.0010836407,-0.0060450546,0.0005354951,-0.0124598,0.50032264,-1.379227,1.9013251,-2.0913618,-1.5706476,2.4755225,-0.08284724,0.040662408,-0.05250858,0.008461857,0.004948381,-0.070368156,-0.19153613,0.15322891,-9.32781,0.842603,47.696735,-1.1211166,-2.484833,-3.2672405,-0.099356145,0.14773591,-0.32618675,28.5625,29.9375,28.875,32.6875,35.125,36.25
0.11605393,-0.28136864,-0.39873037,-1.7310377,-0.047109924,0.06652454,-0.18622501,-0.3920655,-0.3674303,0.059970666,3.078708,-0.625217,0.000107225576,-0.046709772,0.02024447,0.00043799684,-0.0057177967,-0.00057832844,-0.0075739115,0.5001799,-1.3791544,1.9012183,-2.0913618,-1.5706238,2.4753532,-0.08057178,0.04226911,-0.05293375,0.008416344,0.0051971674,-0.07297836,-0.21068975,0.11492168,-9.346964,0.7866488,47.696735,-1.3297603,-2.5929453,-3.2682376,-0.089115545,0.159612,-0.3255066,28.5625,29.9375,28.875,32.6875,35.125,36.25
0.118053906,-0.6984012,-0.53375715,-1.706044,-0.039774247,0.07100706,-0.17713667,-0.39212823,-0.3673531,0.05992239,-3.0786903,0.6253325,-0.00022514517,-0.04834118,0.02129144,-2.0513808e-05,-0.005355872,-0.00077680853,-0.013842469,0.49999925,-1.3790456,1.901194,-2.091338,-1.5706357,2.475247,-0.08368989,0.04415268,-0.05402445,0.007971909,0.0049642087,-0.06982733,-0.36391866,0.1340753,-9.3661175,0.7642693,47.686886,-1.3079014,-2.6530695,-3.239231,-0.10619982,0.15728357,-0.41978657,28.5625,29.9375,28.875,32.6875,35.125,36.25
0.12005391,-1.213316,-0.701928,-1.666983,-0.019290606,0.076037005,-0.16514005,-0.39223897,-0.3673159,0.059929654,-3.0787172,0.6253738,-0.00021937462,-0.049404044,0.02112133,0.0016678554,-0.0071655423,0.0019644282,-0.012399256,0.49981925,-1.3789502,1.9010619,-2.0913265,-1.5706118,2.4750893,-0.08453562,0.04213133,-0.05553532,0.008232705,0.005237878,-0.07211633,-0.40222588,0.095768064,-9.404425,0.7777002,47.655537,-1.1949849,-2.5020409,-3.2492669,-0.10582003,0.14288,-0.4434763,28.5625,29.9375,28.875,32.6875,35.125,36.25
0.12205376,-1.0427982,-0.6118044,-1.796328,-0.005700464,0.086642586,-0.17180452,-0.3923716,-0.36728624,0.05997676,3.078641,-0.62537766,0.000103903825,-0.049892522,0.021538097,0.0011768185,-0.006683539,0.0008132159,-0.009789251,0.49963924,-1.3789017,1.9008945,-2.091314,-1.5705999,2.4749215,-0.08575069,0.043614984,-0.05629277,0.008749645,0.005374506,-0.075940564,-0.2681506,0.0,-9.423578,0.7978386,47.688675,-1.3780246,-2.4246554,-3.2341838,-0.100589894,0.13849056,-0.4751489,28.5625,29.9375,28.875,32.6875,35.125,36.25
0.12405394,-1.3620967,-1.2360485,-1.7226702,0.0068451227,0.09051633,-0.1513103,-0.39246765,-0.3672322,0.059947137,3.0786672,-0.62543666,0.00017572317,-0.050790515,0.021763792,0.001125082,-0.0076620863,0.00055155647,-0.0078108734,0.4994591,-1.3787571,1.9007853,-2.0912902,-1.5705994,2.4747748,-0.08755263,0.04450087,-0.057174854,0.008504692,0.0063523236,-0.07972219,-0.38307226,-0.05746084,-9.442732,0.83589023,47.684196,-1.3784664,-2.5341022,-3.2566867,-0.10260992,0.14381361,-0.46314323,28.5625,29.9375,28.875,32.6875,35.125,36.25
0.12605336,-1.4555672,-0.8013953,-1.6317258,0.0027239297,0.08480147,-0.16496569,-0.3925724,-0.36718732,0.059958883,3.078645,-0.62542725,0.00016247517,-0.05148996,0.02210444,0.00043920017,-0.0073330407,-0.0007085874,-0.00084774697,0.49927902,-1.3786844,1.9006671,-2.0912664,-1.570587,2.4745917,-0.0889499,0.046663783,-0.058209565,0.008642312,0.006667002,-0.08808218,-0.49799395,-0.095768064,-9.423578,0.7866488,47.651955,-1.3283321,-2.5599728,-3.219789,-0.10618068,0.11421535,-0.4255204,28.5625,29.9375,28.875,32.6875,35.125,36.25
0.12805413,-0.28103015,-0.5006747,-1.5297301,0.0014599744,0.11520389,-0.17050074,-0.39268938,-0.3671614,0.059978016,3.0785944,-0.62530154,0.00014020532,-0.053689558,0.024049845,0.00022179127,-0.006911492,-0.0009046681,-0.0020028013,0.4990976,-1.3786,1.9005235,-2.0912664,-1.5705394,2.4743383,-0.094063394,0.047840063,-0.059142057,0.00877955,0.0063947984,-0.092039295,-0.47884035,-0.21068975,-9.423578,0.83589023,47.64927,-1.2100911,-2.6140666,-3.2948496,-0.10530493,0.113942936,-0.40033543,28.5625,29.9375,28.875,32.6875,35.125,36.25
0.13005368,-0.903421,-0.13523561,-1.6094664,-0.0037249723,0.10651423,-0.16995816,-0.39275262,-0.36711982,0.05995683,3.0786188,-0.6252801,0.00023496135,-0.053744476,0.023306604,0.0016972142,-0.007971126,0.0019979659,0.008720169,0.49895433,-1.3785046,1.9004506,-2.0912302,-1.5705155,2.4741786,-0.09255876,0.045571975,-0.0597854,0.008641737,0.005929176,-0.1012574,-0.5363012,-0.19153613,-9.346964,0.7172743,47.666286,-1.3679008,-2.5417705,-3.268897,-0.115507446,0.11668497,-0.347929,28.5625,29.9375,28.875,32.6875,35.125,36.25
0.13205463,-1.9621954,-0.60427225,-1.632638,0.011509711,0.08655423,-0.15493406,-0.39287448,-0.36706054,0.059944496,3.0786393,-0.625264,0.00023807937,-0.055833932,0.025015762,0.00143683,-0.0073888423,0.0020077066,0.008730009,0.49874943,-1.378372,1.900319,-2.0912187,-1.5705274,2.473961,-0.09701828,0.046970278,-0.060838543,0.008569283,0.0054103453,-0.10572541,-0.61291564,-0.24899697,-9.3661175,0.8247004,47.70838,-1.3465734,-2.4684725,-3.2784235,-0.108490005,0.10191435,-0.24593213,28.5625,29.9375,28.875,32.6875,35.125,36.25
0.13405342,-1.0172458,-0.22485584,-1.5917909,0.008616766,0.1122436,-0.16508538,-0.39297295,-0.36700413,0.05994414,3.0785975,-0.62525284,0.00027457267,-0.05589632,0.024962695,0.0009614213,-0.0066268127,0.00079162314,0.013668578,0.49853393,-1.3783114,1.9002479,-2.0912182,-1.5704798,2.473744,-0.09691302,0.048610367,-0.061896555,0.009427268,0.005324195,-0.110557936,-0.53630114,-0.19153614,-9.385271,0.7486078,47.68062,-1.2194386,-2.5085385,-3.300766,-0.11675595,0.11979644,-0.22135985,28.5625,29.9375,28.875,32.6875,35.125,36.25
0.13605382,-1.5998603,-0.32234845,-1.6367033,0.010910557,0.093881994,-0.16214064,-0.3931039,-0.36694986,0.0599388,3.0786211,-0.6251412,0.00024802744,-0.057501484,0.026129197,0.0011115647,-0.0067772735,0.0012023672,0.013342661,0.4983292,-1.3781791,1.9001034,-2.0912182,-1.5704917,2.4734666,-0.10029066,0.0490542,-0.06276907,0.00942395,0.0052601825,-0.1136091,-0.63206923,-0.21068975,-9.3661175,0.8023209,47.687782,-1.2096536,-2.528861,-3.2793987,-0.14463645,0.111094534,-0.15434477,28.5625,29.9375,28.875,32.6875,35.125,36.25
0.13805377,-0.60577965,-0.046159513,-1.6088831,-0.002401179,0.11806841,-0.17528175,-0.3932362,-0.36687785,0.05995373,3.0786123,-0.62523544,0.00020919747,-0.05953684,0.02638278,0.0017649679,-0.008088339,0.0024583426,0.011365191,0.49810085,-1.3780947,1.8999585,-2.09117,-1.5705155,2.4732983,-0.10290769,0.050108578,-0.06549356,0.009360972,0.005808181,-0.11424814,-0.5554548,-0.1340753,-9.346964,0.80456203,47.707485,-1.0896499,-2.4776282,-3.268858,-0.14893796,0.122518554,-0.12711702,28.5625,29.9375,28.875,32.6875,35.125,36.25
0.14005345,-0.96010405,-0.6821873,-1.7393223,0.00798231,0.099142626,-0.156152,-0.39334655,-0.36683002,0.059957664,3.078589,-0.6252153,0.00024673896,-0.06073865,0.027347473,0.0017261151,-0.0076077054,0.0025593997,0.0068861055,0.49789637,-1.3779984,1.8998274,-2.0911343,-1.5704798,2.4730842,-0.10532129,0.05084289,-0.06633754,0.009617981,0.0053375405,-0.112181544,-0.49799395,-0.11492168,-9.404425,0.71279734,47.65912,-1.1069928,-2.5496502,-3.1110315,-0.13980293,0.08883099,-0.1529973,28.5625,29.9375,28.875,32.6875,35.125,36.25
0.14205423,-0.65861076,-0.6319345,-1.8785169,0.0017740957,0.09945958,-0.16509327,-0.3934626,-0.3667717,0.059952114,3.0786052,-0.62514395,0.00024904907,-0.06191872,0.029109335,0.0010767253,-0.0064832093,0.001490369,-0.001098586,0.49769157,-1.3778899,1.8997086,-2.091122,-1.5704802,2.472833,-0.10905325,0.05185949,-0.066127025,0.00986893,0.0048618987,-0.107928075,-0.5746084,-0.095768064,-9.576807,0.77545905,47.713753,-0.946512,-2.4361274,-3.3141174,-0.15333086,0.110674374,-0.19497067,28.5625,29.9375,28.875,32.6875,35.125,36.25
0.14405417,-0.3552573,-0.33341327,-1.6884776,-0.024196763,0.107708015,-0.17323515,-0.3936028,-0.36669955,0.05994547,3.078627,-0.6251694,0.00021230195,-0.063737676,0.029309435,0.0014029078,-0.0067377407,0.0025588006,-0.0071705184,0.4974633,-1.377757,1.8995637,-2.0911105,-1.570516,2.4726179,-0.1108534,0.05358811,-0.06892522,0.009875678,0.0045708017,-0.103654474,-0.6703765,0.019153614,-9.442732,0.7777002,47.682407,-0.917155,-2.6847162,-3.2123168,-0.13753253,0.10363494,-0.24785839,28.5625,29.9375,28.875,32.6875,35.125,36.25
0.14605366,-1.290621,-0.9719229,-1.6927649,-0.017375182,0.09334656,-0.16562991,-0.39370397,-0.3666577,0.059947267,3.0785522,-0.62521243,0.0002965909,-0.06503525,0.02954029,0.0026581287,-0.007431797,0.004714297,-0.010167965,0.4972475,-1.3776733,1.899455,-2.0910861,-1.5704321,2.4724383,-0.112147585,0.052621175,-0.070774466,0.010477137,0.0041512405,-0.10195007,-0.6703765,0.1340753,-9.481039,0.7418897,47.674347,-0.89846873,-2.418521,-3.0529976,-0.15627933,0.12548909,-0.29902917,28.5625,29.9375,28.875,32.6875,35.125,36.25
0.14805362,-0.99925,-0.73150945,-1.8284678,-0.02452802,0.111806266,-0.16849121,-0.39384404,-0.3665978,0.059967637,3.0785646,-0.62523425,0.00018093004,-0.0645319,0.030604739,0.0013984689,-0.0065211635,0.0018108595,-0.011200925,0.49705523,-1.377577,1.899289,-2.0910623,-1.5704921,2.4722583,-0.113817394,0.053394444,-0.068906896,0.010815302,0.0047463174,-0.10258826,-0.61291564,0.17238252,-9.461885,0.779936,47.71465,-0.87554497,-2.4741971,-3.2432694,-0.15269282,0.11915142,-0.30026564,28.5625,29.9375,28.875,32.6875,35.125,36.25
0.15005338,-1.1177934,-1.0282283,-1.8690116,-0.026685689,0.12225458,-0.17008771,-0.3939746,-0.36654472,0.059952047,3.078544,-0.6252287,0.00026070187,-0.06537388,0.030421672,0.0007372441,-0.006391662,0.0005520866,-0.0107648615,0.49681553,-1.3774197,1.8991326,-2.091038,-1.5704435,2.4720178,-0.11455152,0.056483317,-0.07114488,0.01113745,0.005226839,-0.10375794,-0.45968673,0.15322891,-9.423578,0.842603,47.71823,-0.96818364,-2.4836674,-3.230194,-0.1868543,0.10564218,-0.32312787,28.5625,29.9375,28.875,32.6875,35.125,36.25
0.15205418,-1.3983744,-1.0851129,-1.8670549,-0.03298382,0.11302366,-0.16910902,-0.3940836,-0.36647066,0.059940428,3.0785413,-0.6252661,0.00032854744,-0.06610651,0.030249089,0.0010263468,-0.006777735,0.001137719,-0.011641843,0.49657586,-1.3773234,1.8990368,-2.0910022,-1.5704197,2.4718018,-0.11494186,0.057203367,-0.07269055,0.011267665,0.0052813,-0.10327086,-0.4213795,0.11492168,-9.442732,0.8291774,47.678825,-0.9740262,-2.5309331,-3.150021,-0.1914662,0.110096656,-0.36155993,28.5625,29.9375,28.875,32.6875,35.125,36.25
0.15405385,-1.1191231,-0.7140934,-1.9988462,-0.038178567,0.092766285,-0.17209771,-0.39424434,-0.36639848,0.059943475,3.0785437,-0.6253593,0.00025174918,-0.06669171,0.030094327,0.0021752617,-0.008035087,0.00342967,-0.009387508,0.49633637,-1.3771799,1.898857,-2.0909898,-1.5704674,2.4716203,-0.11519018,0.055501375,-0.07320207,0.010863979,0.0052968995,-0.10577346,-0.36391866,0.19153613,-9.423578,0.8157518,47.66808,-1.0164171,-2.5125647,-3.157093,-0.18173338,0.11451196,-0.35129815,28.5625,29.9375,28.875,32.6875,35.125,36.25
0.15605412,-0.6481961,-1.2726973,-2.0787652,-0.022381304,0.08021052,-0.16626751,-0.39438993,-0.36634964,0.05997895,3.0784385,-0.6253791,0.00021216935,-0.06810196,0.03148142,0.0013871684,-0.0071034157,0.002144761,-0.013045192,0.4960835,-1.3771191,1.8987015,-2.0909784,-1.5704077,2.471393,-0.11865984,0.05765941,-0.07402619,0.011111923,0.0050983974,-0.10558408,-0.30645782,0.19153613,-9.442732,0.7911258,47.73077,-0.9038233,-2.45953,-3.2406802,-0.19935164,0.1107741,-0.40288275,28.5625,29.9375,28.875,32.6875,35.125,36.25
0.15805396,-1.0047982,-0.9864088,-2.0439055,-0.031435438,0.05077569,-0.16999228,-0.3945147,-0.36625558,0.059936296,3.078512,-0.62542486,0.0002774927,-0.06846032,0.030729374,0.0015701705,-0.007416425,0.0032853023,-0.0052338787,0.49583286,-1.3769505,1.8985933,-2.0909545,-1.5704435,2.4711618,-0.11751987,0.05858033,-0.07538182,0.010394844,0.0048188115,-0.1122547,-0.21068975,0.095768064,-9.519346,0.82694155,47.70211,-1.1752828,-2.550343,-3.1921902,-0.19523098,0.10838573,-0.378137,28.5625,29.9375,28.875,32.6875,35.125,36.25
0.16005374,-0.43998963,-0.89570004,-2.0351555,-0.025666315,0.05498793,-0.16620855,-0.3946809,-0.36622605,0.059986968,3.0784082,-0.6254215,0.00014474895,-0.069886,0.031755865,0.0017328777,-0.0075638248,0.0036909662,-0.0035985275,0.495616,-1.3768663,1.8983783,-2.090954,-1.5704197,2.470956,-0.12048209,0.058955174,-0.07620537,0.010421893,0.004770389,-0.1168512,-0.15322891,0.095768064,-9.461885,0.779936,47.70211,-0.90273225,-2.5234869,-3.1535459,-0.20901272,0.11420823,-0.34155875,28.5625,29.9375,28.875,32.6875,35.125,36.25
0.16205354,0.29472607,-0.431735,-1.8926585,-0.025099777,0.06184117,-0.1756447,-0.3948292,-0.36615193,0.05997763,3.0783954,-0.62543285,0.00018450191,-0.07091601,0.031970248,0.0021477004,-0.008092709,0.0043510147,0.0026575725,0.49534047,-1.3767219,1.8982228,-2.0909302,-1.5703958,2.4706893,-0.121841565,0.059337314,-0.07766726,0.010675501,0.004920542,-0.12446645,-0.076614454,0.0,-9.442732,0.78888994,47.685097,-1.0146035,-2.407175,-3.2399225,-0.20168087,0.13449368,-0.29656157,28.5625,29.9375,28.875,32.6875,35.125,36.25
0.16405329,-0.2228089,-0.59769857,-1.8465118,-0.0238821,0.049629893,-0.16600949,-0.39495087,-0.366065,0.059945434,3.078477,-0.6254442,0.00022251166,-0.07214834,0.031994633,0.00237772,-0.00901812,0.005332234,0.009286569,0.49511233,-1.3765656,1.8981026,-2.090895,-1.5704435,2.470458,-0.12319074,0.060251895,-0.07910756,0.009894232,0.0052568037,-0.13244468,-0.076614454,0.15322891,-9.385271,0.80679786,47.683304,-1.0385866,-2.5117583,-3.1050563,-0.2208122,0.10340065,-0.21537791,28.5625,29.9375,28.875,32.6875,35.125,36.25
0.16605332,-0.24212897,-0.8787324,-1.8844345,-0.021510974,0.047562417,-0.16701794,-0.39507988,-0.36601678,0.05995732,3.0784569,-0.6253248,0.0002584037,-0.07303797,0.03380008,0.0014359754,-0.008120047,0.0038252028,0.009088112,0.4948834,-1.3764572,1.8979362,-2.0908473,-1.5703958,2.4701571,-0.12696691,0.06120206,-0.07804055,0.009638751,0.005187495,-0.13602251,0.038307227,0.15322891,-9.308656,0.82694155,47.68599,-1.0333629,-2.4295921,-3.17801,-0.19106624,0.13305174,-0.12229338,28.5625,29.9375,28.875,32.6875,35.125,36.25
0.16805421,-0.21728998,-0.80234504,-1.975205,-0.019507874,0.042327445,-0.16308536,-0.39526218,-0.3659459,0.059978783,3.0783973,-0.62530744,0.00014262785,-0.073156655,0.03157756,0.002802074,-0.009753168,0.0058035785,0.015318568,0.49459735,-1.3763489,1.897767,-2.0908825,-1.5703958,2.469868,-0.12360047,0.06157722,-0.08179217,0.010499324,0.0056951977,-0.13888524,0.15322891,0.21068975,-9.442732,0.77545905,47.65912,-1.139898,-2.440803,-3.1216187,-0.20158967,0.11846162,-0.0994415,28.5625,29.9375,28.875,32.6875,35.125,36.25
0.17005405,-0.736072,-0.8004182,-1.9699612,-0.018805072,0.023612028,-0.16123144,-0.39541903,-0.36586645,0.05997675,3.0783968,-0.62527376,0.00012977389,-0.07415851,0.033679437,0.001981386,-0.008714709,0.004377099,0.0070204507,0.49432018,-1.3762167,1.897612,-2.0908706,-1.5703958,2.46957,-0.12787065,0.06214845,-0.08061051,0.010496092,0.005463971,-0.13485734,0.1340753,0.15322891,-9.32781,0.7351769,47.685097,-0.9816081,-2.4240303,-3.1209846,-0.21786287,0.12776762,-0.096985385,28.5625,29.9375,28.875,32.6875,35.125,36.25
0.17205375,0.3646412,-0.5854217,-1.8843602,-0.022600813,0.04556166,-0.17022611,-0.39553922,-0.36580592,0.059972167,3.0783978,-0.6252557,0.00018481529,-0.07460033,0.032841228,0.0024284723,-0.009388733,0.004825439,0.0034844182,0.49409333,-1.376096,1.8974684,-2.0908225,-1.5703715,2.4693317,-0.1270631,0.063141726,-0.08295788,0.011137557,0.0058389916,-0.13051338,0.038307227,0.15322891,-9.404425,0.75084364,47.686886,-1.1848598,-2.4130397,-3.1564412,-0.21253157,0.13133118,-0.13298579,28.5625,29.9375,28.875,32.6875,35.125,36.25
0.17405365,-0.34578112,-1.0339357,-2.0205426,-0.020119015,0.022572255,-0.16333824,-0.3957177,-0.3657572,0.05999514,3.078309,-0.6253364,8.17209e-05,-0.076042555,0.033503424,0.002743203,-0.010083137,0.005781999,-0.0035589533,0.49384093,-1.3759638,1.8972648,-2.0908468,-1.5703596,2.469141,-0.12954985,0.063451335,-0.08393282,0.010632384,0.006007363,-0.12595595,0.095768064,0.22984336,-9.461885,0.80456203,47.69763,-1.1150463,-2.4102764,-3.1564236,-0.21922278,0.11344512,-0.21415468,28.5625,29.9375,28.875,32.6875,35.125,36.25
0.17605405,-0.71424043,-1.4439573,-2.0382516,-0.017569669,0.027750492,-0.15493684,-0.39587113,-0.3656925,0.060000192,3.078321,-0.62526315,0.00013513937,-0.07641447,0.03382818,0.0024553062,-0.009888067,0.005257673,-0.008321531,0.49357718,-1.3758075,1.8970488,-2.0907629,-1.5703357,2.46883,-0.13043992,0.06427709,-0.08428634,0.010717255,0.0060821846,-0.122083455,-0.038307227,0.21068975,-9.442732,0.78888994,47.687782,-1.1712685,-2.3472846,-3.147481,-0.20825842,0.116985515,-0.27062073,28.5625,29.9375,28.875,32.6875,35.125,36.25
0.17805406,0.18002407,-0.962781,-1.9683173,-0.031285048,0.054876488,-0.17691256,-0.39601782,-0.3656135,0.060007196,3.0783098,-0.6253004,7.06619e-05,-0.07688254,0.034733247,0.0017971691,-0.009003482,0.0032449805,-0.012548431,0.4933252,-1.3757108,1.8969182,-2.0907624,-1.5703596,2.468603,-0.13246533,0.06576543,-0.08484812,0.0119795585,0.00626387,-0.11988166,-0.019153614,0.076614454,-9.442732,0.84708,47.694946,-1.1533315,-2.358527,-3.2342591,-0.23582174,0.12478781,-0.32128096,28.5625,29.9375,28.875,32.6875,35.125,36.25
0.18005392,-0.9654931,-0.94812864,-1.9938812,-0.04091297,0.041148514,-0.17047109,-0.39615467,-0.36554438,0.060008667,3.0783014,-0.6253177,0.00015222229,-0.07730559,0.035306085,0.001831732,-0.008785156,0.002982422,-0.014739837,0.4930613,-1.3755786,1.8967389,-2.0906785,-1.5703229,2.468351,-0.13373274,0.065802515,-0.08510586,0.012540853,0.006193834,-0.118957765,-0.11492168,0.076614454,-9.481039,0.8247004,47.71286,-1.2084042,-2.3797147,-3.2780118,-0.25184274,0.10674054,-0.38707647,28.5625,29.9375,28.875,32.6875,35.125,36.25
0.18205377,-0.32764065,-1.1157074,-1.7912107,-0.03487701,0.07251343,-0.1592912,-0.39628762,-0.36546394,0.059985004,3.078296,-0.62541336,0.00020795636,-0.078268506,0.035657927,0.001453908,-0.009367127,0.0020346995,-0.018220244,0.4927973,-1.3754348,1.8966192,-2.0906665,-1.570311,2.4681473,-0.13575894,0.06750883,-0.08628968,0.012577012,0.0071496805,-0.11750432,-0.2681506,0.22984336,-9.404425,0.85826975,47.713753,-1.1613264,-2.3674202,-3.2040224,-0.2585408,0.1041355,-0.4300221,28.5625,29.9375,28.875,32.6875,35.125,36.25
0.18405339,-0.84353673,-1.4173298,-2.081758,-0.025021067,0.072972216,-0.16747734,-0.39646426,-0.36541423,0.06000183,3.0782576,-0.6253659,0.00015014994,-0.07952739,0.036398776,0.001447457,-0.009881864,0.002087981,-0.019145785,0.4925451,-1.3752776,1.8963917,-2.0906546,-1.5702986,2.4678705,-0.13837115,0.068263985,-0.08713594,0.012380208,0.007584521,-0.11919068,-0.21068975,0.17238253,-9.404425,0.8224646,47.70032,-1.1000197,-2.4070268,-3.2567272,-0.26905546,0.099913545,-0.4952522,28.5625,29.9375,28.875,32.6875,35.125,36.25
0.18605368,-1.2157441,-0.6988167,-1.799285,-0.028412253,0.076560855,-0.16600147,-0.39661968,-0.36534318,0.059995435,3.078217,-0.62543166,0.00015941811,-0.080430046,0.036240347,0.001849385,-0.01097806,0.002880977,-0.015159659,0.49226928,-1.3751341,1.8962358,-2.0906546,-1.5702747,2.4676409,-0.13924682,0.06872834,-0.08855051,0.012118434,0.008176434,-0.12405248,-0.3256114,0.19153613,-9.461885,0.8291774,47.685097,-1.1148475,-2.34224,-3.2951407,-0.27972567,0.10607499,-0.5018998,28.5625,29.9375,28.875,32.6875,35.125,36.25
0.18805361,-1.2434348,-0.64691955,-1.6475251,-0.030074123,0.09313092,-0.1683522,-0.39676645,-0.36528033,0.06000188,3.0781631,-0.6254348,0.00020870459,-0.081607655,0.037234493,0.0016907349,-0.010845934,0.0029433784,-0.008075889,0.4919927,-1.3750128,1.8960689,-2.0906184,-1.5702146,2.4673731,-0.14185807,0.06943845,-0.088982075,0.011862412,0.00803453,-0.13374697,-0.40222588,0.05746084,-9.481039,0.78888994,47.690468,-0.9591078,-2.3154552,-3.2561839,-0.29632792,0.08448861,-0.42428562,28.5625,29.9375,28.875,32.6875,35.125,36.25
0.19005334,-1.06093,-0.70344543,-1.7202666,-0.0153445555,0.11276563,-0.17719002,-0.39693508,-0.36519092,0.060015213,3.0781372,-0.62543976,0.00019235413,-0.08214372,0.037584085,0.00044379252,-0.01024681,0.0011889121,0.0026641826,0.49168158,-1.3749037,1.8959011,-2.090583,-1.5702027,2.4670684,-0.14307551,0.07239255,-0.08953417,0.011298999,0.00834081,-0.14570394,-0.38307226,0.076614454,-9.404425,0.8112748,47.696735,-1.1804445,-2.4312139,-3.3615932,-0.2869923,0.07719485,-0.36265457,28.5625,29.9375,28.875,32.6875,35.125,36.25
0.19205405,-0.54001874,-0.25557706,-1.6526448,-0.0102481395,0.13280985,-0.17487215,-0.39712068,-0.36512557,0.060044784,3.0781205,-0.6253778,7.9890684e-05,-0.08353031,0.036948957,0.0023897898,-0.012019137,0.004794549,0.0099411085,0.49141783,-1.3747729,1.8956732,-2.0905592,-1.5702266,2.4667683,-0.14312774,0.070984796,-0.09233889,0.011499032,0.008211033,-0.1530315,-0.5363012,-0.095768064,-9.442732,0.842603,47.72719,-1.2706728,-2.2214043,-3.2831001,-0.28680953,0.07464546,-0.24406391,28.5625,29.9375,28.875,32.6875,35.125,36.25
0.19405396,-1.5357441,-0.4655627,-1.3657937,0.0003844064,0.11579992,-0.16012739,-0.39726457,-0.36504787,0.060000632,3.0781457,-0.6253582,0.0001788962,-0.083352506,0.03843959,0.0008225961,-0.010337203,0.0019230937,0.012691097,0.4911416,-1.3745683,1.8955306,-2.0905592,-1.5702027,2.4664767,-0.14535348,0.07237617,-0.090457916,0.011560984,0.008081019,-0.15800814,-0.5554548,-0.05746084,-9.346964,0.80456203,47.709274,-1.2832847,-2.1689765,-3.3427582,-0.3095768,0.07006113,-0.1689821,28.5625,29.9375,28.875,32.6875,35.125,36.25
0.19605398,-1.3455607,-0.7271686,-1.4585387,0.012727253,0.11765642,-0.1605369,-0.39742425,-0.36496451,0.060002975,3.0781329,-0.6252967,0.00019077782,-0.08437993,0.03866014,-0.0011048751,-0.009650029,-0.0010476,0.012480334,0.49084163,-1.3744453,1.8953737,-2.0905354,-1.5701789,2.46614,-0.14710206,0.07771816,-0.09230664,0.011015767,0.008873927,-0.15954521,-0.51714754,-0.038307227,-9.308656,0.8090337,47.71465,-1.2449356,-2.4106917,-3.395516,-0.3052558,0.054147027,-0.15800108,28.5625,29.9375,28.875,32.6875,35.125,36.25
0.1980538,-1.5375023,-0.08538933,-1.380273,0.0023844074,0.1028934,-0.16406609,-0.39763564,-0.36489466,0.06001632,3.0780602,-0.6253246,0.00012707867,-0.08624483,0.03928307,0.0009707581,-0.01092836,0.0028396104,0.0030345297,0.49051735,-1.3742671,1.8951343,-2.0905473,-1.5701545,2.4658425,-0.14933987,0.07514467,-0.09404402,0.011300998,0.008177445,-0.15233558,-0.57460845,-0.019153614,-9.32781,0.82694155,47.701214,-1.097874,-2.3529725,-3.1793427,-0.30745918,0.051925443,-0.1884024,28.5625,29.9375,28.875,32.6875,35.125,36.25
0.20005338,-1.1778619,-0.062132124,-1.5172834,0.0008308131,0.104273036,-0.15772043,-0.39779246,-0.3648233,0.06001348,3.0780537,-0.62530804,0.00016729538,-0.08787946,0.040901147,4.471412e-05,-0.009650742,0.0019124621,-0.0054810806,0.49024075,-1.3741102,1.8949436,-2.0904996,-1.5701312,2.4655564,-0.15306515,0.07753037,-0.09472055,0.011016996,0.0074830516,-0.14754394,-0.7278373,-0.15322891,-9.32781,0.79560274,47.704796,-1.1169099,-2.3285553,-3.4083354,-0.3091954,0.07054998,-0.24553254,28.5625,29.9375,28.875,32.6875,35.125,36.25
0.2020541,-0.6716565,-0.115508825,-1.1243243,-0.0031676425,0.12015787,-0.16747506,-0.397978,-0.36472428,0.060003154,3.0780282,-0.6254367,0.00016892323,-0.08823375,0.040261764,-1.1220481e-05,-0.009573518,0.0022856374,-0.007221458,0.48990604,-1.3739415,1.8947638,-2.0904872,-1.5701312,2.4653053,-0.15209803,0.07908387,-0.09641872,0.010870657,0.0072362293,-0.14483528,-0.80445176,-0.1340753,-9.212888,0.7530795,47.701214,-1.2307229,-2.342298,-3.3335624,-0.29810745,0.0705302,-0.30473024,28.5625,29.9375,28.875,32.6875,35.125,36.25
0.20405367,-1.0167406,-0.12605993,-1.4624845,0.0027265518,0.12261678,-0.17025842,-0.3981437,-0.36465576,0.06002981,3.0779905,-0.62536997,0.00016326497,-0.0895169,0.04009711,0.0009594748,-0.010720093,0.0036964675,-0.00837694,0.4896184,-1.3738322,1.8945597,-2.0904272,-1.570095,2.4649808,-0.15314308,0.0792084,-0.09891424,0.011463401,0.0075873737,-0.14472406,-0.7661445,-0.1340753,-9.270349,0.842603,47.693153,-1.2911105,-2.3365982,-3.1907334,-0.31017724,0.06462617,-0.33370048,28.5625,29.9375,28.875,32.6875,35.125,36.25
0.20605363,-0.9799509,-0.12830009,-1.4276341,0.0082291635,0.1280735,-0.16381946,-0.3983301,-0.3645589,0.059997674,3.077995,-0.62546676,0.00017864049,-0.09030369,0.040489666,0.0012741182,-0.010991865,0.0043328516,-0.009858364,0.4892945,-1.3736172,1.89438,-2.0904396,-1.5701073,2.464717,-0.15441716,0.07920127,-0.09964983,0.01151753,0.0075259744,-0.14451657,-0.7278373,-0.095768064,-9.212888,0.8291774,47.709274,-1.2558222,-2.2844105,-3.3202558,-0.31252912,0.0507427,-0.3662847,28.5625,29.9375,28.875,32.6875,35.125,36.25
0.20805417,-1.717996,-0.9148253,-1.4050646,0.010888256,0.11406703,-0.15012386,-0.39854157,-0.36450776,0.060043212,3.0778878,-0.6254428,5.978519e-05,-0.09057762,0.040965345,-0.00025300754,-0.0092260875,0.0017210272,-0.008491903,0.48899508,-1.3734837,1.8941177,-2.090439,-1.5700711,2.4644163,-0.15520464,0.08275131,-0.10051124,0.011974223,0.0072154375,-0.14666842,-0.51714754,-0.038307227,-9.193734,0.8179876,47.71286,-1.2941124,-2.4835825,-3.2885454,-0.31542027,0.053559802,-0.3805021,28.5625,29.9375,28.875,32.6875,35.125,36.25
0.21005388,-1.4238967,-1.0148851,-1.5701069,-0.007766753,0.111103676,-0.15352476,-0.39872402,-0.36437604,0.060017943,3.0779474,-0.62554574,0.00015022692,-0.09148991,0.041487664,0.0005822515,-0.008928806,0.0034492603,-0.003162491,0.48862362,-1.373292,1.8939255,-2.0903437,-1.5700954,2.4641016,-0.1561768,0.08190878,-0.10153368,0.012459818,0.006131269,-0.15296932,-0.40222588,0.038307227,-9.289502,0.83589023,47.694946,-1.3452469,-2.2908852,-3.206448,-0.3362229,0.077171996,-0.35707146,28.5625,29.9375,28.875,32.6875,35.125,36.25
0.21205366,-0.54805666,-0.49523592,-1.604328,-0.027365517,0.11063336,-0.17224197,-0.3988915,-0.36430618,0.060010724,3.077931,-0.6254779,0.0001239085,-0.0917162,0.042296816,-0.0013579336,-0.006991586,0.0002703433,0.0047653234,0.48834762,-1.3731333,1.8937587,-2.090367,-1.5700835,2.4637854,-0.15756132,0.0856988,-0.10165695,0.012519533,0.0059225094,-0.16228062,-0.2873042,0.038307227,-9.346964,0.8717007,47.696735,-1.310113,-2.3326766,-3.3791711,-0.34867424,0.08428922,-0.26961234,28.5625,29.9375,28.875,32.6875,35.125,36.25
0.21405356,-0.382817,-0.53374004,-1.6132795,-0.035685375,0.08622568,-0.17403504,-0.39907715,-0.36418042,0.059993826,3.0779803,-0.6255004,0.00019555117,-0.09426729,0.042611558,0.00066640956,-0.008887168,0.0042405333,0.01264733,0.48797593,-1.3729546,1.8935655,-2.0902836,-1.5700954,2.4634216,-0.16020215,0.08450533,-0.104853205,0.012521321,0.005722244,-0.17280261,-0.11492168,0.15322891,-9.404425,0.8112748,47.701214,-1.4042397,-2.448516,-3.1378603,-0.34485435,0.067377314,-0.1702156,28.5625,29.9375,28.875,32.6875,35.125,36.25
0.2160535,-0.7774051,-1.0693803,-1.7462857,-0.029755618,0.058868743,-0.17500813,-0.39923882,-0.36410925,0.059967645,3.077966,-0.6254746,0.00024820407,-0.09465426,0.042350765,0.00033606382,-0.008755631,0.0040644626,0.01746859,0.48768833,-1.372762,1.8933986,-2.0902956,-1.5700597,2.4631197,-0.1600335,0.0861323,-0.10599501,0.012264434,0.0056868596,-0.17745458,-0.19153613,0.17238252,-9.289502,0.800085,47.691364,-1.3559003,-2.3745751,-3.2133977,-0.31943065,0.08118311,-0.09685969,28.5625,29.9375,28.875,32.6875,35.125,36.25
0.21805425,-0.047589306,-1.1241457,-1.5686661,-0.02476961,0.060097646,-0.16271116,-0.39949265,-0.36400482,0.05999917,3.0779114,-0.62548614,0.000121727084,-0.09674682,0.043744218,-0.00025235736,-0.008598957,0.0032017932,0.011277587,0.48729157,-1.3725928,1.893123,-2.0902836,-1.5700716,2.4627373,-0.16435067,0.08873144,-0.10776263,0.012266595,0.0059675174,-0.17557944,-0.15322891,0.19153613,-9.346964,0.78217715,47.698532,-1.1382253,-2.5041983,-3.1467276,-0.3267163,0.091603465,-0.05374925,28.5625,29.9375,28.875,32.6875,35.125,36.25
0.22005405,-0.26503944,-1.0785619,-1.7777255,-0.024580292,0.039954305,-0.15860252,-0.39967844,-0.3639114,0.059987687,3.0779264,-0.62541544,0.00012350392,-0.09876852,0.044773374,0.0002686188,-0.008790024,0.004410573,0.0023296503,0.48696724,-1.3724124,1.8929318,-2.0902712,-1.5700716,2.462367,-0.16758701,0.08934677,-0.109740116,0.012470916,0.0055663968,-0.16986662,-0.05746084,0.19153613,-9.308656,0.78217715,47.694946,-1.1195737,-2.4071994,-3.090429,-0.33137363,0.102819785,-0.0945075,28.5625,29.9375,28.875,32.6875,35.125,36.25
0.22205423,1.0159068,-1.0376719,-1.77961,-0.034433752,0.0632454,-0.1610336,-0.39988872,-0.3638215,0.059989884,3.0778866,-0.6254886,0.00010737752,-0.099517606,0.045047633,-0.00017740247,-0.008692447,0.0035067312,-0.0068220166,0.48661962,-1.3722197,1.892692,-2.0902474,-1.5700597,2.4620702,-0.16885595,0.09122117,-0.111031465,0.012730086,0.0059037623,-0.16198337,-0.05746084,0.24899697,-9.3661175,0.78888994,47.692257,-1.0598607,-2.5763898,-3.0980651,-0.3365794,0.11078344,-0.19614436,28.5625,29.9375,28.875,32.6875,35.125,36.25
0.22405414,0.07410374,-1.1406574,-1.6837997,-0.05000928,0.054929115,-0.15594898,-0.40004846,-0.36373046,0.05998325,3.077886,-0.6254719,0.0001618389,-0.10040673,0.04503913,0.00019252783,-0.010110968,0.0037851913,-0.014540899,0.4863076,-1.3720754,1.8925246,-2.0901997,-1.5700349,2.461748,-0.17027172,0.09158494,-0.11231985,0.012743093,0.007020464,-0.15568104,-0.1340753,0.2681506,-9.32781,0.85155696,47.675243,-1.0077853,-2.5523472,-3.11172,-0.3251925,0.10762747,-0.26368842,28.5625,29.9375,28.875,32.6875,35.125,36.25
0.22605322,-0.0038457918,-1.5981565,-1.8825468,-0.04690425,0.06687023,-0.16078392,-0.40026367,-0.3636412,0.05997325,3.0778773,-0.6255278,0.00013644302,-0.10177698,0.045785133,0.00033855604,-0.010186132,0.0040398147,-0.01961057,0.48597196,-1.3718468,1.8922724,-2.0901868,-1.5700473,2.4614484,-0.17264734,0.09248132,-0.113814734,0.013080288,0.0069687325,-0.15298621,-0.095768064,0.2681506,-9.3661175,0.7978386,47.6421,-1.1373674,-2.5731196,-3.038696,-0.3300794,0.094567746,-0.33446968,28.5625,29.9375,28.875,32.6875,35.125,36.25
0.22805423,-0.13469581,-1.2672055,-1.8786949,-0.063409835,0.075696245,-0.1581904,-0.4004862,-0.36355686,0.06000548,3.077759,-0.62565875,8.473802e-05,-0.10166895,0.045510832,0.00020844024,-0.00978891,0.0036710969,-0.023056457,0.48560077,-1.3717026,1.892022,-2.090163,-1.5699991,2.461174,-0.17190239,0.09328797,-0.11460416,0.013582246,0.006802439,-0.1487943,0.0,0.2873042,-9.5385,0.87393653,47.686886,-1.1978353,-2.5108442,-3.0664647,-0.3375106,0.108345,-0.43406624,28.5625,29.9375,28.875,32.6875,35.125,36.25
0.23005395,-0.24558628,-1.4431846,-1.8163155,-0.06521668,0.08030316,-0.16176026,-0.40069643,-0.36346477,0.059996743,3.0777688,-0.62569714,8.881306e-05,-0.10277283,0.046177745,0.00014001787,-0.010138626,0.0035551058,-0.023529187,0.48526484,-1.3714739,1.8917588,-2.0901153,-1.570011,2.460861,-0.17416185,0.094174206,-0.11551597,0.013547848,0.007165381,-0.15058102,-0.076614454,0.34476504,-9.3661175,0.8291774,47.70032,-1.1448994,-2.5038748,-3.0604365,-0.34932902,0.09782846,-0.507938,28.5625,29.9375,28.875,32.6875,35.125,36.25
0.23205368,-0.05535546,-1.0880367,-2.0602028,-0.05972745,0.07567732,-0.16580355,-0.4008742,-0.3633684,0.05996114,3.0777738,-0.6257317,0.00017243117,-0.10418768,0.04726174,0.00032390998,-0.010881174,0.0037520272,-0.017881079,0.48492843,-1.3712577,1.8915795,-2.0901034,-1.5699867,2.4605455,-0.17753367,0.09433906,-0.11613772,0.013495097,0.007728428,-0.15960164,-0.095768064,0.24899697,-9.423578,0.8537928,47.713753,-1.1273307,-2.498334,-3.1467934,-0.3435886,0.12047428,-0.4573895,28.5625,29.9375,28.875,32.6875,35.125,36.25
0.23405436,0.12388873,-0.9808811,-2.0085952,-0.044950977,0.06345354,-0.16912772,-0.40106675,-0.36328173,0.059964195,3.0777276,-0.6257337,0.00020607488,-0.10476817,0.047844503,-9.553063e-05,-0.011184132,0.0032250222,-0.0071419175,0.48458058,-1.3710892,1.891364,-2.090068,-1.5699385,2.4602048,-0.17928302,0.09512664,-0.1160062,0.012919509,0.008251558,-0.17209052,0.019153614,0.21068975,-9.615114,0.81351066,47.687782,-1.0170382,-2.5591335,-3.1391344,-0.33912617,0.110664345,-0.3830579,28.5625,29.9375,28.875,32.6875,35.125,36.25
0.23605333,0.07329309,-1.0218318,-1.8211771,-0.030763723,0.059117533,-0.1552332,-0.4013228,-0.36317518,0.059986785,3.0776544,-0.6257889,9.0618014e-05,-0.10671784,0.048251227,0.0009691603,-0.01205104,0.00563328,0.0021144522,0.48417258,-1.3709091,1.8911008,-2.09008,-1.5699385,2.4598408,-0.18140423,0.09513178,-0.11842074,0.0128075555,0.007918323,-0.18346612,-0.05746084,0.11492168,-9.500193,0.83589023,47.686886,-0.89702964,-2.4716864,-3.286592,-0.3326912,0.10464845,-0.24935605,28.5625,29.9375,28.875,32.6875,35.125,36.25
0.23805407,-0.39186582,-0.39370468,-1.7033188,-0.023890868,0.055720687,-0.17000034,-0.40150443,-0.36308795,0.05997349,3.0776832,-0.6257527,0.00019056987,-0.10673282,0.049666807,-0.0013935376,-0.010205566,0.0017751553,0.0060860123,0.4838488,-1.3706918,1.8908504,-2.0899842,-1.5699147,2.4594908,-0.1838319,0.09846899,-0.116923794,0.012258754,0.008076523,-0.18986605,-0.11492168,0.0,-9.461885,0.85155696,47.68599,-1.0097463,-2.4835997,-3.2143207,-0.3400017,0.10078964,-0.18321803,28.5625,29.9375,28.875,32.6875,35.125,36.25
0.24005397,-0.41210994,-0.15857585,-1.7997934,-0.006051108,0.072456926,-0.17083351,-0.40173155,-0.3630041,0.059977334,3.077636,-0.62562615,0.00011445056,-0.106599905,0.04846913,0.00041414055,-0.012601602,0.0040568924,0.0062528094,0.4834901,-1.3704991,1.890623,-2.0900319,-1.5698904,2.4590592,-0.18227074,0.09590651,-0.11814074,0.012906691,0.009153156,-0.18847202,-0.13407528,-0.019153614,-9.595961,0.800085,47.707485,-1.1164304,-2.536244,-3.249967,-0.3353337,0.09908667,-0.14143531,28.5625,29.9375,28.875,32.6875,35.125,36.25
0.24205416,0.09796376,0.34053814,-1.6373651,-0.0055901026,0.10759483,-0.16839115,-0.40195495,-0.36291596,0.059987616,3.0776024,-0.6256798,7.2067014e-05,-0.106516406,0.0489209,-0.0014417953,-0.011275209,0.0010904621,-0.00078666036,0.48314273,-1.370295,1.8903483,-2.089996,-1.5698904,2.4587498,-0.18300334,0.0992958,-0.11789092,0.012507971,0.009362231,-0.18216458,-0.21068975,-0.05746084,-9.481039,0.80456203,47.71465,-1.0916734,-2.52077,-3.3412144,-0.33549607,0.083254896,-0.19473973,28.5625,29.9375,28.875,32.6875,35.125,36.25
0.24405393,-1.0259081,-0.3533693,-1.8668393,0.021053083,0.089158304,-0.1583501,-0.40212148,-0.36280358,0.05994784,3.0776193,-0.62568533,0.00019516163,-0.10681688,0.049438786,-0.00046296124,-0.011614025,0.002891306,-0.006700688,0.48278308,-1.3701037,1.8902053,-2.0899723,-1.5698546,2.4583914,-0.18373744,0.096989006,-0.11739989,0.0125789335,0.008813761,-0.17698543,-0.22984336,-0.21068975,-9.519346,0.842603,47.698532,-1.1938145,-2.5213563,-3.406458,-0.31269616,0.09274383,-0.28230652,28.5625,29.9375,28.875,32.6875,35.125,36.25
0.24605359,-0.41950938,0.2626257,-1.5643121,0.0085337,0.10376962,-0.17128655,-0.4023837,-0.36270773,0.05996479,3.0775664,-0.62578887,0.0001373099,-0.10722416,0.048260577,-0.00043899936,-0.012294036,0.0027357663,-0.00777228,0.48238826,-1.3698627,1.8898686,-2.0899246,-1.5698541,2.4580681,-0.18243404,0.09926094,-0.12028116,0.0130097605,0.009493245,-0.17460923,-0.28730422,-0.17238252,-9.404425,0.86498255,47.71823,-1.2530806,-2.4964862,-3.2791374,-0.3000549,0.090290785,-0.3348785,28.5625,29.9375,28.875,32.6875,35.125,36.25
0.24805324,-0.31942073,0.32490465,-1.575572,0.017394358,0.104264244,-0.16664578,-0.4025878,-0.36262307,0.059961803,3.0775237,-0.625702,0.00017094832,-0.10745322,0.050120816,-0.001148226,-0.010651377,0.0015691607,-0.00983398,0.48202786,-1.3696705,1.8896435,-2.0899122,-1.569795,2.457659,-0.18513176,0.099032424,-0.11846688,0.013236959,0.008589912,-0.17524509,-0.3256114,-0.22984336,-9.423578,0.87393653,47.701214,-1.1910686,-2.4111378,-3.5784836,-0.3100696,0.08803921,-0.35891938,28.5625,29.9375,28.875,32.6875,35.125,36.25
0.2500538,-0.24394079,-0.101510614,-1.7291198,0.022874024,0.0959395,-0.16684298,-0.40279016,-0.3625217,0.059966113,3.0775237,-0.6257177,0.00011810772,-0.109393924,0.050337855,-0.0002473251,-0.011353103,0.0036934763,-0.006970959,0.48169225,-1.3695022,1.8894275,-2.0898883,-1.5698189,2.4573333,-0.18691948,0.09968755,-0.12130549,0.013217092,0.0082306415,-0.17989418,-0.26815057,-0.30645782,-9.481039,0.84708,47.70659,-1.1211812,-2.4612932,-3.3977964,-0.3034934,0.087016925,-0.3736684,28.5625,29.9375,28.875,32.6875,35.125,36.25
0.25205353,-0.3330115,-0.40799472,-1.9446774,0.017988048,0.08221519,-0.16507566,-0.40303278,-0.36238918,0.05997133,3.0775115,-0.62578565,9.175898e-05,-0.11032372,0.050216258,-6.393274e-05,-0.011435651,0.004352442,8.22358e-05,0.48126122,-1.3693098,1.8891753,-2.0898402,-1.5698308,2.4569464,-0.18730523,0.10097501,-0.1232954,0.013306206,0.008005236,-0.18733193,-0.28730422,-0.17238252,-9.461885,0.7866488,47.70211,-1.3391696,-2.261872,-3.3871617,-0.29478776,0.08880992,-0.30768475,28.5625,29.9375,28.875,32.6875,35.125,36.25
0.2540535,-1.0377136,-0.99820757,-1.7361852,0.006753799,0.07860527,-0.16083166,-0.40324196,-0.36230737,0.059959617,3.077475,-0.62573373,0.00015302438,-0.11068045,0.049932163,0.00063473143,-0.011926829,0.005114676,0.011764391,0.48090103,-1.3690814,1.888924,-2.0898159,-1.5697707,2.4565585,-0.18711251,0.100688726,-0.12476002,0.014178996,0.0080973655,-0.19882108,-0.38307226,-0.019153614,-9.500193,0.8627467,47.70032,-1.4026465,-2.4597795,-3.3692286,-0.29964423,0.10309258,-0.20133057,28.5625,29.9375,28.875,32.6875,35.125,36.25
0.256054,-0.53777903,-0.44350153,-1.8314931,-0.031508736,0.109954946,-0.1724312,-0.4034341,-0.3622102,0.059961,3.0774658,-0.62568986,0.00017845865,-0.11157223,0.05078519,0.00046178998,-0.011242787,0.0047696363,0.016451668,0.48055258,-1.3689133,1.8887094,-2.0897677,-1.5697469,2.456184,-0.18898962,0.10163921,-0.1256471,0.014753465,0.007657079,-0.20538473,-0.4405331,0.095768064,-9.500193,0.87617236,47.701214,-1.4981446,-2.2359073,-3.4641206,-0.313118,0.102845,-0.0974139,28.5625,29.9375,28.875,32.6875,35.125,36.25
0.2580542,-0.55319816,-0.51076967,-2.0387046,-0.0413006,0.11145101,-0.1774903,-0.40367106,-0.36208487,0.059947792,3.0774772,-0.62567466,0.00019443348,-0.113084294,0.051713683,8.3467e-05,-0.0105240885,0.004078514,0.013027844,0.48013183,-1.3686839,1.8884577,-2.089732,-1.5697469,2.4557524,-0.1915988,0.103934065,-0.12771097,0.015471166,0.0073367273,-0.20456888,-0.22984336,0.11492168,-9.5385,0.89631605,47.705692,-1.363087,-2.5506933,-3.403914,-0.32542223,0.11982076,-0.055185158,28.5625,29.9375,28.875,32.6875,35.125,36.25
0.260054,-1.0885658,-1.5753294,-1.9901952,-0.04776383,0.089676216,-0.16461794,-0.4039137,-0.3619978,0.059969805,3.0774426,-0.6256163,0.000108594635,-0.11463027,0.05311633,0.0005191021,-0.0113277435,0.0043197223,0.0031289554,0.47977057,-1.3684798,1.8881587,-2.0897076,-1.5697464,2.4553592,-0.19560672,0.103528686,-0.1283344,0.015909942,0.0079513425,-0.19867778,-0.4405331,0.30645782,-9.653421,0.82022345,47.705692,-1.3253262,-2.3707461,-3.3675227,-0.31036037,0.113023415,-0.12823159,28.5625,29.9375,28.875,32.6875,35.125,36.25
0.26205376,-0.8806719,-1.9354513,-1.8848697,-0.07099012,0.09255354,-0.16789775,-0.40416685,-0.36191693,0.06000317,3.0773344,-0.6256176,5.252621e-05,-0.116065755,0.05355235,0.00047118316,-0.011389615,0.004518398,-0.0073880763,0.47937417,-1.3682871,1.8878473,-2.0896833,-1.5696868,2.4549775,-0.197484,0.10530938,-0.13038337,0.01597967,0.007925662,-0.19003627,-0.45968673,0.30645782,-9.481039,0.8493211,47.694054,-1.3921822,-2.2723618,-3.3755956,-0.30966687,0.107785374,-0.22312158,28.5625,29.9375,28.875,32.6875,35.125,36.25
0.26405334,-0.8614421,-2.0715895,-2.1841927,-0.06105683,0.08390637,-0.16444011,-0.40435582,-0.36177608,0.059967812,3.0773823,-0.625729,0.00015698909,-0.11680624,0.053659517,0.00052088854,-0.011275081,0.005157531,-0.014964391,0.4789776,-1.3680826,1.8876675,-2.0896122,-1.5696987,2.4546444,-0.19798158,0.1061906,-0.13150698,0.015702862,0.0075068823,-0.18295741,-0.3256114,0.36391866,-9.653421,0.8560339,47.67166,-1.3194392,-2.3589354,-3.3666115,-0.2917403,0.112811655,-0.31981665,28.5625,29.9375,28.875,32.6875,35.125,36.25
0.26605412,-1.0394478,-1.8338588,-2.1342561,-0.06999445,0.08687775,-0.16588679,-0.40461347,-0.36165223,0.059976626,3.0773487,-0.6258783,9.074355e-05,-0.11852703,0.054276496,0.00096803677,-0.011618554,0.006738464,-0.021867868,0.47855693,-1.3678662,1.887381,-2.0895765,-1.569723,2.4543214,-0.20016955,0.10686878,-0.13323642,0.015188295,0.0070856903,-0.17824058,-0.34476504,0.38307226,-9.730036,0.81351066,47.68599,-1.2553658,-2.2716067,-3.334272,-0.28790706,0.13379964,-0.42266753,28.5625,29.9375,28.875,32.6875,35.125,36.25
0.2680538,-0.860373,-1.9424132,-1.7988513,-0.0674609,0.089820266,-0.16895244,-0.40486285,-0.3615642,0.059996918,3.077318,-0.62577593,-3.781128e-05,-0.12011235,0.05404191,0.0012237813,-0.012634568,0.007656896,-0.022418715,0.47819683,-1.3676614,1.887093,-2.0895884,-1.5697354,2.4539015,-0.20136791,0.10880558,-0.13605815,0.014789586,0.007579545,-0.1788864,-0.40222588,0.30645782,-9.500193,0.84484416,47.658226,-1.208139,-2.3847318,-3.2025962,-0.28048998,0.14421271,-0.4978276,28.5625,29.9375,28.875,32.6875,35.125,36.25
0.2700537,-0.37924471,-1.0724305,-1.6948907,-0.07027083,0.10460843,-0.19127624,-0.4051348,-0.36144856,0.06001061,3.0772243,-0.6259411,-6.0069095e-05,-0.1223873,0.053844947,0.0025121775,-0.014883158,0.010547491,-0.013966681,0.47774032,-1.367433,1.8867811,-2.0895526,-1.5696987,2.45356,-0.20333439,0.109225474,-0.1393436,0.014072735,0.008261907,-0.18930367,-0.4405331,0.24899697,-9.461885,0.7933669,47.698532,-1.1734443,-2.2979524,-3.1872387,-0.26128924,0.14482379,-0.4336596,28.5625,29.9375,28.875,32.6875,35.125,36.25
0.27205333,-0.9220382,-1.24491,-1.6507599,-0.042510286,0.09934838,-0.17893222,-0.40533856,-0.36133075,0.05998638,3.0772424,-0.6258797,-1.9337107e-05,-0.122958526,0.054878183,0.0014650736,-0.014109925,0.008569367,-0.0016867927,0.4773555,-1.3672283,1.8865889,-2.0895412,-1.5696868,2.4531348,-0.20563345,0.111217454,-0.13941501,0.014284263,0.008498381,-0.2038827,-0.36391866,0.17238252,-9.385271,0.8672237,47.691364,-1.1455126,-2.4127045,-3.1516438,-0.2527192,0.14694795,-0.33426684,28.5625,29.9375,28.875,32.6875,35.125,36.25
0.27405336,-0.886071,-0.33183715,-1.4155619,-0.036185935,0.10352354,-0.18677145,-0.4056214,-0.36125457,0.060020413,3.077123,-0.6258521,-7.710296e-05,-0.124444515,0.05530955,0.0013167891,-0.014690223,0.00850502,0.0048147095,0.4769347,-1.3669873,1.8862184,-2.0895169,-1.5696148,2.452712,-0.20788895,0.11313485,-0.14135434,0.014123043,0.009074574,-0.21263815,-0.2681506,0.095768064,-9.461885,0.8403672,47.67793,-1.1084125,-2.3804116,-3.0939374,-0.24260855,0.1355533,-0.18778238,28.5625,29.9375,28.875,32.6875,35.125,36.25
0.27605328,-1.1713709,-0.49930295,-1.3580747,-0.010166133,0.08463871,-0.17415676,-0.4058741,-0.36112526,0.060002476,3.0771358,-0.62583464,-8.751698e-05,-0.12513773,0.055112805,0.0018696247,-0.01615505,0.008839017,0.0068758386,0.47650245,-1.366735,1.8859547,-2.0895045,-1.5696262,2.4522674,-0.20876339,0.11325917,-0.14288323,0.0145595735,0.010229463,-0.21557383,-0.40222588,0.076614454,-9.500193,0.84484416,47.657326,-1.0675383,-2.4427867,-3.081954,-0.23984262,0.13635346,-0.15687655,28.5625,29.9375,28.875,32.6875,35.125,36.25
0.2780541,-0.8020565,-0.2894669,-1.168575,-0.0041347775,0.08583338,-0.16967888,-0.40613857,-0.36104518,0.060047884,3.0770187,-0.6258133,-0.00019838619,-0.12501815,0.055501983,0.00011268695,-0.014174427,0.006190825,0.0021359678,0.4761064,-1.3665533,1.8856319,-2.0894926,-1.569578,2.451873,-0.20887592,0.11673027,-0.1430533,0.014531156,0.00971122,-0.21094444,-0.59376204,-0.076614454,-9.270349,0.842603,47.657326,-1.174328,-2.7053342,-3.0833678,-0.2138058,0.11223595,-0.17146793,28.5625,29.9375,28.875,32.6875,35.125,36.25
0.2800537,-0.7715098,-0.3427482,-1.2420735,0.011218521,0.09478684,-0.1735918,-0.40637696,-0.36093572,0.060039744,3.0769956,-0.6258311,-0.00017604059,-0.12624553,0.05490112,0.0020692744,-0.0156161515,0.0097542275,-0.005137215,0.4756988,-1.366314,1.8853563,-2.0894568,-1.5695542,2.4514797,-0.2086054,0.11522732,-0.14582579,0.014980141,0.009352736,-0.20339988,-0.61291564,-0.095768064,-9.251195,0.9164598,47.679718,-1.4697348,-2.4394274,-3.018858,-0.20458362,0.13484961,-0.24974695,28.5625,29.9375,28.875,32.6875,35.125,36.25
0.2820537,-0.50477463,-0.050496757,-1.2399416,0.011562686,0.105827264,-0.16921635,-0.40664762,-0.36082435,0.060057055,3.0769508,-0.62582433,-0.00023291916,-0.12498293,0.054749552,0.0005887231,-0.015254598,0.0063656336,-0.009369463,0.47526708,-1.3660849,1.8850349,-2.0894206,-1.5695418,2.4510496,-0.20789231,0.11690457,-0.14454116,0.015192991,0.010597657,-0.19845474,-0.36391866,-0.095768064,-9.193734,0.99031126,47.70211,-1.604496,-2.6876445,-3.1616216,-0.17740992,0.14246412,-0.35204223,28.5625,29.9375,28.875,32.6875,35.125,36.25
0.28405392,-0.65306264,0.17530088,-1.1363,0.0056008087,0.08907939,-0.17731641,-0.4068866,-0.3607028,0.060051337,3.076928,-0.62585807,-0.00023512631,-0.12529373,0.05559608,0.0001237496,-0.013856702,0.0053243525,-0.011138969,0.47484672,-1.3658684,1.8847836,-2.0893962,-1.5695304,2.4506533,-0.20901532,0.117899865,-0.14491645,0.016147045,0.009838541,-0.19780773,-0.2681506,-0.15322891,-9.193734,0.85155696,47.71017,-1.5179385,-2.4123585,-3.210061,-0.17855608,0.12234752,-0.39056063,28.5625,29.9375,28.875,32.6875,35.125,36.25
0.28605473,-0.64057124,-0.21596384,-1.1355218,-0.00042571398,0.07284928,-0.1697885,-0.407162,-0.3606155,0.060061153,3.0768535,-0.625899,-0.0002712862,-0.12680157,0.057426356,-0.00041146335,-0.012366734,0.0050015873,-0.009577427,0.4744375,-1.3655918,1.884425,-2.0893724,-1.5694946,2.4502792,-0.21257551,0.11925551,-0.14537388,0.016238479,0.008681967,-0.20292832,-0.15322891,-0.15322891,-9.078813,0.8537928,47.696735,-1.371093,-2.5501785,-3.226956,-0.17736804,0.15127975,-0.39911583,28.5625,29.9375,28.875,32.6875,35.125,36.25
0.2880537,-0.7082136,-0.26810735,-1.0681425,0.0044383425,0.05608834,-0.17962852,-0.40743503,-0.36046433,0.06004878,3.0768414,-0.625927,-0.00028415007,-0.12734555,0.057987913,-0.00050752144,-0.012087709,0.0047158124,0.0007046396,0.47394508,-1.3653513,1.8841628,-2.0893605,-1.5694946,2.449806,-0.21381152,0.11984063,-0.14597793,0.016658053,0.008584818,-0.21444608,-0.15322891,-0.19153613,-9.059659,0.8717007,47.70838,-1.3452413,-2.461864,-3.2923794,-0.16798861,0.1514925,-0.30716494,28.5625,29.9375,28.875,32.6875,35.125,36.25
0.2900537,0.24385497,-0.34092787,-1.2108818,0.010934104,0.04909613,-0.17939875,-0.40768528,-0.36036527,0.060064405,3.0768282,-0.6258026,-0.0003577132,-0.12802014,0.058718514,-0.0013140339,-0.011021914,0.003810871,0.01180983,0.47356048,-1.3651347,1.8838629,-2.0893366,-1.5694946,2.4493456,-0.21520545,0.12183542,-0.1465277,0.016525218,0.008080005,-0.22694416,-0.05746084,-0.17238252,-9.212888,0.86945957,47.682407,-1.3103914,-2.416186,-3.3659961,-0.13640994,0.1575757,-0.15026663,28.5625,29.9375,28.875,32.6875,35.125,36.25
0.29205352,0.1430799,-0.7737423,-1.236978,0.02981067,0.023599949,-0.16882274,-0.40790403,-0.3602158,0.060003646,3.0768702,-0.62584895,-0.00019903127,-0.13001266,0.059737723,-1.2765749e-05,-0.011901207,0.006149199,0.012096491,0.47310388,-1.364857,1.8836602,-2.0893009,-1.5694708,2.4489126,-0.21836351,0.12081263,-0.14838383,0.016936645,0.0077768127,-0.23038925,0.0,-0.19153613,-9.193734,0.90750587,47.72271,-1.2894704,-2.4026494,-3.245391,-0.11850118,0.17854145,-0.097468324,28.5625,29.9375,28.875,32.6875,35.125,36.25
0.29405355,0.91275257,-0.15514094,-1.1225811,0.011019418,0.033294447,-0.17163794,-0.408214,-0.3601368,0.060059536,3.0767872,-0.62572336,-0.00037762462,-0.13165367,0.061182972,-0.0006825297,-0.011589771,0.004706812,0.001298775,0.4726944,-1.3646173,1.883241,-2.089276,-1.5694588,2.4484355,-0.2223288,0.12312028,-0.14976133,0.017428432,0.008185408,-0.22355494,-0.13407528,-0.11492168,-9.078813,0.8314132,47.70211,-1.1304432,-2.4523878,-3.3906631,-0.11147462,0.17913654,-0.1180881,28.5625,29.9375,28.875,32.6875,35.125,36.25
0.29605386,0.46164006,-0.3901743,-1.3564596,0.013854866,0.023313599,-0.16441137,-0.40848163,-0.3600055,0.060078803,3.0767212,-0.62583154,-0.0004000912,-0.13379678,0.060763683,0.0023647854,-0.015144254,0.009722032,-0.010259134,0.4722259,-1.3644146,1.8829411,-2.0892165,-1.569434,2.448043,-0.22388706,0.12005895,-0.15310307,0.017741572,0.009062208,-0.2135544,-0.11492168,0.019153614,-9.059659,0.8537928,47.705692,-1.1134759,-2.2332466,-3.303588,-0.10467175,0.16901301,-0.22173743,28.5625,29.9375,28.875,32.6875,35.125,36.25
0.29805347,-0.055804897,-0.81125784,-1.5055118,0.011158368,0.031551335,-0.16844578,-0.4087065,-0.3598657,0.060046505,3.0767295,-0.6258962,-0.00030012763,-0.13269024,0.06271608,0.0005330943,-0.01222859,0.004759177,-0.020338867,0.47178122,-1.3641738,1.8827151,-2.0891678,-1.5694107,2.4476378,-0.22589734,0.12108966,-0.15074468,0.02009798,0.008714071,-0.20548639,-0.15322891,0.019153614,-9.155427,0.87393653,47.698532,-1.0090995,-2.212277,-3.3930817,-0.09808329,0.18401803,-0.35610425,28.5625,29.9375,28.875,32.6875,35.125,36.25
0.3000537,-0.4996022,-0.85569125,-1.5928106,-0.008987923,0.045990463,-0.17175937,-0.40897694,-0.35972926,0.06002329,3.0767317,-0.6259771,-0.00029434092,-0.13346587,0.06315762,0.0004951734,-0.011543508,0.0034886305,-0.025987858,0.4713246,-1.3638848,1.8824161,-2.089143,-1.5694226,2.4472315,-0.22716202,0.122753076,-0.15318768,0.022316692,0.008676243,-0.20110124,-0.21068975,0.038307227,-9.32781,0.83365434,47.670765,-0.9168606,-2.1820867,-3.372716,-0.1124426,0.19613484,-0.46510738,28.5625,29.9375,28.875,32.6875,35.125,36.25
0.30205375,-0.7041067,-0.90640247,-1.7321775,-0.024827775,0.077963345,-0.181829,-0.4092496,-0.35959148,0.06006362,3.0766878,-0.62600374,-0.00036788243,-0.13483335,0.06294096,0.0015418021,-0.012745501,0.0044557904,-0.024432313,0.47085658,-1.3637165,1.8821038,-2.0890586,-1.5694221,2.446786,-0.2282452,0.1232984,-0.15655445,0.023736283,0.009324062,-0.20373836,-0.3256114,0.019153614,-9.346964,0.90750587,47.66808,-0.99170524,-2.1161184,-3.268977,-0.11999403,0.21026358,-0.5006562,28.5625,29.9375,28.875,32.6875,35.125,36.25
0.3040536,-0.9543583,-0.7117994,-1.6575154,-0.040047355,0.106399745,-0.18891613,-0.4094946,-0.35949272,0.060039353,3.0766823,-0.6259932,-0.00026117117,-0.13522388,0.061737567,0.0020448628,-0.013904855,0.0049431245,-0.010158773,0.47044897,-1.3634039,1.8817681,-2.0889866,-1.569374,2.4463725,-0.22693563,0.12453098,-0.1593515,0.024369229,0.010142674,-0.21670185,-0.2681506,0.095768064,-9.442732,0.9455522,47.67166,-1.2470969,-2.1852489,-3.2139146,-0.12699002,0.18735114,-0.41484016,28.5625,29.9375,28.875,32.6875,35.125,36.25
0.30605364,-1.176682,-0.9111143,-1.9682525,-0.038650323,0.12814702,-0.18792735,-0.40975592,-0.35934785,0.060037106,3.0766504,-0.626055,-0.00020754352,-0.13383783,0.06223038,0.00032922684,-0.0126768695,0.0012757212,0.0036908374,0.4699573,-1.3631753,1.881483,-2.0889146,-1.5693377,2.4459236,-0.2268066,0.1258595,-0.15715046,0.024695557,0.0107336,-0.23042342,-0.38307226,0.19153613,-9.634268,0.8784135,47.693153,-1.368552,-2.1410427,-3.3467002,-0.123930015,0.18209814,-0.26974967,28.5625,29.9375,28.875,32.6875,35.125,36.25
0.3080535,-1.1689944,-1.1044556,-2.03955,-0.048631687,0.13877243,-0.19237706,-0.41003594,-0.35921112,0.060042243,3.0766804,-0.62600076,-0.00023093737,-0.13458593,0.062623,3.8931383e-05,-0.0124829,0.0007249366,0.00896846,0.4695003,-1.3629104,1.8811349,-2.0888307,-1.5693616,2.445429,-0.22803254,0.12735681,-0.158392,0.025026895,0.010819182,-0.23692642,-0.28730422,0.22984336,-9.710882,0.900793,47.705692,-1.3430288,-2.2152402,-3.2714887,-0.14214902,0.18012172,-0.1730071,28.5625,29.9375,28.875,32.6875,35.125,36.25
0.31005377,-1.1709709,-1.5295819,-2.4871154,-0.0526192,0.12075669,-0.17436406,-0.41030344,-0.3591002,0.06004914,3.0766046,-0.6259321,-0.00019434455,-0.13646689,0.06311081,0.00096131937,-0.012589678,0.0031567058,0.0033068052,0.46903205,-1.3626703,1.8808235,-2.0887954,-1.5692781,2.4449277,-0.22972049,0.12770274,-0.16092543,0.025019834,0.009815797,-0.23295128,-0.30645782,0.24899697,-9.80665,0.8940802,47.67614,-1.3086188,-2.1743166,-3.3545,-0.14041722,0.18947464,-0.15731382,28.5625,29.9375,28.875,32.6875,35.125,36.25
0.31205365,-0.8199924,-1.6366407,-2.5455203,-0.062260125,0.09610112,-0.18542705,-0.4105907,-0.35896567,0.06004008,3.0766253,-0.6259583,-0.00026507242,-0.13708343,0.063269734,7.098121e-05,-0.011717561,0.0023418681,-0.004038447,0.46858796,-1.362379,1.8804892,-2.088771,-1.5693263,2.4444976,-0.23012778,0.13044268,-0.16212775,0.024588097,0.009400925,-0.22601224,-0.34476504,0.2681506,-9.864111,0.90750587,47.704796,-1.3702209,-2.4295723,-3.281726,-0.12368729,0.19225615,-0.24846014,28.5625,29.9375,28.875,32.6875,35.125,36.25
0.31405348,-0.88763326,-1.6831609,-2.2751675,-0.07564666,0.08108963,-0.17798999,-0.41086137,-0.35885027,0.06004222,3.0765767,-0.62589353,-0.00026359558,-0.13798603,0.063640565,-0.00079084863,-0.011388736,0.0014386891,-0.010255942,0.46813166,-1.3621278,1.8801779,-2.0887473,-1.5692781,2.4440072,-0.23146239,0.13313168,-0.16330107,0.024034537,0.009515984,-0.22112823,-0.36391866,0.36391866,-9.80665,0.90527004,47.657326,-1.3609014,-2.2308297,-3.2827055,-0.12517153,0.21606186,-0.3298474,28.5625,29.9375,28.875,32.6875,35.125,36.25
0.31605348,0.018090323,-1.5974345,-2.3898895,-0.06887415,0.09564459,-0.18692891,-0.41113916,-0.3587065,0.060044043,3.0765622,-0.6259683,-0.00026386307,-0.13932014,0.064087935,-0.00033595785,-0.011347734,0.0034016925,-0.0133010335,0.4676515,-1.3618757,1.879855,-2.0886757,-1.5692786,2.4435756,-0.23265408,0.13347329,-0.16459873,0.023262119,0.008590152,-0.21927424,-0.34476504,0.24899697,-9.825804,0.87617236,47.65106,-1.3971401,-2.3452613,-3.3769357,-0.11458963,0.23149431,-0.39798728,28.5625,29.9375,28.875,32.6875,35.125,36.25
0.31805366,-0.22154035,-1.1210318,-2.1670022,-0.05883828,0.08606746,-0.19150908,-0.4114178,-0.3585725,0.060044967,3.0765698,-0.6259471,-0.00028751395,-0.1407369,0.06524651,-0.0015152305,-0.010500021,0.0018245836,-0.010125421,0.46719435,-1.3616099,1.8795208,-2.0886161,-1.5692905,2.4431045,-0.23566048,0.13678189,-0.16587229,0.023027515,0.008554458,-0.22545525,-0.21068975,0.17238252,-9.921572,0.9701675,47.64837,-1.333048,-2.4608173,-3.3297017,-0.104876585,0.2318885,-0.3878813,28.5625,29.9375,28.875,32.6875,35.125,36.25
0.3200536,-0.2477068,-0.923221,-2.2068741,-0.05585919,0.09490955,-0.1894409,-0.41170934,-0.3584701,0.0600657,3.076435,-0.6259325,-0.00031186585,-0.14184752,0.06673584,-0.0024318008,-0.0108331,2.3938741e-05,-0.001366129,0.46671343,-1.3613693,1.8791851,-2.0886166,-1.5691942,2.4426317,-0.23967105,0.13839728,-0.16569231,0.022731867,0.0097051,-0.23822425,-0.22984336,0.21068975,-9.787497,0.7978386,47.655537,-1.1890898,-2.447812,-3.422876,-0.09990446,0.25768247,-0.26893944,28.5625,29.9375,28.875,32.6875,35.125,36.25
0.32205352,-1.1717856,-1.0186226,-1.9564892,-0.03381437,0.0916779,-0.1683915,-0.41199347,-0.35833007,0.060048316,3.0764132,-0.6259445,-0.00028839,-0.14488958,0.067451775,-0.0006714531,-0.013628612,0.00320457,0.003423405,0.46621975,-1.361081,1.8788732,-2.0885923,-1.5691699,2.4421484,-0.2439852,0.13791807,-0.1691032,0.02254523,0.010780245,-0.24732688,-0.36391866,0.17238252,-9.595961,0.84484416,47.647476,-1.0985222,-2.5152009,-3.4191835,-0.080297664,0.23178428,-0.1423265,28.5625,29.9375,28.875,32.6875,35.125,36.25
0.3240534,-0.85572064,-1.0089995,-2.1249166,0.00957155,0.09159235,-0.17081463,-0.4122943,-0.3582018,0.060053527,3.0764022,-0.6258473,-0.000317367,-0.14450255,0.068348825,-0.0023089428,-0.012479331,-0.00016531712,0.0014441324,0.4657393,-1.360792,1.8785037,-2.0885441,-1.5691575,2.441609,-0.24531797,0.14007,-0.16809261,0.022915307,0.011281154,-0.24668016,-0.21068975,0.076614454,-9.576807,0.83589023,47.683304,-0.95277023,-2.67071,-3.5069792,-0.067684114,0.21788025,-0.104846075,28.5625,29.9375,28.875,32.6875,35.125,36.25
0.32605433,-0.51310027,-0.57182163,-1.9879909,0.007689925,0.08915903,-0.16723,-0.41260877,-0.35808247,0.060094398,3.0762815,-0.62592334,-0.00043073372,-0.14431109,0.06699823,-0.0014210814,-0.013618452,0.0011874482,-0.0055731274,0.46524808,-1.3605647,1.8781327,-2.0885203,-1.5691212,2.4411807,-0.24297363,0.13973185,-0.16980043,0.023239117,0.011706283,-0.2373167,-0.34476507,0.0,-9.634268,0.78888994,47.653748,-1.0252525,-2.2930226,-3.4024115,-0.054540597,0.22628437,-0.17297068,28.5625,29.9375,28.875,32.6875,35.125,36.25
0.32805434,-0.8572958,-0.9310518,-1.3607752,-0.0037572384,0.08760695,-0.163149,-0.41286367,-0.35793605,0.060059857,3.0763419,-0.62590307,-0.00035301075,-0.14496332,0.067853115,-0.0019845618,-0.012514268,0.0005345182,-0.017295135,0.46479192,-1.3602645,1.8778342,-2.0884483,-1.5691336,2.4407043,-0.24439459,0.14115688,-0.17030893,0.023389751,0.010980937,-0.22701621,-0.51714754,0.038307227,-9.2703495,0.83365434,47.690468,-1.1600296,-2.4440136,-3.4809923,-0.0428168,0.23885264,-0.2957618,28.5625,29.9375,28.875,32.6875,35.125,36.25
0.3300533,0.3375352,-0.3569194,-1.6319706,0.0042377305,0.10541409,-0.17793788,-0.4131903,-0.35779458,0.06007905,3.076267,-0.6260451,-0.00044170948,-0.14572869,0.06751332,-0.0021228497,-0.013241339,0.00010725713,-0.024884798,0.46427554,-1.359988,1.8774503,-2.0884125,-1.5691332,2.4402864,-0.24482043,0.14315633,-0.1724813,0.023610398,0.011825849,-0.21985048,-0.4213795,-0.095768064,-9.212888,0.88289046,47.691364,-1.2890172,-2.438573,-3.3680608,-0.017725114,0.2291583,-0.42495453,28.5625,29.9375,28.875,32.6875,35.125,36.25
0.33205345,-0.8762816,-0.32587627,-1.4759111,0.007831636,0.06777049,-0.17567137,-0.4134956,-0.35768807,0.060072776,3.0762017,-0.6260687,-0.0004388438,-0.14731357,0.0672602,-0.0010046284,-0.013938994,0.0021164734,-0.025948092,0.46380767,-1.3596519,1.8770555,-2.0883882,-1.5690855,2.4398417,-0.2454095,0.14380838,-0.17602591,0.02441029,0.011554634,-0.2193747,-0.24899697,-0.17238252,-9.232041,0.9030289,47.70032,-1.294145,-2.515452,-3.3313336,-0.0177042,0.24752519,-0.52084047,28.5625,29.9375,28.875,32.6875,35.125,36.25
0.33405417,-0.111138746,-0.10064206,-1.070632,-0.0061992244,0.080346115,-0.17483263,-0.413781,-0.35754666,0.060074084,3.076182,-0.6260577,-0.00048302492,-0.1482989,0.06768922,-1.1093167e-05,-0.014243829,0.0034723184,-0.015285346,0.46332738,-1.3594006,1.8767451,-2.088364,-1.5690855,2.4393573,-0.24663064,0.14308327,-0.1776806,0.025467465,0.011251834,-0.23125796,-0.21068975,-0.11492168,-9.040505,0.9164598,47.685097,-1.5142039,-2.3060126,-3.2921362,-0.016784694,0.2492875,-0.47038978,28.5625,29.9375,28.875,32.6875,35.125,36.25
0.33605462,-0.3477192,0.1508027,-1.2314793,0.014177825,0.05881229,-0.1801314,-0.4140652,-0.35741168,0.06007926,3.0761294,-0.62607807,-0.00042556794,-0.1495214,0.06774064,0.0010328104,-0.015291107,0.004405973,-0.0016234709,0.46282247,-1.3591367,1.876397,-2.0882795,-1.5690254,2.4388719,-0.24793054,0.14312816,-0.18047218,0.026954565,0.011799389,-0.24621885,-0.1340753,-0.15322891,-9.059659,0.92093146,47.681515,-1.4136487,-2.2756987,-3.197662,-0.030052159,0.23733458,-0.32315165,28.5625,29.9375,28.875,32.6875,35.125,36.25
0.33805358,0.35404596,0.4231387,-1.1745534,0.025263403,0.07619918,-0.18419272,-0.41436774,-0.3572664,0.060063563,3.0761158,-0.6260504,-0.00040299774,-0.14963768,0.06767124,0.001073647,-0.0145869665,0.0041990876,0.0071540494,0.46230713,-1.3588247,1.8760494,-2.0882432,-1.5690016,2.4383411,-0.24743113,0.14393678,-0.18182142,0.028022844,0.011280329,-0.25449666,-0.095768064,-0.076614454,-9.155427,0.9791215,47.685097,-1.4985703,-2.2117636,-3.164386,-0.005425185,0.25633028,-0.22553393,28.5625,29.9375,28.875,32.6875,35.125,36.25
0.3400535,-0.121984795,0.25149783,-1.4155508,0.017901242,0.062582456,-0.16948207,-0.4146827,-0.3571373,0.06008799,3.0760362,-0.6260782,-0.0004579824,-0.15111683,0.06922945,0.00028762905,-0.013660722,0.0025454606,-0.001485385,0.46180165,-1.3585606,1.8756655,-2.088195,-1.5689658,2.4378633,-0.2510864,0.14640051,-0.18322612,0.02886327,0.011201354,-0.249511,-0.13407528,0.019153614,-9.136273,0.90527004,47.717335,-1.3453474,-2.190426,-3.1367965,-0.01875683,0.26274237,-0.23278004,28.5625,29.9375,28.875,32.6875,35.125,36.25
0.34205362,0.2183184,-0.68768597,-1.4187558,0.0018186149,0.07127908,-0.16807714,-0.41498867,-0.35698622,0.060100865,3.0760374,-0.62608457,-0.00048388337,-0.15323633,0.07074142,0.002131102,-0.014841083,0.005208703,-0.011310696,0.46129623,-1.3582854,1.8752836,-2.0880988,-1.5689777,2.437362,-0.25517258,0.14405899,-0.18486707,0.029928586,0.011068473,-0.2437717,-0.24899697,0.038307227,-9.136273,0.91198283,47.754055,-1.297404,-2.2166793,-3.254078,-0.013776666,0.26185727,-0.31202546,28.5625,29.9375,28.875,32.6875,35.125,36.25
0.34405324,-0.13153593,-1.2415259,-1.6199619,-0.02318471,0.064037375,-0.16800809,-0.4152707,-0.35684237,0.060091376,3.076002,-0.6261385,-0.00038013258,-0.15310904,0.07239635,0.0011714656,-0.0128784105,0.0016732118,-0.017101841,0.46077943,-1.3579972,1.8749365,-2.088002,-1.5689176,2.4368834,-0.2575798,0.14515615,-0.18467899,0.032697752,0.010880087,-0.2403884,-0.38307226,0.15322891,-9.270349,0.86498255,47.696735,-1.1201959,-2.2331789,-3.1764884,-0.049621638,0.26018226,-0.39053345,28.5625,29.9375,28.875,32.6875,35.125,36.25
0.34605333,-1.0206156,-1.4601965,-1.9220144,-0.045298263,0.054491766,-0.1758719,-0.4155702,-0.35667285,0.060083665,3.0760334,-0.6261991,-0.0003857071,-0.15291648,0.072375804,0.0012931889,-0.013478915,-0.00033722137,-0.014929714,0.46026358,-1.3577093,1.8745884,-2.087917,-1.5689534,2.4364016,-0.25809926,0.14553106,-0.18600759,0.035182577,0.012316455,-0.24307957,-0.36391866,0.17238252,-9.308656,0.90750587,47.698532,-1.2039988,-2.0091891,-3.1593227,-0.0881342,0.2650245,-0.40779057,28.5625,29.9375,28.875,32.6875,35.125,36.25
0.3480534,-1.1380929,-1.2708424,-1.9597764,-0.056990307,0.069005065,-0.18067552,-0.4158765,-0.35651925,0.060074344,3.076016,-0.62632495,-0.00037082526,-0.15311104,0.07319257,0.0008625708,-0.011835539,-0.0018603449,-0.0066086804,0.45974755,-1.3573974,1.8742179,-2.087845,-1.5689539,2.4359665,-0.25899595,0.14673972,-0.18694988,0.037036162,0.011537134,-0.25229734,-0.38307226,0.21068975,-9.423578,0.94331104,47.686886,-1.1941286,-2.0486884,-3.2241817,-0.10989924,0.2813231,-0.32771957,28.5625,29.9375,28.875,32.6875,35.125,36.25
0.3500542,-0.839255,-1.4766221,-1.9682947,-0.048557173,0.10252492,-0.1729572,-0.41620386,-0.35640222,0.060110755,3.0759256,-0.62622315,-0.00040461004,-0.15320534,0.073929556,0.00027109458,-0.011427994,-0.0045153066,0.0042109382,0.45923102,-1.357121,1.8737863,-2.087773,-1.5688809,2.435398,-0.26065686,0.14808363,-0.18772292,0.039070524,0.012396653,-0.26477647,-0.34476504,0.17238252,-9.500193,0.9321212,47.686886,-1.1971276,-2.0456479,-3.3034296,-0.15642431,0.27314997,-0.19552247,28.5625,29.9375,28.875,32.6875,35.125,36.25
0.35205403,-1.2487128,-1.5503305,-1.9515342,-0.030614892,0.10584374,-0.16783042,-0.41650814,-0.35626042,0.06011182,3.075894,-0.6262367,-0.00036943436,-0.15461512,0.0742764,-0.00045494194,-0.011650965,-0.005681597,0.005230383,0.45871487,-1.3568207,1.8734034,-2.0876892,-1.5688447,2.4348946,-0.2626908,0.15144567,-0.19017805,0.03912986,0.013113314,-0.26782838,-0.28730422,0.2681506,-9.442732,0.8784135,47.704796,-1.2118263,-1.9950714,-3.3994079,-0.18401843,0.27379563,-0.10743625,28.5625,29.9375,28.875,32.6875,35.125,36.25
0.35405388,-0.5668735,-0.8001315,-2.2074285,-0.027697256,0.10560779,-0.17224053,-0.4168093,-0.35610068,0.060095772,3.0758905,-0.62624097,-0.00034515568,-0.15501739,0.07356476,-0.00031316647,-0.01323352,-0.004408419,-0.00174138,0.45818633,-1.3565203,1.8730673,-2.087642,-1.5688328,2.4343693,-0.26216918,0.15195304,-0.1907448,0.037340123,0.0139477225,-0.26033458,-0.22984336,0.13407528,-9.481039,0.9321212,47.698532,-1.2314525,-2.2363534,-3.3891497,-0.17017487,0.27547282,-0.1581534,28.5625,29.9375,28.875,32.6875,35.125,36.25
0.3560536,-0.36737624,-0.6721689,-1.6911341,-0.02919916,0.10419458,-0.17215946,-0.41710737,-0.3559398,0.060072828,3.075903,-0.6262873,-0.00027210955,-0.15465853,0.07380609,-0.0017781245,-0.011892804,-0.0073097725,-0.011214585,0.45765868,-1.3561952,1.8727087,-2.0875576,-1.5688208,2.4338691,-0.26214233,0.15478629,-0.19102825,0.03797749,0.013999262,-0.25083476,-0.5746084,0.095768064,-9.500193,0.8717007,47.683304,-1.3040593,-2.3320832,-3.3403919,-0.19775236,0.2709528,-0.2705338,28.5625,29.9375,28.875,32.6875,35.125,36.25
0.35805333,-0.30607545,0.07670388,-1.8433629,-0.027690286,0.09133184,-0.16994268,-0.41741863,-0.3557904,0.060073804,3.0758462,-0.62637895,-0.00022600545,-0.15484543,0.07401624,-0.0027545593,-0.010382791,-0.008644282,-0.020614007,0.45711797,-1.355895,1.8723258,-2.0874736,-1.5687732,2.433393,-0.26199865,0.15737903,-0.1920495,0.038273577,0.013214302,-0.24129121,-0.38307226,0.038307227,-9.423578,0.94331104,47.696735,-1.2969522,-2.3317142,-3.4193993,-0.20445795,0.2726487,-0.41340834,28.5625,29.9375,28.875,32.6875,35.125,36.25
0.3600541,-0.4343196,-0.3045238,-2.0527916,-0.004727232,0.06974183,-0.16789445,-0.41776723,-0.35563323,0.06010214,3.0757632,-0.62647563,-0.00032020223,-0.1555661,0.07340583,-0.0025085544,-0.011125136,-0.0077570328,-0.020890366,0.45655495,-1.3556188,1.8719181,-2.0874264,-1.5687608,2.4329011,-0.26155138,0.15868455,-0.19414476,0.037947726,0.013501323,-0.24056554,-0.34476507,0.019153614,-9.519346,0.8851263,47.6636,-1.4658144,-2.3289986,-3.4438972,-0.2431146,0.2754477,-0.511791,28.5625,29.9375,28.875,32.6875,35.125,36.25
0.3620541,0.32000148,-0.442817,-1.7040515,-0.016394237,0.09199034,-0.1754305,-0.4180932,-0.35549176,0.06008073,3.0757592,-0.62652415,-0.00027865797,-0.15741499,0.07443613,-0.0030186803,-0.011019385,-0.00810033,-0.010465721,0.4560378,-1.3552345,1.871487,-2.0873544,-1.5687488,2.432415,-0.264685,0.16133614,-0.19619365,0.037736755,0.013569412,-0.25412315,-0.21068975,0.038307227,-9.519346,0.9679317,47.677036,-1.4474311,-2.437255,-3.3419755,-0.2363267,0.2728889,-0.46236813,28.5625,29.9375,28.875,32.6875,35.125,36.25
0.36405417,-0.39238465,-0.33610627,-1.6011978,-0.031784575,0.091285646,-0.17624538,-0.41836962,-0.35532728,0.06006589,3.0757792,-0.62646484,-0.00017081553,-0.15869331,0.07579867,-0.0031726384,-0.011334713,-0.008366884,0.00081165775,0.45550868,-1.3549583,1.8711632,-2.0872467,-1.5687126,2.4318464,-0.26813173,0.16192156,-0.19657828,0.03768165,0.013977452,-0.26884788,-0.17238252,-0.038307227,-9.3661175,0.95226496,47.686886,-1.2891729,-2.4321706,-3.3688726,-0.25114566,0.2775734,-0.29275876,28.5625,29.9375,28.875,32.6875,35.125,36.25
0.3660539,-0.16740656,-0.33964905,-1.8465463,-0.017821522,0.09318766,-0.16730045,-0.41871887,-0.35517776,0.060090657,3.075713,-0.62650543,-0.00019493939,-0.15926479,0.07567851,-0.0026462814,-0.011303171,-0.007128981,0.0073739407,0.45494494,-1.3546464,1.8707093,-2.0871503,-1.5686768,2.4313166,-0.26786476,0.16210876,-0.19810459,0.03795539,0.013424351,-0.27514234,-0.11492168,-0.019153614,-9.461885,0.8717007,47.65912,-1.3305222,-2.3775172,-3.453629,-0.27087948,0.29363453,-0.17867796,28.5625,29.9375,28.875,32.6875,35.125,36.25
0.3680539,-0.57369506,-0.63283014,-1.5385294,-0.033275526,0.09301512,-0.16731946,-0.41905925,-0.35502902,0.060091257,3.0756779,-0.62652254,-0.00022801156,-0.16036464,0.075942054,-0.0024753346,-0.011944827,-0.0067933174,-0.00070689473,0.45440477,-1.3543081,1.8702892,-2.0871031,-1.5686649,2.4307919,-0.26928204,0.16316763,-0.19983858,0.03804244,0.013846721,-0.26847753,-0.30645782,0.05746084,-9.481039,0.9567419,47.694946,-1.5014158,-2.5009012,-3.3804502,-0.28414357,0.2909072,-0.2315726,28.5625,29.9375,28.875,32.6875,35.125,36.25
0.37005392,-0.8291052,-0.809094,-1.2943584,-0.038487885,0.088194706,-0.16614306,-0.41937032,-0.3548925,0.060093474,3.0756269,-0.6265376,-0.00020042002,-0.16217071,0.076565,-0.0024942674,-0.012000806,-0.005627317,-0.011249409,0.45388782,-1.3539977,1.8698934,-2.0870316,-1.5686167,2.430291,-0.2713515,0.16500168,-0.2018533,0.037154447,0.01336715,-0.2600035,-0.36391866,0.19153613,-9.270349,0.9030289,47.65912,-1.3799589,-2.3973696,-3.350957,-0.29927337,0.29134423,-0.31972212,28.5625,29.9375,28.875,32.6875,35.125,36.25
0.37205395,-0.09548549,-0.80506516,-1.5384816,-0.025362544,0.09677301,-0.16728409,-0.4196898,-0.35472304,0.06006607,3.0756211,-0.62657815,-0.00013343443,-0.16357343,0.077078745,-0.0015047786,-0.013811221,-0.0033712136,-0.016531752,0.4533233,-1.3536508,1.8695234,-2.086972,-1.5685924,2.4297526,-0.27356422,0.16391599,-0.20261759,0.036188334,0.013987838,-0.25693417,-0.21068975,0.22984336,-9.270349,0.9030289,47.687782,-1.2039695,-2.3371403,-3.3931465,-0.2956047,0.30369544,-0.41851532,28.5625,29.9375,28.875,32.6875,35.125,36.25
0.37405404,0.2940848,-0.51539576,-1.8522887,-0.024210405,0.083982974,-0.1740746,-0.4200041,-0.3545633,0.0600677,3.0756207,-0.626575,-0.00013629037,-0.16597047,0.07858128,-0.0010258644,-0.014082647,-0.0019631055,-0.013685279,0.45279455,-1.3533509,1.8691386,-2.086888,-1.5685924,2.429222,-0.27766788,0.16472244,-0.2047026,0.03610585,0.013625228,-0.26388368,0.038307227,0.17238252,-9.289502,0.92093146,47.71286,-1.2461612,-2.1777847,-3.344388,-0.29783762,0.30257583,-0.40398747,28.5625,29.9375,28.875,32.6875,35.125,36.25
