Tylouw/Master_Thesis_Code/training_data/batch_1/rect_rod_t0.3/sample_34_session_2.csv
timestamp[s],tcp_force_x[N],tcp_force_y[N],tcp_force_z[N],tcp_force_rx[Nm?],tcp_force_ry[Nm?],tcp_force_rz[Nm?],tcp_pose_x[m],tcp_pose_y[m],tcp_pose_z[m],tcp_pose_rx[rot_vec_x],tcp_pose_ry[rot_vec_y],tcp_pose_rz[rot_vec_z],tcp_velo_x[m/s],tcp_velo_y[m/s],tcp_velo_z[m/s],tcp_velo_rx[rot_vec_x/s],tcp_velo_ry[rot_vec_y/s],tcp_velo_rz[rot_vec_z/s],q1[rad],q2[rad],q3[rad],q4[rad],q5[rad],q6[rad],qd1[rad/s],qd2[rad/s],qd3[rad/s],qd4[rad/s],qd5[rad/s],qd6[rad/s],tool_acc_x,tool_acc_y,tool_acc_z,current_of_whole_robot[A],voltage_of_whole_robot[V],current_J1[A],current_J2[A],current_J3[A],current_J4[A],current_J5[A],current_J6[A],temp_J1[C],temp_J2[C],temp_J3[C],temp_J4[C],temp_J5[C],temp_J6[C]
9.710202e-07,-0.68976873,-0.8060864,-0.031207968,-0.025131805,0.0039353343,-0.0005080061,-0.38933003,-0.3687153,0.05999687,-3.0786812,0.6249618,0.0001645478,0.00025233027,0.00014083287,-3.8000253e-05,0.00028992622,-0.0008131026,6.3202286e-05,0.50503284,-1.3816319,1.9042109,-2.0919034,-1.5708536,2.4800491,-8.9456684e-05,-0.000111449706,-3.6988095e-07,0.0009631476,0.00014192503,-0.00015298738,0.19153613,0.1340753,-8.599973,0.7620334,47.74062,-0.21030904,-3.1151352,-2.2877698,-0.20650429,0.18248704,-0.014225174,28.375,29.75,28.75,32.5625,35.0,36.0625
0.002055574,0.13232565,0.083851494,0.072201684,-0.040788315,0.026684305,-0.0144458,-0.38933656,-0.36870462,0.059986554,-3.0786717,0.6249794,0.00015407283,-0.0010933097,-0.00060721923,-0.0006018177,-0.0030088697,0.00512528,6.085082e-05,0.50500876,-1.3816198,1.9042238,-2.0919197,-1.5708536,2.4800372,-8.728752e-05,-1.49524e-06,0.0035154708,-0.009455756,0.00013918141,-0.0001487795,0.15322891,0.17238252,-8.561666,0.7463667,47.71286,-0.2503565,-3.0519538,-2.3477056,-0.15528116,0.17344038,-0.0050393026,28.375,29.75,28.75,32.5625,35.0,36.0625
0.004054926,-0.3305913,-0.52813697,-0.028621543,-0.03382446,0.025270183,0.005847061,-0.38935193,-0.36872745,0.060010947,-3.0787253,0.6249516,0.0002401976,-0.0018311,-0.0010177104,-0.0002343228,-0.004157412,0.007196629,5.931186e-05,0.50503284,-1.3816319,1.904188,-2.091944,-1.5708536,2.4800372,-8.522126e-05,-2.006055e-08,0.00312746,-0.011437685,0.00013654192,-0.00014479039,0.05746084,0.19153613,-8.599973,0.7418897,47.70032,-0.19700456,-3.1772869,-2.604642,-0.03375736,0.17213549,-0.0240368,28.375,29.75,28.75,32.5625,35.0,36.0625
0.006054232,-0.33322525,0.07040326,-0.0487534,-0.024908923,0.011288096,-0.00441545,-0.38931724,-0.36872417,0.05997434,-3.0786738,0.6249794,9.990329e-05,-0.0008075998,-0.00045718031,-0.0002840875,-0.0020871782,0.003478009,7.106161e-05,0.5050448,-1.3815958,1.9042228,-2.0919178,-1.5708297,2.480073,-6.956227e-05,-2.691379e-10,0.002024967,-0.0060791527,0.0001340006,-0.00014100895,0.019153614,0.21068975,-8.6574335,0.7530795,47.70838,-0.17053887,-3.2176957,-2.5582867,-0.066942886,0.17342958,-0.015692022,28.375,29.75,28.75,32.5625,35.0,36.0625
0.008055004,-0.07528967,0.46127525,-0.5322959,0.011874152,-0.0081668515,-0.0050343056,-0.38932073,-0.3687084,0.059981067,-3.078652,0.6249366,0.0001600651,0.00016207152,7.756826e-05,-0.0005399456,1.183803e-06,-0.00027515204,7.58751e-05,0.5050448,-1.3816196,1.9042352,-2.0919158,-1.5708774,2.4800491,-6.1122206e-05,0.00040533446,0.0010177706,-0.0011822408,0.00013155228,-0.00013742055,-0.038307227,0.24899697,-8.676587,0.78217715,47.723602,-0.18510307,-3.2289581,-2.49374,-0.09875154,0.18293476,-0.017726429,28.375,29.75,28.75,32.5625,35.0,36.0625
0.010054988,-0.025878448,0.70709723,-0.7955994,0.017313354,-0.005496027,-0.011284636,-0.38930604,-0.36869484,0.059964187,-3.0786388,0.62493426,7.8366116e-05,0.00026691455,0.0001437527,-0.0002828367,0.00016968553,-0.0005714334,7.734845e-05,0.50502086,-1.3816198,1.904271,-2.0919034,-1.5708536,2.4800253,-7.2763396e-05,1.1756534e-05,0.0006471351,-7.719188e-05,0.00012919176,-0.00015056596,0.0,0.2681506,-8.983045,0.77545905,47.683304,-0.7962702,-2.8765852,-2.786595,-0.13319185,0.17150584,-0.10246974,28.375,29.75,28.75,32.5625,35.0,36.0625
0.012054891,-0.44704118,-0.13765147,-1.0995737,-0.012065268,0.005762237,-0.005654658,-0.38933185,-0.36869952,0.059976876,-3.0786395,0.624917,0.00013044362,-0.0009805205,0.00237369,-0.00027467165,0.0013492237,-0.0026883758,-0.0046069473,0.5050195,-1.3815958,1.9042109,-2.0918906,-1.5708774,2.4800131,-0.0049905255,1.5772893e-07,-7.33054e-05,0.00307818,0.00012691456,-0.000384068,0.038307227,0.038307227,-9.212888,0.7284641,47.678825,-0.9844909,-2.781982,-2.973753,-0.147553,0.16734062,-0.15091203,28.375,29.75,28.75,32.5625,35.0,36.0625
0.014054295,-0.9552687,-0.5067632,-1.0625671,-0.055400874,0.03045688,-0.014143374,-0.38932836,-0.36869046,0.059962843,-3.0786338,0.62491196,6.0715287e-05,-0.0033938095,0.0051864497,-0.0046208673,0.0048696836,-0.0090636825,0.0014826037,0.5049926,-1.3815802,1.9042219,-2.0918791,-1.5708536,2.4799838,-0.011985588,0.009189621,-0.0007633522,0.001859432,0.00012471621,-0.013466809,-0.019153614,0.095768064,-9.423578,0.8224646,47.679718,-0.51790893,-3.116107,-2.968961,-0.14996336,0.1819828,-0.072460614,28.375,29.75,28.75,32.5625,35.0,36.0625
0.016054282,-1.2811869,-0.78545034,-1.1536725,-0.0809051,0.056301184,-0.0319653,-0.38932487,-0.36868554,0.059933994,-3.0786057,0.6249419,-8.133871e-06,-0.0052146013,0.0050475425,-0.003694536,0.003408006,-0.0064337836,0.0072364067,0.50498015,-1.3815324,1.9042338,-2.0918915,-1.5708417,2.4799936,-0.013454357,0.009462658,-0.0029436878,0.00075703964,0.00012259246,-0.02068833,-0.21068975,0.11492168,-9.442732,0.7777002,47.71554,-0.5801783,-3.2344995,-2.9154642,-0.12686738,0.16653095,-0.012540527,28.375,29.75,28.75,32.5625,35.0,36.0625
0.018054467,-1.4030765,-0.39782688,-0.93084836,-0.08014515,0.087052405,-0.06708531,-0.38929832,-0.3686709,0.059915055,-3.0785828,0.6248208,-9.320468e-05,-0.005483287,0.004628466,-0.002334904,0.0021336407,-0.0040895194,0.010944423,0.5049803,-1.3815331,1.9042696,-2.0918553,-1.5708417,2.479921,-0.012986204,0.0073161926,-0.0035119038,0.00080313336,0.00010050309,-0.023928279,-0.40222588,0.17238252,-9.461885,0.83589023,47.686886,-0.7454399,-3.0399125,-3.0527868,-0.119392246,0.17755516,0.015621051,28.375,29.75,28.75,32.5625,35.0,36.0625
0.020055015,-1.9613162,-0.08167503,-1.5492101,-0.023186587,0.08274717,-0.07725501,-0.38931102,-0.3686677,0.05991096,-3.0785985,0.6248266,-9.1931426e-05,-0.006051678,0.005537028,-0.0024554026,0.0023366804,-0.0044624866,0.0060784183,0.5049556,-1.3815211,1.90427,-2.0918791,-1.5708297,2.479898,-0.015049302,0.0072383084,-0.003185955,0.000980365,0.00010505022,-0.021125544,-0.49799395,0.038307227,-9.557653,0.7933669,47.684196,-0.9191187,-2.831996,-3.2117891,-0.10772623,0.17422101,-0.027636815,28.375,29.75,28.75,32.5625,35.0,36.0625
0.022054274,-1.6700913,0.56490976,-1.7972561,0.007065422,0.08647832,-0.09816758,-0.38934296,-0.36864507,0.059894376,-3.0785623,0.624841,-0.00012326681,-0.0064525385,0.006708087,-0.0032167695,0.003929443,-0.0073795537,0.0012796128,0.50489503,-1.3814604,1.9042333,-2.0918667,-1.5708417,2.479851,-0.017408328,0.008951873,-0.0040355963,0.0034400218,0.0001254281,-0.018685443,-0.47884035,-0.076614454,-9.672575,0.7866488,47.70659,-0.84727913,-2.9396358,-3.2974784,-0.10382341,0.17524919,-0.062108714,28.375,29.75,28.75,32.5625,35.0,36.0625
0.024054602,-1.6477824,0.6116656,-1.5227764,0.009817568,0.08139838,-0.10510503,-0.38935092,-0.3686491,0.059903752,-3.0785732,0.62482554,-0.000109125656,-0.007724016,0.006861105,-0.003090871,0.0035542785,-0.007809096,-0.0013702431,0.5048944,-1.38146,1.9042085,-2.0918543,-1.5708417,2.4798393,-0.019189198,0.010632637,-0.0065381,0.0044544023,0.0006588803,-0.017816171,-0.5554548,-0.11492168,-9.691729,0.8224646,47.716442,-0.80946743,-2.8940742,-3.3103876,-0.13413721,0.18423882,-0.09625523,28.375,29.75,28.75,32.5625,35.0,36.0625
0.026054896,-1.8824712,0.32280678,-1.6591793,0.0016655311,0.08088663,-0.120147124,-0.38936085,-0.3686191,0.05988765,-3.0785246,0.62487245,-0.0001811248,-0.0086481,0.0062052626,-0.0029403649,0.0022250235,-0.006901276,-0.0020716651,0.50483435,-1.3814354,1.9042081,-2.0918186,-1.5708412,2.4798148,-0.01939832,0.011987977,-0.008232446,0.0033534062,0.0013755396,-0.017324138,-0.7852981,-0.17238252,-9.691729,0.8806493,47.74331,-0.89337105,-2.9442465,-3.3516207,-0.12992138,0.15671596,-0.08223444,28.375,29.75,28.75,32.5625,35.0,36.0625
0.028054858,-1.8999811,0.20639133,-1.8791081,-0.025168527,0.10278282,-0.13534133,-0.38935217,-0.36862072,0.059861727,-3.078518,0.62485284,-0.00028933136,-0.009768118,0.005672817,-0.002241898,0.00072470756,-0.005192232,-0.0034115624,0.5048222,-1.3813872,1.9042076,-2.0918071,-1.5708045,2.4797912,-0.019850068,0.012379978,-0.010121055,0.0026275066,0.0018555047,-0.016436026,-0.842759,-0.15322891,-9.864111,0.6948948,47.74062,-0.96842265,-2.9004579,-3.3154082,-0.12565786,0.16478503,-0.12091484,28.375,29.75,28.75,32.5625,35.0,36.0625
0.030054186,-2.0241888,-0.12246549,-1.7822715,-0.04605312,0.12427023,-0.14579234,-0.38940197,-0.36863106,0.05988174,-3.0785344,0.6249339,-0.00025780403,-0.010787527,0.0060979393,-0.0025688028,0.00083498715,-0.005160714,-0.0055208215,0.50478584,-1.3813386,1.9040993,-2.0917838,-1.570793,2.4798033,-0.021446243,0.013820269,-0.010946203,0.0020388358,0.0017411355,-0.015922043,-0.78529817,-0.19153613,-9.844957,0.6971306,47.675243,-0.9635521,-2.8878365,-3.353488,-0.09779838,0.15400326,-0.1364648,28.375,29.75,28.75,32.5625,35.0,36.0625
0.032054693,-2.3058138,-0.42902565,-1.8104945,-0.03279984,0.12448712,-0.153373,-0.3893999,-0.36859676,0.059859775,-3.0785167,0.6248928,-0.00027576013,-0.0120271845,0.006306187,-0.0017523615,0.0005243861,-0.0037738006,-0.0059241867,0.5047375,-1.3813506,1.9041713,-2.0918186,-1.570805,2.4797316,-0.022705229,0.013779553,-0.012898728,0.0026691845,0.0013386217,-0.01677626,-0.7661445,-0.11492168,-9.940725,0.77545905,47.698532,-1.0107058,-2.8330026,-3.347981,-0.10257819,0.1684912,-0.15551327,28.375,29.75,28.75,32.5625,35.0,36.0625
0.034054954,-2.2701807,0.04239013,-2.009763,-0.019377396,0.11213597,-0.1676243,-0.38941553,-0.36858377,0.059847157,-3.0784903,0.62486804,-0.00033267285,-0.012233419,0.0072712265,-0.0024821279,0.0020561873,-0.0059925257,-0.006740194,0.50470096,-1.3813021,1.9041346,-2.0917828,-1.570805,2.479683,-0.024356393,0.0151373055,-0.013214606,0.0043110354,0.0010725639,-0.01761082,-0.7661445,0.019153614,-9.902418,0.75084364,47.698532,-1.0054259,-2.782305,-3.3553424,-0.10021512,0.16615498,-0.17089596,28.375,29.75,28.75,32.5625,35.0,36.0625
0.03605425,-1.8045878,0.23623371,-2.02641,-0.007192279,0.09715519,-0.17998835,-0.38945436,-0.36856934,0.05984553,-3.0784864,0.62492526,-0.00031882722,-0.01343907,0.008041735,-0.0022377444,0.0018983309,-0.0056258882,-0.0076039406,0.5046404,-1.3812661,1.9040984,-2.0917943,-1.570805,2.4796586,-0.026753098,0.015384474,-0.014123382,0.0045754346,0.0010313889,-0.019143308,-0.59376204,0.019153614,-9.787497,0.7329411,47.71465,-1.0195607,-2.8799322,-3.367031,-0.12677312,0.18270893,-0.16972464,28.375,29.75,28.75,32.5625,35.0,36.0625
0.038054433,-2.0957327,-0.5994079,-1.971181,0.008059707,0.06816681,-0.1746718,-0.3894781,-0.36855114,0.059838224,-3.0784955,0.62488854,-0.00034524724,-0.014351549,0.008185403,-0.0021483002,0.0014378072,-0.0045172228,-0.007255652,0.5045801,-1.3812418,1.9040865,-2.0917947,-1.570793,2.4795742,-0.027761064,0.01586864,-0.014635456,0.003410867,0.0008936288,-0.020498913,-0.5554548,0.076614454,-9.80665,0.8157518,47.711964,-0.94627845,-2.738778,-3.385889,-0.11135151,0.17342545,-0.19502226,28.375,29.75,28.75,32.5625,35.0,36.0625
0.040054843,-1.6242504,-0.37867767,-1.8476212,-0.020220827,0.07107122,-0.19791903,-0.3895326,-0.36854392,0.05986174,-3.0784938,0.62496537,-0.00026241885,-0.015854893,0.008102324,-0.0011024048,3.802337e-05,-0.0019774614,-0.00806772,0.50453186,-1.3812178,1.9040021,-2.0917833,-1.5708169,2.4795742,-0.029018868,0.015460437,-0.016360072,0.0026432495,0.00088637526,-0.02094387,-0.47884035,0.05746084,-9.730036,0.73741806,47.71465,-1.0024371,-2.7729511,-3.3786511,-0.09058827,0.16919833,-0.19634931,28.375,29.75,28.75,32.5625,35.0,36.0625
0.042054374,-0.9677687,-0.28729248,-1.6672239,-0.04221238,0.08424778,-0.22363582,-0.38955745,-0.3685092,0.059833102,-3.0784392,0.62508917,-0.00037370724,-0.01698663,0.008509165,-0.0010908182,-0.00023243202,-0.0013104272,-0.008409088,0.5044353,-1.3811576,1.9039906,-2.0917594,-1.570793,2.4795618,-0.030703388,0.01626185,-0.017175796,0.0019436792,0.0007951234,-0.022286385,-0.40222588,0.076614454,-9.730036,0.7351769,47.73525,-0.98719686,-2.7669773,-3.3132226,-0.08441354,0.19622888,-0.22470978,28.375,29.75,28.75,32.5625,35.0,36.0625
0.04405447,-1.4246508,-0.616643,-1.7089473,-0.034446977,0.065176375,-0.21625127,-0.38960072,-0.3684956,0.059839487,-3.0784383,0.6251257,-0.00030443215,-0.018789273,0.008658051,0.00020459798,-0.0016165806,0.001334211,-0.008357739,0.50438684,-1.3811338,1.9039534,-2.0917838,-1.5708169,2.4795363,-0.03259107,0.015636194,-0.01934133,0.0017501777,0.00072375557,-0.02422445,-0.2681506,0.05746084,-9.672575,0.7083204,47.70032,-1.0068592,-2.6948206,-3.2670717,-0.08647762,0.19738358,-0.21395057,28.375,29.75,28.75,32.5625,35.0,36.0625
0.046054635,-0.2036837,-0.28619394,-1.4885099,-0.036474884,0.076461256,-0.22574282,-0.3896502,-0.36847246,0.059835095,-3.0784492,0.6251478,-0.00027593557,-0.02005725,0.009779921,-1.8617613e-05,-0.0010178185,0.00071440195,-0.009099251,0.5043019,-1.3810973,1.9039282,-2.0918186,-1.5708174,2.4794638,-0.035520624,0.016772088,-0.02033196,0.002437502,0.00049846934,-0.026411558,-0.15322891,0.17238252,-9.595961,0.7665104,47.701214,-0.8426255,-2.7449536,-3.3284247,-0.082360566,0.19271086,-0.24294889,28.375,29.75,28.75,32.5625,35.0,36.0625
0.048055038,-0.48085752,-0.08985704,-1.7047998,-0.02972213,0.04504127,-0.1807529,-0.38969323,-0.368447,0.059860192,-3.0784366,0.6251063,-0.00022624308,-0.020200284,0.010535046,-9.701834e-05,-0.0005111349,-0.0002460235,-0.0084223775,0.5042415,-1.3810974,1.9038576,-2.0917585,-1.5708536,2.4793792,-0.03693672,0.016570618,-0.020170027,0.003561395,0.00052152027,-0.028504778,-0.21068975,0.24899697,-9.500193,0.78217715,47.709274,-0.85636485,-2.6173286,-3.2917008,-0.07085043,0.21420035,-0.22988984,28.375,29.75,28.75,32.5625,35.0,36.0625
0.050054222,-0.8460145,-0.46812364,-1.4661546,-0.017497502,0.01715091,-0.18174542,-0.38974515,-0.36844862,0.05987462,-3.0784779,0.62515277,-0.00019259783,-0.02190019,0.010988366,0.00037776429,-0.0012220799,0.00084604375,-0.008299066,0.5041808,-1.3810612,1.9037846,-2.0917704,-1.5708297,2.4793422,-0.039340515,0.017275764,-0.022057958,0.003444588,0.0006127407,-0.031031124,-0.095768064,0.114921674,-9.442732,0.78217715,47.701214,-0.76709926,-2.717875,-3.273472,-0.081476435,0.22320637,-0.23329568,28.375,29.75,28.75,32.5625,35.0,36.0625
0.052054696,-0.35379404,-0.58094954,-1.4667999,-0.028034035,0.030593064,-0.18772776,-0.389812,-0.36841184,0.059874114,-3.078458,0.62537915,-0.00017688406,-0.023598399,0.010977412,0.001072559,-0.0026396445,0.0023344485,-0.008650458,0.50404847,-1.3810248,1.9037484,-2.0917947,-1.5708169,2.4793537,-0.04122565,0.017945632,-0.024347767,0.0030749836,0.001129842,-0.032564662,0.038307227,0.13407528,-9.442732,0.81351066,47.711964,-0.7602783,-2.6069355,-3.205968,-0.06262138,0.19941032,-0.23528406,28.375,29.75,28.75,32.5625,35.0,36.0625
0.054054823,-0.2932096,-0.91149193,-1.6397394,-0.024359519,0.030429944,-0.18082725,-0.38983798,-0.36839804,0.059863515,-3.0784655,0.6252635,-0.00020596704,-0.023850279,0.010189453,0.0016199078,-0.0036144436,0.003547507,-0.0065434603,0.5040009,-1.3809768,1.9037131,-2.0917833,-1.5708169,2.479233,-0.04029697,0.01794983,-0.025515364,0.0027043407,0.0013932432,-0.033742957,0.0,0.1340753,-9.385271,0.7911258,47.666286,-0.8951359,-2.5806,-3.1743855,-0.08301878,0.2093713,-0.25726283,28.375,29.75,28.75,32.5625,35.0,36.0625
0.056055043,-0.35368758,-0.8023512,-1.4932148,-0.030535966,0.031667493,-0.18094452,-0.3898809,-0.36838052,0.05986481,-3.0784647,0.62536025,-0.00023085729,-0.024678579,0.010956734,0.000982962,-0.0039574774,0.0018287477,-0.0077563585,0.50391614,-1.3809401,1.903664,-2.091771,-1.5707926,2.4792087,-0.043063592,0.019480469,-0.025924446,0.002918911,0.002523155,-0.035298266,-0.019153614,0.076614454,-9.385271,0.800085,47.701214,-0.8586607,-2.6795175,-3.2438192,-0.055355605,0.22033693,-0.26815897,28.375,29.75,28.75,32.5625,35.0,36.0625
0.0580544,-0.6190052,-0.60322696,-1.4093121,-0.031662047,0.028981203,-0.18011527,-0.3899444,-0.36833972,0.0598608,-3.0784554,0.6253589,-0.00021976177,-0.024971131,0.011651011,0.0007178364,-0.0038936755,0.00059846527,-0.008293601,0.5037956,-1.3808922,1.9036163,-2.0917704,-1.5708045,2.4790885,-0.044836856,0.019769806,-0.025827184,0.0036383201,0.0030631532,-0.036535304,0.019153614,0.076614454,-9.3661175,0.80456203,47.686886,-0.79687244,-2.6033268,-3.2444763,-0.07161309,0.19097722,-0.27044725,28.375,29.75,28.75,32.5625,35.0,36.0625
0.06005502,-0.6050426,-0.4693247,-1.4046135,-0.02573068,0.018741779,-0.17336926,-0.38999724,-0.36832622,0.059881,-3.078479,0.62540156,-0.00016277318,-0.025570044,0.012240654,0.0010122414,-0.0041174474,0.0005381781,-0.008432118,0.5037233,-1.3808802,1.9035562,-2.0917704,-1.570804,2.47904,-0.0465249,0.019404406,-0.026225803,0.004346373,0.003290596,-0.03808504,0.019153614,0.019153614,-9.481039,0.7620334,47.68062,-0.81372875,-2.6142344,-3.278254,-0.06771654,0.19047475,-0.28088796,28.375,29.75,28.75,32.5625,35.0,36.0625
0.062054217,0.11432631,-0.046063084,-1.2825005,-0.021062031,0.044305287,-0.18710925,-0.3900595,-0.36831254,0.059891682,-3.0785048,0.6254449,-0.00015865907,-0.02659376,0.012062624,0.0011830358,-0.004684218,0.0009437685,-0.008354586,0.5036273,-1.3808317,1.9034718,-2.0917585,-1.5707802,2.4789677,-0.047360513,0.02071201,-0.02816051,0.0043447795,0.0035879947,-0.03899761,-0.095768064,0.05746084,-9.404425,0.7642693,47.677036,-0.8366718,-2.5849967,-3.2585912,-0.048556276,0.1995138,-0.29865837,28.375,29.75,28.75,32.5625,35.0,36.0625
0.064054415,-0.8100873,-0.431366,-1.502193,-0.008460683,0.03258768,-0.16549273,-0.39012736,-0.36828208,0.059895813,-3.0784838,0.62540096,-9.6308926e-05,-0.027660241,0.012433987,0.0012192001,-0.0050252443,0.0010346642,-0.008113138,0.5035427,-1.3807713,1.9033884,-2.0917466,-1.5708283,2.4788585,-0.049132433,0.021645987,-0.02935012,0.0043534837,0.0038405769,-0.041010726,-0.1340753,0.095768064,-9.32781,0.7463667,47.622402,-0.74629426,-2.5834284,-3.2078025,-0.05610492,0.20938826,-0.32540843,28.375,29.75,28.75,32.5625,35.0,36.0625
0.066055216,-0.5141536,-0.08302044,-1.4915525,-0.013401138,0.054675546,-0.17225158,-0.3901864,-0.36827374,0.059903674,-3.0785213,0.6254271,-7.8406476e-05,-0.02854048,0.012575052,0.0015153452,-0.005982218,0.001617633,-0.007015397,0.50345844,-1.3807232,1.9033164,-2.0917585,-1.570804,2.4787858,-0.050531,0.021833392,-0.030168897,0.004011545,0.0043963282,-0.043507405,-0.11492168,0.095768064,-9.308656,0.77545905,47.698532,-0.8557978,-2.5734177,-3.23515,-0.0652308,0.18603939,-0.307334,28.375,29.75,28.75,32.5625,35.0,36.0625
0.06805474,-1.0063485,-0.49782372,-1.4245187,-0.0128391655,0.059781406,-0.1698163,-0.39021,-0.36824074,0.0599038,-3.0785227,0.6254847,-0.0001721936,-0.028898982,0.012573013,0.0016154301,-0.006672974,0.0012332915,-0.0070873965,0.50335056,-1.380723,1.9033049,-2.0917103,-1.5707554,2.4787135,-0.05135102,0.0221588,-0.030866496,0.004386868,0.005184871,-0.0442566,-0.13407528,0.095768064,-9.346964,0.8157518,47.696735,-0.8564959,-2.5776038,-3.2105856,-0.0391615,0.18068847,-0.32757515,28.375,29.75,28.75,32.5625,35.0,36.0625
0.070055045,-1.2972466,-0.19772124,-1.2164474,-0.023852518,0.062047705,-0.17432135,-0.39026618,-0.36822543,0.0599064,-3.0785465,0.62549055,-0.00015534827,-0.030157635,0.013835034,0.0012777803,-0.006552777,-0.00022346579,-0.009997118,0.50326526,-1.3806746,1.9032444,-2.0917222,-1.5707439,2.4786289,-0.055016495,0.023354577,-0.031742454,0.005399883,0.0057839104,-0.045012776,-0.28730422,0.038307227,-9.289502,0.8247004,47.684196,-0.7114381,-2.5793061,-3.2787676,-0.0666701,0.1784988,-0.34311372,28.375,29.75,28.75,32.5625,35.0,36.0625
0.07205442,-1.0899642,0.006433418,-1.2702909,-0.024159927,0.079444624,-0.1799125,-0.3903428,-0.36819303,0.05992289,-3.0785644,0.62547183,-0.000103397295,-0.029626714,0.012966361,0.0010654092,-0.006846162,-0.0013367673,-0.0049607605,0.5031461,-1.3806381,1.9031609,-2.0917094,-1.5707549,2.4784958,-0.05354819,0.024431996,-0.03269349,0.0061044493,0.0065787393,-0.048581425,-0.36391866,0.05746084,-9.32781,0.800085,47.694054,-0.81358945,-2.5297723,-3.2114663,-0.057719447,0.16150959,-0.35288218,28.375,29.75,28.75,32.5625,35.0,36.0625
0.07405481,-0.69069433,-0.105572455,-1.2439566,-0.02515313,0.09435489,-0.17433143,-0.3903855,-0.3681724,0.059897605,-3.0785542,0.6254686,-0.00020904522,-0.031007415,0.013652095,0.0013763505,-0.0067841285,-0.00046088998,-0.0030833415,0.50304955,-1.3805419,1.9030994,-2.091686,-1.5707196,2.4783986,-0.055682663,0.024902573,-0.033977788,0.006184742,0.0060961153,-0.05259231,-0.30645782,-0.038307227,-9.32781,0.7665104,47.701214,-0.8844963,-2.5797873,-3.2298117,-0.06656742,0.17630324,-0.32133687,28.375,29.75,28.75,32.5625,35.0,36.0625
0.07605515,-1.0925117,-0.0031826848,-1.295129,-0.014689785,0.095639266,-0.17702192,-0.3904424,-0.368144,0.059914835,-3.0785778,0.62547153,-0.0001942107,-0.031935938,0.014244931,0.0014378368,-0.0067073186,-0.00015757163,-0.0010653262,0.5029413,-1.3805298,1.9030403,-2.0916617,-1.5707077,2.4782891,-0.057405382,0.02534045,-0.034633312,0.0061756945,0.005882021,-0.05633222,-0.36391866,-0.038307227,-9.3661175,0.77545905,47.72002,-0.8458593,-2.5138764,-3.1956322,-0.06944181,0.15503684,-0.30038565,28.375,29.75,28.75,32.5625,35.0,36.0625
0.07805445,-1.6716108,0.37191042,-1.3378328,-0.014303478,0.08499339,-0.17722033,-0.39049125,-0.3680805,0.059886776,-3.07852,0.62548035,-0.0002670751,-0.033230137,0.015567215,0.001323588,-0.006301165,0.00026177964,-0.0036887669,0.50279635,-1.3804698,1.9030279,-2.0916383,-1.5707196,2.478157,-0.06048023,0.025571989,-0.034535866,0.005677218,0.0053194454,-0.056783035,-0.4405331,0.076614454,-9.3661175,0.779936,47.70659,-0.70381296,-2.5320835,-3.2445297,-0.08229961,0.15651809,-0.30521613,28.375,29.75,28.75,32.5625,35.0,36.0625
0.080054834,-2.0330064,0.18709537,-1.3758096,-0.014650311,0.08284023,-0.1715751,-0.3905676,-0.36806548,0.059889264,-3.078559,0.6254642,-0.00028959077,-0.032999795,0.014426305,0.0014235423,-0.006478834,0.00093633204,0.0028722016,0.5026776,-1.3803853,1.9029197,-2.0916264,-1.5706838,2.4780233,-0.05822834,0.026467988,-0.035742313,0.005314331,0.005146736,-0.06109109,-0.51714754,0.038307227,-9.308657,0.7911258,47.68599,-0.91852754,-2.4794512,-3.2804885,-0.08572579,0.15801214,-0.27937096,28.375,29.75,28.75,32.5625,35.0,36.0625
0.082055055,-1.8740393,0.036023192,-1.391211,-0.013700168,0.090276666,-0.17524828,-0.39063144,-0.36802474,0.05988532,-3.0785353,0.6255349,-0.00027775607,-0.034367584,0.01509226,0.001568061,-0.0066507612,0.0015986178,0.0047912765,0.50255704,-1.380337,1.9028715,-2.0916264,-1.5706958,2.4779499,-0.06050813,0.02714658,-0.03681367,0.0050444286,0.004974935,-0.065289095,-0.57460845,-0.019153614,-9.385271,0.8179876,47.693153,-0.9747726,-2.5103858,-3.2826192,-0.069118895,0.15672505,-0.24447781,28.375,29.75,28.75,32.5625,35.0,36.0625
0.08405447,-1.3867551,0.48745117,-1.328917,-0.019210903,0.087283544,-0.17809398,-0.3907127,-0.36801678,0.059908215,-3.0786154,0.62541497,-0.00020610169,-0.035230502,0.015538075,0.0013082265,-0.0063448707,0.0012663379,0.0069100484,0.50246054,-1.3802885,1.9027647,-2.0916383,-1.5706838,2.4777684,-0.06198583,0.028468298,-0.03781283,0.0051621096,0.0048694145,-0.06888445,-0.49799395,-0.05746084,-9.3661175,0.83365434,47.696735,-0.9231509,-2.6076186,-3.2381322,-0.053635303,0.14707097,-0.19534704,28.375,29.75,28.75,32.5625,35.0,36.0625
0.08605529,-2.216475,-0.030352943,-1.6750947,-0.014624779,0.057512756,-0.16744564,-0.3908126,-0.3679856,0.05993376,-3.078666,0.6254617,-0.0001846646,-0.03559871,0.015764272,0.0013194119,-0.005927544,0.0011597936,0.009319176,0.5022928,-1.3802401,1.902644,-2.0916145,-1.5706481,2.4776235,-0.06250187,0.028947268,-0.038526308,0.005695513,0.004558319,-0.07180858,-0.40222588,-0.1340753,-9.423578,0.78888994,47.733456,-0.9651722,-2.5549684,-3.2753477,-0.0674122,0.14367834,-0.16264416,28.375,29.75,28.75,32.5625,35.0,36.0625
0.08805427,-1.477154,-0.30511448,-1.41674,-0.017008595,0.06407114,-0.16765346,-0.39086375,-0.36795393,0.059922524,-3.078675,0.6253861,-0.0002254475,-0.036724824,0.016088104,0.0017085173,-0.0063740844,0.0020656323,0.009883687,0.50218445,-1.3801801,1.9025959,-2.0916026,-1.5706362,2.4774668,-0.064056896,0.029231852,-0.03972989,0.0056072455,0.0045092963,-0.0739276,-0.5554548,-0.05746084,-9.3661175,0.7553206,47.713753,-1.017031,-2.4813862,-3.1940508,-0.070626214,0.15086588,-0.109507754,28.375,29.75,28.75,32.5625,35.0,36.0625
0.090054564,-1.0291715,-0.056804154,-1.5799156,-0.019425096,0.065894686,-0.16516556,-0.39096177,-0.3679173,0.05992781,3.0787036,-0.6254482,0.00020867655,-0.036786705,0.01652819,0.0010629179,-0.0055081127,0.0012020323,0.011014413,0.5020168,-1.3801078,1.902501,-2.0916145,-1.5706123,2.4773343,-0.06463029,0.030214882,-0.039393123,0.0054651382,0.004169317,-0.07563101,-0.34476504,-0.076614454,-9.404425,0.7665104,47.7254,-1.0296152,-2.5311816,-3.2614236,-0.07760656,0.15683529,-0.107269436,28.375,29.75,28.75,32.5625,35.0,36.0625
0.09205473,-0.9649113,0.027256722,-1.4918934,-0.01911462,0.06575023,-0.17690332,-0.39100087,-0.36787558,0.059904058,-3.0786457,0.6253212,-0.00027419944,-0.037471887,0.017145807,0.00054160354,-0.004723391,0.000795588,0.010092329,0.50193244,-1.3800231,1.9024414,-2.0915544,-1.5706481,2.477178,-0.065991476,0.031549416,-0.03972786,0.005198704,0.003669387,-0.076069266,-0.2681506,0.019153614,-9.423578,0.7083204,47.731667,-1.0944366,-2.5032473,-3.2439713,-0.05779015,0.15881674,-0.06359312,28.375,29.75,28.75,32.5625,35.0,36.0625
0.09405478,-0.95559376,-0.03348518,-1.4676061,-0.026058799,0.060272023,-0.17125937,-0.3910833,-0.36783108,0.05992103,-3.0786746,0.62532747,-0.00019104626,-0.038342435,0.01724875,0.00047487032,-0.0044739936,0.0008212836,0.008969847,0.5017884,-1.3800105,1.9023932,-2.0915782,-1.57066,2.4770343,-0.06682096,0.03299793,-0.041351296,0.0054715322,0.003440455,-0.07577482,-0.1340753,0.038307227,-9.519346,0.7105615,47.698532,-1.065151,-2.5564344,-3.2798347,-0.05390711,0.16873485,-0.08075623,28.375,29.75,28.75,32.5625,35.0,36.0625
0.096054494,-1.0026819,-0.22823176,-1.4073768,-0.019841699,0.045455243,-0.16294251,-0.39119005,-0.3677874,0.059925396,-3.078707,0.62529606,-0.00017304976,-0.040251166,0.017193116,0.0013576557,-0.00593354,0.002562799,0.00644014,0.5016082,-1.3799262,1.9022835,-2.0915782,-1.5706481,2.4768305,-0.06875857,0.033736747,-0.044211924,0.005364471,0.0038788284,-0.07518204,-0.15322891,0.1340753,-9.481039,0.7597976,47.71286,-1.1313044,-2.5758667,-3.1662164,-0.05318505,0.18339609,-0.05778277,28.375,29.75,28.75,32.5625,35.0,36.0625
0.098054186,-0.19431262,-0.045642123,-1.4521629,-0.0225188,0.05038116,-0.16561988,-0.3912512,-0.36777455,0.05992096,3.0787444,-0.62524706,0.00023752634,-0.03998044,0.01790555,0.00068800454,-0.0054327184,0.00087907485,0.0039724545,0.5015,-1.379842,1.9021887,-2.0915544,-1.5706004,2.476687,-0.06992933,0.03397429,-0.043042984,0.00567768,0.004252094,-0.07388624,-0.11492168,0.15322891,-9.557653,0.82694155,47.701214,-1.133025,-2.5528297,-3.2426932,-0.06678593,0.15872784,-0.08106816,28.375,29.75,28.75,32.5625,35.0,36.0625
0.10005419,-0.13802512,-0.3452025,-1.5347785,-0.030017646,0.04141771,-0.15909015,-0.39136016,-0.36773127,0.05994152,3.0787356,-0.6252845,0.00011984871,-0.04032108,0.018630164,1.3418913e-05,-0.0051240018,-0.00028253332,0.000848822,0.5013557,-1.3797816,1.9020704,-2.0915544,-1.5706481,2.4765673,-0.07163351,0.03489428,-0.042539336,0.0054170424,0.0045450013,-0.07246702,-0.038307227,0.1340753,-9.385271,0.73069996,47.70211,-1.1387103,-2.5911927,-3.3645413,-0.060327813,0.15715995,-0.09671149,28.375,29.75,28.75,32.5625,35.0,36.0625
0.10205431,-0.022402978,-0.4223111,-1.4609064,-0.03735861,0.04179275,-0.16404061,-0.39143056,-0.36769584,0.059935074,3.078733,-0.62528527,0.00014492172,-0.042216633,0.018985536,0.0009021203,-0.005671804,0.0015299873,-0.002921779,0.50122327,-1.3797094,1.901997,-2.0915425,-1.5706362,2.4764357,-0.073733516,0.035341833,-0.045168005,0.0057481974,0.004149176,-0.07079477,0.05746084,0.17238252,-9.3661175,0.8224646,47.69763,-1.0800864,-2.5805373,-3.259472,-0.047836296,0.15946093,-0.11776696,28.375,29.75,28.75,32.5625,35.0,36.0625
0.10405445,-0.27207083,-0.13445707,-1.4749907,-0.039609797,0.03336335,-0.17277601,-0.39153025,-0.36764655,0.05993318,3.0787196,-0.6253599,0.00011956834,-0.043430638,0.019167693,0.00085358275,-0.005463104,0.0017784158,-0.005426625,0.50105524,-1.3796247,1.9019011,-2.0915425,-1.5706481,2.476316,-0.07496234,0.037098438,-0.0471672,0.005874079,0.0038442803,-0.069517165,-0.05746084,0.17238252,-9.3661175,0.779936,47.65912,-1.1291847,-2.5899787,-3.1888978,-0.0846125,0.1813516,-0.13991416,28.375,29.75,28.75,32.5625,35.0,36.0625
0.10605402,-0.2697396,-0.59639907,-1.6245718,-0.035293423,0.043952737,-0.16257647,-0.39160147,-0.3676116,0.05993289,3.0787172,-0.62532204,0.00013051146,-0.044629633,0.019416591,0.001606639,-0.006242096,0.0033783861,-0.007843263,0.50092286,-1.3795649,1.9018282,-2.0915306,-1.5706362,2.4761603,-0.0764268,0.0367363,-0.04841663,0.005709767,0.003756774,-0.068564385,-0.05746084,0.21068975,-9.423578,0.8090337,47.696735,-1.117541,-2.5687373,-3.1905107,-0.06392013,0.17975752,-0.19080639,28.375,29.75,28.75,32.5625,35.0,36.0625
0.10805435,-0.28083858,-0.3934446,-1.5069456,-0.045780864,0.06100676,-0.18273714,-0.39168215,-0.36757857,0.059937328,3.0786731,-0.6253518,0.00020803134,-0.044316318,0.019936277,0.00094353704,-0.0059646377,0.0017886936,-0.009258336,0.500755,-1.3794926,1.9017218,-2.0914829,-1.5705761,2.4760165,-0.07732271,0.037061643,-0.04731996,0.005818263,0.004279313,-0.06804649,-0.1340753,0.17238252,-9.423578,0.8023209,47.696735,-1.1803325,-2.5139549,-3.3241334,-0.08688717,0.17518568,-0.21792236,28.375,29.75,28.75,32.5625,35.0,36.0625
0.11005448,-1.0493551,-0.90619427,-1.546517,-0.04105677,0.053710274,-0.16438523,-0.39175937,-0.36751243,0.059928782,3.0787034,-0.6254136,0.00022790163,-0.044852223,0.02017976,0.0004757947,-0.0064240308,0.00022622751,-0.008627262,0.5005869,-1.3794321,1.9016613,-2.0914462,-1.5705999,2.4758832,-0.0789354,0.038613304,-0.04820237,0.006294399,0.0054294392,-0.070291676,-0.11492168,0.19153613,-9.404425,0.800085,47.701214,-1.181431,-2.4999804,-3.390551,-0.09167769,0.17465779,-0.2447549,28.375,29.75,28.75,32.5625,35.0,36.0625
0.11205444,-0.7308357,-0.7945794,-1.4070156,-0.04291766,0.06821206,-0.16013823,-0.3918773,-0.36748672,0.05994485,3.07862,-0.625416,0.00013788305,-0.046017397,0.019802803,0.0008916764,-0.0077388925,0.000798116,-0.009736334,0.5004189,-1.3793596,1.9015526,-2.0915062,-1.5705751,2.4757273,-0.079909936,0.03977136,-0.05052915,0.0063299364,0.006311017,-0.070156805,-0.1340753,0.22984336,-9.385271,0.8112748,47.698532,-1.2745146,-2.5798242,-3.1977372,-0.08779217,0.16426615,-0.258003,28.375,29.75,28.75,32.5625,35.0,36.0625
0.114054084,-0.60042155,-0.31310695,-1.5608139,-0.041645616,0.06500227,-0.17198053,-0.3919529,-0.36743674,0.0599397,3.078633,-0.62545943,0.0002351284,-0.047275886,0.020843502,0.001273246,-0.0076359604,0.0018085199,-0.012950715,0.50025016,-1.3792754,1.9014457,-2.0914223,-1.5705518,2.475584,-0.082452714,0.03939697,-0.050948408,0.006291112,0.005731546,-0.06948459,-0.11492168,0.21068975,-9.519346,0.73069996,47.684196,-1.0831212,-2.4333339,-3.22882,-0.08765765,0.15718636,-0.30529034,28.375,29.75,28.75,32.5625,35.0,36.0625
0.11605422,-0.49843654,-0.11402665,-1.583451,-0.04163367,0.06870063,-0.17407492,-0.3920603,-0.36741075,0.059948623,3.0786073,-0.62543106,0.00017829548,-0.047254473,0.020266756,0.001033434,-0.0075438367,0.001531837,-0.009313455,0.50010693,-1.3791791,1.9013141,-2.0914347,-1.5705518,2.4754264,-0.081477694,0.040710628,-0.051957075,0.006274148,0.0057851337,-0.07214603,-0.15322891,0.114921674,-9.385271,0.7396539,47.66271,-1.3255715,-2.519302,-3.2413933,-0.073419794,0.15698165,-0.3375467,28.375,29.75,28.75,32.5625,35.0,36.0625
0.118054196,-0.61796784,-0.33091962,-1.5954869,-0.032752078,0.072258376,-0.1675108,-0.39215618,-0.36737436,0.059956454,3.0785522,-0.6255009,0.00013322875,-0.049452167,0.02201723,0.0005610088,-0.0073128934,0.0009647723,-0.015945332,0.4999495,-1.3791182,1.9012297,-2.091459,-1.5705398,2.4753196,-0.08648593,0.042558104,-0.053034876,0.0061141234,0.0058557587,-0.070521474,-0.2681506,0.11492168,-9.442732,0.80456203,47.658226,-1.2410487,-2.6094828,-3.2913513,-0.08138518,0.16035359,-0.36310506,28.375,29.75,28.75,32.5625,35.0,36.0625
0.12005418,-0.6235229,-0.037136834,-1.4451199,-0.03404379,0.07754349,-0.16232523,-0.39227015,-0.3673265,0.059965942,3.0785503,-0.625517,0.00010832932,-0.049098536,0.020972071,0.00065497577,-0.008138003,0.0012082055,-0.014519414,0.49977058,-1.3790221,1.9010862,-2.0914228,-1.5705513,2.475151,-0.08475758,0.04301919,-0.053707518,0.005714606,0.006462456,-0.07021947,-0.30645782,0.05746084,-9.385271,0.82022345,47.682407,-1.2714553,-2.5581906,-3.227158,-0.075020194,0.15867907,-0.45381203,28.375,29.75,28.75,32.5625,35.0,36.0625
0.122054264,-0.60756075,-0.07078586,-1.4513773,-0.028050272,0.08849734,-0.17259812,-0.39236483,-0.36727312,0.05994915,3.0785239,-0.62558836,0.00014649778,-0.050570317,0.021358412,0.002056572,-0.010007304,0.0033728736,-0.013339549,0.499578,-1.3789266,1.9010142,-2.0914352,-1.570527,2.4750063,-0.08712457,0.041388374,-0.05499785,0.0058415337,0.007064048,-0.07376703,-0.30645782,0.095768064,-9.3661175,0.842603,47.71017,-1.3001485,-2.4789684,-3.2455626,-0.091481596,0.13613138,-0.4439459,28.375,29.75,28.75,32.5625,35.0,36.0625
0.12405465,-1.3455883,0.18048339,-1.563939,-0.030469334,0.08017276,-0.16722558,-0.39245948,-0.36726588,0.059969626,3.0784566,-0.62553424,0.00017832711,-0.051381305,0.022189712,0.0010274351,-0.008973014,0.0016150121,-0.01193681,0.49943376,-1.3788415,1.9008588,-2.091399,-1.5704554,2.4748368,-0.089216046,0.043921545,-0.055709116,0.0060655423,0.007000776,-0.077260256,-0.36391866,0.05746084,-9.442732,0.83365434,47.73077,-1.3378475,-2.4820657,-3.271843,-0.078614905,0.14295396,-0.44682488,28.375,29.75,28.75,32.5625,35.0,36.0625
0.12605473,-0.6906525,0.19512455,-1.4070554,-0.018311575,0.098497964,-0.16715269,-0.39254382,-0.3671921,0.059949476,3.0785038,-0.6255975,0.00020102912,-0.052098505,0.022633417,0.0011237198,-0.008801297,0.001567535,-0.0072312937,0.4992538,-1.3787571,1.9007992,-2.0913746,-1.5704912,2.4746904,-0.09052962,0.044409554,-0.056638077,0.0066306544,0.006869341,-0.08327911,-0.4405331,0.11492168,-9.423578,0.7866488,47.681515,-1.3368521,-2.5739658,-3.2354994,-0.07488717,0.12824816,-0.4515972,28.375,29.75,28.75,32.5625,35.0,36.0625
0.12805487,-1.5198654,0.20403372,-1.3656967,-0.011659973,0.08342284,-0.15965456,-0.39267203,-0.3671442,0.059939522,3.0784457,-0.6256617,0.00023693957,-0.05379862,0.02423583,8.4367646e-05,-0.007546019,9.11885e-05,-0.005844248,0.49902472,-1.3786242,1.9006671,-2.0913866,-1.570443,2.4745088,-0.09452693,0.047217757,-0.05762305,0.0067129447,0.0064740097,-0.088662,-0.45968673,0.019153614,-9.442732,0.800085,47.679718,-1.1770622,-2.515729,-3.268366,-0.08229543,0.13224094,-0.39649403,28.375,29.75,28.75,32.5625,35.0,36.0625
0.1300546,-1.5532705,0.010345948,-1.2750015,-0.0071829865,0.0906721,-0.16365726,-0.39278948,-0.3671007,0.05995383,3.0784411,-0.6256181,0.0001558052,-0.053900607,0.023153957,0.0013017891,-0.009443485,0.002038831,0.0004234606,0.4988576,-1.3785405,1.9005355,-2.0913866,-1.5704664,2.4743152,-0.093235224,0.045902573,-0.05881173,0.0065962514,0.0072107897,-0.09363845,-0.4405331,-0.095768064,-9.385271,0.8090337,47.645687,-1.3483545,-2.5655997,-3.2513683,-0.08281478,0.11730452,-0.37708575,28.375,29.75,28.75,32.5625,35.0,36.0625
0.13205409,-1.4859188,0.43933848,-1.4307396,-0.011471526,0.09896175,-0.16604719,-0.3928836,-0.36704606,0.059946362,3.0784466,-0.625616,0.00022359738,-0.056466375,0.025236642,0.0018383118,-0.010279105,0.0033075705,0.003911797,0.49866384,-1.3784448,1.9004282,-2.0913389,-1.5704426,2.4741194,-0.09916541,0.045377243,-0.05930251,0.006104134,0.007333775,-0.10305726,-0.47884035,-0.019153614,-9.346964,0.80456203,47.70211,-1.1475619,-2.444749,-3.292108,-0.078866854,0.12799646,-0.30345714,28.375,29.75,28.75,32.5625,35.0,36.0625
0.13405412,-1.2949905,0.45957857,-1.4610845,-0.0077385046,0.10836086,-0.16789089,-0.39299908,-0.36700448,0.05995897,3.0784225,-0.6255306,0.00020535704,-0.056503575,0.024811244,0.0014047149,-0.009500764,0.0030302876,0.008691228,0.49847278,-1.3783602,1.9002966,-2.091327,-1.5704192,2.4738781,-0.098119095,0.047101926,-0.060349397,0.006048916,0.0067856405,-0.10678866,-0.4213795,-0.076614454,-9.404425,0.84484416,47.70211,-1.221151,-2.4146433,-3.2966437,-0.08509324,0.11315014,-0.24255976,28.375,29.75,28.75,32.5625,35.0,36.0625
0.13605471,-0.93753403,0.44016635,-1.2355429,-0.012755958,0.1132818,-0.17191178,-0.3931115,-0.36696044,0.05995563,3.0783968,-0.62552387,0.0002147743,-0.05794408,0.025861768,0.0013980898,-0.009234448,0.0025779658,0.009811047,0.4982801,-1.3782514,1.9001755,-2.091327,-1.5703954,2.4736845,-0.10118248,0.048189588,-0.061838303,0.0069800015,0.006769841,-0.11097109,-0.49799395,-0.076614454,-9.423578,0.8291774,47.741516,-1.1546,-2.5616975,-3.2720919,-0.09277639,0.11275929,-0.19692022,28.375,29.75,28.75,32.5625,35.0,36.0625
0.13805398,-1.2877628,0.17658387,-1.4567105,-0.0059800805,0.106409855,-0.1634927,-0.39323115,-0.36689278,0.059949707,3.0784206,-0.6254904,0.0002171444,-0.05909897,0.027140886,0.001060319,-0.009383541,0.0017439103,0.008585835,0.49806333,-1.3781432,1.9000553,-2.091303,-1.5704073,2.473444,-0.10470543,0.04886111,-0.061876662,0.007007265,0.007299533,-0.113269545,-0.57460845,-0.05746084,-9.423578,0.80679786,47.701214,-1.0722027,-2.4339833,-3.301414,-0.10075039,0.13137111,-0.15765153,28.375,29.75,28.75,32.5625,35.0,36.0625
0.14005437,-1.0325747,0.6798109,-1.3503295,-0.009128204,0.10515296,-0.16443774,-0.3933383,-0.36684346,0.0599433,3.078416,-0.62541425,0.0002696572,-0.06136555,0.02705167,0.0022298174,-0.010813697,0.004071587,0.006014258,0.497859,-1.3780348,1.8999361,-2.0912793,-1.570371,2.4731927,-0.10670383,0.04966812,-0.06552393,0.007124385,0.007436533,-0.11269509,-0.61291564,-0.038307227,-9.442732,0.7172743,47.66808,-1.0553658,-2.4647121,-3.2181616,-0.1118048,0.102890916,-0.13258864,28.375,29.75,28.75,32.5625,35.0,36.0625
0.14205444,-0.7145992,0.71540487,-1.4369481,-0.018121054,0.1043925,-0.16945174,-0.39346212,-0.36679575,0.059971698,3.078359,-0.62540424,0.0002487084,-0.062406622,0.02842825,0.0020834133,-0.010151007,0.003915533,0.00017096658,0.4976424,-1.3779746,1.8997921,-2.091243,-1.5703353,2.4729772,-0.10963984,0.049840022,-0.06544347,0.0073319483,0.006936321,-0.1097868,-0.61291564,-0.11492168,-9.500193,0.8179876,47.686886,-0.9078002,-2.4700587,-3.1328712,-0.09368718,0.10158663,-0.15353629,28.375,29.75,28.75,32.5625,35.0,36.0625
0.14405443,-0.25754964,0.6903544,-1.4143562,-0.03248076,0.11039393,-0.17882004,-0.39361063,-0.36671823,0.059975833,3.078329,-0.6254967,0.00016959533,-0.06303915,0.0295876,0.0007735006,-0.008082223,0.0019794647,-0.0062937713,0.49739033,-1.3778775,1.8996729,-2.0912664,-1.5703596,2.4727867,-0.11159061,0.05247947,-0.06565535,0.0075937943,0.0060485317,-0.10527088,-0.63206923,-0.095768064,-9.442732,0.8247004,47.6636,-0.86712444,-2.5135918,-3.250722,-0.10368416,0.12346329,-0.20667607,28.375,29.75,28.75,32.5625,35.0,36.0625
0.14605461,-1.8558782,-0.22614373,-1.7690904,-0.013637423,0.088169016,-0.15764365,-0.393738,-0.3666614,0.05997691,3.0782943,-0.6255306,0.00017852685,-0.06491249,0.02944728,0.0021293256,-0.00962699,0.004222773,-0.011679086,0.4971623,-1.3777696,1.8995398,-2.0912545,-1.5703353,2.4725842,-0.113223396,0.05248635,-0.06886405,0.008088687,0.0063325875,-0.10151742,-0.63206923,0.019153614,-9.461885,0.7866488,47.703903,-0.85921705,-2.5159094,-3.2301815,-0.11796945,0.107446715,-0.2666783,28.375,29.75,28.75,32.5625,35.0,36.0625
0.14805476,-1.703563,0.30729356,-1.7367862,-0.03203201,0.10381096,-0.16821668,-0.39386487,-0.36659366,0.059965055,3.0783393,-0.62551963,0.00019962102,-0.065828405,0.029499581,0.002640546,-0.010486449,0.0049107946,-0.013289283,0.49694636,-1.3776252,1.8993849,-2.0912063,-1.5703591,2.4723558,-0.11438745,0.05263836,-0.07026723,0.008322603,0.006755503,-0.10107154,-0.6703765,0.095768064,-9.461885,0.83589023,47.701214,-0.86397326,-2.422522,-3.1193562,-0.13700765,0.10732135,-0.29909283,28.375,29.75,28.75,32.5625,35.0,36.0625
0.1500541,-1.3238163,-0.11652169,-1.6701509,-0.031553708,0.11973285,-0.16429006,-0.3939979,-0.36653984,0.05996736,3.0783074,-0.62547374,0.00018245124,-0.0652191,0.03035799,0.0017501619,-0.00917334,0.0029539275,-0.012834595,0.49671865,-1.3775171,1.8992542,-2.0912182,-1.5703353,2.4721036,-0.11510972,0.052873507,-0.068635985,0.008807568,0.00654408,-0.10224866,-0.5746084,0.11492168,-9.615114,0.86498255,47.72002,-0.92927116,-2.3928673,-3.2400494,-0.1222925,0.10467546,-0.3256333,28.375,29.75,28.75,32.5625,35.0,36.0625
0.15205419,-1.9642594,-1.0608441,-1.7694367,-0.018061658,0.10063812,-0.15514532,-0.3941087,-0.36647403,0.059961345,3.0782852,-0.6255644,0.00023559347,-0.06618176,0.030308116,0.0008343703,-0.008455286,0.0012604439,-0.013214918,0.49649096,-1.3774196,1.899144,-2.091182,-1.570311,2.4719353,-0.115991205,0.056708638,-0.07124043,0.009411521,0.006714357,-0.102748625,-0.40222588,0.038307227,-9.5385,0.76874626,47.686886,-1.0002694,-2.5602078,-3.2243733,-0.15147178,0.10290611,-0.33450317,28.375,29.75,28.75,32.5625,35.0,36.0625
0.15405452,-1.4088836,-0.6723384,-1.7399819,-0.03501542,0.08728051,-0.15980415,-0.39422008,-0.36639953,0.059924807,3.0783272,-0.62559164,0.0003231975,-0.067174256,0.030314932,0.0019801932,-0.009649535,0.003722226,-0.014275072,0.4962632,-1.3772639,1.8990372,-2.0911582,-1.570311,2.4717193,-0.11680437,0.055379633,-0.07217357,0.0089421775,0.0065829298,-0.10250175,-0.2681506,0.11492168,-9.500193,0.8179876,47.68599,-1.1111319,-2.5365477,-3.12341,-0.14133902,0.10664405,-0.36576504,28.375,29.75,28.75,32.5625,35.0,36.0625
0.156055,-0.9269339,-0.30386528,-1.8367311,-0.04370211,0.07544573,-0.16900724,-0.39442056,-0.36634225,0.059972264,3.0781934,-0.6257359,0.00016159401,-0.06807024,0.030269219,0.0025802795,-0.010370195,0.005481496,-0.013607914,0.49597543,-1.377168,1.8988212,-2.0911825,-1.570299,2.4715385,-0.1173812,0.055164803,-0.07312306,0.008220658,0.006393097,-0.10374415,-0.22984336,0.13407528,-9.5385,0.7620334,47.63046,-0.9963627,-2.3896344,-3.177938,-0.15985872,0.11296945,-0.38169003,28.375,29.75,28.75,32.5625,35.0,36.0625
0.15805395,-0.024955295,-0.11796534,-1.7961543,-0.047237527,0.07526734,-0.16609217,-0.39455694,-0.36626354,0.05997605,3.0781813,-0.6257526,0.00017497204,-0.06989674,0.032251023,0.0016641243,-0.009350263,0.004130035,-0.01665537,0.49571043,-1.3770711,1.8986896,-2.0911467,-1.5702871,2.4712856,-0.1222028,0.057329267,-0.073611036,0.008222745,0.0061405306,-0.105517454,-0.19153613,0.1340753,-9.500193,0.7911258,47.691364,-1.0239836,-2.4847932,-3.2006888,-0.1582271,0.104335286,-0.4006999,28.375,29.75,28.75,32.5625,35.0,36.0625
0.16005404,-0.20904407,-0.3255626,-1.7058791,-0.038256064,0.056654222,-0.16932236,-0.3946967,-0.36620113,0.059960756,3.0782223,-0.62577546,0.00014185102,-0.07032507,0.031652663,0.0022312696,-0.009993766,0.005416939,-0.009880002,0.49550715,-1.3769029,1.8985223,-2.0911348,-1.5703353,2.4710915,-0.12152438,0.057447735,-0.07501585,0.008069648,0.006092798,-0.11161385,-0.17238252,0.17238252,-9.576807,0.7553206,47.691364,-0.9865868,-2.4007673,-3.1937075,-0.1355175,0.13012369,-0.36605415,28.375,29.75,28.75,32.5625,35.0,36.0625
0.16205458,-0.0602109,-0.23961298,-1.788576,-0.033304367,0.06350318,-0.15707487,-0.39484388,-0.36615366,0.05998288,3.078133,-0.62579334,0.00013213867,-0.07110316,0.03211009,0.0020663405,-0.010234665,0.0053153834,-0.005755058,0.49525505,-1.3768066,1.8983549,-2.0911224,-1.5702752,2.470862,-0.12313472,0.058211703,-0.07547895,0.0077534346,0.0063616154,-0.11734878,-0.076614454,0.19153613,-9.519346,0.800085,47.642998,-1.0022464,-2.4548974,-3.1734977,-0.14413227,0.12441493,-0.36440292,28.375,29.75,28.75,32.5625,35.0,36.0625
0.16405499,-0.5708265,-0.15283574,-1.7102449,-0.03231304,0.04436298,-0.16967581,-0.39498413,-0.3660869,0.05997827,3.0780995,-0.6257805,0.00015457258,-0.0717351,0.031598385,0.002513718,-0.0109494915,0.0062438264,0.0021303974,0.49499175,-1.3766863,1.8982228,-2.0911224,-1.570239,2.470595,-0.12293234,0.05880859,-0.077206306,0.0077362177,0.0065516955,-0.12503125,0.05746084,0.19153613,-9.385271,0.8112748,47.67345,-1.0734681,-2.4159002,-3.1779637,-0.14012724,0.10585074,-0.2731585,28.375,29.75,28.75,32.5625,35.0,36.0625
0.16605426,-0.4157536,-0.50274056,-1.7828311,-0.025078114,0.042470675,-0.1557847,-0.395116,-0.36601588,0.05997752,3.0781033,-0.6257575,0.00015463553,-0.07284892,0.03218563,0.0027734828,-0.012201411,0.0057813413,0.008022657,0.4947512,-1.376578,1.8980907,-2.091099,-1.5702385,2.4703395,-0.12572937,0.059114125,-0.078301765,0.008339633,0.007877009,-0.13372172,0.05746084,0.11492168,-9.461885,0.7105615,47.67345,-0.8711095,-2.4063573,-3.078477,-0.14286837,0.10699353,-0.17131054,28.375,29.75,28.75,32.5625,35.0,36.0625
0.16805412,-0.42763913,-0.4935923,-1.6676118,-0.022716839,0.03373465,-0.15557528,-0.3952519,-0.3659704,0.059980348,3.0780716,-0.6257504,0.0001524954,-0.073036924,0.03281782,0.0018720584,-0.011379239,0.0044460236,0.008153437,0.4945355,-1.3764454,1.8979243,-2.091087,-1.5702146,2.4701235,-0.12687777,0.06053608,-0.07788504,0.008072401,0.0077930167,-0.13500057,0.15322891,0.095768064,-9.423578,0.7933669,47.657326,-1.1064804,-2.4090557,-3.264553,-0.15366939,0.10250902,-0.11944887,28.375,29.75,28.75,32.5625,35.0,36.0625
0.17005427,0.28955102,0.049442526,-1.5659041,-0.03781205,0.04947733,-0.1594218,-0.3954137,-0.36588818,0.060004458,3.0780995,-0.625639,7.262873e-05,-0.07477694,0.03225637,0.0033619776,-0.012349538,0.0075489553,0.009019863,0.494272,-1.3763492,1.8977445,-2.091039,-1.5702513,2.4697871,-0.1270964,0.060703788,-0.081544064,0.008371779,0.0071754977,-0.1360832,0.076614454,0.17238252,-9.442732,0.8179876,47.655537,-1.05967,-2.3401976,-3.097176,-0.15647644,0.11389989,-0.07658683,28.375,29.75,28.75,32.5625,35.0,36.0625
0.17205434,0.31956756,0.3208226,-1.653755,-0.04057052,0.042199805,-0.16282934,-0.39556882,-0.36582878,0.05999387,3.0780454,-0.625688,8.063186e-05,-0.07483073,0.03361399,0.002386167,-0.011118347,0.0057313535,0.003459845,0.49400777,-1.3761928,1.8975886,-2.0910633,-1.5702151,2.4695604,-0.12925658,0.061289817,-0.080055736,0.008487515,0.006962212,-0.13268349,0.0,0.095768064,-9.461885,0.7620334,47.670765,-1.1662052,-2.358355,-3.1260724,-0.15655494,0.11948337,-0.101688996,28.375,29.75,28.75,32.5625,35.0,36.0625
0.17405468,0.07882767,-0.64794314,-1.7307159,-0.02160986,0.04246123,-0.15397856,-0.39572018,-0.36577278,0.059996296,3.078036,-0.62561166,6.614025e-05,-0.07604695,0.033617884,0.0026771778,-0.012452453,0.0056464765,-0.0034767755,0.4937676,-1.3760484,1.8974088,-2.0910504,-1.5702027,2.4692738,-0.13108622,0.06241331,-0.082150996,0.008898072,0.008177169,-0.12757674,0.0,0.21068975,-9.461885,0.8291774,47.65912,-1.1567848,-2.292567,-3.151609,-0.15892461,0.116767794,-0.1602548,28.375,29.75,28.75,32.5625,35.0,36.0625
0.17605396,-0.19043359,-0.4497801,-1.7503027,-0.0305396,0.038850967,-0.1608739,-0.39585245,-0.36570546,0.06001265,3.077966,-0.6256967,8.6935266e-05,-0.07653886,0.03392777,0.0027017395,-0.012632475,0.004920094,-0.009444515,0.4935037,-1.3759761,1.8972777,-2.0910146,-1.5701545,2.4690719,-0.13233352,0.06299371,-0.08311156,0.009836549,0.008683854,-0.12285629,0.0,0.21068975,-9.442732,0.72622824,47.692257,-1.1204866,-2.3520749,-3.162599,-0.16450405,0.090098724,-0.24110278,28.375,29.75,28.75,32.5625,35.0,36.0625
0.17805429,0.15195836,-0.14667936,-1.6129336,-0.04067569,0.050604574,-0.16059719,-0.3960241,-0.36562058,0.059996154,3.0779774,-0.62568074,0.00010368676,-0.07706137,0.034504656,0.0023256612,-0.01230154,0.004195775,-0.013988063,0.49320388,-1.3757957,1.8970984,-2.0910022,-1.5701541,2.4687607,-0.13376628,0.06394303,-0.08343175,0.010002925,0.008735246,-0.11974544,-0.13407528,0.19153613,-9.5385,0.80679786,47.650166,-1.0881991,-2.2708871,-3.2515142,-0.1752917,0.10012935,-0.29045242,28.375,29.75,28.75,32.5625,35.0,36.0625
0.18005459,-0.35152733,-0.5876672,-1.5227122,-0.037565075,0.057337403,-0.15864874,-0.3961748,-0.36556828,0.060013946,3.077926,-0.6257283,8.555865e-05,-0.077706374,0.035132892,0.0017574801,-0.012121829,0.0029713719,-0.017577646,0.49296373,-1.3756748,1.8969063,-2.090966,-1.5701302,2.468557,-0.13563406,0.065391034,-0.0839092,0.010198489,0.009161542,-0.11802341,-0.24899697,0.17238252,-9.423578,0.8493211,47.684196,-1.0958538,-2.4154382,-3.2001643,-0.18357512,0.10486555,-0.36745465,28.375,29.75,28.75,32.5625,35.0,36.0625
0.18205449,-0.5242349,-0.6313925,-1.7420594,-0.033815015,0.07496966,-0.15666994,-0.39634112,-0.36547118,0.06002617,3.0779028,-0.6258973,4.807881e-05,-0.07863688,0.03594017,0.0020487453,-0.012327536,0.0030116504,-0.02116052,0.49266356,-1.3755667,1.8967394,-2.0909183,-1.5701541,2.4683652,-0.13789758,0.065286316,-0.084604286,0.01086417,0.009327045,-0.11670394,-0.19153613,0.15322891,-9.385271,0.8179876,47.705692,-1.0294968,-2.2995353,-3.2162538,-0.19951127,0.08003119,-0.4301138,28.375,29.75,28.75,32.5625,35.0,36.0625
0.18405451,-1.366561,-0.39229637,-1.8665589,-0.028292662,0.071507744,-0.16138537,-0.39648515,-0.36542395,0.060006715,3.077871,-0.62587154,9.778709e-05,-0.079793654,0.036804575,0.0016419011,-0.011748876,0.0022017658,-0.024010077,0.49242333,-1.3753861,1.896572,-2.0909302,-1.5701064,2.468113,-0.14028448,0.06701184,-0.08585735,0.011387,0.0092001725,-0.11624047,-0.30645782,0.11492168,-9.385271,0.91421866,47.7254,-1.0593153,-2.2228246,-3.2108116,-0.1962462,0.09791005,-0.45961836,28.375,29.75,28.75,32.5625,35.0,36.0625
0.18605475,-0.60357124,-0.27586955,-1.4438386,-0.025029471,0.100942455,-0.16421288,-0.39661896,-0.36534402,0.060006626,3.0778625,-0.6258691,0.000111277564,-0.08064874,0.037563715,0.0009949408,-0.011486754,0.0011001423,-0.023887912,0.4921593,-1.3752894,1.8964518,-2.090906,-1.570094,2.4678485,-0.14248317,0.06869471,-0.08637538,0.01132118,0.009491263,-0.118561186,-0.34476504,0.19153613,-9.423578,0.8672237,47.74241,-1.1329829,-2.215241,-3.2184315,-0.22159225,0.08812967,-0.50200117,28.375,29.75,28.75,32.5625,35.0,36.0625
0.18805422,-1.2158575,-0.24147817,-1.3199452,-0.021819426,0.09988283,-0.16185416,-0.3968004,-0.36528444,0.060033824,3.0777876,-0.625907,7.5619915e-05,-0.08099088,0.03683231,0.00071793806,-0.011918981,0.0013411393,-0.016727597,0.49187192,-1.3751566,1.8962244,-2.0908706,-1.5700582,2.4675944,-0.14167842,0.07047013,-0.08765651,0.0104205115,0.009765428,-0.124915615,-0.40222588,0.076614454,-9.289502,0.8291774,47.694946,-1.0698937,-2.317821,-3.2655673,-0.20839281,0.06308442,-0.51237,28.375,29.75,28.75,32.5625,35.0,36.0625
0.19005449,-1.5537884,0.0927937,-1.333175,-0.023153868,0.10429638,-0.1597856,-0.39697388,-0.36519855,0.060030367,3.0777168,-0.62600315,6.894817e-05,-0.0821914,0.037984196,0.00085702166,-0.011586103,0.0013890831,-0.011132844,0.49154752,-1.3750246,1.8960809,-2.0908945,-1.5700225,2.467339,-0.1444666,0.07071527,-0.08841881,0.011067121,0.009460075,-0.13329765,-0.5554548,-0.038307227,-9.308656,0.82022345,47.709274,-0.9886856,-2.2592428,-3.1727657,-0.20023386,0.07116653,-0.4243125,28.375,29.75,28.75,32.5625,35.0,36.0625
0.19205438,-1.611023,-0.11831717,-1.2365183,-0.0102163525,0.11263187,-0.15548243,-0.39712122,-0.36514777,0.060039222,3.07771,-0.6259539,6.8730915e-05,-0.082254216,0.037591908,-0.00018631911,-0.010496619,0.00028924318,0.0017642692,0.49132052,-1.3748791,1.8958772,-2.0908468,-1.5700101,2.4670823,-0.14354989,0.07367972,-0.08948651,0.01066797,0.009024273,-0.14527665,-0.53630114,-0.076614454,-9.346964,0.8157518,47.687782,-1.2129076,-2.3317337,-3.291779,-0.21645905,0.060703743,-0.33867186,28.375,29.75,28.75,32.5625,35.0,36.0625
0.19405453,-1.0003029,0.2814036,-1.0989811,-0.013385189,0.1325523,-0.16805667,-0.39728236,-0.36507136,0.060020655,3.0776756,-0.6259252,0.00014219801,-0.08461759,0.037605777,0.0022930128,-0.013366814,0.004851829,0.0060553993,0.49100837,-1.3747119,1.8957208,-2.0908468,-1.56995,2.4667566,-0.14589651,0.07136584,-0.09234064,0.0104743745,0.009400779,-0.15191412,-0.5363012,-0.038307227,-9.193734,0.80456203,47.672558,-1.221108,-2.2085886,-3.3096523,-0.22506888,0.058144405,-0.2550989,28.375,29.75,28.75,32.5625,35.0,36.0625
0.19605416,-1.8773785,0.4356314,-1.3011869,-0.0057539465,0.10432272,-0.15814123,-0.39748016,-0.36498025,0.060021635,3.0776567,-0.6259575,8.832207e-05,-0.08527664,0.039932285,0.0011838592,-0.011647801,0.0031618674,0.0072274366,0.49068365,-1.3745435,1.8955187,-2.0908468,-1.5699629,2.4664545,-0.14991586,0.07183658,-0.0903571,0.01032838,0.008696343,-0.15710527,-0.59376204,-0.05746084,-9.270349,0.78888994,47.684196,-1.1722078,-2.2235594,-3.2606978,-0.2343182,0.075065985,-0.1746209,28.375,29.75,28.75,32.5625,35.0,36.0625
0.19805412,-1.0155774,0.2544394,-1.2444528,0.007886942,0.11471724,-0.15895933,-0.3976258,-0.3649095,0.060039364,3.0776622,-0.6258607,6.223711e-05,-0.08507361,0.039447572,-0.00075816375,-0.009601933,0.0001701161,0.009241766,0.49043256,-1.3744458,1.8953513,-2.0907986,-1.5699629,2.4661424,-0.14863083,0.07682656,-0.09191757,0.01050583,0.008303619,-0.15783265,-0.5746084,-0.114921674,-9.232041,0.9298854,47.685097,-1.1813601,-2.35969,-3.4443507,-0.22966291,0.075313956,-0.14468613,28.375,29.75,28.75,32.5625,35.0,36.0625
0.20005438,-0.86554277,0.5397607,-1.0742631,-0.005158595,0.108396605,-0.15783168,-0.3978216,-0.36482316,0.06004355,3.077596,-0.62590855,0.00010686914,-0.086868554,0.040179033,0.0007807685,-0.0113341315,0.002391311,-0.0006587165,0.49007237,-1.3742783,1.8951348,-2.0907629,-1.5699023,2.4658206,-0.15172005,0.07515605,-0.09356602,0.011055068,0.008783915,-0.1510214,-0.68953013,-0.22984336,-9.232041,0.91421866,47.687782,-1.1810322,-2.309641,-3.1464736,-0.22327334,0.07232554,-0.20934996,28.375,29.75,28.75,32.5625,35.0,36.0625
0.20205489,-1.7458462,0.538076,-1.1327047,-0.00046005545,0.0897702,-0.15247501,-0.3980041,-0.3647313,0.060033,3.0775685,-0.6259835,5.417707e-05,-0.0876931,0.04114047,3.4257475e-05,-0.010547221,0.0011503377,-0.0075702462,0.48976025,-1.3741213,1.8949803,-2.0907986,-1.5699147,2.4655588,-0.15396328,0.076909974,-0.09399635,0.011194366,0.008677137,-0.14635232,-0.7278373,-0.15322891,-9.193734,0.86945957,47.678825,-1.2048827,-2.3037221,-3.3466954,-0.22809032,0.09010492,-0.24126777,28.375,29.75,28.75,32.5625,35.0,36.0625
0.20405425,-0.8654335,0.7591254,-1.2197564,0.00254112,0.107504144,-0.15970546,-0.39816117,-0.3646507,0.060037892,3.077575,-0.6259274,0.00013315164,-0.08910255,0.0414261,0.00018018663,-0.010202188,0.002210715,-0.011397619,0.48946032,-1.3739768,1.8947757,-2.0907028,-1.5698789,2.465223,-0.15516314,0.07837238,-0.09603274,0.011003371,0.007864189,-0.14372337,-0.63206923,-0.17238252,-9.193734,0.80679786,47.664497,-1.1752781,-2.263611,-3.3479288,-0.22582176,0.08001259,-0.30667797,28.375,29.75,28.75,32.5625,35.0,36.0625
0.20605439,-1.9625391,0.48472732,-1.1395957,0.005138832,0.08866899,-0.15108182,-0.39836404,-0.36454737,0.060043927,3.0775619,-0.62601906,5.595957e-05,-0.08955041,0.041261036,4.403624e-05,-0.010169015,0.0016625976,-0.012026156,0.48912522,-1.3738201,1.8945731,-2.0906909,-1.5699147,2.464947,-0.15537149,0.07984095,-0.09761917,0.011617059,0.008097321,-0.14330234,-0.5746084,-0.095768064,-9.251195,0.82022345,47.678825,-1.2259198,-2.3295684,-3.2083921,-0.2332319,0.07041419,-0.32820117,28.375,29.75,28.75,32.5625,35.0,36.0625
0.20805417,-0.6965952,0.9180747,-1.1842141,-0.013777517,0.11830939,-0.16269979,-0.39853615,-0.3644774,0.060028013,3.0775323,-0.62607133,7.973308e-05,-0.090645924,0.0415969,0.00024727383,-0.010415275,0.0018681381,-0.014003701,0.4888372,-1.3736275,1.8943805,-2.0906909,-1.5698909,2.4646955,-0.15694328,0.08075042,-0.09928078,0.012077151,0.00821721,-0.14289597,-0.61291564,-0.05746084,-9.270349,0.92093146,47.684196,-1.2661781,-2.2911592,-3.2098079,-0.23625568,0.07830107,-0.36799014,28.375,29.75,28.75,32.5625,35.0,36.0625
0.21005408,-1.2236634,0.747797,-1.2588196,-0.019647907,0.100771315,-0.16405663,-0.3987123,-0.3643947,0.060008623,3.0774848,-0.6261552,0.0001718631,-0.090286605,0.042264506,-0.0012613036,-0.008740682,-0.0008229549,-0.012714874,0.4885018,-1.3734343,1.8941892,-2.0906665,-1.5698308,2.4644184,-0.15755302,0.08294917,-0.09853353,0.012307273,0.008003081,-0.14479457,-0.4405331,0.05746084,-9.289502,0.92764956,47.70211,-1.3124903,-2.5173216,-3.31347,-0.27338824,0.087643355,-0.39215216,28.375,29.75,28.75,32.5625,35.0,36.0625
0.21205458,-0.3522885,0.14836495,-1.251868,-0.035231203,0.11107525,-0.15833178,-0.39890894,-0.3642847,0.060009692,3.0774882,-0.626267,0.00016232951,-0.09254191,0.04197515,0.0010399267,-0.010665777,0.003731449,-0.007736594,0.48815408,-1.3732668,1.8939742,-2.090607,-1.5698546,2.4641402,-0.1587595,0.08156797,-0.10215198,0.012387943,0.007562599,-0.15097788,-0.2681506,0.11492168,-9.251195,0.86945957,47.66987,-1.3036227,-2.3244495,-3.054361,-0.28570578,0.08521676,-0.3662812,28.375,29.75,28.75,32.5625,35.0,36.0625
0.21405469,-0.3192583,-0.25650558,-1.3008938,-0.051581625,0.09799395,-0.16835551,-0.39906532,-0.3641873,0.059970208,3.077512,-0.6263042,0.00024967865,-0.092032306,0.043879982,-0.00212106,-0.0070879855,-0.0014448483,-0.0007626406,0.48784205,-1.3730735,1.8938311,-2.0905945,-1.5698432,2.4638484,-0.16100803,0.085572444,-0.09970404,0.012199873,0.0068311207,-0.16020048,-0.15322891,0.19153613,-9.251195,0.85155696,47.65106,-1.2405988,-2.4864392,-3.3449574,-0.2914118,0.11034371,-0.2947202,28.375,29.75,28.75,32.5625,35.0,36.0625
0.21605475,-0.15566075,-0.62506294,-1.5110933,-0.043604203,0.08524157,-0.16108459,-0.39926422,-0.3641069,0.059983954,3.077484,-0.6262163,0.00025469795,-0.09652662,0.044594817,0.0013249186,-0.010782678,0.004743275,0.0048343576,0.48750484,-1.3729059,1.8935899,-2.0905468,-1.5698065,2.46346,-0.1664093,0.08350461,-0.10516743,0.012550108,0.007196372,-0.17119718,-0.19153613,0.21068975,-9.32781,0.82022345,47.66091,-1.2146716,-2.4429584,-3.0635643,-0.30049023,0.11311744,-0.18376946,28.375,29.75,28.75,32.5625,35.0,36.0625
0.21805426,-0.6491089,-0.7076475,-1.5066614,-0.04335117,0.05812134,-0.1546045,-0.3994718,-0.36400104,0.05999044,3.0774853,-0.62625206,0.00015236156,-0.0958238,0.044873636,-0.0005022252,-0.009310722,0.0017126595,0.009616677,0.4871697,-1.3727487,1.8933882,-2.0905468,-1.5698546,2.4631472,-0.16626264,0.08618167,-0.10413325,0.012203743,0.007329261,-0.17583261,-0.095768064,0.19153613,-9.404425,0.83589023,47.66539,-1.1799424,-2.3989267,-3.2456436,-0.30336478,0.11508708,-0.10327256,28.375,29.75,28.75,32.5625,35.0,36.0625
0.22005427,0.26906806,-0.1516116,-1.5599326,-0.05326862,0.060031433,-0.16363835,-0.39967972,-0.36389962,0.059988752,3.077474,-0.62617445,0.00016147825,-0.09784483,0.045892976,-0.00057343335,-0.009505748,0.0019028082,0.0047047897,0.48679727,-1.372568,1.8931717,-2.090523,-1.5698308,2.4627278,-0.16977337,0.0879848,-0.106113255,0.012126809,0.0074116103,-0.17443042,-0.019153614,0.19153613,-9.442732,0.83589023,47.65643,-1.0349137,-2.506892,-3.2641044,-0.29416984,0.12377104,-0.06813498,28.375,29.75,28.75,32.5625,35.0,36.0625
0.22205415,0.6557982,-0.022576934,-1.4674873,-0.06173762,0.06408659,-0.16177091,-0.3998467,-0.3638064,0.059978604,3.077501,-0.62612414,0.00016369596,-0.099208266,0.045647077,0.00026073796,-0.010798618,0.003758533,-0.0017106488,0.48649773,-1.3724117,1.8930033,-2.0904992,-1.5698427,2.4623935,-0.1706888,0.088291354,-0.10830295,0.011759512,0.0076777954,-0.16892982,-0.095768064,0.24899697,-9.481039,0.88289046,47.66271,-1.1370099,-2.5293365,-3.1022382,-0.3078682,0.13480596,-0.09773846,28.375,29.75,28.75,32.5625,35.0,36.0625
0.22405405,-0.15218452,-0.5058223,-1.5224084,-0.059851103,0.060704075,-0.15293834,-0.40007246,-0.36373568,0.05999757,3.0774152,-0.6261677,0.00016894481,-0.099163614,0.044657968,-0.000363877,-0.011342002,0.0029321518,-0.008781589,0.48613888,-1.3722066,1.8927053,-2.0904515,-1.5697826,2.4620728,-0.16943668,0.09066751,-0.1095875,0.0111467345,0.0085454555,-0.16060627,-0.17238252,0.24899697,-9.308657,0.83365434,47.679718,-1.1465492,-2.6138077,-3.1010823,-0.30349073,0.14205791,-0.18809861,28.375,29.75,28.75,32.5625,35.0,36.0625
0.22605452,0.14873073,-0.7180103,-1.7668674,-0.049398422,0.08102893,-0.15287586,-0.40029523,-0.36362493,0.05999517,3.0773802,-0.6262777,8.76565e-05,-0.10056258,0.04523065,-0.00022884282,-0.011874631,0.00333018,-0.017560141,0.48576713,-1.3720262,1.8925017,-2.0904758,-1.569806,2.4617743,-0.17175463,0.09163376,-0.111029126,0.011014048,0.008833405,-0.1541448,-0.05746084,0.2681506,-9.500193,0.86498255,47.71286,-1.110176,-2.548166,-3.1203258,-0.3052922,0.12775116,-0.2827065,28.375,29.75,28.75,32.5625,35.0,36.0625
0.22805457,-0.3545387,-0.8337541,-1.6485635,-0.060395196,0.08345971,-0.15549731,-0.40046138,-0.36353564,0.059964225,3.0773797,-0.62631696,0.0002509248,-0.101694904,0.04583302,2.6858814e-05,-0.012649941,0.0033627567,-0.02248919,0.4854307,-1.3718098,1.8922981,-2.0904033,-1.5697459,2.4614625,-0.17412622,0.09201155,-0.11216309,0.01138707,0.009490515,-0.15158825,-0.076614454,0.24899697,-9.442732,0.89631605,47.670765,-1.1248024,-2.5574737,-3.0581396,-0.32292616,0.14134336,-0.34875414,28.375,29.75,28.75,32.5625,35.0,36.0625
0.23005483,-0.43325168,-0.92683995,-1.701732,-0.064207055,0.07728557,-0.14476994,-0.40069464,-0.3634574,0.060002267,3.0772767,-0.6264341,0.00013289363,-0.1027752,0.046364866,0.00032313974,-0.01342908,0.0035551828,-0.029226208,0.48508283,-1.3716536,1.892023,-2.0903914,-1.569734,2.461201,-0.17628147,0.09230105,-0.11325232,0.011651747,0.010104385,-0.14700553,-0.076614454,0.2681506,-9.423578,0.84484416,47.66271,-1.0901465,-2.4666052,-3.0627446,-0.3323187,0.12503418,-0.44759372,28.375,29.75,28.75,32.5625,35.0,36.0625
0.23205481,0.13822874,-0.44550088,-1.771865,-0.061260544,0.0725987,-0.1614191,-0.40086445,-0.36334366,0.05996122,3.077327,-0.6264625,0.00021001611,-0.10398049,0.04745812,0.0003873945,-0.013454032,0.0034871665,-0.030950421,0.48474643,-1.3714494,1.8918675,-2.090367,-1.5697454,2.460876,-0.17916723,0.092671506,-0.11394244,0.012022717,0.01015065,-0.1481676,-0.095768064,0.22984336,-9.557653,0.8112748,47.682407,-0.93689364,-2.562209,-3.132855,-0.33209193,0.13163906,-0.5088111,28.375,29.75,28.75,32.5625,35.0,36.0625
0.23405474,0.095463164,-0.2137317,-1.7507591,-0.0595103,0.06717649,-0.15782714,-0.40105298,-0.36324558,0.05994607,3.0773144,-0.6265119,0.000263409,-0.10479821,0.048802957,-0.0004540562,-0.012313539,0.002855848,-0.024647476,0.48439828,-1.3712566,1.8916644,-2.0903318,-1.569722,2.4605603,-0.1816528,0.09389171,-0.11333849,0.011306821,0.009439786,-0.15695578,-0.095768064,0.1340753,-9.5385,0.8179876,47.681515,-0.9470233,-2.5573301,-3.1734571,-0.3388893,0.14061244,-0.48734632,28.375,29.75,28.75,32.5625,35.0,36.0625
0.23605438,-0.14957511,-0.38673893,-1.6503443,-0.04942272,0.06932601,-0.1599235,-0.40130025,-0.36316237,0.05996556,3.0772178,-0.6265801,0.00019773465,-0.1057377,0.048023302,3.6968377e-05,-0.013297063,0.004593001,-0.011920354,0.48401523,-1.3710519,1.8913764,-2.0903318,-1.5696863,2.4602323,-0.18113087,0.09494022,-0.115531206,0.010477418,0.009519765,-0.16915923,-0.15322891,0.076614454,-9.576807,0.7978386,47.721813,-0.9556908,-2.5065928,-2.9770532,-0.3347911,0.14677805,-0.38428465,28.375,29.75,28.75,32.5625,35.0,36.0625
0.23805387,-0.10380676,0.28292996,-1.6523088,-0.034500387,0.08216982,-0.15480413,-0.4014904,-0.3630523,0.059949517,3.0772505,-0.6265794,0.00022963995,-0.10595394,0.04842793,0.0003195914,-0.013598176,0.0055004894,-0.001082104,0.48366758,-1.3708601,1.8911737,-2.0902846,-1.5696982,2.45988,-0.18184032,0.09392276,-0.11484246,0.009876451,0.009369297,-0.18070757,-0.17238252,0.019153614,-9.481039,0.8717007,47.681515,-0.9589603,-2.4389668,-3.337758,-0.31957158,0.14211103,-0.2858392,28.375,29.75,28.75,32.5625,35.0,36.0625
0.24005465,-0.36404523,0.3242679,-1.6502504,-0.02007425,0.09701746,-0.15182629,-0.40173,-0.3629707,0.05995597,3.0771265,-0.6266468,0.00020257027,-0.10656203,0.04888342,-0.0013327555,-0.012945581,0.0022838572,0.0033162476,0.48327184,-1.3706547,1.8909224,-2.0903203,-1.5696257,2.4595423,-0.18363613,0.098030254,-0.116063334,0.010161625,0.01030775,-0.18690065,-0.21068975,0.0,-9.519346,0.900793,47.684196,-0.9193455,-2.4793298,-3.0774212,-0.335388,0.13755031,-0.17931053,28.375,29.75,28.75,32.5625,35.0,36.0625
0.2420541,-1.0719558,0.99099976,-1.4196769,-0.021279167,0.09118198,-0.16449817,-0.40189183,-0.36288497,0.05994868,3.077133,-0.6265511,0.00026796377,-0.107054874,0.048347965,0.00032433704,-0.015456038,0.0045962967,0.00298089,0.48296088,-1.3704991,1.8907427,-2.0902717,-1.5695895,2.4591708,-0.18381429,0.095623925,-0.1170057,0.010302172,0.011453236,-0.18674465,-0.17238252,-0.095768064,-9.481039,0.8224646,47.687782,-1.1452873,-2.4888048,-3.2135959,-0.32443625,0.119871855,-0.1577672,28.375,29.75,28.75,32.5625,35.0,36.0625
0.24405463,-1.1461518,0.7699942,-1.57615,-0.0039903144,0.08439574,-0.15429963,-0.40214297,-0.36280578,0.05996973,3.077041,-0.62657195,0.00016272576,-0.10693548,0.049008843,-0.001225264,-0.013525004,0.0020125601,-0.0033102874,0.48258936,-1.3702941,1.8904561,-2.090296,-1.5695657,2.4588242,-0.18442181,0.09836631,-0.11683334,0.010576339,0.010962128,-0.18105917,-0.28730422,-0.17238252,-9.576807,0.86945957,47.67166,-1.1443989,-2.487112,-3.308313,-0.3396621,0.13164034,-0.18757775,28.375,29.75,28.75,32.5625,35.0,36.0625
0.24605416,0.0040622544,0.9690164,-1.2547743,-0.0071560214,0.10922796,-0.16589844,-0.4023557,-0.36268994,0.05992896,3.0770776,-0.626583,0.00023643018,-0.10810043,0.050485972,-0.00044002704,-0.013964083,0.0029925217,-0.01211455,0.48220506,-1.3700306,1.8902291,-2.0902717,-1.5695657,2.4584422,-0.18781556,0.09661269,-0.1166691,0.011092242,0.01088629,-0.1756497,-0.4213795,-0.19153613,-9.461885,0.8179876,47.68599,-1.2262349,-2.5430698,-3.3711643,-0.32018206,0.12681092,-0.28839758,28.375,29.75,28.75,32.5625,35.0,36.0625
0.24805427,-0.65209633,1.0480957,-1.3607357,-0.008468955,0.094381616,-0.16422999,-0.40259802,-0.36259872,0.05997214,3.076974,-0.626657,0.00012905749,-0.10972592,0.050456703,-1.4863934e-05,-0.014239792,0.0040909047,-0.0149466405,0.48182154,-1.3698858,1.889953,-2.0902479,-1.5695418,2.4581182,-0.18895847,0.09832943,-0.11975511,0.011367824,0.010636427,-0.17395781,-0.36391866,-0.17238252,-9.500193,0.92093146,47.694946,-1.263671,-2.4308326,-3.3666782,-0.32515723,0.12961084,-0.32987714,28.375,29.75,28.75,32.5625,35.0,36.0625
0.2500545,-0.37616938,1.4758888,-1.5058749,-0.006427323,0.08462512,-0.16520032,-0.40279362,-0.36249286,0.05995985,3.0769708,-0.62663466,0.00014311017,-0.10825997,0.051167455,-0.0010894097,-0.011992959,0.0025237817,-0.013076807,0.4814626,-1.3697058,1.8897637,-2.090236,-1.5695304,2.4577458,-0.18800446,0.09789187,-0.11679095,0.0112822745,0.009380969,-0.17487414,-0.24899697,-0.28730422,-9.519346,0.8717007,47.694054,-1.2986664,-2.3911476,-3.5138526,-0.29982284,0.15425767,-0.3748747,28.375,29.75,28.75,32.5625,35.0,36.0625
0.25205496,-0.3415529,1.1242553,-1.2019458,-0.008853809,0.08754992,-0.17681359,-0.4030169,-0.36237738,0.0599421,3.076945,-0.62674236,0.00019660084,-0.11004982,0.050348815,0.00027926132,-0.013131882,0.0055339662,-0.010870614,0.4810551,-1.3694774,1.8895234,-2.0901997,-1.569506,2.457409,-0.18787992,0.09871309,-0.12093079,0.011417488,0.0089896405,-0.17695412,-0.4213795,-0.17238252,-9.500193,0.8717007,47.690468,-1.3286717,-2.3533869,-3.3870747,-0.32471424,0.15759909,-0.3922563,28.375,29.75,28.75,32.5625,35.0,36.0625
0.25405434,-0.85157454,0.17166418,-1.2848777,-0.005821841,0.08309797,-0.15450242,-0.4032396,-0.36229208,0.05997609,3.0769005,-0.62669015,0.00012219908,-0.11018777,0.050842367,-0.00035769396,-0.012524503,0.004166951,-0.0050654975,0.48070684,-1.3693209,1.8892487,-2.090152,-1.5694941,2.4570339,-0.1888177,0.09993055,-0.12103904,0.011814445,0.009106229,-0.1836963,-0.4405331,-0.15322891,-9.423578,0.90750587,47.66539,-1.418695,-2.3066547,-3.444349,-0.34160465,0.15501676,-0.34702724,28.375,29.75,28.75,32.5625,35.0,36.0625
0.25605452,-1.2638854,0.6680928,-1.6641864,-0.020188903,0.07754026,-0.17061707,-0.40345654,-0.36220503,0.059974413,3.076852,-0.6266747,0.0001140311,-0.112106696,0.051110897,0.000908508,-0.0139876325,0.0065085464,0.0040373974,0.48034614,-1.3691165,1.8890089,-2.090152,-1.5694584,2.4566698,-0.19101992,0.099623814,-0.12359785,0.011950717,0.009336947,-0.19500038,-0.19153613,-0.11492168,-9.557653,0.8090337,47.657326,-1.3827411,-2.3728962,-3.3971143,-0.33447194,0.17089131,-0.22602588,28.375,29.75,28.75,32.5625,35.0,36.0625
0.2580539,-0.63087726,0.01985847,-1.727161,-0.02676193,0.085888475,-0.16131009,-0.403675,-0.3620685,0.059948012,3.076897,-0.62666196,0.0001348806,-0.11262606,0.0515035,0.00075522944,-0.0140352715,0.00543622,0.010522437,0.4799377,-1.3689002,1.8888053,-2.0901277,-1.5694822,2.4562478,-0.19238915,0.100636095,-0.12471418,0.012990975,0.009879139,-0.20285484,-0.19153613,0.0,-9.615114,0.8873621,47.68599,-1.3699491,-2.2405152,-3.3974423,-0.34683686,0.16446716,-0.1240502,28.375,29.75,28.75,32.5625,35.0,36.0625
0.26005432,-0.65933,-0.8976293,-1.5917352,-0.049985375,0.08458294,-0.15287116,-0.40390983,-0.36195794,0.059955277,3.0768652,-0.6266931,0.00014622067,-0.11337985,0.052141033,4.57946e-05,-0.013362776,0.0040886565,0.009774474,0.4795293,-1.3686949,1.8885301,-2.0900676,-1.5694584,2.455863,-0.19405268,0.10277999,-0.12577881,0.013427576,0.00991028,-0.20376968,-0.3256114,0.13407528,-9.576807,0.85155696,47.66987,-1.313882,-2.508045,-3.4171176,-0.34937716,0.16969423,-0.0711039,28.375,29.75,28.75,32.5625,35.0,36.0625
0.26205462,-0.47530827,-0.729227,-1.6752747,-0.06990026,0.08472208,-0.16240118,-0.4041369,-0.36185697,0.059962735,3.0768385,-0.626617,0.00012593823,-0.11521934,0.0534124,0.0006954916,-0.013015956,0.005771895,0.0012215634,0.47914413,-1.368503,1.8882788,-2.0900438,-1.5694345,2.4554338,-0.19705582,0.1026673,-0.12718032,0.013613586,0.008829641,-0.19821854,-0.51714754,0.2681506,-9.557653,0.8605109,47.650166,-1.2664905,-2.2126822,-3.407557,-0.3486848,0.19441456,-0.09715578,28.375,29.75,28.75,32.5625,35.0,36.0625
0.26405442,-0.6728664,-1.3338864,-1.7501862,-0.06771828,0.09339076,-0.16716583,-0.40439707,-0.3617577,0.059983455,3.0767817,-0.6266688,3.9889703e-05,-0.11662816,0.05423145,0.0002492023,-0.012942467,0.005270501,-0.009795784,0.47874725,-1.368286,1.8879675,-2.09002,-1.569434,2.4550767,-0.19967602,0.10468551,-0.12855625,0.013442446,0.009001881,-0.18982005,-0.36391866,0.36391866,-9.691729,0.8403672,47.684196,-1.2935021,-2.3380628,-3.3785033,-0.3450872,0.20363164,-0.18461233,28.375,29.75,28.75,32.5625,35.0,36.0625
0.26605493,-0.6346557,-0.6536042,-1.577493,-0.09100072,0.105039194,-0.16953349,-0.40461877,-0.36164242,0.05999779,3.076743,-0.6267028,8.602164e-06,-0.11799242,0.054957353,0.00068105233,-0.013425682,0.0057263304,-0.01916625,0.47835046,-1.3681296,1.88774,-2.0899837,-1.5694221,2.4547062,-0.20214216,0.10504514,-0.13010755,0.014003134,0.009222542,-0.18291494,-0.30645782,0.36391866,-9.691729,0.86945957,47.65106,-1.1880994,-2.3293948,-3.384511,-0.3555691,0.21198499,-0.28126365,28.375,29.75,28.75,32.5625,35.0,36.0625
0.26805487,-1.2464095,-1.3815964,-1.6576337,-0.073106416,0.09369205,-0.15978003,-0.40485072,-0.3615357,0.059983578,3.0766773,-0.626829,8.441752e-05,-0.119258255,0.055305082,0.0008285787,-0.014901152,0.0059607658,-0.027094074,0.47792923,-1.3678893,1.8874773,-2.089948,-1.5693616,2.4543722,-0.20447542,0.10583305,-0.13129571,0.013519621,0.010417601,-0.17732047,-0.45968673,0.36391866,-9.653421,0.9186956,47.64389,-1.0835174,-2.3144293,-3.3430848,-0.36837623,0.21451065,-0.39135087,28.375,29.75,28.75,32.5625,35.0,36.0625
0.27005503,-0.72459346,-0.73738074,-1.276241,-0.08368396,0.11993602,-0.17530148,-0.40510267,-0.3614221,0.05999626,3.0766408,-0.62687975,6.581549e-05,-0.1221447,0.054997902,0.0018933847,-0.017192498,0.008101732,-0.030836364,0.47750872,-1.3676723,1.8871759,-2.0898883,-1.5693492,2.453988,-0.20702922,0.107992135,-0.13628225,0.013393761,0.011465755,-0.17612997,-0.4405331,0.30645782,-9.481039,0.8627467,47.62688,-1.0672514,-2.3002496,-3.160325,-0.345356,0.22549134,-0.47265065,28.375,29.75,28.75,32.5625,35.0,36.0625
0.27205405,-0.90843767,-0.6791483,-1.3833413,-0.065152854,0.12348923,-0.17176135,-0.40532327,-0.36132672,0.059989735,3.0765731,-0.62691754,7.0878465e-05,-0.122189015,0.05511767,0.0015656266,-0.017251292,0.008371221,-0.02203433,0.477125,-1.367468,1.8869494,-2.0899003,-1.5693015,2.4536366,-0.20713836,0.10826486,-0.1356158,0.012214003,0.011414388,-0.18504094,-0.40222588,0.22984336,-9.461885,0.9410752,47.63225,-1.1949278,-2.3494081,-3.2344346,-0.34860814,0.19204953,-0.4721294,28.375,29.75,28.75,32.5625,35.0,36.0625
0.27405423,-1.2048084,-0.114176005,-1.4840604,-0.045098178,0.11054229,-0.17803463,-0.4056025,-0.36121827,0.0600168,3.0765095,-0.62697417,-5.6717792e-05,-0.1237628,0.055351056,0.0016778364,-0.017737461,0.009215404,-0.011104603,0.4767044,-1.3672513,1.8866266,-2.0898888,-1.5693129,2.4532597,-0.20883693,0.10995544,-0.13780698,0.011761885,0.011492099,-0.19766714,-0.21068975,0.21068975,-9.461885,0.88289046,47.67614,-1.1490946,-2.3537726,-3.0966198,-0.33018827,0.19737676,-0.35498917,28.375,29.75,28.75,32.5625,35.0,36.0625
0.27605465,-1.1233431,0.5508407,-0.9204458,-0.042244963,0.09938101,-0.17833726,-0.40585437,-0.36112154,0.060027853,3.0764291,-0.62695265,-6.945774e-05,-0.124854796,0.05495081,0.001504815,-0.018953934,0.009370657,-0.000741987,0.47628403,-1.3670342,1.8863395,-2.089877,-1.5692533,2.4528363,-0.2096408,0.112117216,-0.13983451,0.010961338,0.012527867,-0.20883213,-0.47884035,0.05746084,-9.404425,0.8717007,47.67614,-1.1700448,-2.3657825,-3.1165082,-0.32545087,0.21075311,-0.23436436,28.375,29.75,28.75,32.5625,35.0,36.0625
0.2780544,-1.077929,0.18625279,-1.0441194,-0.019418243,0.09425798,-0.16570179,-0.4061205,-0.36100277,0.060035236,3.0763543,-0.62699056,-0.000106877356,-0.12498339,0.053738214,0.002203994,-0.019516377,0.011588135,0.0063994457,0.47582868,-1.3668178,1.8860644,-2.0898774,-1.5692171,2.4524143,-0.20728281,0.112206355,-0.14137882,0.010210179,0.012033221,-0.2136142,-0.7661445,0.05746084,-9.155427,0.9835985,47.67345,-1.2880628,-2.477821,-3.0645556,-0.2994231,0.2068635,-0.15407123,28.375,29.75,28.75,32.5625,35.0,36.0625
0.28005406,-1.0206988,0.50682724,-0.82138044,-0.0094321575,0.10249322,-0.16060321,-0.4063753,-0.36091354,0.060052946,3.0762951,-0.62696075,-0.00014197841,-0.124934755,0.05300221,0.00087489595,-0.017939487,0.009646535,0.004420257,0.47543356,-1.3665878,1.8857411,-2.0898411,-1.5691813,2.4520082,-0.2055766,0.11645013,-0.14354198,0.010586266,0.011530801,-0.20992668,-0.57460845,-0.019153614,-9.193734,0.92764956,47.658226,-1.440671,-2.532977,-2.8741202,-0.29077914,0.21478942,-0.14298442,28.375,29.75,28.75,32.5625,35.0,36.0625
0.28205395,-0.7655345,1.2318876,-0.75278574,-0.006214183,0.09682534,-0.17443162,-0.4066413,-0.3608018,0.060055323,3.0762527,-0.62697554,-0.00021712751,-0.12587024,0.05376911,0.0026782213,-0.019440718,0.012024249,-0.0047479314,0.47501296,-1.3663491,1.8854531,-2.0898526,-1.5691813,2.4516025,-0.20772272,0.11312549,-0.14387922,0.011440251,0.011789477,-0.20290446,-0.4213795,-0.095768064,-9.270349,0.8717007,47.652847,-1.5148983,-2.4231439,-3.1613512,-0.29061648,0.2063329,-0.252099,28.375,29.75,28.75,32.5625,35.0,36.0625
0.2840543,-0.6443294,1.0925043,-0.9532623,-0.009651618,0.086401135,-0.17113943,-0.40687466,-0.3606725,0.06002773,3.0762694,-0.6270207,-0.00016782783,-0.12645508,0.055893186,2.8856794e-05,-0.01661427,0.006949995,-0.012550762,0.4745915,-1.366095,1.8852037,-2.0898163,-1.5691813,2.4512072,-0.21158776,0.11770411,-0.14357893,0.012366095,0.011591529,-0.19896664,-0.34476504,0.0,-9.155427,0.88960326,47.692257,-1.4474416,-2.5879211,-3.1145213,-0.26970726,0.22461379,-0.30194137,28.375,29.75,28.75,32.5625,35.0,36.0625
0.28605464,-0.31201488,0.2732286,-0.76375496,-0.0037934291,0.071467474,-0.16986088,-0.40713605,-0.36057553,0.060048893,3.0761807,-0.6270425,-0.00020851851,-0.12735468,0.05674219,0.0005539884,-0.017343452,0.0072366814,-0.016504843,0.47417066,-1.3658793,1.8848923,-2.089792,-1.5691332,2.4508114,-0.21400882,0.116999805,-0.14409585,0.013009482,0.012127463,-0.19743286,-0.19153613,-0.038307227,-9.155427,0.91198283,47.701214,-1.3373561,-2.4266915,-3.1764898,-0.27144656,0.21903352,-0.37691897,28.375,29.75,28.75,32.5625,35.0,36.0625
0.28805453,-0.28845692,0.51888686,-0.8069788,-0.015959874,0.05363674,-0.17361619,-0.4074066,-0.36043668,0.06003346,3.0761776,-0.62706196,-0.00020803773,-0.12826473,0.0585329,-0.00047078216,-0.015530107,0.0055946014,-0.01853216,0.47370142,-1.3656145,1.8846053,-2.0897682,-1.5691336,2.4503548,-0.21716943,0.11874203,-0.14398542,0.013455979,0.011272209,-0.19856603,-0.076614454,-0.05746084,-9.136273,0.8717007,47.692257,-1.2816546,-2.4944224,-3.239717,-0.26412255,0.23452872,-0.40695217,28.375,29.75,28.75,32.5625,35.0,36.0625
0.29005405,0.18862659,0.50467294,-1.1000626,-0.023978794,0.047826666,-0.18508029,-0.40766585,-0.36032254,0.06004067,3.076098,-0.62717557,-0.00025685495,-0.12938532,0.059144836,-5.560549e-05,-0.015759367,0.0061563686,-0.01095114,0.473269,-1.3653982,1.8843302,-2.0897677,-1.5691098,2.4500036,-0.21903911,0.118994474,-0.14538029,0.01401903,0.011249502,-0.20801567,0.038307227,-0.1340753,-9.251195,0.90750587,47.688675,-1.2467215,-2.4273264,-3.2433312,-0.25527164,0.24581385,-0.34459645,28.375,29.75,28.75,32.5625,35.0,36.0625
0.2920545,0.05468271,0.1028568,-1.0522053,-0.017502168,0.035928525,-0.16616043,-0.40792367,-0.3602219,0.060048185,3.0760596,-0.62712294,-0.00029037075,-0.1300564,0.060186863,-0.0005239208,-0.015319628,0.005591811,-0.0008510127,0.47286046,-1.3651578,1.8840202,-2.0897443,-1.5690855,2.4495673,-0.22119457,0.11971522,-0.14515801,0.013809227,0.011148902,-0.22027081,0.038307227,-0.1340753,-9.193734,0.9545008,47.68062,-1.2108145,-2.4006443,-3.3108003,-0.23427251,0.24115697,-0.19852541,28.375,29.75,28.75,32.5625,35.0,36.0625
0.29405448,0.051898208,0.10459809,-0.90377724,-0.009779231,0.031598553,-0.17275295,-0.4082013,-0.36010948,0.060068555,3.0760279,-0.6270373,-0.0003251788,-0.1316526,0.061195005,-1.1302033e-05,-0.015360757,0.0063981093,0.003165241,0.4724155,-1.3649174,1.8836726,-2.0896838,-1.5690616,2.449073,-0.22395763,0.12004085,-0.14689477,0.014506444,0.010842859,-0.22704911,0.05746084,-0.19153613,-9.174581,0.86498255,47.6636,-1.0782325,-2.4212546,-3.2984943,-0.2267015,0.26332998,-0.11840582,28.375,29.75,28.75,32.5625,35.0,36.0625
0.2960551,0.2371559,0.5997647,-0.84872156,-0.0057676323,0.03360113,-0.17208123,-0.4084379,-0.35997605,0.060037877,3.076032,-0.6270407,-0.0002554041,-0.13228439,0.062141147,-0.0009270331,-0.015615411,0.004108524,-0.0028009263,0.4719706,-1.3646644,1.8834342,-2.08966,-1.5690373,2.4486299,-0.2267612,0.12183788,-0.1470625,0.014801053,0.012102916,-0.22388655,-0.019153614,-0.05746084,-9.11712,0.79560274,47.67166,-1.0737169,-2.3758004,-3.3178005,-0.20717975,0.272565,-0.085219905,28.375,29.75,28.75,32.5625,35.0,36.0625
0.2980547,0.23720434,0.5554618,-1.0746477,-0.0042454377,0.04139624,-0.16375574,-0.40870762,-0.35981905,0.060039293,3.0759993,-0.6271575,-0.00024344606,-0.13348915,0.06330013,0.00041147287,-0.016894838,0.0057427604,-0.015266095,0.47146517,-1.3644491,1.8831595,-2.0895994,-1.5690254,2.4482017,-0.22986504,0.11941698,-0.14738308,0.0154968975,0.012491972,-0.21452555,-0.13407528,-0.038307227,-9.11712,0.8560339,47.67345,-0.94211507,-2.2986846,-3.4240427,-0.22886412,0.26095763,-0.16997403,28.375,29.75,28.75,32.5625,35.0,36.0625
0.30005497,0.056261305,0.60924464,-0.9845141,-0.018013211,0.04619146,-0.17685278,-0.40898,-0.35969985,0.060032036,3.0759554,-0.62721044,-0.0002760164,-0.1343357,0.06334239,0.0005453416,-0.017639186,0.005281876,-0.024982607,0.47102106,-1.3641845,1.8828591,-2.0895994,-1.569013,2.4477963,-0.23107079,0.12062171,-0.14934324,0.016315697,0.0133617725,-0.20601343,-0.19153613,0.038307227,-9.174581,0.89631605,47.66987,-0.92711353,-2.1953223,-3.3213484,-0.20598789,0.2656808,-0.3038277,28.375,29.75,28.75,32.5625,35.0,36.0625
0.3020546,-0.067623176,0.08329038,-1.1072222,-0.019781083,0.07402084,-0.17332491,-0.4092187,-0.35957006,0.060023766,3.075907,-0.6272984,-0.00021304739,-0.13456802,0.061298475,0.0018439505,-0.01916162,0.0069786804,-0.029297411,0.47056624,-1.363968,1.8826078,-2.0895512,-1.5689644,2.4474027,-0.22805977,0.12117611,-0.15323424,0.017450733,0.013934957,-0.19868632,-0.49799395,0.038307227,-9.404425,0.8806493,47.664497,-1.153089,-2.1478062,-3.263856,-0.22725499,0.2625662,-0.40627742,28.375,29.75,28.75,32.5625,35.0,36.0625
0.30405465,-1.2717317,0.04540953,-1.3708203,-0.033214882,0.078970835,-0.18009272,-0.40951142,-0.35947007,0.06004809,3.0758362,-0.6272823,-0.00026469777,-0.133458,0.061054125,0.00092108175,-0.018521933,0.0045810114,-0.029438237,0.4701229,-1.3637035,1.8822249,-2.089503,-1.5689281,2.4469585,-0.22687748,0.12225893,-0.15263638,0.018206516,0.014472207,-0.19736233,-0.45968673,-0.019153614,-9.346964,0.9612189,47.65912,-1.2867386,-2.1397228,-3.2836633,-0.21693173,0.2589439,-0.48355657,28.375,29.75,28.75,32.5625,35.0,36.0625
0.30605417,-1.0600022,-1.044047,-1.540537,-0.018084187,0.11358227,-0.17193662,-0.40976813,-0.35933653,0.060032483,3.0757878,-0.6274201,-0.00021422726,-0.13419493,0.061042517,0.000660881,-0.018543413,0.003865928,-0.020891367,0.46965462,-1.3634506,1.8819493,-2.0894668,-1.5688924,2.4465826,-0.22758752,0.12427243,-0.15463164,0.0188459,0.01483044,-0.20661847,-0.30645782,0.038307227,-9.385271,0.9164598,47.694946,-1.4268275,-2.144068,-3.3211436,-0.22247255,0.25191405,-0.4567486,28.375,29.75,28.75,32.5625,35.0,36.0625
0.3080546,-1.5635287,-0.16135484,-1.6567649,-0.03888542,0.109242246,-0.18421048,-0.40999138,-0.35920706,0.060008626,3.0757987,-0.62741506,-0.000104144674,-0.13577013,0.061765455,0.00081113254,-0.018744988,0.004074103,-0.008378989,0.4692219,-1.3632096,1.8816985,-2.0893953,-1.5688561,2.4461453,-0.23011138,0.12562835,-0.15674363,0.019367034,0.014928735,-0.22165476,-0.095768064,0.095768064,-9.576807,0.8560339,47.66091,-1.504185,-2.2773206,-3.139584,-0.2196008,0.2742748,-0.34893823,28.375,29.75,28.75,32.5625,35.0,36.0625
0.31005388,-0.5822087,-0.40936697,-1.8383015,-0.04226514,0.11215808,-0.17973535,-0.410294,-0.35908654,0.060029097,3.0757847,-0.6273086,-0.0002050995,-0.13682167,0.061238617,0.0016090547,-0.019311883,0.0061573857,0.0039454703,0.4687661,-1.3629452,1.881327,-2.0893595,-1.5688685,2.445625,-0.22973415,0.12619656,-0.15922478,0.019193307,0.014528428,-0.23360012,-0.13407528,0.21068975,-9.653421,0.9254084,47.63673,-1.4522381,-2.1527164,-3.3304772,-0.22458635,0.25549522,-0.20366228,28.375,29.75,28.75,32.5625,35.0,36.0625
0.31205472,-0.8315916,-0.6625439,-1.8788798,-0.06510403,0.08960477,-0.1743129,-0.41055834,-0.35893768,0.060018264,3.075763,-0.62736255,-0.00016536714,-0.13739093,0.06222949,0.00072290207,-0.018563444,0.0052059107,0.004784826,0.46827316,-1.3627046,1.8810524,-2.0893114,-1.5688442,2.4451687,-0.23161985,0.12766613,-0.15886216,0.018566903,0.014297462,-0.23632537,-0.21068975,0.30645782,-9.787497,0.86945957,47.68062,-1.5410101,-2.2558932,-3.3611164,-0.2179102,0.2708187,-0.14001758,28.375,29.75,28.75,32.5625,35.0,36.0625
0.3140549,-1.352754,-1.0548161,-2.1278038,-0.069436,0.07201563,-0.16355543,-0.41083765,-0.35882923,0.060011778,3.0757172,-0.6273381,-0.00017330832,-0.13841145,0.06294797,-0.00030267247,-0.017614368,0.0038259644,-0.0042550997,0.46782875,-1.3624148,1.8807172,-2.0893,-1.5688084,2.444715,-0.23342802,0.1307044,-0.16020456,0.01853248,0.014071331,-0.22909229,-0.40222588,0.36391866,-9.768343,0.98135734,47.666286,-1.4079325,-2.4599183,-3.2707024,-0.21293116,0.28732088,-0.20414762,28.375,29.75,28.75,32.5625,35.0,36.0625
0.3160543,-0.9250865,-1.6598198,-2.4557607,-0.06412482,0.078798,-0.16583145,-0.4111148,-0.35869312,0.06003543,3.0756571,-0.62738955,-0.00021006771,-0.13980946,0.06374076,0.0002450234,-0.01806423,0.005055955,-0.014417367,0.46734723,-1.3622112,1.8804058,-2.0892398,-1.5687846,2.4442735,-0.23572764,0.13064604,-0.16138537,0.018468395,0.01391895,-0.22122864,-0.34476507,0.28730422,-9.940725,0.9365982,47.666286,-1.3560897,-2.1470566,-3.3536522,-0.18602608,0.2964537,-0.3073448,28.375,29.75,28.75,32.5625,35.0,36.0625
0.31805438,-1.0077727,-1.5818295,-2.1654146,-0.07804418,0.0848188,-0.1663439,-0.41142014,-0.35856476,0.060029652,3.0756278,-0.6273678,-0.00021461966,-0.14146894,0.06515689,0.0001362648,-0.018476231,0.0050834143,-0.022455048,0.46685457,-1.3618984,1.8800358,-2.0892045,-1.5687603,2.4437711,-0.2395972,0.13146396,-0.16208184,0.018139768,0.014276002,-0.21705982,-0.4405331,0.24899697,-9.940725,0.9701675,47.68062,-1.1740344,-2.3235884,-3.3867376,-0.183746,0.28666532,-0.3655821,28.375,29.75,28.75,32.5625,35.0,36.0625
0.3200547,-0.9258663,-1.4044987,-2.0353904,-0.08164619,0.10991378,-0.17485277,-0.41169348,-0.35845435,0.060062487,3.0755095,-0.6274962,-0.00024114002,-0.1428876,0.06613386,-0.0011410881,-0.018305257,0.0027200952,-0.023533085,0.4663977,-1.3616928,1.879701,-2.089144,-1.5686997,2.4434097,-0.24288467,0.13522348,-0.16374066,0.018247701,0.015207314,-0.21926688,-0.61291564,0.22984336,-9.80665,0.8873621,47.67793,-1.135922,-2.383879,-3.334114,-0.1860241,0.30338293,-0.40276712,28.375,29.75,28.75,32.5625,35.0,36.0625
0.32205436,-1.3195643,-0.74848247,-1.9476702,-0.06350288,0.11261524,-0.17681928,-0.41195446,-0.35830113,0.06002441,3.0755653,-0.6274442,-0.00015406712,-0.1441279,0.06740399,-0.0019910072,-0.018529432,0.0015984845,-0.016213723,0.46591648,-1.361392,1.879413,-2.0890849,-1.5686997,2.442889,-0.2463853,0.13704915,-0.16386645,0.017476028,0.015917474,-0.2300875,-0.34476504,0.17238252,-9.730036,0.9612189,47.658226,-0.9853785,-2.4348655,-3.3653657,-0.17434399,0.29239798,-0.31253976,28.375,29.75,28.75,32.5625,35.0,36.0625
0.32405448,-1.9771932,-0.18188053,-2.083397,-0.035799716,0.09327748,-0.17503037,-0.41228825,-0.35818148,0.06006266,3.0754206,-0.62748545,-0.00029682126,-0.14432809,0.0674442,-0.0022780567,-0.019152777,0.0008795255,-0.005775552,0.4654004,-1.3611513,1.879043,-2.0891087,-1.5686511,2.4424174,-0.24702254,0.13791762,-0.16427016,0.017413288,0.016857265,-0.24115999,-0.1340753,0.095768064,-9.787497,0.8537928,47.68062,-1.0453238,-2.44121,-3.4180217,-0.1611692,0.2744987,-0.18647921,28.375,29.75,28.75,32.5625,35.0,36.0625
0.32605478,-1.0184629,-0.30243886,-1.6497303,-0.01536321,0.10538622,-0.1592142,-0.41256958,-0.358063,0.060057204,3.0753753,-0.6274164,-0.00029363588,-0.14551856,0.06697848,-0.0026373637,-0.018780328,0.0012806979,-0.0013751327,0.46493214,-1.3608739,1.8787197,-2.0890963,-1.5686039,2.441912,-0.24679627,0.14116558,-0.1673038,0.017037505,0.01635737,-0.2453323,-0.45968673,0.05746084,-9.519346,0.8918391,47.68599,-1.1087314,-2.5974116,-3.270711,-0.1373404,0.2869176,-0.11174523,28.375,29.75,28.75,32.5625,35.0,36.0625
0.3280555,-1.0821952,0.2603869,-1.3632241,-0.009401122,0.09064959,-0.17064363,-0.4128648,-0.35792068,0.060047403,3.0753627,-0.62747335,-0.0002964756,-0.14631216,0.065300606,6.422656e-05,-0.021904314,0.0068231034,-0.003858543,0.46444106,-1.3605756,1.878373,-2.089049,-1.5686039,2.4414582,-0.2446688,0.13809383,-0.1695414,0.015989386,0.016656587,-0.24072096,-0.47884035,0.019153614,-9.3661175,0.8717007,47.63673,-1.295958,-2.3573675,-3.4025755,-0.123025745,0.29164052,-0.119237006,28.375,29.75,28.75,32.5625,35.0,36.0625
0.33005455,-0.3447524,0.24427333,-1.6032141,0.0037941928,0.08710348,-0.17849667,-0.4131623,-0.3578046,0.060061276,3.0752523,-0.62747526,-0.00032916805,-0.14641382,0.066536956,-0.0014242275,-0.020116165,0.004331576,-0.014566233,0.46394855,-1.3603228,1.8780383,-2.089049,-1.5685319,2.4409811,-0.24638863,0.14027028,-0.16884911,0.01615646,0.016183775,-0.23173203,-0.30645782,-0.019153614,-9.289502,0.89631605,47.66987,-1.3303834,-2.5093098,-3.4523585,-0.110515624,0.28473222,-0.22465396,28.375,29.75,28.75,32.5625,35.0,36.0625
0.33205467,0.33995548,0.8244875,-1.0678183,-0.025824742,0.0962844,-0.18626635,-0.4134718,-0.35767308,0.060068015,3.075184,-0.62754226,-0.00040641392,-0.14599493,0.06624803,-0.0023953896,-0.019215833,0.0028365022,-0.022859404,0.46345693,-1.3600465,1.8776911,-2.089049,-1.56852,2.4405403,-0.24530162,0.14235492,-0.16918135,0.01613434,0.016049238,-0.22235042,-0.19153613,-0.17238252,-9.32781,0.8985519,47.675243,-1.4063843,-2.4497676,-3.508374,-0.08282313,0.28681478,-0.3488981,28.375,29.75,28.75,32.5625,35.0,36.0625
0.33405393,-1.1953548,0.082348175,-1.0180283,-0.020139674,0.05167702,-0.17228946,-0.4137756,-0.35754985,0.060081277,3.0751183,-0.62758934,-0.0004554905,-0.14660873,0.06726923,-0.0029661064,-0.017708017,0.0012168229,-0.031200472,0.46297687,-1.3597698,1.8773206,-2.0890129,-1.5684956,2.4400983,-0.24700241,0.14408664,-0.1703617,0.017706096,0.015428586,-0.21570912,-0.36391866,-0.095768064,-9.155427,0.99702406,47.672558,-1.504695,-2.5588913,-3.436133,-0.07314356,0.31592244,-0.47268155,28.375,29.75,28.75,32.5625,35.0,36.0625
0.33605427,-0.63231313,0.59763104,-0.8166415,-0.01013867,0.062837444,-0.17769668,-0.4140528,-0.35742536,0.060056653,3.0750654,-0.62765247,-0.00038425403,-0.14806952,0.067342415,-0.001105545,-0.018839024,0.0036460336,-0.027206603,0.46249622,-1.3594589,1.8769974,-2.088988,-1.5684365,2.439664,-0.24817143,0.14280018,-0.17347312,0.019457744,0.015366697,-0.22087158,-0.4405331,-0.11492168,-9.097966,0.9455522,47.678825,-1.5236431,-2.3759592,-3.3439064,-0.061574563,0.29553032,-0.50136524,28.375,29.75,28.75,32.5625,35.0,36.0625
0.33805466,-0.3198335,0.43270937,-1.0367727,0.020348838,0.066384144,-0.16829191,-0.41434827,-0.3572583,0.060047194,3.075088,-0.62766945,-0.000393835,-0.15038513,0.06791892,0.00022162455,-0.020478247,0.005488517,-0.016005928,0.4619791,-1.3591831,1.8766736,-2.088928,-1.5684599,2.4391546,-0.25135505,0.14294294,-0.17690235,0.020397512,0.016041184,-0.23525457,-0.076614454,-0.15322891,-9.078813,0.9231726,47.66271,-1.437984,-2.32227,-3.2784076,-0.050660834,0.32184607,-0.40044272,28.375,29.75,28.75,32.5625,35.0,36.0625
0.340054,-0.33307603,0.7351788,-1.0343074,0.027635144,0.05278329,-0.17269334,-0.4146781,-0.35714486,0.06008963,3.074924,-0.6277244,-0.00044864768,-0.1525961,0.06847886,0.001178041,-0.022042533,0.0069035226,-0.005521576,0.4614503,-1.358931,1.8762664,-2.0888917,-1.5683631,2.4386814,-0.2544853,0.1436158,-0.18003273,0.020952294,0.01687186,-0.24886571,0.05746084,-0.05746084,-9.078813,0.8672237,47.657326,-1.3613532,-2.2416813,-3.1495404,-0.060482018,0.30593893,-0.27485418,28.375,29.75,28.75,32.5625,35.0,36.0625
0.342054,0.265441,0.9847394,-0.83891535,0.009163845,0.053411197,-0.17220189,-0.41500664,-0.35700756,0.060111422,3.0748806,-0.6277362,-0.0005921074,-0.15424654,0.070278235,0.0014326904,-0.02231287,0.0067278077,-0.007107087,0.4609567,-1.3586555,1.875883,-2.0888793,-1.5683874,2.438201,-0.25894845,0.14362505,-0.18084894,0.021804225,0.017230693,-0.25174132,-0.05746084,-0.076614454,-9.097966,0.89631605,47.67166,-1.2236753,-2.1530147,-3.2053342,-0.04176849,0.30087018,-0.16919842,28.375,29.75,28.75,32.5625,35.0,36.0625
0.34405413,0.029570263,0.6233285,-1.0203286,-0.010648807,0.056953456,-0.16467579,-0.41528472,-0.3568475,0.060087696,3.074862,-0.627776,-0.0004623788,-0.15473886,0.07091894,0.0013486823,-0.02101332,0.006473099,-0.0146351075,0.46041635,-1.3583671,1.8755711,-2.088796,-1.5683278,2.4376879,-0.25962785,0.14445917,-0.18194811,0.02288655,0.016157728,-0.24489419,-0.4213795,0.019153614,-9.097966,0.9567419,47.687782,-1.1243597,-2.281857,-3.1676347,-0.04481312,0.3060515,-0.23648971,28.375,29.75,28.75,32.5625,35.0,36.0625
0.34605488,-0.53218883,-0.10470135,-1.2577581,-0.02827732,0.07327118,-0.1690642,-0.41557467,-0.35669327,0.06006156,3.0748796,-0.62784106,-0.00040261634,-0.15501322,0.07113402,0.0007222417,-0.019860351,0.0049496093,-0.020813476,0.45991248,-1.3580426,1.8752235,-2.088723,-1.5683278,2.4372225,-0.25983152,0.14668506,-0.18353018,0.02411477,0.015782394,-0.23891978,-0.4405331,0.095768064,-9.193734,0.85155696,47.70032,-1.1865712,-2.1428301,-3.196717,-0.047149602,0.32944226,-0.32606465,28.375,29.75,28.75,32.5625,35.0,36.0625
0.34805417,-0.776728,-0.6499699,-1.4414972,-0.045774814,0.09687289,-0.1723021,-0.41590074,-0.3565779,0.06010406,3.0747385,-0.6279297,-0.00049316767,-0.15540029,0.07250929,0.0014725111,-0.019824503,0.0046784934,-0.026343068,0.4594075,-1.3577918,1.8748173,-2.0886862,-1.5682677,2.4367912,-0.26236036,0.14475885,-0.18341795,0.026202176,0.01590362,-0.23591769,-0.4213795,0.05746084,-9.308657,0.9097417,47.658226,-1.1824154,-2.0240588,-3.338059,-0.06617954,0.34037033,-0.393035,28.375,29.75,28.75,32.5625,35.0,36.0625
0.35005394,-1.3678883,-0.7072275,-1.3275982,-0.06860833,0.10462862,-0.17302209,-0.41618955,-0.35640976,0.060082577,3.0747492,-0.6279689,-0.00039543465,-0.15445098,0.07229408,0.00076067715,-0.019668194,0.0022355223,-0.02038807,0.45886695,-1.3574916,1.874483,-2.0885904,-1.5682434,2.4362738,-0.26161867,0.14566942,-0.18320332,0.027360406,0.01685297,-0.24113132,-0.34476507,0.21068975,-9.442732,0.8806493,47.686886,-1.0754207,-2.0409408,-3.261195,-0.07169498,0.31789458,-0.37602141,28.375,29.75,28.75,32.5625,35.0,36.0625
0.3520548,-1.2133886,-0.76377165,-1.5917727,-0.06750219,0.11165203,-0.1775955,-0.41650465,-0.35625502,0.06008438,3.0747092,-0.62806714,-0.00037432034,-0.15590194,0.07284792,0.00093447557,-0.020357063,0.002576718,-0.009617845,0.45832732,-1.3571916,1.8740987,-2.0885065,-1.5682191,2.4358008,-0.26389357,0.14687957,-0.18512584,0.027508207,0.017351296,-0.25417536,-0.38307226,0.15322891,-9.423578,0.9030289,47.675243,-1.174089,-2.037687,-3.316492,-0.07401174,0.33477265,-0.29366046,28.375,29.75,28.75,32.5625,35.0,36.0625
0.35405475,-1.2871655,-0.50337476,-1.6938652,-0.053617474,0.10762775,-0.17343956,-0.41682246,-0.3561253,0.06009917,3.0746305,-0.62794995,-0.00039586297,-0.156431,0.0726533,0.00095843035,-0.020723265,0.002910181,0.0005381448,0.45779917,-1.3569151,1.8737272,-2.0884826,-1.5681475,2.4352098,-0.26396182,0.14792985,-0.18644832,0.027372643,0.017577095,-0.26439777,-0.40222588,0.15322891,-9.5385,0.9410752,47.68062,-1.2931147,-2.057408,-3.3432956,-0.08950238,0.31320512,-0.1588803,28.375,29.75,28.75,32.5625,35.0,36.0625
0.35605446,-1.0793059,-0.4229853,-1.6413437,-0.036576442,0.113544606,-0.1744096,-0.4171417,-0.35595605,0.060080957,3.0746253,-0.6280848,-0.00035167162,-0.15858248,0.07237776,0.0010354638,-0.021993797,0.0040735956,-0.0010403997,0.45724687,-1.3565782,1.8733438,-2.0883992,-1.5681471,2.4347425,-0.26548797,0.1510237,-0.19017386,0.026406962,0.018189615,-0.26434374,-0.34476504,0.076614454,-9.519346,0.91198283,47.693153,-1.3442173,-2.270571,-3.3278074,-0.07228774,0.3123927,-0.11462419,28.375,29.75,28.75,32.5625,35.0,36.0625
0.3580548,-0.8705702,0.21710199,-1.7106442,-0.02781081,0.099290475,-0.16070749,-0.41745695,-0.3558365,0.060078587,3.0745194,-0.6280877,-0.0003452495,-0.15813075,0.07212627,-0.0014071047,-0.020653537,0.00034845565,-0.008570258,0.4567309,-1.3562651,1.8729724,-2.0883996,-1.5680627,2.434242,-0.26477253,0.155953,-0.19045877,0.025704904,0.018630177,-0.2560962,-0.4405331,-0.038307227,-9.5385,0.9186956,47.698532,-1.4324987,-2.2601652,-3.4019942,-0.064542994,0.31603092,-0.18235432,28.375,29.75,28.75,32.5625,35.0,36.0625
0.3600546,0.15594383,0.81894857,-1.6459702,-0.03121543,0.11271217,-0.17622122,-0.41778588,-0.35567862,0.060098726,3.0744789,-0.62814254,-0.0004051485,-0.15817116,0.07293245,-0.0019372527,-0.02000773,-0.00025112813,-0.02004211,0.45619076,-1.3559892,1.872578,-2.0883276,-1.5680627,2.4337416,-0.26578066,0.15622891,-0.18954101,0.025317116,0.01830742,-0.24563225,-0.49799395,0.019153614,-9.595961,0.90750587,47.687782,-1.41307,-2.2818491,-3.4418755,-0.033462048,0.29634345,-0.29924294,28.375,29.75,28.75,32.5625,35.0,36.0625
0.3620548,-0.83611214,0.40394604,-1.7230119,-0.032166217,0.08133624,-0.16208552,-0.41810137,-0.35550317,0.060059663,3.0744855,-0.628248,-0.00032009688,-0.15976016,0.07463098,-0.002727338,-0.019604,-0.0019743245,-0.03253086,0.45562524,-1.3556291,1.872219,-2.0882676,-1.5680507,2.4332411,-0.27000612,0.15854758,-0.1907311,0.025903191,0.018672304,-0.23736905,-0.45968673,0.038307227,-9.519346,0.98135734,47.66987,-1.231468,-2.4432817,-3.509148,-0.04440712,0.2953143,-0.44660062,28.375,29.75,28.75,32.5625,35.0,36.0625
0.36405495,-0.07446293,0.76028997,-1.6424675,-0.040481474,0.08915598,-0.17377236,-0.4184016,-0.35538256,0.060063325,3.0743916,-0.6283028,-0.00027035526,-0.16001341,0.07483606,-0.002855284,-0.018799754,-0.0029899997,-0.029641423,0.4551213,-1.3553287,1.8718351,-2.0882075,-1.5679668,2.4327836,-0.27022508,0.15980038,-0.19238141,0.027605541,0.01841302,-0.24047674,-0.2681506,0.0,-9.481039,0.89631605,47.651955,-1.2554303,-2.3862338,-3.4554737,-0.039914034,0.322532,-0.49851412,28.375,29.75,28.75,32.5625,35.0,36.0625
0.36605418,-0.05058885,-0.14748412,-1.9396768,-0.018985448,0.081370026,-0.17350872,-0.41874605,-0.35522628,0.06009577,3.0742843,-0.62840605,-0.0003819886,-0.16023491,0.074476145,-0.0029641325,-0.018270751,-0.003263642,-0.0146196615,0.45455766,-1.3550766,1.8714522,-2.0881832,-1.567943,2.4322984,-0.269424,0.16138844,-0.19427694,0.028448412,0.018119587,-0.25469515,-0.15322891,0.019153614,-9.519346,0.8403672,47.64121,-1.2798452,-2.4436505,-3.370718,-0.04744664,0.31000796,-0.39744383,28.375,29.75,28.75,32.5625,35.0,36.0625
0.36805436,-0.54839504,-0.20360947,-1.3871142,-0.043335937,0.07963462,-0.17471062,-0.4191023,-0.35508907,0.06009273,3.074238,-0.6284295,-0.00040459767,-0.1621495,0.07560756,-0.002323627,-0.019344378,-0.002006541,-0.004900203,0.45401666,-1.3546927,1.8709854,-2.088135,-1.5679191,2.4317782,-0.2729844,0.1614541,-0.1958539,0.028411081,0.01857445,-0.2679736,-0.3256114,0.11492168,-9.346964,0.8940802,47.66539,-1.3545015,-2.407814,-3.4826193,-0.05134949,0.30967414,-0.25489113,28.375,29.75,28.75,32.5625,35.0,36.0625
0.37005463,-0.5968748,-0.41076687,-1.6499381,-0.034915946,0.08406163,-0.15638536,-0.4194228,-0.3549382,0.0601046,3.074189,-0.62838227,-0.0004309536,-0.16452181,0.07653663,-0.0026927642,-0.019404273,-0.0021550872,-0.0052202307,0.45347524,-1.3544154,1.8706135,-2.0880873,-1.5678829,2.4312139,-0.27640474,0.16482902,-0.19913828,0.028456023,0.01871036,-0.2710714,-0.21068975,0.1340753,-9.385271,0.87617236,47.67166,-1.1396515,-2.4779134,-3.4003146,-0.023199305,0.31224358,-0.18701518,28.375,29.75,28.75,32.5625,35.0,36.0625
0.3720546,-0.0020858708,0.088963486,-1.6646091,-0.030942792,0.0823531,-0.15201816,-0.4197531,-0.3547468,0.06007777,3.0742009,-0.6285062,-0.0003878325,-0.1646829,0.076985955,-0.0022386536,-0.020401018,-0.0031852787,-0.014766551,0.45288667,-1.3540709,1.870242,-2.0880148,-1.5678943,2.4307013,-0.277903,0.16416839,-0.19983679,0.030285316,0.020031432,-0.26302278,-0.19153613,0.05746084,-9.481039,0.8806493,47.657326,-1.0051047,-2.259006,-3.419698,-0.045000255,0.31462908,-0.23065689,28.375,29.75,28.75,32.5625,35.0,36.0625
0.37405497,0.2192758,-0.029281076,-1.1659881,-0.041448537,0.06941592,-0.16730069,-0.4200824,-0.35461256,0.06009705,3.0740626,-0.6285786,-0.00035634649,-0.1650618,0.07755872,-0.0014310568,-0.021199929,-0.0032587692,-0.024445336,0.45232266,-1.3537811,1.8698353,-2.0879543,-1.5677856,2.4302003,-0.27943116,0.16292606,-0.20060118,0.03202186,0.020781748,-0.25487038,-0.24899697,0.095768064,-9.385271,0.90527004,47.672558,-1.0851033,-2.1766143,-3.4080539,-0.069562316,0.29486918,-0.35447514,28.375,29.75,28.75,32.5625,35.0,36.0625
0.3760542,-0.24116878,-0.325819,-1.2939261,-0.025927704,0.042828448,-0.14932822,-0.42042807,-0.3544508,0.06009769,3.0740047,-0.6286633,-0.00040963723,-0.16542459,0.07801639,-0.0017846747,-0.02026664,-0.0038025987,-0.026476951,0.45175833,-1.3534592,1.86944,-2.0879304,-1.5677742,2.4296966,-0.2799356,0.16415383,-0.20145245,0.032554366,0.020191045,-0.25334254,-0.15322891,0.15322891,-9.232041,0.88960326,47.68599,-1.1027244,-2.2857904,-3.3848848,-0.06879249,0.29697716,-0.434142,28.375,29.75,28.75,32.5625,35.0,36.0625
0.37805462,0.8571105,0.8996757,-1.5409175,-0.030826038,0.05822126,-0.17894578,-0.4207472,-0.35428914,0.060081396,3.074001,-0.6286385,-0.00030606257,-0.16585343,0.07810372,-0.0016123469,-0.020010825,-0.0044537736,-0.017905017,0.45119435,-1.353111,1.8690318,-2.0878217,-1.5677265,2.4291177,-0.2802818,0.16516416,-0.2035268,0.034366224,0.020257987,-0.262261,-0.038307227,0.11492168,-9.3661175,0.89631605,47.619713,-1.1866028,-2.2962706,-3.4139874,-0.088904634,0.2851078,-0.37179515,28.375,29.75,28.75,32.5625,35.0,36.0625
