Tylouw/Master_Thesis_Code/training_data/batch_1/rect_rod_t0.3/sample_72_session_2.csv
timestamp[s],tcp_force_x[N],tcp_force_y[N],tcp_force_z[N],tcp_force_rx[Nm?],tcp_force_ry[Nm?],tcp_force_rz[Nm?],tcp_pose_x[m],tcp_pose_y[m],tcp_pose_z[m],tcp_pose_rx[rot_vec_x],tcp_pose_ry[rot_vec_y],tcp_pose_rz[rot_vec_z],tcp_velo_x[m/s],tcp_velo_y[m/s],tcp_velo_z[m/s],tcp_velo_rx[rot_vec_x/s],tcp_velo_ry[rot_vec_y/s],tcp_velo_rz[rot_vec_z/s],q1[rad],q2[rad],q3[rad],q4[rad],q5[rad],q6[rad],qd1[rad/s],qd2[rad/s],qd3[rad/s],qd4[rad/s],qd5[rad/s],qd6[rad/s],tool_acc_x,tool_acc_y,tool_acc_z,current_of_whole_robot[A],voltage_of_whole_robot[V],current_J1[A],current_J2[A],current_J3[A],current_J4[A],current_J5[A],current_J6[A],temp_J1[C],temp_J2[C],temp_J3[C],temp_J4[C],temp_J5[C],temp_J6[C]
1.0210206e-06,0.3735407,-0.4634648,-0.46796474,-0.008955764,0.021829339,-0.0009230729,-0.38932467,-0.36871672,0.0600039,-3.078701,0.6249468,0.000166303,0.0014238025,0.0008218997,-0.0012132061,0.0016188398,-0.0031130482,6.0665907e-06,0.50503284,-1.3816559,1.9042233,-2.0919034,-1.5708417,2.4800372,-0.00011138563,-5.075372e-05,0.002603691,0.00095436093,9.736563e-05,-0.00011877057,0.11492168,0.13407528,-8.714894,0.72622824,47.71017,-0.21371073,-3.1279454,-2.4168365,-0.20032024,0.1618944,-0.008938398,28.5625,29.875,28.875,32.6875,35.125,36.1875
0.002055216,-0.54405683,-0.7226323,-0.4425331,0.00093557854,-0.0022397079,0.009066055,-0.38934413,-0.36873463,0.060039718,-3.078768,0.624903,0.00027083917,-0.0015694724,-0.0008428365,-0.00013527893,-0.0034414965,0.0059937304,1.3831501e-05,0.50504476,-1.3816919,1.904188,-2.0919197,-1.5708417,2.4800134,-0.000109134526,-6.809259e-07,0.002426502,-0.009336795,9.53034e-05,-0.00012309721,0.15322891,0.17238252,-8.676587,0.7732232,47.721813,-0.14319226,-3.004948,-2.3425598,-0.13882132,0.16372986,-0.027448546,28.5625,29.875,28.875,32.6875,35.125,36.1875
0.004054287,-0.26871482,-0.22788045,-0.30624798,-0.014611457,0.017295267,-0.001516676,-0.38931456,-0.36871648,0.060000855,-3.0787082,0.6248326,0.000195061,-0.0019856503,-0.0010759213,-0.0012695563,-0.003066375,0.005309123,1.9434128e-05,0.5050568,-1.3816667,1.9042467,-2.0919197,-1.5708655,2.479989,-0.00010697257,0.0028882052,0.001968723,-0.010987268,9.332688e-05,-0.00012572084,0.095768064,0.21068975,-8.734048,0.7396539,47.70659,-0.22210342,-3.3567517,-2.518917,-0.050277688,0.15974815,-0.0054372074,28.5625,29.875,28.875,32.6875,35.125,36.1875
0.006054711,-0.2274509,-0.66003567,-0.606856,0.00054843014,0.009018669,0.010379148,-0.3893451,-0.3687237,0.0599993,-3.0787048,0.6249666,0.00020907492,-0.0009007636,-0.00047289388,-0.0009418418,-0.0013907418,0.002304586,1.8011688e-05,0.50503284,-1.3816191,1.904199,-2.0919416,-1.5708536,2.4800491,-0.0001048947,0.0017851582,0.0013568357,-0.005832131,9.14307e-05,-0.00012268935,-0.05746084,0.24899697,-8.734048,0.7665104,47.728977,-0.1748808,-3.368085,-2.4660873,-0.06552321,0.17376232,-0.02259165,28.5625,29.875,28.875,32.6875,35.125,36.1875
0.008054198,0.08933055,-0.013165279,-0.7499292,0.020611985,-0.0044639274,-0.0012951174,-0.38934946,-0.36872876,0.060016844,-3.078725,0.62493247,0.00026191492,0.00023093537,0.00015608777,-0.00070913427,0.00037088466,-0.0008556077,1.6291066e-05,0.50504476,-1.3816435,1.9041876,-2.0919397,-1.5708655,2.4800372,-0.00010289597,0.0007869819,0.00084288436,-0.00070197653,8.9609974e-05,-0.00011945779,-0.038307227,0.19153613,-8.925584,0.7553206,47.728977,-0.1473864,-3.2404256,-2.492855,-0.11198872,0.16851327,-0.01963023,28.5625,29.875,28.875,32.6875,35.125,36.1875
0.010053849,-0.07485424,0.6416527,-1.1944972,0.012964894,-0.0072182636,0.0024960448,-0.38931298,-0.36871022,0.059978306,-3.0786855,0.6249054,0.00012301706,0.00079558603,0.00047663713,-0.00011499297,0.0008894162,-0.0017774085,3.5790172e-06,0.50503284,-1.3816321,1.9042586,-2.0919263,-1.5708417,2.4800134,-0.00011204601,-0.0007454766,0.0006762327,0.0020547577,8.786024e-05,-0.000116370284,-0.038307227,0.13407528,-9.136273,0.7284641,47.7451,-0.80065805,-2.768188,-2.8695297,-0.13127682,0.12981257,-0.10627036,28.5625,29.875,28.875,32.6875,35.125,36.1875
0.012054188,-0.7724709,-0.5180831,-1.409427,0.016618254,-0.008326073,0.008504835,-0.3892993,-0.36870262,0.059973367,-3.0786474,0.6249355,6.521343e-05,0.00081467244,0.0005085765,-0.00022241018,0.0014542543,-0.0027932988,0.0005941026,0.50503284,-1.3816319,1.9042586,-2.0918782,-1.5708417,2.480037,-0.00014748746,-2.2008577e-05,-0.0002415014,0.0034112937,8.6177664e-05,-0.0007419901,0.05746084,0.1340753,-9.174581,0.7217513,47.70211,-0.95837307,-2.7343016,-2.96241,-0.15219396,0.16091162,-0.16562669,28.5625,29.875,28.875,32.6875,35.125,36.1875
0.01405433,-1.224699,-0.6481339,-1.5173738,-0.013198548,0.0048441053,-0.002600878,-0.3893109,-0.36868894,0.059958395,-3.0786138,0.6248315,8.282264e-05,-0.0038894939,0.0045689023,-0.0048990627,0.0051845973,-0.009557644,4.614495e-05,0.505029,-1.3815916,1.9042453,-2.0918787,-1.5708898,2.4799726,-0.011387263,0.011626188,-0.0031237623,0.0023679829,8.4558334e-05,-0.011430664,0.05746084,0.15322891,-9.3661175,0.7351769,47.70032,-0.4984337,-3.214576,-3.0218701,-0.12540856,0.15099876,-0.115632474,28.5625,29.875,28.875,32.6875,35.125,36.1875
0.016053673,-1.1275197,-1.048648,-1.4976629,-0.042386923,0.041217547,-0.025599439,-0.38932365,-0.36870366,0.059964933,-3.0786524,0.62487435,2.2667586e-05,-0.00522758,0.0047484064,-0.0038447753,0.003866878,-0.007181054,0.0072637084,0.50500435,-1.3815678,1.9041971,-2.0918553,-1.5708297,2.4799697,-0.01293918,0.0106392875,-0.004211249,0.0017244236,8.299871e-05,-0.020199785,-0.11492168,0.1340753,-9.385271,0.7396539,47.691364,-0.4983836,-3.3067985,-3.0546298,-0.112768,0.14808287,-0.018298173,28.5625,29.875,28.875,32.6875,35.125,36.1875
0.018054703,-1.7657652,-1.5165466,-1.7487336,-0.040674604,0.06074932,-0.036013555,-0.38932654,-0.36868137,0.059933294,-3.0786207,0.6249239,-4.649051e-05,-0.0053102677,0.0046153027,-0.0024381808,0.0025184634,-0.0047416645,0.011951437,0.50495636,-1.381533,1.9042333,-2.0918791,-1.5708174,2.4799566,-0.012789809,0.00762465,-0.0038112234,0.0015514751,8.149554e-05,-0.02473877,-0.4213795,0.15322891,-9.442732,0.71279734,47.686886,-0.69164324,-2.9308305,-3.1411362,-0.09228349,0.14682186,0.013508553,28.5625,29.875,28.875,32.6875,35.125,36.1875
0.020054178,-1.8794997,-0.6444204,-1.8164846,-0.017760137,0.079623766,-0.06194167,-0.3892994,-0.3686653,0.059924252,-3.0785747,0.6247243,-5.66677e-05,-0.0053849854,0.0050933342,-0.0025444154,0.0031146852,-0.005813947,0.0086863795,0.50499225,-1.3815451,1.9042572,-2.091831,-1.5708774,2.479874,-0.013664263,0.007851932,-0.0041381,0.0028769118,8.0045735e-05,-0.02234814,-0.47884035,0.05746084,-9.5385,0.77545905,47.67614,-0.9490777,-2.8313065,-3.2709484,-0.08509014,0.13926359,0.008563815,28.5625,29.875,28.875,32.6875,35.125,36.1875
0.022054378,-1.8367199,0.13483816,-2.1542196,0.014418055,0.0746399,-0.09162367,-0.38932985,-0.36864072,0.059899874,-3.0785265,0.624852,-0.00015492224,-0.0062072794,0.006236749,-0.0034321384,0.004873069,-0.008989931,0.0025219768,0.5049074,-1.3814719,1.9042205,-2.0918057,-1.5708536,2.4798748,-0.016358333,0.010627477,-0.0060170665,0.0056116926,7.8646946e-05,-0.018876888,-0.4213795,0.076614454,-9.710882,0.75084364,47.70659,-0.8154616,-2.8952353,-3.3799891,-0.106703386,0.12691927,-0.072413646,28.5625,29.875,28.875,32.6875,35.125,36.1875
0.02405451,-1.6649262,-0.01642142,-2.0073886,0.03561222,0.07422671,-0.09552034,-0.3893245,-0.36864617,0.059895914,-3.078544,0.6248574,-0.0001789993,-0.007958419,0.006388695,-0.0026070417,0.0040801563,-0.0075895432,-0.0007073297,0.5049068,-1.3814716,1.9042319,-2.0918176,-1.5708297,2.4798753,-0.018260384,0.011271778,-0.008769167,0.0061108735,9.073223e-05,-0.017548477,-0.51714754,0.038307227,-9.710882,0.70608455,47.67345,-0.85307527,-2.8883448,-3.3338585,-0.11593564,0.12942791,-0.075724736,28.5625,29.875,28.875,32.6875,35.125,36.1875
0.026054129,-1.9713948,0.05900395,-2.21492,0.02471612,0.06599234,-0.11652327,-0.38934833,-0.36865696,0.05989337,-3.0785654,0.62484264,-0.00017629805,-0.009151539,0.005885489,-0.0025510725,0.0033081854,-0.006208271,-0.001432391,0.50489485,-1.3814231,1.9041833,-2.0918305,-1.5708174,2.4798515,-0.018530075,0.012990497,-0.010593054,0.00463397,9.105678e-05,-0.01709193,-0.6512228,-0.076614454,-9.710882,0.78217715,47.72808,-0.9204043,-2.842206,-3.3114438,-0.10220952,0.12259683,-0.08256626,28.5625,29.875,28.875,32.6875,35.125,36.1875
0.028054073,-1.7236389,-0.017961217,-2.1819632,-0.0028563926,0.088681065,-0.12191868,-0.38936573,-0.36864507,0.059884585,-3.0785422,0.62479955,-0.00023379101,-0.0098945405,0.005923913,-0.0026372483,0.0031282157,-0.005888041,-0.0028530112,0.5048585,-1.3813746,1.9041351,-2.0917828,-1.5708174,2.4797912,-0.019288993,0.014029731,-0.011515493,0.004149934,8.966581e-05,-0.016429637,-0.7086837,0.0,-9.80665,0.7284641,47.719128,-0.9668561,-2.8146336,-3.3769152,-0.08050285,0.12426393,-0.11249365,28.5625,29.875,28.875,32.6875,35.125,36.1875
0.030054247,-2.4487789,-0.71710825,-2.1741855,-0.011971732,0.08716014,-0.13291314,-0.38939884,-0.36862138,0.059897963,-3.0785036,0.62488836,-0.00018319066,-0.011082139,0.0060042064,-0.002482759,0.0031152505,-0.005868468,-0.004774821,0.5048103,-1.381374,1.9040984,-2.091758,-1.5708536,2.4798033,-0.02053416,0.015623328,-0.01393097,0.0049479315,8.820908e-05,-0.015751833,-0.7852981,-0.19153613,-9.80665,0.7463667,47.709274,-0.9485416,-2.8612928,-3.325705,-0.09136692,0.12887555,-0.12629688,28.5625,29.875,28.875,32.6875,35.125,36.1875
0.032054313,-2.197296,-0.9030515,-2.239515,-0.010580088,0.10898175,-0.13977043,-0.38938424,-0.36859533,0.05985005,-3.0784895,0.6248676,-0.00033291642,-0.011097635,0.006518397,-0.0024170068,0.0036276756,-0.006768165,-0.0056357505,0.50475,-1.3813381,1.9041704,-2.0917819,-1.5708054,2.4797318,-0.021406872,0.015379436,-0.014126936,0.0064239036,7.605384e-05,-0.015763717,-0.80445176,-0.095768064,-9.883265,0.7463667,47.701214,-1.0186666,-2.801873,-3.3286898,-0.10193755,0.12201036,-0.14890942,28.5625,29.875,28.875,32.6875,35.125,36.1875
0.034054145,-2.226849,-0.6694846,-2.1388862,0.00035409944,0.100777924,-0.15983114,-0.38941452,-0.36860567,0.059880972,-3.0785,0.62479264,-0.00025405193,-0.0115008075,0.0068655736,-0.0027596955,0.004374547,-0.008108348,-0.006352613,0.50476176,-1.3813255,1.9040741,-2.0917332,-1.5708417,2.4796956,-0.022365093,0.016810335,-0.015335326,0.00773504,7.142583e-05,-0.01600448,-0.8619126,0.038307227,-9.959879,0.7732232,47.686886,-1.0354345,-2.8196087,-3.3153822,-0.106397554,0.110675484,-0.15885586,28.5625,29.875,28.875,32.6875,35.125,36.1875
0.036054205,-2.021224,-0.7527803,-2.2022026,0.018627146,0.08895006,-0.16733028,-0.38944298,-0.3685614,0.059842627,-3.0784223,0.62495023,-0.00036564723,-0.012829227,0.0076531526,-0.0020706614,0.003422757,-0.0063929036,-0.0075043277,0.5046531,-1.3812538,1.9040741,-2.0917218,-1.5708297,2.479695,-0.024930114,0.015770001,-0.015504348,0.0069826134,7.009344e-05,-0.017417809,-0.59376204,0.0,-9.80665,0.73069996,47.650166,-0.99011993,-2.7556322,-3.388084,-0.10271287,0.106561,-0.16773385,28.5625,29.875,28.875,32.6875,35.125,36.1875
0.038054366,-1.1353369,-0.18563567,-2.170864,0.012286247,0.08717775,-0.17935069,-0.3894571,-0.36856624,0.05985327,-3.0784507,0.62493753,-0.00034883362,-0.014772693,0.007933866,-0.001784985,0.0026581304,-0.005020572,-0.0085034175,0.50464034,-1.3812532,1.9040493,-2.0917222,-1.5708174,2.4796708,-0.027219087,0.017223785,-0.017680319,0.0061338977,6.900085e-05,-0.018706478,-0.51714754,-0.038307227,-9.768343,0.7620334,47.66987,-0.8700954,-2.765926,-3.375893,-0.09066084,0.104873486,-0.19619809,28.5625,29.875,28.875,32.6875,35.125,36.1875
0.04005367,-1.3629978,-0.6435034,-2.0826204,0.014534259,0.060876705,-0.18428102,-0.38952747,-0.36854115,0.05986428,-3.0784478,0.6250317,-0.0003201384,-0.015704285,0.007936865,-0.001171034,0.0017908772,-0.0034564787,-0.0076659718,0.5045323,-1.3812054,1.9039649,-2.0917099,-1.5708174,2.479622,-0.028090362,0.016936831,-0.018609772,0.0055616717,6.79576e-05,-0.020414801,-0.4213795,0.05746084,-9.768343,0.779936,47.6636,-0.9044609,-2.7307076,-3.3437543,-0.07003374,0.098878354,-0.18055439,28.5625,29.875,28.875,32.6875,35.125,36.1875
0.04205448,-1.6202682,-1.2497157,-2.0628386,0.018020244,0.044914715,-0.19119415,-0.38954473,-0.36852014,0.059838224,-3.078399,0.62502193,-0.00035317655,-0.016704649,0.008027607,-0.0007305258,0.0012946192,-0.0025653623,-0.0072904234,0.5044959,-1.3811451,1.903953,-2.0917099,-1.5708417,2.4795856,-0.02917704,0.017282197,-0.020034805,0.005620659,6.694657e-05,-0.0218764,-0.38307226,0.05746084,-9.653421,0.80679786,47.707485,-0.9369345,-2.7282429,-3.294619,-0.07821901,0.09217929,-0.22277988,28.5625,29.875,28.875,32.6875,35.125,36.1875
0.044054396,-2.315893,-1.607958,-2.1520307,0.02104577,0.01629171,-0.18775608,-0.38959837,-0.36849537,0.05985307,-3.0783978,0.6250992,-0.00029852815,-0.017413765,0.008614039,-0.000632337,0.0015874605,-0.0030792272,-0.007810368,0.5044115,-1.3811331,1.9039048,-2.0917094,-1.5708536,2.4795496,-0.03081929,0.017755564,-0.021081842,0.0067853257,5.9465605e-05,-0.022998309,-0.30645782,0.076614454,-9.710882,0.7284641,47.694054,-0.9408551,-2.7255569,-3.301355,-0.08417973,0.09137751,-0.20494281,28.5625,29.875,28.875,32.6875,35.125,36.1875
0.046053898,-0.72035176,-1.3549333,-2.1742086,0.0076771243,0.042296067,-0.22962435,-0.38961703,-0.36848566,0.059835535,-3.0783858,0.6250957,-0.00037926508,-0.01879635,0.009140498,7.1071336e-05,0.00082500366,-0.0016930818,-0.008267694,0.5043628,-1.3810731,1.9038686,-2.091686,-1.5708297,2.4795003,-0.032991245,0.017403789,-0.022255264,0.006728865,5.2446747e-05,-0.024712501,-0.21068975,0.1340753,-9.615114,0.83813137,47.686886,-0.90064657,-2.6371164,-3.3347387,-0.04699724,0.090798005,-0.22972888,28.5625,29.875,28.875,32.6875,35.125,36.1875
0.04805415,-0.8918185,-1.233304,-2.0169408,-0.0020385822,0.027693296,-0.2143724,-0.38968948,-0.3684643,0.059853677,-3.078385,0.6252103,-0.0003099689,-0.019760286,0.009607514,-3.9801893e-05,0.0009968622,-0.0020051638,-0.008089897,0.5042666,-1.3810366,1.9037842,-2.091686,-1.5708417,2.4794757,-0.034673005,0.018596796,-0.023507515,0.007143831,5.129761e-05,-0.026571397,-0.05746084,0.17238252,-9.576807,0.784413,47.696735,-0.80833983,-2.6370943,-3.328393,-0.041934796,0.09937018,-0.22630021,28.5625,29.875,28.875,32.6875,35.125,36.1875
0.050053995,-0.5474767,-1.289977,-2.0309787,0.0052284636,0.02459913,-0.18488619,-0.38970947,-0.36843935,0.05985042,-3.0783625,0.62524337,-0.00033870814,-0.021299278,0.010021998,0.00057683955,0.00034089066,-0.0008066564,-0.007622681,0.50420594,-1.3810245,1.9037718,-2.0916617,-1.5708417,2.4794385,-0.03680073,0.018903656,-0.025301067,0.0072639105,4.1165647e-05,-0.029165553,-0.05746084,0.1340753,-9.5385,0.76874626,47.71823,-0.8683237,-2.6298904,-3.2218294,-0.060553193,0.10081099,-0.2581598,28.5625,29.875,28.875,32.6875,35.125,36.1875
0.05205426,-0.23321633,-0.9284782,-1.9086424,0.0014862163,0.023599375,-0.18572739,-0.38978857,-0.3684542,0.059896927,-3.0784535,0.62518543,-0.00019613498,-0.022329269,0.010981498,0.00070232974,0.00045642196,-0.0010025995,-0.007702133,0.504157,-1.3810004,1.9036402,-2.0916736,-1.5708417,2.479342,-0.039368916,0.019082416,-0.025957936,0.007969057,3.760102e-05,-0.031654052,0.0,0.21068975,-9.500193,0.7486078,47.681515,-0.80749536,-2.661697,-3.2841232,-0.055494666,0.08846907,-0.22749421,28.5625,29.875,28.875,32.6875,35.125,36.1875
0.05405418,-0.21911389,-0.89456975,-1.9743364,-0.0030775967,0.016743071,-0.1868295,-0.3898034,-0.36838967,0.059848394,-3.0783222,0.625273,-0.00034362025,-0.022437349,0.01082081,0.0002732662,0.00092514843,-0.0018642582,-0.0061636856,0.5040494,-1.3809278,1.9036511,-2.0916135,-1.5708655,2.4793057,-0.03919958,0.020605229,-0.026865374,0.008333581,3.694503e-05,-0.033022597,0.038307227,0.15322891,-9.461885,0.7172743,47.7245,-0.7589665,-2.6558177,-3.2304678,-0.061647817,0.09512134,-0.25455102,28.5625,29.875,28.875,32.6875,35.125,36.1875
0.056053936,0.03643716,-0.4278099,-1.7017714,-0.013600461,0.02419815,-0.18793583,-0.38988027,-0.36839315,0.05987703,-3.0784297,0.62527484,-0.00026575604,-0.022873132,0.011026587,9.256686e-05,0.0009973416,-0.0018346952,-0.006175107,0.50395346,-1.3809036,1.9035681,-2.0916612,-1.5708174,2.4791973,-0.03989885,0.021244904,-0.027127586,0.007966893,-3.8890033e-05,-0.03371006,0.038307227,0.13407528,-9.404425,0.6635613,47.672558,-0.92765707,-2.6226554,-3.282146,-0.06703866,0.06749746,-0.25214896,28.5625,29.875,28.875,32.6875,35.125,36.1875
0.05805418,-0.37812492,-1.1378434,-1.7234496,0.0031502314,0.023077335,-0.17875972,-0.3899197,-0.36836988,0.05988358,-3.0784009,0.62532663,-0.0002400068,-0.024531832,0.011579555,0.0009147546,0.00018344288,-0.00035814187,-0.00756249,0.50389266,-1.3808796,1.9035195,-2.0916374,-1.5708417,2.4791725,-0.042372197,0.021095593,-0.028868753,0.008170393,-4.2855234e-05,-0.03479535,0.038307227,0.21068975,-9.346964,0.7553206,47.66091,-0.8281028,-2.5449245,-3.308737,-0.05484518,0.07369812,-0.268493,28.5625,29.875,28.875,32.6875,35.125,36.1875
0.0600545,-0.49657908,-1.2427688,-1.7331592,0.011885306,0.019747859,-0.17370991,-0.3899808,-0.36833507,0.05987519,-3.0783687,0.62535936,-0.0002575725,-0.025612982,0.012055772,0.0012810535,0.00025394067,-0.0004594915,-0.008472397,0.5037844,-1.3808072,1.9034475,-2.091613,-1.5708536,2.4790888,-0.044168625,0.021741876,-0.030782776,0.009560427,-5.7808225e-05,-0.03568111,0.038307227,0.21068975,-9.32781,0.75755644,47.675243,-0.83645093,-2.5342891,-3.1945193,-0.030638322,0.06438208,-0.2863118,28.5625,29.875,28.875,32.6875,35.125,36.1875
0.062054362,-0.41742697,-0.5762455,-1.6296936,-0.00010154971,0.025921155,-0.1864706,-0.39002746,-0.36829224,0.059881076,-3.0783558,0.6253367,-0.00026074157,-0.02597533,0.012346756,0.0010101291,0.0006578871,-0.0011875145,-0.0077906586,0.50367624,-1.3807949,1.9034113,-2.0915763,-1.5708655,2.4789681,-0.04499086,0.02270695,-0.03142179,0.010066278,-6.14783e-05,-0.037184715,-0.05746084,0.095768064,-9.346964,0.80456203,47.77734,-0.7985455,-2.5245652,-3.2295384,-0.054194167,0.06889391,-0.2853865,28.5625,29.875,28.875,32.6875,35.125,36.1875
0.06405459,-0.9664037,-1.1134689,-1.7627733,0.012658472,0.02194493,-0.17422983,-0.39009306,-0.36830264,0.059900407,-3.078374,0.6253595,-0.0001910199,-0.02645407,0.012760047,0.0008960238,0.0010450215,-0.0018679012,-0.00851491,0.50363994,-1.3807226,1.9032792,-2.091565,-1.5708774,2.4789438,-0.046121806,0.023447966,-0.032232583,0.01091832,-7.0334885e-05,-0.03759104,-0.19153613,0.1340753,-9.481039,0.7732232,47.72629,-0.8360121,-2.5277233,-3.2832663,-0.055704027,0.06031093,-0.30955288,28.5625,29.875,28.875,32.6875,35.125,36.1875
0.066054694,-1.3506395,-0.5398093,-1.7156731,0.0043511,0.030598568,-0.17588827,-0.3901298,-0.3682649,0.059894457,-3.0783699,0.62539566,-0.00027201528,-0.027244236,0.012948199,0.0010199628,0.0010006166,-0.0017803615,-0.006816426,0.50351983,-1.3806983,1.9032558,-2.0915287,-1.5708417,2.4788468,-0.047167316,0.024237059,-0.033544417,0.01134393,-7.816628e-05,-0.040334404,-0.15322891,0.21068975,-9.385271,0.82694155,47.74331,-0.8826263,-2.5052962,-3.2619324,-0.07210034,0.042867675,-0.31609184,28.5625,29.875,28.875,32.6875,35.125,36.1875
0.06805416,-0.8713251,-0.49471813,-1.7725965,0.003021438,0.058554072,-0.17920245,-0.39018717,-0.36825812,0.059911326,-3.0784216,0.6253866,-0.00021111013,-0.028337624,0.013313796,0.0014317366,0.0006215186,-0.001095445,-0.0061606867,0.5034474,-1.3806742,1.9031943,-2.0915525,-1.5708297,2.4787621,-0.048797097,0.024491392,-0.03484158,0.011604103,-7.710344e-05,-0.04261939,-0.15322891,0.17238252,-9.32781,0.8112748,47.729877,-0.8451413,-2.4859915,-3.2666879,-0.060792647,0.048540402,-0.31523898,28.5625,29.875,28.875,32.6875,35.125,36.1875
0.07005408,-1.4820114,-0.7266237,-1.7131443,0.005070068,0.05520853,-0.17891978,-0.39023936,-0.36822385,0.059902478,-3.0783565,0.62537336,-0.0002470881,-0.029081406,0.0135125965,0.0014505682,0.0005789796,-0.0009948967,-0.006859284,0.5033634,-1.3805898,1.9030985,-2.0914805,-1.5708655,2.4786782,-0.049810946,0.02531454,-0.035884276,0.011713536,-9.314848e-05,-0.042934068,-0.19153613,0.1340753,-9.3661175,0.69937176,47.707485,-0.8952588,-2.5344472,-3.2509437,-0.06972274,0.039381158,-0.3180458,28.5625,29.875,28.875,32.6875,35.125,36.1875
0.07205406,-1.7651477,-0.82657576,-1.6538434,0.011879865,0.058564387,-0.1720563,-0.3902912,-0.36818773,0.059902184,-3.0783448,0.62539077,-0.0002621479,-0.030590598,0.014730807,0.0016100617,0.00049798045,-0.0008530534,-0.00920072,0.50325423,-1.3805536,1.9030508,-2.0914567,-1.5708655,2.4785814,-0.053263057,0.02561248,-0.036674887,0.012042695,-9.261928e-05,-0.04404441,-0.36391866,0.0,-9.346964,0.7642693,47.7245,-0.79846704,-2.545566,-3.2483404,-0.06437758,0.03447771,-0.35370785,28.5625,29.875,28.875,32.6875,35.125,36.1875
0.07405417,-1.9339243,-0.47204095,-1.7234231,0.013614219,0.060452472,-0.16377862,-0.3903663,-0.36816582,0.059917983,-3.0783567,0.6254471,-0.00022026733,-0.030178761,0.014036992,0.001605465,0.0009645995,-0.0010108574,-0.003941547,0.50314736,-1.3805053,1.9029549,-2.0914443,-1.5708655,2.4785082,-0.05149626,0.026288666,-0.037604716,0.0126602175,-0.00042560705,-0.04753577,-0.34476504,0.0,-9.346964,0.7911258,47.709274,-0.88051116,-2.505325,-3.2513123,-0.08412083,0.03684416,-0.33454806,28.5625,29.875,28.875,32.6875,35.125,36.1875
0.07605377,-0.9765293,-0.2047567,-1.5103464,0.00934631,0.09148363,-0.17552151,-0.39041173,-0.3681379,0.05989164,-3.0783424,0.6253659,-0.00030535285,-0.03172838,0.014708839,0.0016469206,0.0007458784,-0.0005179286,-0.002364414,0.5030505,-1.3804088,1.9028953,-2.0914204,-1.5708536,2.4783626,-0.054032426,0.027426401,-0.038978733,0.012359276,-0.00047993992,-0.051648177,-0.40222588,0.0,-9.404425,0.78888994,47.692257,-0.9438636,-2.4940388,-3.2904668,-0.07944336,0.027856424,-0.3229761,28.5625,29.875,28.875,32.6875,35.125,36.1875
0.078054585,-1.4230024,-0.41790196,-1.6047544,0.013239487,0.07704692,-0.17003162,-0.39048982,-0.36810705,0.059891626,-3.0783327,0.62541974,-0.00033247966,-0.03237119,0.0153212985,0.0012854288,0.0008864422,-0.0008398757,-0.0007831475,0.50291836,-1.3803245,1.9027876,-2.0913846,-1.5708417,2.4782653,-0.055671416,0.028187195,-0.03896062,0.011930199,-0.00045092363,-0.05486833,-0.47884035,-0.095768064,-9.289502,0.784413,47.71465,-0.85946643,-2.5466125,-3.2898207,-0.082374975,0.030917838,-0.28499544,28.5625,29.875,28.875,32.6875,35.125,36.1875
0.08005375,-1.1544387,-0.21106796,-1.5627879,0.011159527,0.077071905,-0.17901927,-0.39053607,-0.36809367,0.05990679,-3.0783796,0.62535447,-0.00030076984,-0.03422298,0.016117863,0.0015608558,0.00065477705,-0.0003686056,-0.0036609597,0.50284535,-1.3803121,1.9027385,-2.0913846,-1.5708297,2.4781456,-0.05871543,0.029337397,-0.04103945,0.012334948,-0.00047676679,-0.055033512,-0.5554548,-0.05746084,-9.385271,0.7038487,47.70211,-0.8271792,-2.5007203,-3.3203921,-0.0789101,0.02639231,-0.30487427,28.5625,29.875,28.875,32.6875,35.125,36.1875
0.08205407,-1.312891,-0.31098133,-1.5487461,0.015116029,0.07109508,-0.1772119,-0.3906194,-0.3680505,0.059928417,-3.0783827,0.6254078,-0.0002470652,-0.033702906,0.01530853,0.001477979,0.0008185911,-0.0006560134,0.0024542175,0.5027025,-1.3802878,1.902655,-2.0913603,-1.5708417,2.4780357,-0.05685655,0.030037014,-0.041757386,0.012682742,-0.00048216706,-0.05928945,-0.53630114,-0.019153614,-9.385271,0.73741806,47.65912,-0.9593705,-2.5121439,-3.2400959,-0.07739627,0.011570184,-0.27784264,28.5625,29.875,28.875,32.6875,35.125,36.1875
0.084054396,-1.0856075,-0.23151584,-1.574281,0.016092245,0.07955606,-0.175178,-0.39069638,-0.36803758,0.05992418,-3.0783854,0.6254074,-0.00030197928,-0.034669325,0.015935345,0.0016115644,0.0009208799,-0.00060244085,0.004763823,0.5025939,-1.3801675,1.9025115,-2.0913122,-1.5708174,2.4779265,-0.058726907,0.030511497,-0.042742264,0.013196807,-0.0006016286,-0.06346877,-0.49799395,-0.15322891,-9.385271,0.76874626,47.670765,-1.0122489,-2.4489326,-3.2657094,-0.10777742,0.013052058,-0.24484754,28.5625,29.875,28.875,32.6875,35.125,36.1875
0.086053744,-1.2796938,-0.3508455,-1.5343796,0.023061575,0.06852737,-0.17581424,-0.39076006,-0.36798492,0.059926268,-3.0783598,0.6254401,-0.0002763787,-0.03552987,0.016722681,0.0011707894,0.0014594367,-0.001321889,0.006194301,0.50246143,-1.380143,1.9024752,-2.0913007,-1.5708421,2.4778178,-0.060766637,0.03179761,-0.04329634,0.013352982,-0.0007293161,-0.06693833,-0.30645782,-0.11492168,-9.404425,0.8023209,47.71465,-0.94373995,-2.4959254,-3.2248907,-0.09239505,0.0018041516,-0.17983803,28.5625,29.875,28.875,32.6875,35.125,36.1875
0.08805386,-1.2131205,-0.6457599,-1.684767,0.017047193,0.0675893,-0.1692941,-0.39083657,-0.36793295,0.059924573,-3.078323,0.6254108,-0.0002966849,-0.03545247,0.017134693,0.00056884944,0.002213788,-0.002643749,0.008319207,0.5023176,-1.3800707,1.9023799,-2.0912406,-1.570866,2.4776604,-0.06136279,0.032683805,-0.043068707,0.01375887,-0.0007564273,-0.069659315,-0.2873042,-0.05746084,-9.442732,0.78217715,47.701214,-0.9691199,-2.440061,-3.3441412,-0.1191303,-0.005135119,-0.16259176,28.5625,29.875,28.875,32.6875,35.125,36.1875
0.09005395,-1.1307368,-0.561881,-1.7172763,0.005458968,0.063051306,-0.17142217,-0.39092177,-0.36793175,0.059944857,-3.0784013,0.62531024,-0.00025011844,-0.0370206,0.01690981,0.0010221023,0.0017334714,-0.0017412247,0.009831384,0.50222147,-1.3799981,1.9022478,-2.0912406,-1.5708421,2.4774916,-0.062421855,0.034429293,-0.04626393,0.014187614,-0.0007728804,-0.07222904,-0.38307226,0.038307227,-9.423578,0.80456203,47.67166,-0.9927336,-2.5107741,-3.2366123,-0.09458014,-0.007815103,-0.11868264,28.5625,29.875,28.875,32.6875,35.125,36.1875
0.09205396,-0.49757233,-0.46317512,-1.8582733,0.0020341293,0.0706708,-0.17469427,-0.3909873,-0.36787722,0.05992913,-3.0783782,0.6253228,-0.00034663727,-0.03731434,0.017198978,0.000580616,0.002398996,-0.0027068325,0.011337305,0.50205356,-1.3799254,1.9021868,-2.0911925,-1.5708178,2.4773345,-0.063096,0.03571986,-0.046906088,0.01470776,-0.0008973593,-0.07440843,-0.24899697,0.095768064,-9.346964,0.7486078,47.70032,-1.0312995,-2.5343869,-3.2081404,-0.115709424,-0.0034169336,-0.0879834,28.5625,29.875,28.875,32.6875,35.125,36.1875
0.09405405,-0.8733133,-0.30829716,-1.8466324,0.0049032704,0.048104584,-0.17420478,-0.39106122,-0.36783594,0.05992971,-3.0783303,0.62533265,-0.00031347433,-0.037436478,0.018085191,-4.13622e-06,0.003001925,-0.0035548445,0.01032551,0.5019454,-1.3798531,1.9020919,-2.0911567,-1.570866,2.4772387,-0.06461738,0.03591868,-0.045736242,0.014369289,-0.0010177041,-0.07491819,-0.1340753,0.05746084,-9.289502,0.7463667,47.675243,-1.0978973,-2.5035503,-3.3686447,-0.12901086,0.00794464,-0.06424181,28.5625,29.875,28.875,32.6875,35.125,36.1875
0.09605471,-0.6764624,-0.298493,-1.5893131,-0.0043218,0.04371078,-0.17945597,-0.39115122,-0.3678001,0.059925877,-3.0783415,0.6252773,-0.00031419468,-0.039081167,0.017702922,0.0008604661,0.0017140215,-0.0012471922,0.008639635,0.5018013,-1.3797569,1.9019841,-2.0911448,-1.570866,2.4770586,-0.065497406,0.036583923,-0.04833275,0.013657874,-0.0010062489,-0.074111134,-0.095768064,0.076614454,-9.32781,0.7709874,47.664497,-1.0961642,-2.5551515,-3.2891314,-0.15280902,-0.017057776,-0.07710199,28.5625,29.875,28.875,32.6875,35.125,36.1875
0.09805429,-0.14311066,-0.29007012,-1.8134819,-0.010032396,0.048475906,-0.17201944,-0.3912258,-0.36776018,0.05992754,-3.0783663,0.6252435,-0.00031093563,-0.040681954,0.017545465,0.0013350064,0.0009827696,0.00042981713,0.0066339294,0.5016574,-1.3797085,1.9019231,-2.0911453,-1.5708541,2.4768906,-0.0666026,0.037825376,-0.05073303,0.012996201,-0.0011772756,-0.073209085,-0.1340753,0.095768064,-9.270349,0.8179876,47.70211,-1.1537415,-2.5123785,-3.2745059,-0.13968128,-0.040247653,-0.05008585,28.5625,29.875,28.875,32.6875,35.125,36.1875
0.10005459,-1.0353299,-0.5630622,-1.8949933,-0.010916179,0.021652624,-0.1732238,-0.39129192,-0.36771873,0.05992632,-3.0783162,0.62523526,-0.0003172773,-0.042104613,0.017971452,0.001362331,0.0010425914,0.0008147098,0.0036917536,0.5015488,-1.3796358,1.9018263,-2.0910852,-1.5708903,2.4767833,-0.068480894,0.03932567,-0.052581172,0.013033654,-0.001420903,-0.07214372,-0.11492168,0.21068975,-9.346964,0.784413,47.73525,-1.1348548,-2.5001354,-3.154234,-0.1400415,-0.005844556,-0.06951329,28.5625,29.875,28.875,32.6875,35.125,36.1875
0.102053784,-0.34362903,-0.9490671,-1.9373835,-0.018858433,0.032442775,-0.17029528,-0.3913918,-0.3676742,0.05992576,-3.0783074,0.6252729,-0.00032012243,-0.041431785,0.019142332,0.00034593593,0.002687462,-0.0016386469,0.001121305,0.5013811,-1.3795397,1.9017085,-2.0910614,-1.5708903,2.4766402,-0.06965269,0.03946831,-0.050633736,0.013886571,-0.0016774324,-0.07074544,0.0,0.24899697,-9.442732,0.70608455,47.67614,-1.1217564,-2.5551043,-3.2783496,-0.15605295,-0.021748614,-0.0882415,28.5625,29.875,28.875,32.6875,35.125,36.1875
0.104054,0.39552793,-0.8041685,-1.7215173,-0.036552772,0.048309196,-0.17844869,-0.3914741,-0.36766225,0.059935402,-3.0783298,0.6252013,-0.00030649453,-0.04274047,0.019279005,0.00045939395,0.0025254795,-0.001032488,-0.0016615869,0.50128454,-1.3794432,1.901564,-2.091025,-1.5708903,2.4764962,-0.07099059,0.040928982,-0.05260051,0.013783949,-0.0018300381,-0.06929915,0.0,0.22984336,-9.423578,0.7329411,47.716442,-1.1808907,-2.462419,-3.346806,-0.1748048,-0.021084173,-0.115829974,28.5625,29.875,28.875,32.6875,35.125,36.1875
0.10605394,0.17244305,-1.1370366,-1.9307046,-0.038590766,0.045972504,-0.17298473,-0.3915467,-0.36760873,0.05990841,-3.0783222,0.6252584,-0.0003876499,-0.04396132,0.019494185,0.0009130625,0.0018985387,-0.00028643323,-0.004491283,0.5011045,-1.3793588,1.9015282,-2.091037,-1.5708541,2.4763527,-0.072589695,0.04145092,-0.05430619,0.014013897,-0.0016441368,-0.0680681,-0.15322891,0.22984336,-9.3661175,0.7911258,47.713753,-1.123302,-2.6017067,-3.201643,-0.18093948,-0.035938866,-0.12909499,28.5625,29.875,28.875,32.6875,35.125,36.1875
0.108054385,-0.21394484,-1.3406553,-2.0412254,-0.029803755,0.03745354,-0.16771084,-0.39166132,-0.36757478,0.05993373,-3.0783324,0.62527996,-0.00033287247,-0.044625375,0.019772014,0.00065735803,0.0019035091,-0.00074891036,-0.0065722475,0.5009484,-1.3792745,1.9013599,-2.0909889,-1.570866,2.476209,-0.073792465,0.042635832,-0.055142794,0.014071938,-0.001425448,-0.067189865,-0.05746084,0.2873042,-9.385271,0.78217715,47.713753,-1.1863621,-2.5079489,-3.225757,-0.1722576,-0.0380428,-0.17928806,28.5625,29.875,28.875,32.6875,35.125,36.1875
0.11005446,-0.21089897,-1.191267,-2.0020747,-0.022742117,0.051572237,-0.1721353,-0.39174414,-0.36752787,0.05992832,-3.078317,0.62527657,-0.00036299214,-0.04489267,0.020098578,0.00086188316,0.0017747872,-0.0009509153,-0.007999219,0.5007926,-1.3791904,1.9012645,-2.0909526,-1.570866,2.476053,-0.074707076,0.042363197,-0.055444986,0.014761285,-0.0012162873,-0.06667787,0.0,0.30645782,-9.385271,0.77545905,47.70032,-1.172841,-2.5334787,-3.3356884,-0.19787401,-0.05316746,-0.20267397,28.5625,29.875,28.875,32.6875,35.125,36.1875
0.11205453,-0.8555683,-0.7571491,-1.8104445,-0.029131254,0.046874292,-0.16700937,-0.39182153,-0.36746863,0.0599091,-3.078264,0.62532365,-0.00038325484,-0.045634057,0.0205021,-9.441517e-05,0.0026683167,-0.0026445186,-0.009220485,0.5006363,-1.3791053,1.901205,-2.0909407,-1.5708903,2.4759328,-0.07607862,0.045251723,-0.05677082,0.015111326,-0.0011921532,-0.0668272,-0.095768064,0.24899697,-9.32781,0.87393653,47.728977,-1.2392951,-2.5825891,-3.2648687,-0.19799717,-0.04955063,-0.24734157,28.5625,29.875,28.875,32.6875,35.125,36.1875
0.11405423,-1.292344,-0.98338217,-1.806467,-0.014902405,0.048511226,-0.17218201,-0.39191055,-0.36745825,0.05993562,-3.078308,0.6252732,-0.0003520707,-0.046234865,0.020126758,0.0002660309,0.002144428,-0.0017866596,-0.007291401,0.5005286,-1.379033,1.9010481,-2.090893,-1.5708779,2.475788,-0.0760174,0.045777462,-0.05819143,0.015002387,-0.0011463235,-0.06869453,-0.15322891,0.19153613,-9.308657,0.65237147,47.716442,-1.2615087,-2.5679734,-3.3110857,-0.21595675,-0.06925848,-0.22458893,28.5625,29.875,28.875,32.6875,35.125,36.1875
0.11605391,-0.6818781,-0.80826,-1.8112546,-0.010715989,0.06081478,-0.16654943,-0.3920237,-0.3674084,0.059949886,-3.0782993,0.6253887,-0.00029614678,-0.04849632,0.021418037,0.0015632485,0.0007437782,0.00085080974,-0.012980334,0.50034755,-1.3789616,1.9009284,-2.090881,-1.5708903,2.4756804,-0.080242366,0.044183154,-0.05916318,0.014581743,-0.0011831205,-0.06723036,-0.11492168,0.15322891,-9.442732,0.7642693,47.65912,-1.2302618,-2.4677896,-3.263619,-0.21283758,-0.06516059,-0.2941874,28.5625,29.875,28.875,32.6875,35.125,36.1875
0.11805387,-0.73736507,-0.32902396,-1.8214132,-0.014368852,0.052269336,-0.16332431,-0.3921059,-0.3673777,0.059936047,-3.0782983,0.62536776,-0.000365486,-0.04834439,0.020747395,0.0010581336,0.0013016326,4.843669e-05,-0.011076171,0.50020456,-1.3788407,1.9008087,-2.0908453,-1.570866,2.4755244,-0.078891285,0.04617684,-0.060436685,0.014834985,-0.0012926748,-0.067782395,-0.15322891,0.095768064,-9.423578,0.8090337,47.709274,-1.2827277,-2.4591522,-3.278061,-0.23562175,-0.08697732,-0.3443163,28.5625,29.875,28.875,32.6875,35.125,36.1875
0.120054185,-0.9911636,-0.62119836,-1.865338,-0.0070849475,0.04856017,-0.16134006,-0.39223972,-0.3673191,0.059951924,-3.0782666,0.625456,-0.00027434345,-0.049564704,0.021392167,0.0007382771,0.0016553276,0.00031161399,-0.010329846,0.50001204,-1.378744,1.9006528,-2.0908215,-1.5709141,2.4753911,-0.08081143,0.047641054,-0.061294466,0.014164736,-0.0017314745,-0.07044745,-0.21068975,0.05746084,-9.442732,0.7463667,47.71286,-1.3653738,-2.5784128,-3.2963653,-0.22405855,-0.073275164,-0.34663475,28.5625,29.875,28.875,32.6875,35.125,36.1875
0.122054346,-0.6463155,-0.36804646,-1.8424507,0.003415876,0.06862263,-0.16885422,-0.39231464,-0.36727157,0.05991705,-3.078225,0.6254707,-0.00037567926,-0.051433302,0.02276401,0.00016139909,0.0022975362,-0.0004786087,-0.017181147,0.49985495,-1.3786112,1.9005693,-2.0907972,-1.5709018,2.4752486,-0.08471743,0.04993163,-0.062735215,0.014318182,-0.0019230016,-0.06750073,-0.28730422,0.0,-9.404425,0.8247004,47.686886,-1.0972996,-2.5614119,-3.2926812,-0.22887853,-0.06698203,-0.40689355,28.5625,29.875,28.875,32.6875,35.125,36.1875
0.12405378,-1.0099189,-0.0668777,-1.8603022,0.015023471,0.071501456,-0.1643274,-0.39241442,-0.36724558,0.059930075,-3.0782564,0.6254741,-0.00034413688,-0.05113998,0.02209705,0.0008950929,0.0020375683,0.0007894378,-0.013848271,0.49971208,-1.3785274,1.9004377,-2.0907853,-1.5708908,2.4751039,-0.083068885,0.04893275,-0.063299365,0.014645224,-0.0023014597,-0.06918438,-0.2873042,-0.076614454,-9.481039,0.7620334,47.72002,-1.425791,-2.5622125,-3.3403602,-0.22792393,-0.0769829,-0.4331649,28.5625,29.875,28.875,32.6875,35.125,36.1875
0.12605399,-0.90072644,0.0033914524,-1.707848,0.01565769,0.08570895,-0.16798906,-0.3925256,-0.36720136,0.059944928,-3.0782678,0.6255517,-0.0003543866,-0.052461028,0.022863658,0.0020139422,0.0014611371,0.0024150454,-0.012281772,0.49951965,-1.3784438,1.9002942,-2.0907376,-1.5708665,2.4749584,-0.08538762,0.04761841,-0.06446908,0.015427824,-0.0025757581,-0.07306894,-0.38307226,-0.076614454,-9.423578,0.7933669,47.737038,-1.3378091,-2.4508762,-3.3226748,-0.23450994,-0.08526156,-0.46646816,28.5625,29.875,28.875,32.6875,35.125,36.1875
0.12805432,-0.9279558,-0.2079316,-1.7345864,0.02979364,0.08985784,-0.15573698,-0.39261654,-0.36714318,0.059934564,-3.0782192,0.62548256,-0.0003230644,-0.05370802,0.023661235,0.0012587904,0.0022680787,0.0011142718,-0.011767923,0.49937505,-1.3783468,1.9001974,-2.0907133,-1.5709265,2.474777,-0.08781216,0.0502822,-0.06599816,0.015816407,-0.0026665968,-0.07600611,-0.4213795,0.019153614,-9.3661175,0.8157518,47.71465,-1.2924845,-2.4824767,-3.3008838,-0.2548329,-0.08342394,-0.4506558,28.5625,29.875,28.875,32.6875,35.125,36.1875
0.13005435,-0.9312598,-0.24309056,-1.6779943,0.031016335,0.08740004,-0.15738438,-0.39273247,-0.3670967,0.05993295,-3.0781937,0.6255706,-0.00036592045,-0.054933768,0.025155535,0.0009506406,0.0038069594,0.0011046884,-0.0069769886,0.49918255,-1.3782144,1.9000305,-2.0906532,-1.5709151,2.4746428,-0.0905956,0.051081005,-0.066307664,0.016075939,-0.0040188385,-0.08357756,-0.40222588,-0.17238252,-9.423578,0.78888994,47.685097,-1.3156772,-2.4608734,-3.2757869,-0.26876515,-0.08552506,-0.4409077,28.5625,29.875,28.875,32.6875,35.125,36.1875
0.13205375,-0.48642257,-0.14051163,-1.6412516,0.024914188,0.11103631,-0.16900882,-0.39285347,-0.3670445,0.059940245,-3.0781968,0.6255874,-0.00032347091,-0.0569739,0.024827357,0.002392376,0.0041534654,0.00473094,-0.003048187,0.49899095,-1.378118,1.899897,-2.0906408,-1.570928,2.4744613,-0.09062901,0.05176378,-0.07051636,0.016588408,-0.0060663084,-0.087534174,-0.49799395,-0.15322891,-9.423578,0.83589023,47.707485,-1.2746929,-2.4224637,-3.2288828,-0.26724783,-0.058630496,-0.38559443,28.5625,29.875,28.875,32.6875,35.125,36.1875
0.13405396,-1.0495412,-0.16044365,-1.679419,0.028217535,0.10290804,-0.15627559,-0.39293656,-0.36698723,0.059915762,-3.0781567,0.62551653,-0.000450119,-0.05733548,0.026841367,0.0012565313,0.007869908,0.004256826,0.002170317,0.49881092,-1.3779863,1.8997778,-2.0905573,-1.570917,2.4742422,-0.092440635,0.052532252,-0.06877999,0.01628736,-0.009111966,-0.09455811,-0.5746084,-0.15322891,-9.346964,0.85826975,47.672558,-1.369478,-2.5171483,-3.2202578,-0.28200266,-0.013583995,-0.36524588,28.5625,29.875,28.875,32.6875,35.125,36.1875
0.13605435,-1.1699277,-0.49158204,-1.5875489,0.03939788,0.11736649,-0.15773056,-0.3930803,-0.36692634,0.059944063,-3.078173,0.6255567,-0.00028911824,-0.05942788,0.028698752,0.0015515063,0.009307493,0.0052271993,0.0048096073,0.49860585,-1.3779255,1.8996466,-2.0905807,-1.5709652,2.4740603,-0.09639805,0.052993666,-0.07017243,0.017051838,-0.010834002,-0.10115179,-0.45968673,-0.095768064,-9.500193,0.7396539,47.64479,-1.1033726,-2.387058,-3.3170605,-0.29115695,0.0050248913,-0.2800177,28.5625,29.875,28.875,32.6875,35.125,36.1875
0.1380545,-1.0227149,-0.14784978,-1.7321705,0.023074403,0.12298579,-0.16387825,-0.39318782,-0.3668732,0.059926514,-3.0781581,0.6255314,-0.0003843029,-0.061058126,0.027718414,0.0015890456,0.00870869,0.005796544,0.0086900415,0.49840233,-1.37778,1.8995007,-2.0905216,-1.5709413,2.4738429,-0.09637697,0.056615353,-0.07454948,0.017019337,-0.010597763,-0.10500866,-0.53630114,-0.11492168,-9.481039,0.76874626,47.672558,-1.360328,-2.5700684,-3.0252614,-0.30553174,0.018513681,-0.23774315,28.5625,29.875,28.875,32.6875,35.125,36.1875
0.14005363,-1.2413386,-0.69437826,-1.8992993,0.015191231,0.110878594,-0.15780239,-0.39329147,-0.3668256,0.059939932,-3.0781758,0.6253993,-0.000375236,-0.0614025,0.029373398,0.0019112034,0.0076155965,0.00434123,0.008463218,0.49823347,-1.3776975,1.8993586,-2.0904605,-1.5709523,2.4735894,-0.10049053,0.0544266,-0.07300892,0.018413598,-0.008937493,-0.10889981,-0.61291564,0.05746084,-9.442732,0.7597976,47.62688,-1.2233708,-2.4202166,-3.1722293,-0.3048212,0.029494118,-0.19023833,28.5625,29.875,28.875,32.6875,35.125,36.1875
0.14205451,-1.2440228,-0.67846155,-1.997681,-0.008129851,0.09490831,-0.16579957,-0.39343208,-0.36677864,0.05995573,-3.0782151,0.6254075,-0.00033250684,-0.062363785,0.029497605,0.0017874305,0.0050403406,0.0024912467,0.006764593,0.49801677,-1.3775889,1.8991913,-2.0904486,-1.5709394,2.473373,-0.10351438,0.055648685,-0.0742796,0.018844964,-0.005788582,-0.11023093,-0.63206923,0.076614454,-9.481039,0.8224646,47.664497,-1.1061243,-2.4394019,-3.2874227,-0.33717275,0.010609691,-0.15132096,28.5625,29.875,28.875,32.6875,35.125,36.1875
0.14405458,-0.9697043,-0.45845813,-2.2245696,-0.031649295,0.08275474,-0.17178828,-0.39355084,-0.36670637,0.059955463,-3.0781713,0.625419,-0.00035219474,-0.0637425,0.029637037,0.0013292473,0.0034995184,0.0014741161,0.0033273706,0.4978003,-1.37748,1.8990468,-2.090377,-1.5709628,2.4731693,-0.10613367,0.058040895,-0.075948045,0.01826886,-0.0039576287,-0.10941533,-0.59376204,0.095768064,-9.634268,0.7732232,47.629562,-1.0379426,-2.422652,-3.1774573,-0.33626786,-0.0398852,-0.13218106,28.5625,29.875,28.875,32.6875,35.125,36.1875
0.14605398,-0.9716649,-1.0209517,-2.2192638,-0.03209993,0.08808277,-0.16568613,-0.39368838,-0.3666486,0.059950877,-3.0781643,0.62540144,-0.00034340023,-0.065014444,0.030254574,0.0012082946,0.002593356,0.00067556504,-0.0032277934,0.4975838,-1.3773347,1.8988794,-2.0903528,-1.5709747,2.4729428,-0.10904577,0.059300847,-0.077241994,0.018566638,-0.0027807797,-0.10577392,-0.78529817,0.05746084,-9.576807,0.7553206,47.657326,-0.95605457,-2.5810676,-3.151184,-0.33605936,-0.05072821,-0.16668811,28.5625,29.875,28.875,32.6875,35.125,36.1875
0.1480543,-0.95594865,-0.56769264,-1.9337292,-0.03081146,0.10576222,-0.16797584,-0.3938151,-0.3665967,0.059957307,-3.0781605,0.6254222,-0.00034351856,-0.06605021,0.030528838,0.0024985985,0.00074069045,0.0036011434,-0.009570335,0.49737978,-1.3772153,1.8987125,-2.0903056,-1.5709747,2.4727523,-0.1105734,0.056975305,-0.077150606,0.017345686,-0.0025487442,-0.10095978,-0.80445176,0.05746084,-9.615114,0.80456203,47.694946,-0.8742759,-2.3388147,-3.302444,-0.34886843,-0.043651693,-0.22895491,28.5625,29.875,28.875,32.6875,35.125,36.1875
0.15005454,-1.0529763,-0.26284215,-1.982597,-0.01496013,0.12885375,-0.1753718,-0.3939547,-0.3665287,0.059972223,-3.078158,0.6254224,-0.00029082745,-0.06713261,0.031137094,0.0016955922,0.0016358019,0.0030204947,-0.014127293,0.49715176,-1.3771192,1.8985566,-2.0902698,-1.5709985,2.472525,-0.112245515,0.05947875,-0.07817297,0.016801657,-0.003057588,-0.09807315,-0.6703765,0.13407528,-9.500193,0.8224646,47.711063,-0.89225566,-2.4065633,-3.262193,-0.34685683,-0.07314391,-0.25795943,28.5625,29.875,28.875,32.6875,35.125,36.1875
0.15205453,-1.5534786,-0.23597957,-1.8626598,-0.0066701877,0.12544337,-0.16890275,-0.3941015,-0.36645204,0.05995641,-3.0781083,0.625585,-0.0003221266,-0.06814835,0.031319946,0.0019514173,0.0013434616,0.003509328,-0.015530682,0.49688774,-1.376962,1.8984007,-2.0902455,-1.5709985,2.4723687,-0.11346404,0.060248148,-0.079724096,0.017013561,-0.0030384387,-0.097887546,-0.59376204,0.11492168,-9.423578,0.7911258,47.705692,-0.88751006,-2.383288,-3.2381546,-0.34726316,-0.060897935,-0.30606252,28.5625,29.875,28.875,32.6875,35.125,36.1875
0.15405458,-1.2836133,-0.4758136,-1.9079117,0.0010870632,0.10771116,-0.16116191,-0.39425606,-0.36641258,0.059975762,-3.0781517,0.6256118,-0.0002630225,-0.06913943,0.031224836,0.0022933453,0.00052425044,0.0045929877,-0.015055897,0.49667192,-1.3768303,1.898198,-2.090234,-1.5709866,2.4721642,-0.11430388,0.06080949,-0.08104136,0.016425863,-0.0028330642,-0.09920209,-0.40222588,0.17238252,-9.404425,0.7620334,47.672558,-0.88150346,-2.4401617,-3.343308,-0.34977594,-0.06743922,-0.32467872,28.5625,29.875,28.875,32.6875,35.125,36.1875
0.15605411,-1.1939833,-0.22478689,-1.9378047,-0.0071928697,0.07690179,-0.16563953,-0.39438033,-0.3663319,0.059968926,-3.0781069,0.6256208,-0.00025496504,-0.07022009,0.031090524,0.0026149368,9.052074e-05,0.005557347,-0.014924238,0.49644426,-1.3767219,1.8980769,-2.0901983,-1.5710224,2.471948,-0.11498862,0.061819274,-0.08293749,0.016253589,-0.0029173677,-0.10001734,-0.2681506,0.019153614,-9.442732,0.7486078,47.661808,-0.97196674,-2.3623226,-3.1360526,-0.35792404,-0.061810713,-0.32738915,28.5625,29.875,28.875,32.6875,35.125,36.1875
0.15805423,-0.7149024,-0.7718338,-2.0030522,0.0025059145,0.05268706,-0.16440302,-0.39452267,-0.36627293,0.05994935,-3.0781028,0.6257358,-0.0003071512,-0.07055202,0.03213913,0.0019524184,0.0012442042,0.0049462696,-0.016882775,0.49619237,-1.3765537,1.8979219,-2.0901983,-1.5709871,2.4717684,-0.11657293,0.062387515,-0.08202662,0.01586675,-0.0036398582,-0.09964192,-0.2681506,0.019153614,-9.519346,0.7933669,47.674347,-1.0949383,-2.3849177,-3.288941,-0.33337745,-0.05592989,-0.3719771,28.5625,29.875,28.875,32.6875,35.125,36.1875
0.16005415,-0.22979112,-0.18762176,-1.8819036,-0.0153070185,0.04493551,-0.1675525,-0.39468458,-0.36621183,0.059986178,-3.078141,0.6257786,-0.00022066469,-0.07204848,0.030987574,0.0031510515,0.00083652814,0.008281454,-0.013953329,0.49594134,-1.3764691,1.8977298,-2.0901625,-1.5709876,2.4715393,-0.11520131,0.06354985,-0.08608288,0.015636507,-0.004870329,-0.101195864,-0.24899697,-0.05746084,-9.423578,0.75755644,47.6636,-1.0546472,-2.3249583,-3.1930609,-0.33371577,-0.036371622,-0.36406225,28.5625,29.875,28.875,32.6875,35.125,36.1875
0.16205429,-0.9711312,-0.6298639,-1.9371912,0.011774814,0.0246295,-0.15448561,-0.39480704,-0.36613426,0.05997137,-3.0780692,0.6257852,-0.0002040764,-0.07380676,0.034001563,0.0024199688,0.0025252437,0.007433605,-0.019633358,0.4957358,-1.3763369,1.8975986,-2.0901272,-1.5710477,2.471347,-0.12118499,0.06388353,-0.084809415,0.015575281,-0.005952213,-0.101497725,-0.05746084,-0.019153614,-9.3661175,0.87393653,47.71554,-1.0472336,-2.334498,-3.224327,-0.3165767,-0.031036405,-0.4162565,28.5625,29.875,28.875,32.6875,35.125,36.1875
0.16405451,-0.26749244,-0.3671204,-1.978956,0.025778722,0.049623642,-0.16169864,-0.39497605,-0.36607888,0.059984524,-3.0781066,0.62584484,-0.00017234759,-0.07423239,0.03317721,0.0031597419,0.00240024,0.008999379,-0.011035333,0.49547294,-1.3761926,1.8973945,-2.0901144,-1.5710238,2.4711168,-0.11974771,0.06424001,-0.08701672,0.015990188,-0.006587319,-0.10865668,0.0,-0.019153614,-9.3661175,0.76874626,47.711063,-0.9588602,-2.3207903,-3.2143142,-0.31627524,-0.03417567,-0.3778327,28.5625,29.875,28.875,32.6875,35.125,36.1875
0.16605361,0.0033138674,0.29074284,-1.8356874,0.005953713,0.059795864,-0.17301351,-0.3951139,-0.36602354,0.059999757,-3.0781033,0.625803,-0.000135401,-0.07506074,0.033938326,0.002723757,0.00343725,0.008312611,-0.007850879,0.49526867,-1.376072,1.8972033,-2.0900543,-1.5710481,2.470887,-0.12138879,0.06575307,-0.08794082,0.016494917,-0.007173543,-0.11348065,0.076614454,0.019153614,-9.442732,0.79560274,47.686886,-1.0044783,-2.2890387,-3.1692398,-0.31098935,-0.027912054,-0.33511445,28.5625,29.875,28.875,32.6875,35.125,36.1875
0.16805366,-0.16892539,-0.55414563,-1.8289853,0.015156387,0.055620536,-0.15888561,-0.39527336,-0.36594477,0.05999092,-3.0780754,0.6258494,-0.00011114445,-0.07547392,0.034106806,0.0027883782,0.004176392,0.008934368,-0.00021906308,0.49500522,-1.3759159,1.8970355,-2.0900428,-1.5710725,2.4706562,-0.1214203,0.06619361,-0.088630855,0.016544526,-0.008122247,-0.12114189,0.019153614,0.15322891,-9.3661175,0.8247004,47.71554,-1.0487337,-2.3299718,-3.2165885,-0.31700712,0.0152735105,-0.2777693,28.5625,29.875,28.875,32.6875,35.125,36.1875
0.1700537,0.19512919,-0.31490096,-1.8048923,-0.009262492,0.058834966,-0.1753637,-0.39543322,-0.36586875,0.059992082,-3.0780416,0.62591416,-6.248771e-05,-0.07633462,0.03495282,0.002546352,0.0050888457,0.008414949,0.005455366,0.4947532,-1.3757712,1.8968557,-2.0900185,-1.5711082,2.470449,-0.12324526,0.06727512,-0.089531004,0.017246291,-0.0086790845,-0.12863989,0.1340753,0.1340753,-9.32781,0.784413,47.694946,-0.93843883,-2.320877,-3.2682927,-0.3086202,0.03526783,-0.20061535,28.5625,29.875,28.875,32.6875,35.125,36.1875
0.17205384,0.30801466,-0.99907506,-2.1534922,-0.0074159806,0.04496345,-0.16608869,-0.39555755,-0.36580807,0.05997721,-3.0780447,0.6258173,-9.3908326e-05,-0.076914325,0.035475574,0.0021917901,0.0054502403,0.007405543,0.0066006063,0.4945374,-1.3756268,1.8967127,-2.0899942,-1.5711082,2.4701724,-0.124720335,0.068487965,-0.090315826,0.017874839,-0.008521644,-0.13125986,0.19153613,0.19153613,-9.461885,0.78217715,47.71286,-1.1813309,-2.291817,-3.2764516,-0.320939,0.025531169,-0.11634834,28.5625,29.875,28.875,32.6875,35.125,36.1875
0.17405406,-0.03524605,-1.2370273,-1.994664,-0.021452451,0.02414794,-0.1638165,-0.39572296,-0.36575282,0.060010795,-3.0781145,0.62571365,-3.444691e-05,-0.077284604,0.035148934,0.0022917173,0.0048446325,0.007124796,0.009702242,0.4942859,-1.3755183,1.8964967,-2.0899465,-1.5710963,2.4698474,-0.124881454,0.069365226,-0.09169395,0.018331327,-0.0078495955,-0.13452372,0.095768064,0.24899697,-9.404425,0.85155696,47.695843,-1.1002898,-2.283049,-3.304707,-0.32146913,0.04048553,-0.09034268,28.5625,29.875,28.875,32.6875,35.125,36.1875
0.17605461,-0.09921952,-1.0590637,-2.0139756,-0.031304736,0.014455227,-0.1584665,-0.39589122,-0.36565378,0.06000628,-3.0780444,0.62577915,3.4290093e-05,-0.07758072,0.0354201,0.0016445809,0.003992638,0.0050259754,0.0038168568,0.49400967,-1.3753736,1.8963298,-2.0899222,-1.5711673,2.4696212,-0.12665172,0.07080743,-0.09201314,0.01863606,-0.00610195,-0.13041148,0.019153614,0.28730422,-9.442732,0.779936,47.704796,-1.1531283,-2.3691187,-3.2589307,-0.313669,0.015626462,-0.10425915,28.5625,29.875,28.875,32.6875,35.125,36.1875
0.17805369,0.0047730515,-1.420861,-1.9940027,-0.021913173,0.021129856,-0.15559927,-0.39604282,-0.36559987,0.060000923,-3.0780604,0.6257653,-3.2903303e-05,-0.07872644,0.035195112,0.0021023862,0.0021019138,0.0055664843,-0.0024818017,0.49375775,-1.3751932,1.8961142,-2.0898626,-1.5711306,2.4693587,-0.12814632,0.071455486,-0.09377882,0.018381858,-0.004698421,-0.12560907,-0.038307227,0.28730422,-9.461885,0.85826975,47.701214,-1.1374304,-2.3598094,-3.310761,-0.31400147,0.01610937,-0.14105383,28.5625,29.875,28.875,32.6875,35.125,36.1875
0.18005365,0.038431745,-1.0781167,-2.0409062,-0.0324722,0.03513063,-0.1603537,-0.3962068,-0.36553004,0.06003092,-3.078082,0.6257527,6.133504e-05,-0.0793305,0.035453696,0.0019441801,0.0013726512,0.0047035296,-0.008956731,0.4935058,-1.3750969,1.8959235,-2.0898263,-1.571155,2.4690962,-0.12974611,0.07234716,-0.09454862,0.01866865,-0.003638513,-0.1207357,-0.038307227,0.2681506,-9.481039,0.83589023,47.709274,-1.09899,-2.2551496,-3.3067172,-0.29540747,0.010432385,-0.21317554,28.5625,29.875,28.875,32.6875,35.125,36.1875
0.18205464,-0.6489637,-1.2600808,-2.163358,-0.018664164,0.027752299,-0.15426783,-0.39637858,-0.36545688,0.060026765,-3.0780573,0.625883,3.2765474e-05,-0.07986859,0.03530898,0.0017002927,0.0007378061,0.0040106378,-0.013376588,0.49321836,-1.3749162,1.8957075,-2.0897782,-1.5711426,2.4688933,-0.1304943,0.07381783,-0.09576547,0.018723454,-0.0027531267,-0.1170649,-0.038307227,0.2681506,-9.461885,0.80679786,47.703903,-1.1434059,-2.3198195,-3.378313,-0.2840709,-0.006725422,-0.2661167,28.5625,29.875,28.875,32.6875,35.125,36.1875
0.18405376,-0.49709085,-0.98849666,-1.6708457,-0.020990798,0.057142306,-0.16036727,-0.39649904,-0.36539078,0.06000934,-3.0780394,0.6258617,-3.927478e-05,-0.08082,0.03635665,0.0010255722,0.0009560963,0.0030833345,-0.018333662,0.4929897,-1.3747715,1.8955644,-2.089731,-1.5711302,2.4686537,-0.13324001,0.07515445,-0.09572605,0.018268533,-0.0025117109,-0.11485364,-0.1340753,0.22984336,-9.404425,0.83589023,47.695843,-1.1085346,-2.3972168,-3.2983055,-0.28052974,-0.017891249,-0.33331048,28.5625,29.875,28.875,32.6875,35.125,36.1875
0.18605442,-0.20711447,-0.24004158,-1.8088081,-0.029189494,0.07733663,-0.16664888,-0.39665392,-0.3653229,0.060018256,-3.078018,0.6258772,-1.4355869e-05,-0.08189898,0.036864746,0.0018567202,0.00016924158,0.004475514,-0.021040631,0.49274948,-1.3746277,1.8953599,-2.089671,-1.5711545,2.468426,-0.13505411,0.074247286,-0.09658546,0.01843329,-0.0024775479,-0.11396068,-0.076614454,0.21068975,-9.346964,0.8179876,47.707485,-1.0905813,-2.1971707,-3.4257197,-0.28293705,-0.00863073,-0.3703801,28.5625,29.875,28.875,32.6875,35.125,36.1875
0.18805459,-1.1215389,-0.51287967,-1.8490111,-0.014467931,0.061891466,-0.16351627,-0.39682955,-0.36522818,0.059996698,-3.0779774,0.62598526,-2.092832e-05,-0.08337421,0.03735126,0.0005280628,0.0014118317,0.0024996619,-0.024779022,0.49243766,-1.3744459,1.895193,-2.089671,-1.5711664,2.4681869,-0.1370639,0.07899474,-0.0992789,0.018707193,-0.0026434101,-0.11222998,-0.095768064,0.17238252,-9.32781,0.8291774,47.687782,-1.0585898,-2.2832327,-3.2744412,-0.2670597,-0.026951276,-0.41942644,28.5625,29.875,28.875,32.6875,35.125,36.1875
0.19005463,-0.5129544,-0.18899512,-1.6444368,-0.015588407,0.08384222,-0.16646136,-0.39698306,-0.36518458,0.06001554,-3.0780067,0.6260092,-1.7106602e-05,-0.08363984,0.037737396,9.584237e-05,0.0016678248,0.0019128212,-0.024868479,0.49220988,-1.3743017,1.894965,-2.0896108,-1.5711426,2.4679704,-0.13794291,0.07978477,-0.09919089,0.018468933,-0.002589375,-0.1130196,-0.36391866,0.019153614,-9.32781,0.88289046,47.695843,-1.068617,-2.4326959,-3.4290667,-0.2720223,-0.029345226,-0.49314326,28.5625,29.875,28.875,32.6875,35.125,36.1875
0.19205377,-0.7765206,0.40516266,-1.3868135,-0.017908257,0.09633895,-0.17671414,-0.3971817,-0.36510214,0.060039666,-3.0780127,0.62616116,7.951787e-05,-0.084958926,0.03759853,0.0007014314,0.0010821372,0.0034069992,-0.02227416,0.49189806,-1.3741691,1.89475,-2.089599,-1.5711545,2.4677527,-0.13873239,0.08058242,-0.101507075,0.01839097,-0.0027768365,-0.11640222,-0.47884035,0.05746084,-9.404425,0.8940802,47.69763,-1.0393034,-2.3197753,-3.299521,-0.2582953,-0.035155673,-0.49783796,28.5625,29.875,28.875,32.6875,35.125,36.1875
0.19405383,-0.95512813,0.4861078,-1.4903766,0.0023089396,0.109686084,-0.17041157,-0.39732605,-0.3650272,0.06000974,-3.0779781,0.6261877,-4.8631155e-06,-0.087011606,0.038554575,0.0011004711,0.000641822,0.0042791213,-0.015749449,0.4916334,-1.3739766,1.8945812,-2.0895631,-1.5711426,2.467509,-0.14213726,0.08150073,-0.103554524,0.018540002,-0.0028143658,-0.12633067,-0.51714754,-0.038307227,-9.442732,0.85155696,47.693153,-1.0304774,-2.3480673,-3.2943463,-0.23066257,-0.051265776,-0.4400779,28.5625,29.875,28.875,32.6875,35.125,36.1875
0.19605441,-1.6022513,-0.14617084,-1.4832342,0.030267345,0.11198777,-0.16646962,-0.397506,-0.36494967,0.060028173,-3.077985,0.62618196,3.387698e-05,-0.086337894,0.03775448,0.00094397244,0.0010758176,0.003667307,-0.0055813217,0.49134704,-1.3738323,1.8943542,-2.089503,-1.5711545,2.4672184,-0.14006792,0.08229599,-0.10431303,0.019241996,-0.0029072727,-0.13442902,-0.7086837,-0.038307227,-9.32781,0.85826975,47.666286,-1.2208589,-2.36422,-3.3018892,-0.23740008,-0.027836565,-0.39364207,28.5625,29.875,28.875,32.6875,35.125,36.1875
0.19805463,-0.99104476,-0.36238596,-1.3545109,0.023343105,0.1405653,-0.16039276,-0.3976687,-0.36487317,0.060014494,-3.077975,0.6262317,3.4048713e-05,-0.08773885,0.038423486,0.0014867831,0.0012767887,0.0044933395,0.0026651316,0.49107102,-1.3736643,1.8941854,-2.0895026,-1.571155,2.4669747,-0.14205967,0.082702555,-0.1062443,0.02012986,-0.0034788707,-0.14466548,-0.7661445,0.019153614,-9.174581,0.8851263,47.677036,-1.2640259,-2.242381,-3.2951016,-0.21643293,-0.031933606,-0.26567098,28.5625,29.875,28.875,32.6875,35.125,36.1875
0.20005397,-1.1460637,0.20596284,-1.533191,0.01428323,0.13186367,-0.17922214,-0.3978741,-0.36481264,0.060031746,-3.078011,0.6261582,7.149956e-05,-0.0884613,0.03973147,-0.00041291706,0.0040330477,0.0014114049,0.0061867465,0.49078298,-1.3734584,1.8938879,-2.0894425,-1.571155,2.4666364,-0.14425065,0.086810574,-0.10696694,0.020761896,-0.004453561,-0.1503756,-0.6512228,0.038307227,-9.308657,0.842603,47.70211,-1.2505019,-2.5170982,-3.234292,-0.20320846,-0.04939655,-0.2264595,28.5625,29.875,28.875,32.6875,35.125,36.1875
0.20205446,-1.0393896,0.08334387,-1.5949303,0.0059623774,0.12306737,-0.1661079,-0.39804873,-0.36474437,0.06004382,-3.0780518,0.62616485,9.111701e-05,-0.089863434,0.04002409,0.0011805445,0.0039951857,0.0051105134,0.00790836,0.49049544,-1.3733147,1.8936843,-2.0894186,-1.5711316,2.466348,-0.14489639,0.085178584,-0.108674675,0.02082844,-0.0061616767,-0.15273976,-0.68953013,-0.038307227,-9.3661175,0.800085,47.709274,-1.1838818,-2.2881207,-3.3550086,-0.20949036,-0.014255184,-0.1598831,28.5625,29.875,28.875,32.6875,35.125,36.1875
0.20405467,-1.1546358,0.093953095,-1.5419408,-0.003639532,0.112299696,-0.16883405,-0.3982229,-0.36464298,0.060031384,-3.0779984,0.6261754,5.4894732e-05,-0.09116155,0.04183514,-0.0005310985,0.0060404195,0.0022604228,0.0029048235,0.49018225,-1.3731334,1.8934807,-2.0893466,-1.5711559,2.4660482,-0.14877649,0.08884677,-0.109244734,0.021204358,-0.006631065,-0.15161444,-0.7278373,-0.17238252,-9.385271,0.800085,47.72092,-1.034863,-2.3457375,-3.1694083,-0.20093906,-0.0041786684,-0.13213077,28.5625,29.875,28.875,32.6875,35.125,36.1875
0.20605369,-2.0149567,-0.36915624,-1.5467627,0.012438708,0.08239572,-0.14568785,-0.39840397,-0.36453938,0.06001445,-3.077966,0.62616974,5.1327286e-05,-0.09289902,0.041290347,0.0018029197,0.0041445177,0.007059924,-0.0020084593,0.4898592,-1.3729539,1.8933004,-2.0893233,-1.5711802,2.465726,-0.1490024,0.086854756,-0.11214256,0.020965772,-0.0072252727,-0.14692505,-0.8236054,-0.17238252,-9.270349,0.8291774,47.71554,-1.1326957,-2.4482985,-3.2385545,-0.19468115,0.01824921,-0.20551091,28.5625,29.875,28.875,32.6875,35.125,36.1875
0.20805404,-0.8965628,0.1688142,-1.5460292,0.009374778,0.10977852,-0.16541731,-0.39855915,-0.36445475,0.059983246,-3.0778923,0.62621534,-4.1244068e-05,-0.09356786,0.04121735,0.0011948087,0.004007916,0.0059009464,-0.008668854,0.48958355,-1.3727368,1.8930968,-2.0892513,-1.5711917,2.4654882,-0.14983962,0.08930029,-0.11370375,0.021036837,-0.0065718265,-0.14110155,-0.7086837,-0.11492168,-9.32781,0.83589023,47.713753,-1.1353928,-2.3662868,-3.1704626,-0.15745112,0.008773032,-0.2608323,28.5625,29.875,28.875,32.6875,35.125,36.1875
0.21005426,-1.0158633,-0.13631001,-1.7229055,0.013750178,0.1012226,-0.15703721,-0.39877334,-0.36438012,0.06000032,-3.0779023,0.6262737,2.728605e-05,-0.09402093,0.04097589,0.0005994973,0.0036511687,0.004296193,-0.0108751105,0.4892719,-1.3725438,1.8928202,-2.089215,-1.5712036,2.4652119,-0.15043947,0.0917345,-0.11536942,0.021510364,-0.0054969173,-0.13949649,-0.59376204,-0.05746084,-9.346964,0.7933669,47.707485,-1.1756493,-2.5376248,-3.1500661,-0.16521996,0.0014792881,-0.31793654,28.5625,29.875,28.875,32.6875,35.125,36.1875
0.21205367,-1.250429,-0.27465835,-1.5680352,0.012786871,0.08202238,-0.15598778,-0.39896318,-0.3642951,0.060010154,-3.0779095,0.62625575,9.1253394e-05,-0.09488589,0.041023757,0.00064606883,0.0030996755,0.004182407,-0.012281169,0.48897225,-1.3723872,1.8926061,-2.0891912,-1.5712274,2.4649003,-0.15157503,0.09290104,-0.116927795,0.021736905,-0.004954059,-0.13922642,-0.51714754,-0.019153614,-9.385271,0.8179876,47.71554,-1.2167196,-2.4634902,-3.104381,-0.15546219,-0.020870227,-0.33579376,28.5625,29.875,28.875,32.6875,35.125,36.1875
0.21405406,-0.6335311,-0.19263773,-1.7658335,-0.0014267911,0.08314266,-0.16731554,-0.39915997,-0.36421287,0.06001418,-3.0778925,0.6263855,7.7298886e-05,-0.09558749,0.040923215,0.00025920448,0.0030436667,0.0036780126,-0.012944935,0.48864874,-1.3721944,1.8923539,-2.089131,-1.571215,2.46466,-0.15214801,0.09493862,-0.11847295,0.021662816,-0.0046707275,-0.13913526,-0.38307226,0.05746084,-9.308656,0.84484416,47.72629,-1.2653271,-2.5509112,-3.0816433,-0.13719335,-0.029177021,-0.36967385,28.5625,29.875,28.875,32.6875,35.125,36.1875
0.21605422,-0.19904679,0.11403175,-1.6264305,-0.026624106,0.087929636,-0.17112008,-0.39936003,-0.36410454,0.059990022,-3.0778337,0.62642944,4.1339943e-05,-0.09643027,0.041289866,0.0006446156,0.0025185286,0.0038025442,-0.011877313,0.48830086,-1.3719662,1.8921264,-2.089083,-1.5712389,2.4643471,-0.15370348,0.0950932,-0.11971839,0.02238971,-0.004273602,-0.14175847,-0.22984336,0.11492168,-9.423578,0.8112748,47.71286,-1.2270913,-2.528533,-3.0971508,-0.10826668,-0.00992388,-0.38077986,28.5625,29.875,28.875,32.6875,35.125,36.1875
0.21805434,-0.719042,-0.4675322,-1.9455543,-0.033846352,0.060296666,-0.17334384,-0.39954913,-0.36402327,0.05999794,-3.0778356,0.6264444,7.8865036e-05,-0.09703909,0.042493686,0.00037526948,0.003533543,0.002450817,-0.007923286,0.48800123,-1.3717977,1.8918995,-2.0890462,-1.5712508,2.4640567,-0.15605444,0.09569602,-0.12018364,0.02391673,-0.004532456,-0.14806296,-0.22984336,0.17238252,-9.423578,0.84484416,47.701214,-1.4153379,-2.5540426,-3.1262302,-0.12201123,-0.023936119,-0.35145903,28.5625,29.875,28.875,32.6875,35.125,36.1875
0.22005376,-0.4597707,-0.85650295,-1.967209,-0.0328957,0.06288131,-0.1606655,-0.39976355,-0.36394075,0.06001313,-3.0778449,0.62645876,0.00013212104,-0.09674905,0.04316434,-0.00045260607,0.005624704,0.0004922913,0.0014083547,0.48767743,-1.3716052,1.8916248,-2.088998,-1.5712637,2.4637408,-0.15627934,0.09703275,-0.12022926,0.025330642,-0.0054569994,-0.15761791,-0.15322891,0.22984336,-9.461885,0.9030289,47.705692,-1.2581182,-2.5011187,-3.1650872,-0.124625504,-0.0030270806,-0.26663318,28.5625,29.875,28.875,32.6875,35.125,36.1875
0.22205402,-0.08468152,-0.37617275,-1.937881,-0.038561586,0.0654041,-0.17202899,-0.39996365,-0.36385462,0.060014136,-3.0778491,0.62647444,0.00014459349,-0.099339806,0.04439664,0.0007863362,0.0043730843,0.0025128508,0.006617373,0.4873526,-1.3714129,1.8913854,-2.0889618,-1.5712637,2.4634254,-0.16070634,0.09659688,-0.12265245,0.025810797,-0.0053036674,-0.16725348,-0.05746084,0.22984336,-9.461885,0.8112748,47.71823,-1.0435524,-2.5207982,-3.036602,-0.12461239,-0.01801557,-0.14483185,28.5625,29.875,28.875,32.6875,35.125,36.1875
0.22405405,-0.21857998,-0.5473486,-1.8694592,-0.029147785,0.049417935,-0.16003661,-0.40015805,-0.36374286,0.059984215,-3.0777898,0.62648,9.342026e-05,-0.09951893,0.04581618,-0.0004168444,0.0056475406,0.00033360545,0.008091173,0.48700458,-1.3711842,1.8911704,-2.0889142,-1.5712875,2.4630885,-0.16311982,0.09779909,-0.121379,0.02584997,-0.0054189474,-0.17114058,0.076614454,0.24899697,-9.519346,0.8224646,47.716442,-1.0913815,-2.4690628,-3.3055153,-0.08980726,0.0065494855,-0.100395784,28.5625,29.875,28.875,32.6875,35.125,36.1875
0.22605456,0.4947925,-0.82981414,-1.9074223,-0.025234984,0.05128665,-0.16041769,-0.4003745,-0.363657,0.06001774,-3.0778162,0.6264484,0.00018869908,-0.1010177,0.04635075,0.0002586448,0.0052059526,0.0015011923,0.0036108415,0.4866806,-1.3710283,1.8908948,-2.088854,-1.5713114,2.4627416,-0.16519687,0.09802581,-0.12329984,0.02630184,-0.005567613,-0.16873664,0.019153614,0.19153613,-9.595961,0.7597976,47.71286,-0.9577813,-2.4402037,-3.1092749,-0.097396895,0.0034470796,-0.043408394,28.5625,29.875,28.875,32.6875,35.125,36.1875
0.2280543,0.16994987,-0.90900546,-1.832787,-0.02129342,0.0379214,-0.15445241,-0.4005906,-0.3635796,0.060016673,-3.0778263,0.62647283,0.0002149786,-0.101810284,0.047153316,0.00068877265,0.005321213,0.0021183454,-0.0036268258,0.48635656,-1.3708003,1.8906201,-2.0888298,-1.5713114,2.4624317,-0.16694264,0.09746582,-0.12374844,0.02682177,-0.0059526283,-0.16324419,-0.095768064,0.13407528,-9.423578,0.78217715,47.723602,-0.9747534,-2.3916323,-3.290878,-0.08892976,-0.014701243,-0.10346542,28.5625,29.875,28.875,32.6875,35.125,36.1875
0.23005441,1.1982048,-0.18506382,-1.9185568,-0.025469905,0.06483775,-0.16260278,-0.40078905,-0.363473,0.060004603,-3.0777745,0.6264263,0.00018891804,-0.101392,0.04723969,-0.0010898164,0.0065032314,-0.0010888462,-0.011416563,0.48602167,-1.3705827,1.8903693,-2.0887458,-1.5713476,2.4620745,-0.1669236,0.10078791,-0.12368316,0.026817845,-0.0055051697,-0.15543547,0.038307227,0.038307227,-9.461885,0.78888994,47.686886,-1.1464937,-2.5700493,-3.336258,-0.073021784,0.0028107688,-0.20394765,28.5625,29.875,28.875,32.6875,35.125,36.1875
0.23205449,0.31384653,-0.57085115,-2.10233,-0.004586576,0.042425662,-0.15197429,-0.4009805,-0.36338356,0.059997704,-3.077798,0.6265482,0.00012789294,-0.10142458,0.047063712,0.00018884258,0.0049657426,0.00042652566,-0.016623499,0.48566225,-1.3704036,1.8901662,-2.088722,-1.571287,2.4617882,-0.16698758,0.09831298,-0.12377439,0.027334275,-0.0048514092,-0.15029415,0.17238252,0.038307227,-9.500193,0.86945957,47.687782,-1.1371715,-2.327507,-3.3807693,-0.04527198,0.014290452,-0.24776939,28.5625,29.875,28.875,32.6875,35.125,36.1875
0.23405455,0.6429637,-0.45613772,-1.9021255,-0.00040837325,0.054370817,-0.15492551,-0.40118295,-0.3633024,0.060005043,-3.0777678,0.6265412,0.00018699745,-0.10265646,0.04751517,-0.0010394224,0.005613811,-0.0020942762,-0.020996759,0.48537433,-1.3701978,1.8898906,-2.088662,-1.5713352,2.4615,-0.16915269,0.10259815,-0.1262762,0.02807357,-0.0042506196,-0.14808561,0.05746084,0.095768064,-9.423578,0.8537928,47.683304,-1.0780793,-2.522802,-3.2776494,-0.06718524,-0.011823129,-0.33758086,28.5625,29.875,28.875,32.6875,35.125,36.1875
0.23605384,1.4982686,1.1900104,-1.8309145,-0.02154395,0.059866123,-0.17310171,-0.40139335,-0.36318856,0.059988543,-3.0776901,0.62672174,0.00013797487,-0.10297353,0.04892912,-0.0008160918,0.0053961556,-0.0022475575,-0.028858056,0.48500198,-1.3699703,1.8896407,-2.08859,-1.5713471,2.4612503,-0.17190115,0.100801796,-0.12472774,0.028354665,-0.00398952,-0.142974,0.076614454,0.05746084,-9.346964,0.87617236,47.696735,-0.99938834,-2.3587446,-3.5487506,-0.049744472,-0.007118661,-0.4200888,28.5625,29.875,28.875,32.6875,35.125,36.1875
0.23805387,0.18079351,0.087023094,-1.8962687,0.007689145,0.020066138,-0.15932433,-0.40158695,-0.36310324,0.059967104,-3.077685,0.6267197,9.713508e-05,-0.105105706,0.04930686,-0.00031309505,0.0052651865,-0.0011392139,-0.030873718,0.48467806,-1.3697412,1.8894109,-2.088566,-1.5713352,2.4609258,-0.17411499,0.10267836,-0.12827225,0.028982848,-0.0044011846,-0.14316975,0.11492168,-0.038307227,-9.481039,0.8851263,47.691364,-0.927333,-2.367226,-3.375414,-0.041256927,0.0003960603,-0.49264544,28.5625,29.875,28.875,32.6875,35.125,36.1875
0.2400539,0.43504667,0.26154643,-1.8391327,0.0046468354,0.025324238,-0.17468949,-0.40179557,-0.36301687,0.059977,-3.0776837,0.6267534,0.00013515375,-0.10626065,0.04998028,0.00039774438,0.004962652,-0.00014390753,-0.025463909,0.4843539,-1.3695493,1.8891486,-2.088518,-1.5713471,2.460623,-0.1760791,0.10223001,-0.12952259,0.029652964,-0.0045989794,-0.15054308,-0.019153614,-0.038307227,-9.404425,0.8985519,47.694946,-0.86672366,-2.3622468,-3.404324,-0.03349956,-0.029442282,-0.47915226,28.5625,29.875,28.875,32.6875,35.125,36.1875
0.2420543,-0.5088109,0.18306713,-1.7590648,0.0022425402,0.030752053,-0.16814215,-0.40199572,-0.3629054,0.059982594,-3.077624,0.6268857,0.00010213269,-0.10654338,0.049314063,0.0012538066,0.004551741,0.0009650516,-0.012916197,0.48399517,-1.3693694,1.8888968,-2.0884097,-1.571359,2.4603546,-0.17503266,0.10207276,-0.13151602,0.030620815,-0.0047647683,-0.16204326,-0.1340753,-0.019153614,-9.461885,0.8672237,47.691364,-0.9820522,-2.2896128,-3.2989097,-0.026258757,-0.014081298,-0.4066262,28.5625,29.875,28.875,32.6875,35.125,36.1875
0.24405447,-0.5869388,-0.20481104,-1.9354736,0.003947526,0.059066337,-0.1668004,-0.4022144,-0.36280036,0.05997831,-3.077613,0.6268947,8.385073e-05,-0.10670948,0.04968314,-7.3566574e-05,0.006031167,-0.0018947349,-0.0017003595,0.48362347,-1.369152,1.8886336,-2.0883496,-1.571359,2.45999,-0.1757294,0.10536603,-0.13269642,0.031718433,-0.004752952,-0.17395495,-0.11492168,0.0,-9.557653,0.8023209,47.685097,-0.9443575,-2.4455929,-3.4122217,-0.03408508,-0.013244114,-0.2665177,28.5625,29.875,28.875,32.6875,35.125,36.1875
0.24605383,-0.49539635,0.022441229,-1.8342255,-0.014560074,0.10289104,-0.16825971,-0.40242454,-0.3627369,0.059999935,-3.077669,0.6268823,6.270869e-05,-0.10710463,0.050113916,0.0010340926,0.0052772965,-0.0015361537,0.0037835487,0.4832999,-1.3689482,1.8883222,-2.0882647,-1.5713109,2.4596517,-0.17703387,0.10362252,-0.13360153,0.033700384,-0.0042498317,-0.18074453,-0.22984336,0.076614454,-9.595961,0.84484416,47.65643,-0.9647689,-2.2348187,-3.3454857,-0.050744094,-0.037763745,-0.18443823,28.5625,29.875,28.875,32.6875,35.125,36.1875
0.24805392,-1.1690737,-0.48083583,-2.0733116,-0.021474086,0.109127276,-0.16306047,-0.4026404,-0.36261013,0.05999615,-3.077629,0.626852,6.490568e-05,-0.10679483,0.05031562,-0.0011649064,0.0077030864,-0.006822736,0.0057472186,0.4829169,-1.3687541,1.8880829,-2.0881922,-1.5713471,2.459255,-0.17720827,0.10889573,-0.13545205,0.03607573,-0.003949139,-0.18288176,-0.34476504,0.1340753,-9.595961,0.8537928,47.689575,-1.1814855,-2.4419966,-3.4289834,-0.08141298,-0.036841955,-0.12772065,28.5625,29.875,28.875,32.6875,35.125,36.1875
0.2500543,-1.472326,-0.086106546,-1.9453921,-0.03790611,0.108919226,-0.17062618,-0.4028389,-0.36252102,0.060013805,-3.0776107,0.6267735,5.7843226e-05,-0.10741398,0.05060743,-0.0001210111,0.0069697867,-0.00556857,0.0006314088,0.48260522,-1.3685626,1.8877844,-2.0880606,-1.571371,2.4588969,-0.1782132,0.10743693,-0.13629293,0.036921173,-0.00388702,-0.17877091,-0.47884035,0.15322891,-9.653421,0.88289046,47.691364,-1.178786,-2.301336,-3.4006631,-0.083005056,-0.04423938,-0.16542107,28.5625,29.875,28.875,32.6875,35.125,36.1875
0.25205433,-1.6492536,-1.164158,-2.033046,-0.027113456,0.115770064,-0.15086865,-0.4030556,-0.36243013,0.05998814,-3.0776048,0.6268157,2.003913e-06,-0.109333515,0.051766306,-2.4350853e-05,0.0069506546,-0.0047271387,-0.010559513,0.482245,-1.368298,1.8875216,-2.0880368,-1.5713471,2.4585638,-0.18154873,0.108488165,-0.1377078,0.03653983,-0.0042678495,-0.170914,-0.57460845,0.19153613,-9.615114,0.8672237,47.71465,-1.3028456,-2.327126,-3.3515615,-0.08993313,-0.052724212,-0.25109452,28.5625,29.875,28.875,32.6875,35.125,36.1875
0.25405434,-1.2188739,-0.69402725,-1.9212357,-0.043746695,0.12521687,-0.17051762,-0.40329984,-0.36231065,0.06001311,-3.077585,0.6268875,8.060842e-05,-0.111321956,0.051329996,0.0011365889,0.006566772,-0.0025557843,-0.013570007,0.4818496,-1.3681172,1.8872327,-2.0879643,-1.5713834,2.458216,-0.18207178,0.11000442,-0.14241949,0.03762966,-0.0049373223,-0.16842349,-0.61291564,0.21068975,-9.576807,0.80679786,47.689575,-1.3052484,-2.2838688,-3.2449977,-0.10289207,-0.0523203,-0.32292408,28.5625,29.875,28.875,32.6875,35.125,36.1875
0.25605458,-0.9192069,-0.97677785,-2.0369208,-0.020132864,0.11334575,-0.15961444,-0.4035067,-0.36222494,0.059999626,-3.0775447,0.6269357,-8.055681e-06,-0.11052667,0.0515261,0.00020246109,0.008373209,-0.004267289,-0.013471604,0.48151457,-1.3678527,1.8869232,-2.087857,-1.5713714,2.4579163,-0.18111277,0.11113226,-0.14180979,0.03824972,-0.005754786,-0.1675611,-0.7086837,0.17238252,-9.595961,0.8537928,47.66987,-1.2781957,-2.3333263,-3.2814384,-0.10904331,-0.026289713,-0.36938876,28.5625,29.875,28.875,32.6875,35.125,36.1875
0.25805387,-1.5009375,-0.78954417,-1.8767258,-0.01807018,0.09493383,-0.1620486,-0.4037546,-0.36211985,0.060020395,-3.0775282,0.6269691,0.00012160379,-0.1109783,0.051146355,0.0002799195,0.00835627,-0.0053417096,-0.012776151,0.48115525,-1.3676476,1.8866228,-2.0878198,-1.5714315,2.45758,-0.18110041,0.11289265,-0.14453825,0.040148064,-0.0052373386,-0.16824442,-0.7852981,0.19153613,-9.557653,0.83813137,47.705692,-1.3376243,-2.3553245,-3.1488006,-0.1425914,-0.035848074,-0.37318975,28.5625,29.875,28.875,32.6875,35.125,36.1875
0.2600543,-0.5813223,-0.3820594,-1.6112099,-0.0149659505,0.11042065,-0.16795433,-0.40394282,-0.3620355,0.060020454,-3.0775704,0.62697357,-7.305038e-06,-0.11148018,0.0512082,0.0006054734,0.00815618,-0.0053080483,-0.0069995555,0.48079497,-1.3674556,1.8863715,-2.087724,-1.5713476,2.4572172,-0.18166137,0.11321964,-0.14589557,0.041063905,-0.0050888946,-0.17458162,-0.47884035,0.24899697,-9.3661175,0.89631605,47.734352,-1.4560056,-2.4294376,-3.1033487,-0.16028917,-0.05740681,-0.33801925,28.5625,29.875,28.875,32.6875,35.125,36.1875
0.26205435,-1.3543104,0.19413008,-1.7989224,-0.011695027,0.0770328,-0.1639713,-0.40418133,-0.36192012,0.060030837,-3.0775461,0.62684774,7.59542e-05,-0.11296756,0.052054815,4.0734896e-05,0.008499921,-0.0055193356,-0.00020222696,0.4804343,-1.3672385,1.8860725,-2.0876524,-1.5714196,2.4567814,-0.18417795,0.11544686,-0.14714828,0.040415745,-0.0053062057,-0.18389434,-0.30645782,0.21068975,-9.423578,0.8314132,47.71554,-1.4585509,-2.3463604,-3.1120682,-0.17005038,-0.037353776,-0.28529817,28.5625,29.875,28.875,32.6875,35.125,36.1875
0.26405433,-1.0002993,-0.0012597281,-1.7809626,-0.0034567364,0.06817899,-0.17506754,-0.4044362,-0.36180943,0.060036644,-3.0775099,0.62700886,0.00012693126,-0.1146834,0.05270055,-7.949449e-05,0.008390698,-0.004897105,0.0074297083,0.4800376,-1.3669976,1.8857607,-2.0876048,-1.5714434,2.45649,-0.18655644,0.11726405,-0.14892298,0.03975819,-0.0055061164,-0.19390355,-0.17238252,0.11492168,-9.423578,0.8873621,47.71017,-1.3648703,-2.3911686,-3.0405006,-0.15065348,-0.025469897,-0.16229632,28.5625,29.875,28.875,32.6875,35.125,36.1875
0.2660536,-0.9844005,-0.6785522,-1.5481097,-0.002250424,0.04598068,-0.15598896,-0.40468192,-0.3617092,0.06004264,-3.0775232,0.62693405,0.00012281579,-0.11631695,0.053678762,0.00074007764,0.008947491,-0.0043487446,0.009278399,0.47965237,-1.3667454,1.8854264,-2.08752,-1.5714439,2.4560566,-0.18907951,0.11761608,-0.1517362,0.04198749,-0.006259905,-0.19827293,-0.38307226,0.0,-9.251195,0.7866488,47.70838,-1.2269287,-2.4304512,-3.1720583,-0.19125926,-0.021193301,-0.07836299,28.5625,29.875,28.875,32.6875,35.125,36.1875
0.26805454,-0.34315687,-0.42864674,-1.4391431,-0.0029973744,0.050630305,-0.15649453,-0.40488172,-0.3615864,0.060012635,-3.077443,0.62692064,5.286944e-05,-0.11665158,0.055776987,-0.0010766173,0.011239021,-0.0078087216,0.0037794246,0.4792915,-1.3665042,1.8851875,-2.0874364,-1.5714797,2.4556978,-0.19255005,0.11984599,-0.15043248,0.042574752,-0.00671215,-0.19624329,-0.4213795,0.076614454,-9.232041,0.8291774,47.717335,-1.1967951,-2.7033548,-3.2132244,-0.20559117,-0.027270302,-0.069094285,28.5625,29.875,28.875,32.6875,35.125,36.1875
0.27005374,0.29059756,-0.39552662,-1.3510603,0.002606223,0.060512193,-0.16055301,-0.40517497,-0.36148426,0.060050033,-3.0774624,0.6269845,0.0002030517,-0.11663904,0.05549715,-0.0011610552,0.011045747,-0.0078979945,-0.0017510926,0.4788837,-1.3662641,1.8848046,-2.0873883,-1.5715159,2.4553275,-0.19209056,0.12041604,-0.15092793,0.04248464,-0.0064843055,-0.19025412,-0.3256114,0.11492168,-9.251195,0.9097417,47.74062,-1.3364054,-2.433792,-3.2229056,-0.22010219,-0.03512937,-0.10765961,28.5625,29.875,28.875,32.6875,35.125,36.1875
0.27205372,-0.07785331,0.14052923,-1.1884626,-0.017722089,0.053011343,-0.17292716,-0.40539116,-0.3613802,0.060046382,-3.0774512,0.6269684,0.00014408218,-0.11780941,0.056429695,-0.0006277655,0.010315084,-0.007102442,-0.012300136,0.47851095,-1.3660359,1.8845185,-2.0872924,-1.571504,2.4549463,-0.19476765,0.119778246,-0.15142371,0.042580727,-0.0062106014,-0.18238245,-0.17238252,-0.05746084,-9.136273,0.8985519,47.729877,-1.2425902,-2.4941876,-3.272877,-0.23612058,-0.025357671,-0.23854126,28.5625,29.875,28.875,32.6875,35.125,36.1875
0.27405387,-0.40193877,0.3756126,-0.9198982,-0.009621991,0.04533318,-0.16594137,-0.40562263,-0.3612609,0.060047373,-3.077389,0.6271154,0.00011099988,-0.11947046,0.05751133,-0.0008204802,0.010360649,-0.0072081937,-0.023394646,0.47811404,-1.3658073,1.8842186,-2.0871851,-1.5715159,2.4546492,-0.19795164,0.121347256,-0.15289015,0.042594817,-0.0062122163,-0.17447096,-0.28730422,-0.15322891,-9.097966,0.80679786,47.698532,-1.2827568,-2.4322267,-3.2474604,-0.23764719,-0.020757942,-0.31394655,28.5625,29.875,28.875,32.6875,35.125,36.1875
0.2760542,0.24510635,0.5096162,-0.85462826,0.016977416,0.06908548,-0.16888669,-0.40590253,-0.3611373,0.060063608,-3.0774126,0.6273158,0.00017102018,-0.1202547,0.05822035,-0.0012416191,0.010166091,-0.008164362,-0.030235281,0.47764525,-1.3655906,1.8839196,-2.0871727,-1.5714916,2.4543025,-0.20009658,0.122577734,-0.15345126,0.042688068,-0.0055917436,-0.16977654,-0.17238252,-0.21068975,-9.136273,0.8314132,47.723602,-1.1594534,-2.4327638,-3.3271365,-0.26363558,-0.034372848,-0.43120125,28.5625,29.875,28.875,32.6875,35.125,36.1875
0.2780543,-0.44430932,0.46693528,-0.89769953,0.034217205,0.06417931,-0.16251509,-0.40612575,-0.3610281,0.06003564,-3.0773447,0.62730145,6.39598e-05,-0.12162625,0.058347907,-0.00101291,0.00892313,-0.0070949756,-0.031222902,0.47727296,-1.36529,1.8835968,-2.087054,-1.5715035,2.4539301,-0.20178033,0.12350294,-0.15488061,0.041664746,-0.005005656,-0.17047267,-0.1340753,-0.28730422,-8.963891,0.85826975,47.71465,-1.1524367,-2.385149,-3.312392,-0.26272866,-0.043323252,-0.4892675,28.5625,29.875,28.875,32.6875,35.125,36.1875
0.28005454,-0.18385907,1.1144888,-0.83459014,0.039983533,0.06894144,-0.18157777,-0.40635827,-0.3609235,0.06003852,-3.0773392,0.6273512,9.97672e-05,-0.12257675,0.05898808,-0.0021229829,0.009511485,-0.0089908615,-0.022581527,0.4769001,-1.3650725,1.8833216,-2.0870173,-1.571515,2.4535892,-0.20380154,0.12666038,-0.15618129,0.041749172,-0.004666948,-0.18113512,-0.17238252,-0.24899697,-8.963891,0.83365434,47.70032,-1.0685556,-2.4794636,-3.3755836,-0.2576202,-0.0543376,-0.43059754,28.5625,29.875,28.875,32.6875,35.125,36.1875
0.28205428,-0.16784994,1.2069224,-0.9988909,0.039528817,0.06717901,-0.17125419,-0.40660614,-0.3608037,0.060037106,-3.0772917,0.6273345,9.13457e-05,-0.12361704,0.058560237,0.0006265688,0.007441866,-0.0050199027,-0.009237268,0.47650373,-1.3648098,1.882986,-2.086909,-1.5715512,2.4531887,-0.20388184,0.12318081,-0.15861231,0.04316266,-0.0046704183,-0.19455934,-0.21068975,-0.21068975,-9.059659,0.82694155,47.70659,-1.0836738,-2.2869308,-3.30949,-0.277107,-0.064807534,-0.33549696,28.5625,29.875,28.875,32.6875,35.125,36.1875
0.28405425,-0.4485427,0.668695,-1.085102,0.030491633,0.069276325,-0.17300206,-0.40683946,-0.36069036,0.060034625,-3.0772927,0.62740535,-3.0140533e-05,-0.12328668,0.058873694,-0.0008532605,0.009107424,-0.007045839,0.0007452441,0.47607216,-1.3645682,1.8826755,-2.0867898,-1.5714916,2.4528012,-0.20366578,0.12567618,-0.15818414,0.042807557,-0.0052416576,-0.20432414,-0.28730422,-0.17238252,-9.059659,0.91198283,47.68599,-1.2007515,-2.4611404,-3.4403162,-0.29896453,-0.05028167,-0.22036031,28.5625,29.875,28.875,32.6875,35.125,36.1875
0.28605357,-0.80999094,-0.21308567,-1.3345965,0.020012368,0.086384825,-0.17078899,-0.4070755,-0.36056465,0.06003107,-3.0772443,0.6273169,-6.9260874e-05,-0.12493515,0.058159612,0.00070474483,0.0069415052,-0.0025621392,0.0040251245,0.4756763,-1.3643166,1.8823527,-2.0866587,-1.5715274,2.4523566,-0.20370533,0.124827996,-0.16027237,0.04075495,-0.005397523,-0.20764221,-0.45968673,-0.038307227,-9.174581,0.8918391,47.678825,-1.4735396,-2.1303077,-3.2884417,-0.28154296,-0.06605943,-0.13987467,28.5625,29.875,28.875,32.6875,35.125,36.1875
0.28805363,-1.3008382,0.110549875,-1.5751705,-0.015615705,0.097843006,-0.17110103,-0.40731907,-0.36044008,0.060025923,-3.0771923,0.6273651,-9.093888e-05,-0.12580438,0.057427388,0.0017077314,0.0066589527,-0.0007675189,0.0006461934,0.47526887,-1.3640642,1.8820404,-2.0865624,-1.5715517,2.451986,-0.2027677,0.12534662,-0.1633995,0.041637138,-0.0059788595,-0.20332307,-0.38307226,0.076614454,-9.32781,0.87393653,47.677036,-1.5945151,-2.2170749,-3.2386007,-0.30232453,-0.051914144,-0.17396088,28.5625,29.875,28.875,32.6875,35.125,36.1875
0.29005384,-0.81180066,-0.3766075,-1.6430982,-0.02935107,0.110992946,-0.17779455,-0.4075875,-0.36032507,0.060040385,-3.0771966,0.6274089,-3.7948874e-05,-0.12715599,0.057353638,0.0017907964,0.006104224,-0.00014136781,-0.006993449,0.47484854,-1.3638233,1.8817056,-2.0865033,-1.5715636,2.4515927,-0.2038337,0.12721924,-0.16579308,0.041347627,-0.005767623,-0.19674894,-0.40222588,0.1340753,-9.404425,0.95226496,47.668976,-1.5586835,-2.20886,-3.1850615,-0.3127953,-0.07862422,-0.24962735,28.5625,29.875,28.875,32.6875,35.125,36.1875
0.29205412,-1.1042663,-1.3975441,-1.9367265,-0.033767246,0.09979483,-0.17086299,-0.40782183,-0.36020178,0.060017373,-3.0771286,0.62745446,-9.257099e-05,-0.12783894,0.058936797,0.0011761201,0.0072720805,-0.0014911018,-0.013704464,0.47445148,-1.3635467,1.8814076,-2.0864189,-1.5715874,2.451233,-0.20672585,0.12797092,-0.16548052,0.04201571,-0.006198232,-0.19292888,-0.36391866,0.21068975,-9.461885,0.90750587,47.72719,-1.4131372,-2.1757634,-3.3361397,-0.33656663,-0.04842495,-0.3146736,28.5625,29.875,28.875,32.6875,35.125,36.1875
0.29405397,-0.7751999,-1.3450267,-2.2263658,-0.055554807,0.08885844,-0.1736732,-0.40807015,-0.36007032,0.060008526,-3.077074,0.62750316,-0.00020893067,-0.12889774,0.05950867,0.00040378093,0.00812189,-0.00082344626,-0.016244907,0.47400698,-1.3632698,1.881061,-2.0862644,-1.571576,2.450826,-0.20783183,0.1300363,-0.16579041,0.04005898,-0.007281613,-0.19149089,-0.38307226,0.2681506,-9.749189,0.85155696,47.688675,-1.3511722,-2.17664,-3.3922586,-0.3364699,-0.062793285,-0.38249487,28.5625,29.875,28.875,32.6875,35.125,36.1875
0.2960543,-0.7492555,-1.7821276,-2.3910158,-0.06297983,0.08389992,-0.16874483,-0.40833113,-0.35994872,0.060005955,-3.0770469,0.6274979,-0.00017306568,-0.13145731,0.059758063,0.0012220534,0.006661991,0.0036752902,-0.017094886,0.47359794,-1.3630055,1.8807367,-2.0862052,-1.5716127,2.4504173,-0.2098871,0.13049321,-0.16744097,0.03657523,-0.00804869,-0.19269358,-0.21068975,0.30645782,-9.844957,0.8291774,47.667187,-1.3322222,-2.197616,-3.2935727,-0.2911307,-0.046967857,-0.39918613,28.5625,29.875,28.875,32.6875,35.125,36.1875
0.29805464,-0.9560109,-2.2445924,-2.4362013,-0.0645748,0.07297863,-0.17601052,-0.40861914,-0.35983348,0.060016647,-3.0770543,0.62757015,-0.00013329941,-0.13286613,0.060482744,0.00046265704,0.0068791267,0.0037254097,-0.010086855,0.4731538,-1.3627282,1.8803667,-2.086146,-1.5716127,2.4500175,-0.21206109,0.13290273,-0.16829598,0.035064556,-0.008271113,-0.20187464,-0.19153613,0.38307226,-9.940725,0.91421866,47.687782,-1.2583264,-2.2748604,-3.3367634,-0.2609243,-0.037782688,-0.3548115,28.5625,29.875,28.875,32.6875,35.125,36.1875
0.3000545,-0.5090161,-2.0296872,-2.4376137,-0.07822541,0.082537875,-0.18329309,-0.4088724,-0.35967335,0.05999097,-3.0769598,0.6275653,-0.00013889959,-0.1346877,0.061979186,-0.00077605975,0.0072094714,0.0018911358,-0.0031574643,0.47270843,-1.3624628,1.8800906,-2.0860746,-1.5716842,2.4495814,-0.21636371,0.13631518,-0.16950573,0.034614973,-0.007755768,-0.21310645,-0.11492168,0.36391866,-9.940725,0.8851263,47.70211,-1.187741,-2.3211668,-3.3910885,-0.25536603,-0.036607202,-0.20907316,28.5625,29.875,28.875,32.6875,35.125,36.1875
0.3020544,-0.69164085,-1.7228087,-2.5934405,-0.06301948,0.075638816,-0.16978042,-0.40919212,-0.35957652,0.06004903,-3.0770276,0.6276348,4.5760036e-05,-0.13649587,0.06200196,0.0012145138,0.004729063,0.006142692,0.001501763,0.47227582,-1.3622235,1.879661,-2.0860264,-1.5716962,2.4491837,-0.21799567,0.1341211,-0.17118594,0.033562075,-0.0074620885,-0.21939911,-0.19153613,0.2681506,-9.959879,0.8985519,47.72271,-1.1103184,-2.2339342,-3.3275838,-0.23053278,-0.028796976,-0.09828305,28.5625,29.875,28.875,32.6875,35.125,36.1875
0.30405444,-0.6513957,-0.8643538,-2.5241284,-0.06481505,0.07142957,-0.18100908,-0.4094323,-0.35945445,0.06002996,-3.0770142,0.62755775,-4.3134336e-05,-0.13766077,0.06318138,-0.00037611983,0.0052646725,0.004176361,-0.0033687705,0.47185478,-1.3619461,1.8793501,-2.0859315,-1.5716838,2.4487164,-0.22112116,0.13748169,-0.17137364,0.032384146,-0.0070592943,-0.21765393,-0.15322891,0.22984336,-10.036493,0.8247004,47.709274,-0.9936571,-2.4493084,-3.3740907,-0.2199677,-0.020561846,-0.101084545,28.5625,29.875,28.875,32.6875,35.125,36.1875
0.3060538,-0.41710094,-0.69814557,-2.2728555,-0.04483343,0.07588171,-0.1681408,-0.40969825,-0.35933557,0.059996393,-3.0770092,0.62763923,-8.4816085e-05,-0.13814995,0.063530415,-0.001747153,0.0051429337,0.0023111284,-0.013114137,0.47140977,-1.3616328,1.8790506,-2.085932,-1.5716594,2.448323,-0.22258957,0.14035325,-0.17148878,0.031240854,-0.0061023626,-0.20937857,-0.2681506,0.15322891,-9.902418,0.8940802,47.686886,-0.9077544,-2.4248781,-3.4559877,-0.18248159,-0.047770277,-0.17131898,28.5625,29.875,28.875,32.6875,35.125,36.1875
0.30805406,-0.8643263,-0.6567066,-2.2713509,-0.014379819,0.05911824,-0.17430061,-0.4099755,-0.35920393,0.06000188,-3.0769787,0.6276365,-2.702575e-05,-0.13900796,0.06294932,-0.0018541691,0.003907309,0.00217015,-0.021773396,0.47097796,-1.3613678,1.878704,-2.0858605,-1.5717071,2.4478936,-0.22293793,0.14244613,-0.17372437,0.030939985,-0.00493428,-0.2010693,-0.24899697,0.11492168,-9.787497,0.8247004,47.688675,-0.9020832,-2.5081933,-3.3571982,-0.1530613,-0.06603675,-0.26594475,28.5625,29.875,28.875,32.6875,35.125,36.1875
0.3100539,-1.0402747,-0.10082943,-2.1004937,-0.009647223,0.064142786,-0.17589991,-0.41026914,-0.35909724,0.060025126,-3.0770197,0.6277624,9.207014e-06,-0.13919549,0.062016036,-0.0013329794,0.003412731,0.0031898702,-0.027013896,0.4705231,-1.3611033,1.8783201,-2.0858004,-1.5716714,2.4475121,-0.22137778,0.14298286,-0.17564574,0.031203184,-0.0049423813,-0.19426821,-0.30645782,-0.038307227,-9.825804,0.83813137,47.711063,-1.2036052,-2.5524259,-3.3975153,-0.117407806,-0.05554543,-0.40312552,28.5625,29.875,28.875,32.6875,35.125,36.1875
0.31205395,-1.0522685,-0.034707934,-1.9622048,0.004730094,0.07933619,-0.17541379,-0.41053578,-0.3589755,0.06001739,-3.0769885,0.62777424,1.2816e-05,-0.13830094,0.062343948,-0.003057034,0.006020796,-0.00054374355,-0.028550575,0.47010332,-1.3608142,1.8779744,-2.0857284,-1.5716957,2.447104,-0.22064628,0.14595604,-0.17569557,0.032787833,-0.0055734213,-0.19199826,-0.34476504,-0.076614454,-9.595961,0.83589023,47.709274,-1.3749353,-2.699097,-3.5078816,-0.12667322,-0.08104572,-0.4612087,28.5625,29.875,28.875,32.6875,35.125,36.1875
0.3140538,-1.7522253,-0.7559017,-1.7903605,0.026590716,0.07401334,-0.15667847,-0.41084984,-0.35886955,0.060056303,-3.0770533,0.62788,0.00014599353,-0.1397677,0.062330265,-0.00059041183,0.0040335287,0.002718927,-0.023563659,0.46964708,-1.3605636,1.8775796,-2.0857036,-1.5716833,2.4467056,-0.22191979,0.14331388,-0.17853256,0.034451317,-0.0052627213,-0.19825956,-0.24899697,-0.11492168,-9.519346,0.9321212,47.70838,-1.448105,-2.3552577,-3.5723004,-0.104166195,-0.07511605,-0.50547934,28.5625,29.875,28.875,32.6875,35.125,36.1875
0.31605396,-0.79936033,0.22187495,-1.4185038,0.013238492,0.084017046,-0.17826875,-0.4111256,-0.3587458,0.060058583,-3.0770116,0.6278445,0.00020075857,-0.14019546,0.06327905,-0.0014003365,0.005056316,0.0005564202,-0.013009508,0.46923855,-1.3602753,1.8772091,-2.0856192,-1.5717434,2.4462805,-0.22379047,0.14512391,-0.17917576,0.035649322,-0.0052037034,-0.21068417,-0.15322891,-0.21068975,-9.500193,0.91198283,47.723602,-1.5209582,-2.4683678,-3.6069386,-0.08271214,-0.08807896,-0.39014995,28.5625,29.875,28.875,32.6875,35.125,36.1875
0.31805393,0.11659797,0.3100435,-1.4344307,0.021936806,0.07016624,-0.1778238,-0.41140786,-0.35862315,0.060054436,-3.0770218,0.6278789,0.00020163089,-0.14102511,0.062702835,-0.0012830377,0.0049078544,0.00058032153,0.00036547976,0.4687824,-1.3599868,1.876861,-2.085571,-1.5717314,2.4458447,-0.22346117,0.14726771,-0.1822418,0.036470287,-0.005093406,-0.22372884,-0.095768064,-0.1340753,-9.385271,0.8806493,47.691364,-1.4561098,-2.437957,-3.472015,-0.079271175,-0.09020169,-0.23947455,28.5625,29.875,28.875,32.6875,35.125,36.1875
0.32005376,-0.33559075,-0.25185707,-1.3699677,0.026060963,0.043793574,-0.17004466,-0.4116974,-0.3584952,0.0600582,-3.077024,0.6278574,0.00022518415,-0.14278285,0.062918685,-0.00032452564,0.004728648,0.0024210135,0.0037067577,0.468326,-1.3596987,1.87649,-2.085499,-1.5717434,2.4453747,-0.22477326,0.14798996,-0.18550771,0.037283756,-0.0057708244,-0.2283797,-0.17238252,-0.15322891,-9.289503,0.84708,47.694946,-1.3966829,-2.5378819,-3.3487654,-0.07338082,-0.08876461,-0.15027809,28.5625,29.875,28.875,32.6875,35.125,36.1875
0.32205376,0.26309446,0.4926586,-1.3611068,0.018499596,0.04434386,-0.16939847,-0.41199428,-0.35837775,0.060063813,-3.077047,0.6278095,0.00027992052,-0.14428383,0.06389326,0.00078491523,0.0051430846,0.0045936094,-0.0035986064,0.46788153,-1.3593993,1.8761066,-2.085451,-1.5717558,2.4448977,-0.22672912,0.14710547,-0.187187,0.038100682,-0.007111059,-0.22302733,-0.34476504,-0.21068975,-9.11712,0.94331104,47.707485,-1.4569066,-2.3800135,-3.1747308,-0.039916165,-0.080588125,-0.15650018,28.5625,29.875,28.875,32.6875,35.125,36.1875
0.32405382,-0.16497017,-0.33014414,-1.5923527,0.043723684,0.03389023,-0.15989353,-0.412276,-0.35824496,0.060077023,-3.0770254,0.6278674,0.00029004677,-0.14570677,0.06508788,0.0014056627,0.0050523197,0.0051081963,-0.014173473,0.4674245,-1.3591355,1.8757352,-2.0853426,-1.5717682,2.4444797,-0.22972433,0.14688528,-0.18862903,0.039265256,-0.0072572753,-0.21544704,-0.30645782,-0.05746084,-9.212888,0.7933669,47.698532,-1.3908522,-2.3210368,-3.2501698,-0.029716205,-0.083907396,-0.26180843,28.5625,29.875,28.875,32.6875,35.125,36.1875
0.32605398,0.016961489,0.1679408,-1.3389564,0.0019871467,0.063023254,-0.17564714,-0.4125527,-0.35809487,0.060051665,-3.076968,0.6279187,0.00022653618,-0.14726828,0.06669823,0.0016443576,0.0050073527,0.0044018133,-0.023103902,0.4669427,-1.3588239,1.875399,-2.0852582,-1.5717801,2.4440374,-0.2338409,0.14731327,-0.1901021,0.04091883,-0.0069072354,-0.21063308,-0.3256114,0.05746084,-9.232041,0.9298854,47.703007,-1.2266698,-2.2067463,-3.286223,-0.030858424,-0.08357273,-0.334098,28.5625,29.875,28.875,32.6875,35.125,36.1875
0.32805413,-0.6557415,-0.6588293,-1.4469025,-0.00570885,0.08242361,-0.16908297,-0.4128535,-0.35797924,0.060079638,-3.076968,0.6280139,0.00029220627,-0.14743273,0.06775224,0.00014871452,0.0065550935,0.0002137448,-0.026573729,0.46649852,-1.358547,1.8749808,-2.085162,-1.571792,2.4436529,-0.2359182,0.15049744,-0.19107376,0.043137338,-0.0063918456,-0.20924129,-0.49799395,0.095768064,-9.174581,0.8672237,47.70659,-1.1675665,-2.1726997,-3.2735748,-0.04683061,-0.07774349,-0.4048329,28.5625,29.875,28.875,32.6875,35.125,36.1875
0.33005434,-1.420121,-0.836121,-1.4690237,-0.01708755,0.09945646,-0.1801396,-0.41313103,-0.3578369,0.06007808,-3.0769494,0.6279891,0.0002743151,-0.1495685,0.06863405,0.0027020182,0.005051485,0.00404168,-0.023860889,0.4660296,-1.3582724,1.8746322,-2.0850651,-1.5718039,2.443171,-0.23883852,0.14755136,-0.19369255,0.044597134,-0.00678048,-0.21487321,-0.4405331,0.114921674,-9.3661175,0.8112748,47.689575,-1.0544076,-2.111747,-3.1413794,-0.04953522,-0.07141272,-0.38161045,28.5625,29.875,28.875,32.6875,35.125,36.1875
0.3320537,-1.3059098,-0.3340334,-1.4126363,-0.030808302,0.111180075,-0.18841718,-0.4134247,-0.35769752,0.060074616,-3.0769305,0.6280162,0.00021589459,-0.15005572,0.068903394,0.0024779623,0.0053154486,0.0034027146,-0.012340528,0.46553758,-1.3579601,1.8742374,-2.084946,-1.571792,2.4426985,-0.23957281,0.14879832,-0.19486125,0.04519494,-0.006745903,-0.22712721,-0.2681506,0.076614454,-9.385271,0.88289046,47.695843,-1.1169442,-2.1311347,-3.2634716,-0.045158774,-0.1021952,-0.2626577,28.5625,29.875,28.875,32.6875,35.125,36.1875
0.3340537,-1.5094868,-0.6575196,-1.3409265,-0.031596843,0.11169532,-0.18083192,-0.41371387,-0.35755685,0.060073595,-3.0768948,0.62802213,0.00020661806,-0.1497817,0.0694555,0.0019741077,0.0063805403,0.002390632,-0.002296627,0.4650694,-1.3576603,1.8738545,-2.0848377,-1.5718158,2.4422388,-0.23980796,0.1491939,-0.19433305,0.04563607,-0.007254129,-0.23740527,-0.40222588,0.11492168,-9.3661175,0.90527004,47.687782,-1.2096798,-1.9903451,-3.2926116,-0.050707974,-0.08162668,-0.14468706,28.5625,29.875,28.875,32.6875,35.125,36.1875
0.3360539,-1.9236513,-0.36039397,-1.274279,-0.040264938,0.10077214,-0.18264402,-0.41404867,-0.3574251,0.060095254,-3.0769231,0.6280455,0.00033005635,-0.15014,0.06830459,0.002414329,0.0055074943,0.002843732,-0.00013814025,0.46457806,-1.3573601,1.8734359,-2.0848014,-1.5718402,2.4417586,-0.23836416,0.1505336,-0.19713238,0.046287585,-0.006662488,-0.23812069,-0.5554548,0.038307227,-9.289503,0.85826975,47.716442,-1.270175,-1.9906803,-3.3274484,-0.044301804,-0.09394779,-0.09308702,28.5625,29.875,28.875,32.6875,35.125,36.1875
0.33805403,-0.7731556,-0.20590548,-1.7627271,-0.0055669663,0.090567246,-0.17368571,-0.41434872,-0.35728833,0.060111918,-3.0769384,0.62805325,0.00032923606,-0.15026604,0.0687314,0.0020045498,0.006053357,0.0018425857,-0.008344705,0.46408576,-1.3570838,1.873041,-2.0846932,-1.5718278,2.4412694,-0.23901062,0.15146305,-0.19748786,0.046861555,-0.006695052,-0.23056042,-0.40222588,0.019153614,-9.3661175,0.91421866,47.684196,-1.3101596,-1.9559033,-3.3830981,-0.049094312,-0.088448316,-0.14625557,28.5625,29.875,28.875,32.6875,35.125,36.1875
0.34005415,-1.2737446,-0.40304285,-1.6651579,0.013873435,0.050061706,-0.1591548,-0.414646,-0.3571696,0.060105372,-3.076916,0.6281119,0.0003380449,-0.1503154,0.06949839,-0.00052469736,0.008939983,-0.0024541025,-0.019219331,0.46364152,-1.3567468,1.8726338,-2.0846217,-1.5718402,2.4408648,-0.23979051,0.15673709,-0.19829892,0.04754057,-0.0073505305,-0.22046335,-0.30645782,0.0,-9.385271,0.94331104,47.670765,-1.291017,-2.0105214,-3.4099224,-0.04227116,-0.09571748,-0.254671,28.5625,29.875,28.875,32.6875,35.125,36.1875
0.3420541,-0.26941663,0.30660704,-1.4924157,0.0095368195,0.05387858,-0.17370585,-0.41497323,-0.35702693,0.060130645,-3.0768871,0.6282063,0.0004694291,-0.15056956,0.069533125,0.00046132898,0.008949373,-0.0012308069,-0.027309256,0.4631612,-1.3564594,1.8722142,-2.0845497,-1.5719002,2.4404473,-0.23956594,0.15556161,-0.19943449,0.048756585,-0.007890413,-0.21214816,-0.34476504,-0.019153614,-9.289502,0.8985519,47.694946,-1.3288376,-2.1127722,-3.4554024,-0.044157945,-0.091655836,-0.3716719,28.5625,29.875,28.875,32.6875,35.125,36.1875
0.34405413,0.21203664,0.20201063,-1.6217227,0.023194559,0.050618168,-0.17330034,-0.4152605,-0.35687196,0.06010164,-3.0768023,0.62832534,0.00034757037,-0.15071924,0.06993222,-0.0005460346,0.010194269,-0.004552574,-0.032347564,0.4626572,-1.3561106,1.8718299,-2.084417,-1.5718998,2.4400287,-0.24042688,0.15859552,-0.20141271,0.05122906,-0.0075409543,-0.20796983,-0.19153614,-0.019153614,-9.289502,0.8717007,47.685097,-1.4010555,-2.2002814,-3.371112,-0.047802944,-0.08655553,-0.5097113,28.5625,29.875,28.875,32.6875,35.125,36.1875
0.34605387,0.1309287,-0.17465003,-1.7934204,0.024817742,0.04684925,-0.16509216,-0.41560042,-0.35674804,0.060154013,-3.0768442,0.62838674,0.0005137334,-0.15169741,0.07102489,-0.0013814896,0.010817388,-0.0074434998,-0.027973905,0.46217656,-1.3558458,1.8713754,-2.0843441,-1.5719241,2.4395812,-0.2433714,0.1613647,-0.20334546,0.053238444,-0.0067927246,-0.21528943,-0.019153614,0.019153614,-9.289502,0.9164598,47.65464,-1.4205799,-2.2677379,-3.2484396,-0.061755583,-0.12100287,-0.4720534,28.5625,29.875,28.875,32.6875,35.125,36.1875
0.34805408,0.048280288,-0.2031172,-1.727115,0.0097057605,0.042673178,-0.16578305,-0.4158688,-0.35660833,0.060117573,-3.076779,0.6283848,0.00035198103,-0.15251704,0.072448574,-0.0018868888,0.012595456,-0.009178041,-0.015712408,0.46170783,-1.3554857,1.8709916,-2.0842001,-1.5719122,2.4391198,-0.24579042,0.16294761,-0.20461464,0.055255517,-0.0076504336,-0.22996688,0.05746084,0.038307227,-9.32781,0.9298854,47.68599,-1.3402553,-2.2647681,-3.3747115,-0.08861882,-0.09075545,-0.39862302,28.5625,29.875,28.875,32.6875,35.125,36.1875
0.35005403,0.40126178,-0.21007185,-1.7412618,0.00033652876,0.042474937,-0.17605734,-0.4162031,-0.3564367,0.06013135,-3.0767221,0.6285025,0.00040668438,-0.15327094,0.073499486,-0.0022411034,0.013760607,-0.012532147,-0.0069759623,0.46116653,-1.3551848,1.8705729,-2.0840905,-1.5719599,2.4386594,-0.24828714,0.16526394,-0.20758386,0.0594007,-0.007210584,-0.24119994,0.038307227,-0.11492168,-9.346964,0.91421866,47.688675,-1.1572162,-2.3597226,-3.335743,-0.14225657,-0.10423158,-0.23007187,28.5625,29.875,28.875,32.6875,35.125,36.1875
0.352054,-0.19850841,-0.7679468,-1.6021504,-0.006772892,0.032572556,-0.16207916,-0.4165071,-0.35631004,0.060134016,-3.0767474,0.6284525,0.00043380968,-0.15452406,0.07519003,-0.0021012137,0.014524253,-0.013764218,-0.0096164,0.46069774,-1.3548734,1.8701776,-2.08403,-1.5719599,2.4381564,-0.2519373,0.16578916,-0.20913923,0.061870262,-0.00734761,-0.24220914,-0.095768064,-0.038307227,-9.308656,0.8560339,47.696735,-1.0781968,-2.373571,-3.4307015,-0.21015635,-0.09274773,-0.1911039,28.5625,29.875,28.875,32.6875,35.125,36.1875
0.35405424,0.06194893,-0.5246056,-1.3949137,-0.019453347,0.050306108,-0.16858514,-0.4167776,-0.35616416,0.060117792,-3.0766907,0.6284445,0.0002862075,-0.15480198,0.07548197,-0.003415948,0.015078878,-0.015323714,-0.01634426,0.4602177,-1.3545487,1.8697823,-2.0838506,-1.5719479,2.4376788,-0.25261396,0.16851863,-0.20928663,0.06093809,-0.0071855346,-0.23615707,-0.17238252,0.11492168,-9.155427,0.85826975,47.698532,-1.1091301,-2.1770468,-3.275288,-0.19286421,-0.11697124,-0.25303006,28.5625,29.875,28.875,32.6875,35.125,36.1875
0.3560552,-0.63282436,-0.3300242,-1.5313959,-0.006581107,0.03798649,-0.16281536,-0.417109,-0.3559926,0.060089592,-3.076621,0.62851053,0.00023371897,-0.15516707,0.07583729,-0.0017257314,0.014008036,-0.013553251,-0.022747146,0.45966548,-1.3541659,1.8693627,-2.0837543,-1.5719718,2.437177,-0.25343195,0.165559,-0.20996448,0.062510885,-0.0070301965,-0.23057254,-0.21068975,0.11492168,-9.232041,0.9030289,47.687782,-1.17776,-2.275492,-3.3206353,-0.23375821,-0.119425535,-0.3583265,28.5625,29.875,28.875,32.6875,35.125,36.1875
0.35805398,-0.23491938,0.11286677,-1.3079091,-0.010918684,0.064654656,-0.17326385,-0.41739702,-0.3558529,0.06009216,-3.0765507,0.62865186,0.0001808529,-0.15456237,0.07757141,-0.0027135604,0.016587887,-0.018093664,-0.026687993,0.4591966,-1.353854,1.868945,-2.0835974,-1.5719842,2.4368055,-0.25549942,0.16647744,-0.2098109,0.06665004,-0.0073391865,-0.22869831,-0.22984336,0.095768064,-9.289502,0.9254084,47.70032,-1.1716003,-2.2063062,-3.4134924,-0.30319148,-0.1064641,-0.38639987,28.5625,29.875,28.875,32.6875,35.125,36.1875
0.3600541,-0.16166686,-0.22275941,-1.3842943,-0.014517933,0.08319784,-0.17814964,-0.41773203,-0.35568127,0.060098298,-3.0764935,0.62871355,0.00021161884,-0.15698747,0.07699914,-0.002031116,0.01432748,-0.014731047,-0.022249097,0.45865652,-1.3535297,1.868513,-2.0834787,-1.5720319,2.4363115,-0.2566939,0.16834415,-0.2130634,0.063996434,-0.0068343817,-0.23433134,-0.2681506,0.11492168,-9.232041,0.8851263,47.71286,-1.1371477,-2.2412384,-3.3420496,-0.31914195,-0.1044828,-0.39815003,28.5625,29.875,28.875,32.6875,35.125,36.1875
0.36205497,-0.35943413,-0.2996461,-1.4247452,-0.015754562,0.090230025,-0.18241765,-0.41800752,-0.35550594,0.06006204,-3.0764012,0.628746,-2.1016658e-05,-0.15788385,0.075758725,-0.0013335575,0.0128353955,-0.012701664,-0.009520318,0.45811668,-1.3531814,1.8681287,-2.083275,-1.572008,2.435804,-0.25542748,0.16946822,-0.21587469,0.06319013,-0.00646296,-0.24579243,-0.28730422,0.05746084,-9.32781,0.86945957,47.703007,-1.2578472,-2.128518,-3.297518,-0.328206,-0.13192071,-0.2861912,28.5625,29.875,28.875,32.6875,35.125,36.1875
0.36405423,-0.7468802,-0.013989994,-1.4055549,-0.0373799,0.1036969,-0.18370914,-0.41832557,-0.35538003,0.060078487,-3.0764177,0.6288011,-3.027573e-05,-0.15927114,0.07523664,-0.0002842758,0.011689328,-0.00997822,0.00088081637,0.4576248,-1.3528578,1.8676738,-2.0831563,-1.5719842,2.4353445,-0.2554073,0.16979155,-0.21856083,0.06259447,-0.0066608647,-0.2561721,-0.34476504,0.1340753,-9.251195,0.87617236,47.684196,-1.3291051,-2.1927483,-3.2466471,-0.34681952,-0.13820724,-0.1663186,28.5625,29.875,28.875,32.6875,35.125,36.1875
0.3660543,-0.97763455,-0.49487618,-1.6018709,-0.024106719,0.11281252,-0.17513113,-0.41865623,-0.35523406,0.060080428,-3.0763962,0.6286819,-2.2181466e-06,-0.15952861,0.0748664,-0.0014690111,0.012031644,-0.010315523,0.0020198356,0.45713252,-1.3524969,1.8672065,-2.0830371,-1.5720319,2.4347808,-0.2547135,0.17266154,-0.21893072,0.060533185,-0.0068354798,-0.25661626,-0.4405331,0.11492168,-9.385271,0.91198283,47.71465,-1.339515,-2.2930431,-3.3088465,-0.3471667,-0.14406143,-0.09683524,28.5625,29.875,28.875,32.6875,35.125,36.1875
0.36805445,-1.4089638,-0.40550885,-1.719564,-0.011944234,0.105499394,-0.1590471,-0.41899884,-0.35505155,0.060077667,-3.0763602,0.62887156,-3.040654e-05,-0.16090338,0.074507006,-0.0017014918,0.010715663,-0.007987632,-0.0065038325,0.456533,-1.3521727,1.8667997,-2.0829427,-1.5720199,2.4343045,-0.25514486,0.17443334,-0.2197904,0.05696064,-0.006694476,-0.2485236,-0.57460845,0.076614454,-9.481039,0.9030289,47.711964,-1.4325862,-2.1368873,-3.296599,-0.33734652,-0.14212668,-0.14788876,28.5625,29.875,28.875,32.6875,35.125,36.1875
0.37005454,-1.1337233,-0.2687468,-1.6154392,-0.026393581,0.11524632,-0.168507,-0.41934356,-0.35492325,0.06009685,-3.0763574,0.6288591,4.698812e-05,-0.16291888,0.075268306,-0.001096459,0.008705646,-0.004699147,-0.019082908,0.45605233,-1.3518131,1.8662976,-2.0828364,-1.5720557,2.4338167,-0.25812715,0.17393263,-0.21988302,0.05371587,-0.006333442,-0.23892796,-0.7661445,0.11492168,-9.423578,0.8560339,47.71286,-1.4414738,-2.2184038,-3.323494,-0.29977727,-0.14777148,-0.28871232,28.5625,29.875,28.875,32.6875,35.125,36.1875
0.37205368,-1.2047863,-0.06135936,-1.463938,-0.047296815,0.1240474,-0.17875671,-0.4196477,-0.3547889,0.06009192,-3.0763378,0.6289764,-7.939975e-06,-0.16466883,0.07645042,-0.0015474819,0.009029643,-0.0048842793,-0.031110605,0.45555928,-1.3514766,1.8658775,-2.0827286,-1.5720319,2.4333994,-0.26126128,0.1761443,-0.22153403,0.053479146,-0.0065481355,-0.23003289,-0.6703765,-0.038307227,-9.461885,0.9298854,47.716442,-1.2845335,-2.1745973,-3.3588204,-0.30601752,-0.14708903,-0.4143254,28.5625,29.875,28.875,32.6875,35.125,36.1875
