Tylouw/Master_Thesis_Code/training_data/batch_1/rect_rod_t0.3/sample_46_session_2.csv
timestamp[s],tcp_force_x[N],tcp_force_y[N],tcp_force_z[N],tcp_force_rx[Nm?],tcp_force_ry[Nm?],tcp_force_rz[Nm?],tcp_pose_x[m],tcp_pose_y[m],tcp_pose_z[m],tcp_pose_rx[rot_vec_x],tcp_pose_ry[rot_vec_y],tcp_pose_rz[rot_vec_z],tcp_velo_x[m/s],tcp_velo_y[m/s],tcp_velo_z[m/s],tcp_velo_rx[rot_vec_x/s],tcp_velo_ry[rot_vec_y/s],tcp_velo_rz[rot_vec_z/s],q1[rad],q2[rad],q3[rad],q4[rad],q5[rad],q6[rad],qd1[rad/s],qd2[rad/s],qd3[rad/s],qd4[rad/s],qd5[rad/s],qd6[rad/s],tool_acc_x,tool_acc_y,tool_acc_z,current_of_whole_robot[A],voltage_of_whole_robot[V],current_J1[A],current_J2[A],current_J3[A],current_J4[A],current_J5[A],current_J6[A],temp_J1[C],temp_J2[C],temp_J3[C],temp_J4[C],temp_J5[C],temp_J6[C]
7.280032e-07,0.4317373,0.084997006,0.9019903,-0.013680425,-0.000114031776,-0.01583768,-0.38932633,-0.36870882,0.060009103,-3.0786874,0.6249248,0.00019126217,0.0008869748,0.00049012474,-0.0008151008,0.0010976294,-0.0022759996,-1.7623117e-06,0.5050329,-1.3816679,1.9042228,-2.0918915,-1.5708655,2.4800253,-8.5874606e-05,0.0002547618,0.0013440086,0.0009236197,0.00014569687,-8.4933024e-05,0.21068975,0.15322891,-8.561666,0.73741806,47.68599,-0.18425322,-3.091508,-2.380019,-0.19253993,0.13282737,-0.003152717,28.375,29.75,28.8125,32.625,35.0,36.125
0.002057198,-0.17299484,-0.4443823,0.8352442,0.005070759,-0.01310258,-0.005311573,-0.38931823,-0.36869276,0.05998192,-3.0786386,0.62497234,0.00014933664,-0.0014230103,-0.0007941479,-0.00071743695,-0.0029619301,0.005027708,-8.269603e-07,0.50502086,-1.3816435,1.9042596,-2.0919073,-1.5708774,2.4800491,-8.453042e-05,0.0010229461,0.002559282,-0.009415917,0.00014324555,-8.380334e-05,0.17238252,0.17238252,-8.63828,0.7665104,47.699425,-0.23431566,-2.9934568,-2.3490222,-0.13000105,0.137077,-0.021989368,28.375,29.75,28.8125,32.625,35.0,36.125
0.004055956,-0.92224115,-0.46640116,0.6898157,-0.0005282912,-0.017389309,-0.0057137096,-0.3893169,-0.36870623,0.060000177,-3.0786426,0.6249921,0.00016396109,-0.00186442,-0.001039628,-0.0014952177,-0.0028786603,0.004876226,6.641567e-08,0.5050448,-1.3816547,1.9042233,-2.091872,-1.5708774,2.480085,-8.322758e-05,0.003179071,0.002135675,-0.010975569,0.00013896455,-8.27031e-05,0.095768064,0.2681506,-8.676587,0.75084364,47.705692,-0.19834271,-3.3893762,-2.5680277,-0.026338298,0.14520511,-0.009959407,28.375,29.75,28.8125,32.625,35.0,36.125
0.006104696,-0.33363062,-0.044725846,0.64667386,0.0018305442,-0.016549395,-0.009251376,-0.38932708,-0.36870205,0.060009092,-3.0787032,0.6249282,0.00022097869,-0.00089121144,-0.0004973881,-0.0010311201,-0.001339957,0.0021229237,-1.1243131e-07,0.50502086,-1.3816912,1.9042591,-2.0919292,-1.5708655,2.4800134,-8.196428e-05,0.0020160393,0.0012808646,-0.005803638,0.00013481049,-8.163141e-05,0.019153614,0.19153613,-8.542512,0.8023209,47.721813,-0.21119648,-3.3111515,-2.485168,-0.08786288,0.13637176,-0.006032834,28.375,29.75,28.8125,32.625,35.0,36.125
0.008057446,0.18310338,0.59769934,0.31185994,0.026866939,-0.02771763,-0.018557046,-0.38935375,-0.3687071,0.060009073,-3.078727,0.6249324,0.00023654447,0.00011462319,6.317053e-05,-0.00028646545,-7.232427e-05,-0.00013998576,-5.2877465e-07,0.5049969,-1.3816559,1.9042224,-2.0919511,-1.5708536,2.479989,-8.073888e-05,0.00010061161,0.0006931471,-0.0007067307,0.00013088943,-8.0587306e-05,-0.038307227,0.19153613,-8.676587,0.77545905,47.71554,-0.23294371,-3.1909375,-2.4590824,-0.13188878,0.14223956,0.00886674,28.375,29.75,28.8125,32.625,35.0,36.125
0.010053293,0.13475327,0.19313547,-0.1412815,0.042627156,-0.025976049,0.0016964226,-0.3893468,-0.36872903,0.060015954,-3.0787318,0.624953,0.00022362496,0.00021531811,0.00012680574,-0.00022999277,0.00012561145,-0.00048789542,-3.6390215e-06,0.50503284,-1.3816439,1.9041871,-2.0919273,-1.5708417,2.4800372,-9.126033e-05,1.349833e-06,0.0005320774,-4.6144465e-05,0.00012718953,-8.801341e-05,0.019153614,0.114921674,-8.90643,0.78888994,47.71286,-0.7499934,-2.7801447,-2.830782,-0.1353228,0.1298083,-0.09026022,28.375,29.75,28.8125,32.625,35.0,36.125
0.012052264,-0.31505665,0.04456332,-0.19082168,0.012630562,-0.015071305,-0.0060929274,-0.3893133,-0.3686944,0.05996943,-3.078641,0.6249156,0.000103949154,0.00064753485,0.00042121328,-0.0007671764,0.00164485,-0.0032197554,-2.1723538e-06,0.5050208,-1.3816196,1.9042586,-2.0919025,-1.5708655,2.4800134,-0.00018114562,0.0013202254,-0.00043191473,0.002724847,0.00012369314,-0.00017906511,0.1340753,0.15322891,-9.097966,0.7239871,47.696735,-0.9779526,-2.695926,-2.9445019,-0.14488506,0.119311675,-0.13500863,28.375,29.75,28.8125,32.625,35.0,36.125
0.014053152,-0.29415968,-0.2551088,-0.22182067,-0.009851959,0.01270701,-0.028763473,-0.38932064,-0.36869308,0.059969887,-3.0786407,0.6249146,7.432657e-05,-0.0043189344,0.0053426255,-0.0046394244,0.0049657016,-0.0092329,-0.00083748397,0.5050042,-1.3816041,1.9042338,-2.0918787,-1.5708536,2.4799962,-0.013112321,0.010581992,-0.0024845905,0.002383049,0.000120384364,-0.012272575,0.038307227,0.0,-9.212888,0.7396539,47.677036,-0.4872026,-3.1783972,-3.024025,-0.123073235,0.12580861,-0.08036424,28.375,29.75,28.8125,32.625,35.0,36.125
0.016052248,-0.8736894,-0.68357986,-0.3615549,-0.03278574,0.023428693,-0.023452839,-0.38930675,-0.36869156,0.059947174,-3.0786493,0.62485725,-1.8827288e-05,-0.0053337477,0.0053070667,-0.004168437,0.0041991733,-0.007850696,0.0032230048,0.50499207,-1.38158,1.9042572,-2.0918791,-1.5708174,2.479947,-0.014000473,0.0107824225,-0.003654126,0.0017714781,0.0001172472,-0.01722064,-0.22984336,-0.019153614,-9.461885,0.6725152,47.692257,-0.521122,-3.2376676,-3.012279,-0.1238883,0.13495189,-0.043557107,28.375,29.75,28.8125,32.625,35.0,36.125
0.018051675,-1.825116,-0.8068981,-0.446872,-0.034604806,0.03750305,-0.045123093,-0.3893328,-0.368667,0.059944324,-3.0785956,0.6249018,1.7038741e-05,-0.005081069,0.0048135114,-0.0029239666,0.002972503,-0.0056267455,0.0072864424,0.5049564,-1.3815569,1.9042338,-2.0918677,-1.5708655,2.4799461,-0.01292969,0.0081211105,-0.0032858795,0.0015234018,0.00011426977,-0.02021384,-0.51714754,0.05746084,-9.500193,0.7284641,47.681515,-0.7390355,-2.9935718,-3.1114612,-0.11206677,0.11135362,-0.021500658,28.375,29.75,28.8125,32.625,35.0,36.125
0.02005194,-2.0536382,-0.27203628,-0.72195,-0.009640746,0.057272837,-0.06254688,-0.38933206,-0.36866808,0.05993889,-3.078583,0.6249375,-5.047197e-05,-0.0057604657,0.0054333424,-0.002598441,0.0026407081,-0.0050455676,0.0070310216,0.504944,-1.3815331,1.90421,-2.0918314,-1.5708417,2.4799576,-0.01461287,0.007479413,-0.0032554965,0.001465803,0.00012239008,-0.021641726,-0.57460845,-0.019153614,-9.557653,0.80679786,47.696735,-0.9422169,-2.8189702,-3.2374015,-0.11454189,0.1360986,-0.03640639,28.375,29.75,28.8125,32.625,35.0,36.125
0.022052102,-1.810197,0.3401817,-0.80133146,0.023629036,0.060565986,-0.09105823,-0.38934413,-0.36867625,0.059930645,-3.0786257,0.62489134,-4.9189366e-05,-0.0063176434,0.0064511807,-0.0038933416,0.004664049,-0.008715683,0.0032236977,0.5049313,-1.381508,1.9042095,-2.0918782,-1.5708174,2.4799106,-0.016853321,0.0108439615,-0.0048280586,0.0038654131,0.0001297556,-0.020073937,-0.51714754,-0.038307227,-9.595961,0.78217715,47.692257,-0.89743227,-2.841543,-3.3454142,-0.103234485,0.13083245,-0.061629184,28.375,29.75,28.8125,32.625,35.0,36.125
0.024052195,-1.4452072,0.4749914,-0.78409857,0.033380058,0.058969345,-0.10705372,-0.38933653,-0.36865026,0.059917517,-3.078565,0.6249187,-0.00014869246,-0.008042971,0.0067945444,-0.0031572613,0.004241224,-0.007997507,-0.000262583,0.5048946,-1.3814957,1.9042085,-2.0918062,-1.5708174,2.4798987,-0.019057354,0.011711316,-0.007820177,0.0051571755,0.0001471842,-0.018790504,-0.51714754,-0.019153614,-9.672575,0.77545905,47.703903,-0.81091386,-2.893937,-3.3095665,-0.13990974,0.12561417,-0.07559329,28.375,29.75,28.8125,32.625,35.0,36.125
0.026052559,-2.2293549,0.05289969,-0.8962772,0.03296832,0.041333433,-0.10652979,-0.38935873,-0.36863485,0.059894666,-3.0785463,0.6247997,-0.00013845121,-0.009428327,0.0062098103,-0.0020797215,0.002597079,-0.0050653345,-0.0022755284,0.50487053,-1.3814356,1.9041952,-2.0918305,-1.5708536,2.4798028,-0.019377014,0.011569618,-0.009831371,0.0039479947,0.00016051311,-0.017096316,-0.7278373,0.05746084,-9.730036,0.7732232,47.694946,-0.8925346,-2.8251915,-3.2768884,-0.10276936,0.11538129,-0.121428356,28.375,29.75,28.8125,32.625,35.0,36.125
0.028051738,-2.361157,-0.72571474,-1.2485161,0.025545688,0.05746043,-0.119315736,-0.3893614,-0.3686166,0.05987604,-3.0784914,0.624925,-0.00024909584,-0.009988124,0.006025583,-0.0027120914,0.0028184915,-0.005479759,-0.0031331156,0.50482243,-1.3813988,1.9041833,-2.0917833,-1.5708297,2.4798398,-0.019592896,0.013814258,-0.010879859,0.003222151,0.00016187615,-0.016453763,-0.7086837,-0.21068975,-9.864111,0.7486078,47.684196,-0.96546674,-2.851873,-3.2878003,-0.10722586,0.14233837,-0.11460492,28.375,29.75,28.8125,32.625,35.0,36.125
0.030052109,-2.4435668,-0.8414622,-1.111887,0.00038055977,0.07387185,-0.13195327,-0.3894112,-0.36862728,0.059913035,-3.078562,0.6249006,-0.00016122356,-0.011311521,0.0063011185,-0.0022790863,0.0022152117,-0.0043866034,-0.004808237,0.504786,-1.3813986,1.9040989,-2.0917833,-1.5708174,2.4797792,-0.02129044,0.014276592,-0.012359667,0.0029912698,0.00015863415,-0.016475463,-0.6512228,-0.15322891,-9.940725,0.75084364,47.660015,-0.95900977,-2.8141768,-3.3604763,-0.0901746,0.113219745,-0.13887328,28.375,29.75,28.8125,32.625,35.0,36.125
0.032052096,-2.2330463,-0.94989884,-0.8907031,-0.0057332874,0.085513234,-0.15581569,-0.3894122,-0.3685813,0.059870824,-3.0784528,0.62493646,-0.00022863894,-0.011629484,0.006697076,-0.0025382044,0.003114892,-0.0060088546,-0.0056032087,0.5047378,-1.3813502,1.9041346,-2.09177,-1.5708655,2.4797673,-0.02225355,0.015577307,-0.013746884,0.0049319956,0.00015523513,-0.016643044,-0.7852981,-0.095768064,-9.864111,0.78217715,47.682407,-0.93374336,-2.8284454,-3.266234,-0.11268254,0.12725452,-0.14942938,28.375,29.75,28.8125,32.625,35.0,36.125
0.034052495,-1.7079613,-0.54684705,-0.8491984,0.0069561386,0.09248564,-0.17436677,-0.3894198,-0.36856827,0.059854567,-3.0784543,0.6248982,-0.00026889218,-0.011930252,0.0074110804,-0.002576906,0.0035239477,-0.006740357,-0.0058809896,0.5047013,-1.3813262,1.9041461,-2.0917819,-1.5708536,2.4797068,-0.023734074,0.015503163,-0.013787278,0.0058846567,0.00015196005,-0.01784588,-0.8619126,0.0,-9.825804,0.76874626,47.694054,-1.065502,-2.8014739,-3.3911693,-0.12204188,0.12328301,-0.16957366,28.375,29.75,28.8125,32.625,35.0,36.125
0.036051963,-2.0172637,0.02218225,-1.1067185,0.016881794,0.065169536,-0.1821992,-0.3894469,-0.36856535,0.059851944,-3.0784519,0.6250125,-0.00034828816,-0.013082577,0.008049867,-0.0027275917,0.0037149382,-0.007086799,-0.0063936263,0.50464094,-1.3812777,1.9040865,-2.0917456,-1.5708054,2.479718,-0.025884014,0.016806172,-0.01506975,0.0062604193,0.00014881909,-0.01948249,-0.63206923,-0.019153614,-9.864111,0.7463667,47.694946,-0.994588,-2.8475323,-3.3429656,-0.11625671,0.12273417,-0.19296795,28.375,29.75,28.8125,32.625,35.0,36.125
0.038052056,-1.7324809,0.43291757,-0.9994634,0.009366453,0.04824259,-0.19703966,-0.38948447,-0.36853674,0.059849538,-3.078441,0.6250111,-0.00028095572,-0.014432483,0.008294301,-0.0021142024,0.0025224593,-0.005076032,-0.00648025,0.5045803,-1.3812659,1.9040865,-2.0917828,-1.5708417,2.479658,-0.027597249,0.016497066,-0.015808633,0.0049705533,0.00021541152,-0.02110883,-0.5363012,0.076614454,-9.787497,0.7463667,47.66987,-0.92943573,-2.8012576,-3.40424,-0.09517079,0.12773186,-0.20503683,28.375,29.75,28.8125,32.625,35.0,36.125
0.040052082,-2.0341604,-0.7399128,-0.97206736,0.025107728,0.027201327,-0.19543612,-0.3895332,-0.36852098,0.059854306,-3.0784416,0.62501097,-0.0002801196,-0.016014095,0.008153777,-0.0013941305,0.0011864532,-0.0026715202,-0.0067317574,0.5045082,-1.3812176,1.904013,-2.0917585,-1.5708417,2.4795856,-0.028836517,0.016793448,-0.01748871,0.0036033834,0.00021508522,-0.022095714,-0.47884035,0.11492168,-9.80665,0.784413,47.68599,-1.0176424,-2.7900765,-3.3372185,-0.07468158,0.1324316,-0.21059407,28.375,29.75,28.8125,32.625,35.0,36.125
0.042052202,-1.4293915,-0.9774478,-0.93345195,0.013387854,0.031211056,-0.21251158,-0.38955718,-0.36850828,0.059843868,-3.0784137,0.6250246,-0.00029654623,-0.017206475,0.008177309,-0.00095131836,0.00048436082,-0.0013919142,-0.00696814,0.5044718,-1.3811694,1.9039773,-2.091747,-1.5708536,2.4795613,-0.029983908,0.01729791,-0.01898808,0.0031383643,0.00020589322,-0.02300597,-0.34476504,0.038307227,-9.710882,0.7396539,47.691364,-0.94759685,-2.6933842,-3.3135662,-0.075076744,0.13344336,-0.22822508,28.375,29.75,28.8125,32.625,35.0,36.125
0.044052318,-1.0068693,-0.86443144,-1.0621628,0.0060694204,0.028567515,-0.23604964,-0.3896175,-0.36851025,0.059875324,-3.0784602,0.62511116,-0.00021014118,-0.018158045,0.00871414,-0.00041456724,0.00015108945,-0.0007682984,-0.0071739242,0.5044113,-1.3811576,1.9038943,-2.0917585,-1.5708417,2.479549,-0.031766802,0.016946115,-0.019926269,0.0037214262,0.00019692427,-0.02458278,-0.19153613,0.1340753,-9.576807,0.70608455,47.728977,-0.98729384,-2.71635,-3.2956076,-0.0632193,0.14514849,-0.23765695,28.375,29.75,28.8125,32.625,35.0,36.125
0.046051826,-0.49543533,-0.08963346,-0.81578934,-0.01814995,0.028855098,-0.23099278,-0.38963452,-0.36847636,0.059845913,-3.0783994,0.6251366,-0.0003105609,-0.019308798,0.00993343,-0.0006884916,0.0007768835,-0.0018898126,-0.00815907,0.5043383,-1.3810971,1.9038814,-2.0917222,-1.5708417,2.4794996,-0.034888666,0.018026197,-0.02083164,0.0048307306,0.00018866855,-0.026719078,-0.15322891,0.1340753,-9.691729,0.7038487,47.705692,-0.89697737,-2.6743822,-3.2857213,-0.06856753,0.1170807,-0.24611041,28.375,29.75,28.8125,32.625,35.0,36.125
0.048051853,-0.4084501,-0.7074077,-0.84918565,0.0044058315,0.009190017,-0.20442156,-0.38969138,-0.36845794,0.05985121,-3.0784197,0.6251586,-0.0002664638,-0.020152641,0.010176063,-0.0002072765,0.0005620547,-0.001487452,-0.006652198,0.50425416,-1.3810611,1.9038323,-2.091746,-1.5708417,2.4794266,-0.03607679,0.018164797,-0.022286078,0.005690148,0.0001810754,-0.02941353,-0.15322891,0.15322891,-9.576807,0.75084364,47.70032,-0.88794196,-2.646142,-3.2569125,-0.07005125,0.13806337,-0.24370307,28.375,29.75,28.8125,32.625,35.0,36.125
0.050052587,-0.665979,-0.9138393,-0.7930666,0.015619534,-0.0062119765,-0.19999544,-0.38973793,-0.36843443,0.059871137,-3.078401,0.6252318,-0.00018678188,-0.021719776,0.010696785,0.0002700945,-0.000120862496,-0.00024279667,-0.0065943985,0.5041934,-1.381061,1.9037842,-2.0917342,-1.5708774,2.479414,-0.038409732,0.018497702,-0.023685547,0.005335568,0.00017406985,-0.03180359,-0.15322891,0.1340753,-9.5385,0.7530795,47.70211,-0.7796247,-2.689401,-3.2472007,-0.06648093,0.13198298,-0.2618971,28.375,29.75,28.8125,32.625,35.0,36.125
0.0520517,-0.24015062,-0.81441563,-0.83764476,0.01143563,0.0052035796,-0.18923305,-0.38980016,-0.3684392,0.05989194,-3.078469,0.6251879,-0.00016694191,-0.023110213,0.011208496,0.0003315377,-0.00046047746,0.00038060086,-0.007071892,0.504121,-1.3810124,1.9036769,-2.0917227,-1.5708417,2.4793055,-0.04056042,0.01948499,-0.024878994,0.0048327693,0.00016758605,-0.03347607,0.0,0.21068975,-9.557653,0.779936,47.684196,-0.7537108,-2.6715794,-3.288293,-0.07182232,0.14204217,-0.24524519,28.375,29.75,28.8125,32.625,35.0,36.125
0.054051913,0.21190679,-0.7018468,-0.61366504,-0.00047730646,0.013558795,-0.19528271,-0.38981244,-0.36839628,0.059864707,-3.0784016,0.6252503,-0.00026631373,-0.023236495,0.010746532,0.0007461863,-0.0008892055,0.0011602592,-0.0050852555,0.50403726,-1.3809766,1.9036883,-2.091687,-1.5708417,2.4792693,-0.039896358,0.019372514,-0.02570056,0.0048768925,0.00016156821,-0.034798335,0.05746084,0.21068975,-9.481039,0.8314132,47.701214,-0.8874871,-2.6058357,-3.243183,-0.044361718,0.14363486,-0.26468903,28.375,29.75,28.8125,32.625,35.0,36.125
0.056052666,-0.5454547,-0.95469946,-0.8045404,0.002545849,-0.0017675196,-0.19475703,-0.38987786,-0.3683772,0.05987741,-3.078431,0.625313,-0.00024927192,-0.0237719,0.011564386,0.00046636982,-0.00043932835,0.00035998423,-0.0055388077,0.5039289,-1.3809402,1.9036163,-2.0916865,-1.5708174,2.4791963,-0.041763663,0.019872038,-0.02576411,0.0053596697,0.00015596721,-0.03621202,0.038307227,0.17238252,-9.346964,0.7620334,47.72092,-0.8617536,-2.6083593,-3.2467155,-0.06339459,0.1699688,-0.26871157,28.375,29.75,28.8125,32.625,35.0,36.125
0.05805257,-0.55841076,-0.5173403,-0.4977565,-0.004809831,-0.0013396755,-0.18539436,-0.38993534,-0.3683517,0.05987244,-3.0784233,0.62535006,-0.0002498189,-0.024567824,0.012511603,1.7837629e-05,0.000254581,-0.0008875839,-0.0064155157,0.5038323,-1.3808799,1.9035562,-2.0916865,-1.5708174,2.4791238,-0.044093348,0.021097792,-0.026378227,0.0061754542,0.00015074223,-0.03766463,0.095768064,0.17238252,-9.32781,0.78217715,47.701214,-0.78522325,-2.6097827,-3.260254,-0.04998392,0.15341753,-0.2917395,28.375,29.75,28.8125,32.625,35.0,36.125
0.06005176,-0.3615805,-0.82144845,-0.57982445,0.012615381,0.0030122374,-0.18409783,-0.38999286,-0.3683316,0.059881985,-3.0784237,0.62529254,-0.00021159703,-0.025574869,0.012834066,0.00030732786,0.00025466975,-0.00088095217,-0.0065042623,0.5037599,-1.3808316,1.9034718,-2.0916617,-1.5708417,2.4790156,-0.045568496,0.021877538,-0.028192546,0.00720318,0.00014585562,-0.039050266,0.038307227,0.11492168,-9.3661175,0.7486078,47.709274,-0.7355298,-2.6333938,-3.2403595,-0.05616104,0.1606986,-0.2861452,28.375,29.75,28.8125,32.625,35.0,36.125
0.062051974,-0.34241647,-0.011104688,-0.38920638,0.0010488244,0.004030135,-0.20039907,-0.39004415,-0.36829144,0.05987981,-3.0784237,0.6253299,-0.00016933972,-0.02658069,0.012666888,0.001063486,-0.00064691406,0.0007148434,-0.006367806,0.5036519,-1.3808196,1.9034709,-2.091698,-1.5708536,2.478931,-0.04623129,0.021769876,-0.029747726,0.0070326244,0.00016219563,-0.039848905,-0.019153614,0.1340753,-9.385271,0.7553206,47.685097,-0.7997546,-2.5434165,-3.2147439,-0.051014785,0.17225641,-0.31661254,28.375,29.75,28.8125,32.625,35.0,36.125
0.06405218,-0.8181114,-0.43588418,-0.5697888,0.015852965,0.006839733,-0.18604183,-0.39009017,-0.36826962,0.059883166,-3.0783803,0.62537766,-0.0002015829,-0.0277812,0.013050037,0.0011678999,-0.0011127073,0.0015171058,-0.0061127786,0.5035796,-1.3807592,1.9033755,-2.091626,-1.5708655,2.478894,-0.048001558,0.022465715,-0.030644167,0.00630492,0.00017733127,-0.041873686,-0.095768064,0.17238252,-9.385271,0.7486078,47.68062,-0.7914635,-2.616496,-3.2701914,-0.061870128,0.15945683,-0.31354618,28.375,29.75,28.8125,32.625,35.0,36.125
0.06605215,-0.8416231,-0.82199645,-0.6645537,0.02095702,0.021738967,-0.1836867,-0.39015257,-0.3682559,0.059892904,-3.07841,0.6254789,-0.00016916684,-0.02836059,0.013420076,0.00091678137,-0.0009204291,0.0011256371,-0.0047612917,0.5034835,-1.3807229,1.9033159,-2.0916502,-1.5708417,2.4788573,-0.04917167,0.023403874,-0.031193035,0.0063518747,0.00019820324,-0.044394948,-0.1340753,0.095768064,-9.385271,0.66132545,47.637623,-0.7875304,-2.6250427,-3.2351685,-0.059721544,0.1541155,-0.331286,28.375,29.75,28.8125,32.625,35.0,36.125
0.06805228,-1.3450352,-0.86556464,-0.6331884,0.017855465,0.03226374,-0.18883744,-0.39020643,-0.36821267,0.05990379,-3.078399,0.6254386,-0.00014609634,-0.028708855,0.013547984,0.0007248103,-0.00055242475,0.0003600115,-0.0045568547,0.50337535,-1.3807104,1.9032682,-2.091614,-1.5708655,2.4787254,-0.049736496,0.0244985,-0.032229032,0.0071400926,0.00024466455,-0.045163777,-0.21068975,0.076614454,-9.289502,0.7463667,47.679718,-0.83973455,-2.5795703,-3.262766,-0.05058568,0.17349657,-0.32860166,28.375,29.75,28.8125,32.625,35.0,36.125
0.070052415,-0.5794302,-0.38561496,-0.32805422,0.0054346193,0.06327674,-0.18940829,-0.39025274,-0.3682082,0.05990104,-3.0784369,0.6253506,-0.00019707152,-0.030507736,0.014798874,0.0010633534,-0.0008464812,0.00068123476,-0.007149893,0.5033023,-1.3806384,1.9031838,-2.0915897,-1.5708297,2.4785926,-0.05357598,0.024822565,-0.033504058,0.0076689413,0.0003449305,-0.04640989,-0.30645782,0.15322891,-9.289502,0.784413,47.66987,-0.7791109,-2.524654,-3.2647974,-0.049085967,0.17422527,-0.36641705,28.375,29.75,28.8125,32.625,35.0,36.125
0.07205261,-2.1947193,-0.27866262,-0.4761789,0.009041906,0.027919466,-0.1912935,-0.39031672,-0.36819124,0.059910744,-3.0784652,0.62541145,-0.00015348574,-0.03068905,0.014614851,0.0011617227,-0.0008282616,0.0005339704,-0.003257664,0.5032064,-1.3806021,1.9031242,-2.0916135,-1.5708174,2.4785311,-0.053463206,0.025351739,-0.034488726,0.008262194,0.00040063492,-0.050189,-0.3256114,0.15322891,-9.346964,0.800085,47.682407,-0.7456683,-2.5016975,-3.265695,-0.051134136,0.17185688,-0.34404305,28.375,29.75,28.8125,32.625,35.0,36.125
0.07405172,-2.4117093,-0.2685475,-0.39724556,0.019221658,0.028266238,-0.18719089,-0.39037782,-0.3681559,0.059909973,-3.0784729,0.62542987,-0.0001920997,-0.030733814,0.014204038,0.0012832789,-0.0018378781,-1.0862086e-05,0.0006363634,0.50307477,-1.380554,1.9030637,-2.0915897,-1.570793,2.47841,-0.05352114,0.02569784,-0.03527216,0.008686798,0.0015457114,-0.0541426,-0.38307226,0.019153614,-9.308657,0.7866488,47.672558,-0.93340087,-2.4371467,-3.2395656,-0.060057357,0.16880292,-0.33484226,28.375,29.75,28.8125,32.625,35.0,36.125
0.07605253,-1.1754415,0.27429402,-0.44664198,0.011379122,0.061308417,-0.19270709,-0.39047515,-0.368141,0.05992523,-3.0785131,0.6253786,-0.000109741464,-0.031818673,0.014928032,0.0013345041,-0.0018009663,4.49882e-05,0.0016372502,0.50296634,-1.3804698,1.902932,-2.0916011,-1.570805,2.4782646,-0.055703547,0.026287429,-0.03614456,0.008937881,0.0014878359,-0.05732529,-0.38307226,0.0,-9.32781,0.6971306,47.655537,-0.8396109,-2.4639053,-3.2817626,-0.056293137,0.17031312,-0.28197336,28.375,29.75,28.8125,32.625,35.0,36.125
0.078052565,-1.3701949,0.23478067,-0.39896065,0.019088985,0.052928556,-0.18784866,-0.39051944,-0.36808914,0.05992201,-3.0784926,0.6253571,-0.00012618893,-0.03345622,0.016042663,0.001502028,-0.0017083762,0.0004060229,-0.0009238881,0.5028453,-1.3804574,1.9029192,-2.0915768,-1.5708169,2.4781327,-0.058939032,0.026929015,-0.037351187,0.00923157,0.0012293749,-0.057998676,-0.38307226,-0.038307227,-9.404425,0.7553206,47.681515,-0.7759461,-2.5451512,-3.2703204,-0.064855084,0.16270177,-0.31338036,28.375,29.75,28.8125,32.625,35.0,36.125
0.08005252,-1.7506183,-0.24283762,-0.6706307,0.021917691,0.037857953,-0.18819375,-0.39059046,-0.36805037,0.059915632,-3.0784597,0.6254039,-0.0001690347,-0.033610944,0.015574458,0.0015717426,-0.0017704117,0.0009219788,0.004387136,0.50271386,-1.3803731,1.9028233,-2.0915296,-1.5708169,2.4780347,-0.05816251,0.027576312,-0.038217876,0.008969315,0.0010296283,-0.0625324,-0.5554548,-0.095768064,-9.385271,0.7642693,47.682407,-0.8138604,-2.4794106,-3.2763155,-0.056621738,0.16883478,-0.2762987,28.375,29.75,28.8125,32.625,35.0,36.125
0.082052246,-1.6284819,-0.49249944,-0.6305956,0.02122202,0.04601797,-0.18946627,-0.39063713,-0.36802799,0.059889525,-3.0784726,0.6253472,-0.00022456139,-0.033986777,0.015794821,0.0011481092,-0.0011560301,9.8372e-05,0.007748202,0.50261784,-1.3802886,1.902788,-2.091553,-1.570793,2.4779017,-0.058787767,0.028993351,-0.03902482,0.009378681,0.00088463706,-0.066517994,-0.5554548,0.0,-9.32781,0.80456203,47.703007,-1.0085447,-2.5231726,-3.2789545,-0.06134337,0.174793,-0.23340672,28.375,29.75,28.8125,32.625,35.0,36.125
0.08405214,-0.82271546,0.30659688,-0.40236217,0.0064262687,0.06725048,-0.19286636,-0.39070812,-0.36799845,0.05989474,-3.0784605,0.6253239,-0.00022671797,-0.035318777,0.01637185,0.0012976187,-0.001361725,0.000477143,0.009128268,0.5025094,-1.3802162,1.9026798,-2.0915053,-1.570805,2.4777803,-0.060986366,0.029847234,-0.04039603,0.009463952,0.00087797065,-0.07009598,-0.45968673,-0.05746084,-9.3661175,0.7732232,47.71465,-0.9058975,-2.566504,-3.2405274,-0.06795723,0.16367254,-0.1939153,28.375,29.75,28.8125,32.625,35.0,36.125
0.0860518,-1.2304842,-0.18779334,-0.669264,0.016891677,0.051177286,-0.17687291,-0.39079255,-0.3679667,0.059920013,-3.078503,0.6252344,-0.0001832753,-0.03594855,0.016424628,0.0016283148,-0.0015445988,0.0011273097,0.011455683,0.50237745,-1.3801801,1.9025716,-2.0914695,-1.570805,2.4775872,-0.06155533,0.030037653,-0.04141251,0.009632509,0.0007253516,-0.07299164,-0.34476504,-0.038307227,-9.32781,0.7083204,47.70659,-0.95118403,-2.4629264,-3.2085893,-0.08459537,0.17703968,-0.15941724,28.375,29.75,28.8125,32.625,35.0,36.125
0.08805175,-0.742657,-0.19108163,-0.6046287,0.0098971175,0.049460646,-0.18506902,-0.39086008,-0.36791915,0.059914082,-3.078437,0.62529635,-0.00019093994,-0.036507517,0.016837185,0.0013434842,-0.0011526699,0.00059074693,0.01299905,0.5022574,-1.3801078,1.9024886,-2.0914214,-1.5708417,2.4775143,-0.06270673,0.031072956,-0.04204937,0.009890401,0.0006360624,-0.07568589,-0.40222588,0.0,-9.385271,0.68818194,47.68062,-0.9903314,-2.4921787,-3.249213,-0.08947365,0.18967645,-0.12801161,28.375,29.75,28.8125,32.625,35.0,36.125
0.09005202,-0.6523367,0.20719308,-0.43045864,-0.000114260176,0.045098618,-0.19881853,-0.39095238,-0.36787418,0.059918277,-3.0784922,0.6252494,-0.00022708278,-0.036875054,0.017138291,0.00065874495,-0.0008221259,-0.00011318487,0.013344155,0.50206554,-1.3800472,1.9024047,-2.0914094,-1.570793,2.477286,-0.063573286,0.032514304,-0.042047363,0.009226712,0.00068425195,-0.07689733,-0.34476504,0.0,-9.32781,0.7284641,47.623295,-1.0384785,-2.5114856,-3.2596993,-0.096570835,0.1875116,-0.09404656,28.375,29.75,28.8125,32.625,35.0,36.125
0.09205194,-0.86445117,-0.26182324,-0.63538074,0.004331205,0.034751166,-0.18365182,-0.39103258,-0.36785683,0.05992815,-3.0785213,0.6251777,-0.00017193418,-0.03795415,0.01719786,0.0005747715,-0.0013895482,0.00016799936,0.012356435,0.5019692,-1.3799746,1.9022964,-2.09141,-1.570805,2.4771414,-0.0648916,0.03392212,-0.043390907,0.008640739,0.0010448188,-0.07722769,-0.22984336,0.038307227,-9.3661175,0.7329411,47.681515,-1.0566962,-2.5240707,-3.254602,-0.087314546,0.172037,-0.07338988,28.375,29.75,28.8125,32.625,35.0,36.125
0.094051905,-0.68287784,-0.5815725,-0.64313656,0.0029613543,0.031002931,-0.17770614,-0.39109606,-0.36780274,0.059919562,-3.0784588,0.6251846,-0.00016629716,-0.039090093,0.017042195,0.0010706056,-0.0023083293,0.0009778164,0.011278046,0.5018491,-1.3799142,1.9022363,-2.0913742,-1.5708531,2.4770336,-0.06593313,0.034658734,-0.04542425,0.008780449,0.0014539747,-0.07719066,-0.19153613,0.038307227,-9.423578,0.69937176,47.689575,-1.0598056,-2.586374,-3.1565378,-0.095811814,0.1931099,-0.0666459,28.375,29.75,28.8125,32.625,35.0,36.125
0.09605246,-0.63484377,-0.8446032,-0.6738786,0.0051015187,0.016876105,-0.16902253,-0.39119387,-0.36776862,0.05992926,-3.0785017,0.6251361,-0.00013698271,-0.038798325,0.017568793,0.00045910943,-0.0022961716,-0.0005926578,0.0092049325,0.50169307,-1.379842,1.902129,-2.0913742,-1.5708407,2.476842,-0.067002535,0.034817893,-0.044229873,0.008808312,0.0022045053,-0.076188646,-0.17238252,0.095768064,-9.346964,0.75084364,47.711063,-1.122617,-2.523398,-3.2906,-0.09151475,0.17595759,-0.06753668,28.375,29.75,28.8125,32.625,35.0,36.125
0.098051846,0.3165712,-0.5690701,-0.8850452,0.0021526043,0.025969649,-0.1785109,-0.39127186,-0.367726,0.05992524,-3.0785196,0.6250834,-0.00012432202,-0.03971938,0.017827656,0.0006276649,-0.00289485,-0.0009385072,0.0061981836,0.5015489,-1.3797818,1.9020694,-2.0913856,-1.5708407,2.4766626,-0.06871388,0.035605457,-0.045706473,0.009510758,0.002895347,-0.07489374,-0.05746084,0.15322891,-9.346964,0.78888994,47.695843,-1.0606918,-2.5616705,-3.3419771,-0.09255391,0.16856442,-0.09348101,28.375,29.75,28.8125,32.625,35.0,36.125
0.100051865,-0.15484537,-0.9089244,-0.90515333,0.0061924583,0.0074331453,-0.17868903,-0.39135078,-0.36769125,0.059928488,-3.0785053,0.6250809,-0.00015290544,-0.04064852,0.01784695,0.0007268263,-0.0036255582,-0.0009832961,0.0031642334,0.50141674,-1.3796974,1.9019488,-2.091326,-1.5708402,2.4765308,-0.0700084,0.03667451,-0.047232173,0.009653719,0.0035534091,-0.07315474,-0.05746084,0.1340753,-9.385271,0.78217715,47.696735,-1.057874,-2.5972686,-3.2585828,-0.082561165,0.16958094,-0.11834897,28.375,29.75,28.8125,32.625,35.0,36.125
0.102051966,0.3401426,-0.47719967,-0.82841563,-0.0053026434,0.010183631,-0.17858164,-0.39144346,-0.3676637,0.05993647,-3.0785165,0.6251042,-0.00012430917,-0.04230564,0.01780229,0.0012012387,-0.0044817915,-0.00016382133,0.00027476705,0.50128436,-1.3796128,1.9018277,-2.0913136,-1.5708402,2.4764116,-0.07167854,0.038141042,-0.05011408,0.009938347,0.00390703,-0.071934566,-0.038307227,0.21068975,-9.385271,0.8112748,47.672558,-1.1420063,-2.5623798,-3.1604638,-0.10380705,0.14786245,-0.15251452,28.375,29.75,28.8125,32.625,35.0,36.125
0.1040521,0.05595253,-0.8254036,-0.87602615,-0.0042216554,0.0027827632,-0.17655103,-0.39148933,-0.36763534,0.059914056,-3.078536,0.62507004,-0.00021878957,-0.042749725,0.018428693,0.0010982178,-0.0047564935,-0.0005562395,-0.0027767825,0.50116396,-1.3795407,1.9017934,-2.0913136,-1.5707921,2.4762673,-0.073403485,0.038090337,-0.049814846,0.009904505,0.0043349196,-0.07060898,-0.05746084,0.24899697,-9.404425,0.784413,47.67166,-1.0235534,-2.5068812,-3.1299198,-0.090764746,0.17585602,-0.17003697,28.375,29.75,28.8125,32.625,35.0,36.125
0.10605187,0.14309496,-1.2403274,-0.90094775,-0.010154015,0.017266478,-0.17739815,-0.39159814,-0.36760277,0.059930254,-3.078563,0.62513405,-0.00014797457,-0.042621385,0.01898816,7.495581e-05,-0.0046661035,-0.0029036952,-0.0048867967,0.5010079,-1.3794683,1.9016737,-2.091326,-1.5707916,2.476148,-0.07486738,0.039337285,-0.04896556,0.009907572,0.005389636,-0.06996452,0.0,0.24899697,-9.385271,0.779936,47.679718,-1.0819403,-2.533365,-3.3014982,-0.12050301,0.1348326,-0.201931,28.375,29.75,28.8125,32.625,35.0,36.125
0.10805197,-0.25967157,-1.2381439,-0.73505443,-0.021487514,0.018439686,-0.17643161,-0.39168954,-0.36754203,0.05993939,-3.0785394,0.62512857,-0.00016549573,-0.043772534,0.018575825,0.0007467782,-0.0060474114,-0.0024449443,-0.006264039,0.500828,-1.3794079,1.901565,-2.0912535,-1.570803,2.4759676,-0.07584154,0.040227182,-0.051732592,0.010715671,0.006375236,-0.06956206,-0.019153614,0.28730422,-9.423578,0.800085,47.690468,-1.156937,-2.5668497,-3.2324347,-0.112394415,0.11332327,-0.23992497,28.375,29.75,28.8125,32.625,35.0,36.125
0.11005197,-0.17852184,-0.7801073,-0.8315798,-0.026601441,0.02654643,-0.17844899,-0.3917746,-0.36750326,0.059929594,-3.0785508,0.6251104,-0.00015088274,-0.044304512,0.018767117,0.000764251,-0.00597041,-0.002422259,-0.004514124,0.50068414,-1.3793236,1.901493,-2.0912778,-1.5708035,2.475811,-0.07659403,0.04081627,-0.052522305,0.010934301,0.0062959916,-0.07206388,0.0,0.28730422,-9.385271,0.76874626,47.682407,-1.1711265,-2.6096764,-3.2043357,-0.13013706,0.13059983,-0.24342267,28.375,29.75,28.8125,32.625,35.0,36.125
0.11205194,-0.5831347,-0.8900079,-0.730386,-0.011805305,0.036991425,-0.17462389,-0.39186257,-0.36747932,0.059942875,-3.078573,0.62513494,-0.00018890058,-0.04500041,0.019292884,0.00095871044,-0.005033387,-0.0019615642,-0.007211074,0.50054,-1.3792394,1.9013494,-2.0912173,-1.5707678,2.4756794,-0.07745889,0.04113424,-0.053506583,0.011653574,0.005252762,-0.070229664,-0.095768064,0.28730422,-9.442732,0.7642693,47.696735,-1.2173727,-2.4942155,-3.250531,-0.12353394,0.12128213,-0.27692187,28.375,29.75,28.8125,32.625,35.0,36.125
0.11405221,-0.39595115,-0.54917574,-0.69747657,-0.0017151014,0.0526661,-0.18543513,-0.39194727,-0.367446,0.05993136,-3.0785804,0.6251575,-0.00025468465,-0.046690658,0.020985264,0.00040484892,-0.0037473037,-0.0022485103,-0.010798496,0.50038314,-1.3791307,1.9012417,-2.091194,-1.570732,2.4755356,-0.08123994,0.042684346,-0.05405711,0.011529778,0.004258867,-0.07042125,-0.11492168,0.21068975,-9.461885,0.78888994,47.68599,-1.2043679,-2.4483771,-3.2747507,-0.15079068,0.12251331,-0.3316915,28.375,29.75,28.8125,32.625,35.0,36.125
0.116051845,-0.7709565,-0.5721935,-0.67671794,0.0074504972,0.041848138,-0.17515007,-0.39205837,-0.36737838,0.059938602,-3.0785282,0.6252199,-0.000180064,-0.046616733,0.020460572,-0.00024092101,-0.0025067918,-0.0024973354,-0.006461094,0.50020415,-1.3790579,1.9011334,-2.0911696,-1.5707926,2.4754024,-0.079667166,0.044827774,-0.05505179,0.011194163,0.003286844,-0.07318341,-0.21068975,0.19153613,-9.423578,0.7463667,47.672558,-1.231342,-2.6895366,-3.2391644,-0.14907824,0.12777384,-0.33144313,28.375,29.75,28.8125,32.625,35.0,36.125
0.11805235,-1.0299014,-0.3488865,-0.56655085,-0.00017764658,0.03861367,-0.1778373,-0.39213622,-0.36734614,0.05992015,-3.0785296,0.62524146,-0.0002860508,-0.04792313,0.020542247,0.0015779232,-0.0038806463,0.0008185507,-0.010563349,0.50004804,-1.3789387,1.9010261,-2.0911338,-1.5707449,2.4752595,-0.08075489,0.04260031,-0.05660788,0.011414705,0.0028969126,-0.070168115,-0.36391866,0.22984336,-9.404425,0.80679786,47.691364,-1.3420649,-2.4675667,-3.2535033,-0.1469963,0.14328177,-0.40580893,28.375,29.75,28.8125,32.625,35.0,36.125
0.12005232,-0.6672126,-0.41954598,-0.4885441,-0.0021292954,0.047987416,-0.18169473,-0.3922264,-0.36729705,0.059921373,-3.0785367,0.6252625,-0.00032481377,-0.049932744,0.02217686,0.0010416057,-0.0033656657,0.0004812635,-0.013186,0.49986678,-1.3788661,1.9009293,-2.091098,-1.5707206,2.4750905,-0.085167326,0.044428315,-0.057456322,0.010981298,0.0026028776,-0.07195675,-0.2681506,0.15322891,-9.212888,0.7978386,47.689575,-1.132906,-2.4253824,-3.2626083,-0.15229307,0.12432724,-0.4543218,28.375,29.75,28.8125,32.625,35.0,36.125
0.12205229,-1.4656723,-0.2584059,-0.670618,-0.0002382592,0.031133235,-0.17600496,-0.39231294,-0.3672624,0.05990871,-3.0785162,0.6252359,-0.00034355238,-0.049900845,0.021433039,0.0012100511,-0.0036772594,0.0012267963,-0.007913286,0.49973574,-1.3787457,1.9008101,-2.0910738,-1.5707325,2.4749455,-0.083815105,0.044866957,-0.05826595,0.010548322,0.0025135404,-0.07587672,-0.22984336,0.038307227,-9.346964,0.800085,47.691364,-1.4045367,-2.5017312,-3.3000255,-0.15588322,0.1257577,-0.45187432,28.375,29.75,28.8125,32.625,35.0,36.125
0.124052316,-1.4048561,-0.45913884,-0.61715376,0.0097857,0.039932285,-0.17336059,-0.39243487,-0.36721677,0.05993629,-3.0785725,0.625284,-0.00028192022,-0.05081765,0.022314958,0.00034392584,-0.0025776797,-0.0005289264,-0.0067753517,0.4995314,-1.3786968,1.9006895,-2.0910738,-1.5707086,2.474764,-0.086051725,0.047327083,-0.05937227,0.011265195,0.0023937998,-0.07925013,-0.4213795,0.019153614,-9.385271,0.8179876,47.666286,-1.3126537,-2.5827186,-3.300327,-0.14709859,0.13031086,-0.46622604,28.375,29.75,28.8125,32.625,35.0,36.125
0.12605202,-0.63512206,-0.14301115,-0.5027896,0.014765289,0.07013949,-0.18026853,-0.392562,-0.36719626,0.05995888,-3.078617,0.62525076,-0.00018451794,-0.051969208,0.02309775,0.00021787158,-0.0025396894,-0.00080899993,-0.00083304546,0.49938676,-1.3785883,1.9005097,-2.0910738,-1.5707206,2.4745932,-0.08847531,0.048317697,-0.06031081,0.01147609,0.0024973631,-0.08761551,-0.45968673,-0.05746084,-9.346964,0.7396539,47.637623,-1.2980392,-2.6344862,-3.3005676,-0.1585472,0.12209589,-0.4373294,28.375,29.75,28.8125,32.625,35.0,36.125
0.12805206,-1.6834211,-0.053960565,-0.53474873,0.029346175,0.052010477,-0.16571867,-0.392659,-0.36714134,0.059956603,-3.0786397,0.6252731,-0.0002225426,-0.053156335,0.023925591,0.0014006676,-0.0036873233,0.0010555506,0.00048440997,0.49918234,-1.378517,1.9004277,-2.0910618,-1.5706848,2.4743998,-0.09101586,0.046268,-0.06061639,0.011648281,0.002611437,-0.09147394,-0.4213795,-0.1340753,-9.3661175,0.71279734,47.670765,-1.3099945,-2.5068827,-3.3067722,-0.17577213,0.12315227,-0.40110886,28.375,29.75,28.8125,32.625,35.0,36.125
0.13005252,-1.2961321,0.4264107,-0.46852377,0.027740328,0.06689858,-0.17675777,-0.39276236,-0.36709124,0.05994442,-3.078626,0.6252645,-0.00025152686,-0.053701274,0.023755355,0.0011822592,-0.003823138,0.0007784006,0.00810958,0.49900255,-1.3783963,1.900307,-2.091038,-1.5706848,2.4742165,-0.09136665,0.04776335,-0.061884824,0.0115994625,0.0028571778,-0.09944963,-0.4213795,-0.11492168,-9.404425,0.7911258,47.672558,-1.1687908,-2.5464954,-3.2644057,-0.17898785,0.12619513,-0.3668105,28.375,29.75,28.8125,32.625,35.0,36.125
0.13205266,-1.4997517,-0.023208871,-0.52943,0.033604402,0.07249943,-0.16846901,-0.39285862,-0.36703724,0.059920277,-3.0786068,0.6252003,-0.0003109637,-0.054491226,0.02406276,0.00083277794,-0.003816968,-1.7005503e-05,0.012099305,0.49882272,-1.3782636,1.9001993,-2.0910137,-1.5706848,2.473999,-0.092824385,0.049372427,-0.06306312,0.011869414,0.0032245559,-0.10489717,-0.47884035,0.0,-9.442732,0.8090337,47.672558,-1.4183271,-2.4955602,-3.2787237,-0.16601396,0.11733903,-0.26478562,28.375,29.75,28.8125,32.625,35.0,36.125
0.13405243,-1.1751308,0.028350767,-0.5170333,0.03535898,0.07598226,-0.17623176,-0.39298278,-0.3669941,0.05995273,-3.0786734,0.62521255,-0.0003028176,-0.05614467,0.025926,0.0007137179,-0.003322108,-0.0003941032,0.012398062,0.49860555,-1.3782035,1.9000434,-2.0909655,-1.5706366,2.473781,-0.09730522,0.049781233,-0.0633903,0.012362647,0.0029751412,-0.109676056,-0.45968673,-0.21068975,-9.385271,0.8224646,47.699425,-1.1397483,-2.5150132,-3.2880588,-0.18092039,0.10987486,-0.22327465,28.375,29.75,28.8125,32.625,35.0,36.125
0.13605486,-0.7387375,0.17388004,-0.7191442,0.036886126,0.080952235,-0.18475825,-0.3930942,-0.3669326,0.059931364,-3.0786448,0.6251846,-0.00030794906,-0.0577788,0.025181202,0.0020209812,-0.0044086026,0.0021061704,0.01589652,0.498414,-1.3780711,1.8999351,-2.0909655,-1.5706605,2.4735758,-0.09738012,0.050455358,-0.06728287,0.012864687,0.002723726,-0.11324745,-0.49799395,-0.17238252,-9.3661175,0.7284641,47.685097,-1.2956933,-2.4420004,-3.296267,-0.17883682,0.10136192,-0.16698852,28.375,29.75,28.8125,32.625,35.0,36.125
0.13805237,-0.49729258,0.52755195,-0.5272984,0.018531747,0.08512476,-0.18208016,-0.39320022,-0.36688495,0.05993143,-3.078681,0.6250966,-0.0003334424,-0.058797427,0.026879048,0.0014862195,-0.0033951572,0.0009867651,0.013334073,0.4982212,-1.3779749,1.8998154,-2.0909412,-1.5706366,2.4733236,-0.10093519,0.05113274,-0.06698609,0.013362778,0.002370642,-0.11423955,-0.51714754,-0.19153613,-9.308657,0.78217715,47.689575,-1.1974534,-2.4257135,-3.1333451,-0.20925431,0.12339738,-0.15164459,28.375,29.75,28.8125,32.625,35.0,36.125
0.14005256,-1.1254586,-0.37862998,-0.8545166,0.028554726,0.075348094,-0.17038801,-0.39333004,-0.3668326,0.05994793,-3.0786815,0.6250407,-0.0002947564,-0.059872724,0.027965408,0.0006464561,-0.0025876653,8.934751e-05,0.0092478525,0.49802858,-1.3778661,1.8996357,-2.090882,-1.570661,2.4730961,-0.10355464,0.05302898,-0.067215316,0.012868603,0.0020904278,-0.112771854,-0.5363012,-0.11492168,-9.3661175,0.74413085,47.657326,-1.0858033,-2.4567413,-3.3180923,-0.22125497,0.10600303,-0.12908415,28.375,29.75,28.8125,32.625,35.0,36.125
0.14205194,-1.5509675,-0.17028068,-0.8886102,0.017136026,0.065772176,-0.1770682,-0.39346462,-0.36676168,0.059966188,-3.0786853,0.6250445,-0.00022735343,-0.062720336,0.027975837,0.0021631278,-0.004074543,0.0031127445,0.0026307392,0.49780032,-1.3777936,1.8995026,-2.0908573,-1.5706853,2.4728699,-0.10607808,0.053888943,-0.07175874,0.0131838545,0.0019490763,-0.10867595,-0.5746084,-0.05746084,-9.385271,0.78888994,47.696735,-1.0667938,-2.5376658,-3.160067,-0.23010528,0.11444453,-0.17445031,28.375,29.75,28.8125,32.625,35.0,36.125
0.14405213,-1.3415976,0.07410706,-0.8865808,0.0003645871,0.07197258,-0.179328,-0.39357433,-0.366718,0.05994959,-3.078698,0.62512696,-0.0002921273,-0.06362103,0.029159442,0.0024069431,-0.004368895,0.0034895383,-0.0050220042,0.49759576,-1.3776618,1.8993844,-2.0908577,-1.5706371,2.4727151,-0.10892256,0.05300063,-0.071247175,0.013094085,0.0020292127,-0.1038682,-0.6512229,-0.095768064,-9.500193,0.73741806,47.73077,-0.9253491,-2.4329512,-3.1351728,-0.23863077,0.118735686,-0.24189878,28.375,29.75,28.8125,32.625,35.0,36.125
0.14605245,-1.6470975,-0.12814257,-0.922823,-0.0073637995,0.06699771,-0.18188703,-0.3937175,-0.36663592,0.05995698,-3.078669,0.6250832,-0.0002440905,-0.06394454,0.029985981,0.0020060411,-0.00392708,0.0027715308,-0.0089829685,0.49735582,-1.3775537,1.8992285,-2.0908096,-1.5706853,2.4724517,-0.110554494,0.053300943,-0.0706923,0.013076367,0.0019863006,-0.101539284,-0.7469909,0.019153614,-9.500193,0.7597976,47.723602,-0.8918201,-2.358084,-3.2918155,-0.24425426,0.12418254,-0.30488288,28.375,29.75,28.8125,32.625,35.0,36.125
0.1480525,-1.4694567,-0.6122745,-0.8141592,-0.008240603,0.083072774,-0.17246135,-0.39382946,-0.36657244,0.05994804,-3.0786753,0.62512237,-0.00033759043,-0.065242454,0.030148635,0.00090292934,-0.0034049244,0.0013627479,-0.009531792,0.49711567,-1.3774441,1.8991083,-2.0907624,-1.5706366,2.4722352,-0.112124026,0.05738725,-0.07295706,0.012746874,0.0021905466,-0.10255884,-0.68953013,0.11492168,-9.5385,0.78888994,47.709274,-0.9228748,-2.4846346,-3.2653203,-0.24722189,0.123801604,-0.29406396,28.375,29.75,28.8125,32.625,35.0,36.125
0.15005167,-1.1935234,-0.5058257,-0.82840306,-0.011495323,0.100533806,-0.17411822,-0.3939562,-0.36650187,0.05994325,-3.0786514,0.62519383,-0.00032638796,-0.06642363,0.030280448,0.0018460215,-0.0044510565,0.0031525507,-0.009826464,0.49688774,-1.3773364,1.8989886,-2.09075,-1.5706486,2.472055,-0.11344126,0.05677401,-0.07437077,0.012700936,0.0022541576,-0.10358105,-0.63206923,0.15322891,-9.519346,0.800085,47.698532,-0.9295047,-2.5527148,-3.2265995,-0.25781032,0.12649111,-0.3314908,28.375,29.75,28.8125,32.625,35.0,36.125
0.152052,-1.2912557,-0.5434867,-0.94627696,-0.007725985,0.09034332,-0.1696207,-0.39412358,-0.36646506,0.05997317,-3.078704,0.625204,-0.0002266302,-0.06653733,0.03070744,0.0021923296,-0.004463087,0.0033644005,-0.0105618825,0.49667197,-1.3772045,1.8987616,-2.090738,-1.5706486,2.471839,-0.11417485,0.055825893,-0.074165605,0.01325276,0.0021751984,-0.10357921,-0.4405331,0.11492168,-9.634268,0.8157518,47.68062,-0.9464936,-2.360512,-3.181419,-0.27143037,0.10008553,-0.349935,28.375,29.75,28.8125,32.625,35.0,36.125
0.15405218,-0.60690254,0.12655088,-0.6684221,-0.022145808,0.09118362,-0.1867961,-0.39422452,-0.36638752,0.059945077,-3.0786383,0.62520754,-0.00031744808,-0.06763999,0.030795451,0.0017695944,-0.0043068957,0.0032743616,-0.00955067,0.4964561,-1.3770715,1.8986543,-2.0906785,-1.5706605,2.4716337,-0.11524642,0.058150817,-0.07585977,0.012775322,0.0020677252,-0.10566092,-0.34476504,0.095768064,-9.500193,0.83589023,47.694946,-0.9984564,-2.4667146,-3.2413497,-0.27323365,0.102346934,-0.35343188,28.375,29.75,28.8125,32.625,35.0,36.125
0.15605271,-0.3704665,-0.3350289,-0.9222089,-0.012675007,0.057128754,-0.18062879,-0.3943699,-0.36630994,0.059926134,-3.078616,0.6252427,-0.0003453605,-0.068540305,0.031462587,0.0016926021,-0.004204042,0.0032226788,-0.012351415,0.4961923,-1.3769152,1.8985094,-2.0906665,-1.570661,2.4713948,-0.11711875,0.058810547,-0.076490715,0.012841729,0.0019997254,-0.10473211,-0.2681506,0.038307227,-9.557653,0.7284641,47.67793,-1.0832446,-2.4821558,-3.230665,-0.2954233,0.11659211,-0.41636932,28.375,29.75,28.8125,32.625,35.0,36.125
0.15805212,-0.09676144,-0.25499964,-0.8812387,-0.0070557203,0.043140125,-0.18157837,-0.39450207,-0.36624593,0.059929293,-3.0786254,0.6253348,-0.00038182962,-0.068476945,0.030850876,0.0017055916,-0.004471965,0.004147954,-0.0041231,0.495941,-1.376807,1.8983659,-2.0906312,-1.5706252,2.4711998,-0.11586786,0.059152775,-0.076686636,0.011759758,0.0017915618,-0.111708954,-0.2681506,0.21068975,-9.500193,0.76874626,47.694946,-1.0731637,-2.4220197,-3.2295187,-0.28643373,0.12284282,-0.40450567,28.375,29.75,28.8125,32.625,35.0,36.125
0.16005224,0.006708049,-0.29549545,-0.9559774,-0.008688401,0.037037067,-0.17838171,-0.39470044,-0.366199,0.059985302,-3.078725,0.6252964,-0.00018497683,-0.07234884,0.03227563,0.002877846,-0.005868257,0.0067894394,-0.005884927,0.49568754,-1.3767104,1.8981265,-2.0906422,-1.5706371,2.4709098,-0.12175395,0.060190417,-0.08054984,0.0115972,0.0017728531,-0.115831204,-0.13407528,0.17238252,-9.461885,0.78217715,47.705692,-0.9944863,-2.4117079,-3.2013483,-0.27432185,0.11567333,-0.34064332,28.375,29.75,28.8125,32.625,35.0,36.125
0.16205238,-0.33512586,-0.3487199,-1.0989696,0.0044717463,0.019793676,-0.18264043,-0.39478666,-0.3661441,0.059943236,-3.0786858,0.62526286,-0.00029929535,-0.07130381,0.03215622,0.0020158226,-0.005203318,0.005489177,0.0028214797,0.49550867,-1.3765543,1.8980316,-2.0906188,-1.5706252,2.470715,-0.12058987,0.06059604,-0.07895944,0.011063471,0.0017987364,-0.12337426,0.0,0.17238252,-9.423578,0.7709874,47.70032,-0.9856522,-2.4267683,-3.2124348,-0.27288646,0.12463081,-0.29285544,28.375,29.75,28.8125,32.625,35.0,36.125
0.16405243,0.088872105,-0.4458351,-0.9869858,0.008760091,0.028409733,-0.17791523,-0.39493766,-0.3660622,0.05995352,-3.0786972,0.62528056,-0.00027237445,-0.071901865,0.03270593,0.0015742648,-0.0046273633,0.004367816,0.008468452,0.49523246,-1.3764576,1.8978881,-2.0905945,-1.5706252,2.4704485,-0.12204395,0.062054355,-0.07984631,0.011753414,0.0018282365,-0.13047482,0.076614454,0.095768064,-9.519346,0.7709874,47.64121,-1.0005329,-2.4268804,-3.372487,-0.27559614,0.13138828,-0.23672453,28.375,29.75,28.8125,32.625,35.0,36.125
0.16605191,0.45311126,-0.46548235,-0.97419816,0.010387165,0.03186707,-0.1797226,-0.39508304,-0.36599293,0.05994419,-3.0786686,0.6252528,-0.0002488843,-0.07412908,0.031869877,0.0034202104,-0.006818514,0.008060422,0.013067309,0.49500495,-1.3763014,1.8977188,-2.0905712,-1.570661,2.4702075,-0.12273881,0.062205948,-0.08421622,0.011676946,0.0019917013,-0.13576707,0.05746084,0.11492168,-9.442732,0.7732232,47.685097,-1.027086,-2.3713665,-3.132234,-0.29222026,0.12884852,-0.12090066,28.375,29.75,28.8125,32.625,35.0,36.125
0.16805203,0.07295375,-0.010626432,-1.0474102,0.0074065723,0.015960447,-0.17730768,-0.39525357,-0.36591902,0.059958644,-3.0787148,0.62521976,-0.00020621455,-0.07359747,0.03273845,0.0023764416,-0.0057083364,0.0059999037,0.0154097965,0.49471712,-1.3761811,1.8975405,-2.0905588,-1.570649,2.4698932,-0.12367913,0.06271446,-0.08247255,0.011767757,0.0020057072,-0.13905045,-0.038307227,0.19153613,-9.481039,0.800085,47.65643,-0.99406976,-2.4049845,-3.2372072,-0.28311732,0.11714397,-0.10395497,28.375,29.75,28.8125,32.625,35.0,36.125
0.17005225,0.24778214,-0.5403416,-0.879718,0.009234105,0.013323785,-0.1801915,-0.3954213,-0.36588353,0.05999088,3.078715,-0.6251658,0.000115674586,-0.07492411,0.03318486,0.0024507956,-0.005968065,0.005785143,0.009284119,0.49448895,-1.3760605,1.897324,-2.0905588,-1.5706247,2.4696314,-0.12581131,0.06413334,-0.084479555,0.012424009,0.0023486384,-0.13505633,0.019153614,0.095768064,-9.461885,0.80456203,47.68062,-1.189148,-2.3588173,-3.2261193,-0.29512882,0.1298159,-0.11157916,28.375,29.75,28.8125,32.625,35.0,36.125
0.17205246,0.15462954,-0.6983616,-0.9022106,-0.0017296299,0.012023713,-0.17261568,-0.39554828,-0.365806,0.059967503,-3.078753,0.62519413,-0.00017730477,-0.07512168,0.033007752,0.0025754522,-0.0061300476,0.0060549174,0.0050493605,0.49424976,-1.3759042,1.8971809,-2.090511,-1.5706366,2.4694052,-0.12566493,0.06442592,-0.08512971,0.012465929,0.0023560014,-0.13067508,0.095768064,0.21068975,-9.481039,0.78217715,47.66271,-1.1378682,-2.3737288,-3.2079172,-0.3053018,0.13334504,-0.12405178,28.375,29.75,28.8125,32.625,35.0,36.125
0.17405179,-0.21789975,-1.2566223,-1.0897543,0.010019479,0.009511753,-0.17472325,-0.39572617,-0.3657385,0.060013335,3.0787053,-0.62518734,7.784922e-05,-0.075769655,0.033498507,0.0024276688,-0.006153342,0.0058869887,-0.0013687611,0.49397367,-1.37582,1.8969659,-2.090463,-1.5706366,2.469131,-0.1271048,0.06503818,-0.0854998,0.01236055,0.0024681818,-0.12569655,0.0,0.19153613,-9.404425,0.8291774,47.65912,-1.1668572,-2.3083918,-3.2173233,-0.29729268,0.14521024,-0.20167127,28.375,29.75,28.8125,32.625,35.0,36.125
0.17605281,0.421475,-0.6101674,-0.9279849,-0.015579282,0.03059619,-0.171887,-0.39585096,-0.36565185,0.059971504,-3.0787387,0.6252535,-0.00015395074,-0.07659749,0.03453703,0.0020228387,-0.0055388846,0.0048127766,-0.0076442747,0.49372122,-1.3756514,1.8968581,-2.090451,-1.5706486,2.4689157,-0.12955244,0.06608298,-0.08598369,0.013035875,0.0024298923,-0.12186853,0.1340753,0.19153613,-9.481039,0.78888994,47.658226,-1.1208466,-2.3662026,-3.2931948,-0.3054774,0.13082984,-0.27243704,28.375,29.75,28.8125,32.625,35.0,36.125
0.17805234,-0.30923507,-0.7675423,-0.9373685,-0.017321773,0.021726469,-0.17182447,-0.39598438,-0.3656119,0.059987947,3.0787234,-0.6252127,0.00015142873,-0.07706279,0.034716282,0.001865176,-0.0055115176,0.0039805803,-0.01088598,0.49351746,-1.3755311,1.8966669,-2.0904024,-1.5706247,2.4686885,-0.13047361,0.0671681,-0.08709547,0.013810287,0.0028036376,-0.11954799,0.0,0.22984336,-9.442732,0.83813137,47.658226,-1.167739,-2.31538,-3.299933,-0.29563826,0.13814127,-0.32661158,28.375,29.75,28.8125,32.625,35.0,36.125
0.18005237,0.21348062,-0.7068004,-0.82012,-0.014706974,0.03596738,-0.18078011,-0.39613718,-0.3655467,0.05999332,3.0787024,-0.62511206,0.00013426013,-0.077824876,0.035203308,0.0017752588,-0.005292378,0.0034673566,-0.013151766,0.4932536,-1.3754104,1.8965114,-2.090402,-1.5706009,2.4683645,-0.13197964,0.06814827,-0.08822148,0.014515329,0.002858546,-0.118787706,-0.05746084,0.22984336,-9.404425,0.8605109,47.672558,-1.1289195,-2.3329587,-3.3541431,-0.32410002,0.12694168,-0.37814915,28.375,29.75,28.8125,32.625,35.0,36.125
0.18205269,-0.44466746,-0.8243562,-0.856037,-0.013668614,0.03569291,-0.1686486,-0.3963271,-0.3654466,0.06000675,3.078689,-0.6253217,7.179878e-05,-0.07894414,0.03550578,0.0019157098,-0.0062886258,0.004310267,-0.016443383,0.49294162,-1.3752662,1.8962964,-2.0903432,-1.5706486,2.4681852,-0.13375401,0.06862323,-0.08887803,0.013476379,0.0033366545,-0.11727072,-0.19153613,0.21068975,-9.404425,0.82022345,47.693153,-1.1717838,-2.2735748,-3.3074012,-0.33116698,0.13984337,-0.4459954,28.375,29.75,28.8125,32.625,35.0,36.125
0.18405166,-0.35125923,-0.5506651,-0.96199524,-0.011107274,0.044517387,-0.1754455,-0.39645845,-0.36536705,0.059961937,3.0787075,-0.6253625,0.00021083998,-0.080277085,0.036177136,0.001990473,-0.006588978,0.00433513,-0.01741811,0.4926655,-1.3750738,1.8961643,-2.090319,-1.5706123,2.4679322,-0.13620973,0.069605686,-0.09028894,0.01374536,0.003578859,-0.11875171,-0.30645782,0.15322891,-9.32781,0.88960326,47.682407,-1.1329213,-2.3161728,-3.2947927,-0.32296014,0.14828765,-0.46785527,28.375,29.75,28.8125,32.625,35.0,36.125
0.18605214,-0.40923572,-0.28302187,-0.618566,-0.011830757,0.057914484,-0.17254394,-0.396608,-0.36532995,0.05999178,3.0786407,-0.62530947,0.0001866059,-0.081291474,0.03694266,0.0021084137,-0.0067991093,0.0044476124,-0.016455812,0.49243712,-1.3749655,1.8959597,-2.0902832,-1.5705642,2.4676793,-0.13846269,0.06987269,-0.090918705,0.013916231,0.0037185028,-0.12196671,-0.28730422,0.11492168,-9.481039,0.7642693,47.677036,-1.1260593,-2.2457273,-3.2892413,-0.33617726,0.13446832,-0.4968105,28.375,29.75,28.8125,32.625,35.0,36.125
0.18805212,-0.9161458,-0.12736064,-0.6859587,-0.006898995,0.057656366,-0.18177418,-0.39678648,-0.36524302,0.05998702,3.0785847,-0.6254634,0.00019995791,-0.08203148,0.037355732,0.0010084318,-0.0058604283,0.002521651,-0.0077347076,0.49211362,-1.3748082,1.8957809,-2.0902708,-1.5705403,2.467459,-0.1398318,0.07309892,-0.09233587,0.014253713,0.003802048,-0.132056,-0.3256114,0.019153614,-9.289502,0.7978386,47.664497,-1.098306,-2.4086187,-3.3759177,-0.33753166,0.12254198,-0.45178962,28.375,29.75,28.8125,32.625,35.0,36.125
0.19005226,-1.1145477,-0.121619664,-0.5049409,0.0046273544,0.06684082,-0.18335694,-0.3969369,-0.3651802,0.059985712,3.0786185,-0.62531,0.00014731131,-0.08287151,0.03664947,0.0029150697,-0.008491541,0.005632136,0.0034040585,0.4918859,-1.3746648,1.8956136,-2.0902708,-1.5705642,2.4671314,-0.1398882,0.070781596,-0.09390506,0.014152168,0.0046528145,-0.14325209,-0.4213795,0.0,-9.289502,0.8247004,47.685097,-1.0867084,-2.106188,-3.238741,-0.33361304,0.12145262,-0.35855448,28.375,29.75,28.8125,32.625,35.0,36.125
0.19205241,-0.7918186,0.2908557,-0.59652555,0.014761859,0.08550246,-0.18796496,-0.39713013,-0.3651202,0.06001463,3.0785747,-0.62533605,7.815601e-05,-0.08299895,0.038355045,0.0008778528,-0.006818672,0.0015035567,0.008408946,0.49160913,-1.3745081,1.8953508,-2.0902226,-1.5705637,2.4668765,-0.14312378,0.073461145,-0.0925571,0.014554864,0.005142061,-0.15149315,-0.40222588,-0.038307227,-9.3661175,0.80679786,47.691364,-1.0544847,-2.1227956,-3.46378,-0.33577254,0.104190476,-0.2679466,28.375,29.75,28.8125,32.625,35.0,36.125
0.19405264,-1.1382399,0.3054257,-0.52653944,0.02637806,0.08763688,-0.17921881,-0.39726806,-0.36501718,0.059995376,3.078621,-0.6252631,0.00013684135,-0.08430185,0.036505006,0.00044539652,-0.0076592197,0.0018131502,0.015064709,0.49131045,-1.3743857,1.8952411,-2.0901868,-1.5705637,2.4665265,-0.14150967,0.07847528,-0.09733412,0.013648427,0.005718637,-0.15653315,-0.59376204,-0.076614454,-9.270349,0.8179876,47.728977,-1.298984,-2.4350224,-3.220911,-0.34441638,0.08307898,-0.19872166,28.375,29.75,28.8125,32.625,35.0,36.125
0.19605206,-1.9670979,0.021637358,-0.37992457,0.02603205,0.07745455,-0.16462822,-0.39742994,-0.364965,0.060007274,3.0785658,-0.625233,0.00014269291,-0.08535548,0.038191378,0.0011249613,-0.007924188,0.0031027962,0.01349578,0.4910459,-1.3742429,1.895039,-2.090163,-1.5705155,2.4662502,-0.14502516,0.07621971,-0.09617339,0.013491952,0.0053533143,-0.15847982,-0.7661445,-0.095768064,-9.193734,0.81351066,47.73077,-1.2426157,-2.2699008,-3.4248576,-0.32997125,0.0913056,-0.15068787,28.375,29.75,28.8125,32.625,35.0,36.125
0.19805217,-1.606013,0.2504053,-0.4919156,0.036097273,0.08202695,-0.1645059,-0.39763334,-0.36487463,0.060012892,3.0785384,-0.6252503,9.9276745e-05,-0.08774762,0.03974563,0.0005177598,-0.007270077,0.0027723298,0.003847685,0.4907094,-1.3740735,1.8948225,-2.090152,-1.5705155,2.465928,-0.14948851,0.07903874,-0.09808541,0.0131871095,0.004934719,-0.1532931,-0.68953013,-0.17238252,-9.136273,0.82694155,47.694946,-1.1933367,-2.302393,-3.3263407,-0.3127547,0.08245696,-0.16974998,28.375,29.75,28.8125,32.625,35.0,36.125
0.20005246,-1.2197617,0.28511208,-0.62279207,0.0352558,0.08132901,-0.1677141,-0.39777815,-0.3647943,0.06000591,3.078607,-0.62509173,0.00010631204,-0.08798012,0.038868148,0.0009229564,-0.007326019,0.0033866742,0.0006512082,0.4904583,-1.373929,1.8946556,-2.0901034,-1.5705403,2.4655695,-0.14802504,0.0800048,-0.10032462,0.013889613,0.004688648,-0.14863199,-0.63206923,-0.15322891,-9.232041,0.76874626,47.67166,-1.2553766,-2.3144379,-3.195918,-0.32086664,0.08094082,-0.21046597,28.375,29.75,28.8125,32.625,35.0,36.125
0.20205246,-1.5759051,0.32502007,-0.2645398,0.01925627,0.06984694,-0.1697753,-0.3980113,-0.364712,0.06003048,3.078493,-0.6252823,5.6724388e-05,-0.0893084,0.040009394,0.0011086051,-0.007202559,0.0035874946,-0.0059026727,0.49008623,-1.3737487,1.89438,-2.0900795,-1.5705041,2.4653308,-0.15095402,0.080283806,-0.101200506,0.0143746445,0.004496941,-0.1450062,-0.82360536,-0.11492168,-9.232041,0.7642693,47.66808,-1.0959488,-2.3510773,-3.3015952,-0.33054498,0.09540482,-0.2878342,28.375,29.75,28.8125,32.625,35.0,36.125
0.20405237,-1.3209087,0.21982951,-0.43406513,0.025640523,0.09048665,-0.18151166,-0.39817804,-0.3646482,0.06002449,3.0784318,-0.6252889,6.3730695e-05,-0.08962355,0.040303297,0.0002477757,-0.0062694685,0.002104441,-0.0071296226,0.48979846,-1.3735919,1.8942126,-2.090103,-1.5704564,2.465055,-0.15160531,0.08250767,-0.101966575,0.014673118,0.0043769744,-0.14442962,-0.8236054,-0.038307227,-9.251195,0.83813137,47.675243,-1.2382799,-2.2860827,-3.2273207,-0.33589554,0.0794736,-0.3369179,28.375,29.75,28.8125,32.625,35.0,36.125
0.20605263,-1.6651709,0.12267355,-0.4655349,0.022105811,0.09362015,-0.17014137,-0.39836642,-0.36455378,0.060040016,3.07846,-0.6253321,1.5756606e-05,-0.09167071,0.039964415,0.0018248699,-0.0077110315,0.0054422854,-0.008654348,0.4894988,-1.3734357,1.8939728,-2.0900195,-1.5705041,2.464779,-0.15263642,0.08246022,-0.105494276,0.01462012,0.0040734387,-0.14393426,-0.7278373,-0.05746084,-9.385271,0.82694155,47.67793,-1.2481482,-2.4049678,-3.0574162,-0.3303138,0.074870266,-0.3539116,28.375,29.75,28.8125,32.625,35.0,36.125
0.20805217,-1.9687139,-0.0071424954,-0.4273126,0.004140748,0.100547634,-0.17570148,-0.3985195,-0.36446834,0.06000537,3.078459,-0.62534887,0.00013747432,-0.09068296,0.041173205,0.0003832355,-0.005343429,0.002246155,-0.0076956274,0.48918736,-1.3732435,1.8938173,-2.0899951,-1.5704569,2.464478,-0.15336592,0.08323693,-0.10339997,0.015693683,0.0034864333,-0.14562276,-0.6895301,0.019153614,-9.308656,0.800085,47.692257,-1.3203669,-2.2720613,-3.3346741,-0.34483644,0.09916432,-0.38775575,28.375,29.75,28.8125,32.625,35.0,36.125
0.2100525,-1.4076132,0.3810417,-0.42542195,-0.0069460766,0.1021995,-0.18842024,-0.39870447,-0.36438924,0.060002778,3.0784569,-0.6253259,0.00012551913,-0.09293788,0.040956296,-0.00014721368,-0.0049844654,0.0022627944,-0.003774167,0.48888725,-1.3730613,1.8936013,-2.0899713,-1.5704569,2.464164,-0.15477104,0.08812531,-0.10798964,0.015552602,0.0031547362,-0.1509463,-0.57460845,0.038307227,-9.289502,0.7620334,47.70032,-1.2575049,-2.4117606,-3.1044965,-0.3477948,0.08639934,-0.35850936,28.375,29.75,28.8125,32.625,35.0,36.125
0.21205273,-0.7917527,0.20253195,-0.7045615,-0.0050956816,0.086725734,-0.18713905,-0.3989292,-0.36429018,0.060023185,3.0784364,-0.62537265,1.78092e-05,-0.09297613,0.04140324,0.0008471092,-0.0057976805,0.003967452,0.004020296,0.4885399,-1.3728944,1.893351,-2.0899475,-1.5704926,2.4638486,-0.15544161,0.085299626,-0.10685758,0.015357275,0.003086702,-0.15941197,-0.34476504,0.15322891,-9.385271,0.7911258,47.701214,-1.3719501,-2.3058734,-3.2879984,-0.33572915,0.06487607,-0.30189547,28.375,29.75,28.8125,32.625,35.0,36.125
0.21405193,-0.6263172,-0.07967992,-0.60809344,-0.008775031,0.056401137,-0.18248995,-0.39911482,-0.3642086,0.060017012,3.0784323,-0.6253084,1.6156198e-05,-0.094730325,0.04153911,0.0003875468,-0.006028982,0.0043220054,0.012741509,0.48822796,-1.3727132,1.8931469,-2.089936,-1.5704807,2.4634972,-0.15721118,0.08836002,-0.109213896,0.014236865,0.0031225327,-0.1699013,-0.17238252,-0.019153614,-9.385271,0.900793,47.678825,-1.3198564,-2.38615,-3.2553875,-0.318227,0.092111476,-0.19396599,28.375,29.75,28.8125,32.625,35.0,36.125
0.21605228,0.6179636,0.003449614,-0.5819468,-0.011951455,0.05979589,-0.1837732,-0.39932778,-0.3641112,0.060039043,3.0783937,-0.62535506,-6.7119465e-05,-0.09659929,0.042175483,0.0008467906,-0.0063111256,0.0055788755,0.015688315,0.48787957,-1.3725686,1.8929194,-2.0899122,-1.5704926,2.463183,-0.15968798,0.08933333,-0.11142604,0.014234824,0.002791394,-0.17532332,-0.21068975,0.05746084,-9.32781,0.8023209,47.66987,-1.3312736,-2.4426193,-3.1224742,-0.30278233,0.09285752,-0.09835772,28.375,29.75,28.8125,32.625,35.0,36.125
0.21805266,0.30957764,-0.558129,-0.72798663,-0.003610704,0.032946467,-0.17553298,-0.3994951,-0.36401746,0.060008205,3.0784428,-0.6252877,6.0042727e-05,-0.09791561,0.042941537,0.00064056774,-0.006092884,0.0055965185,0.014305996,0.48755607,-1.3723519,1.8927153,-2.0898402,-1.5704683,2.4628112,-0.16196941,0.090758316,-0.1126465,0.014123233,0.0025752112,-0.17622171,-0.24899697,0.19153613,-9.346964,0.8112748,47.699425,-1.3230025,-2.5020428,-3.0790863,-0.3008054,0.09265083,-0.05051386,28.375,29.75,28.8125,32.625,35.0,36.125
0.22005239,0.5715697,-0.6271236,-0.6886257,-0.008377285,0.041853018,-0.1796372,-0.3997268,-0.36390692,0.06000597,3.0784447,-0.6253097,-1.6530168e-05,-0.09895566,0.043550927,0.00025179345,-0.005495431,0.0048294906,0.007136516,0.48718408,-1.372147,1.8924764,-2.0898397,-1.5705045,2.462453,-0.1637511,0.09269848,-0.1142221,0.014710348,0.0024120817,-0.1708328,-0.13407528,0.21068975,-9.404425,0.7665104,47.66271,-1.1999395,-2.6196105,-3.0970905,-0.29191428,0.10297984,-0.07313506,28.375,29.75,28.8125,32.625,35.0,36.125
0.22205211,0.35252866,-0.5846837,-0.928871,-0.018161323,0.031416267,-0.17667109,-0.3998846,-0.36383584,0.05999294,3.0784707,-0.6252433,6.659047e-05,-0.10043315,0.04470139,0.00018557804,-0.0053560757,0.004596512,-0.00462488,0.4869078,-1.3719543,1.8922604,-2.0897677,-1.5704807,2.462132,-0.16694395,0.09370731,-0.11538665,0.015140082,0.0023887588,-0.16226381,-0.038307227,0.2681506,-9.404425,0.8090337,47.711063,-1.0738375,-2.5425556,-3.0644534,-0.30257243,0.12220122,-0.16692422,28.375,29.75,28.8125,32.625,35.0,36.125
0.22405215,0.0050266823,-1.0212921,-0.9935787,-0.027005069,0.022899678,-0.1694142,-0.4000796,-0.36373085,0.059984062,3.0784543,-0.62531847,9.5695745e-05,-0.1006547,0.04462778,0.00042849412,-0.0054328684,0.004792631,-0.010240737,0.4865483,-1.3717743,1.8920583,-2.089732,-1.5704683,2.4618216,-0.1669329,0.093847275,-0.116234526,0.015640419,0.0023636976,-0.15663663,-0.1340753,0.2681506,-9.423578,0.7978386,47.652847,-1.1248825,-2.5277932,-3.0621524,-0.3096162,0.11089712,-0.25071558,28.375,29.75,28.8125,32.625,35.0,36.125
0.22605233,0.40148252,-1.1849499,-1.0382539,-0.034826223,0.04375421,-0.17494535,-0.40030316,-0.36364505,0.059990443,3.0783794,-0.62540007,4.662508e-05,-0.101376124,0.04478082,0.00066673534,-0.0061205747,0.00498851,-0.013932587,0.4861886,-1.3715819,1.8918175,-2.0897439,-1.5704445,2.4615223,-0.16808113,0.09421754,-0.117272824,0.01581605,0.0028897312,-0.15409315,-0.095768064,0.30645782,-9.32781,0.79560274,47.647476,-1.0768077,-2.5325108,-3.1252918,-0.29074016,0.114944585,-0.3422361,28.375,29.75,28.8125,32.625,35.0,36.125
0.22805214,0.22312108,-0.54444474,-0.87745893,-0.035717584,0.0453285,-0.16982032,-0.4004855,-0.36355698,0.05998308,3.0783913,-0.6254236,7.902956e-05,-0.10230863,0.045458283,0.000597528,-0.0062638433,0.004857941,-0.021246355,0.48587683,-1.3713895,1.8915914,-2.0896838,-1.5704445,2.4612238,-0.17010513,0.094891265,-0.11794521,0.015862158,0.0030733664,-0.14880337,0.0,0.2681506,-9.442732,0.8090337,47.68062,-1.048086,-2.4745555,-3.1711302,-0.29290786,0.13685456,-0.41445243,28.375,29.75,28.8125,32.625,35.0,36.125
0.2300522,0.2959206,-0.73842466,-1.043708,-0.026103774,0.044106387,-0.1760766,-0.4006817,-0.36346212,0.059975456,3.0783913,-0.6254999,0.00010981671,-0.10259308,0.045895394,4.6952817e-05,-0.006147329,0.003675191,-0.022613037,0.48554108,-1.371185,1.8913516,-2.0896237,-1.570444,2.4609358,-0.17130189,0.09601695,-0.11807678,0.015968002,0.0035209632,-0.14863394,0.076614454,0.15322891,-9.557653,0.8157518,47.705692,-1.1944294,-2.5096428,-3.0948262,-0.28794682,0.101974025,-0.49981323,28.375,29.75,28.8125,32.625,35.0,36.125
0.23205253,-0.562304,-0.98716384,-0.9008737,-0.018516872,0.023948053,-0.16404445,-0.4009297,-0.36337736,0.059991952,3.0783048,-0.6255738,6.374602e-06,-0.104499325,0.045986455,0.0012809659,-0.0076841014,0.0062208367,-0.016810121,0.48516914,-1.3709809,1.8910764,-2.089648,-1.5704321,2.460621,-0.17318077,0.09585074,-0.120649196,0.01574284,0.0037052375,-0.1563147,0.11492168,0.17238252,-9.442732,0.94331104,47.672558,-1.1025097,-2.4447157,-3.2318907,-0.2636437,0.11808221,-0.49414217,28.375,29.75,28.8125,32.625,35.0,36.125
0.23405258,0.7667315,-0.24724834,-1.0498176,-0.010056052,0.042673368,-0.17923094,-0.40112093,-0.363289,0.06000493,3.07832,-0.62547326,-3.223646e-05,-0.10491388,0.047480155,0.00048727877,-0.0074661006,0.004856045,-0.0075623863,0.48485675,-1.3708246,1.89085,-2.0895998,-1.570444,2.4602442,-0.17627771,0.096036464,-0.11895007,0.015168221,0.0041602305,-0.16866046,0.076614454,0.114921674,-9.615114,0.8403672,47.691364,-1.0229884,-2.4151473,-3.1878254,-0.26311564,0.117516875,-0.3965364,28.375,29.75,28.8125,32.625,35.0,36.125
0.236052,0.16995631,-0.70705473,-1.0335531,0.01505435,0.017139183,-0.16792744,-0.40131527,-0.3631943,0.059977576,3.0783105,-0.6255411,3.6046258e-05,-0.10593338,0.048169665,-0.00032477462,-0.0068701026,0.0036962482,0.0021894006,0.48450893,-1.3705956,1.890634,-2.0895765,-1.5704201,2.45994,-0.178282,0.09851848,-0.12007275,0.015121872,0.0041695326,-0.18041591,0.076614454,0.095768064,-9.595961,0.8179876,47.698532,-1.019903,-2.5950246,-3.239655,-0.23710366,0.10475525,-0.26766533,28.375,29.75,28.8125,32.625,35.0,36.125
0.23805214,0.50284564,0.14895424,-0.8038017,-0.005407183,0.027597403,-0.17628781,-0.4015649,-0.36307842,0.059997648,3.078276,-0.62562656,-8.542589e-05,-0.106371224,0.04905479,0.00065071136,-0.0072392225,0.004662798,0.006555591,0.48411343,-1.370416,1.8903717,-2.089564,-1.5704564,2.4596024,-0.1800057,0.09625282,-0.11983009,0.016114859,0.004066243,-0.18650597,-0.05746084,0.019153614,-9.500193,0.8023209,47.68599,-0.9678513,-2.3539035,-3.3566113,-0.2411789,0.106204316,-0.18508849,28.375,29.75,28.8125,32.625,35.0,36.125
0.24005212,0.267889,0.30852073,-0.7488372,0.010228665,0.036287423,-0.17177612,-0.40174502,-0.3630033,0.059976142,3.0782769,-0.62554914,3.6990306e-05,-0.1059889,0.050003085,-0.0022808553,-0.0048921746,-0.0006136697,0.006704513,0.48378918,-1.3701861,1.8901328,-2.089504,-1.5703963,2.4592297,-0.1814238,0.10114503,-0.119042404,0.016209394,0.0044379598,-0.18807325,-0.095768064,-0.1340753,-9.461885,0.82694155,47.693153,-0.9169405,-2.6117196,-3.4501557,-0.23458642,0.0821867,-0.13486111,28.375,29.75,28.8125,32.625,35.0,36.125
0.24205232,0.5109284,0.4933027,-0.83503467,0.023424251,0.057657376,-0.17310062,-0.40196848,-0.36291277,0.059994087,3.078229,-0.6255028,-3.8539478e-05,-0.107658654,0.049701944,6.0629114e-05,-0.007838059,0.0027101126,0.00021987784,0.4834297,-1.3700191,1.8898929,-2.089504,-1.5703834,2.4588475,-0.18297751,0.09888413,-0.121854424,0.016968688,0.005509738,-0.18314263,-0.2681506,-0.095768064,-9.519346,0.77545905,47.679718,-1.0809928,-2.3474498,-3.3309212,-0.23100124,0.10309765,-0.1705885,28.375,29.75,28.8125,32.625,35.0,36.125
0.24405217,-0.66546386,0.6489637,-0.7658868,0.02709678,0.052245367,-0.17445509,-0.40216637,-0.36283612,0.059989918,3.0782087,-0.6254607,2.6519047e-05,-0.106908575,0.049021672,-0.0007322413,-0.0072572445,0.0012281425,-0.003922976,0.483095,-1.3698021,1.8896302,-2.089444,-1.5703357,2.4584892,-0.1811929,0.10059685,-0.12215501,0.017146526,0.005681195,-0.17721513,-0.2681506,-0.19153613,-9.500193,0.8403672,47.73077,-1.1655483,-2.4334283,-3.562069,-0.19665438,0.0870934,-0.2696193,28.375,29.75,28.8125,32.625,35.0,36.125
0.24605249,-0.7452963,0.3479641,-0.9603117,0.035685167,0.05716508,-0.17127275,-0.40237328,-0.36272886,0.059974484,3.0782561,-0.62544984,-5.7640364e-06,-0.10771947,0.048919648,0.00028139455,-0.008139024,0.002541833,-0.0062943804,0.48275974,-1.3695862,1.8894023,-2.0894196,-1.5703834,2.4581413,-0.1817685,0.09998741,-0.123935305,0.017955724,0.005849182,-0.17541912,-0.21068975,-0.21068975,-9.576807,0.85155696,47.707485,-1.224462,-2.3154655,-3.4104521,-0.1984075,0.08874618,-0.31214014,28.375,29.75,28.8125,32.625,35.0,36.125
0.2480525,-0.4159017,0.5111566,-0.7259767,0.02820327,0.075676695,-0.17951867,-0.4025812,-0.36264017,0.059949156,3.078233,-0.6254432,9.844532e-05,-0.10853099,0.048679724,0.0012599899,-0.008761598,0.004280663,-0.0055669853,0.4823885,-1.3693339,1.889151,-2.0893843,-1.5703233,2.457769,-0.18183905,0.099562675,-0.12577854,0.018408611,0.005587124,-0.17621641,-0.4213795,-0.095768064,-9.519346,0.85826975,47.686886,-1.3196621,-2.2997549,-3.4424634,-0.19293515,0.07496186,-0.35852426,28.375,29.75,28.8125,32.625,35.0,36.125
0.25005245,-0.678394,0.5151821,-0.8400123,0.018423192,0.07290409,-0.17722455,-0.40280208,-0.3625102,0.05996331,3.0782175,-0.6255739,8.9108726e-05,-0.109407835,0.048984002,0.00011052864,-0.008127783,0.002455141,-0.0057058255,0.48198113,-1.3691765,1.8889121,-2.0893004,-1.5703357,2.4574451,-0.18322195,0.103123136,-0.12742789,0.018408509,0.005871179,-0.17745967,-0.4405331,-0.11492168,-9.576807,0.87617236,47.71554,-1.3359919,-2.4334006,-3.3581069,-0.18114153,0.0754924,-0.386032,28.375,29.75,28.8125,32.625,35.0,36.125
0.25205284,-0.14658272,0.52216077,-0.91103464,0.0073824353,0.087157585,-0.19840598,-0.40303123,-0.36242595,0.059981726,3.078174,-0.62550163,4.0862684e-05,-0.110376425,0.04968128,0.0010502624,-0.00854615,0.0036767097,-0.00058798573,0.481621,-1.3689848,1.888636,-2.0892756,-1.5703114,2.4570456,-0.18505155,0.10192671,-0.12834486,0.019255623,0.005690864,-0.1844065,-0.38307226,-0.019153614,-9.519346,0.88289046,47.71554,-1.2553427,-2.3056655,-3.416163,-0.1924563,0.07464397,-0.33040515,28.375,29.75,28.8125,32.625,35.0,36.125
0.25405177,-0.96779484,-0.33816555,-0.86675096,-0.0044665094,0.07333921,-0.18097678,-0.4032601,-0.36230826,0.05998666,3.0781953,-0.62551737,-3.1910222e-05,-0.11054315,0.050249767,-0.000818895,-0.006168783,0.0003993586,0.009841267,0.48124963,-1.3687913,1.8883857,-2.0892394,-1.5703596,2.4566815,-0.18571392,0.10616238,-0.12934524,0.020025432,0.0051102326,-0.1954964,-0.49799395,0.038307227,-9.672575,0.88960326,47.705692,-1.3511484,-2.405978,-3.4363914,-0.18450302,0.07888535,-0.23757452,28.375,29.75,28.8125,32.625,35.0,36.125
0.25605184,-1.1480963,-0.68877906,-0.7195766,-0.021406107,0.092338376,-0.17861928,-0.40345702,-0.36221275,0.059978087,3.07818,-0.6254715,7.0585535e-05,-0.111210406,0.049970467,0.00046730164,-0.0069995793,0.0027349035,0.01898264,0.48087764,-1.3685876,1.8881458,-2.0891678,-1.5703,2.4562829,-0.18553592,0.104843706,-0.13078685,0.020349521,0.004760863,-0.20445928,-0.80445176,0.19153613,-9.653421,0.8157518,47.68599,-1.4837315,-2.2622476,-3.3858204,-0.17776845,0.06826518,-0.114486784,28.375,29.75,28.8125,32.625,35.0,36.125
0.258052,-1.7150434,-1.2417697,-0.926012,-0.013393556,0.093219526,-0.16905092,-0.40369785,-0.3621048,0.059989907,3.078201,-0.62543696,7.5908383e-06,-0.11255351,0.050531678,0.00063324947,-0.006952502,0.0030348601,0.018273214,0.48050514,-1.368371,1.8878468,-2.0891078,-1.5703362,2.4558864,-0.18746658,0.10601665,-0.13269454,0.020835692,0.004584492,-0.20567937,-0.6895301,0.22984336,-9.595961,0.74413085,47.70659,-1.4978157,-2.3875084,-3.396093,-0.18485439,0.0666123,-0.060858164,28.375,29.75,28.8125,32.625,35.0,36.125
0.260052,-1.4780154,-1.1158247,-1.0947903,-0.019993702,0.08982861,-0.1816781,-0.4039465,-0.36200586,0.060006067,3.0781367,-0.62542886,-2.6415608e-05,-0.11361401,0.051427383,0.0003629984,-0.006653532,0.0023015544,0.0099643925,0.48009637,-1.3681662,1.8875602,-2.0890834,-1.5703,2.4554808,-0.1898625,0.10732117,-0.13378996,0.021421768,0.004669033,-0.19976579,-0.51714754,0.24899697,-9.768343,0.8493211,47.752266,-1.4306734,-2.312543,-3.359973,-0.1718579,0.086295426,-0.089591905,28.375,29.75,28.8125,32.625,35.0,36.125
0.2620521,-0.960982,-0.9278124,-0.6797117,-0.05377319,0.08002649,-0.17675252,-0.40418643,-0.36190438,0.06001488,3.07809,-0.6254846,-3.325085e-05,-0.11686573,0.05232678,0.0014297996,-0.007914292,0.0048274472,-0.0033724685,0.4796989,-1.3679496,1.8872708,-2.0890357,-1.5702761,2.4551241,-0.19411445,0.108544044,-0.1376532,0.021242375,0.004616372,-0.19067907,-0.5554548,0.2873042,-9.768343,0.8560339,47.703007,-1.3493705,-2.32583,-3.3262517,-0.1728134,0.07429583,-0.17422017,28.375,29.75,28.8125,32.625,35.0,36.125
0.26405224,-0.83709496,-1.3818582,-0.6168221,-0.049331125,0.061910886,-0.17177898,-0.4044202,-0.3618111,0.060000442,3.0781198,-0.6253984,-6.810562e-05,-0.11804698,0.053146664,0.0008884232,-0.007553796,0.0048289103,-0.012380485,0.47935027,-1.3676848,1.8869847,-2.0890238,-1.5703,2.454718,-0.19624268,0.1101945,-0.13820994,0.020309113,0.0042942273,-0.18379842,-0.51714754,0.28730422,-9.442732,0.9254084,47.672558,-1.31183,-2.3393862,-3.199442,-0.15585308,0.06790033,-0.27688095,28.375,29.75,28.8125,32.625,35.0,36.125
0.26605263,-0.62174183,-1.3041754,-0.83669686,-0.022862528,0.04902084,-0.16870126,-0.40465304,-0.3616962,0.06002881,3.0780847,-0.6255085,-0.00015111844,-0.11951697,0.052486118,0.0020634343,-0.00840517,0.0077243242,-0.017707678,0.4789663,-1.3675284,1.8867201,-2.0889642,-1.5703238,2.4544075,-0.19597203,0.11066757,-0.14140265,0.02006406,0.0037172798,-0.17819852,-0.4213795,0.2681506,-9.557653,0.9231726,47.687782,-1.3116224,-2.3753858,-3.0891042,-0.14335692,0.06974281,-0.40111357,28.375,29.75,28.8125,32.625,35.0,36.125
0.26805195,-0.21325713,-0.47554472,-0.62305963,-0.027462611,0.055528313,-0.18643683,-0.40488288,-0.36158654,0.06001629,3.0780587,-0.6255053,-0.000113046844,-0.12082243,0.05359489,0.0016127268,-0.008063261,0.00755508,-0.021566894,0.47855744,-1.3672999,1.8864702,-2.0889404,-1.5702885,2.454,-0.19875005,0.11206864,-0.1419556,0.019531945,0.0034926876,-0.17711669,-0.2681506,0.2873042,-9.615114,0.7620334,47.668976,-1.26602,-2.3382719,-3.1935258,-0.14345375,0.08521482,-0.4530713,28.375,29.75,28.8125,32.625,35.0,36.125
0.27005237,-0.67486614,-0.7010993,-0.39032304,-0.013541597,0.04417405,-0.18065622,-0.40515068,-0.36148852,0.060025096,3.0780025,-0.6256225,-0.00014294781,-0.122367255,0.05379949,0.0013999961,-0.008911992,0.0076531833,-0.014920606,0.47814915,-1.3670348,1.8861226,-2.0888927,-1.5702761,2.4536722,-0.2007788,0.114300385,-0.14402051,0.01889256,0.004209634,-0.18579121,-0.34476504,0.095768064,-9.481039,0.81351066,47.692257,-1.1995522,-2.4019284,-3.104055,-0.100209534,0.09206328,-0.47376937,28.375,29.75,28.8125,32.625,35.0,36.125
0.27205256,-0.7302975,-0.20999399,-0.2129068,-0.0070895804,0.042200755,-0.18655476,-0.40542328,-0.3613854,0.06005986,3.0779169,-0.62565565,-0.00026112868,-0.12391527,0.05388318,0.0020221868,-0.009868601,0.00845559,-0.003411094,0.4777284,-1.3668422,1.8858107,-2.0888803,-1.5702637,2.453283,-0.20247217,0.11535213,-0.14685254,0.019528981,0.0047177016,-0.19899297,-0.28730422,0.11492168,-9.32781,0.86498255,47.716442,-1.1459873,-2.5058775,-3.0991163,-0.06988541,0.0873469,-0.38348264,28.375,29.75,28.8125,32.625,35.0,36.125
0.27405253,-0.4074959,0.15401882,-0.08001281,0.0075549567,0.060129926,-0.18857667,-0.40567884,-0.36128944,0.060066726,3.0778708,-0.6256018,-0.00027838655,-0.122445375,0.05526009,-0.0012354485,-0.007121399,0.0010575773,0.0064638075,0.47732016,-1.3666005,1.8855008,-2.0888555,-1.5702275,2.4528472,-0.20399886,0.11933119,-0.14460294,0.021144938,0.0057056504,-0.2103956,-0.2681506,-0.019153614,-9.289502,0.7866488,47.705692,-1.1438719,-2.459,-3.203569,-0.07915732,0.06919103,-0.21984541,28.375,29.75,28.8125,32.625,35.0,36.125
0.27605268,-0.4957181,0.4044349,-0.09092256,0.018619023,0.05744131,-0.1848039,-0.40589306,-0.36117667,0.060054265,3.0778909,-0.6255279,-0.00023829077,-0.124261595,0.05601969,0.0013189384,-0.008908503,0.0049527856,0.008746329,0.47693506,-1.3663857,1.8852614,-2.0888078,-1.5702156,2.4524136,-0.20664787,0.115772426,-0.14642362,0.02225159,0.0055035157,-0.21532711,-0.24899697,0.0,-9.232041,0.8717007,47.672558,-1.0663271,-2.4762468,-3.067152,-0.059612196,0.05340615,-0.14365697,28.375,29.75,28.8125,32.625,35.0,36.125
0.27805176,-0.6410473,0.57402277,-0.11268377,0.022866752,0.05164302,-0.1860954,-0.40616778,-0.36107418,0.0600715,3.077843,-0.6255027,-0.00030909816,-0.12433642,0.056741428,-0.00076673634,-0.0069045057,0.0010792761,0.003783473,0.47651446,-1.3661438,1.8849276,-2.0887835,-1.5702037,2.4519835,-0.20781656,0.12001902,-0.14693241,0.022878027,0.005515376,-0.21153183,-0.40222588,-0.019153614,-9.193734,0.842603,47.693153,-1.0617411,-2.5097036,-3.1504145,-0.05587533,0.07430223,-0.17818192,28.375,29.75,28.8125,32.625,35.0,36.125
0.28005183,-0.6657412,0.10740217,0.022246756,0.029422846,0.049417756,-0.18295555,-0.40640986,-0.360942,0.060063105,3.0778522,-0.6255841,-0.00031871625,-0.124351636,0.05684397,-0.00013785926,-0.0072662476,0.0017851612,-0.0026435442,0.47609466,-1.3659164,1.8846639,-2.0887358,-1.5702275,2.4516134,-0.20789243,0.118787386,-0.14703406,0.023412393,0.005509505,-0.205181,-0.4213795,-0.038307227,-9.155427,0.8090337,47.66987,-1.206967,-2.397153,-3.2090302,-0.06252647,0.051691838,-0.24181232,28.375,29.75,28.8125,32.625,35.0,36.125
0.28205222,-0.71943915,0.35160348,0.10292936,0.026774572,0.059560582,-0.18821421,-0.4066678,-0.3608398,0.06007588,3.0777965,-0.62557364,-0.0003394343,-0.124771126,0.056828864,-0.0004296838,-0.0065146647,0.0013685474,-0.006992559,0.47567508,-1.3656875,1.884353,-2.0886996,-1.5701917,2.4511945,-0.20782772,0.12047929,-0.14854187,0.02395201,0.0050383895,-0.20076594,-0.45968673,-0.24899697,-9.021352,0.8179876,47.64389,-1.3905079,-2.422947,-3.2224102,-0.043181088,0.06520559,-0.31074768,28.375,29.75,28.8125,32.625,35.0,36.125
0.28405213,-0.09550544,0.8582764,0.25928673,0.04048211,0.072962485,-0.18717659,-0.4069187,-0.36072332,0.060066536,3.0777998,-0.625574,-0.00036334587,-0.12414528,0.056750175,-0.0010251703,-0.0055777836,-6.335108e-05,-0.0076659154,0.4752674,-1.3654348,1.8840665,-2.0886753,-1.5702041,2.4507868,-0.20693249,0.12141331,-0.14850043,0.02467799,0.0048648263,-0.19919716,-0.30645782,-0.2873042,-8.983045,0.9164598,47.666286,-1.549052,-2.511479,-3.2871275,-0.02543502,0.07483621,-0.3757686,28.375,29.75,28.8125,32.625,35.0,36.125
0.28605235,-0.739867,0.60720503,0.23233867,0.05707012,0.039841942,-0.17776872,-0.40718767,-0.36060038,0.060064044,3.0777583,-0.62568057,-0.00033947828,-0.12514178,0.056735616,-0.0003252963,-0.006540575,0.00085865415,-0.0071896557,0.47481072,-1.3651707,1.8837427,-2.0886157,-1.5701798,2.450402,-0.20792246,0.12156148,-0.15041116,0.025186824,0.005298792,-0.20066309,-0.17238252,-0.30645782,-9.021352,0.8537928,47.65912,-1.5025421,-2.407566,-3.2716212,-0.019318651,0.054366723,-0.39718518,28.375,29.75,28.8125,32.625,35.0,36.125
0.28805235,-0.18231642,0.6549581,0.14284745,0.054897696,0.027902655,-0.1793028,-0.40742546,-0.36049107,0.060048368,3.0777268,-0.6256884,-0.00027537046,-0.1265782,0.057920396,-7.4284864e-05,-0.0068972907,0.0011860562,-0.0007246497,0.4743898,-1.3649181,1.883468,-2.08858,-1.5701317,2.44999,-0.21116482,0.121729314,-0.15126729,0.025438176,0.005470919,-0.2103704,-0.095768064,-0.24899697,-8.983045,0.8403672,47.658226,-1.3449597,-2.4663658,-3.30546,-0.008164708,0.05724751,-0.34634995,28.375,29.75,28.8125,32.625,35.0,36.125
0.2900525,0.41898394,0.9808405,0.1943169,0.049666073,0.014232083,-0.19690287,-0.4076833,-0.36035737,0.060053322,3.0777776,-0.62559587,-0.00033449696,-0.12653188,0.058540832,-0.0010203109,-0.0055417186,-0.0005499783,0.011122181,0.47396976,-1.3646896,1.8831695,-2.0885193,-1.5701798,2.449506,-0.21181178,0.12334443,-0.15118435,0.025904203,0.005071114,-0.22286372,-0.095768064,-0.17238252,-9.059659,0.8985519,47.657326,-1.3901229,-2.3538926,-3.3314328,0.0017831867,0.05679723,-0.21955468,28.375,29.75,28.8125,32.625,35.0,36.125
0.2920523,0.41419727,0.4927234,-0.13442995,0.044449743,0.0054539484,-0.19303463,-0.40794417,-0.36025542,0.060062703,3.0777318,-0.62560356,-0.00032921165,-0.12819456,0.059155446,0.00079802313,-0.0061645275,0.0025593573,0.015695198,0.4735492,-1.3644379,1.8828334,-2.0884593,-1.570144,2.4490962,-0.21364427,0.12150555,-0.15336111,0.026885843,0.0042158985,-0.2292681,-0.038307227,-0.095768064,-9.136273,0.81351066,47.664497,-1.2460111,-2.2170208,-3.2019162,0.012036182,0.06280815,-0.10104954,28.375,29.75,28.8125,32.625,35.0,36.125
0.29405227,0.008892879,-0.0015289431,-0.39719644,0.028273668,-0.006295902,-0.190892,-0.40821314,-0.36010957,0.06007043,3.0777707,-0.6254808,-0.00039290744,-0.13063698,0.060088012,0.0016449625,-0.0062627424,0.0037062352,0.008372098,0.4730922,-1.3642212,1.8825454,-2.0884106,-1.5701803,2.4485579,-0.21694693,0.12276147,-0.15714,0.028336305,0.0037803617,-0.22524582,0.0,-0.019153614,-9.155427,0.90527004,47.686886,-1.2680855,-2.2610137,-3.2425709,-0.008131648,0.08243695,-0.11036069,28.375,29.75,28.8125,32.625,35.0,36.125
0.2960526,0.80532515,-0.05343854,-0.38821918,-0.009202612,0.02319026,-0.19568473,-0.40845537,-0.359987,0.060061913,3.0778055,-0.625514,-0.00034238136,-0.13104726,0.062119745,0.0009023077,-0.004828221,0.0009733948,-0.004680173,0.47268283,-1.3639568,1.8822235,-2.0883024,-1.5701922,2.448165,-0.22058725,0.12327753,-0.15655026,0.030310862,0.0037376243,-0.21583436,-0.114921674,0.15322891,-9.193734,0.8314132,47.68062,-1.1213034,-2.1675675,-3.2767832,-0.016710129,0.07171647,-0.18357682,28.375,29.75,28.8125,32.625,35.0,36.125
0.2980518,-0.078875765,-0.8292538,-0.68489206,-0.012044613,0.022920057,-0.18094122,-0.40870792,-0.35986328,0.060032267,3.0777805,-0.6255715,-0.00024771038,-0.13178833,0.06296402,0.00085232506,-0.0036642202,-0.0005580052,-0.014815675,0.4722262,-1.363668,1.8819364,-2.0882652,-1.5701445,2.4477475,-0.2223154,0.124616206,-0.15868591,0.033009604,0.0033865327,-0.20742613,-0.30645782,0.17238252,-9.404425,0.8537928,47.660015,-1.1174711,-2.1115193,-3.2123466,-0.0327644,0.08305253,-0.2969158,28.375,29.75,28.8125,32.625,35.0,36.125
0.30005187,-0.5185381,-1.1822159,-1.0723131,-0.01603733,0.0377345,-0.18612437,-0.4089653,-0.3597274,0.060036503,3.0777965,-0.6256181,-0.00022668582,-0.13214146,0.063857645,-0.00019911547,-0.0025494015,-0.0038066788,-0.024265897,0.47178155,-1.363427,1.8816136,-2.088157,-1.570156,2.44733,-0.22430024,0.12718765,-0.1598598,0.035005707,0.0038622664,-0.19996057,-0.21068975,0.24899697,-9.519346,0.8247004,47.68062,-1.0498126,-2.2914667,-3.163227,-0.072537966,0.099964604,-0.41895223,28.375,29.75,28.8125,32.625,35.0,36.125
0.3020519,-0.7070697,-1.3393604,-1.1493787,-0.027645493,0.05319813,-0.19217864,-0.40919662,-0.3596028,0.06001445,3.0778008,-0.6256773,-0.00010342185,-0.13379063,0.06348395,0.0011090434,-0.005052698,-0.0016941113,-0.025894567,0.47134927,-1.3631629,1.8813256,-2.0880616,-1.5701197,2.4469342,-0.22575115,0.1270519,-0.16268499,0.03495206,0.005111599,-0.19978325,-0.2681506,0.2681506,-9.691729,0.90527004,47.672558,-0.89057124,-2.1701794,-3.2659273,-0.091197506,0.071790524,-0.48352736,28.375,29.75,28.8125,32.625,35.0,36.125
0.30405185,-1.2278339,-1.6233811,-1.2245187,-0.03313633,0.06196851,-0.18604669,-0.4094938,-0.35945886,0.060036004,3.077776,-0.62574214,-0.00015392604,-0.13333188,0.063866295,-0.0005145533,-0.0047472706,-0.0051229405,-0.01609356,0.47085702,-1.3629216,1.8809685,-2.0879776,-1.5701312,2.4464858,-0.22665685,0.12948447,-0.16194858,0.034979463,0.0064098253,-0.21049088,-0.3256114,0.2681506,-9.825804,0.9298854,47.68062,-0.9016211,-2.2294478,-3.3272576,-0.08483587,0.051194116,-0.4367923,28.375,29.75,28.8125,32.625,35.0,36.125
0.30605265,-1.4503037,-1.7049685,-1.2405403,-0.03304091,0.080403864,-0.19641915,-0.40971738,-0.35934192,0.060016207,3.077774,-0.6257507,-3.2344455e-05,-0.13335721,0.063477665,0.00033604057,-0.0049504624,-0.0045930976,-7.408465e-05,0.47043747,-1.3626698,1.8806924,-2.0878928,-1.570083,2.4460719,-0.22587468,0.12887426,-0.1635582,0.036658086,0.006345685,-0.2257282,-0.4213795,0.2681506,-9.864111,0.8179876,47.672558,-1.2161944,-2.224242,-3.2871757,-0.11330773,0.06981916,-0.32652298,28.375,29.75,28.8125,32.625,35.0,36.125
0.30805263,-1.3109251,-1.1159016,-1.2662128,-0.04296721,0.104092345,-0.1903382,-0.4099999,-0.35920447,0.06002654,3.07779,-0.62568945,-5.6168607e-05,-0.13304953,0.06313437,-0.0010517531,-0.0033067686,-0.007133673,0.011556581,0.46996996,-1.362416,1.8803457,-2.0878093,-1.5700954,2.4455643,-0.22471055,0.13249554,-0.16496119,0.037457507,0.006036579,-0.23619343,-0.36391866,0.24899697,-9.844957,0.87393653,47.687782,-1.3207734,-2.4336355,-3.281604,-0.15418845,0.072007775,-0.18765125,28.375,29.75,28.8125,32.625,35.0,36.125
0.3100518,-1.4745666,-1.1220623,-1.4039638,-0.02533484,0.09567391,-0.1880628,-0.41027007,-0.35910165,0.06002384,3.0777988,-0.6255569,-2.98816e-05,-0.1332939,0.06392493,-0.0019049726,-0.0021971983,-0.009479192,0.010529301,0.46954942,-1.3621156,1.8799752,-2.0877368,-1.5700716,2.44506,-0.22616747,0.13440226,-0.16566502,0.03885675,0.0061077387,-0.23662277,-0.28730422,0.24899697,-9.959879,0.84708,47.709274,-1.3507832,-2.2549472,-3.3234062,-0.16784827,0.048949063,-0.14024144,28.375,29.75,28.8125,32.625,35.0,36.125
0.31205174,-1.3865383,-0.9575424,-1.3147503,-0.016433068,0.07541158,-0.18544503,-0.41052955,-0.35896575,0.06001725,3.077813,-0.62564355,3.032752e-06,-0.13498063,0.06441075,-0.0013845207,-0.0031877947,-0.008443064,0.00032146182,0.46910426,-1.3618507,1.879651,-2.0876415,-1.570083,2.4446673,-0.22855495,0.135148,-0.16776854,0.038836095,0.006502388,-0.22880217,-0.3256114,0.19153613,-9.768343,0.8157518,47.696735,-1.30218,-2.3559248,-3.3167348,-0.20045595,0.054760866,-0.22336537,28.375,29.75,28.8125,32.625,35.0,36.125
0.31405175,-0.13422444,-0.88414073,-1.3703936,-0.012767636,0.06875819,-0.19059828,-0.41082674,-0.35882378,0.060017962,3.0777993,-0.6256616,-7.759142e-05,-0.13513923,0.0642881,-0.0029106776,-0.0021069192,-0.009186937,-0.005932467,0.46862495,-1.3615853,1.8793281,-2.08763,-1.5701078,2.4442012,-0.2279589,0.13838017,-0.16773689,0.036719803,0.0058728266,-0.22195077,-0.24899697,0.05746084,-9.844957,0.95897776,47.686886,-1.3817072,-2.476761,-3.3872948,-0.20323631,0.05870925,-0.31667224,28.375,29.75,28.8125,32.625,35.0,36.125
0.31605205,-0.30249548,-0.6776929,-1.2561681,-0.0076331156,0.041021783,-0.1904881,-0.41111282,-0.35872313,0.060032874,3.0777388,-0.6255554,-0.00011451309,-0.13636757,0.06512113,-0.003555169,-0.0015491999,-0.00884703,-0.0108035775,0.46818036,-1.3613206,1.8789715,-2.0876062,-1.5700597,2.4436982,-0.2298791,0.14023075,-0.16820747,0.035302047,0.005227385,-0.21899845,-0.2681506,0.05746084,-9.80665,0.89631605,47.672558,-1.3909595,-2.4767706,-3.4140148,-0.19108987,0.066231325,-0.37888315,28.375,29.75,28.8125,32.625,35.0,36.125
0.31805217,-0.09383883,-0.3705292,-0.98635983,0.009935642,0.036399357,-0.18816236,-0.41138673,-0.3585744,0.060032774,3.077726,-0.62564695,-7.4101925e-05,-0.13727188,0.06545462,-0.0026456758,-0.0017060959,-0.0076176845,-0.008279309,0.467688,-1.3610684,1.8786472,-2.0875103,-1.5700482,2.4432647,-0.23082224,0.13970582,-0.16991755,0.036378205,0.004805296,-0.22246522,-0.2681506,0.0,-9.615114,0.83813137,47.672558,-1.428601,-2.5241113,-3.2955227,-0.20384818,0.078625485,-0.38823536,28.375,29.75,28.8125,32.625,35.0,36.125
0.32005194,-0.3283031,-0.095162116,-0.9949013,0.025760328,0.020695422,-0.18724282,-0.41168743,-0.3584538,0.06003157,3.077703,-0.6256348,-8.9423265e-05,-0.13834254,0.06605904,-0.0029045227,-0.0013904059,-0.008372901,0.00047649723,0.4672195,-1.3607558,1.8782638,-2.0874622,-1.5700353,2.4427917,-0.232649,0.14154373,-0.17176758,0.037219357,0.0048703547,-0.23304692,-0.11492168,0.038307227,-9.615114,0.82694155,47.677036,-1.338591,-2.6292078,-3.3515248,-0.21491799,0.08461781,-0.29657626,28.375,29.75,28.8125,32.625,35.0,36.125
0.3220522,-0.52682763,0.085135736,-0.6237458,0.015118297,0.038319416,-0.18800335,-0.41195372,-0.3583305,0.060028218,3.0776913,-0.6255526,-5.3640513e-05,-0.13997377,0.06799929,-0.0029933956,-0.0013994251,-0.008649119,0.0073457467,0.4667621,-1.3604922,1.8779415,-2.0874026,-1.5699996,2.4422846,-0.23726039,0.14182581,-0.17198299,0.037414078,0.0050065275,-0.24452765,-0.24899697,-0.019153614,-9.3661175,0.89631605,47.66987,-1.1614748,-2.306276,-3.4620743,-0.23666441,0.062477246,-0.17829177,28.375,29.75,28.8125,32.625,35.0,36.125
0.32405216,-0.16268115,0.25556946,-0.32327875,0.0112739615,0.06882808,-0.18509656,-0.4122418,-0.35820246,0.060037054,3.0776713,-0.6255675,-5.4706827e-05,-0.14248468,0.06867835,-0.002058779,-0.0034912247,-0.0069646,0.006498995,0.46629277,-1.3602163,1.877571,-2.0873187,-1.5699872,2.4418273,-0.241079,0.14245339,-0.17484576,0.037207916,0.006112065,-0.24749932,-0.4213795,-0.15322891,-9.232041,0.9186956,47.677036,-1.0278358,-2.4608974,-3.4498096,-0.2480857,0.07446435,-0.09723793,28.375,29.75,28.8125,32.625,35.0,36.125
0.32605252,-1.0422195,-0.019020056,-0.664015,0.026518825,0.056926884,-0.17795224,-0.41252828,-0.35806915,0.060046844,3.0776443,-0.62558585,-9.9364675e-05,-0.14349362,0.06959483,-0.0024546443,-0.0035695436,-0.00799538,-0.0024087871,0.46582377,-1.3599638,1.8772348,-2.087271,-1.5699872,2.4413733,-0.24366489,0.1438649,-0.17576396,0.037596725,0.0066463943,-0.24117717,-0.36391866,-0.11492168,-9.32781,0.8157518,47.678825,-0.9120376,-2.454343,-3.5347667,-0.24723898,0.055812463,-0.1318175,28.375,29.75,28.8125,32.625,35.0,36.125
0.32805258,-1.4665028,0.16220583,-0.36226168,0.015989259,0.045642663,-0.17670238,-0.41285405,-0.357916,0.060052425,3.077642,-0.62561053,-0.00012368562,-0.1441274,0.068948634,-0.0015651581,-0.004103721,-0.006616444,-0.011077887,0.4652955,-1.3596522,1.8768286,-2.0871866,-1.5699991,2.440861,-0.242857,0.1441355,-0.17833446,0.038418967,0.00649439,-0.23169915,-0.4213795,-0.17238252,-9.251195,0.8873621,47.672558,-0.9902282,-2.4107866,-3.4032414,-0.2666924,0.048507012,-0.23731837,28.375,29.75,28.8125,32.625,35.0,36.125
0.33005267,-1.1379678,-0.08947568,-0.1367945,0.021523722,0.05345513,-0.1816527,-0.41312075,-0.3577865,0.06004851,3.077606,-0.6256827,-7.491321e-05,-0.14501522,0.067862704,-5.230027e-05,-0.0050256364,-0.0031016623,-0.018840237,0.4648288,-1.3593886,1.8765043,-2.087114,-1.5699638,2.440444,-0.24117167,0.14359567,-0.18109697,0.038173042,0.0057252394,-0.2222501,-0.49799395,-0.15322891,-9.174581,0.83365434,47.68062,-1.0977436,-2.3285713,-3.2999406,-0.2719453,0.0640102,-0.3616734,28.375,29.75,28.8125,32.625,35.0,36.125
0.33205268,-1.149358,0.19720769,-0.41445696,0.033244643,0.041700546,-0.1737538,-0.4133881,-0.35765246,0.060038533,3.0776186,-0.6256687,6.715445e-06,-0.1465144,0.06804181,0.0006217439,-0.0061132195,-0.0012668407,-0.024865625,0.46436074,-1.3591006,1.8761567,-2.0870073,-1.5699395,2.4399657,-0.24268672,0.14393196,-0.18292499,0.03754131,0.0058568623,-0.21773948,-0.30645782,-0.05746084,-9.136273,0.95226496,47.67793,-1.2467446,-2.2013247,-3.2393427,-0.29152942,0.069060676,-0.49468404,28.375,29.75,28.8125,32.625,35.0,36.125
0.3340517,-0.8678288,-0.23275137,-0.6801409,0.054267522,0.033295732,-0.18515474,-0.41368476,-0.35752264,0.060039353,3.0775554,-0.6257651,1.3205705e-05,-0.14706816,0.06809365,0.000667687,-0.005868171,-0.00087023183,-0.016873293,0.46386832,-1.3588126,1.8757976,-2.0869591,-1.5699037,2.4395416,-0.24284926,0.14482751,-0.18417232,0.037667215,0.0054688193,-0.22589342,-0.21068975,-0.019153614,-9.174581,0.9254084,47.66271,-1.3077939,-2.2517,-3.2363396,-0.29430422,0.06782231,-0.4993419,28.375,29.75,28.8125,32.625,35.0,36.125
0.33605212,-0.5892576,-0.19524238,-0.28631234,0.018793939,0.049800165,-0.18620978,-0.41399905,-0.3573758,0.060067095,3.0775414,-0.62579215,-9.390026e-05,-0.14733252,0.068529606,-0.0006673738,-0.0044617485,-0.0032969082,-0.0028263002,0.46337637,-1.3585601,1.8754147,-2.0868871,-1.5699395,2.4390686,-0.24355619,0.14808208,-0.18522778,0.03827482,0.005319008,-0.24064614,-0.21068975,0.1340753,-9.270349,0.94331104,47.672558,-1.4282776,-2.1555126,-3.2299294,-0.31656885,0.06526455,-0.37460878,28.375,29.75,28.8125,32.625,35.0,36.125
0.3380521,-1.242297,-0.4042891,-0.6983169,0.0011405502,0.049008828,-0.18314068,-0.41428423,-0.35722974,0.060064185,3.0775948,-0.6257209,-4.7196732e-05,-0.1487926,0.06873779,0.0012971414,-0.006116045,0.00050640624,0.0064839665,0.46289602,-1.3582609,1.8750318,-2.086756,-1.5699514,2.4385371,-0.24485284,0.14566661,-0.18678205,0.03811192,0.0050922087,-0.25125304,-0.26815057,0.11492168,-9.212888,0.88960326,47.672558,-1.5513098,-2.172793,-3.308082,-0.31535763,0.058997523,-0.22348985,28.375,29.75,28.8125,32.625,35.0,36.125
0.34005207,-1.3941511,-0.8010242,-0.8035333,-0.009711322,0.06497847,-0.18653141,-0.41457033,-0.35709265,0.060035475,3.0776205,-0.62572753,3.7268626e-05,-0.15076597,0.06822914,0.0021927743,-0.007507793,0.0037648743,0.0067311716,0.46241575,-1.3579129,1.8746594,-2.0866725,-1.5699395,2.438058,-0.24536994,0.14678797,-0.189852,0.036530513,0.004860825,-0.2520162,-0.28730422,0.15322891,-9.3661175,0.9612189,47.67793,-1.4843016,-2.2296932,-3.1860232,-0.31154835,0.071495,-0.19003311,28.375,29.75,28.8125,32.625,35.0,36.125
0.34205216,-1.4198352,-1.6528964,-0.8469406,-0.021354957,0.06800319,-0.16919313,-0.41489545,-0.35695866,0.060075924,3.077526,-0.6257133,-3.3049666e-05,-0.15194826,0.06967777,0.0018223237,-0.007044371,0.003344898,-0.003002318,0.46188655,-1.3576728,1.8742651,-2.086612,-1.5698923,2.437532,-0.24850434,0.14769149,-0.19011873,0.03648607,0.0046549514,-0.24541634,-0.21068975,0.21068975,-9.500193,0.9701675,47.694054,-1.3890951,-2.0471134,-3.2682796,-0.30842876,0.08503935,-0.26103887,28.375,29.75,28.8125,32.625,35.0,36.125
0.34405226,-0.5908189,-1.7768884,-1.1580145,-0.027604992,0.06821293,-0.17909408,-0.41518757,-0.35680214,0.060069717,3.0775828,-0.6257301,-3.550377e-05,-0.15339258,0.07170812,0.0011181158,-0.0067598796,0.0026151317,-0.014133913,0.46140552,-1.3573725,1.8738936,-2.0865052,-1.56994,2.4370544,-0.25302383,0.14864898,-0.18954018,0.035715327,0.0047144475,-0.23880455,-0.2873042,0.2681506,-9.442732,0.900793,47.704796,-1.2852395,-2.095794,-3.3149574,-0.33338234,0.08998777,-0.3604941,28.375,29.75,28.8125,32.625,35.0,36.125
0.34605253,-1.3528247,-1.6571479,-1.2407546,-0.028681489,0.035230134,-0.17305365,-0.41548824,-0.35666975,0.06005863,3.0775342,-0.6257419,-2.7762092e-06,-0.15542859,0.072804555,0.0011907988,-0.007723687,0.0037099372,-0.017503189,0.46089974,-1.3570604,1.873535,-2.08647,-1.5698918,2.4365623,-0.25664645,0.14970085,-0.19072841,0.03445543,0.0050906744,-0.2390576,-0.30645782,0.24899697,-9.442732,0.8806493,47.69763,-1.1363368,-2.0750346,-3.3209476,-0.32492423,0.072958365,-0.40267706,28.375,29.75,28.8125,32.625,35.0,36.125
0.34805265,-0.65040594,-1.0723677,-1.1653602,-0.026569769,0.039553214,-0.18015634,-0.41578925,-0.35651985,0.06005747,3.0775247,-0.62584925,-3.8659775e-05,-0.1549619,0.072741866,-0.0010766607,-0.005955505,0.0005070334,-0.008128155,0.4604084,-1.3567716,1.8731765,-2.0864103,-1.5699157,2.4361393,-0.25589445,0.15407383,-0.19073041,0.03374425,0.0049396474,-0.24767983,-0.34476504,0.17238252,-9.5385,0.83365434,47.68062,-1.1231219,-2.1513083,-3.2839093,-0.31083435,0.09247301,-0.3594495,28.375,29.75,28.8125,32.625,35.0,36.125
0.3500517,-0.6293122,-0.15914804,-1.247509,-0.01877607,0.04042469,-0.1981287,-0.41612503,-0.356364,0.060062516,3.0775049,-0.6258569,-4.349734e-05,-0.15664978,0.07246822,0.0002929265,-0.007993656,0.0046145786,0.0044190786,0.4598564,-1.3564479,1.8727564,-2.0863268,-1.5699037,2.4355948,-0.25666904,0.15321018,-0.19237454,0.03168382,0.0049487464,-0.26100117,-0.21068975,0.1340753,-9.5385,0.95897776,47.716442,-1.1547068,-2.073352,-3.3711672,-0.29174918,0.10025629,-0.21987614,28.375,29.75,28.8125,32.625,35.0,36.125
0.35205165,-1.0967014,-0.5502526,-1.1663476,0.004549433,0.043186568,-0.17857045,-0.41644424,-0.35623324,0.06007105,3.0775082,-0.6257407,-0.00011324306,-0.15802328,0.072819464,-0.00041965905,-0.008466196,0.004536092,0.009339974,0.45937547,-1.3561352,1.8723496,-2.0862796,-1.5699157,2.4350412,-0.25852555,0.15589817,-0.19370085,0.030186435,0.005421589,-0.26777783,-0.2873042,0.095768064,-9.595961,0.9321212,47.705692,-1.1411412,-2.3952668,-3.4215276,-0.2595442,0.07115786,-0.12781587,28.375,29.75,28.8125,32.625,35.0,36.125
0.35405257,-1.5130873,-0.7469968,-1.2394229,0.013208171,0.048145324,-0.16552143,-0.41674194,-0.35609844,0.06005544,3.0774422,-0.6258058,-2.288472e-06,-0.1587014,0.07231155,-0.0012569111,-0.008959445,0.0038839984,0.0065228203,0.45884764,-1.3558106,1.8719777,-2.086208,-1.5698317,2.4345624,-0.25850463,0.15905438,-0.19541223,0.029128095,0.006141901,-0.2649394,-0.24899697,0.17238252,-9.557653,0.9545008,47.72002,-1.0499189,-2.3237603,-3.4695144,-0.23289919,0.08212705,-0.118493326,28.375,29.75,28.8125,32.625,35.0,36.125
0.35605183,-0.4967635,-0.41048014,-1.0610123,0.0024354153,0.07124591,-0.17932518,-0.4170504,-0.35595438,0.060060024,3.0774148,-0.6257685,-7.2876032e-06,-0.1599499,0.072664686,-0.0010663641,-0.009443029,0.003923581,-0.0058219507,0.45833158,-1.3555223,1.8716062,-2.086148,-1.5698069,2.4340267,-0.2602207,0.16038245,-0.19763142,0.029768175,0.006556762,-0.25431,-0.34476504,0.076614454,-9.557653,0.7866488,47.70032,-1.1981666,-2.4106965,-3.3971877,-0.22562303,0.09068752,-0.21216553,28.375,29.75,28.8125,32.625,35.0,36.125
0.3580519,-0.9574574,-0.3646712,-1.0458208,-0.007559253,0.05430644,-0.17355737,-0.4174265,-0.35581437,0.060100403,3.077334,-0.62583447,-0.00023266733,-0.15985815,0.072678894,-0.0021764087,-0.008394818,0.0020945268,-0.015617206,0.45780346,-1.3552216,1.8711523,-2.086148,-1.5698432,2.4335504,-0.25989926,0.16298313,-0.19833644,0.029962247,0.0064578424,-0.24419172,-0.5554548,0.038307227,-9.5385,0.8784135,47.66987,-1.2767684,-2.4315255,-3.4142442,-0.21477652,0.075058065,-0.3550803,28.375,29.75,28.8125,32.625,35.0,36.125
0.36005202,-0.95828044,-0.42907885,-0.8768477,-0.012655279,0.062326945,-0.17082651,-0.4177265,-0.35563502,0.060045257,3.0773866,-0.62594414,-8.422048e-05,-0.16070268,0.073419385,-0.0019898172,-0.00821669,0.0028954253,-0.022619653,0.45725116,-1.3548383,1.8707932,-2.0860522,-1.5698436,2.43306,-0.26134637,0.16303374,-0.19883773,0.02977357,0.0059122876,-0.2386367,-0.5554548,0.019153614,-9.481039,0.8717007,47.70211,-1.3579684,-2.3642738,-3.4929013,-0.20642363,0.084282145,-0.48833284,28.375,29.75,28.8125,32.625,35.0,36.125
0.36205193,-1.3638417,-0.19654833,-0.8809175,-0.0045903567,0.056927796,-0.1899341,-0.41807312,-0.35550895,0.06009888,3.0772927,-0.6259389,-0.00021135258,-0.16120113,0.0728492,-0.0018529895,-0.008016876,0.003944778,-0.013291763,0.45673537,-1.3545741,1.8703369,-2.0859807,-1.5698198,2.432553,-0.2602326,0.164346,-0.20070429,0.029493157,0.0053046965,-0.24684902,-0.3256114,0.038307227,-9.500193,0.9298854,47.687782,-1.4802167,-2.3351302,-3.3820436,-0.18086065,0.08995007,-0.438092,28.375,29.75,28.8125,32.625,35.0,36.125
0.36405239,-0.4770046,-0.19540012,-0.7000671,0.0024065368,0.07253645,-0.18693933,-0.41840428,-0.35534915,0.060094465,3.0772364,-0.626054,-0.00024419912,-0.16290416,0.07276124,-0.00018809662,-0.010046498,0.007242326,0.0020190962,0.456183,-1.3542627,1.8699659,-2.0859568,-1.5698074,2.4320798,-0.2615472,0.163252,-0.20313504,0.029184043,0.005696189,-0.26347396,-0.15322891,-0.038307227,-9.3661175,0.9455522,47.68062,-1.4433267,-2.3747485,-3.3201563,-0.17128016,0.08131093,-0.31512517,28.375,29.75,28.8125,32.625,35.0,36.125
0.36605263,-0.43750486,0.46238914,-0.3976459,-0.002962673,0.07057951,-0.19307864,-0.4187123,-0.35519117,0.060068823,3.0772462,-0.6260342,-0.00020145175,-0.16466406,0.0742132,-0.0005232926,-0.010421094,0.0066522327,0.007926305,0.45565355,-1.3539263,1.8696073,-2.0859091,-1.5697955,2.431537,-0.2656408,0.16484983,-0.20435469,0.029184695,0.00629761,-0.2734747,-0.19153614,0.0,-9.3661175,0.91421866,47.684196,-1.278231,-2.482675,-3.430871,-0.11573282,0.090034336,-0.200852,28.375,29.75,28.8125,32.625,35.0,36.125
0.36805174,0.41040033,0.7175127,-0.5145043,0.010268784,0.07597143,-0.17991029,-0.41904736,-0.3550602,0.060077455,3.0772593,-0.62590426,-0.00025702443,-0.16595033,0.07388842,0.0001270667,-0.010998682,0.007717815,0.0049950774,0.4551617,-1.353578,1.869151,-2.0858366,-1.5698069,2.4309626,-0.26600203,0.16617599,-0.2076535,0.029943932,0.006354994,-0.27090332,-0.4213795,0.019153614,-9.32781,0.88289046,47.65912,-1.2589948,-2.2628376,-3.352078,-0.09834737,0.08089039,-0.15619093,28.375,29.75,28.8125,32.625,35.0,36.125
0.37005204,-0.3533626,-0.028372265,-0.78557014,0.023176344,0.042789042,-0.16286923,-0.41936556,-0.35490194,0.060067125,3.0772305,-0.62594116,-0.00020814127,-0.16485102,0.07317251,-5.6337984e-05,-0.009974228,0.0063998327,-0.00042612632,0.45460987,-1.3532542,1.8687671,-2.0857642,-1.5697716,2.4304376,-0.26348656,0.16676544,-0.20840843,0.031750154,0.0060116467,-0.2629664,-0.3256114,0.11492168,-9.385271,0.93436235,47.67166,-1.3007021,-2.310975,-3.3979099,-0.09706146,0.08393562,-0.27967227,28.375,29.75,28.8125,32.625,35.0,36.125
0.37205198,-0.6858638,0.18212412,-0.4880875,-0.015837103,0.037495036,-0.1820981,-0.41973412,-0.35476807,0.060076557,3.0771255,-0.6260955,-0.0002622171,-0.16713084,0.07495782,0.00038198577,-0.009695906,0.0066748434,-0.010454192,0.4540575,-1.3528821,1.8682884,-2.0857284,-1.5697359,2.429995,-0.2679448,0.1677325,-0.21095793,0.033216175,0.0056573767,-0.25739518,-0.28730422,0.11492168,-9.289503,0.8940802,47.684196,-1.3722733,-2.2128348,-3.346252,-0.09193479,0.102121264,-0.37592733,28.375,29.75,28.8125,32.625,35.0,36.125
0.37405196,-0.26313317,-0.22681329,-0.51921296,-0.010990748,0.05254579,-0.17396194,-0.42005622,-0.3545949,0.060082093,3.0771127,-0.62611353,-0.0002481118,-0.16834286,0.076603815,-0.0010058394,-0.00807229,0.003745154,-0.0128223,0.45349205,-1.3525933,1.867905,-2.0856316,-1.5697235,2.4294426,-0.27142262,0.17127877,-0.2124303,0.034495555,0.005487435,-0.2585039,-0.30645782,0.11492168,-9.232041,0.8717007,47.691364,-1.1864014,-2.2756457,-3.2628143,-0.11026628,0.10280873,-0.39357114,28.375,29.75,28.8125,32.625,35.0,36.125
0.37605256,-0.39536777,-0.06967623,-0.8242905,0.0025429432,0.04763643,-0.17883615,-0.42040205,-0.35442904,0.060076594,3.0770905,-0.62618005,-0.00026498068,-0.1698644,0.07672864,0.0014788192,-0.010069833,0.0074707814,-0.0016152967,0.45292726,-1.3522469,1.8674854,-2.0855715,-1.5697235,2.4289224,-0.27278984,0.1684306,-0.21493268,0.03563775,0.0056703575,-0.27107793,0.0,0.15322891,-9.404425,0.8403672,47.694054,-1.0458431,-2.0956423,-3.1918268,-0.0969479,0.10474398,-0.3231702,28.375,29.75,28.8125,32.625,35.0,36.125
