Tylouw/Master_Thesis_Code/training_data/batch_1/rect_rod_t0.3/sample_91_session_3.csv
timestamp[s],tcp_force_x[N],tcp_force_y[N],tcp_force_z[N],tcp_force_rx[Nm?],tcp_force_ry[Nm?],tcp_force_rz[Nm?],tcp_pose_x[m],tcp_pose_y[m],tcp_pose_z[m],tcp_pose_rx[rot_vec_x],tcp_pose_ry[rot_vec_y],tcp_pose_rz[rot_vec_z],tcp_velo_x[m/s],tcp_velo_y[m/s],tcp_velo_z[m/s],tcp_velo_rx[rot_vec_x/s],tcp_velo_ry[rot_vec_y/s],tcp_velo_rz[rot_vec_z/s],q1[rad],q2[rad],q3[rad],q4[rad],q5[rad],q6[rad],qd1[rad/s],qd2[rad/s],qd3[rad/s],qd4[rad/s],qd5[rad/s],qd6[rad/s],tool_acc_x,tool_acc_y,tool_acc_z,current_of_whole_robot[A],voltage_of_whole_robot[V],current_J1[A],current_J2[A],current_J3[A],current_J4[A],current_J5[A],current_J6[A],temp_J1[C],temp_J2[C],temp_J3[C],temp_J4[C],temp_J5[C],temp_J6[C]
3.289897e-07,0.3509676,-0.11275521,0.092732474,-0.036831822,0.022525353,-0.010113857,-0.3893198,-0.3687122,0.059996516,-3.078672,0.6249219,0.0001622681,0.00040718928,0.00046383994,-0.00086938293,0.0007580523,-0.0016073658,-0.0003594591,0.50504464,-1.3816435,1.9042228,-2.0918915,-1.5708655,2.4800372,-0.000472606,0.0007118853,0.0011593327,-9.81909e-05,0.00011660313,-0.000113670925,0.17238252,0.19153613,-8.6574335,0.62104326,47.74331,-0.22471055,-3.1256251,-2.3986602,-0.18853778,0.09417941,-0.024529545,28.625,29.9375,28.875,32.6875,35.125,36.25
0.0020523379,0.0061483043,-0.59426004,0.16783968,-0.028806081,0.019644884,-0.0065091085,-0.3893477,-0.36871344,0.06002456,-3.078704,0.6249668,0.00023685445,-0.0013886001,-0.0005508982,-0.0010359817,-0.002704812,0.0046230396,-0.000332598,0.5050207,-1.3816674,1.904188,-2.0918953,-1.5708655,2.4800372,-0.000443745,0.0012713484,0.0030498484,-0.009676232,0.0001144842,-0.00011132747,0.19153613,0.19153613,-8.734048,0.7083204,47.72002,-0.2145768,-3.0332499,-2.348589,-0.1262975,0.08154142,-0.02491679,28.625,29.9375,28.875,32.6875,35.125,36.25
0.004051973,-0.19538084,-0.7149477,-0.13710597,-0.028012551,0.024121122,-0.00042774848,-0.38936803,-0.3687248,0.060031477,-3.0787535,0.6249576,0.0003221963,-0.0018418472,-0.00081801024,-0.0015496545,-0.0029128103,0.004994139,-0.00030854341,0.50502074,-1.3816669,1.904188,-2.0919673,-1.5708655,2.4800253,-0.00041798392,0.0028070037,0.0027909055,-0.01137835,0.00011244077,-0.00010907858,0.17238252,0.17238252,-8.599973,0.779936,47.723602,-0.21092689,-3.3578029,-2.5574846,-0.035848036,0.09596804,-0.027724598,28.625,29.9375,28.875,32.6875,35.125,36.25
0.006051884,0.0048437067,-0.20983852,-0.020287527,-0.019287389,0.014364594,-0.0033030044,-0.38933203,-0.36871362,0.06000708,-3.0787208,0.624932,0.00019629627,-0.0008955179,-0.00030459336,-0.0011213899,-0.0012861721,0.0020767818,-0.00027927256,0.50502074,-1.3816671,1.9042352,-2.0919292,-1.5708417,2.4800134,-0.0003950459,0.0018825608,0.001691694,-0.006014498,0.000110469075,-0.00011568546,-0.019153614,0.24899697,-8.542512,0.78217715,47.709274,-0.18486774,-3.2883816,-2.5558834,-0.06401125,0.09909698,-0.023537051,28.625,29.9375,28.875,32.6875,35.125,36.25
0.0080519095,0.54970074,0.68950623,-0.2693027,0.005715096,0.006810205,-0.0065040668,-0.38932675,-0.3687046,0.059978493,-3.0786598,0.6249384,0.00017503696,3.198296e-05,0.00020013221,-0.00035738462,-9.2802795e-05,-5.71439e-05,-0.00025320565,0.5050328,-1.3816198,1.9042467,-2.0919397,-1.5708774,2.4800372,-0.00037449575,6.9250535e-05,0.00096473406,-0.001029297,0.0001085654,-0.00012172565,-0.019153614,0.24899697,-8.676587,0.8112748,47.728977,-0.29311445,-3.205664,-2.4818466,-0.10917841,0.0855387,-0.027301513,28.625,29.9375,28.875,32.6875,35.125,36.25
0.010051918,0.38034737,0.73787075,-0.9001614,0.015246911,-0.00094575377,-0.013423246,-0.3893359,-0.3687141,0.06000398,-3.0786977,0.6249079,0.00020360333,0.0012659208,0.0008758248,-0.00069289573,0.0020555325,-0.0039175176,-0.00022844436,0.5050328,-1.3816439,1.9042114,-2.0919144,-1.5708655,2.4800134,-0.0003559782,9.290842e-07,0.00074035284,0.0036813067,0.00010672622,-0.00012838286,-0.019153614,0.19153613,-8.887277,0.8291774,47.72002,-0.8148569,-2.8230066,-2.9213252,-0.16629742,0.0671307,-0.11543177,28.625,29.9375,28.875,32.6875,35.125,36.25
0.012051916,0.24299842,0.11549962,-0.85683084,-0.0149969105,0.026367174,-0.019631047,-0.3893147,-0.3687159,0.05997255,-3.078652,0.62489974,0.00011772364,-0.0006191185,0.0021800152,-0.0013682786,0.0024405052,-0.004617086,-0.0039970237,0.50505567,-1.3815949,1.9042224,-2.0919025,-1.5708655,2.480037,-0.0043143667,0.002351229,-0.00040749958,0.0032773241,0.00010494834,-0.00031730978,0.076614454,0.095768064,-9.232041,0.7150385,47.716442,-1.0293057,-2.7438354,-2.9999676,-0.1484552,0.064085096,-0.15558693,28.625,29.9375,28.875,32.6875,35.125,36.25
0.014051764,-0.71085113,-0.7721669,-1.0428838,-0.044876523,0.03372169,-0.014831509,-0.3893423,-0.36868683,0.059980538,-3.078629,0.62500685,0.000115922725,-0.004070474,0.0041776807,-0.0043440973,0.0045257937,-0.008408075,0.0024760102,0.5049809,-1.3816038,1.9042095,-2.0918791,-1.5708655,2.480032,-0.010909085,0.01106177,-0.0036720326,0.0021557435,0.000103228704,-0.013382218,0.05746084,0.0,-9.385271,0.7709874,47.711964,-0.5583881,-3.1904407,-2.951857,-0.12975967,0.07261065,-0.10946858,28.625,29.9375,28.875,32.6875,35.125,36.25
0.016051715,-0.8272865,-1.1066291,-1.3143086,-0.06736827,0.06435954,-0.0318032,-0.38933852,-0.3686988,0.05996258,-3.0786414,0.6248711,8.837881e-05,-0.005336026,0.0043494874,-0.0033918468,0.0033583853,-0.0063016876,0.008857913,0.5050045,-1.381556,1.9041966,-2.091891,-1.5708655,2.4799693,-0.012380572,0.010274131,-0.0047954465,0.001657199,0.00010156443,-0.02123522,-0.17238252,0.095768064,-9.442732,0.7351769,47.681515,-0.60781187,-3.2290902,-2.9587033,-0.10003126,0.07430894,-0.014609473,28.625,29.9375,28.875,32.6875,35.125,36.25
0.018052077,-1.2751304,-0.9107942,-1.0547961,-0.06549383,0.08189945,-0.05788317,-0.38932437,-0.36868754,0.05991998,-3.078636,0.6247714,-7.4920135e-05,-0.005245058,0.004215673,-0.0023983472,0.0024332842,-0.004629467,0.01373685,0.50496876,-1.3814969,1.9042209,-2.0918791,-1.5708174,2.479872,-0.012068167,0.007997782,-0.00434836,0.001575878,9.995316e-05,-0.025802296,-0.36391866,0.13407528,-9.385271,0.7553206,47.703903,-0.82575566,-3.0034852,-3.1539214,-0.106520236,0.0580557,0.007888863,28.625,29.9375,28.875,32.6875,35.125,36.25
0.020052064,-1.3314236,-0.3842661,-1.4885263,-0.021466015,0.09181252,-0.075837,-0.3893475,-0.3686768,0.059947573,-3.078639,0.6248132,4.957189e-06,-0.0046604504,0.005664078,-0.003575611,0.005385104,-0.009942941,0.009259438,0.50494426,-1.3815324,1.9041971,-2.0918658,-1.5708417,2.4798732,-0.0139585035,0.009799164,-0.0048901667,0.0063944045,9.8391996e-05,-0.023215216,-0.4405331,0.11492168,-9.5385,0.71279734,47.674347,-0.95217353,-2.87727,-3.3391285,-0.12574421,0.059751473,-0.0065220785,28.625,29.9375,28.875,32.6875,35.125,36.25
0.022052,-1.5727214,0.18662743,-1.5856451,0.018951757,0.07996001,-0.096455775,-0.38931346,-0.36867094,0.059907377,-3.0786,0.6247511,-0.00017574792,-0.005727906,0.0062438385,-0.0038976828,0.005892198,-0.010864785,0.0041930377,0.50494355,-1.3814837,1.90422,-2.0918171,-1.5708054,2.4798386,-0.015933974,0.0116449995,-0.006529113,0.0072408095,9.6879e-05,-0.02012342,-0.45968673,0.076614454,-9.615114,0.7172743,47.74062,-0.9155634,-2.8778038,-3.2990537,-0.12686452,0.050731353,-0.053721793,28.625,29.9375,28.875,32.6875,35.125,36.25
0.024051877,-1.4854373,0.7970872,-1.5843508,0.0044041877,0.086425655,-0.12437775,-0.38933274,-0.36865985,0.059912857,-3.0785928,0.62482834,-0.00016041799,-0.008128574,0.0061369645,-0.002598931,0.0039777267,-0.007416235,0.00023487925,0.50490683,-1.3814837,1.9042076,-2.0918176,-1.5708054,2.479851,-0.017998772,0.0118052615,-0.009392984,0.0060003097,9.5411764e-05,-0.018228726,-0.61291564,0.0,-9.634268,0.75084364,47.686886,-0.893409,-2.8523912,-3.3152862,-0.13910529,0.03847178,-0.077097535,28.625,29.9375,28.875,32.6875,35.125,36.25
0.026052497,-1.1568463,0.57955116,-1.6178308,-0.015928902,0.11622057,-0.1355447,-0.3893608,-0.3686469,0.059899513,-3.078582,0.6248446,-0.000174349,-0.009209728,0.005737308,-0.0026905795,0.0033858144,-0.0063571106,-0.0006860225,0.5048588,-1.3814349,1.9041833,-2.0918305,-1.5708054,2.4798145,-0.018336983,0.0135817025,-0.010961603,0.0045792675,9.39884e-05,-0.01764496,-0.7661445,0.0,-9.634268,0.71279734,47.68599,-0.9408312,-2.8758712,-3.365368,-0.08794933,0.038051087,-0.1126875,28.625,29.9375,28.875,32.6875,35.125,36.25
0.028052386,-1.7243675,0.1393577,-1.6751921,-0.03441058,0.12226726,-0.13797024,-0.38935503,-0.36862487,0.059876014,-3.0785158,0.62485135,-0.0002622048,-0.0100190025,0.005767239,-0.0027567674,0.003315163,-0.0061471662,-0.0021826283,0.50483453,-1.3813984,1.9041828,-2.0917828,-1.5708174,2.4798028,-0.019117918,0.014809887,-0.012219425,0.004391016,4.968382e-05,-0.016928488,-0.842759,-0.076614454,-9.768343,0.7597976,47.688675,-0.9938834,-2.915276,-3.393152,-0.06762517,0.028794056,-0.11491696,28.625,29.9375,28.875,32.6875,35.125,36.25
0.030052373,-2.588359,-0.60056245,-1.6533967,-0.03387265,0.11263947,-0.14076231,-0.3893759,-0.36859167,0.059859674,-3.0784616,0.6248608,-0.00029768512,-0.010370514,0.006308259,-0.00318907,0.0046124686,-0.008478355,-0.0037954636,0.5047743,-1.3813618,1.9041709,-2.091757,-1.5708417,2.4797554,-0.02035374,0.016627058,-0.013972884,0.0069948207,4.2682175e-05,-0.016550735,-0.8236054,0.038307227,-9.80665,0.7351769,47.686886,-1.0502844,-2.900812,-3.3650842,-0.104392454,0.018136743,-0.14788125,28.625,29.9375,28.875,32.6875,35.125,36.25
0.032052208,-2.0024087,-0.44719008,-1.5875401,-0.027871925,0.12118147,-0.15932381,-0.38941172,-0.36863914,0.059895936,-3.078561,0.624823,-0.00022048083,-0.010285014,0.006667161,-0.0031378097,0.005347464,-0.009763842,-0.0036311261,0.50479805,-1.3813379,1.9040626,-2.0917685,-1.5708054,2.479743,-0.020865548,0.01673043,-0.014686967,0.009086743,2.6011567e-05,-0.01722676,-0.7661445,-0.11492168,-9.959879,0.7329411,47.67614,-1.0417639,-2.825993,-3.4096649,-0.11880944,0.018085863,-0.16849619,28.625,29.9375,28.875,32.6875,35.125,36.25
0.03405219,-2.0558326,-0.12844971,-1.7176571,-0.014499992,0.10816535,-0.16905832,-0.38943267,-0.36857134,0.05985489,-3.078426,0.62487173,-0.00030128646,-0.011275666,0.0069240653,-0.0029727467,0.00498548,-0.009110925,-0.003593825,0.5047018,-1.3812776,1.9040741,-2.0917213,-1.5708655,2.4796944,-0.02222124,0.017308017,-0.015666796,0.008741183,2.0534375e-05,-0.018619217,-0.7852981,-0.038307227,-9.864111,0.8112748,47.694946,-1.0657849,-2.9375894,-3.3869336,-0.11433199,0.0077604624,-0.17387192,28.625,29.9375,28.875,32.6875,35.125,36.25
0.036051832,-1.5263455,-0.19577487,-1.8008884,-0.00067639205,0.10601338,-0.18373762,-0.38944215,-0.3685913,0.05985816,-3.0784745,0.6249014,-0.00034820734,-0.012883765,0.007340373,-0.0024318167,0.0039392216,-0.007191481,-0.0040211463,0.50468904,-1.3812535,1.9040383,-2.0917218,-1.5708054,2.479694,-0.024413377,0.017342968,-0.016662296,0.007516678,2.6154792e-06,-0.020383459,-0.7086837,-0.076614454,-9.768343,0.7351769,47.70838,-1.026614,-2.7639353,-3.4051929,-0.10527076,0.008304731,-0.18168509,28.625,29.9375,28.875,32.6875,35.125,36.25
0.038051732,-0.62340283,-0.7524933,-1.7407368,0.012173992,0.114804454,-0.18852161,-0.3894899,-0.36856118,0.05986876,-3.0784404,0.62493336,-0.00031026558,-0.014651204,0.0077314754,-0.001650012,0.0027536443,-0.0050531123,-0.004707003,0.5046163,-1.3812295,1.9039778,-2.091686,-1.5708417,2.4796455,-0.026720386,0.017225692,-0.018102078,0.0066277296,1.707721e-07,-0.022003943,-0.53630114,0.05746084,-9.710882,0.7329411,47.705692,-1.003514,-2.8281558,-3.3172145,-0.09265931,-0.00097125396,-0.19663689,28.625,29.9375,28.875,32.6875,35.125,36.25
0.040052608,-1.5931526,-0.25133625,-1.5335853,-0.018120727,0.073553525,-0.20572092,-0.38950816,-0.3685561,0.059839357,-3.078445,0.6249341,-0.0003901119,-0.015720028,0.0077686612,-0.0013735244,0.002526839,-0.004651639,-0.0050476217,0.50456804,-1.381157,1.9039644,-2.0917094,-1.5708054,2.479597,-0.0277816,0.018289264,-0.020095807,0.007097517,1.1150197e-08,-0.022723606,-0.4405331,0.076614454,-9.691729,0.6971306,47.70659,-0.9926301,-2.8150148,-3.3171287,-0.06995742,-0.01958862,-0.21955915,28.625,29.9375,28.875,32.6875,35.125,36.25
0.042052153,-0.8608291,-0.7715716,-1.5124251,-0.01355529,0.07739995,-0.21449712,-0.38954553,-0.36851352,0.059846368,-3.0783918,0.6250192,-0.00036711918,-0.016342878,0.007950105,-0.00085268414,0.0022756257,-0.004200103,-0.0049434938,0.50448406,-1.3811573,1.9039406,-2.0916736,-1.5708417,2.479573,-0.028667407,0.018077414,-0.021215193,0.007911076,7.280282e-10,-0.023713203,-0.38307226,0.1340753,-9.615114,0.75084364,47.701214,-0.97975266,-2.7129498,-3.3166482,-0.07590006,-0.028958008,-0.21621092,28.625,29.9375,28.875,32.6875,35.125,36.25
0.04405217,-0.8608291,-0.7715716,-1.5124251,-0.01355529,0.07739995,-0.21449712,-0.38954553,-0.36851352,0.059846368,-3.0783918,0.6250192,-0.00036711918,-0.016342878,0.007950105,-0.00085268414,0.0022756257,-0.004200103,-0.0049434938,0.50448406,-1.3811573,1.9039406,-2.0916736,-1.5708417,2.479573,-0.028667407,0.018077414,-0.021215193,0.007911076,7.280282e-10,-0.023713203,-0.38307226,0.1340753,-9.615114,0.75084364,47.701214,-0.97975266,-2.7129498,-3.3166482,-0.07590006,-0.028958008,-0.21621092,28.625,29.9375,28.875,32.6875,35.125,36.25
0.046052106,-0.8608291,-0.7715716,-1.5124251,-0.01355529,0.07739995,-0.21449712,-0.38954553,-0.36851352,0.059846368,-3.0783918,0.6250192,-0.00036711918,-0.016342878,0.007950105,-0.00085268414,0.0022756257,-0.004200103,-0.0049434938,0.50448406,-1.3811573,1.9039406,-2.0916736,-1.5708417,2.479573,-0.028667407,0.018077414,-0.021215193,0.007911076,7.280282e-10,-0.023713203,-0.38307226,0.1340753,-9.615114,0.75084364,47.701214,-0.97975266,-2.7129498,-3.3166482,-0.07590006,-0.028958008,-0.21621092,28.625,29.9375,28.875,32.6875,35.125,36.25
0.048052654,-0.7515828,-0.42526674,-1.6545173,-0.025212089,0.070722245,-0.23563527,-0.38961545,-0.36850488,0.05985808,-3.078413,0.62502193,-0.00029915315,-0.016864236,0.00867858,-0.001053421,0.002612186,-0.004808401,-0.004440728,0.5044116,-1.3810968,1.9038452,-2.0916855,-1.5708536,2.4794996,-0.030376693,0.018459082,-0.021300849,0.008309637,4.7535042e-11,-0.025925202,-0.24899697,0.038307227,-9.576807,0.7866488,47.73614,-0.9689574,-2.7419693,-3.3680193,-0.08479019,-0.018605266,-0.25098795,28.625,29.9375,28.875,32.6875,35.125,36.25
0.050051857,-0.015901882,-0.41853055,-1.4469923,-0.03104915,0.0775705,-0.21781059,-0.38964573,-0.3684827,0.059846595,-3.0783987,0.6250187,-0.00035421885,-0.018893631,0.009451594,-0.00047046677,0.0029395972,-0.003056007,-0.004235313,0.5043388,-1.3810487,1.903809,-2.0916612,-1.5708421,2.4794266,-0.032860506,0.019250648,-0.023592703,0.008438014,-0.0011406272,-0.028611226,-0.076614454,0.076614454,-9.557653,0.7284641,47.729877,-0.9544184,-2.6696992,-3.2948582,-0.084432006,-0.012880622,-0.22820117,28.625,29.9375,28.875,32.6875,35.125,36.25
0.052051652,0.41259483,-0.37998208,-1.4835666,-0.025631003,0.055101052,-0.18903174,-0.38972664,-0.36844957,0.05985633,-3.0783875,0.6250157,-0.0002883631,-0.02165047,0.010495294,0.00033932854,0.0031417331,-0.0005343957,-0.0032036698,0.50422996,-1.3809881,1.9037126,-2.0916498,-1.5708784,2.4793174,-0.036311712,0.020150874,-0.026471308,0.008309435,-0.0025439893,-0.03309015,-0.095768064,0.15322891,-9.653421,0.7709874,47.70659,-0.8330909,-2.682506,-3.2347705,-0.0694345,-0.018353673,-0.23615889,28.625,29.9375,28.875,32.6875,35.125,36.25
0.054052517,0.05141333,-0.40327498,-1.5112643,-0.03838722,0.030292792,-0.19281708,-0.38981962,-0.36840293,0.059850223,-3.0783567,0.6251818,-0.00034261306,-0.022803502,0.011184436,0.00014315803,0.0027478312,-0.001459074,-0.0033125263,0.5040494,-1.3808918,1.9036044,-2.0916135,-1.5708541,2.4792445,-0.039033435,0.021429501,-0.02765683,0.008832818,-0.0017561037,-0.03570382,0.15322891,0.11492168,-9.615114,0.76874626,47.70838,-0.77985585,-2.638122,-3.2889137,-0.06163658,-0.024086254,-0.25882322,28.625,29.9375,28.875,32.6875,35.125,36.25
0.056051902,0.23749007,-0.8658409,-1.2192268,-0.02820703,0.035660777,-0.19043219,-0.38990033,-0.36838025,0.059895374,-3.0783935,0.62509215,-0.00019369973,-0.023349984,0.0107833445,0.0007939934,0.0019219748,-0.00063201744,-0.0023680183,0.5039657,-1.3808918,1.9034961,-2.0915892,-1.5709018,2.4791002,-0.03906482,0.021419428,-0.029229397,0.009289186,-0.0014322121,-0.036679853,0.11492168,0.19153614,-9.442732,0.77545905,47.71554,-0.9505612,-2.6382108,-3.3687224,-0.04729313,-0.0106053725,-0.27101478,28.625,29.9375,28.875,32.6875,35.125,36.25
0.058051728,-0.20272993,-0.6752727,-1.4096053,-0.025641788,0.03171635,-0.1886564,-0.3899371,-0.3683679,0.059883997,-3.078387,0.6252258,-0.0002722004,-0.024852972,0.011391687,0.0010937328,0.0017383423,-0.0010799093,-0.0033401574,0.5038808,-1.3808312,1.9034475,-2.0915763,-1.5708541,2.4790995,-0.04172186,0.0226605,-0.031735394,0.010857671,-0.0010585979,-0.03836435,0.019153614,0.1340753,-9.3661175,0.83365434,47.705692,-0.85443234,-2.6726308,-3.2252886,-0.04582005,-0.047999308,-0.28667766,28.625,29.9375,28.875,32.6875,35.125,36.25
0.060051706,-0.35702506,-0.37785056,-1.3555588,-0.013948114,0.030967247,-0.18011129,-0.389968,-0.36833778,0.059868738,-3.0783544,0.62514144,-0.00033350266,-0.024901552,0.012129708,0.00065370876,0.0030068092,-0.003196398,-0.0033532882,0.5038086,-1.3807708,1.9033998,-2.0915277,-1.570866,2.4789789,-0.042952336,0.023597432,-0.03232193,0.012972752,-0.0011470321,-0.0395813,0.019153614,0.11492168,-9.404425,0.8247004,47.71823,-0.82066214,-2.6615891,-3.1930494,-0.04916399,-0.04288046,-0.2966191,28.625,29.9375,28.875,32.6875,35.125,36.25
0.062051743,-0.32931867,-0.15751408,-1.3010136,-0.01583206,0.033954192,-0.17313659,-0.39003778,-0.36832446,0.05988585,-3.078363,0.62516236,-0.00025182634,-0.025566306,0.012757046,0.0005971824,0.0035424265,-0.0033878875,-0.0037657728,0.50373626,-1.3807226,1.903304,-2.0915277,-1.5708903,2.4789186,-0.044388365,0.02410315,-0.032906517,0.013478015,-0.0015225839,-0.04060394,-0.076614454,0.17238252,-9.404425,0.7642693,47.73077,-0.83215165,-2.589791,-3.2029414,-0.06685242,-0.05461412,-0.32477635,28.625,29.9375,28.875,32.6875,35.125,36.25
0.06405164,-0.61712986,-0.55506796,-1.3469286,-0.017471077,0.036981322,-0.17580539,-0.39007935,-0.36830384,0.059885804,-3.0783942,0.6251092,-0.0003032204,-0.026247937,0.012949537,0.0006429333,0.0036165582,-0.003209627,-0.0012636483,0.5036401,-1.3806864,1.9032558,-2.0915039,-1.5708541,2.4787853,-0.045247767,0.02481931,-0.033892114,0.013628469,-0.0016775823,-0.04396466,-0.076614454,0.076614454,-9.385271,0.7418897,47.71465,-0.93990797,-2.5556355,-3.228207,-0.073474295,-0.054723345,-0.30573118,28.625,29.9375,28.875,32.6875,35.125,36.25
0.06605233,-0.4085054,-0.23075414,-1.1240637,-0.032169074,0.057021677,-0.18543358,-0.39015302,-0.3682848,0.05990155,-3.0784068,0.62520766,-0.00027326657,-0.02735851,0.013189816,0.0011350521,0.0031376341,-0.0021746603,-0.0010668095,0.5035319,-1.3806384,1.9031605,-2.091492,-1.5708421,2.4787369,-0.046629567,0.025005605,-0.03523853,0.013651415,-0.0017598718,-0.045542635,-0.076614454,0.019153614,-9.442732,0.80456203,47.728977,-0.8958051,-2.529905,-3.28475,-0.057694927,-0.06119758,-0.3269413,28.625,29.9375,28.875,32.6875,35.125,36.25
0.06805222,-0.70418304,-0.35280946,-1.2959713,-0.028001996,0.066299945,-0.17326635,-0.39018086,-0.36826167,0.05989628,-3.0783894,0.6251462,-0.00035638775,-0.028173089,0.013634378,0.001257795,0.0032901305,-0.0023672762,-0.0027407038,0.5034595,-1.3805901,1.903099,-2.0914195,-1.5708302,2.4786284,-0.04810739,0.025644507,-0.03646154,0.014478417,-0.0018041201,-0.045345865,-0.1340753,0.038307227,-9.308656,0.72622824,47.709274,-0.87025505,-2.552641,-3.250526,-0.07525416,-0.06319723,-0.32711822,28.625,29.9375,28.875,32.6875,35.125,36.25
0.070052095,-1.7519054,-0.609721,-1.2157243,-0.011277851,0.05257909,-0.16194932,-0.39021122,-0.36823323,0.059884027,-3.0783644,0.62508154,-0.00045553118,-0.028652066,0.01357717,0.0014658662,0.0030352592,-0.0022569685,0.0003518924,0.5033756,-1.3805298,1.9030393,-2.091348,-1.5708178,2.4785073,-0.048556857,0.026097696,-0.037571054,0.014914554,-0.0016407707,-0.048887644,-0.19153613,0.11492168,-9.289502,0.7284641,47.707485,-0.99089146,-2.5444343,-3.2123938,-0.1013463,-0.094908535,-0.3456425,28.625,29.9375,28.875,32.6875,35.125,36.25
0.07205204,-1.1484699,0.03382395,-1.0864315,-0.0137718795,0.07767119,-0.18161233,-0.39029938,-0.36820218,0.059910852,-3.078377,0.6250646,-0.00029403853,-0.030181333,0.014665952,0.0014474479,0.0027450942,-0.0023218289,0.00023215683,0.5032786,-1.3805054,1.9029549,-2.0913718,-1.5708779,2.4783983,-0.05198541,0.026842017,-0.038411636,0.014922956,-0.0013546553,-0.052196674,-0.2681506,0.095768064,-9.232041,0.7351769,47.696735,-0.83907104,-2.5209372,-3.2252114,-0.088672444,-0.09968797,-0.33366004,28.625,29.9375,28.875,32.6875,35.125,36.25
0.074052006,-0.8350947,-0.43631837,-1.0602617,0.009453811,0.09514914,-0.17417687,-0.39036244,-0.36818206,0.0599194,-3.0784068,0.6251242,-0.00027632585,-0.030404462,0.014072784,0.0015202599,0.002579737,-0.001940948,0.00609528,0.5031711,-1.3804692,1.9028953,-2.0913837,-1.5708541,2.4783242,-0.051162332,0.027795924,-0.039684936,0.014829411,-0.0013968098,-0.057236012,-0.38307226,0.038307227,-9.385271,0.7665104,47.70032,-0.81781137,-2.4803624,-3.2636092,-0.07698519,-0.09343915,-0.29050723,28.625,29.9375,28.875,32.6875,35.125,36.25
0.07605243,-0.37706524,-0.19227387,-1.0106385,0.003931807,0.11040685,-0.16936614,-0.3904081,-0.36815292,0.059908774,-3.0783896,0.625006,-0.0003220143,-0.03081916,0.014598856,0.0011725839,0.0031434775,-0.0026817666,0.00493639,0.5030869,-1.3803967,1.9028229,-2.0913355,-1.570866,2.4781685,-0.052342914,0.028656945,-0.039998032,0.0152020315,-0.0015363578,-0.057257153,-0.49799395,0.038307227,-9.308656,0.7709874,47.704796,-1.0139377,-2.5209248,-3.295999,-0.09927288,-0.10722138,-0.30271062,28.625,29.9375,28.875,32.6875,35.125,36.25
0.0780525,-0.97231543,-0.4479555,-1.1683185,0.0068131457,0.09948439,-0.16072427,-0.39050177,-0.36810294,0.05989721,-3.0783415,0.6250704,-0.00032738512,-0.03230935,0.014987036,0.0014037297,0.0029809275,-0.0017399029,0.006815249,0.50293064,-1.3802882,1.9027156,-2.0913117,-1.5708903,2.4780586,-0.054175697,0.02973871,-0.041753836,0.014971325,-0.001855931,-0.060967244,-0.45968673,-0.05746084,-9.3661175,0.78217715,47.701214,-0.9787407,-2.56292,-3.272449,-0.09486756,-0.108293235,-0.28403345,28.625,29.9375,28.875,32.6875,35.125,36.25
0.08005237,-0.6031655,-0.02471138,-1.2384062,-0.0066525512,0.10775187,-0.16631173,-0.39053833,-0.36809307,0.05989942,-3.0783687,0.62499887,-0.00039155976,-0.033812366,0.016239872,0.0015040629,0.0035722996,-0.0015053474,0.008109446,0.5028576,-1.38024,1.9026426,-2.091264,-1.5708545,2.4779375,-0.05728276,0.030301576,-0.04277051,0.015508304,-0.0024917591,-0.06536679,-0.4213795,-0.038307227,-9.404425,0.7620334,47.68599,-0.88230073,-2.529802,-3.2659955,-0.1048003,-0.12469216,-0.25401002,28.625,29.9375,28.875,32.6875,35.125,36.25
0.08205184,-1.2206987,-0.33584976,-1.3415531,-0.0031179395,0.09316887,-0.16509917,-0.39059648,-0.36805257,0.059893012,-3.07834,0.62489307,-0.00042474022,-0.03397137,0.01582903,0.0016089368,0.0040235436,-0.0009684873,0.012858625,0.50275016,-1.3801677,1.9025582,-2.091204,-1.5708784,2.4777677,-0.05632087,0.031037552,-0.04391692,0.01566566,-0.0031533593,-0.06915209,-0.47884035,-0.095768064,-9.461885,0.7620334,47.687782,-0.89180684,-2.473032,-3.1917,-0.116688125,-0.14412837,-0.1841539,28.625,29.9375,28.875,32.6875,35.125,36.25
0.0840517,-1.1714629,0.08984625,-1.2050061,-0.01647362,0.097939916,-0.1696195,-0.39067835,-0.36801937,0.059904285,-3.0783617,0.6248963,-0.000383646,-0.034152564,0.01655927,0.0010683165,0.0057951617,-0.0016073553,0.015515925,0.5026183,-1.3801194,1.9024752,-2.0912035,-1.5708789,2.4776351,-0.05693413,0.031936623,-0.04385387,0.01612037,-0.0043964847,-0.07242027,-0.45968673,0.038307227,-9.404425,0.7463667,47.681515,-1.0714194,-2.5156717,-3.216385,-0.13057804,-0.11134611,-0.17114756,28.625,29.9375,28.875,32.6875,35.125,36.25
0.086052045,-1.2161058,-0.22568703,-1.3217679,-0.0080756685,0.09995569,-0.17504571,-0.39070773,-0.36797097,0.05987502,-3.0783005,0.62484455,-0.00051293446,-0.035574615,0.01745107,0.00062237494,0.006479339,-0.0012986565,0.015899943,0.5025098,-1.3800468,1.90244,-2.0911324,-1.5708793,2.477502,-0.05928103,0.03361136,-0.044632524,0.015285053,-0.005158304,-0.075148486,-0.38307226,-0.05746084,-9.3661175,0.7351769,47.682407,-0.95561945,-2.5444686,-3.3207078,-0.1522075,-0.1114889,-0.13492455,28.625,29.9375,28.875,32.6875,35.125,36.25
0.088051975,-1.3704948,-0.14438178,-1.4230897,-0.012966549,0.08403472,-0.17525798,-0.39083534,-0.3679541,0.05992548,-3.0783546,0.6248349,-0.00035977515,-0.037426203,0.017314885,0.0011285628,0.006650473,0.00067034556,0.016981421,0.5023778,-1.379986,1.9022478,-2.0911086,-1.5709037,2.4773574,-0.060074363,0.035456486,-0.047923736,0.015089003,-0.0062573934,-0.077020064,-0.34476504,-0.019153614,-9.385271,0.75755644,47.666286,-1.0098748,-2.5337038,-3.1960206,-0.13492891,-0.11063588,-0.09612472,28.625,29.9375,28.875,32.6875,35.125,36.25
0.09005214,-0.9777051,-0.24221943,-1.3658955,-0.013218034,0.08614296,-0.16682026,-0.39091104,-0.36790374,0.059914757,-3.0783238,0.6248089,-0.00033553323,-0.03823755,0.018334541,0.0010834724,0.008691962,0.0020476654,0.016785739,0.5022458,-1.3799138,1.9021868,-2.0911086,-1.5709409,2.4772131,-0.061005317,0.03559583,-0.047901012,0.014707637,-0.008712217,-0.077750415,-0.4213795,0.076614454,-9.404425,0.7642693,47.64389,-1.0395036,-2.5534585,-3.2148879,-0.15095402,-0.08144977,-0.07339303,28.625,29.9375,28.875,32.6875,35.125,36.25
0.09205278,-0.5709582,-0.28944984,-1.3531233,-0.011006764,0.08731612,-0.1677611,-0.39101413,-0.3678705,0.059944525,-3.078363,0.6247588,-0.00025359067,-0.03840597,0.019546844,0.00029499657,0.011347362,0.001525204,0.016026653,0.5021017,-1.3798656,1.9020566,-2.0910847,-1.5709532,2.477033,-0.061898828,0.03638553,-0.047068425,0.01482667,-0.010782228,-0.07788164,-0.28730422,0.076614454,-9.385271,0.73741806,47.634937,-1.0831511,-2.585142,-3.3521996,-0.1672095,-0.039404657,-0.068444274,28.625,29.9375,28.875,32.6875,35.125,36.25
0.094051845,-0.46661797,-0.45210582,-1.4973582,-0.0046041817,0.07866722,-0.1680173,-0.39107162,-0.3678337,0.059902493,-3.0783277,0.6246552,-0.00032729382,-0.03971065,0.019613441,0.0005715209,0.011410946,0.0026513645,0.014720815,0.5019937,-1.3797332,1.9019955,-2.0910847,-1.5709652,2.4768648,-0.06283779,0.037621923,-0.049136672,0.014702153,-0.011390474,-0.07751176,-0.21068975,0.076614454,-9.423578,0.78217715,47.66539,-1.1120868,-2.5608315,-3.3009307,-0.16486293,-0.047613803,-0.075500086,28.625,29.9375,28.875,32.6875,35.125,36.25
0.09605236,-0.2298475,-0.50427556,-1.3638773,-0.012518961,0.07546058,-0.16977002,-0.39113906,-0.3678023,0.05991476,-3.0783222,0.6246363,-0.00031587863,-0.041241787,0.019086149,0.0012161004,0.009725478,0.0032637578,0.011967649,0.50188553,-1.3796846,1.9018992,-2.0910366,-1.5709771,2.4767456,-0.064098984,0.039130293,-0.052504502,0.01520785,-0.010213252,-0.07602055,-0.095768064,0.17238252,-9.32781,0.800085,47.701214,-1.1502645,-2.55685,-3.220748,-0.1627267,-0.020845525,-0.06078048,28.625,29.9375,28.875,32.6875,35.125,36.25
0.098052256,-0.3319693,-0.7752288,-1.4729371,-0.023426542,0.052828036,-0.16939126,-0.39123654,-0.36774775,0.05992171,-3.078297,0.62459314,-0.00032162433,-0.041342665,0.018387262,0.0012766015,0.007833044,0.0021711192,0.010187116,0.5017177,-1.3796,1.9017671,-2.0909646,-1.5710005,2.4765542,-0.06436377,0.039934304,-0.05369228,0.015628451,-0.008031514,-0.074508354,-0.11492168,0.17238252,-9.385271,0.7642693,47.744205,-1.2175757,-2.670015,-3.1178703,-0.18716592,-0.026948549,-0.108028576,28.625,29.9375,28.875,32.6875,35.125,36.25
0.10005247,-0.18657425,-1.2293323,-1.7453456,-0.030347472,0.042691514,-0.170856,-0.39132047,-0.36770257,0.05992347,-3.0782661,0.624607,-0.0002883538,-0.040708352,0.01911713,0.0001276574,0.0074082497,-0.0017883402,0.006533885,0.50158536,-1.3795279,1.9016722,-2.0909402,-1.5710353,2.4764345,-0.06641526,0.040702283,-0.05221981,0.01664403,-0.00574919,-0.07291174,-0.076614454,0.24899697,-9.404425,0.7732232,47.759426,-1.1858144,-2.4394958,-3.2635944,-0.19145985,-0.052090675,-0.11152311,28.625,29.9375,28.875,32.6875,35.125,36.25
0.10205237,-0.05187927,-1.0021347,-1.89331,-0.053170588,0.034729727,-0.1804608,-0.39140424,-0.36765623,0.05990941,-3.0782626,0.6245492,-0.00031784823,-0.041924432,0.018896447,0.0008937753,0.0059801484,-0.0012405559,0.0037853369,0.50142926,-1.3794315,1.9015874,-2.0909278,-1.5710348,2.4762428,-0.06777423,0.041225098,-0.05478295,0.017513564,-0.004765535,-0.07152299,-0.095768064,0.24899697,-9.461885,0.83365434,47.713753,-1.1791961,-2.5706854,-3.2922864,-0.2164672,-0.09088296,-0.16376594,28.625,29.9375,28.875,32.6875,35.125,36.25
0.10405209,0.007166722,-1.1862303,-1.6616364,-0.050075457,0.037911534,-0.16337436,-0.39149767,-0.36763516,0.059927456,-3.0782733,0.6246671,-0.00034106197,-0.04296147,0.019335406,0.00049069297,0.006705585,-0.001097701,0.0019153454,0.501285,-1.379347,1.9014329,-2.0908687,-1.5709995,2.4761708,-0.069020726,0.043009385,-0.055874966,0.017049275,-0.0054733073,-0.070897356,0.0,0.30645782,-9.442732,0.7284641,47.73256,-1.2013999,-2.6217294,-3.2474275,-0.22605407,-0.09214452,-0.19267839,28.625,29.9375,28.875,32.6875,35.125,36.25
0.106051594,0.10458489,-1.0584966,-1.6480291,-0.04850829,0.04983037,-0.17587073,-0.3915318,-0.36758336,0.059899963,-3.0782044,0.6245582,-0.00042007313,-0.044207588,0.020087276,0.000884885,0.0065654446,-0.0006162027,-0.00088021066,0.50118846,-1.3792746,1.9013962,-2.0908082,-1.5710353,2.476015,-0.07136545,0.0431437,-0.057060212,0.017608115,-0.0055899555,-0.07044532,0.019153614,0.2681506,-9.385271,0.75084364,47.69763,-1.1224551,-2.5603833,-3.2666514,-0.24593917,-0.07393651,-0.22609891,28.625,29.9375,28.875,32.6875,35.125,36.25
0.10805245,-0.7200679,-0.73758155,-1.7845652,-0.04727045,0.038493328,-0.17170067,-0.3916423,-0.36754248,0.05991309,-3.0782058,0.6245759,-0.00035151184,-0.044922575,0.020347796,0.0008243157,0.0067688245,-0.00010086187,0.0009971133,0.50103253,-1.3791904,1.9012641,-2.0907967,-1.5710601,2.4758701,-0.07218425,0.043871492,-0.05768213,0.017145948,-0.0060179248,-0.07314035,0.11492168,0.22984336,-9.404425,0.7933669,47.72002,-1.2121614,-2.5716157,-3.3002284,-0.2309124,-0.061131127,-0.24452713,28.625,29.9375,28.875,32.6875,35.125,36.25
0.110052384,-0.682646,-0.711407,-1.6673039,-0.03663108,0.040876564,-0.17400323,-0.39175037,-0.3675121,0.0599245,-3.0782192,0.62457925,-0.0002988393,-0.04584667,0.020632396,0.00017639683,0.006826942,-0.0010351307,-0.0020224124,0.5008883,-1.3790934,1.9011205,-2.0907848,-1.5710715,2.4757264,-0.07375224,0.046173736,-0.05887758,0.016883975,-0.005620612,-0.071688965,0.076614454,0.22984336,-9.481039,0.8403672,47.70032,-1.1860399,-2.6479557,-3.2738073,-0.24716386,-0.07542535,-0.2839825,28.625,29.9375,28.875,32.6875,35.125,36.25
0.11205244,-1.1207894,-0.6319255,-1.6866812,-0.04059027,0.03646937,-0.16235286,-0.39183357,-0.3674752,0.059929345,-3.0781984,0.624518,-0.00033052987,-0.046559226,0.020497976,0.0007977008,0.0061967066,0.000109311826,-0.0030160546,0.50075644,-1.3789976,1.900977,-2.0907009,-1.5710834,2.475559,-0.07417203,0.046026304,-0.06014484,0.016990827,-0.005622513,-0.071114436,-0.038307227,0.30645782,-9.423578,0.8157518,47.685097,-1.2799981,-2.6464427,-3.2208009,-0.2398859,-0.08623968,-0.32822365,28.625,29.9375,28.875,32.6875,35.125,36.25
0.11405243,-0.44034374,-0.24882098,-1.5818698,-0.048392992,0.052966885,-0.1667055,-0.39194947,-0.36745054,0.059935745,-3.078227,0.62454003,-0.00029921293,-0.047508284,0.021243315,0.0016870244,0.006433257,0.0016738063,-0.001127327,0.50060034,-1.3788779,1.9008206,-2.0907004,-1.571072,2.475413,-0.07568879,0.04479373,-0.0608734,0.017695203,-0.00658067,-0.07451816,-0.11492168,0.22984336,-9.385271,0.7933669,47.692257,-1.2418358,-2.437171,-3.2612271,-0.26481342,-0.07158119,-0.34089506,28.625,29.9375,28.875,32.6875,35.125,36.25
0.11605249,-0.90596104,-0.48499218,-1.7410804,-0.029281633,0.048790257,-0.16284995,-0.39205426,-0.36739677,0.05993129,-3.0782092,0.62457734,-0.00028882688,-0.04799845,0.02186336,0.00085439195,0.00843012,0.00034873377,-0.0053329826,0.50042045,-1.378781,1.9007133,-2.0906885,-1.5710844,2.4752588,-0.076476276,0.04712039,-0.06193042,0.018549584,-0.007695708,-0.07109701,-0.1340753,0.1340753,-9.423578,0.7620334,47.694054,-1.3925798,-2.529458,-3.2482395,-0.2839325,-0.04932869,-0.3964318,28.625,29.9375,28.875,32.6875,35.125,36.25
0.1180525,-0.8971597,-0.2775746,-1.5110205,-0.022676162,0.062985376,-0.16355765,-0.39212772,-0.36737248,0.05993532,-3.0782125,0.6245206,-0.00030415552,-0.049376827,0.023175929,0.00035472578,0.009630619,-5.3010983e-05,-0.0069769723,0.5003115,-1.3786964,1.9005932,-2.0906403,-1.5710844,2.475114,-0.079411834,0.04868317,-0.06267161,0.018658234,-0.008559764,-0.07238618,-0.19153613,0.095768064,-9.385271,0.7933669,47.711063,-1.1426542,-2.5794034,-3.2784362,-0.27332544,-0.04847955,-0.4460768,28.625,29.9375,28.875,32.6875,35.125,36.25
0.12005238,-0.6069952,-0.24788213,-1.4207559,-0.011418422,0.07808532,-0.1741717,-0.39221972,-0.36733532,0.0599403,-3.078222,0.62451893,-0.00031704805,-0.0496583,0.022339245,0.0002763842,0.009122511,0.00014573346,-0.0020855586,0.50015634,-1.3786117,1.9004735,-2.090605,-1.5710725,2.4749568,-0.078462854,0.050223567,-0.06423006,0.018255057,-0.008216577,-0.07632841,-0.1340753,0.038307227,-9.385271,0.7418897,47.691364,-1.4518065,-2.618989,-3.3017383,-0.27192402,-0.044881534,-0.46643624,28.625,29.9375,28.875,32.6875,35.125,36.25
0.12205217,-0.31904256,-0.41393238,-1.2284504,0.00088374823,0.09557482,-0.16224726,-0.3923239,-0.36727643,0.059924677,-3.0781848,0.6244529,-0.0003520016,-0.051269196,0.023516197,0.0015097648,0.0077090664,0.0014846688,-0.0023518677,0.49997556,-1.3784802,1.9003423,-2.0905564,-1.5710963,2.4747396,-0.08228391,0.04836658,-0.0650225,0.019044979,-0.0076246457,-0.07988407,-0.22984336,0.076614454,-9.385271,0.8112748,47.687782,-1.4023709,-2.5988202,-3.319469,-0.28410846,-0.049271487,-0.46602777,28.625,29.9375,28.875,32.6875,35.125,36.25
0.124052,-0.87326115,-0.3670023,-1.4936503,0.005637472,0.08748217,-0.15992309,-0.39245322,-0.3672366,0.059954863,-3.0782125,0.6245098,-0.00025347568,-0.051493213,0.022923315,0.0016240204,0.0071948045,0.00166413,0.00632751,0.4997961,-1.378408,1.9001855,-2.0905445,-1.5711077,2.4745922,-0.081697404,0.049213447,-0.06629075,0.019055532,-0.00726113,-0.087977596,-0.24899697,-0.076614454,-9.385271,0.7732232,47.68062,-1.3502381,-2.4340641,-3.2657878,-0.29537165,-0.056899577,-0.45152175,28.625,29.9375,28.875,32.6875,35.125,36.25
0.12605226,-0.5628029,0.34963822,-1.3583701,-0.0035750065,0.09479099,-0.17353688,-0.3925249,-0.36718482,0.05992386,-3.0781732,0.62451947,-0.0003802064,-0.052398503,0.023031842,0.0013529093,0.0065585957,0.00055260625,0.008615393,0.49962774,-1.3782871,1.900102,-2.0904968,-1.5710839,2.4744349,-0.0833758,0.05106315,-0.06798733,0.019568678,-0.0061830254,-0.09194462,-0.28730422,-0.095768064,-9.308656,0.73069996,47.723602,-1.4040222,-2.5154488,-3.2901316,-0.31612486,-0.078447014,-0.40552884,28.625,29.9375,28.875,32.6875,35.125,36.25
0.12805223,-1.1163208,-0.15320608,-1.4465857,0.00071141013,0.082676105,-0.15430415,-0.39262995,-0.36714366,0.059924997,-3.0781586,0.6244153,-0.0003593261,-0.053710442,0.022948584,0.0020495453,0.004956247,0.0014250373,0.015023325,0.49948356,-1.3781668,1.8999461,-2.0904486,-1.5711197,2.4742277,-0.085038565,0.051414452,-0.0700271,0.019712705,-0.005205192,-0.100016475,-0.40222588,0.019153614,-9.3661175,0.77545905,47.67166,-1.441956,-2.5079854,-3.3005342,-0.3115183,-0.08959831,-0.36101508,28.625,29.9375,28.875,32.6875,35.125,36.25
0.13005237,-0.06472137,0.03280702,-1.4119787,-0.00020497039,0.10499006,-0.1628852,-0.39274582,-0.3670951,0.059948295,-3.0781968,0.62443954,-0.0003406091,-0.05484775,0.023087481,0.0023397792,0.0047087735,0.0022986198,0.019915702,0.49927965,-1.3781065,1.8998135,-2.0904129,-1.5710953,2.474034,-0.08617296,0.052243695,-0.071651764,0.019622497,-0.0054102456,-0.10604222,-0.40222588,-0.019153614,-9.346964,0.7911258,47.684196,-1.3876358,-2.4930816,-3.0983438,-0.31985188,-0.097669154,-0.27223235,28.625,29.9375,28.875,32.6875,35.125,36.25
0.13205217,-1.5924014,-0.115378655,-1.8160362,-0.0013702954,0.07614861,-0.17012323,-0.3928385,-0.36702737,0.059913017,-3.078129,0.6242706,-0.0004092157,-0.056356266,0.02535394,0.0014849069,0.0061910157,0.0010749627,0.020143,0.49911025,-1.37795,1.8996948,-2.0903528,-1.571144,2.473768,-0.090911195,0.05348792,-0.07120874,0.019713541,-0.0061387424,-0.11100565,-0.47884035,-0.05746084,-9.442732,0.80456203,47.684196,-1.3118176,-2.5365002,-3.2920947,-0.33713502,-0.089272216,-0.24080491,28.625,29.9375,28.875,32.6875,35.125,36.25
0.13405196,-0.82168365,0.26038635,-1.606707,-0.020440254,0.112670004,-0.16635224,-0.39293534,-0.3669927,0.05991746,-3.0781577,0.6241774,-0.00042132783,-0.05760537,0.024435619,0.0020903307,0.0067018876,0.0033568826,0.025386984,0.49895504,-1.377853,1.8995618,-2.090317,-1.5711321,2.473551,-0.089534186,0.055447377,-0.07490879,0.019699328,-0.007690398,-0.11486745,-0.57460845,-0.076614454,-9.442732,0.7709874,47.675243,-1.4346031,-2.4711597,-3.2071753,-0.32373554,-0.0774593,-0.17518784,28.625,29.9375,28.875,32.6875,35.125,36.25
0.13605225,-1.5614169,-0.88445425,-1.7331161,0.00012737763,0.11150355,-0.15052727,-0.39305836,-0.36695442,0.05994865,-3.0782313,0.6240581,-0.00038995553,-0.059268743,0.02619364,0.002053411,0.0072464244,0.0030357717,0.022369057,0.49876222,-1.377781,1.8993944,-2.0902684,-1.5711082,2.4732745,-0.09380322,0.055926,-0.07555632,0.020412691,-0.008010278,-0.11611797,-0.6512229,0.0,-9.461885,0.842603,47.670765,-1.4221988,-2.613925,-3.0913177,-0.3398041,-0.07885015,-0.14384845,28.625,29.9375,28.875,32.6875,35.125,36.25
0.13805188,-1.041606,-0.8100657,-1.8799695,-0.0050003333,0.13475126,-0.15578765,-0.39319378,-0.3668898,0.05994364,-3.0781841,0.6240672,-0.00035657347,-0.05909011,0.026514806,0.0020487283,0.0076974146,0.002759605,0.020235462,0.49855846,-1.3776369,1.899227,-2.0902326,-1.5711564,2.4730825,-0.093989305,0.0554927,-0.07514716,0.020889722,-0.008272585,-0.1141701,-0.6512228,-0.05746084,-9.557653,0.8940802,47.694946,-1.2310418,-2.3384857,-3.2961967,-0.36036116,-0.07311608,-0.15541479,28.625,29.9375,28.875,32.6875,35.125,36.25
0.14005168,-1.7576998,-0.7363444,-1.9165428,-0.021221528,0.114321314,-0.15294501,-0.3933093,-0.36682975,0.05993952,-3.0781574,0.6240273,-0.00036169964,-0.060806554,0.027415821,0.002519294,0.007683392,0.0038312331,0.013356055,0.498366,-1.3775167,1.899083,-2.0901845,-1.5711807,2.4728687,-0.09675185,0.055905674,-0.07677277,0.021153884,-0.008775556,-0.11005126,-0.6895301,0.019153614,-9.576807,0.8224646,47.682407,-1.376319,-2.4276752,-3.222477,-0.36653328,-0.07378025,-0.17743082,28.625,29.9375,28.875,32.6875,35.125,36.25
0.14205246,-1.6307641,-0.71354955,-1.7416993,-0.042032663,0.11901158,-0.15746236,-0.39344418,-0.3668005,0.05996391,-3.0782099,0.6240036,-0.0003058919,-0.06267599,0.028998012,0.0010574075,0.008674399,0.0014475345,0.0044088797,0.4981847,-1.3774072,1.8988923,-2.0901606,-1.5711683,2.472666,-0.101281,0.05981489,-0.07807732,0.021117607,-0.008500929,-0.105633184,-0.7661445,0.038307227,-9.576807,0.784413,47.674347,-1.24565,-2.5469728,-3.1652374,-0.3784721,-0.073349275,-0.24305055,28.625,29.9375,28.875,32.6875,35.125,36.25
0.14405233,-1.9148853,-0.8981319,-1.8820957,-0.037310813,0.10748666,-0.15277062,-0.39355597,-0.36671546,0.05994441,-3.0781476,0.62393415,-0.0003285995,-0.063848875,0.029221132,0.001986615,0.006785829,0.0033917339,0.0003450264,0.49796852,-1.3772875,1.898784,-2.090113,-1.5712165,2.4724145,-0.10316198,0.058631442,-0.07858587,0.020191059,-0.00777893,-0.1034513,-0.8619126,0.095768064,-9.557653,0.8179876,47.670765,-1.1209047,-2.498346,-3.198438,-0.3692853,-0.067184985,-0.29040128,28.625,29.9375,28.875,32.6875,35.125,36.25
0.14605193,-1.4780948,-0.9623184,-2.1824887,-0.021821972,0.107827775,-0.15565948,-0.39370313,-0.3666637,0.059966017,-3.0781424,0.6239719,-0.00020783569,-0.06588282,0.030028647,0.0025885098,0.0056940494,0.004953822,-0.0025065166,0.49777582,-1.3771795,1.8986043,-2.0901015,-1.5712646,2.4722462,-0.106494986,0.058874283,-0.08010748,0.01956854,-0.0075643724,-0.103932984,-0.3256114,0.038307227,-9.595961,0.8112748,47.685097,-1.0333091,-2.3440452,-3.254016,-0.36277965,-0.09629319,-0.30910814,28.625,29.9375,28.875,32.6875,35.125,36.25
0.14805186,-1.836988,-0.8765708,-1.787565,-0.015868228,0.096212335,-0.15319625,-0.39382824,-0.36657792,0.059957776,-3.0780845,0.62401783,-0.0002699301,-0.06693786,0.030748552,0.0019278767,0.0057685594,0.003820957,-0.0036972044,0.49752343,-1.3770585,1.8984607,-2.090018,-1.5712761,2.47203,-0.10894005,0.060864612,-0.08094142,0.019437762,-0.0070981076,-0.105187275,-0.6512228,0.019153614,-9.5385,0.7329411,47.701214,-0.95922464,-2.4200835,-3.259871,-0.3526859,-0.0640486,-0.33012423,28.625,29.9375,28.875,32.6875,35.125,36.25
0.1500516,-1.1238779,-0.43720633,-1.864026,-0.0134002045,0.10991594,-0.15849103,-0.39397648,-0.36654148,0.05995439,-3.0781395,0.62400913,-0.00029112102,-0.0677177,0.031040665,0.0022304014,0.0053933226,0.004850359,-0.0053358614,0.49729574,-1.3768904,1.898269,-2.090018,-1.5712279,2.4717898,-0.11001209,0.060756784,-0.08139409,0.018918967,-0.007258622,-0.104620285,-0.7661445,-0.11492168,-9.500193,0.8224646,47.713753,-0.94601184,-2.4651988,-3.2280855,-0.35940495,-0.10235693,-0.35639405,28.625,29.9375,28.875,32.6875,35.125,36.25
0.15205252,-1.6001941,-0.74796224,-1.8321778,0.0045650466,0.103025585,-0.15227629,-0.39408845,-0.3664868,0.059947997,-3.0781069,0.62396216,-0.0003108666,-0.069777474,0.030739328,0.0032370926,0.0038351596,0.0070619886,-0.004144575,0.49711555,-1.376758,1.8981131,-2.0899584,-1.5712517,2.4715846,-0.11155967,0.06174612,-0.08480334,0.018645508,-0.006957268,-0.10735802,-0.61291564,-0.11492168,-9.519346,0.7709874,47.67793,-0.90691525,-2.3959296,-3.12642,-0.34431297,-0.09879172,-0.37159157,28.625,29.9375,28.875,32.6875,35.125,36.25
0.15405229,-1.0321736,-0.10024536,-1.8701226,-0.0012503903,0.1140326,-0.16274585,-0.39426103,-0.36641088,0.059982218,-3.078098,0.62405694,-0.00020438855,-0.069386326,0.031457193,0.002156734,0.005361086,0.005087672,-0.0049797473,0.49685174,-1.3766615,1.89791,-2.0899103,-1.571288,2.4713812,-0.11212655,0.06289377,-0.08377452,0.018927943,-0.007347087,-0.10708958,-0.36391866,-0.076614454,-9.500193,0.8112748,47.71823,-0.96374846,-2.3688412,-3.3017874,-0.32930103,-0.10609557,-0.4231497,28.625,29.9375,28.875,32.6875,35.125,36.25
0.15605237,-0.913471,-0.27468657,-1.7126571,0.0020435252,0.11162635,-0.16267172,-0.39438745,-0.36634007,0.059953913,-3.0780683,0.6240449,-0.00023456092,-0.0715721,0.030876659,0.0038336597,0.0035887158,0.0088170115,0.001176865,0.4966241,-1.3765054,1.8977894,-2.0899107,-1.5713004,2.47115,-0.1129784,0.06295681,-0.08758809,0.01854894,-0.007583086,-0.11409573,-0.28730422,-0.038307227,-9.423578,0.83589023,47.71554,-0.9952642,-2.2994108,-3.2258148,-0.33491623,-0.108922005,-0.38360968,28.625,29.9375,28.875,32.6875,35.125,36.25
0.15805224,-0.99362624,-0.37034354,-1.795876,0.0087092575,0.08448484,-0.17105624,-0.3945326,-0.36628386,0.05997243,-3.078083,0.6240835,-0.00019381949,-0.071686886,0.031596866,0.002981586,0.004840102,0.007870502,0.004785721,0.4963963,-1.3763967,1.8976101,-2.0898745,-1.5713004,2.4709444,-0.11385844,0.06408439,-0.08690558,0.018165167,-0.0082297325,-0.11858358,-0.21068975,-0.1340753,-9.3661175,0.76874626,47.72002,-1.0139577,-2.4280849,-3.1077409,-0.3171883,-0.11211324,-0.35451338,28.625,29.9375,28.875,32.6875,35.125,36.25
0.16005208,-0.26009226,-0.25822592,-1.8009924,0.0012238486,0.06900968,-0.16439922,-0.39469904,-0.3662122,0.059987005,-3.07806,0.6239974,-9.3889124e-05,-0.07375057,0.032379888,0.0035333917,0.004020317,0.009141252,0.009772371,0.4961677,-1.3762524,1.897395,-2.0898268,-1.5713724,2.4706652,-0.11709785,0.0647299,-0.08889304,0.017983116,-0.008119926,-0.12680918,-0.2681506,-0.1340753,-9.423578,0.7866488,47.68062,-1.0766617,-2.376792,-3.2656188,-0.28966627,-0.07744777,-0.2931619,28.625,29.9375,28.875,32.6875,35.125,36.25
0.16205212,-0.26573852,-0.5959872,-1.7085859,0.001216438,0.054814223,-0.16114789,-0.39484218,-0.3661412,0.059977885,-3.0780535,0.6239882,-0.000108856526,-0.07311577,0.031384416,0.0033401211,0.0048933555,0.009195102,0.021088468,0.4959172,-1.376108,1.8972391,-2.089803,-1.5713729,2.4704099,-0.114307195,0.065831915,-0.08980935,0.018160721,-0.00892056,-0.13533233,-0.1340753,-0.019153614,-9.346964,0.7620334,47.704796,-1.1362962,-2.354635,-3.1662862,-0.28487584,-0.10983723,-0.19706932,28.625,29.9375,28.875,32.6875,35.125,36.25
0.16405207,0.12595892,-0.45323023,-1.7150093,-0.0086678965,0.04968753,-0.16376519,-0.39496976,-0.36610708,0.059994485,-3.078103,0.6238653,-9.382631e-05,-0.075553,0.03391477,0.003197886,0.0057965424,0.008971326,0.01794045,0.49573547,-1.3759875,1.8970474,-2.0897548,-1.571361,2.4701452,-0.12033919,0.06667205,-0.09062548,0.018763889,-0.009606605,-0.13821469,-0.05746084,0.05746084,-9.32781,0.8157518,47.72002,-0.9616209,-2.347319,-3.1909475,-0.28072912,-0.06684068,-0.12353887,28.625,29.9375,28.875,32.6875,35.125,36.25
0.1660522,-0.31284973,-0.65005773,-1.9477421,-0.01508493,0.038141,-0.16484524,-0.39514118,-0.36600962,0.059990473,-3.0780802,0.623838,-5.9724716e-05,-0.07536696,0.03346584,0.0033319762,0.0058672084,0.008788851,0.020992076,0.49543664,-1.3758434,1.89688,-2.0897305,-1.5713967,2.4698324,-0.119385235,0.067038395,-0.09153969,0.019496646,-0.00958222,-0.14031208,-0.019153614,0.1340753,-9.308656,0.8112748,47.686886,-1.0368918,-2.2270417,-3.2449389,-0.27228624,-0.08219172,-0.10732809,28.625,29.9375,28.875,32.6875,35.125,36.25
0.16805206,0.06542796,-0.85269415,-1.8078285,-0.024337064,0.05516197,-0.16440111,-0.39529422,-0.36593255,0.059999857,-3.078024,0.6238478,-4.2728167e-05,-0.07589021,0.03383942,0.0026372152,0.006460834,0.0074768024,0.015832713,0.49519673,-1.3756984,1.896665,-2.0896347,-1.5714449,2.469606,-0.12051798,0.06903927,-0.09241023,0.019796487,-0.009482028,-0.13628481,0.076614454,0.1340753,-9.423578,0.7620334,47.64389,-1.0529077,-2.3265462,-3.3066952,-0.27172616,-0.06569784,-0.0981543,28.625,29.9375,28.875,32.6875,35.125,36.25
0.17005189,0.23181382,-0.4748185,-1.5399424,-0.04139528,0.06505925,-0.16773589,-0.3954362,-0.36590207,0.060002342,-3.0780947,0.6237492,-3.800937e-05,-0.07630438,0.03376222,0.0028877975,0.006196943,0.0075637656,0.010722166,0.49499327,-1.3755422,1.8964738,-2.0896342,-1.5714091,2.469332,-0.12085105,0.06940771,-0.093560115,0.020381734,-0.009283918,-0.13150764,0.0,0.19153613,-9.32781,0.7150385,47.703903,-1.123398,-2.2855883,-3.2142081,-0.2566812,-0.07401512,-0.16773658,28.625,29.9375,28.875,32.6875,35.125,36.25
0.17205183,-0.38127705,-0.86118406,-1.7645348,-0.037124056,0.04926963,-0.163653,-0.39559293,-0.36581004,0.06000453,-3.0780714,0.6237277,-3.6848146e-06,-0.07665035,0.033987567,0.0022364599,0.0062637175,0.0058951895,0.005139249,0.49471703,-1.3754215,1.8963174,-2.089598,-1.5714444,2.4690454,-0.121964805,0.07121832,-0.09434082,0.02084554,-0.008547359,-0.12703948,-0.038307227,0.19153613,-9.3661175,0.80679786,47.686886,-1.0712218,-2.3595374,-3.2521305,-0.26161534,-0.0889038,-0.22214463,28.625,29.9375,28.875,32.6875,35.125,36.25
0.17405169,-0.7547947,-1.2630934,-1.8802109,-0.035499275,0.03701184,-0.16427386,-0.3957342,-0.36574388,0.06000864,-3.0780714,0.62369144,-1.836402e-05,-0.07852799,0.034999315,0.0026467475,0.0053434228,0.006422662,-0.0018768169,0.49447656,-1.3752892,1.8961376,-2.0895388,-1.5714444,2.4687824,-0.12569097,0.07167406,-0.09586044,0.021006787,-0.007989438,-0.12375001,0.0,0.15322891,-9.423578,0.7911258,47.699425,-1.0954413,-2.3110642,-3.259795,-0.2524685,-0.08756298,-0.26382428,28.625,29.9375,28.875,32.6875,35.125,36.25
0.17605169,-0.24241927,-1.2662071,-1.6777047,-0.046070572,0.049889795,-0.15967815,-0.39589944,-0.3656855,0.060018536,-3.078062,0.62370723,5.6825444e-05,-0.07805083,0.03448136,0.0020960479,0.006347598,0.0056838216,-0.0023948571,0.49424958,-1.3751324,1.8959235,-2.0895145,-1.5714802,2.4685667,-0.12401316,0.07314386,-0.09640828,0.021209098,-0.008517567,-0.12155293,-0.05746084,0.24899697,-9.32781,0.7642693,47.701214,-1.2048573,-2.298122,-3.3963943,-0.24020292,-0.09179413,-0.355732,28.625,29.9375,28.875,32.6875,35.125,36.25
0.17805257,0.5719093,-0.6607482,-1.6768782,-0.052421764,0.060578775,-0.17199011,-0.39607325,-0.36560085,0.06001712,-3.0780027,0.6237722,0.00011741809,-0.0793012,0.034757037,0.002620578,0.006004281,0.0068014567,-0.0052531767,0.49398577,-1.3749642,1.8957189,-2.0894787,-1.5715402,2.4683511,-0.12543033,0.0735513,-0.09813263,0.021371813,-0.008747116,-0.12011061,0.038307227,0.28730422,-9.385271,0.8605109,47.692257,-1.1986479,-2.3316002,-3.3101916,-0.23027745,-0.07426461,-0.4144568,28.625,29.9375,28.875,32.6875,35.125,36.25
0.18005177,-0.39680353,-1.0033699,-1.6342787,-0.040464476,0.040641084,-0.15804246,-0.39624223,-0.36554408,0.060029197,-3.0780487,0.62378204,0.00014663984,-0.07944363,0.03589848,0.00050789374,0.0075793755,0.0023125107,-0.007999688,0.49372128,-1.3748188,1.8955158,-2.0894659,-1.5715164,2.468087,-0.12790085,0.07729294,-0.09795882,0.022153793,-0.007998205,-0.11983609,0.095768064,0.24899697,-9.423578,0.84708,47.667187,-1.137675,-2.374041,-3.2382848,-0.19807449,-0.10238883,-0.45099235,28.625,29.9375,28.875,32.6875,35.125,36.25
0.18205167,0.4023859,-0.6512931,-1.6497874,-0.03773187,0.058129176,-0.17507969,-0.39637396,-0.36546606,0.0600281,-3.0780346,0.62373793,0.00010326801,-0.08016843,0.035763353,0.0021563843,0.0061085527,0.005052191,-0.005725973,0.4934699,-1.3746995,1.8953604,-2.0893943,-1.5715164,2.46781,-0.12828921,0.074899904,-0.09893075,0.022405183,-0.008008339,-0.1224979,0.05746084,0.22984336,-9.442732,0.8157518,47.68062,-1.1557721,-2.361598,-3.4645529,-0.19330603,-0.089048035,-0.49954796,28.625,29.9375,28.875,32.6875,35.125,36.25
0.18405166,0.113396406,-0.57334363,-1.6869043,-0.031293638,0.050331593,-0.16792923,-0.3965416,-0.36540082,0.060019944,-3.0780082,0.6237273,0.00013796888,-0.08145043,0.036256973,0.0018151583,0.0066991183,0.004869013,-0.00029315945,0.4932298,-1.374507,1.8951448,-2.0893705,-1.5715526,2.4675667,-0.12996927,0.077046104,-0.100737795,0.022496356,-0.008449415,-0.12960885,-0.019153614,0.24899697,-9.3661175,0.800085,47.681515,-1.1610256,-2.0649452,-3.191909,-0.18198496,-0.09001233,-0.47545493,28.625,29.9375,28.875,32.6875,35.125,36.25
0.18605249,-0.34467083,-0.7580168,-1.4658321,-0.024479274,0.053540822,-0.16478477,-0.39668995,-0.36532697,0.060018238,-3.0779717,0.6237357,0.00010166206,-0.081582814,0.03719456,-0.00079569285,0.00921349,6.217696e-06,0.006033985,0.4929778,-1.3743488,1.8949417,-2.089286,-1.5715646,2.4673247,-0.13167743,0.08225367,-0.101149194,0.02316315,-0.008372275,-0.1376431,-0.05746084,0.22984336,-9.289502,0.7978386,47.65106,-1.1317703,-2.4683948,-3.4226472,-0.18207943,-0.0802358,-0.4115493,28.625,29.9375,28.875,32.6875,35.125,36.25
0.18805233,-0.58072937,-0.6862076,-1.5276299,-0.01725902,0.05975962,-0.16474403,-0.39688233,-0.3652527,0.06003727,-3.0780196,0.6236997,0.00017409836,-0.08388178,0.037193853,0.001205641,0.0067536863,0.0030446658,0.015039668,0.49267748,-1.3742049,1.8947247,-2.0892742,-1.5715641,2.466996,-0.13416007,0.0812539,-0.10467554,0.023833927,-0.0076476736,-0.14913227,-0.076614454,0.15322891,-9.232041,0.88960326,47.651955,-1.0898902,-2.2428412,-3.3543491,-0.16614403,-0.11568706,-0.30897123,28.625,29.9375,28.875,32.6875,35.125,36.25
0.19005223,-0.43488035,-0.7432117,-1.5772053,-0.007969575,0.07607901,-0.15917574,-0.39702478,-0.36520126,0.060042616,-3.0780268,0.623621,0.00015687573,-0.08473328,0.037617955,0.00074208394,0.0067052473,0.0021338412,0.020420209,0.49246135,-1.3740481,1.8945101,-2.0892026,-1.5715641,2.4667299,-0.13589521,0.082984,-0.105705015,0.023903653,-0.007182712,-0.15624815,-0.05746084,0.038307227,-9.289503,0.87393653,47.63136,-1.1572249,-2.4110625,-3.2298338,-0.15670073,-0.11094254,-0.22293673,28.625,29.9375,28.875,32.6875,35.125,36.25
0.19205205,-0.5882666,-0.13893047,-1.4483947,-0.021810414,0.083179526,-0.15313396,-0.39719006,-0.36511952,0.060022064,-3.0780456,0.623486,0.0001409973,-0.08571499,0.037910264,0.0010815728,0.0068370593,0.003431262,0.023618275,0.49217382,-1.373868,1.8943428,-2.0892026,-1.5715646,2.4663558,-0.13677256,0.083291516,-0.106785975,0.023593176,-0.007919844,-0.16032149,-0.34476507,0.076614454,-9.32781,0.83589023,47.64658,-1.1484513,-2.3672123,-3.3050394,-0.12916796,-0.12266573,-0.15309791,28.625,29.9375,28.875,32.6875,35.125,36.25
0.19405201,-1.540916,-0.9136552,-1.3667736,-0.015790442,0.09341164,-0.1550643,-0.3973886,-0.36504266,0.06005347,-3.0780451,0.6234673,0.00021859258,-0.08738844,0.036986127,0.0028226057,0.004769319,0.0059667598,0.02268932,0.49188602,-1.3737118,1.8940667,-2.0891182,-1.5715998,2.4660566,-0.13706471,0.08336928,-0.11107207,0.024580514,-0.0072957715,-0.15968466,-0.53630114,0.0,-9.32781,0.8717007,47.68599,-1.1005857,-2.28114,-3.2903821,-0.11601588,-0.10384812,-0.1309865,28.625,29.9375,28.875,32.6875,35.125,36.25
0.1960522,-0.8907668,-0.2688622,-1.4297402,-0.0198885,0.12339414,-0.16461109,-0.39754865,-0.36496007,0.060029387,-3.078,0.62344223,0.00015435803,-0.08660582,0.03948827,-0.00071911816,0.008751199,-0.0017451112,0.014454824,0.49160945,-1.373506,1.8938631,-2.0890577,-1.5716122,2.4657702,-0.14060372,0.087724425,-0.10864032,0.026471712,-0.007162301,-0.15498947,-0.61291564,-0.019153614,-9.232041,0.78217715,47.686886,-1.0759265,-2.4392657,-3.2493548,-0.10968359,-0.14392632,-0.20278507,28.625,29.9375,28.875,32.6875,35.125,36.25
0.19805217,-1.4854113,-1.0200673,-1.4261204,0.009833912,0.1179571,-0.1484899,-0.39770103,-0.36487907,0.060019184,-3.077989,0.6233446,9.637934e-05,-0.087808564,0.037701342,0.0021704612,0.0059791263,0.0029874847,0.010219828,0.4913349,-1.3733386,1.8936709,-2.0889857,-1.5716122,2.4654362,-0.13876192,0.085676834,-0.11300072,0.027401967,-0.006963196,-0.14891149,-0.7661445,-0.11492168,-9.32781,0.8403672,47.699425,-1.2171305,-2.3112268,-3.2796104,-0.116628766,-0.1337246,-0.25041604,28.625,29.9375,28.875,32.6875,35.125,36.25
0.20005228,-1.2511513,-0.62889147,-1.2865863,0.0026338338,0.13784283,-0.15327801,-0.39786297,-0.36482084,0.060015533,-3.0779972,0.62334716,8.1477665e-05,-0.088038325,0.03960123,0.00026730823,0.009371478,9.709177e-05,0.00587785,0.49108267,-1.3731575,1.8934559,-2.08895,-1.5716003,2.4651847,-0.14111264,0.08827749,-0.111876234,0.027833302,-0.008587134,-0.14691684,-0.7661445,-0.076614454,-9.270349,0.8784135,47.728977,-1.263975,-2.3047962,-3.2703013,-0.12099354,-0.14537555,-0.3231723,28.625,29.9375,28.875,32.6875,35.125,36.25
0.20205206,-0.80383766,0.5268634,-1.4196545,-0.0017554697,0.13968042,-0.17673501,-0.3980771,-0.36475334,0.060046103,-3.078024,0.6233527,0.00016216337,-0.089591175,0.03987047,0.0006573864,0.008498985,0.00079095084,0.0032605426,0.49078277,-1.3729768,1.8931578,-2.0888898,-1.5716127,2.464885,-0.14318231,0.08933059,-0.11405118,0.027926577,-0.008141739,-0.14636964,-0.59376204,-0.11492168,-9.3661175,0.7866488,47.661808,-1.2359574,-2.5547023,-3.210391,-0.11310448,-0.13615185,-0.33700347,28.625,29.9375,28.875,32.6875,35.125,36.25
0.204052,-0.9565089,0.410742,-1.295348,0.007859438,0.123588964,-0.16747685,-0.39823335,-0.36466053,0.060031492,-3.077968,0.62333983,0.00013896383,-0.09076998,0.039396387,0.0011444503,0.0074522668,0.001456894,0.0034773496,0.490507,-1.3728083,1.8929771,-2.0888298,-1.571648,2.4646084,-0.14377317,0.09069661,-0.11688269,0.028301315,-0.007545878,-0.14717694,-0.6703765,-0.11492168,-9.308656,0.8179876,47.682407,-1.1101818,-2.3271422,-3.1639268,-0.1015916,-0.16976145,-0.38345864,28.625,29.9375,28.875,32.6875,35.125,36.25
0.20605192,-1.2462212,0.07321247,-1.3886564,0.014919774,0.109395586,-0.15665318,-0.3984036,-0.36458203,0.060019523,-3.0779707,0.6233006,6.92193e-05,-0.0925835,0.0410116,0.00045579355,0.00889535,0.00049614615,0.003590724,0.49020606,-1.3726153,1.8927611,-2.0887697,-1.5716242,2.4642828,-0.14756165,0.0931794,-0.118417375,0.028881108,-0.008377555,-0.15107581,-0.7278373,-0.1340753,-9.385271,0.8157518,47.688675,-1.0619602,-2.5236545,-3.0852785,-0.09177963,-0.14968239,-0.3721587,28.625,29.9375,28.875,32.6875,35.125,36.25
0.20805185,-1.1771147,0.2031231,-1.3033952,0.005137278,0.117722526,-0.16173646,-0.39859912,-0.3644673,0.06000174,-3.0779033,0.6233386,4.7195655e-05,-0.09349625,0.041148763,0.0010951024,0.009537417,0.002197952,0.010820466,0.48985896,-1.372411,1.8925451,-2.08871,-1.5716609,2.463968,-0.14769796,0.09330467,-0.120119564,0.029248249,-0.009761676,-0.15843779,-0.8236054,-0.076614454,-9.404425,0.7620334,47.709274,-1.1067692,-2.4038572,-3.0711188,-0.07390846,-0.15762147,-0.32577756,28.625,29.9375,28.875,32.6875,35.125,36.25
0.21005175,-1.594015,0.09307034,-1.5145001,0.0068398844,0.117148064,-0.15899186,-0.3988082,-0.36438096,0.060017746,-3.0779018,0.62331164,0.00012308157,-0.09399298,0.041422423,0.00049167656,0.010782451,0.0011767576,0.01976161,0.48954755,-1.37223,1.8922824,-2.0886614,-1.5716976,2.4636402,-0.1481566,0.09548208,-0.121507056,0.029929379,-0.010383929,-0.16783576,-0.5554548,-0.038307227,-9.404425,0.83589023,47.699425,-1.191343,-2.5648918,-3.0599196,-0.057653554,-0.139766,-0.2329273,28.625,29.9375,28.875,32.6875,35.125,36.25
0.21205243,-1.0951605,-0.48084906,-1.6872805,0.002392908,0.13404769,-0.162339,-0.39897707,-0.36430338,0.06001566,-3.0778964,0.62320876,0.00010199765,-0.09418712,0.04173409,7.501377e-05,0.011200978,-0.0005261904,0.027087184,0.4892719,-1.3720496,1.8920559,-2.088589,-1.5717095,2.4633012,-0.14906272,0.09680332,-0.12244201,0.031228477,-0.009963617,-0.1760677,-0.45968673,0.019153614,-9.423578,0.8157518,47.696735,-1.1981735,-2.575068,-3.0667784,-0.05961773,-0.138778,-0.11802393,28.625,29.9375,28.875,32.6875,35.125,36.25
0.21405233,-1.213713,-0.88520867,-1.59381,-0.012011977,0.12867284,-0.1573151,-0.39916936,-0.364227,0.060004026,-3.0778832,0.6230687,8.0571655e-05,-0.09487746,0.041771583,0.0006787025,0.010830457,0.00011236024,0.030485824,0.48898435,-1.3718094,1.8917803,-2.0885174,-1.5717329,2.462928,-0.149695,0.09676567,-0.123977624,0.032053016,-0.0099490015,-0.18009782,-0.47884035,0.076614454,-9.404425,0.78888994,47.701214,-1.2511944,-2.4732018,-3.0763245,-0.05966645,-0.14727055,-0.06514244,28.625,29.9375,28.875,32.6875,35.125,36.25
0.21605247,-0.72798395,-0.39170608,-1.5617808,-0.032239243,0.11409261,-0.16013485,-0.399351,-0.3641285,0.059990082,-3.07782,0.6230387,6.858621e-05,-0.09564251,0.041949816,0.0009857356,0.010942798,0.00044090167,0.025402017,0.48868465,-1.371605,1.8915523,-2.088445,-1.571781,2.4626179,-0.15046443,0.097350284,-0.12556015,0.03280765,-0.010210863,-0.17578177,-0.49799395,0.0,-9.442732,0.784413,47.716442,-1.3465397,-2.5333712,-3.137411,-0.048342094,-0.16577332,-0.05950725,28.625,29.9375,28.875,32.6875,35.125,36.25
0.21805233,-0.46693626,-0.37014633,-1.7482585,-0.037348643,0.09771805,-0.1663582,-0.39957982,-0.364038,0.060024973,-3.0778542,0.622992,0.00020243261,-0.09535388,0.04373142,-0.0004641998,0.013452504,-0.0020513323,0.016512835,0.4883487,-1.3714485,1.8912786,-2.0884092,-1.5718173,2.4622486,-0.15249611,0.09820757,-0.123372,0.03314234,-0.011234562,-0.1689236,-0.34476507,0.05746084,-9.557653,0.90750587,47.679718,-1.2739689,-2.4617648,-3.183841,-0.049799643,-0.14488566,-0.12091674,28.625,29.9375,28.875,32.6875,35.125,36.25
0.22005393,-0.6426812,-1.0318658,-1.7184893,-0.027685035,0.0677289,-0.15928909,-0.39976898,-0.36395386,0.059997927,-3.0778167,0.6229856,0.00012930475,-0.098062076,0.043277502,0.0014731059,0.011839308,0.002232161,0.009123795,0.4880371,-1.371196,1.8910259,-2.088349,-1.5718178,2.461938,-0.15373157,0.09850686,-0.12814146,0.033078253,-0.011836498,-0.16276613,-0.28730422,0.11492168,-9.481039,0.8224646,47.70838,-1.3415866,-2.4758074,-3.0871646,-0.03823084,-0.13884953,-0.21780568,28.625,29.9375,28.875,32.6875,35.125,36.25
0.22205178,0.21669813,-0.6446507,-1.4288679,-0.03555326,0.07317581,-0.15135987,-0.3999561,-0.36386278,0.0600067,-3.077795,0.6229458,0.00015924787,-0.09649076,0.044471644,-0.0006418175,0.013970659,-0.0026143508,0.0029156185,0.48773742,-1.3710275,1.8907889,-2.088277,-1.571853,2.4616163,-0.15451628,0.09978625,-0.12508398,0.034017153,-0.011436524,-0.15734462,-0.15322891,0.19153613,-9.346964,0.85155696,47.698532,-1.2193427,-2.4041367,-3.27139,-0.055575952,-0.13739173,-0.32858807,28.625,29.9375,28.875,32.6875,35.125,36.25
0.22405167,0.2572801,-0.1115408,-1.6936169,-0.041263465,0.0573236,-0.16808654,-0.4001889,-0.3637517,0.060021285,-3.0777586,0.62305766,0.00022260493,-0.0985399,0.046744063,0.00024977652,0.013984018,-0.0019996106,-0.0070894384,0.48736405,-1.3708359,1.8905138,-2.0882165,-1.5718898,2.4613175,-0.1599212,0.09849256,-0.12595338,0.035639953,-0.011730414,-0.15274413,-0.076614454,0.21068975,-9.3661175,0.8157518,47.689575,-1.0399609,-2.2958088,-3.3445294,-0.048105255,-0.13519457,-0.39230722,28.625,29.9375,28.875,32.6875,35.125,36.25
0.22605173,0.5444089,-0.3147216,-1.9198693,-0.022969693,0.047992527,-0.16324683,-0.40036657,-0.3636687,0.059999455,-3.0777214,0.6230496,0.00014706078,-0.09856097,0.047126476,-0.0015640946,0.014996052,-0.006009838,-0.010028745,0.4870645,-1.3706061,1.8902735,-2.088145,-1.5718893,2.4610178,-0.1611269,0.10239323,-0.12669139,0.036490005,-0.010757814,-0.15101127,0.1340753,0.21068975,-9.461885,0.7978386,47.678825,-1.1029345,-2.5395155,-3.346459,-0.03835737,-0.15420386,-0.47064924,28.625,29.9375,28.875,32.6875,35.125,36.25
0.22805162,0.82554376,0.08681603,-1.7110269,-0.025140384,0.036373008,-0.16161801,-0.40058443,-0.36357722,0.059997927,-3.077692,0.6230012,0.00022034252,-0.10056341,0.047601353,0.0005519298,0.012910486,-0.001973849,-0.006715432,0.4867522,-1.3703791,1.8899983,-2.0881088,-1.5719494,2.4606793,-0.16361259,0.09983583,-0.12841111,0.03620516,-0.010813594,-0.15681006,0.24899697,0.11492168,-9.5385,0.84484416,47.71286,-0.9927131,-2.3169246,-3.4574723,-0.03227839,-0.13033906,-0.49540508,28.625,29.9375,28.875,32.6875,35.125,36.25
0.23005258,0.51737744,-0.37394932,-1.5038424,-0.021316955,0.026414512,-0.16413842,-0.40079656,-0.3634792,0.060008388,-3.0776706,0.6230477,0.00022585166,-0.099787235,0.049323164,-0.002601707,0.016612818,-0.008739202,0.002970156,0.48640445,-1.370185,1.8897241,-2.0880244,-1.5719613,2.4603634,-0.16567288,0.104405254,-0.12711863,0.038034987,-0.010930118,-0.1685556,0.24899697,0.095768064,-9.385271,0.8537928,47.683304,-1.0685748,-2.5363078,-3.4694695,-0.04803447,-0.14722687,-0.43047938,28.625,29.9375,28.875,32.6875,35.125,36.25
0.2320517,0.79888034,-0.13698258,-1.5995792,-0.009421163,0.03614436,-0.16324317,-0.40095985,-0.3633604,0.059960786,-3.0775843,0.6229805,3.5677094e-05,-0.10029497,0.04773625,-0.0002145295,0.013922687,-0.0060114292,0.017602067,0.48605788,-1.3699458,1.88952,-2.0879042,-1.5719608,2.459986,-0.16405162,0.10243223,-0.13062048,0.039817706,-0.009873698,-0.18156636,0.11492168,0.0,-9.32781,0.800085,47.694946,-1.1486514,-2.341006,-3.3963814,-0.06395975,-0.1493046,-0.30970907,28.625,29.9375,28.875,32.6875,35.125,36.25
0.23405243,0.33573565,0.022467121,-1.8449029,-0.002578106,0.028644398,-0.16171856,-0.40117016,-0.36328414,0.059976675,-3.0776002,0.62297875,3.4543144e-05,-0.10007634,0.048534002,-0.0009823422,0.0162596,-0.009462845,0.024752617,0.48573422,-1.3697407,1.8892201,-2.0878189,-1.5719494,2.4596593,-0.16484202,0.10436697,-0.13201122,0.043407913,-0.01033351,-0.18950577,0.19153613,0.019153614,-9.404425,0.8157518,47.694946,-1.1196846,-2.4079902,-3.379561,-0.074260294,-0.1653461,-0.18991545,28.625,29.9375,28.875,32.6875,35.125,36.25
0.23605248,0.25293142,-0.2442027,-1.7187617,-0.0018803108,0.030257612,-0.1628367,-0.4013868,-0.3631803,0.059998333,-3.0775976,0.622824,0.0001461969,-0.100860804,0.04951573,-0.0004780518,0.016477156,-0.010429442,0.024726318,0.48540995,-1.3695728,1.8889569,-2.0877578,-1.5720209,2.459239,-0.16728434,0.104157,-0.13352342,0.046065725,-0.010072951,-0.19192249,0.1340753,0.095768064,-9.500193,0.90750587,47.6636,-1.0607703,-2.350937,-3.3760152,-0.12546197,-0.14325756,-0.14531004,28.625,29.9375,28.875,32.6875,35.125,36.25
0.23805246,0.91729003,0.06268723,-1.4990714,-0.026122365,0.05540349,-0.17655405,-0.40158504,-0.3630674,0.059991006,-3.0775623,0.6227609,8.335623e-05,-0.10239056,0.049648907,0.000520604,0.014285845,-0.008525581,0.018557299,0.48505008,-1.3693688,1.8887061,-2.0876505,-1.5720328,2.4588444,-0.16944233,0.103592955,-0.13498682,0.045382954,-0.009040529,-0.18791293,0.076614454,0.095768064,-9.404425,0.82694155,47.70032,-0.9922112,-2.2367797,-3.337266,-0.1338477,-0.17688099,-0.15188356,28.625,29.9375,28.875,32.6875,35.125,36.25
0.24005234,0.035173055,-0.42091504,-1.8761598,-0.029412061,0.04011465,-0.17138961,-0.4017635,-0.36297205,0.059970208,-3.077502,0.62273365,-1.1416987e-05,-0.10300344,0.050949965,-0.0009108421,0.0167005,-0.011990381,0.008877684,0.4847379,-1.3691391,1.8884548,-2.0875418,-1.5720452,2.458523,-0.17178915,0.1070106,-0.13630347,0.047479488,-0.009573278,-0.18057716,0.019153614,0.1340753,-9.595961,0.8247004,47.687782,-0.9574412,-2.4194386,-3.4095855,-0.16663791,-0.16204815,-0.2609343,28.625,29.9375,28.875,32.6875,35.125,36.25
0.24205248,0.05128212,-0.8117969,-1.8709885,-0.04609336,0.05328358,-0.16253184,-0.40196562,-0.3628717,0.05996699,-3.0774343,0.62260497,-4.071809e-05,-0.10363524,0.052147366,-0.00024225947,0.017741354,-0.012104966,0.0042759865,0.48442575,-1.3688995,1.8881439,-2.0873983,-1.5721053,2.4581394,-0.17375454,0.10602233,-0.1372281,0.049971763,-0.010452894,-0.17793791,-0.095768064,0.17238253,-9.634268,0.82694155,47.666286,-0.9254068,-2.2899787,-3.3887367,-0.2351475,-0.16187,-0.31759703,28.625,29.9375,28.875,32.6875,35.125,36.25
0.24405251,-0.48104712,-1.0304693,-1.9522189,-0.05750936,0.06600182,-0.16994861,-0.40217328,-0.3627703,0.059969705,-3.0774186,0.6226572,-0.000112809925,-0.10348387,0.05155105,-0.0014880056,0.017919365,-0.014931665,0.0051416117,0.4840549,-1.368694,1.8878678,-2.0872896,-1.572081,2.4578032,-0.17324704,0.10956294,-0.13877398,0.05055779,-0.009311277,-0.17829762,-0.17238252,0.2681506,-9.557653,0.86498255,47.64479,-0.94788736,-2.39423,-3.3816564,-0.25796926,-0.17076121,-0.3712796,28.625,29.9375,28.875,32.6875,35.125,36.25
0.2460525,-0.57032955,-1.1695788,-1.898181,-0.04688204,0.09190708,-0.17452654,-0.40237656,-0.3626768,0.059977975,-3.077401,0.6225762,-0.00012109434,-0.10469633,0.0514544,-0.00049024104,0.016564598,-0.01317917,0.005115257,0.48373085,-1.3684899,1.8875812,-2.0871823,-1.5721043,2.457431,-0.17431752,0.109236084,-0.14068241,0.050601788,-0.008943753,-0.1793419,-0.22984336,0.21068975,-9.595961,0.90750587,47.67793,-0.90234524,-2.313243,-3.302672,-0.31049842,-0.18354207,-0.3840415,28.625,29.9375,28.875,32.6875,35.125,36.25
0.24805193,-1.3404896,-1.0431134,-1.7614695,-0.05039732,0.10387878,-0.1692043,-0.40257743,-0.36255506,0.059963264,-3.0773427,0.6225971,-0.00022491276,-0.10697858,0.051585138,4.7357134e-05,0.015432396,-0.0118563725,0.009989136,0.48334715,-1.3682731,1.887329,-2.0870626,-1.5721043,2.457068,-0.17670906,0.11118791,-0.14422983,0.050485358,-0.008596094,-0.18660593,-0.32561144,0.19153613,-9.576807,0.7732232,47.686886,-1.0107704,-2.3201466,-3.3212621,-0.32355127,-0.19073763,-0.33587903,28.625,29.9375,28.875,32.6875,35.125,36.25
0.25005174,-0.88090885,-0.56761235,-1.565702,-0.058740865,0.13582659,-0.17692232,-0.40279078,-0.3624717,0.059979018,-3.0773535,0.6225325,-0.00020175382,-0.106415994,0.050733548,-0.0005070728,0.014873534,-0.012564212,0.022447648,0.48302442,-1.3680686,1.88703,-2.0869787,-1.5721163,2.4567037,-0.17519327,0.11234696,-0.14417896,0.049619723,-0.0077922903,-0.1975508,-0.4405331,0.22984336,-9.481039,0.82022345,47.689575,-1.1097579,-2.371211,-3.2462978,-0.32131743,-0.19742924,-0.24272467,28.625,29.9375,28.875,32.6875,35.125,36.25
0.2520517,-2.0983083,-1.0278982,-1.6161729,-0.03768868,0.11120078,-0.16318554,-0.40301344,-0.36239251,0.060002066,-3.0773902,0.6223421,-0.00017674797,-0.10819937,0.050399993,8.159553e-05,0.013372667,-0.01008309,0.030702278,0.48270094,-1.3678519,1.8866948,-2.0868719,-1.5721287,2.4562569,-0.1762272,0.11344107,-0.14645498,0.047888957,-0.0076390835,-0.20683877,-0.4405331,0.24899697,-9.461885,0.87393653,47.672558,-1.1782727,-2.374564,-3.0705447,-0.32929534,-0.21991473,-0.11850917,28.625,29.9375,28.875,32.6875,35.125,36.25
0.25405258,-1.7745256,-0.2225918,-1.357943,-0.051432554,0.1204642,-0.17593548,-0.40324047,-0.3622785,0.060000017,-3.0773523,0.62231135,-0.00017265425,-0.10926229,0.050681755,0.00014560523,0.014106931,-0.008866107,0.031896524,0.48232982,-1.3676233,1.8864077,-2.0867884,-1.5721649,2.4558716,-0.17680039,0.11458274,-0.14788194,0.04742861,-0.008871353,-0.20860189,-0.5363012,0.2681506,-9.519346,0.800085,47.678825,-1.3312061,-2.3055549,-3.1954765,-0.33463565,-0.20833132,-0.07264131,28.625,29.9375,28.875,32.6875,35.125,36.25
0.25605246,-1.2957388,-0.21798916,-1.5466547,-0.044832814,0.121778905,-0.17561838,-0.40348068,-0.36218002,0.060013983,-3.0773616,0.6222587,-0.00014797336,-0.11083263,0.050325066,0.00079930195,0.012963143,-0.0059994264,0.025712881,0.4819584,-1.3673949,1.8860844,-2.0867054,-1.5721768,2.4554663,-0.17730336,0.11528821,-0.1498201,0.04559494,-0.009190612,-0.2029195,-0.59376204,0.19153613,-9.5385,0.8090337,47.721813,-1.318877,-2.3813643,-3.1646533,-0.35917878,-0.22612837,-0.08728782,28.625,29.9375,28.875,32.6875,35.125,36.25
0.2580524,-1.3021079,-0.4254145,-1.482546,-0.03308956,0.1008483,-0.17737043,-0.40370202,-0.36208996,0.060002603,-3.0773568,0.62224364,-0.0001651371,-0.11317418,0.04985854,0.0009224021,0.011211058,-0.0028792478,0.015624139,0.48161063,-1.3671418,1.8857974,-2.0866587,-1.5721768,2.4551098,-0.17856711,0.117707655,-0.1522053,0.041993394,-0.009091713,-0.19409315,-0.5363012,-0.019153614,-9.500193,0.8224646,47.734352,-1.2603121,-2.3761077,-3.0627322,-0.32018322,-0.21669587,-0.1940063,28.625,29.9375,28.875,32.6875,35.125,36.25
0.26005223,-1.2859014,-0.15103866,-1.3529683,-0.037878156,0.0940524,-0.17396937,-0.40392083,-0.36198714,0.06000965,-3.0773287,0.62225854,-0.00018548842,-0.113569155,0.050349455,2.6386557e-05,0.012287422,-0.0032648188,0.008412638,0.48125115,-1.366925,1.8854979,-2.086551,-1.5721887,2.4547634,-0.17917894,0.11945124,-0.15203248,0.040924203,-0.00986831,-0.18749082,-0.63206923,0.076614454,-9.519346,0.8717007,47.694946,-1.3496778,-2.4704103,-3.2450466,-0.30608433,-0.23051947,-0.26606178,28.625,29.9375,28.875,32.6875,35.125,36.25
0.26205215,-1.4530599,-0.22739238,-1.2215651,-0.042629723,0.099475786,-0.1756203,-0.4041375,-0.36188805,0.060000375,-3.0772848,0.6221368,-0.00022607415,-0.1135127,0.050408397,-0.00081322074,0.012865676,-0.00367061,0.0031647934,0.48091534,-1.3666605,1.8851761,-2.0864317,-1.5722255,2.4543574,-0.17893967,0.12081006,-0.15148795,0.03964762,-0.010201838,-0.18200211,-0.7278373,0.11492168,-9.346964,0.84484416,47.683304,-1.4991349,-2.3644247,-3.2397685,-0.29090634,-0.23047403,-0.4115,28.625,29.9375,28.875,32.6875,35.125,36.25
0.2640521,-1.0586174,-0.16943249,-1.1029534,-0.039216433,0.11989472,-0.18401769,-0.40440935,-0.36179072,0.0600339,-3.0773273,0.62222314,-8.562385e-05,-0.11482434,0.05120409,-0.00039517772,0.012607922,-0.0025842926,-2.52619e-05,0.48051858,-1.366456,1.8848528,-2.0864198,-1.5722374,2.4540093,-0.18117028,0.12081843,-0.15243764,0.03950301,-0.010460782,-0.1810427,-0.47884035,0.05746084,-9.32781,0.79560274,47.687782,-1.5213091,-2.5337582,-3.3466072,-0.2865038,-0.23853011,-0.46442503,28.625,29.9375,28.875,32.6875,35.125,36.25
0.2660523,-0.9638389,-0.51445794,-1.2249895,-0.025094576,0.110475674,-0.17694469,-0.40466172,-0.36169437,0.060041346,-3.0773416,0.62222064,-6.212488e-05,-0.115876265,0.0523554,-0.0020679901,0.014064701,-0.0043928274,0.006827352,0.48013365,-1.3662026,1.8845195,-2.0863607,-1.5722374,2.4536211,-0.18364657,0.124392025,-0.15269828,0.03845087,-0.010931794,-0.19036986,-0.26815057,-0.076614454,-9.404425,0.83589023,47.657326,-1.412119,-2.5291538,-3.3966212,-0.28267527,-0.23254028,-0.46662927,28.625,29.9375,28.875,32.6875,35.125,36.25
0.26805216,-1.007517,-0.37779453,-0.9962785,-0.034236148,0.087124996,-0.17805284,-0.40488786,-0.36157912,0.060038306,-3.0772827,0.6221247,-3.3481636e-05,-0.118667096,0.053154334,1.10209785e-05,0.011267314,0.0007505889,0.01675796,0.47978455,-1.3659635,1.884219,-2.0862658,-1.5723094,2.45322,-0.18740539,0.12197525,-0.15408991,0.036366116,-0.010860195,-0.20405895,-0.19153613,-0.038307227,-9.32781,0.8605109,47.66271,-1.3398418,-2.343648,-3.3402572,-0.24756369,-0.24173784,-0.36649698,28.625,29.9375,28.875,32.6875,35.125,36.25
0.27005208,-0.6228571,-0.26504308,-0.78999865,-0.027732326,0.07446466,-0.18056011,-0.40512985,-0.36149013,0.06004848,-3.077305,0.6220277,2.9659324e-05,-0.11951138,0.052961115,-0.0007333374,0.011010081,0.0012404935,0.02680523,0.4794365,-1.3657222,1.8838967,-2.086218,-1.5723337,2.4528086,-0.18771861,0.12433694,-0.15473089,0.034067012,-0.010872671,-0.21441907,-0.11492168,-0.095768064,-9.270349,0.8493211,47.68062,-1.4364798,-2.4849963,-3.4125361,-0.19875336,-0.25287467,-0.22429645,28.625,29.9375,28.875,32.6875,35.125,36.25
0.2720521,-0.5013593,-0.021962387,-1.056568,-0.0011710976,0.04423254,-0.16751297,-0.4053655,-0.36138767,0.06002919,-3.077322,0.6218957,3.818886e-05,-0.12122032,0.053511497,-0.00042425623,0.011079216,0.0024661033,0.028768765,0.47906384,-1.3654574,1.8836211,-2.0862062,-1.5723456,2.4523516,-0.18965818,0.12557177,-0.15691428,0.033949547,-0.011510724,-0.21831946,-0.1340753,-0.15322891,-9.212888,0.84484416,47.707485,-1.2708642,-2.4477954,-3.3751943,-0.17449781,-0.24351706,-0.14499182,28.625,29.9375,28.875,32.75,35.125,36.25
0.27405205,0.25118122,0.53750896,-0.8083228,0.0078097237,0.042946532,-0.1726006,-0.40558997,-0.36127186,0.060007982,-3.0772934,0.6217983,-2.6379093e-05,-0.12265171,0.054039598,0.00077839487,0.009577023,0.004548947,0.022217087,0.47867882,-1.3651937,1.883335,-2.0861228,-1.5723575,2.4519095,-0.19193254,0.124266624,-0.15810755,0.03390621,-0.011148196,-0.2140423,-0.15322891,-0.1340753,-9.11712,0.842603,47.688675,-1.1544565,-2.3476648,-3.4281514,-0.15431726,-0.26022646,-0.200142,28.625,29.9375,28.875,32.75,35.125,36.25
0.27605182,0.114244886,0.5525957,-0.75179195,0.024193285,0.030596057,-0.17477107,-0.40586704,-0.3611722,0.060025413,-3.0773225,0.6217882,8.289159e-05,-0.12462834,0.054207303,0.000713483,0.009837657,0.0053883647,0.013532779,0.47828257,-1.3649404,1.8829869,-2.0860994,-1.5723819,2.4515035,-0.1934649,0.12723586,-0.16149572,0.033704665,-0.011749652,-0.2068878,-0.19153613,-0.11492168,-9.040505,0.90527004,47.68062,-1.1718073,-2.538648,-3.3079286,-0.11002639,-0.24314898,-0.24503995,28.625,29.9375,28.875,32.75,35.125,36.25
0.27805173,0.37767306,0.7031526,-0.951288,0.02037627,0.0480029,-0.1725345,-0.40611342,-0.36104876,0.06002999,-3.0772913,0.6217658,7.175204e-05,-0.12501046,0.05549471,0.00038755883,0.010498817,0.0036743532,0.006500813,0.47787324,-1.3647003,1.8826646,-2.0859902,-1.5724057,2.4510844,-0.1959872,0.12750536,-0.16144432,0.035207216,-0.011544488,-0.20237853,-0.19153613,-0.095768064,-9.040505,0.8672237,47.667187,-1.0302472,-2.273276,-3.4803488,-0.104894474,-0.26485536,-0.3209074,28.625,29.9375,28.875,32.75,35.125,36.25
0.28005174,0.2503313,-0.16033801,-0.9761547,0.023654373,0.06955195,-0.16697274,-0.4063723,-0.36094648,0.06004353,-3.0772922,0.6217474,0.00012348892,-0.12622263,0.056179207,0.002083897,0.009331527,0.005088799,0.003359608,0.47748867,-1.3644488,1.8823165,-2.0859182,-1.5724295,2.4506884,-0.19833042,0.12544107,-0.16334501,0.03737049,-0.011151467,-0.20158175,-0.21068975,-0.11492168,-9.155427,0.73069996,47.674347,-0.9926007,-2.2359917,-3.308914,-0.08970064,-0.26616606,-0.37672442,28.625,29.9375,28.875,32.75,35.125,36.25
0.28205243,-0.20862064,-0.20508985,-0.9546194,0.0054573985,0.09051896,-0.17079858,-0.40660274,-0.36082655,0.060017325,-3.0772488,0.6216407,2.7837725e-05,-0.12744927,0.056567322,0.00190733,0.010201631,0.0042237863,0.006283514,0.47709253,-1.3641595,1.8820051,-2.0858095,-1.5724419,2.4502313,-0.19971077,0.1279645,-0.1663737,0.03903122,-0.011553137,-0.20588261,-0.15322891,-0.095768064,-9.212888,0.8605109,47.6636,-1.1207583,-2.242935,-3.2710571,-0.10282951,-0.2682656,-0.3858394,28.625,29.9375,28.875,32.75,35.125,36.25
0.2840524,-0.5526833,-0.36595926,-1.2866484,-0.011505111,0.100399725,-0.18418562,-0.40687302,-0.36069992,0.060048863,-3.0772324,0.6216881,0.00013004901,-0.12850434,0.056915887,0.0026410455,0.009690592,0.004025457,0.015650405,0.47667196,-1.3639553,1.8816699,-2.0857255,-1.5724891,2.4498427,-0.20143473,0.12828973,-0.16893719,0.041175485,-0.01101381,-0.21697474,-0.22984336,-0.019153614,-9.423578,0.8806493,47.65106,-1.0603645,-2.2010562,-3.113953,-0.10177618,-0.27365863,-0.2964024,28.625,29.9375,28.875,32.75,35.125,36.25
0.28605217,-0.4831508,-0.53034055,-1.3855568,-0.023175374,0.11336104,-0.1831559,-0.40709075,-0.3605733,0.060014945,-3.0771754,0.6215348,-9.702456e-06,-0.12818907,0.057160467,0.0018804536,0.010882881,0.0017685347,0.028234951,0.476276,-1.3636662,1.8813709,-2.085593,-1.5725015,2.4493585,-0.20143312,0.12991336,-0.16952367,0.04266192,-0.011081379,-0.2295559,-0.38307226,0.05746084,-9.481039,0.87617236,47.68062,-1.0867897,-2.1888976,-3.2992811,-0.09985845,-0.29278052,-0.1871375,28.625,29.9375,28.875,32.75,35.125,36.25
0.288052,-0.91766655,-0.5497472,-1.5465953,-0.043321125,0.120216295,-0.18976994,-0.40737304,-0.36047202,0.06004417,-3.077199,0.62141937,7.745069e-05,-0.12675318,0.056447417,0.0013720797,0.012154528,5.5736444e-05,0.03479397,0.47588095,-1.3634019,1.8809661,-2.0854967,-1.5725373,2.4488885,-0.1986493,0.13058819,-0.16952527,0.044075977,-0.0114201745,-0.2333307,-0.5363012,0.076614454,-9.576807,0.83365434,47.68062,-1.2421275,-2.1875868,-3.3926172,-0.11900033,-0.30000648,-0.080380976,28.625,29.9375,28.875,32.75,35.125,36.25
0.29005185,-1.4275324,-0.9643227,-1.8438632,-0.04227646,0.11955128,-0.16650546,-0.40760782,-0.36033303,0.06001215,-3.0771196,0.62142646,-4.525459e-05,-0.12641451,0.05571034,0.00095159095,0.012639622,-0.0010671746,0.029841332,0.47544944,-1.363113,1.8806657,-2.085377,-1.5725492,2.4484718,-0.19705042,0.1324347,-0.1710132,0.044942137,-0.011356547,-0.22677745,-0.47884035,0.11492168,-9.634268,0.8851263,47.668976,-1.4048138,-2.2607608,-3.3033094,-0.12468062,-0.3012618,-0.11680415,28.625,29.9375,28.875,32.75,35.125,36.25
0.29205185,-1.2907288,-1.1362894,-2.0551622,-0.039846737,0.12126348,-0.17991468,-0.4078624,-0.3602491,0.060029507,-3.0771885,0.62133193,-4.1016447e-05,-0.12761249,0.056774016,0.0008650972,0.013762548,-0.00090270117,0.017746985,0.4750646,-1.3628604,1.8803071,-2.0853045,-1.5725139,2.4480193,-0.19912143,0.1334891,-0.17223598,0.045503628,-0.012412133,-0.21675083,-0.49799395,0.21068975,-9.730036,0.8537928,47.66987,-1.4138075,-2.153594,-3.295609,-0.11862585,-0.2916995,-0.24026178,28.625,29.9375,28.875,32.75,35.125,36.25
0.2940517,-1.5086684,-1.1960781,-2.0873919,-0.05079266,0.10605835,-0.17654851,-0.40812653,-0.36010525,0.06001491,-3.0770972,0.62129885,-2.1477363e-05,-0.12893881,0.05794124,0.00040348488,0.013583652,-0.0017156432,0.006247615,0.47464398,-1.3625718,1.8799728,-2.0852091,-1.5725979,2.4475899,-0.20245203,0.13494793,-0.17294508,0.045385465,-0.011884711,-0.20858262,-0.4213795,0.22984336,-9.80665,0.9030289,47.67793,-1.427592,-2.2246037,-3.3856626,-0.10526009,-0.31774324,-0.33609945,28.625,29.9375,28.875,32.75,35.125,36.25
0.29605165,-1.0724564,-1.662839,-1.9918871,-0.05596662,0.09575426,-0.17714904,-0.4084001,-0.35997623,0.060010742,-3.077054,0.6213713,1.0497702e-05,-0.1306036,0.05891456,0.00031194193,0.013944287,-0.0013290033,-0.0009911922,0.47421083,-1.3622948,1.8796366,-2.085149,-1.5726336,2.4472077,-0.20511106,0.13651432,-0.17463632,0.04532932,-0.012382557,-0.20400055,-0.3256114,0.19153613,-9.768343,0.84484416,47.67614,-1.3322418,-2.3364646,-3.3468843,-0.08955745,-0.3119558,-0.46514356,28.625,29.9375,28.875,32.75,35.125,36.25
0.29805183,-0.76779234,-1.5758492,-2.1088107,-0.054277133,0.07705056,-0.17548123,-0.4086695,-0.35987213,0.060042843,-3.0770895,0.621338,6.436372e-05,-0.13152952,0.060902327,-0.0021153595,0.016615627,-0.004896272,-0.0011281297,0.47380185,-1.362065,1.8792666,-2.0850542,-1.5726341,2.4467735,-0.20868032,0.14088973,-0.17432857,0.045030747,-0.013130889,-0.20743069,-0.3256114,0.15322891,-9.768343,0.83589023,47.687782,-1.3472571,-2.3691654,-3.381138,-0.08337775,-0.313574,-0.52555764,28.625,29.9375,28.875,32.75,35.125,36.25
0.30005205,0.17622997,-0.8758158,-1.8468046,-0.0591957,0.0757743,-0.19211492,-0.4089311,-0.35975853,0.060051985,-3.077071,0.6212869,9.688329e-05,-0.13267362,0.06102527,-0.0012757517,0.015774727,-0.002810883,0.010569173,0.4734058,-1.3618009,1.8789076,-2.0849583,-1.5726703,2.4463482,-0.2096206,0.140444,-0.1756112,0.044483695,-0.013360713,-0.22006728,-0.15322891,0.17238252,-9.768343,0.86945957,47.682407,-1.3573873,-2.3793855,-3.436842,-0.066928,-0.31270128,-0.41577387,28.625,29.9375,28.875,32.75,35.125,36.25
0.30205187,-0.1439263,-0.59579194,-1.961045,-0.049836744,0.055644434,-0.18541834,-0.40922117,-0.3596318,0.060044806,-3.0770419,0.62117755,0.00017604289,-0.13322575,0.06159544,-0.002144528,0.01679093,-0.00377846,0.024154305,0.47298518,-1.361488,1.8785375,-2.0849102,-1.5727423,2.4458632,-0.2106305,0.14254709,-0.1761311,0.044176225,-0.013849757,-0.23466063,-0.038307227,0.15322891,-9.730036,0.88960326,47.67166,-1.2240458,-2.4259913,-3.471788,-0.03843663,-0.30015448,-0.2853124,28.625,29.9375,28.875,32.75,35.125,36.25
0.30405176,0.17939235,-0.7123242,-1.9460315,-0.031810604,0.056892928,-0.17781699,-0.40947217,-0.35950187,0.060049254,-3.0770311,0.62105805,0.00016670542,-0.1350964,0.062728025,-0.0023249255,0.0164622,-0.004391446,0.02645409,0.47256398,-1.3612472,1.8782142,-2.0848024,-1.5727667,2.445369,-0.21437778,0.14447403,-0.17817599,0.044664863,-0.013300863,-0.24070804,0.0,0.095768064,-9.672575,0.8537928,47.675243,-1.0009558,-2.5107336,-3.4098856,-0.025457533,-0.31608298,-0.17426601,28.625,29.9375,28.875,32.75,35.125,36.25
0.30605245,0.32067356,-0.3134564,-1.7326739,-0.027731558,0.052235447,-0.17996247,-0.40976804,-0.35938576,0.060054623,-3.07705,0.6209504,0.00018657275,-0.13536273,0.063557945,-0.0031926946,0.017512117,-0.0071085007,0.02056488,0.47211957,-1.3609345,1.8778075,-2.0847175,-1.5727781,2.4448552,-0.21605508,0.14651944,-0.17910267,0.04644271,-0.01299482,-0.23649669,-0.076614454,0.038307227,-9.691729,0.87393653,47.71554,-1.0459688,-2.4419413,-3.4893887,-0.0065651797,-0.3141528,-0.16697963,28.625,29.9375,28.875,32.75,35.125,36.25
0.30805233,-0.00931446,-0.3096607,-1.5019506,-0.021025306,0.048915062,-0.17452592,-0.41003752,-0.35925254,0.060055677,-3.0770035,0.62094545,0.00024202012,-0.13690086,0.064026155,-0.0014278891,0.015593937,-0.0052057314,0.0108032,0.47169903,-1.360671,1.8774728,-2.0846455,-1.5728377,2.4444377,-0.2185662,0.14475691,-0.18135713,0.047886036,-0.012147734,-0.22924824,0.0,0.0,-9.557653,0.7530795,47.70211,-0.9872086,-2.4552448,-3.431747,-0.032256417,-0.3369513,-0.26704216,28.625,29.9375,28.875,32.75,35.125,36.25
0.31005225,0.0058229854,-0.33504224,-1.4307956,-0.010753651,0.049761776,-0.16724354,-0.41031304,-0.35911977,0.06005657,-3.076989,0.6209828,0.00019631369,-0.13747904,0.06408828,-0.0017509444,0.01680819,-0.006377112,0.0055338265,0.47123072,-1.3603941,1.8771137,-2.0845373,-1.5728263,2.4439948,-0.21869788,0.14718859,-0.18398538,0.04968771,-0.012703207,-0.22410741,-0.19153613,-0.11492168,-9.289502,0.800085,47.691364,-0.98170656,-2.4711814,-3.4220233,-0.039105546,-0.33636916,-0.33798367,28.625,29.9375,28.875,32.75,35.125,36.25
0.31205228,-0.26937944,0.08869729,-1.1642491,0.009978614,0.0512593,-0.17355916,-0.4106054,-0.3590169,0.060079943,-3.0770257,0.6208372,0.00032763334,-0.13771631,0.06402944,-0.0014858347,0.016622052,-0.007903659,0.0038971223,0.4708347,-1.3601183,1.8767184,-2.0844886,-1.572874,2.4435034,-0.2192022,0.14805773,-0.18627371,0.052366804,-0.01183131,-0.22297774,-0.2873042,-0.1340753,-9.270349,0.8403672,47.705692,-1.0554096,-2.3795722,-3.3879383,-0.034183014,-0.35185784,-0.40615648,28.625,29.9375,28.875,32.75,35.125,36.25
0.3140522,-0.114334546,1.0823566,-0.9436958,-0.0034530088,0.074912414,-0.19026151,-0.41086724,-0.35889444,0.060076952,-3.077019,0.62078995,0.00029320834,-0.13724686,0.06319558,-0.0016024493,0.017597316,-0.009670183,0.0151987765,0.47040305,-1.359842,1.8763713,-2.0843918,-1.572874,2.4430432,-0.21721359,0.1499298,-0.18891846,0.055131894,-0.011924935,-0.23228922,-0.38307226,-0.19153613,-9.193734,0.842603,47.699425,-1.2276642,-2.475779,-3.3487191,-0.053551767,-0.3663593,-0.3662858,28.625,29.9375,28.875,32.75,35.125,36.25
0.31605217,-0.46038306,0.23990822,-0.7954909,0.027417729,0.08877587,-0.17399983,-0.41112578,-0.3587789,0.060057703,-3.0770104,0.62070245,0.00017896437,-0.13752922,0.06299453,-0.00026751612,0.017002184,-0.008920214,0.028159976,0.46997148,-1.3595186,1.8759993,-2.0842712,-1.5728501,2.4425583,-0.2170829,0.14861473,-0.19095185,0.05751534,-0.011776285,-0.2451191,-0.34476504,-0.095768064,-9.021352,0.94331104,47.679718,-1.3943107,-2.3759525,-3.2459831,-0.06812921,-0.3716591,-0.23047245,28.625,29.9375,28.875,32.75,35.125,36.25
0.3180519,-0.25871107,0.78232855,-1.1329011,0.025303587,0.095883735,-0.17724916,-0.41138905,-0.35863453,0.06004756,-3.0769444,0.6205331,0.0001316724,-0.13782682,0.06366708,-0.00014104214,0.017574722,-0.010525796,0.033566356,0.46953875,-1.359219,1.8756269,-2.0841148,-1.5729097,2.4420285,-0.21845858,0.14904472,-0.19239755,0.060187235,-0.011595439,-0.25190046,-0.19153613,-0.05746084,-9.040505,0.8806493,47.68599,-1.3392172,-2.2989852,-3.2753596,-0.097629845,-0.3839662,-0.12508097,28.625,29.9375,28.875,32.75,35.125,36.25
0.32005188,-0.5888152,0.1072191,-1.3095646,0.013064537,0.082226574,-0.17203678,-0.4116957,-0.3585268,0.060093798,-3.077008,0.62047166,0.00022791782,-0.1376093,0.06535831,-0.00054833194,0.020800157,-0.014523337,0.029086094,0.46909416,-1.3589668,1.8751968,-2.084017,-1.5729097,2.4415376,-0.2203318,0.1499472,-0.19384432,0.06576025,-0.012638861,-0.24929091,-0.21068975,-0.019153614,-9.155427,0.8940802,47.70211,-1.4268537,-2.2318435,-3.2218704,-0.1785208,-0.3896257,-0.1088415,28.625,29.9375,28.875,32.75,35.125,36.25
0.3220518,-1.0903838,-0.864625,-1.4178355,-0.011820699,0.065131426,-0.15690652,-0.41194943,-0.35839048,0.0600732,-3.076934,0.6203654,0.000101717014,-0.13852134,0.065595165,-0.00015858417,0.021025987,-0.0127742505,0.018980583,0.46866232,-1.358643,1.8748139,-2.0838377,-1.5729345,2.441049,-0.22076774,0.15013479,-0.19485624,0.06513982,-0.013657748,-0.23961632,-0.3256114,0.05746084,-9.155427,0.90750587,47.672558,-1.4909365,-2.1254292,-3.3135653,-0.18403375,-0.39172143,-0.20408562,28.625,29.9375,28.875,32.75,35.125,36.25
0.32405168,-0.5138044,-0.8300329,-1.0845426,-0.046411514,0.08670872,-0.17587739,-0.41224256,-0.3582278,0.060063716,-3.076841,0.6203515,9.498186e-05,-0.13911447,0.067122355,-0.00038457537,0.02345217,-0.013415031,0.007762343,0.4681818,-1.3583311,1.8744305,-2.0837057,-1.573007,2.440572,-0.22255652,0.15063822,-0.1953635,0.06681517,-0.01553932,-0.23017998,-0.47884035,0.095768064,-9.174581,0.88960326,47.667187,-1.4615797,-2.2945862,-3.2989326,-0.2434613,-0.37661016,-0.34523058,28.625,29.9375,28.875,32.75,35.125,36.25
0.32605162,-0.41022173,-0.79274255,-1.3419191,-0.04142453,0.089083835,-0.1713984,-0.41253042,-0.3581113,0.0600834,-3.0768187,0.62035143,0.00013852648,-0.13901612,0.06804796,-0.00096483616,0.02528052,-0.017524226,-0.0013043068,0.46776128,-1.3580426,1.8740114,-2.083584,-1.5730428,2.4401546,-0.22403674,0.1525311,-0.1974079,0.07146112,-0.015306546,-0.22259372,-0.5554548,0.19153613,-9.232041,0.8717007,47.701214,-1.4564412,-2.2220025,-3.2204413,-0.31682006,-0.3903209,-0.45447612,28.625,29.9375,28.875,32.75,35.125,36.25
0.32805172,-1.0163081,-0.572932,-1.3894062,-0.043323576,0.078780144,-0.1767086,-0.41277942,-0.35797176,0.060066555,-3.0767553,0.62024087,2.8471773e-05,-0.1410288,0.06807694,0.00033128646,0.023195386,-0.013192897,0.00019827412,0.46732822,-1.3577434,1.8736523,-2.0834181,-1.5730666,2.4396608,-0.22559913,0.15166418,-0.19876191,0.0688576,-0.015446191,-0.22565627,-0.2681506,0.05746084,-9.3661175,0.81351066,47.685097,-1.3771082,-2.0453937,-3.295313,-0.34376428,-0.36494648,-0.49481815,28.625,29.9375,28.875,32.75,35.125,36.25
0.33005154,-0.7437481,-0.7153476,-1.2300442,-0.03070064,0.10059673,-0.17827144,-0.4130919,-0.35784292,0.060069237,-3.0767236,0.6203036,4.9280374e-05,-0.14319563,0.06881147,0.0003667749,0.021573976,-0.012380837,0.010433041,0.4668595,-1.3574072,1.8732198,-2.0833218,-1.5730909,2.4392354,-0.2291683,0.15329179,-0.20054685,0.06751149,-0.014406203,-0.23946282,-0.24899697,0.038307227,-9.251195,0.85155696,47.698532,-1.1809247,-2.0043955,-3.18952,-0.33461148,-0.40582132,-0.42898107,28.625,29.9375,28.875,32.75,35.125,36.25
0.33205244,-0.59889007,-0.6250685,-1.2992816,-0.010665441,0.11242988,-0.17966415,-0.41335592,-0.35769346,0.06005896,-3.0766764,0.62022895,-4.592873e-05,-0.1457884,0.070361055,0.00088019174,0.0206023,-0.009843838,0.020385303,0.46639013,-1.3571192,1.8728617,-2.0831673,-1.5731028,2.4387257,-0.23364647,0.15339485,-0.20143412,0.065550745,-0.014742865,-0.25389066,-0.45968673,0.095768064,-9.193734,0.92764956,47.707485,-1.1867311,-2.0821018,-3.275257,-0.33859408,-0.3940329,-0.2660462,28.625,29.9375,28.875,32.75,35.125,36.25
0.33405226,-1.0679212,0.29167536,-1.5384839,0.0025212255,0.09845934,-0.16426085,-0.41367698,-0.3575661,0.060081065,-3.076708,0.6201769,2.0469379e-05,-0.14709629,0.071192786,-0.0005859351,0.020284912,-0.010507274,0.021746742,0.46590933,-1.3568188,1.8724312,-2.0830843,-1.5731143,2.4382086,-0.23634711,0.15647912,-0.20121421,0.06267552,-0.014171705,-0.25795487,-0.34476504,-0.05746084,-9.3661175,0.8493211,47.677036,-1.0536263,-1.9749308,-3.4122226,-0.32749838,-0.4155913,-0.19165966,28.625,29.9375,28.875,32.75,35.125,36.25
0.33605257,-0.72525686,0.10585609,-1.7902406,0.012070659,0.08928639,-0.1714428,-0.41395864,-0.3574327,0.06007787,-3.0766857,0.62002444,-5.6305667e-05,-0.14919369,0.07095013,0.00022626936,0.018798642,-0.0059745708,0.014359393,0.46545282,-1.3564947,1.8720106,-2.0829184,-1.5731267,2.43766,-0.23713091,0.15692668,-0.20284958,0.059155,-0.014903585,-0.25134712,-0.36391866,-0.019153614,-9.500193,0.7866488,47.679718,-1.0845008,-2.075771,-3.4402268,-0.29977936,-0.41792217,-0.23588435,28.625,29.9375,28.875,32.75,35.125,36.25
0.3380526,-1.3322304,-0.62333935,-1.4814463,-0.016106099,0.088531435,-0.15800308,-0.41426095,-0.3572768,0.060066655,-3.0765836,0.620045,-3.7622707e-05,-0.1504472,0.070315436,-0.0003869347,0.019199332,-0.0047924756,0.009550531,0.46498513,-1.3561577,1.8716034,-2.0827992,-1.5732111,2.4372184,-0.23642549,0.16050439,-0.20537764,0.05721771,-0.015809786,-0.24582759,-0.68953013,-0.095768064,-9.423578,0.91421866,47.658226,-1.2111195,-2.2558663,-3.4172573,-0.26484004,-0.4188671,-0.3437636,28.625,29.9375,28.875,32.75,35.125,36.25
0.3400525,-0.69052744,-0.8801623,-1.849316,-0.018054921,0.113545924,-0.16539851,-0.4145714,-0.35713968,0.060087014,-3.0765786,0.6200434,1.0022098e-05,-0.1502441,0.0700281,-0.0014729591,0.02056875,-0.005823898,0.007825651,0.46450582,-1.3558692,1.8711852,-2.0826914,-1.5732354,2.436739,-0.23514734,0.16308488,-0.20595524,0.056747697,-0.0165694,-0.24282175,-0.53630114,0.0,-9.442732,0.99702406,47.666286,-1.2958934,-2.276701,-3.4847543,-0.27930164,-0.39090705,-0.38168222,28.625,29.9375,28.875,32.75,35.125,36.25
0.34205252,-0.40266493,-0.384487,-2.1073492,-0.029358663,0.10548334,-0.16996267,-0.41483545,-0.35700864,0.06007183,-3.0765588,0.6199205,-8.0432015e-05,-0.15158126,0.07009589,-0.0022637497,0.020529332,-0.0038407622,0.013850515,0.46406174,-1.3555566,1.8708137,-2.0825613,-1.5732359,2.436221,-0.2357079,0.16544865,-0.20616063,0.052778196,-0.017468493,-0.24940237,-0.26815057,0.019153614,-9.595961,0.9254084,47.642998,-1.3635542,-2.307476,-3.493194,-0.24488714,-0.40894663,-0.3737752,28.625,29.9375,28.875,32.75,35.125,36.25
0.34405252,-0.875969,-0.94751483,-1.7122281,-0.06222631,0.11153651,-0.17910096,-0.41516545,-0.3568518,0.06008003,-3.076503,0.6199018,1.2200983e-05,-0.15252478,0.06993483,-0.0028624074,0.020276695,-0.0037148767,0.026569795,0.46356967,-1.3552321,1.8703827,-2.0824664,-1.5733198,2.4357245,-0.2361514,0.16798386,-0.20759343,0.051386908,-0.01733475,-0.26256508,-0.13407528,0.038307227,-9.519346,0.947788,47.652847,-1.3787094,-2.4266067,-3.448762,-0.20018625,-0.38747805,-0.25897247,28.625,29.9375,28.875,32.75,35.125,36.25
0.34605154,-0.9929024,-1.0358149,-1.384965,-0.07073434,0.11203859,-0.1786991,-0.4154493,-0.3567045,0.06006069,-3.0764768,0.6197958,-5.410287e-05,-0.15339644,0.06955172,-0.0020976854,0.020616105,-0.0016618674,0.037065443,0.4630894,-1.3549082,1.8700117,-2.0823586,-1.5733322,2.4351816,-0.2353206,0.16846414,-0.21000504,0.051601768,-0.018602105,-0.27222368,-0.38307226,0.095768064,-9.404425,0.9030289,47.67345,-1.4044942,-2.3685112,-3.4248543,-0.18706554,-0.38825595,-0.14216882,28.625,29.9375,28.875,32.75,35.125,36.25
0.34805262,-0.9346901,-0.76989424,-1.8945551,-0.05246694,0.09459853,-0.16764866,-0.41577896,-0.35656458,0.060054284,-3.0764647,0.61967945,-3.795576e-05,-0.15497571,0.07003537,-0.00220157,0.020219933,-0.0016176599,0.034330517,0.46259734,-1.354536,1.8695558,-2.0822628,-1.573368,2.4346187,-0.23749247,0.17052764,-0.21232055,0.051619463,-0.018279722,-0.27166057,-0.4213795,0.2681506,-9.519346,0.86498255,47.672558,-1.4783602,-2.3844726,-3.6020675,-0.19856963,-0.39368165,-0.10320544,28.625,29.9375,28.875,32.75,35.125,36.25
0.35005245,-0.4213626,-0.5617777,-1.9295998,-0.047878183,0.103876434,-0.16989942,-0.41610035,-0.35644114,0.06007436,-3.076467,0.619571,1.0565817e-05,-0.15809125,0.06965203,0.0003331206,0.015916066,0.0055097365,0.022836003,0.46214035,-1.354201,1.8690766,-2.0821326,-1.5734037,2.434094,-0.23971683,0.16851166,-0.21485391,0.047874764,-0.01760148,-0.2623924,-0.30645782,0.36391866,-9.500193,0.84484416,47.68062,-1.5059401,-2.322284,-3.538123,-0.13526145,-0.37854427,-0.17369235,28.625,29.9375,28.875,32.75,35.125,36.25
0.35205233,-0.58724225,-0.7356544,-1.949385,-0.05157169,0.08108533,-0.16180404,-0.41640073,-0.35629535,0.060082562,-3.0764136,0.61960644,3.9111957e-05,-0.16001518,0.07095984,0.0007575547,0.017008672,0.006777118,0.008385934,0.46167174,-1.3539009,1.8686689,-2.0820124,-1.5734524,2.4336545,-0.24244444,0.16942486,-0.21712506,0.048601605,-0.019127563,-0.2506635,-0.19153613,0.38307226,-9.576807,0.88960326,47.658226,-1.366705,-2.339261,-3.446399,-0.10129595,-0.3813124,-0.33394378,28.625,29.9375,28.875,32.75,35.125,36.25
0.35405234,-0.5918103,-0.4629704,-1.8803742,-0.06914769,0.068850614,-0.17436032,-0.41672102,-0.3561477,0.060068626,-3.076377,0.6195082,7.777655e-05,-0.1607281,0.071822256,0.00028778627,0.01875177,0.0052524684,4.4457687e-05,0.46119073,-1.3535405,1.8682493,-2.08194,-1.5735129,2.4331172,-0.24379171,0.17151733,-0.21909115,0.050615076,-0.019999104,-0.24366514,-0.34476504,0.34476504,-9.481039,0.90750587,47.68599,-1.2499906,-2.3197343,-3.4747698,-0.10219743,-0.37042242,-0.45031026,28.625,29.9375,28.875,32.75,35.125,36.25
0.35605234,-0.5569014,-0.77761406,-1.8353815,-0.06836109,0.06962082,-0.18171579,-0.41705373,-0.35600775,0.06006259,-3.076342,0.61953723,0.00010697545,-0.16349213,0.073687844,0.00073849043,0.018990323,0.006520548,0.000751923,0.4606975,-1.3531684,1.8677949,-2.081856,-1.5735487,2.4326468,-0.24858297,0.17265089,-0.22161378,0.050943933,-0.020794932,-0.24916016,-0.36391866,0.2681506,-9.481039,0.9634547,47.729877,-1.1300132,-2.215053,-3.3806272,-0.083198145,-0.35454232,-0.47418416,28.625,29.9375,28.875,32.75,35.125,36.25
0.35805234,-0.8397287,-0.64769113,-1.7831571,-0.055021133,0.074607916,-0.17517063,-0.41738468,-0.3558445,0.06007835,-3.0763083,0.6195395,0.00018998185,-0.16380434,0.07394394,0.00086373586,0.019090813,0.0061772144,0.01678479,0.46018177,-1.3528686,1.8673753,-2.0817592,-1.5736088,2.432137,-0.24911314,0.17301774,-0.2225857,0.051828735,-0.020762235,-0.26572368,-0.24899697,0.15322891,-9.595961,0.7911258,47.71286,-1.2344085,-2.2660866,-3.3382094,-0.07260596,-0.3381185,-0.3342749,28.625,29.9375,28.875,32.75,35.125,36.25
0.36005217,-1.1029657,-1.0507767,-1.8876998,-0.031715825,0.084816046,-0.16833773,-0.41770706,-0.35570368,0.06008105,-3.076305,0.6194189,0.00019190561,-0.16383953,0.07419786,-0.000205953,0.019888936,0.0032933638,0.027846653,0.45968923,-1.3525198,1.8669208,-2.0816395,-1.5736326,2.4315698,-0.249717,0.17576489,-0.22384715,0.053230133,-0.020226875,-0.27739042,-0.19153613,0.05746084,-9.519346,0.8179876,47.67793,-1.1975393,-2.349033,-3.434394,-0.055459723,-0.33731574,-0.2013129,28.625,29.9375,28.875,32.75,35.125,36.25
0.362052,-1.1506137,-0.53550637,-1.8154926,-0.03541725,0.10044619,-0.1624541,-0.41804394,-0.3555514,0.060067974,-3.0762818,0.6193201,0.00019282581,-0.1655148,0.074629724,2.1327522e-05,0.019213736,0.0035343133,0.024314618,0.45917287,-1.3521358,1.866465,-2.0815437,-1.5736684,2.430995,-0.25195345,0.17749362,-0.22663331,0.053754635,-0.019740239,-0.27609506,-0.40222588,0.019153614,-9.519346,0.92093146,47.687782,-1.2272122,-2.2437444,-3.3521404,-0.047571026,-0.33643407,-0.16844973,28.625,29.9375,28.875,32.75,35.125,36.25
0.36405203,-0.5234439,-0.0025065006,-1.559147,-0.02762182,0.11476134,-0.15635754,-0.41836762,-0.3554034,0.060070626,-3.0762403,0.6193555,0.0001827674,-0.16640662,0.07516485,0.0009990621,0.018990312,0.0047644335,0.01505139,0.45866817,-1.3517883,1.8660091,-2.0814111,-1.5736927,2.430518,-0.2532086,0.17661266,-0.2281026,0.054911755,-0.020077448,-0.2680851,-0.4213795,-0.05746084,-9.576807,0.8940802,47.67793,-1.2199268,-2.282883,-3.3192396,-0.037175372,-0.33151183,-0.254608,28.625,29.9375,28.875,32.75,35.125,36.25
0.36605188,-0.12486445,0.30362648,-1.5513958,-0.009903375,0.114246756,-0.17758273,-0.4187269,-0.35524487,0.06005566,-3.0762205,0.6193151,0.00018558337,-0.16571845,0.07498608,0.0001619035,0.020767383,0.0028633352,0.010614526,0.45811674,-1.3513802,1.8655308,-2.0813272,-1.5737175,2.429944,-0.251678,0.17849627,-0.22884946,0.056269474,-0.020822175,-0.2621143,-0.36391866,-0.095768064,-9.519346,0.9545008,47.698532,-1.2536857,-2.2755752,-3.3611505,-0.029229835,-0.32291895,-0.39559454,28.625,29.9375,28.875,32.75,35.125,36.25
0.36805186,0.27168778,0.7969114,-1.4077183,-0.0074524726,0.10818081,-0.17085347,-0.41903833,-0.3551127,0.060063098,-3.076224,0.619237,0.00021768008,-0.16579793,0.075073585,-0.00034657735,0.02181137,0.00138999,0.011835586,0.45764932,-1.3510556,1.8650998,-2.0812309,-1.5737413,2.4294276,-0.25154132,0.18036723,-0.23031552,0.05763006,-0.021110488,-0.26319724,-0.40222588,-0.1340753,-9.32781,0.9186956,47.716442,-1.3197644,-2.4120853,-3.4045014,-0.024153844,-0.30889356,-0.4071849,28.625,29.9375,28.875,32.75,35.125,36.25
0.3700518,-0.14558183,0.6737305,-1.4759018,0.019043013,0.08495066,-0.15748441,-0.41938022,-0.35497725,0.060090937,-3.0762632,0.61914384,0.00028305763,-0.16591366,0.07519058,5.5946814e-05,0.021519959,0.00011936917,0.023747195,0.4571439,-1.350732,1.8646206,-2.0811222,-1.5737528,2.4288592,-0.2521309,0.18051986,-0.23203497,0.060154952,-0.020303896,-0.27570197,-0.24899697,-0.21068975,-9.2703495,0.9321212,47.729877,-1.3418345,-2.2448518,-3.4409704,-0.020754965,-0.30091578,-0.31443962,28.625,29.9375,28.875,32.75,35.125,36.25
0.37205166,-0.05121123,0.9311327,-1.4390609,0.020714624,0.06746568,-0.16063786,-0.41972908,-0.354793,0.06006453,-3.0761423,0.61903363,0.00030137546,-0.16496408,0.075132675,-0.001006944,0.023540167,-0.004261862,0.037162054,0.4566171,-1.3503114,1.8641418,-2.0809891,-1.5738729,2.4282794,-0.2510999,0.18321633,-0.23381326,0.06397792,-0.020232467,-0.2880841,-0.22984336,-0.28730422,-9.404425,0.9388393,47.694054,-1.5381515,-2.3229208,-3.4008129,-0.058153372,-0.30481815,-0.18410003,28.625,29.9375,28.875,32.75,35.125,36.25
0.3740515,0.59703153,0.54769427,-1.118606,0.018408513,0.07982881,-0.16681436,-0.42002994,-0.354647,0.06005261,-3.076095,0.61894894,0.00023066829,-0.16565529,0.07671157,-0.0008630155,0.025053151,-0.0057193963,0.034129113,0.45613652,-1.3499521,1.8636988,-2.0808327,-1.5738972,2.4277523,-0.2537079,0.18339904,-0.23510955,0.06705447,-0.020971185,-0.28765476,-0.36391866,-0.21068975,-9.232041,0.88960326,47.674347,-1.5725744,-2.2361465,-3.397541,-0.0701669,-0.30509847,-0.10905215,28.625,29.9375,28.875,32.75,35.125,36.25
