Tylouw/Master_Thesis_Code/training_data/batch_1/rect_rod_t0.3/sample_70_session_2.csv
timestamp[s],tcp_force_x[N],tcp_force_y[N],tcp_force_z[N],tcp_force_rx[Nm?],tcp_force_ry[Nm?],tcp_force_rz[Nm?],tcp_pose_x[m],tcp_pose_y[m],tcp_pose_z[m],tcp_pose_rx[rot_vec_x],tcp_pose_ry[rot_vec_y],tcp_pose_rz[rot_vec_z],tcp_velo_x[m/s],tcp_velo_y[m/s],tcp_velo_z[m/s],tcp_velo_rx[rot_vec_x/s],tcp_velo_ry[rot_vec_y/s],tcp_velo_rz[rot_vec_z/s],q1[rad],q2[rad],q3[rad],q4[rad],q5[rad],q6[rad],qd1[rad/s],qd2[rad/s],qd3[rad/s],qd4[rad/s],qd5[rad/s],qd6[rad/s],tool_acc_x,tool_acc_y,tool_acc_z,current_of_whole_robot[A],voltage_of_whole_robot[V],current_J1[A],current_J2[A],current_J3[A],current_J4[A],current_J5[A],current_J6[A],temp_J1[C],temp_J2[C],temp_J3[C],temp_J4[C],temp_J5[C],temp_J6[C]
9.840005e-07,-0.40350845,0.30703714,1.4124987,-0.0105160205,-0.021358544,-0.014637087,-0.38935414,-0.36872947,0.060031503,-3.0787225,0.6248934,0.00030150803,0.000501695,0.0003101697,-0.00018265063,0.0007989208,-0.0016896367,-2.9910783e-05,0.5050568,-1.3816559,1.9041632,-2.0919154,-1.5708898,2.4800253,-0.00012917559,-7.2061553e-06,-8.216748e-07,0.0018728072,0.00012274728,-9.9634846e-05,0.15322891,0.05746084,-8.7532015,0.7866488,47.73525,-0.16578497,-3.1205258,-2.26304,-0.19794507,0.16293329,0.014772936,28.5,29.8125,28.875,32.6875,35.125,36.1875
0.002055195,0.2687609,0.47293282,1.1621163,-0.013366027,0.00041751415,-0.011887292,-0.3893583,-0.3687133,0.060036827,-3.0786963,0.62498385,0.00031515057,-0.0007990519,-0.00042213922,-0.0016267368,-0.001990481,0.0032793253,-2.8550694e-05,0.50503284,-1.3816794,1.9041771,-2.0919073,-1.5709013,2.480061,-0.00012615751,0.001726183,0.0037803927,-0.009340129,0.00014178257,-9.808365e-05,-0.038307227,0.11492168,-8.6574335,0.7486078,47.72808,-0.16612533,-2.9574957,-2.2902846,-0.16625032,0.15177196,0.031045705,28.5,29.8125,28.875,32.6875,35.125,36.1875
0.004054293,0.1994305,0.4123621,1.286238,-0.022547197,-3.6735197e-05,-0.017705275,-0.3893297,-0.36872217,0.05999649,-3.0787122,0.6249299,0.00020873369,-0.0010492065,-0.0005627415,-0.0024552864,-0.0019251675,0.003157896,-2.6814063e-05,0.50504476,-1.3816426,1.9042362,-2.091955,-1.5708536,2.4800372,-0.00012327752,0.0034555828,0.0040432494,-0.011194508,0.00013957168,-9.6580006e-05,0.019153614,0.19153613,-8.599973,0.8023209,47.755844,-0.13351019,-3.381119,-2.6308432,-0.03633011,0.16933799,0.010609133,28.5,29.8125,28.875,32.6875,35.125,36.1875
0.006054514,-0.12806128,0.29454684,1.2781165,-0.0040452555,-0.01774653,-0.010680124,-0.38931495,-0.36871395,0.060002558,-3.0787075,0.6249099,0.00019319914,-0.00018627073,-8.297889e-05,-0.0017447775,-0.0004953554,0.00059975154,-2.57813e-05,0.50504476,-1.3816792,1.9042596,-2.0919287,-1.5708536,2.4800253,-0.00012052596,0.0021311848,0.0027277505,-0.005624009,0.00013614765,-9.51218e-05,-0.019153614,0.22984336,-8.504205,0.7486078,47.73525,-0.14864413,-3.322888,-2.6222348,-0.076108806,0.16140229,0.0041026184,28.5,29.8125,28.875,32.6875,35.125,36.1875
0.008054002,0.67105114,1.4577465,0.83180463,0.023217293,-0.025537401,-0.016562298,-0.3893447,-0.36870468,0.05999742,-3.078699,0.6249467,0.00022010399,-0.0002966821,-0.00014412047,-0.0001219221,-0.00072444836,0.0010292213,-1.1897124e-05,0.50500876,-1.3816439,1.9042348,-2.0919516,-1.5708655,2.4800134,-0.00011789472,0.00010729133,0.0005934708,-0.0019525144,0.00013280513,-0.00010620631,0.0,0.21068975,-8.734048,0.7463667,47.728977,-0.13093635,-3.2261782,-2.4830818,-0.10398376,0.14599784,0.016255323,28.5,29.8125,28.875,32.6875,35.125,36.1875
0.010054741,0.7958332,1.5096788,0.33163512,0.032557387,-0.023737643,-0.01535293,-0.38935563,-0.36871254,0.06000851,-3.0787165,0.6249495,0.00019498995,0.00033441957,0.00021390556,-0.0001376355,0.0004957468,-0.0011586553,-2.2872593e-05,0.50499684,-1.3816319,1.9041871,-2.0919154,-1.5708417,2.480001,-0.00012802468,1.43945e-06,3.548883e-05,0.001216456,0.00012961787,-0.000105481464,0.038307227,0.15322891,-9.040505,0.7463667,47.72271,-0.7779884,-2.762893,-2.7632706,-0.13731584,0.1472042,-0.061492547,28.5,29.8125,28.875,32.6875,35.125,36.1875
0.012054194,0.37024963,0.85245246,0.3664146,-0.0030754018,-0.009985688,-0.013957106,-0.3893381,-0.3687099,0.059993606,-3.0786889,0.625002,0.00016437525,0.0011118704,0.0007011838,-0.0014576674,0.0026066923,-0.004960172,-3.3440563e-05,0.50500876,-1.381631,1.9042224,-2.0919259,-1.5708417,2.4800491,-0.0002201477,0.0021431744,4.7612798e-07,0.0034580189,0.00012657941,-0.0001869187,0.076614454,0.1340753,-9.251195,0.79560274,47.693153,-0.9973602,-2.8206253,-2.8804474,-0.15698078,0.15820256,-0.12701336,28.5,29.8125,28.875,32.6875,35.125,36.1875
0.014054506,-0.6800139,-0.32740617,0.16348489,-0.035606015,0.00031713385,-0.015747769,-0.38931122,-0.36866906,0.059953585,-3.0785859,0.62490505,7.3039274e-07,-0.0032062365,0.0060767345,-0.005518815,0.0061057983,-0.011290984,-0.0033103672,0.5049801,-1.3815923,1.9042462,-2.091831,-1.5708655,2.479973,-0.013308719,0.010107249,6.387865e-09,0.0027262035,0.00012368003,-0.009997234,0.0,0.1340753,-9.3661175,0.784413,47.701214,-0.40946048,-3.1946309,-3.0266263,-0.1566456,0.15422297,-0.101982646,28.5,29.8125,28.875,32.6875,35.125,36.1875
0.016054172,-1.352921,-1.1003468,-0.03017885,-0.050501287,0.02630273,-0.031331625,-0.38932696,-0.3686866,0.059973363,-3.0786397,0.6249308,4.9950628e-05,-0.00514934,0.0052300086,-0.0038303356,0.003984934,-0.0074679195,0.0049299183,0.50497997,-1.3816043,1.9042209,-2.0918553,-1.5708417,2.4799821,-0.013699616,0.009928492,-0.003466298,0.001998298,0.00012091064,-0.018626936,-0.21068975,0.17238252,-9.423578,0.7351769,47.71286,-0.48961645,-3.2332006,-2.8929734,-0.1398203,0.14405143,-0.054851264,28.5,29.8125,28.875,32.6875,35.125,36.1875
0.018054236,-1.7331862,-0.8347139,-0.110672995,-0.061137557,0.05765457,-0.053832926,-0.3893144,-0.3686843,0.05994573,-3.0786417,0.6248144,-1.8276673e-05,-0.005328863,0.0045017446,-0.0027313845,0.0026787536,-0.0051078945,0.009785068,0.5049804,-1.3815689,1.9042448,-2.0918677,-1.5708297,2.4799097,-0.012639855,0.00841523,-0.0040408764,0.0013884809,0.00011826255,-0.022422267,-0.47884035,0.17238252,-9.404425,0.7709874,47.73077,-0.8257357,-3.0596862,-3.0231128,-0.12544744,0.16605413,-0.010113498,28.5,29.8125,28.875,32.6875,35.125,36.1875
0.020054383,-1.728717,0.034544367,-0.23691364,-0.024622938,0.07285741,-0.07100677,-0.3893143,-0.3686732,0.059916083,-3.0786161,0.6248486,-0.00016868509,-0.0061091636,0.005437374,-0.0025390293,0.0025025802,-0.0048218234,0.007407647,0.50493175,-1.3815091,1.9042333,-2.0918314,-1.5707816,2.4798856,-0.014952758,0.0078105857,-0.003762401,0.0013800927,0.00013248369,-0.022357993,-0.45968673,0.17238252,-9.500193,0.784413,47.744205,-0.9002988,-2.819314,-3.1780984,-0.12076844,0.139018,-0.038701974,28.5,29.8125,28.875,32.6875,35.125,36.1875
0.022054616,-1.4928657,1.0444968,-0.5553341,0.005305545,0.06496569,-0.101473235,-0.38935328,-0.36865708,0.05992837,-3.0786233,0.6248716,-8.962278e-05,-0.00630534,0.0068043405,-0.0037551743,0.004385517,-0.008250407,0.0033455025,0.504883,-1.3815081,1.9042095,-2.0918543,-1.5708054,2.4798503,-0.017446985,0.009797179,-0.003783219,0.003325503,0.00014842278,-0.020789977,-0.47884032,0.019153614,-9.710882,0.76874626,47.729877,-0.8478199,-2.957501,-3.3323755,-0.14929901,0.15494017,-0.038060106,28.5,29.8125,28.875,32.6875,35.125,36.1875
0.024053965,-1.8292037,0.5890791,-0.4485457,0.026718598,0.04164028,-0.10461957,-0.38935095,-0.36867243,0.05992628,-3.078625,0.6248166,-7.783918e-05,-0.0073650293,0.006932072,-0.00399253,0.004817452,-0.009102504,-0.00055988977,0.50491846,-1.3814836,1.9041852,-2.0918543,-1.5708174,2.4798512,-0.018674726,0.012153503,-0.006274108,0.004414733,0.00018047143,-0.018111099,-0.63206923,-0.05746084,-9.672575,0.7620334,47.67614,-0.7652724,-2.94318,-3.375598,-0.14552534,0.15057099,-0.08001123,28.5,29.8125,28.875,32.6875,35.125,36.1875
0.026054034,-1.9111488,0.3413217,-0.5377532,0.020704309,0.03562007,-0.11774217,-0.38936335,-0.3686409,0.05989571,-3.0785785,0.6248643,-0.00017340861,-0.008882589,0.0065348106,-0.0026496388,0.0029839429,-0.0058980053,-0.0024555156,0.50484633,-1.3814358,1.9041957,-2.091843,-1.5708054,2.4798148,-0.019454354,0.011413942,-0.008230713,0.0034195208,0.00022699448,-0.016994406,-0.7469909,-0.038307227,-9.634268,0.7978386,47.691364,-0.8221799,-2.8494184,-3.2890182,-0.12620471,0.15290888,-0.10382193,28.5,29.8125,28.875,32.6875,35.125,36.1875
0.028054198,-1.6111112,0.9200062,-0.432446,-0.008359838,0.061561573,-0.13961656,-0.38936996,-0.3686162,0.059876405,-3.0785327,0.62493247,-0.00023204439,-0.009968302,0.00598277,-0.0027155092,0.0019096333,-0.0052994844,-0.0031618327,0.50479823,-1.381411,1.9042076,-2.091831,-1.570805,2.479815,-0.019943625,0.013380555,-0.010158796,0.0023352273,0.0008700361,-0.016777284,-0.7661445,-0.15322891,-9.768343,0.75755644,47.711063,-0.90542847,-2.901267,-3.3322124,-0.10648525,0.1518875,-0.11821762,28.5,29.8125,28.875,32.6875,35.125,36.1875
0.030054197,-1.5698636,0.5760798,-0.6893474,-0.022266997,0.086950436,-0.1543422,-0.3893896,-0.36864287,0.059893634,-3.0786111,0.62483424,-0.00018453134,-0.010738766,0.0060649114,-0.0026839925,0.0012258107,-0.0051188837,-0.0042992686,0.50480986,-1.3813987,1.9041594,-2.0918553,-1.5707811,2.4797554,-0.021119924,0.014087486,-0.010981428,0.001960647,0.0013796197,-0.016816473,-0.6512228,-0.19153613,-9.844957,0.7732232,47.71554,-0.91318333,-2.8960261,-3.381097,-0.100469515,0.14275584,-0.13633527,28.5,29.8125,28.875,32.6875,35.125,36.1875
0.032054625,-2.346415,0.06717856,-0.43765745,-0.016425557,0.07964579,-0.15512048,-0.38942623,-0.36858812,0.05986541,-3.078511,0.6249093,-0.00022147573,-0.011948614,0.006294234,-0.002680875,0.0014698858,-0.0050942367,-0.0046856143,0.50471354,-1.3813381,1.9041466,-2.091831,-1.5708293,2.4797187,-0.022493321,0.015789011,-0.01312055,0.0024947294,0.00114865,-0.017802127,-0.7278373,-0.095768064,-9.902418,0.800085,47.723602,-1.0223476,-2.904307,-3.321352,-0.09887317,0.14488554,-0.16298895,28.5,29.8125,28.875,32.6875,35.125,36.1875
0.034053776,-1.9194007,0.10383368,-0.49691916,0.0069592763,0.0855461,-0.16661502,-0.38944003,-0.3685831,0.059873786,-3.0785215,0.6249506,-0.00024607504,-0.012422682,0.0071600103,-0.0023969978,0.0019857506,-0.005765603,-0.005710966,0.504677,-1.3813384,1.9041222,-2.0918067,-1.570805,2.4797065,-0.024315074,0.015383218,-0.013700419,0.0043183407,0.0010242858,-0.018598327,-0.7278373,-0.095768064,-9.825804,0.784413,47.72002,-0.9485928,-2.8359215,-3.2782803,-0.12011432,0.14953452,-0.16694707,28.5,29.8125,28.875,32.6875,35.125,36.1875
0.03605419,-1.9954783,0.43292055,-0.6801371,0.02065938,0.063424185,-0.18103905,-0.3894791,-0.36855724,0.059875526,-3.078508,0.6249679,-0.00023583957,-0.013441513,0.007970769,-0.0024953214,0.002379656,-0.0062999795,-0.0065243207,0.50460434,-1.3813138,1.9040865,-2.0917938,-1.5708169,2.4796464,-0.02657625,0.016309565,-0.0147483,0.005098089,0.00093645963,-0.020045502,-0.59376204,-0.038307227,-9.749189,0.7284641,47.711063,-0.9056784,-2.8197746,-3.3069296,-0.1196726,0.15912788,-0.18204547,28.5,29.8125,28.875,32.6875,35.125,36.1875
0.03805423,-1.2345071,0.32764685,-0.45051342,0.015992865,0.05394143,-0.19437672,-0.3894958,-0.36855456,0.059854236,-3.0784767,0.62496036,-0.0002651819,-0.014380677,0.008109777,-0.0019528205,0.0014340659,-0.004469871,-0.0058734184,0.50459194,-1.381242,1.9040502,-2.0917943,-1.5708293,2.4796333,-0.027648322,0.01576692,-0.015072398,0.0039054162,0.0008745831,-0.021768227,-0.47884035,-0.05746084,-9.787497,0.7620334,47.70211,-0.8989189,-2.7728043,-3.3454585,-0.09912187,0.15590714,-0.19394335,28.5,29.8125,28.875,32.6875,35.125,36.1875
0.04005386,-1.2580711,0.09145388,-0.4038804,0.00016090139,0.036152307,-0.20861878,-0.3895106,-0.36851987,0.059828967,-3.078424,0.6250268,-0.0003361744,-0.015793212,0.0081857415,-0.0016197931,0.0007465023,-0.003135716,-0.0061793034,0.5045197,-1.3812056,1.9040622,-2.0917833,-1.5708293,2.4796093,-0.029065179,0.016668467,-0.016726768,0.0031580462,0.0008241543,-0.02287826,-0.5554548,0.038307227,-9.80665,0.76874626,47.707485,-0.946725,-2.7499266,-3.3261862,-0.10101041,0.15715319,-0.2163604,28.5,29.8125,28.875,32.6875,35.125,36.1875
0.042054404,-1.2643898,-0.41178605,-0.5118277,-0.0076274243,0.033584937,-0.2154354,-0.38955525,-0.36851153,0.059834488,-3.0784152,0.6250631,-0.00031016552,-0.016743528,0.008424648,-0.0012639576,0.00023493626,-0.002046806,-0.0057278783,0.5044713,-1.3811576,1.9039901,-2.091771,-1.5708412,2.4795847,-0.030301865,0.016722921,-0.017490426,0.002666545,0.00074233447,-0.024565838,-0.51714754,-0.019153614,-9.730036,0.74413085,47.709274,-0.9863615,-2.7359438,-3.2992845,-0.08642168,0.15244497,-0.21356967,28.5,29.8125,28.875,32.6875,35.125,36.1875
0.044053927,-1.3344707,-0.6011322,-0.5222371,-0.006145695,0.028573748,-0.22653975,-0.38959572,-0.36848807,0.059836958,-3.0784168,0.62510103,-0.0003210279,-0.01833312,0.008789525,-0.00024864794,-0.0005416964,-0.0003878966,-0.0060029794,0.50438684,-1.3811337,1.9039534,-2.091759,-1.5708297,2.4795237,-0.032320246,0.016447244,-0.019603048,0.003227765,0.0006164465,-0.026308125,-0.22984336,0.076614454,-9.691729,0.7284641,47.71017,-0.94138443,-2.752326,-3.2637758,-0.094636604,0.17988536,-0.23441987,28.5,29.8125,28.875,32.6875,35.125,36.1875
0.046054192,-0.23545186,0.15438823,-0.24244004,-0.021656217,0.044862676,-0.22883712,-0.3896581,-0.3684607,0.059850566,-3.0784154,0.62517756,-0.00026715468,-0.019496154,0.009698562,-0.00016843819,-0.00036007023,-0.000573649,-0.0058378126,0.50429,-1.3811095,1.9038938,-2.0917585,-1.5708417,2.4794748,-0.034889538,0.016999714,-0.020595107,0.0039173528,0.0005465923,-0.029042015,-0.15322891,0.1340753,-9.615114,0.71951014,47.72808,-0.87196344,-2.6399167,-3.2513947,-0.105914,0.19364595,-0.24446218,28.5,29.8125,28.875,32.6875,35.125,36.1875
0.048053823,-0.061192688,0.21060295,-0.45426536,-0.015768109,0.031186633,-0.20568085,-0.3896899,-0.36843368,0.059838533,-3.0784092,0.6250789,-0.0002568243,-0.020032981,0.010216251,6.415747e-05,-0.00058329845,-0.00027649602,-0.0044955276,0.5042296,-1.3810736,1.9038814,-2.0917704,-1.5708655,2.4793537,-0.03629175,0.01656869,-0.020639852,0.004023792,0.00059728406,-0.031786673,-0.17238252,0.15322891,-9.500193,0.7978386,47.66987,-0.87351453,-2.6766613,-3.3399265,-0.079548255,0.18337467,-0.23397133,28.5,29.8125,28.875,32.6875,35.125,36.1875
0.050054446,0.061312407,0.56360084,-0.21234576,-0.020296533,0.016755177,-0.22095767,-0.38972902,-0.3684326,0.05985989,-3.0784557,0.6251463,-0.00023476005,-0.02162038,0.010816669,-2.2676637e-05,-0.0008640746,0.00014236824,-0.0045703407,0.5041689,-1.3810731,1.9038323,-2.091771,-1.5708297,2.479329,-0.038807448,0.018033054,-0.022045871,0.0034637635,0.0006372106,-0.034226734,0.038307227,0.11492168,-9.500193,0.7329411,47.658226,-0.769143,-2.7196026,-3.283766,-0.07684532,0.17896721,-0.2443422,28.5,29.8125,28.875,32.6875,35.125,36.1875
0.052053787,-0.5763349,-0.40824538,-0.5793405,-0.004273537,-0.0031706674,-0.20146476,-0.38979,-0.36841127,0.05984758,-3.0784473,0.62524146,-0.00027548088,-0.023353213,0.010678932,0.0009635832,-0.0026398287,0.0021683434,-0.0051881634,0.50406057,-1.3809888,1.9037608,-2.091771,-1.570805,2.4792812,-0.040544275,0.018208608,-0.024395654,0.0030050366,0.0012066683,-0.035345737,0.038307227,0.11492168,-9.500193,0.7351769,47.682407,-0.7452445,-2.6411462,-3.220859,-0.082522824,0.1840967,-0.24977317,28.5,29.8125,28.875,32.6875,35.125,36.1875
0.054054033,-0.15632463,-0.30202568,-0.2588273,-0.010895114,0.00030013794,-0.19372623,-0.38982558,-0.36838213,0.059857246,-3.0784402,0.62518,-0.00022322289,-0.02340455,0.010264987,0.0011401948,-0.0029294514,0.0024069818,-0.0032595901,0.5040009,-1.3809887,1.903736,-2.091759,-1.5708412,2.4791842,-0.039978962,0.018483229,-0.025151795,0.0031358146,0.0013439138,-0.036708888,-0.019153614,0.1340753,-9.442732,0.75084364,47.731667,-0.86373043,-2.6682167,-3.1766224,-0.06624363,0.1770837,-0.25901008,28.5,29.8125,28.875,32.6875,35.125,36.1875
0.056054395,0.026923625,0.019085178,-0.10441245,-0.016739847,0.006559415,-0.20586021,-0.3898977,-0.36836466,0.059870563,-3.0784397,0.6252574,-0.00019650752,-0.024571417,0.011029342,0.0009071238,-0.0030720853,0.0015003919,-0.004699216,0.5039041,-1.3809283,1.9036287,-2.0917346,-1.5708412,2.4791358,-0.04270017,0.019814491,-0.026323633,0.003699316,0.0019061272,-0.0379908,-0.019153614,0.11492168,-9.442732,0.7866488,47.733456,-0.8583566,-2.6101217,-3.2188096,-0.06718182,0.18429717,-0.2668069,28.5,29.8125,28.875,32.6875,35.125,36.1875
0.058053702,-0.43750927,0.2394785,-0.22046766,-0.01972334,-0.004458709,-0.2055012,-0.38990095,-0.36833856,0.059851833,-3.0784543,0.62522197,-0.00032870652,-0.024913551,0.011862299,0.000668728,-0.0026776148,0.00080310245,-0.0049593123,0.50381964,-1.3809162,1.9036516,-2.0917103,-1.5707811,2.4790273,-0.044414543,0.019857444,-0.025911031,0.0040472066,0.0018964885,-0.03944537,-0.038307227,0.19153613,-9.423578,0.83813137,47.733456,-0.7599467,-2.6482282,-3.2345004,-0.062108677,0.18422024,-0.29884356,28.5,29.8125,28.875,32.6875,35.125,36.1875
0.06005405,0.24306345,0.17420782,0.0011371484,-0.012306359,0.009784799,-0.19930047,-0.39000818,-0.3683374,0.059914015,-3.0785363,0.625219,-6.646349e-05,-0.02550575,0.012298196,0.0008352974,-0.0028399187,0.0005458966,-0.00551432,0.5037474,-1.3809162,1.903521,-2.0917585,-1.5708288,2.4789429,-0.04586207,0.019985516,-0.026601003,0.004753171,0.0021699846,-0.04033777,0.0,0.095768064,-9.3661175,0.78888994,47.716442,-0.80522895,-2.5996308,-3.3050747,-0.06428639,0.18964127,-0.29395467,28.5,29.8125,28.875,32.6875,35.125,36.1875
0.062054243,0.18241006,0.21212687,0.07874639,-0.007721227,0.015260461,-0.19349615,-0.39006424,-0.3682947,0.059878238,-3.0784783,0.62532127,-0.00016408366,-0.02671236,0.0119713005,0.0012380106,-0.0036752636,0.001606557,-0.0045699766,0.50361544,-1.3808076,1.9034714,-2.0917466,-1.5708164,2.478882,-0.046564974,0.0211394,-0.028824186,0.00449018,0.0023812777,-0.04198442,-0.019153614,0.019153614,-9.385271,0.7732232,47.709274,-0.79371315,-2.6000876,-3.2367904,-0.05143037,0.19685918,-0.32772362,28.5,29.8125,28.875,32.6875,35.125,36.1875
0.06405421,-0.64373684,0.33149588,-0.049058534,-0.004763325,0.0030462989,-0.19912791,-0.39009365,-0.36827672,0.059871934,-3.078492,0.62534297,-0.00018938049,-0.027543625,0.012370029,0.0012507668,-0.0042702323,0.0013477114,-0.0035903854,0.50354284,-1.3807836,1.9034599,-2.0917585,-1.5707926,2.4788213,-0.048410542,0.021712853,-0.029552927,0.004583637,0.0030254526,-0.044810306,-0.1340753,0.019153614,-9.442732,0.7351769,47.713753,-0.76094687,-2.568427,-3.1727772,-0.065217555,0.1921927,-0.31697816,28.5,29.8125,28.875,32.6875,35.125,36.1875
0.06605381,-1.01409,0.28167745,-0.084629916,0.0027896962,0.008598543,-0.19412078,-0.3901608,-0.36825252,0.05990925,-3.078529,0.62527335,-0.00012075956,-0.028526353,0.012523932,0.0016042336,-0.005290186,0.0018770066,-0.0036813933,0.50344664,-1.3807836,1.9033641,-2.0917103,-1.570804,2.478677,-0.049977303,0.02197209,-0.030632017,0.0044450797,0.0036629944,-0.04628648,-0.11492168,0.05746084,-9.32781,0.6971306,47.7451,-0.803282,-2.4766977,-3.2494597,-0.051000513,0.1904408,-0.34100795,28.5,29.8125,28.875,32.6875,35.125,36.1875
0.068054214,-0.91261375,-0.050502315,-0.07058284,0.00868625,0.025973829,-0.18556188,-0.39021063,-0.36822584,0.059896443,-3.0784967,0.6253039,-0.00013887351,-0.028610714,0.012622499,0.0015151185,-0.0053912005,0.00091496354,-0.003798077,0.50336266,-1.3807112,1.9033049,-2.0916984,-1.5708159,2.4786162,-0.05056199,0.022431724,-0.031172097,0.0053171986,0.0042154924,-0.04675531,-0.1340753,0.076614454,-9.346964,0.7642693,47.758533,-0.880904,-2.567825,-3.206862,-0.05771879,0.18996653,-0.33805496,28.5,29.8125,28.875,32.6875,35.125,36.1875
0.070054665,-0.68592817,0.19788939,-0.007267325,-0.0005638154,0.04439606,-0.19605543,-0.39028028,-0.36821294,0.059914585,-3.0785506,0.6253341,-0.00011867746,-0.030083934,0.013747253,0.0013146468,-0.00562725,8.9578e-06,-0.0036754268,0.5032534,-1.3806747,1.9032205,-2.0916984,-1.5707797,2.478519,-0.054223083,0.023631288,-0.032264195,0.005889058,0.0048601464,-0.050539333,-0.40222588,0.095768064,-9.346964,0.77545905,47.705692,-0.7500931,-2.6275785,-3.2232327,-0.06698469,0.17799786,-0.34645692,28.5,29.8125,28.875,32.6875,35.125,36.1875
0.07205398,-0.85645854,0.1171932,-0.0046138675,0.00016177182,0.053300798,-0.18342225,-0.39032456,-0.36817098,0.05988447,-3.0785217,0.6252873,-0.00021708882,-0.029826315,0.013123129,0.0011684365,-0.0058848597,-0.00077972247,0.0015309635,0.503134,-1.3805903,1.9031838,-2.091674,-1.5707678,2.478374,-0.053303346,0.024574049,-0.033167653,0.0064151655,0.005461026,-0.054826908,-0.38307226,0.05746084,-9.346964,0.7642693,47.737934,-0.7745491,-2.5382566,-3.2466226,-0.062390003,0.151245,-0.32623923,28.5,29.8125,28.875,32.6875,35.125,36.1875
0.07405417,-1.2602248,0.12774324,-0.08646037,-0.0004781058,0.053794734,-0.18716691,-0.39037862,-0.36815715,0.059900504,-3.0785875,0.6252597,-0.00019637318,-0.030672511,0.013563759,0.0011475211,-0.0060353335,-0.0006617545,0.0034714572,0.50303775,-1.380578,1.9031357,-2.0916865,-1.5707315,2.4782522,-0.054874185,0.025190167,-0.033816442,0.006274066,0.005536414,-0.058337726,-0.30645782,0.019153614,-9.423578,0.7665104,47.688675,-0.85220504,-2.5315924,-3.2486644,-0.08727901,0.14907147,-0.30437654,28.5,29.8125,28.875,32.6875,35.125,36.1875
0.07605397,-0.75542665,0.9117169,0.15033849,-0.017368121,0.06698262,-0.20225069,-0.39044443,-0.3681267,0.059916884,-3.0786002,0.62532014,-0.00018171068,-0.031680256,0.013729905,0.0012364042,-0.007047444,-0.0004839286,0.002519575,0.50291747,-1.3805538,1.9030641,-2.0916622,-1.5707191,2.478168,-0.05658401,0.025953075,-0.034832202,0.0058817384,0.006335857,-0.05909628,-0.34476504,0.019153614,-9.461885,0.75084364,47.716442,-0.79664946,-2.4986453,-3.159351,-0.060218077,0.15816215,-0.3122004,28.5,29.8125,28.875,32.6875,35.125,36.1875
0.078053705,-0.4388367,0.5490108,-0.029708756,-9.775678e-05,0.07517473,-0.19967355,-0.3904987,-0.36809888,0.0599025,-3.078585,0.6252769,-0.00022430267,-0.0332621,0.015169454,0.0012791508,-0.0066832383,-0.00027986037,0.0036847552,0.5028204,-1.3804698,1.9029921,-2.0916383,-1.5707196,2.478046,-0.060211223,0.026345164,-0.035444908,0.0061010914,0.0059147426,-0.06388791,-0.30645782,0.038307227,-9.289503,0.7642693,47.74331,-0.76225746,-2.5009174,-3.1902928,-0.06342405,0.11974791,-0.28419888,28.5,29.8125,28.875,32.6875,35.125,36.1875
0.08005381,-0.81518555,0.57388777,0.0006389895,-0.0010484407,0.068436064,-0.19216181,-0.39057893,-0.36808857,0.05991541,-3.078648,0.625248,-0.00017889169,-0.033021208,0.014207503,0.0016720155,-0.006534008,0.0005987607,0.010333598,0.5027134,-1.3804095,1.9028968,-2.0916617,-1.5706958,2.477913,-0.058013074,0.026643371,-0.03676736,0.0064315326,0.0053619216,-0.068336815,-0.4405331,0.019153614,-9.3661175,0.80456203,47.744205,-0.87971795,-2.4939551,-3.2117624,-0.06479389,0.13650048,-0.23545712,28.5,29.8125,28.875,32.6875,35.125,36.1875
0.08205385,-0.85001415,0.59994006,0.08200709,0.00012760347,0.067070685,-0.19223061,-0.3906349,-0.3680435,0.059902836,-3.078628,0.62518406,-0.00020998248,-0.03376509,0.014912832,0.0013796493,-0.0061345096,0.00021080322,0.012760469,0.50259286,-1.3803492,1.9028486,-2.0916378,-1.5707077,2.477755,-0.059782773,0.027480356,-0.03709999,0.0064600087,0.005195256,-0.07253304,-0.36391866,0.038307227,-9.3661175,0.78888994,47.737038,-0.9089058,-2.5393877,-3.2435782,-0.07950049,0.15671372,-0.19772321,28.5,29.8125,28.875,32.6875,35.125,36.1875
0.08405401,-0.8955847,0.6918914,0.018560542,0.0037755016,0.06761849,-0.19494429,-0.39071342,-0.36798683,0.059893746,-3.0785983,0.6252153,-0.00025171554,-0.03516335,0.015669007,0.0014599463,-0.0057962476,0.00072258664,0.013611809,0.5024246,-1.3802768,1.9027756,-2.091602,-1.5707082,2.47761,-0.062005732,0.02843978,-0.038441703,0.006559485,0.004646955,-0.075605914,-0.40222588,-0.038307227,-9.32781,0.75755644,47.728977,-0.9170269,-2.4814193,-3.2077913,-0.08075502,0.13419782,-0.15114027,28.5,29.8125,28.875,32.6875,35.125,36.1875
0.08605395,-1.0334728,0.36668184,-0.14378095,0.008270424,0.05317758,-0.18033668,-0.3907723,-0.3679945,0.05991776,-3.0786874,0.6250774,-0.0002581425,-0.03589064,0.015617024,0.0018410682,-0.0057726344,0.0017929515,0.016055427,0.50235265,-1.3802286,1.902656,-2.0915663,-1.57066,2.4774408,-0.062251817,0.028795429,-0.039733652,0.0065750936,0.00411055,-0.07829399,-0.30645782,-0.1340753,-9.442732,0.84484416,47.739727,-0.96482587,-2.4526541,-3.2409215,-0.07854888,0.15220468,-0.110194445,28.5,29.8125,28.875,32.6875,35.125,36.1875
0.08805436,-0.8681012,0.48558873,-0.09807153,-0.004941201,0.05131613,-0.1875969,-0.39084116,-0.36792904,0.059900492,-3.0786479,0.6250504,-0.00022312465,-0.036608975,0.016005468,0.0016195317,-0.0055769426,0.0019083335,0.016560033,0.5022085,-1.3801802,1.9026436,-2.0915906,-1.5707082,2.477285,-0.06342319,0.029690573,-0.040187795,0.0061248196,0.0038808396,-0.07996926,-0.30645782,0.038307227,-9.385271,0.75755644,47.701214,-0.9666348,-2.4550486,-3.128771,-0.07138159,0.1263772,-0.0756515,28.5,29.8125,28.875,32.6875,35.125,36.1875
0.09005461,-1.2558082,0.037762403,-0.19912371,-0.0017311805,0.033288844,-0.18390782,-0.3909271,-0.36791337,0.059925925,-3.0787182,0.6250064,-0.0002580887,-0.03661367,0.016355252,0.0010352429,-0.0048458506,0.00083034154,0.016127644,0.50206465,-1.3801199,1.9025005,-2.09153,-1.5706481,2.4771047,-0.06393011,0.030672345,-0.040065613,0.0063234814,0.00376183,-0.08004343,-0.38307226,-0.05746084,-9.385271,0.7933669,47.729877,-1.0421876,-2.5252314,-3.2321424,-0.074642316,0.14897776,-0.07319431,28.5,29.8125,28.875,32.6875,35.125,36.1875
0.09205383,-1.6948502,0.12705642,-0.18016797,-0.005949842,0.019735472,-0.18066187,-0.39099166,-0.3678774,0.059931695,-3.0787394,0.62493473,-0.00024501808,-0.037192818,0.017081408,0.00030758313,-0.003776808,-0.00021610288,0.014141699,0.5019444,-1.3800833,1.9024414,-2.0915182,-1.5706486,2.476937,-0.06541339,0.03232006,-0.040383197,0.0064270613,0.0033289753,-0.07953964,-0.21068975,-0.05746084,-9.404425,0.8090337,47.70838,-1.0844333,-2.5519052,-3.258359,-0.0879274,0.14772084,-0.05466701,28.5,29.8125,28.875,32.6875,35.125,36.1875
0.09405391,-0.23624437,0.21873887,0.01916725,-0.01161711,0.04599301,-0.18320832,-0.39110976,-0.3678384,0.05994343,-3.0787582,0.6249959,-0.00016012428,-0.038502637,0.017125385,0.000531461,-0.003976285,0.0009740009,0.0121072205,0.50177646,-1.3799988,1.9023203,-2.0915425,-1.5706605,2.476805,-0.0664414,0.033530477,-0.042207755,0.005902923,0.0029314633,-0.07853136,-0.15322891,0.038307227,-9.423578,0.7530795,47.681515,-1.107792,-2.5302324,-3.2395916,-0.0638258,0.1447441,-0.08185378,28.5,29.8125,28.875,32.6875,35.125,36.1875
0.09605455,-0.11059865,0.22874506,0.022460362,-0.008288782,0.039603,-0.18750487,-0.39116842,-0.3678153,0.05992763,-3.0787601,0.6249594,-0.000228638,-0.04016743,0.01714477,0.0012922812,-0.004816022,0.0029055316,0.009315116,0.5016681,-1.3799024,1.9022368,-2.0915186,-1.5706366,2.4766736,-0.06788667,0.034093667,-0.044532605,0.0055700894,0.0027306222,-0.077183254,-0.21068975,0.076614454,-9.3661175,0.75084364,47.694054,-1.1581237,-2.5783424,-3.1014786,-0.08547589,0.15089369,-0.07228667,28.5,29.8125,28.875,32.6875,35.125,36.1875
0.09805396,-0.2153869,0.26627287,-0.13694295,-0.0075992853,0.018299343,-0.19220875,-0.39124948,-0.36777434,0.05993374,-3.0787969,0.6248529,-0.00020152993,-0.040075533,0.018079393,0.00040155227,-0.0042829327,0.001468781,0.005684382,0.50152385,-1.3798541,1.9021658,-2.0915186,-1.5706366,2.4764583,-0.069505446,0.034471113,-0.042824883,0.005000486,0.002959001,-0.07517217,-0.11492168,0.11492168,-9.308656,0.7709874,47.709274,-1.0920148,-2.59715,-3.2286444,-0.07446427,0.16437203,-0.12002203,28.5,29.8125,28.875,32.6875,35.125,36.1875
0.1000538,-0.074857555,0.28429237,-0.22409408,-0.01733686,0.011573085,-0.1879103,-0.3913395,-0.3677198,0.05991961,-3.0787504,0.6249597,-0.0002180508,-0.040982634,0.01824638,0.0006215727,-0.0046583004,0.0015663743,0.0031465704,0.5013559,-1.3797579,1.9020814,-2.0915067,-1.5706486,2.476363,-0.07079033,0.035226647,-0.044332456,0.0054850737,0.003238068,-0.07391909,0.019153614,0.15322891,-9.385271,0.75755644,47.686886,-1.1716546,-2.5705938,-3.317747,-0.0689081,0.169083,-0.1376265,28.5,29.8125,28.875,32.6875,35.125,36.1875
0.10205374,0.41962168,0.03638777,-0.24143293,-0.017868873,0.010061216,-0.18278857,-0.39144218,-0.36768445,0.05994328,-3.0787807,0.6249086,-9.565146e-05,-0.042246606,0.018742422,0.0007453949,-0.005159773,0.0018181266,-0.0001350815,0.5012234,-1.3797096,1.9019731,-2.0915186,-1.5706843,2.4761949,-0.07298465,0.03605853,-0.0455909,0.0054465085,0.0035599347,-0.07283138,0.019153614,0.11492168,-9.442732,0.8112748,47.666286,-1.1126978,-2.577007,-3.2642877,-0.07024658,0.16629677,-0.18125547,28.5,29.8125,28.875,32.6875,35.125,36.1875
0.104054555,0.067539245,-0.08109113,-0.28708097,-0.020832838,-0.0023649181,-0.18970284,-0.39152682,-0.36765265,0.059968576,-3.0788074,0.6248957,-5.1950003e-05,-0.043466114,0.018563176,0.0011553466,-0.0056499797,0.0024344318,-0.001851362,0.5010913,-1.3796732,1.9018644,-2.0914829,-1.5706843,2.4760513,-0.07388468,0.03734544,-0.048162095,0.0059547615,0.0036926193,-0.072014004,-0.038307227,0.19153613,-9.404425,0.8247004,47.73256,-1.149284,-2.6032887,-3.2015944,-0.06579171,0.17384219,-0.20943083,28.5,29.8125,28.875,32.6875,35.125,36.1875
0.1060537,-0.0812562,-0.29899275,-0.326129,-0.022365531,0.008234451,-0.18537691,-0.3916067,-0.36760384,0.059943397,-3.0787802,0.6249083,-9.710473e-05,-0.04460299,0.019096067,0.0016673347,-0.0064670066,0.0032194394,-0.0029929397,0.50093496,-1.3795651,1.9017938,-2.0914829,-1.5706843,2.4759064,-0.076032475,0.037074905,-0.049022034,0.0060036867,0.004028494,-0.073020585,-0.1340753,0.24899697,-9.385271,0.78888994,47.74062,-1.1370853,-2.5856316,-3.1421475,-0.077681616,0.16200277,-0.25388053,28.5,29.8125,28.875,32.6875,35.125,36.1875
0.10805402,0.004979818,0.31349045,-0.14206941,-0.03758359,0.023453726,-0.18644209,-0.39170218,-0.36757442,0.059938375,3.0788052,-0.62493366,0.00014771515,-0.043869074,0.019902509,0.00027133434,-0.005293042,-6.59887e-05,-0.003843607,0.5007669,-1.3794568,1.9016742,-2.0914705,-1.5706362,2.475751,-0.0770389,0.038289152,-0.04743285,0.006648112,0.0045818645,-0.073177725,0.019153614,0.19153613,-9.346964,0.8179876,47.717335,-1.163938,-2.5869315,-3.3245173,-0.08374466,0.16312376,-0.26053354,28.5,29.8125,28.875,32.6875,35.125,36.1875
0.11005425,-0.17890242,-0.16465715,-0.027099218,-0.034286886,0.033194758,-0.18939532,-0.39176226,-0.3675353,0.059927616,3.0788083,-0.62493426,0.00024271666,-0.044944644,0.019895822,0.0003772106,-0.0059131514,-9.755032e-05,-0.0058877124,0.5006227,-1.379384,1.9016017,-2.0914223,-1.5705999,2.4756067,-0.07835921,0.03967234,-0.049380198,0.0069435486,0.0051343655,-0.07245406,-0.076614454,0.28730422,-9.385271,0.8224646,47.71554,-1.1620736,-2.494467,-3.3300395,-0.09742189,0.16596863,-0.29873458,28.5,29.8125,28.875,32.6875,35.125,36.1875
0.11205437,-0.66064006,-0.6034147,-0.23049948,-0.02127676,0.035629664,-0.17918427,-0.39186183,-0.3674976,0.05994653,3.0787826,-0.6249469,0.0002001451,-0.045737647,0.019801725,0.00080239755,-0.0063963495,0.0005783131,-0.0041519357,0.500467,-1.3793238,1.901482,-2.0913985,-1.5705999,2.4754622,-0.07898153,0.040100615,-0.05092179,0.0072327317,0.0052341293,-0.07481147,-0.076614454,0.19153613,-9.385271,0.75755644,47.739727,-1.2567872,-2.5877976,-3.2225404,-0.09307009,0.13566531,-0.32723463,28.5,29.8125,28.875,32.6875,35.125,36.1875
0.114053726,-0.5449216,0.37832218,-0.10388528,-0.02966184,0.03573894,-0.19067223,-0.39196506,-0.36747,0.05993572,3.0787437,-0.624961,0.00019463527,-0.0477426,0.02117246,0.0012680639,-0.006980585,0.0013747405,-0.009815495,0.5003097,-1.3792038,1.9013728,-2.0914347,-1.5705756,2.4753187,-0.08320893,0.04012126,-0.05203656,0.0073498087,0.005365096,-0.07337495,-0.15322891,0.17238252,-9.423578,0.7911258,47.709274,-1.1707633,-2.4643478,-3.245435,-0.08699116,0.14806414,-0.37088808,28.5,29.8125,28.875,32.6875,35.125,36.1875
0.11605374,-0.25590897,0.31362703,-0.14263171,-0.025355764,0.04448066,-0.18036705,-0.39202335,-0.36740726,0.05990936,3.0787861,-0.62494814,0.00029637528,-0.04705699,0.020499647,0.0005906032,-0.006259614,0.00035737592,-0.007998977,0.50014263,-1.3791311,1.9013385,-2.0913985,-1.5705637,2.4751382,-0.081339285,0.041628726,-0.052276764,0.007323371,0.005215012,-0.07332165,-0.1340753,0.19153613,-9.442732,0.78217715,47.771072,-1.3161724,-2.5755384,-3.2393978,-0.08951403,0.15770099,-0.44405168,28.5,29.8125,28.875,32.6875,35.125,36.1875
0.11805371,-0.3391618,-0.070970036,-0.017333942,-0.013709238,0.046569973,-0.18477607,-0.39215034,-0.367384,0.059947867,3.0787177,-0.6249331,0.00016703097,-0.048649263,0.021475231,-8.5428175e-05,-0.0063555324,-0.00062024186,-0.008150154,0.4999859,-1.3790703,1.9011816,-2.0914104,-1.5705637,2.4749808,-0.08478171,0.04395649,-0.053408783,0.006938848,0.0057728663,-0.0766123,-0.21068975,0.15322891,-9.404425,0.8112748,47.734352,-1.3098252,-2.6299357,-3.2819324,-0.09350181,0.1383641,-0.4726317,28.5,29.8125,28.875,32.6875,35.125,36.1875
0.12005398,-0.725519,0.107472405,-0.114885725,-0.009522445,0.042362742,-0.17760855,-0.3922475,-0.367344,0.059935667,3.07871,-0.62490946,0.00023313337,-0.04930282,0.02139996,0.0011567969,-0.0075863115,0.0011986718,-0.004879288,0.4998061,-1.3789507,1.9010624,-2.0913866,-1.5705274,2.4747872,-0.08536851,0.04231651,-0.054399777,0.007387305,0.0059786504,-0.08047034,-0.21068975,-0.019153614,-9.423578,0.78217715,47.729877,-1.171735,-2.5222712,-3.2375536,-0.10254391,0.14166392,-0.45940408,28.5,29.8125,28.875,32.6875,35.125,36.1875
0.122054026,-1.0197479,0.70305234,-0.104730956,-0.012723722,0.04588119,-0.18503411,-0.39231884,-0.36728582,0.059927512,3.0787423,-0.62491256,0.0002628313,-0.050501317,0.02170249,0.0016343133,-0.008202004,0.0024442186,0.00038167898,0.49964988,-1.3788908,1.9010018,-2.0913508,-1.5705398,2.474629,-0.086934835,0.0424411,-0.055555437,0.0070313863,0.0059162937,-0.08729723,-0.24899697,0.05746084,-9.461885,0.8179876,47.73614,-1.3300351,-2.5009568,-3.2241418,-0.11310085,0.14078881,-0.45213765,28.5,29.8125,28.875,32.6875,35.125,36.1875
0.124054186,-0.27341056,0.7963621,0.00020247824,-0.008055175,0.07419272,-0.19231822,-0.39243627,-0.367262,0.059945248,3.078719,-0.6247907,0.00020587468,-0.05159696,0.022308286,0.0012187397,-0.007939049,0.0020168908,0.0033220344,0.49949348,-1.3787938,1.9008468,-2.0913508,-1.5705274,2.4743996,-0.08893197,0.044129103,-0.056574438,0.006866445,0.0058934335,-0.09223366,-0.40222588,-0.038307227,-9.442732,0.77545905,47.7451,-1.3362356,-2.5104437,-3.2321672,-0.10690117,0.1250797,-0.4118117,28.5,29.8125,28.875,32.6875,35.125,36.1875
0.12605402,-1.2196081,0.694686,0.18209425,0.00083842047,0.0586261,-0.17907211,-0.3925492,-0.3672091,0.05994546,3.078678,-0.6248546,0.00024260415,-0.052031733,0.022723023,0.00053459575,-0.0073011154,0.000716939,0.008459447,0.49927774,-1.3786974,1.9007267,-2.091327,-1.5704917,2.4742289,-0.090050004,0.04590178,-0.057187155,0.0071588797,0.0059561357,-0.09848871,-0.4405331,-0.05746084,-9.385271,0.8179876,47.72271,-1.2952499,-2.5794787,-3.282745,-0.09710641,0.12661342,-0.3823358,28.5,29.8125,28.875,32.6875,35.125,36.1875
0.12805417,-1.3971565,0.14078769,-0.17794643,0.017736003,0.059276167,-0.17507428,-0.39266646,-0.3671757,0.05994671,3.078673,-0.6248135,0.00019093178,-0.05358152,0.024344178,-1.8976374e-05,-0.006966714,-0.0011262987,0.011885344,0.49912027,-1.3785764,1.9005831,-2.091338,-1.5705031,2.4740465,-0.09455843,0.04758139,-0.05816621,0.008236014,0.006549206,-0.10642316,-0.4213795,-0.076614454,-9.346964,0.79560274,47.71554,-1.2103754,-2.649938,-3.2830586,-0.10259727,0.134144,-0.27721792,28.5,29.8125,28.875,32.6875,35.125,36.1875
0.130054,-1.4123495,0.81150955,0.115206644,0.006866947,0.060980298,-0.17640363,-0.39275151,-0.36709452,0.05994231,3.0787075,-0.62479657,0.00024687205,-0.05372517,0.023377955,0.0012482426,-0.0078882985,0.001647674,0.0186128,0.49890536,-1.378529,1.9005235,-2.0912788,-1.5705036,2.4738166,-0.09272009,0.046177525,-0.059316188,0.00791734,0.0060232654,-0.111311525,-0.4213795,-0.17238252,-9.385271,0.800085,47.73077,-1.3943305,-2.5663352,-3.2347376,-0.10884765,0.12768134,-0.24447128,28.5,29.8125,28.875,32.6875,35.125,36.1875
0.13205436,-1.189567,0.42768854,-0.0027109573,0.017722908,0.072871596,-0.17402463,-0.3928407,-0.3670562,0.05992178,3.0787146,-0.6247016,0.00031340777,-0.05594353,0.025405403,0.0015324511,-0.008066928,0.002199654,0.017315613,0.4987359,-1.378409,1.9004282,-2.0912788,-1.5704674,2.473587,-0.09809295,0.046064552,-0.059853945,0.008004342,0.005913012,-0.115387,-0.49799395,-0.038307227,-9.289502,0.8112748,47.734352,-1.2717087,-2.430811,-3.3026338,-0.10645686,0.11834662,-0.18879524,28.5,29.8125,28.875,32.6875,35.125,36.1875
0.13405436,-0.993537,0.9344669,-0.17676428,0.0063714026,0.0766019,-0.18832386,-0.39299175,-0.36700106,0.059952904,3.0786567,-0.62466866,0.00022405195,-0.056373686,0.025015581,0.0012144095,-0.008212162,0.0019117697,0.019026643,0.4984966,-1.3783363,1.9002713,-2.0912788,-1.5704559,2.4733346,-0.0979733,0.047841933,-0.061176863,0.00773548,0.0061858254,-0.116977446,-0.5363012,-0.1340753,-9.3661175,0.87617236,47.729877,-1.3425312,-2.4690304,-3.239109,-0.120455176,0.11557782,-0.14379552,28.5,29.8125,28.875,32.6875,35.125,36.1875
0.13605395,-1.4289709,0.78330797,-0.16888416,0.0072711874,0.05928771,-0.17997047,-0.39308974,-0.3669457,0.05993293,3.0787194,-0.6246068,0.00025944063,-0.058112152,0.026067808,0.0013958989,-0.008397151,0.0021945909,0.015033089,0.49832752,-1.3782039,1.9001516,-2.0912426,-1.5704793,2.473119,-0.101341024,0.048670437,-0.06264582,0.00803723,0.006205878,-0.11635127,-0.59376204,-0.21068975,-9.404425,0.80679786,47.675243,-1.2480974,-2.5465648,-3.220663,-0.111800194,0.10343496,-0.15925807,28.5,29.8125,28.875,32.6875,35.125,36.1875
0.13805412,-1.0667297,0.29933572,-0.21880166,0.0112878205,0.07337703,-0.17495604,-0.39324033,-0.36689234,0.059958562,3.0786664,-0.62459844,0.0001598072,-0.05936283,0.027525911,0.0010605751,-0.008397609,0.0013318982,0.0074760476,0.4980989,-1.3781196,1.8999962,-2.0912545,-1.5704793,2.472892,-0.105180286,0.049301654,-0.062667295,0.008184239,0.0066295555,-0.11263349,-0.59376204,-0.1340753,-9.3661175,0.7866488,47.72719,-1.0870438,-2.459953,-3.3362498,-0.13062571,0.10603917,-0.16631962,28.5,29.8125,28.875,32.6875,35.125,36.1875
0.14005435,-0.8514965,0.9248823,-0.34788105,0.00026095076,0.07561488,-0.17671484,-0.3933522,-0.36684898,0.059948105,3.0786095,-0.62459075,0.00025802405,-0.061963588,0.027413284,0.0024332164,-0.010150988,0.0042546075,0.00022838921,0.49787056,-1.3779991,1.8998746,-2.0912426,-1.5703954,2.472666,-0.107443236,0.05004897,-0.06664132,0.008014697,0.0067649735,-0.10764733,-0.5363012,-0.1340753,-9.423578,0.7911258,47.716442,-1.0165836,-2.5141945,-3.1206799,-0.11633532,0.11271249,-0.21992952,28.5,29.8125,28.875,32.6875,35.125,36.1875
0.14205456,-0.58328646,0.52517545,-0.41926646,0.010627075,0.082112834,-0.17936477,-0.39346808,-0.3667891,0.05995788,3.0786204,-0.6245948,0.00022223273,-0.061845772,0.029224358,0.0011571338,-0.008358563,0.0014622986,-0.005055319,0.4976779,-1.3779149,1.8997444,-2.0912063,-1.5704192,2.4724746,-0.1102143,0.0506675,-0.06462924,0.008692282,0.006531538,-0.105135076,-0.51714754,-0.11492168,-9.5385,0.8090337,47.7245,-0.97103655,-2.4392676,-3.2268138,-0.12551777,0.099922374,-0.29381567,28.5,29.8125,28.875,32.6875,35.125,36.1875
0.1440546,-0.5307848,0.52362055,-0.10948909,-0.0016563928,0.09088059,-0.18627161,-0.39358717,-0.36672506,0.05995422,3.0786054,-0.6246107,0.0002895881,-0.062630825,0.029987989,-1.5166579e-05,-0.006754105,-0.000599574,-0.006102367,0.49743786,-1.3778056,1.8996123,-2.0911582,-1.570383,2.4722464,-0.11193015,0.05383518,-0.06587051,0.009350676,0.006102829,-0.1058025,-0.7086837,-0.095768064,-9.442732,0.7777002,47.672558,-0.9105525,-2.5419288,-3.2852912,-0.15635869,0.10013437,-0.2978782,28.5,29.8125,28.875,32.6875,35.125,36.1875
0.14605452,-1.0985075,0.5663363,-0.3598621,-0.0048242034,0.084043734,-0.18176661,-0.39373046,-0.36667392,0.05996099,3.0785513,-0.62461853,0.0002809434,-0.0652623,0.02954774,0.002778166,-0.009733693,0.0045858533,-0.0067189913,0.4971977,-1.3776863,1.8994554,-2.0911582,-1.5703472,2.472018,-0.11366092,0.051896956,-0.069939956,0.009384782,0.006244264,-0.10691531,-0.6512228,-0.095768064,-9.481039,0.7866488,47.711964,-0.88642347,-2.484133,-3.0947132,-0.14278002,0.108852945,-0.3110639,28.5,29.8125,28.875,32.6875,35.125,36.1875
0.14805397,-0.94763565,0.41025805,-0.35265458,-0.0057256143,0.0939252,-0.18353276,-0.39387482,-0.3666138,0.05996948,3.078547,-0.6246357,0.00016279878,-0.065231636,0.030345501,0.0018172382,-0.009030388,0.0026148339,-0.008415975,0.49699366,-1.3775777,1.8993129,-2.091182,-1.5703954,2.4718254,-0.115150616,0.052993573,-0.06908416,0.009495169,0.0065758666,-0.1067083,-0.57460845,0.076614454,-9.557653,0.800085,47.705692,-0.90011346,-2.4367385,-3.170664,-0.15676647,0.09370013,-0.35508928,28.5,29.8125,28.875,32.6875,35.125,36.1875
0.15005404,-1.0493845,0.25208804,-0.2213439,-0.011666128,0.09930963,-0.1854199,-0.3939555,-0.36653426,0.059934236,3.0785992,-0.6246444,0.00029251073,-0.0655014,0.030793125,0.001548732,-0.008354945,0.0019322289,-0.0069106314,0.49677786,-1.3774693,1.8992537,-2.0911338,-1.570383,2.4716084,-0.11596189,0.05369775,-0.06944693,0.010080297,0.006299058,-0.10902497,-0.61291564,0.076614454,-9.5385,0.82022345,47.711063,-0.91352856,-2.4253387,-3.2144709,-0.17263564,0.09253354,-0.3603447,28.5,29.8125,28.875,32.6875,35.125,36.1875
0.15205409,-1.3572592,-0.06789089,-0.39489308,-0.019767342,0.08888938,-0.18316193,-0.39412746,-0.36647314,0.05996081,3.0785215,-0.62470615,0.00023037846,-0.066592544,0.03041202,0.0008563957,-0.00793588,0.0015409343,-0.0077000293,0.49650246,-1.3773601,1.8990611,-2.091122,-1.5703596,2.4713814,-0.116170734,0.057300813,-0.0720437,0.009622486,0.0061195367,-0.10844208,-0.5363012,0.05746084,-9.576807,0.8112748,47.721813,-1.0000892,-2.5949454,-3.1619232,-0.16449837,0.1017261,-0.4148968,28.5,29.8125,28.875,32.6875,35.125,36.1875
0.15405434,-0.72253305,0.27016073,-0.31385666,-0.026915545,0.07555708,-0.18473935,-0.39424232,-0.36641207,0.059964027,3.0785322,-0.6246451,0.00025682474,-0.06733688,0.030480163,0.0023959656,-0.008916258,0.0044823303,-0.0014218942,0.49628672,-1.3772647,1.89893,-2.0910742,-1.5703477,2.4711263,-0.11660351,0.05487949,-0.072683044,0.009636827,0.00558007,-0.11515246,-0.36391866,0.15322891,-9.519346,0.85826975,47.73077,-1.1399921,-2.462901,-3.1017694,-0.16885814,0.10480317,-0.3691575,28.5,29.8125,28.875,32.6875,35.125,36.1875
0.15605411,-0.3746254,-0.119240135,-0.41289875,-0.01601617,0.051870447,-0.1808947,-0.3943754,-0.3663349,0.05995289,3.0785213,-0.6247362,0.00027120567,-0.06808967,0.0311512,0.0019218137,-0.00827587,0.0037996424,0.0017698903,0.49603462,-1.3771442,1.8988098,-2.0910628,-1.5703477,2.4709325,-0.11824457,0.05628181,-0.073302045,0.00976277,0.0053417776,-0.119984604,-0.3256114,0.15322891,-9.442732,0.8090337,47.721813,-0.95501816,-2.4460282,-3.163795,-0.17828831,0.10222554,-0.34847158,28.5,29.8125,28.875,32.6875,35.125,36.1875
0.15805429,-0.8103565,-0.39148605,-0.37736216,-0.012600166,0.024604259,-0.17461802,-0.39454395,-0.36627242,0.0599616,3.0785089,-0.62469083,0.00020323401,-0.069575466,0.032065216,0.00159202,-0.00834316,0.0035656085,0.0073239533,0.4957823,-1.3769996,1.8986186,-2.0910628,-1.5703596,2.4706535,-0.121214546,0.057842102,-0.0743278,0.009404367,0.0055176807,-0.12850796,-0.19153614,0.15322891,-9.481039,0.83365434,47.72271,-1.1556492,-2.4369397,-3.2071261,-0.164644,0.099949345,-0.30227223,28.5,29.8125,28.875,32.6875,35.125,36.1875
0.16005442,0.2468451,0.21744321,-0.3724308,-0.019291475,0.042068493,-0.19515388,-0.39468312,-0.36621743,0.059972327,3.0784976,-0.62458587,0.00017340312,-0.070343606,0.03184193,0.0020886702,-0.009061075,0.004927882,0.015844334,0.49555472,-1.3768914,1.8984631,-2.0910504,-1.5703477,2.470362,-0.121498995,0.057974778,-0.07550998,0.00892014,0.005505189,-0.13731205,-0.095768064,0.11492168,-9.442732,0.7866488,47.72002,-0.99558604,-2.4414804,-3.228655,-0.17046148,0.10608472,-0.19049239,28.5,29.8125,28.875,32.6875,35.125,36.1875
0.16205394,-0.11586441,-0.16836089,-0.5285094,-0.0035495816,0.017548136,-0.17725831,-0.39481622,-0.36614,0.05996974,3.0784862,-0.6246026,0.00015903161,-0.07107603,0.032823958,0.001719946,-0.008503985,0.004303401,0.016213126,0.49530244,-1.3767952,1.8983549,-2.0910504,-1.5703477,2.4701216,-0.1236729,0.05868561,-0.07555358,0.009070184,0.0053163636,-0.13985434,0.019153614,0.15322891,-9.461885,0.80679786,47.728977,-1.0171555,-2.418634,-3.1812067,-0.17562252,0.1366505,-0.12336621,28.5,29.8125,28.875,32.6875,35.125,36.1875
0.16405408,0.44362375,0.6006087,-0.3207789,-0.026390739,0.029339055,-0.18932451,-0.39495993,-0.3660919,0.059950788,3.0784945,-0.6244667,0.00018376869,-0.0727821,0.032076776,0.0028232813,-0.010038581,0.006276656,0.017979745,0.4950747,-1.3766146,1.8981866,-2.0910628,-1.5703233,2.469808,-0.12419138,0.059778407,-0.07944486,0.009407315,0.0057236715,-0.1421383,0.076614454,0.19153613,-9.423578,0.88289046,47.723602,-1.0138445,-2.4252243,-3.10004,-0.19065279,0.12249252,-0.08539989,28.5,29.8125,28.875,32.6875,35.125,36.1875
0.1660537,0.4217002,0.1711221,-0.2931812,-0.021123128,0.024310688,-0.1843309,-0.3951001,-0.36601987,0.05995756,3.0784805,-0.6244485,0.00021001096,-0.07278373,0.03328178,0.0020951643,-0.00953253,0.0045776907,0.012041601,0.4948103,-1.3765064,1.8980321,-2.0910146,-1.5702995,2.4695342,-0.12641287,0.05983935,-0.077896126,0.009535244,0.0060906196,-0.13842277,0.095768064,0.17238252,-9.423578,0.7396539,47.73077,-0.9438453,-2.4278848,-3.2204852,-0.19645664,0.10960047,-0.092968374,28.5,29.8125,28.875,32.6875,35.125,36.1875
0.16805416,0.25469893,-0.110312544,-0.32728165,-0.007218596,0.011200287,-0.17153266,-0.39527178,-0.3659615,0.059994355,3.07843,-0.62438154,0.0001228167,-0.073191345,0.03278272,0.0022090385,-0.010352581,0.004306017,0.0070185857,0.4945473,-1.37641,1.8978285,-2.0909903,-1.5702871,2.469236,-0.12643465,0.06092564,-0.07953922,0.009940086,0.006951191,-0.13342132,-0.019153614,0.15322891,-9.481039,0.842603,47.688675,-1.2021278,-2.379582,-3.2027698,-0.18741283,0.103395954,-0.15630254,28.5,29.8125,28.875,32.6875,35.125,36.1875
0.17005426,0.29370746,0.29224885,-0.46470207,-0.024664478,0.0065083974,-0.17872806,-0.39541107,-0.36589018,0.059991002,3.0784452,-0.62438667,0.00012418874,-0.07496732,0.03224808,0.0036254628,-0.011948643,0.0066954703,0.0009905825,0.4943073,-1.3762778,1.8976711,-2.090954,-1.570299,2.4689972,-0.12728405,0.061226085,-0.08324676,0.010483597,0.0072151646,-0.12824166,0.038307227,0.1340753,-9.385271,0.83589023,47.741516,-1.0567541,-2.3599834,-3.01108,-0.19271074,0.109429836,-0.22558329,28.5,29.8125,28.875,32.6875,35.125,36.1875
0.17205429,0.7769061,0.15219061,-0.22879905,-0.016365957,0.012296363,-0.1873586,-0.39557546,-0.36582002,0.059982717,3.078392,-0.624455,8.175936e-05,-0.07423915,0.0335949,0.0021634179,-0.010290691,0.0035377638,-0.004290103,0.4940316,-1.3761333,1.8975295,-2.0910022,-1.5702871,2.468771,-0.12887569,0.061904036,-0.08084608,0.01097314,0.007267104,-0.12455326,0.095768064,0.11492168,-9.3661175,0.79560274,47.70659,-1.1967101,-2.3548121,-3.2007177,-0.22075018,0.10573618,-0.2814039,28.5,29.8125,28.875,32.6875,35.125,36.1875
0.1740545,0.42730135,0.25039884,-0.25043708,-0.019536227,0.0062432457,-0.18712327,-0.39573312,-0.36575106,0.059999764,3.0783818,-0.62447315,4.090013e-05,-0.0759722,0.034148376,0.002388745,-0.0106604025,0.004342183,-0.0086403005,0.493779,-1.3760128,1.8973368,-2.090954,-1.570299,2.4685311,-0.13131262,0.063168064,-0.08282647,0.010805785,0.007211101,-0.12263878,-0.019153614,0.11492168,-9.270349,0.80456203,47.73525,-1.150467,-2.364702,-3.1056519,-0.22263011,0.11359348,-0.3682831,28.5,29.8125,28.875,32.6875,35.125,36.1875
0.1760541,0.3560618,0.39260575,-0.27674875,-0.022236127,0.015050848,-0.1892427,-0.39588445,-0.36567032,0.060000736,3.0783398,-0.6244842,0.00011631809,-0.0765623,0.034464728,0.002337026,-0.011160022,0.0044394843,-0.011500627,0.49346736,-1.3758926,1.8971814,-2.0909069,-1.5702385,2.4682317,-0.13258402,0.06351723,-0.08302396,0.010339299,0.0076043135,-0.12105024,-0.019153614,0.17238252,-9.308656,0.76874626,47.71554,-1.2009364,-2.3723733,-3.1588502,-0.2141056,0.115755886,-0.42054006,28.5,29.8125,28.875,32.6875,35.125,36.1875
0.17805381,0.24986315,0.042911008,-0.23655194,-0.019242465,0.019495271,-0.17660783,-0.39601713,-0.36561644,0.060004517,3.078339,-0.62446433,7.795707e-05,-0.07671472,0.03485183,0.0018750296,-0.010781169,0.0028077394,-0.012723829,0.49326333,-1.3757721,1.8970269,-2.0908945,-1.5702509,2.4680154,-0.13361555,0.064642794,-0.083545536,0.01135032,0.008048907,-0.12085865,-0.095768064,0.17238252,-9.308657,0.86945957,47.713753,-1.1465945,-2.3062773,-3.2429483,-0.2047985,0.1102549,-0.46934658,28.5,29.8125,28.875,32.6875,35.125,36.1875
0.18005407,0.18227184,0.26106313,-0.07115538,-0.03309175,0.040762316,-0.18968353,-0.39615613,-0.3655497,0.059988324,3.078309,-0.62449527,0.00018162148,-0.077861324,0.035905357,0.0018279888,-0.01044476,0.002684024,-0.012262463,0.492987,-1.3756158,1.89687,-2.0908582,-1.5701908,2.4677622,-0.13624461,0.0652322,-0.084233485,0.011729082,0.007809104,-0.12394877,-0.1340753,0.19153613,-9.346964,0.88960326,47.739727,-1.1649611,-2.3008175,-3.2395039,-0.20717672,0.1065137,-0.507337,28.5,29.8125,28.875,32.6875,35.125,36.1875
0.18205419,0.053606518,-0.20949402,-0.2195469,-0.015355929,0.054332737,-0.18551752,-0.3963177,-0.36547416,0.05999206,3.0783048,-0.6245453,0.00010551112,-0.07894045,0.036464594,0.0015732235,-0.010533735,0.0023777504,-0.004654597,0.49273482,-1.3754832,1.8967041,-2.0908582,-1.5702266,2.467542,-0.13826798,0.06660964,-0.08527237,0.011619688,0.008038847,-0.13357939,-0.19153613,0.15322891,-9.346964,0.85826975,47.73614,-1.0892079,-2.3079195,-3.2577434,-0.22576779,0.10462098,-0.47004914,28.5,29.8125,28.875,32.6875,35.125,36.1875
0.18405436,-0.0441876,0.47737375,-0.031470153,-0.022661317,0.06800718,-0.19092187,-0.3964695,-0.3654046,0.05999618,3.078255,-0.62455136,0.00019291848,-0.08017875,0.03710245,0.001691909,-0.01067896,0.0026019267,0.00054849515,0.49243483,-1.3753507,1.8965238,-2.0907981,-1.5701545,2.467252,-0.1404366,0.06742724,-0.08657318,0.011852805,0.008061189,-0.14095064,-0.11492168,0.0,-9.423578,0.84484416,47.723602,-1.0761523,-2.301283,-3.2213836,-0.2327723,0.09201342,-0.40577632,28.5,29.8125,28.875,32.6875,35.125,36.1875
0.1860544,-0.8134808,0.18520743,-0.21313828,-0.009197216,0.058458965,-0.18237035,-0.39664277,-0.3653184,0.06000166,3.078267,-0.6245466,0.00015423745,-0.08071972,0.03725539,0.0016651296,-0.011171457,0.00243806,0.010885233,0.49214712,-1.3752066,1.8963321,-2.0907624,-1.5701789,2.46696,-0.14145827,0.06803146,-0.08723132,0.011821525,0.008578489,-0.15230921,-0.30645782,0.076614454,-9.404425,0.8605109,47.70211,-1.1766322,-2.3369741,-3.264811,-0.2404226,0.08768661,-0.300413,28.5,29.8125,28.875,32.6875,35.125,36.1875
0.18805443,-1.3361005,0.3695079,-0.034031115,-0.008154068,0.058655806,-0.1832335,-0.39681023,-0.36525854,0.06002416,3.078207,-0.6244718,0.0001044613,-0.08125931,0.03715713,0.0020015666,-0.011401631,0.002832422,0.017805774,0.49187168,-1.3750982,1.8961524,-2.0907624,-1.5701426,2.4666455,-0.14175153,0.06843718,-0.08860148,0.0123415915,0.008609018,-0.1595219,-0.47884035,0.095768064,-9.423578,0.8291774,47.70838,-1.0930737,-2.23663,-3.3185267,-0.25345817,0.08880418,-0.21563631,28.5,29.8125,28.875,32.6875,35.125,36.1875
0.19005461,-0.7961387,0.6978344,-0.084382154,-0.008858335,0.0839241,-0.1798176,-0.39694655,-0.3651953,0.060008697,3.0782444,-0.6243061,0.00020122426,-0.08216497,0.038297698,0.00063871243,-0.010977841,0.00041983085,0.017477194,0.4916188,-1.3749291,1.8959731,-2.0907023,-1.5701064,2.4662845,-0.14492601,0.07113712,-0.08864789,0.01202193,0.009368398,-0.16236864,-0.59376204,0.0,-9.385271,0.78217715,47.707485,-1.0221916,-2.1581516,-3.3476167,-0.2580216,0.07479352,-0.14393824,28.5,29.8125,28.875,32.6875,35.125,36.1875
0.19205461,-1.3275476,0.42017874,0.05462903,0.00088260876,0.08773928,-0.18276294,-0.3971314,-0.36510345,0.060016315,3.0782,-0.6243343,0.0001301528,-0.08159585,0.037555903,-0.00020893691,-0.010650652,-0.0009690917,0.01669908,0.49129632,-1.3748081,1.8958176,-2.0907266,-1.5701064,2.4659853,-0.14334026,0.073159575,-0.08908347,0.011814373,0.00974413,-0.16000414,-0.6895301,0.019153614,-9.289502,0.7978386,47.694054,-1.2016884,-2.411362,-3.2927794,-0.2645537,0.054412298,-0.15528281,28.5,29.8125,28.875,32.6875,35.125,36.1875
0.19405435,-1.8553461,0.37582976,0.151417,-0.00060563214,0.08486269,-0.16809645,-0.39726475,-0.36503607,0.059996348,3.0782194,-0.6242452,0.00025155282,-0.08393509,0.037954338,0.0013202295,-0.011871376,0.0022224425,0.01006436,0.49103197,-1.3746405,1.8956503,-2.0906665,-1.5700582,2.465663,-0.14581396,0.07267679,-0.09200219,0.011835072,0.009299395,-0.15584216,-0.7661445,-0.019153614,-9.289502,0.82022345,47.67793,-1.2303892,-2.2213414,-3.1880772,-0.26616257,0.05354698,-0.19929755,28.5,29.8125,28.875,32.6875,35.125,36.1875
0.19605413,-1.0345882,0.6735459,0.058038212,0.011172309,0.09984298,-0.1882961,-0.39745963,-0.36494368,0.05999534,3.0781763,-0.6243556,0.00018314314,-0.08483521,0.04012515,-0.00019976629,-0.010346935,0.00016049652,0.00024530303,0.4907074,-1.3744836,1.8954719,-2.0906913,-1.5700706,2.4654129,-0.15000306,0.07435392,-0.09037601,0.011067723,0.008935826,-0.1502117,-0.6895301,-0.15322891,-9.32781,0.78217715,47.711063,-1.2137882,-2.249678,-3.356759,-0.27635148,0.06417539,-0.28665373,28.5,29.8125,28.875,32.6875,35.125,36.1875
0.19805424,-0.9566312,1.1298234,0.2344068,0.007301688,0.092264175,-0.18218677,-0.3976335,-0.3648961,0.06002334,3.0781083,-0.62426263,0.0001702056,-0.08607459,0.03893254,0.0004562695,-0.010599272,0.0017664536,0.0010107824,0.4904325,-1.3743507,1.8952421,-2.090655,-1.5700105,2.4650886,-0.1487311,0.07663567,-0.09470497,0.011592574,0.008403995,-0.14970215,-0.7086837,-0.1340753,-9.346964,0.82022345,47.717335,-1.237893,-2.44872,-3.280551,-0.27916932,0.06527761,-0.32568234,28.5,29.8125,28.875,32.6875,35.125,36.1875
0.20005427,-1.2334416,1.0531796,0.56330675,0.005329563,0.077557564,-0.16995466,-0.39781246,-0.3647969,0.06001422,3.0781152,-0.6242644,0.00021351845,-0.08683505,0.040569387,-6.9450885e-05,-0.009791886,0.0017186073,-0.0018907472,0.49009603,-1.3741826,1.8950523,-2.0906074,-1.5699986,2.4647524,-0.1516922,0.07650654,-0.09314096,0.010587232,0.0077135526,-0.14976178,-0.7278373,-0.15322891,-9.3661175,0.8247004,47.688675,-1.0882146,-2.2404966,-3.4162738,-0.29097706,0.07157696,-0.35799894,28.5,29.8125,28.875,32.6875,35.125,36.1875
0.20205441,-0.69171745,0.96324074,0.47744858,0.015477608,0.08863052,-0.18016672,-0.39798766,-0.36470583,0.06000912,3.0781083,-0.62429994,0.00021360863,-0.08808158,0.040539064,-0.00014526965,-0.009763262,0.0026361677,-0.0017223662,0.48978442,-1.3740256,1.8948721,-2.0905836,-1.5699991,2.464464,-0.1524286,0.07837706,-0.09502658,0.009810862,0.007252903,-0.150665,-0.7661445,-0.17238252,-9.289502,0.80679786,47.71465,-1.1593663,-2.3787704,-3.2699776,-0.28787196,0.06679468,-0.38208103,28.5,29.8125,28.875,32.6875,35.125,36.1875
0.20405471,-0.9103998,1.161273,0.39817417,0.016917247,0.08237709,-0.17891134,-0.3981986,-0.36462247,0.060042217,3.0780432,-0.6243222,7.2918876e-05,-0.0893674,0.040569246,0.00053415884,-0.010696283,0.0033431598,0.0013585744,0.48946053,-1.3739054,1.8946565,-2.090595,-1.5700105,2.4641623,-0.15388946,0.07897287,-0.09746321,0.010591099,0.0077611664,-0.15520556,-0.59376204,-0.17238252,-9.232041,0.8873621,47.72271,-1.1954324,-2.3310728,-3.2432437,-0.31503293,0.07565546,-0.37426037,28.5,29.8125,28.875,32.6875,35.125,36.1875
0.20605455,-0.53624755,0.8298081,0.42653066,0.015569548,0.09621029,-0.17998728,-0.39835265,-0.36454502,0.060004324,3.0780575,-0.6242991,0.00020907169,-0.08980863,0.040430132,0.00051860686,-0.0106391385,0.0035495125,0.009742774,0.48916128,-1.3736888,1.8944772,-2.0905592,-1.5699629,2.463847,-0.1539062,0.07992459,-0.0985823,0.01061983,0.0076061524,-0.16360636,-0.45968673,-0.15322891,-9.289502,0.7553206,47.73525,-1.2966132,-2.3628585,-3.2977629,-0.3037422,0.054773077,-0.31386718,28.5,29.8125,28.875,32.6875,35.125,36.1875
0.2080538,-0.30904034,0.62070787,0.26983258,0.008673899,0.09414385,-0.18513536,-0.39852813,-0.36446542,0.06001039,3.0780578,-0.6241766,0.00019329313,-0.09027673,0.041185122,-0.0011955783,-0.008652751,0.00081903226,0.01908268,0.48886147,-1.3735434,1.8942851,-2.0905354,-1.5699509,2.4634707,-0.15525974,0.08375009,-0.09930193,0.010871632,0.007144901,-0.17429835,-0.40222588,-0.076614454,-9.308656,0.8224646,47.716442,-1.2790692,-2.347334,-3.1964202,-0.29576504,0.06535992,-0.19079444,28.5,29.8125,28.875,32.6875,35.125,36.1875
0.21005432,-0.6546064,0.48136103,0.07722426,-0.0056177923,0.07988746,-0.17899147,-0.39870006,-0.36437958,0.060003996,3.078065,-0.62417567,0.00020649085,-0.09242755,0.04107848,0.0013479695,-0.010258837,0.005197809,0.02304726,0.48856175,-1.373376,1.8940924,-2.0904992,-1.5699509,2.4631696,-0.15656415,0.0818215,-0.10304267,0.011929238,0.0065041096,-0.17956573,-0.38307226,0.05746084,-9.270349,0.8717007,47.68599,-1.3275471,-2.3778234,-3.2933834,-0.30086836,0.09369478,-0.09856802,28.5,29.8125,28.875,32.6875,35.125,36.1875
0.21205449,0.2125298,0.4014616,0.10527676,-0.023416152,0.0825015,-0.18669035,-0.3988852,-0.36426502,0.059994888,3.078074,-0.62413806,0.0002094118,-0.091877535,0.042080797,-1.3163977e-05,-0.009477385,0.0026543087,0.02274,0.48820195,-1.3732313,1.8939384,-2.0904872,-1.5699509,2.4627852,-0.15801325,0.08258635,-0.100774944,0.011510998,0.0070143593,-0.18070887,-0.32561144,0.11492168,-9.289502,0.8627467,47.701214,-1.287967,-2.3959846,-3.2564635,-0.31919307,0.0880963,-0.069193706,28.5,29.8125,28.875,32.6875,35.125,36.1875
0.21405458,0.3719263,0.4732653,-0.029797783,-0.03342065,0.06659479,-0.1850749,-0.3990991,-0.364162,0.059999533,3.0781066,-0.62412906,0.00014906937,-0.09404788,0.042709146,-0.00073082326,-0.008870699,0.0016565791,0.014738952,0.48786557,-1.3730377,1.8936867,-2.090439,-1.5699991,2.4624393,-0.16091356,0.086847454,-0.104327895,0.011958935,0.00694115,-0.17560598,-0.28730422,0.15322891,-9.308656,0.91198283,47.73614,-1.2358596,-2.5609093,-3.2951815,-0.3243801,0.096968055,-0.080891125,28.5,29.8125,28.875,32.6875,35.125,36.1875
0.21605453,0.29848304,0.018483365,0.115776405,-0.034041494,0.047294624,-0.1797352,-0.39929134,-0.3640811,0.060019128,3.0780573,-0.6240849,9.9488105e-05,-0.094844624,0.043979764,1.45367585e-05,-0.009198102,0.0033202914,0.0038952471,0.48754156,-1.3729064,1.8934835,-2.0904276,-1.5699753,2.462094,-0.16340525,0.084558554,-0.103206486,0.0115053225,0.0064604506,-0.1672539,-0.22984336,0.19153613,-9.232041,0.8179876,47.752266,-1.311878,-2.3342695,-3.2153258,-0.33336136,0.095745176,-0.19395468,28.5,29.8125,28.875,32.6875,35.125,36.1875
0.21805625,0.76834923,-0.040031277,-0.21382809,-0.026856054,0.04681341,-0.18352191,-0.39949673,-0.364002,0.06000292,3.0779946,-0.6241327,0.00012017361,-0.09614385,0.04404886,-0.00050631934,-0.008948229,0.0030832633,-0.003381683,0.4871938,-1.3726894,1.8932675,-2.0904515,-1.5699271,2.4617841,-0.16454826,0.087512694,-0.10547355,0.011150672,0.006347747,-0.16111839,-0.076614454,0.17238252,-9.289502,0.7978386,47.71286,-1.1606447,-2.5056138,-3.2422204,-0.34152076,0.10924703,-0.25262716,28.5,29.8125,28.875,32.6875,35.125,36.1875
0.22005418,0.40632415,-0.37573692,-0.39504516,-0.019415574,0.020330712,-0.1668167,-0.39968163,-0.3638993,0.05998473,3.0780349,-0.6241807,0.00015522355,-0.09818301,0.0449486,-6.943779e-05,-0.009708722,0.0035688144,-0.0099420035,0.48686936,-1.3724848,1.893052,-2.0903919,-1.5699509,2.4614847,-0.16810134,0.088518895,-0.10780077,0.011681163,0.006781774,-0.15811089,0.0,0.24899697,-9.3661175,0.8493211,47.74241,-1.0654244,-2.5124402,-3.1769748,-0.33134413,0.12032026,-0.34267884,28.5,29.8125,28.875,32.6875,35.125,36.1875
0.2220541,-0.07300958,-0.7749522,-0.26433384,-0.019809373,0.002332042,-0.16287051,-0.39989397,-0.36381784,0.060007013,3.0779812,-0.62417066,8.119477e-05,-0.09892971,0.04443378,-0.0002426377,-0.010607338,0.003817924,-0.01469873,0.48653418,-1.3723282,1.8928121,-2.0903795,-1.569939,2.4611502,-0.16825211,0.09031755,-0.10935869,0.010798251,0.0074653034,-0.15350413,0.019153614,0.3256114,-9.404425,0.83365434,47.71286,-1.1485412,-2.56423,-3.138249,-0.33549446,0.111464344,-0.45099646,28.5,29.8125,28.875,32.6875,35.125,36.1875
0.22405405,0.007202205,-0.35821354,-0.21511632,-0.03763893,0.016536353,-0.17744716,-0.40009284,-0.36372188,0.059998333,3.0779586,-0.62424016,9.491464e-05,-0.09915206,0.044385068,-0.0006211302,-0.010386542,0.0033129682,-0.013213983,0.4861867,-1.3721354,1.8925971,-2.0903556,-1.5699271,2.460849,-0.16832533,0.091611356,-0.110042065,0.01074303,0.0075079426,-0.15506172,-0.05746084,0.2681506,-9.3661175,0.78888994,47.684196,-1.1103467,-2.5870876,-3.121473,-0.32835582,0.12336761,-0.51193756,28.5,29.8125,28.875,32.6875,35.125,36.1875
0.22605364,0.431593,-0.3296188,-0.31170318,-0.037746526,0.039110005,-0.17594749,-0.40026653,-0.36364233,0.059983727,3.077947,-0.6242324,0.00016055339,-0.10017756,0.044906475,-0.00027964724,-0.010879068,0.0032935077,-0.0061072833,0.48587462,-1.3719432,1.8923935,-2.0903199,-1.5698909,2.4605336,-0.1703353,0.09196966,-0.11145486,0.01159867,0.00795506,-0.16417849,0.038307227,0.30645782,-9.3661175,0.8023209,47.70838,-1.1370281,-2.5697083,-3.1267138,-0.33771932,0.124725476,-0.4797212,28.5,29.8125,28.875,32.6875,35.125,36.1875
0.22805373,0.14363764,-0.14692289,-0.13327,-0.04509712,0.047356766,-0.17947023,-0.4004789,-0.3635277,0.059978247,3.077945,-0.62428194,0.00017721613,-0.10115332,0.04522311,0.00021706951,-0.012137164,0.0034625316,0.004987472,0.48549095,-1.371751,1.892166,-2.0902712,-1.5698904,2.4601812,-0.17230894,0.091975845,-0.11272998,0.012141258,0.008995174,-0.17724757,0.038307227,0.4213795,-9.500193,0.8627467,47.70838,-1.1817008,-2.5135884,-3.0853877,-0.33991584,0.1175653,-0.37957966,28.5,29.8125,28.875,32.6875,35.125,36.1875
0.23005344,0.1622349,-0.49572688,-0.17781481,-0.043747876,0.052398317,-0.17464563,-0.4006961,-0.3634541,0.059988137,3.0778801,-0.624224,0.00015337286,-0.10184501,0.046166286,-0.00031498147,-0.011603346,0.0022533352,0.014396402,0.48514283,-1.3715583,1.8919142,-2.0902712,-1.5698422,2.4598053,-0.17450494,0.09319124,-0.11309473,0.01263077,0.009107513,-0.18885183,0.038307227,0.34476504,-9.385271,0.85826975,47.7451,-1.0988485,-2.6026466,-3.1143866,-0.34833926,0.119756475,-0.26747403,28.5,29.8125,28.875,32.6875,35.125,36.1875
0.23205425,0.048077334,-0.17969659,-0.4242197,-0.036005836,0.037984822,-0.1701689,-0.4008874,-0.36335614,0.059982922,3.0778847,-0.6241638,0.0001393119,-0.10335413,0.046936315,-0.00018673399,-0.011977045,0.0029695383,0.018681156,0.48480678,-1.3713899,1.891723,-2.0902598,-1.5698422,2.4594312,-0.17708199,0.09398718,-0.11424835,0.01218979,0.009109573,-0.19571297,0.038307227,0.24899697,-9.461885,0.85155696,47.70211,-1.041895,-2.555451,-3.12497,-0.36483738,0.124491505,-0.1740658,28.5,29.8125,28.875,32.6875,35.125,36.1875
0.23405422,-0.1882676,-0.035370573,-0.25755224,-0.032556493,0.024913946,-0.17552911,-0.40109208,-0.36328351,0.059994433,3.0778687,-0.6240851,0.000108327265,-0.105752856,0.047387544,0.00089416263,-0.013001343,0.005560606,0.013540002,0.48449445,-1.3711977,1.8914598,-2.0902236,-1.5698308,2.4590719,-0.17972077,0.09446921,-0.11723496,0.011928511,0.008809792,-0.19320883,-0.076614454,0.17238252,-9.634268,0.8179876,47.74062,-0.95703256,-2.5301547,-3.1085544,-0.35063475,0.122538805,-0.16598119,28.5,29.8125,28.875,32.6875,35.125,36.1875
0.2360536,-0.12327903,0.010027788,-0.21163507,-0.032558687,0.03197704,-0.1630934,-0.40127885,-0.36315215,0.05995548,3.0778997,-0.62407553,0.0001940694,-0.1048975,0.048312183,-6.4070206e-05,-0.0124885,0.003601683,0.0056495154,0.48409873,-1.3710055,1.8913168,-2.090212,-1.5698184,2.4586663,-0.18072408,0.094007306,-0.11444441,0.011570507,0.009261493,-0.18632375,-0.21068975,0.17238252,-9.576807,0.8403672,47.7245,-0.95947754,-2.4670014,-3.2418208,-0.37240958,0.11420354,-0.24084222,28.5,29.8125,28.875,32.6875,35.125,36.1875
0.23805435,-0.4200023,0.37271118,-0.26227415,-0.017186105,0.041528415,-0.17713553,-0.40150654,-0.36306378,0.05997263,3.0778487,-0.62412435,0.00014787383,-0.1073523,0.04766672,0.00166066,-0.01452742,0.007357145,-6.634439e-05,0.4837391,-1.3708133,1.8910407,-2.0901763,-1.569806,2.4583437,-0.18177187,0.094509974,-0.11890645,0.011258315,0.009318615,-0.1816535,-0.2681506,0.095768064,-9.442732,0.81351066,47.723602,-0.9338568,-2.4052017,-3.1442666,-0.36082667,0.12521635,-0.3214026,28.5,29.8125,28.875,32.6875,35.125,36.1875
0.24005397,-0.021032134,0.7841865,-0.17640904,-0.003852536,0.06935531,-0.17918421,-0.40172356,-0.36297718,0.05996388,3.0778005,-0.6240949,0.0002243597,-0.10633233,0.049192373,-0.00093859684,-0.012631662,0.0017563809,-0.003938445,0.48335558,-1.3705841,1.8907794,-2.0901396,-1.5697345,2.457948,-0.18392676,0.09704541,-0.1161742,0.011842411,0.010253504,-0.17993788,-0.21068975,0.038307227,-9.481039,0.8493211,47.739727,-1.0181704,-2.5686142,-3.2904928,-0.35355973,0.12318802,-0.35747728,28.5,29.8125,28.875,32.6875,35.125,36.1875
0.24205408,-0.8783787,0.87744707,-0.25168413,0.014144418,0.06717728,-0.1775077,-0.40192083,-0.3629059,0.05996986,3.0777519,-0.6240836,0.00019057163,-0.106128246,0.048205834,0.00045254367,-0.0146423215,0.0035391639,-0.0023550882,0.48304453,-1.3704046,1.8905519,-2.0901396,-1.5697097,2.457636,-0.1825993,0.09492951,-0.116904855,0.0121807465,0.011216335,-0.1801942,-0.2681506,-0.076614454,-9.461885,0.80456203,47.707485,-1.1071262,-2.4140534,-3.3389404,-0.3558091,0.098763034,-0.3915615,28.5,29.8125,28.875,32.6875,35.125,36.1875
0.24405418,-0.40780255,1.3210344,-0.0071174614,0.017706074,0.08144232,-0.18782318,-0.40213636,-0.36280802,0.059964925,3.0777473,-0.6239807,0.00020206916,-0.10651636,0.048871294,-0.0015101836,-0.012468614,0.00088833016,0.002809817,0.48267317,-1.370199,1.8903126,-2.0901158,-1.5696858,2.4572012,-0.18355992,0.09914451,-0.117412604,0.011847862,0.010529009,-0.18631823,-0.28730422,-0.19153613,-9.404425,0.83365434,47.678825,-1.2035733,-2.6108353,-3.3800573,-0.3541197,0.10833503,-0.36869007,28.5,29.8125,28.875,32.6875,35.125,36.1875
0.24605423,-0.60019076,1.2172347,-0.09846766,0.026599042,0.08042597,-0.18872225,-0.40236393,-0.36271188,0.059965417,3.0777206,-0.62398785,0.00018353139,-0.10708526,0.049451984,-0.00064705376,-0.012698186,0.0027604536,0.011696193,0.48230186,-1.3699834,1.8900493,-2.0900924,-1.5696744,2.456838,-0.18455224,0.09736039,-0.11723477,0.011708012,0.009878004,-0.19619657,-0.34476507,-0.28730422,-9.461885,0.88960326,47.675243,-1.3799031,-2.353123,-3.478712,-0.33856052,0.117617264,-0.305854,28.5,29.8125,28.875,32.6875,35.125,36.1875
0.24805398,-0.16100316,1.1333853,0.09394775,0.026209775,0.08811938,-0.18665588,-0.40254337,-0.36261338,0.05993862,3.0777287,-0.6239625,0.0002796578,-0.108011715,0.049799267,-0.00068187364,-0.0130858,0.002800529,0.02121066,0.48195413,-1.3697789,1.8898581,-2.0900562,-1.5696381,2.4564734,-0.18608819,0.09832522,-0.1183046,0.011619266,0.0102006635,-0.20724723,-0.36391866,-0.24899697,-9.519346,0.8537928,47.672558,-1.3031247,-2.3774939,-3.4182754,-0.32052553,0.10069193,-0.17283416,28.5,29.8125,28.875,32.6875,35.125,36.1875
0.25005385,-0.28870633,1.5402066,-0.11450882,0.022509195,0.07004286,-0.18420377,-0.40277457,-0.3625003,0.059961684,3.0777001,-0.62387633,0.00019285669,-0.10868878,0.050142497,-0.0004126526,-0.012550798,0.0032859067,0.025409212,0.48155853,-1.3696347,1.8896312,-2.0900443,-1.5696381,2.4560277,-0.18675825,0.098725595,-0.11956193,0.012305779,0.009522124,-0.21211417,-0.30645782,-0.22984336,-9.481039,0.8314132,47.653748,-1.2552857,-2.4092844,-3.541604,-0.32201248,0.11673443,-0.091593266,28.5,29.8125,28.875,32.6875,35.125,36.1875
0.2520543,-0.27304012,0.88709617,-0.08575884,0.016548052,0.057512738,-0.17536576,-0.40301973,-0.36242014,0.05998305,3.0776691,-0.6237558,0.00011666446,-0.10967127,0.050075356,0.00085783645,-0.013306375,0.0060422774,0.021964936,0.4811991,-1.3694189,1.8893198,-2.0900204,-1.5696267,2.4555972,-0.18705091,0.09748051,-0.120945506,0.012146095,0.008928538,-0.20896119,-0.4405331,-0.19153613,-9.5385,0.87393653,47.68599,-1.3462548,-2.248688,-3.443056,-0.33301607,0.12677225,-0.08377464,28.5,29.8125,28.875,32.6875,35.125,36.1875
0.25405374,-1.162896,1.0109181,-0.06462391,-0.009031995,0.037888248,-0.18574388,-0.40324894,-0.36228254,0.059967317,3.0776908,-0.62378424,0.00011109639,-0.11017778,0.049820468,-0.00077761716,-0.012172847,0.0029281084,0.013478171,0.48077866,-1.3692127,1.8891042,-2.089996,-1.56965,2.4551919,-0.18724737,0.102618776,-0.1235454,0.012881596,0.009355059,-0.20066959,-0.5554548,-0.1340753,-9.481039,0.86945957,47.694946,-1.4401102,-2.5070484,-3.433171,-0.32436055,0.13312545,-0.15059836,28.5,29.8125,28.875,32.6875,35.125,36.1875
0.256054,-0.8913506,0.82137734,-0.33204496,-0.0067714755,0.048753943,-0.19442077,-0.40345138,-0.36220112,0.059959672,3.0776389,-0.6237208,0.00016646595,-0.11196831,0.050692737,0.0013125044,-0.013577399,0.006835152,0.0036723933,0.4804182,-1.3690097,1.8888768,-2.0899842,-1.5695785,2.4547985,-0.18986616,0.09953637,-0.12465498,0.01297138,0.008792489,-0.19348224,-0.30645782,0.05746084,-9.500193,0.8627467,47.711063,-1.4252207,-2.2249722,-3.3528657,-0.3501101,0.13461845,-0.25980282,28.5,29.8125,28.875,32.6875,35.125,36.1875
0.25805548,-0.28887403,0.11723334,-0.595277,-0.01104059,0.0651935,-0.19074966,-0.40366265,-0.3620677,0.059946403,3.0776572,-0.623845,0.00019012051,-0.11275079,0.051864713,-0.0010402421,-0.010777109,0.0027339458,-0.0061225872,0.4800213,-1.3688157,1.8886617,-2.089924,-1.5696024,2.4544768,-0.19208285,0.10502226,-0.12606879,0.013822848,0.008193138,-0.18590255,-0.2681506,0.038307227,-9.653421,0.9186956,47.67614,-1.3395337,-2.4501238,-3.4207995,-0.34036976,0.13817091,-0.38521513,28.5,29.8125,28.875,32.6875,35.125,36.1875
0.26005435,-0.96459097,-0.42973813,-0.28448126,-0.036358517,0.047362093,-0.18822615,-0.40389702,-0.36199176,0.059980966,3.0775967,-0.6237787,0.00010928971,-0.1143303,0.052512158,0.001128131,-0.012819861,0.0062296106,-0.011215738,0.4796717,-1.3686368,1.8883618,-2.0898883,-1.5695785,2.4540937,-0.19460055,0.101743914,-0.12717524,0.0141674755,0.008406816,-0.18332672,-0.30645782,0.17238252,-9.615114,0.88960326,47.68062,-1.2829709,-2.3169405,-3.4106908,-0.35826236,0.15456149,-0.48010173,28.5,29.8125,28.875,32.6875,35.125,36.1875
0.26205426,-0.6686911,-0.6879443,-0.10664377,-0.055885844,0.06027168,-0.1884222,-0.40412143,-0.3618842,0.059984785,3.077544,-0.62382257,0.00014535237,-0.11600482,0.053788394,0.00049168704,-0.0127272345,0.0050357585,-0.009108789,0.47926304,-1.3684435,1.8881115,-2.0898402,-1.5695308,2.4537191,-0.198428,0.10406685,-0.12856083,0.014349808,0.008883801,-0.18926053,-0.47884035,0.21068975,-9.385271,0.8672237,47.69763,-1.2159057,-2.3028948,-3.4130864,-0.34553188,0.15522924,-0.51297504,28.5,29.8125,28.875,32.6875,35.125,36.1875
0.26405463,-0.5578034,-0.6246107,-0.39381033,-0.048581406,0.0617128,-0.19508265,-0.40435797,-0.36177042,0.059974737,3.0775514,-0.6237777,0.00017365982,-0.11707838,0.054003876,0.00053922273,-0.0122349085,0.005891264,0.0031129061,0.4788551,-1.368203,1.8878363,-2.089792,-1.5695184,2.4532824,-0.19913067,0.10542495,-0.13028057,0.0142037375,0.0080609415,-0.20218368,-0.26815057,0.24899697,-9.576807,0.9186956,47.692257,-1.330954,-2.3746035,-3.4145174,-0.35576203,0.16426603,-0.4111613,28.5,29.8125,28.875,32.6875,35.125,36.1875
0.26605397,-0.6495135,-0.4677075,-0.12247614,-0.06922893,0.07055841,-0.19799674,-0.40458912,-0.36163974,0.05996552,3.077567,-0.62379307,0.00014880669,-0.11839204,0.05472791,0.00093678787,-0.012709751,0.006566425,0.014133737,0.4784463,-1.3679987,1.8876079,-2.0897682,-1.5695428,2.4528813,-0.20148778,0.10566833,-0.13154282,0.014418513,0.00818499,-0.21556126,-0.05746084,0.3256114,-9.595961,0.8560339,47.723602,-1.2543807,-2.2490554,-3.3239908,-0.3425767,0.17883424,-0.26987228,28.5,29.8125,28.875,32.6875,35.125,36.1875
0.2680538,-1.1547568,-1.1859035,-0.026941406,-0.057819158,0.060429525,-0.18438184,-0.40485582,-0.36155385,0.05999206,3.0774682,-0.6237139,5.188397e-05,-0.12122332,0.055137236,0.0014913812,-0.014758191,0.007924321,0.016689012,0.47803694,-1.3677938,1.8873085,-2.089792,-1.5694941,2.4524353,-0.2053027,0.10774024,-0.1351602,0.01383331,0.009406147,-0.22192946,-0.32561144,0.36391866,-9.5385,0.84484416,47.699425,-1.2391841,-2.3563485,-3.3605042,-0.3452982,0.1792481,-0.17482829,28.5,29.8125,28.875,32.6875,35.125,36.1875
0.2700536,-0.49930656,-0.4088155,0.07410398,-0.05740541,0.08080753,-0.192829,-0.40508628,-0.36142105,0.059971377,3.0775416,-0.62365586,4.911195e-05,-0.12193665,0.055720255,0.001375381,-0.014577323,0.008195154,0.0124670705,0.47764027,-1.3675535,1.8870577,-2.0897443,-1.5695423,2.4519932,-0.2066348,0.10827328,-0.1354702,0.013443699,0.009114054,-0.21903962,-0.47884035,0.36391866,-9.442732,0.82694155,47.70211,-1.2036717,-2.2883172,-3.274036,-0.3265834,0.17052919,-0.15790562,28.5,29.8125,28.875,32.6875,35.125,36.1875
0.2720542,-0.6025654,0.11863116,0.17010485,-0.040135268,0.082902364,-0.19071914,-0.4053434,-0.3613368,0.060008273,3.0774324,-0.62359697,2.8095264e-05,-0.12349026,0.054443523,0.0027858948,-0.016925063,0.011430905,0.0063133743,0.47722086,-1.3673611,1.8867334,-2.0896971,-1.5694584,2.451551,-0.20610154,0.10874094,-0.1390617,0.012626594,0.009721151,-0.21235076,-0.51714754,0.21068975,-9.442732,0.8537928,47.696735,-1.1728547,-2.2821553,-3.0584874,-0.32956463,0.19447617,-0.26661626,28.5,29.8125,28.875,32.6875,35.125,36.1875
0.2740535,-0.97577196,0.46284348,0.17442395,-0.024385074,0.07074676,-0.20472902,-0.40557933,-0.36123314,0.06000187,3.0773926,-0.62362975,2.7089573e-05,-0.12401911,0.05511,0.0012400026,-0.016680948,0.008490784,-0.0006657818,0.476824,-1.3671317,1.8864712,-2.0896847,-1.5694336,2.4511797,-0.20828485,0.11200509,-0.13943532,0.012459137,0.010859005,-0.20755462,-0.38307226,0.11492168,-9.442732,0.9097417,47.698532,-1.1223118,-2.3587132,-3.1045203,-0.32681474,0.16756225,-0.30974475,28.5,29.8125,28.875,32.6875,35.125,36.1875
0.27605388,-0.786103,0.8183876,0.2909326,-0.019627877,0.058418594,-0.19747828,-0.4058451,-0.36112183,0.060030445,3.0773401,-0.6236209,-7.617413e-05,-0.12547389,0.055094965,0.0015624084,-0.017302083,0.009674923,-0.0032929976,0.47640356,-1.3669391,1.8861707,-2.089661,-1.5694336,2.4507606,-0.20943047,0.11339632,-0.14175536,0.012053516,0.010884087,-0.20607106,-0.38307226,0.05746084,-9.385271,0.84708,47.69763,-1.1769217,-2.4566102,-3.1261215,-0.3019521,0.16374558,-0.3616464,28.5,29.8125,28.875,32.6875,35.125,36.1875
0.27805358,-0.78552914,0.74924576,0.39002714,-0.0068710023,0.054603677,-0.19722866,-0.40609473,-0.36101034,0.060013603,3.0772915,-0.62358826,-3.143503e-05,-0.12611955,0.05419364,0.0015430013,-0.017846912,0.0102453055,0.0008033099,0.47596017,-1.3666862,1.885907,-2.0896614,-1.5693735,2.450303,-0.20850202,0.1154717,-0.14411493,0.011601873,0.011113927,-0.20923772,-0.45968673,0.038307227,-9.32781,0.87393653,47.70032,-1.2729369,-2.4103456,-3.0754957,-0.27083886,0.18259624,-0.41790143,28.5,29.8125,28.875,32.6875,35.125,36.1875
0.2800534,-0.87906384,0.7254941,0.47881386,0.0072713825,0.06128417,-0.19896449,-0.40637177,-0.3609084,0.060034502,3.0773053,-0.6234896,-0.0001635325,-0.12498977,0.05419059,0.0011400346,-0.016924126,0.009415217,0.012717618,0.47557575,-1.366434,1.8855499,-2.0896251,-1.5694216,2.4498556,-0.20713988,0.11496435,-0.14267361,0.011838033,0.010710808,-0.21978974,-0.4213795,0.0,-9.193734,0.83589023,47.705692,-1.303727,-2.4729838,-3.0614343,-0.25003478,0.18695284,-0.31377152,28.5,29.8125,28.875,32.6875,35.125,36.1875
0.28205398,-0.63179743,0.99375033,0.4922191,0.02139581,0.06681113,-0.1927354,-0.40663707,-0.36080724,0.060063314,3.0772088,-0.62347925,-0.00023166536,-0.12545417,0.054614037,0.00012222267,-0.015530707,0.007427204,0.025007714,0.47514403,-1.3662407,1.8852509,-2.0896132,-1.5693735,2.4494298,-0.20796216,0.1179324,-0.14414403,0.012779842,0.010424439,-0.23290022,-0.21068975,-0.038307227,-9.232041,0.91198283,47.70659,-1.4656713,-2.5084448,-2.9887114,-0.23520702,0.17282775,-0.18559141,28.5,29.8125,28.875,32.6875,35.125,36.1875
0.2840537,-0.38942787,0.8357484,0.5669746,0.01993938,0.0563879,-0.19058786,-0.40688464,-0.36067483,0.060029496,3.0772069,-0.62338096,-0.00015421763,-0.12589307,0.055591155,0.0008532988,-0.01581063,0.0077053816,0.027312417,0.47467554,-1.3659772,1.8850125,-2.0896127,-1.5693258,2.4489002,-0.20995595,0.11622334,-0.14408334,0.014074518,0.010555205,-0.23719949,-0.21068975,0.038307227,-9.193734,0.8717007,47.73256,-1.5063016,-2.3798592,-3.1897078,-0.24189669,0.18321022,-0.1216356,28.5,29.8125,28.875,32.6875,35.125,36.1875
0.28605413,0.14536579,1.0859863,0.62978137,-0.0021583762,0.05007995,-0.19857997,-0.407153,-0.36058244,0.06004498,3.0771456,-0.623375,-0.0002438807,-0.12714669,0.05724137,-1.4082998e-06,-0.014659465,0.006367706,0.017407607,0.47427863,-1.3657362,1.8846892,-2.0896127,-1.5693139,2.4485075,-0.2134632,0.11809876,-0.14446063,0.014291723,0.010158255,-0.23080067,-0.21068975,0.05746084,-9.078813,0.88960326,47.70211,-1.4034455,-2.5144546,-3.2015214,-0.2440306,0.20759137,-0.10662569,28.5,29.8125,28.875,32.6875,35.125,36.1875
0.28805387,0.5618116,1.2845017,0.91272753,-0.0073467456,0.03791693,-0.2065516,-0.40738672,-0.36044186,0.06002546,3.0771985,-0.62327725,-0.0002120149,-0.12862064,0.058761977,-0.0002518336,-0.013614291,0.0059904787,0.0044197426,0.4738458,-1.3655078,1.8844494,-2.0895646,-1.5693263,2.448007,-0.21672639,0.119340345,-0.14555217,0.014945058,0.009383774,-0.22107571,-0.21068975,-0.076614454,-9.155427,0.8537928,47.691364,-1.4132683,-2.4527845,-3.2551372,-0.2251769,0.2175088,-0.22716236,28.5,29.8125,28.875,32.6875,35.125,36.1875
0.290054,0.25541288,1.086226,0.58920395,-0.00058110995,0.014906995,-0.19809514,-0.40767068,-0.36034918,0.06005635,3.0770848,-0.6233164,-0.00029438952,-0.1293464,0.059582237,-0.00017940269,-0.013455194,0.0061926707,-0.0054076705,0.4734131,-1.3652793,1.8841032,-2.0895522,-1.5692781,2.4476135,-0.21847138,0.11936092,-0.14579044,0.015059242,0.009166631,-0.2129923,-0.11492168,-0.21068975,-9.212888,0.89631605,47.71017,-1.4236518,-2.418156,-3.3062363,-0.2277291,0.22304171,-0.34551305,28.5,29.8125,28.875,32.6875,35.125,36.1875
0.29205358,0.54379404,1.0718254,0.66566217,0.0036755865,0.0064231586,-0.2022871,-0.40793094,-0.36022663,0.06005088,3.0770817,-0.623299,-0.00030713933,-0.1296032,0.06001133,-0.0016085241,-0.012556322,0.0033471922,-0.011043561,0.47298047,-1.3650258,1.8838042,-2.0895164,-1.5692781,2.4471705,-0.21960379,0.12263842,-0.14660467,0.015534226,0.009662747,-0.20848803,-0.019153614,-0.11492168,-9.097966,0.86945957,47.684196,-1.2822547,-2.5248816,-3.3503842,-0.19128709,0.23058525,-0.45023632,28.5,29.8125,28.875,32.6875,35.125,36.1875
0.29405424,1.0968372,0.86637294,0.5768652,0.016852334,0.013899625,-0.206954,-0.40818453,-0.36009556,0.060042363,3.0770712,-0.6233164,-0.00035073448,-0.13184564,0.0610904,0.00066985615,-0.014656245,0.0074090045,-0.011384251,0.47254685,-1.3647989,1.883552,-2.0895164,-1.56929,2.4467492,-0.22326647,0.1194973,-0.14804453,0.0155492155,0.009694481,-0.21180981,-0.076614454,-0.038307227,-9.078813,0.80456203,47.684196,-1.1734579,-2.319625,-3.3363566,-0.17133975,0.23022228,-0.5114106,28.5,29.8125,28.875,32.6875,35.125,36.1875
0.2960537,0.85837877,1.0418639,0.6342388,0.025411716,0.011176988,-0.19909014,-0.4084636,-0.35998148,0.060061608,3.0770175,-0.6232974,-0.0003708336,-0.13242257,0.06203119,-0.00034365384,-0.014287551,0.0049786116,-0.001341037,0.4720904,-1.3645579,1.8832062,-2.0894563,-1.5692538,2.4462879,-0.22571681,0.121670716,-0.14852177,0.016213,0.010505804,-0.22430257,0.11492168,-0.05746084,-9.040505,0.87617236,47.68062,-1.0764551,-2.4718788,-3.2822194,-0.16418079,0.23057184,-0.4201095,28.5,29.8125,28.875,32.6875,35.125,36.1875
0.29805383,0.2730655,0.6237635,0.3413306,0.032666955,0.011491611,-0.1949942,-0.4086964,-0.3598681,0.060049254,3.076957,-0.6232978,-0.0002751721,-0.13456564,0.061990242,0.0016840321,-0.016948069,0.007955342,0.010460567,0.4716459,-1.3643302,1.8829535,-2.08942,-1.5691694,2.4458513,-0.22801983,0.12056036,-0.15198974,0.016972737,0.011540523,-0.23840638,0.05746084,-0.095768064,-9.136273,0.8179876,47.667187,-1.0588404,-2.169809,-3.2247977,-0.18203259,0.24130085,-0.26895773,28.5,29.8125,28.875,32.6875,35.125,36.1875
0.30005375,0.8304258,0.914182,0.27669725,0.012508212,0.039667055,-0.20433848,-0.40897453,-0.35971707,0.060039442,3.0769851,-0.6232242,-0.0003104823,-0.13464946,0.063057125,0.0011697299,-0.016316993,0.0058627697,0.014673708,0.47116545,-1.3640776,1.8826679,-2.0893958,-1.5691932,2.4453216,-0.23000972,0.12108891,-0.15181449,0.018428002,0.0119502405,-0.24460946,-0.076614454,0.0,-9.232041,0.8806493,47.647476,-1.1142143,-2.2366936,-3.5093594,-0.17517921,0.239371,-0.16524798,28.5,29.8125,28.875,32.6875,35.125,36.1875
0.3020533,-0.5221983,0.5965775,0.179374,-0.006655655,0.038812373,-0.1920758,-0.40923622,-0.35959393,0.060055185,3.0769506,-0.6231803,-0.00030452962,-0.13385864,0.062468853,0.00068457215,-0.015338797,0.004480105,0.012022586,0.47070986,-1.363861,1.8823565,-2.0893238,-1.5691575,2.444843,-0.22806075,0.12237549,-0.15253083,0.019541591,0.011710915,-0.24000879,-0.3256114,0.019153614,-9.270349,0.87393653,47.65106,-1.1521683,-2.2117214,-3.3770163,-0.1764759,0.23880851,-0.18511927,28.5,29.8125,28.875,32.6875,35.125,36.1875
0.30405402,-0.5236676,0.15311694,-0.008893028,-0.018815095,0.07981941,-0.20178509,-0.4094624,-0.35944417,0.06000837,3.077025,-0.6231795,-0.00013025803,-0.13413449,0.06144515,0.00079286343,-0.015446701,0.004372595,0.0060801865,0.4702546,-1.3635722,1.8820924,-2.0892155,-1.5691451,2.444378,-0.22652869,0.12433394,-0.1553658,0.020461116,0.011814632,-0.23253462,-0.47884035,0.17238252,-9.3661175,0.9097417,47.677036,-1.2869805,-2.162857,-3.3159392,-0.18516287,0.24532318,-0.2664025,28.5,29.8125,28.875,32.6875,35.125,36.1875
0.3060534,-1.3170019,-0.36285558,-0.37068474,-0.020247467,0.08809863,-0.18950489,-0.4097526,-0.35935375,0.060027193,3.0769444,-0.6230875,-0.00020088577,-0.13494384,0.06048714,0.0015129907,-0.016985277,0.004957069,0.0016675843,0.4698224,-1.3633074,1.8817323,-2.0892155,-1.5690969,2.4438987,-0.22615716,0.1254403,-0.15854849,0.021324236,0.012936723,-0.22774819,-0.4596867,0.19153613,-9.500193,0.8985519,47.70211,-1.4162352,-2.261869,-3.231127,-0.19631624,0.24862045,-0.3488658,28.5,29.8125,28.875,32.6875,35.125,36.1875
0.30805433,-1.420171,-0.36120966,-0.5320685,-0.03263935,0.088847525,-0.19234157,-0.41000003,-0.35922107,0.060024902,3.0769594,-0.62301415,-0.00017068937,-0.13388485,0.0613518,0.0003366966,-0.015434792,0.002411925,0.0011302488,0.46937838,-1.3630792,1.8814477,-2.089143,-1.569085,2.443407,-0.22644523,0.12573826,-0.15638033,0.021838296,0.012712469,-0.22749998,-0.38307226,0.22984336,-9.672575,0.9388393,47.685097,-1.4460953,-2.1688864,-3.4262557,-0.19718982,0.2338188,-0.39601654,28.5,29.8125,28.875,32.6875,35.125,36.1875
0.31005576,-1.4334629,-0.44981864,-0.79679435,-0.04558219,0.06697581,-0.20668963,-0.41027126,-0.35907865,0.060003627,3.0769594,-0.6230838,-0.00011503594,-0.13546199,0.062261473,-0.00028157182,-0.014769816,0.0020454396,0.00884583,0.468898,-1.36279,1.8811358,-2.0890834,-1.5690736,2.4429703,-0.22894506,0.12838832,-0.15813355,0.021596275,0.012290815,-0.23771486,-0.36391866,0.24899697,-9.787497,0.8179876,47.699425,-1.4438639,-2.228629,-3.3731132,-0.18454596,0.24639219,-0.34424448,28.5,29.8125,28.875,32.6875,35.125,36.1875
0.31205404,-0.7358716,-0.76875263,-0.9133216,-0.059796795,0.071599886,-0.19245884,-0.4105389,-0.3589429,0.059990864,3.0769482,-0.62303644,-6.498866e-05,-0.13699283,0.06297376,-0.0007858217,-0.0141016655,0.0023303654,0.019523386,0.46841726,-1.362525,1.8808364,-2.0890357,-1.5690378,2.4424615,-0.23089154,0.13083498,-0.15979631,0.020898398,0.01157923,-0.25033808,-0.36391866,0.3256114,-9.768343,0.9186956,47.694946,-1.5074253,-2.2055273,-3.3798192,-0.19925565,0.27374193,-0.21641651,28.5,29.8125,28.875,32.6875,35.125,36.1875
0.31405342,-0.82143164,-0.7518299,-0.80862164,-0.06602304,0.06570481,-0.1931352,-0.41083637,-0.35883033,0.060026944,3.0769272,-0.62287766,-0.00016890094,-0.1386184,0.06371788,0.0005052158,-0.014833529,0.005201392,0.022853404,0.46797228,-1.3622851,1.8804535,-2.0889761,-1.5690378,2.4419203,-0.23301628,0.12948976,-0.16108477,0.020656439,0.010966663,-0.25579172,-0.40222588,0.34476504,-9.749189,0.87617236,47.70032,-1.4425075,-2.255312,-3.3574772,-0.17731217,0.2720163,-0.10853808,28.5,29.8125,28.875,32.6875,35.125,36.1875
0.31605384,-0.6078567,-0.6748416,-1.0282695,-0.062732816,0.0731638,-0.18794495,-0.4110995,-0.35869956,0.060010638,3.0769224,-0.62284184,-9.958902e-05,-0.13985755,0.06446445,-0.0008257934,-0.014329632,0.0029213896,0.016406696,0.46750376,-1.3620073,1.8801435,-2.088916,-1.5690011,2.44143,-0.23555171,0.13344081,-0.16285715,0.020745942,0.011533062,-0.25187957,-0.4213795,0.36391866,-9.902418,0.8627467,47.717335,-1.4567449,-2.4661667,-3.3695998,-0.17215618,0.2830239,-0.11158526,28.5,29.8125,28.875,32.6875,35.125,36.1875
0.3180535,-0.7501455,-1.1130968,-0.9182003,-0.05123226,0.069514595,-0.18797489,-0.41138595,-0.35856104,0.059996355,3.0768957,-0.622805,-0.0001059219,-0.14179479,0.065748155,-0.00085246615,-0.015270439,0.0032657806,0.0028088044,0.46701038,-1.3617308,1.8798445,-2.0889165,-1.5689772,2.4409173,-0.2396421,0.13445193,-0.16387711,0.020016273,0.012210355,-0.24237129,-0.47884035,0.24899697,-9.80665,0.9298854,47.7254,-1.3795433,-2.3598087,-3.3759375,-0.18428786,0.29180318,-0.21527979,28.5,29.8125,28.875,32.6875,35.125,36.1875
0.32005414,-1.1166143,-0.6967165,-0.609159,-0.0472997,0.06515327,-0.18315251,-0.41168034,-0.35845265,0.060018647,3.0768158,-0.62279445,-0.00017290963,-0.14325088,0.06618659,-0.0011330706,-0.016395634,0.0033961437,-0.00952274,0.46655345,-1.3614781,1.8794855,-2.0888927,-1.5689405,2.440464,-0.24205512,0.1362123,-0.16512102,0.018870505,0.013160236,-0.23245096,-0.49799395,0.24899697,-9.768343,0.8717007,47.70659,-1.1671048,-2.4590385,-3.3747916,-0.16440067,0.29295915,-0.35167348,28.5,29.8125,28.875,32.6875,35.125,36.1875
0.32205343,-0.8516901,-0.12173449,-0.75145394,-0.02296793,0.06933397,-0.18705478,-0.41197166,-0.35832483,0.060019746,3.076746,-0.62280595,-0.00018408189,-0.1446459,0.067575864,-0.0015516542,-0.016826404,0.0026184293,-0.01993902,0.46605995,-1.3612134,1.8791627,-2.0888803,-1.5688928,2.4399867,-0.24588583,0.13735338,-0.16551802,0.018630434,0.013898274,-0.22586446,-0.4213795,0.11492168,-9.730036,0.9298854,47.70211,-0.9885057,-2.4901092,-3.4841,-0.12877354,0.27523595,-0.48240134,28.5,29.8125,28.875,32.6875,35.125,36.1875
0.3240541,-0.91044885,0.1283763,-0.6318992,-0.0020423343,0.05822677,-0.19075888,-0.41225523,-0.35819238,0.06003689,3.0766804,-0.62288296,-0.00022093361,-0.14640813,0.06664507,-0.0005427176,-0.018829733,0.004757016,-0.013936792,0.46557993,-1.360985,1.8788389,-2.088833,-1.5688685,2.4395633,-0.24618863,0.13882925,-0.16955133,0.018398505,0.014744873,-0.23216705,-0.21068975,-0.019153614,-9.634268,0.9097417,47.68599,-1.0783923,-2.4402072,-3.4139628,-0.123416394,0.27275097,-0.49220824,28.5,29.8125,28.875,32.6875,35.125,36.1875
0.32605413,-0.29129007,0.04365535,-0.3751298,0.013772151,0.061394848,-0.19020085,-0.41256404,-0.35806143,0.06002625,3.0766623,-0.6228516,-0.00023765047,-0.14569776,0.06694725,-0.0008355871,-0.01853803,0.0040408173,0.0009517747,0.4650885,-1.3606611,1.8784689,-2.0888093,-1.5688561,2.4390547,-0.24599046,0.13817237,-0.1681559,0.018468538,0.014844541,-0.24685788,-0.30645782,0.05746084,-9.672575,0.87617236,47.69763,-1.1642758,-2.4538686,-3.4601827,-0.10032396,0.2629875,-0.386561,28.5,29.8125,28.875,32.6875,35.125,36.1875
0.32805392,-1.1935866,0.5404979,-0.2745923,0.014407641,0.044969015,-0.18735564,-0.4128682,-0.35795474,0.060056657,3.0765672,-0.62276673,-0.0003369038,-0.14562723,0.066627696,-0.0020958513,-0.017394908,0.0016029987,0.013266448,0.46462065,-1.3604199,1.8781103,-2.0888088,-1.5688084,2.4385462,-0.24530715,0.14175868,-0.16981599,0.019274853,0.0149683785,-0.25848654,-0.34476504,-0.11492168,-9.442732,0.9634547,47.691364,-1.2717991,-2.4772716,-3.3477287,-0.08885637,0.2702,-0.23706916,28.5,29.8125,28.875,32.6875,35.125,36.1875
0.33005378,-0.2014571,0.7588621,-0.2779329,0.040031858,0.046870142,-0.18591104,-0.41317168,-0.35779873,0.06005406,3.0765421,-0.6228013,-0.00034143098,-0.14549501,0.06705201,-0.001948223,-0.01706365,0.0012128117,0.014372039,0.4640922,-1.3601445,1.8777746,-2.0887606,-1.568796,2.4380426,-0.2456833,0.14122984,-0.16977988,0.020279275,0.014859901,-0.2599684,-0.15322891,-0.19153613,-9.423578,0.9388393,47.686886,-1.291244,-2.394592,-3.4541755,-0.071249194,0.28134972,-0.19451791,28.5,29.8125,28.875,32.6875,35.125,36.1875
0.33205363,-0.32116288,1.0787807,0.13394985,0.018527167,0.036552504,-0.18675748,-0.4134557,-0.3576657,0.06005064,3.0765197,-0.6227812,-0.00033315943,-0.14627363,0.06734603,-0.0022274554,-0.01643134,0.0006862801,0.0067607234,0.46361232,-1.3598684,1.8774399,-2.088713,-1.5687722,2.4375532,-0.246483,0.14309612,-0.17158161,0.02096965,0.014522091,-0.25315592,-0.22984336,-0.15322891,-9.385271,0.90750587,47.711964,-1.4148285,-2.4312286,-3.3559093,-0.05842664,0.27013198,-0.25932038,28.5,29.8125,28.875,32.625,35.125,36.1875
0.33405346,-0.41131485,0.560158,0.44808134,0.011211844,0.038279813,-0.17948976,-0.4137617,-0.35754743,0.060057305,3.0764818,-0.6226811,-0.0003584801,-0.14722112,0.06653803,-0.0008210022,-0.017134432,0.0034023316,0.0022101,0.46313196,-1.3595687,1.8770565,-2.0886762,-1.5687369,2.4370153,-0.24540253,0.14282669,-0.17461412,0.0215344,0.013937593,-0.24752347,-0.30645782,-0.22984336,-9.136273,0.9231726,47.69763,-1.4042919,-2.3816063,-3.352469,-0.048290946,0.27471823,-0.35734063,28.5,29.8125,28.875,32.625,35.125,36.1875
0.336054,-0.13329464,0.87913746,0.07228527,0.028529326,0.033667438,-0.19352086,-0.41408148,-0.35739902,0.060087122,3.0764036,-0.62272257,-0.00046605346,-0.14872281,0.06706462,0.00024322883,-0.01801422,0.004843468,0.0012190741,0.46260384,-1.359341,1.8767098,-2.0886524,-1.568725,2.4365232,-0.24749514,0.14247747,-0.17684051,0.022439728,0.014110305,-0.24862309,-0.1340753,-0.11492168,-9.11712,0.8784135,47.679718,-1.4469095,-2.3752155,-3.3019505,-0.040277444,0.293452,-0.4061615,28.5,29.8125,28.875,32.625,35.125,36.1875
0.338054,0.5021046,0.7251703,0.1944899,0.031383462,0.051247112,-0.18650836,-0.41435748,-0.35728127,0.060090527,3.0763474,-0.62268776,-0.0004386036,-0.15019166,0.06742488,0.0008544918,-0.018603316,0.005546579,0.007853439,0.46213526,-1.3590771,1.8763741,-2.0886042,-1.5686649,2.4360402,-0.24933717,0.14329249,-0.1794534,0.02338399,0.01434897,-0.25709817,0.038307227,-0.05746084,-9.155427,0.89631605,47.682407,-1.4804024,-2.205255,-3.2368135,-0.05619462,0.2795739,-0.36638048,28.5,29.8125,28.875,32.625,35.125,36.1875
0.34005398,-0.067723885,0.45492214,0.03121421,0.030053467,0.029799808,-0.17969798,-0.41465065,-0.35713604,0.060075704,3.0763524,-0.6226623,-0.00043852464,-0.15123688,0.06823989,0.0011107128,-0.01873941,0.005815461,0.01961898,0.4616426,-1.3587772,1.8760389,-2.088568,-1.5686644,2.4355311,-0.25145534,0.14356472,-0.18052205,0.023915138,0.014383644,-0.27098164,-0.019153614,0.076614454,-9.155427,0.9231726,47.68062,-1.4133834,-2.2569692,-3.2069998,-0.042967673,0.28640738,-0.21723232,28.5,29.8125,28.875,32.625,35.125,36.1875
0.3420535,0.2220487,0.3229935,-0.06959465,0.01915511,0.028718257,-0.1908863,-0.41497096,-0.35698485,0.060085673,3.0763521,-0.6226051,-0.0004947295,-0.15290536,0.06963827,0.00015455336,-0.017585969,0.004107294,0.022038033,0.46112517,-1.3584881,1.875655,-2.0885074,-1.5686768,2.4349782,-0.2548953,0.14691813,-0.18260431,0.024704183,0.01413609,-0.2768392,-0.076614454,0.17238252,-9.155427,0.86945957,47.685097,-1.2432173,-2.2783346,-3.23553,-0.0106582055,0.29887155,-0.122601576,28.5,29.8125,28.875,32.625,35.125,36.1875
0.34405404,0.016574092,0.01061588,-0.02023604,-0.012166926,0.035665255,-0.18414502,-0.41527134,-0.3568412,0.06008867,3.0763307,-0.6225667,-0.00046186618,-0.15451406,0.07123304,0.0017061073,-0.018240226,0.0058606965,0.011862057,0.46060818,-1.3582015,1.8752846,-2.0884235,-1.5686411,2.4344401,-0.25864527,0.14457415,-0.18369955,0.026286371,0.013937057,-0.27041346,-0.2873042,0.17238252,-9.308656,0.86945957,47.67166,-1.1215159,-2.0938778,-3.246613,-0.029742032,0.30098978,-0.11602402,28.5,29.8125,28.875,32.625,35.125,36.1875
0.34605414,-0.8062654,-0.6833604,-0.24719949,-0.032009214,0.041578695,-0.1767783,-0.41558567,-0.35670507,0.06009657,3.076283,-0.6225075,-0.0004882661,-0.15422495,0.071670644,0.0017295888,-0.018114816,0.004735561,0.0015608167,0.46009222,-1.357914,1.8749126,-2.0883873,-1.5686048,2.4338934,-0.25920072,0.14415075,-0.1835924,0.027661173,0.014327543,-0.26066706,-0.47884035,0.28730422,-9.212888,0.92764956,47.69763,-1.1370714,-2.0647793,-3.2755911,-0.058916062,0.30537787,-0.22663069,28.5,29.8125,28.875,32.625,35.125,36.1875
0.34805426,-0.8295451,-0.60984164,-0.22304128,-0.04804934,0.06383669,-0.1896294,-0.41588336,-0.35654584,0.06010657,3.0762389,-0.62258154,-0.00045349204,-0.15493628,0.07211571,0.0017799227,-0.018163487,0.003913225,-0.009835669,0.45955127,-1.3576617,1.8745645,-2.0882905,-1.5685681,2.4334044,-0.26062062,0.1451688,-0.18527554,0.029035823,0.014721264,-0.25068963,-0.4405331,0.2681506,-9.270349,0.92093146,47.711063,-1.1543045,-1.9891603,-3.157526,-0.06398004,0.32062915,-0.395172,28.5,29.8125,28.875,32.625,35.125,36.1875
0.3500538,-1.3747482,-0.2705184,-0.3556968,-0.06334689,0.07245851,-0.19034001,-0.4161992,-0.356398,0.06010417,3.076217,-0.62263584,-0.00041529138,-0.15589257,0.0732406,0.0014963462,-0.018233629,0.0023784917,-0.013996536,0.45902255,-1.3573376,1.8741583,-2.0881946,-1.5685443,2.4329126,-0.26359445,0.1463347,-0.1863689,0.030316545,0.015464974,-0.24950196,-0.63206923,0.2681506,-9.481039,0.8717007,47.65106,-1.1985844,-1.9678769,-3.2140307,-0.08672015,0.29056197,-0.49259675,28.5,29.8125,28.875,32.625,35.125,36.1875
0.35205373,-1.2282338,0.10268897,-0.33597723,-0.052775797,0.084885195,-0.20246413,-0.41651168,-0.35624918,0.060099147,3.0761979,-0.6225647,-0.00042030326,-0.1554838,0.07286673,0.0007895338,-0.01787202,0.00039391883,-6.7091234e-05,0.45849508,-1.3570372,1.8737997,-2.088158,-1.56852,2.4323432,-0.2628078,0.14826497,-0.1873689,0.031367384,0.016057173,-0.26264364,-0.40222588,0.21068975,-9.481039,0.9231726,47.67793,-1.1223779,-1.94702,-3.37753,-0.09317516,0.3004646,-0.4374003,28.5,29.8125,28.875,32.625,35.125,36.1875
0.35405338,-0.41760394,0.7362175,-0.31952345,-0.038501583,0.09515486,-0.20645052,-0.4168002,-0.35612386,0.060094327,3.0761273,-0.62254226,-0.0003554365,-0.15638378,0.07257058,-0.000330483,-0.017074706,-0.0007237408,0.014496397,0.4579912,-1.3567477,1.8734516,-2.0881107,-1.568436,2.4318345,-0.26277956,0.15257822,-0.19000411,0.031108925,0.015867054,-0.27717742,-0.3256114,0.05746084,-9.615114,0.9231726,47.684196,-1.3195133,-2.1288936,-3.3486369,-0.11162023,0.29238433,-0.27968627,28.5,29.8125,28.875,32.625,35.125,36.1875
0.35605395,-0.5579087,0.2773876,-0.11604991,-0.0138310995,0.08734402,-0.18495667,-0.41714612,-0.3559467,0.06009984,3.0761015,-0.6225535,-0.0004036328,-0.15698303,0.07215979,0.0004558481,-0.0191012,0.0016420217,0.020165967,0.45740348,-1.3564487,1.8730682,-2.0880635,-1.568436,2.4312572,-0.26287696,0.15157795,-0.190215,0.029322403,0.016662298,-0.28294343,-0.53630114,0.1340753,-9.461885,0.93436235,47.716442,-1.3413229,-2.041108,-3.412459,-0.09473943,0.301533,-0.16867286,28.5,29.8125,28.875,32.625,35.125,36.1875
0.35805357,-1.0880518,0.4257013,-0.322236,0.010240794,0.058021616,-0.16823053,-0.4174487,-0.35582492,0.060092326,3.076078,-0.622457,-0.00039741228,-0.15731275,0.07258092,-0.0007148393,-0.017676912,3.0718405e-05,0.013006554,0.45692363,-1.3561242,1.8726863,-2.0880277,-1.5683998,2.4307203,-0.2633406,0.1544106,-0.1910357,0.029389514,0.016089883,-0.27624705,-0.4405331,0.038307227,-9.404425,0.89631605,47.668976,-1.551611,-2.2139332,-3.3976657,-0.06869479,0.28231573,-0.19932653,28.5,29.8125,28.875,32.625,35.125,36.1875
0.3600534,-0.3695776,1.092444,-0.52763605,0.016206944,0.048090335,-0.17585447,-0.41777757,-0.35570002,0.060115322,3.0760012,-0.62237084,-0.0004012795,-0.15691397,0.07322995,-0.0022475289,-0.015755774,-0.0035704789,0.0033883292,0.45639512,-1.3558233,1.8722552,-2.0879548,-1.5683278,2.430148,-0.26383042,0.15722165,-0.19135334,0.030982196,0.015955357,-0.2671175,-0.4213795,-0.11492168,-9.500193,0.9388393,47.69763,-1.4985033,-2.2793524,-3.4569364,-0.08224486,0.30577332,-0.3182277,28.5,29.8125,28.875,32.625,35.125,36.1875
0.3620541,0.06913,1.2737792,-0.03477798,-0.00038417612,0.050238736,-0.18305907,-0.41810623,-0.35552207,0.060118385,3.0759733,-0.62244624,-0.00045957224,-0.15932672,0.074871115,-0.002098684,-0.015506752,-0.002982567,-0.0029160166,0.45582932,-1.355547,1.8719071,-2.0879185,-1.5683402,2.429633,-0.26812544,0.15880527,-0.19372396,0.031353604,0.015475759,-0.265107,-0.38307226,-0.1340753,-9.385271,0.8717007,47.699425,-1.3649907,-2.3089762,-3.4253619,-0.08805777,0.31062305,-0.38454014,28.5,29.8125,28.875,32.625,35.125,36.1875
0.36405388,0.25638652,1.1481966,-0.12353097,-0.0045561213,0.05112732,-0.19642682,-0.41843957,-0.35537028,0.060108803,3.0759726,-0.6224395,-0.0004345745,-0.16024864,0.07546184,-0.0025035015,-0.014930856,-0.004717103,0.0042528124,0.45528916,-1.3551863,1.8714751,-2.0878346,-1.5683283,2.4290888,-0.26985615,0.16121072,-0.1961923,0.033259794,0.015738886,-0.27400556,-0.1340753,-0.1340753,-9.385271,0.94331104,47.755844,-1.265672,-2.4477596,-3.3810399,-0.09998098,0.31654984,-0.35964456,28.5,29.8125,28.875,32.625,35.125,36.1875
0.36605373,0.38715142,0.95050544,-0.40090197,0.0049965265,0.042851094,-0.18479526,-0.41877392,-0.35521993,0.060123276,3.0759437,-0.6223695,-0.0004299242,-0.16038087,0.07636461,-0.0028759132,-0.013634945,-0.0065392815,0.015925335,0.45473653,-1.3548746,1.8710445,-2.0877378,-1.5682925,2.4284964,-0.27109438,0.16214631,-0.19700871,0.03539839,0.01541438,-0.2869161,-0.19153614,-0.095768064,-9.442732,0.9231726,47.73256,-1.2951944,-2.2807362,-3.3356497,-0.14526808,0.32439142,-0.24565676,28.5,29.8125,28.875,32.625,35.125,36.1875
0.36805338,-0.3351707,0.74771464,0.14478832,-0.024648564,0.043530576,-0.1930576,-0.41907015,-0.35505548,0.060086202,3.0759354,-0.6224045,-0.00030961196,-0.16028553,0.07603655,-0.0031615354,-0.013598164,-0.0073439023,0.02377501,0.4541845,-1.3545386,1.8707098,-2.0876777,-1.5682443,2.4279673,-0.2704816,0.16338085,-0.19802909,0.03596277,0.015731556,-0.29415333,-0.21068975,0.019153614,-9.3661175,0.9321212,47.72271,-1.279535,-2.3503237,-3.3739982,-0.15931676,0.32180318,-0.104665905,28.5,29.8125,28.875,32.625,35.125,36.1875
0.3700543,-0.13638088,0.13681543,0.2416309,-0.020939335,0.062256876,-0.18484767,-0.41940454,-0.35490754,0.060097896,3.0758898,-0.62234354,-0.00036428054,-0.16300027,0.0775099,-0.0011760353,-0.015427357,-0.0032450361,0.01270983,0.45364368,-1.3542395,1.8703145,-2.0876424,-1.56822,2.4273944,-0.274918,0.1611029,-0.19970067,0.035425834,0.0155771915,-0.2875236,-0.21068975,0.0,-9.251195,0.88289046,47.698532,-1.2833736,-2.3185802,-3.417436,-0.16803901,0.3201434,-0.16421121,28.5,29.8125,28.875,32.625,35.125,36.1875
0.37205338,0.015853476,0.5493774,-0.101900116,-0.014411392,0.056321237,-0.18698183,-0.4197304,-0.35475913,0.060095977,3.0758936,-0.6222572,-0.00029992507,-0.16431297,0.07882817,-0.0016362919,-0.014928074,-0.005130291,-0.0019112059,0.4531021,-1.3538909,1.869871,-2.0875218,-1.5681838,2.4267986,-0.27824056,0.16322404,-0.20166461,0.03717074,0.015923029,-0.2762244,-0.095768064,0.11492168,-9.270349,0.9164598,47.70211,-1.1387323,-2.3878489,-3.334303,-0.1913333,0.32895347,-0.30204397,28.5,29.8125,28.875,32.625,35.125,36.1875
0.37405393,0.031919617,0.17141587,0.16313873,-0.018773003,0.04348278,-0.17738819,-0.42004278,-0.35459757,0.060097344,3.0758324,-0.62234545,-0.00029592557,-0.16403617,0.07885108,-0.0019105078,-0.01476918,-0.0070028733,-0.010339351,0.45255032,-1.3536149,1.8695239,-2.0874732,-1.568148,2.4263098,-0.27826935,0.16414721,-0.20259675,0.03892757,0.016589493,-0.26782387,-0.15322891,0.11492168,-9.32781,0.8940802,47.711964,-1.0306555,-2.2492075,-3.3804412,-0.2179909,0.31940103,-0.42221904,28.5,29.8125,28.875,32.625,35.125,36.1875
