Tylouw/Master_Thesis_Code/training_data/batch_1/rect_rod_t0.3/sample_37_session_2.csv
timestamp[s],tcp_force_x[N],tcp_force_y[N],tcp_force_z[N],tcp_force_rx[Nm?],tcp_force_ry[Nm?],tcp_force_rz[Nm?],tcp_pose_x[m],tcp_pose_y[m],tcp_pose_z[m],tcp_pose_rx[rot_vec_x],tcp_pose_ry[rot_vec_y],tcp_pose_rz[rot_vec_z],tcp_velo_x[m/s],tcp_velo_y[m/s],tcp_velo_z[m/s],tcp_velo_rx[rot_vec_x/s],tcp_velo_ry[rot_vec_y/s],tcp_velo_rz[rot_vec_z/s],q1[rad],q2[rad],q3[rad],q4[rad],q5[rad],q6[rad],qd1[rad/s],qd2[rad/s],qd3[rad/s],qd4[rad/s],qd5[rad/s],qd6[rad/s],tool_acc_x,tool_acc_y,tool_acc_z,current_of_whole_robot[A],voltage_of_whole_robot[V],current_J1[A],current_J2[A],current_J3[A],current_J4[A],current_J5[A],current_J6[A],temp_J1[C],temp_J2[C],temp_J3[C],temp_J4[C],temp_J5[C],temp_J6[C]
1.0529766e-06,0.67351145,-0.0054636397,0.8809951,-0.004831361,0.0033805603,-0.017364327,-0.389335,-0.36871973,0.060013667,-3.0787218,0.62493205,0.00016916225,0.00042995316,0.0002755937,0.00014740173,0.00049650803,-0.0010827314,-2.4474182e-05,0.5050208,-1.381656,1.9041985,-2.091891,-1.5708297,2.4800134,-0.00011955247,-0.0006331476,-5.206587e-07,0.0018211083,9.357852e-05,-9.5507654e-05,0.11492168,0.11492168,-8.714894,0.7105615,47.73077,-0.15861861,-3.0238862,-2.2963784,-0.20602739,0.06605655,0.017195676,28.3125,29.75,28.75,32.5625,35.0,36.0625
0.002054889,0.8040987,-0.42011222,0.9712541,0.008061742,0.014309254,-0.022275068,-0.38933757,-0.3687106,0.060015153,-3.0786953,0.6249264,0.000234918,-0.0012362903,-0.0006520973,-0.001065078,-0.0028865356,0.0049965084,-2.3469762e-05,0.50503284,-1.3816675,1.9042124,-2.0919077,-1.5708774,2.4800253,-0.000116962976,0.000981357,0.0036150767,-0.010366157,9.237785e-05,-9.384779e-05,0.17238252,0.15322891,-8.619126,0.7172743,47.70211,-0.15197325,-3.0374236,-2.4306731,-0.1339125,0.08636834,0.03070071,28.3125,29.75,28.75,32.5625,35.0,36.0625
0.004055065,0.5823718,-0.68329006,0.859345,-0.0006750395,0.014153448,-0.022786494,-0.38933745,-0.36870068,0.05997051,-3.0786622,0.62493914,0.00015049298,-0.0014680781,-0.00078280503,-0.0020575733,-0.002508667,0.004308593,-2.2051614e-05,0.50500876,-1.3815947,1.9042362,-2.091944,-1.5708655,2.4800134,-0.00011448337,0.0032419616,0.0035145783,-0.011741397,9.120763e-05,-9.224459e-05,0.1340753,0.21068975,-8.599973,0.7329411,47.68599,-0.10775255,-3.434094,-2.616993,-0.045188695,0.07689955,0.020002844,28.3125,29.75,28.75,32.5625,35.0,36.0625
0.006054752,0.67509514,-0.37139744,0.79864854,0.009938253,0.0035101068,-0.021257475,-0.38932592,-0.36870855,0.060001798,-3.0786917,0.62494487,0.00020634089,-0.0005209256,-0.0002569834,-0.0015239622,-0.00088859367,0.0014019955,-2.1491465e-05,0.50503284,-1.3816671,1.9042472,-2.0919292,-1.5708655,2.4800372,-0.00011210654,0.002158764,0.0023056522,-0.0061216755,9.006669e-05,-9.069534e-05,0.05746084,0.1340753,-8.6574335,0.7284641,47.664497,-0.14800598,-3.3107338,-2.510919,-0.07004543,0.098314784,0.024637181,28.3125,29.75,28.75,32.5625,35.0,36.0625
0.008054933,0.83731717,0.81221426,0.34274217,0.03841989,-0.019877613,-0.022327699,-0.38934878,-0.3686837,0.059991207,-3.0786586,0.6249768,0.00021707648,-0.00016916839,-6.174648e-05,-8.6374734e-05,-0.0004325028,0.0005946891,-2.079833e-05,0.5049848,-1.3816439,1.9042462,-2.0919397,-1.5708898,2.4800134,-0.000109826535,3.9087034e-05,0.00042002276,-0.0011891592,8.8954e-05,-8.9197136e-05,-0.05746084,0.21068975,-8.772355,0.6971306,47.68062,-0.15894246,-3.2240856,-2.4323936,-0.10476674,0.07697259,0.021816723,28.3125,29.75,28.75,32.5625,35.0,36.0625
0.010054974,1.0177348,0.6949257,-0.06209004,0.049730852,-0.020113634,-0.01794955,-0.38933194,-0.36872706,0.05997787,-3.078717,0.62496936,0.00011544035,5.637485e-05,6.974817e-05,-9.745778e-05,1.7385009e-06,-0.00018405408,-2.1054173e-05,0.5050208,-1.3815958,1.9042224,-2.0919511,-1.5708054,2.4800372,-0.00011944043,5.244024e-07,0.00023870495,-7.76436e-05,8.7868444e-05,-9.8604745e-05,0.0,0.11492168,-9.059659,0.71279734,47.679718,-0.71593285,-2.8716025,-2.8257618,-0.12576197,0.06896049,-0.05250341,28.3125,29.75,28.75,32.5625,35.0,36.0625
0.012054165,0.41150495,-0.3766967,-0.35057858,0.024866344,-0.007127802,-0.016869588,-0.38934985,-0.36871746,0.060002923,-3.078696,0.6249074,0.0002287937,0.0010953315,0.00069484464,-0.001317191,0.0025252153,-0.0047135456,1.0146006e-05,0.50503284,-1.381619,1.9041871,-2.0919259,-1.5708774,2.4800134,-0.00019485118,0.0018665978,3.2025314e-06,0.0034767732,7.8747296e-05,-0.00020518416,0.15322891,0.11492168,-9.308656,0.7553206,47.698532,-0.9159023,-2.8167472,-2.9132323,-0.14860027,0.050405957,-0.1132448,28.3125,29.75,28.75,32.5625,35.0,36.0625
0.014055014,0.31197324,-0.51083344,-0.34645444,-0.02952073,0.030991418,-0.033478986,-0.3893042,-0.36868834,0.059949435,-3.0786068,0.6249288,-1.0204851e-05,-0.0030216149,0.0060579,-0.0060299444,0.006650803,-0.012175584,-0.0028688165,0.5050042,-1.3815798,1.9042462,-2.0918548,-1.5708417,2.4800093,-0.013074509,0.011078843,4.2966043e-08,0.0027928143,7.5235126e-05,-0.010204348,0.05746084,0.095768064,-9.308657,0.784413,47.694946,-0.35407594,-3.318722,-3.0762243,-0.11971106,0.07447331,-0.088901766,28.3125,29.75,28.75,32.5625,35.0,36.0625
0.016054261,-0.9515358,-1.582902,-0.5151683,-0.03773808,0.03998798,-0.027534787,-0.38932958,-0.36868393,0.059953615,-3.0786154,0.62488794,1.8714449e-05,-0.0051351865,0.004666732,-0.0030879367,0.0033254551,-0.006181792,0.004671988,0.50498044,-1.3815566,1.9042095,-2.0918553,-1.5708536,2.479959,-0.012708873,0.009022277,-0.004108758,0.0021024724,7.418127e-05,-0.017378084,-0.22984335,0.17238253,-9.404425,0.82694155,47.660015,-0.46820414,-3.198708,-2.9502058,-0.11868425,0.052275397,-0.021003142,28.3125,29.75,28.75,32.5625,35.0,36.0625
0.01805506,-1.8345217,-1.0546466,-0.4094435,-0.044793386,0.052081633,-0.047175925,-0.38931537,-0.36867073,0.059919715,-3.0785847,0.62489927,-9.0157686e-05,-0.005651322,0.004180411,-0.0018669231,0.0019406716,-0.0036847098,0.008025584,0.50495666,-1.3815211,1.9042448,-2.0918553,-1.5708297,2.4799461,-0.0123723,0.0074400487,-0.0049111764,0.0016317748,7.330717e-05,-0.020394985,-0.45968673,0.24899697,-9.423578,0.75084364,47.65106,-0.7788153,-2.9388478,-3.027935,-0.09891361,0.06683,-0.013354758,28.3125,29.75,28.75,32.5625,35.0,36.0625
0.020054804,-1.3363515,-0.29825497,-0.7253937,-0.0029725898,0.0749933,-0.07914167,-0.38934284,-0.3686572,0.05992367,-3.0785804,0.6249566,-7.71921e-05,-0.0054870658,0.005406551,-0.0030216423,0.0036123386,-0.0067175888,0.0070236023,0.50490814,-1.3815087,1.9042209,-2.0918548,-1.5708297,2.479934,-0.014287713,0.008725921,-0.004116048,0.0030136935,8.213129e-05,-0.021308698,-0.47884035,0.076614454,-9.691729,0.80679786,47.658226,-0.8574523,-2.9077008,-3.2763758,-0.10839413,0.06292204,-0.03589368,28.3125,29.75,28.75,32.5625,35.0,36.0625
0.022054672,-0.9042338,0.41609758,-0.7655043,0.025866643,0.077299796,-0.10861247,-0.3893305,-0.36865255,0.05990239,-3.0785658,0.624783,-0.00013787372,-0.0059106834,0.0066978405,-0.003795365,0.005304027,-0.009770515,0.003057394,0.5049193,-1.381472,1.9042205,-2.09183,-1.5708417,2.4798386,-0.01685835,0.010406018,-0.0049363477,0.0056441454,8.1828715e-05,-0.019912807,-0.53630114,0.05746084,-9.768343,0.7530795,47.67793,-0.8348763,-2.9559734,-3.3246646,-0.1307384,0.06594678,-0.04467664,28.3125,29.75,28.75,32.5625,35.0,36.0625
0.024054045,-1.1630584,0.10562407,-0.7919426,0.033722784,0.057292413,-0.11010019,-0.38935515,-0.3686518,0.059911143,-3.0785813,0.62486404,-8.059692e-05,-0.007455255,0.006449057,-0.00294893,0.0042274357,-0.007831411,0.00089499657,0.504895,-1.3814719,1.9042085,-2.0918663,-1.5708417,2.479863,-0.017883789,0.010955461,-0.0074559897,0.005396595,8.094995e-05,-0.018774698,-0.57460845,-0.038307227,-9.749189,0.7083204,47.693153,-0.775854,-2.9048872,-3.3778355,-0.1324947,0.05918289,-0.064134225,28.3125,29.75,28.75,32.5625,35.0,36.0625
0.026054379,-1.1030736,0.3626475,-0.8096582,0.017648557,0.06529449,-0.12774493,-0.38934925,-0.36863774,0.059879705,-3.0785491,0.6248581,-0.00025723295,-0.00953482,0.0058273957,-0.002318687,0.0029338456,-0.005513984,-0.0017362877,0.50484675,-1.3814111,1.9041947,-2.0918067,-1.5707935,2.479815,-0.01878399,0.012959128,-0.011007022,0.0042910296,8.005258e-05,-0.017041733,-0.80445176,-0.095768064,-9.844957,0.7620334,47.692257,-0.83363354,-2.871626,-3.3015223,-0.10881923,0.049561523,-0.08119838,28.3125,29.75,28.75,32.5625,35.0,36.0625
0.028054649,-1.530907,-0.0663101,-0.92295593,0.00896606,0.079867415,-0.14143789,-0.38936883,-0.36861122,0.059873674,-3.078504,0.624869,-0.00027711524,-0.010208656,0.00582332,-0.0023115182,0.00260028,-0.0047947676,-0.0033678426,0.50479865,-1.3813869,1.9041718,-2.091771,-1.5708174,2.4797795,-0.019370042,0.013602604,-0.011591045,0.003440686,2.0342359e-05,-0.015995694,-0.842759,-0.076614454,-9.921572,0.73069996,47.694946,-0.89059293,-2.867231,-3.316701,-0.089091256,0.054614905,-0.10252132,28.3125,29.75,28.75,32.5625,35.0,36.0625
0.030054696,-1.3106397,-0.34550324,-0.9463853,-0.0033997828,0.101460084,-0.15121612,-0.3894007,-0.3686126,0.059883602,-3.0785127,0.62485224,-0.00020898155,-0.010707339,0.0062182117,-0.0028201644,0.0033753256,-0.0061576604,-0.0043587196,0.5047863,-1.3813622,1.9041227,-2.0917828,-1.5708417,2.4797556,-0.020489156,0.015343491,-0.012703767,0.0043799235,1.3282105e-06,-0.016123265,-0.842759,-0.114921674,-9.921572,0.8179876,47.686886,-0.9330703,-2.930459,-3.3072658,-0.10588093,0.04070457,-0.13026527,28.3125,29.75,28.75,32.5625,35.0,36.0625
0.032054596,-1.6986656,-0.8094569,-0.8595771,0.006432968,0.09261982,-0.14649609,-0.389399,-0.3685802,0.05984593,-3.078434,0.62497085,-0.000336581,-0.011210946,0.006648887,-0.0023395822,0.0036527214,-0.0066578756,-0.005155701,0.50472593,-1.3813143,1.9041461,-2.0917575,-1.5708297,2.4797792,-0.021684524,0.015232551,-0.014148868,0.0065080905,8.672265e-08,-0.016521301,-0.80445176,-0.038307227,-9.921572,0.8291774,47.701214,-0.96013916,-2.8075624,-3.2875772,-0.124104805,0.04502259,-0.14487083,28.3125,29.75,28.75,32.5625,35.0,36.0625
0.034054834,-1.9318925,-0.30406532,-0.9237946,0.013636718,0.086101584,-0.1715852,-0.38942248,-0.368562,0.05983841,-3.078439,0.6249524,-0.00036445117,-0.011822958,0.007347309,-0.002997523,0.004411715,-0.008034307,-0.0057366025,0.5046656,-1.3812897,1.9041342,-2.0917575,-1.5708174,2.4797068,-0.02343235,0.016878031,-0.014705416,0.0069910465,5.6623692e-09,-0.017687788,-0.842759,0.019153614,-9.864111,0.7172743,47.728977,-0.9737954,-2.8969717,-3.3478572,-0.12648831,0.048255764,-0.16453119,28.3125,29.75,28.75,32.5625,35.0,36.0625
0.03605378,-1.4145722,-0.28888908,-0.87633145,0.027148174,0.080531955,-0.18070497,-0.38945103,-0.36857912,0.05984744,-3.0784912,0.62490636,-0.00034515286,-0.013587007,0.007748605,-0.0020419885,0.0029277483,-0.005358534,-0.0068511604,0.5046528,-1.3812538,1.9040741,-2.09177,-1.5707935,2.4796586,-0.025754923,0.016166633,-0.015743647,0.005681255,3.6971223e-10,-0.018895354,-0.5554548,0.038307227,-9.710882,0.7463667,47.707485,-0.9301537,-2.768108,-3.34972,-0.12309186,0.044873215,-0.16772133,28.3125,29.75,28.75,32.5625,35.0,36.0625
0.038055047,-0.97139025,0.18694448,-0.8711198,0.012908751,0.070432596,-0.20545699,-0.38948902,-0.36853874,0.05984587,-3.0784335,0.6250287,-0.00037565498,-0.014822424,0.0075342623,-0.0015953872,0.0019533548,-0.0036100778,-0.006209318,0.5045567,-1.3812296,1.9040383,-2.0917227,-1.5708054,2.4796462,-0.026547944,0.016787786,-0.017238809,0.0045532556,2.4139565e-11,-0.02032939,-0.4405331,-0.019153614,-9.749189,0.80679786,47.71465,-0.9165549,-2.7821445,-3.33503,-0.07577002,0.031070724,-0.18321715,28.3125,29.75,28.75,32.5625,35.0,36.0625
0.040054657,-1.0723528,0.047693763,-0.82248664,0.008540302,0.04833124,-0.21095307,-0.3895433,-0.36852232,0.059853014,-3.07841,0.62504274,-0.00029673983,-0.015693322,0.007919751,-0.0013159976,0.0015780351,-0.0029344037,-0.006385152,0.5045084,-1.3811816,1.9039654,-2.0917227,-1.5708536,2.4796097,-0.028008161,0.016816141,-0.01787032,0.0043823174,1.5761411e-12,-0.021613494,-0.47884035,0.0,-9.749189,0.7217513,47.696735,-0.94971484,-2.7796483,-3.307222,-0.08761005,0.050508674,-0.18492246,28.3125,29.75,28.75,32.5625,35.0,36.0625
0.042054307,-1.2059767,-0.708829,-0.90326184,0.015817894,0.033289947,-0.21586248,-0.38955662,-0.36851525,0.05983439,-3.0783942,0.62503994,-0.00032645336,-0.016862953,0.007952904,-0.00053410284,0.0009022928,-0.001718852,-0.006797771,0.50448406,-1.3811334,1.9039534,-2.0917342,-1.5708536,2.4795856,-0.029156568,0.016884917,-0.019849785,0.0049021407,1.02910756e-13,-0.022348518,-0.36391866,0.038307227,-9.595961,0.784413,47.686886,-0.9438142,-2.7459278,-3.3002138,-0.0953601,0.047870185,-0.21845195,28.3125,29.75,28.75,32.5625,35.0,36.0625
0.04405484,-0.62885815,-0.5871244,-0.95747566,0.011356615,0.031709563,-0.22874554,-0.38959473,-0.36847913,0.059821155,-3.0783494,0.62518466,-0.0003546427,-0.017883196,0.0084374165,-0.0004455323,0.0008974297,-0.0017160252,-0.007420267,0.50438756,-1.3810971,1.9039406,-2.0917342,-1.5708536,2.4795852,-0.030923778,0.017684467,-0.021097269,0.0053450717,6.7193375e-15,-0.023492644,-0.24899697,0.076614454,-9.691729,0.7642693,47.694054,-0.9690397,-2.7569647,-3.2862613,-0.07691517,0.039266553,-0.23470323,28.3125,29.75,28.75,32.5625,35.0,36.0625
0.04605415,-0.550319,-0.7735691,-0.801207,0.0064692777,0.027991675,-0.22089835,-0.38965052,-0.3684695,0.05984647,-3.0783825,0.6251708,-0.00027116996,-0.01872864,0.009657673,-0.00042698934,0.001095085,-0.0020703108,-0.007513711,0.5043267,-1.3810853,1.903869,-2.0917342,-1.5708655,2.4795115,-0.03376358,0.017399082,-0.020918248,0.005856384,4.387247e-16,-0.026239173,-0.22984336,0.36391866,-9.634268,0.7620334,47.68062,-0.84167373,-2.6675944,-3.2917938,-0.0759305,0.048449397,-0.24254856,28.3125,29.75,28.75,32.5625,35.0,36.0625
0.048054807,0.15895599,-0.70328754,-0.81544286,0.00076710025,0.030210579,-0.19394603,-0.38969684,-0.3684496,0.059851523,-3.078376,0.625246,-0.00028426392,-0.020065552,0.009709599,-7.4395546e-05,0.000629981,-0.0012390879,-0.00632743,0.5042425,-1.3810489,1.903809,-2.0917099,-1.5708536,2.479475,-0.035097446,0.018499272,-0.023036424,0.0059218025,2.864559e-17,-0.02875829,-0.1340753,0.1340753,-9.519346,0.800085,47.67793,-0.8186739,-2.6844587,-3.2681901,-0.0743151,0.041092567,-0.22331008,28.3125,29.75,28.75,32.5625,35.0,36.0625
0.050055046,-0.09190089,-0.6546381,-0.71497375,0.005621254,0.015696915,-0.20749985,-0.38975236,-0.3684487,0.059869733,-3.0784228,0.62521696,-0.00023963064,-0.021767074,0.010117315,0.00062391354,-1.8490262e-05,-7.0983246e-05,-0.0059974273,0.5041816,-1.3810127,1.9037246,-2.0917094,-1.5708417,2.4793901,-0.03736894,0.018994542,-0.025312386,0.006366433,1.8703524e-18,-0.031358823,0.0,0.19153613,-9.557653,0.7418897,47.684196,-0.8218556,-2.6666975,-3.2329922,-0.07244757,0.029616658,-0.23641835,28.3125,29.75,28.75,32.5625,35.0,36.0625
0.052054312,0.40770975,-0.78430897,-0.6473977,0.0119118225,0.019728456,-0.19855095,-0.38979244,-0.36842084,0.05987738,-3.0784202,0.6252351,-0.00023791303,-0.022913693,0.010775211,0.0010929513,-0.00044190063,0.00069243275,-0.0060818046,0.5040973,-1.3810008,1.9036878,-2.091686,-1.5708417,2.4793174,-0.039543662,0.018762384,-0.026150156,0.006563089,1.2212064e-19,-0.033448886,0.0,0.2681506,-9.404425,0.7620334,47.703903,-0.76184833,-2.5795312,-3.1720424,-0.07238857,0.054623753,-0.22799128,28.3125,29.75,28.75,32.5625,35.0,36.0625
0.054054517,0.63030344,-0.94804263,-0.5280347,0.010319337,0.019406019,-0.20055506,-0.38983625,-0.3683839,0.059862863,-3.0783775,0.6253219,-0.0002548011,-0.023044055,0.010432628,0.0008626699,-0.00018584293,0.00022255251,-0.0048160194,0.5040016,-1.3809522,1.9036635,-2.091686,-1.5708536,2.4792814,-0.03908645,0.020096175,-0.02727798,0.0068917125,7.973605e-21,-0.034256823,0.019153614,0.22984336,-9.385271,0.7642693,47.694946,-0.8176055,-2.6785445,-3.201736,-0.058580227,0.048093848,-0.2431168,28.3125,29.75,28.75,32.5625,35.0,36.0625
0.056054864,0.51399606,-0.5538235,-0.4780153,-0.005595206,0.01696541,-0.19451568,-0.3898977,-0.36837947,0.05987644,-3.0784013,0.6253257,-0.00023957349,-0.02347645,0.011046862,0.0003496877,0.0002301486,-0.00053131464,-0.004892187,0.5039293,-1.3808919,1.9035558,-2.0916617,-1.5708417,2.4792085,-0.040519036,0.020994375,-0.027131682,0.0067084613,5.206194e-22,-0.035613142,-0.019153614,0.24899697,-9.423578,0.7463667,47.687782,-0.8281989,-2.674571,-3.2427044,-0.046888575,0.03691075,-0.27270803,28.3125,29.75,28.75,32.5625,35.0,36.0625
0.058054607,0.61997557,-0.5088963,-0.42227706,-0.0011365261,0.024563108,-0.20637809,-0.38992345,-0.36835054,0.059861902,-3.078386,0.62528485,-0.00028199248,-0.02504587,0.011779581,0.0010509318,-0.00037812826,0.0005635015,-0.006198517,0.50385654,-1.380856,1.9035438,-2.0916502,-1.5708417,2.4791121,-0.043214846,0.020824792,-0.028619714,0.0071134344,3.399273e-23,-0.037002087,0.0,0.19153613,-9.423578,0.74413085,47.66808,-0.7998607,-2.586627,-3.2547758,-0.04710433,0.043893855,-0.2729157,28.3125,29.75,28.75,32.5625,35.0,36.0625
0.060054887,0.12479278,-0.3436134,-0.45944878,0.00037408475,0.012672169,-0.19539383,-0.3899791,-0.36833563,0.05987379,-3.078403,0.6253266,-0.0002654793,-0.026371596,0.011854968,0.001629792,-0.0009048907,0.0015122258,-0.0060988786,0.5037721,-1.3808196,1.9034709,-2.0916378,-1.5708297,2.4790516,-0.044574186,0.021516385,-0.03086038,0.0075776107,2.219482e-24,-0.03846009,0.11492168,0.21068975,-9.404425,0.7284641,47.672558,-0.80932033,-2.628602,-3.1888657,-0.054216936,0.03835849,-0.27649495,28.3125,29.75,28.75,32.5625,35.0,36.0625
0.06205424,-0.10491919,-0.7234983,-0.4865505,0.012150839,0.013040322,-0.18828297,-0.39002925,-0.36831358,0.05987364,-3.0783837,0.6254181,-0.00026696487,-0.02680818,0.012099026,0.0014184545,-0.0006599004,0.0010654597,-0.0058037797,0.50368816,-1.3807712,1.9034113,-2.0916255,-1.5708297,2.4790273,-0.045388155,0.022411162,-0.031494454,0.007826296,1.4491632e-25,-0.039568786,-0.019153614,0.05746084,-9.3661175,0.69937176,47.610756,-0.78076565,-2.5917041,-3.1540875,-0.053416148,0.029719688,-0.295294,28.3125,29.75,28.75,32.5625,35.0,36.0625
0.06405526,0.33161482,-0.5743719,-0.4079829,0.011855661,0.035563886,-0.19654456,-0.3900734,-0.3682737,0.05985479,-3.0783794,0.6253588,-0.00029687374,-0.027430335,0.012611788,0.0013029824,-0.00043872723,0.00066063425,-0.005959571,0.50357985,-1.380723,1.9033998,-2.0916374,-1.5708297,2.4788826,-0.046827823,0.023049604,-0.032080144,0.008234682,9.462002e-27,-0.040852368,-0.076614454,0.11492168,-9.289502,0.7866488,47.657326,-0.7652886,-2.5731485,-3.1831703,-0.061707664,0.04470655,-0.32548836,28.3125,29.75,28.75,32.5625,35.0,36.0625
0.06605496,-0.26584834,-0.31656367,-0.4599731,0.010356746,0.03327597,-0.19211036,-0.390151,-0.36826226,0.059904117,-3.078417,0.62540394,-0.00018358906,-0.028065179,0.012990389,0.001222964,-0.00026696557,0.00035256462,-0.003952192,0.50349563,-1.3807228,1.9032792,-2.0916016,-1.5708417,2.4788218,-0.04805002,0.023808843,-0.03288516,0.008632227,6.178011e-28,-0.044081535,-0.11492168,0.114921674,-9.3661175,0.7150385,47.68599,-0.7927755,-2.5734007,-3.1775978,-0.056984253,0.03772893,-0.30394995,28.3125,29.75,28.75,32.5625,35.0,36.0625
0.06805461,-0.6268672,-0.4692575,-0.20841187,0.015401781,0.041980978,-0.18858142,-0.39017773,-0.36822903,0.059870422,-3.0783775,0.6254533,-0.00029599725,-0.028245427,0.013336851,0.00100962,0.00015346038,-0.00041663012,-0.0034226826,0.50339955,-1.3806505,1.9032677,-2.0915892,-1.5708174,2.4787614,-0.04879872,0.024345718,-0.03318032,0.009268024,4.0337995e-29,-0.04535961,-0.19153613,0.038307227,-9.404425,0.784413,47.66987,-0.84975183,-2.553251,-3.216922,-0.055042975,0.020748,-0.32855907,28.3125,29.75,28.75,32.5625,35.0,36.0625
0.070053846,-1.2924324,0.10998725,-0.24376577,-0.00067337806,0.037163287,-0.19956127,-0.390242,-0.3682144,0.059882697,-3.0784035,0.62536246,-0.00028318085,-0.029517222,0.014100292,0.0014508689,9.162178e-06,-0.00015534971,-0.006057506,0.503315,-1.3805903,1.9031605,-2.091553,-1.5708174,2.478617,-0.05126279,0.024525017,-0.034614377,0.010224338,2.633783e-30,-0.045188345,-0.30645782,0.095768064,-9.442732,0.8157518,47.65106,-0.83267593,-2.531571,-3.177742,-0.064257696,0.034420617,-0.3527036,28.3125,29.75,28.75,32.5625,35.0,36.0625
0.07205452,-0.84286386,-0.21939816,-0.30318317,0.018622816,0.058135256,-0.18773717,-0.3903013,-0.36818993,0.059891008,-3.0784073,0.6253424,-0.00028367143,-0.030915724,0.014609891,0.0016651816,-0.00019579059,0.00020795887,-0.004371181,0.5032185,-1.3805419,1.903076,-2.0915167,-1.5708174,2.4785075,-0.053418264,0.02551169,-0.03634318,0.010548902,1.7196721e-31,-0.04902932,-0.38307226,0.095768064,-9.404425,0.779936,47.701214,-0.68341935,-2.5126333,-3.2244723,-0.06624716,0.028989146,-0.35913652,28.3125,29.75,28.75,32.5625,35.0,36.0625
0.074054755,-0.5973306,-0.1078305,-0.30419886,0.019846972,0.07165317,-0.19134697,-0.3903901,-0.36814496,0.05989916,-3.0783906,0.6254516,-0.00021530129,-0.030446274,0.013921728,0.0015033059,4.939112e-05,-0.00023724309,0.0008671535,0.5030752,-1.3804936,1.9030031,-2.0915287,-1.5708417,2.4784346,-0.05181401,0.026307108,-0.036999643,0.010916497,1.1228231e-32,-0.052663047,-0.4213795,-0.019153614,-9.423578,0.7284641,47.691364,-0.92156976,-2.557035,-3.1691341,-0.07447958,0.042143922,-0.32127526,28.3125,29.75,28.75,32.5625,35.0,36.0625
0.07605465,-0.68966156,0.37478787,-0.17196286,0.009440888,0.07552411,-0.2035713,-0.3904534,-0.36814114,0.059951562,-3.0784638,0.62536883,-0.00014251746,-0.031643737,0.014982028,0.0011247403,0.00042263063,-0.00091205514,0.0023495175,0.50300235,-1.3805051,1.9028839,-2.091469,-1.5708297,2.4783008,-0.05470744,0.027548827,-0.03764518,0.011091523,7.3312323e-34,-0.0570384,-0.47884035,-0.05746084,-9.346964,0.78888994,47.67345,-0.81126946,-2.5427656,-3.1846104,-0.072667986,0.03004507,-0.30890885,28.3125,29.75,28.75,32.5625,35.0,36.0625
0.07805499,-0.7878849,-0.28133625,-0.36387855,0.025508244,0.07262463,-0.1935014,-0.39051482,-0.36811543,0.05991807,-3.0784464,0.6253853,-0.00019832762,-0.032949675,0.01570634,0.001267073,0.0001546587,-0.0004342799,-4.8793125e-05,0.50289404,-1.3803848,1.9028233,-2.091493,-1.5708174,2.478205,-0.057135772,0.028072895,-0.038555752,0.010930971,4.7867708e-35,-0.057067957,-0.49799395,0.076614454,-9.32781,0.8090337,47.677036,-0.7805547,-2.5553775,-3.2770886,-0.07631199,0.033287577,-0.29118928,28.3125,29.75,28.75,32.5625,35.0,36.0625
0.08005436,-1.5462697,0.10321664,-0.37728867,0.014182828,0.051021695,-0.19682193,-0.39055827,-0.36807665,0.059903033,-3.0784264,0.62537956,-0.00029508135,-0.03390004,0.016065542,0.0012397275,0.00016257151,-0.00046312538,0.0023245108,0.50277346,-1.3803244,1.9027752,-2.0914447,-1.5707935,2.4780834,-0.05862056,0.029122831,-0.039783973,0.011139339,3.125419e-36,-0.06092541,-0.38307226,0.0,-9.32781,0.8179876,47.67345,-0.7270638,-2.526495,-3.2305136,-0.08594338,0.017615857,-0.29029453,28.3125,29.75,28.75,32.5625,35.0,36.0625
0.0820546,-1.0229377,0.09123303,-0.22775069,0.009190449,0.06071793,-0.19830664,-0.39064658,-0.36802992,0.059899934,-3.0784023,0.62531257,-0.0002468189,-0.033421632,0.01532518,0.0011496051,0.00037583627,-0.00085564377,0.008776729,0.5026426,-1.38024,1.9026798,-2.0914333,-1.5708417,2.4779139,-0.056920074,0.02985745,-0.040559657,0.011623512,2.0406755e-37,-0.06567676,-0.51714754,-0.076614454,-9.346964,0.7620334,47.652847,-1.0007229,-2.5449257,-3.2328308,-0.08771095,0.014723614,-0.2326944,28.3125,29.75,28.75,32.5625,35.0,36.0625
0.084054105,0.03163071,0.2603034,-0.2667647,0.010118593,0.08664345,-0.20602944,-0.39071625,-0.36799943,0.05992473,-3.0784087,0.6253126,-0.00020656783,-0.035112336,0.016071644,0.001546426,-0.00015425251,0.00010238505,0.009557263,0.50253385,-1.3802159,1.902584,-2.0913851,-1.5708536,2.4778044,-0.059741843,0.030343944,-0.042007823,0.011488949,1.3324151e-38,-0.06927839,-0.4405331,-0.019153614,-9.32781,0.72622824,47.70659,-0.8741751,-2.4736373,-3.2087474,-0.08396047,0.025132092,-0.21017966,28.3125,29.75,28.75,32.5625,35.0,36.0625
0.086053796,-0.49352044,-0.11314841,-0.5160415,0.023234876,0.06713665,-0.19873172,-0.3907857,-0.36797008,0.059906255,-3.0784256,0.6253339,-0.00028561684,-0.035386816,0.016574748,0.0012112202,0.00031356618,-0.00075310376,0.011388286,0.5023897,-1.3801196,1.902512,-2.0913846,-1.5708054,2.4776714,-0.060834885,0.031009542,-0.042134732,0.01192835,8.69972e-40,-0.07220235,-0.36391866,0.038307227,-9.3661175,0.73069996,47.68599,-0.86999834,-2.5255182,-3.1708324,-0.08857313,0.016861223,-0.16165572,28.3125,29.75,28.75,32.5625,35.0,36.0625
0.08805463,-0.38284108,-0.3452651,-0.39252582,0.021426374,0.06249544,-0.18188134,-0.39082113,-0.3679379,0.059903886,-3.0784152,0.6251769,-0.00030362833,-0.035736676,0.016714998,0.001062641,0.00026285648,-0.0007243163,0.01336751,0.5023177,-1.3800834,1.9024638,-2.091337,-1.5708297,2.4775028,-0.061408818,0.031519324,-0.04231393,0.011545936,2.5741134e-05,-0.07475536,-0.3256114,-0.019153614,-9.442732,0.7732232,47.68062,-0.94831777,-2.51363,-3.2548432,-0.09459518,0.02467419,-0.12683108,28.3125,29.75,28.75,32.5625,35.0,36.0625
0.09005431,-0.0734743,-0.24725628,-0.5174931,0.008261879,0.06322578,-0.19020978,-0.39093226,-0.3679183,0.059935607,-3.0784926,0.6251143,-0.00021684283,-0.036865093,0.016943876,0.0007771665,0.00040054915,-0.00092142395,0.013837741,0.50217366,-1.3800226,1.9023198,-2.091337,-1.5708174,2.47731,-0.06281489,0.033509508,-0.04400681,0.011488507,1.6807121e-06,-0.076630615,-0.30645782,-0.019153614,-9.481039,0.800085,47.684196,-0.9995198,-2.5336986,-3.284236,-0.104051225,0.019179644,-0.093932725,28.3125,29.75,28.75,32.5625,35.0,36.0625
0.092054605,-0.010894804,-0.019550564,-0.41042614,0.0045713196,0.053696204,-0.17994316,-0.39099368,-0.36784345,0.05990331,-3.0783994,0.625172,-0.00030590262,-0.038133282,0.016677877,0.001251125,-0.00013411207,2.9558669e-05,0.013512088,0.50200564,-1.3799382,1.9022826,-2.0912893,-1.5708417,2.4771898,-0.06353855,0.034767013,-0.046639692,0.011771056,1.09738494e-07,-0.07702739,-0.21068975,0.0,-9.385271,0.7866488,47.68599,-0.9990294,-2.583581,-3.1228006,-0.09454456,0.023832953,-0.04608854,28.3125,29.75,28.75,32.5625,35.0,36.0625
0.09405405,-0.20490359,-0.41271806,-0.45620084,0.01181091,0.041862313,-0.1822599,-0.39107746,-0.36781824,0.05991742,-3.078421,0.6251769,-0.0002651033,-0.03790505,0.017575737,0.00029638017,0.00080530567,-0.0016701715,0.011766126,0.50188535,-1.379878,1.9021767,-2.0912778,-1.5708417,2.4770699,-0.06482663,0.035343006,-0.045114215,0.011611733,7.16514e-09,-0.07657002,-0.21068975,0.095768064,-9.442732,0.8090337,47.703007,-1.0419048,-2.5423403,-3.2697558,-0.09887861,0.020150976,-0.06708952,28.3125,29.75,28.75,32.5625,35.0,36.0625
0.09605443,-0.11956417,-0.9060019,-0.6117049,0.012440384,0.030935159,-0.17398714,-0.39116237,-0.3677824,0.059918392,-3.0784307,0.62508196,-0.0002545638,-0.038681287,0.017604046,0.00039619597,0.00061272236,-0.0013251308,0.010423142,0.50175357,-1.3797935,1.902069,-2.0912535,-1.5708536,2.4768777,-0.06558469,0.036219012,-0.046378735,0.011604312,4.6783244e-10,-0.07598445,-0.1340753,0.114921674,-9.385271,0.8806493,47.69763,-1.1225123,-2.550599,-3.3233056,-0.122253746,0.0120663615,-0.058733724,28.3125,29.75,28.75,32.5625,35.0,36.0625
0.09805415,0.6568249,0.22537933,-0.50812787,-0.013143002,0.038523298,-0.19555928,-0.39124045,-0.36772826,0.059904248,-3.0783951,0.62509596,-0.00028527965,-0.040145025,0.017935663,0.0010667867,-9.343839e-05,-4.9924118e-05,0.0071336296,0.5015972,-1.3797092,1.901996,-2.0912292,-1.5708655,2.4767346,-0.067491874,0.036428984,-0.04818793,0.011745217,3.0546114e-11,-0.074601375,-0.095768064,0.095768064,-9.404425,0.8112748,47.672558,-1.0606165,-2.5230892,-3.247319,-0.11532859,0.011427941,-0.081768274,28.3125,29.75,28.75,32.5625,35.0,36.0625
0.10005468,0.47737122,-0.3771988,-0.75186193,-0.0016666313,0.028758576,-0.18230194,-0.39132768,-0.36770067,0.059926163,-3.0784202,0.6250052,-0.00024495303,-0.04151726,0.017828662,0.0012674489,-0.00028667363,0.00029693902,0.004625738,0.5014772,-1.3796486,1.9018635,-2.091181,-1.5708774,2.4765549,-0.06857468,0.03835267,-0.051043242,0.012279185,1.994443e-12,-0.07317489,-0.038307227,0.17238252,-9.500193,0.7597976,47.675243,-1.0890341,-2.5640988,-3.1575005,-0.107188255,0.0056935973,-0.100700304,28.3125,29.75,28.75,32.5625,35.0,36.0625
0.10205498,0.3937431,-0.6650369,-0.6721595,-0.0012953014,0.019853592,-0.18448384,-0.39138865,-0.3676734,0.05991708,-3.0784593,0.6249955,-0.00029377517,-0.041905444,0.01858515,0.0009774307,5.742188e-05,-0.00032723363,0.0009896812,0.5013449,-1.3795885,1.9018158,-2.0911934,-1.5708297,2.4764116,-0.0701984,0.038611926,-0.0507235,0.012416698,1.3022289e-13,-0.071162656,-0.076614454,0.2681506,-9.3661175,0.7239871,47.655537,-1.086285,-2.574263,-3.0907722,-0.125396,0.0042380067,-0.12647441,28.3125,29.75,28.75,32.5625,35.0,36.0625
0.10405459,0.37136358,-1.1299845,-0.54960686,-0.0061405683,0.022623,-0.18145289,-0.39148208,-0.36762756,0.059909344,-3.0784264,0.62502855,-0.00031283492,-0.04205204,0.019694367,0.00029162384,0.00096821407,-0.0019862074,-0.0022179538,0.50118846,-1.3794802,1.901697,-2.0911572,-1.5708417,2.47628,-0.07218827,0.039115913,-0.049888536,0.012969652,8.5026235e-15,-0.069945216,0.0,0.24899697,-9.442732,0.73069996,47.64121,-1.0807148,-2.5323174,-3.336707,-0.15119018,0.016703557,-0.14635447,28.3125,29.75,28.75,32.5625,35.0,36.0625
0.10605439,0.26106077,-1.1555821,-0.54055315,-0.016753474,0.025705718,-0.17924705,-0.391568,-0.36758763,0.05992193,-3.0784047,0.62508243,-0.00027515873,-0.043594364,0.019656943,0.0005796228,0.0006383481,-0.0013934611,-0.0043864683,0.5010564,-1.3794196,1.9015883,-2.0911205,-1.5708655,2.4761844,-0.073544584,0.04094134,-0.052797507,0.013373349,5.5516064e-16,-0.06913159,0.038307227,0.24899697,-9.423578,0.7620334,47.66987,-1.0440681,-2.565145,-3.260553,-0.1313938,0.0062677786,-0.18581952,28.3125,29.75,28.75,32.5625,35.0,36.0625
0.10805469,0.7602043,-0.894471,-0.7000407,-0.019430296,0.04341765,-0.18673292,-0.39168644,-0.36755744,0.05995638,-3.0784664,0.62505597,-0.00020204736,-0.044229884,0.019996911,0.00065432023,0.000633956,-0.0013771706,-0.0062774383,0.5008883,-1.3793594,1.9014333,-2.091097,-1.5708536,2.475992,-0.074687526,0.041372154,-0.05354819,0.013677795,3.6248017e-17,-0.068383224,0.0,0.22984336,-9.3661175,0.7732232,47.692257,-1.1029434,-2.5955713,-3.2462835,-0.14685889,0.010290878,-0.22181046,28.3125,29.75,28.75,32.5625,35.0,36.0625
0.11005495,-0.3443509,-0.9449488,-0.6890004,-0.013171833,0.028486153,-0.17705555,-0.39175293,-0.36751565,0.059918553,-3.078403,0.6251385,-0.00028749713,-0.045082502,0.02021647,0.0011020384,0.00026001153,-0.00070985575,-0.00514504,0.5007562,-1.3792273,1.9013604,-2.0910852,-1.5708536,2.4759195,-0.07583699,0.041436996,-0.054728396,0.014027919,2.3667364e-18,-0.070664644,-0.038307227,0.2681506,-9.3661175,0.78888994,47.686886,-1.1775992,-2.4946346,-3.1802282,-0.17555591,0.006340768,-0.24209292,28.3125,29.75,28.75,32.5625,35.0,36.0625
0.1120544,-0.2788628,-1.254969,-0.7479276,-0.00046752294,0.03766599,-0.17180619,-0.3918431,-0.36748853,0.05992253,-3.0784354,0.62506765,-0.00031353818,-0.045685887,0.020599967,0.00065069366,0.0004801328,-0.0011163899,-0.0061833397,0.5006121,-1.3791306,1.9012288,-2.091049,-1.5708297,2.475727,-0.07702719,0.04267384,-0.055071723,0.013598392,1.5453096e-19,-0.070816174,-0.019153614,0.34476504,-9.500193,0.80456203,47.678825,-1.1898748,-2.5381813,-3.2658226,-0.18104976,0.0021723032,-0.25836247,28.3125,29.75,28.75,32.5625,35.0,36.0625
0.114054486,0.22272372,-0.7972565,-0.7621386,-0.0026690073,0.054864243,-0.18089342,-0.39193222,-0.36744785,0.05992315,-3.0784256,0.62506616,-0.0003034039,-0.04607408,0.020444138,-0.00020558425,0.001078244,-0.0022165165,-0.007008329,0.50046843,-1.3790457,1.9011215,-2.091025,-1.5708417,2.4755838,-0.07711199,0.04533966,-0.056222692,0.0133350305,1.0089768e-20,-0.07007508,-0.038307227,0.15322891,-9.481039,0.8224646,47.666286,-1.2470818,-2.583226,-3.2650409,-0.18020868,0.010579482,-0.29192382,28.3125,29.75,28.75,32.5625,35.0,36.0625
0.116054446,0.06540604,-1.0348101,-0.59585875,0.005358419,0.051524997,-0.1781148,-0.3920275,-0.3673911,0.059919443,-3.0783784,0.625172,-0.0002927655,-0.04834175,0.02131837,0.0013862515,-0.00080081675,0.0012066816,-0.008221352,0.5002995,-1.3789622,1.9010257,-2.0910017,-1.5708655,2.475487,-0.08066666,0.043486178,-0.05747171,0.012530486,6.5878973e-22,-0.07241645,-0.095768064,0.17238252,-9.385271,0.78217715,47.634937,-1.0872478,-2.5828097,-3.2620447,-0.18734054,0.0051432294,-0.32928878,28.3125,29.75,28.75,32.5625,35.0,36.0625
0.11805454,-0.1572407,-0.6332051,-0.56739134,-0.003103703,0.049579695,-0.17718649,-0.39212468,-0.36736122,0.05993371,-3.0783994,0.62519497,-0.00030445404,-0.048122916,0.020817878,0.0012603772,-0.0005726042,0.00079103047,-0.0090229595,0.5001443,-1.3788779,1.9008826,-2.0909536,-1.5708417,2.4753435,-0.07960496,0.044339646,-0.058301274,0.012982784,4.3014263e-23,-0.07055272,-0.19153613,0.15322891,-9.3661175,0.7978386,47.678825,-1.3848503,-2.4935544,-3.241293,-0.18415573,-0.00971367,-0.36535388,28.3125,29.75,28.75,32.5625,35.0,36.0625
0.12005463,-0.14508662,-0.13125406,-0.41421598,-0.0059435125,0.05485857,-0.18817839,-0.39220715,-0.36731058,0.059920583,-3.078401,0.6251573,-0.00034506147,-0.04998205,0.022233391,0.0011134816,-0.000506832,0.0006627594,-0.01289279,0.49997532,-1.3787934,1.9008096,-2.0909417,-1.5708297,2.4751508,-0.083693996,0.045488533,-0.059338465,0.01301603,2.8085243e-24,-0.07077134,-0.24899697,0.05746084,-9.385271,0.8179876,47.664497,-1.3047466,-2.4705002,-3.2217507,-0.19846353,0.015187515,-0.44695517,28.3125,29.75,28.75,32.5625,35.0,36.0625
0.12205408,-0.2922037,-0.060961712,-0.55991983,0.01231861,0.06835136,-0.17287852,-0.39233425,-0.3672793,0.059946842,-3.0784173,0.6251776,-0.00025071777,-0.0497563,0.021816278,0.00036394375,0.00022366199,-0.00067095575,-0.008555872,0.49981987,-1.3786967,1.9006299,-2.0909173,-1.5708536,2.475006,-0.0827625,0.047581457,-0.06017411,0.013277248,1.8337655e-25,-0.074176125,-0.30645782,-0.076614454,-9.442732,0.8537928,47.672558,-1.236073,-2.5953412,-3.3115556,-0.21593708,-0.008042372,-0.44131538,28.3125,29.75,28.75,32.5625,35.0,36.0625
0.124054074,-0.08649308,0.45874625,-0.4001533,0.0077393693,0.08737544,-0.18981525,-0.39242205,-0.3672151,0.059918817,-3.078409,0.62519246,-0.00031891649,-0.05099307,0.022253765,0.0003748175,1.1813203e-05,-0.00029843548,-0.007071018,0.49961573,-1.3786001,1.9005822,-2.0909297,-1.5708297,2.4748123,-0.0846268,0.04868594,-0.061454404,0.013025942,1.19731775e-26,-0.07752457,-0.40222588,-0.05746084,-9.423578,0.79560274,47.696735,-1.3924484,-2.5601988,-3.2888436,-0.22568583,0.007327743,-0.45622432,28.3125,29.75,28.75,32.5625,35.0,36.0625
0.12605423,-0.82884836,0.14602897,-0.41968077,0.021467997,0.07654853,-0.19053286,-0.39253584,-0.3671874,0.059945762,-3.0784316,0.62519485,-0.00024873446,-0.052088533,0.022750648,0.0016118386,-0.00112322,0.0017832856,-0.00296052,0.49947134,-1.3785167,1.9004139,-2.0908935,-1.5708417,2.4746666,-0.086453766,0.046831038,-0.06210569,0.0131593635,7.81763e-28,-0.08346209,-0.38307226,-0.13407528,-9.3661175,0.7284641,47.640312,-1.3084687,-2.5444777,-3.257004,-0.21672267,-0.008711074,-0.458732,28.3125,29.75,28.75,32.5625,35.0,36.0625
0.12805483,-0.7034934,0.41549477,-0.32420826,0.01951005,0.07809241,-0.18857588,-0.39264345,-0.36714408,0.059918713,-3.0784068,0.6252055,-0.00031995625,-0.052812774,0.022944713,0.0014904417,-0.001008987,0.0015577737,0.001290973,0.49929148,-1.3783481,1.9002703,-2.0908697,-1.5708297,2.4744966,-0.08742988,0.04802841,-0.06331551,0.013424856,5.1043535e-29,-0.08868907,-0.40222588,-0.095768064,-9.423578,0.7777002,47.637623,-1.292234,-2.439592,-3.2288036,-0.21876146,-0.005530648,-0.38932225,28.3125,29.75,28.75,32.5625,35.0,36.0625
0.13005464,-0.4131326,0.54009384,-0.29375896,0.015611621,0.08277877,-0.19548771,-0.3927804,-0.3671061,0.059964664,-3.0784893,0.6252024,-0.00023039868,-0.055319987,0.024680512,0.0012862186,-0.0011127581,0.0017550592,0.0014245984,0.49908593,-1.3782995,1.900103,-2.0908463,-1.5708054,2.4742787,-0.09264051,0.04961938,-0.06462197,0.012919108,3.3327778e-30,-0.094032496,-0.40222588,-0.095768064,-9.346964,0.8247004,47.68599,-1.1773901,-2.4846816,-3.3097224,-0.21599346,0.0048697023,-0.38495225,28.3125,29.75,28.75,32.5625,35.0,36.0625
0.13205409,-1.1391249,0.20584285,-0.37133712,0.026862724,0.06540366,-0.18505874,-0.39283705,-0.36703607,0.059921276,-3.078396,0.6251385,-0.000365121,-0.054657802,0.024024114,0.0010922536,-0.000953006,0.0014285049,0.012316512,0.4989308,-1.3781793,1.9000429,-2.0907738,-1.5708297,2.4740956,-0.09091463,0.050004885,-0.06464237,0.012913742,2.176066e-31,-0.103198476,-0.63206923,-0.22984336,-9.3661175,0.7911258,47.66987,-1.3710423,-2.5103579,-3.3337994,-0.216934,-0.013957838,-0.2846678,28.3125,29.75,28.75,32.5625,35.0,36.0625
0.13405457,-0.45293343,0.34924397,-0.4359876,0.024542931,0.08503328,-0.18937322,-0.3929759,-0.36699945,0.05993923,-3.078468,0.62507576,-0.00031713521,-0.058201533,0.02488175,0.0025545296,-0.0025792054,0.0044065947,0.011460565,0.49872586,-1.378071,1.8998736,-2.0907738,-1.5708054,2.4738424,-0.09559954,0.050725672,-0.06884905,0.013008647,1.4208155e-32,-0.10702565,-0.61291564,-0.15322891,-9.346964,0.8291774,47.692257,-1.4002445,-2.4855373,-3.1411893,-0.23400383,-0.006350355,-0.24920452,28.3125,29.75,28.75,32.5625,35.0,36.0625
0.13605379,-0.96586704,0.22510995,-0.594621,0.030284999,0.079117656,-0.18356001,-0.39306852,-0.36692736,0.05993082,-3.0784194,0.6250623,-0.0003523116,-0.057338502,0.025801277,0.001215809,-0.0008236744,0.0011817003,0.015090393,0.49853414,-1.3779864,1.8997792,-2.0907142,-1.5708297,2.4736485,-0.09633431,0.051723816,-0.06722769,0.01405779,9.27691e-34,-0.11139086,-0.6895301,-0.05746084,-9.346964,0.7150385,47.681515,-1.2684062,-2.49888,-3.2476711,-0.25191873,-0.012314066,-0.18931217,28.3125,29.75,28.75,32.5625,35.0,36.0625
0.13805436,-0.7073681,0.03449282,-0.6947883,0.030245967,0.08342712,-0.18732826,-0.39320058,-0.36688337,0.059940394,-3.0784423,0.6249717,-0.00028714674,-0.059024263,0.027105449,0.000923301,-0.00055217807,0.00068578566,0.013303291,0.49835312,-1.3778659,1.8996118,-2.0907018,-1.5708536,2.4734082,-0.10005796,0.053199712,-0.06836783,0.014284515,6.057159e-35,-0.11332675,-0.5363012,-0.1340753,-9.423578,0.7083204,47.64837,-1.2033838,-2.4236844,-3.346251,-0.26750588,-0.020344995,-0.17293316,28.3125,29.75,28.75,32.5625,35.0,36.0625
0.14005476,-0.38661537,0.6329757,-0.5014838,0.0016616066,0.10081238,-0.19597581,-0.39330944,-0.3668394,0.059944734,-3.0784895,0.624924,-0.00033667168,-0.061566163,0.027226016,0.002050718,-0.0017082229,0.0027954907,0.010468967,0.49814877,-1.3777694,1.8994793,-2.0906656,-1.5708054,2.4731681,-0.102578856,0.054397862,-0.07247137,0.014789775,3.9548917e-36,-0.11301155,-0.51714754,-0.038307227,-9.423578,0.800085,47.666286,-1.06478,-2.5716357,-3.1132402,-0.27529716,-0.020162594,-0.13359189,28.3125,29.75,28.75,32.5625,35.0,36.0625
0.14205395,-1.1384267,-0.35328504,-0.8364529,0.016927946,0.0807916,-0.18016817,-0.39343175,-0.3667637,0.059928913,-3.0784361,0.62503004,-0.0003957278,-0.061904028,0.028401941,0.0020094367,-0.0014716798,0.0023595951,0.0049126814,0.49790865,-1.3776375,1.8993481,-2.0906174,-1.5708054,2.473001,-0.10484249,0.053533874,-0.071433574,0.015112307,2.5822615e-37,-0.1097195,-0.6703764,0.11492168,-9.461885,0.7665104,47.63404,-1.0711513,-2.4464157,-3.1467679,-0.28121245,-0.01073451,-0.13921079,28.3125,29.75,28.75,32.5625,35.0,36.0625
0.14405446,-1.1343389,-0.34741992,-0.78522074,0.0025768583,0.0853775,-0.1744302,-0.39354762,-0.3666973,0.05992685,-3.078398,0.6249478,-0.0003499892,-0.06357032,0.029653227,0.0022296482,-0.0017013369,0.0027809604,-0.0031340267,0.49772754,-1.3775293,1.8992165,-2.0905817,-1.5708655,2.4727736,-0.10845932,0.053826403,-0.07230847,0.015208972,1.6860322e-38,-0.10528925,-0.5363012,0.0,-9.615114,0.82694155,47.693153,-0.9570168,-2.4396672,-3.2988927,-0.2879894,-0.023868896,-0.22091496,28.3125,29.75,28.75,32.5625,35.0,36.0625
0.14605421,-0.6701488,-0.4168326,-0.5670532,-0.011949741,0.09817246,-0.18928336,-0.39368162,-0.36664584,0.059938163,-3.0784554,0.6249631,-0.000357624,-0.06479339,0.029988775,0.0009981706,-0.0006229324,0.0010539568,-0.007820611,0.49748757,-1.3774318,1.8990725,-2.0905697,-1.5708174,2.4725358,-0.110043764,0.058062054,-0.07453923,0.015242317,-0.00012269367,-0.102185324,-0.61291564,-0.038307227,-9.595961,0.8717007,47.660015,-0.9161979,-2.495578,-3.2221546,-0.29598153,-0.022324823,-0.27158898,28.3125,29.75,28.75,32.5625,35.0,36.0625
0.14805444,-1.3917454,-0.9016212,-0.79684657,-0.0024013289,0.07894222,-0.17400004,-0.39382917,-0.36658654,0.059957433,-3.078462,0.6250023,-0.0003019741,-0.065760255,0.030473066,0.0017433197,-0.0011385168,0.0021708314,-0.010101363,0.4972597,-1.377324,1.8988928,-2.090534,-1.5708297,2.4723318,-0.11166635,0.057323635,-0.07546249,0.015675578,-0.00019911346,-0.10152683,-0.7661445,0.05746084,-9.576807,0.8179876,47.668976,-0.86550796,-2.5315914,-3.1644094,-0.31679976,-0.042003088,-0.30096316,28.3125,29.75,28.75,32.5625,35.0,36.0625
0.15005398,-0.54445505,-0.5304197,-0.78566223,-0.003587998,0.10596379,-0.18286152,-0.3939472,-0.36652088,0.05994661,-3.0784206,0.6249933,-0.0003231878,-0.06630258,0.031101793,0.0020438589,-0.0014288743,0.0027631181,-0.010532501,0.49705544,-1.3771921,1.8987502,-2.0904858,-1.5708536,2.4721272,-0.11317701,0.05653945,-0.075189695,0.015525443,-0.00022979427,-0.10260652,-0.7278373,0.13407528,-9.5385,0.800085,47.66808,-0.8310325,-2.356997,-3.25964,-0.32103324,-0.029155523,-0.3249252,28.3125,29.75,28.75,32.5625,35.0,36.0625
0.15205468,-0.7946256,-0.21358661,-0.717083,-0.00029763358,0.09705157,-0.18671598,-0.39407888,-0.36645758,0.059954178,-3.0784214,0.6249921,-0.00032333733,-0.067153014,0.031047564,0.0016746564,-0.001127409,0.0021910055,-0.010691459,0.4968278,-1.3770831,1.8985928,-2.0904377,-1.5708536,2.4718988,-0.11384024,0.058871213,-0.077191375,0.015841907,-0.00022522324,-0.10310967,-0.57460845,0.1340753,-9.442732,0.78888994,47.661808,-0.95544446,-2.4590569,-3.2618117,-0.3205099,-0.047056817,-0.35318685,28.3125,29.75,28.75,32.5625,35.0,36.0625
0.15405475,-0.8472847,-0.24787384,-0.9878731,0.004100004,0.08265531,-0.18816543,-0.39425814,-0.36640427,0.059959263,-3.0784338,0.62507117,-0.00021412458,-0.067934774,0.030786773,0.0020912115,-0.0018504892,0.0035150994,-0.010826432,0.4965882,-1.3769149,1.8983902,-2.0904744,-1.5708774,2.471707,-0.11408211,0.059194073,-0.078385815,0.015202358,-0.00021651875,-0.10321604,-0.4213795,0.11492168,-9.557653,0.8627467,47.672558,-0.98311806,-2.469787,-3.2487535,-0.34102336,-0.037888005,-0.3636703,28.3125,29.75,28.75,32.5625,35.0,36.0625
0.1560544,-0.3994548,-0.6249187,-0.92540574,0.013536383,0.071400315,-0.1695179,-0.39438546,-0.36633936,0.0599571,-3.07843,0.62528074,-0.00029026522,-0.0682469,0.030866692,0.0018383015,-0.0019481635,0.003735969,-0.0105189225,0.4963247,-1.3768066,1.8982586,-2.0904386,-1.5708174,2.4715748,-0.11445705,0.059800006,-0.078332566,0.014308655,-0.00023827396,-0.103898294,-0.3256114,0.05746084,-9.5385,0.7620334,47.651955,-1.0161157,-2.3604617,-3.2492561,-0.3304193,-0.02815744,-0.3876297,28.3125,29.75,28.75,32.5625,35.0,36.0625
0.1580545,-0.09344463,-0.5139212,-0.83596593,0.007831592,0.054794047,-0.17974432,-0.39452466,-0.36625424,0.05995715,-3.0783832,0.6252497,-0.00027076574,-0.07135521,0.031568184,0.0030260792,-0.0034008413,0.006448425,-0.0124093,0.4960836,-1.3766862,1.8981022,-2.0903785,-1.5708655,2.4713204,-0.118441276,0.0606057,-0.08193076,0.014018964,-0.00026254205,-0.10599052,-0.30645782,0.076614454,-9.5385,0.7709874,47.666286,-0.874089,-2.4264796,-3.079152,-0.33447456,-0.03905886,-0.43849638,28.3125,29.75,28.75,32.5625,35.0,36.0625
0.16005468,0.7343217,-0.13839227,-0.65870553,-0.0033059698,0.0573329,-0.18728226,-0.39465335,-0.36620292,0.059956305,-3.0784216,0.62523395,-0.00029332805,-0.070178814,0.03111113,0.0023955717,-0.0023830764,0.005399234,-0.0037342843,0.4958572,-1.3765659,1.8979586,-2.0903666,-1.5708302,2.4710793,-0.11631576,0.06107716,-0.081083275,0.0141114695,-0.0006559325,-0.1125396,-0.1340753,0.038307227,-9.481039,0.85155696,47.65106,-1.129581,-2.3634102,-3.2998497,-0.33713785,-0.037048005,-0.3653967,28.3125,29.75,28.75,32.5625,35.0,36.0625
0.16205418,0.19347869,-0.14308524,-0.82487935,0.005300018,0.03163001,-0.18262607,-0.39483312,-0.3661257,0.059956472,-3.0784132,0.62524915,-0.0001874193,-0.07319003,0.032065015,0.003120516,-0.0032691597,0.0072833938,-0.0013779057,0.49559212,-1.3764092,1.8977779,-2.090391,-1.5708779,2.470825,-0.12056291,0.06251609,-0.08440078,0.013905039,-0.0007751593,-0.1191414,-0.076614454,0.076614454,-9.385271,0.784413,47.64927,-0.84462714,-2.3825002,-3.2048516,-0.32429558,-0.027830273,-0.32161522,28.3125,29.75,28.75,32.5625,35.0,36.0625
0.16405448,0.8327451,-0.14715154,-0.8240443,0.01310424,0.037751798,-0.19081002,-0.3949521,-0.366057,0.05995572,-3.0784051,0.6252617,-0.00025668435,-0.073288895,0.032363784,0.0027914292,-0.0029323595,0.0067254547,0.005407874,0.49535266,-1.3763009,1.8976349,-2.090319,-1.5708541,2.4705944,-0.121102795,0.06305285,-0.084298395,0.01391863,-0.0008110233,-0.12646694,-0.019153614,0.0,-9.385271,0.779936,47.651955,-1.0115935,-2.3589654,-3.0633368,-0.3278063,-0.026546022,-0.26196307,28.3125,29.75,28.75,32.5625,35.0,36.0625
0.16605403,0.30582732,-0.15794718,-0.7671688,0.015288695,0.021999307,-0.18616775,-0.39511707,-0.3659997,0.05997081,-3.0784457,0.6252075,-0.00017455574,-0.07418471,0.032790117,0.0031182435,-0.0027263106,0.0072505977,0.012252767,0.49511254,-1.3761687,1.8974437,-2.0903184,-1.570866,2.4703155,-0.12233353,0.06337511,-0.08556113,0.014493586,-0.001236339,-0.13454139,0.05746084,0.019153614,-9.404425,0.7933669,47.64479,-1.0558214,-2.3854523,-3.1778803,-0.32968113,-0.021256616,-0.15948173,28.3125,29.75,28.75,32.5625,35.0,36.0625
0.16805468,0.56805754,-0.65054816,-0.84794223,0.018562604,0.027389616,-0.17643976,-0.39523467,-0.3659438,0.059972554,-3.0784628,0.6251729,-0.0002147214,-0.075857,0.03410116,0.0030614717,-0.0027428488,0.0069837817,0.009576246,0.49489594,-1.3760604,1.8973001,-2.0902703,-1.5708421,2.4700751,-0.12612514,0.064335585,-0.086661525,0.014862799,-0.0010970371,-0.13565618,0.17238252,0.05746084,-9.461885,0.8090337,47.685097,-1.0344163,-2.2823853,-3.1743078,-0.32812595,-0.0088944305,-0.11333315,28.3125,29.75,28.75,32.5625,35.0,36.0625
0.17005503,0.52932197,-0.66309226,-1.034597,0.017540671,0.012819764,-0.1834433,-0.39540416,-0.36588532,0.059989624,-3.0784903,0.62509865,-0.00013456623,-0.07473316,0.032902785,0.00301917,-0.0025086661,0.0063199494,0.013234349,0.49465737,-1.375916,1.8970846,-2.090246,-1.570866,2.469787,-0.123109594,0.06478815,-0.08731156,0.015751775,-0.0009793558,-0.13629876,0.1340753,0.17238252,-9.385271,0.83589023,47.684196,-1.1030853,-2.3098154,-3.2287025,-0.3087507,-0.027734842,-0.08482855,28.3125,29.75,28.75,32.5625,35.0,36.0625
0.17205425,0.85895944,-0.93927526,-0.96418977,0.0040069027,0.021039762,-0.17871651,-0.39556614,-0.36581048,0.05998656,-3.078515,0.6251046,-0.00014605725,-0.07633291,0.034494482,0.0025955243,-0.0021967106,0.0054405513,0.005069228,0.4943685,-1.3757714,1.8969172,-2.090234,-1.5708421,2.4694986,-0.12729803,0.06607492,-0.08794557,0.016024204,-0.00083311554,-0.13232192,0.05746084,0.095768064,-9.461885,0.85155696,47.639416,-0.9665582,-2.3061266,-3.2281153,-0.32281083,-0.026460992,-0.120094076,28.3125,29.75,28.75,32.5625,35.0,36.0625
0.17405453,0.7542541,-0.8504826,-0.71856713,-0.009894595,0.020407993,-0.17584921,-0.3957152,-0.3657459,0.060011465,-3.078516,0.62506694,-4.1129428e-05,-0.07612253,0.03401749,0.0022909353,-0.002024379,0.004901113,0.0011364684,0.49415353,-1.3756748,1.8967379,-2.0901983,-1.5708903,2.4692602,-0.12633449,0.06717065,-0.088578284,0.016111843,-0.0007217534,-0.12742545,-0.038307227,0.1340753,-9.461885,0.8023209,47.66987,-1.1604192,-2.2976542,-3.2558107,-0.33132192,-0.015482029,-0.1648098,28.3125,29.75,28.75,32.5625,35.0,36.0625
0.1760546,0.66069263,-0.6365548,-0.9361372,-0.016000818,0.025882073,-0.18121946,-0.39587003,-0.36567497,0.06000534,-3.0785184,0.6251106,-8.195246e-05,-0.077324614,0.0344351,0.0024818343,-0.0023814118,0.005379642,-0.005327743,0.4938774,-1.3755186,1.8965582,-2.090162,-1.5708655,2.469011,-0.1281446,0.06796057,-0.08996111,0.016117627,-0.000636489,-0.12277084,0.019153614,0.21068975,-9.32781,0.76874626,47.657326,-1.1105306,-2.2785718,-3.2844334,-0.34703082,-0.021172415,-0.2330933,28.3125,29.75,28.75,32.5625,35.0,36.0625
0.17805418,0.78673327,-0.9297521,-0.752002,-0.0054285913,0.043991085,-0.18008593,-0.39600435,-0.36562374,0.060007796,-3.078526,0.6250769,-0.00011061279,-0.07791884,0.035178173,0.002067244,-0.0018337461,0.0044067004,-0.010305392,0.49366117,-1.375374,1.8963674,-2.0901024,-1.5708536,2.468773,-0.12988788,0.0690086,-0.09038284,0.016609553,-0.00065721263,-0.119536154,0.019153614,0.24899697,-9.346964,0.8291774,47.653748,-1.1181803,-2.312458,-3.3020878,-0.35064727,-0.025725145,-0.31484324,28.3125,29.75,28.75,32.5625,35.0,36.0625
0.18005438,0.44902253,-0.738213,-0.8688059,-0.005351371,0.040924177,-0.18247558,-0.39616302,-0.36552125,0.05999357,-3.0784538,0.62517405,-9.1591195e-05,-0.078795105,0.035451695,0.0019866428,-0.0018485929,0.0043065283,-0.012969337,0.49337354,-1.3752296,1.896223,-2.0900786,-1.5709013,2.4685552,-0.13114117,0.070215344,-0.091679156,0.016774582,-0.00060026586,-0.11812492,-0.019153614,0.17238252,-9.32781,0.82022345,47.685097,-1.0598958,-2.286803,-3.3252409,-0.34170043,-0.023588244,-0.34730184,28.3125,29.75,28.75,32.5625,35.0,36.0625
0.18205445,0.18267898,-0.73358256,-0.7180085,-0.009537316,0.044484366,-0.18063116,-0.3963295,-0.36547053,0.06001009,-3.0785,0.6251866,-6.082044e-05,-0.07959862,0.03599259,0.00213148,-0.0020663722,0.0046140463,-0.015721748,0.49312165,-1.3750851,1.8960084,-2.0900543,-1.5708774,2.4683053,-0.13276806,0.07035822,-0.0921851,0.016766444,-0.0005483404,-0.11699931,-0.1340753,0.1340753,-9.3661175,0.8247004,47.694946,-1.2159239,-2.1459599,-3.3076077,-0.34759152,-0.037039082,-0.423311,28.3125,29.75,28.75,32.5625,35.0,36.0625
0.18405467,-0.09915964,-0.7653896,-0.6225194,-0.0066944645,0.047119994,-0.17345071,-0.3964832,-0.36539853,0.060014945,-3.0785103,0.6252267,-8.6341126e-05,-0.080073796,0.036586788,0.0006865238,-0.000919555,0.0023855416,-0.0173818,0.49284562,-1.3749522,1.8958286,-2.0900066,-1.5708536,2.468053,-0.13418584,0.073510036,-0.09259875,0.016536757,-0.00050441525,-0.11675644,-0.095768064,0.22984336,-9.404425,0.83589023,47.72092,-1.1718129,-2.1863413,-3.3002577,-0.339556,-0.023871852,-0.48196343,28.3125,29.75,28.75,32.5625,35.0,36.0625
0.18605392,0.030628404,-0.8291606,-0.60459733,0.0022377868,0.068019144,-0.18295023,-0.39663264,-0.36533645,0.060019333,-3.0785072,0.6252438,-8.636085e-05,-0.08248986,0.036743682,0.0013171643,-0.0017794804,0.0038917493,-0.017196495,0.49260512,-1.374807,1.8956355,-2.089959,-1.5708536,2.4678237,-0.13662882,0.07548443,-0.09641054,0.016639782,-0.00046699273,-0.11938301,-0.30645782,0.15322891,-9.442732,0.9097417,47.693153,-1.0697742,-2.4128628,-3.2952006,-0.3285055,-0.03359542,-0.48710516,28.3125,29.75,28.75,32.5625,35.0,36.0625
0.1880539,-0.24363609,0.28437182,-0.57677466,-0.01668664,0.0703479,-0.19777767,-0.3967889,-0.36524722,0.060005713,-3.078487,0.62534857,-0.00011478172,-0.08179856,0.038037416,0.0006395296,-0.0009419134,0.00227178,-0.011322913,0.49230537,-1.3746636,1.8954934,-2.089947,-1.5708417,2.467592,-0.13815236,0.07434293,-0.093547404,0.016741905,-0.00043474417,-0.12678152,-0.3256114,0.095768064,-9.346964,0.8605109,47.6636,-1.0368371,-2.1577382,-3.4397016,-0.33559975,-0.008992951,-0.4899546,28.3125,29.75,28.75,32.5625,35.0,36.0625
0.19005428,-0.48093328,-0.34540516,-0.28196672,0.0025256376,0.08528409,-0.18623449,-0.3969805,-0.3651775,0.060022965,-3.0785143,0.62531406,-1.9432338e-05,-0.08483997,0.03841089,0.0012275169,-0.0019890934,0.0041593676,-0.006783748,0.49202862,-1.3745066,1.895265,-2.089935,-1.5708655,2.4672904,-0.14150706,0.07683702,-0.09775569,0.016293352,-0.00040666602,-0.13467339,-0.51714754,0.11492168,-9.32781,0.8403672,47.666286,-0.9199244,-2.256661,-3.3500125,-0.33458737,-0.03361003,-0.42841566,28.3125,29.75,28.75,32.5625,35.0,36.0625
0.19205461,-0.5074875,-0.003901069,-0.21930732,0.012664708,0.1027773,-0.18480313,-0.39712492,-0.36510834,0.06001761,-3.0785103,0.6253042,-9.0226495e-05,-0.08345467,0.038095083,0.0001406095,-0.00087742356,0.0020254883,0.006629288,0.4917662,-1.37435,1.8950747,-2.089863,-1.5708417,2.4670224,-0.13968976,0.07781789,-0.0964997,0.01646399,-0.00038199444,-0.14626953,-0.45968673,0.038307227,-9.270349,0.88289046,47.67345,-1.2684877,-2.415022,-3.5009642,-0.32428634,-0.0334531,-0.31006175,28.3125,29.75,28.75,32.5625,35.0,36.0625
0.19405408,-1.0978732,0.3054182,-0.4515453,0.018549554,0.095095396,-0.17625332,-0.39730045,-0.36503035,0.06000754,-3.0785236,0.6251837,-5.3455544e-05,-0.08483716,0.038195476,0.00061936537,-0.00163205,0.0033807263,0.011875924,0.4914903,-1.3741697,1.8948835,-2.089863,-1.5708655,2.4666698,-0.14107557,0.07849427,-0.098309435,0.016041793,-0.0003601466,-0.15290119,-0.51714754,0.019153614,-9.32781,0.88289046,47.70838,-1.1265501,-2.2206726,-3.3768272,-0.3148893,-0.04151306,-0.2336342,28.3125,29.75,28.75,32.5625,35.0,36.0625
0.19605441,-0.888257,0.2880579,-0.29018065,0.022061659,0.10449037,-0.18406509,-0.39748788,-0.36498073,0.06003939,-3.0786033,0.6251614,-2.846187e-06,-0.086297326,0.038004134,0.00082534115,-0.0019426512,0.00393213,0.014780323,0.49121457,-1.3740247,1.8946308,-2.0898273,-1.5708297,2.46637,-0.14203191,0.08060725,-0.10137091,0.016362533,-0.0003406644,-0.1567605,-0.61291564,-0.11492168,-9.193734,0.75084364,47.67166,-1.2263609,-2.3274908,-3.3334703,-0.30371058,-0.059855558,-0.16994935,28.3125,29.75,28.75,32.5625,35.0,36.0625
0.19805461,-0.22023787,0.39718974,-0.26744738,0.02518597,0.11786155,-0.19385979,-0.397664,-0.36487013,0.060028072,-3.0785615,0.6251526,3.3477088e-06,-0.08686188,0.038432285,0.0007726169,-0.0018982232,0.0038051768,0.014010262,0.4908909,-1.3738683,1.8944625,-2.089791,-1.5708655,2.4660463,-0.14322312,0.081089586,-0.101868466,0.016504923,-0.00032318226,-0.15718144,-0.6895301,-0.13407528,-9.174581,0.84484416,47.668976,-1.175148,-2.2959995,-3.2414608,-0.30795705,-0.045428447,-0.15399161,28.3125,29.75,28.75,32.5625,35.0,36.0625
0.20005405,-0.72997975,0.5225921,-0.31370208,0.018758155,0.09227008,-0.18886383,-0.39782402,-0.3648246,0.06002782,-3.0785766,0.62512285,-1.0548721e-05,-0.08884986,0.039427593,0.0012039259,-0.0025246516,0.0049391068,0.0041572307,0.49066183,-1.3736761,1.8942236,-2.0897434,-1.5708536,2.465797,-0.14665827,0.08161675,-0.10343191,0.016248632,-0.00030740805,-0.1507629,-0.7661445,-0.11492168,-9.308657,0.81351066,47.699425,-1.07234,-2.2923973,-3.2848177,-0.28207302,-0.037517503,-0.21110393,28.3125,29.75,28.75,32.5625,35.0,36.0625
0.20205429,-0.49351144,0.4516762,-0.32713753,0.010032677,0.09480729,-0.18875146,-0.39801416,-0.36472052,0.060026295,-3.0785425,0.6252878,-1.2614603e-05,-0.091232695,0.039571676,0.00086803595,-0.0023844142,0.0046324213,-0.0028407169,0.49031445,-1.3735182,1.8940314,-2.0897076,-1.5708536,2.4655569,-0.14900759,0.085978836,-0.10798568,0.016777525,-0.00029310217,-0.14611189,-0.7469909,-0.15322891,-9.308657,0.8560339,47.698532,-1.2679478,-2.4482229,-3.206955,-0.28849512,-0.048867807,-0.26818347,28.3125,29.75,28.75,32.5625,35.0,36.0625
0.2040546,-0.8334688,0.26037082,-0.27621496,-0.0015037035,0.088596426,-0.18469067,-0.39816368,-0.36463627,0.059992217,-3.0785272,0.62522906,-0.00015294812,-0.09002338,0.04053466,0.00065052893,-0.0019205062,0.0037290032,-0.0051817587,0.49001485,-1.373315,1.8938535,-2.0896475,-1.5708174,2.4652226,-0.14949268,0.083461665,-0.10453524,0.016865157,-0.00028006846,-0.14425774,-0.7661445,-0.095768064,-9.32781,0.81351066,47.684196,-1.1580427,-2.3244739,-3.3202734,-0.27588037,-0.06405095,-0.3030048,28.3125,29.75,28.75,32.5625,35.0,36.0625
0.20605426,-0.94261926,0.33291793,-0.29663613,0.010012802,0.10715258,-0.1811395,-0.39837754,-0.36456135,0.06002039,-3.0785599,0.625293,-3.879867e-05,-0.09255893,0.03961349,0.0018420834,-0.003300617,0.006372606,-0.006227656,0.4897031,-1.3731581,1.8936003,-2.0896356,-1.5708297,2.4649467,-0.15015018,0.08588543,-0.110194355,0.017116839,-0.00030383904,-0.14386678,-0.7278373,-0.076614454,-9.404425,0.78888994,47.677036,-1.150526,-2.3045218,-3.2413254,-0.2654457,-0.07371729,-0.34465462,28.3125,29.75,28.75,32.5625,35.0,36.0625
0.2080548,-0.6017676,0.3137434,-0.37565684,0.022943666,0.11568397,-0.1821779,-0.39854604,-0.36447632,0.06001247,-3.0785391,0.62530506,-4.4353426e-05,-0.092275016,0.04067392,0.0005905837,-0.0020929659,0.0040912307,-0.0081162015,0.48941508,-1.3729895,1.8934096,-2.0895994,-1.5708417,2.464669,-0.15163186,0.08691792,-0.10857442,0.017044026,-0.0002937676,-0.14346042,-0.5746084,0.0,-9.3661175,0.83365434,47.66091,-1.178779,-2.4725988,-3.2818518,-0.26894468,-0.053671755,-0.37102038,28.3125,29.75,28.75,32.5625,35.0,36.0625
0.21005474,-0.22701977,0.72642165,-0.28306666,0.0063920147,0.11152487,-0.1952938,-0.3987407,-0.36439586,0.060006563,-3.0785546,0.62530434,-1.7016891e-05,-0.093187734,0.04041458,0.0009204696,-0.0026076937,0.0048754876,-0.005849075,0.48910385,-1.372797,1.8931941,-2.0895994,-1.5708417,2.4643555,-0.15200846,0.087908946,-0.1105241,0.017067926,-0.00020765499,-0.14610341,-0.51714754,-0.095768064,-9.308657,0.8247004,47.655537,-1.2544487,-2.324118,-3.21774,-0.26659167,-0.05680316,-0.39061317,28.3125,29.75,28.75,32.5625,35.0,36.0625
0.21205409,0.16810922,0.17018874,-0.40411094,0.011240915,0.1003313,-0.1837414,-0.39891618,-0.3642905,0.0600017,-3.0785246,0.62533545,-6.215468e-05,-0.09444409,0.04077658,0.0005505953,-0.0022366527,0.0041200123,-0.0010414366,0.4887682,-1.3726399,1.8930019,-2.0895274,-1.5708417,2.4640431,-0.15370552,0.090432845,-0.112842485,0.01770278,-0.00018867491,-0.15260692,-0.38307226,-0.095768064,-9.289502,0.83589023,47.67793,-1.2121906,-2.470627,-3.1520185,-0.24289282,-0.064282455,-0.35584593,28.3125,29.75,28.75,32.5625,35.0,36.0625
0.21405421,0.5437459,0.08209038,-0.885251,0.012271856,0.077263094,-0.18577239,-0.39911297,-0.36421067,0.059991375,-3.0785258,0.62532896,-6.37673e-05,-0.09538391,0.040946744,0.000770223,-0.0023659428,0.004406511,0.0073594945,0.48845637,-1.3724235,1.8927625,-2.0895035,-1.5708417,2.4637272,-0.1547587,0.09133843,-0.114547275,0.018187277,-0.0002117082,-0.16206028,-0.24899697,-0.038307227,-9.404425,0.84484416,47.678825,-1.2820814,-2.4736292,-3.0891428,-0.2317093,-0.061025154,-0.26615182,28.3125,29.75,28.75,32.5625,35.0,36.0625
0.21605483,0.5327071,-0.25451463,-0.72898555,0.006492316,0.06129738,-0.18459588,-0.3993213,-0.36411688,0.06000245,-3.078515,0.62531716,-9.837022e-07,-0.095827766,0.040939,7.839997e-05,-0.0016836958,0.003240415,0.016840888,0.48813295,-1.3722426,1.8925112,-2.0894558,-1.5708774,2.463398,-0.15504454,0.0937886,-0.1159786,0.018511187,-0.00026578753,-0.17182654,-0.21068975,0.11492168,-9.385271,0.83589023,47.652847,-1.2467687,-2.5247445,-3.0469966,-0.2213285,-0.07133352,-0.15037102,28.3125,29.75,28.75,32.5625,35.0,36.0625
0.21805444,0.28202412,-0.6728503,-0.84833026,-0.007819835,0.056958634,-0.17891738,-0.3995234,-0.36403343,0.060010016,-3.0785475,0.62532276,3.002304e-06,-0.09753138,0.04199664,0.00065114076,-0.00146336,0.004558932,0.018902516,0.48779613,-1.3720624,1.8922714,-2.0894191,-1.5708541,2.4630606,-0.15778548,0.0939051,-0.11751736,0.01887837,-0.0010762688,-0.17662728,-0.15322891,0.1340753,-9.423578,0.8493211,47.705692,-1.2167251,-2.5725417,-3.059476,-0.21012378,-0.049567576,-0.080448344,28.3125,29.75,28.75,32.5625,35.0,36.0625
0.22005409,0.1509169,-1.0041426,-0.9978888,-0.010439055,0.052576587,-0.16917062,-0.39970276,-0.3639463,0.059978638,-3.0785334,0.6251493,-6.127039e-05,-0.099609934,0.04405696,0.0004972844,-0.0010967373,0.0041771964,0.010323802,0.48749542,-1.3718216,1.8920454,-2.0893714,-1.570866,2.4626536,-0.16296548,0.0948109,-0.11837076,0.01933375,-0.0012311916,-0.17322786,-0.19153613,0.21068975,-9.442732,0.83813137,47.651955,-1.1581956,-2.543737,-3.0697668,-0.21646804,-0.052185733,-0.07495789,28.3125,29.75,28.75,32.5625,35.0,36.0625
0.22205445,0.30039832,-1.5066289,-0.92720497,-0.011771266,0.056665704,-0.16393735,-0.39990544,-0.36383522,0.059995316,-3.078509,0.62524295,1.66258e-05,-0.09996414,0.044303212,0.00037805672,-0.00024198138,0.003873002,0.0043705488,0.4871484,-1.3716894,1.8918418,-2.0893352,-1.5709018,2.4623682,-0.16325483,0.09574656,-0.1193954,0.02008846,-0.0018362601,-0.16756257,-0.11492168,0.24899697,-9.423578,0.8314132,47.68599,-1.1098449,-2.580855,-3.1288671,-0.21565595,-0.05323387,-0.10216811,28.3125,29.75,28.75,32.5625,35.0,36.0625
0.22405481,0.46647692,-1.4293228,-1.061555,-0.024500674,0.046330925,-0.17195429,-0.4001231,-0.3637718,0.06000594,-3.0785728,0.62522066,3.7133963e-05,-0.10128006,0.045475643,0.00057061395,-0.00063947315,0.0042763734,-0.0059774253,0.4868241,-1.3714731,1.8915547,-2.0893114,-1.570866,2.462022,-0.16643624,0.09565456,-0.11971379,0.0199624,-0.0016650035,-0.1603963,-0.076614454,0.2873042,-9.557653,0.86945957,47.658226,-1.0163113,-2.4776475,-3.1706655,-0.19933873,-0.045924924,-0.20363788,28.3125,29.75,28.75,32.5625,35.0,36.0625
0.22605467,0.5738113,-1.5492198,-1.0163001,-0.023571948,0.037585616,-0.17285624,-0.40035203,-0.363659,0.060017176,-3.078556,0.6253772,6.465595e-05,-0.10176506,0.045776796,0.00025185978,-0.00073010294,0.0037684022,-0.0135469455,0.4864288,-1.3712926,1.8913034,-2.0892637,-1.570866,2.4617267,-0.16749574,0.0966651,-0.120176196,0.019820241,-0.0013430067,-0.1538865,-0.019153614,0.40222588,-9.461885,0.8179876,47.6636,-1.0901406,-2.51878,-3.0703168,-0.18204308,-0.05506327,-0.28139818,28.3125,29.75,28.75,32.5625,35.0,36.0625
0.22805408,0.5910254,-0.95650303,-0.8260362,-0.027066419,0.038667627,-0.17341937,-0.40053356,-0.36358517,0.060010232,-3.0785406,0.6254112,4.7235128e-05,-0.102185786,0.044583652,0.0008547355,-0.001586123,0.004872001,-0.014789496,0.48614177,-1.3710879,1.8910645,-2.0892155,-1.570866,2.461463,-0.165944,0.09762793,-0.122769065,0.020073881,-0.0011077248,-0.15109146,-0.11492168,0.26815057,-9.385271,0.8672237,47.666286,-1.129124,-2.4778013,-3.2142043,-0.16488816,-0.05935846,-0.35398948,28.3125,29.75,28.75,32.5625,35.0,36.0625
0.2300542,1.0066023,-0.48176223,-1.0141844,-0.011329804,0.049798187,-0.17567618,-0.4007566,-0.3634802,0.060004253,-3.0785306,0.6255069,3.4237306e-05,-0.102231085,0.045754455,0.0009436969,-0.001628525,0.0046096095,-0.020708837,0.48575792,-1.3708724,1.8908132,-2.0891793,-1.5708541,2.4611402,-0.16797653,0.09602903,-0.12112408,0.0202415,-0.0009415569,-0.14720586,-0.019153614,0.22984336,-9.442732,0.81351066,47.672558,-1.110258,-2.3659353,-3.1955645,-0.16184758,-0.04845959,-0.44296762,28.3125,29.75,28.75,32.5625,35.0,36.0625
0.23205446,0.78270596,-0.609415,-0.90829897,0.0070622484,0.051055133,-0.1799472,-0.4009372,-0.3634034,0.05999913,-3.0785239,0.6254435,5.5366778e-05,-0.10304208,0.046605796,-0.0011059908,-4.348908e-05,0.0013390098,-0.02059986,0.4854817,-1.3706784,1.8905858,-2.089144,-1.5708779,2.4608254,-0.17014997,0.10074931,-0.12207512,0.020100111,-0.00081879995,-0.14948738,0.076614454,0.095768064,-9.442732,0.9254084,47.679718,-1.084821,-2.5747972,-3.279539,-0.13827176,-0.06997057,-0.5018,28.3125,29.75,28.75,32.5625,35.0,36.0625
0.23405488,1.132539,-0.07725109,-0.5788471,0.007094983,0.05705353,-0.18985693,-0.40115663,-0.36329198,0.059978798,-3.0784872,0.6255868,3.980692e-05,-0.1040453,0.04743975,0.0005789489,-0.0014643522,0.0039352407,-0.013338259,0.48509786,-1.3704516,1.8903588,-2.0891316,-1.5708779,2.4605358,-0.17239587,0.09746195,-0.12208472,0.020435998,-0.0007740284,-0.15899554,0.19153613,0.019153614,-9.423578,0.82694155,47.694054,-1.0513963,-2.3646843,-3.3165402,-0.15170003,-0.051977552,-0.4774516,28.3125,29.75,28.75,32.5625,35.0,36.0625
0.23605384,1.1247721,0.13344692,-0.8751157,0.012580765,0.037445445,-0.1818736,-0.40135148,-0.36319414,0.059969902,-3.0784621,0.6255324,2.9972201e-05,-0.10442858,0.04867218,-0.0015911089,0.0004933451,0.00013440785,-0.0031235537,0.48477373,-1.3702459,1.8901204,-2.0890715,-1.5709018,2.460181,-0.17476727,0.10145699,-0.12196892,0.02059402,-0.00073887233,-0.17158115,0.19153613,0.05746084,-9.500193,0.84708,47.67793,-0.9343091,-2.5248547,-3.4616585,-0.14500822,-0.05774454,-0.34936255,28.3125,29.75,28.75,32.5625,35.0,36.0625
0.23805425,1.4956135,0.82471186,-0.5587949,0.00034160796,0.039108958,-0.19334207,-0.40158463,-0.3631225,0.060008068,-3.078528,0.625524,0.00011991736,-0.106069036,0.049299173,-0.00013297047,-0.0008661002,0.0025997036,0.0053682816,0.48443767,-1.3700665,1.889809,-2.0890238,-1.5708898,2.4598315,-0.17723852,0.099885866,-0.12348801,0.02086936,-0.0006726751,-0.18254413,0.0,-0.038307227,-9.423578,0.8537928,47.672558,-0.9204279,-2.3376386,-3.3469422,-0.10163288,-0.059926018,-0.25489235,28.3125,29.75,28.75,32.5625,35.0,36.0625
0.24005409,1.0353776,0.5034738,-0.5883878,0.012680622,0.040406305,-0.17959486,-0.40178967,-0.36302933,0.06001084,-3.0785604,0.62548494,0.00013398664,-0.10615312,0.049424123,-0.00032017083,-0.000440192,0.0016780681,0.010635012,0.48409027,-1.369886,1.889582,-2.0889995,-1.5708774,2.4594557,-0.17748223,0.100727566,-0.12430751,0.021862233,-0.0006153154,-0.18805434,-0.05746084,-0.11492168,-9.481039,0.89631605,47.655537,-0.926046,-2.3938076,-3.542314,-0.09101099,-0.057888053,-0.17216644,28.3125,29.75,28.75,32.5625,35.0,36.0625
0.24205449,0.39853695,0.79377717,-0.67159134,0.016673667,0.03958642,-0.18525298,-0.40198946,-0.36291426,0.059971888,-3.0785153,0.6255145,5.9248498e-05,-0.10690954,0.049817905,-0.00019230245,-0.00023854224,0.0011658025,0.007281007,0.4837184,-1.3696452,1.889378,-2.0889752,-1.5708774,2.459108,-0.17877439,0.10162347,-0.12599243,0.023198599,-0.00056683895,-0.1859919,0.05746084,-0.1340753,-9.423578,0.7911258,47.67166,-0.89500797,-2.3393946,-3.4697075,-0.08740251,-0.06943325,-0.16457388,28.3125,29.75,28.75,32.5625,35.0,36.0625
0.24405481,0.46682525,0.7459612,-0.4652781,0.032327514,0.05915206,-0.18185656,-0.40221405,-0.36281925,0.059990715,-3.0785334,0.62550217,8.748677e-05,-0.108570576,0.0503986,0.0010865828,-0.0010631492,0.0026540763,-0.0013010146,0.48335847,-1.3694533,1.88909,-2.0889027,-1.5708774,2.4587383,-0.18116972,0.101031706,-0.12853488,0.024632577,-0.0005254376,-0.17980456,-0.19153614,0.05746084,-9.423578,0.90750587,47.70838,-0.9650456,-2.3538046,-3.4280572,-0.10196713,-0.05660045,-0.20427585,28.3125,29.75,28.75,32.5625,35.0,36.0625
0.24605483,-0.6984904,0.57474095,-0.7826942,0.02706774,0.056568842,-0.17649388,-0.4024015,-0.3627328,0.059977807,-3.078544,0.6255038,1.8126295e-05,-0.10755695,0.049884293,-0.0009396284,0.0009782636,-0.001321722,-0.0036208783,0.483024,-1.3692477,1.888863,-2.088854,-1.5708417,2.4584036,-0.17935365,0.10526255,-0.12920345,0.025546173,-0.0004896783,-0.17566787,-0.3256114,-0.095768064,-9.481039,0.8806493,47.670765,-1.1279123,-2.327576,-3.388208,-0.08523669,-0.074284285,-0.2997645,28.3125,29.75,28.75,32.5625,35.0,36.0625
0.24805433,-0.31242248,-0.14145352,-0.8275253,0.0244076,0.086521454,-0.18288043,-0.4026062,-0.3626317,0.059983615,-3.0785384,0.6255029,-2.2987775e-05,-0.10877105,0.049817827,0.0011033127,-0.0005992143,0.0016069675,-0.0063962615,0.48266447,-1.3690562,1.8885998,-2.0887587,-1.5708297,2.4580443,-0.18025899,0.10302269,-0.13145652,0.026714962,-0.00045847794,-0.17379749,-0.24899697,-0.05746084,-9.442732,0.8403672,47.65643,-1.187242,-2.2365239,-3.374197,-0.09012812,-0.06737606,-0.32980114,28.3125,29.75,28.75,32.5625,35.0,36.0625
0.25005478,-0.7313902,-0.49156198,-0.96673656,0.004294641,0.084011495,-0.17344071,-0.40282226,-0.36253518,0.059969038,-3.0785213,0.62549645,-2.9865449e-05,-0.10852057,0.05036995,-0.00089268666,0.0013546805,-0.0023869863,-0.00694203,0.48231733,-1.3688148,1.8883365,-2.088722,-1.5708417,2.4576955,-0.18096127,0.10686467,-0.1317252,0.027583756,-0.00033752742,-0.1739536,-0.49799395,0.0,-9.5385,0.8627467,47.70032,-1.3303161,-2.32647,-3.4446917,-0.09711605,-0.089943595,-0.3675272,28.3125,29.75,28.75,32.5625,35.0,36.0625
0.2520541,-0.5697985,-0.8845979,-0.7542367,-0.011325781,0.095938556,-0.18113716,-0.4030571,-0.362424,0.05998415,-3.078499,0.62560725,-3.0478855e-05,-0.10964356,0.050444234,0.00042922812,0.00016441334,-0.00022921622,-0.0036630097,0.4819217,-1.3686111,1.8880376,-2.0886266,-1.5708417,2.457372,-0.18202169,0.10565798,-0.13340369,0.028004577,-0.000287235,-0.17829275,-0.5363012,0.095768064,-9.595961,0.8314132,47.678825,-1.3117905,-2.3767297,-3.378265,-0.10714996,-0.08312334,-0.3780011,28.3125,29.75,28.75,32.5625,35.0,36.0625
0.25405446,-1.3039027,-1.0832524,-1.0357009,-0.016006922,0.08018682,-0.17806733,-0.40325925,-0.36231968,0.059984624,-3.0784986,0.6255603,-2.0535808e-05,-0.110436454,0.05071811,0.00023192092,0.00046501477,-0.0007671609,0.002428007,0.48157415,-1.3684301,1.8878096,-2.0885785,-1.5708536,2.4569952,-0.18309572,0.10724838,-0.13501449,0.028638037,-0.00030771428,-0.18545699,-0.47884035,0.11492168,-9.595961,0.82694155,47.657326,-1.2421024,-2.3672953,-3.3897939,-0.10067727,-0.0814499,-0.3276706,28.3125,29.75,28.75,32.5625,35.0,36.0625
0.25605488,-0.6773306,-0.9912021,-0.9479074,-0.027333643,0.097985916,-0.18563844,-0.40350252,-0.36221823,0.05999574,-3.078508,0.62549675,3.054695e-05,-0.11115213,0.050578833,0.00042855262,0.00020554743,-0.00022876484,0.012962564,0.48120254,-1.3682019,1.8874983,-2.0885184,-1.5708774,2.456583,-0.18338901,0.108151354,-0.13657318,0.028690465,-0.0003273411,-0.19628413,-0.53630114,0.19153613,-9.653421,0.947788,47.679718,-1.3420801,-2.3133008,-3.3800464,-0.10204041,-0.07528043,-0.21693039,28.3125,29.75,28.75,32.5625,35.0,36.0625
0.2580546,-1.0749649,-1.0584419,-0.6557182,-0.037275147,0.103260666,-0.17797849,-0.4037589,-0.36211166,0.060026716,-3.0785255,0.625496,0.00015233309,-0.113378964,0.049726125,0.0017989295,-0.0015153082,0.0031655752,0.019954016,0.48081857,-1.368009,1.8871869,-2.0884707,-1.5709137,2.4561965,-0.1837975,0.10932985,-0.14097883,0.02810394,-0.00036891244,-0.20368217,-0.63206923,0.22984336,-9.576807,0.84484416,47.728977,-1.3738744,-2.2716773,-3.180347,-0.08015968,-0.10237087,-0.09474945,28.3125,29.75,28.75,32.5625,35.0,36.0625
0.2600549,-0.40667647,-0.6978512,-0.5546595,-0.031087441,0.116902895,-0.1922731,-0.40394473,-0.36202964,0.060009517,-3.078537,0.62542343,5.4839227e-05,-0.11367481,0.051003326,0.00024003496,-1.2607533e-05,0.0007402238,0.017540054,0.48049375,-1.3677802,1.8869365,-2.0883992,-1.5708774,2.455825,-0.18599898,0.11159854,-0.14010414,0.027814126,-0.0005882577,-0.20346934,-0.61291564,0.24899697,-9.500193,0.8851263,47.682407,-1.4268173,-2.3512933,-3.274789,-0.07980062,-0.09227564,-0.065461054,28.3125,29.75,28.75,32.5625,35.0,36.0625
0.26205412,0.20508496,-0.558413,-0.7242814,-0.020770822,0.11008113,-0.19025666,-0.40420976,-0.36192298,0.06001788,-3.0785704,0.62545365,0.00010003768,-0.11559956,0.05147597,0.0010748781,-0.0007035363,0.0025884707,0.009680702,0.480073,-1.3675395,1.8866247,-2.0883749,-1.570866,2.455419,-0.18824042,0.1120823,-0.14262056,0.027892325,-0.0008243686,-0.19785014,-0.36391866,0.2681506,-9.500193,0.8112748,47.66987,-1.2866616,-2.3410716,-3.1326933,-0.072032355,-0.07530621,-0.11748645,28.3125,29.75,28.75,32.5625,35.0,36.0625
0.264054,-0.051340193,-0.9462934,-0.5812894,-0.015797546,0.06971544,-0.18126358,-0.404458,-0.36181536,0.060037307,-3.0785763,0.6254805,0.00018091606,-0.117762305,0.052463304,0.0015488359,-0.0013523329,0.003914835,-0.002626475,0.47968775,-1.3673352,1.8863257,-2.0883272,-1.5708903,2.45505,-0.19169043,0.11287878,-0.14460221,0.027598051,-0.0008557619,-0.18899211,-0.4213795,0.2873042,-9.423578,0.8157518,47.655537,-1.2211702,-2.356265,-3.1379452,-0.05600545,-0.09407477,-0.21654886,28.3125,29.75,28.75,32.5625,35.0,36.0625
0.26605442,0.06859441,-0.9144499,-0.50759095,-0.014015446,0.050228354,-0.18164693,-0.40468404,-0.3617125,0.06002625,-3.0785897,0.6254496,0.00019285324,-0.119158976,0.05341352,0.00088129676,-0.0008285321,0.003407435,-0.011908178,0.4793152,-1.3671061,1.8860744,-2.0883152,-1.5708903,2.4546566,-0.19428533,0.11514148,-0.14570844,0.02713518,-0.0010867614,-0.18230423,-0.53630114,0.17238252,-9.289502,0.8537928,47.679718,-1.3523054,-2.3498335,-3.128078,-0.06003502,-0.11267625,-0.31152487,28.3125,29.75,28.75,32.5625,35.0,36.0625
0.2680552,-0.065519005,-0.5041938,-0.5117556,0.0031777376,0.037241787,-0.17440492,-0.40493363,-0.36164245,0.060071755,-3.0786679,0.62550557,0.00027162913,-0.11935568,0.053298824,0.0005793662,-3.3969813e-05,0.002241142,-0.01692824,0.47895512,-1.3669134,1.8857273,-2.0882552,-1.5708541,2.4543216,-0.19406645,0.11694482,-0.14751619,0.028548464,-0.001237295,-0.17706437,-0.36391866,0.095768064,-9.289502,0.8090337,47.694946,-1.2227933,-2.4406967,-2.984878,-0.032957733,-0.08194722,-0.41969663,28.3125,29.75,28.75,32.5625,35.0,36.0625
0.27005422,0.38061792,-0.2324795,-0.29361978,0.014193283,0.052906413,-0.19014437,-0.40518624,-0.36151862,0.06005054,-3.078598,0.62558824,0.00025981522,-0.12043164,0.05386602,-0.00011112013,0.00085755566,0.00041842335,-0.019007865,0.4785466,-1.3666241,1.8854159,-2.0881946,-1.5708903,2.4539738,-0.19588946,0.12000274,-0.14995113,0.029947149,-0.001197407,-0.17680654,-0.19153613,0.15322891,-9.251195,0.8224646,47.65912,-1.2191063,-2.428639,-3.2032514,-0.04047487,-0.0670837,-0.4671316,28.3125,29.75,28.75,32.5625,35.0,36.0625
0.27205473,0.41694537,0.27375814,-0.21596242,0.004599996,0.06863558,-0.19599782,-0.40541285,-0.36139008,0.060035232,-3.0785644,0.62559414,0.00022558469,-0.12047598,0.055230133,0.0005027741,0.00077122,0.00048247236,-0.011349458,0.47813797,-1.3663969,1.8851656,-2.0881345,-1.5709018,2.4535732,-0.19815668,0.1173575,-0.14844367,0.0309841,-0.0011505996,-0.18673332,-0.21068975,0.076614454,-9.232041,0.86498255,47.637623,-1.2076428,-2.4780421,-3.2583337,-0.051268525,-0.0786674,-0.46155939,28.3125,29.75,28.75,32.5625,35.0,36.0625
0.27405456,0.20664354,0.017007222,0.0860359,0.011445447,0.07282117,-0.20256108,-0.40566757,-0.3612917,0.060060408,-3.0785947,0.6256305,0.0002676041,-0.12099773,0.056003135,-0.0015742407,0.0025335338,-0.0031224876,0.0013040857,0.4777416,-1.3661788,1.8848313,-2.0880625,-1.5708903,2.4531958,-0.19987167,0.12202866,-0.14940123,0.03128129,-0.0010500108,-0.20110102,-0.21068975,-0.076614454,-9.270349,0.8873621,47.64389,-1.1500826,-2.5627809,-3.2827258,-0.04704314,-0.11057243,-0.33604574,28.3125,29.75,28.75,32.5625,35.0,36.0625
0.27605483,0.13775052,0.7350565,0.05050516,0.004487676,0.07965365,-0.20696165,-0.40593114,-0.36119962,0.06007886,-3.0786526,0.6256003,0.0002743784,-0.12124901,0.05699886,-0.0005645155,0.002211795,-0.0028044053,0.008629567,0.477333,-1.3659276,1.8844727,-2.0879905,-1.5708541,2.4527612,-0.20174477,0.119583316,-0.14921282,0.033113256,-0.0008990607,-0.21030049,-0.1340753,-0.15322891,-9.193734,0.8918391,47.64121,-1.0985984,-2.369016,-3.274081,-0.05846954,-0.09876609,-0.21089283,28.3125,29.75,28.75,32.5625,35.0,36.0625
0.27805442,-0.1645586,0.7828528,0.07039213,0.017811557,0.062010344,-0.20064367,-0.40616488,-0.36107564,0.06006786,-3.0786686,0.6255635,0.00026003644,-0.12203494,0.05793717,-0.0010301264,0.0029791414,-0.0046110954,0.010000787,0.47691205,-1.3657109,1.8842329,-2.0879657,-1.5708421,2.4523153,-0.20400344,0.12128926,-0.15058886,0.03474205,-0.0007520517,-0.21392997,-0.21068975,-0.22984336,-9.232041,0.8672237,47.666286,-1.0227952,-2.4392388,-3.2807207,-0.055750214,-0.085070826,-0.13653487,28.3125,29.75,28.75,32.5625,35.0,36.0625
0.28005478,0.047882907,0.7002873,0.09614627,0.040898744,0.0423336,-0.18980224,-0.40641075,-0.36097193,0.060061857,-3.0786417,0.62554324,0.000319528,-0.122267246,0.058576927,-0.0011499523,0.0034920804,-0.0055771857,0.004015677,0.47655174,-1.3654463,1.883922,-2.0879295,-1.5708903,2.451946,-0.20517404,0.12161503,-0.15100135,0.03591297,-0.0007632377,-0.2091154,-0.3256114,-0.40222588,-9.11712,0.84708,47.65643,-1.0148731,-2.3491244,-3.3568282,-0.07917426,-0.10140298,-0.18540207,28.3125,29.75,28.75,32.5625,35.0,36.0625
0.2820546,0.46073118,1.220074,0.3133206,0.048814327,0.03654447,-0.19236945,-0.40667465,-0.36084536,0.06006611,-3.078636,0.62560266,0.00033074277,-0.122821316,0.05819685,-0.000120492434,0.0031393578,-0.0049128286,-0.0030743922,0.47610778,-1.3652061,1.8836111,-2.0878685,-1.5708903,2.45154,-0.20490772,0.1215265,-0.153727,0.037976034,-0.00075731846,-0.20175822,-0.4405331,-0.30645782,-9.040505,0.8537928,47.72808,-1.1315001,-2.364417,-3.2807672,-0.1135547,-0.10375939,-0.24306707,28.3125,29.75,28.75,32.5625,35.0,36.0625
0.28405413,0.19716834,0.9357597,0.25938287,0.07654347,0.033158123,-0.18923558,-0.40692532,-0.36073512,0.06006369,-3.078646,0.6256442,0.0003039286,-0.12236828,0.05833877,-0.0013332489,0.0045581833,-0.0076938677,-0.006837177,0.4756882,-1.364953,1.8833002,-2.0878088,-1.570866,2.4511452,-0.20464891,0.12396441,-0.15417688,0.03911534,-0.0007467599,-0.19773623,-0.36391866,-0.21068975,-9.002198,0.91421866,47.711964,-1.3537462,-2.5322685,-3.3328938,-0.115510866,-0.10238136,-0.31884855,28.3125,29.75,28.75,32.5625,35.0,36.0625
0.28605416,1.0978868,1.1491908,0.29331276,0.082979746,0.06003762,-0.19060495,-0.40718433,-0.36060002,0.060081422,-3.0786147,0.62565637,0.00033757827,-0.12357174,0.05724477,-0.00014312599,0.0031250578,-0.004999015,-0.0064040986,0.4752566,-1.3647369,1.8829769,-2.0877006,-1.5709018,2.4507253,-0.20376447,0.124477424,-0.1574491,0.038815346,-0.0007174909,-0.19728364,-0.21068975,-0.2681506,-9.002198,0.8314132,47.696735,-1.5568334,-2.2561233,-3.3389335,-0.12260507,-0.111086495,-0.3854568,28.3125,29.75,28.75,32.5625,35.0,36.0625
0.28805465,0.8179102,1.3755754,0.25762567,0.060600527,0.052540887,-0.2091985,-0.4073897,-0.36048383,0.060051296,-3.0785792,0.6256288,0.00016777246,-0.122784585,0.058885127,-0.00020019243,0.0043181917,-0.00740344,-0.005596088,0.47485977,-1.3644735,1.8827027,-2.0875804,-1.570866,2.450316,-0.20576315,0.12247899,-0.1556004,0.041655455,-0.0006924576,-0.20009156,-0.095768064,-0.2681506,-9.11712,0.84708,47.68062,-1.4829953,-2.2410827,-3.3622594,-0.13460763,-0.11177182,-0.40080506,28.3125,29.75,28.75,32.5625,35.0,36.0625
0.2900547,0.61791164,0.2863471,-0.10383987,0.0396875,0.046209563,-0.20008951,-0.4076387,-0.3603726,0.06004689,-3.078559,0.62563884,0.000161656,-0.12412596,0.059946757,-0.0005356048,0.0053416393,-0.009300438,0.0022929031,0.4744629,-1.3642081,1.8823785,-2.0875075,-1.5708779,2.449928,-0.20858155,0.124918684,-0.15834598,0.044112537,-0.0007424992,-0.2107977,-0.076614454,-0.17238252,-9.136273,0.84708,47.688675,-1.3565977,-2.2135434,-3.3320355,-0.18767735,-0.118012175,-0.32200938,28.3125,29.75,28.75,32.5625,35.0,36.0625
0.29205433,0.39551333,-0.35021466,-0.2898083,0.016292822,0.038833085,-0.19742113,-0.4078681,-0.36022985,0.060035937,-3.0785105,0.62560195,8.43122e-05,-0.1257134,0.059967503,0.00041773941,0.005361966,-0.007739741,0.014333617,0.47403046,-1.3639795,1.8821024,-2.0873873,-1.5708903,2.4494789,-0.20943274,0.12581994,-0.1619044,0.04538835,-0.0014985068,-0.22368707,-0.076614454,0.0,-9.251195,0.84484416,47.67793,-1.3527925,-2.1959372,-3.2007475,-0.2210924,-0.10788351,-0.20944607,28.3125,29.75,28.75,32.5625,35.0,36.0625
0.29405493,-0.099920444,-0.6581793,-0.7237564,-0.006637955,0.028356433,-0.19734633,-0.4081329,-0.36009786,0.060026176,-3.0784907,0.6255015,3.541839e-05,-0.12782244,0.06050519,0.0017104277,0.0053957184,-0.005228711,0.017123612,0.47358522,-1.3636912,1.8817548,-2.087279,-1.5709022,2.4489737,-0.21131803,0.12601818,-0.16534054,0.046407484,-0.0026945143,-0.22835924,-0.05746084,0.076614454,-9.32781,0.87393653,47.709274,-1.1732966,-2.228057,-3.218886,-0.2605864,-0.08990516,-0.10384618,28.3125,29.75,28.75,32.5625,35.0,36.0625
0.29605448,0.68196017,-0.98029804,-0.8205865,-0.017109703,0.052864153,-0.1985614,-0.4083703,-0.3599716,0.06001591,-3.078431,0.62545455,-6.942922e-06,-0.12734614,0.06270703,-0.00048516016,0.008554506,-0.0093301255,0.009154295,0.473189,-1.3634264,1.8814338,-2.0871594,-1.570939,2.448556,-0.21392463,0.12790035,-0.16278657,0.04705701,-0.0036463784,-0.22299555,-0.15322891,0.13407528,-9.481039,0.8291774,47.694946,-1.2085712,-2.1644204,-3.3012257,-0.30014607,-0.07318608,-0.108624816,28.3125,29.75,28.75,32.5625,35.0,36.0625
0.29805464,-0.10628446,-1.5290686,-1.0735264,-0.025119124,0.045508232,-0.17966074,-0.40862817,-0.35985443,0.06001563,-3.0784335,0.6254045,-2.3316856e-05,-0.12908114,0.06395791,-0.00014677903,0.008289084,-0.008432973,-0.003710305,0.47276786,-1.3631619,1.8810986,-2.087076,-1.570939,2.4481034,-0.21730775,0.12817058,-0.16389035,0.046972256,-0.0038274762,-0.21351333,-0.30645782,0.2681506,-9.557653,0.91198283,47.678825,-1.1509442,-2.1410503,-3.2776022,-0.32414448,-0.0696575,-0.2121234,28.3125,29.75,28.75,32.5625,35.0,36.0625
0.3000541,-0.11409051,-1.5343697,-1.3409547,-0.043964423,0.060190775,-0.19279213,-0.4088819,-0.35970408,0.060032655,-3.0784006,0.6255372,-6.5697066e-05,-0.13069862,0.06424503,-0.00034131715,0.007789812,-0.007691886,-0.014083991,0.4722874,-1.3629692,1.8807992,-2.0869448,-1.570927,2.44771,-0.21913302,0.13029897,-0.1657632,0.045831844,-0.0037356794,-0.20496392,-0.38307226,0.3256114,-9.710882,0.8784135,47.67166,-1.052886,-2.2034411,-3.3328888,-0.3558008,-0.057973053,-0.32438922,28.3125,29.75,28.75,32.5625,35.0,36.0625
0.30205446,0.15286608,-1.9997371,-1.2212008,-0.04364062,0.08026119,-0.20415896,-0.4091173,-0.35958257,0.060001653,-3.0783525,0.6255136,-0.00017070609,-0.13230723,0.0651424,0.00036972796,0.006429591,-0.0060487646,-0.024120016,0.47187862,-1.362669,1.8804883,-2.0868495,-1.5709265,2.4472928,-0.22219773,0.12964043,-0.16646002,0.045103844,-0.0032938041,-0.19799295,-0.28730422,0.38307226,-9.825804,0.91198283,47.678825,-0.95702636,-2.0917935,-3.3004346,-0.35570306,-0.067065485,-0.43841296,28.3125,29.75,28.75,32.5625,35.0,36.0625
0.3040547,-0.38297227,-1.9733194,-1.4336011,-0.05639173,0.085536666,-0.18925796,-0.4094093,-0.35945046,0.060020477,-3.0783067,0.6256203,-9.789293e-05,-0.13305263,0.06567119,-0.0010702667,0.0072452603,-0.008233353,-0.026164772,0.47143307,-1.3624034,1.8801054,-2.0867536,-1.5709747,2.44692,-0.22376281,0.13329768,-0.16754623,0.044837937,-0.003030652,-0.19751288,-0.28730422,0.40222588,-9.864111,0.8806493,47.70838,-0.8226575,-2.434084,-3.3484292,-0.3970868,-0.05573509,-0.5161336,28.3125,29.75,28.75,32.5625,35.0,36.0625
0.3060545,-0.50687265,-1.8665043,-1.3462869,-0.05812121,0.10218462,-0.1981064,-0.40967456,-0.3593077,0.060021684,-3.0782843,0.62572366,-0.00019319741,-0.13442525,0.0653408,-0.0012719681,0.005920851,-0.006518758,-0.015138042,0.4709413,-1.3621508,1.8797702,-2.086623,-1.5709385,2.4464955,-0.2244945,0.13517104,-0.16872817,0.042019792,-0.002656059,-0.20927098,-0.34476504,0.30645782,-9.940725,0.9231726,47.70838,-0.93173015,-2.1724517,-3.4100237,-0.40621513,-0.056312136,-0.47718692,28.3125,29.75,28.75,32.5625,35.0,36.0625
0.30805486,-0.5284983,-1.3648448,-1.0644306,-0.064029686,0.12937406,-0.20895764,-0.40993562,-0.35921317,0.06001646,-3.0783472,0.6256676,-0.00018682606,-0.1348885,0.064058095,-0.0012400838,0.004135202,-0.0036300817,0.0018751045,0.47053453,-1.3618742,1.8794478,-2.086612,-1.5709022,2.4460459,-0.22277379,0.13590783,-0.1688058,0.03797956,-0.0023842745,-0.22456366,-0.4213795,0.2681506,-9.902418,0.85826975,47.734352,-1.1048,-2.286611,-3.3782172,-0.38091764,-0.039066978,-0.32190645,28.3125,29.75,28.75,32.5625,35.0,36.0625
0.31005418,-1.3795712,-1.2544488,-1.0008721,-0.04409853,0.121498354,-0.19890083,-0.4102426,-0.35907087,0.06003071,-3.0783162,0.62569237,-8.8892404e-05,-0.13501848,0.06351023,-0.0024487341,0.0043052346,-0.0048251557,0.013157623,0.47006682,-1.3615966,1.8790663,-2.086541,-1.5709618,2.445598,-0.22206043,0.13913666,-0.16969524,0.03676466,-0.0019969959,-0.23513272,-0.45968673,0.21068975,-9.864111,0.8493211,47.70032,-1.3003106,-2.4716616,-3.4912243,-0.3520671,-0.05090771,-0.18947306,28.3125,29.75,28.75,32.5625,35.0,36.0625
0.31205484,-0.7716061,-0.51685375,-0.9810979,-0.02978494,0.11782554,-0.19431789,-0.41048542,-0.3589558,0.06001354,-3.0783536,0.62554616,-0.00019561654,-0.13708642,0.063016914,-0.002235996,0.0028195784,-0.0024853847,0.011999037,0.46963465,-1.3613195,1.878754,-2.0864575,-1.5709141,2.4450698,-0.22303736,0.14154305,-0.17259112,0.03450509,-0.0017567433,-0.2349499,-0.36391866,0.17238252,-9.749189,0.83589023,47.687782,-1.3869805,-2.50188,-3.3381996,-0.3352487,-0.057109747,-0.15085363,28.3125,29.75,28.75,32.5625,35.0,36.0625
0.3140543,0.52845615,0.1829227,-0.98191106,-0.014145861,0.10777119,-0.21093859,-0.41077676,-0.35883477,0.060019433,-3.0783505,0.6255318,-0.000118940334,-0.13865186,0.06324325,-0.0014707686,0.0014592088,-0.00015664686,0.0025227526,0.46920216,-1.3610313,1.878384,-2.0864103,-1.5709499,2.444629,-0.22472468,0.14145258,-0.17398177,0.033286214,-0.001593614,-0.2271608,-0.24899697,0.076614454,-9.710882,0.8493211,47.658226,-1.4624572,-2.5204494,-3.4886875,-0.30644578,-0.058144443,-0.23085439,28.3125,29.75,28.75,32.5625,35.0,36.0625
0.31605434,0.115681686,0.07859751,-0.89615244,0.00023277375,0.0488204,-0.20133457,-0.4110638,-0.3587362,0.060036335,-3.0784173,0.6255097,-3.0250461e-05,-0.13858241,0.06313349,-0.0024951587,0.0015842728,-0.0007013837,-0.0039431076,0.46878225,-1.3607664,1.8780249,-2.0863984,-1.570938,2.444187,-0.22443275,0.14317037,-0.17334329,0.03147556,-0.0014423733,-0.22040331,-0.2681506,0.019153614,-9.768343,0.8784135,47.677036,-1.530402,-2.6408324,-3.5027494,-0.29691738,-0.07264347,-0.31543,28.3125,29.75,28.75,32.5625,35.0,36.0625
0.3180578,0.02080639,-0.16383076,-0.65245575,-0.006021805,0.031401996,-0.19888811,-0.41136563,-0.35860443,0.06003864,-3.0784357,0.62553596,1.3759739e-05,-0.13990316,0.06387019,-0.0033051884,0.001586867,-0.00055977196,-0.009155992,0.4683014,-1.3604786,1.8776664,-2.086364,-1.570938,2.4437203,-0.2266195,0.14538325,-0.17376697,0.029561624,-0.0015062231,-0.21737659,-0.21068975,0.019153614,-9.691729,0.90750587,47.683304,-1.4327221,-2.3447807,-3.5961576,-0.2619277,-0.056681734,-0.3907959,28.3125,29.75,28.75,32.5625,35.0,36.0625
0.3200555,0.97757024,-0.18046135,-0.5377859,0.007848708,0.053191073,-0.19898276,-0.41161907,-0.35846207,0.06002225,-3.078414,0.625491,-4.6507237e-05,-0.1416298,0.06440692,-0.0025203773,0.00082531496,0.0022753307,-0.007707793,0.4678447,-1.3602148,1.8773679,-2.0862806,-1.5709385,2.4432385,-0.22849776,0.14512616,-0.17495164,0.028130574,-0.0021228106,-0.22070156,-0.30645782,-0.13407528,-9.385271,0.91198283,47.699425,-1.4184916,-2.4328473,-3.5202842,-0.22293246,-0.061896972,-0.39643818,28.3125,29.75,28.75,32.5625,35.0,36.0625
0.32205576,0.5074014,0.5936935,-0.3825446,0.01392027,0.046866044,-0.20573686,-0.41194475,-0.3583451,0.060044713,-3.0784464,0.6255482,6.604292e-05,-0.14393601,0.0648169,-0.0017857789,1.969855e-05,0.003720526,0.00038293307,0.4673759,-1.3599144,1.8769478,-2.0862439,-1.5709499,2.4428015,-0.23104781,0.14667653,-0.17862633,0.028596042,-0.0020437716,-0.23134118,-0.076614454,-0.21068975,-9.346964,0.9365982,47.677036,-1.3988582,-2.5128045,-3.3604145,-0.20649631,-0.044321317,-0.2904656,28.3125,29.75,28.75,32.5625,35.0,36.0625
0.32405484,-0.12702574,0.08076447,-0.20159799,0.029365078,0.05672739,-0.18923476,-0.41224068,-0.35821956,0.060053382,-3.0784783,0.62549376,0.00013512251,-0.14649966,0.06555273,-0.00031811662,-0.0011816848,0.005904102,0.008521442,0.46691877,-1.3596385,1.8765882,-2.0862076,-1.5709618,2.4423065,-0.23438573,0.14680341,-0.18240887,0.029754814,-0.0019477565,-0.24281663,-0.15322891,-0.17238252,-9.2703495,0.8985519,47.66271,-1.2424966,-2.5217104,-3.3313894,-0.19399947,-0.060937837,-0.16746932,28.3125,29.75,28.75,32.5625,35.0,36.0625
0.32605958,-0.2646657,0.20096113,-0.31824988,0.04489537,0.06232022,-0.18385029,-0.41249734,-0.35809416,0.06003288,-3.0784874,0.6254371,6.839048e-05,-0.1486341,0.066287495,0.0009651717,-0.002575933,0.008053929,0.008193913,0.4664738,-1.359351,1.8762759,-2.086148,-1.570938,2.4418252,-0.2374724,0.14637186,-0.18493651,0.030170497,-0.0016800415,-0.2455754,-0.2681506,-0.15322891,-9.193734,0.9634547,47.6421,-1.1529591,-2.3383315,-3.2622032,-0.1760689,-0.058802385,-0.10578957,28.3125,29.75,28.75,32.5625,35.0,36.0625
0.3280578,0.053670317,0.5729268,-0.38193077,0.04606042,0.069429606,-0.18597518,-0.41284326,-0.35795358,0.060076654,-3.0785253,0.6254888,0.00022174802,-0.15036447,0.0674469,0.001321373,-0.0032071532,0.008633469,-0.0017379081,0.46595663,-1.3590871,1.8758458,-2.086088,-1.5709618,2.4413357,-0.24092215,0.14681748,-0.18634981,0.030330682,-0.0013488695,-0.23909351,-0.28730422,-0.1340753,-9.212888,0.8717007,47.65464,-1.0248717,-2.3691893,-3.2725372,-0.15348144,-0.061920576,-0.14137691,28.3125,29.75,28.75,32.5625,35.0,36.0625
0.33008993,-0.17850387,-0.24761142,-0.3372959,0.048125777,0.05876503,-0.18681675,-0.41313118,-0.35783428,0.06008705,-3.0785515,0.6255762,0.0002153669,-0.15078159,0.067748174,0.0015938078,-0.003427412,0.008564291,-0.012532593,0.46548858,-1.3588114,1.8754743,-2.086016,-1.5709261,2.440919,-0.24177396,0.14684717,-0.1872252,0.03114849,-0.0011114117,-0.22915083,-0.40222588,-0.095768064,-9.32781,0.92093146,47.64479,-1.1140556,-2.2562704,-3.2559638,-0.13189739,-0.063446105,-0.25920302,28.3125,29.75,28.75,32.5625,35.0,36.0625
0.33208442,-0.7290178,-0.5393405,-0.20529453,0.013193585,0.06148194,-0.18679848,-0.4134226,-0.3576881,0.060072146,-3.0785093,0.6256099,0.00020515276,-0.15035434,0.06773494,0.0001317433,-0.0017722785,0.0048916377,-0.021190919,0.465009,-1.3584982,1.8751153,-2.0859435,-1.5709499,2.440466,-0.2413396,0.15037854,-0.18862441,0.033036795,-0.00094421546,-0.2200575,-0.63206923,0.0,-9.32781,0.93436235,47.642998,-1.1924419,-2.334993,-3.2708926,-0.14071149,-0.069674194,-0.38181695,28.3125,29.75,28.75,32.5625,35.0,36.0625
0.3340821,-0.2935668,-0.76594234,-0.44337022,-0.0055418657,0.099935085,-0.19572435,-0.41370714,-0.35756534,0.060071133,-3.078501,0.62562853,0.00016432609,-0.15076327,0.066829674,0.002262067,-0.0031394083,0.007583139,-0.024068331,0.46455315,-1.3581877,1.8747195,-2.0858352,-1.570938,2.440023,-0.2400169,0.14819884,-0.19129376,0.03487032,-0.0009320489,-0.21585698,-0.59376204,-0.05746084,-9.270349,0.9231726,47.687782,-1.2892796,-2.1471589,-3.3403475,-0.14351496,-0.06978568,-0.5085427,28.3125,29.75,28.75,32.5625,35.0,36.0625
0.33608907,-0.85795563,-0.8223946,-0.7841469,0.00020300521,0.09198474,-0.19750829,-0.41400927,-0.3574239,0.06006048,-3.0784833,0.6256584,0.00020043598,-0.15032636,0.0675174,0.0019206956,-0.0025375236,0.0059317807,-0.017237496,0.46407312,-1.357876,1.8743604,-2.085799,-1.5709618,2.439564,-0.24077444,0.1480195,-0.19062956,0.03612388,-0.0007204747,-0.22344613,-0.40222588,0.019153614,-9.385271,0.8918391,47.67793,-1.3155663,-2.1176093,-3.411468,-0.13133058,-0.086940184,-0.51268005,28.3125,29.75,28.75,32.5625,35.0,36.0625
0.3380915,-0.95715946,-0.5802335,-0.48758215,-0.013960612,0.09512807,-0.2014572,-0.41432303,-0.35729253,0.060072046,-3.078528,0.6256981,0.00018049146,-0.1509109,0.067736946,0.0018157695,-0.0022601539,0.0054753483,-0.0033813396,0.46355677,-1.3575757,1.8739537,-2.0857146,-1.5709141,2.439067,-0.2414468,0.14929788,-0.19214594,0.036902476,-0.0007575852,-0.237974,-0.28730422,0.019153614,-9.519346,0.89631605,47.66271,-1.3644094,-2.1098018,-3.28928,-0.13410793,-0.056170877,-0.3860895,28.3125,29.75,28.75,32.5625,35.0,36.0625
0.34008336,-0.28049397,-0.6124253,-0.63472784,-0.015451142,0.107712545,-0.1996615,-0.41461185,-0.35716537,0.06007982,-3.0785258,0.625651,0.00021700493,-0.15089904,0.067388,0.0016324039,-0.0021201072,0.0052416874,0.00846608,0.46311265,-1.3572875,1.8735703,-2.0856307,-1.570938,2.4385939,-0.24068776,0.1503186,-0.19302493,0.0370246,-0.0007745213,-0.249062,-0.45968673,0.095768064,-9.481039,0.90750587,47.678825,-1.3542829,-2.0675144,-3.3291903,-0.12372936,-0.082553804,-0.24970254,28.3125,29.75,28.75,32.5625,35.0,36.0625
0.34205502,-0.13271567,-0.17934534,-0.79085994,-0.0010447797,0.08712239,-0.1990466,-0.41493484,-0.357008,0.060099296,-3.0785272,0.62561464,0.00029584716,-0.15202145,0.0683465,0.0014663532,-0.0016792209,0.0052226256,0.0077061276,0.4625967,-1.3570116,1.873175,-2.0855472,-1.5709742,2.4380553,-0.24285088,0.15139031,-0.1939998,0.037133534,-0.0011505056,-0.25046426,-0.2873042,0.0,-9.461885,0.83589023,47.684196,-1.427539,-2.064092,-3.230852,-0.12153328,-0.07507458,-0.20155573,28.3125,29.75,28.75,32.5625,35.0,36.0625
0.3440538,0.45103008,-0.21177176,-0.88366973,0.012128888,0.07406658,-0.19592534,-0.41524214,-0.35689503,0.060116004,-3.0785742,0.6256496,0.00036885747,-0.15324496,0.06966726,-0.00054995564,0.00017098477,0.0018259062,-0.002145418,0.4621394,-1.3567219,1.8727802,-2.0855114,-1.5709618,2.437614,-0.24586762,0.15639481,-0.1955963,0.03759572,-0.0012756456,-0.24362813,-0.15322891,-0.019153614,-9.404425,0.9321212,47.686886,-1.4760036,-2.255878,-3.3003564,-0.09267522,-0.07258705,-0.28307024,28.3125,29.75,28.75,32.5625,35.0,36.0625
0.3460541,0.16555195,0.08404477,-1.1562444,0.007269668,0.022651253,-0.18849884,-0.41554898,-0.35674325,0.060099855,-3.078535,0.62562585,0.00037339205,-0.15407653,0.07016275,-0.0005397447,0.0001794463,0.0022118457,-0.010216582,0.46164712,-1.3563863,1.8723963,-2.085439,-1.5709981,2.437112,-0.24712485,0.15707193,-0.19644323,0.037417006,-0.0014632465,-0.2368136,-0.15322891,-0.019153614,-9.423578,0.85826975,47.67166,-1.2971187,-2.1185794,-3.4140532,-0.076678246,-0.071308285,-0.36930618,28.3125,29.75,28.75,32.5625,35.0,36.0625
0.3480543,0.5674825,-0.065851554,-1.1798725,0.0081069525,0.0062198,-0.19823712,-0.41585207,-0.35659543,0.060071178,-3.078533,0.62572414,0.00025354308,-0.15582025,0.07132118,-0.00044490234,0.00016901646,0.0023051866,-0.014612363,0.4611062,-1.3560382,1.8720258,-2.0853674,-1.570938,2.4366329,-0.25034463,0.15835467,-0.19838822,0.038005173,-0.0015090725,-0.23563673,-0.05746084,0.019153614,-9.385271,0.8940802,47.666286,-1.183351,-2.2720838,-3.4100492,-0.07091417,-0.07592078,-0.41742116,28.3125,29.75,28.75,32.5625,35.0,36.0625
0.35005426,0.57436633,-0.14915532,-0.89201236,0.006831383,0.0047559454,-0.20043269,-0.4161495,-0.35644794,0.060078233,-3.0784783,0.6257294,0.00026909867,-0.1578862,0.072729915,-0.0005799171,0.00036760673,0.001965343,-0.010282944,0.46063703,-1.3557376,1.8716177,-2.0852354,-1.5709862,2.4361742,-0.25427225,0.16036099,-0.20069703,0.038686782,-0.0015439186,-0.24389268,-0.038307227,0.05746084,-9.481039,0.89631605,47.672558,-1.138892,-2.2810588,-3.3662624,-0.05736973,-0.063141,-0.3952943,28.3125,29.75,28.75,32.5625,35.0,36.0625
0.35205424,0.48258877,-0.26890355,-0.84765273,0.00306743,0.030060709,-0.19808494,-0.41650245,-0.35629314,0.060086843,-3.0785055,0.62582266,0.0003281761,-0.15774122,0.07324496,-0.0015359344,0.0015636769,-0.00068382366,0.0026016464,0.46007264,-1.3554133,1.871199,-2.0851986,-1.5709742,2.4356647,-0.25489613,0.16239,-0.20137237,0.040236864,-0.0014210239,-0.25740105,-0.11492168,0.11492168,-9.461885,0.92093146,47.66271,-1.1371899,-2.3796656,-3.4541032,-0.043217868,-0.084438175,-0.28509688,28.3125,29.75,28.75,32.5625,35.0,36.0625
0.35405445,-0.026447957,-0.12289922,-0.7535201,-0.0031687135,0.05763796,-0.19132857,-0.4168097,-0.35616007,0.060106333,-3.0785413,0.62582654,0.00030594983,-0.15770915,0.07376949,-0.002429005,0.0025423197,-0.0028663715,0.01016583,0.45956865,-1.3551248,1.8707799,-2.085079,-1.570938,2.4351587,-0.2556373,0.16420726,-0.2018101,0.041254558,-0.0013256557,-0.26570624,-0.15322891,0.095768064,-9.423578,0.8918391,47.67345,-1.1723973,-2.416729,-3.413357,-0.047725007,-0.05946956,-0.14732395,28.3125,29.75,28.75,32.5625,35.0,36.0625
0.3560543,0.12820469,-0.026837718,-0.56248283,-0.014877249,0.09045852,-0.194528,-0.41711995,-0.35598555,0.060083628,-3.0784812,0.62574023,0.00030463364,-0.15952967,0.07482002,-0.0018821768,0.0018694751,-0.0021064845,0.0053490023,0.4590515,-1.354789,1.8704075,-2.084995,-1.5709981,2.4345956,-0.25891283,0.16467452,-0.20377958,0.041760556,-0.0010768414,-0.26416463,-0.26815057,0.15322891,-9.461885,0.93436235,47.681515,-1.1467292,-2.3827744,-3.3307967,-0.042309083,-0.06628423,-0.13734028,28.3125,29.75,28.75,32.5625,35.0,36.0625
0.35805428,-0.57517993,-0.7944972,-0.5828003,-0.012654209,0.08685092,-0.1889215,-0.417451,-0.35585216,0.060097553,-3.0785003,0.6258455,0.000322028,-0.15992315,0.07478266,-0.003053114,0.002726226,-0.0042379154,-0.0039922646,0.4585353,-1.3544642,1.869965,-2.0849106,-1.5709742,2.4341428,-0.259102,0.16828722,-0.20565812,0.042324368,-0.00089791213,-0.2550117,-0.38307226,0.076614454,-9.308657,0.8403672,47.681515,-1.0991224,-2.3490014,-3.3807635,-0.045659296,-0.058554456,-0.20227301,28.3125,29.75,28.75,32.5625,35.0,36.0625
0.36005422,-0.76336694,-0.757825,-0.66509646,-0.010480955,0.063575014,-0.17590053,-0.41775885,-0.35571066,0.06008905,-3.0785096,0.6258536,0.00031030388,-0.15993707,0.07399125,-0.0010644044,0.0011073999,-0.0011161284,-0.013663458,0.45803225,-1.3541416,1.8695816,-2.0848505,-1.5709618,2.4336438,-0.25764585,0.1651865,-0.20659639,0.042852648,-0.0008305053,-0.24388477,-0.45968673,0.05746084,-9.308656,0.9030289,47.677036,-1.2510715,-2.1615562,-3.42095,-0.038969334,-0.06627023,-0.3604401,28.3125,29.75,28.75,32.5625,35.0,36.0625
0.36205438,-0.41892493,-0.87362915,-0.65840334,-0.006808917,0.066448025,-0.16938762,-0.41808578,-0.3555593,0.060095437,-3.0785196,0.6258776,0.00033842563,-0.16054294,0.07339527,-0.00019242414,0.0006251363,-0.00024558217,-0.019364271,0.45750457,-1.3538297,1.8691744,-2.0847785,-1.5709618,2.43313,-0.25699377,0.16561735,-0.20946804,0.04430045,-0.0007811163,-0.23753108,-0.59376204,0.19153613,-9.289502,0.8605109,47.684196,-1.302216,-2.2168784,-3.4190674,-0.05021341,-0.08101335,-0.4576858,28.3125,29.75,28.75,32.5625,35.0,36.0625
0.36405343,-0.38539135,-0.2694606,-0.7101871,0.002991236,0.072569214,-0.18352224,-0.4184171,-0.35538977,0.060094785,-3.078452,0.62599254,0.00034176485,-0.16074094,0.07306177,-0.00020930314,0.0007559358,-0.00055222725,-0.01324719,0.4569651,-1.3534935,1.8687428,-2.0846584,-1.5709981,2.432671,-0.25641942,0.1668351,-0.2111221,0.04505957,-0.0007707215,-0.2430732,-0.4405331,-0.019153614,-9.289502,0.9545008,47.650166,-1.4168762,-2.2205338,-3.609137,-0.03459572,-0.06678933,-0.49551132,28.3125,29.75,28.75,32.5625,35.0,36.0625
0.36605427,-0.10315467,-0.122025356,-0.6436325,0.019576734,0.0760724,-0.19763005,-0.41872558,-0.35525993,0.06008197,-3.0784795,0.62601054,0.0002784509,-0.16219462,0.0733944,0.00037242466,0.00062324764,-0.00041747224,0.0008602348,0.4564604,-1.3531454,1.8683351,-2.084586,-1.5709499,2.4321742,-0.25804293,0.16816857,-0.21453696,0.04696993,-0.0007164794,-0.258803,-0.21068975,0.038307227,-9.270349,0.9410752,47.652847,-1.4797523,-2.22185,-3.4180098,-0.051743004,-0.07051816,-0.36608112,28.3125,29.75,28.75,32.5625,35.0,36.0625
0.36805418,0.045205314,-0.073828265,-0.48929763,0.014796908,0.09179254,-0.20569852,-0.41904128,-0.35510144,0.060069617,-3.0784485,0.62601954,0.00021708879,-0.16384485,0.074715294,0.0009789048,0.00042332584,-0.00018453009,0.009463671,0.45593086,-1.3527975,1.867916,-2.0844662,-1.5709494,2.4316545,-0.26149356,0.1683372,-0.21650963,0.04847433,-0.00065291545,-0.27085662,-0.40222588,0.038307227,-9.251195,0.9410752,47.658226,-1.4065585,-2.1509423,-3.3181896,-0.06147718,-0.064784646,-0.21099448,28.3125,29.75,28.75,32.5625,35.0,36.0625
0.37005353,-0.62566227,-0.103833534,-0.4729023,0.02508109,0.080724806,-0.1737233,-0.4193813,-0.3549552,0.060081366,-3.078473,0.6259686,0.00024345896,-0.16473272,0.07590547,0.00036954682,0.0014205868,-0.0025726813,0.0068794857,0.4554024,-1.3524603,1.8674601,-2.0843694,-1.5709494,2.4310913,-0.26413596,0.17052968,-0.21832687,0.050681915,-0.0004912556,-0.27091432,-0.45968673,0.038307227,-9.2703495,0.91198283,47.65464,-1.24609,-2.3608537,-3.2846193,-0.071579166,-0.075689495,-0.18798581,28.3125,29.75,28.75,32.5625,35.0,36.0625
0.3720533,0.1674415,0.51879525,-1.0858169,0.033075582,0.071619764,-0.17774233,-0.4197115,-0.3547783,0.060083494,-3.0784395,0.6260443,0.00023634314,-0.1646984,0.076406926,-0.00064061716,0.002797549,-0.00544105,-0.0024813416,0.45483813,-1.3521484,1.8670539,-2.0842607,-1.5709614,2.4305787,-0.26477283,0.17301707,-0.21951576,0.05256365,-0.00047213671,-0.26218978,-0.34476504,0.0,-9.3661175,0.98807013,47.65464,-1.3621781,-2.1799111,-3.2926707,-0.09605588,-0.09688738,-0.26496673,28.3125,29.75,28.75,32.5625,35.0,36.0625
0.3740542,0.2713568,0.10224302,-0.78893524,0.009680958,0.060306244,-0.18156202,-0.42006028,-0.35463706,0.060085967,-3.0784292,0.62598896,0.0002844679,-0.16524278,0.07695621,-5.7518188e-05,0.002777594,-0.0053225593,-0.009932071,0.45433366,-1.351765,1.8665632,-2.0841649,-1.5709976,2.4300413,-0.26592752,0.17258257,-0.22071417,0.05407362,-0.00050565996,-0.25589356,-0.38307226,0.095768064,-9.308657,0.8851263,47.64837,-1.3870068,-2.204104,-3.3967395,-0.11752151,-0.07847033,-0.36071074,28.3125,29.75,28.75,32.5625,35.0,36.0625
