Tylouw/Master_Thesis_Code/training_data/batch_1/small_rod_t0.3/sample_90_session_3.csv
timestamp[s],tcp_force_x[N],tcp_force_y[N],tcp_force_z[N],tcp_force_rx[Nm?],tcp_force_ry[Nm?],tcp_force_rz[Nm?],tcp_pose_x[m],tcp_pose_y[m],tcp_pose_z[m],tcp_pose_rx[rot_vec_x],tcp_pose_ry[rot_vec_y],tcp_pose_rz[rot_vec_z],tcp_velo_x[m/s],tcp_velo_y[m/s],tcp_velo_z[m/s],tcp_velo_rx[rot_vec_x/s],tcp_velo_ry[rot_vec_y/s],tcp_velo_rz[rot_vec_z/s],q1[rad],q2[rad],q3[rad],q4[rad],q5[rad],q6[rad],qd1[rad/s],qd2[rad/s],qd3[rad/s],qd4[rad/s],qd5[rad/s],qd6[rad/s],tool_acc_x,tool_acc_y,tool_acc_z,current_of_whole_robot[A],voltage_of_whole_robot[V],current_J1[A],current_J2[A],current_J3[A],current_J4[A],current_J5[A],current_J6[A],temp_J1[C],temp_J2[C],temp_J3[C],temp_J4[C],temp_J5[C],temp_J6[C]
8.2998304e-07,-0.17335965,-0.25824535,0.9442706,-0.0083131455,0.003687736,-0.010282298,-0.38104093,-0.34851602,0.059950918,-3.0785093,0.6248757,-0.00022826988,5.579556e-05,-1.2811404e-05,-0.00077679567,0.00043368147,-0.0011994735,0.00010255858,0.47778618,-1.4259454,1.9577731,-2.1008456,-1.5707458,2.4527402,-3.420834e-05,0.0016313109,-4.961314e-07,-0.00036687462,0.00016553298,-0.00013672742,0.0,0.15322891,-8.887277,0.7777002,47.74062,0.031904925,-2.838969,-2.3838058,-0.44296905,0.075698316,0.03776288,28.625,29.75,29.0,33.0,35.375,36.5
0.002052575,-0.070915766,0.2818583,0.8629587,-0.010766186,0.003758804,-0.013640833,-0.38104853,-0.34853122,0.059955895,-3.0785303,0.62489915,-0.00021010298,-0.001013733,-0.0005689358,-0.002315402,-0.0016539854,0.0028076929,0.00010120789,0.4777981,-1.4259326,1.9577507,-2.1008608,-1.5707334,2.452764,-3.357032e-05,0.0036231126,0.003530646,-0.0104081845,0.00016129464,-0.00013417928,0.05746084,0.17238252,-8.868123,0.7463667,47.713753,0.037180834,-2.8536274,-2.4353235,-0.38663214,0.068852976,0.056298282,28.625,29.75,29.0,33.0,35.375,36.5
0.004052381,0.23564978,0.31392995,0.8490799,-0.009142241,0.009581987,-0.0149038015,-0.38105354,-0.3485095,0.059952736,-3.0784905,0.62491,-0.00016161537,-0.0018401629,-0.0009981575,-0.0019168046,-0.0029909438,0.0053848545,9.993863e-05,0.47778618,-1.4259447,1.9577745,-2.1008732,-1.5707816,2.452764,-3.29557e-05,0.0034590736,0.0034006208,-0.013017428,0.00015726803,-0.00013172436,0.038307227,0.19153613,-8.772355,0.7351769,47.728977,0.07635401,-3.1370568,-2.703615,-0.3130972,0.08064619,0.040531434,28.625,29.75,29.0,33.0,35.375,36.5
0.006052309,-0.09176873,0.5056954,0.7367275,-0.00072320004,-0.013146171,-0.006872826,-0.38101602,-0.3485321,0.059926298,-3.078524,0.6248213,-0.00028188122,-0.0010034438,-0.00056109804,-0.0013545549,-0.0016789412,0.0028793907,9.753208e-05,0.47782207,-1.4259212,1.9578103,-2.1008828,-1.5707215,2.4527402,-3.2363212e-05,0.002314198,0.0022557266,-0.007899464,0.00015343775,-0.00012935772,0.11492168,0.17238252,-8.772355,0.7486078,47.696735,0.10082916,-3.0297127,-2.597226,-0.3079818,0.07658946,0.03295563,28.625,29.75,29.0,33.0,35.375,36.5
0.008052181,0.3100377,0.70159507,0.17497,0.035430808,-0.032213677,-0.0014902307,-0.38105,-0.34854546,0.059952233,-3.0785444,0.62486356,-0.00019715795,-0.0008701254,-0.0004900976,0.0001346369,-0.0015985223,0.0027442707,9.560833e-05,0.47782207,-1.4259099,1.9577378,-2.1008813,-1.5707334,2.452764,-3.1791616e-05,0.0001563203,0.00035181447,-0.0036806888,0.00014978935,-0.00012707457,-0.095768064,0.24899697,-9.002198,0.7217513,47.684196,0.070107974,-2.9163504,-2.5318842,-0.36008078,0.060253818,0.032877885,28.625,29.75,29.0,33.0,35.375,36.5
0.010052602,0.6609041,1.2401959,-0.25547838,0.023773985,-0.021830413,-0.011722241,-0.38101953,-0.348512,0.059906077,-3.078438,0.62482274,-0.000295195,-0.00048152922,-0.00028094143,0.00016689295,-0.0009153991,0.0014408994,8.358706e-05,0.47782207,-1.4258741,1.9577969,-2.100857,-1.5707816,2.452752,-4.152031e-05,2.0972363e-06,4.72004e-06,-0.0017078365,0.00014631022,-0.0001250387,0.019153614,0.15322891,-9.212888,0.6948948,47.677036,-0.38680738,-2.4541788,-2.910452,-0.4047519,0.06845875,-0.044384733,28.625,29.75,29.0,33.0,35.375,36.5
0.01205183,-0.25003096,0.13124259,-0.37624416,-0.0009954763,-0.018339086,-0.006480513,-0.3810414,-0.34852076,0.059929106,-3.0785,0.6248915,-0.0002712114,2.1913605e-05,6.5770706e-05,-0.0019554554,0.0012774958,-0.0027855013,0.0025744282,0.47778612,-1.425897,1.9577731,-2.100869,-1.5707334,2.4527512,-0.0001922289,0.0041358443,6.332536e-08,-0.0010758229,0.00014298956,-0.002766041,0.1340753,0.095768064,-9.32781,0.7642693,47.717335,-0.6559197,-2.4376752,-3.0665913,-0.43439344,0.08460455,-0.12504402,28.625,29.75,29.0,33.0,35.375,36.5
0.014052228,-0.22541924,-0.41320613,-0.42245212,-0.04391806,0.015122086,-0.01756477,-0.38104048,-0.3485048,0.05989478,-3.078423,0.62485623,-0.00034092533,-0.003368049,0.004573846,-0.006081365,0.005294466,-0.010569329,0.0016386785,0.4777821,-1.4258215,1.9577602,-2.100845,-1.5707697,2.452735,-0.011354933,0.013321545,-0.0012196224,-0.0002844841,0.00014963603,-0.012991102,0.019153614,0.1340753,-9.442732,0.73069996,47.698532,-0.31567526,-3.069604,-3.243999,-0.4242367,0.0940897,-0.07869026,28.625,29.75,29.0,33.0,35.375,36.5
0.016052213,-1.0653769,-0.84673625,-0.3832233,-0.05698977,0.023910196,-0.029374953,-0.38105685,-0.3484884,0.05990171,-3.078427,0.62483394,-0.00031195185,-0.0060303975,0.004230515,-0.0033967867,0.002567123,-0.0053120977,0.008357495,0.4777455,-1.4258342,1.9577588,-2.100845,-1.5707816,2.452684,-0.013203847,0.0113931745,-0.0051401407,-0.0003598579,0.00014215057,-0.021557128,-0.17238252,0.15322891,-9.5385,0.7463667,47.688675,-0.16994503,-2.951986,-3.0753138,-0.44666755,0.10596469,-0.012289939,28.625,29.75,29.0,33.0,35.375,36.5
0.01805217,-1.2781345,-1.033576,-0.66278017,-0.046079453,0.047150742,-0.050169565,-0.3810376,-0.34847385,0.059858873,-3.0783942,0.624749,-0.000468541,-0.0061086086,0.003986377,-0.0025355618,0.0017091089,-0.0037491927,0.013289906,0.47772163,-1.4257749,1.9577836,-2.1008208,-1.5707573,2.4526112,-0.012866607,0.00974331,-0.0052148458,-0.00041803424,0.0001804307,-0.026152605,-0.34476507,0.19153613,-9.576807,0.7933669,47.703903,-0.5083859,-2.6617732,-3.2055655,-0.46151632,0.123638295,-0.0023724006,28.625,29.75,29.0,33.0,35.375,36.5
0.02005245,-1.1839653,-0.16929825,-0.6012431,-0.026611269,0.062798224,-0.08540117,-0.38105989,-0.34848058,0.059865903,-3.0784354,0.6247582,-0.00044841942,-0.006154022,0.004154195,-0.003458762,0.000102404,-0.006661901,0.011334466,0.47769687,-1.4257624,1.9577588,-2.100845,-1.5707325,2.452587,-0.015005818,0.011300334,-0.004864913,-0.0004864407,0.0029477312,-0.026341666,-0.45968673,0.17238252,-9.691729,0.73069996,47.707485,-0.5840002,-2.5982618,-3.3909984,-0.4609971,0.09703562,0.032724187,28.625,29.75,29.0,33.0,35.375,36.5
0.022051789,-1.170472,0.08566796,-0.6585181,0.0013062299,0.06654089,-0.09814424,-0.3810539,-0.34847948,0.05985445,-3.078424,0.62483644,-0.00050327054,-0.0071422644,0.003824618,-0.0033981584,-0.0029226558,-0.007733915,0.0058650393,0.47768402,-1.4257499,1.9577707,-2.100845,-1.5707072,2.4526243,-0.017400479,0.012517919,-0.0063508553,-0.00066729053,0.006124222,-0.023272246,-0.47884035,0.15322891,-9.672575,0.7329411,47.679718,-0.5773442,-2.6638193,-3.4177594,-0.4788078,0.06008573,-0.008567029,28.625,29.75,29.0,33.0,35.375,36.5
0.02405197,-1.3627534,0.32932538,-0.6809026,0.006392443,0.059500355,-0.117793486,-0.3810725,-0.34848228,0.05983477,-3.0784428,0.624746,-0.00050261297,-0.008418385,0.0035608797,-0.003195746,-0.0034430407,-0.006855858,0.0025275457,0.47767177,-1.4256896,1.9577578,-2.1008933,-1.5707072,2.4525533,-0.018148702,0.014191146,-0.008626747,-0.0010834733,0.006178086,-0.020681579,-0.6895301,0.076614454,-9.768343,0.78217715,47.685097,-0.5198621,-2.5485213,-3.4957652,-0.48358893,0.05596964,-0.034580305,28.625,29.75,29.0,33.0,35.375,36.5
0.026051875,-1.535541,0.091144286,-0.70850736,0.007668932,0.06587121,-0.13004966,-0.3810799,-0.34846553,0.059836954,-3.078401,0.6247963,-0.0005614504,-0.010536527,0.0032779288,-0.002193779,-0.004853308,-0.003553508,0.00038039728,0.47763538,-1.4256773,1.9577225,-2.1008217,-1.5707077,2.4525535,-0.01942776,0.014843225,-0.011307592,-0.0026344445,0.0059024617,-0.019811464,-0.8236054,0.05746084,-9.825804,0.7597976,47.70211,-0.5214602,-2.5597367,-3.4860122,-0.48255128,0.07533064,-0.0632733,28.625,29.75,29.0,33.0,35.375,36.5
0.028056351,-1.7279639,0.012407418,-0.8121749,-0.0015936465,0.07791527,-0.141552,-0.3810702,-0.34845567,0.05979967,-3.078385,0.62481266,-0.00073729135,-0.011303482,0.0026120243,-0.0021745607,-0.0055785966,-0.0027157187,0.0006499889,0.47758743,-1.4256167,1.9577335,-2.1007984,-1.5706471,2.4525177,-0.019118346,0.016444737,-0.012939779,-0.0036806217,0.0061536953,-0.019771447,-0.6703765,0.095768064,-9.883265,0.7463667,47.694946,-0.6782055,-2.472825,-3.4102378,-0.46561515,0.06905644,-0.097742885,28.625,29.75,29.0,33.0,35.375,36.5
0.030052511,-1.7457615,0.07883183,-0.7724818,-0.011228199,0.0757353,-0.15577112,-0.3811006,-0.34847295,0.05982781,-3.0784788,0.6248115,-0.0007094219,-0.012159356,0.002610702,-0.0017594033,-0.0064460537,-0.0022750783,0.00036344753,0.477551,-1.4256287,1.9576854,-2.1008098,-1.570587,2.4524686,-0.020274857,0.016776128,-0.014326441,-0.0034160183,0.0067201327,-0.020641431,-0.7086837,0.038307227,-9.921572,0.7418897,47.705692,-0.69627726,-2.5230556,-3.4748476,-0.4763546,0.059608668,-0.09973988,28.625,29.75,29.0,33.0,35.375,36.5
0.032055482,-1.1214569,0.2844192,-0.6665677,-0.015384456,0.08835405,-0.18048698,-0.38115153,-0.348468,0.059830766,-3.0784826,0.6247939,-0.00058917835,-0.013254008,0.003098816,-0.0017142707,-0.006392711,-0.002490953,-0.0005970667,0.47752634,-1.4255805,1.9576372,-2.1008694,-1.5706352,2.4524326,-0.02218736,0.017919082,-0.015874693,-0.0027955219,0.0067708376,-0.021592282,-0.7278373,0.038307227,-10.036493,0.71951014,47.70838,-0.7373961,-2.5225902,-3.3710732,-0.5014949,0.07254495,-0.12692672,28.625,29.75,29.0,33.0,35.375,36.5
0.034052156,-1.3505856,-0.23885067,-0.7669253,0.005131057,0.06960049,-0.1885926,-0.38118544,-0.34845167,0.059815314,-3.078454,0.6248262,-0.0006314848,-0.013985414,0.0034256282,-0.0012631867,-0.007203093,-0.002260228,-0.0011971302,0.47746584,-1.4255087,1.9575881,-2.1008575,-1.5706352,2.452396,-0.023840738,0.017610036,-0.016675541,-0.002264794,0.007382792,-0.022646818,-0.7086837,0.0,-9.864111,0.8023209,47.70211,-0.6686746,-2.40919,-3.4266014,-0.49655154,0.049979642,-0.14418478,28.625,29.75,29.0,33.0,35.375,36.5
0.036051724,-1.3896542,0.3634456,-0.7107152,0.0068607363,0.060254637,-0.20102087,-0.3812044,-0.3484339,0.059809424,-3.078459,0.62490463,-0.00068126124,-0.015281545,0.00343715,-0.00060039805,-0.007900573,-0.00042604344,-0.0011562845,0.47739348,-1.4254966,1.9575876,-2.1008575,-1.5705994,2.4523718,-0.024910444,0.017816903,-0.01830765,-0.002786959,0.007154038,-0.023756033,-0.6512228,-0.076614454,-9.80665,0.7418897,47.67614,-0.7117175,-2.453685,-3.4143019,-0.51606333,0.03973413,-0.17893814,28.625,29.75,29.0,33.0,35.375,36.5
0.038051806,-0.9976794,0.15810664,-0.68604535,0.018931802,0.06307616,-0.22290623,-0.38122556,-0.3484403,0.059812486,-3.078465,0.6248676,-0.0006543547,-0.016677689,0.003711623,-0.0005227296,-0.008130146,0.001042888,-0.0013108306,0.477393,-1.4254603,1.9575394,-2.100858,-1.5706114,2.4523475,-0.026379611,0.018902343,-0.019405724,-0.004183067,0.006677022,-0.0250686,-0.45968673,-0.05746084,-9.787497,0.7642693,47.691364,-0.71111816,-2.4153745,-3.3834023,-0.49267823,0.04917215,-0.18071395,28.625,29.75,29.0,33.0,35.375,36.5
0.040051833,-1.0552086,0.33409402,-0.5488866,0.008172414,0.05795968,-0.21288387,-0.381294,-0.34843263,0.05982977,-3.078523,0.62486,-0.00057723967,-0.018861756,0.0038467855,0.0007413161,-0.009697059,0.004863933,-0.0012955016,0.47730824,-1.4254246,1.9574674,-2.1008947,-1.5705994,2.4522507,-0.028394345,0.018400013,-0.021341847,-0.005856207,0.0063067004,-0.027096227,-0.30645782,-0.019153614,-9.634268,0.78888994,47.703903,-0.66000473,-2.3885803,-3.3954875,-0.48454294,0.0723542,-0.20465106,28.625,29.75,29.0,33.0,35.375,36.5
0.042052038,-1.1548545,0.31616905,-0.5656173,0.0027652262,0.039929513,-0.21667658,-0.3813272,-0.34840918,0.05981452,-3.0784822,0.62494785,-0.00062134245,-0.019382069,0.004348427,0.00029896185,-0.009442581,0.004149625,-0.0011166104,0.47723585,-1.4253643,1.9574307,-2.1008823,-1.5705994,2.4522383,-0.029830296,0.019494006,-0.02154856,-0.005992003,0.0064068395,-0.028711192,-0.21068975,0.0,-9.653421,0.80679786,47.672558,-0.66199946,-2.44474,-3.371377,-0.4761073,0.07474278,-0.23593281,28.625,29.75,29.0,33.0,35.375,36.5
0.044052716,-0.22615707,0.212592,-0.61477613,0.011016412,0.042081103,-0.18902293,-0.38137695,-0.34839666,0.05981786,-3.0785034,0.6248733,-0.00058044604,-0.020257693,0.0045637037,0.00048989564,-0.009822712,0.0042682737,-0.00016928413,0.4771753,-1.4253162,1.9573711,-2.1008947,-1.5706114,2.4521286,-0.031202184,0.020169768,-0.022830304,-0.005666996,0.0066880626,-0.031030117,-0.17238252,0.095768064,-9.557653,0.80456203,47.688675,-0.7067418,-2.3453403,-3.3293383,-0.47533423,0.070175335,-0.23638198,28.625,29.75,29.0,33.0,35.375,36.5
0.046052583,-0.02558083,0.48235235,-0.5100463,0.00038087263,0.02432876,-0.19138004,-0.381433,-0.34839377,0.05982314,-3.0785625,0.6249053,-0.00051621645,-0.021544002,0.005014491,0.0011536672,-0.010477413,0.005058746,0.0005006009,0.47710252,-1.4252803,1.9573344,-2.1009662,-1.570587,2.4520683,-0.03332971,0.020156108,-0.024483105,-0.005002881,0.0069063343,-0.033826757,-0.1340753,0.038307227,-9.500193,0.7777002,47.67345,-0.6635449,-2.2841473,-3.3496215,-0.48639977,0.07150679,-0.24876922,28.625,29.75,29.0,33.0,35.375,36.5
0.04805273,-0.05436472,0.043189418,-0.56863844,0.003223192,0.009115542,-0.18552122,-0.3814485,-0.34836787,0.059820138,-3.0785306,0.6248782,-0.0005879939,-0.023006419,0.0049254997,0.0017676954,-0.011005269,0.006479622,0.002118793,0.47704214,-1.4252559,1.9572972,-2.1008947,-1.570587,2.4519951,-0.03439812,0.021110192,-0.02698555,-0.004957985,0.006714891,-0.03651199,-0.095768064,0.05746084,-9.481039,0.7351769,47.65464,-0.656727,-2.3333669,-3.2369983,-0.47691017,0.07866748,-0.26331574,28.625,29.75,29.0,33.0,35.375,36.5
0.050051734,0.269426,-0.011408084,-0.56880265,-0.0021087187,0.010902531,-0.18590233,-0.38150448,-0.34836295,0.0598228,-3.078567,0.62488544,-0.00051614514,-0.023820125,0.005257947,0.0016103622,-0.011285515,0.006473749,0.0021954947,0.47698164,-1.4252076,1.9572495,-2.1009543,-1.570587,2.4519346,-0.03590005,0.022050101,-0.02759492,-0.005412444,0.0069663525,-0.038090155,0.05746084,0.076614454,-9.615114,0.784413,47.68062,-0.6374557,-2.3092732,-3.3065157,-0.48349726,0.08780354,-0.25046003,28.625,29.75,29.0,33.0,35.375,36.5
0.052052014,-0.29150844,-0.9045752,-0.6289031,0.0049285777,0.0046415124,-0.17944545,-0.38157806,-0.34834233,0.059853703,-3.0785947,0.62492853,-0.0004155829,-0.024857288,0.0055340775,0.001751232,-0.011848615,0.0069684987,0.0029185975,0.47688505,-1.4251955,1.9571651,-2.1009543,-1.5705994,2.4518614,-0.037520263,0.022730298,-0.028609099,-0.005777261,0.007239528,-0.04043277,0.076614454,0.19153613,-9.519346,0.8179876,47.66987,-0.6272365,-2.2444518,-3.3665555,-0.47863707,0.09791291,-0.279327,28.625,29.75,29.0,33.0,35.375,36.5
0.05405191,-0.23877968,-0.52859336,-0.57701135,-0.017922692,0.0104858475,-0.18254286,-0.38162878,-0.34834355,0.059842885,-3.0786383,0.62491757,-0.00048994075,-0.025805492,0.0053422493,0.0024093334,-0.013626123,0.00747741,0.0040722867,0.47680065,-1.4250998,1.9570807,-2.1009543,-1.5705384,2.4517646,-0.03892146,0.022772437,-0.030234681,-0.0054633725,0.008582084,-0.042989425,0.095768064,0.24899697,-9.481039,0.7284641,47.67614,-0.66081536,-2.219975,-3.261456,-0.4772957,0.09415522,-0.2957833,28.625,29.75,29.0,33.0,35.375,36.5
0.056052446,-0.15084705,-0.86664397,-0.63867474,-0.011884742,0.011863069,-0.17951742,-0.38166705,-0.34832746,0.05985539,-3.0786457,0.6249378,-0.00040846012,-0.026364148,0.0053984825,0.0025144292,-0.014074712,0.007363779,0.005442568,0.4767522,-1.4250995,1.9570574,-2.1009786,-1.5705622,2.4517279,-0.03982737,0.023342462,-0.03118734,-0.005187789,0.009033362,-0.045265492,0.019153614,0.2681506,-9.5385,0.7418897,47.66091,-0.69168925,-2.220382,-3.3023539,-0.50364786,0.09285492,-0.27242255,28.625,29.75,29.0,33.0,35.375,36.5
0.058052618,0.2828605,-0.20674992,-0.34144884,-0.023114936,0.02440277,-0.18521108,-0.38171637,-0.3483098,0.059850365,-3.0786748,0.62494385,-0.00047160624,-0.027137913,0.005784659,0.0024914965,-0.013968855,0.00732577,0.0058650062,0.4766439,-1.4250393,1.9569973,-2.1009662,-1.5705141,2.4516196,-0.041171957,0.024145681,-0.032095596,-0.0049968036,0.0089555,-0.04703195,-0.038307227,0.30645782,-9.500193,0.7911258,47.689575,-0.70726204,-2.2184014,-3.2779408,-0.48837847,0.09083241,-0.3115323,28.625,29.75,29.0,33.0,35.375,36.5
0.06005236,-0.1865206,-0.48329613,-0.53647006,-0.016722033,0.014588973,-0.18222697,-0.3818016,-0.3483024,0.059865367,-3.078722,0.624894,-0.00037150292,-0.027814955,0.0052622813,0.0028739942,-0.01542901,0.008118022,0.0068899277,0.47655973,-1.4249672,1.956889,-2.1010025,-1.570526,2.4514985,-0.04146692,0.024612645,-0.033374783,-0.005561458,0.009889661,-0.048351962,-0.05746084,0.2681506,-9.461885,0.75084364,47.71465,-0.74109054,-2.1311374,-3.2542114,-0.49914116,0.07301589,-0.33399278,28.625,29.75,29.0,33.0,35.375,36.5
0.062052388,-0.3496286,-0.22890276,-0.41288117,-0.021223826,0.0083846655,-0.17370632,-0.38181826,-0.34830147,0.059860017,-3.0787702,0.62484556,-0.000419124,-0.028646084,0.0052607,0.0027202938,-0.015829181,0.008193691,0.008868288,0.47651148,-1.4249429,1.9568762,-2.101014,-1.5704778,2.4514139,-0.042435378,0.026000362,-0.03448739,-0.0060853404,0.0102069145,-0.05129844,-0.095768064,0.17238252,-9.346964,0.76874626,47.666286,-0.8307399,-2.1708388,-3.2834902,-0.47414517,0.08246536,-0.3261115,28.625,29.75,29.0,33.0,35.375,36.5
0.06405245,-0.49423012,-0.5064683,-0.34903547,-0.012449586,0.014235924,-0.17624831,-0.38189378,-0.34830192,0.059907522,3.0788128,-0.6248332,0.00034065984,-0.029429853,0.0051655797,0.0022344466,-0.016267018,0.0072850557,0.010693589,0.47642705,-1.4249301,1.956745,-2.100979,-1.570454,2.4513164,-0.0435066,0.028290123,-0.03593374,-0.0063225054,0.011014089,-0.054194286,-0.038307227,0.2873042,-9.423578,0.75084364,47.655537,-0.8264855,-2.2329252,-3.2484384,-0.48354852,0.0869516,-0.33626163,28.625,29.75,29.0,33.0,35.375,36.5
0.06605215,-0.78941166,-0.53402567,-0.42928708,-0.017665172,0.009506522,-0.17702895,-0.38197416,-0.3482696,0.059897248,3.0787895,-0.6248675,0.00031101203,-0.029878002,0.0047450247,0.0025364647,-0.017084284,0.007457968,0.010025133,0.4762951,-1.424846,1.9566835,-2.1010263,-1.5704535,2.4512088,-0.04358419,0.02887022,-0.03735972,-0.0060059433,0.011662037,-0.053603448,-0.095768064,0.24899697,-9.442732,0.7418897,47.703903,-0.9166558,-2.1810508,-3.2521873,-0.4871816,0.077475116,-0.38481066,28.625,29.75,29.0,33.0,35.375,36.5
0.06805243,-0.31879938,-0.29990852,-0.43270698,-0.013241052,0.030068057,-0.18233691,-0.3819965,-0.34827834,0.05988838,3.0787826,-0.62475026,0.00037315476,-0.030358773,0.0049152956,0.002720377,-0.017251074,0.007804622,0.011706247,0.47625872,-1.4247861,1.9566354,-2.1010263,-1.5704054,2.4511,-0.044318937,0.028959183,-0.03789851,-0.005937124,0.011649868,-0.05601916,-0.15322891,0.2681506,-9.423578,0.8023209,47.711063,-0.97991395,-2.135283,-3.2288375,-0.47881877,0.07805051,-0.37694263,28.625,29.75,29.0,33.0,35.375,36.5
0.07005266,-0.44445044,-0.111757725,-0.42678475,-0.010580285,0.038129024,-0.18719499,-0.38209578,-0.34826452,0.05990529,3.0787237,-0.62475425,0.00032486155,-0.03114039,0.0047266437,0.0031787758,-0.018925106,0.008017424,0.015757713,0.47612643,-1.4247023,1.9565037,-2.1010382,-1.5703806,2.4509778,-0.045596387,0.029154254,-0.039204683,-0.005783359,0.013042561,-0.0613489,-0.05746084,0.21068975,-9.404425,0.7933669,47.696735,-1.0452392,-2.0664294,-3.2222066,-0.50217795,0.07170644,-0.38732597,28.625,29.75,29.0,33.0,35.375,36.5
0.07205183,-0.9105607,-0.15295291,-0.32718962,0.0033320012,0.029775694,-0.17815202,-0.38212582,-0.348235,0.059882075,3.0787933,-0.62465155,0.00038756337,-0.031640813,0.004369411,0.0026213138,-0.019375494,0.007495394,0.018363295,0.4760543,-1.4246292,1.956468,-2.1010144,-1.570393,2.4508328,-0.04583081,0.03128693,-0.040156543,-0.0067081125,0.013674898,-0.06418973,-0.095768064,0.17238252,-9.3661175,0.79560274,47.70211,-1.110317,-2.1234815,-3.2588186,-0.47316152,0.047936227,-0.3752185,28.625,29.75,29.0,33.0,35.375,36.5
0.074052006,-0.91719174,0.040826604,-0.2674993,0.0027746253,0.028884688,-0.18768512,-0.38218254,-0.34823906,0.059900172,3.078725,-0.62452126,0.00035843003,-0.032695107,0.0040906714,0.0028031808,-0.020388879,0.00795452,0.019469576,0.4759699,-1.4246051,1.9564074,-2.1010506,-1.5703324,2.4506757,-0.04674877,0.032611936,-0.042003803,-0.007055199,0.014366313,-0.06621284,-0.19153613,0.15322891,-9.32781,0.8179876,47.705692,-1.0960222,-2.1965575,-3.1920843,-0.49511862,0.050451633,-0.37318656,28.625,29.75,29.0,33.0,35.375,36.5
0.076052554,-0.897857,0.33553153,-0.14593951,-0.002158507,0.03015884,-0.17746755,-0.38227266,-0.3482492,0.059928555,3.07863,-0.6245385,0.00030308796,-0.034188,0.0036261142,0.0038242866,-0.02102471,0.010104436,0.024139822,0.4758739,-1.424533,1.956263,-2.101062,-1.5702847,2.4506025,-0.047015805,0.0333147,-0.045208864,-0.006747573,0.013947546,-0.07114665,-0.15322891,0.076614454,-9.308657,0.83813137,47.67614,-1.2739555,-2.197887,-3.1246917,-0.48112547,0.031368952,-0.3709054,28.625,29.75,29.0,33.0,35.375,36.5
0.0780518,-0.6321349,0.37757188,-0.3441976,0.0007215633,0.033597775,-0.18873903,-0.3823488,-0.34822083,0.059934925,3.0786512,-0.6243877,0.00019615017,-0.03402242,0.005728842,0.0013397781,-0.018581415,0.005659414,0.02558867,0.47577652,-1.4244844,1.9562038,-2.1011102,-1.5703205,2.4504085,-0.050510228,0.03600907,-0.04254244,-0.0070372205,0.013822948,-0.07608979,-0.11492168,0.076614454,-9.32781,0.7911258,47.683304,-1.1410617,-2.2630491,-3.2473216,-0.47792512,0.044380426,-0.32935092,28.625,29.75,29.0,33.0,35.375,36.5
0.08005176,-0.5886405,0.15708512,-0.11141151,0.0028990994,0.038336787,-0.1812604,-0.38240057,-0.34822217,0.059930865,3.0786319,-0.6243232,0.0002836564,-0.035385042,0.0055872425,0.0017996274,-0.018642591,0.0073477672,0.029924473,0.47569248,-1.424388,1.9560951,-2.1010745,-1.5702609,2.4502866,-0.051035605,0.03717078,-0.044832554,-0.0074277217,0.013097865,-0.08094886,-0.15322891,0.038307227,-9.385271,0.8224646,47.69763,-1.2022113,-2.2904582,-3.293299,-0.46026844,0.054463074,-0.2777406,28.625,29.75,29.0,33.0,35.375,36.5
0.08205212,-0.9082392,-0.1879186,-0.17566863,0.010675985,0.03557465,-0.17777516,-0.38245383,-0.3482116,0.059932258,3.0786405,-0.6241483,0.0002934738,-0.03596567,0.00515963,0.0024556678,-0.01910043,0.008832163,0.03507078,0.47560883,-1.4243282,1.9560236,-2.1010745,-1.5702366,2.4500928,-0.050625145,0.037121,-0.04626732,-0.007466647,0.012824488,-0.08568346,-0.11492168,0.05746084,-9.3661175,0.7978386,47.705692,-1.4063565,-2.2592332,-3.155837,-0.4884722,0.03348184,-0.25348452,28.625,29.75,29.0,33.0,35.375,36.5
0.08405216,-0.8011582,0.27555832,-0.15311915,0.006287083,0.041601565,-0.17852971,-0.38254192,-0.34819525,0.059943493,3.078588,-0.6240415,0.00024195483,-0.037550118,0.005960884,0.0027705769,-0.019681625,0.009400575,0.0370579,0.4754755,-1.424268,1.9559401,-2.1011221,-1.5702008,2.4498994,-0.053664263,0.037662227,-0.04761424,-0.0074264803,0.013087124,-0.09070839,-0.22984336,0.11492168,-9.3661175,0.7351769,47.703007,-1.3249669,-2.1874843,-3.0556087,-0.47722036,0.027566215,-0.18488234,28.625,29.75,29.0,33.0,35.375,36.5
0.08605185,-0.71647125,0.3868994,-0.31507903,0.003135927,0.04533292,-0.18523741,-0.3826319,-0.3481796,0.05996224,3.0785387,-0.62395465,0.00020220339,-0.039424535,0.007665316,0.0020005987,-0.018501692,0.008054037,0.035508104,0.47534195,-1.4242073,1.9558309,-2.1011345,-1.5701655,2.449718,-0.058127575,0.04029915,-0.0489718,-0.006960788,0.0126607595,-0.09361956,-0.21068975,0.038307227,-9.481039,0.76874626,47.67614,-1.2321723,-2.259153,-3.0390966,-0.46531034,0.026287023,-0.10348577,28.625,29.75,29.0,33.0,35.375,36.5
0.08805192,-0.74595726,0.11116194,-0.11471103,-0.0050319727,0.039468028,-0.18272623,-0.38269246,-0.34817463,0.05995782,3.078518,-0.62383324,0.00023675538,-0.038543206,0.007987994,0.000861032,-0.017535342,0.005758782,0.038202107,0.47524607,-1.424123,1.9557475,-2.101146,-1.5701174,2.449549,-0.058008157,0.041212894,-0.047419764,-0.0069372184,0.012858089,-0.096194915,-0.30645782,0.05746084,-9.346964,0.7911258,47.687782,-1.1951618,-2.274243,-3.2351313,-0.4808943,0.020306574,-0.11431896,28.625,29.75,29.0,33.0,35.375,36.5
0.09005202,-0.90973073,0.17769061,-0.029630613,-0.008267566,0.046348404,-0.1785268,-0.38276726,-0.3481463,0.05994414,3.078596,-0.62365925,0.0002299356,-0.040200733,0.007396931,0.0020602455,-0.018541507,0.008662367,0.035443507,0.47515008,-1.4240031,1.9556392,-2.1011345,-1.5701531,2.4493346,-0.058185156,0.04166775,-0.05061421,-0.0072415974,0.012415502,-0.093611315,-0.45968673,-0.076614454,-9.270349,0.77545905,47.734352,-1.3704593,-2.24835,-3.1444297,-0.47417256,0.03926917,-0.09215115,28.625,29.75,29.0,33.0,35.375,36.5
0.092052,-0.79319406,-0.02199038,-0.17941831,0.007588735,0.05161034,-0.18368396,-0.38286045,-0.34814563,0.059960235,3.078504,-0.62356657,0.00019839671,-0.042493947,0.008632028,0.0024430964,-0.019168466,0.0095362775,0.029515676,0.4750165,-1.423931,1.955531,-2.1011822,-1.5700811,2.4491549,-0.06257703,0.04249961,-0.052420415,-0.0073241126,0.012578863,-0.09207348,-0.47884035,0.076614454,-9.289502,0.7933669,47.705692,-1.2426801,-2.2563586,-3.0730171,-0.46995467,0.022004643,-0.10764926,28.625,29.75,29.0,33.0,35.375,36.5
0.09405199,-1.2163668,0.39564025,-0.3374245,0.003766232,0.04345729,-0.18121576,-0.3829436,-0.34811878,0.05996422,3.0785244,-0.6233794,0.00019618672,-0.042590663,0.008831884,0.002275213,-0.019295873,0.008805115,0.027245829,0.4748843,-1.423847,1.9554232,-2.1011703,-1.5700687,2.4489033,-0.06329925,0.042843167,-0.052509006,-0.0069867126,0.013030016,-0.09052622,-0.40222588,0.038307227,-9.385271,0.7150385,47.66987,-1.224316,-2.204868,-3.0938327,-0.4707243,0.0029145754,-0.11675685,28.625,29.75,29.0,33.0,35.375,36.5
0.09605177,-0.7613322,-0.042571954,-0.27413997,0.0062757414,0.05626403,-0.17209463,-0.38302207,-0.3481137,0.059982784,3.0784798,-0.6233151,0.00014564263,-0.044121977,0.009066831,0.0024340525,-0.020060338,0.009569708,0.021572456,0.47478762,-1.4237868,1.955315,-2.1011827,-1.5700449,2.4487722,-0.06532524,0.044194993,-0.05427632,-0.007600527,0.013361043,-0.08687721,-0.5554548,0.095768064,-9.385271,0.7866488,47.703903,-1.249085,-2.1995234,-3.0355358,-0.46798304,0.029771924,-0.16387981,28.625,29.75,29.0,33.0,35.375,36.5
0.09805214,-0.9638705,0.12239151,-0.1533492,-0.00734654,0.060581822,-0.18620282,-0.3831229,-0.34807742,0.059980236,3.0784576,-0.6233129,0.000101393714,-0.04528413,0.009747598,0.0022750786,-0.019633638,0.009793692,0.018192636,0.4746309,-1.4236906,1.9552191,-2.101219,-1.5700454,2.448617,-0.06727369,0.045413405,-0.05525258,-0.007843865,0.012881834,-0.08544412,-0.5363012,0.0,-9.289502,0.7911258,47.67345,-1.3026944,-2.1988049,-3.0877175,-0.47838998,0.020028591,-0.2063182,28.625,29.75,29.0,33.0,35.375,36.5
0.10005227,-1.164662,-0.40741837,-0.4150772,0.00805721,0.05921852,-0.16989516,-0.38322982,-0.3480667,0.059996486,3.0783787,-0.6232787,8.8096924e-05,-0.046167247,0.010022336,0.0023947852,-0.019239718,0.010025667,0.01659467,0.47447464,-1.4235942,1.9550747,-2.10123,-1.5699853,2.4484494,-0.06826007,0.046408445,-0.056782674,-0.007326742,0.012430878,-0.0848305,-0.49799395,0.095768064,-9.32781,0.7597976,47.72719,-1.286821,-2.206598,-2.9968977,-0.48158675,0.037944756,-0.2635036,28.625,29.75,29.0,33.0,35.375,36.5
0.1020524,-1.0192451,0.41995192,-0.3652757,-0.0051212,0.06120012,-0.17958826,-0.3832952,-0.34804186,0.05999404,3.0784206,-0.6231533,9.162256e-05,-0.047062192,0.01050672,0.002173842,-0.019763714,0.009047135,0.013862353,0.4743779,-1.4235102,1.9549788,-2.101206,-1.5699967,2.4482691,-0.070522025,0.04765722,-0.05779752,-0.0069329008,0.013343216,-0.08436063,-0.36391866,0.095768064,-9.3661175,0.7329411,47.716442,-1.2467523,-2.19704,-3.0186958,-0.48312137,0.025355218,-0.2813892,28.625,29.75,29.0,33.0,35.375,36.5
0.10405245,-0.6047593,-0.11111481,-0.3204419,0.0026215995,0.064881705,-0.17749448,-0.38337818,-0.3480185,0.059985187,3.0783708,-0.6231244,0.00013580591,-0.048184004,0.01063191,0.0023434695,-0.02047075,0.009850807,0.012887909,0.4742213,-1.4234138,1.9548944,-2.1012304,-1.5699366,2.4481008,-0.07192592,0.048491534,-0.058987156,-0.007608906,0.013604984,-0.08478935,-0.5746084,0.076614454,-9.423578,0.7172743,47.667187,-1.3054736,-2.235147,-3.0071654,-0.47652978,0.027930334,-0.32499593,28.625,29.75,29.0,33.0,35.375,36.5
0.106052235,-1.4180379,-0.49800467,-0.4432829,0.007665127,0.03817606,-0.17043847,-0.38349923,-0.34799045,0.059987705,3.0783322,-0.6230791,7.45348e-05,-0.049542643,0.010902617,0.00238438,-0.020902885,0.010640602,0.011724803,0.47405267,-1.4232936,1.9547623,-2.101278,-1.5699247,2.4479089,-0.07364763,0.049794957,-0.06039268,-0.008403142,0.013632439,-0.085346125,-0.47884035,0.13407528,-9.308657,0.81351066,47.682407,-1.2817093,-2.1833742,-3.0042348,-0.47024953,0.021410346,-0.3618427,28.625,29.75,29.0,33.0,35.375,36.5
0.10805242,-0.88033533,-0.25328428,-0.4664292,0.0052645826,0.049049504,-0.17938343,-0.3836155,-0.347984,0.060028482,3.0782557,-0.62306464,-1.8013186e-05,-0.051191993,0.012662166,0.0010837154,-0.019260058,0.008617958,0.0075188116,0.47391912,-1.4232204,1.954583,-2.1012666,-1.5699009,2.447776,-0.07791968,0.053156022,-0.061282437,-0.008319112,0.013102679,-0.08540947,-0.40222588,0.076614454,-9.32781,0.7665104,47.683304,-1.1338866,-2.400513,-3.015952,-0.47694212,0.01596013,-0.396609,28.625,29.75,29.0,33.0,35.375,36.5
0.110052384,-1.1427615,-0.099148735,-0.53889143,-0.0024707234,0.04679887,-0.17468487,-0.38369206,-0.34794495,0.059993833,3.078281,-0.6230297,7.752221e-05,-0.051360518,0.011630977,0.0030078872,-0.021111134,0.0120400395,0.009741683,0.47376412,-1.4230772,1.9544986,-2.1012666,-1.569877,2.447596,-0.0762772,0.050271474,-0.062420346,-0.008182128,0.013184271,-0.085990645,-0.36391866,0.076614454,-9.461885,0.7351769,47.691364,-1.3394625,-2.147354,-2.9885156,-0.46626937,0.034493744,-0.45013025,28.625,29.75,29.0,33.0,35.375,36.5
0.1120526,-1.1149702,-0.3676074,-0.56748986,0.002163503,0.046895716,-0.17498095,-0.38380173,-0.34790608,0.060013562,3.0782716,-0.6229328,2.0731999e-05,-0.052735277,0.012735471,0.0022741568,-0.020230632,0.011178274,0.008552684,0.47359493,-1.4230044,1.9543675,-2.1012542,-1.5698775,2.4473677,-0.07922706,0.052613817,-0.063374415,-0.008396989,0.012799546,-0.08774968,-0.38307226,0.11492168,-9.32781,0.81351066,47.71286,-1.2828647,-2.1514223,-2.9914093,-0.47953796,0.049505986,-0.48336828,28.625,29.75,29.0,33.0,35.375,36.5
0.114051715,-0.9329021,0.033123847,-0.4564032,-0.0026554682,0.055600915,-0.18165228,-0.38392085,-0.34790272,0.060007766,3.0781481,-0.62298346,1.549523e-05,-0.05464372,0.014043286,0.002271982,-0.021261746,0.011160751,0.01090102,0.47342512,-1.4228599,1.954235,-2.1013381,-1.5697931,2.4472451,-0.08387605,0.053410947,-0.064188085,-0.008823049,0.013736517,-0.094746284,-0.30645782,0.19153613,-9.346964,0.8314132,47.690468,-1.0188738,-2.2498631,-3.0199804,-0.4587806,0.05059001,-0.47472316,28.625,29.75,29.0,33.0,35.375,36.5
0.116052054,-0.8723671,0.2927259,-0.52029705,-0.012608911,0.055340547,-0.18189767,-0.38402462,-0.34786853,0.06002912,3.078132,-0.62288105,-5.513187e-05,-0.054156695,0.013878184,0.00064765307,-0.020012083,0.007938219,0.0153524885,0.47326946,-1.4227986,1.9541162,-2.1013381,-1.5697931,2.4470277,-0.0833555,0.05688182,-0.06451512,-0.008524927,0.014104251,-0.098676056,-0.22984336,0.076614454,-9.423578,0.78217715,47.642998,-1.246782,-2.280989,-3.0589724,-0.4659872,0.041961312,-0.47393632,28.625,29.75,29.0,33.0,35.375,36.5
0.11805216,-0.62411016,-0.09268114,-0.4670544,-0.001501642,0.05151153,-0.18065396,-0.38412157,-0.34780118,0.06000336,3.078201,-0.6228133,-6.976694e-06,-0.056180235,0.014456631,0.0020610637,-0.022267645,0.011023043,0.022386989,0.47307628,-1.4226671,1.9540194,-2.1013148,-1.5698165,2.4467835,-0.086600095,0.055299353,-0.065717936,-0.009506962,0.014705655,-0.10895595,-0.21068975,0.0,-9.519346,0.7777002,47.686886,-1.0751519,-2.2365298,-3.0157728,-0.47196215,0.039765023,-0.44415087,28.625,29.75,29.0,33.0,35.375,36.5
0.120052315,-0.10013567,-0.096216395,-0.4776801,0.0023657866,0.055885565,-0.18533762,-0.38425788,-0.34779772,0.060039863,3.0780632,-0.6227823,-4.3250075e-05,-0.056838643,0.015758283,0.0009269391,-0.020541307,0.009190979,0.027228428,0.47288337,-1.4225703,1.9538282,-2.1013267,-1.5697206,2.4465888,-0.08904015,0.05744997,-0.0656361,-0.009299844,0.014024633,-0.11623517,-0.26815057,-0.05746084,-9.519346,0.7665104,47.707485,-1.0546314,-2.153617,-3.1353636,-0.46268362,0.06127134,-0.3441955,28.625,29.75,29.0,33.0,35.375,36.5
0.12205244,-0.45661846,0.48571378,-0.2720473,-0.007386038,0.041195467,-0.1837912,-0.38435563,-0.3477509,0.06002537,3.0780835,-0.6226283,-3.269996e-05,-0.05872118,0.015546992,0.0017146877,-0.022121157,0.010764023,0.033678953,0.47270286,-1.4224619,1.9537429,-2.101351,-1.5697082,2.4463096,-0.09081117,0.058580473,-0.06868889,-0.009488504,0.014717443,-0.12445548,-0.30645782,0.0,-9.481039,0.85155696,47.719128,-1.0384393,-2.307966,-3.0652332,-0.46557984,0.056780513,-0.26654148,28.625,29.75,29.0,33.0,35.375,36.5
0.12405241,-0.8257105,0.66451585,-0.25432262,-0.008668865,0.03931649,-0.19372182,-0.38447532,-0.34771997,0.06000192,3.078113,-0.6224984,-5.6009118e-05,-0.058828216,0.016771413,0.00019103476,-0.021216992,0.008634471,0.03703653,0.47254622,-1.422281,1.9536008,-2.1013992,-1.5697201,2.4460683,-0.09316896,0.060187936,-0.06678475,-0.010687061,0.01489154,-0.13017133,-0.30645782,-0.095768064,-9.461885,0.8023209,47.684196,-1.0153158,-2.2654178,-3.0788336,-0.43748376,0.05766489,-0.2073603,28.625,29.75,29.0,33.0,35.375,36.5
0.12605189,-0.23986219,0.847863,-0.22886391,-0.006118913,0.06162251,-0.18939184,-0.38461295,-0.34769094,0.060031254,3.0780492,-0.62234896,-8.455757e-05,-0.05923293,0.016870212,-6.803601e-05,-0.021789873,0.0076128296,0.038479716,0.4723298,-1.4221847,1.953421,-2.1013873,-1.5696596,2.4457667,-0.094320506,0.06127232,-0.06750295,-0.010394066,0.015880806,-0.13276519,-0.30645782,-0.038307227,-9.32781,0.78217715,47.64837,-1.0303447,-2.3024375,-3.1741219,-0.4516455,0.07915258,-0.14120942,28.625,29.75,29.0,33.0,35.375,36.5
0.12805176,-0.63341266,0.4286945,-0.16705766,0.006864164,0.059078485,-0.17860742,-0.38471308,-0.3476529,0.06000945,3.0780168,-0.6222689,7.338686e-07,-0.061476264,0.017389866,0.00088295306,-0.022298077,0.009249664,0.034646627,0.47212487,-1.4220523,1.9533247,-2.1014106,-1.5695885,2.4455159,-0.097071394,0.062129114,-0.07084529,-0.009584715,0.015584478,-0.13168138,-0.2681506,-0.038307227,-9.423578,0.7642693,47.684196,-0.8863591,-2.318347,-3.1137018,-0.43304777,0.090281405,-0.14615309,28.625,29.75,29.0,33.0,35.375,36.5
0.13005248,-0.5398246,0.21807624,-0.2467359,0.009266974,0.061002202,-0.18368667,-0.3848562,-0.347621,0.06003443,3.078031,-0.6221203,-0.0001481761,-0.061905276,0.01834496,0.00046170238,-0.022132808,0.008646615,0.029021265,0.47196817,-1.4219321,1.953133,-2.1014225,-1.5696357,2.4452648,-0.09921504,0.062293004,-0.069980666,-0.010008579,0.015723102,-0.12819879,-0.34476504,0.0,-9.289503,0.7597976,47.694946,-0.83687055,-2.2232924,-3.1043406,-0.4356145,0.08223111,-0.1745294,28.625,29.75,29.0,33.0,35.375,36.5
0.13205244,-0.9995837,0.0637132,-0.3287875,0.013168296,0.049895268,-0.17210378,-0.38498035,-0.34757817,0.06003197,3.0779557,-0.6221092,-0.00014675692,-0.06202491,0.018641308,0.00022233772,-0.021970835,0.008101444,0.021539701,0.47174004,-1.4218237,1.9530257,-2.1014702,-1.5695757,2.4450393,-0.09988659,0.062684685,-0.06991036,-0.009907428,0.015830537,-0.121388115,-0.49799395,-0.11492168,-9.404425,0.81351066,47.721813,-0.92729956,-2.1434793,-3.2867627,-0.4347231,0.10242908,-0.22398823,28.625,29.75,29.0,33.0,35.375,36.5
0.13405259,-1.0074533,0.074735984,-0.35219482,0.005676735,0.054310597,-0.19192916,-0.3851044,-0.34754843,0.06004014,3.0778983,-0.6220406,-0.00013167104,-0.06343633,0.018961977,0.00034864998,-0.02307986,0.007810748,0.019238308,0.47153497,-1.4217032,1.9528693,-2.1014702,-1.5695151,2.4447987,-0.10243671,0.06408111,-0.0718764,-0.009575803,0.016955215,-0.12163572,-0.40222588,-0.019153614,-9.519346,0.8023209,47.728977,-0.787544,-2.2071557,-3.2140515,-0.4411782,0.10535672,-0.2778559,28.625,29.75,29.0,33.0,35.375,36.5
0.1360523,-0.9037816,0.36992127,-0.20699385,-0.004395295,0.057906725,-0.17767006,-0.38522404,-0.34750384,0.06004057,3.0778809,-0.62192225,-0.00015146611,-0.06316712,0.018427694,0.00040867008,-0.023469869,0.008101048,0.0181689,0.47133145,-1.4215951,1.9527501,-2.101494,-1.5694913,2.4445236,-0.10135439,0.06409471,-0.0719495,-0.009948858,0.017175466,-0.11948342,-0.47884035,0.05746084,-9.461885,0.8112748,47.67166,-0.92919743,-2.1482024,-3.2857046,-0.43427205,0.114341564,-0.3116467,28.625,29.75,29.0,33.0,35.375,36.5
0.13805236,-0.5112325,0.5445211,-0.2473389,0.0007719113,0.071268566,-0.18391603,-0.38537043,-0.3474516,0.060047816,3.077833,-0.6219525,-0.00017198718,-0.0646284,0.019690186,0.00036995896,-0.023386285,0.00810064,0.015132296,0.47108996,-1.4214628,1.9525822,-2.101494,-1.5694674,2.444307,-0.10484365,0.06475695,-0.07264367,-0.009870823,0.01710887,-0.11993503,-0.45968673,0.076614454,-9.308657,0.8291774,47.689575,-0.78117806,-2.0723083,-3.30395,-0.44047743,0.097875506,-0.35116166,28.625,29.75,29.0,33.0,35.375,36.5
0.14005247,-1.0456873,0.75266814,-0.25911766,0.0020332541,0.05274279,-0.18618174,-0.38552594,-0.3474212,0.0600541,3.0777879,-0.62186486,-0.0002627371,-0.06422436,0.018837716,0.00013725333,-0.023377134,0.0075789453,0.017278982,0.4708868,-1.4213061,1.9524025,-2.1015542,-1.5694555,2.444055,-0.1030802,0.06592597,-0.07349327,-0.009716629,0.017349944,-0.120316386,-0.34476504,0.15322891,-9.346964,0.7978386,47.704796,-1.0393108,-2.06914,-3.3638678,-0.4448046,0.12634395,-0.3835615,28.625,29.75,29.0,33.0,35.375,36.5
0.1420525,-0.87648344,0.7053932,-0.32266644,0.0022041379,0.052347872,-0.18037629,-0.38564545,-0.34739596,0.06005313,3.0777466,-0.6217211,-0.00024739772,-0.06493015,0.018824743,0.00020184332,-0.023926307,0.008228557,0.018663434,0.47069448,-1.4211739,1.952259,-2.101578,-1.5693954,2.4437783,-0.103796326,0.06655959,-0.0742038,-0.010455311,0.017551543,-0.12241586,-0.3256114,0.1340753,-9.346964,0.87617236,47.73077,-1.0543613,-2.03792,-3.3765774,-0.41572857,0.13465105,-0.39440298,28.625,29.75,29.0,33.0,35.375,36.5
0.14405175,-0.41700655,0.14921387,-0.20835333,0.0054467367,0.0518206,-0.18064113,-0.38577387,-0.34733728,0.0600338,3.0777564,-0.62166256,-0.00022128967,-0.0664456,0.01903116,0.00059270463,-0.024499632,0.008981937,0.022246819,0.47046587,-1.4210174,1.9521269,-2.1015904,-1.5693835,2.443512,-0.105617926,0.067753896,-0.07651773,-0.010255575,0.017725457,-0.12781985,-0.24899697,0.095768064,-9.270349,0.7777002,47.645687,-1.044795,-2.0385275,-3.267818,-0.40876967,0.12649551,-0.39109653,28.625,29.75,29.0,33.0,35.375,36.5
0.1460522,-0.34377173,0.04180425,-0.4700772,0.0044308454,0.0337149,-0.18422806,-0.3858967,-0.34730527,0.060041755,3.0777338,-0.62151873,-0.00022980095,-0.065834895,0.019504001,1.0432029e-05,-0.023306157,0.007808876,0.029420657,0.47027403,-1.420897,1.9519709,-2.1015904,-1.5693473,2.4432333,-0.105537675,0.06781154,-0.07534858,-0.009876919,0.017213093,-0.13491336,-0.095768064,0.17238252,-9.289503,0.8560339,47.689575,-1.1333932,-2.004663,-3.521496,-0.4172157,0.16283801,-0.3169288,28.625,29.75,29.0,33.0,35.375,36.5
0.14805238,-0.052851073,-0.24774079,-0.561071,-0.009173009,0.027404325,-0.17912193,-0.38603485,-0.34726927,0.060055796,3.077703,-0.6213919,-0.0002786099,-0.06748153,0.019868914,-0.0008149728,-0.022642136,0.006674045,0.037723474,0.47006932,-1.4207757,1.9518026,-2.1016018,-1.5693234,2.4429533,-0.10760635,0.071899496,-0.07816375,-0.009816801,0.017153561,-0.14528185,0.0,0.21068975,-9.481039,0.800085,47.67166,-1.1197661,-2.1809664,-3.4429939,-0.410353,0.17382842,-0.22330604,28.625,29.75,29.0,33.0,35.375,36.5
0.15005249,-0.27545264,-0.5050693,-0.59631217,-0.014012002,0.006821395,-0.17292696,-0.38619635,-0.34721214,0.060058765,3.0777023,-0.6212917,-0.0003493375,-0.06885424,0.019555358,0.0015625916,-0.025518551,0.011151554,0.044306535,0.46982908,-1.4206197,1.9516228,-2.1016257,-1.5693353,2.4426508,-0.108607374,0.06849661,-0.079602554,-0.010259579,0.017707707,-0.15286501,-0.019153614,0.2681506,-9.385271,0.800085,47.716442,-1.1384517,-1.9250338,-3.275715,-0.4215656,0.18894738,-0.14630724,28.625,29.75,29.0,33.0,35.375,36.5
0.15205428,-0.11087725,-0.58969456,-0.75157595,-0.0114093805,-0.0047735465,-0.16916718,-0.3863386,-0.34717083,0.060054228,3.077645,-0.6211856,-0.00034902323,-0.070454545,0.02081284,0.0012137727,-0.02575263,0.010227539,0.041789237,0.46958762,-1.4204761,1.9514798,-2.1016738,-1.5692748,2.4423504,-0.11266104,0.070069864,-0.08066534,-0.010038657,0.01834728,-0.15439993,0.076614454,0.24899697,-9.519346,0.8493211,47.703903,-0.9719789,-1.8519726,-3.4329813,-0.41177782,0.2181916,-0.10907091,28.625,29.75,29.0,33.0,35.375,36.5
0.15405218,0.40323785,-0.49462256,-0.78744435,-0.0157002,0.0010288277,-0.17853425,-0.38647044,-0.34714544,0.060054753,3.0776215,-0.6209882,-0.00032060896,-0.07062647,0.019662885,0.00023813339,-0.026018262,0.0087998,0.041961674,0.46938428,-1.4203186,1.9512986,-2.1016743,-1.5692147,2.4420269,-0.111310326,0.07388194,-0.08266268,-0.01069204,0.019230515,-0.15321963,0.019153614,0.24899697,-9.481039,0.80456203,47.67614,-1.1827734,-1.9575784,-3.394557,-0.41741496,0.21424976,-0.099288344,28.625,29.75,29.0,33.0,35.375,36.5
0.15605216,0.34732404,-0.302965,-0.7719803,-0.027514389,0.005727529,-0.17870939,-0.3866156,-0.34709445,0.0600671,3.0775971,-0.6208352,-0.00039642418,-0.07246729,0.020949708,0.0010895666,-0.027070818,0.009697857,0.03394569,0.4691543,-1.4202108,1.9511551,-2.1017096,-1.5692023,2.4417045,-0.11556716,0.07313472,-0.08392189,-0.0099634435,0.01977224,-0.1494588,0.0,0.30645782,-9.500193,0.78888994,47.687782,-1.0029621,-1.8859652,-3.3110363,-0.39272928,0.21661846,-0.12946019,28.625,29.75,29.0,33.0,35.375,36.5
0.15805234,-0.4219221,-0.80360097,-0.75519836,-0.021322507,0.0022210104,-0.17676446,-0.3867414,-0.34704372,0.0600511,3.0775926,-0.620759,-0.00034496965,-0.07162701,0.020050459,0.0005340332,-0.027003303,0.007863871,0.030778194,0.4689273,-1.420054,1.951012,-2.1017096,-1.5691665,2.4414306,-0.113668226,0.07464364,-0.08457824,-0.00914974,0.020536752,-0.14439228,-0.038307227,0.30645782,-9.500193,0.8023209,47.677036,-1.1614382,-1.9452374,-3.4060779,-0.4051382,0.23483749,-0.19290121,28.625,29.75,29.0,33.0,35.375,36.5
0.16005239,0.31296572,-0.49182126,-0.8118075,-0.03621422,0.035008073,-0.18409738,-0.38689148,-0.34701815,0.06006338,3.0775495,-0.6206383,-0.00038325146,-0.073179886,0.020653456,0.00059683766,-0.027626071,0.007626623,0.022822915,0.4687224,-1.4198974,1.9508075,-2.1017215,-1.5691298,2.441156,-0.116527915,0.07613027,-0.08652115,-0.008763564,0.021201232,-0.13929437,-0.05746084,0.34476504,-9.461885,0.8157518,47.690468,-1.1523137,-1.8852625,-3.3070807,-0.4209177,0.23301736,-0.2772699,28.625,29.75,29.0,33.0,35.375,36.5
0.16205259,-0.6240886,-1.1074669,-0.9267288,-0.024974216,0.024447318,-0.16860786,-0.38704473,-0.3469846,0.060069878,3.07746,-0.6206026,-0.00035879665,-0.0739394,0.020448726,0.0010022861,-0.028787166,0.008116917,0.019292496,0.46847016,-1.419741,1.9506162,-2.101733,-1.5690459,2.4408927,-0.117331326,0.07652501,-0.08791806,-0.008713299,0.022020048,-0.13656564,0.038307227,0.28730422,-9.615114,0.7933669,47.71465,-1.211015,-1.8421772,-3.3245025,-0.42598194,0.24097222,-0.32023862,28.625,29.75,29.0,33.0,35.375,36.5
0.16405179,-0.6561124,-0.9562887,-0.751732,-0.028407387,0.018629061,-0.17447133,-0.38720223,-0.3469294,0.060069498,3.0774524,-0.6205628,-0.00038793244,-0.07480672,0.020813301,0.000750257,-0.029252512,0.007275178,0.0170477,0.46822953,-1.4195725,1.9504241,-2.101733,-1.5690454,2.4406283,-0.11923229,0.077959515,-0.08905312,-0.008469664,0.022820862,-0.13622051,-0.076614454,0.30645782,-9.595961,0.8112748,47.689575,-1.1823881,-1.8845866,-3.3569841,-0.42457247,0.26482004,-0.42414016,28.625,29.75,29.0,33.0,35.375,36.5
0.16605192,0.01913831,-0.64920634,-0.81817776,-0.028706273,0.030933985,-0.1805724,-0.387327,-0.3468994,0.060051985,3.077424,-0.62042505,-0.0003451975,-0.0760909,0.020924946,0.00070752593,-0.02995459,0.007267387,0.013301899,0.46802485,-1.4194038,1.9502791,-2.1017692,-1.5689853,2.4403412,-0.12095555,0.07974036,-0.09096827,-0.008637814,0.023448965,-0.13419642,-0.19153613,0.30645782,-9.461885,0.81351066,47.689575,-1.1812068,-1.8731704,-3.3326998,-0.43280914,0.2625418,-0.47138596,28.625,29.75,29.0,33.0,35.375,36.5
0.16805203,-0.6800834,-0.55535287,-0.977146,-0.021469424,0.014744323,-0.1701271,-0.38748056,-0.34685728,0.06006516,3.0773532,-0.6203508,-0.0003593497,-0.077060655,0.021071058,0.00015680856,-0.03044942,0.0068736738,0.015573169,0.46777248,-1.419271,1.9500998,-2.1017816,-1.5689248,2.4400516,-0.122449815,0.08186161,-0.091914855,-0.009666023,0.024082778,-0.13795954,-0.076614454,0.19153613,-9.481039,0.800085,47.672558,-1.1730342,-1.9175222,-3.2691176,-0.42482215,0.25979573,-0.51746887,28.625,29.75,29.0,33.0,35.375,36.5
0.17005217,-0.5445731,-0.10718595,-0.79624516,-0.026695471,0.02716546,-0.18982585,-0.38765717,-0.34680855,0.060078956,3.0772989,-0.6203158,-0.00044917714,-0.07888005,0.021827783,0.00040715156,-0.03174409,0.0076317326,0.021541713,0.46751907,-1.4191145,1.9498972,-2.1018174,-1.5689129,2.4397833,-0.12592031,0.08263015,-0.09321426,-0.010374506,0.024924854,-0.1473956,-0.11492168,0.13407528,-9.5385,0.88289046,47.71286,-1.0973732,-1.8872373,-3.2614927,-0.40414804,0.27107054,-0.48122776,28.625,29.75,29.0,33.0,35.375,36.5
0.17205228,-1.0152658,-0.1632929,-0.56399083,-0.015598924,0.038981788,-0.16964792,-0.3878005,-0.3468039,0.06011175,3.0771902,-0.62011385,-0.00043529418,-0.07901097,0.02067532,-0.0003078823,-0.03167776,0.006213287,0.034913868,0.4673038,-1.418993,1.9496807,-2.101806,-1.5687922,2.4394557,-0.12434208,0.0861934,-0.09574112,-0.010072135,0.02553775,-0.1591856,-0.17238252,0.17238252,-9.557653,0.84484416,47.690468,-1.2201033,-2.1580374,-3.1888058,-0.41157684,0.26450795,-0.38328654,28.625,29.75,29.0,33.0,35.375,36.5
0.1740524,-1.3751072,-0.15536596,-0.648402,0.0060933824,0.054756004,-0.18600051,-0.38795817,-0.34676075,0.060101103,3.0771635,-0.61995167,-0.0004593676,-0.08167092,0.021809235,0.0012108599,-0.034129653,0.008477575,0.040238637,0.46706188,-1.4188131,1.9495124,-2.101865,-1.568756,2.439116,-0.12946637,0.085037015,-0.09795274,-0.009802798,0.026734881,-0.16963226,-0.2681506,0.1340753,-9.423578,0.779936,47.683304,-0.9648837,-1.9760342,-3.3217056,-0.40466523,0.27028817,-0.26953802,28.625,29.75,29.0,33.0,35.375,36.5
0.17605186,-1.0931976,0.4236076,-0.6526277,0.013603301,0.07742051,-0.17984577,-0.3881166,-0.34668535,0.060071565,3.0771778,-0.6198522,-0.0003790741,-0.08174875,0.021547614,-0.0008265731,-0.03317377,0.004371888,0.047191504,0.46676216,-1.418607,1.9493436,-2.101865,-1.5687197,2.4387524,-0.12966907,0.090414554,-0.09956879,-0.0094435075,0.02773953,-0.17678697,-0.4213795,0.11492168,-9.404425,0.86945957,47.681515,-1.1393491,-2.1451814,-3.0201328,-0.41499275,0.2712251,-0.18976653,28.625,29.75,29.0,33.0,35.375,36.5
0.17805183,-2.0161266,0.2640723,-0.55244535,0.011342627,0.06389225,-0.17464486,-0.38828915,-0.34665623,0.060102466,3.0770853,-0.6196834,-0.00044299185,-0.08386822,0.02262532,0.0006128954,-0.035240155,0.0069364975,0.044059694,0.4665086,-1.418476,1.9491285,-2.1018894,-1.5686473,2.4384053,-0.13388485,0.088573195,-0.10069354,-0.009677931,0.028454592,-0.17786741,-0.51714754,0.095768064,-9.557653,0.77545905,47.67345,-0.9951996,-2.0592527,-3.1656446,-0.4205087,0.24928465,-0.17162295,28.625,29.75,29.0,33.0,35.375,36.5
0.180052,-1.2782983,0.5851589,-0.46546835,-0.0017292238,0.086613946,-0.1848221,-0.3884436,-0.34662113,0.060108002,3.0770786,-0.6194749,-0.00047803414,-0.085385054,0.022528186,0.00073380413,-0.035944086,0.007755913,0.035901044,0.46629214,-1.418307,1.9489249,-2.1019013,-1.5686234,2.4380596,-0.13518693,0.09049992,-0.1030481,-0.010302678,0.028708085,-0.17100786,-0.7469909,0.11492168,-9.423578,0.7642693,47.688675,-0.980087,-2.0505462,-2.9558449,-0.41045892,0.24390823,-0.22215243,28.625,29.75,29.0,33.0,35.375,36.5
0.18205251,-1.7382469,-0.06855579,-0.64329785,0.00046310487,0.07408897,-0.17252323,-0.38860416,-0.3465729,0.060096666,3.0770264,-0.6194099,-0.0004230634,-0.08577831,0.022799766,0.0006416474,-0.035411682,0.0075523634,0.031079255,0.4660159,-1.4181144,1.9487327,-2.1019132,-1.5685514,2.4377494,-0.13571492,0.0912355,-0.10379999,-0.009852496,0.028323181,-0.16671358,-0.842759,0.0,-9.404425,0.8806493,47.68599,-0.9836041,-1.9542468,-3.1331377,-0.40672156,0.26431167,-0.29742795,28.625,29.75,29.0,33.0,35.375,36.5
0.18405175,-1.9864764,-0.27576363,-0.37860677,0.0029629753,0.08067976,-0.1776252,-0.38878566,-0.34652185,0.06010123,3.0769455,-0.6192989,-0.00044316758,-0.08642615,0.022517556,0.0011730304,-0.035639342,0.008547192,0.029174013,0.4657161,-1.4179462,1.9485406,-2.1019614,-1.5684794,2.4373906,-0.13558054,0.09159762,-0.10552883,-0.009459861,0.028091636,-0.1646713,-0.9576807,0.019153614,-9.32781,0.76874626,47.721813,-1.0799657,-1.9876109,-3.0439272,-0.4139472,0.26557323,-0.33102444,28.625,29.75,29.0,33.0,35.375,36.5
0.18605207,-1.6650839,0.22913484,-0.43366167,0.0017342606,0.09990552,-0.17577806,-0.38895896,-0.34648013,0.060113743,3.0769198,-0.6191411,-0.00046551105,-0.086884856,0.023100136,0.0007507775,-0.035256285,0.007700931,0.026420848,0.4654636,-1.4177656,1.9483021,-2.101949,-1.5684437,2.437043,-0.1369949,0.09261326,-0.105786264,-0.009279967,0.028139656,-0.163331,-1.0534487,0.019153614,-9.308656,0.81351066,47.686886,-1.0310199,-1.9401245,-3.056962,-0.42389995,0.28294858,-0.39277643,28.625,29.75,29.0,33.0,35.375,36.5
0.18805192,-1.5461167,0.17271698,-0.28835672,0.013200388,0.10431522,-0.17314117,-0.38914907,-0.34642184,0.06012238,3.076837,-0.61908495,-0.00049766386,-0.08825166,0.02308325,0.0007253527,-0.035985194,0.0074992743,0.027211698,0.46515122,-1.4175968,1.9480971,-2.1019852,-1.5683836,2.436706,-0.13861103,0.09481339,-0.10830866,-0.009083174,0.028900642,-0.16573398,-0.8810662,0.05746084,-9.32781,0.7463667,47.677036,-1.2708981,-2.028001,-3.0618982,-0.43848515,0.28199095,-0.38098457,28.625,29.75,29.0,33.0,35.375,36.5
0.19005209,-1.3408234,0.7982734,-0.18496388,0.0011505943,0.09704338,-0.18510382,-0.38934138,-0.34641406,0.06013749,3.0767066,-0.618957,-0.0004972359,-0.08747644,0.022921082,-0.00026792096,-0.035685048,0.005486233,0.036780752,0.46488744,-1.4173801,1.9478225,-2.102021,-1.5682629,2.436379,-0.13799456,0.09608005,-0.1074875,-0.009190668,0.02957796,-0.17468368,-0.5554548,0.038307227,-9.308657,0.69937176,47.716442,-1.2313323,-2.0527802,-3.1229415,-0.4328969,0.27922958,-0.36223578,28.625,29.75,29.0,33.0,35.375,36.5
0.19205227,-0.9268094,0.8059546,-0.110112324,0.0031231549,0.07753615,-0.1807941,-0.38953066,-0.3463466,0.060149018,3.0766966,-0.6188168,-0.00057344016,-0.09017435,0.022841876,0.0011210889,-0.03754652,0.009247318,0.043844245,0.4645985,-1.4172119,1.947606,-2.1020334,-1.5682629,2.436004,-0.14020427,0.096613154,-0.11101022,-0.0103670815,0.02958461,-0.18395318,-0.51714754,-0.038307227,-9.289502,0.82694155,47.713753,-1.2700917,-1.9031632,-3.0762696,-0.42708677,0.272289,-0.27784005,28.625,29.75,29.0,33.0,35.375,36.5
0.19405243,-0.7189286,0.4533249,-0.10044232,0.011799979,0.057850275,-0.18171088,-0.3897063,-0.34627643,0.06012915,3.0767095,-0.618719,-0.0005580851,-0.089774124,0.024795106,-0.0011429732,-0.03448469,0.005236536,0.05170097,0.4643097,-1.4169948,1.9474047,-2.1020448,-1.5682515,2.4356525,-0.14266273,0.09901368,-0.10868935,-0.010092728,0.02867879,-0.19427018,-0.40222588,-0.019153614,-9.251195,0.77545905,47.67614,-1.1425182,-2.0851986,-3.1252613,-0.40559906,0.29098755,-0.15538947,28.625,29.75,29.0,33.0,35.375,36.5
0.19605252,-0.14425457,1.0993443,-0.12530622,0.005077906,0.04968333,-0.18435797,-0.38991213,-0.346237,0.060143866,3.076633,-0.61847144,-0.00062401756,-0.09079468,0.02478373,-0.0018107806,-0.034042995,0.004891901,0.054991137,0.46400958,-1.4168017,1.9471635,-2.1021054,-1.5681795,2.4352076,-0.14334387,0.1020102,-0.11046699,-0.010772622,0.028469289,-0.19823726,-0.34476507,0.019153614,-9.11712,0.7911258,47.677036,-1.2018409,-2.046034,-3.138011,-0.38240242,0.30474606,-0.094824485,28.625,29.75,29.0,33.0,35.375,36.5
0.19805166,-0.33480012,0.5904813,-0.12446646,0.019020217,0.017941175,-0.17969242,-0.39012486,-0.34618968,0.06017134,3.0765316,-0.61839634,-0.00069948676,-0.091758005,0.024907015,-0.00040743212,-0.036481574,0.0071368045,0.049758192,0.46369687,-1.4166222,1.9469002,-2.1021292,-1.5681189,2.434861,-0.1451083,0.09970185,-0.11096102,-0.011060869,0.029663226,-0.1947646,-0.15322891,-0.076614454,-9.212888,0.78217715,47.695843,-1.1905704,-2.0502965,-3.210977,-0.38954836,0.31608093,-0.091660336,28.625,29.75,29.0,33.0,35.375,36.5
0.20005172,0.12628429,0.25410363,0.08320179,0.012622324,0.011056712,-0.174529,-0.39027762,-0.34613073,0.06015048,3.0765412,-0.6182873,-0.0006325529,-0.09173913,0.02506253,-0.0016686444,-0.036140036,0.0039788377,0.04236578,0.46343276,-1.416417,1.9467095,-2.1021168,-1.5680827,2.4345276,-0.14601222,0.1026086,-0.11160459,-0.010352073,0.030754214,-0.18827514,-0.15322891,-0.05746084,-9.059659,0.73069996,47.67793,-1.3089662,-1.9602562,-3.2532067,-0.39201006,0.30743408,-0.16212457,28.625,29.75,29.0,33.0,35.375,36.5
0.20205186,-0.16801886,0.039154116,-0.19960283,0.019164678,-0.019652436,-0.16775432,-0.3904905,-0.3460571,0.060155395,3.0765078,-0.6181684,-0.0006845416,-0.092099965,0.024525624,-0.0008056913,-0.03721737,0.005408904,0.03704592,0.46309686,-1.4162132,1.9464697,-2.1021407,-1.5680584,2.4341218,-0.14551161,0.10189875,-0.1128084,-0.010200336,0.031079981,-0.1824521,0.019153614,0.019153614,-9.097966,0.85826975,47.689575,-1.2433449,-1.9805393,-3.1778977,-0.39406815,0.31367,-0.24567097,28.625,29.75,29.0,33.0,35.375,36.5
0.20405214,0.45971304,0.6213102,0.022441348,0.010118268,-0.0064189644,-0.17082006,-0.39065763,-0.34602556,0.06014012,3.0764341,-0.61804575,-0.0006355862,-0.093950145,0.026763069,-0.0017813317,-0.035997055,0.0038139448,0.025800265,0.4628308,-1.415996,1.946266,-2.1021883,-1.567963,2.4337885,-0.15081024,0.104181774,-0.113262326,-0.01004616,0.030696014,-0.17650397,0.1340753,0.05746084,-9.212888,0.81351066,47.67614,-1.1133384,-2.0493178,-3.3240006,-0.3815258,0.33399814,-0.3762967,28.625,29.75,29.0,33.0,35.375,36.5
0.20605217,0.68181306,0.6370522,-0.19432151,0.006805684,-0.004188449,-0.17147738,-0.39084807,-0.34596065,0.06013686,3.0763805,-0.6179973,-0.0006058897,-0.09399465,0.026542827,-0.0020996626,-0.036696307,0.0018128188,0.02202896,0.46250704,-1.4157915,1.9460386,-2.1021879,-1.567902,2.4334414,-0.15136287,0.10562476,-0.11450499,-0.008761191,0.03221681,-0.17328233,0.17238252,0.05746084,-9.155427,0.7933669,47.68062,-1.1887044,-1.9886494,-3.2797852,-0.38382745,0.3438991,-0.4375456,28.625,29.75,29.0,33.0,35.375,36.5
0.2080524,0.98941195,0.27029577,-0.1698511,0.0012204779,-0.005250576,-0.17168808,-0.39101884,-0.3459009,0.060120378,3.0763657,-0.6178401,-0.0005743224,-0.09504202,0.026743535,-0.0021298835,-0.038829703,0.0006964547,0.021013906,0.46221802,-1.4155867,1.9458464,-2.1022117,-1.5678533,2.433056,-0.15413533,0.10676802,-0.11581776,-0.008530006,0.03463358,-0.1750359,0.21068975,0.15322891,-9.155427,0.8247004,47.711063,-1.1313751,-2.0318718,-3.3320336,-0.38231897,0.32680696,-0.5053622,28.625,29.75,29.0,33.0,35.375,36.5
0.21005252,0.37752667,-0.019923361,-0.46976417,-0.017662369,-0.019957703,-0.17314355,-0.39122456,-0.3458625,0.060134,3.076279,-0.6177408,-0.00054031,-0.09559787,0.027266303,-0.002283559,-0.039383505,-3.1831467e-05,0.030298986,0.46190533,-1.4153585,1.9455479,-2.1021879,-1.567757,2.4326925,-0.15602668,0.107281536,-0.11613748,-0.008261973,0.0354973,-0.1862097,0.21068975,0.28730422,-9.232041,0.8157518,47.71823,-1.0362804,-2.0272593,-3.3468585,-0.38961935,0.32794613,-0.44575822,28.625,29.75,29.0,33.0,35.375,36.5
0.21205193,0.703723,-0.3705093,-0.41425428,-0.030812861,0.00026457777,-0.18600507,-0.39139262,-0.3457925,0.060101997,3.0762596,-0.61763287,-0.00046680463,-0.09543196,0.027236676,-0.0028721024,-0.040593106,-0.0025720638,0.043917768,0.46159285,-1.4151418,1.9453801,-2.1022236,-1.567696,2.432315,-0.15720935,0.1084654,-0.11636581,-0.007424209,0.03775535,-0.20100898,0.24899697,0.28730422,-9.404425,0.7597976,47.71017,-1.0662091,-2.017628,-3.4138312,-0.4181056,0.2855637,-0.30654743,28.625,29.75,29.0,33.0,35.375,36.5
0.21405202,0.50846916,-0.5872271,-1.001964,-0.0432019,0.007772599,-0.18276677,-0.39161447,-0.3457283,0.06011916,3.0761974,-0.6174827,-0.00049715844,-0.096789636,0.027583705,-0.0039374223,-0.04075278,-0.00532064,0.05111672,0.46124375,-1.4149361,1.9451045,-2.1022236,-1.5676359,2.4318802,-0.15984578,0.11281765,-0.11916047,-0.0065419436,0.039163865,-0.21083827,0.21068975,0.3256114,-9.423578,0.85155696,47.71554,-0.88886005,-2.0490115,-3.29761,-0.42974395,0.26664072,-0.21058789,28.625,29.75,29.0,33.0,35.375,36.5
0.21605223,-0.094606474,-0.8186546,-0.60161436,-0.045244023,0.016086211,-0.17777453,-0.39176863,-0.34568772,0.06008404,3.07614,-0.6173002,-0.00031524728,-0.098737635,0.02908958,-0.0019914964,-0.04266894,-0.0020000418,0.04947962,0.46094236,-1.4146972,1.9449128,-2.102235,-1.5674914,2.431472,-0.16432191,0.10918982,-0.119483985,-0.006366642,0.039406773,-0.21367902,-0.11492168,0.30645782,-9.461885,0.8940802,47.661808,-0.842625,-1.9449195,-3.5254996,-0.4580031,0.27850136,-0.14491448,28.625,29.75,29.0,33.0,35.375,36.5
0.21805215,-0.79665947,-0.6888079,-0.6050122,-0.04009065,0.035283595,-0.16108333,-0.3919728,-0.34562033,0.060093727,3.076131,-0.61708933,-0.00032510262,-0.0986113,0.027966047,-0.0035966875,-0.04282912,-0.0050895754,0.045520514,0.4606189,-1.4144914,1.9446486,-2.1022112,-1.5674552,2.431018,-0.16310962,0.114043,-0.12136066,-0.0066482667,0.04091768,-0.20850268,-0.30645782,0.28730422,-9.5385,0.72622824,47.66987,-0.96057355,-2.0191586,-3.2657423,-0.4549896,0.23711842,-0.17809135,28.625,29.75,29.0,33.0,35.375,36.5
0.22005251,-1.0393666,-0.51060647,-0.82542807,-0.028461678,0.05394971,-0.16693771,-0.39214554,-0.3455637,0.06007334,3.0760958,-0.6170101,-0.00024099997,-0.0997258,0.026737135,-0.0016319938,-0.04719508,-0.0024197698,0.03808068,0.4603189,-1.4142638,1.9444336,-2.1022112,-1.5673822,2.4306731,-0.16357799,0.11229203,-0.12380776,-0.006786653,0.043620385,-0.20152748,-0.38307226,0.28730422,-9.672575,0.77545905,47.685097,-0.9950632,-1.9294751,-3.3862877,-0.46682623,0.21060261,-0.2914794,28.625,29.75,29.0,33.0,35.375,36.5
0.22205241,-1.0312585,-0.40101084,-0.85802,-0.022419892,0.07249461,-0.173629,-0.3923689,-0.3455314,0.060096063,3.0759447,-0.6168082,-0.00025146737,-0.09966969,0.026044127,-0.0020093524,-0.048363052,-0.003929878,0.034319725,0.45997116,-1.414059,1.9441575,-2.1022594,-1.5672373,2.4302185,-0.1633171,0.11394631,-0.12493996,-0.006449647,0.04535477,-0.19749749,-0.4405331,0.30645782,-9.653421,0.83365434,47.70211,-1.0629058,-1.8814291,-3.2657824,-0.48157594,0.16769585,-0.35237867,28.625,29.75,29.0,33.0,35.375,36.5
0.22405219,-0.826212,-0.28331706,-0.86519694,-0.03227751,0.09138728,-0.17545782,-0.39255306,-0.3454901,0.060090132,3.075859,-0.6167151,-0.00015181897,-0.102252446,0.025922218,-0.00093149743,-0.050405763,-0.0013364683,0.032509066,0.4596582,-1.4138302,1.9439052,-2.1022475,-1.5671171,2.4298582,-0.16573516,0.11520097,-0.12870078,-0.007136378,0.0460347,-0.19810146,-0.47884035,0.28730422,-9.653421,0.7933669,47.72002,-1.0955018,-1.996181,-3.196937,-0.47653955,0.12678926,-0.3921526,28.625,29.75,29.0,33.0,35.375,36.5
0.22605231,-0.65156466,-0.11592501,-0.84396833,-0.04256325,0.10215174,-0.18081634,-0.39276212,-0.34543288,0.060082417,3.0758147,-0.6165492,-0.0001537727,-0.10174174,0.026702605,-0.0023269115,-0.049398266,-0.0037128264,0.0377399,0.45933384,-1.4135896,1.9436544,-2.1022837,-1.567057,2.429436,-0.16669767,0.116497174,-0.12693767,-0.0075706425,0.046221863,-0.20429316,-0.5363012,0.34476504,-9.634268,0.8806493,47.661808,-1.0087161,-1.9483993,-3.4467385,-0.47968447,0.10487442,-0.39944863,28.625,29.75,29.0,33.0,35.375,36.5
0.2280525,-1.0967933,-0.101993665,-0.7869454,-0.044771895,0.09814849,-0.17318064,-0.39297518,-0.3453614,0.06008977,3.0757504,-0.6164334,-0.0001461879,-0.10322901,0.02663584,-0.0014784975,-0.049827714,-0.0014554374,0.048732553,0.45897356,-1.4133853,1.9434026,-2.1022837,-1.5669855,2.4290116,-0.16743107,0.116968855,-0.12940042,-0.007717495,0.045651786,-0.21601686,-0.6703765,0.24899697,-9.749189,0.8493211,47.705692,-0.9555124,-1.9494749,-3.2710266,-0.5116234,0.08768052,-0.28400633,28.625,29.75,29.0,33.0,35.375,36.5
0.2300526,-1.2683959,-0.22958423,-0.7908565,-0.03397312,0.098989256,-0.1768966,-0.393158,-0.34533015,0.060082998,3.07569,-0.61616737,-3.6145288e-05,-0.105131224,0.027226383,-0.00097034086,-0.050083574,0.00037047637,0.056063157,0.4586727,-1.4131446,1.9431385,-2.1022718,-1.5668539,2.4285522,-0.16971573,0.11784719,-0.13148694,-0.008179268,0.045104064,-0.22563149,-0.6895301,0.24899697,-9.691729,0.8247004,47.704796,-1.0122534,-1.9219486,-3.2849424,-0.5163727,0.072290435,-0.17882186,28.625,29.75,29.0,33.0,35.375,36.5
0.2320552,-0.8847855,0.58915675,-0.62934524,-0.025970485,0.11677672,-0.18437271,-0.39340615,-0.34525847,0.06008084,3.0756114,-0.6160931,-6.9813315e-05,-0.10652705,0.02669622,0.000120885714,-0.050795328,0.0034482162,0.060660247,0.45828885,-1.4128805,1.9428505,-2.1023195,-1.5667938,2.428132,-0.16945134,0.118063144,-0.13410696,-0.008800198,0.044411425,-0.22996087,-0.80445176,0.15322891,-9.595961,0.8851263,47.707485,-1.1831052,-1.8068434,-3.2272437,-0.53096807,0.05102084,-0.107623085,28.625,29.75,29.0,33.0,35.375,36.5
0.23405236,-1.4959291,0.48974684,-0.6977849,-0.0006124781,0.11122492,-0.16997229,-0.39362124,-0.3451966,0.06006761,3.0755627,-0.61591464,6.4601095e-06,-0.10756645,0.026817936,-0.0008186386,-0.050528206,0.0031155846,0.05420831,0.45792872,-1.4126151,1.9425753,-2.1023204,-1.566698,2.4276667,-0.17041652,0.121175386,-0.1352198,-0.010366366,0.044307802,-0.22447261,-0.7278373,0.038307227,-9.710882,0.82022345,47.69763,-1.2117074,-2.0794067,-3.2579753,-0.4970268,0.051866934,-0.14570042,28.625,29.75,29.0,33.0,35.375,36.5
0.23605168,-1.8418177,0.67577666,-0.61289895,0.02241157,0.097289875,-0.17211229,-0.39382774,-0.3451506,0.060072314,3.0754704,-0.6157657,7.558955e-06,-0.10855547,0.026903633,-0.0010022215,-0.05040119,0.0037266545,0.045760285,0.45760444,-1.4123983,1.9423236,-2.1023567,-1.5666021,2.427261,-0.17109314,0.12281012,-0.13651791,-0.011189118,0.043919176,-0.21669777,-0.6703765,-0.15322891,-9.595961,0.80679786,47.672558,-1.2739594,-1.909939,-3.2226515,-0.49989626,0.017812576,-0.2499705,28.625,29.75,29.0,33.0,35.375,36.5
0.23805179,-0.92030364,0.9449362,-0.5465478,0.037803505,0.0982271,-0.1711853,-0.39408714,-0.34510136,0.06009223,3.075369,-0.6155778,-8.793924e-05,-0.11012999,0.027588362,-0.0012364279,-0.049570534,0.004799123,0.036159147,0.45724383,-1.4121455,1.9420007,-2.1024168,-1.5665306,2.4267962,-0.1727941,0.124718525,-0.13797148,-0.012236202,0.04270665,-0.20879298,-0.5554548,-0.17238252,-9.5385,0.7665104,47.66808,-1.1555802,-2.1696484,-3.1988125,-0.48624802,0.017116152,-0.34247112,28.625,29.75,29.0,33.0,35.375,36.5
0.24005194,-0.54517114,1.2070037,-0.5715521,0.03483147,0.07708924,-0.17566212,-0.39430216,-0.3450499,0.060092777,3.0752718,-0.6154843,-4.6188714e-05,-0.11164186,0.028561335,-0.0014589119,-0.04737177,0.0058590295,0.02997136,0.45689577,-1.4119047,1.9417251,-2.1024287,-1.5664238,2.426402,-0.17417625,0.12666382,-0.13969839,-0.012409926,0.04026475,-0.20398875,-0.45968673,-0.22984336,-9.500193,0.76874626,47.67614,-1.4188083,-2.0863614,-3.2269692,-0.4753511,0.032613333,-0.47623622,28.625,29.75,29.0,33.0,35.375,36.5
0.2420521,0.1617195,1.3564957,-0.53992844,0.018897383,0.07810215,-0.1920092,-0.39453304,-0.34498277,0.06008525,3.0752585,-0.61534524,-6.898981e-05,-0.11199331,0.029644279,-0.0028821817,-0.0440135,0.004768404,0.033376634,0.4565595,-1.4116275,1.9414257,-2.102441,-1.5663999,2.4259808,-0.17469476,0.12944742,-0.1396249,-0.012763353,0.037759386,-0.2079155,-0.34476504,-0.1340753,-9.461885,0.8672237,47.696735,-1.3694003,-2.1858141,-3.264866,-0.47633758,0.042575836,-0.5200763,28.625,29.75,29.0,33.0,35.375,36.5
0.24405237,-0.5208361,0.9633957,-0.41375357,0.014161826,0.047678087,-0.19060121,-0.394764,-0.3449145,0.060074918,3.0751936,-0.61520916,-0.000101718724,-0.11330635,0.03137712,-0.0026837979,-0.04265952,0.005711045,0.044882108,0.4561984,-1.4113752,1.9411749,-2.1025126,-1.5663403,2.425543,-0.17780493,0.12912491,-0.13982116,-0.012399782,0.036201373,-0.22253191,-0.2681506,-0.11492168,-9.481039,0.89631605,47.690468,-1.2356753,-2.155133,-3.3192842,-0.4755468,0.06536715,-0.41149098,28.625,29.75,29.0,33.0,35.375,36.5
0.24605249,-0.2586835,0.870154,-0.2121877,0.0011077991,0.047186766,-0.19383535,-0.39499456,-0.34485367,0.06009175,3.0750859,-0.6150469,-7.9247184e-05,-0.11556778,0.033132445,-0.002469642,-0.041030142,0.0065709352,0.05531286,0.45581323,-1.4111584,1.9408869,-2.1025121,-1.5662216,2.4250703,-0.18164204,0.13052402,-0.14218326,-0.011381817,0.034431066,-0.23680003,-0.05746084,-0.076614454,-9.385271,0.7642693,47.68062,-1.1377194,-2.1466105,-3.2152863,-0.47231874,0.089774475,-0.27981636,28.625,29.75,29.0,33.0,35.375,36.5
0.24805288,0.16580626,0.75138164,-0.20487788,-0.00012486275,0.046345558,-0.18608515,-0.39523095,-0.34479064,0.0600922,3.075054,-0.614826,-0.00011099997,-0.11692364,0.03367277,-0.001336649,-0.040327918,0.009354207,0.061187197,0.45546475,-1.4108944,1.9405869,-2.102536,-1.5661739,2.424588,-0.18251087,0.1297628,-0.14403024,-0.010904229,0.032619286,-0.24354447,-0.095768064,-0.11492168,-9.423578,0.7866488,47.681515,-1.0681695,-2.1181102,-3.4116526,-0.48470023,0.10050412,-0.16643652,28.625,29.75,29.0,33.0,35.375,36.5
0.25005287,0.115464024,0.28551117,-0.14018449,0.01040358,0.03468943,-0.1716397,-0.3954466,-0.3446834,0.060057506,3.075065,-0.61469907,-2.1083875e-05,-0.116653435,0.034189712,-0.002754333,-0.038419116,0.006846121,0.05600152,0.45505667,-1.4106292,1.94036,-2.1025355,-1.5661267,2.4240992,-0.18268542,0.13233179,-0.14389011,-0.01051716,0.03199206,-0.23853563,-0.21068975,0.076614454,-9.289502,0.7418897,47.698532,-1.0786873,-2.289196,-3.3845582,-0.47454017,0.13855442,-0.18260998,28.625,29.75,29.0,33.0,35.375,36.5
0.2520524,-0.060084462,-0.029496253,-0.018862529,0.0015778271,0.03330356,-0.1760545,-0.39570323,-0.34463248,0.06008236,3.0749407,-0.61462027,-0.00011690856,-0.11699508,0.034402948,-0.0032402438,-0.037745934,0.0065976293,0.048970822,0.45469654,-1.4103891,1.9400376,-2.1025836,-1.5660542,2.4237058,-0.18293132,0.13368587,-0.14426936,-0.010973657,0.03150944,-0.23174737,-0.22984336,0.15322891,-9.174581,0.7978386,47.684196,-1.0777282,-1.9625609,-3.3856144,-0.49517393,0.15969588,-0.29878283,28.625,29.75,29.0,33.0,35.375,36.5
0.2540525,-0.36373976,0.16482005,-0.16188,-0.011203954,0.022917047,-0.18879671,-0.39593855,-0.34456575,0.060084168,3.0749044,-0.61436665,-0.00014000083,-0.11951352,0.035026398,-0.0016751818,-0.039166495,0.009438504,0.04242513,0.45433554,-1.4101368,1.9397482,-2.102608,-1.5659946,2.423191,-0.18613356,0.13329461,-0.14751847,-0.0104999235,0.03154327,-0.22840066,-0.114921674,0.21068975,-9.193734,0.76874626,47.68599,-1.0869353,-2.0796812,-3.325326,-0.49486995,0.15874413,-0.34840715,28.625,29.75,29.0,33.0,35.375,36.5
0.25605258,-0.12268282,-0.4757865,-0.187076,-0.0043851305,0.015116431,-0.17187051,-0.39617705,-0.34448949,0.060065515,3.074841,-0.6142764,-8.700986e-05,-0.120030366,0.03585229,-0.0023891216,-0.038990863,0.0074061626,0.04199534,0.4539389,-1.4098477,1.9394625,-2.1026313,-1.5659097,2.4227462,-0.18840896,0.13492481,-0.14798622,-0.009721022,0.03229882,-0.23024385,-0.038307227,0.19153613,-9.212888,0.7597976,47.690468,-1.0441157,-2.0640147,-3.5232217,-0.5001461,0.19161716,-0.4114105,28.625,29.75,29.0,33.0,35.375,36.5
0.25805205,-0.76481426,-1.3534497,-0.03790192,-0.007843815,-0.010945434,-0.16420159,-0.39642274,-0.34441233,0.060059827,3.0748217,-0.614076,-0.00011664577,-0.12165102,0.03630942,-0.0017484188,-0.040182658,0.008674692,0.04878609,0.4535661,-1.4095714,1.9391621,-2.1026556,-1.565874,2.4222507,-0.19086717,0.13524708,-0.14983058,-0.009799136,0.03286449,-0.23948938,-0.076614454,0.24899697,-9.059659,0.8112748,47.64389,-0.9461176,-1.9968606,-3.3448868,-0.49822986,0.19811475,-0.33776975,28.625,29.75,29.0,33.0,35.375,36.5
0.26005214,-0.46319503,-0.61499876,-0.17525882,-0.011793479,-0.013065936,-0.18335906,-0.39666963,-0.34434664,0.060080037,3.0747805,-0.6138303,-0.00017823536,-0.12448014,0.037644535,-0.0008552917,-0.03993893,0.011796722,0.059233386,0.45320517,-1.4093311,1.9388388,-2.1026556,-1.5658263,2.4217417,-0.19459613,0.13581388,-0.15241659,-0.010383005,0.031354398,-0.25366554,-0.038307227,0.3256114,-9.078813,0.81351066,47.647476,-0.9755321,-2.036531,-3.2701807,-0.50154006,0.22509205,-0.21526752,28.625,29.75,29.0,33.0,35.375,36.5
0.26205224,-0.052671853,-0.22673002,-0.1439068,-0.019599866,0.00950615,-0.1818819,-0.3969316,-0.3442548,0.060060695,3.0747483,-0.6137269,-0.00016430902,-0.12499522,0.037707623,-0.00077960273,-0.039605796,0.0113919135,0.06411013,0.45278513,-1.4090182,1.938527,-2.102679,-1.5657786,2.4212613,-0.19496788,0.13693699,-0.15420786,-0.009154058,0.03126838,-0.258913,0.019153614,0.34476504,-9.136273,0.84708,47.698532,-1.0130303,-1.9109066,-3.2232194,-0.52121377,0.2683311,-0.11374685,28.625,29.75,29.0,33.0,35.375,36.5
0.26405248,-0.62929523,-0.9444246,-0.1981901,-0.0138319265,0.011089516,-0.17012994,-0.3971672,-0.34419948,0.060067,3.0746827,-0.61346704,-0.00012130277,-0.12470815,0.036313407,-0.000902047,-0.041550547,0.010672618,0.06069364,0.4524135,-1.4087536,1.9382046,-2.102667,-1.5656694,2.4207356,-0.19344932,0.13824885,-0.15539494,-0.009474326,0.033331465,-0.2539709,-0.13407528,0.36391866,-9.251195,0.8224646,47.695843,-1.0405111,-1.9371476,-3.2681234,-0.5201885,0.27523443,-0.117315724,28.625,29.75,29.0,33.0,35.375,36.5
0.26605248,-0.72066224,-0.9476081,-0.38005996,-0.024121178,0.027773283,-0.17364046,-0.3974083,-0.34411559,0.06004605,3.0746794,-0.6132791,-0.0001450349,-0.12530132,0.036081173,-0.00089976814,-0.042628467,0.010342643,0.05165141,0.45204133,-1.4084647,1.9379295,-2.1027153,-1.5656456,2.4202466,-0.19413248,0.13936684,-0.15672863,-0.009460075,0.034428705,-0.24560718,-0.34476507,0.38307226,-9.251195,0.8806493,47.703007,-1.0516894,-2.0017848,-3.2288842,-0.53063905,0.26687786,-0.22919782,28.625,29.75,29.0,33.0,35.375,36.5
0.26805258,-0.78018844,-0.4795569,-0.25624344,-0.045906413,0.047753613,-0.18515936,-0.39764333,-0.3440461,0.060024094,3.074659,-0.6130893,-7.750437e-05,-0.12579219,0.03595108,-0.0016035062,-0.042653408,0.008537912,0.04040546,0.45166904,-1.4081515,1.9376177,-2.1027148,-1.5655731,2.4197583,-0.19470236,0.14214097,-0.1585069,-0.008869537,0.03520451,-0.23492807,-0.45968673,0.40222588,-9.32781,0.8090337,47.695843,-1.1410694,-1.9967711,-3.267208,-0.54283464,0.27312917,-0.3702139,28.625,29.75,29.0,33.0,35.375,36.5
0.2700526,-1.276497,-1.1256378,-0.5854548,-0.020977093,0.042441346,-0.18166581,-0.3979138,-0.34399575,0.060048502,3.0745375,-0.61297077,-0.00012303729,-0.12637648,0.035711985,-0.00041722902,-0.04501072,0.009446848,0.0351582,0.45128474,-1.407876,1.9372467,-2.1027267,-1.5654763,2.4193156,-0.19575562,0.14068839,-0.15974927,-0.008012457,0.036947094,-0.23072584,-0.3256114,0.3256114,-9.423578,0.7978386,47.698532,-1.2809242,-1.9495101,-3.2813358,-0.563252,0.28465542,-0.4838538,28.625,29.75,29.0,33.0,35.375,36.5
0.2720525,-0.97599965,0.27834815,-0.5276309,-0.031012423,0.041370682,-0.19616753,-0.3981743,-0.343911,0.06004997,3.0744727,-0.61285716,-0.00011657659,-0.12739402,0.035628743,-0.0002648012,-0.045341656,0.0098455865,0.042644504,0.45086434,-1.4075991,1.9369234,-2.1027267,-1.5654043,2.4188325,-0.19646291,0.14216743,-0.1618944,-0.0077750944,0.03712282,-0.23891649,-0.21068975,0.28730422,-9.500193,0.7777002,47.695843,-1.2097328,-1.9841387,-3.2849193,-0.5752344,0.28188217,-0.47444248,28.625,29.75,29.0,33.0,35.375,36.5
0.27405253,-1.208332,-0.22502382,-0.38709012,-0.00883518,0.04501028,-0.18988693,-0.39843687,-0.34383625,0.060039155,3.0744162,-0.6126827,-0.00014955051,-0.12676522,0.03632884,-0.0014578848,-0.044004045,0.008541577,0.058958713,0.450468,-1.4072986,1.9366144,-2.1027868,-1.5653447,2.4183345,-0.1966816,0.14285687,-0.15981078,-0.008673257,0.036584713,-0.25544962,-0.2681506,0.22984336,-9.423578,0.8403672,47.711964,-1.1893044,-1.9360249,-3.2876816,-0.55988306,0.3114318,-0.3425036,28.625,29.75,29.0,33.0,35.375,36.5
0.2760526,-0.765942,-0.08537403,-0.45364076,0.0034337402,0.057660077,-0.20207499,-0.3986726,-0.34378153,0.060015883,3.0743399,-0.6124516,-5.684197e-05,-0.12814346,0.036012717,-0.0013371295,-0.045271914,0.009459667,0.069290206,0.45008394,-1.4069856,1.936314,-2.1028225,-1.5652121,2.4178157,-0.19769064,0.14471355,-0.16206968,-0.009542721,0.037383165,-0.26678625,-0.22984336,0.11492168,-9.423578,0.8493211,47.66539,-1.185528,-1.973543,-3.252193,-0.5549908,0.334121,-0.20429426,28.625,29.75,29.0,33.0,35.375,36.5
0.27805176,-0.8627699,0.35024387,-0.38199228,-0.00083506433,0.053582843,-0.19099201,-0.39893436,-0.34370258,0.060012177,3.0743468,-0.61214775,-4.311388e-05,-0.12879007,0.035042815,-0.0017806743,-0.04719666,0.008487537,0.06620441,0.44968835,-1.4066726,1.9359549,-2.1027987,-1.5651635,2.4172294,-0.19777137,0.1475245,-0.16419995,-0.010181333,0.039537497,-0.26377308,-0.34476507,0.076614454,-9.423578,0.87393653,47.647476,-1.382391,-1.9455212,-3.353396,-0.5502794,0.31057894,-0.18783824,28.625,29.75,29.0,33.0,35.375,36.5
0.28005204,-1.8260133,0.77024555,-0.4921045,-0.002050925,0.021923639,-0.18057731,-0.3991945,-0.34362397,0.059997994,3.0743043,-0.61195296,-2.3023686e-05,-0.13040267,0.034674518,-0.00060535077,-0.048963483,0.010905305,0.05710773,0.44927987,-1.4063604,1.9356316,-2.102823,-1.565091,2.4167047,-0.19869848,0.14761277,-0.166946,-0.010480935,0.040058598,-0.2555994,-0.53630114,-0.019153614,-9.404425,0.8627467,47.677036,-1.4529834,-2.1795402,-3.3083992,-0.5581384,0.31790373,-0.29256517,28.625,29.75,29.0,33.0,35.375,36.5
0.28205213,-0.62579715,0.7489165,-0.6254239,0.015739344,0.028692018,-0.19612,-0.39946955,-0.3435318,0.06000994,3.0742102,-0.6119182,-4.478195e-05,-0.13010861,0.03590503,-0.0028399718,-0.04743979,0.0062772133,0.050421912,0.44883525,-1.4060946,1.9352969,-2.1028225,-1.565019,2.4162505,-0.20089056,0.15092072,-0.16581607,-0.0100795925,0.040709402,-0.25110132,-0.3256114,0.0,-9.481039,0.92764956,47.688675,-1.3346663,-2.2826679,-3.3417878,-0.56586516,0.33732885,-0.37824267,28.625,29.75,29.0,33.0,35.375,36.5
0.28405237,-0.677107,0.25188863,-0.7863544,0.03151641,0.014100671,-0.19399723,-0.3997249,-0.34347454,0.059984703,3.0741713,-0.6116607,-1.3073509e-05,-0.13226157,0.037136193,-0.0020973848,-0.04820825,0.008213198,0.049658675,0.4484619,-1.4057465,1.9349626,-2.1028712,-1.5649351,2.4157212,-0.20469593,0.1507831,-0.16730112,-0.010480627,0.040589843,-0.25414202,-0.17238252,-0.11492168,-9.481039,0.87617236,47.681515,-1.209033,-2.1391492,-3.318973,-0.56641066,0.34275985,-0.3924313,28.625,29.75,29.0,33.0,35.375,36.5
0.2860524,-1.0997089,0.53411704,-0.50514823,0.005247255,0.0034780474,-0.1971148,-0.40000054,-0.34339386,0.05999562,3.074137,-0.61141646,-6.0360886e-05,-0.13393545,0.03768282,-0.0019558994,-0.049466807,0.008461382,0.05933279,0.44805285,-1.4054577,1.9346036,-2.1028712,-1.5648869,2.415164,-0.20765123,0.15217172,-0.16923666,-0.01060511,0.04169688,-0.2667648,-0.19153613,-0.019153614,-9.5385,0.9186956,47.70838,-1.2018373,-2.2191248,-3.3510022,-0.559669,0.36104193,-0.33431047,28.625,29.75,29.0,33.0,35.375,36.5
0.28805247,-0.866459,0.5618396,-0.52003884,-0.008140937,0.022504346,-0.2042109,-0.4002678,-0.3433174,0.059997033,3.0740557,-0.6112025,-3.4946188e-05,-0.13461544,0.03813798,-0.0025620281,-0.04913385,0.0068521104,0.070875615,0.44762045,-1.4051685,1.9342684,-2.1028826,-1.5647787,2.4146082,-0.20919414,0.1544366,-0.17073661,-0.009653332,0.042178035,-0.2798465,-0.28730422,-0.038307227,-9.442732,0.92764956,47.67345,-1.1573578,-2.216178,-3.3322268,-0.58056355,0.36756578,-0.15545295,28.625,29.75,29.0,33.0,35.375,36.5
0.2900526,-0.9525756,0.7648454,-0.716339,-0.012185402,0.034394726,-0.19474995,-0.40053326,-0.34325153,0.05997559,3.0740237,-0.61090934,-2.9308608e-06,-0.13538863,0.038467363,-0.002678371,-0.04991906,0.0060129603,0.071231514,0.44722378,-1.4048198,1.9339217,-2.1029189,-1.5646943,2.4140325,-0.21098924,0.15558046,-0.17196882,-0.009098927,0.043277487,-0.28199244,-0.2681506,0.0,-9.5385,0.81351066,47.688675,-1.1417611,-2.2846172,-3.3569875,-0.5844267,0.3713252,-0.09256567,28.625,29.75,28.9375,33.0,35.375,36.5
0.2920517,-1.0727711,0.16670148,-0.7188712,-0.007936146,0.043776844,-0.18417363,-0.40080333,-0.34315577,0.05998783,3.0739365,-0.6107241,2.196091e-05,-0.13620049,0.038864445,-0.0023320564,-0.05129776,0.005749517,0.06100498,0.44675526,-1.4045676,1.9335989,-2.102906,-1.5645856,2.4134593,-0.21308513,0.15560426,-0.17294681,-0.008506419,0.04462587,-0.2738549,-0.38307226,0.038307227,-9.5385,0.9567419,47.70032,-1.0989218,-2.1977355,-3.3760242,-0.5945498,0.3552519,-0.14749512,28.625,29.75,28.9375,33.0,35.375,36.5
0.29405192,-0.82950157,0.0033916642,-0.6875556,-0.0085428525,0.05313607,-0.18597096,-0.40104795,-0.34309536,0.059954304,3.0739472,-0.6104486,0.00011811053,-0.13711897,0.039191462,-0.00304081,-0.05186418,0.004008565,0.04706653,0.4463941,-1.4041941,1.9332398,-2.1028945,-1.5645131,2.4129245,-0.21507809,0.15819292,-0.17442533,-0.008332713,0.04583447,-0.2619057,-0.40222588,0.15322891,-9.5385,0.8627467,47.691364,-1.0162299,-2.3893542,-3.3741052,-0.6133917,0.36385083,-0.2865224,28.625,29.75,28.9375,33.0,35.375,36.5
0.29605228,-1.0192518,-0.43808535,-0.5193533,-0.011789527,0.055297602,-0.18272765,-0.40132844,-0.34300864,0.059940763,3.0738297,-0.6102951,0.00012441268,-0.13749829,0.039169203,-0.0037937802,-0.052744124,0.0020442167,0.0375257,0.44592592,-1.4038932,1.9329413,-2.102978,-1.5643929,2.4123755,-0.21623899,0.16043852,-0.17537037,-0.008246301,0.047468543,-0.25351632,-0.49799395,0.24899697,-9.346964,0.8672237,47.650166,-1.0141522,-2.2701182,-3.428592,-0.6318262,0.352014,-0.45668864,28.625,29.75,28.9375,33.0,35.375,36.5
0.29805195,-1.2135208,-0.057917494,-0.3931525,-0.025596023,0.060394526,-0.18983473,-0.40164194,-0.3429392,0.059975553,3.0737464,-0.61013967,1.5240082e-05,-0.13861443,0.03854501,-0.0027786605,-0.05584299,0.0038895523,0.041876476,0.4455058,-1.4035813,1.9324979,-2.1029665,-1.5643438,2.411869,-0.21722205,0.16001353,-0.1770194,-0.009114468,0.049529918,-0.25883743,-0.57460845,0.21068975,-9.404425,0.9388393,47.657326,-1.0420847,-2.236838,-3.524499,-0.6275885,0.34273118,-0.48762962,28.625,29.75,28.9375,33.0,35.375,36.5
0.30005243,-1.2175001,0.13516125,-0.77834904,-0.01591981,0.04646764,-0.19368128,-0.4018845,-0.34287846,0.059961047,3.073635,-0.60993594,0.00013936014,-0.13993247,0.037938304,-0.0018113338,-0.058571577,0.0049791858,0.055252206,0.44508573,-1.4032811,1.932186,-2.102978,-1.5641755,2.4113357,-0.21843909,0.16047893,-0.17987706,-0.008729264,0.051604602,-0.27342182,-0.19153613,0.17238252,-9.519346,0.8314132,47.692257,-1.194978,-2.285584,-3.3640194,-0.6303654,0.3312855,-0.3678906,28.625,29.75,28.9375,33.0,35.375,36.5
0.30205247,-1.0179701,-0.76128536,-0.6090496,-0.01728948,0.04232279,-0.18191831,-0.40218166,-0.3427783,0.05994739,3.0736046,-0.6097307,0.00014837156,-0.13963121,0.036057197,-0.0012453634,-0.06169258,0.0050119255,0.06877999,0.4446183,-1.4029325,1.9318155,-2.10299,-1.5641145,2.410744,-0.21652165,0.16084991,-0.18166627,-0.0085769575,0.054482855,-0.2850207,-0.3830723,0.24899697,-9.519346,0.91198283,47.661808,-1.3498747,-2.1942601,-3.4229927,-0.6435213,0.2790677,-0.23341803,28.625,29.75,28.9375,33.0,35.375,36.5
0.30405262,-1.2566881,-0.58396715,-0.3093377,-0.03839489,0.04610798,-0.17446011,-0.40247127,-0.3427093,0.05994017,3.073508,-0.6095399,0.00018361979,-0.14026998,0.034942776,-0.00045757566,-0.06353074,0.006706393,0.06846339,0.44417474,-1.4025842,1.9314336,-2.1030142,-1.5639938,2.4101934,-0.21552925,0.1611886,-0.18377766,-0.00907806,0.05543255,-0.28370467,-0.6895301,0.22984336,-9.3661175,0.8873621,47.68062,-1.4196832,-2.142091,-3.4700162,-0.644011,0.2764795,-0.20855215,28.625,29.75,28.9375,33.0,35.375,36.5
0.30605194,-1.1289401,-0.8070754,-0.6920003,-0.011622835,0.041332178,-0.17578006,-0.4027267,-0.3426232,0.059912782,3.0734415,-0.60937905,0.00029243823,-0.1406727,0.034693047,-0.00032761833,-0.06649028,0.0058383653,0.058438644,0.4437302,-1.4022595,1.9311222,-2.1030266,-1.5638732,2.4096568,-0.21719027,0.16133751,-0.18423298,-0.009267497,0.05845081,-0.27533063,-0.21068975,0.30645782,-9.423578,0.88960326,47.691364,-1.4332063,-2.1943305,-3.4570022,-0.6279029,0.23709944,-0.3070496,28.625,29.75,28.9375,33.0,35.375,36.5
0.30805203,-0.33251897,-0.19711287,-0.7999542,-0.032422416,0.053255644,-0.18666388,-0.40302512,-0.34256893,0.0599388,3.0733356,-0.6091504,0.00022908434,-0.1428577,0.03523518,-0.00013212934,-0.06690502,0.006590582,0.05069347,0.44332135,-1.4019465,1.9307026,-2.103038,-1.5637769,2.4091187,-0.21986261,0.16364795,-0.18740588,-0.009247384,0.058517125,-0.27024916,-0.076614454,0.21068975,-9.519346,0.8784135,47.661808,-1.3553879,-2.2166464,-3.3600364,-0.64583886,0.18645397,-0.3886012,28.625,29.75,28.9375,33.0,35.375,36.5
0.31005225,-0.35826728,-0.6662441,-0.5887541,-0.014808053,0.025247205,-0.18476884,-0.4033291,-0.34246767,0.05992648,3.0732806,-0.608984,0.00023155569,-0.14477281,0.03570429,0.00071382587,-0.06777837,0.008542965,0.053427428,0.4428406,-1.401598,1.9303316,-2.1030624,-1.5637048,2.408541,-0.22212602,0.16410998,-0.18991295,-0.009258516,0.05851822,-0.2752431,0.019153614,0.2681506,-9.461885,0.9545008,47.675243,-1.270679,-2.0154586,-3.3157632,-0.6507026,0.18616758,-0.42861935,28.625,29.75,28.9375,33.0,35.375,36.5
0.3120524,-0.20794423,-0.19804084,-0.87668633,-0.02298227,0.015357451,-0.18338403,-0.40362632,-0.34242314,0.059932362,3.0731533,-0.60870045,0.00022738811,-0.14596434,0.03543052,0.00093660597,-0.06951209,0.009200213,0.066400215,0.4424201,-1.4012489,1.9299244,-2.1031106,-1.5635604,2.4079595,-0.22335298,0.16543588,-0.19187361,-0.009800047,0.05991487,-0.28943148,-0.17238252,0.2681506,-9.461885,0.90527004,47.690468,-1.2543398,-2.2349377,-3.3241076,-0.645735,0.17598887,-0.3191062,28.625,29.75,28.9375,33.0,35.375,36.5
0.31405255,-0.09885656,-0.6888741,-1.1297028,-0.016325098,0.009943733,-0.18560655,-0.40390864,-0.34233987,0.05992813,3.0730731,-0.6084504,0.00030345048,-0.14671393,0.036029205,0.00071864895,-0.070950136,0.00874763,0.07454567,0.4419514,-1.4009246,1.9295548,-2.1030986,-1.5634273,2.4073446,-0.22586133,0.16591212,-0.19183281,-0.010385422,0.061488856,-0.30007824,0.076614454,0.28730422,-9.5385,0.89631605,47.664497,-1.1479207,-2.0734658,-3.3506374,-0.6561749,0.12664461,-0.1675549,28.625,29.75,28.9375,33.0,35.375,36.5
0.31605217,0.33388492,-0.4374792,-1.004255,-0.03455428,0.01779556,-0.18139632,-0.40418488,-0.3422725,0.059923094,3.0729795,-0.60820544,0.00034476505,-0.14904813,0.03810473,0.0011639575,-0.06816551,0.011015644,0.06914299,0.44151825,-1.4006003,1.9291953,-2.103122,-1.5632976,2.4067702,-0.22911465,0.16661385,-0.19383897,-0.009879385,0.05802181,-0.29793772,0.038307227,0.30645782,-9.653421,0.900793,47.67166,-1.1310608,-2.0534346,-3.2999408,-0.6506305,0.13726528,-0.16113034,28.625,29.75,28.9375,33.0,35.375,36.5
0.31805232,0.003624058,-0.6751538,-0.7230387,-0.031257086,0.01860879,-0.1716014,-0.40451437,-0.34219566,0.05994028,3.0728378,-0.6080685,0.00027624588,-0.15050654,0.038758785,0.0017112195,-0.06829473,0.011890722,0.05705196,0.44103745,-1.4002637,1.9287761,-2.1031697,-1.5631889,2.406222,-0.23112813,0.16715445,-0.19591153,-0.009208362,0.057766065,-0.28785285,-0.2681506,0.22984336,-9.500193,0.94331104,47.658226,-1.1134391,-2.0197685,-3.3933806,-0.66069216,0.12865028,-0.2507183,28.625,29.75,28.9375,33.0,35.375,36.5
0.3200524,0.0088995565,0.09234622,-0.74791574,-0.018607993,0.030316615,-0.18059048,-0.40480652,-0.34212023,0.05994591,3.0727336,-0.607825,0.00033232622,-0.15186308,0.040431336,0.0007111414,-0.06679685,0.010255002,0.042511534,0.44056875,-1.3999381,1.9283828,-2.1031582,-1.5630454,2.4056144,-0.2345967,0.16977379,-0.1968261,-0.008808633,0.057083093,-0.2767797,-0.36391866,0.22984336,-9.481039,0.83813137,47.667187,-0.98591554,-2.1927574,-3.3553429,-0.6539428,0.10671878,-0.415739,28.625,29.75,28.9375,33.0,35.375,36.5
0.3220524,-0.697828,-0.14499879,-0.75893843,0.019801008,0.03804522,-0.18310401,-0.40509498,-0.34203333,0.05990988,3.0727053,-0.6076855,0.00036879646,-0.15344726,0.041126333,0.00031995325,-0.06508384,0.011085074,0.03984883,0.44013634,-1.3995408,1.9280108,-2.103194,-1.5629858,2.4050984,-0.23577014,0.17244582,-0.19901076,-0.009280612,0.05518494,-0.2752961,-0.28730422,0.095768064,-9.500193,0.97240865,47.66271,-0.95644975,-2.2505898,-3.2905984,-0.67302996,0.123375446,-0.5181324,28.625,29.75,28.9375,33.0,35.375,36.5
0.32405263,-0.27561095,0.80404323,-0.60341096,0.02659177,0.07407704,-0.1826498,-0.40540478,-0.34196126,0.059924286,3.0725417,-0.60752773,0.0003993232,-0.15347208,0.04092847,0.000585199,-0.06422857,0.012277903,0.05730038,0.43964452,-1.3992168,1.9276046,-2.103206,-1.5628184,2.4045289,-0.23451474,0.17248297,-0.19974992,-0.009089648,0.054034974,-0.29149276,-0.076614454,0.019153614,-9.519346,0.88960326,47.698532,-1.0389855,-2.1429977,-3.3637586,-0.6614456,0.1345053,-0.42534605,28.625,29.75,28.9375,33.0,35.375,36.5
0.32605174,-1.2425667,0.6258903,-0.56969976,0.034940287,0.08414736,-0.18624964,-0.4056917,-0.34187755,0.059910607,3.072471,-0.6073301,0.00044941038,-0.15383016,0.040080413,0.0007986524,-0.06287061,0.01350405,0.07583176,0.43918926,-1.398868,1.9272326,-2.1032174,-1.5627106,2.403959,-0.23210193,0.17427252,-0.20252922,-0.0084422035,0.052396066,-0.3076159,-0.15322891,0.05746084,-9.442732,0.9231726,47.67166,-1.2781492,-2.176941,-3.3727603,-0.66968775,0.13618898,-0.2573851,28.625,29.75,28.9375,33.0,35.375,36.5
0.32805192,-1.223501,0.47990057,-0.28050867,0.0309308,0.11638018,-0.18196373,-0.40600684,-0.34182417,0.059927028,3.0723844,-0.6069494,0.00041996632,-0.15396133,0.040916987,0.00040168283,-0.061040644,0.013309169,0.07530006,0.43875745,-1.3985072,1.9267787,-2.1032293,-1.5625919,2.4033003,-0.23252763,0.17476985,-0.20234397,-0.008107313,0.050871816,-0.30751142,-0.38307226,0.05746084,-9.404425,0.900793,47.677036,-1.367312,-2.1966937,-3.4454644,-0.68834305,0.14673932,-0.1965982,28.625,29.75,28.9375,33.0,35.375,36.5
0.33005184,-1.7291036,0.40730685,-0.4332531,0.02386616,0.10494307,-0.17184183,-0.40632617,-0.3417386,0.059918698,3.072281,-0.60676056,0.0004352863,-0.15457253,0.041529965,-0.00019255692,-0.05831417,0.013509872,0.06862951,0.43826547,-1.3981341,1.9263719,-2.1032655,-1.5624727,2.4027035,-0.23230192,0.17684719,-0.20350105,-0.008038079,0.04831636,-0.30062184,-0.36391866,0.019153614,-9.423578,0.87393653,47.682407,-1.3996373,-2.2264054,-3.3796556,-0.69086176,0.16337267,-0.28699753,28.625,29.75,28.9375,33.0,35.375,36.5
0.3320521,-1.0761199,0.55816734,-0.42396104,0.011789701,0.09034894,-0.1815692,-0.40661964,-0.34162155,0.05989783,3.0722911,-0.60655516,0.00049174204,-0.15579385,0.042263187,-0.0010020524,-0.056206428,0.013060233,0.06298888,0.4377851,-1.3977727,1.92599,-2.1032293,-1.562425,2.4020934,-0.23333128,0.18010479,-0.20555185,-0.007938569,0.04658062,-0.29601726,-0.3256114,-0.038307227,-9.3661175,1.0373062,47.677036,-1.4601796,-2.4525259,-3.4231443,-0.7095613,0.2072547,-0.37518418,28.625,29.75,28.9375,33.0,35.375,36.5
0.3340522,0.6219763,1.2614413,-0.29063985,-0.003952293,0.07383035,-0.2000912,-0.40692696,-0.3415354,0.059889883,3.0722363,-0.6062913,0.00042020134,-0.15789972,0.043432266,-0.00033541047,-0.05492628,0.01586369,0.06634548,0.43734047,-1.3974245,1.925619,-2.1033013,-1.5623654,2.401491,-0.23551092,0.18064117,-0.20768984,-0.008241914,0.044303905,-0.30155858,-0.30645782,-0.038307227,-9.423578,0.83813137,47.690468,-1.4633999,-2.2516363,-3.4059763,-0.69658244,0.24205908,-0.3803957,28.625,29.75,28.9375,33.0,35.375,36.5
0.33605188,0.16757083,0.8835365,-0.3916974,-0.007085012,0.0376414,-0.19526443,-0.40727633,-0.34143192,0.059902355,3.0721335,-0.6061859,0.0003434541,-0.16060193,0.044571146,0.00013019156,-0.055067,0.018769056,0.07853371,0.43682367,-1.3970636,1.925176,-2.103326,-1.5622944,2.4009216,-0.23892644,0.18194179,-0.20997226,-0.009773918,0.043336745,-0.3171618,-0.28730422,0.019153614,-9.308656,0.9567419,47.651955,-1.487387,-2.2992833,-3.3616168,-0.67027664,0.29148838,-0.26809797,28.625,29.75,28.9375,33.0,35.375,36.5
0.33805224,-0.47653747,0.4291172,-0.72213084,0.008143723,0.0058901217,-0.18854798,-0.4075838,-0.34134227,0.05988742,3.0720868,-0.6058297,0.00037798283,-0.16156504,0.0452249,0.00038831387,-0.05539116,0.019132933,0.08349761,0.43634287,-1.3966912,1.9247817,-2.1033494,-1.5621861,2.400224,-0.24080877,0.18221998,-0.2110418,-0.009337247,0.043549452,-0.32400557,-0.05746084,0.17238252,-9.308656,0.87393653,47.647476,-1.4912508,-2.2567544,-3.3630552,-0.6694925,0.3166123,-0.11679183,28.625,29.75,28.9375,33.0,35.375,36.5
0.34005237,0.34858406,0.31894875,-0.611482,-0.0069518453,0.04155106,-0.17664681,-0.4079077,-0.34126037,0.05991541,3.0719917,-0.60560423,0.00036715463,-0.16227512,0.0453379,0.00044143127,-0.05663338,0.01801145,0.075590454,0.43586227,-1.3963546,1.9243149,-2.1033013,-1.5620774,2.3996146,-0.24239856,0.1833409,-0.21276222,-0.008250128,0.045155928,-0.3176768,-0.2681506,0.15322891,-9.404425,0.9545008,47.67614,-1.3142478,-2.2378728,-3.3540525,-0.6795141,0.3191837,-0.14288208,28.625,29.75,28.9375,33.0,35.375,36.5
0.34205258,-1.16528,-0.80673426,-0.34944335,-0.017662792,0.03142386,-0.1663886,-0.40822238,-0.34115797,0.059885766,3.0719492,-0.6053578,0.0003931065,-0.1638407,0.04627131,0.0014125344,-0.058414977,0.018660465,0.057785086,0.43536887,-1.3959587,1.9239315,-2.1033485,-1.561993,2.3989725,-0.24593765,0.18255693,-0.21432284,-0.007325387,0.046441153,-0.30340233,-0.5363012,0.21068975,-9.32781,1.0261165,47.695843,-1.1810807,-2.0964086,-3.3456092,-0.70203483,0.335698,-0.2859342,28.625,29.75,28.9375,33.0,35.375,36.5
0.34405455,-1.305963,-1.1337333,-0.5937383,-0.026013916,0.05596657,-0.16372454,-0.4085177,-0.34105334,0.05986236,3.0719173,-0.6051658,0.00046379564,-0.16601999,0.04664723,0.003283927,-0.061128885,0.021246571,0.04593655,0.43488795,-1.3955866,1.9235481,-2.1033366,-1.5619086,2.3983755,-0.24903771,0.18127765,-0.21730074,-0.006591126,0.047775116,-0.29464668,-0.57460845,0.19153613,-9.346964,0.9298854,47.682407,-1.1068193,-2.0918312,-3.27,-0.7195046,0.33666873,-0.4730859,28.625,29.75,28.9375,33.0,35.375,36.5
0.3460518,-0.6891197,-0.10695798,-0.66433114,-0.036781576,0.08385086,-0.18840978,-0.40886423,-0.3409619,0.0598689,3.0718417,-0.60499114,0.00042116217,-0.16758321,0.04596434,0.0042752977,-0.0647332,0.02224158,0.053487655,0.43439534,-1.3951898,1.9230703,-2.1033366,-1.5618352,2.3977835,-0.25075164,0.18199511,-0.220466,-0.006447013,0.050721765,-0.3038937,-0.26815057,0.21068975,-9.404425,0.92093146,47.691364,-1.016636,-2.0374742,-3.2602272,-0.71593904,0.33064216,-0.4775042,28.625,29.75,28.9375,33.0,35.375,36.5
0.34805197,-0.61568636,-0.16820584,-0.9040014,-0.02241983,0.073966995,-0.18216012,-0.40920824,-0.34088367,0.059881143,3.0716994,-0.60479873,0.00038697416,-0.16793263,0.045859892,0.004076315,-0.06563054,0.02115171,0.07017009,0.43389133,-1.3948168,1.9226159,-2.1033723,-1.5617026,2.3971775,-0.25152987,0.18336296,-0.22185312,-0.0055992333,0.05216094,-0.32134262,-0.19153613,0.2681506,-9.576807,0.9388393,47.67345,-1.1584692,-1.947566,-3.2121048,-0.72493386,0.3217783,-0.30936176,28.625,29.75,28.9375,33.0,35.375,36.5
0.35005337,-0.92818207,-0.38759008,-0.58028215,-0.023567582,0.067825496,-0.16844335,-0.40955073,-0.3407777,0.05990548,3.0715992,-0.604623,0.0003487363,-0.16728653,0.04634107,0.0030626266,-0.063782625,0.02017449,0.07625711,0.43336362,-1.3944802,1.9221624,-2.103348,-1.5616072,2.3965528,-0.25087628,0.18423517,-0.2205324,-0.0060179858,0.050984688,-0.3267783,-0.5363012,0.2873042,-9.5385,0.9365982,47.668976,-1.1759436,-1.9231889,-3.2870388,-0.7354304,0.34271073,-0.20721585,28.625,29.75,28.9375,33.0,35.375,36.5
0.35205317,-0.120770805,0.26672825,-0.83062106,-0.014913902,0.08098601,-0.18430153,-0.40991,-0.34068406,0.059910502,3.0714908,-0.6043933,0.00030587756,-0.16721803,0.045672547,0.0019471174,-0.06440535,0.01864632,0.07102782,0.43283594,-1.3940824,1.9216951,-2.1033843,-1.5614985,2.3958955,-0.2501752,0.18706651,-0.22110191,-0.007150884,0.052207172,-0.32083598,-0.45968673,0.21068975,-9.5385,0.91421866,47.684196,-1.2351313,-2.0720584,-3.431632,-0.73741645,0.32995105,-0.25872397,28.625,29.75,28.9375,33.0,35.375,36.5
0.35405222,-0.8190084,0.1386388,-0.8336702,-0.018329212,0.060305495,-0.17913257,-0.4102237,-0.34058765,0.059896767,3.0714462,-0.60415757,0.0003325546,-0.16636324,0.044699118,0.0005624714,-0.065867506,0.01571859,0.06597195,0.43235612,-1.3936975,1.9212769,-2.1033847,-1.5614136,2.395274,-0.24915704,0.18957531,-0.22074792,-0.007981971,0.054752916,-0.31474718,-0.30645782,0.15322891,-9.615114,0.90750587,47.64837,-1.254751,-2.114338,-3.52247,-0.7207663,0.35697955,-0.37397897,28.625,29.75,28.9375,33.0,35.375,36.5
0.35605356,-0.8376495,0.14841358,-0.36252624,-0.03079002,0.054048967,-0.18804722,-0.41056374,-0.3405005,0.059901584,3.0713701,-0.60385144,0.00029310075,-0.16706215,0.04481501,0.0008148994,-0.06718898,0.015775153,0.068775624,0.4318643,-1.3933134,1.920823,-2.1034086,-1.5613173,2.3946004,-0.2504934,0.18992278,-0.22183178,-0.0077591576,0.056004528,-0.31887615,-0.21068975,0.095768064,-9.595961,1.0395473,47.640312,-1.4136999,-2.0014076,-3.5546646,-0.73293775,0.3342466,-0.39909858,28.625,29.75,28.9375,33.0,35.375,36.5
0.35805252,-0.17583747,0.70501715,-0.5744993,-0.017965805,0.04666372,-0.19446869,-0.41088605,-0.34039629,0.059874564,3.0712838,-0.6036346,0.00036195928,-0.16790335,0.04599783,-0.0009456786,-0.0648328,0.01360872,0.082289524,0.43133548,-1.3929156,1.9204282,-2.1034448,-1.5611862,2.393947,-0.25234678,0.19406283,-0.22274047,-0.007816482,0.054901686,-0.33424786,-0.1340753,0.076614454,-9.519346,0.98807013,47.66987,-1.3584101,-2.1785252,-3.497721,-0.7292347,0.35207468,-0.27234903,28.625,29.75,28.9375,33.0,35.375,36.5
0.36005175,-0.017619666,0.5121921,-0.85142356,0.0062016076,0.027658833,-0.17938532,-0.4112436,-0.34032488,0.059887547,3.0711749,-0.6033225,0.00031582487,-0.16977876,0.046066348,-0.0010437468,-0.06668505,0.013686951,0.087852344,0.4308424,-1.3925064,1.919926,-2.1034687,-1.5610651,2.3932726,-0.25485912,0.19674818,-0.22558963,-0.008359125,0.05665677,-0.34230706,-0.038307227,0.05746084,-9.634268,0.9321212,47.675243,-1.3387603,-2.2495143,-3.4579792,-0.7296463,0.3514104,-0.12492095,28.625,29.75,28.9375,33.0,35.375,36.5
0.36205196,0.5430773,0.5387176,-0.62165433,-0.0017102287,0.026780125,-0.17930262,-0.41160908,-0.34023368,0.059914976,3.0710301,-0.6030693,0.00024817415,-0.17173181,0.04642863,-0.0006058565,-0.06926041,0.013980505,0.077366516,0.43030146,-1.3921454,1.9194478,-2.1034925,-1.5609325,2.392592,-0.25823623,0.19804314,-0.22811341,-0.00847371,0.058890432,-0.33517742,-0.05746084,0.095768064,-9.653421,0.91198283,47.695843,-1.2243738,-2.332604,-3.5042284,-0.69718003,0.3424687,-0.15829991,28.625,29.75,28.9375,33.0,35.375,36.5
0.36405262,0.6628931,0.33309406,-0.6102432,-0.013614244,0.02227881,-0.19078788,-0.41190898,-0.3401283,0.05989546,3.0709825,-0.60287803,0.00038130328,-0.17317562,0.046767287,0.00045555207,-0.072113454,0.014671185,0.060189575,0.42979673,-1.3917611,1.9190291,-2.103433,-1.5608119,2.3919735,-0.26118204,0.19737186,-0.22992143,-0.007890396,0.06110905,-0.32093477,-0.1340753,0.2681506,-9.481039,0.91198283,47.68599,-1.164733,-2.2547007,-3.4224043,-0.70543164,0.3267594,-0.34267694,28.625,29.75,28.9375,33.0,35.375,36.5
0.36605173,-0.18753764,-0.49685156,-0.8242541,-0.025848534,0.0037424793,-0.1810465,-0.41226414,-0.34002417,0.05989468,3.0708876,-0.6026895,0.0002878996,-0.17352007,0.047266018,0.0002748362,-0.07325767,0.013114877,0.05263436,0.42927977,-1.3913766,1.9185976,-2.1035044,-1.5607389,2.391351,-0.26316845,0.19787385,-0.23035035,-0.007031975,0.06282,-0.31534946,-0.22984336,0.30645782,-9.595961,0.94331104,47.693153,-1.1222725,-2.218587,-3.485368,-0.7107115,0.3057598,-0.46741858,28.625,29.75,28.9375,33.0,35.375,36.5
0.36805177,-0.20075002,-1.294919,-0.5056663,-0.059597906,0.034092396,-0.18862784,-0.41263413,-0.33995196,0.059908148,3.0707278,-0.60245705,0.00032374848,-0.17483045,0.045411747,0.0018429072,-0.076392494,0.014754083,0.0659485,0.42874005,-1.3909439,1.9180583,-2.1034915,-1.5605587,2.3906863,-0.26215094,0.19906385,-0.23572159,-0.005438646,0.06512004,-0.327627,-0.15322891,0.28730422,-9.595961,0.92764956,47.696735,-1.1411062,-2.2904553,-3.3067093,-0.73985183,0.2650184,-0.41513228,28.625,29.75,28.9375,33.0,35.375,36.5
0.37005243,-0.78079927,-1.0527211,-0.4484416,-0.07237978,0.03289154,-0.20358042,-0.4129843,-0.33984706,0.059926756,3.0706294,-0.60225827,0.00028252442,-0.17629427,0.04483374,0.0027137613,-0.07895383,0.015406171,0.07955798,0.42821154,-1.3905833,1.9175915,-2.1034796,-1.5604614,2.3900461,-0.26346093,0.20025972,-0.23937432,-0.0044285706,0.0673344,-0.34252802,0.0,0.34476504,-9.423578,0.9030289,47.690468,-1.1159947,-2.0805604,-3.266301,-0.7464795,0.2361916,-0.26723853,28.625,29.75,28.9375,33.0,35.375,36.5
0.37205172,-0.83353037,-0.9438985,-0.7578678,-0.037371464,0.0337435,-0.18221468,-0.4133106,-0.3397636,0.059914667,3.0705113,-0.6019672,0.0003528969,-0.17667018,0.044635024,0.0025027483,-0.082139276,0.013398432,0.077701494,0.42769533,-1.3901868,1.9171609,-2.1035035,-1.5602921,2.3893628,-0.26554334,0.2012577,-0.24019733,-0.004017572,0.07111013,-0.34272888,-0.26815057,0.28730422,-9.634268,0.9455522,47.711964,-1.0189432,-2.0868993,-3.2179575,-0.77005523,0.20244128,-0.2307125,28.625,29.75,28.9375,33.0,35.375,36.5
0.37405178,-1.0842468,-0.8174298,-0.76750284,-0.027704136,0.028388431,-0.17660809,-0.4136818,-0.33968914,0.059930723,3.0703652,-0.60169345,0.00033613743,-0.17710745,0.043827362,0.0030592487,-0.084961295,0.014120011,0.07041661,0.42716718,-1.3897665,1.9166354,-2.1035154,-1.5601357,2.3886821,-0.26563808,0.2011711,-0.24124904,-0.004699114,0.07338758,-0.33551705,-0.40222588,0.34476504,-9.653421,0.85155696,47.64927,-1.1716459,-1.896004,-3.2469697,-0.7571939,0.13117114,-0.30216908,28.625,29.75,28.9375,33.0,35.375,36.5
0.37605193,-0.7514373,-0.32139945,-0.35159066,-0.032384183,0.048779335,-0.19196182,-0.41403663,-0.33958644,0.059955087,3.0702012,-0.60154593,0.00033352952,-0.17682073,0.043655667,0.002771503,-0.08578629,0.013790776,0.06689432,0.4266033,-1.389418,1.91617,-2.103504,-1.5599793,2.388047,-0.2654235,0.20129259,-0.24061048,-0.005451259,0.07430911,-0.3317678,-0.36391866,0.34476504,-9.5385,0.88960326,47.67614,-1.272409,-1.924022,-3.41258,-0.7307286,0.12184909,-0.40880433,28.625,29.75,28.9375,33.0,35.375,36.5
0.37805212,-1.4635011,-0.34294668,-0.51357126,-0.026008839,0.05189857,-0.19501187,-0.4144249,-0.33951074,0.059967067,3.0700886,-0.6011323,0.00026418833,-0.17659923,0.043488517,0.0020949459,-0.085906886,0.01279438,0.07893191,0.42607534,-1.3889729,1.9156326,-2.1035516,-1.5598468,2.3872747,-0.26510587,0.20264658,-0.24068156,-0.005669569,0.074989855,-0.343475,-0.30645782,0.22984336,-9.557653,0.98135734,47.65464,-1.311969,-1.9495292,-3.4939446,-0.7347871,0.07172908,-0.37463588,28.625,29.75,28.9375,33.0,35.375,36.5
0.38005248,-0.7924957,-0.11138769,-0.4274929,-0.02238313,0.087055124,-0.19671205,-0.41478014,-0.33943188,0.05998897,3.0699384,-0.60086524,0.00027119264,-0.1775213,0.04345751,0.0027508126,-0.08598539,0.014643065,0.0926858,0.4255468,-1.3885884,1.91513,-2.1035392,-1.5596789,2.3865983,-0.26520222,0.20287804,-0.24254066,-0.00550708,0.07446119,-0.35732216,-0.22984336,0.1340753,-9.595961,0.9545008,47.66091,-1.3414283,-1.8518302,-3.5765295,-0.73801196,0.02314555,-0.18052849,28.625,29.75,28.9375,33.0,35.375,36.5
0.38205245,-0.50254273,0.6402242,-0.16959499,-0.012065883,0.087862484,-0.20270465,-0.41513878,-0.3393364,0.05998093,3.0698104,-0.6006126,0.0002962146,-0.17862307,0.044778615,0.0025796632,-0.083412915,0.016039573,0.08855439,0.42499498,-1.3881675,1.9146637,-2.1035755,-1.5595239,2.3859048,-0.26633486,0.20373127,-0.24316059,-0.005879127,0.07157232,-0.3543358,-0.21068975,-0.038307227,-9.442732,0.9701675,47.689575,-1.3020102,-1.8520975,-3.5668344,-0.73543745,0.047362126,-0.15732184,28.625,29.75,28.9375,33.0,35.375,36.5
