Tylouw/Master_Thesis_Code/training_data/batch_1/small_rod_t0.3/sample_97_session_3.csv
timestamp[s],tcp_force_x[N],tcp_force_y[N],tcp_force_z[N],tcp_force_rx[Nm?],tcp_force_ry[Nm?],tcp_force_rz[Nm?],tcp_pose_x[m],tcp_pose_y[m],tcp_pose_z[m],tcp_pose_rx[rot_vec_x],tcp_pose_ry[rot_vec_y],tcp_pose_rz[rot_vec_z],tcp_velo_x[m/s],tcp_velo_y[m/s],tcp_velo_z[m/s],tcp_velo_rx[rot_vec_x/s],tcp_velo_ry[rot_vec_y/s],tcp_velo_rz[rot_vec_z/s],q1[rad],q2[rad],q3[rad],q4[rad],q5[rad],q6[rad],qd1[rad/s],qd2[rad/s],qd3[rad/s],qd4[rad/s],qd5[rad/s],qd6[rad/s],tool_acc_x,tool_acc_y,tool_acc_z,current_of_whole_robot[A],voltage_of_whole_robot[V],current_J1[A],current_J2[A],current_J3[A],current_J4[A],current_J5[A],current_J6[A],temp_J1[C],temp_J2[C],temp_J3[C],temp_J4[C],temp_J5[C],temp_J6[C]
9.229989e-07,-0.49219504,-0.92613506,0.1371394,-0.028998548,0.017825877,-0.011787025,-0.38105297,-0.34852502,0.05996976,-3.0785046,0.62481755,-0.00014074419,0.002126495,0.0011450119,-0.0018303755,0.002332286,-0.0044795442,-0.00046761596,0.47782204,-1.425946,1.9577278,-2.1008327,-1.5707935,2.4527404,-6.566183e-05,-9.710383e-06,0.003938308,0.0011218141,0.0,0.00039973576,0.05746084,0.15322891,-8.734048,0.80456203,47.68599,0.03444397,-2.7889268,-2.5232022,-0.44260067,0.120399326,0.18208002,28.625,29.75,29.0,33.0625,35.4375,36.5
0.00205486,-0.689266,-0.56972826,0.14255962,-0.031512313,0.010506282,-0.006256574,-0.3810536,-0.348523,0.059959784,-3.0785124,0.6248,-0.00016240746,-0.0005275566,-0.00023893017,-0.002728338,-0.0010748805,0.0020457534,-0.0004978504,0.4778101,-1.4259326,1.9577392,-2.1008494,-1.5707816,2.4527166,-6.487308e-05,0.0034169378,0.0047177076,-0.010445489,0.0,0.0004332331,0.038307227,0.1340753,-8.810662,0.68818194,47.689575,0.018101677,-2.7497416,-2.5222802,-0.41588005,0.1503449,0.16966847,28.625,29.75,29.0,33.0625,35.4375,36.5
0.004054626,-0.39054385,-0.94542974,-0.08037904,-0.024224265,0.019607062,-0.008614067,-0.38105986,-0.3485398,0.059962332,-3.0785418,0.6247674,-0.00011907373,-0.0021165523,-0.0011296095,-0.002269953,-0.0033119414,0.0059693875,-0.00047190348,0.4778342,-1.4259205,1.9577278,-2.1008856,-1.5707816,2.4527166,-6.410295e-05,0.0041866256,0.0037827326,-0.014793727,0.00017008156,0.0004092328,0.11492168,0.1340753,-8.734048,0.78217715,47.695843,0.013016904,-3.1692052,-2.6711442,-0.2836525,0.13784829,0.16824439,28.625,29.75,29.0,33.0625,35.4375,36.5
0.006054242,-0.27668688,-0.5209274,0.042696748,-0.017902521,0.01144238,-0.013073026,-0.38106352,-0.3485303,0.059949018,-3.0785265,0.6248987,-0.00015814175,-0.0012348777,-0.0007037645,-0.0011235615,-0.0023268093,0.0038905118,-0.00044386895,0.47779807,-1.4259092,1.9577502,-2.100907,-1.5707573,2.4527643,-6.335097e-05,0.0019051125,0.0024078486,-0.00883861,0.00026219728,0.0003809253,0.095768064,0.22984336,-8.580819,0.8023209,47.70838,0.058047406,-3.1076388,-2.6052406,-0.29309484,0.12344212,0.16910216,28.625,29.75,29.0,33.0625,35.4375,36.5
0.008055188,0.39463705,0.18062349,-0.5806446,0.014671274,-0.010352667,-0.010642311,-0.38104907,-0.34854308,0.059945695,-3.078557,0.62475145,-0.00015720082,-0.00078924873,-0.00046863785,-3.5023215e-05,-0.0018091248,0.0029234553,-0.0004185238,0.4778342,-1.42591,1.9577612,-2.100918,-1.5707573,2.4527047,-6.2616375e-05,3.806421e-05,0.0010688946,-0.0045357835,0.00025406433,0.0003558451,0.0,0.15322891,-8.714894,0.7597976,47.716442,0.024714077,-2.8791852,-2.5354066,-0.35843837,0.13147663,0.15419415,28.625,29.75,29.0,33.0625,35.4375,36.5
0.010054818,0.22702675,0.23119077,-0.90168107,0.018989267,-0.016348727,-0.01216331,-0.38110238,-0.34851703,0.05996451,-3.078517,0.6249157,-7.944359e-05,-0.00033708583,-0.00024399969,3.0478106e-05,-0.00092003745,0.001155099,-0.00039602452,0.47776207,-1.4258981,1.9577016,-2.1009047,-1.5707935,2.4527402,-6.189867e-05,5.1067997e-07,0.0003363275,-0.0017865908,0.0002825956,0.0003338364,0.019153614,0.1340753,-9.002198,0.7239871,47.691364,-0.29386622,-2.3618069,-3.1125665,-0.34410208,0.099118836,0.13056923,28.625,29.75,29.0,33.0625,35.4375,36.5
0.012054396,0.09804206,-0.2069911,-0.8732551,-0.018114632,0.0020838904,-0.018840695,-0.38105,-0.34851435,0.05993393,-3.0784733,0.62486833,-0.00021035333,0.00062901096,0.00030197916,-0.0036452138,0.0031249807,-0.0064901323,-0.00033435627,0.47779807,-1.4258958,1.9577607,-2.1008685,-1.5707816,2.452752,-9.507269e-05,0.007332892,4.512263e-06,-0.00013787804,0.00020908128,0.00024010112,0.11492168,0.076614454,-9.251195,0.7486078,47.651955,-0.48577067,-2.3002644,-3.3127508,-0.34852356,0.0715857,0.09981701,28.625,29.75,29.0,33.0,35.4375,36.5
0.014055059,-0.10381682,-0.8263439,-1.0218928,-0.049337633,0.02992217,-0.019620176,-0.38106674,-0.3485108,0.059929468,-3.0784657,0.6248129,-0.00021699417,-0.003955716,0.0010246614,-0.0040474487,0.004246033,-0.008564447,-0.0055254856,0.47778398,-1.4258565,1.957723,-2.100855,-1.5707935,2.4527044,-0.005596108,0.0157939,-0.009491407,0.0032546644,0.00015454774,-6.4244356e-05,0.038307227,0.17238252,-9.423578,0.8314132,47.690468,-0.40152216,-2.947478,-3.0736709,-0.34568048,0.060634427,0.10068434,28.625,29.75,29.0,33.0,35.4375,36.5
0.016054828,-0.7446375,-1.61448,-1.1130081,-0.06652873,0.05517558,-0.018548645,-0.38103876,-0.34850433,0.059899062,-3.0784106,0.6248025,-0.00038541816,-0.0053956597,0.0026530977,-0.0028508469,0.0041119372,-0.0078054946,-0.007545555,0.47778285,-1.4258095,1.9577225,-2.100783,-1.5707697,2.4527037,-0.009675186,0.013785258,-0.010442671,0.0054794326,-7.322207e-05,-0.0021231193,-0.1340753,0.21068975,-9.5385,0.8179876,47.698532,-0.22637439,-2.6567998,-3.1921296,-0.3762979,0.031055313,0.06715745,28.625,29.75,29.0,33.0,35.4375,36.5
0.01805514,-1.3982002,-1.276053,-1.1862545,-0.09567238,0.07434657,-0.025386633,-0.38105983,-0.3485019,0.05989902,-3.0784225,0.6247831,-0.000370226,-0.005331216,0.0025400869,-0.0030759543,0.0045795115,-0.008156642,-0.004351406,0.47775897,-1.4257853,1.9576977,-2.100795,-1.5707697,2.4526663,-0.009248639,0.014495576,-0.010771222,0.0056249383,-0.00032876115,-0.004889985,-0.21068975,0.3256114,-9.672575,0.72622824,47.689575,-0.31870472,-2.5661972,-3.4535642,-0.37193236,0.014705813,0.099036515,28.625,29.75,29.0,33.0,35.4375,36.5
0.020054696,-2.522125,-2.0028648,-1.3620839,-0.08299708,0.076466285,-0.020174287,-0.38104504,-0.34849674,0.05988349,-3.0783617,0.6248478,-0.00043135445,-0.005702438,0.0020834894,-0.003064591,0.004663835,-0.008121877,-0.0035239793,0.4777712,-1.4257609,1.9576973,-2.1007593,-1.5707816,2.4527266,-0.008721098,0.01582237,-0.012373957,0.0059090084,-0.0004227486,-0.005188702,-0.4405331,0.38307226,-9.749189,0.78217715,47.67614,-0.50519896,-2.404038,-3.5106173,-0.35522294,0.018071916,0.08734606,28.625,29.75,29.0,33.0,35.4375,36.5
0.022054685,-2.3559017,-1.6482147,-1.464379,-0.066645645,0.08459033,-0.020931935,-0.3810504,-0.34847888,0.059841484,-3.0783057,0.62485707,-0.00053473416,-0.0069829756,0.0025427663,-0.0035588504,0.005469844,-0.009544386,-0.005682162,0.47773448,-1.4256759,1.9576963,-2.1007588,-1.5707816,2.4527028,-0.0106829675,0.01886195,-0.014983333,0.0071128807,-0.00048800104,-0.0049906597,-0.6703765,0.4405331,-9.864111,0.81351066,47.719128,-0.5656629,-2.4602213,-3.511387,-0.34595877,0.009482912,0.060494304,28.625,29.75,29.0,33.0,35.4375,36.5
0.024054721,-1.8656992,-1.0331274,-1.505172,-0.050963778,0.080630854,-0.025288744,-0.38109127,-0.34848607,0.0598669,-3.0783384,0.62488306,-0.00046174467,-0.008361811,0.0032208196,-0.0031246843,0.0059985695,-0.0086884145,-0.007317143,0.4777097,-1.4256638,1.9576243,-2.1007583,-1.5707821,2.4526901,-0.01260186,0.019435182,-0.016794285,0.007836617,-0.0013534256,-0.0052720127,-0.61291564,0.3256114,-9.883265,0.8090337,47.7245,-0.55218464,-2.4373856,-3.4081612,-0.34946948,0.0061698933,0.06512059,28.625,29.75,29.0,33.0,35.4375,36.5
0.026055014,-1.9206654,-1.2003015,-1.6186596,-0.052963234,0.06946154,-0.030138172,-0.3810771,-0.34847608,0.05984455,-3.0782998,0.6248562,-0.0005752765,-0.009673282,0.003426451,-0.002328735,0.00547855,-0.00764944,-0.0075608124,0.47769728,-1.4256277,1.9576234,-2.1007102,-1.5707701,2.4526658,-0.014169297,0.019615766,-0.019020556,0.008720455,-0.0013734009,-0.0065946514,-0.53630114,0.24899697,-9.864111,0.7597976,47.666286,-0.63124764,-2.4629068,-3.4967766,-0.3448937,-0.03725016,0.042503275,28.625,29.75,29.0,33.0,35.4375,36.5
0.028054489,-1.9244113,-1.3092629,-1.4848129,-0.047619335,0.06722352,-0.035723094,-0.3811144,-0.34847718,0.059848037,-3.078301,0.6248762,-0.0005347979,-0.010452887,0.004181136,-0.002560257,0.0067601847,-0.008583235,-0.008283902,0.47767273,-1.4255794,1.9575628,-2.1007211,-1.5707825,2.4526536,-0.015771458,0.02102481,-0.020419238,0.010130857,-0.0020826554,-0.007471649,-0.7086837,0.22984336,-9.825804,0.75084364,47.684196,-0.6167775,-2.4184055,-3.4940152,-0.3384415,-0.05144367,0.03787124,28.625,29.75,29.0,33.0,35.4375,36.5
0.030054752,-2.2746933,-1.3049004,-1.6021409,-0.038403757,0.070420936,-0.04018116,-0.3811496,-0.348464,0.059840064,-3.0782545,0.62494355,-0.00056676404,-0.0117321275,0.004153519,-0.0021251834,0.0075913053,-0.007169654,-0.008373807,0.47762474,-1.4255071,1.9574903,-2.100685,-1.5707949,2.4526536,-0.01600075,0.022403723,-0.023080673,0.010544886,-0.0034762006,-0.0076065673,-0.6512228,0.15322891,-9.80665,0.7418897,47.67166,-0.6340632,-2.3885276,-3.4196281,-0.3398179,-0.04505973,0.0005838431,28.625,29.75,29.0,33.0,35.4375,36.5
0.032054245,-2.1969554,-0.8194089,-1.4635373,-0.029241964,0.08572833,-0.048979804,-0.38118303,-0.34847927,0.059864096,-3.078278,0.624891,-0.00048285528,-0.013042156,0.004196262,-0.0012774362,0.0075438595,-0.005324317,-0.008254591,0.47763637,-1.4254831,1.9574054,-2.1006734,-1.5708188,2.4526296,-0.016762149,0.02262437,-0.02536206,0.010947613,-0.0042863297,-0.0084845945,-0.59376204,0.038307227,-9.749189,0.779936,47.670765,-0.6047712,-2.333376,-3.3959951,-0.32058895,-0.066523254,-0.01007067,28.625,29.75,29.0,33.0,35.4375,36.5
0.03405445,-1.6311766,-0.1810361,-1.3174329,-0.01515895,0.09476704,-0.06686054,-0.38119406,-0.34846666,0.059844296,-3.0782478,0.62498033,-0.00056567945,-0.013175123,0.0041941493,-0.0014127474,0.008033474,-0.006684772,-0.007551491,0.47758827,-1.4254347,1.9573926,-2.1006606,-1.5707949,2.452641,-0.017005038,0.023822775,-0.026800307,0.012619852,-0.0040964754,-0.009430193,-0.59376204,0.038307227,-9.768343,0.7620334,47.68599,-0.69553983,-2.3853183,-3.4339178,-0.32652873,-0.08859493,-0.019109692,28.625,29.75,29.0,33.0,35.4375,36.5
0.036055014,-1.9049821,-0.24278557,-1.4398235,0.009494644,0.06964365,-0.068133555,-0.38122928,-0.3484598,0.059834428,-3.0782292,0.62501514,-0.0006475817,-0.01437853,0.004121466,-0.0011608608,0.0075573088,-0.006214781,-0.0074622547,0.47752795,-1.4253504,1.9573082,-2.1006129,-1.5707711,2.4526048,-0.018119104,0.025213774,-0.029003708,0.01279504,-0.0038957475,-0.010632436,-0.4213795,-0.095768064,-9.691729,0.7642693,47.689575,-0.6226642,-2.407083,-3.4147148,-0.33841875,-0.11583223,-0.021844052,28.625,29.75,29.0,33.0,35.4375,36.5
0.038054638,-1.0914928,-0.04840677,-1.4326311,0.012869624,0.06091331,-0.07982552,-0.38126397,-0.34845513,0.059847604,-3.078222,0.6250325,-0.00059388974,-0.016882606,0.004086466,-4.402018e-05,0.0069255936,-0.0028828,-0.0076639894,0.47750327,-1.4253261,1.9572476,-2.100601,-1.5707954,2.452592,-0.019736214,0.026312057,-0.0326505,0.012096885,-0.004876282,-0.01204368,-0.4213795,-0.15322891,-9.595961,0.7709874,47.660015,-0.68765724,-2.3285143,-3.3407125,-0.3240452,-0.1308778,-0.025278237,28.625,29.75,29.0,33.0,35.4375,36.5
0.040054116,-1.0390766,-0.0017183106,-1.4982215,0.01017059,0.04438656,-0.08922974,-0.38129264,-0.34845844,0.05983591,-3.0781977,0.62502766,-0.0006103429,-0.018618243,0.0049193143,0.00022604728,0.008835446,-0.00027693287,-0.008089861,0.47749096,-1.4252417,1.9571756,-2.1005895,-1.5708083,2.4525797,-0.020937337,0.027310103,-0.0342104,0.011232187,-0.007776295,-0.012811503,-0.26815057,-0.19153613,-9.557653,0.78217715,47.704796,-0.631101,-2.2948582,-3.3517847,-0.3105467,-0.13172264,-0.018805653,28.625,29.75,29.0,33.0,35.4375,36.5
0.042054478,-1.2970707,-0.75837845,-1.5202938,0.010550976,0.037715096,-0.100929536,-0.38134915,-0.34843615,0.059845414,-3.0781677,0.62509847,-0.00051786285,-0.020050896,0.0055578984,0.0005390721,0.011272914,0.0017808665,-0.008252277,0.4774309,-1.4252053,1.957115,-2.1006014,-1.5708574,2.4525678,-0.021371964,0.028511249,-0.036350004,0.011473141,-0.010890796,-0.01307623,-0.21068975,-0.15322891,-9.576807,0.77545905,47.690468,-0.6189757,-2.3378172,-3.3461747,-0.3069915,-0.099543154,-0.010794029,28.625,29.75,29.0,33.0,35.4375,36.5
0.044055052,-1.166727,-0.41988602,-1.2325608,-0.018290386,0.046499383,-0.10829075,-0.38136956,-0.3484165,0.059836715,-3.078116,0.62520415,-0.0006005988,-0.02152014,0.0069681243,0.0008197071,0.0154294595,0.0035750736,-0.00985497,0.47737056,-1.4251572,1.9570664,-2.1005414,-1.5708474,2.45258,-0.022300983,0.029499069,-0.038444832,0.012912316,-0.015408764,-0.01239122,-0.30645782,0.038307227,-9.595961,0.7732232,47.690468,-0.6105078,-2.2519948,-3.3342595,-0.31920883,-0.062832445,-0.043654297,28.625,29.75,29.0,33.0,35.4375,36.5
0.046055205,-0.8849898,-0.6674349,-1.2676969,-0.021188043,0.06317554,-0.120644026,-0.38141963,-0.34840637,0.059860006,-3.0781007,0.6252217,-0.0005625829,-0.022731313,0.008015182,0.0008886619,0.01764379,0.004610786,-0.011681358,0.47732204,-1.4251211,1.9569582,-2.1004808,-1.5708717,2.4525445,-0.023691772,0.030361556,-0.039698496,0.013408783,-0.017852727,-0.011949875,-0.21068975,0.11492168,-9.557653,0.84484416,47.696735,-0.57398903,-2.2567582,-3.3054168,-0.31729043,-0.042341866,-0.054543,28.625,29.75,29.0,33.0,35.4375,36.5
0.048054904,-1.0924494,-1.0153052,-1.249326,-0.026189202,0.05533259,-0.12577046,-0.38147098,-0.3483882,0.059840206,-3.0780313,0.62522715,-0.00057286565,-0.023866003,0.008457487,0.001460298,0.01810578,0.0050214254,-0.013367575,0.47727346,-1.4250009,1.9568609,-2.1004565,-1.5709199,2.4525082,-0.025134252,0.030874802,-0.04195498,0.015000315,-0.018453497,-0.011703083,-0.095768064,0.21068975,-9.557653,0.7530795,47.704796,-0.5778083,-2.2587981,-3.3872721,-0.31276408,-0.010712406,-0.062199235,28.625,29.75,29.0,33.0,35.4375,36.5
0.05005409,-1.0059059,-1.5146358,-1.2915828,-0.033002082,0.03644151,-0.13290885,-0.38150874,-0.3483701,0.059841763,-3.078,0.6253363,-0.0005628638,-0.024296911,0.0074398355,0.002052342,0.014903424,0.00480651,-0.013156413,0.4772135,-1.424965,1.9568137,-2.1004446,-1.5709308,2.4525204,-0.02563085,0.031084528,-0.043576967,0.015120453,-0.015514146,-0.012416467,-0.095768064,0.22984336,-9.5385,0.80456203,47.668976,-0.62837887,-2.1598408,-3.3851743,-0.32565862,-0.053158525,-0.07898338,28.625,29.75,29.0,33.0,35.4375,36.5
0.052054346,-0.7324497,-1.648906,-1.3718573,-0.05073591,0.01971214,-0.13779162,-0.38155186,-0.34836593,0.05985049,-3.0779626,0.625386,-0.00052707136,-0.025324525,0.006957499,0.0017522093,0.013662448,0.0039420235,-0.013073154,0.47718906,-1.4249043,1.9567164,-2.1004088,-1.5709661,2.4525318,-0.026692877,0.033758454,-0.04590842,0.014969262,-0.014020991,-0.013563421,-0.11492168,0.32561144,-9.557653,0.7083204,47.637623,-0.6720636,-2.1422775,-3.3774881,-0.32556126,-0.062125757,-0.083292104,28.625,29.75,29.0,33.0,35.4375,36.5
0.054054808,-0.5144724,-2.0828664,-1.3957539,-0.06288159,0.012736676,-0.14984,-0.38162872,-0.34834528,0.05985642,-3.0779312,0.6253979,-0.0004925745,-0.025984231,0.00716211,0.0010614543,0.014622746,0.0028315773,-0.013153491,0.47710478,-1.4248075,1.9565843,-2.1003726,-1.5710024,2.452459,-0.027437262,0.036339413,-0.04733887,0.015245498,-0.0143672945,-0.014225627,-0.11492168,0.40222588,-9.653421,0.842603,47.65912,-0.6151578,-2.202485,-3.3841267,-0.2950789,-0.079549275,-0.09664334,28.625,29.75,29.0,33.0,35.4375,36.5
0.056054953,-0.6997729,-2.2560825,-1.3088305,-0.05982685,0.011129358,-0.1556164,-0.38168302,-0.3483304,0.059870794,-3.0779188,0.62539554,-0.00045404513,-0.027223647,0.008072567,0.001905277,0.016787669,0.0051225373,-0.013815321,0.47704455,-1.4247597,1.9564885,-2.1003358,-1.5710276,2.452399,-0.02826287,0.035900977,-0.04901293,0.016326392,-0.017343767,-0.014382504,-0.095768064,0.38307226,-9.634268,0.8493211,47.70659,-0.6019097,-2.1391354,-3.3514776,-0.29971954,-0.054016043,-0.09999485,28.625,29.75,29.0,33.0,35.4375,36.5
0.058055133,-0.6669238,-1.6466577,-1.0430355,-0.06563677,0.0330851,-0.17331402,-0.38170156,-0.3483172,0.0598653,-3.0778875,0.6254857,-0.0005088064,-0.02826312,0.008377039,0.0025717637,0.017303435,0.0063662888,-0.014511684,0.4769962,-1.4247236,1.9564518,-2.1003,-1.5710157,2.452411,-0.029092135,0.03600997,-0.05085998,0.01719936,-0.018375715,-0.014511734,-0.1340753,0.36391866,-9.557653,0.77545905,47.72092,-0.6338457,-2.02474,-3.3675041,-0.31536365,-0.01687657,-0.09659624,28.625,29.75,29.0,33.0,35.4375,36.5
0.060054712,-1.2576189,-1.7212301,-0.9544932,-0.056436002,0.0316532,-0.1683375,-0.38178173,-0.3483187,0.059888996,-3.077897,0.6254502,-0.00041545057,-0.030278184,0.0074303676,0.0029746606,0.015679147,0.0068132975,-0.015267379,0.47694793,-1.4246387,1.9562954,-2.1002762,-1.5710515,2.4523394,-0.030066041,0.039411943,-0.055739604,0.017528249,-0.01714721,-0.014730569,-0.11492168,0.4213795,-9.519346,0.7933669,47.689575,-0.6172036,-2.139473,-3.285078,-0.33228967,-0.03761632,-0.12690692,28.625,29.75,29.0,33.0,35.4375,36.5
0.06205436,-1.1733929,-1.6115808,-1.0319028,-0.048234284,0.0402781,-0.1835627,-0.3818475,-0.34828123,0.059886884,-3.077819,0.62560725,-0.00038450223,-0.029625978,0.0080777565,0.0016930471,0.016148498,0.003925396,-0.01578505,0.47685158,-1.4245665,1.9562124,-2.1002524,-1.5710992,2.452351,-0.031200074,0.04043223,-0.0539746,0.017518157,-0.016235663,-0.015349429,-0.076614454,0.40222588,-9.404425,0.7016076,47.64837,-0.62470853,-2.0453136,-3.2845764,-0.30103534,-0.046485815,-0.13971773,28.625,29.75,29.0,33.0,35.4375,36.5
0.064054705,-1.356432,-2.016308,-1.0891585,-0.03838477,0.02670556,-0.18866815,-0.38188162,-0.34827912,0.059889317,-3.0777707,0.62555814,-0.00040714908,-0.03079111,0.007604761,0.0012640753,0.016389793,0.0034654152,-0.015378434,0.47683945,-1.4244815,1.9560908,-2.1001685,-1.5711349,2.4523146,-0.031428844,0.04396051,-0.057033714,0.01756736,-0.01624665,-0.01598194,-0.076614454,0.30645782,-9.3661175,0.7709874,47.685097,-0.6920779,-2.2025359,-3.3875678,-0.28274065,-0.025170058,-0.140191,28.625,29.75,29.0,33.0,35.4375,36.5
0.06605484,-1.1333926,-1.4594086,-0.88591236,-0.045119688,0.021053784,-0.2061185,-0.3819861,-0.3482748,0.05990561,-3.0777864,0.6256572,-0.00030855637,-0.03249625,0.007331376,0.0019624364,0.016322529,0.005413874,-0.014773887,0.47674328,-1.4243731,1.9559354,-2.1001923,-1.5711473,2.4522784,-0.03196271,0.045471467,-0.060373247,0.017634569,-0.017088128,-0.017117793,-0.1340753,0.22984336,-9.442732,0.800085,47.66808,-0.66755205,-2.2356553,-3.3665783,-0.27735242,-0.041700173,-0.16430591,28.625,29.75,29.0,33.0,35.4375,36.5
0.068054855,-1.0544678,-1.4819368,-0.75307,-0.03527715,0.021493582,-0.2091164,-0.38201845,-0.34827802,0.059918784,-3.0777807,0.6256561,-0.00031998454,-0.034450106,0.006415355,0.004173711,0.013497956,0.009763661,-0.014693236,0.4767191,-1.4243258,1.9558376,-2.1001327,-1.5711473,2.4522543,-0.03246295,0.044195157,-0.06388801,0.017262165,-0.016583502,-0.01769799,-0.21068975,0.15322891,-9.346964,0.81351066,47.691364,-0.6673732,-2.1097333,-3.0522957,-0.26746485,-0.037767306,-0.16542587,28.625,29.75,29.0,33.0,35.4375,36.5
0.07005447,-0.7161591,-0.9187598,-0.9243184,-0.03166091,0.03317655,-0.21096158,-0.3821025,-0.34825045,0.05992684,-3.0777469,0.62570536,-0.00024817346,-0.03298107,0.006903911,0.0017690819,0.015445252,0.0044655628,-0.013970561,0.47662315,-1.4242407,1.9557194,-2.1001203,-1.5711945,2.4521935,-0.03242701,0.047215976,-0.061998904,0.017947856,-0.01587731,-0.0183872,-0.21068975,0.24899697,-9.289502,0.7709874,47.689575,-0.74265915,-2.205117,-3.2760088,-0.23328695,-0.026615912,-0.17370033,28.625,29.75,29.0,33.0,35.4375,36.5
0.0720551,-0.50208443,-0.78121936,-0.38456935,-0.028657889,0.05315169,-0.2043585,-0.38218147,-0.34826893,0.05994928,-3.07775,0.6257439,-0.0001659619,-0.034355767,0.006323444,0.0022466003,0.015420911,0.005035076,-0.013328431,0.4765991,-1.4241322,1.9555386,-2.1000955,-1.5712193,2.4521933,-0.032501016,0.04953497,-0.06600752,0.019119881,-0.016122535,-0.019101435,-0.19153613,0.22984336,-9.32781,0.7597976,47.690468,-0.8331641,-2.1772923,-3.1683245,-0.23927459,-0.055265598,-0.20091173,28.625,29.75,29.0,33.0,35.4375,36.5
0.07405475,-0.9609475,-0.5006082,-0.6596043,-0.016788641,0.053260636,-0.18180782,-0.38224345,-0.3482515,0.059939265,-3.0777304,0.6257784,-0.00022157577,-0.035014745,0.006374435,0.0024598162,0.015399811,0.004566738,-0.013058164,0.47650284,-1.4240241,1.9554299,-2.1000597,-1.5712069,2.452121,-0.03334254,0.05048152,-0.06788369,0.020453181,-0.015891604,-0.020212336,-0.19153613,0.17238252,-9.193734,0.7777002,47.691364,-0.82559264,-2.1383662,-3.1255116,-0.21632169,-0.0530907,-0.186726,28.625,29.75,29.0,33.0,35.4375,36.5
0.07605472,-0.9627958,-0.033658914,-0.63653874,-0.014740852,0.057892475,-0.19270393,-0.38230407,-0.34823614,0.059932806,-3.0776465,0.6257991,-0.00019297161,-0.03613651,0.0063655153,0.0027583747,0.0155771375,0.0049953214,-0.012719136,0.4764666,-1.4239037,1.9552964,-2.1000116,-1.5712794,2.4521086,-0.034124352,0.051884137,-0.07034371,0.021209579,-0.016250903,-0.021330545,-0.32561144,0.17238253,-9.136273,0.82022345,47.716442,-0.90622425,-2.1921525,-3.117723,-0.236951,-0.047078397,-0.19907388,28.625,29.75,29.0,33.0,35.4375,36.5
0.07805408,-0.42375857,-0.25813708,-0.6284712,-0.005696643,0.07258263,-0.18426025,-0.38239363,-0.3482284,0.05995906,-3.0776525,0.625878,-0.00015126771,-0.037173618,0.006246754,0.0028678055,0.015307997,0.004909587,-0.012788971,0.4763702,-1.4238194,1.955129,-2.099963,-1.5712794,2.4520607,-0.035039194,0.05358657,-0.07267195,0.021785036,-0.015976189,-0.022175383,-0.22984336,0.019153614,-9.212888,0.7486078,47.71017,-0.94099176,-2.1244912,-3.0973902,-0.21112403,-0.05995074,-0.20987481,28.625,29.75,29.0,33.0,35.4375,36.5
0.08005426,-1.0910729,-0.66823155,-0.48394802,0.0008671689,0.057284404,-0.17207691,-0.3824672,-0.34823337,0.059971023,-3.077644,0.62585557,-8.7066335e-05,-0.03777604,0.0061738254,0.00303131,0.016254336,0.0049423026,-0.011560447,0.47633433,-1.4237112,1.9549726,-2.0999386,-1.5713152,2.452012,-0.03490295,0.054896742,-0.07483083,0.023039581,-0.016834214,-0.023265196,-0.1340753,0.076614454,-9.232041,0.7933669,47.694054,-0.9690727,-2.150336,-3.0747147,-0.1937158,-0.05629389,-0.2045698,28.625,29.75,29.0,33.0,35.4375,36.5
0.082054555,-0.8726828,-0.66744244,-0.6852888,-0.009565229,0.052837905,-0.17504859,-0.3825401,-0.3482061,0.059980668,-3.077596,0.62586457,-5.4502318e-05,-0.038199425,0.006208349,0.0027486675,0.017147211,0.0040797745,-0.010867843,0.4762502,-1.4236267,1.9548405,-2.0998785,-1.5713638,2.4519398,-0.03508805,0.05668184,-0.07645712,0.024054915,-0.01723459,-0.024140952,-0.24899697,0.19153613,-9.097966,0.800085,47.704796,-1.0029101,-2.094896,-3.0689998,-0.19665529,-0.092827186,-0.22060674,28.625,29.75,29.0,33.0,35.4375,36.5
0.084054865,-0.9755497,-1.1040903,-0.8338557,-0.008921973,0.045797084,-0.16674346,-0.3826047,-0.34818783,0.059955873,-3.077528,0.62592715,-0.00013080353,-0.039523657,0.0063030203,0.0032122298,0.01719007,0.0050749546,-0.0112715205,0.4761659,-1.4234706,1.954708,-2.0998304,-1.5713757,2.4519033,-0.03614421,0.05775231,-0.07885107,0.024513155,-0.017735517,-0.024789834,-0.2873042,0.21068975,-9.136273,0.7486078,47.7245,-1.0287852,-2.1374216,-3.0683804,-0.17897463,-0.063094154,-0.22499341,28.625,29.75,29.0,33.0,35.4375,36.5
0.08605502,-1.1474217,-1.6012217,-1.0320337,-0.008460309,0.04225518,-0.16448887,-0.3826941,-0.34817833,0.059984494,-3.0774856,0.6259759,-4.2250955e-05,-0.04051185,0.0066364193,0.003576523,0.01808115,0.00593636,-0.011060258,0.4761058,-1.4233747,1.9545168,-2.0997589,-1.5714363,2.4518793,-0.036866907,0.058454406,-0.080658324,0.025262116,-0.018924737,-0.025720771,-0.22984336,0.17238252,-9.232041,0.81351066,47.711063,-1.1099,-2.080172,-3.042684,-0.17349511,-0.07355273,-0.21508169,28.625,29.75,29.0,33.0,35.4375,36.5
0.08805438,-1.1672688,-1.0673183,-0.8011285,-0.0260064,0.046788897,-0.17380673,-0.38278154,-0.34814274,0.059969116,-3.0774274,0.6260409,-3.9260533e-05,-0.040652957,0.0069843414,0.001491898,0.02013241,0.0018581763,-0.010923632,0.47598526,-1.4232408,1.9543961,-2.099746,-1.571472,2.4518068,-0.037634432,0.06349275,-0.08180958,0.025935683,-0.01888192,-0.026623296,-0.21068975,0.21068975,-9.212888,0.7866488,47.709274,-1.1132092,-2.1876347,-3.0551245,-0.1593788,-0.09244828,-0.24375176,28.625,29.75,29.0,33.0,35.4375,36.5
0.090054885,-1.2277774,-1.1988921,-0.8429615,-0.036053963,0.05212884,-0.1709434,-0.38284388,-0.3481616,0.059984796,-3.0774245,0.6260201,-5.334121e-05,-0.041205425,0.0070397593,0.0025391832,0.01984911,0.0037184267,-0.010384715,0.47596127,-1.4231212,1.9542049,-2.099663,-1.571472,2.4517703,-0.037843868,0.062065456,-0.08270024,0.026471445,-0.01948419,-0.027370004,-0.28730422,0.30645782,-9.212888,0.7732232,47.691364,-1.2077348,-2.2007563,-3.105173,-0.14531222,-0.066248074,-0.23464419,28.625,29.75,29.0,33.0,35.4375,36.5
0.092054814,-1.016919,-1.3786167,-1.0900564,-0.030864742,0.061542373,-0.1733359,-0.38294807,-0.34812146,0.059996016,-3.0773423,0.6260998,1.1499355e-06,-0.04239527,0.0075249956,0.002811966,0.020600699,0.0044396804,-0.0107130995,0.475841,-1.4230008,1.9540251,-2.09959,-1.5715445,2.4517105,-0.039138258,0.06299463,-0.08452558,0.027069218,-0.020487035,-0.028332584,-0.24899697,0.30645782,-9.308656,0.7172743,47.651955,-1.2328761,-2.0283413,-3.082893,-0.1258034,-0.080191135,-0.25511006,28.625,29.75,29.0,33.0,35.4375,36.5
0.09405452,-1.4791545,-1.6266911,-1.0652304,-0.023102546,0.041151375,-0.16003951,-0.3830282,-0.3481064,0.0599997,-3.0772786,0.6262035,-2.152741e-05,-0.0427151,0.008439481,0.0018087497,0.021001475,0.0012167337,-0.012821839,0.47575587,-1.4228679,1.9538459,-2.0995061,-1.5715684,2.4516983,-0.041773163,0.06499265,-0.0848304,0.028417625,-0.01936665,-0.028860329,-0.17238252,0.17238252,-9.3661175,0.8112748,47.689575,-1.1306653,-2.091017,-3.2015667,-0.12837434,-0.0987187,-0.24237534,28.625,29.75,29.0,33.0,35.4375,36.5
0.09605471,-0.62448394,-1.4785004,-0.8716092,-0.028740535,0.05575852,-0.16741595,-0.38310707,-0.3480912,0.059998937,-3.077253,0.6261977,-1.3593828e-05,-0.04403965,0.008324058,0.0011548218,0.022161689,-0.0004060698,-0.013287295,0.47567174,-1.4227463,1.9537004,-2.09947,-1.5715922,2.451614,-0.042588882,0.06943537,-0.088748254,0.029865133,-0.019661384,-0.029207317,-0.24899697,0.17238252,-9.461885,0.84708,47.71286,-1.1958716,-2.259485,-3.1111107,-0.10745938,-0.09853557,-0.263566,28.625,29.75,29.0,33.0,35.4375,36.5
0.09805477,-1.0222263,-1.4578158,-0.9580282,-0.029901715,0.041640203,-0.16743946,-0.38322514,-0.34808138,0.060007665,-3.0772104,0.6261873,0.000111039415,-0.042977333,0.008397547,0.0011056262,0.023271644,-0.0005026164,-0.011208557,0.47560027,-1.4225787,1.9534863,-2.0994575,-1.5716766,2.4515417,-0.04112053,0.068136215,-0.087249376,0.030258387,-0.02060004,-0.029817322,-0.15322891,0.17238252,-9.404425,0.784413,47.723602,-1.2823429,-2.1010706,-3.271138,-0.08537711,-0.103644356,-0.28352678,28.625,29.75,29.0,33.0,35.4375,36.5
0.10005409,-1.2589645,-1.2300273,-1.0916227,-0.026444884,0.032847602,-0.16569614,-0.38327497,-0.34808156,0.060002297,-3.077184,0.6262216,1.3621546e-05,-0.044599313,0.009418716,0.00068258226,0.024316607,-0.001487103,-0.014100367,0.47553924,-1.4224576,1.9533409,-2.099373,-1.5716528,2.4515054,-0.044104964,0.07072403,-0.08947248,0.031248461,-0.021083407,-0.029906282,-0.15322891,0.19153613,-9.385271,0.8023209,47.684196,-1.2010846,-2.1748013,-3.3366675,-0.07737519,-0.12262581,-0.28626883,28.625,29.75,29.0,33.0,35.4375,36.5
0.10205455,-0.9591608,-0.89692026,-1.0173625,-0.027531339,0.03804479,-0.17367679,-0.38336885,-0.34804532,0.059989825,-3.0770648,0.62629277,2.2530197e-05,-0.045426287,0.009575088,0.00028998038,0.024797952,-0.0030193352,-0.013795103,0.4754429,-1.4222888,1.9531602,-2.099301,-1.5717367,2.451469,-0.04530594,0.073250495,-0.09178162,0.03260657,-0.020816188,-0.031410627,-0.05746084,0.22984336,-9.481039,0.80456203,47.63315,-1.2312206,-2.2196789,-3.1322198,-0.08511584,-0.10413559,-0.2861084,28.625,29.75,29.0,33.0,35.4375,36.5
0.10405486,-1.0382869,-0.8770704,-1.0832287,-0.03131685,0.04080659,-0.16561116,-0.3834772,-0.34804216,0.060015615,-3.0770767,0.62625825,6.19408e-05,-0.04668183,0.01111837,-0.00010157195,0.025961729,-0.004008028,-0.01572897,0.47534564,-1.422156,1.9529332,-2.0992296,-1.5717491,2.4513488,-0.04880545,0.07444824,-0.09246833,0.033505157,-0.021399895,-0.032975033,-0.13407528,0.24899697,-9.5385,0.79560274,47.687782,-1.0943348,-2.2153957,-3.409289,-0.07265553,-0.12079495,-0.30266547,28.625,29.75,29.0,33.0,35.4375,36.5
0.10605411,-1.2712699,-1.2694337,-0.91271377,-0.017975979,0.032789666,-0.1553208,-0.3835474,-0.34801382,0.05998817,-3.0769765,0.6262941,4.5279457e-06,-0.04675248,0.010867581,-7.86748e-05,0.026953517,-0.0041636853,-0.014850891,0.47526196,-1.4219875,1.9527897,-2.099169,-1.5717973,2.4513004,-0.04788834,0.07542183,-0.09387665,0.034531772,-0.022215288,-0.032931563,-0.17238252,0.17238252,-9.404425,0.8023209,47.687782,-1.1513305,-2.2653518,-3.3221056,-0.066437885,-0.12152983,-0.2767564,28.625,29.75,29.0,33.0,35.4375,36.5
0.10805449,-1.1473434,-1.1489009,-1.1188387,-0.013715742,0.043664217,-0.16558856,-0.38367456,-0.34799254,0.05999265,-3.0769353,0.6263246,0.00011654658,-0.046870958,0.01084904,-0.0005574166,0.027356813,-0.005521659,-0.01655589,0.47515395,-1.4218189,1.9525865,-2.0991685,-1.5718693,2.451217,-0.048119374,0.077031486,-0.094792604,0.035226274,-0.021952296,-0.031458426,-0.17238252,0.05746084,-9.346964,0.80456203,47.677036,-1.2756456,-2.1445615,-3.410751,-0.038115896,-0.1370264,-0.3319071,28.625,29.75,29.0,33.0,35.4375,36.5
0.11005505,-0.45895234,-0.7793242,-0.9449276,-0.010726163,0.057860583,-0.1728361,-0.38376537,-0.34797135,0.06001831,-3.0768862,0.62645024,7.081345e-05,-0.048128095,0.01188661,-0.0004490896,0.027817696,-0.0062694424,-0.018413186,0.47503293,-1.4217103,1.952371,-2.0990245,-1.5718693,2.4511807,-0.051053472,0.07795474,-0.09647248,0.03685495,-0.022024306,-0.03253359,-0.1340753,0.095768064,-9.500193,0.80456203,47.664497,-1.2532972,-2.17244,-3.3907516,-0.016448803,-0.15329161,-0.34708554,28.625,29.75,29.0,33.0,35.4375,36.5
0.112054706,-0.98421,-0.20552741,-1.0845425,-0.016642218,0.038924124,-0.17369036,-0.38388225,-0.34793752,0.059998345,-3.0767946,0.6265077,9.824052e-05,-0.049772028,0.012379684,0.00057691097,0.028673256,-0.0050829016,-0.018010352,0.47491243,-1.421506,1.9521774,-2.0989997,-1.5719417,2.451108,-0.05257176,0.078512706,-0.0999875,0.039145224,-0.0233353,-0.034449335,-0.11492168,0.076614454,-9.481039,0.7530795,47.66808,-1.0922114,-2.0893407,-3.4554787,-0.03139688,-0.15621635,-0.3153199,28.625,29.75,29.0,33.0,35.4375,36.5
0.114054635,-0.88748795,-0.07873216,-0.904177,-0.02078722,0.041216258,-0.16995257,-0.3839671,-0.34793893,0.060024783,-3.076784,0.62650436,0.00013539691,-0.049516052,0.012738596,-0.0003254135,0.02963519,-0.005941154,-0.016941892,0.47485244,-1.4213978,1.9519743,-2.0989163,-1.5719656,2.4510474,-0.05266138,0.07948935,-0.098839685,0.038221784,-0.023799863,-0.0356068,-0.15322891,0.15322891,-9.3661175,0.9030289,47.66987,-1.2140245,-2.057338,-3.5025363,-0.019066188,-0.15092896,-0.337866,28.625,29.75,29.0,33.0,35.4375,36.5
0.11605463,-1.0255595,-0.7637023,-0.8507013,-0.008661945,0.05018609,-0.16770926,-0.3840318,-0.34791127,0.059995648,-3.076695,0.62652385,-2.7864076e-05,-0.051307514,0.012378049,0.00023971373,0.02842953,-0.005123602,-0.015794782,0.47474393,-1.4212166,1.9518064,-2.0987966,-1.5719656,2.4509625,-0.054096404,0.08144417,-0.10246857,0.038609043,-0.023117827,-0.03818553,-0.2681506,0.1340753,-9.32781,0.82022345,47.695843,-1.1692114,-2.0528557,-3.5762415,0.020297624,-0.18312013,-0.31977326,28.625,29.75,29.0,33.0,35.4375,36.5
0.11805513,-1.1405864,-0.9445318,-0.91793716,-0.014101382,0.051387545,-0.16703545,-0.3841601,-0.34790826,0.060019966,-3.076701,0.6264486,0.00010227482,-0.051787607,0.012747964,0.00042710497,0.028335605,-0.0063929525,-0.01675466,0.47465938,-1.4210604,1.9515666,-2.0987718,-1.5720252,2.4508305,-0.055605907,0.0819603,-0.10396729,0.04067032,-0.022452427,-0.03873779,-0.22984336,0.0,-9.3661175,0.800085,47.689575,-1.1960548,-1.98092,-3.4132404,0.009839566,-0.20127648,-0.31899348,28.625,29.75,29.0,33.0,35.4375,36.5
0.12005442,-1.015096,-0.5041742,-0.971145,-0.019724337,0.057844527,-0.16835766,-0.38428265,-0.347866,0.060040917,-3.0765874,0.6265996,0.00015577026,-0.05317649,0.013369961,0.0009077211,0.029765833,-0.0052314093,-0.019027952,0.474527,-1.420916,1.9513263,-2.0986516,-1.57211,2.450807,-0.056793597,0.08286478,-0.10635875,0.04177959,-0.024260195,-0.037645936,-0.21068975,0.019153614,-9.423578,0.75084364,47.70211,-1.2097186,-1.9199309,-3.4662652,0.003362538,-0.20672022,-0.3461945,28.625,29.75,29.0,33.0,35.4375,36.5
0.12205497,-1.5177448,-0.5961786,-1.0440191,-0.0146454945,0.05761975,-0.16597919,-0.3843672,-0.34784645,0.06002785,-3.0765502,0.6264938,0.00010431308,-0.053963825,0.014010287,0.00041169228,0.03240419,-0.0069603194,-0.017588032,0.47443077,-1.4207468,1.951146,-2.0985792,-1.5721349,2.4506497,-0.05762651,0.085745804,-0.10913043,0.044412486,-0.025823902,-0.039911892,-0.34476504,0.076614454,-9.481039,0.8090337,47.67166,-1.200027,-2.121285,-3.3889518,0.0026248572,-0.2108446,-0.32843506,28.625,29.75,29.0,33.0,35.4375,36.5
0.12405427,-1.5308824,-0.46362597,-1.0997587,-0.026679693,0.06499309,-0.17204079,-0.38449356,-0.34780228,0.060035203,-3.0764217,0.62667775,0.00016799314,-0.054983817,0.014190804,0.001840218,0.031177202,-0.0048919823,-0.016135052,0.47429833,-1.4205793,1.9509186,-2.0984948,-1.5722302,2.4506488,-0.058949593,0.08393896,-0.110514,0.0451903,-0.02568515,-0.042687483,-0.38307226,0.095768064,-9.500193,0.75084364,47.660015,-1.2323112,-1.9123954,-3.5075011,3.9492035e-05,-0.20890358,-0.29342777,28.625,29.75,29.0,33.0,35.4375,36.5
0.12605435,-1.9004384,-0.96162605,-1.1786565,-0.028272333,0.059684973,-0.16501942,-0.38459826,-0.3477799,0.060039267,-3.076366,0.62670434,0.0001302713,-0.05575392,0.014018973,0.0007152943,0.03137489,-0.007068222,-0.015541462,0.4741781,-1.4204097,1.9506906,-2.098387,-1.5722541,2.4505525,-0.059856948,0.087966844,-0.11258065,0.045245983,-0.024877828,-0.044187706,-0.40222588,0.19153613,-9.576807,0.81351066,47.696735,-1.2315793,-1.9213955,-3.4502764,0.010156128,-0.22305942,-0.31347737,28.625,29.75,29.0,33.0,35.4375,36.5
0.12805393,-1.3952482,-1.1578962,-1.3213352,-0.041232754,0.07067033,-0.17076093,-0.38471317,-0.3477446,0.06002711,-3.076268,0.6268179,7.625713e-05,-0.056128882,0.014745831,0.001569706,0.032621425,-0.0072317603,-0.014703155,0.4740337,-1.4202058,1.9504632,-2.0982907,-1.5722903,2.4504917,-0.0607957,0.087021485,-0.11420931,0.048530184,-0.025916675,-0.045960095,-0.47884035,0.17238252,-9.595961,0.800085,47.68599,-1.2353694,-1.9152828,-3.468943,-0.0015110619,-0.2495062,-0.24661952,28.625,29.75,29.0,33.0,35.4375,36.5
0.13005489,-1.7738879,-1.3678275,-1.4720412,-0.048121247,0.06340536,-0.16185828,-0.3848193,-0.3476959,0.060027495,-3.0761611,0.6267775,9.634678e-05,-0.057857987,0.016218064,0.0014759048,0.03422003,-0.008726737,-0.016637526,0.4739124,-1.420049,1.9502581,-2.098182,-1.5723866,2.450359,-0.06448745,0.08916158,-0.11708728,0.051319905,-0.026664322,-0.0477126,-0.4213795,0.21068975,-9.519346,0.85155696,47.70032,-1.0930173,-1.8250968,-3.3818676,-0.028800562,-0.23980772,-0.2595373,28.625,29.75,29.0,33.0,35.4375,36.5
0.13205425,-1.9066284,-1.4958087,-1.3470428,-0.03228323,0.052273642,-0.17021039,-0.38494948,-0.3476916,0.060031954,-3.0761402,0.6267899,8.924884e-05,-0.057190113,0.015416893,0.0010536549,0.035332516,-0.010865554,-0.01248564,0.4737933,-1.4198321,1.949983,-2.098109,-1.5723985,2.4502506,-0.06242335,0.091210015,-0.11900053,0.053588167,-0.026683614,-0.049799137,-0.34476504,0.19153613,-9.653421,0.800085,47.67614,-1.2295175,-1.9016677,-3.4062815,-0.039552074,-0.26248488,-0.23624235,28.625,29.75,29.0,33.0,35.4375,36.5
0.13405457,-1.278135,-0.86087894,-1.2273012,-0.035624534,0.06802735,-0.16599314,-0.38503912,-0.34765202,0.06002586,-3.076048,0.6267888,3.3031483e-05,-0.058498695,0.015986772,0.0014529506,0.035867758,-0.011307283,-0.0124818925,0.47367257,-1.4196756,1.9497904,-2.0979884,-1.5724472,2.4501412,-0.064429164,0.092464596,-0.12186919,0.055831242,-0.026969654,-0.051804457,-0.36391866,0.22984336,-9.634268,0.7597976,47.690468,-1.2367463,-1.7897577,-3.3809624,-0.06801345,-0.28705028,-0.17506725,28.625,29.75,29.0,33.0,35.4375,36.5
0.13605472,-1.1449894,-0.81415296,-1.2899284,-0.023179036,0.067322575,-0.17488956,-0.38518712,-0.34762716,0.06004129,-3.075982,0.6268339,0.00010222591,-0.061013453,0.01658624,0.0025428166,0.034996327,-0.010469203,-0.014568615,0.47353938,-1.4194711,1.9495019,-2.097904,-1.5725187,2.4500449,-0.06801218,0.093654625,-0.12618692,0.057804182,-0.02658675,-0.053299956,-0.3256114,0.13407528,-9.5385,0.86498255,47.684196,-1.1438229,-1.7463764,-3.377123,-0.09793672,-0.29968885,-0.1563257,28.6875,29.75,29.0,33.0,35.4375,36.5
0.13805494,-0.8762171,-0.7394014,-1.3207248,-0.011279367,0.061521694,-0.17069018,-0.38531122,-0.34758773,0.060066216,-3.0758865,0.62690973,9.947643e-05,-0.060584124,0.017196938,0.0012978887,0.037696972,-0.014275527,-0.013905617,0.47339517,-1.419314,1.9492267,-2.0977356,-1.5725793,2.4499605,-0.068246864,0.09643575,-0.12717818,0.06062697,-0.02725834,-0.05419394,-0.28730422,0.17238252,-9.595961,0.79560274,47.64837,-1.0084817,-1.7147098,-3.252524,-0.12568307,-0.3292302,-0.15217546,28.6875,29.6875,29.0,33.0,35.4375,36.5
0.14005408,-1.1036636,-0.66354316,-1.3753358,-0.014996814,0.05509289,-0.16598788,-0.38544664,-0.34756267,0.060060885,-3.0758493,0.62697846,5.340169e-05,-0.062192995,0.017222824,0.0012181641,0.039092388,-0.015371374,-0.013696292,0.47322696,-1.4190965,1.9489731,-2.0976627,-1.5725793,2.44984,-0.06924846,0.10029153,-0.1320211,0.06322136,-0.0280143,-0.055399116,-0.28730422,0.21068975,-9.5385,0.88289046,47.66091,-1.1606265,-1.7915106,-3.1916265,-0.16300333,-0.33866787,-0.08681324,28.6875,29.6875,29.0,33.0,35.4375,36.5
0.14205462,-1.1416699,-1.003132,-1.1913093,-0.012702067,0.05381846,-0.1652177,-0.38556743,-0.34752828,0.06007808,-3.0757484,0.62697875,0.00010059488,-0.0624539,0.018977547,2.3101964e-05,0.04156636,-0.01860701,-0.017175457,0.47311795,-1.4189276,1.9487103,-2.0975306,-1.5726756,2.4497445,-0.07210504,0.10208904,-0.13181458,0.06522044,-0.028741661,-0.054773472,-0.22984336,0.13407528,-9.500193,0.75755644,47.655537,-1.0090212,-2.039433,-3.183551,-0.19859168,-0.3393572,-0.06517481,28.6875,29.6875,29.0,33.0,35.4375,36.5
0.1440541,-0.95514,-1.0097082,-1.3342221,-0.020719344,0.05418015,-0.16286828,-0.38569176,-0.34748405,0.060064763,-3.0756278,0.6270894,2.6708722e-06,-0.06351216,0.019407338,-6.4549225e-05,0.043033943,-0.019411523,-0.019788,0.4729497,-1.4186987,1.9484457,-2.0973861,-1.5727123,2.449661,-0.073193364,0.10433131,-0.13464998,0.06719816,-0.029692607,-0.053241786,-0.30645782,0.17238252,-9.404425,0.8627467,47.688675,-0.9953567,-1.8631889,-3.1561728,-0.23884188,-0.3509763,-0.098089695,28.6875,29.6875,29.0,33.0,35.4375,36.5
0.14605477,-1.4358776,-1.4569142,-1.0342356,-0.028870532,0.04900453,-0.15155074,-0.38582298,-0.347457,0.06008439,-3.0755808,0.62713724,1.9690693e-05,-0.06368453,0.020226408,-0.0010371073,0.044968337,-0.021985829,-0.020172032,0.47280514,-1.4185295,1.9481825,-2.0972779,-1.5727481,2.4495525,-0.074418046,0.10659356,-0.13541292,0.068865724,-0.030247787,-0.054079868,-0.47884035,0.19153613,-9.442732,0.79560274,47.681515,-0.97483706,-2.1013198,-3.2398367,-0.28112537,-0.36248046,-0.033621658,28.6875,29.6875,29.0,33.0,35.4375,36.5
0.14805475,-1.5939766,-1.2382466,-1.0576174,-0.052209478,0.0634783,-0.16008247,-0.38596222,-0.34740546,0.06009898,-3.0754557,0.6271129,9.189091e-06,-0.064606585,0.020637896,-0.0009976092,0.045385625,-0.021703,-0.023670124,0.47264874,-1.4183251,1.9478716,-2.0970867,-1.5728439,2.4493973,-0.07563208,0.107553,-0.13667041,0.069099024,-0.030757045,-0.051790908,-0.49799395,0.17238252,-9.3661175,0.88960326,47.678825,-0.9567381,-1.9493018,-3.1690092,-0.31697518,-0.38434416,-0.05134125,28.6875,29.6875,29.0,33.0,35.4375,36.5
0.15005498,-1.7943401,-1.2705592,-0.81986624,-0.05170131,0.0711801,-0.16594681,-0.38608435,-0.34736475,0.060080804,-3.0753286,0.62716526,-6.412805e-05,-0.06722893,0.020247579,9.610923e-05,0.044308405,-0.018346762,-0.027146235,0.47250432,-1.4180844,1.9476074,-2.0969555,-1.5729045,2.4493022,-0.07692692,0.10925046,-0.14092825,0.068180256,-0.03134389,-0.04960187,-0.30645782,0.21068975,-9.289503,0.8985519,47.68599,-0.8936171,-1.9067447,-3.198607,-0.3220587,-0.3938466,-0.08883576,28.6875,29.6875,29.0,33.0,35.4375,36.5
0.15205435,-1.7906469,-1.4552834,-0.9217173,-0.04837716,0.08289167,-0.1572076,-0.38624066,-0.34732398,0.06009426,-3.0752435,0.62726283,-1.0286463e-05,-0.06799194,0.020559855,-0.00055945053,0.044222068,-0.017947363,-0.028980123,0.47233614,-1.4178797,1.9473203,-2.0968602,-1.5729765,2.449206,-0.0780691,0.11071109,-0.14063625,0.06602595,-0.031458534,-0.048908923,-0.3256114,0.19153614,-9.32781,0.83589023,47.640312,-0.9165762,-1.9704832,-3.2808943,-0.342339,-0.42155084,-0.07871951,28.6875,29.6875,29.0,33.0,35.4375,36.5
0.15405421,-2.007468,-1.358976,-0.8624562,-0.04247687,0.07215841,-0.15923183,-0.38637555,-0.34728277,0.060117155,-3.075131,0.6273945,-2.4002607e-05,-0.07039676,0.020894073,-9.568828e-05,0.043421634,-0.014376892,-0.03141195,0.47217938,-1.417699,1.9470204,-2.0966818,-1.573037,2.4491463,-0.08022076,0.111786865,-0.14226572,0.06303203,-0.032388065,-0.048622232,-0.38307226,0.17238252,-9.289503,0.7866488,47.672558,-0.893193,-1.8530183,-3.2968516,-0.31678706,-0.41484034,-0.08939721,28.6875,29.6875,29.0,33.0,35.4375,36.5
0.1560545,-1.7774239,-1.1925082,-0.41102964,-0.032345552,0.072396874,-0.15684195,-0.38653287,-0.3472533,0.0601327,-3.0750766,0.627462,4.7075024e-05,-0.07169816,0.021316446,-0.00077321735,0.043489464,-0.013818081,-0.034365393,0.4720227,-1.4174942,1.9467338,-2.0966108,-1.5730971,2.449039,-0.08191139,0.11401092,-0.1428001,0.060871862,-0.03271083,-0.04735769,-0.45968673,0.17238252,-9.155427,0.82694155,47.690468,-0.79782534,-1.8839045,-3.3738818,-0.28817138,-0.43446624,-0.11324699,28.6875,29.6875,29.0,33.0,35.4375,36.5
0.15805502,-1.1267459,-0.5591386,-0.44191995,-0.02287739,0.0646822,-0.16459844,-0.38669398,-0.34720168,0.060115635,-3.0749311,0.6275295,6.390782e-05,-0.073839255,0.020877248,0.00017909054,0.0419637,-0.009516209,-0.038573917,0.47185448,-1.4172175,1.9464339,-2.0965154,-1.5732054,2.448932,-0.08265286,0.114559576,-0.14497474,0.05797319,-0.03332037,-0.04388452,-0.4405331,0.095768064,-9.040505,0.81351066,47.691364,-0.8439456,-1.8472971,-3.3017569,-0.26980582,-0.4493602,-0.13212955,28.6875,29.6875,29.0,33.0,35.4375,36.5
0.16005428,-1.8489635,-0.4558524,-0.33852455,-0.014240983,0.040018566,-0.14899547,-0.38683984,-0.34717205,0.060113132,-3.0748641,0.62765104,4.474538e-05,-0.07698799,0.02188048,0.00039602164,0.0427687,-0.0040862192,-0.04104051,0.47168565,-1.4169888,1.9461588,-2.0964339,-1.5732306,2.4488478,-0.0851878,0.11607984,-0.14614195,0.053153723,-0.036524795,-0.043938756,-0.38307226,0.17238252,-8.925584,0.88289046,47.661808,-0.7826749,-1.8075192,-3.4336991,-0.2075693,-0.4214074,-0.15919563,28.6875,29.6875,29.0,33.0,35.4375,36.5
0.16205497,-1.537597,-0.033618446,-0.35956192,-0.011537897,0.04881527,-0.168987,-0.3869891,-0.34712306,0.06012104,-3.0747404,0.62773997,5.2915504e-05,-0.077971324,0.021473166,-0.0007299042,0.045254912,-0.0035224508,-0.039224997,0.471518,-1.416771,1.9458584,-2.0962908,-1.5733155,2.448752,-0.08372426,0.12063974,-0.14845258,0.051529896,-0.039011814,-0.04427751,-0.3256114,0.11492168,-8.925584,0.8179876,47.623295,-0.7401514,-1.9542363,-3.369669,-0.16266242,-0.41939294,-0.17427328,28.6875,29.6875,29.0,33.0,35.4375,36.5
0.16405429,-1.7875744,0.061193995,-0.22736071,-0.0064988746,0.049679693,-0.16612248,-0.3871663,-0.3470796,0.060134098,-3.074667,0.6278969,0.00015135377,-0.07833372,0.021104338,0.0014825963,0.04333254,-0.0008159924,-0.039624043,0.4713262,-1.4165561,1.9455708,-2.0962422,-1.573387,2.4486678,-0.08366778,0.117005266,-0.14972131,0.05313778,-0.03852951,-0.04382494,-0.30645782,0.05746084,-8.983045,0.82694155,47.71286,-0.88072574,-1.6471543,-3.4332755,-0.13995902,-0.42758983,-0.18821718,28.6875,29.6875,29.0,33.0,35.4375,36.5
0.16605455,-1.5477986,-0.19644096,-0.3846121,-0.0025651765,0.06270808,-0.17010258,-0.38732272,-0.34702912,0.06012954,-3.0745287,0.6279664,0.00015276772,-0.08045177,0.0223675,7.1483344e-05,0.04537834,-0.0028177155,-0.043262843,0.4711569,-1.4163018,1.9452595,-2.09611,-1.5734833,2.44856,-0.08719424,0.122238465,-0.15261273,0.053501293,-0.039455693,-0.043704245,-0.28730422,0.076614454,-8.944737,0.842603,47.64837,-0.72468257,-1.9792428,-3.4667943,-0.11323668,-0.4265821,-0.19227934,28.6875,29.6875,29.0,33.0,35.4375,36.5
0.1680541,-1.4462457,0.19901712,-0.47736442,-0.010601422,0.06638931,-0.17706203,-0.38746402,-0.34699196,0.060128987,-3.074424,0.62805766,0.00013891119,-0.08046117,0.02144641,0.00011608708,0.046902925,-0.00017273932,-0.039838582,0.47100222,-1.4160737,1.9449719,-2.0959914,-1.5735444,2.448476,-0.083882235,0.12311903,-0.15333031,0.051673535,-0.042026713,-0.043803893,-0.28730422,0.11492168,-9.078813,0.78217715,47.692257,-0.95507157,-1.7453532,-3.3769047,-0.07446003,-0.4030404,-0.23019615,28.6875,29.6875,29.0,33.0,35.4375,36.5
0.17005512,-2.213389,-0.23000489,-0.6843074,-0.017936338,0.045982197,-0.16033661,-0.38762152,-0.346949,0.06012397,-3.0742943,0.62816465,0.0001728835,-0.0821185,0.022447145,0.0005039942,0.049481317,0.00070874346,-0.04081463,0.47084567,-1.4158208,1.944671,-2.0958946,-1.5736412,2.4484034,-0.085375145,0.12465749,-0.15644729,0.05363375,-0.044733293,-0.044307232,-0.26815057,0.11492168,-9.136273,0.84708,47.690468,-0.953627,-1.8491054,-3.2686615,-0.05023943,-0.39799762,-0.2400643,28.6875,29.6875,29.0,33.0,35.4375,36.5
0.17205438,-0.90678537,-0.74897456,-0.7197916,-0.016936328,0.064424805,-0.166051,-0.38779092,-0.34690312,0.060130086,-3.0741725,0.62827295,0.00019332841,-0.08326097,0.022826921,0.000313876,0.052750874,0.0007900944,-0.039902415,0.4706659,-1.4155675,1.9443363,-2.0957625,-1.5737265,2.4483073,-0.08513486,0.12765154,-0.15989324,0.055492837,-0.047695108,-0.04496391,-0.15322891,0.21068975,-9.11712,0.8112748,47.660015,-1.0301256,-1.8013902,-3.392426,-0.04599739,-0.34163797,-0.25376204,28.6875,29.6875,29.0,33.0,35.4375,36.5
0.17405486,-1.069284,-0.80071527,-1.057149,-0.014390529,0.039415974,-0.1707415,-0.38796735,-0.34682325,0.060122557,-3.0740013,0.6283724,0.00023182128,-0.084365584,0.023102976,0.0003804505,0.05361156,0.00053452497,-0.040334273,0.4704495,-1.4153147,1.9440359,-2.0956423,-1.5738581,2.4481754,-0.08615376,0.12952337,-0.16252936,0.05685947,-0.048358675,-0.04554368,-0.11492168,0.24899697,-9.308657,0.8179876,47.704796,-0.9853673,-1.8527641,-3.3276658,-0.04559233,-0.3181203,-0.29144895,28.6875,29.6875,29.0,33.0,35.4375,36.5
0.17605504,-1.2225226,-1.344065,-1.1811496,-0.025327697,0.03221235,-0.15534663,-0.38810882,-0.34679723,0.06010959,-3.0738623,0.6284185,0.00019236092,-0.08372807,0.02389783,-0.000597518,0.05638135,-0.0019116346,-0.039822847,0.47032964,-1.4150261,1.9437011,-2.0954974,-1.5739425,2.4481027,-0.086072885,0.13077325,-0.16216986,0.058679856,-0.049722623,-0.04596443,-0.24899697,0.30645782,-9.442732,0.87617236,47.707485,-1.0671785,-1.9114534,-3.33063,-0.036470234,-0.32497877,-0.28501847,28.6875,29.6875,29.0,33.0,35.4375,36.5
0.17805453,-1.4221096,-1.7813152,-1.4055271,-0.049530733,0.030188408,-0.1565502,-0.38826284,-0.3467386,0.06009431,-3.073695,0.628557,0.00016725749,-0.084989615,0.024694156,-0.0004133679,0.058730662,-0.0014055205,-0.04034732,0.47014916,-1.414761,1.9434017,-2.0953658,-1.5740398,2.4480307,-0.08708078,0.13228315,-0.16472101,0.060327742,-0.052058667,-0.046432428,-0.19153613,0.30645782,-9.442732,0.7933669,47.686886,-1.1087732,-1.9754796,-3.3333747,-0.0480047,-0.27191728,-0.31708091,28.6875,29.6875,29.0,33.0,35.4375,36.5
0.1800547,-1.0564587,-2.1923864,-1.4792311,-0.062127955,0.038740624,-0.15906733,-0.3884605,-0.3466783,0.060112383,-3.0735424,0.6286987,0.00029043463,-0.08596601,0.025563467,-0.001900047,0.061909337,-0.004333684,-0.041905798,0.46995667,-1.4145073,1.9430417,-2.0952456,-1.5741843,2.4479468,-0.08848197,0.1371881,-0.1673962,0.062137634,-0.05357391,-0.046266567,-0.15322891,0.51714754,-9.519346,0.91421866,47.666286,-1.0786098,-1.9009445,-3.347074,-0.054314446,-0.22549507,-0.3430994,28.6875,29.6875,29.0,33.0,35.4375,36.5
0.18205416,-0.937869,-2.0268633,-1.6498457,-0.08764367,0.050991528,-0.16580644,-0.38863274,-0.34663826,0.060127705,-3.0734282,0.62882775,0.00030127386,-0.08675935,0.025501683,-0.00042427858,0.062057756,-0.0021003631,-0.04103842,0.4697768,-1.4142556,1.9426821,-2.0950897,-1.5742568,2.4478626,-0.08830282,0.13585801,-0.16963091,0.063767076,-0.05472809,-0.04694697,-0.095768064,0.47884035,-9.576807,0.83365434,47.672558,-1.1425257,-1.8806095,-3.3133516,-0.045054264,-0.19988073,-0.3513379,28.6875,29.6875,29.0,33.0,35.4375,36.5
0.18405452,-1.5265766,-2.6669462,-1.7055837,-0.082603276,0.037321627,-0.14870626,-0.3888077,-0.34655914,0.0601099,-3.0732174,0.6289576,0.00030628277,-0.088341236,0.026804216,-0.00038807458,0.062936954,-0.0031509886,-0.044034466,0.4695714,-1.4139667,1.9423579,-2.0949447,-1.5744008,2.447766,-0.09178419,0.13738626,-0.17198445,0.06590857,-0.055049486,-0.047424033,0.019153614,0.45968673,-9.710882,0.8314132,47.66808,-0.9185355,-1.9051116,-3.3180704,-0.053978942,-0.1470402,-0.38951916,28.6875,29.6875,29.0,33.0,35.4375,36.5
0.18605419,-0.6009657,-1.9395622,-1.608046,-0.08431062,0.048105404,-0.16442215,-0.3889765,-0.34653643,0.06011089,-3.0731218,0.6289366,0.000350995,-0.087280355,0.02622586,-0.0010669841,0.06403192,-0.0069815083,-0.042056844,0.46944016,-1.4136778,1.9419988,-2.094836,-1.5744962,2.4476345,-0.090252124,0.1394853,-0.17367022,0.069390655,-0.05429589,-0.04787026,0.0,0.45968673,-9.653421,0.8851263,47.686886,-1.1513484,-1.9430803,-3.369639,-0.09012064,-0.12810676,-0.40291226,28.6875,29.6875,29.0,33.0,35.4375,36.5
0.18805493,-0.3480384,-1.7917819,-1.6317838,-0.06544215,0.04244418,-0.165494,-0.3891579,-0.34648225,0.060110066,-3.0729818,0.6291006,0.0003550325,-0.0893266,0.027802808,-0.0012846927,0.063911356,-0.007804822,-0.04560947,0.46923462,-1.4134009,1.9416522,-2.094704,-1.5745801,2.4475498,-0.09513626,0.14117728,-0.17528471,0.06997094,-0.053832226,-0.04919956,-0.114921674,0.40222588,-9.595961,0.800085,47.698532,-1.0483693,-1.9451509,-3.3904362,-0.080693364,-0.11732942,-0.4202607,28.6875,29.6875,29.0,33.0,35.4375,36.5
0.19005454,-0.31542718,-1.6270455,-1.366652,-0.044498794,0.032456215,-0.16326742,-0.38936067,-0.3464144,0.060111582,-3.0728068,0.62923336,0.00045972818,-0.08676739,0.02655204,-0.001991564,0.06511006,-0.012490834,-0.04038695,0.46903202,-1.4131123,1.9412922,-2.0945947,-1.574736,2.4474533,-0.091243535,0.14222476,-0.17586347,0.074196264,-0.052787725,-0.050532304,-0.038307227,0.30645782,-9.653421,0.83365434,47.690468,-1.1470752,-1.9382513,-3.4303875,-0.094991386,-0.10162921,-0.43907928,28.6875,29.6875,29.0,33.0,35.4375,36.5
0.19205493,-0.05933492,-0.857137,-1.3335602,-0.04185939,0.022895163,-0.16776328,-0.38952464,-0.34638357,0.060100242,-3.0726964,0.6292675,0.00043661287,-0.0868997,0.026681524,-0.0017433038,0.06492067,-0.01626089,-0.04030076,0.46887538,-1.4128115,1.9409446,-2.0944736,-1.574807,2.4473326,-0.09275015,0.14351153,-0.17913747,0.07943584,-0.050924934,-0.052128736,-0.076614454,0.2681506,-9.576807,0.83589023,47.694946,-1.2230457,-1.7657685,-3.3804073,-0.16757017,-0.09356053,-0.45618394,28.6875,29.6875,29.0,33.0,35.4375,36.5
0.1940545,-0.83954084,-0.7757496,-1.3154274,-0.01980199,-0.010726005,-0.14987577,-0.38969412,-0.34632018,0.06010523,-3.0725117,0.62936,0.00044427157,-0.08757477,0.026512165,-0.0016545764,0.06341386,-0.017579956,-0.036868177,0.46869493,-1.4125466,1.940585,-2.094282,-1.5749382,2.4472344,-0.09424624,0.14473659,-0.18104047,0.08056574,-0.049014326,-0.05706042,0.0,0.15322891,-9.557653,0.8806493,47.72719,-1.1141251,-1.9453285,-3.4653563,-0.17321339,-0.1130525,-0.41033334,28.6875,29.6875,29.0,33.0,35.4375,36.5
0.19605483,0.61285436,-0.02659341,-1.288841,-0.009970009,0.017502036,-0.16941324,-0.38989618,-0.34625474,0.060099848,-3.0723524,0.6294808,0.0004531855,-0.08681461,0.026843373,-0.0039754226,0.064662755,-0.024208307,-0.036940966,0.46846658,-1.4122326,1.9402031,-2.094137,-1.575046,2.4471025,-0.09529728,0.14936213,-0.18166155,0.08301104,-0.04714911,-0.05804304,0.076614454,0.019153614,-9.481039,0.8806493,47.709274,-1.1288143,-2.0388427,-3.4354782,-0.2199444,-0.1195941,-0.42986494,28.6875,29.6875,29.0,33.0,35.4375,36.5
0.1980541,-0.044738278,-0.03462663,-1.0015532,-0.008502446,0.0008926827,-0.17257218,-0.39005876,-0.34620112,0.060098812,-3.0721915,0.6295602,0.00041021136,-0.087252155,0.026382172,-0.0033994566,0.062748365,-0.025095256,-0.03434987,0.46828645,-1.4119564,1.939844,-2.0939448,-1.5751408,2.4469934,-0.09617227,0.14964193,-0.1837142,0.0846741,-0.045067824,-0.06151326,0.038307227,-0.076614454,-9.346964,0.86498255,47.698532,-1.1862723,-1.9713082,-3.5336196,-0.25325838,-0.11158409,-0.39893764,28.6875,29.6875,29.0,33.0,35.4375,36.5
0.20005459,-0.41256377,-0.07601791,-0.94610506,-0.011167806,0.008613759,-0.17152947,-0.3902566,-0.3461731,0.0601173,-3.0721273,0.6296584,0.000412774,-0.087590866,0.026741987,-0.004642669,0.06348548,-0.02784542,-0.03009969,0.468082,-1.4116676,1.9394363,-2.0938013,-1.5751766,2.446859,-0.097416066,0.15278582,-0.18466248,0.08522707,-0.044515498,-0.067008056,0.114921674,-0.076614454,-9.270349,0.84708,47.66091,-1.110312,-2.050587,-3.5627477,-0.2761061,-0.13591397,-0.35515538,28.6875,29.6875,29.0,33.0,35.4375,36.5
0.20205496,-1.1312913,-0.47257358,-1.0809195,-0.0003173496,0.0046629417,-0.16260828,-0.39040425,-0.3461316,0.060088962,-3.0719624,0.6296425,0.0003264612,-0.089669086,0.025900358,-0.003636678,0.061094593,-0.026128644,-0.02786236,0.46793744,-1.4113425,1.9390887,-2.0936334,-1.5752724,2.4467263,-0.09860871,0.15450716,-0.18898101,0.08518011,-0.0431946,-0.070435904,0.095768064,-0.11492168,-9.193734,0.8157518,47.664497,-1.1526532,-2.0413222,-3.492006,-0.29178524,-0.14247781,-0.29767975,28.6875,29.6875,29.0,33.0,35.4375,36.5
0.20405439,-0.9125392,-0.43335563,-0.79829997,-0.0058336006,0.027702997,-0.17808324,-0.39057305,-0.3460555,0.060080003,-3.0718133,0.6297241,0.0002489954,-0.09164269,0.024635492,-0.0018983365,0.058185797,-0.022390869,-0.026082078,0.46769765,-1.4110781,1.938764,-2.0934546,-1.5753444,2.4465573,-0.09865885,0.15467337,-0.192996,0.08435401,-0.042320903,-0.07226367,-0.1340753,-0.05746084,-9.251195,0.80679786,47.67614,-1.1537495,-2.0311432,-3.3422177,-0.29167473,-0.17072287,-0.28334805,28.6875,29.6875,29.0,33.0,35.4375,36.5
0.20605503,-1.3636729,-0.46874216,-0.8079485,-0.017791638,0.04061484,-0.17515379,-0.39076647,-0.34603,0.06009207,-3.0717075,0.62968254,0.00026509727,-0.09372367,0.025542792,-0.0035252084,0.058404867,-0.023884714,-0.025981452,0.4675401,-1.4107523,1.9383205,-2.0932758,-1.5754398,2.446388,-0.10236527,0.15965365,-0.19462916,0.08240577,-0.04187662,-0.07606869,-0.15322891,0.038307227,-9.289502,0.9186956,47.68062,-1.0590866,-2.0099192,-3.2736812,-0.27462253,-0.19419444,-0.20769787,28.6875,29.6875,29.0,33.0,35.4375,36.5
0.20805432,-1.7997617,-0.5537672,-0.9703693,-0.03299334,0.05781022,-0.17641735,-0.3909719,-0.34597272,0.060121205,-3.0716043,0.62983173,0.00030354093,-0.09474897,0.024254818,-0.000996426,0.055581182,-0.017593859,-0.022761492,0.46730083,-1.4105011,1.9379267,-2.093109,-1.5755118,2.4462557,-0.10073086,0.15618148,-0.19595908,0.080297604,-0.04221629,-0.07765119,-0.40222588,0.1340753,-9.289502,0.8224646,47.66987,-1.1884749,-1.9247065,-3.323461,-0.26476884,-0.19113082,-0.1800366,28.6875,29.6875,29.0,33.0,35.4375,36.5
0.21005481,-2.185208,-1.753019,-0.9721138,-0.046399195,0.08780477,-0.16453463,-0.39112523,-0.34591958,0.060067788,-3.0713816,0.62984407,0.00011594734,-0.097987436,0.025570672,-0.0011157802,0.05412451,-0.016293947,-0.027544115,0.46713093,-1.410104,1.9375423,-2.0928943,-1.5756077,2.4461231,-0.10634692,0.15865988,-0.19811487,0.07813729,-0.041538518,-0.07847709,-0.68953013,0.30645782,-9.3661175,0.87393653,47.647476,-1.0013177,-1.9694748,-3.3428154,-0.25855863,-0.21234913,-0.1320425,28.6875,29.6875,29.0,33.0,35.4375,36.5
0.21205436,-2.5000803,-2.6190526,-0.9618389,-0.07274283,0.112937,-0.16446905,-0.39133534,-0.3458647,0.060104128,-3.0712929,0.6298815,0.00023147669,-0.09847692,0.02481638,-0.0012498032,0.055285122,-0.013812999,-0.025967387,0.46691588,-1.4098629,1.9371489,-2.0927513,-1.5757169,2.4459434,-0.1040054,0.16023989,-0.19915141,0.07589538,-0.04370378,-0.077700116,-0.7086837,0.36391866,-9.385271,0.8403672,47.65912,-1.1707017,-1.9371374,-3.3456016,-0.21748441,-0.22478315,-0.11238909,28.6875,29.6875,29.0,33.0,35.4375,36.5
0.2140548,-2.4894962,-2.5622468,-0.9508148,-0.1058743,0.13627994,-0.17145601,-0.3915152,-0.34583157,0.060083654,-3.0711703,0.62987643,0.00014039014,-0.100624554,0.025579512,-0.0013314435,0.054672062,-0.012139752,-0.03015252,0.46673477,-1.4095021,1.9367417,-2.0925848,-1.5757769,2.4457755,-0.10707682,0.16186403,-0.20040764,0.07375148,-0.043928556,-0.07657887,-0.7852981,0.36391866,-9.481039,0.8314132,47.684196,-1.0747449,-1.8909683,-3.310368,-0.172252,-0.21730292,-0.09579752,28.6875,29.6875,29.0,33.0,35.4375,36.5
0.21605441,-2.9585943,-3.4162765,-1.209215,-0.08852606,0.12545149,-0.16672234,-0.3917191,-0.3457745,0.06006034,-3.0710337,0.63002354,5.0835948e-05,-0.10289881,0.025438692,-6.874246e-05,0.05169285,-0.008625592,-0.035163388,0.46648207,-1.4091418,1.9363464,-2.0924413,-1.5758246,2.445633,-0.10947817,0.16154253,-0.20251726,0.07169911,-0.04286413,-0.073969305,-0.8619126,0.38307226,-9.576807,0.9186956,47.689575,-0.9457876,-1.8516822,-3.4952922,-0.14389624,-0.24206868,-0.098691896,28.6875,29.6875,29.0,33.0,35.4375,36.5
0.21805419,-2.796856,-2.3212767,-1.0328847,-0.09582599,0.11403089,-0.15909502,-0.39194477,-0.34572032,0.0600903,-3.0709229,0.63017476,0.00016456425,-0.1034493,0.025671184,-0.00042648372,0.052184574,-0.010143366,-0.039595693,0.4662538,-1.408865,1.9359287,-2.0923092,-1.5759324,2.445514,-0.11047355,0.16350254,-0.20432334,0.07312174,-0.04261412,-0.07053327,-0.8619126,0.36391866,-9.442732,0.8493211,47.67614,-0.89450073,-1.8923287,-3.5116405,-0.12222917,-0.26438674,-0.13087851,28.6875,29.6875,29.0,33.0,35.4375,36.5
0.22005437,-2.2329893,-2.0049968,-1.020005,-0.058533184,0.10269612,-0.15879953,-0.3921565,-0.3456947,0.060103122,-3.0708432,0.6301986,0.00022952749,-0.10621231,0.025339782,0.00019655912,0.05159452,-0.0065359976,-0.044235796,0.4660734,-1.4085395,1.9354967,-2.0921905,-1.5760168,2.4453592,-0.11158982,0.16608182,-0.20830555,0.07104648,-0.043713886,-0.06700023,-0.93852705,0.38307226,-9.461885,0.8672237,47.675243,-0.8712003,-1.9646373,-3.3455353,-0.07665743,-0.27316788,-0.17722279,28.6875,29.6875,29.0,33.0,35.4375,36.5
0.22205503,-1.9974431,-1.231567,-1.0193933,-0.02662923,0.097331785,-0.15802021,-0.39238927,-0.34564143,0.060100626,-3.0707245,0.63032657,0.00028960372,-0.1070036,0.024993032,-0.00073868595,0.051849302,-0.0067314436,-0.045444734,0.4658333,-1.4081904,1.9350775,-2.0920951,-1.5761131,2.445215,-0.1115171,0.16935481,-0.20962736,0.06937518,-0.04386388,-0.065715335,-0.8810662,0.19153613,-9.346964,0.85826975,47.661808,-0.9627375,-1.9323776,-3.4407036,-0.03145259,-0.2880965,-0.1841841,28.6875,29.6875,29.0,33.0,35.4375,36.5
0.22405449,-1.9520133,-0.7059293,-1.1440512,0.009197704,0.081909284,-0.16062675,-0.39259696,-0.34559974,0.060099088,-3.0706153,0.6304802,0.00025576848,-0.107132815,0.025824854,-0.00025684506,0.052738525,-0.007974866,-0.051559754,0.46560493,-1.4078542,1.9346598,-2.0919502,-1.5761608,2.4450972,-0.11288792,0.16869791,-0.21076436,0.07269348,-0.044086117,-0.060967237,-0.7086837,0.095768064,-9.385271,0.85155696,47.68599,-1.0285909,-1.8513348,-3.4909909,-0.007932666,-0.29259652,-0.24791867,28.6875,29.6875,29.0,33.0,35.4375,36.5
0.2260549,-1.3579544,-0.3319064,-0.90697324,0.008426366,0.08826438,-0.16906865,-0.39284456,-0.3455304,0.06009669,-3.0704315,0.63067013,0.00033221953,-0.107250035,0.024209425,7.695776e-05,0.050415203,-0.007980717,-0.049762476,0.46535346,-1.4074813,1.9342049,-2.091819,-1.5763038,2.444989,-0.11138983,0.1699254,-0.21299663,0.072632015,-0.04202419,-0.061274946,-0.5554548,0.038307227,-9.270349,0.9298854,47.688675,-1.0356658,-1.8831239,-3.4775403,0.009308476,-0.35189784,-0.2456167,28.6875,29.6875,29.0,33.0,35.4375,36.5
0.22805583,-1.1430756,-0.14751546,-0.7342855,0.0016691285,0.069385804,-0.16519724,-0.39304256,-0.34549272,0.06008115,-3.0702758,0.6307504,0.00030332577,-0.109523565,0.02536742,0.00035576016,0.0516565,-0.0074055498,-0.049837116,0.46517253,-1.4071083,1.9337739,-2.0916626,-1.5764006,2.444879,-0.11450118,0.1719933,-0.21637505,0.07395957,-0.043420326,-0.06429799,-0.4213795,-0.095768064,-9.251195,0.8627467,47.694946,-1.0906658,-1.8513789,-3.39711,0.053395063,-0.3606515,-0.25586334,28.6875,29.6875,29.0,33.0,35.4375,36.5
0.23005466,-1.1328865,-0.3983048,-0.8134226,0.007256487,0.040546604,-0.16079196,-0.39331648,-0.34544855,0.060092226,-3.070191,0.6309443,0.0003949094,-0.10878463,0.025556019,-0.00014589757,0.05495712,-0.009994274,-0.049315814,0.46489713,-1.4067235,1.9332842,-2.0915773,-1.5764731,2.4447362,-0.11294491,0.17369115,-0.21810475,0.0777814,-0.045207445,-0.0632532,-0.26815057,-0.22984336,-9.251195,0.83813137,47.66271,-1.0670233,-1.8933145,-3.4195747,0.04621484,-0.36341655,-0.24600774,28.6875,29.6875,29.0,33.0,35.4375,36.5
0.23205525,-0.22046717,0.028237645,-0.75708437,0.012691858,0.032642383,-0.1620738,-0.39349532,-0.3453746,0.06006048,-3.069975,0.63099474,0.00032674367,-0.109218545,0.026860679,-0.0005854767,0.05796302,-0.012849504,-0.051845584,0.46469247,-1.4063745,1.9329122,-2.091396,-1.5766057,2.444592,-0.11466765,0.1756153,-0.22030878,0.08195344,-0.04662344,-0.06243012,-0.17238252,-0.19153613,-9.155427,0.86498255,47.67614,-1.079074,-2.040481,-3.2950068,0.03155853,-0.37605643,-0.2968294,28.6875,29.6875,29.0,33.0,35.4375,36.5
0.23405474,-0.21755247,0.15898648,-0.7505836,0.021556847,0.00982586,-0.16674545,-0.39371315,-0.34530824,0.060047038,-3.0697854,0.6311848,0.00021365931,-0.10898289,0.028095558,-0.0014810454,0.061619624,-0.017439337,-0.052141137,0.4644282,-1.4059889,1.9324454,-2.0911677,-1.5766782,2.4444718,-0.115775846,0.17813122,-0.22242254,0.087275796,-0.047851954,-0.063228115,-0.095768064,-0.30645782,-9.136273,0.8560339,47.690468,-1.0450879,-2.1534164,-3.3952618,0.022077838,-0.3651315,-0.3132037,28.6875,29.6875,29.0,33.0,35.4375,36.5
0.23605426,0.22035128,0.31718156,-0.7439858,0.04089413,0.004030007,-0.15511279,-0.39395556,-0.345257,0.06005436,-3.0696607,0.6313115,0.0003232092,-0.10904842,0.029327238,-0.0022936282,0.06510891,-0.021467974,-0.053151038,0.4641997,-1.4056401,1.9320029,-2.09107,-1.5767988,2.4443393,-0.117084526,0.18073769,-0.22471958,0.09211555,-0.0491736,-0.0635181,0.0,-0.22984336,-9.11712,0.9321212,47.67614,-1.035302,-2.075607,-3.3625998,-0.021493629,-0.364704,-0.32316208,28.6875,29.6875,29.0,33.0,35.4375,36.5
0.23805471,0.8467478,0.15614238,-0.9190987,0.058176734,0.0051165535,-0.16047801,-0.3941487,-0.34520292,0.06004466,-3.069513,0.6313769,0.0002116365,-0.10777292,0.03090089,-0.0033220372,0.07018864,-0.027896,-0.05392963,0.46397159,-1.4052912,1.9315718,-2.0908515,-1.5768594,2.444172,-0.117593616,0.1825736,-0.2262766,0.09985133,-0.050843615,-0.06323187,0.038307227,-0.22984336,-9.232041,0.8672237,47.694946,-1.0311085,-2.163187,-3.367261,-0.094510175,-0.37782598,-0.3445567,28.6875,29.6875,29.0,33.0,35.4375,36.5
0.2400543,0.19671169,0.3796082,-0.9262212,0.03185974,-0.0018421592,-0.16973333,-0.39437982,-0.34513694,0.060030542,-3.0693076,0.6315428,0.0001479555,-0.10792449,0.032010935,-0.0039545167,0.07332842,-0.029695021,-0.05365613,0.46371946,-1.4048821,1.9310817,-2.0906355,-1.5769676,2.444051,-0.11831322,0.18415777,-0.22725406,0.10223978,-0.052871313,-0.064205125,0.13407528,-0.19153613,-9.232041,0.91421866,47.69763,-1.0290532,-2.1615634,-3.353532,-0.13662381,-0.3541293,-0.35504806,28.6875,29.6875,29.0,33.0,35.4375,36.5
0.24205486,0.41636676,-0.35508263,-0.8059769,0.016978282,0.0186055,-0.17091526,-0.39457366,-0.34505263,0.06001966,-3.0690663,0.63166267,8.946861e-05,-0.10722043,0.032642957,-0.0033559198,0.07770246,-0.032948807,-0.050451476,0.46349177,-1.4045457,1.9306625,-2.0903928,-1.5771126,2.4439306,-0.11715696,0.1846105,-0.23100711,0.11038091,-0.055352505,-0.06622863,0.17238252,0.019153614,-9.251195,0.842603,47.637623,-1.1272281,-2.1638422,-3.3180723,-0.23565134,-0.3399473,-0.35341758,28.6875,29.6875,29.0,33.0,35.4375,36.5
0.24405429,0.5156486,-0.27350485,-1.1251572,-0.006269926,0.024022821,-0.17957863,-0.39479226,-0.3449799,0.060001157,-3.0688367,0.6317671,4.7247282e-05,-0.10896732,0.034199778,-0.0034689575,0.08014235,-0.0326334,-0.050836913,0.46326262,-1.4041483,1.9301962,-2.0901773,-1.5772575,2.4437976,-0.11986764,0.1863482,-0.23305349,0.11146902,-0.0577145,-0.06852927,0.19153613,0.17238252,-9.193734,0.8224646,47.691364,-0.95317054,-2.3318505,-3.2732859,-0.2827963,-0.32585204,-0.34286898,28.6875,29.6875,29.0,33.0,35.4375,36.5
0.24605504,-0.5742421,-1.2987827,-1.1813393,-0.024942508,0.020567399,-0.15897974,-0.39499423,-0.34493533,0.05999783,-3.0686731,0.63182527,-3.814827e-05,-0.11016659,0.033912808,-0.0031362274,0.081123985,-0.031102493,-0.04738269,0.4630592,-1.4037752,1.9297174,-2.089938,-1.5773419,2.4436526,-0.11933422,0.18816018,-0.23600428,0.111645676,-0.05932045,-0.071430124,0.038307227,0.24899697,-9.270349,0.92093146,47.705692,-1.2491672,-2.2547975,-3.2702818,-0.3245625,-0.31289056,-0.33024842,28.6875,29.6875,29.0,33.0,35.4375,36.5
0.24805486,-1.152135,-1.9918269,-1.0994172,-0.06350685,0.034337725,-0.17135313,-0.39519778,-0.34482765,0.05997033,-3.068401,0.63192004,-0.00016617865,-0.112106554,0.03504148,-0.0034527683,0.0834108,-0.027983394,-0.045195032,0.4627824,-1.4034028,1.9292873,-2.0896642,-1.5774873,2.4434717,-0.12073224,0.18983097,-0.23660764,0.10877003,-0.06282011,-0.07497785,0.095768064,0.30645782,-9.308657,0.85826975,47.674347,-1.0354972,-2.2342257,-3.4305248,-0.32367605,-0.26626438,-0.28735775,28.6875,29.6875,29.0,33.0,35.4375,36.5
0.2500543,-0.9253001,-2.279454,-1.3353192,-0.09746321,0.06575092,-0.1709241,-0.39545673,-0.3447556,0.059994366,-3.0682209,0.63212824,-7.503435e-05,-0.11453574,0.034709882,-0.0032109662,0.08143583,-0.02375876,-0.042650063,0.4625183,-1.4030538,1.9287852,-2.0894744,-1.5776309,2.443362,-0.12210019,0.19147709,-0.23801492,0.10381536,-0.06299313,-0.078885935,0.019153614,0.34476504,-9.461885,0.8851263,47.684196,-1.137456,-2.1429129,-3.468593,-0.29783192,-0.250067,-0.2351271,28.6875,29.6875,29.0,33.0,35.4375,36.5
0.2520545,-1.2912723,-2.9877374,-1.1744293,-0.113448106,0.08298892,-0.17404197,-0.3956715,-0.34468967,0.05997983,-3.0680165,0.63217956,-0.00015037405,-0.11832243,0.034498163,-0.001112664,0.07933727,-0.014874713,-0.041032635,0.4622898,-1.4026575,1.9283055,-2.089237,-1.577752,2.4431932,-0.12362671,0.19079833,-0.24086668,0.098420314,-0.065139055,-0.082003094,-0.11492168,0.4213795,-9.423578,0.8918391,47.687782,-1.0623951,-2.1305764,-3.4763267,-0.25154185,-0.21597952,-0.22213157,28.6875,29.6875,29.0,33.0,35.4375,36.5
0.2540549,-2.087459,-3.4924493,-1.4554155,-0.09455383,0.07566328,-0.16429713,-0.39591473,-0.3446429,0.059986103,-3.06787,0.63214433,-8.683531e-05,-0.12140717,0.03489932,-0.0002345485,0.0797802,-0.007827756,-0.0375104,0.46208557,-1.4022613,1.9277915,-2.089059,-1.5778974,2.442987,-0.12468034,0.19144742,-0.2425181,0.09326733,-0.06873393,-0.08654773,-0.19153613,0.4405331,-9.557653,0.8403672,47.690468,-1.0596676,-2.1239996,-3.457077,-0.17968649,-0.16029064,-0.14750156,28.6875,29.6875,29.0,33.0,35.4375,36.5
0.25605452,-1.7732654,-2.0427105,-1.7400699,-0.08249888,0.07541965,-0.16854078,-0.39614514,-0.34454477,0.059947364,-3.067611,0.63228124,-0.00014694818,-0.12242707,0.034655806,-0.00088024035,0.07840488,-0.006670575,-0.037993163,0.46180913,-1.4018403,1.927349,-2.0888689,-1.5780534,2.442831,-0.12550282,0.19330533,-0.24246405,0.08966944,-0.06805491,-0.08688043,-0.22984336,0.38307226,-9.595961,0.91421866,47.690468,-1.0840755,-2.0536375,-3.4875212,-0.14114119,-0.12992908,-0.11690573,28.6875,29.6875,29.0,33.0,35.4375,36.5
0.25805438,-1.4977238,-1.7780964,-1.7040831,-0.06735503,0.07295596,-0.16400105,-0.3963756,-0.34449568,0.05994634,-3.0674927,0.632293,-0.00013503607,-0.123895675,0.03441271,-0.0009200807,0.07716547,-0.0058513945,-0.036062464,0.4615808,-1.4014672,1.9268831,-2.0887134,-1.5781492,2.4426262,-0.12673736,0.19534653,-0.24451567,0.08834446,-0.067351334,-0.09004558,-0.36391866,0.40222588,-9.710882,0.8314132,47.70211,-1.1593658,-1.9894783,-3.6437683,-0.09173168,-0.13085794,-0.08680813,28.6875,29.6875,29.0,33.0,35.4375,36.5
0.26005462,-1.4175109,-2.0019884,-1.4888217,-0.069085,0.080171846,-0.17490537,-0.39665696,-0.34441552,0.059942476,-3.0673113,0.6325247,-9.83188e-05,-0.124614015,0.03432815,-0.00085679174,0.07656929,-0.005398298,-0.039578624,0.4612684,-1.4010465,1.9263686,-2.0885584,-1.5782689,2.4424832,-0.12732804,0.19622645,-0.24566282,0.08793028,-0.067022726,-0.08711787,-0.5554548,0.36391866,-9.768343,0.84708,47.679718,-1.0167933,-2.0167174,-3.6728704,-0.054816194,-0.11727556,-0.060201295,28.6875,29.6875,29.0,33.0,35.4375,36.5
0.26205498,-2.0707185,-1.8833061,-1.7077391,-0.04990228,0.06036059,-0.15502149,-0.39689004,-0.34435883,0.059954926,-3.0671387,0.6325671,-2.7495376e-05,-0.12721786,0.0354113,0.00013268438,0.07478523,-0.0037812237,-0.04613634,0.46106297,-1.400686,1.9258784,-2.0883663,-1.5784248,2.4423277,-0.13199635,0.1963842,-0.2481981,0.08805025,-0.06615148,-0.08522993,-0.7278373,0.3256114,-9.672575,0.8560339,47.651955,-1.0157692,-1.9228226,-3.703887,-0.033451457,-0.11384794,-0.06155933,28.6875,29.6875,29.0,33.0,35.4375,36.5
0.26405463,-1.5084803,-1.4700726,-1.7334803,-0.044790916,0.077968076,-0.16616777,-0.39715585,-0.3442768,0.05992953,-3.0669553,0.63260335,-1.4498355e-05,-0.12668574,0.033315953,0.00049787125,0.07291682,-0.005041902,-0.045609195,0.4607762,-1.4002413,1.9253873,-2.0882218,-1.5785679,2.4420886,-0.1291697,0.19792557,-0.25133353,0.089921914,-0.063924424,-0.08293993,-0.7278373,0.114921674,-9.672575,0.88289046,47.67166,-1.0870968,-1.9694732,-3.7340722,-0.013624687,-0.12737715,-0.06074386,28.6875,29.6875,29.0,33.0,35.4375,36.5
0.2660545,-1.878656,-1.2233678,-1.5515534,-0.03648916,0.07712045,-0.15216805,-0.39740413,-0.34422952,0.059926007,-3.0668032,0.6327838,-3.2312948e-06,-0.12750465,0.03263222,0.00054352387,0.07120304,-0.0075653535,-0.050171904,0.46053547,-1.3998319,1.9248842,-2.0880654,-1.5786628,2.4419813,-0.13029411,0.20069908,-0.25537044,0.09267895,-0.061262585,-0.079516545,-0.7086837,0.076614454,-9.749189,0.9567419,47.70032,-1.0182819,-2.0957718,-3.5468965,-0.02375152,-0.13826182,-0.09391472,28.6875,29.6875,29.0,33.0,35.4375,36.5
0.26805386,-1.3612932,-0.785842,-1.4200859,-0.021713283,0.08269882,-0.16412069,-0.3976578,-0.344172,0.059921272,-3.0666199,0.6328603,-2.125382e-06,-0.12740503,0.032215696,0.00050512364,0.070428096,-0.010705037,-0.053268727,0.4602955,-1.3993988,1.9243454,-2.0878603,-1.5787944,2.4418142,-0.13071734,0.2023004,-0.25801584,0.09618088,-0.059171308,-0.076852545,-0.7469909,0.019153614,-9.557653,0.8873621,47.70211,-1.0853698,-2.1336505,-3.5039327,-0.008240478,-0.16342965,-0.120888926,28.6875,29.6875,29.0,33.0,35.4375,36.5
0.2700543,-1.3458507,-0.11958321,-1.3106916,-0.0043911114,0.066560104,-0.17132798,-0.3978925,-0.34410432,0.059909113,-3.0664332,0.6330518,-5.3282813e-05,-0.12644607,0.032430794,-0.00015352963,0.0722924,-0.01768379,-0.05658589,0.46003145,-1.3990016,1.9238676,-2.0876663,-1.5788897,2.4416952,-0.13108408,0.20511155,-0.26161912,0.10405032,-0.05773332,-0.07390608,-0.7278373,-0.05746084,-9.576807,0.8605109,47.68062,-1.1079528,-2.0711436,-3.5542033,-0.08472349,-0.19300123,-0.15446296,28.6875,29.6875,29.0,33.0,35.4375,36.5
0.27205515,-1.3781115,-0.28690386,-1.3708696,0.02594715,0.04861687,-0.15663235,-0.3981559,-0.34402812,0.05989923,-3.0662332,0.6332216,-7.913323e-05,-0.12722507,0.03294947,3.7150297e-05,0.0727895,-0.020918213,-0.0608505,0.4597426,-1.3985682,1.9233397,-2.0874608,-1.5790089,2.4415398,-0.13320641,0.2071343,-0.26563263,0.10914936,-0.056748424,-0.071764134,-0.5554548,-0.17238252,-9.5385,0.83589023,47.66987,-1.1394314,-2.1758833,-3.4653177,-0.10714336,-0.21407107,-0.20944735,28.6875,29.6875,29.0,33.0,35.4375,36.5
0.27405486,-0.2017792,0.38395804,-1.3906878,0.022303205,0.060953666,-0.15734628,-0.39839974,-0.34398237,0.059910413,-3.06609,0.63332677,-0.00010856648,-0.12745705,0.033632744,-0.00077594863,0.0743839,-0.026123216,-0.06404039,0.45950213,-1.3981702,1.9227995,-2.0872319,-1.5790929,2.4413846,-0.13507728,0.21057272,-0.26904798,0.114487045,-0.05587371,-0.0704462,-0.5363012,-0.24899697,-9.500193,0.8605109,47.689575,-1.0241394,-2.3479888,-3.1693187,-0.17786728,-0.24243692,-0.2257747,28.6875,29.6875,29.0,33.0,35.4375,36.5
0.27605456,-0.9978702,0.29295403,-1.439988,0.013764392,0.034370407,-0.15928689,-0.39869267,-0.34389806,0.059927404,-3.065895,0.6335544,-3.8465947e-05,-0.12755692,0.03469836,-0.0016386409,0.075845495,-0.029770583,-0.067149095,0.45918953,-1.3977616,1.9222392,-2.0870278,-1.5792369,2.4412408,-0.13711543,0.2125689,-0.2701443,0.11748539,-0.055576835,-0.06937497,-0.51714754,-0.28730422,-9.404425,0.9097417,47.68062,-1.051858,-2.3471913,-3.2543454,-0.22169511,-0.26048306,-0.25936148,28.6875,29.6875,29.0,33.0,35.4375,36.5
0.27805406,-1.1098807,-0.19773182,-1.3060688,0.0007439156,0.039544787,-0.16222341,-0.3989555,-0.34381732,0.059921443,-3.0656574,0.6337501,-9.529076e-05,-0.12648223,0.034342762,-0.0016702968,0.07678621,-0.03259498,-0.06453897,0.458902,-1.3973173,1.921676,-2.0867627,-1.579369,2.441108,-0.1356955,0.21300998,-0.2715235,0.1213358,-0.055198863,-0.07056043,-0.38307226,-0.28730422,-9.3661175,0.8605109,47.66987,-1.046375,-2.3181877,-3.4313226,-0.28850675,-0.26218808,-0.29034093,28.6875,29.6875,29.0,33.0,35.4375,36.5
0.2800545,-1.3105601,-0.9003583,-1.3426168,-0.00981069,0.05395115,-0.15433824,-0.39916897,-0.34374925,0.05988368,-3.065431,0.63389504,-0.00027320447,-0.12760916,0.034834426,-0.0029357406,0.076288074,-0.032689534,-0.06767238,0.4586491,-1.3968719,1.9211873,-2.0865128,-1.5794524,2.4409766,-0.13775092,0.2156763,-0.27109867,0.11809717,-0.054739904,-0.06947454,-0.40222588,-0.19153613,-9.442732,0.8851263,47.650166,-0.9666096,-2.339365,-3.5131617,-0.28830618,-0.2956152,-0.30345646,28.6875,29.6875,29.0,33.0,35.4375,36.5
0.28205484,-2.5135543,-1.2407806,-1.3445607,-0.038096532,0.052166913,-0.1632668,-0.3994606,-0.34366024,0.059909523,-3.0652335,0.63406265,-0.0002027143,-0.12888321,0.033859897,-0.0017222698,0.0740482,-0.029694313,-0.06905012,0.45833755,-1.3964757,1.9206132,-2.086274,-1.5796083,2.4407969,-0.13746315,0.21555527,-0.27356052,0.11698782,-0.05407636,-0.067810364,-0.34476504,-0.11492168,-9.442732,0.8784135,47.655537,-1.038928,-2.2394156,-3.6167474,-0.29130852,-0.339365,-0.36790025,28.6875,29.6875,29.0,33.0,35.4375,36.5
0.28405404,-1.8944224,-1.7554829,-1.0929868,-0.044672024,0.08497772,-0.1597995,-0.39972666,-0.34360942,0.059907813,-3.0650334,0.6342493,-0.0002495691,-0.13242574,0.032688998,0.00036349677,0.06992431,-0.02166303,-0.0686792,0.4580852,-1.3960071,1.9200147,-2.0860245,-1.5797166,2.4406886,-0.13845252,0.2154253,-0.2770571,0.11155404,-0.053982537,-0.069163114,-0.3256114,-0.095768064,-9.442732,0.9321212,47.696735,-1.0148249,-2.165601,-3.5311098,-0.24449104,-0.36472037,-0.40051067,28.6875,29.6875,29.0,33.0,35.4375,36.5
0.28605488,-1.7833272,-1.0742457,-1.2044779,-0.04967116,0.085715495,-0.17322758,-0.3999914,-0.34354383,0.059913978,-3.0648715,0.6345023,-0.00028855415,-0.13438481,0.03201935,0.0019296128,0.06697346,-0.015391911,-0.06813568,0.45778498,-1.3955994,1.9194769,-2.0858104,-1.5797881,2.4405687,-0.13876878,0.2138135,-0.277808,0.10695912,-0.054146707,-0.0700165,-0.17238252,0.095768064,-9.3661175,1.0373062,47.6636,-1.0116714,-2.14931,-3.5051951,-0.19103608,-0.38009068,-0.40255672,28.6875,29.6875,29.0,33.0,35.4375,36.5
0.28805467,-2.2983024,-1.0900649,-1.6737455,-0.035755564,0.053024877,-0.1608393,-0.4002529,-0.3434779,0.05989786,-3.0646625,0.6346271,-0.0002867146,-0.13604176,0.031025646,0.0022027534,0.06589055,-0.011633714,-0.066840984,0.45753354,-1.3951422,1.918938,-2.0856206,-1.5799326,2.440424,-0.13790905,0.21566926,-0.2798621,0.10328272,-0.054870035,-0.07043779,-0.15322891,0.11492168,-9.5385,0.9254084,47.67614,-1.1762564,-1.9348047,-3.4911983,-0.12879324,-0.43299,-0.45826834,28.6875,29.6875,29.0,33.0,35.4375,36.5
0.2900542,-1.3578616,-1.7684696,-1.758521,-0.026777275,0.055119127,-0.1572902,-0.40052724,-0.34340283,0.05990259,-3.0644896,0.63478005,-0.00029280214,-0.1386842,0.031896856,0.0035057543,0.06649642,-0.007175567,-0.06559367,0.4572327,-1.3947217,1.9183882,-2.085405,-1.5800418,2.4402425,-0.13999318,0.21559869,-0.28260568,0.10231862,-0.057433054,-0.07374049,-0.17238252,0.21068975,-9.519346,0.9298854,47.672558,-1.0294319,-1.9231622,-3.6102843,-0.06466973,-0.4229213,-0.46121782,28.6875,29.6875,29.0,33.0,35.4375,36.5
0.29205474,-1.1941313,-1.6444666,-1.7910396,-0.0617978,0.046261594,-0.1680855,-0.40083238,-0.34333274,0.05992263,-3.064333,0.6350316,-0.00019986823,-0.14024529,0.03186229,0.0034760823,0.067030825,-0.00746469,-0.06207733,0.45692074,-1.3943007,1.9178132,-2.0852368,-1.5801615,2.4401093,-0.14090995,0.21874647,-0.28657317,0.103566565,-0.057836533,-0.07816765,-0.076614454,0.28730422,-9.500193,0.90750587,47.67345,-1.2594693,-1.7729514,-3.4688997,-0.05101432,-0.4251409,-0.41721267,28.6875,29.6875,29.0,33.0,35.4375,36.5
0.2940541,-0.33268383,-1.8619103,-1.8525953,-0.06097328,0.045792542,-0.16691379,-0.4011262,-0.34326106,0.059905536,-3.0641325,0.6351767,-0.00017168802,-0.14185739,0.032328617,0.004296582,0.068703175,-0.0057066125,-0.057844672,0.4566324,-1.3938079,1.9172391,-2.085069,-1.5803069,2.4399393,-0.14152832,0.21975137,-0.29005176,0.105133966,-0.060170926,-0.08299154,-0.095768064,0.34476507,-9.615114,0.94331104,47.689575,-1.143534,-1.8643209,-3.280662,-0.03178398,-0.4578024,-0.41630822,28.6875,29.6875,29.0,33.0,35.4375,36.5
0.29605475,-1.173887,-2.1904805,-2.2295501,-0.063090816,0.022275856,-0.1495814,-0.40140238,-0.34315985,0.059917778,-3.06391,0.6353572,-0.00017337759,-0.14333533,0.034412418,0.0037340757,0.07302857,-0.0049126875,-0.05491408,0.45630756,-1.3934106,1.9166883,-2.0848053,-1.5804518,2.4397578,-0.14362228,0.2214719,-0.29086632,0.10535697,-0.06446439,-0.08796982,-0.076614454,0.40222588,-9.768343,0.98807013,47.705692,-1.0288854,-1.8093932,-3.3676777,-0.0049381554,-0.42953402,-0.35097754,28.6875,29.6875,29.0,33.0,35.4375,36.5
0.2980544,-0.89298594,-2.4796271,-2.2149203,-0.06000562,0.040486183,-0.15316972,-0.4016696,-0.34308842,0.059910927,-3.0636978,0.63544244,-0.00019323833,-0.14383577,0.03673523,0.0015106435,0.07892256,-0.00937719,-0.052047983,0.45604286,-1.3929526,1.9161152,-2.084565,-1.5805968,2.4395757,-0.14587696,0.22622778,-0.29206952,0.108340666,-0.06784654,-0.09305068,-0.038307227,0.4405331,-9.80665,0.9365982,47.682407,-0.95420545,-2.0418758,-3.5191789,-0.007175809,-0.37386316,-0.30252016,28.6875,29.6875,29.0,33.0,35.4375,36.5
0.30005488,-1.0833446,-2.344619,-2.0362852,-0.061382014,0.04917431,-0.15327808,-0.4019485,-0.34303075,0.059920713,-3.0635607,0.63550586,-0.00022720167,-0.14262497,0.038773213,-0.00065621926,0.08414172,-0.016065197,-0.049215835,0.45575455,-1.392507,1.9155177,-2.0843236,-1.5806822,2.439346,-0.1471556,0.22912675,-0.2916786,0.11329173,-0.06963046,-0.09713951,0.076614454,0.36391866,-9.883265,0.9097417,47.65464,-0.8513303,-2.13514,-3.6782413,-0.03954589,-0.3822863,-0.23731849,28.6875,29.6875,29.0,33.0,35.4375,36.5
0.30205446,-1.4207587,-2.1543565,-1.7490299,-0.059515607,0.044854205,-0.15882953,-0.40224206,-0.3429543,0.059907142,-3.0633328,0.6356275,-0.0002337928,-0.14274986,0.040437624,-0.0012023948,0.08945964,-0.018452436,-0.046900705,0.45546627,-1.3920017,1.9149069,-2.0840948,-1.580839,2.4391654,-0.14767589,0.23095877,-0.2936608,0.117875524,-0.07339946,-0.09993027,0.0,0.30645782,-9.844957,0.9254084,47.65912,-0.8893838,-2.20363,-3.669027,-0.09244449,-0.34980938,-0.1963187,28.6875,29.6875,29.0,33.0,35.4375,36.5
0.30405506,-1.218895,-1.8718104,-1.2127192,-0.037058443,0.033167142,-0.15240368,-0.40258512,-0.34289908,0.059949953,-3.063225,0.63585263,-8.314061e-05,-0.14204101,0.04196686,-0.0022316447,0.09546365,-0.023625681,-0.046599448,0.45514256,-1.3915565,1.9142498,-2.0839245,-1.5809482,2.4389973,-0.14762852,0.23371832,-0.29616097,0.12487701,-0.07652318,-0.10015699,-0.05746084,0.2681506,-9.404425,0.8247004,47.691364,-0.96612144,-2.164691,-3.5865943,-0.17219886,-0.30847806,-0.17911452,28.6875,29.6875,29.0,33.0,35.4375,36.5
0.3060549,0.27825236,-0.1461456,-1.4057037,-0.0036591704,0.028719319,-0.16124499,-0.40287036,-0.34279817,0.059938695,-3.0629592,0.63590926,-0.00010046396,-0.1437496,0.043181874,-0.0007804156,0.09772268,-0.02218976,-0.046635102,0.45484173,-1.391076,1.9136518,-2.083648,-1.5811409,2.4387686,-0.14939936,0.2334399,-0.30007467,0.1287219,-0.07923203,-0.10185317,0.038307227,0.1340753,-9.346964,1.005978,47.68599,-1.0207574,-2.172596,-3.601099,-0.18931225,-0.26999235,-0.101809055,28.6875,29.6875,29.0,33.0,35.4375,36.5
0.3080541,0.123832025,0.3970613,-1.2202411,0.025984257,-0.008252445,-0.15583298,-0.40317398,-0.3427451,0.059968024,-3.0628135,0.63597417,2.5037853e-06,-0.14377163,0.042245187,0.000739739,0.10004728,-0.02019963,-0.048019342,0.45457917,-1.3906319,1.9130167,-2.0834315,-1.5812863,2.438567,-0.14580274,0.23312639,-0.30403042,0.13225271,-0.08217274,-0.09684033,0.095768064,0.0,-9.270349,0.88289046,47.683304,-1.1401846,-2.0982833,-3.444109,-0.23710866,-0.23512022,-0.14059848,28.6875,29.6875,29.0,33.0,35.4375,36.5
0.31005466,0.57551426,0.46622348,-0.90172625,0.042158853,-0.009325594,-0.15091793,-0.40344763,-0.34265396,0.059957504,-3.0625517,0.63611037,-3.65581e-05,-0.1464344,0.042797383,0.0012498798,0.10043205,-0.018614594,-0.051906135,0.4542902,-1.3901627,1.9124302,-2.0831563,-1.5814542,2.4383993,-0.14827214,0.23576434,-0.30849242,0.13280125,-0.083243735,-0.09539744,0.13407528,-0.1340753,-9.155427,0.90527004,47.687782,-1.0080687,-1.9873884,-3.3533318,-0.25396448,-0.1939292,-0.1294474,28.6875,29.6875,29.0,33.0,35.4375,36.5
0.31205428,-0.010150537,0.36724442,-1.2768002,0.04324975,-0.028250068,-0.15674426,-0.40373126,-0.34253967,0.05994391,-3.0622885,0.6362487,-7.421928e-05,-0.14969154,0.043355998,0.0025627315,0.100916065,-0.0122926105,-0.06049738,0.45395362,-1.3897059,1.911868,-2.0828936,-1.5816239,2.4381857,-0.14990625,0.23638701,-0.31164238,0.12990385,-0.08644052,-0.08839305,0.0,-0.13407528,-9.059659,0.92093146,47.66091,-1.0582263,-1.9635661,-3.225784,-0.23450468,-0.12695642,-0.22645688,28.6875,29.6875,29.0,33.0,35.4375,36.5
0.31405678,0.17675027,-0.12960795,-1.035736,0.010453561,0.021414189,-0.156676,-0.4040467,-0.34248748,0.05998748,-3.0621104,0.6364032,2.6002204e-05,-0.15115206,0.0428627,0.0036548583,0.09685286,-0.009305654,-0.06464752,0.45368922,-1.3892502,1.9111732,-2.0826194,-1.5817789,2.4380426,-0.15164655,0.23528649,-0.31236187,0.12724009,-0.08410237,-0.086003445,-0.24899697,-0.11492168,-9.193734,0.85826975,47.694946,-0.91835785,-1.7930541,-3.2405214,-0.21443984,-0.14134827,-0.24558352,28.6875,29.6875,29.0,33.0,35.4375,36.5
0.31609568,-0.9905325,-0.9781129,-1.1328475,-0.028728416,0.062276818,-0.15958118,-0.40433618,-0.3423883,0.05999637,-3.0618646,0.63657933,2.5027448e-06,-0.15195462,0.041892882,0.0035026132,0.09499849,-0.0072680283,-0.06467898,0.4533655,-1.3888049,1.9105648,-2.0823214,-1.5819343,2.437863,-0.15098394,0.23665322,-0.31293702,0.123769514,-0.083359145,-0.08530511,-0.19153613,-0.17238252,-9.232041,0.947788,47.67614,-1.0493759,-1.826699,-3.2318263,-0.14785932,-0.13696888,-0.27592596,28.6875,29.6875,29.0,33.0,35.4375,36.5
0.3180855,-2.0324585,-1.7417539,-1.1761484,-0.04755125,0.080027506,-0.15994197,-0.4046059,-0.342302,0.059969794,-3.0615695,0.63674456,-9.352276e-05,-0.15443847,0.04055964,0.0051025995,0.08918666,-0.0025244525,-0.066502884,0.45308858,-1.3882885,1.909954,-2.0820239,-1.5821012,2.4377306,-0.15262617,0.23634334,-0.31546977,0.1197567,-0.08025421,-0.0851379,-0.30645782,-0.17238252,-9.442732,0.9030289,47.67614,-0.8726824,-1.65375,-3.4236374,-0.144254,-0.12529734,-0.2917249,28.6875,29.6875,29.0,33.0,35.4375,36.5
0.3200906,-3.079662,-2.3697634,-1.2603142,-0.0677663,0.10296625,-0.15761773,-0.40493065,-0.3422421,0.059989925,-3.061418,0.63688517,-9.475487e-06,-0.15470266,0.04042108,0.003302031,0.0864321,-0.0063289357,-0.06946363,0.4527881,-1.3878068,1.9092973,-2.0818207,-1.5822319,2.437539,-0.15507743,0.23985034,-0.31526238,0.11821388,-0.076126404,-0.08466898,-0.53630114,-0.17238252,-9.442732,0.91198283,47.63225,-1.028018,-1.7592076,-3.4808078,-0.10950123,-0.17359202,-0.30517548,28.6875,29.6875,29.0,33.0,35.4375,36.5
0.32209104,-2.2303886,-1.600805,-1.6259139,-0.06293468,0.116603784,-0.17383233,-0.4052255,-0.34214798,0.05999876,-3.0611773,0.63702255,-8.245304e-06,-0.15356202,0.03910475,0.0012319157,0.08693895,-0.0106071625,-0.06756082,0.45247722,-1.3873484,1.9086756,-2.0815332,-1.5823997,2.4373477,-0.15255785,0.24457784,-0.31625143,0.11850935,-0.07473177,-0.084056795,-0.5554548,-0.038307227,-9.634268,0.9567419,47.64389,-1.096405,-1.9480419,-3.5696306,-0.078411564,-0.20316544,-0.33222985,28.6875,29.6875,29.0,33.0,35.4375,36.5
0.32409728,-1.9604512,-1.4713157,-1.7119606,-0.04040836,0.09944902,-0.15889995,-0.40552416,-0.34208423,0.059994906,-3.060975,0.63715005,3.003019e-06,-0.15390837,0.038874973,0.0006643009,0.085873365,-0.011785614,-0.06863892,0.45220092,-1.3868438,1.9080414,-2.0813062,-1.5825433,2.4371793,-0.1532434,0.24635263,-0.31707,0.118114494,-0.07327886,-0.083672196,-0.49799395,0.0,-9.710882,0.98807013,47.677036,-1.080515,-2.032672,-3.6356301,-0.054722033,-0.20813844,-0.34177667,28.6875,29.6875,29.0,33.0,35.4375,36.5
0.32609686,-0.98777133,-0.72566694,-1.39461,-0.047644652,0.098287955,-0.17495973,-0.4058403,-0.34199744,0.060008287,-3.06077,0.6373146,5.2930285e-05,-0.15537806,0.037861936,0.0017411012,0.08410158,-0.009901977,-0.066503905,0.45187703,-1.3863751,1.9074072,-2.0810664,-1.5826982,2.436987,-0.15304789,0.24747437,-0.32102406,0.118416324,-0.07255506,-0.08561289,-0.61291564,0.1340753,-9.5385,0.96569055,47.695843,-1.1429291,-1.9758534,-3.5800529,-0.022602357,-0.257093,-0.38044757,28.6875,29.6875,29.0,33.0,35.4375,36.5
0.3280554,-0.9852771,-0.8903984,-1.5316415,-0.02048559,0.053545836,-0.17081186,-0.40614566,-0.341927,0.060000356,-3.0605698,0.6374992,6.3533495e-05,-0.15564337,0.037788868,0.0025173477,0.0838641,-0.011294478,-0.06475035,0.45157698,-1.3858702,1.9067863,-2.0808613,-1.5828308,2.4368303,-0.1535066,0.24765022,-0.3239759,0.12227913,-0.07177314,-0.08782706,-0.59376204,0.2873042,-9.500193,1.0126908,47.67614,-1.2443235,-1.9810691,-3.590611,-0.026846725,-0.2636379,-0.3352329,28.6875,29.6875,29.0,33.0,35.4375,36.5
0.33005446,-0.58271694,-0.7352591,-1.7430211,-0.01361234,0.044142786,-0.16372778,-0.4064292,-0.34184787,0.05999154,-3.0603626,0.63760513,-3.738582e-05,-0.1549274,0.03857433,0.002161005,0.086350955,-0.017170392,-0.06301655,0.45126468,-1.3853774,1.9061626,-2.0805714,-1.5829381,2.4366133,-0.15431927,0.24946412,-0.32708335,0.12988138,-0.071490355,-0.090365276,-0.6512229,0.24899697,-9.557653,0.9545008,47.661808,-1.2008274,-1.8870435,-3.5207691,-0.077269204,-0.25738224,-0.3427465,28.6875,29.6875,29.0,33.0,35.4375,36.5
0.33205476,-1.2195526,-1.2190143,-1.8752773,-0.025052251,0.01766195,-0.16199458,-0.40677208,-0.34177408,0.06001421,-3.0601337,0.63779944,7.126911e-05,-0.15239799,0.039680835,0.00013792951,0.08972413,-0.02741479,-0.056485634,0.45096457,-1.3848599,1.9054459,-2.0803168,-1.5831298,2.4364667,-0.15481456,0.2520895,-0.32751465,0.1382467,-0.07013095,-0.09740426,-0.5554548,0.2681506,-9.595961,0.90750587,47.651955,-1.2326174,-1.8563052,-3.6503162,-0.16228981,-0.29073295,-0.2674793,28.6875,29.6875,29.0,33.0,35.4375,36.5
0.33405453,-0.7522195,-1.7635186,-1.3022279,-0.060814027,0.051800102,-0.1661071,-0.40708533,-0.3416799,0.06002609,-3.059895,0.6379583,8.4889216e-05,-0.15284905,0.041225817,-0.00022672456,0.09168983,-0.031814594,-0.056933958,0.45063946,-1.384379,1.9047893,-2.0800278,-1.5832976,2.4362743,-0.15781967,0.25395602,-0.33021116,0.14382222,-0.07003343,-0.09995425,-0.40222588,0.24899697,-9.557653,0.95226496,47.684196,-1.0859227,-1.9032935,-3.601973,-0.23877676,-0.32178134,-0.24294636,28.6875,29.6875,29.0,33.0,35.4375,36.5
0.33605418,-1.7732614,-1.8384387,-1.2412163,-0.080477394,0.054188456,-0.1599908,-0.40739372,-0.34160748,0.06003443,-3.05971,0.6381243,-7.782847e-06,-0.15285228,0.041014,-0.00034411723,0.09233013,-0.03466026,-0.05182128,0.45030382,-1.3838739,1.904106,-2.079716,-1.5833815,2.4360685,-0.15767917,0.25600645,-0.33331186,0.14761652,-0.06945436,-0.1049235,-0.4213795,0.22984336,-9.500193,1.0328293,47.709274,-1.3574133,-1.8740621,-3.5146656,-0.31167704,-0.34457076,-0.1756695,28.6875,29.6875,29.0,33.0,35.4375,36.5
0.3380537,-1.6118442,-1.7113054,-1.3904655,-0.07190451,0.07036681,-0.17150871,-0.4077373,-0.34152147,0.060045693,-3.059493,0.6382652,4.10554e-05,-0.1554975,0.039539155,0.0009069178,0.089327894,-0.0286777,-0.04713659,0.44996804,-1.3833451,1.9033998,-2.0794542,-1.5835499,2.4358513,-0.1572082,0.25723013,-0.33671328,0.14300679,-0.06944557,-0.10913044,-0.22984336,0.17238252,-9.442732,0.87393653,47.65464,-1.3018082,-1.7380674,-3.455087,-0.31196725,-0.35552168,-0.08839896,28.6875,29.6875,29.0,33.0,35.4375,36.5
0.34005386,-1.6504109,-1.081677,-1.021423,-0.07117294,0.07660729,-0.1606207,-0.4080298,-0.34145266,0.06004938,-3.0593035,0.63835746,-2.9852043e-05,-0.15749547,0.03888019,-0.000117386466,0.08811086,-0.026352251,-0.047272936,0.4496678,-1.382851,1.9027432,-2.079157,-1.5836576,2.4356356,-0.15764312,0.2613825,-0.33820263,0.13768454,-0.06941307,-0.109418735,-0.1340753,-0.019153614,-9.385271,0.9030289,47.64121,-1.2767396,-1.7434196,-3.4938953,-0.27984184,-0.41346818,-0.06134965,28.6875,29.6875,29.0,33.0,35.4375,36.5
0.3420541,-1.5954206,-0.88582087,-1.0478913,-0.037386235,0.07192614,-0.17249142,-0.40835726,-0.341358,0.060027394,-3.0590465,0.63851184,-5.3839292e-05,-0.16176704,0.03814156,0.0016902462,0.08506951,-0.016230447,-0.04969762,0.4493315,-1.3822861,1.9020728,-2.0789082,-1.5838264,2.435432,-0.15875153,0.26180276,-0.34120676,0.12981303,-0.07111817,-0.10807091,-0.095768064,0.0,-9.32781,0.8985519,47.64479,-1.2766416,-1.8620725,-3.4517345,-0.17830265,-0.4180398,-0.04359339,28.6875,29.6875,29.0,33.0,35.4375,36.5
0.34405446,-1.3241755,-0.5766758,-0.84502405,-0.02194597,0.06686636,-0.16567394,-0.40868235,-0.34131047,0.060043346,-3.0588965,0.6385978,-4.555954e-05,-0.16636452,0.0389265,0.0034082278,0.08370557,-0.006143772,-0.05606137,0.44904214,-1.3817571,1.9013547,-2.0786474,-1.5839356,2.4352176,-0.16187267,0.26143515,-0.34317696,0.1224954,-0.07427884,-0.10478458,-0.11492168,0.038307227,-9.212888,0.9791215,47.68599,-1.0890057,-1.9478579,-3.3277478,-0.06776398,-0.39941156,-0.057199873,28.6875,29.6875,29.0,33.0,35.4375,36.5
0.34605443,-1.1580726,-0.2592222,-0.6211739,-0.02492366,0.064082175,-0.16076568,-0.40901482,-0.34121582,0.060049046,-3.0586574,0.63877845,4.0019193e-05,-0.16929135,0.041249067,0.0044323048,0.08660489,-0.0017689497,-0.063706525,0.44871747,-1.3812536,1.9006981,-2.0784204,-1.5841287,2.4350395,-0.16541502,0.261229,-0.34525865,0.122128025,-0.07877325,-0.10062231,-0.1340753,0.038307227,-9.078813,1.0015011,47.698532,-1.1976728,-1.5982933,-3.4674969,-0.028518137,-0.377042,-0.10131049,28.6875,29.6875,29.0,33.0,35.4375,36.5
0.34805346,-0.97871554,-0.043873426,-0.88444513,0.007350081,0.035544973,-0.16342597,-0.4093682,-0.34113052,0.060049623,-3.0584412,0.63897973,8.789866e-05,-0.16955309,0.04229745,0.0024879575,0.09246423,-0.0025962563,-0.06670475,0.44836965,-1.3806994,1.8999923,-2.0781925,-1.5842866,2.434848,-0.16422385,0.26551095,-0.34586704,0.12177329,-0.08367458,-0.096367575,-0.21068975,0.0,-9.059659,1.005978,47.668976,-1.0820714,-1.7539785,-3.4519534,0.044442922,-0.33553702,-0.119527325,28.6875,29.6875,29.0,33.0,35.4375,36.5
0.35005358,-0.1295079,0.07160958,-0.8541098,0.016095135,0.041770604,-0.15606795,-0.40973133,-0.3410565,0.060064085,-3.058269,0.63911676,0.00019424541,-0.17109618,0.043556098,0.0019257996,0.0953288,-0.0038549977,-0.070749335,0.44803292,-1.3801576,1.8992747,-2.0779884,-1.5844434,2.4346213,-0.16627283,0.26891145,-0.3492159,0.124089725,-0.08570917,-0.0943439,-0.28730422,0.038307227,-9.021352,0.8873621,47.657326,-1.0233054,-1.8071882,-3.5148296,0.04835186,-0.3072092,-0.1599815,28.6875,29.6875,29.0,33.0,35.4375,36.5
0.3520535,-0.6869497,-0.4935467,-0.95430565,0.005445562,0.039328277,-0.15465336,-0.41003862,-0.34094292,0.060039997,-3.0579288,0.6393116,0.00018147466,-0.17241657,0.045470487,0.0014083469,0.10245321,-0.0033013315,-0.07558982,0.44772103,-1.3796166,1.8986281,-2.0777004,-1.5846742,2.4344792,-0.16641206,0.27191797,-0.3522141,0.12671018,-0.09235258,-0.08954517,-0.22984336,0.095768064,-9.021352,0.92093146,47.66271,-1.0609164,-1.928247,-3.464183,0.09261526,-0.24383557,-0.20627123,28.6875,29.6875,29.0,33.0,35.4375,36.5
0.35405388,-0.61842054,-0.78233033,-1.0006696,-0.0026777727,0.04803006,-0.15831825,-0.4103799,-0.34087574,0.060058538,-3.0577466,0.63953924,0.00018019235,-0.17237753,0.046999164,0.0005275377,0.106154,-0.008378356,-0.07712087,0.44738454,-1.3790869,1.8978981,-2.0774224,-1.584782,2.434311,-0.1681521,0.27466828,-0.35490343,0.13278903,-0.09350951,-0.08973248,-0.19153613,0.15322891,-9.174581,0.93436235,47.68599,-1.0108274,-1.863106,-3.4898777,0.058252454,-0.21372943,-0.24678335,28.6875,29.6875,29.0,33.0,35.4375,36.5
0.35605502,-0.7893323,-1.2022946,-0.9836058,-0.021403411,0.051798303,-0.15460926,-0.41073278,-0.34075937,0.060046855,-3.0574355,0.63968235,0.00022763813,-0.17097951,0.049016383,-0.00040541068,0.11209983,-0.0152958045,-0.08067846,0.44703627,-1.3785096,1.8971819,-2.0771434,-1.5850228,2.434096,-0.16885199,0.27625206,-0.3567376,0.14184417,-0.09586373,-0.08683286,-0.26815057,0.21068975,-9.232041,1.0328293,47.693153,-1.0451378,-1.960824,-3.481257,-0.009444658,-0.15361002,-0.265477,28.6875,29.6875,29.0,33.0,35.4375,36.5
0.35805407,-1.0994956,-0.86517406,-0.8159593,-0.046824854,0.051519003,-0.1591028,-0.41106626,-0.3406603,0.06004202,-3.057147,0.6398677,0.00024520917,-0.16945338,0.050563455,3.5186745e-06,0.11607542,-0.02083055,-0.08268968,0.4467121,-1.3779575,1.8964766,-2.0768535,-1.5852274,2.4339287,-0.16936351,0.27518156,-0.35863605,0.15150054,-0.097055376,-0.08530596,-0.34476504,0.17238252,-9.002198,0.9545008,47.63404,-0.9890945,-1.9188592,-3.4805524,-0.10773996,-0.10923076,-0.3295877,28.6875,29.6875,29.0,33.0,35.4375,36.5
0.36005428,-0.44295847,-0.5089819,-0.7659055,-0.03441345,0.045462172,-0.16864447,-0.41139767,-0.34056923,0.060059175,-3.056874,0.64007604,0.00023781211,-0.16743167,0.0515568,-0.0013601902,0.11809231,-0.029815333,-0.08507296,0.44638768,-1.3774287,1.8957351,-2.0765035,-1.5854062,2.4337733,-0.17053208,0.27696973,-0.35954168,0.15955707,-0.09499971,-0.08410435,-0.4405331,0.1340753,-9.078813,0.9365982,47.63315,-0.91369784,-1.8041078,-3.5574117,-0.20772094,-0.123373985,-0.37657833,28.6875,29.6875,29.0,33.0,35.4375,36.5
0.36205396,-0.49670166,-0.50092316,-0.5387618,-0.01939036,0.0325393,-0.15463512,-0.41172472,-0.34047917,0.06003135,-3.056611,0.6403241,0.00014310959,-0.168028,0.051287483,-0.001113016,0.116323635,-0.032771416,-0.08698422,0.4460392,-1.3768395,1.8950404,-2.0762274,-1.5855373,2.4336174,-0.17217956,0.2787594,-0.36321956,0.16329883,-0.092166804,-0.0838597,-0.4213795,0.076614454,-9.078813,0.9567419,47.63225,-1.0997941,-1.8577864,-3.4788017,-0.28287098,-0.12811819,-0.40824264,28.6875,29.6875,29.0,33.0,35.4375,36.5
0.36405373,0.13243993,0.09283697,-0.34334084,-0.03538214,0.040655605,-0.17955545,-0.41206077,-0.3403663,0.06002889,-3.0562832,0.64047873,0.00012528423,-0.16894841,0.049012158,8.104323e-05,0.11026239,-0.030024815,-0.08452781,0.44570348,-1.3762747,1.8942994,-2.0758698,-1.5857638,2.433425,-0.17147408,0.2784451,-0.3650867,0.16029719,-0.08795504,-0.08564848,-0.24899697,-0.019153614,-9.059659,0.94331104,47.68062,-1.0434439,-1.7758365,-3.5502367,-0.2998812,-0.13210692,-0.4459343,28.6875,29.6875,29.0,33.0,35.4375,36.5
0.3660538,0.23326492,0.0700216,-0.56609213,-0.040014394,0.033909146,-0.17627725,-0.41238132,-0.34026626,0.059997287,-3.0559971,0.6407378,-1.2345142e-05,-0.17219196,0.04636112,0.0017343032,0.1024447,-0.023997953,-0.081403375,0.44534332,-1.375686,1.8936061,-2.0755608,-1.5858945,2.4332676,-0.17213516,0.27985027,-0.36940557,0.15428782,-0.083608195,-0.089472026,-0.17238253,-0.095768064,-9.078813,1.0015011,47.70032,-1.0590861,-1.7074802,-3.434862,-0.28023782,-0.20926541,-0.4437334,28.6875,29.6875,29.0,33.0,35.4375,36.5
0.36805385,-0.97126156,-1.2170608,-0.50091726,-0.046734817,0.031134723,-0.16073829,-0.41275042,-0.3401601,0.059994463,-3.055725,0.64094174,1.3229165e-05,-0.17608818,0.045095533,0.0025997108,0.09909289,-0.015250116,-0.07674891,0.4449712,-1.3750964,1.8928517,-2.0752766,-1.5860871,2.4330618,-0.1724717,0.28201306,-0.37212828,0.14538792,-0.08446859,-0.09444099,-0.40222588,-0.095768064,-9.059659,0.97240865,47.667187,-1.0647682,-1.7429771,-3.3811996,-0.15282941,-0.19634795,-0.40607494,28.6875,29.6875,29.0,33.0,35.4375,36.5
0.37005383,-0.74021566,-0.942561,-0.43602487,-0.07026545,0.07816226,-0.1708164,-0.413102,-0.34008068,0.060013242,-3.055494,0.6410928,-3.0796098e-08,-0.17753841,0.04151617,0.0030965994,0.09222879,-0.011476599,-0.06525947,0.4446363,-1.3745311,1.8920625,-2.0749314,-1.5862411,2.4328544,-0.17005321,0.28444818,-0.37499896,0.13926409,-0.08005386,-0.10356112,-0.24899697,-0.019153614,-9.059659,0.9567419,47.661808,-1.3589482,-1.8445144,-3.2847993,-0.067852855,-0.2511963,-0.347927,28.6875,29.6875,29.0,33.0,35.4375,36.5
0.37205404,-1.2116536,-0.51185834,-0.7267666,-0.05365569,0.076991655,-0.16690792,-0.4134438,-0.3399997,0.059998024,-3.0552554,0.64124656,-5.5202152e-05,-0.1783024,0.040018383,0.0028611312,0.09033111,-0.012024572,-0.06070264,0.44430056,-1.3739297,1.8913206,-2.0746439,-1.5863847,2.4326491,-0.1690882,0.2876869,-0.37842768,0.13902868,-0.07818822,-0.10716597,-0.24899697,0.05746084,-9.155427,1.0417832,47.66091,-1.3891474,-1.9546406,-3.2382107,-0.014815953,-0.3091299,-0.2782025,28.6875,29.6875,29.0,33.0,35.4375,36.5
0.3740548,-1.2593597,-1.1012444,-0.84212625,-0.026945146,0.079387374,-0.15752046,-0.41379032,-0.33990493,0.059985984,-3.0550263,0.6413247,-6.238563e-05,-0.17766961,0.040284067,0.0014576034,0.09042857,-0.01631013,-0.053545237,0.44395226,-1.3733517,1.8906044,-2.0743802,-1.586552,2.4323826,-0.16987081,0.289957,-0.37838614,0.14045243,-0.07655936,-0.115120545,-0.34476504,0.15322891,-9.232041,0.9612189,47.67614,-1.4393265,-1.9557099,-3.2889128,-0.007862037,-0.35318553,-0.1907936,28.6875,29.6875,29.0,33.0,35.4375,36.5
0.37605393,-1.2793417,-0.7310227,-1.0726601,-0.038486656,0.060164183,-0.16406387,-0.41411957,-0.3398249,0.05995466,-3.0547333,0.6414504,-0.0001442143,-0.17630073,0.042058423,-0.000623287,0.09299659,-0.023015887,-0.054674376,0.4436518,-1.3727149,1.8898515,-2.0740674,-1.5867318,2.4322028,-0.17198217,0.2918126,-0.37678894,0.14409794,-0.076039284,-0.116096705,-0.19153613,0.11492168,-9.32781,1.0104496,47.68599,-1.399272,-2.0481513,-3.629569,-0.04082288,-0.3851033,-0.15079722,28.6875,29.6875,29.0,33.0,35.4375,36.5
0.37805364,-0.67425704,-1.3558664,-1.4372528,-0.021415755,0.04232965,-0.15019728,-0.41448882,-0.33974347,0.059957244,-3.0545452,0.64161885,-0.00015232762,-0.17447035,0.0440181,-0.003188151,0.098132834,-0.032183707,-0.054994613,0.44327927,-1.3721254,1.8890866,-2.0738018,-1.5868524,2.4319627,-0.17322366,0.29540095,-0.3768374,0.15098938,-0.07677548,-0.11700168,-0.19153614,0.19153613,-9.404425,0.95897776,47.64658,-1.3552284,-2.0983293,-3.7863898,-0.07573399,-0.42305523,-0.11336006,28.6875,29.6875,29.0,33.0,35.4375,36.5
0.38005364,-0.60053957,-1.172178,-1.3981028,-0.04425311,0.016454805,-0.1532895,-0.41481754,-0.3396401,0.059951153,-3.0542517,0.64164984,-0.00021375094,-0.17477581,0.04555042,-0.0034320592,0.10133874,-0.03659508,-0.058750737,0.44295466,-1.3715482,1.8883332,-2.0734284,-1.5870565,2.4316998,-0.17534067,0.29749197,-0.38038144,0.15778515,-0.07779845,-0.115332425,-0.28730422,0.3256114,-9.442732,0.9612189,47.62688,-1.225825,-2.1516266,-3.819624,-0.15559113,-0.43004292,-0.09630661,28.6875,29.6875,29.0,33.0,35.4375,36.5
