Tylouw/Master_Thesis_Code/training_data/batch_1/small_rod_t0.3/sample_88_session_3.csv
timestamp[s],tcp_force_x[N],tcp_force_y[N],tcp_force_z[N],tcp_force_rx[Nm?],tcp_force_ry[Nm?],tcp_force_rz[Nm?],tcp_pose_x[m],tcp_pose_y[m],tcp_pose_z[m],tcp_pose_rx[rot_vec_x],tcp_pose_ry[rot_vec_y],tcp_pose_rz[rot_vec_z],tcp_velo_x[m/s],tcp_velo_y[m/s],tcp_velo_z[m/s],tcp_velo_rx[rot_vec_x/s],tcp_velo_ry[rot_vec_y/s],tcp_velo_rz[rot_vec_z/s],q1[rad],q2[rad],q3[rad],q4[rad],q5[rad],q6[rad],qd1[rad/s],qd2[rad/s],qd3[rad/s],qd4[rad/s],qd5[rad/s],qd6[rad/s],tool_acc_x,tool_acc_y,tool_acc_z,current_of_whole_robot[A],voltage_of_whole_robot[V],current_J1[A],current_J2[A],current_J3[A],current_J4[A],current_J5[A],current_J6[A],temp_J1[C],temp_J2[C],temp_J3[C],temp_J4[C],temp_J5[C],temp_J6[C]
6.869959e-07,-0.060842786,-0.3833357,1.0175751,-0.0054878807,0.017750375,-0.005124952,-0.3810582,-0.3485119,0.059965666,-3.0784698,0.62492496,-0.00019521166,0.0015344466,0.0007826755,-0.001508939,0.0013090867,-0.0028938341,3.1209755e-05,0.47778615,-1.425934,1.9577154,-2.1007974,-1.5707816,2.452776,-8.360442e-05,-6.427856e-06,0.0035372663,-0.00035978324,0.0001748849,-0.000116842406,0.019153614,0.19153613,-8.887277,0.75755644,47.705692,0.08581489,-2.7787056,-2.489127,-0.45000786,0.15321958,0.044008166,28.625,29.6875,29.0,33.0,35.375,36.5
0.002052089,-0.4162789,-0.45336023,0.85479796,0.0058075865,0.004377451,0.005067119,-0.38105637,-0.34853333,0.059970766,-3.0785341,0.6248615,-0.0001578395,-0.00065750163,-0.0003600814,-0.002760178,-0.0013662397,0.002229557,3.2518023e-05,0.4778101,-1.4259447,1.9577278,-2.1008494,-1.5707573,2.452752,-8.2329534e-05,0.0036543661,0.004619268,-0.0108824,0.00017284176,-0.00011471482,0.019153614,0.21068975,-8.772355,0.71951014,47.68599,0.056755994,-2.798455,-2.4801087,-0.40195188,0.16891159,0.023226421,28.625,29.6875,29.0,33.0,35.375,36.5
0.004052647,-0.2816598,-0.17394657,0.8987367,-0.0008419672,0.009468096,0.0033116501,-0.3810387,-0.3485377,0.059933048,-3.0785165,0.62476194,-0.00023044436,-0.0018611705,-0.0009863235,-0.0024702358,-0.0027148894,0.004826054,3.293086e-05,0.4778342,-1.4258844,1.9577507,-2.1008732,-1.5707573,2.4527164,-8.109347e-05,0.004549676,0.0035662316,-0.013650526,0.00016770567,-0.000112663256,0.038307227,0.15322891,-8.734048,0.6948948,47.7254,0.010711018,-3.2312021,-2.6820254,-0.3043359,0.14741549,0.048711885,28.625,29.6875,29.0,33.0,35.375,36.5
0.006051836,-0.37479717,-0.18351136,0.81909066,0.013013424,-0.012560068,0.004761293,-0.38102844,-0.3485143,0.05991638,-3.0784507,0.6248827,-0.00027783852,-0.0012037124,-0.0006422018,-0.0015155411,-0.0018323128,0.0031516068,3.1542088e-05,0.4778101,-1.4258851,1.9577864,-2.1008594,-1.5707697,2.452776,-7.9893514e-05,0.0027969226,0.0022537925,-0.008692546,0.00016266889,-0.00011068396,0.095768064,0.15322891,-8.676587,0.7597976,47.703007,0.020166285,-3.0897274,-2.5502756,-0.31959215,0.15220466,0.038355857,28.625,29.6875,29.0,33.0,35.375,36.5
0.00805174,0.2765158,0.57006925,0.47692648,0.044166215,-0.020156471,0.002018912,-0.38103604,-0.34852946,0.059930686,-3.0784936,0.6248723,-0.00023122352,-0.00052664604,-0.0002876624,-0.00028675044,-0.0012885614,0.0021308798,2.9932673e-05,0.47782204,-1.425898,1.9577736,-2.1008818,-1.5707573,2.452776,-7.872891e-05,0.00021364562,0.001328205,-0.0040272083,0.0001579125,-0.00010877287,-0.038307227,0.1340753,-8.791509,0.75755644,47.68062,0.048034616,-2.9747546,-2.582467,-0.35884625,0.15404494,0.034456413,28.625,29.6875,29.0,33.0,35.375,36.5
0.010051741,0.21869719,0.51335067,0.0751139,0.041177332,-0.028508551,0.0034547294,-0.3810737,-0.34852237,0.059938546,-3.0784833,0.6248512,-0.00016830102,-0.0002937181,-0.00017404984,-9.10385e-05,-0.0008224864,0.0011953228,2.9095867e-05,0.47779807,-1.4258621,1.9577144,-2.1008809,-1.5707935,2.4527402,-7.7597666e-05,2.8663285e-06,0.00069022184,-0.002133416,0.00017727779,-0.00010692674,0.095768064,0.17238252,-9.212888,0.75755644,47.66091,-0.23682715,-2.294035,-3.2089605,-0.3314376,0.089596674,0.017817443,28.625,29.6875,29.0,33.0,35.375,36.5
0.012052596,-0.20001133,-0.28182253,-0.011991172,0.021206377,-0.013039731,0.0055426667,-0.38106745,-0.34853238,0.05994123,-3.0784998,0.62487376,-0.0002188844,-0.00020565516,-8.097939e-05,-0.002446064,0.0017574573,-0.0036194478,2.6734326e-06,0.47779807,-1.4258605,1.9577011,-2.100857,-1.5707573,2.452752,-0.00011506532,0.005940408,-0.00096308155,-0.00095548417,9.936518e-05,-0.00011629191,0.11492168,0.15322891,-9.3661175,0.77545905,47.661808,-0.3867072,-2.17997,-3.3981657,-0.31910375,0.07322462,-0.0087375585,28.625,29.6875,29.0,33.0,35.375,36.5
0.014051755,-0.15777141,-0.665884,-0.15399727,-0.010358245,0.015811022,-0.0030548384,-0.38104722,-0.3485007,0.059905145,-3.0784035,0.6248957,-0.00030323025,-0.004336893,0.0007682653,-0.0040993514,0.0044457614,-0.008633148,-0.005227397,0.47778407,-1.4258322,1.9577454,-2.1008313,-1.5707935,2.452764,-0.005398314,0.017007817,-0.010816111,0.0035188128,6.487836e-06,-0.00016346292,0.095768064,0.19153613,-9.423578,0.71951014,47.71286,-0.3581959,-2.9686332,-3.0312924,-0.32956058,0.061211675,-0.04109722,28.625,29.6875,29.0,33.0,35.375,36.5
0.016052341,-0.9174809,-1.1217418,-0.3519526,-0.032019746,0.034439687,-0.0073384126,-0.3810487,-0.3485026,0.059899725,-3.0784223,0.6249185,-0.0004090065,-0.0045250026,0.002845727,-0.0037208311,0.0055418983,-0.010719749,-0.00553753,0.477747,-1.425809,1.957723,-2.100794,-1.5707334,2.4527388,-0.009259943,0.01503075,-0.010295332,0.0073316214,4.2360932e-07,-0.0037162907,-0.22984336,0.3256114,-9.519346,0.7620334,47.682407,-0.117858425,-2.7539763,-3.3460326,-0.375031,0.043766912,-0.017905187,28.625,29.6875,29.0,33.0,35.375,36.5
0.018052073,-1.7840306,-1.850828,-0.44945112,-0.047061116,0.04781994,-0.0050719925,-0.38102633,-0.34848902,0.059865374,-3.0783324,0.6247816,-0.0004792993,-0.00493329,0.0029819,-0.003317013,0.008181254,-0.009119621,0.0007686571,0.4777835,-1.425749,1.9577221,-2.100746,-1.5707949,2.4527013,-0.00787715,0.015452225,-0.011928191,0.008345703,-0.0030829886,-0.008632767,-0.2681506,0.2681506,-9.634268,0.71279734,47.698532,-0.2806812,-2.5148063,-3.4325027,-0.36948603,0.03732057,0.020183207,28.625,29.6875,29.0,33.0,35.375,36.5
0.02005205,-1.7579929,-1.7476882,-0.5375746,-0.05164092,0.07039739,-0.009507826,-0.38104603,-0.34849006,0.059865482,-3.0783274,0.624895,-0.00047496837,-0.0058543645,0.0027742602,-0.0032152524,0.008264898,-0.008604328,0.0017554534,0.47775936,-1.4257245,1.9576968,-2.1007583,-1.570783,2.4527485,-0.008156228,0.016994815,-0.013928512,0.008385242,-0.0033992582,-0.0098968,-0.38307226,0.36391866,-9.749189,0.7553206,47.681515,-0.42835397,-2.3774157,-3.527922,-0.3362311,0.021617092,0.034742102,28.625,29.6875,29.0,33.0,35.375,36.5
0.022052102,-2.0076265,-1.0037912,-0.64871883,-0.05746205,0.07428277,-0.026939092,-0.3810724,-0.34848598,0.05985877,-3.0783226,0.6248748,-0.00046384303,-0.007173161,0.0021978628,-0.0027452828,0.0072838394,-0.008298417,0.0026157238,0.47773504,-1.4256759,1.9576591,-2.1007693,-1.5707945,2.4527123,-0.008824375,0.01891665,-0.017376428,0.00918547,-0.0026753556,-0.011424785,-0.5554548,0.34476504,-9.787497,0.7732232,47.682407,-0.5032278,-2.443709,-3.5064702,-0.32683474,0.0077229394,0.034447946,28.625,29.6875,29.0,33.0,35.375,36.5
0.024052216,-1.7593588,-1.6749874,-0.8399646,-0.024168992,0.0635307,-0.034924723,-0.38103762,-0.34845608,0.059830915,-3.0782473,0.62487906,-0.00066611555,-0.0074885273,0.0030718518,-0.003229751,0.008001681,-0.011176499,0.0011791362,0.47769833,-1.4256634,1.9576839,-2.1006606,-1.5707701,2.4526877,-0.011118065,0.020281844,-0.018403072,0.011730369,-0.0019886699,-0.01228275,-0.51714754,0.4405331,-9.883265,0.7239871,47.699425,-0.48219085,-2.4560387,-3.5308542,-0.34650868,-0.03944646,0.049276385,28.625,29.6875,29.0,33.0,35.375,36.5
0.026051825,-1.1146302,-0.9507123,-0.71486276,-0.027530214,0.06366753,-0.058366686,-0.38106486,-0.3484835,0.05982762,-3.078263,0.62484425,-0.0006499113,-0.008814128,0.003178043,-0.002430089,0.007567028,-0.0104218945,0.00053049065,0.47772178,-1.4255795,1.9575986,-2.1006725,-1.5707701,2.4526875,-0.01255776,0.02079103,-0.02111674,0.013064672,-0.0019524228,-0.013072721,-0.51714754,0.36391866,-9.844957,0.7486078,47.682407,-0.4994632,-2.3977084,-3.4696758,-0.35001773,-0.08582221,0.059983663,28.625,29.6875,29.0,33.0,35.375,36.5
0.028051812,-1.2163203,-0.6365564,-0.6081245,-0.02651814,0.06100925,-0.061299533,-0.38109282,-0.34846586,0.059835184,-3.0782528,0.6248438,-0.00063556276,-0.010191283,0.004273082,-0.00208194,0.010329432,-0.008529139,-0.001649152,0.4776735,-1.4255673,1.9575619,-2.1006486,-1.570784,2.4526403,-0.013617803,0.02136685,-0.022708511,0.013681681,-0.005277635,-0.011945237,-0.7086837,0.24899697,-9.864111,0.7284641,47.661808,-0.56310666,-2.3731234,-3.4853768,-0.33718416,-0.07690684,0.03237419,28.625,29.6875,29.0,33.0,35.375,36.5
0.030056085,-1.7939959,-0.7545402,-0.5512856,-0.007409472,0.06412634,-0.064098,-0.3811206,-0.34844878,0.05982773,-3.0781891,0.62485164,-0.00063225545,-0.012515547,0.0048850616,-0.0012968492,0.011977221,-0.0058639157,-0.0045647244,0.47764897,-1.4255068,1.9575018,-2.1006124,-1.5708326,2.4526289,-0.015106452,0.022883823,-0.02635225,0.014208421,-0.007972563,-0.010510283,-0.63206923,0.114921674,-9.749189,0.8023209,47.66271,-0.51635885,-2.4148734,-3.5157628,-0.33662403,-0.051810484,0.023126334,28.625,29.6875,29.0,33.0,35.375,36.5
0.032052115,-2.149621,-0.32456353,-0.5137763,0.00808294,0.06616262,-0.07715132,-0.3811573,-0.34846967,0.05983866,-3.0782073,0.6249328,-0.00062632666,-0.013702432,0.0054343706,-0.0015709177,0.01334095,-0.005212608,-0.0064020734,0.4776366,-1.4254463,1.957405,-2.1006005,-1.5708088,2.4526649,-0.01619755,0.024698446,-0.027702525,0.013798356,-0.009486294,-0.009759917,-0.57460845,0.11492168,-9.691729,0.7463667,47.685097,-0.5303372,-2.41463,-3.5487213,-0.328712,-0.07502183,-0.014723143,28.625,29.6875,29.0,33.0,35.375,36.5
0.034052346,-1.1922911,0.10246089,-0.50182915,0.0080182245,0.08604936,-0.08986351,-0.38119,-0.34846196,0.059835866,-3.0782096,0.6248751,-0.00061328366,-0.0148676755,0.005066444,-0.00128081,0.013440856,-0.0035768596,-0.006039161,0.47760063,-1.4253979,1.9573563,-2.100601,-1.5708212,2.4525926,-0.016071144,0.026178781,-0.029897548,0.0131088225,-0.0103337485,-0.00999313,-0.4405331,-0.05746084,-9.691729,0.74413085,47.693153,-0.5663581,-2.3410122,-3.4347072,-0.3376005,-0.075123884,-0.015903264,28.625,29.6875,29.0,33.0,35.375,36.5
0.03605264,-1.161077,0.7779894,-0.25301692,0.012839834,0.07568397,-0.10447692,-0.38122484,-0.3484637,0.059830576,-3.0781925,0.62496865,-0.0006379391,-0.017371457,0.0050194766,-0.00013958,0.013973194,0.00019317785,-0.0064698923,0.47756436,-1.4253256,1.9572834,-2.100589,-1.5708102,2.452617,-0.016864365,0.027583187,-0.034023784,0.012734807,-0.012549761,-0.010348337,-0.4405331,-0.11492168,-9.634268,0.7329411,47.689575,-0.6232183,-2.3395004,-3.5002308,-0.31765163,-0.090570256,-0.03432644,28.625,29.6875,29.0,33.0,35.375,36.5
0.03805242,-1.5974363,0.119446106,-0.4093335,0.04392918,0.045917377,-0.09804941,-0.38124195,-0.34842974,0.0598244,-3.07812,0.6249343,-0.00063572935,-0.018829644,0.006210715,0.00030108853,0.017163616,0.0025244146,-0.006751947,0.47752807,-1.4253016,1.957259,-2.1005409,-1.5708717,2.4525685,-0.017791107,0.02802828,-0.035677392,0.013352102,-0.016458046,-0.010983005,-0.45968673,-0.076614454,-9.576807,0.72622824,47.69763,-0.5637146,-2.3339577,-3.325467,-0.31206247,-0.050131433,-0.046201445,28.625,29.6875,29.0,33.0,35.375,36.5
0.040052395,-1.2301563,0.2810173,-0.43315542,0.045370195,0.040872183,-0.11263982,-0.3812932,-0.3484427,0.059831087,-3.0781057,0.6250079,-0.00063492847,-0.020149002,0.006597927,0.00040763227,0.01814241,0.0036317324,-0.006523308,0.4775036,-1.4252051,1.9571255,-2.1005046,-1.5708717,2.452592,-0.018799767,0.029458795,-0.03752979,0.013244641,-0.017841527,-0.012216084,-0.34476504,-0.095768064,-9.634268,0.73069996,47.695843,-0.56107605,-2.3309731,-3.401741,-0.29280517,-0.04858903,-0.03516134,28.625,29.6875,29.0,33.0,35.375,36.5
0.042052355,-0.9918246,-0.14771296,-0.39472455,0.036701605,0.036779102,-0.115520105,-0.3813178,-0.3484195,0.05981433,-3.078057,0.62499887,-0.00067046884,-0.020924978,0.006544908,0.00071794045,0.01772668,0.003044441,-0.007654383,0.47745535,-1.4251449,1.9570898,-2.1004803,-1.570896,2.4525442,-0.019836694,0.03050977,-0.039788075,0.014779082,-0.017204504,-0.01212151,-0.24899697,-0.019153614,-9.672575,0.73069996,47.690468,-0.6015156,-2.3047616,-3.3926234,-0.28229865,-0.032885954,-0.05613877,28.625,29.6875,29.0,33.0,35.375,36.5
0.04405224,-1.2850227,-0.44292027,-0.40931904,0.019268574,0.016245468,-0.11553727,-0.38139337,-0.34841886,0.059863675,-3.078082,0.6250422,-0.0005182412,-0.02136209,0.005901762,0.0007687662,0.016487163,0.0019989035,-0.007392049,0.47740728,-1.4251324,1.9569572,-2.1004565,-1.5709313,2.4525201,-0.020121519,0.03206908,-0.04188531,0.015668929,-0.015625097,-0.012672609,-0.30645782,0.05746084,-9.595961,0.7530795,47.741516,-0.5555228,-2.2917807,-3.3700109,-0.31240627,-0.044062696,-0.049265154,28.625,29.6875,29.0,33.0,35.375,36.5
0.0460526,-0.4685887,-0.81552535,-0.5812977,0.00025802886,0.033446,-0.1334759,-0.38140208,-0.34839907,0.05982772,-3.0779974,0.62496704,-0.0005898506,-0.022426875,0.0056857453,0.0014754924,0.015586577,0.0025592293,-0.00866318,0.47739494,-1.4250362,1.9569215,-2.1004198,-1.570979,2.4524717,-0.021072593,0.03263594,-0.044380482,0.016683139,-0.015086734,-0.0123511115,-0.22984336,0.11492168,-9.653421,0.6926589,47.667187,-0.5590477,-2.2412603,-3.3563213,-0.30307484,-0.066686764,-0.049759578,28.625,29.6875,29.0,33.0,35.375,36.5
0.04805198,-0.8269571,-0.9328358,-0.47658303,-0.008722441,0.01989108,-0.14309008,-0.38147742,-0.34839043,0.059844445,-3.0779784,0.6250988,-0.000573463,-0.023627207,0.0063348506,0.0020593284,0.016574048,0.004006675,-0.010445475,0.47731045,-1.4249523,1.9567765,-2.1003716,-1.57098,2.452472,-0.022328269,0.032713372,-0.045957934,0.017355664,-0.016630488,-0.011820552,-0.11492168,0.19153613,-9.615114,0.77545905,47.681515,-0.51737547,-2.1603127,-3.350645,-0.29877082,-0.058990143,-0.062218145,28.625,29.6875,29.0,33.0,35.375,36.5
0.050052185,-0.7404297,-1.2915213,-0.54545695,-0.010141289,0.018898893,-0.14530234,-0.38153154,-0.34837845,0.05985728,-3.077934,0.62514794,-0.00045780526,-0.024897479,0.006907591,0.002176678,0.01836241,0.0045216903,-0.01187054,0.47728616,-1.424904,1.9566921,-2.1003716,-1.5710524,2.4524841,-0.023332417,0.03437457,-0.048376877,0.018483054,-0.018457552,-0.011394942,-0.1340753,0.2681506,-9.519346,0.8023209,47.67614,-0.60314447,-2.169872,-3.3273602,-0.29153356,-0.030718748,-0.0680948,28.625,29.6875,29.0,33.0,35.375,36.5
0.052052114,-1.0164614,-0.9018481,-0.37364534,-0.02113259,0.014927896,-0.15148722,-0.38156843,-0.34833702,0.059852876,-3.077839,0.62520605,-0.00052662275,-0.025416872,0.0074091754,0.001385407,0.020717323,0.0026647504,-0.012679973,0.47720194,-1.4248432,1.9566082,-2.1002629,-1.5710887,2.4524484,-0.02389719,0.037325904,-0.050329365,0.020217972,-0.01969786,-0.011144754,-0.1340753,0.40222588,-9.5385,0.7978386,47.66987,-0.5758713,-2.1209314,-3.4002562,-0.29714942,-0.031180503,-0.086475514,28.625,29.6875,29.0,33.0,35.375,36.5
0.054052036,-1.1005154,-1.6384631,-0.40080267,-0.01151688,0.006806532,-0.15615568,-0.38161203,-0.3483352,0.059852626,-3.077827,0.6252229,-0.00051458814,-0.026151648,0.007109106,0.0018264028,0.01975592,0.0031849567,-0.012973849,0.47716576,-1.424771,1.9565238,-2.1002514,-1.5711001,2.4524243,-0.024437929,0.037803873,-0.051935796,0.020439608,-0.019086152,-0.011392199,-0.095768064,0.40222588,-9.557653,0.7351769,47.66987,-0.519761,-2.1312551,-3.3527045,-0.29575878,-0.018290866,-0.10684823,28.625,29.6875,29.0,33.0,35.375,36.5
0.05605247,-0.7946477,-1.5350223,-0.4863734,-0.025610117,0.009659266,-0.16452746,-0.38167104,-0.34834796,0.059870288,-3.077818,0.6252979,-0.00047348998,-0.027585404,0.0068028136,0.0030634108,0.018637812,0.0058321287,-0.01317971,0.47714156,-1.4246874,1.9563798,-2.1002152,-1.571112,2.4524481,-0.025066867,0.037454605,-0.054342724,0.020330828,-0.019314263,-0.0118140485,-0.11492168,0.34476504,-9.672575,0.7665104,47.709274,-0.5181721,-2.00513,-3.3978457,-0.2999342,-0.0421396,-0.11085151,28.625,29.6875,29.0,33.0,35.375,36.5
0.05805272,-0.5690667,-1.6830151,-0.48581535,-0.036664613,0.008039122,-0.17382315,-0.38174468,-0.3483302,0.059899278,-3.0777905,0.6253112,-0.00036944303,-0.02970896,0.006581734,0.003431979,0.019102821,0.006941928,-0.013490871,0.47708124,-1.4246383,1.9562467,-2.1001675,-1.5711726,2.4523997,-0.026028877,0.040602624,-0.058927875,0.020996746,-0.020245561,-0.012460848,-0.11492168,0.3256114,-9.710882,0.77545905,47.690468,-0.56074876,-2.0482035,-3.227877,-0.28010607,-0.016009483,-0.11684543,28.625,29.6875,29.0,33.0,35.375,36.5
0.060051754,-0.5358055,-1.6692691,-0.27911377,-0.0408328,0.010090474,-0.18264364,-0.38177758,-0.34830263,0.059874088,-3.0777059,0.6253132,-0.00041005298,-0.029127399,0.007426219,0.002020508,0.02075326,0.004572556,-0.013997921,0.47703308,-1.424542,1.9561862,-2.1001313,-1.5712208,2.4523637,-0.026745548,0.04189638,-0.057127986,0.020765426,-0.020621724,-0.012668805,-0.11492168,0.34476504,-9.615114,0.7866488,47.677036,-0.5472792,-2.0813015,-3.4446297,-0.27449656,-0.019785697,-0.12520967,28.625,29.6875,29.0,33.0,35.375,36.5
0.062051784,-0.67903155,-1.517481,-0.37168574,-0.036216177,0.008736671,-0.18583477,-0.38185605,-0.34830707,0.059911076,-3.0777287,0.6253953,-0.00036496285,-0.030268978,0.0071264403,0.0014923306,0.020914484,0.0032493903,-0.014183401,0.47696066,-1.4244809,1.9560183,-2.1000712,-1.5712088,2.4523396,-0.027561417,0.04558729,-0.060299844,0.02149249,-0.02016296,-0.013299162,-0.11492168,0.34476504,-9.519346,0.7978386,47.68599,-0.5341633,-2.1400743,-3.4515936,-0.2622986,-0.03593681,-0.12672682,28.625,29.6875,29.0,33.0,35.375,36.5
0.06405183,-0.7290871,-1.2224315,0.0054286597,-0.016008444,0.014747139,-0.20020391,-0.38192943,-0.34828746,0.0599148,-3.0776656,0.6254202,-0.00026655383,-0.032490537,0.0063406914,0.0031350162,0.019445224,0.0060715657,-0.014321958,0.47691253,-1.4243846,1.9558972,-2.1000593,-1.5712928,2.4523153,-0.028213553,0.046540592,-0.06535335,0.022408538,-0.020162445,-0.0138105005,-0.15322891,0.38307226,-9.442732,0.7486078,47.739727,-0.5458976,-2.2378626,-3.2724876,-0.24768426,-0.021378463,-0.14892304,28.625,29.6875,29.0,33.0,35.375,36.5
0.06605187,-1.1698936,-0.9339757,-0.0050973706,-0.0036749654,0.006152675,-0.20819083,-0.38197282,-0.34828734,0.059915494,-3.0776486,0.625474,-0.00030815232,-0.032588586,0.0065500927,0.0036748878,0.019840889,0.006378791,-0.013728305,0.4768644,-1.4243013,1.9557894,-2.1000106,-1.5712808,2.452303,-0.028352017,0.04573247,-0.06597194,0.02374441,-0.020654334,-0.014541102,-0.17238252,0.34476504,-9.404425,0.75755644,47.698532,-0.5758549,-2.009664,-3.1827111,-0.2323766,-0.041217573,-0.15467799,28.625,29.6875,29.0,33.0,35.375,36.5
0.06805173,-1.142648,-0.9824377,0.013553796,0.016096933,0.01867749,-0.21809207,-0.3820454,-0.34828237,0.059926838,-3.0776262,0.6255273,-0.00027018154,-0.033485014,0.006511933,0.0030651644,0.020745263,0.0052415,-0.013900152,0.4768043,-1.4242041,1.9556445,-2.0999744,-1.5713052,2.452279,-0.028922472,0.04896214,-0.06841201,0.024379484,-0.02094003,-0.014937701,-0.21068975,0.36391866,-9.3661175,0.7665104,47.689575,-0.63999534,-2.0883825,-3.2623768,-0.22647241,-0.049895845,-0.15033655,28.625,29.6875,29.0,33.0,35.375,36.5
0.070052475,-1.3457956,-0.7207028,0.114814475,0.019765934,0.024784703,-0.23358864,-0.38210303,-0.34827435,0.05992589,-3.0775788,0.625498,-0.00025227814,-0.03469412,0.0063736322,0.003099647,0.020775655,0.005473864,-0.01415543,0.47676802,-1.4240956,1.9555119,-2.0999262,-1.5713533,2.4522307,-0.029699424,0.05106797,-0.07095331,0.024621086,-0.02107954,-0.0154570015,-0.17238252,0.19153613,-9.2703495,0.77545905,47.687782,-0.67111945,-2.1672194,-3.0845146,-0.20406628,-0.05181276,-0.18920612,28.625,29.6875,29.0,33.0,35.375,36.5
0.07205221,-0.9562827,-0.6895487,0.14505903,0.011290147,0.03693675,-0.22170775,-0.38218012,-0.3482676,0.059938192,-3.077551,0.62556875,-0.00018919427,-0.035233796,0.006288929,0.0030904526,0.021329928,0.0051755514,-0.01357214,0.47670802,-1.4239993,1.9553684,-2.099902,-1.5713891,2.4522185,-0.029809145,0.05248576,-0.07276054,0.025528861,-0.021437407,-0.016148744,-0.15322891,0.22984336,-9.136273,0.7777002,47.685097,-0.6784727,-2.1423616,-3.1974645,-0.16864699,-0.05057688,-0.1894096,28.625,29.6875,29.0,33.0,35.375,36.5
0.074052095,-0.50726783,-0.4484856,0.34102178,0.005793194,0.042123277,-0.22982943,-0.3822779,-0.34825775,0.059969295,-3.0775046,0.6256932,-0.00013813749,-0.035989705,0.0062750946,0.0031696875,0.022283431,0.0051615825,-0.01267282,0.47662404,-1.4238911,1.9551519,-2.099806,-1.5714258,2.4522183,-0.029926438,0.054098133,-0.075039156,0.026644828,-0.022281595,-0.017162556,-0.15322891,0.24899697,-9.174581,0.7620334,47.701214,-0.75238585,-2.1071558,-3.1210399,-0.17892644,-0.07946475,-0.18630558,28.625,29.6875,29.0,33.0,35.375,36.5
0.07605247,-0.7437207,-0.5817077,0.19057791,0.012247849,0.033304613,-0.19367863,-0.38233358,-0.34825084,0.059980985,-3.07749,0.6256707,-0.00011516151,-0.037281528,0.0059645334,0.0038569265,0.02233124,0.0066744923,-0.012125009,0.47657585,-1.4238187,1.9550318,-2.099758,-1.5714496,2.452158,-0.030080523,0.05522445,-0.07801867,0.027176267,-0.023024123,-0.017861217,-0.11492168,0.11492168,-9.270349,0.70608455,47.71286,-0.7888982,-2.0707076,-3.0716588,-0.15610617,-0.07273827,-0.21062641,28.625,29.6875,29.0,33.0,35.375,36.5
0.07805251,-0.71975094,-0.6202664,0.32859603,0.026626635,0.028280932,-0.20120409,-0.38239294,-0.34825718,0.059967633,-3.077435,0.6256384,-0.000111888396,-0.038154546,0.0060774973,0.003712116,0.02333537,0.0064065293,-0.011207852,0.47656378,-1.4236622,1.9548753,-2.0997217,-1.5714983,2.452133,-0.030581662,0.05725173,-0.08020398,0.028033432,-0.023798035,-0.019275678,-0.17238252,0.15322891,-9.155427,0.7463667,47.696735,-0.83795154,-2.070677,-3.099703,-0.117349744,-0.083533086,-0.2079414,28.625,29.6875,29.0,33.0,35.375,36.5
0.08005241,-0.9086796,-0.101337746,0.29110155,0.020258887,0.028530313,-0.20957881,-0.38251096,-0.3482267,0.05997701,-3.0773983,0.62578464,-6.964537e-06,-0.038658977,0.006136166,0.0036290092,0.02409596,0.0056206156,-0.010396748,0.4764317,-1.423542,1.9547194,-2.0997336,-1.571546,2.452097,-0.030933805,0.05878985,-0.08209245,0.029427009,-0.024114981,-0.020438448,-0.3256114,0.13407528,-9.251195,0.77545905,47.698532,-0.89530116,-2.0838299,-3.0418653,-0.10712924,-0.08063076,-0.19378924,28.625,29.6875,29.0,33.0,35.375,36.5
0.08205254,-0.16340342,0.0894228,0.41287944,0.014773396,0.0547032,-0.20004326,-0.382538,-0.34823418,0.059992027,-3.0773635,0.62566143,-3.0777566e-05,-0.03913973,0.0063244295,0.003410811,0.024788799,0.0041896747,-0.010137056,0.47644347,-1.4234695,1.954575,-2.099613,-1.5715822,2.4520364,-0.03173664,0.060505774,-0.083948426,0.031154756,-0.024076197,-0.021499036,-0.22984336,0.1340753,-9.155427,0.79560274,47.670765,-0.8871728,-2.064297,-3.0481806,-0.098410025,-0.07732692,-0.21327376,28.625,29.6875,29.0,33.0,35.375,36.5
0.08405248,-0.5131706,-0.080133006,0.23499218,0.024560288,0.048605226,-0.19851698,-0.3826506,-0.34820592,0.060004186,-3.077277,0.62570137,8.815607e-05,-0.039480302,0.0064110653,0.003502808,0.025458513,0.0031599267,-0.0099189915,0.4763593,-1.4233255,1.9543718,-2.0995643,-1.57169,2.4519885,-0.03211518,0.061566155,-0.08584132,0.03320495,-0.024199406,-0.02209492,-0.2681506,0.11492168,-9.251195,0.7396539,47.71823,-0.99011785,-2.0052843,-3.000798,-0.08724302,-0.09528385,-0.22704674,28.625,29.6875,29.0,33.0,35.375,36.5
0.08605182,-0.8485063,-0.23427877,0.14284948,0.019338869,0.040905524,-0.19130906,-0.38271093,-0.34820315,0.06000722,-3.077231,0.6257692,2.7042002e-05,-0.039458964,0.0071447217,0.0011694052,0.0288956,-0.0018510225,-0.010268463,0.47629908,-1.4232035,1.9542035,-2.099468,-1.5716904,2.4519765,-0.03290356,0.06706576,-0.0872331,0.035127055,-0.024957042,-0.022529673,-0.21068975,0.19153613,-9.308656,0.7418897,47.682407,-0.996543,-2.21231,-3.0768435,-0.095327154,-0.12238503,-0.2218458,28.625,29.6875,29.0,33.0,35.375,36.5
0.088051885,-0.5378389,-0.52301514,0.016934285,0.0043236855,0.059862643,-0.19344573,-0.38280195,-0.34816733,0.060019154,-3.0771527,0.62584937,5.8588896e-05,-0.040797062,0.0073368237,0.0033965267,0.02775331,0.001929669,-0.010517872,0.4761905,-1.4230967,1.9540352,-2.099384,-1.5717505,2.4519281,-0.033996455,0.06403644,-0.08909444,0.03613164,-0.025679447,-0.023370666,-0.28730422,0.1340753,-9.270349,0.79560274,47.670765,-0.9975939,-2.0050817,-3.1088252,-0.065289676,-0.119654804,-0.21793835,28.625,29.6875,29.0,33.0,35.375,36.5
0.090051815,-0.67054665,-0.45981503,0.17202148,-0.005034395,0.05539703,-0.20068747,-0.3828487,-0.34814435,0.05997784,-3.0770273,0.62589884,-6.911745e-05,-0.040399134,0.008225017,0.0018772947,0.031451553,-0.001329279,-0.009335686,0.47613063,-1.4229152,1.9539031,-2.0992992,-1.5717877,2.4519153,-0.034039598,0.06698186,-0.08945087,0.038136892,-0.02747383,-0.024587864,-0.24899697,0.1340753,-9.270349,0.7486078,47.677036,-1.0102941,-2.1078744,-3.1541834,-0.06240216,-0.110599086,-0.25076163,28.625,29.6875,29.0,33.0,35.375,36.5
0.09205165,-1.1705114,-1.1154382,0.072366394,0.008343709,0.040479776,-0.1816212,-0.38298416,-0.3481475,0.060029898,-3.0770547,0.62596136,9.595641e-05,-0.04216101,0.0075788517,0.0018887252,0.031824093,-0.0015967006,-0.008977174,0.4760346,-1.4228057,1.9536508,-2.099263,-1.5718235,2.451855,-0.03436448,0.071186535,-0.09459183,0.03947804,-0.027689869,-0.025270712,-0.22984336,0.17238252,-9.32781,0.7418897,47.67614,-1.058459,-2.1312737,-3.1142185,-0.0660825,-0.12868786,-0.22749524,28.625,29.6875,29.0,33.0,35.375,36.5
0.094052635,-1.0048938,-0.99715495,-0.1482804,0.005263096,0.04039378,-0.18238479,-0.3830579,-0.34812114,0.060005788,-3.0769386,0.6259382,7.420466e-05,-0.041641857,0.008661857,0.001620734,0.03322216,-0.0023601463,-0.009164309,0.4759742,-1.4226261,1.9534844,-2.099191,-1.5719074,2.451795,-0.035222612,0.069951765,-0.09273494,0.04017371,-0.028580911,-0.02593844,-0.2681506,0.21068975,-9.270349,0.77545905,47.707485,-1.0980644,-2.11781,-3.2656803,-0.06358285,-0.1221969,-0.23890555,28.625,29.6875,29.0,33.0,35.375,36.5
0.09605223,-0.44898763,-0.81688285,-0.07950757,0.016987912,0.04402736,-0.19292016,-0.38315043,-0.34810433,0.060037512,-3.076893,0.6258707,0.0001725729,-0.04309068,0.0086480975,0.0014054986,0.034728702,-0.0023713855,-0.009105747,0.47591418,-1.4225286,1.9532789,-2.099095,-1.5719923,2.451699,-0.03565621,0.07334322,-0.09632565,0.041073482,-0.02992175,-0.026425527,-0.21068975,0.2681506,-9.193734,0.80679786,47.71286,-1.1962967,-2.0988142,-3.3043842,-0.028961346,-0.11905363,-0.25743577,28.625,29.6875,29.0,33.0,35.375,36.5
0.09805247,-0.08736637,-0.8865309,-0.22210951,0.025441868,0.042570755,-0.18565343,-0.38321695,-0.34810272,0.06000953,-3.0768218,0.62589496,0.00010471189,-0.04251953,0.009740812,0.0001426546,0.036208294,-0.0064799157,-0.01085878,0.47586545,-1.422336,1.9531115,-2.099046,-1.5720161,2.4516747,-0.037433054,0.07475656,-0.09555428,0.04321446,-0.029351078,-0.026449151,-0.076614454,0.15322891,-9.232041,0.7732232,47.69763,-1.12833,-2.117576,-3.2411911,-0.026847541,-0.14332803,-0.2607508,28.625,29.6875,29.0,33.0,35.375,36.5
0.100052305,-0.2834826,-0.6341916,-0.091055974,0.014742606,0.025199205,-0.18917097,-0.38331148,-0.3480868,0.06003264,-3.0767589,0.625979,0.00013475762,-0.043962944,0.009781011,-1.28086e-05,0.03577919,-0.0073302537,-0.012256077,0.47578073,-1.422215,1.952896,-2.0989382,-1.5720633,2.4516506,-0.03931799,0.07749864,-0.098516606,0.043986853,-0.028587501,-0.026936596,-0.095768064,0.17238252,-9.251195,0.7486078,47.661808,-1.0430961,-2.1504545,-3.3215213,-0.018345073,-0.15507881,-0.2553931,28.625,29.6875,29.0,33.0,35.375,36.5
0.10205203,0.15342915,-0.095595315,-0.14276339,-0.0049574752,0.028455006,-0.189726,-0.38340053,-0.3480367,0.06001599,-3.076611,0.62602454,0.00011130542,-0.04469088,0.010166784,-0.0005265796,0.03630484,-0.0072347187,-0.012989462,0.4756726,-1.4220461,1.9527167,-2.098831,-1.5721601,2.45159,-0.040325083,0.07898629,-0.098816246,0.04295042,-0.029106988,-0.027205605,-0.019153614,0.21068975,-9.308656,0.83365434,47.67614,-1.1254536,-2.2228825,-3.3845239,0.025455046,-0.18645923,-0.2877227,28.625,29.6875,29.0,33.0,35.375,36.5
0.104052044,-0.48520336,-0.9669292,-0.2087335,0.0016469636,0.023699572,-0.17709622,-0.3834775,-0.34802997,0.05999689,-3.0765393,0.6260093,5.7864912e-05,-0.04470447,0.0098455995,1.3443236e-05,0.038127363,-0.0068794116,-0.011218955,0.47561318,-1.4218539,1.9525241,-2.098758,-1.5721964,2.4515305,-0.038603008,0.07944649,-0.10112488,0.045321234,-0.030892849,-0.027246358,-0.019153614,0.22984336,-9.308657,0.7486078,47.716442,-1.1793392,-2.144395,-3.4152231,0.018502697,-0.1872387,-0.28241462,28.625,29.6875,29.0,33.0,35.375,36.5
0.10605255,-0.72248673,-1.0921828,-0.1719099,0.007482738,0.022925938,-0.18059158,-0.38356215,-0.34802866,0.060015433,-3.0765023,0.62596375,8.9332534e-05,-0.04547013,0.011214951,-0.0006116301,0.039676793,-0.008571292,-0.012691398,0.47556418,-1.4217215,1.9523085,-2.0986621,-1.5722445,2.451458,-0.04133611,0.08085518,-0.101605624,0.04660414,-0.031496882,-0.028504787,-0.05746084,0.19153613,-9.385271,0.81351066,47.67166,-1.1745355,-2.0619655,-3.4914193,0.025462624,-0.17757112,-0.28769237,28.625,29.6875,29.0,33.0,35.375,36.5
0.1080525,-0.44501957,-0.22593585,-0.10969935,0.00074372225,0.021951225,-0.18983093,-0.38367724,-0.3479966,0.06004121,-3.076434,0.62600654,0.00018447364,-0.046501737,0.011253871,-5.6068227e-05,0.039827026,-0.009609149,-0.012194545,0.4754558,-1.4216008,1.9520925,-2.0985773,-1.5723284,2.4513853,-0.042558376,0.08233258,-0.105297506,0.049800172,-0.031160565,-0.030223714,0.0,0.17238252,-9.3661175,0.8247004,47.694946,-1.168268,-2.0775204,-3.370071,0.009001428,-0.21180776,-0.29621962,28.625,29.6875,29.0,33.0,35.375,36.5
0.110052265,-0.8025435,-0.7911672,-0.088244386,0.005940735,0.00868954,-0.17657413,-0.38377935,-0.34798652,0.060035873,-3.0763469,0.62597024,0.00015304206,-0.04687705,0.012633947,-0.0010530392,0.04074454,-0.0117900865,-0.015321644,0.4753829,-1.4213841,1.9518298,-2.0984576,-1.5723885,2.451301,-0.045456186,0.08348611,-0.10442797,0.050131835,-0.030979414,-0.029992977,-0.038307227,0.21068975,-9.289502,0.90527004,47.690468,-1.0892985,-2.005512,-3.5721765,0.010075776,-0.23442051,-0.30759406,28.625,29.6875,29.0,33.0,35.375,36.5
0.11205222,-0.17554511,-0.6377893,-0.10836467,0.00079063204,0.022405542,-0.18521993,-0.38386562,-0.34795952,0.060020555,-3.0762403,0.6260454,9.788994e-05,-0.048440948,0.011791813,-2.2207534e-05,0.039760172,-0.01012482,-0.016355995,0.47528687,-1.4212034,1.9516362,-2.0983613,-1.5724367,2.4512658,-0.04545482,0.08492635,-0.108631685,0.050961304,-0.030877179,-0.028952837,-0.1340753,0.17238252,-9.308657,0.7418897,47.657326,-1.0606085,-2.0609841,-3.453785,0.020922389,-0.23829973,-0.301407,28.625,29.6875,29.0,33.0,35.375,36.5
0.114052445,-0.2742869,-0.6346549,-0.13987157,0.0012993283,0.01730224,-0.18420608,-0.38398406,-0.34792465,0.060040276,-3.076175,0.62612665,0.00015420836,-0.04804325,0.011843508,-0.00026271466,0.041737482,-0.012458861,-0.01501026,0.47515512,-1.4210708,1.9514202,-2.098276,-1.5724968,2.4511933,-0.0447191,0.08636596,-0.11051147,0.054377127,-0.031568334,-0.029560326,-0.076614454,0.17238252,-9.3661175,0.75084364,47.682407,-1.1886406,-1.9374629,-3.4984214,0.027908232,-0.2642402,-0.33271402,28.625,29.6875,29.0,33.0,35.375,36.5
0.11605195,0.11482962,-0.19901031,-0.20813112,0.005923713,0.03280719,-0.19737203,-0.3840546,-0.34792295,0.0600138,-3.0760608,0.6261224,5.386585e-05,-0.049145356,0.012360289,0.00016608533,0.042464092,-0.013873693,-0.014829529,0.47511837,-1.420842,1.9511918,-2.0981557,-1.5725449,2.4511688,-0.046636194,0.087803096,-0.1139687,0.057981133,-0.031574238,-0.031653117,-0.15322891,0.21068975,-9.481039,0.7642693,47.655537,-1.176822,-1.9756695,-3.4166017,0.011712907,-0.28144866,-0.3428949,28.625,29.6875,29.0,33.0,35.375,36.5
0.118051894,-0.7686802,-0.47250995,-0.27692583,0.017062834,0.025613401,-0.17414354,-0.38416037,-0.34789002,0.06002855,-3.0759857,0.62608814,7.587416e-05,-0.049616955,0.014022142,-0.0006049274,0.04534911,-0.0173747,-0.016824877,0.47500947,-1.4206972,1.9509648,-2.0980341,-1.5726169,2.4510484,-0.049377676,0.0898321,-0.11540592,0.061818548,-0.032538787,-0.032394808,-0.2681506,0.24899697,-9.442732,0.82694155,47.675243,-1.0763015,-2.087341,-3.42657,-0.024277415,-0.2791662,-0.30968964,28.625,29.6875,29.0,33.0,35.375,36.5
0.12005171,-0.53258663,-0.106310904,-0.3905366,0.006487456,0.03931478,-0.1867409,-0.38424188,-0.34785143,0.060009245,-3.075847,0.6262506,-3.6504178e-05,-0.04986113,0.013768526,0.00067593355,0.04505563,-0.017389722,-0.0154098645,0.4748896,-1.4205174,1.9507731,-2.0979016,-1.5726532,2.451048,-0.049307086,0.08887226,-0.11802928,0.06527218,-0.032279097,-0.033735666,-0.3256114,0.22984336,-9.500193,0.82022345,47.67614,-1.0836018,-1.8203505,-3.4266598,-0.060040567,-0.31824434,-0.3377174,28.625,29.6875,29.0,33.0,35.375,36.5
0.122051954,-1.2489545,-0.17756297,-0.20490585,-0.0013546126,0.04457716,-0.1876963,-0.38435775,-0.3478373,0.060021125,-3.0757723,0.62621444,-1.2970347e-05,-0.04966885,0.014927811,-0.0010312682,0.048854053,-0.022570407,-0.014290701,0.47480512,-1.4203238,1.950497,-2.0977805,-1.5727257,2.4509506,-0.050518606,0.092868775,-0.11960054,0.06918467,-0.033291604,-0.036061246,-0.36391866,0.19153613,-9.519346,0.8112748,47.668976,-1.1229482,-1.9438932,-3.4871852,-0.107572466,-0.34670907,-0.33163834,28.625,29.6875,29.0,33.0,35.375,36.5
0.124052,-1.2845366,-0.9740118,-0.42516765,0.01391769,0.052081075,-0.17755137,-0.38446388,-0.34780717,0.060042348,-3.075679,0.6261576,-3.4370937e-06,-0.050542273,0.015116433,0.00080185896,0.049056366,-0.021067442,-0.014731956,0.4747089,-1.4201684,1.9502324,-2.0976117,-1.57281,2.4508312,-0.051074564,0.09115085,-0.12262131,0.07267578,-0.034163408,-0.036170606,-0.4213795,0.17238252,-9.500193,0.75755644,47.684196,-1.164602,-1.8151182,-3.4122694,-0.16358961,-0.35823628,-0.30913246,28.625,29.6875,29.0,33.0,35.375,36.5
0.12605228,-1.0140172,-0.023417544,-0.32103908,0.003276035,0.064488135,-0.19282886,-0.38457307,-0.3477719,0.06003856,-3.075536,0.62630177,-1.1866456e-05,-0.050998494,0.016015619,6.035498e-05,0.051591426,-0.02393612,-0.016556112,0.47460052,-1.4199752,1.9499925,-2.097491,-1.572894,2.4508314,-0.052460056,0.093851924,-0.12473757,0.075798824,-0.035111032,-0.03572541,-0.36391866,0.11492168,-9.461885,0.8537928,47.67614,-1.1441047,-1.8713697,-3.3931308,-0.21270862,-0.3848428,-0.33842552,28.625,29.6875,29.0,33.0,35.375,36.5
0.1280522,-0.94186664,0.076353215,-0.22262119,0.005837421,0.06021296,-0.18757299,-0.38466895,-0.34775195,0.060038943,-3.07542,0.6262951,-8.607033e-05,-0.05249774,0.016020743,0.0007136133,0.052157994,-0.023023674,-0.014666375,0.47451633,-1.4197704,1.9497164,-2.0973108,-1.5729545,2.4507582,-0.05322359,0.09538159,-0.12833506,0.077306,-0.036049027,-0.03836996,-0.36391866,0.038307227,-9.519346,0.82022345,47.65464,-1.1797377,-1.8399472,-3.373499,-0.24400583,-0.38992333,-0.34116095,28.625,29.6875,29.0,33.0,35.375,36.5
0.13005649,-1.2443004,0.3599909,-0.24795154,0.006834669,0.04808192,-0.19369102,-0.38476655,-0.34770802,0.06002409,-3.0753024,0.6262508,-0.00014794964,-0.054650668,0.016084997,0.0017810572,0.05227994,-0.020816687,-0.013960479,0.47439584,-1.4195778,1.9495,-2.0971787,-1.573027,2.4506254,-0.054559324,0.09663911,-0.13243592,0.078233905,-0.037186056,-0.04040167,-0.2873042,0.076614454,-9.595961,0.8112748,47.65464,-1.1667297,-1.8193479,-3.33746,-0.31138888,-0.3964213,-0.29014295,28.625,29.6875,29.0,33.0,35.375,36.5
0.13205254,-1.2582072,0.2761819,-0.45872468,0.018002657,0.04348285,-0.19263203,-0.38489795,-0.3476928,0.060060542,-3.075238,0.62629473,-0.00010378584,-0.0556889,0.016526764,0.0013172458,0.05351147,-0.020547047,-0.01358054,0.47428763,-1.4194089,1.9491881,-2.0970237,-1.5730876,2.4505532,-0.055478543,0.0987361,-0.13366231,0.07768072,-0.038416475,-0.04169501,-0.2681506,0.076614454,-9.557653,0.83365434,47.675243,-1.1955255,-1.7573359,-3.2489696,-0.31155947,-0.43023884,-0.27741915,28.625,29.6875,29.0,33.0,35.375,36.5
0.13405243,-1.1876198,0.5686069,-0.4358553,0.01035731,0.039873134,-0.19547008,-0.3850065,-0.3476547,0.060064867,-3.075117,0.6263459,-0.00013608522,-0.057972964,0.016276585,0.0016077562,0.05323608,-0.01803159,-0.013128284,0.47416723,-1.4192278,1.9489359,-2.0968688,-1.5731596,2.4504805,-0.056510516,0.10138187,-0.13698474,0.07598571,-0.03934292,-0.043170333,-0.4213795,0.0,-9.557653,0.779936,47.703903,-1.144312,-1.7447624,-3.1511102,-0.3304214,-0.43534085,-0.28026292,28.625,29.6875,29.0,33.0,35.375,36.5
0.13605262,-1.4325258,-0.43490028,-0.4009531,0.010453993,0.05054539,-0.17450438,-0.3851111,-0.34761646,0.060054027,-3.074985,0.6262794,-0.00020244671,-0.059352204,0.01727491,-0.0009956135,0.05766244,-0.019054836,-0.012355179,0.47405887,-1.4190094,1.9486727,-2.0967019,-1.5732449,2.450348,-0.057270315,0.10788861,-0.1378962,0.07332229,-0.042835303,-0.0446834,-0.38307226,0.1340753,-9.519346,0.8314132,47.687782,-1.1699679,-1.9721847,-3.2185497,-0.3216488,-0.43488634,-0.22784975,28.625,29.6875,29.0,33.0,35.375,36.5
0.13805251,-1.1774914,-0.50945055,-0.29936305,-0.017312149,0.07919139,-0.1931409,-0.3852264,-0.34756556,0.060054,-3.0748198,0.62634206,-0.0002533322,-0.06249658,0.018603053,0.0010921553,0.057718605,-0.013239852,-0.014345771,0.47392568,-1.4188057,1.9483961,-2.0965102,-1.5733417,2.4502754,-0.060715143,0.10601136,-0.1403356,0.07248651,-0.045560885,-0.046121,-0.45968673,0.17238252,-9.634268,0.8918391,47.672558,-1.0676432,-1.8728337,-3.200407,-0.3078345,-0.41802466,-0.2273876,28.625,29.6875,29.0,33.0,35.375,36.5
0.14005241,-1.457539,-1.116477,-0.37206894,-0.030655002,0.0892306,-0.19533941,-0.38536745,-0.34754482,0.060064036,-3.074754,0.6263839,-0.00018445867,-0.06355003,0.017193323,-0.00055637996,0.05807906,-0.013165559,-0.010926278,0.4738064,-1.4185994,1.948121,-2.0964406,-1.5734137,2.450191,-0.058918346,0.11215471,-0.14282024,0.06891428,-0.045937594,-0.047739394,-0.5554548,0.22984336,-9.653421,0.82694155,47.67166,-1.1053051,-2.0006042,-3.3213992,-0.29682085,-0.40896314,-0.2047155,28.625,29.6875,29.0,33.0,35.375,36.5
0.14205244,-1.3840009,-1.5159599,-0.34527895,-0.04872782,0.11377922,-0.19518752,-0.3854985,-0.3475198,0.060081296,-3.074658,0.6264777,-0.00021029662,-0.06515096,0.018020032,-0.00029208895,0.058469586,-0.0090183765,-0.010763277,0.47367394,-1.4183955,1.94781,-2.0962737,-1.5734628,2.4501297,-0.060361456,0.11164346,-0.14198074,0.06506889,-0.04819584,-0.04933371,-0.5363012,0.32561144,-9.634268,0.7933669,47.64479,-1.2242815,-1.8949182,-3.2784662,-0.25112754,-0.42034882,-0.16416465,28.625,29.6875,29.0,33.0,35.375,36.5
0.14405257,-2.2760217,-2.1383762,-0.18635572,-0.049163114,0.10607726,-0.18510541,-0.3856215,-0.3474601,0.060076687,-3.0744624,0.626438,-0.0001775484,-0.06785188,0.019388925,3.062002e-05,0.06091295,-0.0060462398,-0.011955016,0.4735651,-1.4181787,1.9475344,-2.0961063,-1.5736321,2.4500217,-0.06294023,0.1134831,-0.14468166,0.06439471,-0.05174585,-0.05069951,-0.51714754,0.34476504,-9.672575,0.7284641,47.707485,-1.1537436,-1.9913745,-3.2386668,-0.21553527,-0.39838532,-0.1388421,28.625,29.6875,29.0,33.0,35.375,36.5
0.1460524,-1.5882486,-1.7582992,-0.26455888,-0.04318176,0.109424375,-0.19021326,-0.38577357,-0.34745273,0.060104635,-3.0744207,0.62635344,-7.849638e-05,-0.070189506,0.020996701,0.00020034224,0.064037025,-0.0026482833,-0.013133034,0.4734682,-1.4179622,1.9471983,-2.096,-1.5737175,2.4498777,-0.065092005,0.114656426,-0.14612432,0.06306796,-0.056086842,-0.051655382,-0.5554548,0.40222588,-9.519346,0.78217715,47.637623,-0.96780145,-1.8869591,-3.357354,-0.21082634,-0.33846283,-0.1206676,28.625,29.6875,29.0,33.0,35.375,36.5
0.14805233,-1.3960496,-1.1576886,0.059285592,-0.038246367,0.103000134,-0.19440006,-0.38592485,-0.34738573,0.060101245,-3.0742478,0.62646943,-6.5144355e-05,-0.071502276,0.019603347,0.00054666726,0.06226486,0.0017232401,-0.012068489,0.473289,-1.4177334,1.9469117,-2.0958574,-1.5738376,2.4497936,-0.0635117,0.11588761,-0.14725891,0.05825969,-0.05652431,-0.05113151,-0.6703765,0.4405331,-9.442732,0.83365434,47.64658,-1.164928,-1.9109254,-3.4125624,-0.12345514,-0.32474524,-0.08753464,28.625,29.6875,29.0,33.0,35.375,36.5
0.15005228,-1.21416,-0.7260432,0.2757672,-0.024487276,0.0833552,-0.19548425,-0.3860857,-0.34738526,0.060121387,-3.0742104,0.6263869,7.158569e-05,-0.07343637,0.020975998,7.9415395e-06,0.0640716,0.001369232,-0.016592022,0.47320378,-1.4174923,1.9465755,-2.0957973,-1.5739344,2.449662,-0.066745974,0.11869631,-0.14936876,0.05869923,-0.05797186,-0.04983697,-0.59376204,0.36391866,-9.308657,0.8112748,47.652847,-1.1062194,-1.8002362,-3.4443555,-0.08657016,-0.31746867,-0.07066223,28.625,29.6875,29.0,33.0,35.375,36.5
0.15205231,-0.8557943,-0.47570997,0.2171497,0.007407166,0.062260147,-0.18591157,-0.3862571,-0.34732988,0.060122397,-3.0740821,0.6264942,0.00019924546,-0.07485283,0.022054233,0.00010352703,0.06668807,0.0029607208,-0.01764367,0.47303525,-1.4172637,1.9463004,-2.0957491,-1.5740675,2.4495773,-0.067936495,0.11979043,-0.15090184,0.058907915,-0.06103406,-0.049962446,-0.47884035,0.2681506,-9.251195,0.82694155,47.687782,-0.9759507,-1.8571241,-3.4981718,-0.04255336,-0.27396756,-0.09040946,28.625,29.6875,29.0,33.0,35.375,36.5
0.15405254,-1.381021,-0.001011376,0.37155935,0.021294134,0.033001404,-0.18501082,-0.38639382,-0.34728143,0.060100578,-3.0739086,0.6264974,0.00016936095,-0.07656524,0.022904381,0.00032941278,0.068862066,0.004043119,-0.019095736,0.47290292,-1.4169867,1.946,-2.0956051,-1.5741886,2.4494698,-0.06940025,0.12158347,-0.15373342,0.059967905,-0.06347586,-0.049955137,-0.45968673,0.2873042,-9.155427,0.78217715,47.731667,-1.0249444,-1.8694743,-3.5440629,-0.008200817,-0.24998373,-0.04192031,28.625,29.6875,29.0,33.0,35.375,36.5
0.15605259,-0.90039396,0.6146319,0.6215723,0.024482382,0.03436257,-0.19278237,-0.3865668,-0.34723458,0.060132094,-3.0737672,0.62656593,0.00034431933,-0.077083096,0.02346536,-0.0011481233,0.07158296,0.0010452801,-0.023145387,0.47277066,-1.4167812,1.9456652,-2.095485,-1.5743564,2.449399,-0.07015727,0.12599565,-0.1557831,0.06151286,-0.06452835,-0.046657283,-0.51714754,0.095768064,-9.040505,0.82022345,47.690468,-0.9161171,-1.9357383,-3.394331,0.019363765,-0.19221716,-0.052658882,28.625,29.6875,29.0,33.0,35.375,36.5
0.15805247,-1.0996639,0.3788935,0.6053617,0.04965368,0.02531682,-0.17955887,-0.38673863,-0.34718165,0.06012702,-3.0736294,0.6266727,0.00039115135,-0.07846601,0.023917668,0.0015233668,0.07034262,0.004764019,-0.026058398,0.47259024,-1.4165182,1.9453534,-2.0953887,-1.5744647,2.4493034,-0.07179585,0.12210591,-0.15793194,0.063666195,-0.065120794,-0.045377314,-0.36391866,0.05746084,-8.944737,0.800085,47.694054,-0.9339463,-1.7896113,-3.4166014,0.0402399,-0.1677079,-0.10492932,28.625,29.6875,29.0,33.0,35.375,36.5
0.1600524,-0.34866506,0.59079206,0.6294363,0.051120553,0.0423338,-0.18848121,-0.3868852,-0.34715867,0.060133636,-3.0735073,0.6266482,0.00044684982,-0.07929519,0.024284843,-1.3820813e-05,0.07261975,0.000788241,-0.02797632,0.47249356,-1.4162637,1.9450163,-2.095256,-1.5745848,2.4492075,-0.07303312,0.12762803,-0.16133691,0.06611742,-0.065343745,-0.044690434,-0.34476504,-0.019153614,-9.059659,0.800085,47.686886,-0.8795788,-1.9771636,-3.2979784,0.06477543,-0.1602969,-0.07164161,28.625,29.6875,29.0,33.0,35.375,36.5
0.16205253,0.06319427,0.8852119,0.7777325,0.037977256,0.047097683,-0.19026421,-0.38706884,-0.34708965,0.06014528,-3.0733588,0.6267902,0.0005452234,-0.08125482,0.02394126,0.0016937484,0.07133407,0.0024097506,-0.029255684,0.4722892,-1.4160357,1.9447035,-2.0951474,-1.5747164,2.4491115,-0.074422486,0.12803163,-0.16628996,0.06861695,-0.06494937,-0.044798635,-0.24899697,-0.17238252,-8.944737,0.84708,47.690468,-0.9123517,-1.8812315,-3.2043076,0.07286518,-0.12866564,-0.07124824,28.625,29.6875,29.0,33.0,35.375,36.5
0.16405246,-0.56762826,0.7805091,0.67703503,0.039800182,0.016343135,-0.18486503,-0.3872241,-0.3470577,0.060147367,-3.0732055,0.6268368,0.0005674705,-0.080261886,0.024996612,0.0006101059,0.073339045,-0.004846811,-0.032594997,0.47216856,-1.4157586,1.9443449,-2.094989,-1.5748361,2.4490402,-0.07634033,0.13018511,-0.16784477,0.07538008,-0.06342524,-0.043379065,-0.24899697,-0.19153613,-8.983045,0.77545905,47.68062,-0.7803881,-1.7971141,-3.2175727,0.029474325,-0.1103619,-0.11613248,28.625,29.6875,29.0,33.0,35.375,36.5
0.16605231,-0.622096,0.25352395,0.26920456,0.046727404,0.0041357502,-0.17986889,-0.38738862,-0.34698817,0.060157225,-3.0730212,0.62695354,0.0006162408,-0.08067335,0.024561295,0.0004897259,0.07200711,-0.0075856033,-0.03717238,0.47198817,-1.4155298,1.944022,-2.0948212,-1.5749792,2.448957,-0.07747798,0.1323318,-0.17061643,0.07782738,-0.06099378,-0.039944295,-0.34476504,-0.095768064,-9.021352,0.87393653,47.677036,-0.75526077,-1.8843585,-3.2289658,0.019293664,-0.12925532,-0.1305078,28.625,29.6875,29.0,33.0,35.375,36.5
0.16805208,-0.112295076,0.7468321,0.24151506,0.028146619,0.0057751313,-0.19654608,-0.38752997,-0.34693182,0.060153894,-3.0728104,0.6269868,0.0006430025,-0.0788484,0.02533236,-0.0010070913,0.07398086,-0.01594433,-0.03794826,0.4718679,-1.4152769,1.9436983,-2.094639,-1.5751466,2.4488852,-0.078477494,0.13450791,-0.17125385,0.08460871,-0.058947958,-0.04017116,-0.30645782,-0.076614454,-9.174581,0.7866488,47.690468,-0.7194784,-1.8681574,-3.147266,-0.007673595,-0.15044396,-0.17745268,28.625,29.6875,29.0,33.0,35.375,36.5
0.1700523,-0.6044429,-0.23820275,-0.09727039,0.027039973,-0.008155002,-0.17874399,-0.38769165,-0.34688652,0.06013108,-3.0726545,0.62705106,0.0005454049,-0.07795892,0.026932545,-0.002075582,0.07704802,-0.02398827,-0.040262233,0.47168693,-1.4149522,1.9433388,-2.0944688,-1.5752181,2.448765,-0.081059314,0.13680062,-0.1733715,0.09297488,-0.058025323,-0.04043556,-0.30645782,0.038307227,-9.270349,0.7978386,47.667187,-0.69481766,-1.7854977,-3.2236724,-0.11659895,-0.13200356,-0.18212846,28.625,29.6875,29.0,33.0,35.375,36.5
0.17205222,-0.5665891,-0.5441793,-0.050688624,0.016196989,0.0010502682,-0.17940086,-0.3878542,-0.3468367,0.06015295,-3.0724857,0.6270901,0.0005946576,-0.07736149,0.02571795,-0.00044865385,0.07550145,-0.024281079,-0.038168155,0.47154367,-1.4147121,1.9429668,-2.0942633,-1.5753616,2.4486685,-0.0793049,0.13503614,-0.17596565,0.09687067,-0.05652327,-0.040777944,-0.34476507,0.076614454,-9.270349,0.8537928,47.675243,-0.67695534,-1.8411161,-3.3129086,-0.19218071,-0.15665448,-0.16909078,28.625,29.6875,29.0,33.0,35.375,36.5
0.17405215,-0.099126115,-0.48517194,-0.1974545,-0.0063653425,0.037233368,-0.18657832,-0.38798636,-0.34677023,0.060125794,-3.0722618,0.6271588,0.00045958976,-0.076624654,0.02560196,-0.002774008,0.07728485,-0.031434357,-0.038666777,0.47137558,-1.4144214,1.9426435,-2.0940354,-1.5754694,2.4485729,-0.079467654,0.14083134,-0.17814821,0.10042289,-0.05487649,-0.040437993,-0.47884035,0.19153613,-9.404425,0.7709874,47.72002,-0.8034444,-2.0214922,-3.232443,-0.24583508,-0.17734063,-0.19447343,28.625,29.6875,29.0,33.0,35.375,36.5
0.17605221,-0.49823728,-1.3728336,-0.41495955,-0.006440621,0.05072552,-0.19097908,-0.3881546,-0.34670368,0.060148146,-3.072059,0.6273494,0.00044163456,-0.0783121,0.026761767,-0.0018211917,0.07626197,-0.03189575,-0.043110803,0.47118208,-1.4141815,1.9422597,-2.0937827,-1.5755886,2.4485252,-0.083721556,0.1405076,-0.18058465,0.103111416,-0.053770594,-0.040246952,-0.1340753,0.19153613,-9.481039,0.8224646,47.704796,-0.6326119,-1.784322,-3.3084502,-0.30010667,-0.18151703,-0.2263428,28.625,29.6875,29.0,33.0,35.375,36.5
0.17805208,-1.4884995,-1.18896,-0.42709246,-0.031111235,0.046505596,-0.17581646,-0.3882728,-0.34666187,0.0601193,-3.0718741,0.62746084,0.00027877357,-0.07768135,0.025002044,-0.0021115413,0.07639567,-0.032258637,-0.038965836,0.47103962,-1.4138927,1.9419478,-2.0935795,-1.5756487,2.4484768,-0.08003022,0.14269327,-0.18248409,0.10319688,-0.0537469,-0.040689886,-0.26815057,0.24899697,-9.442732,0.76874626,47.70032,-0.8815892,-1.8209628,-3.3017263,-0.3367292,-0.19966891,-0.23088078,28.625,29.6875,29.0,33.0,35.375,36.5
0.18005203,-1.2481058,-1.8214155,-0.31532398,-0.033368133,0.06279777,-0.17995913,-0.3884835,-0.3465928,0.06014996,-3.071685,0.62761277,0.0003951646,-0.07890555,0.02548611,-0.0026964874,0.07715277,-0.03148967,-0.03968996,0.47083503,-1.4136276,1.9415301,-2.0933888,-1.575817,2.4483922,-0.08127747,0.14479865,-0.18319766,0.1014466,-0.054792546,-0.041204523,-0.2681506,0.3256114,-9.423578,0.85826975,47.71286,-0.8483289,-1.829329,-3.3141885,-0.35836554,-0.20727979,-0.25339532,28.625,29.6875,29.0,33.0,35.375,36.5
0.182052,-0.7617622,-1.8278171,-0.33679545,-0.045773834,0.07209352,-0.18644057,-0.3885973,-0.3465085,0.060087033,-3.0713804,0.62770116,0.00017043421,-0.079826884,0.02387067,-0.0025693772,0.07326678,-0.028998727,-0.038199913,0.47066724,-1.413291,1.9412307,-2.093139,-1.5759481,2.44832,-0.08070867,0.14587414,-0.18374445,0.096907765,-0.05249658,-0.04212182,-0.19153613,0.30645782,-9.672575,0.7418897,47.67166,-0.8510442,-1.8103125,-3.3967776,-0.3369496,-0.22593027,-0.27972484,28.625,29.6875,29.0,33.0,35.375,36.5
0.18405212,-1.1482462,-2.0764647,-0.58597213,-0.03547315,0.049509883,-0.1773043,-0.3887704,-0.34647405,0.06010033,-3.071246,0.6277301,0.00016141566,-0.08210289,0.022984106,-0.0017464046,0.07063806,-0.023704749,-0.03802945,0.4705113,-1.4130026,1.940823,-2.0929372,-1.576044,2.4482,-0.08110668,0.14657496,-0.18533206,0.09186924,-0.052583627,-0.042683832,-0.19153613,0.2681506,-9.730036,0.79560274,47.70659,-0.86396,-1.7853789,-3.4024687,-0.2884618,-0.25904262,-0.26979744,28.625,29.6875,29.0,33.0,35.375,36.5
0.18605246,-0.9152729,-2.2792742,-0.5549964,-0.03918102,0.041900165,-0.17263755,-0.3889761,-0.34645107,0.060114484,-3.0711615,0.62782604,0.0002167569,-0.084731676,0.021754513,-0.0019510492,0.06924705,-0.01942477,-0.03701731,0.47033152,-1.4126889,1.9404029,-2.0928195,-1.5761169,2.4480915,-0.08079523,0.15066251,-0.18837239,0.086362764,-0.053315546,-0.04337681,-0.05746084,0.34476504,-9.615114,0.82022345,47.699425,-0.98875123,-1.8648355,-3.4358842,-0.22719565,-0.2575023,-0.29231864,28.625,29.6875,29.0,33.0,35.375,36.5
0.18805252,-0.35513517,-2.0112092,-0.5852762,-0.0343592,0.03236811,-0.17899153,-0.38912952,-0.34640646,0.060093716,-3.0709615,0.6279187,0.00019784094,-0.08678723,0.02198695,-0.0012057733,0.06806259,-0.014534647,-0.0381445,0.47019887,-1.4123769,1.9400567,-2.0926654,-1.576249,2.4480433,-0.08226731,0.15020758,-0.18864286,0.08218181,-0.054498564,-0.04370779,-0.05746084,0.36391866,-9.5385,0.87617236,47.66987,-0.9047278,-1.7749258,-3.5474677,-0.15735927,-0.249913,-0.31953365,28.625,29.6875,29.0,33.0,35.375,36.5
0.19005255,-0.33196002,-1.5779269,-0.7126904,-0.029701028,0.014812669,-0.17930505,-0.3893193,-0.34635565,0.060092635,-3.0707834,0.6281124,0.00019811152,-0.088873945,0.02097769,-0.0012149498,0.064972565,-0.0131330015,-0.03935082,0.47000653,-1.4120635,1.9396609,-2.092499,-1.5763563,2.4479957,-0.08367178,0.15332669,-0.19163534,0.07938219,-0.05240431,-0.043911424,0.038307227,0.38307226,-9.576807,0.8873621,47.698532,-0.90722466,-1.8649421,-3.5508165,-0.101089865,-0.29280093,-0.32436347,28.625,29.6875,29.0,33.0,35.375,36.5
0.19205263,0.5281955,-1.0357535,-0.50227624,-0.03473767,0.016505202,-0.19171493,-0.38948163,-0.34630457,0.06009658,-3.0706463,0.6281024,0.00028941792,-0.0897146,0.020817716,-0.0015245202,0.06581079,-0.013966356,-0.039713327,0.4698623,-1.4118223,1.93935,-2.0923903,-1.5765003,2.4478636,-0.08386831,0.15612176,-0.19442523,0.08048817,-0.05278475,-0.04373967,0.11492168,0.3256114,-9.634268,0.8784135,47.68062,-0.9465451,-1.9669888,-3.5718198,-0.06579259,-0.3261686,-0.3567563,28.625,29.6875,29.0,33.0,35.375,36.5
0.19405259,-0.20554149,-1.4190122,-0.53191495,-0.01566454,-0.010598989,-0.1743316,-0.38968322,-0.34627867,0.060111344,-3.070528,0.62817377,0.00026995013,-0.0916458,0.02179551,-0.0020021843,0.06718375,-0.0134833455,-0.041667152,0.46968144,-1.411485,1.9388818,-2.0921872,-1.5765733,2.4477432,-0.08634833,0.1589213,-0.1964696,0.079913355,-0.054246567,-0.044251896,0.0,0.47884035,-9.500193,0.8224646,47.687782,-0.87765586,-2.0311682,-3.553111,-0.034130346,-0.32189974,-0.3838178,28.625,29.6875,29.0,33.0,35.375,36.5
0.19605182,-0.26809195,-1.6043056,-0.63501996,-0.0022010729,-0.007960435,-0.17249477,-0.38988304,-0.34625122,0.060108148,-3.0704136,0.6283203,0.00034515007,-0.09270269,0.020466406,-0.0008678482,0.066482864,-0.010692462,-0.039043576,0.46951425,-1.41116,1.9384984,-2.0921152,-1.5766691,2.4476829,-0.084485374,0.15975071,-0.20004648,0.07983945,-0.054903306,-0.04500612,0.019153614,0.4405331,-9.423578,0.87617236,47.67614,-0.8851111,-2.0459993,-3.4783328,0.011799756,-0.35777664,-0.3971364,28.625,29.6875,29.0,33.0,35.375,36.5
0.19805174,-0.40379387,-1.2412591,-0.68827975,-0.007500239,-0.0009917888,-0.17329034,-0.39005804,-0.346186,0.06008694,-3.0701914,0.6283879,0.00030364137,-0.09218413,0.021207578,-0.0016481518,0.069835566,-0.015136611,-0.038075995,0.4693341,-1.4108233,1.9381155,-2.0919216,-1.5768136,2.4475746,-0.084648035,0.16216035,-0.20226121,0.08510499,-0.055895086,-0.046121806,0.0,0.40222588,-9.461885,0.88960326,47.687782,-0.976647,-1.9659321,-3.4818935,0.007988804,-0.35613608,-0.42185152,28.625,29.6875,29.0,33.0,35.375,36.5
0.2000517,-0.35038757,-1.0173705,-0.5464522,-0.026657553,0.02184848,-0.18438537,-0.3902195,-0.3461647,0.060097575,-3.0700517,0.6283975,0.00027781774,-0.094655424,0.022583794,-0.0009316434,0.07054071,-0.01296218,-0.04058503,0.46921277,-1.4105227,1.9376963,-2.0917065,-1.5769099,2.447478,-0.0882154,0.16273032,-0.20462437,0.08526587,-0.057526965,-0.04716351,-0.019153614,0.47884035,-9.615114,0.8851263,47.693153,-0.8467151,-1.9839952,-3.394106,0.029812878,-0.36328834,-0.44810528,28.625,29.6875,29.0,33.0,35.375,36.5
0.20205258,-0.67621845,-1.4956287,-0.39370975,-0.037293542,0.03924797,-0.18076849,-0.39040494,-0.3461121,0.060113057,-3.069881,0.6284737,0.00034046985,-0.09426468,0.022065789,-0.0011948227,0.07431046,-0.014279297,-0.036215797,0.469046,-1.4102453,1.9373006,-2.0915253,-1.5770549,2.4473817,-0.08512042,0.16540204,-0.20790717,0.08874166,-0.06030959,-0.048415326,-0.038307227,0.47884035,-9.595961,0.900793,47.666286,-1.0979162,-2.0439897,-3.381258,0.041188456,-0.37910143,-0.4394036,28.625,29.6875,29.0,33.0,35.375,36.5
0.20405257,-1.3108728,-1.5479761,-0.19806439,-0.044693615,0.04361782,-0.17677313,-0.39062417,-0.34608403,0.06011018,-3.0697384,0.62857586,0.00031584193,-0.09574569,0.023307655,-0.000730304,0.07785905,-0.0147501435,-0.033800263,0.46885356,-1.4098487,1.936809,-2.0913446,-1.5771397,2.4472723,-0.08667329,0.16719905,-0.21206193,0.09309255,-0.063293956,-0.052358203,-0.22984336,0.40222588,-9.519346,0.79560274,47.690468,-1.0664898,-1.9749115,-3.3711123,-0.0038095135,-0.34118468,-0.43597108,28.625,29.6875,29.0,33.0,35.375,36.5
0.20605253,-1.0136213,-1.484138,-0.30014983,-0.02201962,0.053532604,-0.17798188,-0.39079627,-0.34602848,0.060099278,-3.0695221,0.6285856,0.00032546962,-0.09479436,0.024810964,-0.0017544751,0.082291424,-0.019546635,-0.031186506,0.46870932,-1.4095235,1.9364156,-2.091151,-1.577309,2.447163,-0.08727179,0.16866295,-0.21264316,0.098458715,-0.06510012,-0.05555139,-0.30645782,0.34476504,-9.404425,0.8784135,47.67614,-1.0332463,-1.9565039,-3.445977,-0.012682859,-0.33016437,-0.41581255,28.625,29.6875,29.0,33.0,35.375,36.5
0.20805256,-1.1002827,-0.8919068,-0.10569709,-0.0015210817,0.04485741,-0.18224338,-0.39100373,-0.34597436,0.0601131,-3.0693507,0.62868255,0.0003352394,-0.09466283,0.02651257,-0.0017856008,0.08758148,-0.021525875,-0.030757554,0.4685053,-1.4091992,1.9359611,-2.090934,-1.5774306,2.4470427,-0.08763994,0.16911303,-0.21431635,0.10382545,-0.06893763,-0.05631765,-0.26815057,0.26815057,-9.32781,1.005978,47.67166,-1.1751134,-1.9551477,-3.3800879,-0.057013284,-0.300865,-0.4032911,28.625,29.6875,29.0,33.0,35.375,36.5
0.21005245,-1.0374485,-0.2699547,0.3752242,0.026781738,0.030099362,-0.18844767,-0.39121234,-0.34594828,0.060133085,-3.0692096,0.62882423,0.00041848546,-0.09571016,0.027274864,-0.0008861378,0.0905495,-0.022327451,-0.028199982,0.46834892,-1.4088745,1.9355053,-2.0907767,-1.5775508,2.4469938,-0.088393286,0.17024352,-0.21895163,0.10935352,-0.07124912,-0.059610203,-0.22984336,0.13407528,-9.193734,0.87617236,47.705692,-1.2405984,-1.8779271,-3.3947887,-0.1334823,-0.26167035,-0.4030193,28.625,29.6875,29.0,33.0,35.375,36.5
0.21205229,-0.6680664,0.8394101,0.395487,0.06034794,0.024091838,-0.18891573,-0.391373,-0.34589085,0.06010085,-3.0690076,0.6287382,0.00029423428,-0.09626838,0.028294256,-0.0019075357,0.093434826,-0.02518174,-0.022767318,0.46818066,-1.4085126,1.93511,-2.0905483,-1.5776714,2.446799,-0.0897906,0.1734482,-0.22093101,0.11191528,-0.07259264,-0.06641654,-0.28730422,-0.05746084,-9.002198,0.83365434,47.684196,-1.2076893,-2.016437,-3.3316422,-0.13307866,-0.2589309,-0.31882116,28.625,29.6875,29.0,33.0,35.375,36.5
0.2140522,-0.50343245,1.416965,0.34101656,0.09304846,0.018763488,-0.18364723,-0.39159068,-0.34583768,0.06010687,-3.068832,0.62873894,0.00037880396,-0.09544039,0.030673563,-0.0035464785,0.10053009,-0.029991204,-0.022592962,0.46800038,-1.408164,1.934656,-2.090379,-1.5778412,2.4466429,-0.090517044,0.17575912,-0.22106177,0.11721291,-0.07676414,-0.067284554,-0.30645782,-0.19153613,-9.021352,0.8873621,47.704796,-1.1701607,-1.8819344,-3.3495057,-0.22072423,-0.23776972,-0.27380252,28.625,29.6875,29.0,33.0,35.375,36.5
0.21605225,-0.54453707,1.6689403,0.5399392,0.09146942,0.032511882,-0.18709843,-0.39180338,-0.34578443,0.060118284,-3.068641,0.6288121,0.00039738516,-0.09714518,0.031007534,-0.0019000092,0.100826934,-0.026896449,-0.02104162,0.46780804,-1.4078159,1.9341768,-2.0901506,-1.5779852,2.446522,-0.091491334,0.1748573,-0.22410607,0.11849411,-0.078462526,-0.06979005,-0.38307226,-0.38307226,-8.983045,0.84708,47.67614,-1.1996815,-1.8537157,-3.3359673,-0.24408486,-0.1836029,-0.26550654,28.625,29.6875,29.0,33.0,35.375,36.5
0.21805169,-1.1282094,1.2421945,0.7883409,0.078398354,0.053338945,-0.18457158,-0.3919883,-0.3457283,0.060110513,-3.06841,0.6288,0.00036788173,-0.099484086,0.031149631,-0.0008810552,0.10013821,-0.023855066,-0.019727938,0.46765146,-1.4074556,1.9337224,-2.0899003,-1.578154,2.446389,-0.09327679,0.17569806,-0.2272831,0.117760904,-0.07926666,-0.07286981,-0.5554548,-0.45968673,-8.925584,0.83813137,47.655537,-1.2426183,-1.8222771,-3.3751798,-0.25694695,-0.15776266,-0.19414793,28.625,29.6875,29.0,33.0,35.375,36.5
0.2200517,-1.5739062,0.90936846,0.61056465,0.055395745,0.078995675,-0.19217184,-0.39218712,-0.34565258,0.06009011,-3.0681605,0.62880296,0.00030567183,-0.10058471,0.03044816,-0.0008516693,0.09894738,-0.022020359,-0.018845612,0.4674474,-1.4070704,1.933268,-2.0896494,-1.5783218,2.4462204,-0.09310137,0.17728171,-0.22869796,0.115383334,-0.0790698,-0.07356276,-0.53630114,-0.34476504,-9.059659,0.8403672,47.68062,-1.1926008,-1.8166589,-3.3348846,-0.24841937,-0.15085052,-0.16548175,28.625,29.6875,29.0,33.0,35.375,36.5
0.22205259,-1.6300768,0.2365985,0.5809245,0.03192788,0.10307698,-0.18859561,-0.3923838,-0.3455981,0.06007658,-3.0679379,0.6288518,0.00025195468,-0.10297886,0.029775076,-0.0007305762,0.0965705,-0.018867098,-0.019909598,0.46726713,-1.4066855,1.9328007,-2.0894115,-1.5784653,2.4461007,-0.09443182,0.1797989,-0.2310244,0.11127759,-0.078407265,-0.07382001,-0.53630114,-0.49799395,-9.155427,0.89631605,47.661808,-1.2147021,-1.7326062,-3.4324193,-0.20435287,-0.15740158,-0.14212662,28.625,29.6875,29.0,33.0,35.375,36.5
0.22405249,-1.7464932,-0.37032127,0.33894458,0.0065508843,0.09640475,-0.18734322,-0.39257014,-0.3455314,0.060077272,-3.0677166,0.6288251,0.00026145077,-0.106418654,0.029632287,0.0005201325,0.092386715,-0.014006091,-0.0246724,0.4670977,-1.4063609,1.932371,-2.089174,-1.5786446,2.4459445,-0.09817841,0.18035178,-0.2336384,0.10709071,-0.076889664,-0.07280323,-0.5363012,-0.30645782,-9.212888,0.85155696,47.698532,-0.911377,-1.8901458,-3.3704934,-0.14513557,-0.14928165,-0.11452204,28.625,29.6875,29.0,33.0,35.375,36.5
0.22605248,-1.4927077,-0.19572501,0.12908448,-0.0172207,0.07991128,-0.19807759,-0.39279264,-0.3454561,0.06007668,-3.067496,0.62897074,0.0002498834,-0.10681086,0.028769052,-0.00039197903,0.090715416,-0.014170552,-0.025675926,0.46685797,-1.4059998,1.9319042,-2.0889475,-1.5787882,2.4458256,-0.09793498,0.18284912,-0.23384997,0.10417542,-0.07534439,-0.071558185,-0.6703765,-0.21068975,-9.308657,0.87393653,47.690468,-1.1328359,-1.8831625,-3.3743625,-0.10160394,-0.17186268,-0.10975577,28.625,29.6875,29.0,33.0,35.375,36.5
0.22805257,-1.4097011,-0.94853455,-0.15974045,-0.013647871,0.053328156,-0.18459113,-0.39299738,-0.34538496,0.060064457,-3.0672622,0.628961,0.00024227124,-0.10873462,0.029445814,-0.0012400728,0.08990005,-0.0146072,-0.031420954,0.46666476,-1.4056262,1.9314493,-2.08872,-1.5789679,2.445658,-0.101372674,0.18604745,-0.23527732,0.10241628,-0.07443296,-0.06924573,-0.78529817,-0.095768064,-9.308656,0.8493211,47.66091,-0.97307765,-1.8782084,-3.5089233,-0.0613529,-0.18419711,-0.11736585,28.625,29.6875,29.0,33.0,35.375,36.5
0.23005244,-0.8121752,-1.2057825,-0.39886913,-0.013654629,0.0449334,-0.18701693,-0.39321262,-0.34531242,0.060037237,-3.0670164,0.6290067,0.00023396761,-0.10950865,0.029730255,-0.0016520486,0.08916214,-0.016023861,-0.03645158,0.46646008,-1.4052173,1.9309958,-2.0885284,-1.5791482,2.4455152,-0.10333199,0.18780172,-0.2365282,0.102840275,-0.073139556,-0.0661732,-0.63206923,0.076614454,-9.461885,0.8851263,47.67166,-0.8489739,-1.9149308,-3.6065803,-0.042770155,-0.19324541,-0.12672691,28.625,29.6875,29.0,33.0,35.375,36.5
0.2320523,-0.93036175,-1.3888773,-0.6987962,-0.023390412,0.028513514,-0.18240434,-0.3934065,-0.3452566,0.06002713,-3.0668075,0.6290597,0.000206242,-0.11064665,0.029085005,-0.0016403914,0.08749477,-0.016451063,-0.04139741,0.46627992,-1.404856,1.9305528,-2.0883133,-1.5792907,2.4453964,-0.10423417,0.19018412,-0.23941141,0.102979496,-0.071455695,-0.06213188,-0.6895301,0.24899697,-9.653421,0.85826975,47.684196,-0.84709996,-1.9443938,-3.5590348,-0.024608228,-0.2118124,-0.15565304,28.625,29.6875,29.0,33.0,35.375,36.5
0.2340524,-1.2871636,-2.3752964,-0.5222639,-0.03185469,0.039795604,-0.16943999,-0.3936404,-0.34519756,0.06004029,-3.066617,0.6291731,0.00020951238,-0.11024291,0.029350163,-0.0015978513,0.087472156,-0.020247916,-0.043472063,0.46605155,-1.4044836,1.9300374,-2.0880716,-1.5794224,2.4452648,-0.10537258,0.19075558,-0.2412759,0.10763189,-0.06973475,-0.06120277,-0.842759,0.4405331,-9.576807,0.85826975,47.69763,-0.768968,-1.91448,-3.6535974,-0.008766795,-0.24304456,-0.18610623,28.625,29.6875,29.0,33.0,35.375,36.5
0.23605247,-0.68383026,-2.1386023,-0.794141,-0.055376064,0.073654376,-0.18699735,-0.3938415,-0.34514445,0.06002113,-3.0664017,0.6293202,0.00011710621,-0.11037904,0.028737059,-0.0016182938,0.08625346,-0.022419095,-0.047022503,0.46584737,-1.4040867,1.9295706,-2.0878437,-1.5795296,2.4451818,-0.105675556,0.19239388,-0.24368717,0.10979794,-0.06766979,-0.05796071,-0.7661445,0.49799395,-9.634268,0.900793,47.67614,-0.81204486,-1.9277291,-3.574297,-0.02559381,-0.29004258,-0.20019817,28.625,29.6875,29.0,33.0,35.375,36.5
0.23805246,-1.2612427,-2.0784705,-0.65640867,-0.06269955,0.072575346,-0.18490773,-0.39408973,-0.34506592,0.060019854,-3.0661478,0.6295158,0.000120413926,-0.10801251,0.02990262,-0.0035953235,0.089699134,-0.033454243,-0.04956558,0.46559507,-1.4036773,1.9290451,-2.0876005,-1.579697,2.4450862,-0.10675299,0.19552882,-0.24500726,0.119370356,-0.06578695,-0.056503125,-0.61291564,0.49799395,-9.730036,0.8112748,47.683304,-0.9369328,-2.1004827,-3.6100116,-0.092234045,-0.31498408,-0.26227653,28.625,29.6875,29.0,33.0,35.375,36.5
0.24005242,-1.3974931,-2.1265166,-0.29500136,-0.06620063,0.07099256,-0.1776051,-0.3942978,-0.34502983,0.060011093,-3.0659585,0.62953055,2.7349952e-05,-0.10747748,0.029381754,-0.003555403,0.091420375,-0.03752281,-0.0471748,0.46541548,-1.4032559,1.9285172,-2.0873353,-1.5798053,2.4449418,-0.10547214,0.19789146,-0.24931936,0.1256993,-0.065523416,-0.05760384,-0.53630114,0.4213795,-9.576807,0.8605109,47.66091,-0.9129975,-2.0301132,-3.4973626,-0.1790313,-0.3592692,-0.2735371,28.625,29.6875,29.0,33.0,35.375,36.5
0.24205244,-1.4804394,-2.0376947,-0.3174816,-0.031047855,0.040183153,-0.17502719,-0.39453217,-0.34494576,0.05999963,-3.0657287,0.62970966,1.1217479e-05,-0.10769282,0.03038985,-0.0036945946,0.09331173,-0.040329758,-0.04583639,0.46515113,-1.4028711,1.9280518,-2.0871308,-1.5799493,2.4448206,-0.10706259,0.19901805,-0.25128835,0.12984797,-0.06599772,-0.060520384,-0.36391866,0.36391866,-9.461885,0.8493211,47.639416,-0.97036177,-2.108906,-3.5249343,-0.22670722,-0.40717822,-0.240271,28.625,29.6875,29.0,33.0,35.375,36.5
0.24405229,-0.1968236,-0.31143975,-0.42321342,-0.0033776828,0.026091602,-0.19757473,-0.39475286,-0.34491104,0.05998495,-3.0655584,0.6296936,-2.6008893e-05,-0.10888887,0.030607129,-0.0041751754,0.095628254,-0.040488668,-0.048493333,0.46497092,-1.4024376,1.9275368,-2.0869267,-1.5800699,2.4446537,-0.107164666,0.20242383,-0.25440127,0.13074856,-0.06800407,-0.057937656,-0.1340753,0.28730422,-9.461885,0.81351066,47.69763,-0.81625855,-2.1370864,-3.4536128,-0.25293452,-0.3933131,-0.27341998,28.625,29.6875,29.0,33.0,35.375,36.5
0.24605235,0.30710497,-0.42540485,-0.33476797,0.036106978,0.003911926,-0.18197422,-0.3949858,-0.34485805,0.059968095,-3.0653226,0.6298906,-7.726518e-05,-0.11095144,0.02979113,-0.002586741,0.09290388,-0.037378132,-0.048829135,0.46475482,-1.4019934,1.9270095,-2.0867002,-1.5802015,2.444593,-0.10813073,0.2026196,-0.25826204,0.13038008,-0.06700225,-0.058565762,0.038307227,0.22984336,-9.3661175,0.88960326,47.674347,-0.91364557,-2.0227034,-3.3719363,-0.284267,-0.4484646,-0.2850952,28.625,29.6875,29.0,33.0,35.375,36.5
0.24805236,1.1125399,0.16976494,-0.10334071,0.027088948,0.01071519,-0.1929081,-0.39519626,-0.34476525,0.0599456,-3.0650654,0.630028,-0.0001900697,-0.11251861,0.031171251,-0.0025126857,0.09519038,-0.03454739,-0.050054844,0.4644901,-1.4016086,1.926556,-2.0864375,-1.580335,2.4444492,-0.10973802,0.20292516,-0.2584541,0.12874368,-0.070352934,-0.05890309,0.15322891,-0.019153614,-9.346964,0.85155696,47.684196,-0.88256603,-2.0564973,-3.378456,-0.22878635,-0.47450954,-0.30279753,28.625,29.6875,29.0,33.0,35.375,36.5
0.25005248,0.39490628,0.2408989,0.04033614,0.032050226,0.006941458,-0.19088067,-0.39543965,-0.34471887,0.059936672,-3.064856,0.63007814,-0.00021362503,-0.11626877,0.03190755,-0.0020630145,0.098070785,-0.027194811,-0.050733756,0.46428576,-1.4011512,1.9259924,-2.0862,-1.5804809,2.444305,-0.110512145,0.2056538,-0.26160586,0.12388088,-0.07626227,-0.05893101,0.19153613,-0.17238252,-9.270349,0.88960326,47.701214,-0.80096686,-2.1879067,-3.4604788,-0.19528493,-0.40837854,-0.32441902,28.625,29.6875,29.0,33.0,35.375,36.5
0.25205246,-0.2363061,0.64609736,-0.07564354,0.034193806,0.012975786,-0.18050633,-0.39568,-0.34467357,0.059957705,-3.0646794,0.63021153,-0.00020381412,-0.11903947,0.03120963,-0.0007852689,0.09738447,-0.020137185,-0.05019098,0.46407014,-1.4007668,1.9254421,-2.0859497,-1.5806016,2.444197,-0.11001694,0.20641138,-0.2644439,0.1193289,-0.07884419,-0.05894573,0.05746084,-0.095768064,-9.289502,0.88289046,47.682407,-0.9080775,-2.0338006,-3.4287043,-0.14083391,-0.40889543,-0.35026407,28.625,29.6875,29.0,33.0,35.375,36.5
0.25405237,-0.10926927,0.26231503,-0.0653291,0.04074528,0.044072006,-0.18379477,-0.39594617,-0.3445986,0.05996409,-3.0644276,0.63032883,-9.984201e-05,-0.12252706,0.031494923,0.00059722416,0.09905867,-0.012608248,-0.049759336,0.46384197,-1.400346,1.9248914,-2.085735,-1.58082,2.4440765,-0.11039408,0.207605,-0.26827905,0.115965635,-0.08375142,-0.05969867,0.24899697,-0.11492168,-9.346964,0.83813137,47.695843,-0.8755828,-2.1142893,-3.340436,-0.0775404,-0.39079326,-0.3488376,28.625,29.6875,29.0,33.0,35.375,36.5
0.2560524,-0.82147515,-0.1796959,-0.4565331,0.051525168,0.03948771,-0.17361662,-0.39613113,-0.34451398,0.05992073,-3.0641181,0.6303942,-0.0002511988,-0.123439014,0.03308337,-0.00043913393,0.10403191,-0.012038885,-0.048134916,0.4636378,-1.3999238,1.9244365,-2.085448,-1.5809897,2.4439557,-0.11090375,0.21001518,-0.26866084,0.115621,-0.08850014,-0.061764587,0.2873042,-0.019153614,-9.385271,0.8672237,47.672558,-0.93910754,-2.226685,-3.319942,-0.022025857,-0.33880955,-0.35842976,28.625,29.6875,29.0,33.0,35.375,36.5
0.25805253,-0.54326594,-0.03578233,-0.34516555,0.030849796,0.041677207,-0.18161048,-0.39638752,-0.34446147,0.059907615,-3.063909,0.6304435,-0.00018692712,-0.12483632,0.034041427,-0.000327432,0.1080564,-0.010732571,-0.046241764,0.46343398,-1.3994672,1.9238986,-2.0852797,-1.5811704,2.4438114,-0.11105414,0.21200112,-0.27162084,0.117191054,-0.09272103,-0.06375754,0.076614454,0.11492168,-9.461885,0.8314132,47.661808,-1.1040683,-2.2159197,-3.4465342,0.00024144235,-0.27656016,-0.33936626,28.625,29.6875,29.0,33.0,35.375,36.5
0.26005265,-0.66683674,-0.7986735,-0.547467,0.014113106,0.03244642,-0.18471654,-0.3966267,-0.34438616,0.05991485,-3.0636632,0.6305208,-0.00017926483,-0.12557101,0.03435404,0.000511221,0.11171595,-0.008773482,-0.041990276,0.46320644,-1.399071,1.9233602,-2.0850036,-1.5813526,2.443666,-0.10950356,0.21247011,-0.27464515,0.119583406,-0.09691605,-0.06640324,0.0,0.15322891,-9.481039,0.8560339,47.66091,-1.0154097,-2.05061,-3.344723,0.004214915,-0.21956417,-0.33301494,28.625,29.6875,29.0,33.0,35.375,36.5
0.26205236,-0.27598813,-1.0073694,-0.7743997,-0.0046729445,0.027023397,-0.18187167,-0.39687875,-0.3443062,0.05992076,-3.063374,0.6306298,-0.00012403507,-0.12753059,0.03630275,0.00060197344,0.11603953,-0.0075427536,-0.041179348,0.4629896,-1.3986502,1.9227966,-2.084728,-1.581582,2.443557,-0.11173145,0.21415016,-0.27720258,0.12123839,-0.10138347,-0.06938306,-0.095768064,0.28730422,-9.423578,0.9254084,47.677036,-1.1540265,-2.052541,-3.3961377,0.00079795043,-0.1518128,-0.31336275,28.625,29.6875,29.0,33.0,35.375,36.5
0.26405212,-0.69257724,-1.9508575,-1.0800353,-0.015539076,0.012444705,-0.17417423,-0.39711958,-0.34422362,0.05990948,-3.0630832,0.6306775,-0.00016053049,-0.12665956,0.036126524,-0.0006060475,0.11820807,-0.012081225,-0.036155403,0.4627621,-1.3982034,1.9222363,-2.0844276,-1.581786,2.4433994,-0.110599734,0.21740381,-0.27909055,0.12482169,-0.101354524,-0.07325661,-0.22984336,0.38307226,-9.825804,0.8717007,47.688675,-1.131083,-2.2192025,-3.4492102,0.005522833,-0.10779226,-0.2744191,28.625,29.6875,29.0,33.0,35.375,36.5
0.26605213,-0.83637893,-1.8740972,-0.72056454,-0.060708757,0.024579505,-0.18219715,-0.39736506,-0.34413865,0.059896752,-3.062811,0.6307131,-0.00013768107,-0.12559278,0.03733567,-0.0016035145,0.12109036,-0.01866082,-0.03532549,0.4625337,-1.3977712,1.9217094,-2.0841854,-1.5820016,2.4432309,-0.1119138,0.2192404,-0.28049627,0.13150114,-0.10103025,-0.07538974,-0.30645782,0.34476504,-9.787497,0.85826975,47.67345,-1.1495109,-2.236937,-3.6481771,-0.048319347,-0.112222955,-0.22056328,28.625,29.6875,29.0,33.0,35.375,36.5
0.26805204,-0.5357975,-1.8558084,-0.6229039,-0.07517383,0.043397628,-0.18760845,-0.3975995,-0.3440681,0.059883647,-3.0625548,0.63073015,-0.00018360603,-0.12254444,0.038367234,-0.0029595066,0.12237938,-0.029987425,-0.031202486,0.46231717,-1.397327,1.9211606,-2.0839064,-1.5821804,2.4430604,-0.1134135,0.2198251,-0.28036192,0.14138028,-0.097189166,-0.08103839,-0.40222588,0.47884035,-9.691729,0.9768804,47.664497,-1.1319535,-2.1436725,-3.766645,-0.14617735,-0.08368803,-0.17163712,28.625,29.6875,29.0,33.0,35.375,36.5
0.27005196,-0.78744614,-1.9570574,-0.74021333,-0.051544785,0.035865474,-0.17619716,-0.39785814,-0.34400383,0.059894398,-3.062321,0.6306982,-0.00011671236,-0.12211699,0.037877213,-0.0036862057,0.12085671,-0.035827603,-0.032507945,0.46211284,-1.3968935,1.9205731,-2.0836422,-1.5823945,2.4428685,-0.11461463,0.22270365,-0.28313103,0.1457691,-0.09324293,-0.08096544,-0.4405331,0.3256114,-9.768343,0.92093146,47.660015,-1.1112152,-2.1700008,-3.7676997,-0.21279943,-0.13309593,-0.12980065,28.625,29.6875,29.0,33.0,35.375,36.5
0.27205178,-0.89089274,-1.9510406,-0.72850883,-0.023826415,0.025418675,-0.17450565,-0.3980984,-0.34392425,0.059882708,-3.062058,0.6308509,-0.0001808563,-0.12148533,0.037350755,-0.0033303138,0.11931769,-0.040146418,-0.031693034,0.4618608,-1.3964607,1.9200343,-2.0833657,-1.5825499,2.4427483,-0.11513234,0.22325476,-0.2858608,0.15106449,-0.089982495,-0.082318015,-0.45968673,0.28730422,-9.787497,0.9231726,47.66091,-1.1317557,-2.1623,-3.6640098,-0.2919963,-0.15705386,-0.108297154,28.625,29.6875,29.0,33.0,35.375,36.5
0.2740517,-0.77558243,-1.3391368,-0.3707203,-0.012015888,0.020578347,-0.17427455,-0.39835167,-0.34386992,0.05989186,-3.0618258,0.63083696,-0.0001930549,-0.12265392,0.036419883,-0.0019445405,0.11614524,-0.03847419,-0.03112403,0.46165654,-1.3960046,1.919413,-2.0830538,-1.5827287,2.4425676,-0.1157514,0.22281563,-0.28867933,0.15135707,-0.08793422,-0.08351517,-0.5554548,0.17238252,-9.576807,0.8940802,47.71286,-1.0764763,-2.0242932,-3.704592,-0.32260704,-0.19500646,-0.05540576,28.625,29.6875,29.0,33.0,35.375,36.5
0.276052,-0.5857128,-0.59498364,-0.45333925,-0.006287343,0.020992346,-0.18405768,-0.39859802,-0.3438147,0.059879757,-3.06159,0.6309234,-0.00029140504,-0.12653986,0.035994455,-0.00012519695,0.111171074,-0.03324124,-0.038174663,0.4614269,-1.3955243,1.9188145,-2.0827563,-1.5828604,2.4424248,-0.11967017,0.22338375,-0.29289347,0.1481024,-0.08583095,-0.080389,-0.5363012,0.15322891,-9.423578,0.9388393,47.674347,-0.9082358,-2.0212252,-3.6801462,-0.30766985,-0.22839533,-0.064006485,28.625,29.6875,29.0,33.0,35.375,36.5
0.27805227,-1.2181033,-0.6302192,-0.27973545,-0.005619887,0.03581393,-0.18216564,-0.3988698,-0.34375188,0.059882667,-3.0613577,0.63094836,-0.00025755158,-0.12972209,0.03292991,0.0018313997,0.10484259,-0.024202976,-0.038401514,0.4611997,-1.3950554,1.9182037,-2.082496,-1.5830516,2.4422455,-0.11802451,0.2241866,-0.2966467,0.14012524,-0.08422156,-0.07852209,-0.51714754,0.019153614,-9.461885,0.9634547,47.645687,-1.1494392,-1.9052382,-3.6160452,-0.23848268,-0.25841832,-0.054571353,28.625,29.6875,29.0,33.0,35.375,36.5
0.2800523,-1.3459256,-0.82022405,-0.17195646,-0.028614838,0.07652874,-0.1827215,-0.3991277,-0.34369332,0.059886336,-3.0611463,0.6311157,-0.00030773843,-0.13424607,0.03149787,0.0044213496,0.09862944,-0.016260926,-0.043364458,0.46094668,-1.3946109,1.9176158,-2.0822222,-1.5831708,2.4421265,-0.120659344,0.22462463,-0.30212173,0.13527685,-0.08221679,-0.07620317,-0.40222588,-0.1340753,-9.576807,0.81351066,47.64658,-0.8737395,-1.8194917,-3.3685699,-0.18170309,-0.30254427,-0.0780519,28.625,29.6875,29.0,33.0,35.375,36.5
0.28205228,-2.0574136,-1.068081,-0.321838,-0.013887407,0.09159811,-0.18577813,-0.39942676,-0.34361783,0.0599074,-3.0609217,0.63125855,-0.0002725177,-0.136555,0.030093726,0.004067486,0.09525863,-0.013394826,-0.046673868,0.4606587,-1.3941531,1.9169701,-2.0819366,-1.5833381,2.4419591,-0.12121423,0.22841312,-0.30466476,0.12995806,-0.080485694,-0.07345843,-0.61291564,-0.21068975,-9.481039,0.8940802,47.679718,-0.9954095,-1.8189459,-3.278605,-0.09817994,-0.36168984,-0.090127915,28.625,29.6875,29.0,33.0,35.375,36.5
0.2840524,-1.813827,-0.22124936,-0.3304017,0.0019803662,0.10508603,-0.18273139,-0.39966637,-0.34355572,0.059903886,-3.0606658,0.63131917,-0.00029712776,-0.13772985,0.029677108,0.0046051927,0.094237894,-0.0120576015,-0.049740907,0.4604545,-1.3937082,1.9163955,-2.081649,-1.5835184,2.4418285,-0.12163319,0.22937861,-0.30705917,0.12973912,-0.08016657,-0.0708003,-0.59376204,-0.15322891,-9.557653,0.8314132,47.68062,-1.0197659,-1.8837798,-3.3123503,-0.0455045,-0.40379304,-0.12951279,28.625,29.6875,29.0,33.0,35.375,36.5
0.28605232,-2.0477908,-0.33540553,-0.460344,0.04016451,0.091005065,-0.17366964,-0.3999499,-0.34350982,0.059913076,-3.0604975,0.63143617,-0.00028168995,-0.13664189,0.030994795,0.0024719017,0.09694409,-0.015678706,-0.0531818,0.46020234,-1.3932393,1.9157761,-2.0814216,-1.5836385,2.441673,-0.122380495,0.23109455,-0.30424118,0.12966123,-0.080967784,-0.068091914,-0.6512228,-0.15322891,-9.672575,0.9455522,47.655537,-1.0012177,-1.8379359,-3.4126215,-0.0016041603,-0.43208176,-0.17933044,28.625,29.6875,29.0,33.0,35.375,36.5
0.28805187,-1.115788,0.30550596,-0.39647743,0.035727978,0.09933434,-0.18119238,-0.40024257,-0.34345487,0.0599326,-3.0602968,0.63160396,-0.00021472109,-0.13711926,0.032318443,0.00050199643,0.10154026,-0.018152338,-0.055668708,0.4599502,-1.3927813,1.9151434,-2.0811822,-1.5837959,2.4415538,-0.12309843,0.23554571,-0.30515492,0.13038473,-0.0839887,-0.06628064,-0.5746084,-0.22984336,-9.595961,0.8918391,47.655537,-1.0270487,-2.0580802,-3.6384878,0.012529505,-0.43280315,-0.1970568,28.625,29.6875,29.0,33.0,35.375,36.5
0.29005185,-1.0172089,0.62357986,-0.38954625,0.050399076,0.06631585,-0.18242513,-0.40050924,-0.34337103,0.059922542,-3.0600126,0.6317912,-0.00024242824,-0.13819444,0.0347941,3.6232595e-05,0.10751719,-0.02005535,-0.059049882,0.45968547,-1.3923119,1.9145569,-2.0809047,-1.5839771,2.4414458,-0.1254065,0.237791,-0.307809,0.13514863,-0.08851082,-0.0651386,-0.47884035,-0.22984336,-9.557653,0.92093146,47.684196,-0.9612409,-2.1583583,-3.79061,0.00924703,-0.42758602,-0.23464425,28.625,29.6875,29.0,33.0,35.375,36.5
0.2920518,-0.50156486,0.79644597,-0.22616512,0.049901646,0.057360046,-0.1799341,-0.40081066,-0.3433087,0.059932042,-3.0597672,0.6318726,-0.0001722788,-0.13840182,0.038640916,-0.0006121526,0.1174642,-0.023725005,-0.061594345,0.45944455,-1.3918071,1.9138864,-2.0806386,-1.584184,2.4412901,-0.12759514,0.23926023,-0.30989724,0.14346616,-0.09580238,-0.06468499,-0.5554548,-0.21068975,-9.461885,0.9634547,47.67614,-0.85392237,-2.0788975,-3.6385474,-0.055143274,-0.38945615,-0.2553129,28.625,29.6875,29.0,33.0,35.375,36.5
0.29405203,-0.23982246,0.9254186,-0.1411655,0.05752617,0.047519654,-0.1869335,-0.40109944,-0.34321344,0.059933312,-3.059472,0.63201725,-0.00017799542,-0.13835269,0.040784147,-0.0006380216,0.12373246,-0.02782676,-0.06304143,0.45915642,-1.3913262,1.9132522,-2.080325,-1.5843896,2.4411337,-0.12877984,0.24064338,-0.31338596,0.15200463,-0.09961973,-0.0643597,-0.34476504,-0.19153613,-9.3661175,0.8985519,47.716442,-0.9317998,-2.2808309,-3.5757027,-0.14625287,-0.32058638,-0.29830858,28.625,29.6875,29.0,33.0,35.375,36.5
0.29605204,-0.31019646,1.3208543,-0.20584407,0.058341313,0.019384619,-0.18538165,-0.4013757,-0.34310156,0.059943274,-3.0591147,0.6322808,-0.00013256787,-0.13923094,0.04177208,0.00061968534,0.13030183,-0.026019566,-0.059460927,0.45888114,-1.3908937,1.9126529,-2.0799997,-1.5846437,2.4410732,-0.12690786,0.24118549,-0.31809473,0.15741968,-0.10635822,-0.065967195,-0.21068975,-0.15322891,-9.346964,0.87393653,47.67614,-0.9235025,-2.0101166,-3.464314,-0.21864466,-0.2630034,-0.29532307,28.625,29.6875,29.0,33.0,35.375,36.5
0.2980522,0.1575108,0.30270958,0.12032451,0.05234793,0.041548915,-0.18635127,-0.40163425,-0.34302506,0.059931833,-3.0588248,0.6322962,-0.00018144463,-0.14107157,0.04323153,0.0007789913,0.13349593,-0.025940992,-0.064473234,0.4586522,-1.3904003,1.9120306,-2.0796754,-1.5848488,2.4408946,-0.12913498,0.24339108,-0.3217104,0.16018692,-0.109258436,-0.06312276,-0.34476504,-0.095768064,-9.346964,0.8717007,47.650166,-0.78912336,-2.0931983,-3.3506556,-0.2742277,-0.20871517,-0.32822752,28.625,29.6875,29.0,33.0,35.375,36.5
0.30005234,-0.26648,0.070947655,-0.19052166,0.03032211,0.030009223,-0.17947337,-0.40191016,-0.3429345,0.05993135,-3.0585039,0.6324729,-0.00025451198,-0.1430981,0.04335136,0.0024017785,0.13471481,-0.01984102,-0.064322814,0.4583765,-1.3899072,1.911373,-2.079305,-1.5850424,2.4407744,-0.128577,0.24252908,-0.32408074,0.15846726,-0.11309069,-0.06264236,-0.34476504,0.076614454,-9.270349,0.89631605,47.655537,-1.0016458,-2.0630078,-3.3895295,-0.24094531,-0.15512444,-0.39740697,28.625,29.6875,29.0,33.0,35.375,36.5
0.3020522,-1.2544602,-1.053532,-0.19018187,-0.007499943,0.043717448,-0.17622241,-0.402212,-0.34283105,0.059951816,-3.058179,0.6325906,-0.00018252135,-0.14618884,0.04224902,0.0033486749,0.13240954,-0.012515,-0.061440885,0.45810035,-1.389439,1.9107031,-2.0789607,-1.585306,2.4406176,-0.12843128,0.24403991,-0.32662526,0.1518284,-0.11434587,-0.065344855,-0.2873042,0.11492168,-9.461885,0.9388393,47.677036,-0.93003404,-1.8845109,-3.4022512,-0.19486558,-0.096712396,-0.40928328,28.625,29.6875,29.0,33.0,35.375,36.5
0.30405235,-1.904832,-2.3432732,0.08547411,-0.055693865,0.06648647,-0.17562722,-0.40247813,-0.3427461,0.059945025,-3.0578392,0.6327256,-0.00019231795,-0.14792882,0.0408907,0.0035847023,0.12704585,-0.0088430345,-0.06334605,0.4578723,-1.3889465,1.9100693,-2.0786283,-1.5855454,2.4405217,-0.12946744,0.24484219,-0.32684252,0.14553836,-0.111191325,-0.06449535,-0.24899697,0.19153613,-9.481039,0.87393653,47.68062,-0.9619503,-1.7492796,-3.3598692,-0.111642346,-0.11737333,-0.41356415,28.625,29.6875,29.0,33.0,35.375,36.5
0.30605233,-1.4015547,-2.7323024,-0.339776,-0.08228527,0.08318048,-0.18747887,-0.40279093,-0.3426837,0.059962355,-3.0576086,0.6328648,-8.015112e-05,-0.14853732,0.039550543,0.0040343795,0.12415701,-0.0075677573,-0.060940765,0.45762044,-1.3884538,1.9093999,-2.078389,-1.5857486,2.4403894,-0.1287938,0.24552415,-0.32844138,0.14396045,-0.10921109,-0.066246256,-0.17238252,0.2681506,-9.576807,0.91421866,47.683304,-1.010155,-1.6672039,-3.5202599,-0.08119194,-0.096782446,-0.45030946,28.625,29.6875,29.0,33.0,35.375,36.5
0.3080523,-1.4689902,-3.1653297,-0.44512603,-0.091868475,0.06341648,-0.17966048,-0.40309608,-0.3426061,0.0599816,-3.0573337,0.6329929,-3.3344295e-05,-0.14874154,0.0384062,0.003575622,0.11795652,-0.011128325,-0.060366992,0.4573556,-1.3879608,1.908707,-2.0780656,-1.5859622,2.4402435,-0.13132901,0.24711072,-0.32934883,0.1436205,-0.102140464,-0.06943745,-0.22984336,0.2873042,-9.691729,0.9567419,47.675243,-1.0347383,-1.6192551,-3.6533418,-0.019062633,-0.15961078,-0.46393117,28.625,29.6875,29.0,33.0,35.375,36.5
0.3100521,-0.31982037,-1.9175148,-0.41502255,-0.09233946,0.040639807,-0.18608336,-0.40340075,-0.34253028,0.059978586,-3.0570724,0.6331413,-6.249007e-06,-0.1483942,0.036646865,0.0017241796,0.118561864,-0.013814117,-0.052983344,0.4570809,-1.3874425,1.9080485,-2.077803,-1.5861543,2.4400985,-0.12820001,0.2528438,-0.33179814,0.14290509,-0.101582274,-0.07368648,-0.19153613,0.24899697,-9.5385,0.9567419,47.657326,-1.1658691,-1.7640893,-3.6813207,-0.017244123,-0.18878253,-0.42294678,28.625,29.6875,29.0,33.0,35.375,36.5
0.31205204,-0.106069,-1.5210719,-0.92809874,-0.040314723,-0.008210434,-0.1809276,-0.40370739,-0.34244147,0.059982575,-3.0568023,0.633233,6.605364e-05,-0.14948612,0.036370352,0.0007020874,0.11524685,-0.017479831,-0.051677164,0.45680344,-1.3869485,1.9074024,-2.0775392,-1.5863804,2.4399166,-0.1313938,0.2566367,-0.334114,0.14312322,-0.09707609,-0.078236796,-0.095768064,0.36391866,-9.634268,0.94331104,47.66987,-0.96096945,-1.8998985,-3.6255927,0.027115878,-0.21589877,-0.3942107,28.625,29.6875,29.0,33.0,35.375,36.5
0.31405205,0.3107828,-0.7725659,-0.5420065,-0.017302783,-0.023875216,-0.18676049,-0.40400523,-0.3423591,0.059988298,-3.0565577,0.6333091,6.2401596e-05,-0.14990978,0.03558132,0.002204033,0.11322004,-0.018601542,-0.04758072,0.4565156,-1.386456,1.9067453,-2.0772383,-1.5865597,2.439711,-0.13167511,0.2563178,-0.33829147,0.14761342,-0.094844855,-0.08263248,-0.05746084,0.3256114,-9.519346,0.9835985,47.696735,-1.0409571,-1.9222882,-3.570419,0.036023017,-0.2872859,-0.34912038,28.625,29.6875,29.0,33.0,35.375,36.5
0.31605214,0.1619763,-0.50712353,-0.60332835,0.012858468,-0.045970324,-0.18287589,-0.40430346,-0.3422964,0.05998143,-3.056331,0.63350534,5.1864885e-05,-0.14803997,0.03695441,0.0007459975,0.11568755,-0.028695239,-0.045232914,0.45623907,-1.385938,1.9060992,-2.0769956,-1.5867027,2.4395895,-0.13371265,0.2585276,-0.33971238,0.15685673,-0.09267705,-0.08703878,-0.05746084,0.28730422,-9.404425,0.9097417,47.668976,-0.9312002,-2.0076838,-3.520437,-0.035936832,-0.3513354,-0.30253476,28.625,29.6875,29.0,33.0,35.375,36.5
0.31805196,0.814599,-0.16790996,-0.5794095,0.027868414,-0.036749113,-0.18413256,-0.40462303,-0.34221148,0.060005154,-3.0560362,0.63361007,0.00014664009,-0.14678164,0.038552508,0.0006693088,0.118281506,-0.036318325,-0.043280914,0.45597422,-1.3854345,1.9053825,-2.076669,-1.5869545,2.439432,-0.13590905,0.25871518,-0.34206277,0.16688885,-0.091713265,-0.09119192,0.019153614,0.3256114,-9.385271,0.92764956,47.639416,-0.90197736,-1.9607568,-3.6297622,-0.13003463,-0.3682812,-0.2573036,28.625,29.6875,29.0,33.0,35.375,36.5
0.32005188,0.7166886,-0.256215,-0.37600276,0.01788036,-0.028853009,-0.18322408,-0.40491486,-0.34215832,0.060019456,-3.0558138,0.63371134,1.5387077e-05,-0.14588247,0.03929891,-0.00016625767,0.12110044,-0.043121666,-0.04137779,0.45569807,-1.3849051,1.9046396,-2.0762713,-1.5870622,2.439251,-0.1365771,0.26141566,-0.34511095,0.17450812,-0.09131227,-0.09375223,0.076614454,0.2681506,-9.423578,0.91198283,47.684196,-0.79262894,-1.8649336,-3.5592265,-0.222882,-0.4132778,-0.2058425,28.625,29.6875,29.0,33.0,35.375,36.5
0.32205188,-0.14217335,-0.927464,-0.06527014,-0.01247064,-0.017986333,-0.17383333,-0.40519583,-0.34206033,0.06000497,-3.055487,0.6337518,-6.850727e-05,-0.14767747,0.039667554,0.00079617964,0.12288251,-0.04098489,-0.041705336,0.45542213,-1.3843762,1.9039701,-2.0759003,-1.5872792,2.4390469,-0.13702178,0.26262295,-0.3491782,0.17619644,-0.093905754,-0.09380988,0.076614454,0.11492168,-9.385271,0.9701675,47.703007,-0.88188386,-1.8241954,-3.5079768,-0.26979125,-0.44830683,-0.15439564,28.625,29.6875,29.0,33.0,35.375,36.5
0.32405186,-0.5362809,-1.5570021,0.15233341,-0.020098023,0.029303469,-0.18030792,-0.40548345,-0.3420054,0.060025442,-3.0552309,0.6337689,-0.00010951774,-0.14982875,0.040607862,0.00051072333,0.12655552,-0.03620991,-0.03888568,0.4551941,-1.3838589,1.9032286,-2.0755064,-1.5874618,2.4388661,-0.13695014,0.264751,-0.35022944,0.17238311,-0.09938746,-0.09646172,0.038307227,0.038307227,-9.232041,0.9298854,47.70211,-0.9728677,-1.8237139,-3.4438753,-0.265573,-0.40351844,-0.12030694,28.625,29.6875,29.0,33.0,35.375,36.5
0.32605192,-1.8604407,-1.0886948,0.009303932,-0.022151558,0.061891757,-0.1812314,-0.40580344,-0.34194538,0.0600538,-3.0550325,0.63387966,-9.614008e-05,-0.15508765,0.040461447,0.002055567,0.12591268,-0.02390755,-0.04426759,0.45490593,-1.3833538,1.9024991,-2.075187,-1.5876068,2.4386756,-0.13803618,0.266357,-0.353637,0.16290087,-0.10422229,-0.09208193,-0.019153614,-0.019153614,-9.232041,0.9612189,47.67614,-0.99786454,-1.8091092,-3.4536457,-0.14776409,-0.37108272,-0.12385221,28.625,29.6875,29.0,33.0,35.375,36.5
0.328052,-2.1102536,-0.760838,0.2998875,-0.01966157,0.09901884,-0.18099925,-0.4061229,-0.34186146,0.06004055,-3.0547547,0.63389313,-6.119144e-05,-0.15779364,0.03933205,0.0024393387,0.12770884,-0.015106709,-0.043407172,0.45463085,-1.3827884,1.9018048,-2.0749142,-1.5878376,2.4384487,-0.13480389,0.26902533,-0.35611826,0.1556089,-0.10972534,-0.089611046,0.095768064,-0.095768064,-9.289502,0.9567419,47.661808,-1.0998212,-1.8147764,-3.3244357,-0.06244356,-0.35823727,-0.1618487,28.625,29.6875,29.0,33.0,35.375,36.5
0.330052,-1.896182,-0.31241798,0.18965557,0.015643207,0.09665844,-0.18150131,-0.40642622,-0.34176672,0.0600328,-3.0544267,0.6340155,-2.0819425e-05,-0.16155416,0.041861508,0.0035768503,0.13099636,-0.008519027,-0.05207358,0.4543654,-1.38226,1.9011358,-2.0746152,-1.5880913,2.4383066,-0.13864815,0.26895273,-0.35816526,0.153308,-0.1155474,-0.084682405,-0.095768064,-0.19153613,-9.289502,0.9567419,47.63225,-0.8856938,-1.8150048,-3.449474,0.012930216,-0.30012727,-0.15894872,28.625,29.6875,29.0,33.0,35.375,36.5
0.33205202,-1.1365283,0.4689862,0.22715363,0.053217825,0.0803899,-0.17743635,-0.4067382,-0.34167627,0.060019374,-3.0541112,0.6341376,-4.755434e-05,-0.1623629,0.043625113,0.0036408305,0.13693547,-0.007517414,-0.057119932,0.45407772,-1.3816947,1.9004301,-2.0742905,-1.5883092,2.4381404,-0.1386763,0.26988932,-0.3600491,0.15602064,-0.1212869,-0.079554334,-0.34476504,-0.05746084,-9.174581,0.9567419,47.653748,-0.98059964,-1.7727951,-3.5150776,0.032548986,-0.23291,-0.21785605,28.625,29.6875,29.0,33.0,35.375,36.5
0.334052,-0.8994624,1.0661317,0.22838514,0.073712565,0.04980503,-0.17502357,-0.40708208,-0.34159148,0.06004451,-3.0538247,0.6342086,0.00017312299,-0.1634746,0.044937793,0.0040986245,0.13927466,-0.0063815922,-0.060257208,0.4538251,-1.381179,1.8997115,-2.0740392,-1.58861,2.437973,-0.14015129,0.26991203,-0.36149636,0.15743597,-0.12388471,-0.0778463,-0.4213795,-0.038307227,-9.021352,0.9835985,47.71286,-0.9643315,-1.5629454,-3.5755353,0.03315668,-0.16380188,-0.26818737,28.625,29.6875,29.0,33.0,35.375,36.5
0.33605194,-0.601782,1.3129574,-0.1525165,0.0899651,0.0058290083,-0.17278694,-0.4074076,-0.34150162,0.060049918,-3.0534935,0.63436335,0.00021771692,-0.16141918,0.046270795,0.0015790716,0.14562711,-0.01623134,-0.059712883,0.45354927,-1.3806242,1.8989719,-2.0737007,-1.5888628,2.4378414,-0.13970758,0.27475896,-0.3634337,0.16611445,-0.12529479,-0.07790623,-0.40222588,-0.1340753,-9.097966,0.9791215,47.6636,-0.9920202,-1.659904,-3.5980544,-0.015105353,-0.14627132,-0.27166808,28.625,29.6875,29.0,33.0,35.375,36.5
0.33805192,-0.4125473,0.9227551,-0.23341474,0.08047783,-0.021301527,-0.17513062,-0.40771863,-0.3414116,0.060039006,-3.0531306,0.6344722,0.00017596445,-0.1594939,0.048052035,-0.000591748,0.14880516,-0.028122237,-0.06253896,0.45328453,-1.3800343,1.8982176,-2.073314,-1.5891136,2.437697,-0.14251184,0.27833715,-0.36502445,0.17614833,-0.12296266,-0.07789378,-0.6895301,-0.05746084,-9.155427,1.0015011,47.63404,-1.0291461,-1.7959814,-3.524022,-0.113545835,-0.12794334,-0.30219546,28.625,29.6875,29.0,33.0,35.375,36.5
0.3400518,-0.3980638,-0.4100458,0.024715878,0.036166452,0.0061586443,-0.17550662,-0.4080266,-0.34130296,0.060064532,-3.0527704,0.6346371,0.00019297357,-0.15751925,0.046004895,-0.0006208974,0.1487589,-0.034899756,-0.05982523,0.45299783,-1.3795412,1.8974866,-2.0728924,-1.5893763,2.437565,-0.13902794,0.28104615,-0.3701314,0.18456778,-0.11997573,-0.0771473,-0.842759,-0.05746084,-9.193734,0.9567419,47.66808,-1.1680986,-1.9002492,-3.4690475,-0.21992445,-0.13653894,-0.2975332,28.625,29.6875,29.0,33.0,35.375,36.5
0.34205163,-0.93721133,-1.461117,-0.035533503,-0.0070042457,0.028060023,-0.17591852,-0.4083305,-0.3411816,0.060017336,-3.0523539,0.6347552,4.6385405e-05,-0.15728472,0.045864463,-0.0022170132,0.14676198,-0.040941183,-0.062544,0.45268482,-1.3789145,1.8967694,-2.0724967,-1.5896267,2.437386,-0.14122194,0.28476852,-0.37154025,0.18675062,-0.115582064,-0.07665674,-0.7661445,-0.095768064,-9.212888,0.9768804,47.65912,-0.9430294,-1.9062111,-3.5007482,-0.2865808,-0.19041681,-0.33542535,28.625,29.6875,29.0,33.0,35.375,36.5
0.3440525,-1.7986505,-1.793553,-0.15779155,-0.05028298,0.038178388,-0.18744308,-0.40865734,-0.341101,0.060027722,-3.0520306,0.63489074,3.3280572e-05,-0.15954821,0.044135913,-0.00014465117,0.14239085,-0.035088237,-0.06191263,0.4524091,-1.3783386,1.8959802,-2.0721033,-1.5898541,2.4372418,-0.14083913,0.28417403,-0.3750444,0.183616,-0.114269614,-0.07690513,-0.5554548,0.05746084,-9.270349,0.9030289,47.696735,-1.1390765,-1.995063,-3.5035286,-0.28200364,-0.20106363,-0.3475546,28.625,29.6875,29.0,33.0,35.375,36.5
0.34605256,-2.034426,-2.469466,0.35836056,-0.09252354,0.08716313,-0.18199193,-0.40896064,-0.34099334,0.060025293,-3.051661,0.63497823,-3.460482e-05,-0.16198094,0.041537583,-2.0061043e-05,0.13375561,-0.030981714,-0.06283514,0.45212066,-1.3777856,1.8952402,-2.071675,-1.590104,2.4370615,-0.1419709,0.28650314,-0.3764411,0.1751384,-0.10836828,-0.077183835,-0.59376204,0.095768064,-9.270349,0.9545008,47.687782,-1.1092415,-1.808797,-3.4282203,-0.21754476,-0.24569267,-0.36691755,28.625,29.6875,29.0,33.0,35.375,36.5
0.34805253,-2.336131,-3.0370355,0.23484676,-0.09673273,0.08892227,-0.17479326,-0.4092588,-0.34093446,0.06000347,-3.051368,0.6350223,-8.4411506e-05,-0.16441841,0.04033635,0.0011444537,0.12987468,-0.024753338,-0.058445413,0.4518928,-1.3771849,1.8945106,-2.0713542,-1.5903081,2.4369037,-0.1422442,0.28654194,-0.37802035,0.1692472,-0.1077194,-0.08183797,-0.3256114,0.15322891,-9.174581,0.9858343,47.661808,-1.1889,-1.8108814,-3.614977,-0.12914328,-0.29005942,-0.34255075,28.625,29.6875,29.0,33.0,35.375,36.5
0.35005245,-2.0827246,-2.4551992,-0.027315037,-0.06651187,0.05992986,-0.17723422,-0.4096093,-0.34086844,0.060003005,-3.051123,0.6351198,-8.5269174e-05,-0.16735746,0.038257647,0.0023486651,0.123697065,-0.01901171,-0.05847745,0.45159253,-1.3765718,1.8937191,-2.0710452,-1.5904869,2.4367,-0.14285417,0.28794584,-0.3813256,0.16321711,-0.10473163,-0.08245111,-0.38307226,0.21068975,-9.212888,1.0037369,47.666286,-1.1915721,-1.7732315,-3.523832,-0.008318853,-0.34707397,-0.3491845,28.625,29.6875,29.0,33.0,35.375,36.5
0.35205245,-0.94945806,-1.4402103,-0.0098594725,-0.04356798,0.03975554,-0.17828609,-0.4099586,-0.3407656,0.05998403,-3.050801,0.6353679,-1.7985902e-05,-0.16918387,0.03786613,0.003416322,0.12213384,-0.016691059,-0.053278808,0.45126823,-1.3759831,1.8930148,-2.0708058,-1.5907272,2.4365776,-0.14373705,0.28864327,-0.38467914,0.16292726,-0.10447233,-0.08852539,-0.47884035,0.21068975,-9.251195,0.9768804,47.666286,-1.2337794,-1.6599983,-3.535114,0.017035035,-0.4016838,-0.29815236,28.625,29.6875,29.0,33.0,35.375,36.5
0.35405248,0.016376406,0.07426764,-0.05775355,-0.008385723,0.009520933,-0.19716488,-0.4102825,-0.3406792,0.059969757,-3.0504956,0.63541156,-6.188109e-05,-0.17056228,0.039199285,0.0032790818,0.12573683,-0.016065177,-0.05184028,0.45097995,-1.3753821,1.8922609,-2.0704577,-1.5909446,2.436361,-0.14483283,0.29055223,-0.38700217,0.16426313,-0.1080661,-0.090978116,-0.34476504,0.21068975,-9.232041,0.9835985,47.694054,-1.1535743,-1.6680963,-3.5484762,0.05154791,-0.38353097,-0.24537337,28.625,29.6875,29.0,33.0,35.375,36.5
0.3560525,-0.34979388,0.15307121,0.024841128,0.02905965,-0.008985562,-0.16907854,-0.41064724,-0.34062237,0.059988856,-3.0502627,0.6356068,-2.0921058e-05,-0.17226076,0.042025886,0.0029506467,0.1326176,-0.018638765,-0.05142338,0.45067886,-1.3747803,1.891436,-2.0701444,-1.5911144,2.436216,-0.14779912,0.29392925,-0.39175785,0.17086002,-0.11321554,-0.09426249,-0.45968673,0.15322891,-9.174581,1.0082139,47.67345,-1.1582086,-1.7261373,-3.5556893,0.03937481,-0.35354346,-0.21857017,28.625,29.6875,29.0,33.0,35.375,36.5
0.35805222,-0.15095666,0.7333642,0.17006198,0.05859383,0.017001249,-0.18207009,-0.41096416,-0.34053838,0.05997458,-3.0499344,0.6355818,-7.591144e-05,-0.16884868,0.04347773,0.0012526511,0.1418349,-0.026529929,-0.04262528,0.45041636,-1.374167,1.8906587,-2.0697577,-1.5913562,2.4359858,-0.1442053,0.29554537,-0.3919,0.18036388,-0.11817949,-0.09935793,-0.53630114,0.15322891,-9.11712,0.9388393,47.675243,-1.2876563,-1.8417265,-3.378819,-0.03536447,-0.33111104,-0.14838845,28.625,29.6875,29.0,33.0,35.375,36.5
0.3600521,-0.7947208,0.9025617,-0.06754505,0.075202264,0.056962542,-0.18241398,-0.41130888,-0.34044042,0.0599807,-3.0496209,0.63575834,-8.034906e-05,-0.16644078,0.047516618,-0.001668165,0.15317088,-0.037700754,-0.041077275,0.4500916,-1.3735898,1.8898824,-2.0693953,-1.5915741,2.4358172,-0.14565212,0.299109,-0.39194155,0.19173221,-0.12359187,-0.10224014,-0.3256114,0.095768064,-9.232041,0.9388393,47.661808,-1.1447555,-1.8719455,-3.7164183,-0.15779994,-0.27310073,-0.07088795,28.625,29.6875,29.0,33.0,35.375,36.5
0.36205202,-1.6105478,0.7868108,0.42092782,0.055650737,0.09585408,-0.18743563,-0.41161966,-0.34032035,0.059940085,-3.0491872,0.6358686,-0.0002580751,-0.16578436,0.049725924,-0.003386123,0.16057742,-0.042927515,-0.04190576,0.44977966,-1.3729395,1.8891062,-2.068938,-1.5918278,2.4356377,-0.14602503,0.30250102,-0.39338773,0.19767822,-0.12803577,-0.10166415,-0.30645782,0.0,-9.097966,0.9567419,47.67793,-1.2491592,-1.993526,-3.7371006,-0.2464098,-0.23821487,-0.060124688,28.625,29.6875,29.0,33.0,35.375,36.5
0.36405194,-2.0513515,0.009660402,0.23668961,0.03431736,0.11072366,-0.18223634,-0.41197053,-0.3402316,0.05996646,-3.0488522,0.6359073,-0.00021114098,-0.16910587,0.05015702,-0.0023549134,0.16111666,-0.03733731,-0.045468107,0.44950315,-1.3723503,1.888255,-2.0685089,-1.5921048,2.4354343,-0.1475939,0.30413136,-0.39720517,0.19505705,-0.13097833,-0.09959415,-0.28730422,-0.095768064,-9.193734,0.97464454,47.69763,-1.227923,-2.0215483,-3.6908793,-0.26456052,-0.17342938,-0.0367896,28.625,29.6875,29.0,33.0,35.375,36.5
0.36605206,-1.6887131,-0.029308857,0.040327895,0.008093254,0.1073714,-0.18762842,-0.41233912,-0.34013522,0.059966356,-3.0485287,0.6360079,-0.00014980063,-0.1741868,0.04912515,-0.0014478837,0.15788625,-0.027408194,-0.05036096,0.44919074,-1.3717245,1.8874415,-2.0681765,-1.592369,2.4352322,-0.14904098,0.30747548,-0.4013228,0.18549822,-0.13240004,-0.096100196,-0.19153613,-0.05746084,-9.308657,0.97464454,47.705692,-1.2574637,-2.1430476,-3.5273347,-0.17295784,-0.13252364,-0.06441022,28.625,29.6875,29.0,33.0,35.375,36.5
0.36805204,-0.9971567,-1.208078,-0.12999897,-0.04231841,0.095478445,-0.18471603,-0.41270334,-0.3400353,0.05994916,-3.0481603,0.6360578,-0.00013884263,-0.17842735,0.04673045,0.0006617322,0.15187185,-0.017756306,-0.054303046,0.44889075,-1.3710515,1.8866032,-2.067808,-1.5926565,2.4350173,-0.14906688,0.30880275,-0.4062609,0.17781846,-0.13117996,-0.09217668,-0.17238252,-0.038307227,-9.32781,1.0373062,47.667187,-1.1631972,-2.15796,-3.4301357,-0.044537783,-0.15236922,-0.074784175,28.625,29.6875,29.0,33.0,35.375,36.5
0.370052,-1.1773098,-2.4445612,-0.26142937,-0.068184905,0.031160837,-0.17558438,-0.41304836,-0.3399237,0.059953142,-3.0477638,0.6362192,-7.666578e-05,-0.18171984,0.04580802,0.002705996,0.14479356,-0.013469922,-0.06266602,0.4486013,-1.3704623,1.8858136,-2.0674264,-1.5929669,2.434887,-0.15291934,0.30850598,-0.41023055,0.17516936,-0.1266395,-0.087725155,-0.21068975,-0.038307227,-9.442732,0.9455522,47.689575,-0.9485345,-2.1901708,-3.3975706,0.012760722,-0.159027,-0.12411457,28.625,29.6875,29.0,33.0,35.375,36.5
0.37205192,-0.5396523,-2.1821823,-0.5735705,-0.07019165,-0.025417155,-0.16889392,-0.41341206,-0.33981803,0.059923053,-3.0473988,0.63636506,-8.0802885e-05,-0.18033202,0.04577396,0.0010668505,0.14519688,-0.017756099,-0.06445498,0.44827753,-1.3697901,1.8850144,-2.0671027,-1.5932306,2.434708,-0.15247184,0.31039327,-0.40912312,0.17619364,-0.12514341,-0.08549253,-0.24899697,0.076614454,-9.500193,0.93436235,47.66271,-1.0848286,-2.0385976,-3.3625197,0.028806496,-0.18437904,-0.1559674,28.625,29.6875,29.0,33.0,35.375,36.5
0.37405184,0.7993414,-1.0866382,-1.0803566,-0.046396077,-0.045545463,-0.17311548,-0.41377842,-0.33973196,0.05994514,-3.0471013,0.6364902,6.0240013e-06,-0.17843506,0.04575816,-8.284819e-05,0.1433584,-0.026365701,-0.070149526,0.4479772,-1.3692008,1.8841885,-2.0667531,-1.5934805,2.4345298,-0.1540889,0.3118324,-0.40976363,0.1823715,-0.11970696,-0.08150369,-0.3256114,0.21068975,-9.672575,0.9388393,47.67166,-0.9986075,-1.9925115,-3.6602728,0.009874767,-0.24812624,-0.20035744,28.625,29.6875,29.0,33.0,35.375,36.5
0.3760518,1.1995838,-0.7118801,-1.1259046,-0.0066788024,-0.05894564,-0.16431198,-0.41412598,-0.33963397,0.059928738,-3.0467494,0.63665724,-2.8287539e-05,-0.17449659,0.046587773,-0.002504869,0.1449074,-0.040189203,-0.07290733,0.44766486,-1.3685632,1.8833898,-2.0663903,-1.5937184,2.4343739,-0.15494756,0.31387404,-0.40911588,0.19278324,-0.11510428,-0.07966992,-0.114921674,0.076614454,-9.864111,0.9545008,47.64479,-1.0423007,-2.1388016,-3.8775072,-0.051424593,-0.2955349,-0.25401413,28.625,29.6875,29.0,33.0,35.375,36.5
0.37805176,0.7541046,-0.11639436,-1.0170218,-0.0038641407,-0.060727593,-0.18293329,-0.41447008,-0.33955145,0.05991286,-3.0464115,0.63680786,-6.635973e-05,-0.17263742,0.04799922,-0.003573692,0.14775698,-0.049705107,-0.07282518,0.44737616,-1.3679146,1.8825763,-2.0660279,-1.5939463,2.4342294,-0.15661877,0.31556183,-0.41099563,0.20269017,-0.11361362,-0.08143106,-0.019153614,0.11492168,-9.80665,1.0104496,47.66987,-1.0099068,-2.0915504,-3.8960943,-0.1632349,-0.37528533,-0.2352273,28.625,29.6875,29.0,33.0,35.375,36.5
0.38005188,0.6307677,-0.120134786,-0.8502437,-0.0050344174,-0.043270316,-0.16517375,-0.41482368,-0.33945236,0.059901312,-3.0460744,0.6369991,-0.0001837,-0.1735857,0.046973936,-0.0031378875,0.14536664,-0.052675467,-0.077208415,0.4470281,-1.3672645,1.8817381,-2.0656083,-1.5941371,2.434051,-0.15762109,0.31858516,-0.41678238,0.20711018,-0.11017242,-0.0780887,-0.095768064,0.076614454,-9.653421,1.0216395,47.691364,-0.92361563,-2.2105944,-3.8464994,-0.25939015,-0.42662033,-0.30239934,28.625,29.6875,29.0,33.0,35.375,36.5
