Tylouw/Master_Thesis_Code/training_data/batch_1/small_rod_t0.3/sample_66_session_2.csv
timestamp[s],tcp_force_x[N],tcp_force_y[N],tcp_force_z[N],tcp_force_rx[Nm?],tcp_force_ry[Nm?],tcp_force_rz[Nm?],tcp_pose_x[m],tcp_pose_y[m],tcp_pose_z[m],tcp_pose_rx[rot_vec_x],tcp_pose_ry[rot_vec_y],tcp_pose_rz[rot_vec_z],tcp_velo_x[m/s],tcp_velo_y[m/s],tcp_velo_z[m/s],tcp_velo_rx[rot_vec_x/s],tcp_velo_ry[rot_vec_y/s],tcp_velo_rz[rot_vec_z/s],q1[rad],q2[rad],q3[rad],q4[rad],q5[rad],q6[rad],qd1[rad/s],qd2[rad/s],qd3[rad/s],qd4[rad/s],qd5[rad/s],qd6[rad/s],tool_acc_x,tool_acc_y,tool_acc_z,current_of_whole_robot[A],voltage_of_whole_robot[V],current_J1[A],current_J2[A],current_J3[A],current_J4[A],current_J5[A],current_J6[A],temp_J1[C],temp_J2[C],temp_J3[C],temp_J4[C],temp_J5[C],temp_J6[C]
9.170035e-07,0.12917404,0.25235334,1.2900211,-0.017784074,0.010042741,-0.021649364,-0.3810888,-0.3485524,0.06000547,-3.0785854,0.62485266,-3.287669e-05,0.0023893132,0.0012527057,-0.0028888572,0.0029431684,-0.0059505356,1.4582152e-05,0.47782204,-1.4259573,1.9576672,-2.1008685,-1.5707697,2.452752,-0.00010148006,0.0016467891,0.004645331,0.00034485786,0.00013357168,-0.000118437085,0.019153614,0.05746084,-8.772355,0.7418897,47.70211,0.061317243,-2.8185778,-2.4725206,-0.4244438,0.092403024,0.057287198,28.5625,29.6875,28.9375,32.9375,35.3125,36.4375
0.002027975,0.4980866,0.66426945,1.4681772,-0.020975951,0.016754244,-0.03280824,-0.3810496,-0.3485185,0.05996301,-3.0785093,0.6248184,-0.00019104649,0.00032492005,0.00017692917,-0.0033813806,9.802764e-05,-0.00049254205,1.5227549e-05,0.47779807,-1.4259446,1.9577397,-2.100824,-1.5707697,2.4527164,-0.00010006968,0.0037973796,0.005377562,-0.00869299,0.00013094782,-0.00011589751,0.0,0.076614454,-8.695741,0.7284641,47.684196,0.04884488,-2.921163,-2.4415967,-0.3900326,0.08470824,0.056415167,28.5625,29.6875,28.9375,32.9375,35.3125,36.4375
0.004027178,0.6572793,0.5014929,1.3366319,-0.01232291,0.01633074,-0.027662242,-0.3810831,-0.34854275,0.059969325,-3.0785613,0.6248287,-8.823477e-05,-0.00037365864,-0.00018671791,-0.0029745824,-0.0009358671,0.0014992843,1.4719544e-05,0.4778101,-1.4259087,1.9577035,-2.100908,-1.5707697,2.4527283,-9.869794e-05,0.0036919909,0.0049596797,-0.010413888,0.00012829113,-0.000113462476,0.076614454,0.095768064,-8.619126,0.73741806,47.677036,0.037537735,-3.0921104,-2.7348018,-0.32824707,0.086110204,0.04954204,28.5625,29.6875,28.9375,32.9375,35.3125,36.4375
0.006052639,1.0000209,1.1051292,1.3341088,-0.0022731621,0.006582803,-0.029857624,-0.3810484,-0.3485179,0.059942167,-3.078495,0.6248919,-0.00018994679,-0.00039639563,-0.00019810934,-0.0017359472,-0.0008391204,0.0013268396,1.37830775e-05,0.47779807,-1.4259212,1.957774,-2.1008828,-1.5707697,2.452764,-9.7363285e-05,0.0022677334,0.0029189475,-0.006751263,0.00012573166,-0.00011112762,0.038307227,0.038307227,-8.676587,0.7105615,47.729877,0.0883649,-3.0580516,-2.5934548,-0.348393,0.08068255,0.057326827,28.5625,29.6875,28.9375,32.9375,35.3125,36.4375
0.008052662,0.9192887,1.4520079,0.80525625,0.03262019,-0.022439852,-0.031485915,-0.3810658,-0.34854242,0.059964303,-3.0785606,0.6248477,-0.00014156653,-0.00027333945,-0.00013325532,-0.00031007524,-0.00087112735,0.0014050542,1.257148e-05,0.4778101,-1.425922,1.9577268,-2.1008937,-1.5707458,2.4527402,-9.606428e-05,7.746756e-05,0.0013116301,-0.0030378364,0.00012327127,-0.000108886714,0.019153614,0.076614454,-8.829816,0.71279734,47.71823,0.1134399,-2.9082112,-2.525982,-0.363737,0.080456875,0.059964456,28.5625,29.6875,28.9375,32.9375,35.3125,36.4375
0.010051835,1.4208056,1.766751,0.5526956,0.018208174,-0.006376606,-0.03577938,-0.38105586,-0.3485238,0.05993728,-3.0785058,0.62493235,-0.00021337638,-0.000111448106,-4.8828806e-05,-0.000164087,-0.00046325862,0.0006275511,2.0411893e-05,0.47778615,-1.4258981,1.9577612,-2.1008933,-1.5707458,2.452776,-9.479952e-05,1.0393262e-06,0.0007112525,-0.0014830388,0.00012090533,-0.000115486306,0.05746084,0.21068975,-9.136273,0.6971306,47.66808,-0.46281785,-2.5274673,-2.9188514,-0.4226277,0.082007885,-0.03442707,28.5625,29.6875,28.9375,32.9375,35.3125,36.4375
0.012052654,0.9050738,0.7462889,0.23725499,-0.015910411,0.008973168,-0.04366556,-0.38106012,-0.34853888,0.059960715,-3.0785153,0.6248785,-0.00021611314,-0.0015463799,0.0016123919,-0.002113364,0.0016082906,-0.0033700191,-0.004156085,0.47780898,-1.4258968,1.9576896,-2.1008208,-1.5707458,2.452764,-0.004378092,0.004991207,-0.000740949,-0.00051858486,0.00011862887,-0.00022094364,0.19153613,0.13407528,-9.193734,0.7284641,47.689575,-0.6825049,-2.3946881,-2.9382405,-0.44497097,0.108489335,-0.116046876,28.5625,29.6875,28.9375,32.9375,35.3125,36.4375
0.01405198,-0.011809894,-0.29918763,0.12808041,-0.05463856,0.021714274,-0.041715115,-0.38104218,-0.34849697,0.05989675,-3.0784183,0.624854,-0.00038195137,-0.0042800047,0.0035555926,-0.004701571,0.0038386872,-0.007727793,0.0044976654,0.47775856,-1.4258219,1.9577478,-2.1008089,-1.5707573,2.4527106,-0.010375764,0.012771567,-0.003711933,-0.0004349739,0.00012877976,-0.0148696825,0.019153614,0.11492168,-9.442732,0.7105615,47.67166,-0.32462966,-3.0501494,-2.8688185,-0.45911688,0.110815935,-0.05366025,28.5625,29.6875,28.9375,32.9375,35.3125,36.4375
0.016052116,-0.2802093,-0.7044671,-0.030990282,-0.08138115,0.050098922,-0.060109627,-0.3810167,-0.34847438,0.059874564,-3.0783527,0.6247804,-0.00047451962,-0.005287101,0.004229314,-0.003965967,0.0031481832,-0.0064381263,0.009586623,0.47775778,-1.4258103,1.9577717,-2.1007488,-1.5707816,2.4526722,-0.0125152,0.011623037,-0.004100059,-0.00036279805,0.00014303306,-0.02209812,-0.22984336,0.22984336,-9.595961,0.7284641,47.687782,-0.3323267,-2.9480944,-3.032961,-0.46019277,0.120974064,0.017904367,28.5625,29.6875,28.9375,32.9375,35.3125,36.4375
0.018052049,-1.1928886,-0.8907352,-0.068256475,-0.074431404,0.05772013,-0.07907946,-0.38104117,-0.34850252,0.05987247,-3.0784137,0.62486875,-0.00047566,-0.005262182,0.0038845693,-0.0028369103,0.00072059996,-0.005245775,0.012315003,0.47774574,-1.4257631,1.9577364,-2.1008089,-1.570721,2.4527075,-0.012921658,0.009081333,-0.0037984871,-0.00030255126,0.00175084,-0.025236668,-0.38307226,0.22984336,-9.576807,0.7172743,47.716442,-0.55267835,-2.6901498,-3.1068816,-0.4763704,0.1272098,-0.0005260571,28.5625,29.6875,28.9375,32.9375,35.3125,36.4375
0.02005216,-0.8318929,-0.15627874,-0.45036194,-0.04460598,0.0741123,-0.10649294,-0.38105348,-0.34850645,0.059893403,-3.078464,0.6247849,-0.00044567155,-0.00566491,0.0040419917,-0.0036066475,-0.0016689004,-0.008104067,0.009372996,0.4777327,-1.4257866,1.9577125,-2.100797,-1.5707077,2.4526358,-0.015808532,0.01068809,-0.0038402127,-0.00044006007,0.0051874295,-0.025187774,-0.47884035,0.24899697,-9.730036,0.7083204,47.660015,-0.6457793,-2.6067448,-3.3210711,-0.50188625,0.09029411,0.019980421,28.5625,29.6875,28.9375,32.9375,35.3125,36.4375
0.022052256,-0.5580156,0.3629318,-0.40559247,-0.010013584,0.07666376,-0.13010684,-0.38107467,-0.34847912,0.059864596,-3.0784254,0.6247794,-0.0004928662,-0.0071028266,0.003944322,-0.0036641918,-0.0036728976,-0.008670853,0.004476528,0.47767186,-1.4257259,1.957712,-2.1008093,-1.5707191,2.4525764,-0.0182896,0.012685945,-0.005905363,-0.0007977776,0.007222034,-0.022775197,-0.5554548,0.22984336,-9.844957,0.7083204,47.64927,-0.5393461,-2.6311102,-3.3746564,-0.5166745,0.06974034,-0.0023026897,28.5625,29.6875,28.9375,32.9375,35.3125,36.4375
0.024052495,-0.9733379,0.4327008,-0.28732216,-0.0045653465,0.06924875,-0.14204472,-0.38110328,-0.3484824,0.059883695,-3.0784698,0.6248483,-0.00044266248,-0.009044656,0.0034008995,-0.002861703,-0.0054983823,-0.0058439304,0.0012405746,0.47763544,-1.4257376,1.9576873,-2.1008337,-1.5706948,2.4525774,-0.019324956,0.013721145,-0.008515926,-0.002572224,0.0075361645,-0.020572921,-0.7278373,0.11492168,-9.902418,0.7284641,47.688675,-0.52214,-2.6350076,-3.3355432,-0.5092209,0.06718115,-0.029259883,28.5625,29.6875,28.9375,32.9375,35.3125,36.4375
0.026052013,-1.2684395,0.1072703,-0.5072839,0.0013423394,0.078149736,-0.16026747,-0.38108122,-0.34848619,0.059846427,-3.0784724,0.62477267,-0.0006175184,-0.010427861,0.0027809192,-0.0026374678,-0.006942849,-0.003854837,6.8834066e-05,0.47762346,-1.4256772,1.9576982,-2.1008108,-1.5706347,2.4525177,-0.019737637,0.0152102765,-0.010222842,-0.004784873,0.007894316,-0.01981375,-0.8810662,0.095768064,-9.80665,0.7418897,47.698532,-0.58886945,-2.622854,-3.3879511,-0.49362054,0.066600636,-0.0504552,28.5625,29.6875,28.9375,32.9375,35.3125,36.4375
0.02805213,-1.3823506,-0.111760736,-0.3237039,-0.0063070194,0.09391878,-0.16159353,-0.38109308,-0.34846973,0.05982736,-3.0784705,0.6247904,-0.0006442983,-0.010889654,0.002496124,-0.0024573847,-0.0072154864,-0.0031580026,0.0001821815,0.47757548,-1.425653,1.9577225,-2.100847,-1.5706228,2.452481,-0.019605814,0.0157694,-0.01119744,-0.005112666,0.007813068,-0.019794561,-0.7278373,0.038307227,-9.921572,0.73741806,47.694946,-0.7484305,-2.5852299,-3.375819,-0.48492587,0.057262097,-0.08848284,28.5625,29.6875,28.9375,32.9375,35.3125,36.4375
0.030052258,-1.7132916,-0.30431196,-0.46588165,-0.0052054957,0.085380375,-0.17487204,-0.38112363,-0.34846985,0.059833013,-3.0784523,0.6247877,-0.0006202117,-0.01223328,0.0024924446,-0.0019180395,-0.007910755,-0.0024894977,-0.0008254832,0.47756287,-1.4256048,1.9576491,-2.1008222,-1.5706466,2.452469,-0.021041453,0.01673687,-0.013667956,-0.0045243986,0.008119119,-0.020221867,-0.7086837,0.0,-9.844957,0.79560274,47.721813,-0.76648295,-2.5350592,-3.3607593,-0.50010467,0.06847341,-0.11036068,28.5625,29.6875,28.9375,32.9375,35.3125,36.4375
0.032052234,-1.6215755,-0.121611066,-0.41367638,0.0010648082,0.074724995,-0.18651511,-0.38115925,-0.34848085,0.059842505,-3.0785131,0.6247426,-0.0006117235,-0.013006333,0.0032474892,-0.002288118,-0.007225627,-0.0033563664,-0.0016461023,0.47752622,-1.4255683,1.9575886,-2.1008341,-1.5706109,2.4523966,-0.022961251,0.018024554,-0.014414381,-0.003979109,0.007908898,-0.021319866,-0.63206923,-0.11492168,-9.883265,0.7553206,47.690468,-0.70367867,-2.54948,-3.3137965,-0.53852147,0.054409616,-0.105729744,28.5625,29.6875,28.9375,32.9375,35.3125,36.4375
0.034051847,-0.64248335,0.3366896,-0.2118405,0.004125883,0.07995476,-0.20811701,-0.3811904,-0.34844938,0.05983216,-3.0784874,0.62483424,-0.00062447134,-0.014790717,0.0034685102,-0.00098753,-0.008285154,-0.00033134874,-0.0024224732,0.4774417,-1.4255447,1.9575881,-2.1008465,-1.5706114,2.4523726,-0.024707396,0.017236948,-0.016398799,-0.0043783854,0.0074540237,-0.022287864,-0.7086837,-0.076614454,-9.825804,0.8224646,47.682407,-0.6895065,-2.4483166,-3.315324,-0.5387805,0.066893324,-0.12776917,28.5625,29.6875,28.9375,32.9375,35.3125,36.4375
0.03605215,-0.5051268,0.9106402,-0.07528715,0.0032861554,0.07164694,-0.22423804,-0.3812114,-0.34846228,0.059807427,-3.0785024,0.62477916,-0.0006783834,-0.015705334,0.0036250544,-0.0011824134,-0.008512475,0.0005677948,-0.0023325596,0.47742933,-1.4254485,1.9575404,-2.1008708,-1.570587,2.452324,-0.025690187,0.018293973,-0.016807359,-0.005928468,0.007237236,-0.023359634,-0.49799395,-0.038307227,-9.749189,0.7665104,47.703903,-0.7329956,-2.5476623,-3.3610926,-0.51079005,0.07666835,-0.1539979,28.5625,29.6875,28.9375,32.9375,35.3125,36.4375
0.038052235,-0.9123545,0.44798115,-0.3861381,0.013128286,0.06175793,-0.23664163,-0.38125217,-0.34843132,0.059831057,-3.0785046,0.6248758,-0.0006058096,-0.017677203,0.0038415517,-0.00040685743,-0.009465867,0.0038930392,-0.002278038,0.47734472,-1.4254845,1.9575275,-2.1008713,-1.5705994,2.4522994,-0.027449341,0.018422306,-0.018254755,-0.00799813,0.006549109,-0.025170434,-0.51714754,0.0,-9.730036,0.7620334,47.71823,-0.71471834,-2.4287417,-3.3023434,-0.5025359,0.09472782,-0.15817893,28.5625,29.6875,28.9375,32.9375,35.3125,36.4375
0.040052295,-1.015912,0.39769822,-0.2971742,0.007114797,0.06033666,-0.23817864,-0.38128656,-0.34842867,0.059820622,-3.0785196,0.6248412,-0.00059111335,-0.01933927,0.003780212,0.0007277452,-0.011211604,0.006141569,-0.0023396732,0.4773081,-1.4254247,1.9574913,-2.100907,-1.5705994,2.4522393,-0.02920789,0.018108439,-0.020417655,-0.008322182,0.0070611583,-0.026867166,-0.40222588,0.0,-9.710882,0.79560274,47.672558,-0.75867546,-2.463503,-3.2807276,-0.49592167,0.099897236,-0.19255853,28.5625,29.6875,28.9375,32.9375,35.3125,36.4375
0.042052556,0.6326139,0.7505776,-0.20255077,-0.0032555454,0.08764678,-0.24892907,-0.38134113,-0.34843886,0.05985232,-3.0785866,0.6248725,-0.0005133383,-0.019347979,0.0042221285,-2.8418313e-05,-0.011279814,0.0038014152,-0.0019091547,0.47725964,-1.425412,1.9574074,-2.1009195,-1.5705746,2.4522018,-0.03073823,0.0193993,-0.020306963,-0.007679485,0.008200395,-0.028829541,-0.24899697,0.0,-9.576807,0.7620334,47.698532,-0.69776976,-2.4306989,-3.3280125,-0.5048022,0.09151881,-0.2147529,28.5625,29.6875,28.9375,32.9375,35.3125,36.4375
0.044051677,0.048806522,0.63970864,-0.23742247,-0.0016380298,0.048884977,-0.21953745,-0.38141546,-0.34841403,0.059841804,-3.078592,0.62496984,-0.0004958374,-0.020220542,0.004716627,0.00038949482,-0.011669749,0.004142416,-0.0010140786,0.477139,-1.4253285,1.9573468,-2.1009667,-1.5705627,2.4521413,-0.032541107,0.019253315,-0.02123099,-0.007090703,0.008390263,-0.031527326,-0.2681506,-0.019153614,-9.634268,0.7150385,47.66271,-0.7177197,-2.3501346,-3.2789943,-0.51569766,0.08257607,-0.2142735,28.5625,29.6875,28.9375,32.9375,35.3125,36.4375
0.046052124,0.43298393,0.10804436,-0.13005231,0.004367329,0.042614833,-0.21126501,-0.38141128,-0.34839997,0.059820484,-3.0785775,0.62490875,-0.0006066146,-0.021863034,0.004885208,0.0011883446,-0.01257408,0.0064407904,3.1960644e-05,0.47710237,-1.4252925,1.9573463,-2.100931,-1.5705389,2.4520683,-0.034189653,0.019334352,-0.022968693,-0.007888856,0.008129477,-0.034220964,-0.15322891,0.019153614,-9.500193,0.6859408,47.696735,-0.69558656,-2.3703432,-3.312182,-0.5068968,0.08518936,-0.248395,28.5625,29.6875,28.9375,32.9375,35.3125,36.4375
0.048052173,0.84274864,-0.13764921,-0.28896785,0.0041544386,0.036289215,-0.20156536,-0.3814814,-0.34838703,0.059836842,-3.078616,0.62493455,-0.00046440493,-0.023269458,0.004697063,0.0014941574,-0.01371801,0.0073840907,0.0012445485,0.47702998,-1.425268,1.9572977,-2.101004,-1.5705627,2.4520073,-0.035527516,0.02068144,-0.025062738,-0.008507354,0.008709935,-0.036770288,-0.076614454,0.095768064,-9.404425,0.7777002,47.7245,-0.6745473,-2.3468738,-3.2006845,-0.49199894,0.115794,-0.24762899,28.5625,29.6875,28.9375,32.9375,35.3125,36.4375
0.05005186,0.6407167,0.0034425454,-0.26593933,-0.009541528,0.028761894,-0.20771287,-0.38153082,-0.348361,0.059840456,-3.0785916,0.62496793,-0.00046952043,-0.0240078,0.0049385894,0.0015203079,-0.0143365925,0.007138561,0.0016080101,0.47694546,-1.4252199,1.9572262,-2.1009672,-1.5705742,2.4519467,-0.037064087,0.021353852,-0.02591625,-0.008394126,0.0093705375,-0.038671136,-0.019153614,0.15322891,-9.385271,0.87617236,47.70032,-0.63202226,-2.2849135,-3.2593598,-0.50717854,0.10972153,-0.23804224,28.5625,29.6875,28.9375,32.9375,35.3125,36.4375
0.05205194,0.23860697,-0.68134016,-0.28298897,-0.008307059,0.016470978,-0.20734318,-0.38156798,-0.34835026,0.059852365,-3.0786471,0.62499815,-0.00047220915,-0.024886556,0.005426431,0.0018174996,-0.015014298,0.007489106,0.0021232911,0.47686076,-1.42522,1.9572018,-2.1009796,-1.570526,2.4518738,-0.039025474,0.021254815,-0.026494598,-0.008337998,0.009812333,-0.04114799,0.038307227,0.095768064,-9.500193,0.70608455,47.65464,-0.6717883,-2.2792058,-3.2769642,-0.51472926,0.09319134,-0.27705044,28.5625,29.6875,28.9375,32.9375,35.3125,36.4375
0.054051924,0.7004177,-0.14160468,-0.4145296,-0.029166091,0.027814068,-0.20173208,-0.38161433,-0.34835804,0.059861187,-3.0787249,0.6249169,-0.00047624324,-0.025365533,0.0051705865,0.0019587209,-0.01621135,0.007285036,0.0037419435,0.47680047,-1.4251719,1.9571294,-2.100991,-1.5704778,2.451753,-0.039759763,0.021834552,-0.02748907,-0.008292663,0.0109691005,-0.043502033,0.019153614,0.095768064,-9.481039,0.75084364,47.65912,-0.71544135,-2.2813687,-3.2118669,-0.514781,0.1014597,-0.2737741,28.5625,29.6875,28.9375,32.9375,35.3125,36.4375
0.056052405,0.098226026,-0.91184044,-0.2975099,-0.017127905,0.01364443,-0.20231596,-0.38169223,-0.34833747,0.059879035,-3.0787432,0.6249775,-0.00041822635,-0.026209733,0.005474243,0.001832406,-0.0164477,0.0066589704,0.00485265,0.47669193,-1.4251236,1.9570335,-2.100991,-1.5704778,2.45168,-0.0413957,0.023118893,-0.02876561,-0.007852909,0.011467551,-0.046248253,-0.038307227,0.19153613,-9.500193,0.82694155,47.70032,-0.66323173,-2.2757113,-3.3091145,-0.5107301,0.10725276,-0.28182447,28.5625,29.6875,28.9375,32.9375,35.3125,36.4375
0.058052428,0.53039926,-0.5945333,-0.29223576,-0.021722259,0.02300826,-0.20129004,-0.3817231,-0.34830853,0.059863668,-3.078731,0.6249552,-0.00042029915,-0.02706419,0.005535816,0.0020933591,-0.017104367,0.0076207197,0.005635852,0.4766197,-1.4250875,1.957033,-2.1010153,-1.5704898,2.4515953,-0.042381145,0.023423195,-0.029558145,-0.008520529,0.011606564,-0.04801669,0.0,0.17238252,-9.481039,0.73069996,47.705692,-0.70646596,-2.1905482,-3.2378757,-0.51127464,0.10612513,-0.30222812,28.5625,29.6875,28.9375,32.9375,35.3125,36.4375
0.060052454,0.2996508,-0.53567094,-0.22755592,-0.01814567,0.022739053,-0.2090146,-0.38177288,-0.34832048,0.05987787,-3.078804,0.6248926,-0.0003966137,-0.028263379,0.004946034,0.0029259874,-0.018897422,0.009400343,0.0060626864,0.47657138,-1.4250394,1.9569486,-2.1010277,-1.5704535,2.4514987,-0.04293707,0.023716282,-0.03165959,-0.009116397,0.012380398,-0.04899896,0.0,0.22984336,-9.308656,0.7732232,47.687782,-0.6939223,-2.194143,-3.2723038,-0.5070033,0.0932517,-0.32144842,28.5625,29.6875,28.9375,32.9375,35.3125,36.4375
0.062052436,0.22064331,-0.4734724,-0.10928138,-0.021948012,0.024885887,-0.20143902,-0.38185415,-0.34830824,0.05988619,3.078757,-0.624959,0.00037442963,-0.028747711,0.0050257784,0.0027767655,-0.019435616,0.009024631,0.008589033,0.47645107,-1.4249673,1.9568528,-2.1010516,-1.5704173,2.4514258,-0.043940336,0.024532285,-0.032209553,-0.009293837,0.013033192,-0.05252861,-0.05746084,0.24899697,-9.461885,0.7709874,47.666286,-0.79487,-2.1342974,-3.1899877,-0.51795703,0.10443285,-0.32485452,28.5625,29.6875,28.9375,32.9375,35.3125,36.4375
0.06405244,0.29570317,-0.48083958,-0.14901404,-0.018010395,0.035087246,-0.19706239,-0.38191074,-0.34828168,0.05987952,3.0787828,-0.6248859,0.0003372232,-0.02936248,0.0046358537,0.002673593,-0.020685928,0.008486441,0.009602052,0.4763668,-1.424907,1.9568046,-2.1010754,-1.5704406,2.4512928,-0.04469005,0.02598058,-0.033588927,-0.009462589,0.014389529,-0.05429243,-0.038307227,0.24899697,-9.442732,0.78888994,47.687782,-0.8629588,-2.221782,-3.1875079,-0.5025743,0.07563086,-0.34771883,28.5625,29.6875,28.9375,32.9375,35.3125,36.4375
0.06605232,0.13125625,-0.3475552,0.083939105,-0.013036111,0.040128022,-0.19651033,-0.38194484,-0.3482716,0.059882276,3.078731,-0.6248573,0.00040777004,-0.030192677,0.004604237,0.0027821797,-0.020776814,0.009707137,0.008743188,0.47627065,-1.4248827,1.9567679,-2.1010635,-1.5703686,2.4511852,-0.045081858,0.026721315,-0.034455482,-0.01045634,0.01390821,-0.05382384,-0.095768064,0.22984336,-9.404425,0.7665104,47.687782,-0.92419076,-2.2163367,-3.2048855,-0.5059665,0.06662462,-0.36836392,28.5625,29.6875,28.9375,32.9375,35.3125,36.4375
0.06805253,0.065509334,0.29245502,0.15655616,-0.023460712,0.050618406,-0.20325668,-0.3820079,-0.3482948,0.059896644,3.0786731,-0.6247292,0.00036871,-0.030934107,0.0048268056,0.0029257392,-0.021141099,0.009671522,0.010669137,0.47622237,-1.4248106,1.9566611,-2.1010997,-1.5703205,2.4510643,-0.046376478,0.027299328,-0.035524797,-0.01009744,0.014251258,-0.0570434,-0.19153613,0.24899697,-9.308656,0.75755644,47.685097,-0.9606565,-2.228717,-3.172255,-0.49521172,0.06484355,-0.3768677,28.5625,29.6875,28.9375,32.9375,35.3125,36.4375
0.070051774,-0.25597158,-0.008727889,0.10831449,-0.0066770944,0.047613285,-0.20128779,-0.3820602,-0.34825188,0.059881527,3.0786755,-0.6247838,0.00042420207,-0.031768527,0.0048615695,0.0034522838,-0.02093908,0.011060095,0.016196696,0.4760901,-1.4247506,1.9566244,-2.1010873,-1.5703086,2.450966,-0.046668585,0.027465485,-0.036947265,-0.009975428,0.013432264,-0.06286157,-0.076614454,0.19153614,-9.289502,0.7732232,47.69763,-1.0158838,-2.1506371,-3.2391057,-0.4878732,0.0569615,-0.38063192,28.5625,29.6875,28.9375,32.9375,35.3125,36.4375
0.07205186,-0.07355533,0.35803938,0.22817905,-0.009765959,0.051580396,-0.20286651,-0.38212767,-0.3482685,0.05991223,3.0786245,-0.62456214,0.00030101204,-0.032521375,0.004859032,0.003284971,-0.02122904,0.010947616,0.016750766,0.47604194,-1.4247261,1.95654,-2.1011474,-1.5702847,2.4507859,-0.047555026,0.028872924,-0.0381049,-0.010256658,0.013746876,-0.06430007,-0.1340753,0.095768064,-9.385271,0.8179876,47.661808,-1.0848329,-2.1375337,-3.1983957,-0.4926226,0.05431141,-0.34858677,28.5625,29.6875,28.9375,32.9375,35.3125,36.4375
0.07405201,0.17878471,0.57142955,0.32252175,-0.010380247,0.055756785,-0.20613468,-0.38222313,-0.3482592,0.059911,3.078563,-0.6245857,0.00025275387,-0.03263253,0.0050376887,0.0023673247,-0.020203384,0.009577461,0.019508414,0.4759219,-1.4246176,1.9564327,-2.1012075,-1.5702609,2.4506884,-0.047782972,0.031012286,-0.0384216,-0.010386261,0.01346828,-0.06728395,-0.19153613,0.019153614,-9.481039,0.79560274,47.70211,-1.1257224,-2.3037553,-3.1572108,-0.49633613,0.07431489,-0.35828787,28.5625,29.6875,28.9375,32.9375,35.3125,36.4375
0.07605173,-0.59935635,0.6584868,0.1738391,-0.007840398,0.037008375,-0.19553164,-0.38225564,-0.34826377,0.059921417,3.0785465,-0.624427,0.00031056287,-0.034583777,0.005216029,0.0031840985,-0.021735763,0.011289886,0.022067446,0.47586104,-1.4245816,1.9563597,-2.1011717,-1.5702008,2.4505305,-0.050264515,0.031559292,-0.040830396,-0.010743826,0.014041436,-0.07232395,-0.15322891,0.076614454,-9.308656,0.7978386,47.703903,-1.252075,-2.1712217,-3.2053456,-0.48702532,0.061205797,-0.35399503,28.5625,29.6875,28.9375,32.9375,35.3125,36.4375
0.07805183,-0.011517039,0.55222696,0.11991797,-0.004197884,0.047547735,-0.20831463,-0.38234195,-0.34823588,0.059941575,3.0784805,-0.6244691,0.0002602383,-0.03607917,0.0054034493,0.003497936,-0.02214881,0.0120349,0.02554126,0.47571647,-1.4245453,1.9562749,-2.1011837,-1.570177,2.4504206,-0.051982034,0.03288633,-0.043078206,-0.010668623,0.014070679,-0.07751315,-0.26815057,0.076614454,-9.3661175,0.73069996,47.70032,-1.1982453,-2.1015859,-2.9646327,-0.4905262,0.044002242,-0.28544688,28.5625,29.6875,28.9375,32.9375,35.3125,36.4375
0.08005187,-0.02166217,0.32309806,0.15073192,-0.00066323084,0.045562774,-0.20715168,-0.38241413,-0.3482355,0.059937153,3.0785146,-0.6242415,0.00020797247,-0.03420081,0.0055449004,0.00096530817,-0.019721761,0.007347802,0.031714074,0.475657,-1.4244363,1.956169,-2.10122,-1.5701889,2.4502149,-0.05049519,0.035860304,-0.040664915,-0.010775796,0.014068905,-0.08219938,-0.2681506,0.019153614,-9.385271,0.78217715,47.695843,-1.2955995,-2.311282,-3.1198325,-0.49972332,0.05337701,-0.24995407,28.5625,29.6875,28.9375,32.9375,35.3125,36.4375
0.08205219,-0.255901,0.40279654,0.27852944,-0.011203396,0.056377824,-0.20889309,-0.3824982,-0.34823474,0.059952244,3.0783985,-0.6241789,0.00017229488,-0.036130298,0.006397765,0.00146787,-0.020322183,0.008963441,0.033726856,0.4755238,-1.4243883,1.956096,-2.101292,-1.570105,2.4500573,-0.05364418,0.036201645,-0.042053353,-0.011427856,0.013869916,-0.08735868,-0.24899697,0.038307227,-9.32781,0.73741806,47.66808,-1.3737159,-2.3014188,-3.1894712,-0.50667495,0.05320593,-0.22468609,28.5625,29.6875,28.9375,32.9375,35.3125,36.4375
0.08405246,0.40742633,0.88468945,0.29041603,-0.015595862,0.07593439,-0.2163001,-0.38256428,-0.34819672,0.059940893,3.0784562,-0.6240152,0.00018960609,-0.03761686,0.006996312,0.0025525386,-0.021705344,0.01091326,0.035543587,0.47540307,-1.424305,1.956024,-2.1012795,-1.5701169,2.4498272,-0.05628279,0.034952316,-0.043090694,-0.011506256,0.014205923,-0.091814436,-0.19153613,0.095768064,-9.251195,0.7709874,47.675243,-1.3300328,-2.1881652,-3.1289406,-0.50032973,0.04967587,-0.16058215,28.5625,29.6875,28.9375,32.9375,35.3125,36.4375
0.086051784,-0.10620207,0.52554244,0.005621514,-0.0023350187,0.055680998,-0.20687091,-0.38264516,-0.3481972,0.0599752,3.078403,-0.62387156,0.00012309561,-0.039731614,0.0075833495,0.0024747695,-0.022027556,0.011198213,0.03399571,0.47530594,-1.4242682,1.9559039,-2.1012795,-1.5700806,2.4496472,-0.059363853,0.037447926,-0.045694686,-0.011793734,0.0143658025,-0.09334487,-0.2681506,-0.019153614,-9.270349,0.7463667,47.688675,-1.1602979,-2.1549911,-3.1026444,-0.5004147,0.05422718,-0.10930366,28.5625,29.6875,28.9375,32.9375,35.3125,36.4375
0.08805194,-0.2095651,0.0615016,0.20914304,-0.0005663883,0.04940819,-0.20116521,-0.38271427,-0.3481659,0.05993725,3.0784476,-0.62380034,0.00018229811,-0.039508775,0.0068262173,0.0018046541,-0.021732647,0.009639639,0.038507164,0.47518644,-1.4241236,1.9558309,-2.1013033,-1.5700802,2.4494777,-0.05809489,0.03989789,-0.047067907,-0.011347799,0.0148134995,-0.096587606,-0.40222588,0.038307227,-9.308657,0.81351066,47.72719,-1.3385464,-2.2972076,-2.9761736,-0.49043357,0.038121365,-0.10494961,28.5625,29.6875,28.9375,32.9375,35.3125,36.4375
0.090052016,-0.02434714,0.8040527,0.33551022,-0.016624628,0.05763297,-0.2081618,-0.38279688,-0.3481622,0.0599667,3.0783734,-0.6236744,0.00014114632,-0.039675765,0.008708258,0.00072625896,-0.020412622,0.0074212556,0.032042764,0.4750652,-1.4240874,1.9557251,-2.1013153,-1.5700206,2.4492872,-0.061483067,0.040235728,-0.045039322,-0.011131396,0.0146682095,-0.09351103,-0.38307226,0.019153614,-9.32781,0.7732232,47.704796,-1.3300548,-2.3503032,-3.1548586,-0.46748537,0.03670931,-0.09322803,28.5625,29.6875,28.9375,32.9375,35.3125,36.4375
0.09205214,-0.18669365,0.20341168,0.20761138,-0.0002409942,0.06579886,-0.20422973,-0.38287807,-0.34813395,0.059968222,3.0783522,-0.62357503,9.3165814e-05,-0.041959036,0.009004645,0.0016192389,-0.021439342,0.009680388,0.028993208,0.4749323,-1.4240273,1.955664,-2.1013634,-1.5700082,2.449095,-0.064016834,0.041054934,-0.047921292,-0.011543964,0.014547586,-0.092992745,-0.36391866,0.095768064,-9.423578,0.7486078,47.692257,-1.1979263,-2.2806337,-3.2050805,-0.47307742,0.05395895,-0.10038254,28.5625,29.6875,28.9375,32.9375,35.3125,36.4375
0.09405223,-0.37434253,0.073771976,0.24135645,-0.009273785,0.06785041,-0.2079022,-0.38296938,-0.34812886,0.059993017,3.078297,-0.62348956,1.3933937e-05,-0.043137748,0.008997437,0.0020648674,-0.022741841,0.010558129,0.024049789,0.47482383,-1.4239672,1.9555444,-2.1013877,-1.5699843,2.4489403,-0.06556539,0.04153435,-0.049400706,-0.011921137,0.015308795,-0.08959653,-0.34476504,0.05746084,-9.423578,0.80679786,47.637623,-1.2749524,-2.312014,-3.0612292,-0.47260958,0.048945926,-0.14640541,28.5625,29.6875,28.9375,32.9375,35.3125,36.4375
0.09605265,-0.81806374,0.30050457,0.4024847,-0.011768569,0.0606324,-0.19669464,-0.3830369,-0.3481045,0.059982993,3.078268,-0.62342817,8.7072454e-05,-0.04391089,0.009403776,0.0020305165,-0.023340859,0.010366931,0.019985965,0.47467926,-1.4238833,1.9554714,-2.1013877,-1.5699238,2.448761,-0.06738545,0.042089403,-0.049929835,-0.012046906,0.015928334,-0.087353185,-0.5554548,0.038307227,-9.3661175,0.7777002,47.70211,-1.3268769,-2.219987,-3.1106744,-0.4787268,0.035536967,-0.1903425,28.5625,29.6875,28.9375,32.9375,35.3125,36.4375
0.098051846,-0.09883997,0.52676725,0.20348531,-0.0105339065,0.08776732,-0.20879877,-0.38312757,-0.34809396,0.05998683,3.0782392,-0.62330854,0.00010414496,-0.045232486,0.009991578,0.0022936752,-0.023339234,0.011051397,0.016497876,0.4745466,-1.4237752,1.9553393,-2.1013877,-1.5698766,2.4485574,-0.06942327,0.0427897,-0.051363774,-0.011915007,0.015615341,-0.08590145,-0.5554548,0.095768064,-9.232041,0.7866488,47.704796,-1.2842201,-2.222265,-3.062519,-0.47599873,0.05618628,-0.21093859,28.5625,29.6875,28.9375,32.9375,35.3125,36.4375
0.100052014,-0.42766672,0.7301817,0.17154534,-0.011235021,0.083747394,-0.21453698,-0.38321444,-0.3480666,0.059978783,3.0782173,-0.6232471,0.00010053335,-0.046150506,0.010264295,0.0020775322,-0.02364027,0.010493582,0.014132245,0.47440216,-1.4236789,1.9552559,-2.1014235,-1.5698518,2.4483774,-0.0710747,0.044313602,-0.052638642,-0.011803372,0.016140003,-0.08518654,-0.4213795,0.11492168,-9.308656,0.78888994,47.716442,-1.2889602,-2.2188098,-3.014108,-0.4699586,0.04840631,-0.2714391,28.5625,29.6875,28.9375,32.9375,35.3125,36.4375
0.10205206,-0.8479231,0.20552233,0.39536414,0.0003313064,0.07039066,-0.19780983,-0.3833153,-0.34802145,0.059984043,3.0782247,-0.62323064,4.6717807e-05,-0.04730119,0.01089279,0.0020406053,-0.023171674,0.011081434,0.012196725,0.47424543,-1.4235946,1.9551476,-2.1014235,-1.5698766,2.4482095,-0.072786145,0.045299586,-0.053610772,-0.0121234385,0.015456912,-0.08496075,-0.45968673,0.11492168,-9.308657,0.7777002,47.645687,-1.2880511,-2.2311707,-3.009845,-0.45993036,0.06640388,-0.28125918,28.5625,29.6875,28.9375,32.9375,35.3125,36.4375
0.10405222,-0.7329168,0.46536744,0.39787295,-0.006434371,0.06409376,-0.19766779,-0.38340744,-0.34801653,0.059987914,3.0781493,-0.62317747,3.3738248e-05,-0.048341017,0.011237984,0.0018318142,-0.023625063,0.010881912,0.010998671,0.4741129,-1.4234984,1.9550399,-2.1014712,-1.569816,2.4480534,-0.0746585,0.046689223,-0.05463425,-0.012513133,0.01595641,-0.08563378,-0.53630114,0.05746084,-9.3661175,0.7933669,47.63404,-1.2324932,-2.253316,-3.01792,-0.46673238,0.049161114,-0.33756617,28.5625,29.6875,28.9375,32.9375,35.3125,36.4375
0.106052116,-0.30202353,1.0329992,0.26181898,-0.015943393,0.07318908,-0.21392344,-0.38350472,-0.34797323,0.059987206,3.078097,-0.6232266,1.1344801e-05,-0.05040226,0.012288834,0.0022347588,-0.024085268,0.012255482,0.00773705,0.47393158,-1.4234262,1.9549674,-2.101508,-1.5697926,2.4479094,-0.078255184,0.047256537,-0.05607955,-0.013061374,0.015741713,-0.08596717,-0.49799395,0.095768064,-9.423578,0.7665104,47.694946,-1.2366207,-2.204526,-3.0006948,-0.46346098,0.06499421,-0.37122005,28.5625,29.6875,28.9375,32.9375,35.3125,36.4375
0.10805232,-0.35223782,0.53862053,0.18238217,-0.008549338,0.05980668,-0.20703751,-0.38362762,-0.34795797,0.06000569,3.07805,-0.62317693,-3.7320813e-05,-0.050445683,0.011854619,0.0019449195,-0.023868347,0.011905332,0.008824347,0.473776,-1.4233061,1.9547881,-2.101508,-1.5697683,2.4477289,-0.0774827,0.0486254,-0.0569709,-0.01312339,0.015715081,-0.086280376,-0.4405331,0.0,-9.3661175,0.70608455,47.645687,-1.2039179,-2.213789,-3.024386,-0.45387346,0.067733385,-0.41030002,28.5625,29.6875,28.9375,32.9375,35.3125,36.4375
0.11005239,-0.37067893,0.28692418,0.13313976,-0.0069141374,0.058522988,-0.20426872,-0.3837172,-0.34794253,0.060007233,3.0780115,-0.623112,-4.597491e-05,-0.051337708,0.012397615,0.0008942295,-0.022790048,0.010046647,0.0083529325,0.4736433,-1.4232088,1.9546789,-2.1015317,-1.5697325,2.4475605,-0.0791776,0.05192914,-0.05841594,-0.012829516,0.0156076765,-0.087502055,-0.47884035,0.1340753,-9.404425,0.8403672,47.689575,-1.3207927,-2.3316514,-2.9846609,-0.43922114,0.097099334,-0.4653945,28.5625,29.6875,28.9375,32.9375,35.3125,36.4375
0.1120526,-0.15483055,0.7153502,0.21669102,-0.023974797,0.064699024,-0.20667653,-0.38383597,-0.3479306,0.06001923,3.077959,-0.6230457,-0.00011017338,-0.054252863,0.014237837,0.0028129686,-0.025136787,0.013623803,0.0041195205,0.47349724,-1.4230899,1.9545239,-2.101568,-1.5697078,2.4473798,-0.08538841,0.049014073,-0.05938835,-0.013191167,0.016072841,-0.08947856,-0.47884035,0.095768064,-9.3661175,0.800085,47.682407,-1.1346047,-2.2414145,-3.03269,-0.44047862,0.09759717,-0.51139104,28.5625,29.6875,28.9375,32.9375,35.3125,36.4375
0.11405201,-0.023212504,0.70089954,-0.09536389,-0.015951779,0.06827119,-0.2091229,-0.3839515,-0.34787524,0.060001604,3.0779405,-0.62303585,-5.9400416e-05,-0.053691138,0.013380278,0.0021830332,-0.024944915,0.0119089,0.0131914485,0.47327,-1.4229568,1.9544147,-2.101579,-1.569672,2.4471488,-0.083728075,0.051033888,-0.060405497,-0.0125684,0.016693043,-0.0968901,-0.36391866,0.095768064,-9.442732,0.7933669,47.682407,-1.2449148,-2.1539702,-2.9458432,-0.43619168,0.10791894,-0.46668243,28.5625,29.6875,28.9375,32.9375,35.3125,36.4375
0.116052546,-0.11294896,0.13791075,-0.024727197,-0.0076445956,0.060109522,-0.2012387,-0.38404557,-0.34784815,0.06000954,3.0779028,-0.62293166,-8.1359474e-05,-0.055149477,0.0146627035,0.001964537,-0.025193239,0.011153887,0.013694219,0.47311231,-1.4228845,1.9543194,-2.1016028,-1.5696357,2.446931,-0.08769098,0.052050214,-0.061133314,-0.012289555,0.017268937,-0.101354904,-0.17238252,0.05746084,-9.481039,0.7418897,47.689575,-1.1474358,-2.2667978,-3.0080712,-0.43774062,0.10839632,-0.49094445,28.5625,29.6875,28.9375,32.9375,35.3125,36.4375
0.118052624,0.2166633,0.91476876,0.15905847,-0.026652241,0.06393656,-0.21571828,-0.38415146,-0.34779885,0.06000147,3.077891,-0.6228663,-9.80769e-05,-0.055890843,0.015383847,0.00056036614,-0.024232874,0.008727529,0.023118867,0.47291985,-1.4227872,1.954235,-2.101639,-1.5696234,2.4466991,-0.089798644,0.055491548,-0.061834723,-0.012416979,0.017533807,-0.11288608,-0.28730422,0.076614454,-9.423578,0.7709874,47.674347,-1.0984343,-2.3298597,-3.0063906,-0.43488312,0.112604626,-0.39089906,28.5625,29.6875,28.9375,32.9375,35.3125,36.4375
0.12005175,-0.25495166,0.21930966,0.08524048,-0.0032740636,0.04985902,-0.20040838,-0.38427818,-0.34777796,0.060004186,3.0778484,-0.62275827,-0.00016178867,-0.056942493,0.015626656,0.001704607,-0.025179582,0.011053788,0.028383875,0.47275144,-1.4226555,1.9540919,-2.1016986,-1.5695995,2.4464688,-0.09103045,0.054028653,-0.06275724,-0.0125207575,0.017332459,-0.11938133,-0.3256114,0.095768064,-9.481039,0.7172743,47.66271,-1.0442517,-2.2809741,-3.0716329,-0.43173966,0.12063222,-0.33078843,28.5625,29.6875,28.9375,32.9375,35.3125,36.4375
0.12205184,0.10139699,0.5539984,0.033418536,-0.009639084,0.06100202,-0.21121038,-0.384385,-0.34774396,0.060002822,3.07779,-0.622724,-0.00010684822,-0.057915743,0.01598581,0.0015331517,-0.026101707,0.01061407,0.03372006,0.4725468,-1.4225471,1.9539713,-2.101699,-1.5695275,2.4462502,-0.09319831,0.05515613,-0.06358758,-0.012829525,0.018364128,-0.12688507,-0.19153613,0.038307227,-9.481039,0.7418897,47.684196,-1.0533104,-2.1754124,-3.0356293,-0.42317575,0.12061145,-0.24359849,28.5625,29.6875,28.9375,32.9375,35.3125,36.4375
0.124051996,-0.09673987,0.84918845,0.0647027,-0.016345218,0.06201589,-0.21532324,-0.38449982,-0.3477172,0.060020033,3.0777543,-0.62258065,-0.0001679033,-0.05812041,0.016533794,0.00056570856,-0.026363067,0.007861151,0.03622762,0.47237802,-1.4224623,1.9538406,-2.101723,-1.5695022,2.4459965,-0.09530517,0.057007495,-0.06361435,-0.012315606,0.019867728,-0.13149871,-0.21068975,0.038307227,-9.461885,0.80456203,47.65464,-0.97717106,-2.3044064,-3.101028,-0.42219114,0.14647405,-0.18,28.5625,29.6875,28.9375,32.9375,35.3125,36.4375
0.12605257,-0.1268532,0.6306478,-0.082179464,-0.0030548808,0.060705137,-0.20534597,-0.38462734,-0.3476846,0.06002561,3.077722,-0.62240076,-0.00018118523,-0.060533274,0.016942076,0.0013973607,-0.027155116,0.010071426,0.035896774,0.47217312,-1.4223418,1.9536957,-2.1017468,-1.569455,2.4456835,-0.09800981,0.058104042,-0.0666958,-0.012645242,0.019573173,-0.1338697,-0.24899697,0.19153613,-9.346964,0.8247004,47.689575,-0.9499184,-2.2308023,-2.9962566,-0.41433716,0.12978864,-0.14313725,28.5625,29.6875,28.9375,32.9375,35.3125,36.4375
0.12805256,0.15649377,0.55037117,-0.04851533,1.3521548e-06,0.07690648,-0.20318139,-0.38474807,-0.34764892,0.060032938,3.077664,-0.6223157,-0.00020552927,-0.060001027,0.01841266,-0.0002232829,-0.02537647,0.006776272,0.030537348,0.47196847,-1.4222454,1.9535769,-2.1017826,-1.5694069,2.4454331,-0.10005785,0.059276406,-0.06440679,-0.012356277,0.01950107,-0.13055818,-0.34476504,0.019153614,-9.3661175,0.81351066,47.711964,-0.85019994,-2.2883725,-3.0862257,-0.41353863,0.15892199,-0.14825925,28.5625,29.6875,28.9375,32.9375,35.3125,36.4375
0.13005212,-0.43626708,0.2575348,-0.087415874,0.001294934,0.06721702,-0.19649614,-0.38488236,-0.34761178,0.06003796,3.077649,-0.622218,-0.00021055472,-0.06054293,0.01835467,-0.00033965887,-0.026141487,0.006485818,0.02665463,0.4717643,-1.4221009,1.9533976,-2.101771,-1.5693825,2.44517,-0.10094296,0.060244385,-0.065192886,-0.012626547,0.020315379,-0.12755981,-0.3256114,-0.057460837,-9.423578,0.8179876,47.688675,-0.909657,-2.3201919,-3.2130322,-0.41316772,0.16279766,-0.17917329,28.5625,29.6875,28.9375,32.9375,35.3125,36.4375
0.13205235,-0.23334448,1.1396726,0.07969895,-0.009347178,0.07133963,-0.21727169,-0.38499686,-0.34759024,0.060032852,3.077599,-0.6220409,-0.00022645261,-0.06332032,0.018961927,0.0012428003,-0.027195755,0.00949423,0.01635546,0.47158307,-1.4219809,1.9532884,-2.1018422,-1.569323,2.4448845,-0.10424147,0.060224835,-0.06892327,-0.0120317275,0.019883595,-0.1205561,-0.45968673,-0.114921674,-9.404425,0.7553206,47.695843,-0.7211443,-2.2807057,-3.0803921,-0.42137355,0.17225534,-0.27142346,28.5625,29.6875,28.9375,32.9375,35.3125,36.4375
0.13405241,-0.2942292,0.5216233,-0.07009475,0.0024812233,0.0702632,-0.20193273,-0.38512915,-0.347548,0.06004458,3.0775683,-0.62203324,-0.00025737635,-0.0622331,0.018751634,0.00025859778,-0.02627048,0.0078105107,0.017904822,0.47137955,-1.4218603,1.9531211,-2.1018302,-1.5693105,2.4446802,-0.10281304,0.06113617,-0.06767125,-0.012268886,0.019834556,-0.12067679,-0.36391866,-0.019153614,-9.423578,0.77545905,47.650166,-0.9347722,-2.190657,-3.0640936,-0.43307933,0.17443939,-0.29201928,28.5625,29.6875,28.9375,32.9375,35.3125,36.4375
0.136052,-0.74381554,0.69000435,0.27281967,-0.00018398942,0.067420036,-0.20199369,-0.38526317,-0.3474647,0.060022503,3.0775626,-0.62205315,-0.0002306392,-0.06369284,0.020168196,-5.453491e-05,-0.026728341,0.007169013,0.013649365,0.47110194,-1.421728,1.9530257,-2.1018546,-1.5692986,2.4444158,-0.10707513,0.061959587,-0.067840144,-0.012555161,0.02053639,-0.120683596,-0.34476504,-0.076614454,-9.404425,0.8605109,47.687782,-0.73468846,-2.2376184,-3.2783995,-0.4096262,0.20740624,-0.34292614,28.5625,29.6875,28.9375,32.9375,35.3125,36.4375
0.1380521,-0.42803302,0.33157045,0.1085045,0.006056259,0.07051034,-0.20078343,-0.3853708,-0.34744582,0.060024463,3.0774965,-0.6219418,-0.0002179226,-0.06303469,0.018275889,0.00034978602,-0.028233921,0.0070186714,0.016904268,0.47092322,-1.4216197,1.9529055,-2.1018903,-1.5692257,2.444176,-0.10400408,0.06264131,-0.06968863,-0.011929901,0.021953011,-0.12086587,-0.28730422,-0.038307227,-9.461885,0.7933669,47.690468,-1.0595483,-2.1442385,-3.1972446,-0.4156227,0.20707086,-0.36553526,28.5625,29.6875,28.9375,32.9375,35.3125,36.4375
0.14005221,-0.50298196,0.031959713,0.16179167,0.0031946134,0.060307268,-0.19916691,-0.3854925,-0.34738824,0.059997886,3.077508,-0.621905,-0.00015006632,-0.06338971,0.018593185,0.00015946163,-0.028559744,0.006729145,0.016724473,0.47069484,-1.4214514,1.9527739,-2.1018903,-1.5692018,2.4439232,-0.10513073,0.06301663,-0.069618836,-0.012257012,0.022375198,-0.121813565,-0.4213795,0.15322891,-9.232041,0.73069996,47.66987,-1.1334481,-2.1083593,-3.2983785,-0.4064706,0.21091294,-0.39748287,28.5625,29.6875,28.9375,32.9375,35.3125,36.4375
0.14205262,-0.36714265,-0.29947704,0.035408072,0.009232752,0.054923557,-0.20045064,-0.38563505,-0.34735027,0.060023513,3.0774481,-0.62181467,-0.00027126883,-0.06440811,0.0193884,0.00016074124,-0.028077306,0.0070728627,0.018142004,0.47049013,-1.421367,1.9526299,-2.1019385,-1.5691899,2.4436698,-0.10706507,0.06361523,-0.07031546,-0.012233749,0.021809421,-0.12516256,-0.2873042,0.15322891,-9.32781,0.73741806,47.67793,-1.0951405,-2.1443043,-3.3156996,-0.41335756,0.2315052,-0.39732176,28.5625,29.6875,28.9375,32.9375,35.3125,36.4375
0.14405175,0.44414416,0.35751787,-0.020273095,-0.0028873032,0.05674686,-0.20687528,-0.38575563,-0.34731662,0.060017385,3.0773869,-0.62175953,-0.00022996729,-0.06473145,0.019116936,2.499779e-05,-0.028126748,0.0070993677,0.025224509,0.4702743,-1.4212346,1.9524978,-2.1019623,-1.5691179,2.4434273,-0.10687294,0.064746454,-0.071258165,-0.012444399,0.02185541,-0.1320518,-0.15322891,0.11492168,-9.3661175,0.79560274,47.661808,-1.1870428,-2.1750267,-3.276672,-0.41293412,0.25452828,-0.3818452,28.5625,29.6875,28.9375,32.9375,35.3125,36.4375
0.1460522,0.48487648,0.19718917,-0.102383226,-0.005287178,0.03528358,-0.19871503,-0.38591778,-0.34730425,0.06004387,3.0773172,-0.62158716,-0.00034038918,-0.06536772,0.01975988,-0.0003532876,-0.028404208,0.0064540063,0.03196724,0.47008163,-1.4210901,1.9522833,-2.1020105,-1.5690817,2.443136,-0.108918145,0.065522484,-0.071207374,-0.012801087,0.022426745,-0.14083704,-0.038307227,0.13407528,-9.385271,0.81351066,47.66271,-1.1488628,-2.1096604,-3.386787,-0.41988373,0.2545215,-0.30563092,28.5625,29.6875,28.9375,32.9375,35.3125,36.4375
0.14805225,0.43587667,0.20085798,0.09014384,-0.021148965,0.023659341,-0.20960175,-0.386063,-0.3472515,0.060060583,3.0772533,-0.62147456,-0.00035752493,-0.06727199,0.019170653,0.0010675198,-0.030280462,0.009206449,0.0390014,0.46981737,-1.4209939,1.9521378,-2.1020224,-1.5690216,2.4428096,-0.10984589,0.065840766,-0.07482024,-0.012784667,0.022871697,-0.14879577,0.076614454,0.19153613,-9.270349,0.8918391,47.70211,-1.0939639,-2.057563,-3.254541,-0.40629026,0.27580714,-0.2186857,28.5625,29.6875,28.9375,32.9375,35.3125,36.4375
0.15005235,0.86289907,0.09399343,-0.026322888,-0.021138685,0.019599702,-0.20460351,-0.3862073,-0.3471823,0.060051218,3.0772634,-0.6213978,-0.0003684971,-0.067458324,0.021532295,-0.0012351897,-0.028178493,0.004771039,0.040671762,0.46956366,-1.4208487,1.9519957,-2.1020339,-1.5690216,2.4425068,-0.11426732,0.06839909,-0.072516985,-0.012724772,0.02302564,-0.15488814,0.15322891,0.11492168,-9.289502,0.7709874,47.68062,-1.0274255,-2.0885453,-3.4084141,-0.41615963,0.29225472,-0.12218578,28.5625,29.6875,28.9375,32.9375,35.3125,36.4375
0.15205249,0.39678562,-0.51255906,-0.16050944,-0.016142154,0.008959271,-0.1936172,-0.38632706,-0.34715536,0.060046606,3.0772226,-0.6211972,-0.00034304074,-0.06746658,0.020084145,-0.00040462444,-0.030118423,0.0056960215,0.042496942,0.46936044,-1.4207169,1.9518636,-2.10207,-1.5689491,2.4421835,-0.11252043,0.06833245,-0.07440016,-0.012466105,0.024343112,-0.1549646,0.076614454,0.13407528,-9.423578,0.8605109,47.69763,-1.1484656,-2.141404,-3.4475029,-0.42255968,0.29316762,-0.11051674,28.5625,29.6875,28.9375,32.9375,35.3125,36.4375
0.15405186,0.36961326,-0.8787178,-0.061483476,-0.013159174,0.008316574,-0.19321431,-0.3864526,-0.34711203,0.060029075,3.077193,-0.621099,-0.00028600363,-0.07057066,0.02033563,0.0014902832,-0.033905815,0.008775715,0.03587,0.4691307,-1.4205607,1.9517306,-2.1020944,-1.5688885,2.4418962,-0.117017105,0.06781489,-0.0780783,-0.012725575,0.026321491,-0.1528323,0.095768064,0.21068975,-9.385271,0.83365434,47.73077,-0.9776299,-1.8774633,-3.26271,-0.42722428,0.28331274,-0.115112424,28.5625,29.6875,28.9375,32.9375,35.3125,36.4375
0.1560519,0.8001905,-0.30615565,-0.037051734,-0.01998229,0.014881314,-0.19409284,-0.3866288,-0.34707654,0.060057405,3.0771487,-0.6209562,-0.0004576119,-0.069121316,0.019979762,-0.0006777765,-0.032430418,0.0041055004,0.032463674,0.46891552,-1.4204274,1.951527,-2.102154,-1.5689,2.4415977,-0.1155534,0.07137902,-0.07733704,-0.012205436,0.027135136,-0.14795858,0.0,0.24899697,-9.3661175,0.81351066,47.703903,-1.208365,-1.9044366,-3.385522,-0.4298837,0.29183388,-0.16338202,28.5625,29.6875,28.9375,32.9375,35.3125,36.4375
0.15805195,0.32869276,-0.48382366,-0.32068905,-0.011587917,0.019237433,-0.19353619,-0.3867494,-0.3470328,0.060048755,3.0770984,-0.6208729,-0.00037601386,-0.07127202,0.020146167,3.9693517e-05,-0.03403474,0.005669831,0.025254989,0.4686746,-1.420295,1.9513954,-2.1021545,-1.5688161,2.4413111,-0.1182171,0.07249535,-0.08016693,-0.012604017,0.027849305,-0.1434118,-0.019153614,0.30645782,-9.404425,0.7866488,47.696735,-1.1772693,-2.0669134,-3.3276584,-0.4326151,0.29336402,-0.23309906,28.5625,29.6875,28.9375,32.9375,35.3125,36.4375
0.1600521,-0.030394746,-0.48838606,-0.3177137,-0.008848588,0.01895416,-0.18988948,-0.38688913,-0.34699503,0.060045168,3.077036,-0.62082297,-0.00033394792,-0.072069235,0.02010068,0.00089756167,-0.035566647,0.0062962724,0.021821873,0.46843436,-1.4201391,1.9512275,-2.1021655,-1.5687436,2.4410477,-0.11951464,0.07191175,-0.0816524,-0.011776384,0.028936466,-0.14127484,-0.05746084,0.30645782,-9.423578,0.7396539,47.683304,-1.1812338,-1.8543754,-3.2483854,-0.44166386,0.29295793,-0.30598465,28.5625,29.6875,28.9375,32.9375,35.3125,36.4375
0.16205253,-0.12029481,-0.39220253,-0.41128248,-0.016725672,0.023769189,-0.19544303,-0.3870225,-0.3469518,0.06005552,3.0769866,-0.62072086,-0.00034740238,-0.072672375,0.020619169,0.00041032437,-0.035632458,0.0050628386,0.014748326,0.46820572,-1.4200305,1.9510826,-2.1021779,-1.568695,2.4407616,-0.121337175,0.07330744,-0.08219372,-0.011558587,0.029553553,-0.1360218,-0.038307227,0.28730422,-9.404425,0.81351066,47.655537,-1.1882111,-1.9053049,-3.295354,-0.46778488,0.30643734,-0.38715136,28.5625,29.6875,28.9375,32.9375,35.3125,36.4375
0.1640526,0.21402617,-0.3161849,-0.41115952,-0.034814764,0.04309465,-0.20083332,-0.38720015,-0.34692836,0.060077153,3.076884,-0.62062377,-0.00043474569,-0.073433094,0.020816533,0.00021023757,-0.036417387,0.0045341672,0.0128530245,0.4679652,-1.419874,1.9508675,-2.102237,-1.5686353,2.4404736,-0.122937836,0.074478775,-0.08304046,-0.011754204,0.030510629,-0.13572268,-0.15322891,0.22984336,-9.442732,0.76874626,47.66987,-1.1233387,-1.8755691,-3.3581662,-0.46096146,0.32225263,-0.44875202,28.5625,29.6875,28.9375,32.9375,35.3125,36.4375
0.16605262,0.1722533,-0.21649143,-0.20375377,-0.038622756,0.045562617,-0.20316443,-0.38732064,-0.34686986,0.060070522,3.076902,-0.6205118,-0.0003829286,-0.0741246,0.020695355,0.00058622257,-0.037123967,0.0048705395,0.013351169,0.46773693,-1.4197416,1.950723,-2.1022012,-1.568611,2.4401731,-0.12361919,0.074932426,-0.084522136,-0.011334103,0.030991124,-0.136902,-0.17238252,0.2681506,-9.519346,0.85826975,47.709274,-1.2243973,-1.8973753,-3.2867475,-0.47594464,0.3014007,-0.5123286,28.5625,29.6875,28.9375,32.9375,35.3125,36.4375
0.16805188,-0.1704416,-0.5648051,-0.25209382,-0.03652109,0.05057464,-0.1988115,-0.3874508,-0.3468146,0.06002148,3.076862,-0.6205208,-0.00021421083,-0.07606583,0.021968527,0.0003380784,-0.037351593,0.005219025,0.015863365,0.46745953,-1.419525,1.9505924,-2.1022255,-1.5685152,2.4399064,-0.12761708,0.07640103,-0.08544071,-0.012262557,0.03104241,-0.1434132,-0.21068975,0.17238252,-9.519346,0.8672237,47.70838,-1.0863134,-1.8266861,-3.2940414,-0.47950435,0.30618754,-0.51456475,28.5625,29.6875,28.9375,32.9375,35.3125,36.4375
0.1700521,-0.44966337,-0.3791109,-0.18192121,-0.0323954,0.06274793,-0.2019554,-0.38761517,-0.34677154,0.060046304,3.076785,-0.62040186,-0.00025837953,-0.07646362,0.02135139,0.00020666447,-0.038044766,0.005023581,0.02681314,0.46719587,-1.4194043,1.9504002,-2.102237,-1.5684546,2.4395783,-0.12730597,0.07801302,-0.086944826,-0.012470894,0.03178344,-0.15404804,-0.38307226,0.15322891,-9.500193,0.83589023,47.703007,-1.2442765,-1.9068296,-3.349823,-0.48293492,0.3377173,-0.44433367,28.5625,29.6875,28.9375,32.9375,35.3125,36.4375
0.17205226,-0.012304152,0.5040784,-0.17878486,-0.030934181,0.092010714,-0.21748719,-0.38778493,-0.34676567,0.0600685,3.0766351,-0.62028986,-0.000289513,-0.07814916,0.021817867,0.0002495826,-0.03983099,0.005222763,0.034977153,0.46695468,-1.4192476,1.9501842,-2.1022975,-1.568334,2.4392862,-0.13059174,0.07929704,-0.08832663,-0.013308244,0.033330716,-0.16549225,-0.34476504,0.05746084,-9.557653,0.80679786,47.689575,-0.94971764,-1.9338281,-3.3272846,-0.48829794,0.31191814,-0.35260686,28.5625,29.6875,28.9375,32.9375,35.3125,36.4375
0.17405264,-0.5333042,0.3664653,-0.19423334,-0.012533791,0.0933937,-0.2045294,-0.38794455,-0.34670198,0.06005957,3.0766346,-0.6201709,-0.0003064372,-0.0793728,0.02200845,-0.0003016981,-0.040756393,0.004153415,0.04120624,0.46669,-1.4190786,1.9500164,-2.1023214,-1.5683216,2.4389474,-0.13283822,0.081897736,-0.0899698,-0.013701619,0.034660954,-0.17396508,-0.34476504,0.13407528,-9.595961,0.82022345,47.66271,-1.0797992,-1.9526556,-3.2733583,-0.47921842,0.30663985,-0.26233903,28.5625,29.6875,28.9375,32.9375,35.3125,36.4375
0.1760517,-1.2812444,0.6920907,-0.089473136,-0.004283146,0.087979935,-0.19974229,-0.3880827,-0.34665793,0.060064845,3.0766034,-0.6199353,-0.0003087185,-0.08151337,0.022940904,1.4792176e-05,-0.04125784,0.0046840156,0.040820964,0.46644878,-1.4189581,1.9498719,-2.1023457,-1.5682615,2.438563,-0.13651472,0.083298795,-0.09238067,-0.013365459,0.034886368,-0.17725323,-0.59376204,0.019153614,-9.519346,0.78888994,47.668976,-0.96323943,-2.051877,-3.1790767,-0.4967461,0.3236076,-0.19844384,28.5625,29.6875,28.9375,32.9375,35.3125,36.4375
0.17805189,-0.5871316,1.0006336,0.06457821,0.00120758,0.098484196,-0.2073398,-0.38826472,-0.34662917,0.060077846,3.0765007,-0.61980027,-0.0003199258,-0.08300524,0.02311669,0.0005567993,-0.04189242,0.006733693,0.037539657,0.46617237,-1.4187777,1.949644,-2.102382,-1.5681657,2.4382155,-0.13788062,0.08374742,-0.09390975,-0.014377974,0.0345432,-0.17533424,-0.5363012,-0.11492168,-9.519346,0.7642693,47.687782,-0.9707409,-1.9003052,-3.1957178,-0.5049053,0.31397557,-0.19124031,28.5625,29.6875,28.9375,32.9375,35.3125,36.4375
0.18005188,-1.3085895,0.93562347,-0.041879162,0.0014828007,0.07775847,-0.19974147,-0.38842282,-0.34657994,0.060078714,3.076453,-0.61964124,-0.00029288593,-0.08442516,0.02213676,-0.0003342486,-0.042560346,0.0056983493,0.031579003,0.46589628,-1.4186198,1.9494637,-2.1023939,-1.5680932,2.4378462,-0.13804102,0.088966265,-0.09768165,-0.015196219,0.03559494,-0.16952923,-0.7661445,-0.17238252,-9.595961,0.7777002,47.684196,-0.99842185,-2.0809405,-3.1527274,-0.50371057,0.30985612,-0.28172082,28.5625,29.6875,28.9375,32.9375,35.3125,36.4375
0.18205191,-1.4054365,0.9755293,0.08453563,-0.004982845,0.08470423,-0.20430145,-0.388565,-0.3465447,0.0600648,3.0763745,-0.619607,-0.00021683566,-0.08467031,0.022073973,0.0008216841,-0.044509366,0.007603716,0.028081577,0.46564427,-1.4184407,1.9492959,-2.1024182,-1.5679973,2.4375827,-0.13866602,0.08637615,-0.0972706,-0.015580291,0.03648279,-0.16665627,-0.8619126,-0.038307227,-9.519346,0.8493211,47.657326,-1.1231062,-2.0121307,-3.0973845,-0.49030215,0.31460395,-0.33245933,28.5625,29.6875,28.9375,32.9375,35.3125,36.4375
0.18405192,-1.3885043,0.69975585,-0.04074452,0.0023432248,0.090474695,-0.20969886,-0.3887675,-0.34647566,0.06008477,3.0763407,-0.6195055,-0.00029298192,-0.08600195,0.021075724,0.0011738593,-0.045073483,0.009395398,0.028128697,0.46533218,-1.4182715,1.9490565,-2.1024182,-1.5679849,2.4372118,-0.13783275,0.08871415,-0.10056366,-0.01646708,0.036192045,-0.16586572,-0.91937345,-0.038307227,-9.423578,0.8605109,47.66987,-1.1034899,-2.0080352,-3.1048443,-0.4981417,0.31273562,-0.38393497,28.5625,29.6875,28.9375,32.9375,35.3125,36.4375
0.18605231,-1.5254884,0.7610699,0.10118447,-0.0012313342,0.09765999,-0.20253538,-0.3889177,-0.34643736,0.060089335,3.0762732,-0.6194146,-0.0003086487,-0.08699019,0.022953365,0.00055392116,-0.043952674,0.0078081815,0.0263005,0.46509087,-1.4181271,1.9488887,-2.102454,-1.5679249,2.4369223,-0.14182188,0.08956854,-0.10033865,-0.015599629,0.035926398,-0.16802499,-0.68953013,0.05746084,-9.500193,0.8291774,47.68062,-1.1008384,-2.045405,-2.981904,-0.5107799,0.31770474,-0.40249336,28.5625,29.6875,28.9375,32.9375,35.3125,36.4375
0.18805237,-0.8474222,0.10107652,0.17934497,0.007672223,0.09534616,-0.20316888,-0.38910446,-0.34641775,0.06009004,3.0761285,-0.6193045,-0.00029981532,-0.08715629,0.021589115,0.0010540283,-0.046515528,0.0080363285,0.032191724,0.4648034,-1.4179227,1.9486722,-2.1025379,-1.5677923,2.4365845,-0.1409099,0.09012412,-0.10209847,-0.015709482,0.038146988,-0.17299779,-0.5554548,-0.05746084,-9.289502,0.8247004,47.689575,-1.2494102,-2.0374377,-3.0570703,-0.53593355,0.29788655,-0.40634236,28.5625,29.6875,28.9375,32.9375,35.3125,36.4375
0.19005245,-0.83060247,0.48459822,0.10095875,-0.0133906845,0.07423221,-0.20276862,-0.38930562,-0.34636745,0.06011059,3.0760636,-0.6191731,-0.00035605536,-0.08822769,0.021731047,0.0010075779,-0.04752455,0.0074846866,0.03884741,0.46450278,-1.417742,1.9484209,-2.1025498,-1.5677437,2.4362102,-0.14281397,0.09165518,-0.10382127,-0.015436349,0.03933751,-0.18155225,-0.47884035,0.076614454,-9.308657,0.8090337,47.682407,-1.2705595,-2.0169919,-2.9803922,-0.5418741,0.3122148,-0.33828002,28.5625,29.6875,28.9375,32.9375,35.3125,36.4375
0.1920526,0.21801943,0.6682415,0.3308855,-0.027189406,0.08028083,-0.20846191,-0.38948137,-0.34631723,0.060122035,3.0760088,-0.61892575,-0.0003484324,-0.088412724,0.02211729,-0.00018323334,-0.048166145,0.005119835,0.04881703,0.46420223,-1.417585,1.9482177,-2.1025622,-1.5676593,2.4357622,-0.14468028,0.09373657,-0.10334791,-0.016107628,0.041019153,-0.19338395,-0.47884035,0.095768064,-9.251195,0.83365434,47.67345,-1.1996858,-2.0151696,-2.9933224,-0.5410015,0.27411306,-0.21804535,28.5625,29.6875,28.9375,32.9375,35.3125,36.4375
0.19405171,-0.4359803,-0.243196,-0.034890402,-0.006731771,0.050329454,-0.19669579,-0.3896643,-0.34627736,0.06011224,3.075927,-0.6187716,-0.00035747912,-0.090027526,0.021750912,0.0009850675,-0.049910452,0.0070241136,0.05409446,0.46391398,-1.4173808,1.9480251,-2.1026456,-1.5675753,2.435388,-0.1458792,0.09401157,-0.10642134,-0.015747588,0.041759867,-0.19985516,-0.2681506,0.15322891,-9.385271,0.82694155,47.672558,-1.2633848,-1.9938041,-2.920021,-0.54419374,0.24791875,-0.13569835,28.5625,29.6875,28.9375,32.9375,35.3125,36.4375
0.19605193,0.5589212,0.50239724,0.15747528,-0.035375252,0.05852902,-0.212632,-0.38984248,-0.3462418,0.060117044,3.0758562,-0.6186058,-0.0003483845,-0.08972205,0.022913609,-0.00032601648,-0.04819233,0.0052313916,0.052328937,0.46363747,-1.4171885,1.9477991,-2.1026695,-1.5674909,2.435017,-0.14713946,0.094996616,-0.10445221,-0.01630048,0.041045755,-0.19934924,-0.11492168,0.21068975,-9.32781,0.80456203,47.696735,-1.2247348,-2.0460048,-3.1289353,-0.54706573,0.27136314,-0.080019996,28.5625,29.6875,28.9375,32.9375,35.3125,36.4375
0.19805202,0.3866997,0.15073887,0.40415788,-0.03508604,0.044074427,-0.2034547,-0.3900324,-0.34616706,0.06011689,3.0758276,-0.6184889,-0.00036003618,-0.09229451,0.023114523,6.0747057e-05,-0.050144754,0.006035642,0.04424831,0.46331218,-1.4170073,1.9475945,-2.1026824,-1.5674547,2.4346225,-0.15060692,0.09742208,-0.10802795,-0.016741347,0.042427164,-0.19473062,-0.24899697,0.30645782,-9.212888,0.86498255,47.677036,-1.212973,-2.1184406,-2.9341433,-0.55037224,0.24430044,-0.14326389,28.5625,29.6875,28.9375,32.9375,35.3125,36.4375
0.20005217,0.88145286,0.31574124,0.31121305,-0.033086352,0.034611557,-0.20370516,-0.39023262,-0.34612718,0.060123302,3.0757256,-0.6183559,-0.00036931908,-0.091024876,0.022309192,-0.0019282636,-0.050411843,0.002164511,0.038189437,0.46300098,-1.4168022,1.9473556,-2.10273,-1.5673584,2.4342413,-0.14923874,0.10064833,-0.1070012,-0.017649561,0.04439856,-0.1872973,-0.05746084,0.3256114,-9.193734,0.8179876,47.67614,-1.2907385,-2.0874548,-3.1694217,-0.53678286,0.22258517,-0.23235941,28.5625,29.6875,28.9375,32.9375,35.3125,36.4375
0.20205222,1.2530265,-0.17889996,0.4210519,-0.019093446,0.03148901,-0.19121695,-0.3904,-0.34609884,0.06012596,3.0756168,-0.6182248,-0.00032882552,-0.0923639,0.022640154,-0.00032784537,-0.053416267,0.004460075,0.028175926,0.46272403,-1.4166226,1.947152,-2.1027663,-1.5672377,2.4338963,-0.15201344,0.098137006,-0.10774046,-0.017789964,0.04605737,-0.18005352,0.0,0.2681506,-9.155427,0.8537928,47.66271,-1.1528652,-2.120018,-3.064474,-0.5364355,0.19015473,-0.32308018,28.5625,29.6875,28.9375,32.9375,35.3125,36.4375
0.20405225,1.1443415,0.30498257,0.34880608,-0.019830167,0.00239637,-0.20036024,-0.3906141,-0.34603763,0.060131315,3.075496,-0.618223,-0.0003237171,-0.0926958,0.023675077,-0.002043521,-0.052497916,0.0008024687,0.021262428,0.46236303,-1.4164176,1.9469126,-2.1028016,-1.5671414,2.4335496,-0.15458588,0.10138925,-0.107663535,-0.01742009,0.046877585,-0.17570771,0.076614454,0.21068975,-9.174581,0.85155696,47.678825,-1.1437677,-1.9215642,-3.237759,-0.5449397,0.18818685,-0.41627732,28.5625,29.6875,28.9375,32.9375,35.3125,36.4375
0.20605233,1.4669849,0.5065415,0.42577302,-0.024872907,-0.0035209258,-0.20622125,-0.3907829,-0.34598848,0.0601086,3.0754886,-0.61804944,-0.00034605834,-0.09412304,0.02421851,-0.0007948512,-0.05457509,0.00309938,0.018630365,0.46211013,-1.416202,1.9467334,-2.1028736,-1.5671171,2.4331894,-0.15729387,0.09956001,-0.10831238,-0.017910749,0.047722872,-0.17578064,0.19153613,0.15322891,-9.251195,0.8672237,47.698532,-1.1147155,-2.1125815,-3.274284,-0.54150033,0.16168495,-0.49086893,28.5625,29.6875,28.9375,32.9375,35.3125,36.4375
0.20805244,1.6903338,0.50336295,0.41868973,-0.02209235,0.001484085,-0.20492911,-0.39097178,-0.34594372,0.060108252,3.0753942,-0.61796767,-0.00025969956,-0.09537532,0.024859505,-0.001729299,-0.053962193,0.0018330059,0.02586982,0.4617856,-1.4159845,1.9464821,-2.1028621,-1.5669969,2.4328258,-0.15949771,0.102807716,-0.10988457,-0.018108767,0.047775786,-0.18522172,0.2873042,0.15322891,-9.11712,0.900793,47.690468,-1.080563,-1.9794325,-3.205855,-0.5350299,0.14385258,-0.47564894,28.5625,29.6875,28.9375,32.9375,35.3125,36.4375
0.21005261,1.1679372,0.7135604,0.2527873,-0.012991252,-0.004863416,-0.2080473,-0.3911735,-0.34590474,0.06011677,3.0752451,-0.61785465,-0.00029362566,-0.09669101,0.026330303,-0.0019528958,-0.054534417,0.00070581737,0.035487987,0.46146023,-1.415804,1.9462775,-2.1029575,-1.5668768,2.4324489,-0.16388598,0.103457496,-0.11026011,-0.017542118,0.048865005,-0.19922079,0.30645782,0.15322891,-9.155427,0.8314132,47.688675,-1.0078559,-2.1205947,-3.2578595,-0.5424999,0.12401152,-0.3754853,28.5625,29.6875,28.9375,32.9375,35.3125,36.4375
0.2120518,0.6817873,0.7057376,0.2953927,-0.0024476221,0.0048891115,-0.1999799,-0.39135277,-0.34584427,0.060129832,3.0751715,-0.6176806,-0.00023385137,-0.09633922,0.025905132,-0.0020596974,-0.05422031,-1.3436365e-05,0.04758423,0.46112448,-1.4156477,1.9460629,-2.1029332,-1.5667685,2.4320138,-0.16280039,0.10417341,-0.11106961,-0.016584521,0.04895428,-0.21022958,0.22984336,0.13407528,-9.212888,0.7642693,47.677036,-0.9854994,-1.9856135,-3.311038,-0.57664424,0.086458445,-0.25992236,28.5625,29.6875,28.9375,32.9375,35.3125,36.4375
0.21405181,0.5178628,0.5002822,0.42427504,0.008701427,0.029168107,-0.19897664,-0.39154857,-0.34577775,0.06011168,3.0750966,-0.61758846,-0.00014540028,-0.097205035,0.026784161,-0.0026252377,-0.053547688,-0.0017784883,0.050040826,0.4607638,-1.4154189,1.9458469,-2.1029565,-1.5666608,2.431605,-0.16517559,0.10618711,-0.11240235,-0.015326752,0.049162846,-0.21505998,-0.019153614,0.15322891,-9.193734,0.8314132,47.70032,-0.90835726,-2.0827885,-3.2512555,-0.5961901,0.0694321,-0.16207662,28.5625,29.6875,28.9375,32.9375,35.3125,36.4375
0.21605201,0.6322397,1.256296,0.4020232,-0.0037569115,0.0661569,-0.20456377,-0.3917373,-0.34572813,0.060098812,3.0750394,-0.6173686,-7.243612e-05,-0.097728305,0.026985895,-0.0026288743,-0.05304896,-0.0014039242,0.046214875,0.46043947,-1.4151905,1.9456195,-2.1029804,-1.566553,2.4311507,-0.16552009,0.10689184,-0.11323393,-0.01528671,0.048548747,-0.2115781,-0.19153614,0.1340753,-9.270349,0.8403672,47.71017,-0.93212676,-2.02696,-3.3280497,-0.6036673,0.049103625,-0.16677108,28.5625,29.6875,28.9375,32.9375,35.3125,36.4375
0.21805231,-0.18159647,0.9000694,0.30377826,0.008151568,0.0772252,-0.19116451,-0.39192528,-0.3456761,0.060110774,3.0749497,-0.6172586,-8.188346e-05,-0.09768556,0.028013736,-0.0037426113,-0.050342847,-0.0034822535,0.038778555,0.46012738,-1.4150218,1.9454039,-2.1030042,-1.5664696,2.4307814,-0.16626194,0.108819924,-0.11318224,-0.014192232,0.047049455,-0.20488293,-0.36391866,0.11492168,-9.232041,0.83365434,47.69763,-0.9993961,-1.9750428,-3.3855715,-0.63157785,0.058296174,-0.26448965,28.5625,29.6875,28.9375,32.9375,35.3125,36.4375
0.2200525,-0.60301626,0.75636274,0.22874215,0.008625251,0.092634834,-0.19056244,-0.39212233,-0.34563223,0.06009307,3.0748582,-0.61710846,1.1845499e-05,-0.10046953,0.028195284,-0.0014328985,-0.050881553,0.0019056717,0.03364907,0.4597909,-1.4147698,1.9451631,-2.10304,-1.566338,2.4303627,-0.16772367,0.107808806,-0.117337786,-0.01405897,0.045131844,-0.20121591,-0.4213795,0.076614454,-9.289502,0.8112748,47.684196,-1.1067082,-2.073335,-3.228664,-0.6530256,0.053715147,-0.30154055,28.5625,29.6875,28.9375,32.9375,35.3125,36.4375
0.22205248,-0.44119763,1.3547456,0.3070281,-0.016145935,0.11588869,-0.21360353,-0.39231935,-0.34556016,0.06008166,3.0748436,-0.6170099,3.3493907e-05,-0.10031126,0.03009507,-0.0037845166,-0.0474889,-0.0016242212,0.030919071,0.4594662,-1.4145405,1.9449257,-2.10304,-1.5663022,2.4299784,-0.1699293,0.110757895,-0.115342446,-0.014310145,0.043667935,-0.20069443,-0.57460845,0.11492168,-9.346964,0.82694155,47.64479,-1.0496488,-1.9803972,-3.4879622,-0.66656893,0.059212226,-0.38627517,28.5625,29.6875,28.9375,32.9375,35.3125,36.4375
0.22405267,-0.5329664,0.7849287,0.029850006,-0.006219537,0.116905384,-0.20106298,-0.3925151,-0.34550828,0.060075663,3.0747378,-0.6168922,0.00011048251,-0.10334401,0.030770382,-0.0017757106,-0.04813732,0.0039394447,0.031179495,0.45911735,-1.4143248,1.9446973,-2.1030648,-1.566171,2.4295695,-0.17251039,0.109712675,-0.11850909,-0.0153121315,0.041798227,-0.20353657,-0.7086837,0.076614454,-9.3661175,0.8627467,47.67345,-1.031527,-2.001604,-3.1954923,-0.67469114,0.08298622,-0.40798044,28.5625,29.6875,28.9375,32.9375,35.3125,36.4375
0.22605282,-0.74348503,0.7264606,0.01355703,-0.006862512,0.11564508,-0.19660076,-0.3927179,-0.34545934,0.06007068,3.0746994,-0.6166077,0.00010193521,-0.10397137,0.030531924,-0.0018096816,-0.046608474,0.0051656105,0.043831844,0.4588059,-1.4140958,1.9444565,-2.103113,-1.5660995,2.4290853,-0.17136009,0.11138458,-0.120341524,-0.015487363,0.03993921,-0.21503894,-0.7661445,0.095768064,-9.404425,0.80456203,47.70659,-1.1751233,-1.9832709,-3.3154743,-0.6846013,0.098990224,-0.31371078,28.5625,29.6875,28.9375,32.9375,35.3125,36.4375
0.22805189,-0.8959748,0.73541355,0.008005208,-0.008915132,0.117986634,-0.19566508,-0.3929013,-0.3453731,0.060037144,3.0746975,-0.6164856,0.00022909464,-0.105339006,0.03069552,-0.0015782716,-0.04502631,0.007290876,0.056051027,0.45844588,-1.4138551,1.9442533,-2.1031005,-1.5660285,2.4286492,-0.1712794,0.113014564,-0.1226848,-0.015885703,0.03761299,-0.22718272,-0.91937345,0.05746084,-9.481039,0.91198283,47.73077,-1.2281073,-1.9522288,-3.2982163,-0.6892655,0.10416013,-0.19379425,28.5625,29.6875,28.9375,32.9375,35.3125,36.4375
0.23005208,-1.1066908,0.84254044,-0.103827044,-0.0038474328,0.1274862,-0.19710132,-0.39310986,-0.3453106,0.060042836,3.0746365,-0.616338,0.00026181832,-0.107159376,0.03027827,-0.00053761725,-0.045809217,0.009890829,0.06052714,0.45809776,-1.4136386,1.9439887,-2.1030886,-1.5659446,2.4282167,-0.17177756,0.11402128,-0.12621178,-0.015986595,0.03719175,-0.23215485,-0.8810662,0.076614454,-9.5385,0.84708,47.667187,-1.2386218,-1.9837483,-3.182332,-0.7102338,0.1356379,-0.098354906,28.5625,29.6875,28.9375,32.9375,35.3125,36.4375
0.23205207,-1.2313263,1.087546,-0.04200755,-0.021722468,0.13437217,-0.20468488,-0.3933352,-0.3452295,0.06003107,3.074589,-0.6162358,0.00024677764,-0.10629815,0.031253405,-0.0021080012,-0.04491217,0.006959154,0.054929975,0.45772538,-1.413398,1.9437498,-2.1031368,-1.5658969,2.4277866,-0.17297076,0.114848,-0.12349013,-0.016506482,0.03769366,-0.22774932,-0.90021986,0.1340753,-9.595961,0.83365434,47.67166,-1.2689486,-1.9599777,-3.3701591,-0.7314894,0.15266588,-0.117415026,28.5625,29.6875,28.9375,32.9375,35.3125,36.4375
0.23405212,-0.65577537,0.36883232,-0.19851044,-0.02106865,0.14789097,-0.20013604,-0.3935561,-0.345164,0.060035605,3.0745127,-0.6160724,0.00018147095,-0.1089025,0.031183071,-0.0005894229,-0.046344236,0.010841506,0.045009222,0.45737675,-1.4131936,1.9435209,-2.1032088,-1.5658368,2.4273458,-0.17475355,0.115198605,-0.12719476,-0.017278837,0.037256483,-0.21960673,-0.7278373,0.17238252,-9.576807,0.84708,47.67614,-1.3589323,-1.9394101,-3.2356753,-0.7414595,0.16684937,-0.23591878,28.5625,29.6875,28.9375,32.9375,35.3125,36.4375
0.23605226,-0.7082304,0.5792638,-0.28119788,-0.032080434,0.12468881,-0.19957931,-0.3937904,-0.34513408,0.06004465,3.0744133,-0.61590225,0.00012542368,-0.10973631,0.031333845,-0.00017752734,-0.044316977,0.013365298,0.037900418,0.45706517,-1.4129293,1.94321,-2.1032689,-1.5657543,2.4269407,-0.17376672,0.11567992,-0.12862453,-0.017699515,0.034322657,-0.21151283,-0.68953013,0.11492168,-9.825804,0.84484416,47.71286,-1.4474993,-1.8974311,-3.2439575,-0.75175655,0.20144466,-0.33530676,28.5625,29.6875,28.9375,32.9375,35.3125,36.4375
0.23805243,-0.3610884,0.39330608,-0.23827896,-0.0331158,0.11216581,-0.20268178,-0.39403108,-0.3450486,0.060061444,3.0743175,-0.6158691,0.00010542764,-0.11125129,0.032514334,-0.0019266355,-0.043133773,0.011128633,0.028634097,0.45665604,-1.4127233,1.9429349,-2.1032693,-1.5656813,2.4265232,-0.1770285,0.12028885,-0.12975073,-0.018653128,0.03424753,-0.20550473,-0.6895301,0.095768064,-9.787497,0.900793,47.691364,-1.3216436,-2.0004802,-3.2864668,-0.7621059,0.24712479,-0.45346367,28.5625,29.6875,28.9375,32.9375,35.3125,36.4375
0.24005254,0.04970615,0.46307254,-0.36171526,-0.032578614,0.08642007,-0.20962067,-0.39423096,-0.34498107,0.06002584,3.0742955,-0.61567193,0.00019733819,-0.11344931,0.0326204,0.00017016217,-0.04668383,0.015218769,0.027613241,0.45630723,-1.4124479,1.9427074,-2.1033056,-1.5655969,2.426054,-0.1799353,0.11798743,-0.13167387,-0.019630857,0.035640314,-0.20738742,-0.5363012,0.17238252,-9.768343,0.8851263,47.684196,-1.192057,-2.0057654,-3.1966164,-0.75582004,0.25653476,-0.516881,28.5625,29.6875,28.9375,32.9375,35.3125,36.4375
0.24205258,0.77660024,0.44498488,-0.4572283,-0.025297469,0.081707895,-0.21404867,-0.3945205,-0.34491083,0.060061507,3.0741773,-0.6156221,-3.0588573e-05,-0.11491131,0.034246556,-0.0017824692,-0.04517353,0.0123326285,0.037004787,0.4559219,-1.4122182,1.9423836,-2.1034014,-1.565585,2.425653,-0.183977,0.12257028,-0.13241416,-0.020133104,0.03565711,-0.22081318,-0.21068975,0.11492168,-9.825804,0.88960326,47.66987,-1.1384071,-2.0892568,-3.2064857,-0.7574494,0.27557546,-0.4398748,28.5625,29.6875,28.9375,32.9375,35.3125,36.4375
0.24405174,0.5932293,0.77182174,-0.29751477,-0.020364013,0.055531416,-0.20910935,-0.39472345,-0.34483546,0.06005858,3.074137,-0.6153573,2.7065418e-05,-0.1160189,0.03404033,-0.0013934952,-0.04703791,0.0135148065,0.051031344,0.45554936,-1.4120139,1.9421552,-2.103402,-1.5654887,2.42512,-0.18526345,0.123085484,-0.13367304,-0.02116246,0.036883004,-0.23612197,-0.1340753,0.095768064,-9.691729,0.8717007,47.66091,-1.0659742,-2.0847526,-3.1968842,-0.7462105,0.28389132,-0.3015894,28.5625,29.6875,28.9375,32.9375,35.3125,36.4375
0.24605185,0.95793706,0.79389113,-0.2969153,-0.020003827,0.051304117,-0.21019761,-0.39496693,-0.3447577,0.060051855,3.0740583,-0.6152413,5.5029323e-06,-0.11734206,0.033901386,-0.0017896227,-0.047860093,0.013657837,0.059788577,0.45515296,-1.4117607,1.941893,-2.1034625,-1.5654167,2.4246614,-0.1865281,0.12575726,-0.13561194,-0.022304077,0.037621114,-0.24613832,-0.05746084,0.15322891,-9.653421,0.81351066,47.709274,-1.12141,-2.1363943,-3.1624198,-0.7561426,0.30309227,-0.18730503,28.5625,29.6875,28.9375,32.9375,35.3125,36.4375
0.24805194,0.4583754,0.012633475,-0.11990707,-0.018070979,0.045361597,-0.19570532,-0.39519262,-0.34469375,0.060036764,3.0740266,-0.61504626,1.5992387e-05,-0.117662705,0.034681227,-0.0022029353,-0.047298357,0.013027909,0.0549242,0.45480436,-1.4114841,1.9416169,-2.1034977,-1.5653566,2.424195,-0.18793806,0.12626421,-0.13528459,-0.022315327,0.037400085,-0.24268337,-0.076614454,0.17238252,-9.519346,0.8717007,47.733456,-1.0268548,-2.157926,-3.2586055,-0.74804157,0.32992363,-0.17302686,28.5625,29.6875,28.9375,32.9375,35.3125,36.4375
0.25005203,0.46685243,0.20991686,-0.06369613,-0.03026625,0.047573525,-0.196122,-0.39543998,-0.3446108,0.060047347,3.0739315,-0.61493677,-3.4931796e-05,-0.11871234,0.035489716,-0.0026935083,-0.04768984,0.011652035,0.044537194,0.4543956,-1.4112675,1.9413542,-2.103545,-1.5652841,2.4237301,-0.19077647,0.12799883,-0.13625218,-0.022029115,0.038359065,-0.23512812,-0.095768064,0.17238252,-9.500193,0.85826975,47.707485,-1.101153,-2.1959157,-3.3544786,-0.74055135,0.3602847,-0.26751715,28.5625,29.6875,28.9375,32.9375,35.3125,36.4375
0.252052,1.1754208,0.3251752,-0.15685292,-0.038439576,0.053404592,-0.21624774,-0.39569592,-0.3445411,0.060052093,3.0738025,-0.61489296,-6.507456e-05,-0.119851395,0.034395922,-0.0017284808,-0.0507482,0.012724664,0.040047247,0.45398745,-1.4110148,1.9410661,-2.103605,-1.5651873,2.4233112,-0.19116792,0.12866403,-0.13923779,-0.022006381,0.040648688,-0.23101833,0.0,0.24899697,-9.500193,0.88289046,47.668976,-1.0978141,-2.1747098,-3.3153567,-0.76536214,0.36240032,-0.34379026,28.5625,29.6875,28.9375,32.9375,35.3125,36.4375
0.254052,0.6041727,-0.37521532,0.07627035,-0.038930897,0.021417145,-0.2108305,-0.39592758,-0.3444438,0.060031407,3.0738075,-0.614761,-1.785142e-05,-0.11962273,0.035726674,-0.004196271,-0.04963214,0.00782808,0.037567575,0.45359054,-1.4107376,1.940791,-2.1035936,-1.5651511,2.4228313,-0.19395256,0.13216071,-0.13764302,-0.022185504,0.04180565,-0.23132098,0.019153614,0.2681506,-9.3661175,0.8672237,47.666286,-0.9385974,-2.1046503,-3.3467197,-0.759909,0.368407,-0.40011102,28.5625,29.6875,28.9375,32.9375,35.3125,36.4375
0.25605214,1.0058813,-0.21322884,0.21711743,-0.04733885,0.012523936,-0.2188678,-0.39618927,-0.34442803,0.06007064,3.0736506,-0.6144358,-0.00018744633,-0.12228194,0.035734773,-0.0009921809,-0.05340353,0.014021313,0.043362014,0.45326614,-1.4105105,1.9404677,-2.1037133,-1.5650429,2.422324,-0.19663307,0.1284071,-0.14049897,-0.022712113,0.042573325,-0.23978443,-0.038307227,0.22984336,-9.404425,0.8873621,47.72719,-1.0307832,-2.0824518,-3.2889943,-0.78140926,0.37385327,-0.35374355,28.5625,29.6875,28.9375,32.9375,35.3125,36.4375
0.25805244,1.4071777,0.31654307,0.3040957,-0.05272012,0.011846805,-0.22763817,-0.39641955,-0.3443388,0.060061004,3.0736105,-0.6142877,-0.00017656808,-0.122052796,0.035729643,-0.0027267097,-0.05283119,0.011485354,0.05615646,0.45286998,-1.4102691,1.9402169,-2.1037376,-1.5649828,2.4218404,-0.19673982,0.1317193,-0.14016578,-0.023725063,0.04324628,-0.25268218,0.114921674,0.2681506,-9.32781,0.7978386,47.67345,-0.9270045,-2.1792176,-3.3724878,-0.7644316,0.40448034,-0.21937682,28.5625,29.6875,28.9375,32.9375,35.3125,36.4375
0.26005247,1.0507606,-0.035539236,0.45373374,-0.03626712,0.016741723,-0.2144598,-0.39669937,-0.34427786,0.06006383,3.073502,-0.61405146,-0.00021154397,-0.12217922,0.03537349,-0.0024946362,-0.055168465,0.011269949,0.062968105,0.45244977,-1.4099691,1.9398812,-2.1038096,-1.5648736,2.4212866,-0.19752663,0.1314093,-0.14028513,-0.024042599,0.045517262,-0.26026946,0.11492168,0.2873042,-9.251195,0.86498255,47.658226,-0.9702467,-2.0744343,-3.4234476,-0.7624011,0.39963663,-0.114919886,28.5625,29.6875,28.9375,32.9375,35.3125,36.4375
0.26205173,0.8525646,0.0014342089,0.65413517,-0.033236098,0.023873622,-0.21070278,-0.39691907,-0.3442276,0.060054433,3.0734298,-0.6138287,-0.00017075351,-0.12293922,0.03486135,-0.002574268,-0.056606293,0.01082757,0.058387354,0.45210144,-1.4097043,1.9396056,-2.1038454,-1.5647653,2.4208083,-0.19811451,0.13323388,-0.14220504,-0.024162505,0.047005,-0.25626877,0.095768064,0.28730422,-9.193734,0.86945957,47.66808,-1.0117701,-2.0726075,-3.3266532,-0.7389227,0.38484102,-0.1281986,28.5625,29.6875,28.9375,32.9375,35.3125,36.4375
0.26405188,0.7866181,0.3675569,0.9107764,-0.027169686,0.03453043,-0.22073361,-0.39716813,-0.3441406,0.060059894,3.0733638,-0.6136485,-0.00022390332,-0.12524727,0.033451345,-0.00027575003,-0.060565177,0.015163888,0.049323596,0.45169342,-1.4094759,1.939341,-2.103894,-1.5647048,2.4202962,-0.19854145,0.13284755,-0.1468659,-0.024767654,0.04865787,-0.2476204,0.0,0.22984336,-9.155427,0.842603,47.664497,-1.0867107,-1.9992547,-3.3200293,-0.7193608,0.39496434,-0.2119601,28.5625,29.6875,28.9375,32.9375,35.3125,36.4375
0.266052,0.41701648,0.27099884,0.7796142,-0.007514011,0.038159844,-0.20805277,-0.39742035,-0.34407684,0.060047258,3.0732558,-0.61347735,-0.00020180721,-0.1255469,0.032765523,-0.00015060756,-0.06280069,0.014837582,0.039528478,0.45128533,-1.4091877,1.9390539,-2.103966,-1.5645837,2.419795,-0.19881792,0.13350044,-0.14783876,-0.025144897,0.050797377,-0.23809071,-0.1340753,0.22984336,-9.021352,0.81351066,47.719128,-1.1471815,-1.9941632,-3.3243523,-0.7204088,0.3878257,-0.32642284,28.5625,29.6875,28.9375,32.9375,35.3125,36.4375
0.26805213,0.70368415,0.88000494,0.569905,-0.010422585,0.048170377,-0.2151472,-0.39766183,-0.34403875,0.060061686,3.0731325,-0.6133016,-0.00018312548,-0.12663196,0.03178922,5.3797554e-05,-0.06473806,0.015253372,0.034218058,0.4509252,-1.4089227,1.9387182,-2.1039774,-1.5644516,2.4193408,-0.19889647,0.13562003,-0.15065336,-0.025656972,0.052361377,-0.23284784,-0.1340753,0.21068975,-9.002198,0.85155696,47.72002,-1.1541028,-1.9043672,-3.2682946,-0.7249095,0.35502207,-0.46775267,28.5625,29.6875,28.9375,32.9375,35.3125,36.4375
0.27005213,0.16917019,0.7020208,0.64256585,-0.012865609,0.034990486,-0.22872959,-0.39791226,-0.3439487,0.060056746,3.0730278,-0.61323845,-0.0001419352,-0.12691535,0.031220771,-0.00095769484,-0.06592773,0.0127668595,0.04051489,0.4504803,-1.4086692,1.9384426,-2.1040013,-1.5643424,2.41887,-0.1994122,0.13895527,-0.1522354,-0.025606353,0.054574173,-0.23964965,-0.15322891,0.19153613,-9.251195,0.8493211,47.70659,-1.1521342,-1.993039,-3.1739097,-0.7192806,0.35817605,-0.4946126,28.5625,29.6875,28.9375,32.9375,35.3125,36.4375
0.2720523,-0.13285053,0.24560298,0.5934161,-0.018420134,0.04597977,-0.22239044,-0.3981751,-0.34388593,0.06005268,3.0729678,-0.6129853,-0.00018212727,-0.12743944,0.030934552,0.0009766897,-0.069344915,0.015213853,0.055854764,0.45009667,-1.40837,1.9381202,-2.1040614,-1.5642699,2.418336,-0.20057501,0.13545594,-0.15271193,-0.025184806,0.056703586,-0.25614157,-0.22984336,0.22984336,-9.11712,0.93436235,47.657326,-1.2086005,-1.9509482,-3.186122,-0.7280818,0.32226047,-0.35548693,28.5625,29.6875,28.9375,32.9375,35.3125,36.4375
0.27405235,-0.243612,0.29286882,0.57512575,-0.030550357,0.05111198,-0.22542593,-0.39842942,-0.34380928,0.060033895,3.0728698,-0.61280626,-0.00014335057,-0.12714002,0.030127494,-0.000286044,-0.070432946,0.0114318095,0.06810838,0.44966507,-1.4080805,1.9378451,-2.1041324,-1.5641488,2.417805,-0.20048547,0.13909094,-0.15429144,-0.024182778,0.059420608,-0.26829237,-0.36391866,0.2873042,-9.155427,0.8537928,47.674347,-1.4606128,-2.1447215,-3.2053847,-0.7211975,0.30522215,-0.2045134,28.5625,29.6875,28.9375,32.9375,35.3125,36.4375
0.27605247,-0.09330116,-0.04296821,0.36023343,-0.04172759,0.07480798,-0.21287611,-0.39867422,-0.34375632,0.060039476,3.0727503,-0.6125924,-0.00010160956,-0.1278684,0.02945467,0.0003962148,-0.07284121,0.011833541,0.06491869,0.44926894,-1.4078162,1.9375333,-2.1041567,-1.5640043,2.4172904,-0.2010688,0.13937598,-0.15626171,-0.023867989,0.061433922,-0.26567385,-0.4213795,0.22984336,-9.32781,0.779936,47.689575,-1.4397993,-1.8878875,-3.1915238,-0.74008,0.27762133,-0.19789195,28.5625,29.6875,28.9375,32.9375,35.3125,36.4375
0.2780517,-0.94006103,-0.17812376,0.22667731,-0.04344569,0.055741318,-0.21670307,-0.39894503,-0.34370956,0.060034618,3.0726514,-0.61234915,-0.00012163453,-0.12827599,0.029185308,0.00012710702,-0.07594925,0.010384395,0.054402567,0.4488842,-1.4074917,1.9371861,-2.1042287,-1.5638951,2.4167664,-0.20297879,0.14022826,-0.15649816,-0.02454527,0.06485744,-0.25704888,-0.38307226,0.28730422,-9.289502,0.8247004,47.692257,-1.3576548,-1.9334733,-3.1848602,-0.7216048,0.21717377,-0.279308,28.5625,29.6875,28.9375,32.9375,35.3125,36.4375
0.28005177,-0.74037147,0.0088032205,-0.010748375,-0.03616459,0.053642098,-0.21489376,-0.39919454,-0.34363058,0.06001434,3.0725427,-0.6121968,-3.54997e-05,-0.13145263,0.030016039,0.0013684855,-0.077451244,0.014027546,0.046277057,0.44843882,-1.4072033,1.9369105,-2.104277,-1.5637511,2.4162397,-0.20687935,0.14073615,-0.15965149,-0.025796663,0.06462738,-0.252821,-0.4213795,0.22984336,-9.289502,0.85826975,47.672558,-1.2502226,-1.8320609,-3.2631025,-0.69892514,0.19350472,-0.37917906,28.5625,29.6875,28.9375,32.9375,35.3125,36.4375
0.28205177,-0.81305987,-0.33729765,-0.06291452,-0.018438153,0.045061797,-0.21134819,-0.39943606,-0.34357473,0.060005836,3.0724442,-0.6119656,4.0430434e-05,-0.131139,0.03206057,-0.0010014075,-0.07569062,0.00954604,0.045711644,0.44804153,-1.4069142,1.9366015,-2.1043007,-1.5636071,2.4157104,-0.21034595,0.14303403,-0.15691562,-0.025947694,0.065032005,-0.25571924,-0.38307226,0.21068975,-9.442732,0.800085,47.686886,-1.2343895,-1.976466,-3.340452,-0.6777354,0.17781389,-0.3880038,28.5625,29.6875,28.9375,32.9375,35.3125,36.4375
0.28405187,-0.4762131,0.23452428,-0.09022212,-0.021430554,0.052868586,-0.22069442,-0.39972776,-0.34352356,0.0600309,3.0722778,-0.6118092,9.016302e-06,-0.13177748,0.03179714,-0.002458787,-0.07619214,0.0065140775,0.056894314,0.44760954,-1.4066247,1.9362186,-2.104337,-1.5634626,2.4152021,-0.21146046,0.14764942,-0.15899085,-0.025825357,0.066909336,-0.26799995,-0.36391866,0.11492168,-9.5385,0.8493211,47.684196,-1.2386556,-2.0000744,-3.329999,-0.677848,0.13633658,-0.3312956,28.5625,29.6875,28.9375,32.9375,35.3125,36.4375
0.28605205,0.22679743,1.2622879,0.04009176,-0.02677953,0.06647267,-0.23360148,-0.39996102,-0.34345254,0.05999658,3.0722234,-0.6114669,9.77505e-05,-0.13349026,0.03231601,-0.000507,-0.07776325,0.010320101,0.068130784,0.4472006,-1.4063249,1.9359668,-2.1044085,-1.5633305,2.414586,-0.21361406,0.14516662,-0.16062903,-0.025654443,0.06677147,-0.28138962,-0.34476504,0.05746084,-9.5385,0.79560274,47.72002,-1.1567553,-2.0419717,-3.3198183,-0.67605394,0.092788726,-0.17372191,28.5625,29.6875,28.9375,32.9375,35.3125,36.4375
0.2880522,0.28979844,1.2780008,-0.1751542,-0.015110127,0.07772766,-0.22730619,-0.40028003,-0.34338877,0.060021397,3.0720727,-0.61124414,3.6690348e-05,-0.13631058,0.033357736,-0.0004324858,-0.07679624,0.012608335,0.06768868,0.44673195,-1.4060116,1.9355596,-2.1044571,-1.5631989,2.4139977,-0.21653727,0.14791085,-0.16374476,-0.026835753,0.06497515,-0.28386727,-0.38307226,0.019153614,-9.634268,0.8224646,47.695843,-1.1151943,-2.146486,-3.3152347,-0.67082024,0.1168437,-0.07696173,28.5625,29.6875,28.9375,32.9375,35.3125,36.4375
0.29005235,-0.5882106,0.72530615,-0.22167435,-4.244743e-05,0.067516826,-0.2052525,-0.40053087,-0.34331465,0.06000254,3.0719657,-0.61111295,7.157681e-05,-0.13631506,0.034233782,-0.0016173074,-0.07563596,0.011415056,0.05902315,0.44631097,-1.405723,1.9352854,-2.1045291,-1.5630792,2.4135084,-0.21759953,0.14924672,-0.16237631,-0.027957464,0.06443617,-0.27626288,-0.49799395,-0.095768064,-9.461885,0.800085,47.703007,-1.0159788,-2.1329298,-3.331339,-0.65254235,0.080098666,-0.14025554,28.5625,29.6875,28.9375,32.9375,35.3125,36.4375
0.29205266,-0.73914814,0.3468474,-0.07415575,0.015487622,0.08011185,-0.20585078,-0.4007765,-0.34324715,0.05998202,3.0719113,-0.6108042,0.00010820108,-0.13758565,0.03546611,-0.001712863,-0.07329651,0.01217605,0.045016773,0.44591463,-1.4054222,1.9349979,-2.1045883,-1.5629724,2.412926,-0.21913707,0.1504476,-0.16369423,-0.027549952,0.061954327,-0.26380068,-0.40222588,-0.15322891,-9.500193,0.9030289,47.67614,-1.0312845,-2.2668133,-3.3060114,-0.64683104,0.10695678,-0.2614581,28.5625,29.6875,28.9375,32.9375,35.3125,36.4375
0.2940517,-0.850057,1.092669,-0.22643681,0.015013653,0.0965356,-0.21548289,-0.4010717,-0.3431716,0.059953533,3.0717804,-0.61074305,0.0001524898,-0.13888486,0.036830727,-0.0018019513,-0.07061832,0.013029093,0.034786597,0.44544673,-1.4050497,1.9346513,-2.1046722,-1.5628413,2.4124367,-0.22069933,0.15162985,-0.16505404,-0.026982412,0.05915384,-0.2551405,-0.45968673,-0.11492168,-9.519346,0.8112748,47.694946,-1.114466,-2.2049358,-3.4105115,-0.6159833,0.12134077,-0.45805305,28.5625,29.6875,28.9375,32.9375,35.3125,36.4375
0.29605213,-1.0244204,1.2477077,-0.34155083,0.029697774,0.08194621,-0.20678134,-0.40136185,-0.34310192,0.059970047,3.071612,-0.6105901,0.00014469118,-0.14028586,0.0375178,-0.0017859846,-0.06886615,0.014534888,0.039001115,0.44497848,-1.4047728,1.9343046,-2.1047199,-1.5626858,2.4118946,-0.22155985,0.15322702,-0.16693567,-0.02718747,0.056998726,-0.2602178,-0.2681506,-0.11492168,-9.615114,0.83813137,47.690468,-1.202097,-2.2947927,-3.357308,-0.60452616,0.1430776,-0.4833048,28.5625,29.6875,28.9375,32.9375,35.3125,36.4375
0.29805234,-0.17136623,1.0354624,-0.11281998,0.028934376,0.10387966,-0.21270488,-0.40163627,-0.34302643,0.059967436,3.0715785,-0.6103437,9.2514216e-05,-0.14054957,0.037476778,-0.0012608982,-0.06719802,0.01643297,0.055267032,0.4445826,-1.4044603,1.933957,-2.104756,-1.5626391,2.411349,-0.22015743,0.15309915,-0.16815215,-0.02667745,0.05479822,-0.27508765,-0.34476504,-0.05746084,-9.5385,0.85826975,47.691364,-1.3666633,-2.179132,-3.3769274,-0.58253825,0.16030031,-0.36830044,28.5625,29.6875,28.9375,32.9375,35.3125,36.4375
0.30005237,-0.6245932,0.83205384,-0.051083338,0.030656027,0.09048719,-0.20843428,-0.40192932,-0.34293866,0.059970118,3.0714672,-0.61016107,9.593144e-05,-0.14077944,0.03757052,-0.0017477149,-0.06476114,0.016481617,0.068424106,0.44410333,-1.4041593,1.9336108,-2.1047919,-1.5625194,2.41077,-0.2190067,0.15514904,-0.16960272,-0.02610937,0.05268996,-0.2870994,-0.38307226,-0.095768064,-9.461885,0.9365982,47.683304,-1.5076351,-2.4406486,-3.323208,-0.58016074,0.18542525,-0.22750866,28.5625,29.6875,28.9375,32.9375,35.3125,36.4375
0.30205238,-0.15181,1.4022006,-0.09313979,0.010874046,0.09380966,-0.21342233,-0.40220487,-0.34285766,0.0599719,3.071375,-0.60989475,7.167596e-05,-0.14177167,0.03879277,-0.0028671196,-0.061938204,0.014964189,0.06542231,0.443659,-1.4038818,1.9332994,-2.1048515,-1.5624121,2.410171,-0.22066166,0.15844902,-0.17113015,-0.02525008,0.050827857,-0.28575563,-0.24899697,-0.019153614,-9.519346,0.86945957,47.65912,-1.5141507,-2.293221,-3.3749967,-0.57098925,0.21883087,-0.2008233,28.5625,29.6875,28.9375,32.9375,35.3125,36.4375
0.30405247,0.10679768,0.58226943,-0.16633333,0.001240144,0.089055955,-0.21066818,-0.40248573,-0.34280115,0.05997374,3.0712543,-0.6097035,8.4935185e-05,-0.14336732,0.040095743,-0.0020847358,-0.061556544,0.016817322,0.054541856,0.44323805,-1.4035578,1.9329284,-2.1048872,-1.56228,2.409646,-0.2234122,0.1577294,-0.1721794,-0.024996687,0.049676884,-0.27762678,-0.21068975,0.019153614,-9.481039,0.8314132,47.67614,-1.4054618,-2.3266578,-3.4986796,-0.56632435,0.26705554,-0.3046653,28.5625,29.6875,28.9375,32.9375,35.3125,36.4375
0.30605263,0.25629628,0.16903323,-0.011539169,-0.018950304,0.06720509,-0.21220893,-0.4027765,-0.34268984,0.059944257,3.0712433,-0.60955155,5.551148e-05,-0.14519592,0.041024245,-0.0018539606,-0.06129032,0.017830333,0.047439247,0.4427812,-1.4032094,1.9326051,-2.1049473,-1.5622567,2.4090958,-0.22599635,0.15899657,-0.1742211,-0.025030093,0.048998427,-0.2731087,-0.38307226,0.095768064,-9.442732,0.8537928,47.72092,-1.3795538,-2.2793515,-3.3574252,-0.5393525,0.2829374,-0.41322067,28.5625,29.6875,28.9375,32.9375,35.3125,36.4375
0.30805168,0.78257424,0.29104972,-0.0348468,-0.03922662,0.06040889,-0.22644638,-0.40307924,-0.34261286,0.05996561,3.0711517,-0.6092613,-3.7431546e-05,-0.14664549,0.041641306,-0.0011355574,-0.06227605,0.018947648,0.050114695,0.44233662,-1.4029208,1.9322332,-2.1049945,-1.5621723,2.4084816,-0.22844274,0.15892905,-0.17590037,-0.024628907,0.04949509,-0.27822185,-0.19153613,0.24899697,-9.461885,0.9254084,47.71017,-1.3426238,-2.288297,-3.238778,-0.53192854,0.3271248,-0.4128194,28.5625,29.6875,28.9375,32.9375,35.3125,36.4375
0.310052,0.28439653,-0.44108158,-0.47657657,-0.030131254,0.026142865,-0.20757738,-0.40338182,-0.34253648,0.059959657,3.0710099,-0.609168,2.590259e-06,-0.14818339,0.042702157,-0.0006555279,-0.062634625,0.019560264,0.060710646,0.4418557,-1.4025726,1.9318517,-2.1050308,-1.5620283,2.4079607,-0.23154196,0.1591953,-0.17753927,-0.02378233,0.049683467,-0.2919134,-0.11492168,0.28730422,-9.500193,0.83589023,47.698532,-1.275461,-2.1502442,-3.4609861,-0.5412906,0.3351613,-0.31284577,28.5625,29.6875,28.9375,32.9375,35.3125,36.4375
0.31205225,0.21866947,-0.8855338,-0.5830411,-0.037091777,0.02190777,-0.20894209,-0.40367883,-0.34244516,0.05994479,3.070959,-0.6089436,-1.0775579e-05,-0.1488757,0.042903133,0.00017308576,-0.06449921,0.019848483,0.069210514,0.44139886,-1.4022245,1.9314927,-2.105078,-1.5619558,2.40737,-0.23335494,0.15832402,-0.17870237,-0.022678006,0.05134998,-0.3022158,0.019153614,0.3256114,-9.576807,0.9186956,47.687782,-1.1699264,-2.1384912,-3.3795962,-0.5387914,0.36128706,-0.17966549,28.5625,29.6875,28.9375,32.9375,35.3125,36.4375
0.3140524,0.06924725,-0.90855014,-0.45685518,-0.04762186,0.024102906,-0.1986166,-0.4040004,-0.3423758,0.059982333,3.070793,-0.6086645,-0.00015836034,-0.14996094,0.04354637,-0.00061874784,-0.06640595,0.017239397,0.06251069,0.44092974,-1.4019593,1.9311222,-2.1051733,-1.5618347,2.406748,-0.23704118,0.16076116,-0.17979744,-0.022451453,0.054247696,-0.2991766,-0.095768064,0.34476504,-9.442732,0.842603,47.66987,-1.115381,-2.2477484,-3.435022,-0.5301294,0.3466599,-0.15325034,28.5625,29.6875,28.9375,32.9375,35.3125,36.4375
0.3160517,0.53901654,-0.66355276,-0.49429402,-0.03481138,0.040169634,-0.20744583,-0.40428317,-0.3422875,0.05996042,3.0707147,-0.60848397,-8.427567e-05,-0.15221956,0.04400662,0.0004058995,-0.06899758,0.018221885,0.048817914,0.4404604,-1.4016111,1.9307736,-2.1051972,-1.561714,2.4061759,-0.24075775,0.16127768,-0.18288529,-0.021909058,0.056128632,-0.28918773,-0.32561144,0.28730422,-9.615114,0.90750587,47.705692,-0.9687327,-2.074068,-3.3803,-0.5392039,0.3401966,-0.2826843,28.5625,29.6875,28.9375,32.9375,35.3125,36.4375
0.3180518,0.153758,-0.28399464,-0.4591736,-0.025359847,0.054812778,-0.19341908,-0.40460384,-0.34219065,0.05997403,3.0705621,-0.6083235,-0.00015863225,-0.15260613,0.04332771,0.00051748403,-0.06892456,0.018151088,0.039041113,0.4399449,-1.4013221,1.930427,-2.1052806,-1.5615939,2.4055798,-0.23964974,0.16297346,-0.18533136,-0.021099115,0.05607934,-0.27829403,-0.3256114,0.24899697,-9.615114,0.8717007,47.698532,-0.94193673,-2.1698291,-3.3278446,-0.5377249,0.381753,-0.42113692,28.5625,29.6875,28.9375,32.9375,35.3125,36.4375
0.32005185,-0.27009857,0.7561686,-0.33432,-0.025437579,0.061826937,-0.22629088,-0.40487164,-0.3421139,0.059941884,3.070495,-0.60815454,-2.5609004e-05,-0.15201421,0.041824527,0.0007562356,-0.07113462,0.017228227,0.0416068,0.43950155,-1.4009497,1.9300679,-2.1052802,-1.5614613,2.4050393,-0.23785812,0.16347617,-0.1866798,-0.020299075,0.058492463,-0.27905586,-0.40222588,0.21068975,-9.557653,0.8717007,47.705692,-1.093394,-2.09938,-3.3538888,-0.5477461,0.3505178,-0.5138666,28.5625,29.6875,28.9375,32.9375,35.3125,36.4375
0.32205194,-0.20465267,0.40259153,-0.23384808,-0.0059875646,0.086888574,-0.20579225,-0.40517387,-0.34204847,0.05994134,3.070354,-0.60796106,9.026057e-06,-0.15140884,0.04007391,0.0010620387,-0.07470279,0.016474882,0.060227234,0.4390341,-1.4006014,1.9296736,-2.1053164,-1.561304,2.404469,-0.23641959,0.16367601,-0.18766472,-0.020130832,0.062203165,-0.29621416,-0.3256114,0.21068975,-9.519346,0.8940802,47.705692,-1.3370433,-1.9741056,-3.2957845,-0.53517425,0.33385777,-0.4034043,28.5625,29.6875,28.9375,32.9375,35.3125,36.4375
0.32405224,-1.1073023,0.36985323,-0.2888318,0.0042973347,0.07910017,-0.19590692,-0.40550277,-0.34194386,0.059935246,3.0702875,-0.60774684,-3.5635967e-05,-0.15229826,0.040404055,0.0011684297,-0.07490311,0.016594337,0.07427586,0.4385297,-1.4002405,1.9292792,-2.105364,-1.561232,2.4038393,-0.23771943,0.16468035,-0.18925971,-0.01953742,0.062486105,-0.31155682,-0.15322891,0.15322891,-9.5385,0.93436235,47.660015,-1.3551412,-2.0484638,-3.3535762,-0.54862106,0.33041096,-0.23658118,28.5625,29.6875,28.9375,32.9375,35.3125,36.4375
0.32605186,-0.15858135,0.747146,-0.2853406,-0.0021484625,0.0921439,-0.19805832,-0.40581003,-0.3418597,0.05993488,3.0701847,-0.60751885,-3.508545e-05,-0.15295899,0.041471545,3.818804e-05,-0.07348791,0.014336591,0.06983291,0.43804938,-1.3999028,1.9288963,-2.1053998,-1.5611118,2.4032297,-0.2397733,0.16742608,-0.19012156,-0.018731337,0.062192895,-0.30916414,-0.22984336,0.11492168,-9.500193,0.83813137,47.705692,-1.440726,-2.2499208,-3.3524354,-0.543145,0.33810648,-0.1969047,28.5625,29.6875,28.9375,32.9375,35.3125,36.4375
0.32805213,-0.41513985,0.3736044,-0.23392172,-0.00075791933,0.055597268,-0.19041015,-0.40611792,-0.3417979,0.05994521,3.0700366,-0.60726464,-7.384479e-05,-0.1540699,0.041166607,-0.00030874048,-0.075384736,0.013162454,0.061146054,0.4375927,-1.399578,1.9285125,-2.1054714,-1.5609668,2.4026332,-0.24136658,0.17007865,-0.19242425,-0.01882598,0.06441267,-0.30204856,-0.22984336,0.05746084,-9.423578,0.91421866,47.716442,-1.4273121,-2.1776285,-3.1939225,-0.53155756,0.33048928,-0.30127156,28.5625,29.6875,28.9375,32.9375,35.3125,36.4375
0.33005235,0.6176552,0.6859015,-0.16575396,-0.007888247,0.03677273,-0.20024778,-0.40643468,-0.3417111,0.059950575,3.0699298,-0.60701567,-9.086718e-05,-0.15503079,0.04019464,0.00085981213,-0.07839514,0.014970977,0.056793127,0.43710062,-1.3992422,1.9281186,-2.1055076,-1.5608467,2.4019992,-0.24149458,0.16977012,-0.1946693,-0.019166745,0.06638789,-0.29780543,-0.17238252,0.21068975,-9.3661175,0.8023209,47.677036,-1.3952713,-2.1708326,-3.2044811,-0.5176325,0.30570504,-0.3894289,28.5625,29.6875,28.9375,32.9375,35.3125,36.4375
0.33205247,0.9493725,0.44378325,-0.17674437,-0.0034405713,0.020991875,-0.21084216,-0.40674073,-0.34164965,0.059957247,3.069772,-0.606787,-7.709344e-05,-0.15540811,0.039988484,0.00046993908,-0.07951307,0.013963204,0.06341866,0.43663177,-1.398905,1.9277233,-2.1055553,-1.5606779,2.4014077,-0.24221957,0.171388,-0.19569975,-0.019165166,0.06793231,-0.30514047,-0.11492168,0.11492168,-9.270349,0.8851263,47.69763,-1.2532446,-2.1053,-3.3008003,-0.51337063,0.28958303,-0.35783207,28.5625,29.6875,28.9375,32.9375,35.3125,36.4375
0.33405247,0.64470243,-0.08950102,-0.54496413,0.0039087487,0.006866384,-0.20325387,-0.40705508,-0.34152105,0.059943814,3.0697155,-0.60661477,-5.140308e-05,-0.15632112,0.04104153,-0.000118012555,-0.08141359,0.01162517,0.074932195,0.43609113,-1.3985682,1.9273647,-2.1055672,-1.560593,2.4007666,-0.24643518,0.17268433,-0.19603503,-0.018599931,0.07079473,-0.32085168,0.038307227,0.17238252,-9.500193,0.82694155,47.693153,-1.2872014,-2.2601218,-3.3740983,-0.5113196,0.27481848,-0.2216087,28.5625,29.6875,28.9375,32.9375,35.3125,36.4375
0.3360526,0.5351483,-0.70748556,-0.32724082,-0.016821483,0.0238531,-0.1939011,-0.4073562,-0.34143466,0.059923485,3.0696251,-0.6063663,3.1410884e-05,-0.15692876,0.041818675,-0.0010501,-0.08204356,0.0088006845,0.07765928,0.4355982,-1.3981946,1.9269823,-2.105591,-1.560448,2.4001298,-0.24926786,0.17496923,-0.19684042,-0.017653773,0.07263188,-0.32639867,-0.076614454,0.21068975,-9.519346,0.8314132,47.66808,-1.2035849,-2.3350954,-3.2702484,-0.5395497,0.21424344,-0.11323185,28.5625,29.6875,28.9375,32.9375,35.3125,36.4375
0.33805174,0.39111546,-0.20205012,0.022600427,-0.051106066,0.04468159,-0.19866472,-0.40769473,-0.34135595,0.059941534,3.0694547,-0.60614634,-1.12549005e-05,-0.15806147,0.042343702,-0.0019378036,-0.0842653,0.005241663,0.064746715,0.43508092,-1.3978578,1.9265636,-2.1056497,-1.5602912,2.399497,-0.25312158,0.17808998,-0.19871816,-0.016624961,0.076143876,-0.3173071,-0.22984336,0.24899697,-9.346964,0.8717007,47.709274,-1.04146,-2.2945144,-3.3108406,-0.5448293,0.19479223,-0.15900263,28.5625,29.6875,28.9375,32.9375,35.3125,36.4375
0.3400517,-0.13595675,-0.5015193,-0.22325602,-0.036655948,0.04356656,-0.18585101,-0.4079871,-0.34127352,0.05992487,3.0693357,-0.6059019,7.586623e-05,-0.15944496,0.04257918,-0.0007092299,-0.08763765,0.005943426,0.04864996,0.434588,-1.3975097,1.9262055,-2.105686,-1.5601224,2.3988664,-0.25617528,0.17700273,-0.20042264,-0.015947018,0.07883988,-0.30424306,-0.2681506,0.2681506,-9.3661175,0.8873621,47.695843,-0.8939762,-2.1945462,-3.3370214,-0.55669516,0.14236285,-0.3139667,28.5625,29.6875,28.9375,32.9375,35.3125,36.4375
0.34205195,0.41669294,0.025497781,-0.12288736,-0.037622996,0.06005561,-0.20373477,-0.40833905,-0.34118107,0.059933048,3.0691597,-0.60581124,7.546935e-05,-0.1596064,0.04172367,-0.0005205366,-0.08831954,0.005749522,0.043279782,0.4340363,-1.3971372,1.925762,-2.1057217,-1.5599655,2.3982809,-0.25500667,0.1782444,-0.20251931,-0.015185127,0.07954223,-0.29769078,-0.17238252,0.19153613,-9.423578,0.89631605,47.67166,-1.0130818,-2.2575564,-3.2925525,-0.55725694,0.091023065,-0.47946793,28.5625,29.6875,28.9375,32.9375,35.3125,36.4375
0.34405217,0.30717063,0.08652897,-0.046616886,-0.020922238,0.051808953,-0.20620033,-0.40863562,-0.34109947,0.059921242,3.0690567,-0.60555047,0.0001260081,-0.15969718,0.03991175,-1.730697e-05,-0.09127537,0.0065468913,0.05676012,0.4335573,-1.3967884,1.9253916,-2.1057575,-1.5598205,2.397652,-0.25324416,0.17903543,-0.20447253,-0.015789662,0.0820124,-0.30938905,-0.076614454,0.24899697,-9.404425,0.9097417,47.675243,-1.1341602,-2.2635393,-3.3500097,-0.5755887,0.05768799,-0.45081884,28.5625,29.6875,28.9375,32.9375,35.3125,36.4375
0.34605238,0.48675862,0.37008443,0.12885693,-0.02098985,0.063539,-0.20713821,-0.40893617,-0.34103656,0.059919897,3.0688834,-0.6053142,0.00022181736,-0.16185725,0.04107112,0.0005604497,-0.08941311,0.009843506,0.0721826,0.4330647,-1.3964398,1.9249953,-2.1057818,-1.5596064,2.3970337,-0.2550199,0.17991802,-0.2067646,-0.016283771,0.07911156,-0.32660148,-0.095768064,0.2681506,-9.212888,0.88960326,47.66539,-1.1677406,-2.1817875,-3.3243508,-0.5691389,0.035015598,-0.29275644,28.5625,29.6875,28.9375,32.9375,35.3125,36.4375
0.34805247,0.14969634,0.40284625,-0.22723022,0.003630405,0.05738433,-0.2024061,-0.40926808,-0.34094745,0.059913162,3.0688007,-0.6050509,0.0002451038,-0.16367997,0.041505426,0.001824788,-0.088785976,0.013732075,0.07226617,0.43256044,-1.3960434,1.9245518,-2.1057942,-1.5594872,2.3963754,-0.25569516,0.17955235,-0.20919299,-0.016662652,0.07695464,-0.3273694,-0.19153613,0.21068975,-9.346964,0.8940802,47.682407,-1.2487365,-2.2010188,-3.246379,-0.5563524,0.063109435,-0.19152217,28.5625,29.6875,28.9375,32.9375,35.3125,36.4375
0.35005245,-0.45446157,0.07100642,-0.012320936,-0.0029914188,0.07371412,-0.19297409,-0.40960175,-0.34087825,0.05994558,3.068589,-0.6048583,0.0002193349,-0.16389248,0.041837905,0.001482532,-0.08714151,0.013483534,0.065522105,0.4320444,-1.3957303,1.9241227,-2.1058295,-1.559295,2.3957663,-0.25535932,0.18080674,-0.21005529,-0.016114242,0.07558253,-0.32028702,-0.34476504,0.22984336,-9.385271,0.9030289,47.698532,-1.2893977,-2.2632647,-3.227326,-0.5644997,0.04724701,-0.30169111,28.5625,29.6875,28.9375,32.9375,35.375,36.375
0.35205293,-0.46103913,0.6387863,0.2641706,-0.018408759,0.097491674,-0.20472495,-0.4099311,-0.34078848,0.059919115,3.0684967,-0.6045921,0.00027878225,-0.1658017,0.04343802,0.0022130217,-0.08235563,0.017346174,0.061947495,0.43152818,-1.3953102,1.9237045,-2.1058776,-1.5591539,2.3950953,-0.25576368,0.18127549,-0.21249455,-0.015581435,0.069629855,-0.31715256,-0.49799395,0.22984336,-9.289502,0.8851263,47.689575,-1.4555931,-2.0998654,-3.314147,-0.5735483,0.081983395,-0.36776778,28.5625,29.6875,28.9375,32.9375,35.375,36.375
0.35405314,-0.5781441,0.6932152,-0.23953003,0.0029356426,0.10016592,-0.21734361,-0.4102645,-0.3407078,0.059928272,3.068358,-0.60436743,0.0002635333,-0.16787924,0.0445232,0.0032719227,-0.08097421,0.020722376,0.0674546,0.4310237,-1.3949499,1.9232725,-2.105913,-1.5590104,2.3944683,-0.2575338,0.18125014,-0.21498285,-0.015383704,0.067078225,-0.32444033,-0.2681506,0.19153613,-9.385271,0.92093146,47.675243,-1.3908137,-1.9158838,-3.1749063,-0.5776489,0.10530241,-0.37538272,28.5625,29.6875,28.9375,32.9375,35.375,36.375
0.3560526,-0.4065182,0.92140853,-0.19981688,0.010119862,0.10420901,-0.20449513,-0.4106086,-0.34060085,0.059935108,3.0682695,-0.6041301,0.00021956608,-0.16960438,0.046196178,0.0032670354,-0.07855705,0.022118486,0.08071382,0.43049523,-1.3945892,1.9228419,-2.1059368,-1.5589155,2.393803,-0.26001862,0.18246974,-0.21655285,-0.015032936,0.06448547,-0.34019756,-0.26815057,0.11492168,-9.481039,0.84708,47.686886,-1.33204,-1.9901706,-3.0450244,-0.5763692,0.15728799,-0.21689093,28.5625,29.6875,28.9375,32.9375,35.375,36.375
0.35805246,-0.5231755,1.0277889,-0.1772625,0.006283981,0.09178452,-0.21844935,-0.41093725,-0.34049943,0.05991954,3.0681868,-0.60382545,0.00025633126,-0.17054398,0.047858827,0.0013706245,-0.07490315,0.020200133,0.083825886,0.42996642,-1.3942037,1.9224361,-2.1059725,-1.5587839,2.393094,-0.26195058,0.18665166,-0.21718965,-0.015164142,0.062051196,-0.34525535,-0.28730422,0.19153613,-9.519346,0.8873621,47.70211,-1.2116754,-1.8965251,-3.176797,-0.58995813,0.1870317,-0.10129052,28.5625,29.6875,28.9375,32.9375,35.375,36.375
0.36005256,0.09242525,0.8308075,-0.26327717,0.0036929604,0.090093836,-0.21167022,-0.4112867,-0.34039873,0.05992055,3.0680885,-0.6035846,0.00022229097,-0.17172807,0.050021354,0.0015092446,-0.07279949,0.021584144,0.06986248,0.42943773,-1.3938193,1.9219941,-2.1060092,-1.5586766,2.3924274,-0.26489013,0.18580242,-0.21653605,-0.015405064,0.059528492,-0.3342435,-0.51714754,0.095768064,-9.481039,0.90750587,47.694946,-1.2124997,-1.9436746,-3.3064184,-0.58737344,0.24149996,-0.1861105,28.5625,29.6875,28.9375,32.9375,35.375,36.375
0.36205256,-0.6364071,0.23220381,-0.41266635,-0.0048793713,0.07644601,-0.20168562,-0.41159248,-0.34028915,0.059906878,3.0680218,-0.6033873,0.00030558344,-0.1723543,0.05025004,0.0011098101,-0.07182262,0.021694005,0.055543642,0.42892185,-1.3934586,1.9215988,-2.1059854,-1.5585574,2.3917966,-0.26493663,0.18751758,-0.21759939,-0.015850237,0.058499224,-0.31997612,-0.59376204,0.11492168,-9.423578,0.91198283,47.64658,-1.2777029,-2.0170932,-3.3993335,-0.5881749,0.2801302,-0.3666035,28.5625,29.6875,28.9375,32.9375,35.375,36.375
0.36405188,-0.25419825,0.17230104,-0.107413925,-0.017888388,0.10107219,-0.21474946,-0.41196784,-0.34020436,0.05993235,3.067851,-0.603218,0.00018191799,-0.17270817,0.051870923,-0.00043080974,-0.070341095,0.018597027,0.05030752,0.42839307,-1.3930852,1.921122,-2.1060565,-1.5584372,2.3911843,-0.2678195,0.18991695,-0.21710205,-0.015274758,0.058502,-0.31761342,-0.51714754,0.0,-9.576807,0.9858343,47.668976,-1.2685981,-2.0835023,-3.5433056,-0.59597075,0.2901091,-0.47419387,28.5625,29.6875,28.9375,32.9375,35.375,36.375
0.3660522,0.020031823,0.93525046,-0.32462376,-0.015489671,0.09060186,-0.22342801,-0.412298,-0.34008908,0.05990631,3.06777,-0.6030411,0.00027808122,-0.17337242,0.05257454,-0.0016222876,-0.07037688,0.016280662,0.06509194,0.4278399,-1.3926759,1.9207033,-2.1060565,-1.5583047,2.3905308,-0.27009287,0.19287105,-0.21798591,-0.014971837,0.059670396,-0.3346641,-0.22984336,-0.076614454,-9.691729,0.8090337,47.681515,-1.1278116,-2.292746,-3.5585876,-0.61220354,0.32459074,-0.37937677,28.5625,29.6875,28.9375,32.9375,35.375,36.375
0.3680523,-0.05805934,1.038215,-0.13616751,-0.011359662,0.08187468,-0.22255664,-0.41267782,-0.339998,0.05994764,3.0676332,-0.60275584,0.00011290344,-0.17393583,0.051527727,-0.0014858278,-0.07156866,0.01686737,0.07825523,0.42731255,-1.3923268,1.9202131,-2.1061041,-1.5582083,2.389843,-0.2690917,0.19469239,-0.22042312,-0.015173171,0.0606999,-0.3468085,-0.24899697,-0.019153614,-9.730036,0.86498255,47.72002,-1.1287274,-2.1747518,-3.616193,-0.62181926,0.33902913,-0.24618357,28.5625,29.6875,28.9375,32.9375,35.375,36.375
0.37005243,0.18935393,1.0740215,-0.11076569,-0.010762287,0.06750363,-0.21972586,-0.41301024,-0.33987466,0.059913006,3.0675406,-0.60250944,0.00018705067,-0.17503631,0.050693505,-0.0010905977,-0.07433977,0.018077949,0.075386114,0.42673656,-1.3919301,1.9198426,-2.1061647,-1.5580634,2.3891246,-0.26954246,0.19582826,-0.22237313,-0.016562147,0.06273,-0.34437236,-0.36391866,0.11492168,-9.653421,0.8537928,47.687782,-1.2977384,-2.2818108,-3.5118935,-0.593629,0.36747777,-0.2307018,28.5625,29.6875,28.9375,32.9375,35.375,36.375
0.37205252,0.027453111,0.6592739,-0.010279962,-0.015249288,0.06054766,-0.20842616,-0.4133513,-0.33978266,0.05992248,3.0674467,-0.6022452,0.00015252213,-0.17575578,0.050002586,-0.001106251,-0.07544679,0.01814773,0.06861479,0.4262326,-1.3915566,1.9193877,-2.1061776,-1.5579556,2.3884676,-0.26927266,0.19774859,-0.22457676,-0.016825717,0.0636965,-0.33731684,-0.47884035,0.11492168,-9.634268,0.9365982,47.698532,-1.3399634,-2.248107,-3.4817803,-0.6180108,0.37993747,-0.3296994,28.5625,29.6875,28.9375,32.9375,35.375,36.375
