Tylouw/Master_Thesis_Code/training_data/batch_1/small_rod_t0.3/sample_38_session_2.csv
timestamp[s],tcp_force_x[N],tcp_force_y[N],tcp_force_z[N],tcp_force_rx[Nm?],tcp_force_ry[Nm?],tcp_force_rz[Nm?],tcp_pose_x[m],tcp_pose_y[m],tcp_pose_z[m],tcp_pose_rx[rot_vec_x],tcp_pose_ry[rot_vec_y],tcp_pose_rz[rot_vec_z],tcp_velo_x[m/s],tcp_velo_y[m/s],tcp_velo_z[m/s],tcp_velo_rx[rot_vec_x/s],tcp_velo_ry[rot_vec_y/s],tcp_velo_rz[rot_vec_z/s],q1[rad],q2[rad],q3[rad],q4[rad],q5[rad],q6[rad],qd1[rad/s],qd2[rad/s],qd3[rad/s],qd4[rad/s],qd5[rad/s],qd6[rad/s],tool_acc_x,tool_acc_y,tool_acc_z,current_of_whole_robot[A],voltage_of_whole_robot[V],current_J1[A],current_J2[A],current_J3[A],current_J4[A],current_J5[A],current_J6[A],temp_J1[C],temp_J2[C],temp_J3[C],temp_J4[C],temp_J5[C],temp_J6[C]
1.0279764e-06,-0.21656185,-0.689784,0.18724601,-0.030252349,0.025187545,-0.024643464,-0.38105226,-0.3485155,0.059960768,-3.0785031,0.6248362,-0.00016594495,0.0021019024,0.0011343791,-0.0019780605,0.002124142,-0.004080502,5.541306e-06,0.47779807,-1.425946,1.9577512,-2.100845,-1.5707816,2.4527283,-6.9507834e-05,-2.3990846e-05,0.0045248084,9.9437886e-05,-0.0,-7.736103e-05,0.05746084,0.21068975,-8.90643,0.81351066,47.693153,0.056979,-2.728497,-2.5589414,-0.44230962,0.11281499,0.153076,28.5,29.5625,28.875,32.875,35.25,36.3125
0.002055243,-0.3515303,-0.66246927,0.21670792,-0.030776776,0.024718594,-0.02418113,-0.38105756,-0.34853396,0.059976637,-3.0785491,0.6248263,-0.00014297267,-0.0007297674,-0.00034257135,-0.003040913,-0.001085977,0.0020623733,7.169914e-06,0.4778101,-1.4259564,1.9577278,-2.1008499,-1.5707573,2.4527283,-6.8450485e-05,0.0043043247,0.00460054,-0.011235662,-0.0,-7.500516e-05,-0.019153614,0.21068975,-8.7532015,0.65908957,47.711964,0.050165802,-2.8149958,-2.488098,-0.39742535,0.0955909,0.15803881,28.5,29.5625,28.875,32.875,35.25,36.3125
0.004054373,0.008560152,-0.43800798,0.2041035,-0.03502509,0.03167882,-0.022892356,-0.38104695,-0.34851518,0.05995254,-3.0785072,0.6247795,-0.00015031833,-0.0017826986,-0.00089180603,-0.0025902325,-0.0023898277,0.004564621,-8.538044e-05,0.4778101,-1.4259443,1.9577745,-2.1008732,-1.5707935,2.4527044,-6.742488e-05,0.0046825833,0.0036520988,-0.013487035,-0.0,1.9562493e-05,0.076614454,0.19153613,-8.695741,0.7351769,47.698532,0.016369764,-3.180838,-2.7306285,-0.2858998,0.10236033,0.16493294,28.5,29.5625,28.875,32.875,35.25,36.3125
0.006054859,0.10635161,-0.38978627,0.035496756,-0.013025327,0.013308766,-0.020584444,-0.3810584,-0.3485124,0.05994462,-3.0785,0.62475806,-0.000113024165,-0.0011783998,-0.0005767542,-0.0011095861,-0.0019445174,0.0037241317,-0.00011406079,0.4778101,-1.4259213,1.957774,-2.100907,-1.5708174,2.452692,-6.642965e-05,0.0018367354,0.0023517543,-0.008389698,-0.0,4.8418835e-05,0.076614454,0.17238252,-8.6574335,0.7642693,47.716442,0.045788966,-3.0901723,-2.581337,-0.31922916,0.110755414,0.15968844,28.5,29.5625,28.875,32.875,35.25,36.3125
0.008054122,0.31878832,0.17373326,-0.30390576,0.021177163,-0.012931572,-0.023147633,-0.38106972,-0.34852228,0.0599576,-3.0785434,0.6248444,-0.000116211646,-0.00063443644,-0.00029347377,-9.1231785e-05,-0.0012623516,0.0024237242,-0.00011423366,0.47778615,-1.425934,1.9577612,-2.1009176,-1.5707697,2.4527164,-6.546321e-05,3.679881e-05,0.0010317214,-0.0038012704,-0.0,4.9018032e-05,0.0,0.21068975,-8.829816,0.71279734,47.703903,0.06255097,-2.9354925,-2.5885324,-0.3721602,0.10087894,0.16146019,28.5,29.5625,28.875,32.875,35.25,36.3125
0.010054151,0.6866238,0.6164232,-0.71081555,0.016228335,-0.0075272988,-0.036394604,-0.38107556,-0.34853446,0.059948437,-3.0785563,0.62476957,-9.066644e-05,-0.00046198294,-0.0002042737,6.060878e-05,-0.00079870666,0.0015336599,-0.00011211828,0.4778101,-1.4258981,1.9577492,-2.1009529,-1.5707816,2.452692,-6.452466e-05,4.9370306e-07,0.00032967635,-0.002059336,-0.0,4.7840436e-05,0.076614454,0.17238252,-9.059659,0.79560274,47.684196,-0.2513039,-2.3823733,-3.0569162,-0.36111355,0.07836524,0.043537565,28.5,29.5625,28.875,32.875,35.25,36.3125
0.012054258,0.40905723,0.19262533,-0.75136,-0.019954624,0.0043060146,-0.031557906,-0.3810395,-0.34853327,0.059931826,-3.0785213,0.6247825,-0.00027266215,0.00027376894,0.00024978348,-0.003393606,0.0027447261,-0.005305617,-0.00019837864,0.47781008,-1.4258839,1.9577492,-2.100857,-1.5707334,2.4527044,-0.00019506848,0.007008489,4.423029e-06,-0.0010393817,-0.0,4.6312684e-06,0.21068975,0.076614454,-9.270349,0.80456203,47.69763,-0.51689386,-2.4199257,-3.2361927,-0.37374866,0.07249049,0.041869193,28.5,29.5625,28.875,32.875,35.25,36.3125
0.014054282,-0.3609841,-0.8908698,-0.96446705,-0.04332141,0.01981772,-0.02779355,-0.3810378,-0.3485085,0.05991398,-3.0784585,0.6248465,-0.00030804795,-0.0051360335,0.002016868,-0.003788823,0.0032538322,-0.0063239587,-0.0016929873,0.47778314,-1.425869,1.9577702,-2.1008446,-1.5707573,2.4527254,-0.008351349,0.014522621,-0.008033985,0.00062222674,-0.0,-0.0066521163,0.019153614,0.11492168,-9.404425,0.6859408,47.705692,-0.41258293,-2.9938293,-3.0655277,-0.36616644,0.06538184,-0.0005944831,28.5,29.5625,28.875,32.875,35.25,36.3125
0.01605433,-0.6978608,-1.4914569,-1.2719624,-0.06151935,0.05398277,-0.036070358,-0.3810489,-0.3485069,0.05990081,-3.0784476,0.62482446,-0.00033778002,-0.006053404,0.0035418547,-0.0030053647,0.0033366894,-0.0064800126,0.0004675904,0.47776997,-1.4258218,1.9577464,-2.1008437,-1.5707573,2.4527,-0.011910245,0.012817571,-0.00839078,0.0028598527,-0.0,-0.0123721305,-0.17238252,0.19153613,-9.576807,0.7418897,47.667187,-0.18068464,-2.7845378,-3.1884704,-0.37380618,0.05455117,0.023939814,28.5,29.5625,28.875,32.875,35.25,36.3125
0.018054577,-1.1263069,-1.3248619,-1.2031674,-0.08267278,0.083951354,-0.05263803,-0.38106245,-0.34850967,0.059901316,-3.0784345,0.6248005,-0.0003409793,-0.005070464,0.0034733822,-0.0034031358,0.0041931863,-0.008127227,0.0032170198,0.4777704,-1.4257859,1.9576987,-2.1008193,-1.5707697,2.452687,-0.01087818,0.012871588,-0.007824919,0.004096117,-0.0,-0.014090021,-0.2873042,0.22984336,-9.691729,0.76874626,47.694946,-0.30390137,-2.578027,-3.37356,-0.39907432,0.06336266,0.009905911,28.5,29.5625,28.875,32.875,35.25,36.3125
0.020054424,-1.2483069,-0.89520574,-1.2434101,-0.08362746,0.11059157,-0.06940845,-0.38107184,-0.3484741,0.05986647,-3.0783782,0.62484753,-0.00043007208,-0.00607587,0.0030469156,-0.00326558,0.0037827296,-0.007349935,0.0029946973,0.4776984,-1.4257374,1.957723,-2.1008193,-1.5707697,2.4526515,-0.011052179,0.014517238,-0.009916534,0.003663102,-0.0,-0.014040293,-0.4213795,0.34476504,-9.749189,0.75084364,47.696735,-0.47998327,-2.5388741,-3.589184,-0.40153474,0.051810935,-0.012185247,28.5,29.5625,28.875,32.875,35.25,36.3125
0.022054056,-1.5232524,-0.7337167,-1.3188999,-0.06047199,0.111309595,-0.07954108,-0.38105977,-0.34848946,0.059861947,-3.0783865,0.62479246,-0.0004954126,-0.008135177,0.0034233774,-0.0030757496,0.0032724768,-0.006380695,0.0014129059,0.4777214,-1.4257127,1.9576973,-2.100784,-1.5707458,2.452639,-0.013629724,0.016502125,-0.012500154,0.0031666956,-0.0,-0.015034327,-0.4405331,0.3256114,-9.80665,0.7284641,47.704796,-0.5373083,-2.4577248,-3.4016087,-0.38883305,0.03428291,-0.02496713,28.5,29.5625,28.875,32.875,35.25,36.3125
0.024054067,-1.7192849,-0.61574775,-1.6368479,-0.039602432,0.09521006,-0.09325323,-0.3810737,-0.34846312,0.059838105,-3.078326,0.62480044,-0.0005184598,-0.009602414,0.0035791,-0.002672889,0.0026265974,-0.0051465747,0.00025892674,0.47768486,-1.4256644,1.9576968,-2.100784,-1.5707816,2.4526153,-0.015265363,0.017388059,-0.014328819,0.0027158957,-0.0,-0.015514834,-0.53630114,0.3256114,-9.844957,0.7732232,47.70211,-0.5802408,-2.4428153,-3.476426,-0.36563647,0.02116709,-0.015203385,28.5,29.5625,28.875,32.875,35.25,36.3125
0.0260546,-1.2837782,-0.7399914,-1.5334153,-0.037779063,0.08887067,-0.10731595,-0.38110903,-0.34849644,0.05987265,-3.0784268,0.6247635,-0.0004910438,-0.010817042,0.0038362155,-0.0028409956,0.002655196,-0.005208278,-0.0012001992,0.47767234,-1.4256518,1.9576005,-2.1007717,-1.5707215,2.4525669,-0.01684663,0.019281818,-0.016089292,0.0026514702,-0.0,-0.015635772,-0.6512229,0.2681506,-9.864111,0.7418897,47.675243,-0.49575278,-2.5318594,-3.455998,-0.355596,0.012182184,-0.057124,28.5,29.5625,28.875,32.875,35.25,36.3125
0.028054394,-1.2760203,-0.9139125,-1.6238685,-0.043492958,0.08873786,-0.11160696,-0.3811276,-0.34845248,0.059823956,-3.0783186,0.6248188,-0.0005866995,-0.011684009,0.0036938575,-0.0021281354,0.0022009746,-0.004341049,-0.0012297948,0.4776002,-1.4255561,1.9576,-2.1007597,-1.5707573,2.452543,-0.017395752,0.0194622,-0.01812473,0.0035269149,-0.0,-0.01615442,-0.6895301,0.22984336,-9.768343,0.7083204,47.687782,-0.6178391,-2.423197,-3.4431677,-0.36169335,0.0035365615,-0.06674212,28.5,29.5625,28.875,32.875,35.25,36.3125
0.030054154,-1.3248829,-1.1259463,-1.4791675,-0.04018157,0.0947963,-0.12360904,-0.38113984,-0.34845206,0.059824593,-3.0783374,0.6247633,-0.00057254004,-0.011921372,0.0036227203,-0.0018875841,0.0023197983,-0.0045719473,-0.00012737364,0.4775881,-1.4255439,1.9575871,-2.1007707,-1.5707573,2.452494,-0.017488904,0.019809129,-0.019323014,0.0046377615,-0.0,-0.017349556,-0.6703765,0.19153613,-9.825804,0.8157518,47.72002,-0.6165317,-2.431094,-3.5107992,-0.36831045,0.011795891,-0.076668754,28.5,29.5625,28.875,32.875,35.25,36.3125
0.03205392,-1.0625468,-0.617859,-1.3154448,-0.038211502,0.11120179,-0.14258453,-0.38116652,-0.34847674,0.05982651,-3.0783467,0.62472695,-0.00059799413,-0.012933341,0.0038099496,-0.0018074769,0.0025094594,-0.0049447073,-0.0005768983,0.47759974,-1.4254595,1.9574784,-2.100735,-1.5707458,2.4524817,-0.01875852,0.021354426,-0.021510739,0.0056984946,-0.0,-0.018168513,-0.61291564,0.11492168,-9.921572,0.7016076,47.691364,-0.67946786,-2.5021262,-3.4238825,-0.36230347,-0.007306757,-0.098913185,28.5,29.5625,28.875,32.875,35.25,36.3125
0.034054264,-1.1701488,-0.52535564,-1.3399298,-0.0151085295,0.10714158,-0.1561184,-0.381212,-0.34845966,0.0598512,-3.0783796,0.62479156,-0.00051018805,-0.014528979,0.0036235752,-0.0010438843,0.0016587264,-0.0031382751,-0.00071118487,0.47752735,-1.4254832,1.9574546,-2.1007593,-1.5707458,2.4524455,-0.019850092,0.022179727,-0.024157207,0.005524476,-8.034484e-05,-0.019124134,-0.51714754,-0.038307227,-9.787497,0.77545905,47.682407,-0.6194412,-2.4192564,-3.4085693,-0.3388004,-0.041012354,-0.112878695,28.5,29.5625,28.875,32.875,35.25,36.3125
0.036053732,-1.723495,-0.38014063,-1.151,0.0025871205,0.07152712,-0.15979896,-0.38121745,-0.34844854,0.05981773,-3.078328,0.6247814,-0.0006119052,-0.015485969,0.0042857304,-0.0008403039,0.0024955187,-0.0022387207,-0.0005294074,0.4775028,-1.4253992,1.9574298,-2.100735,-1.5707463,2.4524212,-0.021158168,0.022485593,-0.025001794,0.0056528146,-0.0012410762,-0.020611111,-0.49799395,-0.019153614,-9.691729,0.8090337,47.689575,-0.6099496,-2.3544807,-3.4763346,-0.34434652,-0.029320117,-0.12299894,28.5,29.5625,28.875,32.875,35.25,36.3125
0.038054492,-1.1227359,-0.10510976,-1.1225005,0.011868983,0.06431823,-0.18229464,-0.38127077,-0.34842497,0.05982536,-3.0783105,0.6248346,-0.0005056772,-0.016650232,0.004420917,-0.0003354731,0.0020208422,-0.0010924368,-0.00047237048,0.4774425,-1.4253751,1.957393,-2.1007707,-1.570794,2.4523964,-0.022402797,0.022878652,-0.026596349,0.005617182,-0.0013496513,-0.021911742,-0.36391866,-0.114921674,-9.653421,0.7463667,47.69763,-0.6143302,-2.3819919,-3.4525752,-0.33305502,-0.038835898,-0.14229368,28.5,29.5625,28.875,32.875,35.25,36.3125
0.040054467,-0.024544047,0.63715386,-0.9991627,0.0030482023,0.06158253,-0.21055189,-0.38131365,-0.34844398,0.059831806,-3.078353,0.6248056,-0.00055431813,-0.018502874,0.004503995,0.0004091579,0.0019174884,0.00057092524,-0.00064758374,0.47740588,-1.4252908,1.9572738,-2.1007345,-1.5707468,2.4523363,-0.023821231,0.024133295,-0.029836118,0.0060807136,-0.0020288525,-0.023151837,-0.30645782,-0.095768064,-9.615114,0.7978386,47.709274,-0.6330397,-2.360835,-3.4030406,-0.3150663,-0.051288277,-0.16415024,28.5,29.5625,28.875,32.875,35.25,36.3125
0.042054143,0.21978809,0.6682612,-1.0609584,-0.0040230956,0.05105547,-0.22393277,-0.3813497,-0.3484314,0.05982339,-3.078338,0.62480193,-0.0005563198,-0.01950171,0.004793865,0.0004746662,0.0021160534,0.0007227605,-0.00054786215,0.47735757,-1.4252304,1.9572242,-2.1007345,-1.5707582,2.4522877,-0.02509657,0.025299743,-0.031397242,0.006432087,-0.0022785973,-0.024525464,-0.21068975,-0.05746084,-9.576807,0.76874626,47.690468,-0.60864544,-2.3359787,-3.3633645,-0.2832124,-0.052389592,-0.16777809,28.5,29.5625,28.875,32.875,35.25,36.3125
0.0440541,0.17204642,-0.10731114,-1.0853002,-0.0062147104,0.043412693,-0.23156124,-0.38140422,-0.3484169,0.05985473,-3.0783226,0.62489486,-0.0004885904,-0.020226443,0.005123301,0.00049179426,0.002538477,3.0063356e-05,-0.00032278404,0.47729713,-1.425218,1.9571275,-2.1006858,-1.5707825,2.4522872,-0.02631236,0.026471402,-0.033070456,0.007742195,-0.0023361084,-0.02596553,-0.11492168,0.24899697,-9.595961,0.80456203,47.67614,-0.64625263,-2.328595,-3.328948,-0.29661086,-0.06613392,-0.19394815,28.5,29.5625,28.875,32.875,35.25,36.3125
0.046054777,0.2442426,-0.5345854,-1.172706,-0.021992484,0.0536553,-0.22444937,-0.38146633,-0.34838188,0.05985679,-3.0782988,0.6249083,-0.00043986677,-0.020968905,0.005564095,0.000745362,0.003072658,-0.00013165544,0.0001582591,0.47720072,-1.42517,1.9570678,-2.1006854,-1.5708183,2.4522023,-0.027517797,0.02701971,-0.03458438,0.00909676,-0.0027371976,-0.027650654,-0.1340753,0.05746084,-9.576807,0.73741806,47.675243,-0.5561588,-2.287034,-3.3645926,-0.31884283,-0.069919296,-0.21155614,28.5,29.5625,28.875,32.875,35.25,36.3125
0.04805464,0.025811203,-1.1762879,-1.285695,-0.016250571,0.05162214,-0.19079311,-0.3814825,-0.34840542,0.059855852,-3.078352,0.62484217,-0.000514675,-0.021137733,0.0061372747,0.00037515955,0.0044907127,-0.0016104825,0.001568073,0.4771885,-1.4251099,1.9569958,-2.100661,-1.5707582,2.452142,-0.028314987,0.028157145,-0.035414655,0.010757913,-0.0033171827,-0.029856188,0.038307227,0.076614454,-9.557653,0.72622824,47.667187,-0.6212727,-2.2663388,-3.322347,-0.31714883,-0.06953737,-0.22008996,28.5,29.5625,28.875,32.875,35.25,36.3125
0.050054412,0.033484455,-0.27202448,-1.0614904,-0.040574078,0.04756882,-0.1972908,-0.3815415,-0.3483666,0.059857316,-3.0782847,0.62494236,-0.0004543023,-0.02269474,0.006203278,0.0011474601,0.0039355415,-0.00038728022,0.0024269104,0.47710395,-1.4250616,1.9569348,-2.100649,-1.5708183,2.4521286,-0.029819744,0.028902903,-0.03818667,0.011440312,-0.0033916596,-0.03221826,-0.019153614,0.19153613,-9.557653,0.8112748,47.694054,-0.518484,-2.241504,-3.3286176,-0.32815966,-0.07216826,-0.2519299,28.5,29.5625,28.875,32.875,35.25,36.3125
0.052054297,0.18356653,-1.0513698,-1.3813844,-0.03338023,0.04938285,-0.18343014,-0.38156247,-0.34836122,0.059846085,-3.0782866,0.624865,-0.00050935213,-0.02362411,0.0065243985,0.0016663745,0.0041787834,0.0005493432,0.0040593054,0.4770676,-1.4250016,1.9568866,-2.1006253,-1.5708069,2.4520438,-0.030825011,0.029004196,-0.03963208,0.012066147,-0.004042255,-0.03485385,0.038307227,0.21068975,-9.461885,0.72622824,47.694946,-0.6179272,-2.172637,-3.3028212,-0.3218922,-0.066079475,-0.2537455,28.5,29.5625,28.875,32.875,35.25,36.3125
0.05405432,0.13125934,-1.18034,-1.2395254,-0.038030688,0.04500069,-0.18383387,-0.38160527,-0.34834957,0.05985083,-3.0782862,0.6248648,-0.0005109025,-0.024433428,0.0069025764,0.001514887,0.004692031,0.00059064577,0.005212705,0.47700727,-1.4249532,1.9568151,-2.100601,-1.5708069,2.4519835,-0.03193129,0.030185074,-0.040639933,0.012093115,-0.004520728,-0.037111852,0.019153614,0.3256114,-9.404425,0.69937176,47.666286,-0.6101086,-2.0846114,-3.320579,-0.31813383,-0.0911675,-0.24287975,28.5,29.5625,28.875,32.875,35.25,36.3125
0.05605466,0.073191956,-1.2835797,-1.2729063,-0.04166479,0.042018365,-0.18524848,-0.38166913,-0.34834865,0.05986521,-3.0783012,0.62486714,-0.0004805019,-0.02559768,0.007332388,0.001234328,0.006008395,0.00039795262,0.005785938,0.47694686,-1.4248806,1.956694,-2.100577,-1.5708073,2.4519227,-0.033062827,0.03249862,-0.04277593,0.012694369,-0.0056050825,-0.038813215,0.038307227,0.38307226,-9.461885,0.7933669,47.67614,-0.5902375,-2.1577573,-3.4302135,-0.33074987,-0.088005155,-0.2805461,28.5,29.5625,28.875,32.875,35.25,36.3125
0.058055237,-0.0154397655,-1.7483765,-1.1667008,-0.03965586,0.04211662,-0.18109716,-0.38172588,-0.34833056,0.059876483,-3.0783048,0.6248095,-0.0004955614,-0.026381562,0.007990193,0.0012696133,0.0077388124,0.0008470978,0.00723871,0.47686255,-1.4248204,1.9565858,-2.1005166,-1.5708078,2.451802,-0.033817057,0.033327185,-0.043979067,0.013469577,-0.0073513747,-0.041016,0.019153614,0.3256114,-9.442732,0.7553206,47.68062,-0.5729862,-2.2311456,-3.3150265,-0.333215,-0.07651391,-0.2868943,28.5,29.5625,28.875,32.875,35.25,36.3125
0.060054112,0.017191483,-1.2796015,-1.1570873,-0.048705403,0.050734714,-0.18127503,-0.3817632,-0.34830067,0.059854705,-3.078241,0.6247372,-0.0004927391,-0.027845459,0.008016559,0.0025384892,0.007981524,0.0046411874,0.009367949,0.4768146,-1.4247369,1.9565376,-2.100505,-1.5708688,2.4517171,-0.03393606,0.032581206,-0.045894925,0.012875604,-0.009317262,-0.04325884,-0.076614454,0.22984336,-9.481039,0.800085,47.7254,-0.59484863,-2.1101642,-3.292683,-0.34170032,-0.035979804,-0.27225733,28.5,29.5625,28.875,32.875,35.25,36.3125
0.062053867,-0.09783217,-1.1502095,-1.1328089,-0.051313195,0.06600849,-0.17963612,-0.38181093,-0.34830442,0.05986417,-3.0782788,0.6247256,-0.00051394553,-0.02914343,0.008816271,0.0025729884,0.009851449,0.0058497903,0.010000286,0.47675416,-1.4246767,1.9564418,-2.1004808,-1.5708336,2.4516447,-0.035110097,0.033788234,-0.047364574,0.012931135,-0.01153693,-0.04505979,-0.05746084,0.2681506,-9.442732,0.7284641,47.678825,-0.6439198,-2.082899,-3.3078482,-0.34354585,-0.02332247,-0.30834213,28.5,29.5625,28.875,32.875,35.25,36.3125
0.06405372,-0.8301837,-1.4226791,-1.1558765,-0.030148264,0.058219403,-0.17064267,-0.38190493,-0.34827915,0.05989474,-3.0782962,0.62476623,-0.0003748625,-0.031132767,0.008458068,0.0026656366,0.009735099,0.00741416,0.010446035,0.476646,-1.4246397,1.9563326,-2.1004932,-1.5708698,2.4515598,-0.03590024,0.03682995,-0.05081005,0.011890573,-0.012157851,-0.046292998,-0.11492168,0.24899697,-9.461885,0.7777002,47.70211,-0.71071845,-2.0603907,-3.2415237,-0.33982536,0.00013627019,-0.29556996,28.5,29.5625,28.875,32.875,35.25,36.3125
0.06605447,-0.6959824,-1.1040567,-0.99113834,-0.031324405,0.065747075,-0.17780073,-0.3819769,-0.34828967,0.05992305,-3.0783372,0.6247162,-0.00031777073,-0.031204293,0.008143598,0.002291444,0.009208414,0.006540333,0.011301304,0.4765979,-1.4245672,1.9561771,-2.1004574,-1.5708693,2.4514754,-0.035965916,0.038060557,-0.051317547,0.011698331,-0.01128866,-0.047215726,-0.15322891,0.3256114,-9.32781,0.7620334,47.689575,-0.78508854,-2.093119,-3.2457473,-0.32468402,-0.013450599,-0.3271716,28.5,29.5625,28.875,32.875,35.25,36.3125
0.06805396,-0.42715806,-1.1443913,-1.0900712,-0.033560667,0.06816004,-0.18070833,-0.38202113,-0.3482525,0.059903335,-3.0782847,0.6246472,-0.00035790508,-0.031303942,0.007803199,0.0013558172,0.008052588,0.004184441,0.013663746,0.4765136,-1.4244827,1.9561175,-2.1004217,-1.5709041,2.4513547,-0.03681403,0.040462755,-0.051852454,0.01138312,-0.009187295,-0.05042911,-0.1340753,0.28730422,-9.251195,0.74413085,47.63225,-0.7558966,-2.2154262,-3.3757246,-0.3246054,-0.036423292,-0.338314,28.5,29.5625,28.875,32.875,35.25,36.3125
0.07005453,-0.31857312,-0.93779665,-0.9400922,-0.029568883,0.050391216,-0.17736258,-0.38208458,-0.348227,0.05989703,-3.0782762,0.6246065,-0.00035981016,-0.032293353,0.006857053,0.0017391175,0.00627096,0.004675529,0.0137737505,0.4764177,-1.4243983,1.9560331,-2.1004102,-1.5709165,2.4512346,-0.036917154,0.04208644,-0.054540526,0.011187572,-0.007836187,-0.05064322,-0.24899697,0.15322891,-9.423578,0.81351066,47.713753,-0.8177885,-2.230446,-3.2831964,-0.2896209,-0.034746274,-0.3325488,28.5,29.5625,28.875,32.875,35.25,36.3125
0.07205411,-0.6171479,-0.8821671,-1.0293205,-0.026848633,0.040510956,-0.17367831,-0.3821539,-0.3482494,0.059917085,-3.078318,0.62455714,-0.0003001749,-0.03434637,0.006024749,0.0040240837,0.0034403836,0.008356891,0.013552307,0.4763932,-1.4243028,1.9558753,-2.1003973,-1.570916,2.451174,-0.037858933,0.041038584,-0.058718793,0.011840825,-0.0070142793,-0.051363766,-0.28730422,0.1340753,-9.2703495,0.70608455,47.691364,-0.88487315,-2.1704926,-3.066845,-0.30876523,-0.07376075,-0.38102278,28.5,29.5625,28.875,32.875,35.25,36.3125
0.07405385,-0.026916556,-0.3787973,-0.84524053,-0.02899199,0.058162462,-0.18516389,-0.38223398,-0.34822828,0.05992881,-3.0783148,0.62451667,-0.00026330486,-0.033562124,0.0063157906,0.0021270127,0.004947953,0.0045476537,0.016440252,0.47629726,-1.424218,1.9557437,-2.1003616,-1.5709399,2.4510534,-0.037911065,0.044022154,-0.057839204,0.012049786,-0.006605467,-0.054304738,-0.24899697,0.15322891,-9.270349,0.8493211,47.70211,-0.9332684,-2.1269622,-3.0586457,-0.3052956,-0.069108814,-0.3926885,28.5,29.5625,28.875,32.875,35.25,36.3125
0.07605403,-0.63185006,-0.6514322,-0.9728301,-0.017075386,0.06065762,-0.17690489,-0.38227785,-0.34823266,0.059931908,-3.0783517,0.6244241,-0.0002888394,-0.03381504,0.0064774184,0.0016817993,0.0052370345,0.003371854,0.02082733,0.47624904,-1.4241456,1.9556483,-2.1003373,-1.570916,2.4509428,-0.03860832,0.04540535,-0.058508802,0.012512056,-0.006326186,-0.05938915,-0.15322891,0.114921674,-9.346964,0.73069996,47.63673,-1.0014552,-2.2088723,-3.2501516,-0.29558426,-0.084568426,-0.35375017,28.5,29.5625,28.875,32.875,35.25,36.3125
0.07805368,-0.9341258,-0.51769143,-0.7480215,-0.018676724,0.06390575,-0.17647746,-0.3823662,-0.34821758,0.05994675,-3.078378,0.6244111,-0.00024431245,-0.035576202,0.006325805,0.0021917992,0.005106751,0.0044811643,0.020823611,0.4761407,-1.4240611,1.9555153,-2.1003253,-1.570916,2.450823,-0.03969561,0.047402397,-0.0620763,0.013037316,-0.0067235697,-0.060470194,-0.19153613,0.11492168,-9.32781,0.7732232,47.675243,-1.0586457,-2.1379023,-3.1223812,-0.30192828,-0.084136166,-0.3739401,28.5,29.5625,28.875,32.875,35.25,36.3125
0.08005444,-0.16341724,-0.26786697,-0.792784,-0.017099986,0.07853088,-0.18243088,-0.3824438,-0.34819287,0.05994576,-3.0783713,0.62429184,-0.00018325362,-0.036238916,0.0066204863,0.0023177182,0.006124871,0.0052649663,0.022969369,0.47605655,-1.4239651,1.955408,-2.1003253,-1.5709642,2.4506655,-0.040000066,0.04801164,-0.06310642,0.013228395,-0.007989717,-0.0629175,-0.17238252,0.095768064,-9.385271,0.800085,47.70211,-1.0938146,-2.2040005,-3.116951,-0.28848994,-0.09466164,-0.3671818,28.5,29.5625,28.875,32.875,35.25,36.3125
0.08205463,-0.7070252,-0.53651536,-0.8040208,-0.007895734,0.06515853,-0.17564645,-0.38251483,-0.34818244,0.05994701,-3.0783625,0.6241919,-0.00014758631,-0.037548106,0.007032676,0.0024499865,0.007336106,0.006037555,0.026805982,0.47599635,-1.4238566,1.9552759,-2.1003015,-1.5710009,2.450544,-0.04099999,0.049603645,-0.06534793,0.013746752,-0.0094259875,-0.06775003,-0.21068975,0.1340753,-9.3661175,0.73741806,47.698532,-1.1457868,-2.258571,-3.085806,-0.28028265,-0.06987806,-0.3600992,28.5,29.5625,28.875,32.875,35.25,36.3125
0.08405463,-0.48128003,-0.4581289,-0.89080036,-0.013970892,0.063337475,-0.17889352,-0.38258484,-0.34819543,0.05996669,-3.0784328,0.62406874,-0.00018004773,-0.038354266,0.0075934352,0.002536577,0.0093986485,0.0071729925,0.030900028,0.47592422,-1.4237607,1.9551076,-2.100241,-1.5709537,2.4503863,-0.041201252,0.050403036,-0.06653825,0.01408302,-0.011782243,-0.07204033,-0.19153613,0.15322891,-9.346964,0.8157518,47.711063,-1.2015455,-2.1343627,-3.10449,-0.27231723,-0.06256046,-0.31280604,28.5,29.5625,28.875,32.875,35.25,36.3125
0.086054385,-0.3049381,-0.4205864,-0.99138343,-0.020105055,0.06143206,-0.17569701,-0.38263208,-0.34813896,0.059944574,-3.0783255,0.624046,-0.00021274675,-0.039986204,0.008695582,0.002319099,0.010759045,0.0072103366,0.032503285,0.47582737,-1.4236761,1.955048,-2.1001809,-1.5710262,2.450289,-0.043853704,0.05231707,-0.06833699,0.01455405,-0.01301951,-0.07629148,-0.22984336,0.1340753,-9.346964,0.7642693,47.691364,-1.2216178,-2.1931694,-3.0414515,-0.28114504,-0.047434524,-0.26337922,28.5,29.5625,28.8125,32.875,35.25,36.3125
0.0880545,-0.8083592,-1.174372,-0.97077113,-0.014464456,0.049945887,-0.16549857,-0.38271675,-0.3481399,0.059954897,-3.0783772,0.62388104,-0.0002094766,-0.041099295,0.00855956,0.0027064183,0.010195004,0.008110135,0.036022693,0.475743,-1.4235561,1.9548792,-2.100145,-1.5710138,2.4500952,-0.04468095,0.05326321,-0.07029783,0.014508332,-0.012935597,-0.08063734,-0.2681506,0.19153613,-9.346964,0.7463667,47.675243,-1.1507996,-2.1751103,-3.0707803,-0.27155954,-0.03809385,-0.24360888,28.5,29.5625,28.8125,32.875,35.25,36.3125
0.090054095,-0.4531665,-0.676191,-0.8087956,-0.029115215,0.06445385,-0.18336032,-0.38279635,-0.34811208,0.059954025,-3.078373,0.623705,-0.00013625168,-0.041266,0.008225497,0.0024762044,0.010725229,0.00742296,0.040768366,0.47565922,-1.4234595,1.9547709,-2.100145,-1.5710739,2.4499023,-0.044129655,0.05487732,-0.071782246,0.015225049,-0.013094708,-0.084830716,-0.19153613,0.21068975,-9.385271,0.8179876,47.709274,-1.2538018,-2.1471982,-3.0093775,-0.26917574,-0.047223333,-0.16067256,28.5,29.5625,28.8125,32.875,35.25,36.3125
0.092054,-0.32915556,-0.9296236,-1.0427552,-0.025486343,0.07612081,-0.1888442,-0.3828945,-0.34812385,0.059973758,-3.0784323,0.62361974,-0.00011637225,-0.04248318,0.008640325,0.0030926524,0.009646709,0.007828667,0.04188857,0.47557423,-1.4233279,1.9545673,-2.1001089,-1.57105,2.4497566,-0.0464744,0.054853458,-0.073333554,0.015942328,-0.012321701,-0.088297,-0.22984336,0.21068975,-9.32781,0.72622824,47.687782,-1.3150716,-2.1448946,-3.0127509,-0.2476461,-0.03149514,-0.13151297,28.5,29.5625,28.8125,32.875,35.25,36.3125
0.09405545,-0.6289565,-0.881229,-1.1048335,-0.03072197,0.072504595,-0.17391036,-0.38297576,-0.3480938,0.059980873,-3.0784378,0.6234675,-0.00013566678,-0.04296197,0.009549711,0.0008888198,0.012151965,0.0037194022,0.040494192,0.4754538,-1.4232299,1.9544228,-2.1000373,-1.571062,2.4495406,-0.048294276,0.059969913,-0.074292585,0.016583724,-0.012670805,-0.08872036,-0.28730422,0.21068975,-9.442732,0.79560274,47.709274,-1.2864246,-2.2751236,-3.0412786,-0.26058057,-0.049999125,-0.11557232,28.5,29.5625,28.8125,32.875,35.25,36.3125
0.096054435,-0.9938289,-1.4874051,-1.3806033,-0.024460657,0.061645836,-0.17064272,-0.38307816,-0.34806338,0.0599918,-3.0784318,0.62341046,-1.9314082e-05,-0.045032803,0.010465938,0.0027567518,0.010425601,0.006491993,0.03677488,0.47534448,-1.4231347,1.9542917,-2.1000483,-1.571122,2.4493966,-0.051983498,0.057706885,-0.07618259,0.017473854,-0.012402764,-0.088690974,-0.30645782,0.19153613,-9.3661175,0.784413,47.678825,-1.1653641,-2.2317986,-3.0877903,-0.27787325,-0.034157105,-0.048567876,28.5,29.5625,28.8125,32.875,35.25,36.3125
0.09805462,-0.7033607,-0.9407251,-1.1432401,-0.035748646,0.06263003,-0.17648755,-0.38318878,-0.3480401,0.059997045,-3.0784123,0.6233313,1.0603202e-06,-0.045341533,0.010130196,0.002471315,0.010116212,0.0061814534,0.033584855,0.47522455,-1.422978,1.9540871,-2.0999887,-1.5711578,2.44923,-0.05192527,0.05911053,-0.07704989,0.017067749,-0.011987859,-0.085442655,-0.2681506,0.11492168,-9.346964,0.8291774,47.689575,-1.152104,-2.048025,-3.1009464,-0.2558958,-0.027494453,-0.11172162,28.5,29.5625,28.8125,32.875,35.25,36.3125
0.100055225,-0.88812166,-1.2529283,-1.1693639,-0.02945085,0.059424035,-0.17022549,-0.38324204,-0.34801129,0.059961956,-3.078381,0.6232281,-0.00012960835,-0.04577714,0.009816394,0.0022967267,0.010185786,0.0058832103,0.034361783,0.47511664,-1.4228336,1.9539913,-2.0999405,-1.5711459,2.4490616,-0.05180093,0.06070729,-0.07852357,0.01724087,-0.01192461,-0.08609328,-0.28730422,0.17238252,-9.442732,0.784413,47.71465,-1.31832,-2.110815,-3.076239,-0.22698808,-0.03420966,-0.10545598,28.5,29.5625,28.8125,32.875,35.25,36.3125
0.10205477,-0.84081095,-1.0457541,-1.1871655,-0.030372547,0.052234508,-0.16600941,-0.3833391,-0.34801373,0.059989214,-3.0784423,0.6231106,-5.969078e-05,-0.04631088,0.011099444,0.00019496112,0.011450988,0.0013535781,0.026034568,0.47503144,-1.4227359,1.953812,-2.0999167,-1.5711454,2.4488955,-0.05517606,0.06485741,-0.07858737,0.01775958,-0.010969561,-0.08114316,-0.24899697,0.095768064,-9.442732,0.7597976,47.679718,-1.2280529,-2.2964013,-3.201345,-0.23957571,-0.053206436,-0.14229727,28.5,29.5625,28.8125,32.875,35.25,36.3125
0.104054816,-0.8455867,-1.3286805,-1.2206174,-0.019990891,0.049804263,-0.16180341,-0.3834283,-0.3479769,0.05998801,-3.0783975,0.62302554,-2.8541745e-05,-0.049068008,0.010589289,0.0031628709,0.008603398,0.007034529,0.022908388,0.47492298,-1.4226165,1.9536675,-2.099869,-1.5712055,2.4487398,-0.056738786,0.06276741,-0.083024696,0.017927736,-0.011045487,-0.07957748,-0.28730422,0.17238252,-9.423578,0.7597976,47.692257,-1.1661096,-2.1366289,-2.9948962,-0.23197849,-0.062836505,-0.21272865,28.5,29.5625,28.8125,32.875,35.25,36.3125
0.10605455,-0.052174572,-0.7557164,-1.1093059,-0.025640694,0.06427197,-0.17623681,-0.3835284,-0.3479812,0.060016457,-3.0784738,0.6228689,5.6382938e-05,-0.048354436,0.011467042,0.000812784,0.010824093,0.0025324817,0.02064529,0.47483864,-1.4225192,1.9534887,-2.099857,-1.5712055,2.448548,-0.057688415,0.06616614,-0.081586614,0.018109748,-0.010952363,-0.07826518,-0.19153613,0.17238252,-9.404425,0.75084364,47.68599,-1.2199577,-2.1836033,-3.230392,-0.20994364,-0.041104928,-0.22050668,28.5,29.5625,28.8125,32.875,35.25,36.3125
0.10805459,-0.88589257,-0.84682053,-1.152108,-0.018280203,0.052564725,-0.17346151,-0.38361916,-0.34793577,0.05998165,-3.078399,0.6228538,-6.42559e-05,-0.049753886,0.01140389,0.0012574109,0.010187468,0.003647641,0.01908639,0.4746823,-1.4223268,1.9533318,-2.099785,-1.5712174,2.448392,-0.058872666,0.0672915,-0.083872676,0.017985078,-0.010909674,-0.07788813,-0.2873042,0.1340753,-9.3661175,0.784413,47.66808,-1.1963958,-2.18328,-3.26726,-0.20426705,-0.053655043,-0.2633216,28.5,29.5625,28.8125,32.875,35.25,36.3125
0.11005443,-0.71310794,-0.6878159,-1.185922,-0.0134984385,0.059242625,-0.17375143,-0.383747,-0.3479453,0.060020957,-3.0784607,0.6227909,8.9964895e-05,-0.050903253,0.012208426,0.0010208547,0.011257132,0.0036996393,0.017308395,0.4745976,-1.422206,1.9531039,-2.0997846,-1.5712417,2.4482603,-0.0607085,0.06874977,-0.08504031,0.01813773,-0.011878878,-0.07794452,-0.28730422,0.15322891,-9.308657,0.8224646,47.694946,-1.174264,-2.2391562,-3.0642111,-0.19920918,-0.05659361,-0.30560037,28.5,29.5625,28.8125,32.875,35.25,36.3125
0.11205424,-0.63287294,-0.6826943,-1.1871041,-0.0044387295,0.06807719,-0.16863593,-0.38383755,-0.34788862,0.059986908,-3.0784013,0.62275904,2.2536862e-05,-0.05098017,0.0125167845,0.000101277896,0.011868619,0.0014076142,0.016555848,0.47442937,-1.4220493,1.9529971,-2.0997608,-1.5712656,2.4480798,-0.061632656,0.07085588,-0.08551238,0.01881618,-0.011381361,-0.07811582,-0.21068975,0.05746084,-9.289503,0.6971306,47.699425,-1.2191639,-2.1788702,-3.2544732,-0.17701077,-0.07282793,-0.3281225,28.5,29.5625,28.8125,32.875,35.25,36.3125
0.11405401,-0.89106756,-0.43407002,-0.9706532,-0.014657827,0.06660011,-0.18024458,-0.38394123,-0.34788778,0.060010225,-3.0784528,0.62269306,9.467439e-05,-0.052304853,0.012926135,0.0008348163,0.011396273,0.0026524016,0.015321411,0.47433272,-1.421941,1.9528173,-2.0997484,-1.5712656,2.4479356,-0.06346052,0.07078085,-0.087211676,0.019266494,-0.011528383,-0.07870891,-0.24899697,0.019153614,-9.423578,0.72622824,47.684196,-1.1695092,-2.2048347,-3.275258,-0.15752265,-0.055535138,-0.3677775,28.5,29.5625,28.8125,32.875,35.25,36.3125
0.11605435,-0.94713837,-0.51608497,-0.9398092,-0.011045329,0.064448886,-0.1773296,-0.38405317,-0.3478532,0.060015272,-3.0784256,0.62270707,7.728241e-05,-0.052629344,0.013275415,0.00042964495,0.011975022,0.0015526508,0.014558004,0.4741764,-1.4217966,1.9526242,-2.0996764,-1.5712775,2.4477916,-0.06434801,0.072053745,-0.08790003,0.019921906,-0.011543443,-0.0788323,-0.24899697,-0.019153614,-9.32781,0.8224646,47.689575,-1.1840746,-2.163508,-3.2831907,-0.15014547,-0.04678917,-0.4063593,28.5,29.5625,28.8125,32.875,35.25,36.3125
0.11805393,-0.40403458,-0.61227596,-0.9420258,-0.007833468,0.07418996,-0.17707215,-0.38414633,-0.34782273,0.060016155,-3.0783887,0.6226226,9.352678e-05,-0.053112376,0.0133876875,0.00045658433,0.011610522,0.0011341593,0.014116231,0.4740681,-1.4216642,1.9524573,-2.0996168,-1.5713257,2.4476354,-0.06530563,0.072690375,-0.088804536,0.020388482,-0.01103163,-0.07934842,-0.40222588,0.038307227,-9.442732,0.83589023,47.719128,-1.2023337,-2.1732962,-3.3601828,-0.13572885,-0.0634975,-0.45637804,28.5,29.5625,28.8125,32.875,35.25,36.3125
0.12005454,-0.40444234,-0.61562234,-1.057515,-0.0129374135,0.070115894,-0.17482734,-0.38427195,-0.34778592,0.060015045,-3.0783756,0.6225818,0.00014131752,-0.054858018,0.014891453,0.00024091704,0.012330907,0.0010203174,0.012183333,0.4739108,-1.4215076,1.952278,-2.0996048,-1.5713614,2.4474545,-0.06916649,0.073987424,-0.089843854,0.020556998,-0.011623278,-0.08127468,-0.36391866,-0.019153614,-9.346964,0.8291774,47.703007,-1.1092508,-2.1003315,-3.429504,-0.14022723,-0.065158434,-0.4767372,28.5,29.5625,28.8125,32.875,35.25,36.3125
0.122054085,-0.65005964,-0.6800594,-1.0862912,-0.005229428,0.06925571,-0.17459062,-0.38437855,-0.34776923,0.06002016,-3.078371,0.62251973,0.00013749923,-0.055307455,0.013916549,0.00090713927,0.01133357,0.002354748,0.017814325,0.47379124,-1.4213513,1.9520739,-2.0995448,-1.5713733,2.4472969,-0.068004146,0.07436841,-0.09179427,0.020477224,-0.011352827,-0.085742705,-0.34476504,0.019153614,-9.289503,0.73069996,47.690468,-1.1479256,-2.0437632,-3.340168,-0.11302678,-0.077820994,-0.49413753,28.5,29.5625,28.8125,32.875,35.25,36.3125
0.12405387,-0.51479274,-0.7465081,-1.1653765,-0.008235684,0.07869889,-0.17642751,-0.3844859,-0.34774557,0.06002243,-3.0783951,0.6223495,0.00014620853,-0.054842085,0.015234144,-0.00044496878,0.013340416,-0.0009299804,0.020663096,0.47365862,-1.4212067,1.9518951,-2.0995085,-1.5713853,2.447055,-0.06971152,0.075619906,-0.09042228,0.021687284,-0.011637532,-0.090299,-0.38307226,0.038307227,-9.423578,0.79560274,47.688675,-1.2235098,-2.057921,-3.5891018,-0.10240336,-0.08177133,-0.46214658,28.5,29.5625,28.8125,32.875,35.25,36.3125
0.12605426,-1.0957751,-0.011366373,-1.0020018,-0.029370435,0.07055092,-0.17272362,-0.38461193,-0.3477043,0.06001909,-3.0783482,0.6223577,0.00017909157,-0.058193367,0.015794786,0.00093048066,0.011964545,0.00086293236,0.02250957,0.47350124,-1.421038,1.9517015,-2.0994723,-1.5714334,2.446909,-0.07400293,0.07727095,-0.09580564,0.023183927,-0.011243997,-0.09643492,-0.34476504,0.038307227,-9.385271,0.80679786,47.645687,-1.1413546,-1.9885385,-3.3584852,-0.08811787,-0.07249413,-0.45630547,28.5,29.5625,28.8125,32.875,35.25,36.3125
0.12805407,-0.811249,-0.5203256,-1.053072,-0.011562293,0.07159555,-0.17370352,-0.38471442,-0.34767178,0.060016584,-3.0783255,0.6222708,0.00013088113,-0.05791591,0.015591665,0.0011642628,0.011938764,0.0002689758,0.032238543,0.47335744,-1.4208819,1.9515094,-2.099388,-1.5714453,2.446714,-0.07355227,0.07706972,-0.09642116,0.024506064,-0.01095909,-0.105713286,-0.3256114,0.11492168,-9.442732,0.79560274,47.70032,-1.0369076,-1.9589875,-3.4432473,-0.0936238,-0.07526001,-0.3577003,28.5,29.5625,28.8125,32.875,35.25,36.3125
0.13005432,-0.59570885,-0.2617792,-1.1280854,-0.021250527,0.07216046,-0.17059958,-0.3848292,-0.34764042,0.060024846,-3.0783474,0.6220991,0.00016614051,-0.05891491,0.01636613,0.0002477103,0.013862614,-0.0015992849,0.037197765,0.47321263,-1.4207486,1.9513296,-2.0993512,-1.5714697,2.4464593,-0.07525776,0.08039961,-0.09842064,0.025708737,-0.011824991,-0.11237509,-0.36391866,0.17238252,-9.461885,0.8112748,47.70211,-1.1721233,-2.1654034,-3.4435496,-0.10443007,-0.087839454,-0.32126597,28.5,29.5625,28.8125,32.875,35.25,36.3125
0.13205388,-0.45779926,-0.6835473,-1.0277218,-0.020581389,0.06814926,-0.18161577,-0.38496375,-0.34763503,0.060046878,-3.078409,0.62191665,0.00021123407,-0.06098912,0.016866887,0.0020136195,0.0121715125,0.00144218,0.040954873,0.47307974,-1.4205812,1.9510769,-2.0993035,-1.5714692,2.446205,-0.07808657,0.07882516,-0.100762434,0.026139524,-0.011709629,-0.11896088,-0.2873042,0.1340753,-9.423578,0.7150385,47.691364,-1.0482628,-1.8412716,-3.3815494,-0.08687583,-0.07832544,-0.21599862,28.5,29.5625,28.8125,32.875,35.25,36.3125
0.13405457,-0.094934635,-0.43539065,-1.1367682,-0.028960183,0.07462565,-0.17863563,-0.38508284,-0.34757927,0.060040414,-3.0783653,0.62177193,0.00022247151,-0.061676368,0.017711898,0.0007410256,0.014056193,-0.00087759824,0.04281026,0.47291118,-1.4204237,1.9508976,-2.099243,-1.5715297,2.4459517,-0.07978281,0.08216348,-0.10183529,0.026787583,-0.012338938,-0.122509874,-0.21068975,0.1340753,-9.442732,0.81351066,47.689575,-0.9539256,-1.9411045,-3.4015489,-0.08643848,-0.07608224,-0.17676415,28.5,29.5625,28.8125,32.875,35.25,36.3125
0.13605413,-0.32088766,-1.1468067,-1.3454705,-0.03241928,0.07579311,-0.17693108,-0.3851951,-0.34756017,0.06005112,-3.0783966,0.6216622,0.00020885297,-0.06282788,0.017730482,0.0016806332,0.01343049,0.00039993296,0.04261565,0.47276703,-1.4202796,1.9506944,-2.0991828,-1.5715178,2.4457352,-0.08082285,0.08205846,-0.10408352,0.027717615,-0.012367938,-0.12335434,-0.2681506,0.19153613,-9.481039,0.80456203,47.66987,-0.9833857,-1.9820881,-3.321272,-0.07887857,-0.08390722,-0.13792269,28.5,29.5625,28.8125,32.875,35.25,36.3125
0.13805376,-0.9637473,-1.6676276,-1.4079554,-0.038164996,0.07689674,-0.1660622,-0.3853293,-0.34751412,0.060048196,-3.0784006,0.62153095,0.00016321681,-0.0634424,0.017993739,0.0019684855,0.012663058,0.00011100482,0.038878523,0.47256252,-1.4200994,1.9504784,-2.0991108,-1.5715173,2.4454484,-0.08234294,0.08213926,-0.105020925,0.028478837,-0.011557706,-0.12113822,-0.45968673,0.17238252,-9.481039,0.85826975,47.66539,-0.94506955,-1.7551539,-3.4274373,-0.07610462,-0.08054239,-0.14439404,28.5,29.5625,28.8125,32.875,35.25,36.3125
0.14005446,-1.20817,-1.108525,-1.4648532,-0.035987698,0.07971698,-0.16743565,-0.38544148,-0.3474658,0.06002172,-3.078349,0.62140703,0.00013648067,-0.064957656,0.018467166,0.0015980956,0.013974533,-0.00025615533,0.03446548,0.47240594,-1.4199063,1.9503096,-2.099075,-1.571566,2.4452212,-0.083887376,0.08518533,-0.107834354,0.0291687,-0.012569252,-0.11826508,-0.45968673,0.11492168,-9.519346,0.8806493,47.690468,-0.9439919,-1.8313671,-3.4253647,-0.07016144,-0.10597456,-0.19299603,28.5,29.5625,28.8125,32.875,35.25,36.3125
0.14205441,-1.2980256,-1.3998635,-1.6447937,-0.026545253,0.08289786,-0.15707964,-0.3856165,-0.3474317,0.060056627,-3.0783653,0.6214152,0.00022964732,-0.06617142,0.018933997,0.00157128,0.013885021,-0.0010345157,0.025554769,0.47220123,-1.4197377,1.950023,-2.0990145,-1.5715898,2.4450197,-0.08606789,0.086877994,-0.109975114,0.030268949,-0.012128153,-0.11153542,-0.4213795,0.11492168,-9.615114,0.77545905,47.675243,-0.89531636,-1.8452654,-3.3456006,-0.0757971,-0.079193175,-0.24518478,28.5,29.5625,28.8125,32.875,35.25,36.3125
0.14405388,-1.3313174,-1.540784,-1.4031346,-0.021818642,0.08603474,-0.16453421,-0.3857111,-0.34741023,0.060056876,-3.0783765,0.621186,0.00022246673,-0.06739111,0.019550245,0.0014285038,0.014731682,-0.0012145477,0.024871184,0.47209263,-1.4195927,1.9498428,-2.0989544,-1.5716141,2.4447668,-0.08781232,0.088634074,-0.111813664,0.030894214,-0.012807059,-0.11259351,-0.36391866,0.1340753,-9.595961,0.81351066,47.667187,-0.82413316,-1.7992935,-3.333707,-0.08143554,-0.1033397,-0.2804635,28.5,29.5625,28.8125,32.875,35.25,36.3125
0.14605454,-0.7783657,-0.6596614,-1.3685652,-0.031560853,0.091562994,-0.1782382,-0.385863,-0.34734395,0.060067944,-3.0783474,0.6212396,0.000245951,-0.06842483,0.01951718,0.0012388086,0.013791978,-0.0010988065,0.021198578,0.47185218,-1.4194479,1.9496382,-2.0988953,-1.571638,2.4445636,-0.089161776,0.090239234,-0.11301906,0.029958088,-0.012027768,-0.110271,-0.4213795,0.095768064,-9.557653,0.8873621,47.661808,-0.8490994,-1.8531628,-3.311768,-0.070313334,-0.1195741,-0.31158188,28.5,29.5625,28.8125,32.875,35.25,36.3125
0.14805421,-1.3438476,-1.1733876,-1.5371208,-0.014665075,0.07435913,-0.16471858,-0.3859976,-0.34732023,0.06006089,-3.0783281,0.62114125,0.00019883865,-0.0718886,0.01941625,0.0023250235,0.012467005,0.0023481476,0.018971233,0.47169518,-1.419219,1.9493731,-2.0988119,-1.5716499,2.4443479,-0.091841236,0.0927778,-0.118191466,0.028917199,-0.012433975,-0.110718586,-0.4405331,0.038307227,-9.519346,0.79560274,47.67166,-0.8002969,-1.8468995,-3.0918083,-0.041197695,-0.10344963,-0.33961955,28.5,29.5625,28.8125,32.875,35.25,36.3125
0.15005381,-0.66412276,-0.4024968,-1.3578603,-0.027508197,0.088844776,-0.17458248,-0.3861708,-0.3472992,0.060097653,-3.0783744,0.6210725,0.00032059828,-0.07072912,0.019391209,2.6801059e-05,0.0153118335,-0.0021639194,0.019858303,0.47151566,-1.4190494,1.9490865,-2.0987756,-1.5716738,2.4441197,-0.09039794,0.0970139,-0.1180151,0.029814238,-0.012907762,-0.110162,-0.45968673,0.095768064,-9.481039,0.842603,47.704796,-0.759556,-1.9608767,-3.2545545,-0.01741752,-0.12002702,-0.36249775,28.5,29.5625,28.8125,32.875,35.25,36.3125
0.1520537,-0.9816163,-0.55815876,-1.2691238,-0.02115036,0.08528674,-0.16142815,-0.386285,-0.34726048,0.060081486,-3.0783734,0.62097466,0.00024893915,-0.07204193,0.019248284,0.0017768955,0.014124801,0.00013987321,0.02061061,0.47133544,-1.4188696,1.9489063,-2.098727,-1.5716618,2.4438787,-0.09130744,0.09570824,-0.12089301,0.03140352,-0.0129067665,-0.111822315,-0.45968673,0.038307227,-9.500193,0.83813137,47.682407,-0.896906,-1.932485,-3.1389759,-0.027593343,-0.12354334,-0.37873155,28.5,29.5625,28.8125,32.875,35.25,36.3125
0.15405492,-1.3409632,-0.7686711,-1.3812335,-0.023616122,0.08434004,-0.1746755,-0.3864575,-0.34720895,0.06009821,-3.0783432,0.62096703,0.00030864775,-0.07351532,0.02029142,0.00021559556,0.016393872,-0.0022324182,0.022033967,0.4711187,-1.418676,1.9486297,-2.0986545,-1.5717105,2.4436612,-0.0938404,0.1006404,-0.123087876,0.031800978,-0.013858351,-0.115775034,-0.36391866,0.038307227,-9.5385,0.75084364,47.652847,-0.70516914,-1.9642253,-3.1466432,-0.028303664,-0.13347349,-0.3830003,28.5,29.5625,28.8125,32.875,35.25,36.3125
0.15605463,-0.65885496,-0.98541886,-1.3770806,-0.017475666,0.09620703,-0.16979274,-0.386596,-0.34716338,0.06010038,-3.0783336,0.6208442,0.00030126554,-0.073312305,0.018952757,0.0015978264,0.015287291,-0.0004978922,0.031227164,0.47092748,-1.4184963,1.9484023,-2.0985825,-1.5717343,2.4433947,-0.09136989,0.09934559,-0.12504755,0.03299414,-0.013669611,-0.1224973,-0.30645782,0.15322891,-9.481039,0.7530795,47.667187,-1.0020479,-2.0990033,-3.1196413,-0.025739418,-0.13931666,-0.36072743,28.5,29.5625,28.8125,32.875,35.25,36.3125
0.15805486,-1.3996189,-1.2731875,-1.1502758,-0.027087092,0.07798465,-0.16451976,-0.38674966,-0.34712923,0.060116146,-3.0783644,0.62075,0.00035295755,-0.073568024,0.019650392,0.00027345313,0.016978558,-0.003270396,0.037966587,0.47073513,-1.4183267,1.9481639,-2.0985467,-1.5717462,2.4431398,-0.09263842,0.10236669,-0.1256971,0.03384848,-0.013921142,-0.13050458,-0.2681506,0.22984336,-9.404425,0.8537928,47.683304,-0.9912743,-1.9508572,-3.176699,-0.03885798,-0.12708175,-0.29607457,28.5,29.5625,28.8125,32.875,35.25,36.3125
0.16005516,-0.72960544,-1.160749,-1.2238996,-0.048355322,0.084754296,-0.17111471,-0.38691172,-0.34709975,0.0601285,-3.078362,0.62053406,0.00038397874,-0.07441266,0.019755067,0.00043345886,0.016611295,-0.0028523465,0.043783445,0.47056684,-1.4180984,1.947852,-2.098451,-1.5717944,2.4428372,-0.09363336,0.10310322,-0.12691039,0.03376909,-0.013793754,-0.13731581,-0.15322891,0.28730422,-9.404425,0.85826975,47.71286,-1.0375587,-1.9908303,-3.1903758,-0.0254525,-0.15822953,-0.18885344,28.5,29.5625,28.8125,32.875,35.25,36.3125
0.16205414,-0.7150338,-1.5745839,-1.2583593,-0.04159563,0.06521851,-0.170914,-0.38707665,-0.34705812,0.06013446,-3.0783477,0.62041134,0.00042940615,-0.07636541,0.019292263,0.0014301547,0.016550729,9.758991e-05,0.050256692,0.47037485,-1.4178818,1.9475764,-2.0983908,-1.571843,2.4425707,-0.09370591,0.10453006,-0.1307938,0.033556126,-0.015091746,-0.14385676,-0.11492168,0.30645782,-9.423578,0.7530795,47.68062,-1.1334462,-1.9010348,-3.1063652,0.0075011207,-0.13389233,-0.11590421,28.5,29.5625,28.8125,32.875,35.25,36.3125
0.16405386,-0.16079919,-1.9497824,-1.0752803,-0.036738873,0.057786703,-0.16208166,-0.38725305,-0.34701127,0.060144387,-3.078367,0.620186,0.000528034,-0.07584528,0.020462228,0.00016973459,0.018576166,-0.0033647798,0.048270237,0.47017038,-1.417677,1.9473132,-2.098366,-1.5719026,2.4422233,-0.09511675,0.10590028,-0.12990026,0.035286695,-0.01531922,-0.14328177,-0.15322891,0.30645782,-9.32781,0.8291774,47.684196,-1.0824194,-2.0142312,-3.233347,0.0041612117,-0.121156126,-0.09935583,28.5,29.5625,28.8125,32.875,35.25,36.3125
0.1660539,-0.19618456,-1.480777,-1.210508,-0.026848234,0.028688703,-0.16429439,-0.38739836,-0.3469703,0.06013003,-3.078324,0.6201416,0.000518444,-0.07615168,0.021647824,-0.00069645344,0.021040898,-0.005656742,0.04452625,0.46998978,-1.4174482,1.9470724,-2.0983179,-1.5719393,2.4420207,-0.096707955,0.10781436,-0.13057652,0.037207726,-0.016481671,-0.14112577,-0.095768064,0.26815057,-9.193734,0.784413,47.694946,-1.0281081,-1.990109,-3.2345028,0.004468346,-0.1489735,-0.09980889,28.5,29.5625,28.8125,32.875,35.25,36.3125
0.16805367,0.7326621,-0.76041603,-0.84906626,-0.02447403,0.027528219,-0.16718225,-0.38754472,-0.34694123,0.060146265,-3.0783584,0.620015,0.00050405087,-0.076060526,0.021453667,-0.0007569405,0.021033973,-0.0065402305,0.040730678,0.4697981,-1.4172678,1.9468092,-2.0982335,-1.5719274,2.4417458,-0.09650438,0.108439595,-0.13139775,0.03819075,-0.016075552,-0.13712716,0.0,0.17238252,-9.136273,0.80456203,47.66987,-1.1027832,-1.9238122,-3.376295,0.0032672365,-0.12457672,-0.14367089,28.5,29.5625,28.8125,32.875,35.25,36.3125
0.17005423,1.0834824,-0.62729543,-0.65214545,-0.015747955,0.018980788,-0.1755462,-0.38771087,-0.34691092,0.060160395,-3.0783768,0.61981237,0.0005482676,-0.077144064,0.022484878,-0.0016566989,0.02127535,-0.009355219,0.032236762,0.46961677,-1.4170505,1.9465111,-2.0981615,-1.5719627,2.4414358,-0.09995285,0.11120949,-0.13283786,0.039475724,-0.015015491,-0.1320832,0.15322891,0.22984336,-9.040505,0.8224646,47.704796,-0.9233731,-2.0552082,-3.2775335,-0.008153908,-0.1498806,-0.20708495,28.5,29.5625,28.8125,32.875,35.25,36.3125
0.17205393,0.43028137,-0.65257293,-0.57161653,-0.0046418463,-0.0019456494,-0.17009227,-0.38785592,-0.34684774,0.060125086,-3.0783062,0.6198372,0.00048084496,-0.076616965,0.022038344,-0.002770272,0.02280945,-0.012199758,0.028797433,0.4693893,-1.4168093,1.9463066,-2.0981247,-1.571987,2.441233,-0.09858904,0.1143416,-0.13426238,0.040999353,-0.01510698,-0.12727791,0.076614454,0.19153613,-9.002198,0.779936,47.71286,-1.158406,-1.9108188,-3.2956455,-0.0026306435,-0.16161591,-0.27511412,28.5,29.5625,28.8125,32.875,35.25,36.3125
0.17405437,1.3101428,-0.5692078,-0.5942843,0.0028118328,0.015206807,-0.17470193,-0.3880422,-0.34680006,0.06015309,-3.078308,0.61980206,0.0005598931,-0.078619175,0.023503808,-0.0010127509,0.021696007,-0.01051455,0.022800751,0.4691595,-1.4166181,1.9460067,-2.0980527,-1.5720228,2.4409811,-0.103090756,0.112087004,-0.1362017,0.04318007,-0.014874158,-0.12578385,0.13407528,0.21068975,-8.963891,0.85155696,47.70032,-0.9377558,-2.0066087,-3.4046686,-0.01265206,-0.15378511,-0.32497537,28.5,29.5625,28.8125,32.875,35.25,36.3125
0.17605428,0.71573174,-0.2800579,-0.6183553,0.006279619,0.009312605,-0.16340688,-0.38818407,-0.34677148,0.060138244,-3.0782886,0.6196248,0.00045047113,-0.077330634,0.022726746,-0.0027772738,0.023892425,-0.01543946,0.02220174,0.46898067,-1.4163522,1.9457077,-2.0979316,-1.5720228,2.4406943,-0.10068193,0.11644475,-0.1378029,0.04581015,-0.014617146,-0.12277433,0.15322891,0.038307227,-8.963891,0.81351066,47.67614,-1.1528051,-1.9083755,-3.294814,-0.0608513,-0.18776271,-0.42376873,28.5,29.5625,28.8125,32.875,35.25,36.3125
0.17805415,0.9827172,0.3046451,-0.59913665,0.003069366,0.020321773,-0.18000586,-0.38834256,-0.34673288,0.060140338,-3.078274,0.61950654,0.0004950313,-0.07801578,0.023380306,-0.0013824957,0.023364943,-0.0148572475,0.020361608,0.46879998,-1.4161369,1.9454445,-2.097883,-1.5720705,2.4404418,-0.1025473,0.114380136,-0.13926567,0.048570644,-0.014410952,-0.12280019,0.15322891,0.095768064,-8.944737,0.81351066,47.690468,-1.1902041,-1.8778646,-3.292192,-0.07562272,-0.18192326,-0.4509379,28.5,29.5625,28.8125,32.875,35.25,36.3125
0.1800538,0.6305607,-0.33421245,-0.7336164,0.014258241,0.018155884,-0.16733755,-0.38849726,-0.3466764,0.060132567,-3.0782027,0.61945295,0.00042552061,-0.07950351,0.0235415,-0.0011411088,0.024068516,-0.015311257,0.02094504,0.46858364,-1.4158956,1.945155,-2.0977504,-1.5721067,2.4402013,-0.10384783,0.11686495,-0.14318308,0.050717413,-0.014854202,-0.12468007,0.15322891,0.17238252,-8.944737,0.9030289,47.72002,-1.0675757,-1.9210377,-3.191228,-0.11297431,-0.18683828,-0.51757216,28.5,29.5625,28.8125,32.875,35.25,36.3125
0.18205445,0.25094762,-0.47984987,-0.76689917,0.004391057,0.019383986,-0.17202792,-0.38863835,-0.3466286,0.060123354,-3.0781674,0.6193831,0.00035785363,-0.078238465,0.024577698,-0.0026106627,0.026395366,-0.01985813,0.027198752,0.46837944,-1.415679,1.9449052,-2.0976536,-1.5721186,2.439958,-0.104480684,0.11804958,-0.14178015,0.053222865,-0.014888061,-0.13156661,0.11492168,0.17238252,-9.040505,0.82694155,47.70032,-1.1165745,-1.8689961,-3.3593795,-0.1627847,-0.19913556,-0.50994945,28.5,29.5625,28.8125,32.875,35.25,36.3125
0.18405403,0.29176617,-0.5999861,-1.0307227,-0.007905973,0.0323388,-0.17254943,-0.3887929,-0.34657234,0.060116272,-3.078106,0.61917377,0.00033633725,-0.0793183,0.025198761,-0.0027298431,0.027809555,-0.02099616,0.035621148,0.46818686,-1.415438,1.9446172,-2.097533,-1.5721906,2.439643,-0.10601484,0.12021085,-0.14451586,0.055426,-0.015662275,-0.141519,0.0,0.15322891,-9.078813,0.8023209,47.691364,-1.0981519,-1.9524922,-3.285482,-0.21221143,-0.20192271,-0.44087198,28.5,29.5625,28.8125,32.875,35.25,36.3125
0.18605436,-0.44773728,-1.0100759,-1.0093565,-0.010235475,0.027453935,-0.15968873,-0.388919,-0.3465254,0.060118295,-3.0780878,0.6190099,0.00020505572,-0.08056511,0.025052557,-0.00241784,0.027259042,-0.021360492,0.04486066,0.4679825,-1.415245,1.9443525,-2.0973651,-1.5721787,2.4393387,-0.10724181,0.12207983,-0.1477113,0.056809306,-0.01504142,-0.15198402,-0.095768064,0.17238252,-9.078813,0.800085,47.686886,-1.1629846,-1.9186957,-3.3047261,-0.23985831,-0.2110649,-0.3390481,28.5,29.5625,28.8125,32.875,35.25,36.3125
0.18805414,-0.31128052,-0.8300702,-1.3579316,-0.027653823,0.046638325,-0.17558019,-0.38911843,-0.34647566,0.06011322,-3.0780625,0.61888653,0.0001654613,-0.081523515,0.025258305,-0.0030185543,0.028551158,-0.022438988,0.051045667,0.46773016,-1.4149439,1.9439934,-2.0972574,-1.5722026,2.4390128,-0.10796737,0.12520777,-0.15016253,0.05766217,-0.015734976,-0.1588906,-0.11492168,0.22984336,-9.270349,0.81351066,47.687782,-1.0780945,-1.9651814,-3.318636,-0.28423542,-0.21107164,-0.25173247,28.5,29.5625,28.8125,32.875,35.25,36.3125
0.19005473,-0.95034623,-1.379615,-1.6169906,-0.0327816,0.06433911,-0.1606315,-0.38924247,-0.34642574,0.06009599,-3.0780058,0.6186421,7.9269885e-05,-0.08258519,0.026533691,-0.0018479477,0.027478985,-0.020551238,0.052865047,0.4675612,-1.4147167,1.9437417,-2.0971258,-1.5722507,2.4386985,-0.1111923,0.12233371,-0.14957692,0.057763517,-0.0156559,-0.16393429,-0.34476504,0.21068975,-9.385271,0.85155696,47.733456,-1.1251884,-1.9353435,-3.325274,-0.3362184,-0.2200731,-0.17942557,28.5,29.5625,28.8125,32.875,35.25,36.3125
0.1920544,-1.7972946,-1.9689971,-1.7237521,-0.040345345,0.08835835,-0.15640269,-0.38941503,-0.34637845,0.06010633,-3.0779736,0.61850166,5.0956678e-05,-0.08335399,0.02558491,-0.0035659182,0.028905157,-0.022224694,0.054367457,0.46734554,-1.414474,1.9434065,-2.0969827,-1.572287,2.4383996,-0.1098098,0.12861629,-0.15266529,0.05669845,-0.016199404,-0.16404931,-0.51714754,0.2873042,-9.519346,0.8112748,47.713753,-1.1916168,-1.938551,-3.2130022,-0.361458,-0.23360977,-0.19973189,28.5,29.5625,28.8125,32.875,35.25,36.3125
0.19405413,-1.9775105,-1.777466,-1.8472437,-0.05526703,0.11988084,-0.1688277,-0.38957652,-0.34632814,0.060103714,-3.0779753,0.61831677,-5.044016e-05,-0.08635828,0.026776277,-0.0019586235,0.02549631,-0.018546693,0.04151291,0.4671037,-1.4142345,1.943107,-2.096851,-1.572275,2.4380422,-0.115444794,0.12682977,-0.1539041,0.054909877,-0.0148288,-0.15683188,-0.59376204,0.24899697,-9.5385,0.8560339,47.704796,-1.0141158,-1.8802123,-3.2921896,-0.36285514,-0.2580565,-0.23331764,28.5,29.5625,28.8125,32.875,35.25,36.3125
0.1960542,-2.2494156,-1.946115,-1.7344276,-0.064992316,0.13208447,-0.16349137,-0.3897167,-0.34626082,0.06007084,-3.0778646,0.6180826,-0.00014784985,-0.08691181,0.02518866,-0.0015043281,0.024480429,-0.016249117,0.04006834,0.46691257,-1.413958,1.9428314,-2.096708,-1.572359,2.437719,-0.112992145,0.12816116,-0.15613788,0.053294815,-0.014986578,-0.15293059,-0.7661445,0.24899697,-9.730036,0.83813137,47.675243,-1.1342942,-1.8723959,-3.2963305,-0.38261604,-0.2654007,-0.31310737,28.5,29.5625,28.8125,32.875,35.25,36.3125
0.1980549,-2.035541,-1.8322927,-1.9081473,-0.0764765,0.15169053,-0.1709095,-0.38988617,-0.34621686,0.060069013,-3.0778818,0.618071,-0.00021331414,-0.08989945,0.026074184,-0.0016180426,0.023310253,-0.01336907,0.034710355,0.46665934,-1.4137291,1.9425563,-2.0966384,-1.5723227,2.4374566,-0.11700902,0.13030587,-0.15749516,0.049413994,-0.015257229,-0.1515867,-0.8619126,0.19153613,-9.768343,0.8314132,47.677036,-1.0486679,-1.9424706,-3.290553,-0.38784277,-0.29136214,-0.356853,28.5,29.5625,28.8125,32.875,35.25,36.3125
0.20005459,-2.4613154,-1.9586544,-2.0266614,-0.053519387,0.13453448,-0.15961848,-0.39009315,-0.34616837,0.060067836,-3.0778427,0.617891,-0.00014743624,-0.09227248,0.026851427,-0.0013418689,0.02348745,-0.0095077185,0.031081928,0.46644244,-1.4134283,1.9421967,-2.0965674,-1.5724076,2.4371326,-0.11922221,0.1312263,-0.15846524,0.046087984,-0.017166333,-0.15016446,-0.9002198,0.095768064,-9.883265,0.90750587,47.704796,-0.97734356,-1.9009271,-3.3189611,-0.36325634,-0.27495745,-0.40122852,28.5,29.5625,28.8125,32.875,35.25,36.3125
0.2020545,-2.064115,-0.8612482,-2.0128262,-0.048879728,0.12802553,-0.17182395,-0.39025578,-0.34612176,0.060057215,-3.0778408,0.61771643,-0.00022221156,-0.094177306,0.026774835,-0.00081018073,0.022643896,-0.0063029733,0.03276129,0.46621415,-1.4131758,1.9419087,-2.0964725,-1.5724076,2.4367957,-0.12027995,0.13215743,-0.16023612,0.0436798,-0.017880354,-0.15289703,-0.9385271,0.15322891,-9.864111,0.7978386,47.689575,-0.9000261,-1.8545213,-3.3626416,-0.3338009,-0.2763639,-0.40533978,28.5,29.5625,28.8125,32.875,35.25,36.3125
0.20405461,-2.0828533,-1.3020616,-1.6660153,-0.031791482,0.13069977,-0.15870516,-0.3904836,-0.34608364,0.060073186,-3.0778544,0.6177149,-0.00016866732,-0.09557434,0.025988307,-0.0003746162,0.020014336,-0.0027599605,0.038245678,0.46595028,-1.4128873,1.9415268,-2.0964143,-1.5724195,2.4365294,-0.12054027,0.13250825,-0.16071093,0.039437767,-0.017141368,-0.15864366,-0.9576807,0.095768064,-9.787497,0.800085,47.634937,-0.9473225,-1.822228,-3.4715552,-0.28863645,-0.32101375,-0.41938832,28.5,29.5625,28.8125,32.875,35.25,36.3125
0.20605458,-2.6209686,-0.62637687,-1.9079933,-0.03162716,0.11739482,-0.15973103,-0.3906618,-0.34600034,0.0600527,-3.0777931,0.6176025,-0.00021301245,-0.09601386,0.02540896,-0.0013527616,0.019954225,-0.0024348332,0.047011472,0.4656744,-1.4126341,1.9412631,-2.0963314,-1.5724677,2.4361913,-0.11976852,0.13523304,-0.16102289,0.036680985,-0.01726825,-0.16663514,-1.0151415,0.0,-9.80665,0.8403672,47.66987,-1.0737377,-1.9719388,-3.487902,-0.2638067,-0.31145412,-0.3283568,28.5,29.5625,28.8125,32.875,35.25,36.3125
0.20805441,-1.5476921,-0.060721874,-1.7998434,-0.025493395,0.13906714,-0.17714892,-0.39086396,-0.34596688,0.060055606,-3.0777855,0.61746055,-0.00019433515,-0.09798621,0.025722608,-0.0014539941,0.019960402,-0.001691525,0.055573463,0.46545762,-1.4123331,1.9408907,-2.096248,-1.5725039,2.435887,-0.12178614,0.1379273,-0.16379581,0.03607011,-0.017636416,-0.17721167,-0.8236054,-0.076614454,-9.825804,0.8090337,47.67614,-0.9893694,-1.8743963,-3.415644,-0.22931051,-0.3326633,-0.22567388,28.5,29.5625,28.8125,32.875,35.25,36.3125
0.21005394,-1.7956274,-0.14852695,-1.8786241,-0.012420301,0.1218082,-0.17750433,-0.39110067,-0.34595358,0.060092453,-3.0779107,0.61723316,-1.056924e-05,-0.09939466,0.025295833,-0.0010824669,0.020146627,4.2256062e-05,0.06165835,0.4652302,-1.41208,1.9405202,-2.0962713,-1.5725158,2.435502,-0.12161204,0.1398272,-0.16677548,0.035670303,-0.018574243,-0.18312043,-0.49799395,-0.1340753,-9.787497,0.9567419,47.74241,-1.2134646,-2.059126,-3.469068,-0.18993229,-0.32368666,-0.14691849,28.5,29.5625,28.8125,32.875,35.25,36.3125
0.21205468,-1.4699228,0.32615766,-1.9107555,-0.013375402,0.09543549,-0.170365,-0.39132518,-0.34588468,0.060111962,-3.0778708,0.61703414,0.00010562808,-0.09919026,0.026393628,-0.0028082205,0.02273762,-0.0038845905,0.06073957,0.46497738,-1.4118149,1.9401482,-2.096175,-1.5726241,2.4351304,-0.12294572,0.14289807,-0.16676183,0.037234467,-0.019126628,-0.18353379,-0.51714754,-0.1340753,-9.730036,0.8247004,47.72002,-1.069739,-2.120647,-3.5360441,-0.16366428,-0.33202592,-0.10246688,28.5,29.5625,28.8125,32.875,35.25,36.3125
0.21405445,-0.77375674,-0.060262866,-1.7106272,-0.003264876,0.07441935,-0.16813235,-0.39151326,-0.34579414,0.060072225,-3.0777934,0.61698323,-7.5993453e-06,-0.100083955,0.02645491,-0.003065057,0.022649063,-0.004097407,0.054794,0.4646651,-1.411514,1.9398731,-2.0960915,-1.5726484,2.4347963,-0.12388267,0.14475217,-0.16832134,0.03708981,-0.018972192,-0.1785226,-0.4213795,-0.1340753,-9.500193,0.87617236,47.703903,-1.1314359,-2.130539,-3.603254,-0.15452716,-0.36170602,-0.12645964,28.5,29.5625,28.8125,32.875,35.25,36.3125
0.21605437,-0.14044173,-0.000768759,-1.519217,-0.015024681,0.06130832,-0.16892454,-0.39172006,-0.34576553,0.06009196,-3.0778258,0.61670667,6.564857e-05,-0.101511575,0.027100528,-0.0031311489,0.02310406,-0.002821712,0.046207048,0.46446067,-1.4112374,1.9394902,-2.0960085,-1.5726961,2.4344153,-0.12560576,0.14596422,-0.16935185,0.03597711,-0.019943185,-0.17165543,-0.3256114,-0.11492168,-9.423578,0.83589023,47.66539,-1.083302,-2.1449416,-3.5347753,-0.1170605,-0.34777158,-0.19839483,28.5,29.5625,28.8125,32.875,35.25,36.3125
0.21805423,0.21151681,-0.005759151,-1.60122,-0.020943625,0.043571528,-0.15724887,-0.39195406,-0.3457005,0.06009003,-3.077787,0.61668205,0.00016291099,-0.10392676,0.027254378,-0.001873814,0.022705967,0.00028573713,0.039920885,0.46418402,-1.4109365,1.9391421,-2.0959842,-1.572769,2.4341285,-0.12728472,0.14674298,-0.17318074,0.036066256,-0.020978998,-0.16704373,-0.19153613,-0.076614454,-9.500193,0.8314132,47.681515,-1.0720882,-2.0985112,-3.43286,-0.06722103,-0.34463298,-0.28221768,28.5,29.5625,28.8125,32.875,35.25,36.3125
0.2200542,0.718081,-0.2240924,-1.5442159,-0.012196377,0.035908222,-0.16951427,-0.39216268,-0.3456365,0.060085654,-3.0777693,0.61658543,0.0001782083,-0.10495298,0.026970806,-0.0016776287,0.02337835,-0.00061970914,0.03462072,0.4639081,-1.4106591,1.9388183,-2.0959237,-1.5728048,2.4337947,-0.1274983,0.14938353,-0.17730041,0.038656253,-0.021175304,-0.1619544,-0.038307227,-0.019153614,-9.461885,0.8918391,47.71465,-1.1261994,-2.3141308,-3.403214,-0.07103778,-0.36112654,-0.367696,28.5,29.5625,28.8125,32.875,35.25,36.3125
0.222054,0.5903387,-0.41428304,-1.324185,-0.019234518,0.027781371,-0.16338034,-0.39237255,-0.34557498,0.060076132,-3.0777252,0.61646324,0.00016334702,-0.10627437,0.027210584,-0.00072468456,0.022984074,-4.1171716e-05,0.029803863,0.46364358,-1.4103472,1.9384583,-2.0958273,-1.572853,2.4334598,-0.12907769,0.14967655,-0.18031578,0.040678542,-0.02108876,-0.15871516,0.0,0.114921674,-9.3661175,0.8672237,47.69763,-1.0894401,-1.9791607,-3.304613,-0.066497795,-0.34689045,-0.46897444,28.5,29.5625,28.8125,32.875,35.25,36.3125
0.22405463,0.3569132,-1.0529503,-1.4617065,-0.019075807,0.026404325,-0.16367674,-0.39257377,-0.34553182,0.06008974,-3.0777318,0.616328,0.00018145134,-0.10685428,0.027276698,-0.0005476807,0.023147361,-5.3912518e-05,0.031146098,0.4634037,-1.4100828,1.9381002,-2.095731,-1.5728768,2.4331348,-0.12954335,0.15045074,-0.18183495,0.04149577,-0.021236315,-0.16052194,0.05746084,0.2681506,-9.289502,0.88289046,47.693153,-1.1888312,-2.0342631,-3.2088532,-0.052498955,-0.36201733,-0.5041807,28.5,29.5625,28.8125,32.875,35.25,36.3125
0.22605385,0.5489803,-1.3339463,-1.5429881,-0.031700235,0.033026177,-0.17161848,-0.39279035,-0.34549412,0.06008166,-3.0777144,0.6161831,0.00020939135,-0.10696958,0.027124755,-0.00049873575,0.024031077,-0.0012070449,0.042172816,0.46317554,-1.4097459,1.9377159,-2.09567,-1.572925,2.4328187,-0.12911357,0.151716,-0.18396547,0.04375195,-0.021532753,-0.17111701,0.21068975,0.4405331,-9.385271,0.8940802,47.657326,-1.090938,-2.05888,-3.2417154,-0.053048078,-0.37337798,-0.47168747,28.5,29.5625,28.8125,32.875,35.25,36.3125
0.22805445,-0.3746191,-1.9561228,-1.1065568,-0.07125134,0.03577643,-0.16274641,-0.3930099,-0.3454125,0.060090195,-3.0776556,0.61605066,0.00028311778,-0.10866823,0.028988013,-0.0005475392,0.024381304,-0.0027352606,0.05030569,0.4628979,-1.4094813,1.9373692,-2.0955741,-1.5730208,2.432466,-0.13405252,0.15273337,-0.18551995,0.045758218,-0.021189302,-0.18418922,0.22984336,0.57460845,-9.3661175,0.8806493,47.666286,-1.1007645,-2.026075,-3.1970186,-0.05751375,-0.36055282,-0.3774807,28.5,29.5625,28.8125,32.875,35.25,36.3125
0.23005405,0.013990487,-1.9799113,-1.2071146,-0.08111153,0.04706091,-0.1679919,-0.39322117,-0.345363,0.06009595,-3.077643,0.615813,0.00025351817,-0.10892509,0.028621087,0.00031958046,0.024485078,-0.001978846,0.060735945,0.46264628,-1.4091691,1.9369625,-2.0954292,-1.573057,2.4320679,-0.13326088,0.15236335,-0.18749522,0.04743949,-0.021648988,-0.19382489,0.076614454,0.5746084,-9.404425,0.9030289,47.7245,-1.1417651,-1.9816264,-3.3153043,-0.038061514,-0.3658465,-0.250843,28.5,29.5625,28.8125,32.875,35.25,36.3125
0.23205477,0.3711741,-1.9016457,-1.179408,-0.086551465,0.053774007,-0.16909255,-0.3934452,-0.34531862,0.06010665,-3.0776823,0.61560893,0.00024777916,-0.10887671,0.030017497,-0.00091071584,0.02654636,-0.00528109,0.063276716,0.46236935,-1.4088682,1.9365686,-2.0953333,-1.573057,2.4316587,-0.1353571,0.15413548,-0.18717651,0.04920808,-0.02202791,-0.19846089,0.0,0.5554548,-9.270349,0.85155696,47.707485,-1.1035992,-1.892824,-3.3540998,-0.049021192,-0.37666,-0.18701145,28.5,29.5625,28.8125,32.875,35.25,36.3125
0.23405443,-0.079797685,-2.0599563,-1.0727762,-0.079707205,0.04543619,-0.15594132,-0.39366657,-0.34527576,0.060110945,-3.0777164,0.61542565,0.00026998608,-0.11022188,0.030183936,-0.0011343273,0.026992716,-0.005462521,0.059033606,0.46210527,-1.4085666,1.9361967,-2.0952733,-1.573069,2.431276,-0.13655488,0.15676886,-0.18984275,0.049603045,-0.022348663,-0.19541326,-0.076614454,0.57460845,-9.174581,0.8560339,47.667187,-1.0273294,-2.0753093,-3.3103805,-0.020623159,-0.38533413,-0.16341616,28.5,29.5625,28.8125,32.875,35.25,36.3125
0.23605424,0.73744625,-1.3695004,-0.9904535,-0.068010606,0.060445093,-0.16510524,-0.39389876,-0.34519127,0.060106672,-3.0776508,0.615225,0.00027345374,-0.111245506,0.030196818,-0.0008513177,0.026290385,-0.0050022323,0.05069523,0.46180472,-1.4082428,1.9358023,-2.0951416,-1.5731534,2.4308589,-0.13766329,0.15768792,-0.19162883,0.049738847,-0.021933015,-0.18818243,-0.13407528,0.40222588,-9.155427,0.9231726,47.655537,-1.0807675,-1.7743175,-3.2928743,-0.028906636,-0.39262193,-0.2459116,28.5,29.5625,28.8125,32.875,35.25,36.3125
0.23805507,-0.09444903,-1.231799,-1.037379,-0.037119552,0.0405951,-0.15582122,-0.39411268,-0.3451554,0.060105827,-3.0776536,0.6151333,0.00023971376,-0.11285836,0.030434674,0.00026354392,0.025219737,-0.0030447273,0.044051442,0.46155217,-1.4079182,1.935407,-2.0950453,-1.5731534,2.430549,-0.13947816,0.15739384,-0.19397672,0.050157934,-0.021850709,-0.18335232,-0.19153613,0.30645782,-9.212888,0.8717007,47.681515,-1.0387366,-1.8700814,-3.20678,0.0017775099,-0.38808072,-0.35554865,28.5,29.5625,28.8125,32.875,35.25,36.3125
0.24005376,0.58832693,0.10069331,-0.8510528,-0.03479175,0.0673387,-0.17455931,-0.39433622,-0.34509328,0.06009075,-3.0776339,0.61491996,0.00023611233,-0.11287887,0.031096373,8.9262074e-05,0.026715543,-0.0057224766,0.039977197,0.4612759,-1.4075817,1.9350356,-2.094972,-1.5732015,2.4301422,-0.1404848,0.15852945,-0.19578564,0.053888764,-0.02199902,-0.18028308,-0.15322891,0.30645782,-9.212888,0.9388393,47.688675,-0.92497057,-1.844489,-3.269731,-0.024284821,-0.41767535,-0.39476296,28.5,29.5625,28.8125,32.875,35.25,36.3125
0.24205422,-0.1435951,0.16983175,-0.8935602,-0.009000783,0.067517675,-0.16444208,-0.39458376,-0.34503797,0.060104754,-3.077601,0.61487526,0.00030373386,-0.11463987,0.033097304,-0.00015522324,0.027885074,-0.0057648434,0.038035203,0.46099824,-1.4072568,1.9346064,-2.094877,-1.5732616,2.429841,-0.14481166,0.15942647,-0.19635893,0.054104134,-0.023035621,-0.18266454,-0.19153614,0.019153614,-9.193734,0.8605109,47.67614,-0.9394561,-1.7831371,-3.340065,-0.027831838,-0.41126466,-0.438334,28.5,29.5625,28.8125,32.875,35.25,36.3125
0.2440537,-0.38981193,0.5490805,-0.6301973,-0.00077668217,0.07934137,-0.16564618,-0.39479086,-0.34497434,0.060094614,-3.077614,0.61460346,0.00024909884,-0.11377163,0.03291787,-0.0010209085,0.030359419,-0.009311797,0.046497203,0.46071094,-1.4069556,1.9342588,-2.0947793,-1.5732735,2.4293826,-0.14322565,0.161969,-0.19816427,0.057619907,-0.0236979,-0.18953663,-0.28730422,-0.05746084,-9.136273,0.8851263,47.704796,-1.023566,-1.8355314,-3.3355727,-0.033313483,-0.41341954,-0.39824915,28.5,29.5625,28.8125,32.875,35.25,36.3125
0.24605447,0.12963468,0.814859,-0.5827131,0.006820814,0.107864805,-0.17219983,-0.39502588,-0.3448999,0.06006636,-3.0775387,0.61446536,0.00019508843,-0.11318544,0.033566196,-0.00267691,0.033494737,-0.015230043,0.05821333,0.4604109,-1.4065698,1.9338521,-2.09467,-1.5733336,2.429006,-0.1436255,0.1660756,-0.20023888,0.06223294,-0.023917558,-0.20164913,-0.40222588,-0.095768064,-9.136273,0.81351066,47.647476,-1.0417333,-1.9875004,-3.3213847,-0.07894082,-0.42006367,-0.30515876,28.5,29.5625,28.8125,32.875,35.25,36.3125
0.24805418,-0.07789731,1.2663171,-0.61233205,0.023138864,0.10096395,-0.17634664,-0.39525548,-0.3448251,0.060069606,-3.0774796,0.61427593,0.00018355537,-0.11253472,0.034026124,-0.0025035914,0.03465929,-0.01838421,0.06650306,0.4601228,-1.4062458,1.9334339,-2.0945127,-1.5734056,2.4286075,-0.14398664,0.16599572,-0.20167972,0.06705069,-0.023590457,-0.21029995,-0.30645782,-0.24899697,-9.155427,0.9186956,47.664497,-1.1062882,-1.8625748,-3.334743,-0.15466106,-0.42271292,-0.15968569,28.5,29.5625,28.8125,32.875,35.25,36.3125
0.25005385,-0.23701672,1.1096218,-0.6215492,0.04538019,0.08692476,-0.16431731,-0.3954818,-0.34476537,0.06007622,-3.0774755,0.61408246,0.00015876871,-0.11408779,0.03445501,-0.0022971262,0.035088997,-0.017085996,0.06842588,0.45983422,-1.405933,1.9330267,-2.094381,-1.5734304,2.4281988,-0.14538786,0.16740184,-0.20375182,0.066726655,-0.02458067,-0.21361855,-0.38307226,-0.30645782,-9.155427,0.89631605,47.71286,-1.0708357,-1.8622828,-3.3495035,-0.16962245,-0.42818704,-0.0876627,28.5,29.5625,28.8125,32.875,35.25,36.3125
0.25205454,0.0994273,1.6127902,-0.55071265,0.034485,0.090719916,-0.16605589,-0.3956916,-0.34470683,0.060053322,-3.0774324,0.61384785,7.047707e-05,-0.11507961,0.035596695,-0.0028086817,0.03809986,-0.0183458,0.061790355,0.45956996,-1.4055717,1.9326304,-2.0942485,-1.5734671,2.4277937,-0.14681374,0.16993108,-0.20607798,0.06899679,-0.026738068,-0.20839775,-0.47884035,-0.36391866,-9.174581,0.8023209,47.696735,-1.0955484,-2.0994678,-3.2292728,-0.20546418,-0.4008891,-0.15570734,28.5,29.5625,28.8125,32.875,35.25,36.3125
0.25405413,-0.1660482,1.4985149,-0.91446483,0.03929912,0.07567994,-0.16166669,-0.3959318,-0.34462336,0.060042765,-3.077346,0.6137189,2.8523607e-05,-0.115725994,0.036227338,-0.0032018854,0.039979942,-0.019024044,0.053599194,0.45925778,-1.4052106,1.9322008,-2.0940926,-1.5735391,2.4274123,-0.14750835,0.17176148,-0.207613,0.07014666,-0.028135395,-0.20089303,-0.5554548,-0.4213795,-9.251195,0.88960326,47.69763,-1.0431237,-2.0533323,-3.323525,-0.23464082,-0.39408827,-0.2269755,28.5,29.5625,28.8125,32.875,35.25,36.3125
0.2560537,-0.114996284,1.175755,-0.72119695,0.028811624,0.08721375,-0.17217788,-0.39615425,-0.34453684,0.06002568,-3.077277,0.6135365,-9.032649e-05,-0.11559903,0.036837447,-0.003915446,0.04232236,-0.020352509,0.046546258,0.4589338,-1.4048618,1.931795,-2.0939133,-1.5735763,2.4269834,-0.14740762,0.17320116,-0.20796147,0.071294494,-0.029664181,-0.19373001,-0.6512228,-0.40222588,-9.3661175,0.8717007,47.67614,-1.0536363,-2.1981928,-3.380557,-0.26346442,-0.39939907,-0.33621347,28.5,29.5625,28.8125,32.875,35.25,36.3125
0.2580547,-1.1720655,0.29115105,-0.80731165,0.0022770283,0.09126499,-0.16613051,-0.39638218,-0.344467,0.06000919,-3.0772138,0.61333495,-0.00011527793,-0.117617786,0.037865814,-0.0028988034,0.042950105,-0.018009905,0.03841102,0.4586568,-1.4045017,1.9313878,-2.0937927,-1.5736483,2.4265888,-0.14986993,0.17312595,-0.21040493,0.07199175,-0.031278748,-0.18804777,-0.6512228,-0.28730422,-9.346964,0.88289046,47.67793,-0.96153104,-2.1233048,-3.4114397,-0.30885592,-0.35376683,-0.45629454,28.5,29.5625,28.8125,32.875,35.25,36.3125
0.2600546,-1.1623516,-0.15736698,-1.0597967,-0.0050382637,0.108806126,-0.16838418,-0.39660943,-0.34437197,0.059995063,-3.0771048,0.61327296,-0.00023737483,-0.11823567,0.037858207,-0.0031409964,0.04369809,-0.017625967,0.039419007,0.45832092,-1.4041523,1.9309691,-2.09359,-1.5736965,2.4262283,-0.14974165,0.17471209,-0.21166067,0.07162931,-0.03216208,-0.18891907,-0.6895301,-0.11492168,-9.346964,0.88960326,47.692257,-1.1438451,-2.218691,-3.4947214,-0.33465764,-0.34429657,-0.50191724,28.5,29.5625,28.8125,32.875,35.25,36.3125
0.2620552,-1.315867,-0.60386294,-1.0470545,-0.036610097,0.12654182,-0.17616439,-0.39684632,-0.34428516,0.060002033,-3.0770001,0.61307293,-0.00019047898,-0.119776405,0.037636973,-0.0032755632,0.04342225,-0.016811322,0.048614204,0.45804483,-1.403827,1.930538,-2.0934222,-1.5738286,2.4258409,-0.15050438,0.17739502,-0.21429767,0.070666105,-0.032330107,-0.19887282,-0.6512229,0.0,-9.442732,0.83365434,47.689575,-1.1749775,-2.3573759,-3.393839,-0.34228456,-0.32540607,-0.49896502,28.5,29.5625,28.8125,32.875,35.25,36.3125
0.2640539,-1.6210451,-1.5040482,-1.265993,-0.048598483,0.12946095,-0.17048803,-0.39710465,-0.34421638,0.05997858,-3.0769744,0.6128681,-0.00023484023,-0.12090521,0.03729556,-0.003428506,0.042561427,-0.015472657,0.061500654,0.4577208,-1.4034184,1.930096,-2.0933278,-1.5738648,2.4253924,-0.15085815,0.17910118,-0.21551557,0.068536215,-0.032215513,-0.21211068,-0.5363012,0.11492168,-9.442732,0.8985519,47.70032,-1.1309516,-2.1148465,-3.4287767,-0.3417066,-0.3146727,-0.36096025,28.5,29.5625,28.8125,32.875,35.25,36.3125
0.26605442,-1.2183702,-1.1719025,-1.5495961,-0.06297892,0.13354777,-0.1840937,-0.3973282,-0.34411255,0.05994984,-3.0768714,0.61266863,-0.00030632684,-0.12308326,0.037478745,-0.002847425,0.04289114,-0.011010874,0.07215176,0.45739666,-1.40307,1.929725,-2.0931847,-1.5739497,2.424957,-0.15149538,0.18002811,-0.21727175,0.06545115,-0.03456019,-0.22338407,-0.38307226,0.2681506,-9.672575,0.9186956,47.658226,-1.2339023,-2.1881204,-3.4568167,-0.34674752,-0.30002367,-0.20915055,28.5,29.5625,28.8125,32.875,35.25,36.3125
0.26805392,-1.0728008,-2.1062698,-1.6881344,-0.06889068,0.124508776,-0.17016639,-0.39758477,-0.3440416,0.059956867,-3.0768204,0.6124257,-0.00026185822,-0.12443346,0.036741033,-0.0021263629,0.042061474,-0.006600272,0.07438284,0.4571091,-1.4027094,1.9292582,-2.0930426,-1.574046,2.4245245,-0.15048711,0.18026571,-0.21848677,0.062073957,-0.035792526,-0.22459947,-0.4596867,0.36391866,-9.653421,0.8605109,47.68062,-1.2612706,-2.1361082,-3.4877934,-0.32500672,-0.26093662,-0.15652779,28.5,29.5625,28.8125,32.875,35.25,36.3125
0.27005458,-0.878337,-2.247913,-1.4230963,-0.09260675,0.11063246,-0.17435348,-0.39784083,-0.34395304,0.05993532,-3.076736,0.6122441,-0.00029216925,-0.1267882,0.037895463,-0.0023934362,0.04102681,-0.004718014,0.06374238,0.45678326,-1.4023122,1.9288167,-2.092912,-1.5741299,2.4240963,-0.15451857,0.18171887,-0.21891275,0.05889384,-0.035710577,-0.21798702,-0.5554548,0.40222588,-9.615114,0.9545008,47.703903,-1.0946093,-2.2626834,-3.6394763,-0.28271052,-0.22163263,-0.21693815,28.5,29.5625,28.8125,32.875,35.25,36.3125
0.27205426,-0.4529772,-1.8442178,-1.5885416,-0.09762803,0.091475934,-0.17082416,-0.39808425,-0.3438746,0.059917696,-3.0766873,0.61202484,-0.000326974,-0.12940094,0.03706219,-0.0016805285,0.03887717,-0.00063893606,0.05756237,0.4564713,-1.4019394,1.928397,-2.0927937,-1.57419,2.4236538,-0.15529338,0.18385282,-0.2223335,0.055566657,-0.03560061,-0.21257752,-0.40222588,0.4213795,-9.615114,0.8605109,47.703007,-1.161311,-2.087732,-3.558158,-0.22377732,-0.19540489,-0.29571798,28.5,29.5625,28.8125,32.875,35.25,36.3125
0.27405402,-0.06347621,-2.1513383,-1.9161998,-0.072279826,0.069379814,-0.1723679,-0.39837384,-0.34379852,0.059931505,-3.0766559,0.61190623,-0.00019527401,-0.1320028,0.037809446,-0.0007299614,0.037336353,0.002874761,0.051615447,0.45614624,-1.4015794,1.9279312,-2.0927227,-1.5742859,2.423259,-0.15864612,0.18385817,-0.22409715,0.053470384,-0.035764456,-0.2099829,-0.21068975,0.40222588,-9.672575,0.9254084,47.71286,-1.0744,-2.0324621,-3.645827,-0.20096135,-0.18526423,-0.38045406,28.5,29.5625,28.8125,32.875,35.25,36.3125
0.27605382,0.41979703,-1.8444854,-1.6914755,-0.07163705,0.06419384,-0.18052465,-0.39865178,-0.3437313,0.0599289,-3.076647,0.6117316,-0.00019412398,-0.13442463,0.03803225,-0.00042733407,0.03586494,0.0050300444,0.05022202,0.45580932,-1.401182,1.927451,-2.0926158,-1.5743221,2.4228144,-0.16124246,0.1857689,-0.2266321,0.05148681,-0.035415374,-0.21118496,-0.13407528,0.4213795,-9.749189,0.95002913,47.660015,-0.83611625,-2.1529791,-3.6128788,-0.14969745,-0.15492725,-0.40852946,28.5,29.5625,28.8125,32.875,35.25,36.3125
0.2780539,0.038156036,-1.658331,-1.9436638,-0.051510856,0.036965277,-0.1722912,-0.3989309,-0.34363246,0.059916675,-3.076579,0.61159754,-0.00011246977,-0.13597022,0.037543047,0.00054531195,0.03404158,0.0072935806,0.058059182,0.45546114,-1.4008095,1.9270324,-2.0925558,-1.5744294,2.4223914,-0.16198382,0.18618402,-0.22924072,0.05077633,-0.034813203,-0.21976466,-0.019153614,0.4405331,-9.672575,0.90750587,47.687782,-0.92710745,-2.1661882,-3.5062625,-0.13043691,-0.13510244,-0.34912032,28.5,29.5625,28.8125,32.875,35.25,36.3125
0.28005397,0.03662197,-1.6812704,-1.8044758,-0.04804126,0.04048363,-0.17881653,-0.39917275,-0.34357503,0.059916604,-3.0765886,0.61132234,-0.00011447844,-0.1357585,0.037441432,-0.00027498207,0.034374595,0.00525997,0.070443824,0.4551732,-1.4004606,1.9266022,-2.092448,-1.5744656,2.4219306,-0.16186425,0.18808599,-0.2297605,0.05130072,-0.034263305,-0.23203115,0.019153614,0.34476504,-9.749189,0.9388393,47.69763,-0.9562894,-2.0303082,-3.5441532,-0.09973247,-0.11074102,-0.2220166,28.5,29.5625,28.8125,32.875,35.25,36.3125
0.28205395,0.042882085,-1.4125572,-1.6017151,-0.055220403,0.047085315,-0.17763524,-0.39943597,-0.34349185,0.059887532,-3.076513,0.61107534,-0.00021671782,-0.1362348,0.03802651,-0.0012299033,0.035360295,0.0011350976,0.0751971,0.45483646,-1.4000151,1.926112,-2.0922787,-1.5745252,2.4214494,-0.16374621,0.19153489,-0.23241693,0.054593027,-0.03338793,-0.23866528,0.1340753,0.24899697,-9.730036,0.8940802,47.70838,-0.99260473,-2.0406916,-3.636016,-0.089411974,-0.12301502,-0.118787944,28.5,29.5625,28.8125,32.875,35.25,36.3125
0.28405455,-0.20991808,-1.5343453,-1.7938737,-0.039269667,0.024393436,-0.17052166,-0.39971668,-0.34342048,0.05988707,-3.076516,0.6108464,-0.00012302204,-0.1373958,0.036848478,-0.0004606339,0.03365262,0.00329236,0.073905796,0.45451322,-1.3996423,1.9256686,-2.0922315,-1.5745968,2.420983,-0.16292787,0.19266753,-0.23535737,0.053691756,-0.03280169,-0.23655765,0.095768064,0.2681506,-9.691729,0.90750587,47.668976,-1.1081687,-2.165253,-3.5292282,-0.08031413,-0.10317362,-0.090986185,28.5,29.5625,28.8125,32.875,35.25,36.3125
0.2860542,0.42235556,-0.8792344,-1.5397933,-0.05261873,0.028296903,-0.17434117,-0.40002066,-0.34334406,0.059911575,-3.0765126,0.6105805,5.7942457e-06,-0.13917193,0.036288414,0.0011477411,0.031166127,0.0058125565,0.064865015,0.45417672,-1.3992698,1.9251546,-2.0921233,-1.5746926,2.4204812,-0.16407543,0.19241737,-0.23890504,0.054128554,-0.031651445,-0.22866939,0.076614454,0.2873042,-9.615114,0.8493211,47.698532,-0.9874822,-2.1504002,-3.4676452,-0.029293504,-0.09929055,-0.17831168,28.5,29.5625,28.8125,32.875,35.25,36.3125
0.28805384,0.5263252,-1.0156903,-1.4887558,-0.047025647,0.014863662,-0.17316887,-0.40029663,-0.34329504,0.059918053,-3.0765266,0.61047554,-1.3713998e-05,-0.14094087,0.036782127,0.0016533242,0.030584091,0.005491417,0.0541317,0.45385164,-1.3988732,1.9246505,-2.0920036,-1.5746921,2.420089,-0.1667749,0.19405572,-0.24249354,0.056132488,-0.030971512,-0.22063674,0.15322891,0.15322891,-9.634268,0.86498255,47.683304,-0.8907082,-2.1953623,-3.4520168,-0.017502155,-0.10352644,-0.26697862,28.5,29.5625,28.8125,32.875,35.25,36.3125
0.29005468,0.6739077,-0.68370426,-1.6114671,-0.029628845,-0.010745501,-0.17431104,-0.4005499,-0.3432029,0.059888907,-3.0764372,0.61025155,-1.06216385e-05,-0.14108376,0.037141457,0.00147141,0.030950552,0.002827343,0.044243187,0.4535393,-1.3984759,1.9242324,-2.0919058,-1.5747999,2.4196484,-0.16795483,0.1954155,-0.2444458,0.059280343,-0.030122632,-0.21192928,0.038307227,0.1340753,-9.595961,0.85155696,47.696735,-0.8916687,-2.219296,-3.4562836,-0.012451106,-0.080586925,-0.4151423,28.5,29.5625,28.8125,32.875,35.25,36.3125
0.29205427,0.37027708,-0.62854815,-1.484729,-0.022996016,-0.0068730935,-0.17690898,-0.4008325,-0.3431283,0.059898634,-3.0764098,0.6100741,1.1992817e-05,-0.14314575,0.03769047,0.0014768553,0.029099954,0.0035614888,0.04091863,0.45320222,-1.3980912,1.9237298,-2.0917637,-1.5748595,2.4192042,-0.17140749,0.1970994,-0.24616465,0.0578173,-0.028796662,-0.21206182,0.019153614,0.11492168,-9.519346,0.85155696,47.674347,-0.8867873,-2.252551,-3.3891118,0.021160891,-0.09575613,-0.49024397,28.5,29.5625,28.8125,32.875,35.25,36.3125
0.294054,-0.1724876,-0.9912074,-1.3782951,-0.02132734,0.0059021264,-0.1831514,-0.40114784,-0.34305024,0.059912775,-3.076396,0.61000496,0.000105155945,-0.14252208,0.036459334,0.0010713676,0.02904688,0.0011003944,0.053272966,0.45283115,-1.397694,1.9232153,-2.0916789,-1.5749191,2.418792,-0.16925608,0.19947396,-0.24856767,0.059965305,-0.02770118,-0.22226995,0.095768064,0.076614454,-9.500193,0.8224646,47.681515,-0.98801553,-2.368232,-3.2463698,0.03048912,-0.12342659,-0.46269113,28.5,29.5625,28.8125,32.875,35.25,36.3125
0.29605487,-0.5149148,-0.8188907,-1.264949,-0.021831233,0.02837948,-0.18592048,-0.40140897,-0.3430052,0.059909027,-3.0764542,0.6096818,5.5512828e-05,-0.14210948,0.035993166,0.000920499,0.028956486,-0.0020941664,0.06916366,0.45251927,-1.3972971,1.922736,-2.0915697,-1.5749067,2.418271,-0.16886005,0.20105305,-0.25094557,0.06352113,-0.026278917,-0.23777008,-0.095768064,0.19153613,-9.385271,0.85155696,47.68062,-0.94499856,-2.2593834,-3.1960397,0.021749076,-0.11467624,-0.29816672,28.5,29.5625,28.8125,32.875,35.25,36.3125
0.29805544,-1.0727981,-0.7305392,-1.3091592,-0.029792609,0.051624745,-0.18023346,-0.4016855,-0.34293708,0.059904598,-3.0764198,0.609401,5.3584692e-05,-0.14095378,0.03641759,-0.0001042475,0.030324461,-0.0074279206,0.07737215,0.45220706,-1.3968763,1.9222225,-2.0914242,-1.5749782,2.417788,-0.16916238,0.20273711,-0.25162655,0.06784807,-0.02521475,-0.24628498,-0.21068975,0.21068975,-9.423578,0.81351066,47.66987,-1.043968,-2.2580276,-3.3364096,0.011771632,-0.13551512,-0.20282675,28.5,29.5625,28.8125,32.875,35.25,36.3125
0.30005425,-1.3297125,-1.1825936,-1.4438396,-0.03086041,0.071861446,-0.17686301,-0.40193516,-0.3428506,0.059899136,-3.076371,0.6091448,-2.9070981e-05,-0.13977225,0.036874272,-0.0006266904,0.031693313,-0.011586258,0.07435015,0.45187116,-1.3965036,1.9217566,-2.0912316,-1.5750264,2.4172986,-0.16919439,0.20321229,-0.25201327,0.07208948,-0.024642695,-0.2432958,-0.3256114,0.17238252,-9.481039,0.83365434,47.687782,-1.1129849,-2.213894,-3.380551,-0.028051456,-0.13336639,-0.1860151,28.5,29.5625,28.8125,32.875,35.25,36.3125
0.3020543,-1.4588393,-0.7980797,-1.1084496,-0.041448507,0.07357811,-0.17918193,-0.40222427,-0.3427748,0.059903074,-3.076321,0.6089472,-3.0112127e-05,-0.13854137,0.03742383,-0.0008689975,0.03304813,-0.015334827,0.06587537,0.4515352,-1.3960832,1.9212188,-2.0910623,-1.5750979,2.4168458,-0.16924769,0.20293936,-0.252223,0.076546945,-0.024208428,-0.23487587,-0.45968673,0.11492168,-9.404425,0.7709874,47.675243,-1.2080966,-2.1981938,-3.5307522,-0.072744414,-0.15597716,-0.27887657,28.5,29.5625,28.8125,32.875,35.25,36.3125
0.304055,-1.4498743,-0.59389967,-0.9422034,-0.03380073,0.0676863,-0.17842807,-0.40250483,-0.3426763,0.059886076,-3.0762577,0.60872376,-3.4682267e-05,-0.13869096,0.0380066,-0.0008677764,0.034002766,-0.017150618,0.060133774,0.45117515,-1.3956743,1.9207529,-2.0909412,-1.5751823,2.4163544,-0.170224,0.20364097,-0.25377136,0.07943793,-0.024281234,-0.2301085,-0.49799395,0.11492168,-9.404425,0.9321212,47.67614,-1.1849645,-2.2416074,-3.566606,-0.11983371,-0.16835637,-0.36235166,28.5,29.5625,28.8125,32.875,35.25,36.3125
0.30605498,-1.7373852,-0.8259196,-1.1328435,-0.0062039145,0.041874968,-0.17544174,-0.4028058,-0.3426206,0.0599162,-3.0762796,0.60863304,-1.0047453e-06,-0.13894454,0.037994605,0.00033467167,0.03502742,-0.017413052,0.06100504,0.45082712,-1.3952903,1.9202026,-2.0907962,-1.5751942,2.4159472,-0.16976582,0.2032119,-0.2570756,0.08384443,-0.025093183,-0.23051748,-0.49799395,0.0,-9.3661175,0.92764956,47.70211,-1.2459478,-2.0583396,-3.6506019,-0.19926523,-0.15211582,-0.39949954,28.5,29.5625,28.8125,32.875,35.25,36.3125
0.30805418,-0.91997665,-0.0066903206,-0.8059416,0.007975088,0.04942792,-0.18337725,-0.40307805,-0.3425537,0.059896525,-3.076258,0.60827804,-3.827609e-05,-0.14053199,0.037796557,0.0014147926,0.03368267,-0.015053148,0.06888653,0.4505147,-1.3948461,1.9196991,-2.090665,-1.5752543,2.415416,-0.17072634,0.20329913,-0.259666,0.08357539,-0.024973497,-0.23935755,-0.4213795,-0.05746084,-9.346964,0.9567419,47.674347,-1.1882652,-1.8966827,-3.5374866,-0.2094352,-0.17606446,-0.36874977,28.5,29.5625,28.8125,32.875,35.25,36.3125
0.31005442,-0.69883037,0.38042998,-1.0176047,0.021376334,0.045477297,-0.17466459,-0.40337273,-0.34247622,0.059917387,-3.0762687,0.6080423,-5.5170607e-05,-0.14120778,0.038581885,0.0019940874,0.03403973,-0.016667232,0.08107611,0.45014194,-1.3944618,1.9191612,-2.090484,-1.5752782,2.4148948,-0.17274144,0.20351715,-0.2621734,0.087392285,-0.024656465,-0.25356293,-0.30645782,-0.05746084,-9.232041,0.99031126,47.67614,-1.2376797,-1.8317561,-3.4077551,-0.23808296,-0.17513175,-0.22652009,28.5,29.5625,28.8125,32.875,35.25,36.3125
0.3120542,-1.1527246,0.16626152,-1.1517215,0.03648524,0.034410138,-0.16829348,-0.40367386,-0.34237772,0.059920724,-3.0762239,0.6079336,-0.00010363211,-0.14135419,0.03812387,0.0017973089,0.0345221,-0.016729953,0.08888694,0.44973466,-1.3940526,1.9186348,-2.0903046,-1.5753139,2.4144256,-0.17162544,0.20499513,-0.26355335,0.087512575,-0.025118176,-0.26025343,-0.36391866,-0.05746084,-9.251195,0.86945957,47.661808,-1.3898299,-1.9674953,-3.3294408,-0.27390158,-0.19034222,-0.120372586,28.5,29.5625,28.8125,32.875,35.25,36.3125
0.31405386,-0.989711,-0.009748174,-1.1052784,0.004770371,0.0570941,-0.17541128,-0.403945,-0.3423215,0.05992458,-3.0762188,0.6074563,-9.101674e-05,-0.143268,0.038276587,0.002503068,0.03415823,-0.01488653,0.08338147,0.4494584,-1.3936318,1.918096,-2.0901363,-1.5753988,2.413852,-0.17309538,0.20626308,-0.26674598,0.08761128,-0.025604771,-0.2562128,-0.3256114,-0.076614454,-9.32781,0.90527004,47.68062,-1.3761058,-1.9410105,-3.3285074,-0.29460758,-0.19213697,-0.092057906,28.5,29.5625,28.8125,32.875,35.25,36.3125
0.31605476,-1.3777014,-0.34780234,-1.2224598,-0.024575377,0.06323371,-0.1823493,-0.40424252,-0.34223133,0.05993597,-3.0761714,0.6072628,-0.00011591023,-0.14685601,0.039028898,0.0029038293,0.033637695,-0.012754298,0.06896174,0.44908473,-1.3932223,1.9175452,-2.0899336,-1.5754589,2.4133637,-0.17703804,0.20975547,-0.2716678,0.086921595,-0.026061397,-0.24572912,-0.24899697,-0.038307227,-9.270349,0.87393653,47.661808,-1.273579,-1.9205484,-3.2309732,-0.31492427,-0.18650565,-0.21278623,28.5,29.5625,28.8125,32.875,35.25,36.3125
0.3180544,-0.79595107,-0.88313043,-1.3476326,-0.025788618,0.069001175,-0.17560668,-0.40451282,-0.34215367,0.05993014,-3.0761232,0.6070091,-0.00019835832,-0.14840153,0.039325893,0.0014752696,0.03443752,-0.012686994,0.058254197,0.4487486,-1.3928005,1.9170192,-2.0897315,-1.5755066,2.4128754,-0.17826457,0.2141639,-0.27303213,0.08419269,-0.026817454,-0.23624004,-0.17238252,-0.11492168,-9.461885,0.9612189,47.619713,-1.3542062,-2.1012201,-3.1962547,-0.31755874,-0.17685074,-0.31938422,28.5,29.5625,28.8125,32.875,35.25,36.3125
0.3200542,-0.49961358,-1.0757545,-1.6307963,-0.041810803,0.05845218,-0.17951678,-0.40486264,-0.3420462,0.059958067,-3.076082,0.60694593,-9.491303e-05,-0.15056558,0.03938912,0.0015980907,0.033437397,-0.009274391,0.051257893,0.44831613,-1.3923914,1.9164447,-2.0895889,-1.575591,2.412409,-0.17967825,0.21581325,-0.27448854,0.080489755,-0.027392019,-0.23065378,-0.24899697,0.0,-9.576807,0.9858343,47.667187,-1.2015257,-2.088415,-3.2727246,-0.2981649,-0.18039513,-0.48943818,28.5,29.5625,28.8125,32.875,35.25,36.3125
0.3220544,-1.343282,-1.825645,-1.427094,-0.06821138,0.05408641,-0.17435546,-0.4051251,-0.34199566,0.059939202,-3.076045,0.6066464,-0.00020323353,-0.15174764,0.040071934,0.00035135166,0.033330128,-0.008624951,0.055384707,0.44802746,-1.3919224,1.9158953,-2.0893986,-1.5756272,2.4119382,-0.18159392,0.21813296,-0.27357313,0.076578036,-0.027639227,-0.2366919,-0.36391866,0.076614454,-9.5385,0.91421866,47.655537,-1.1278671,-2.1739192,-3.3483949,-0.24497584,-0.18252456,-0.4984613,28.5,29.5625,28.8125,32.875,35.25,36.3125
0.32405427,-1.0263798,-2.148834,-1.6478115,-0.07531641,0.08128355,-0.17422026,-0.40545735,-0.34190872,0.05995065,-3.0760455,0.6064279,-0.00014040945,-0.152515,0.040460628,-0.00032841825,0.03328397,-0.007186275,0.0688449,0.44763118,-1.391489,1.915335,-2.0892808,-1.5756873,2.4114056,-0.18234988,0.21914877,-0.27251226,0.07309101,-0.02828775,-0.25090522,-0.2873042,0.21068975,-9.595961,0.94331104,47.690468,-1.1062038,-2.257368,-3.5441766,-0.21637025,-0.17815736,-0.36642426,28.5,29.5625,28.8125,32.875,35.25,36.3125
0.32605386,-1.0351712,-1.7831684,-1.757939,-0.07717261,0.081795126,-0.19300696,-0.4057534,-0.341814,0.05994417,-3.0759742,0.6061584,-0.000119573924,-0.15464771,0.041079886,0.00049674977,0.03223725,-0.0031898767,0.07810033,0.44728267,-1.3910569,1.9148086,-2.0891259,-1.5757955,2.410898,-0.1845502,0.21872549,-0.27332783,0.07018196,-0.029148536,-0.26235455,-0.19153613,0.24899697,-9.615114,0.9679317,47.674347,-1.0595576,-2.12888,-3.6287665,-0.16782261,-0.17153719,-0.2420409,28.5,29.5625,28.8125,32.875,35.25,36.3125
0.3280545,-1.8181591,-2.3075504,-1.4007055,-0.06791115,0.07440936,-0.16019091,-0.40605724,-0.34174228,0.05993379,-3.075972,0.60591,-0.00013785042,-0.15643416,0.040406894,0.00072912266,0.029958036,-0.0016834531,0.07659962,0.4469224,-1.3906001,1.9142698,-2.0890067,-1.5758313,2.410383,-0.1855972,0.22093372,-0.27615473,0.06843524,-0.027768489,-0.2619058,-0.26815057,0.22984336,-9.557653,0.9388393,47.68062,-1.0430802,-2.0949094,-3.6465373,-0.13489857,-0.19374135,-0.1906681,28.5,29.5625,28.8125,32.875,35.25,36.3125
0.33005416,-0.8109942,-1.1448454,-1.8341352,-0.05124156,0.069250554,-0.16671538,-0.40641275,-0.34164986,0.05994494,-3.0759764,0.6057637,-7.237955e-05,-0.15818487,0.04043504,0.00086758286,0.028192183,-0.00065801933,0.06731673,0.4464898,-1.3901432,1.9136842,-2.0888994,-1.5758785,2.4098587,-0.18767793,0.22265595,-0.27830988,0.0671905,-0.026598359,-0.25470933,-0.38307226,0.22984336,-9.442732,0.90750587,47.703007,-1.079037,-1.9919405,-3.6000643,-0.07561478,-0.20995286,-0.2932349,28.5,29.5625,28.8125,32.875,35.25,36.3125
0.3320538,-0.8528807,-1.1473472,-1.8036958,-0.02679663,0.05238011,-0.17124505,-0.40670562,-0.34159496,0.059949793,-3.075996,0.60553825,-9.758141e-05,-0.15938692,0.03933322,0.002205552,0.026814936,0.0020690798,0.06284467,0.44615418,-1.3897105,1.913133,-2.0887554,-1.5758909,2.40938,-0.186653,0.22294311,-0.28183526,0.067391366,-0.02652882,-0.24921064,-0.4405331,0.1340753,-9.557653,0.92093146,47.70838,-1.0396636,-1.9266689,-3.602251,-0.049694605,-0.22217992,-0.37322018,28.5,29.5625,28.8125,32.875,35.25,36.3125
0.33405468,-0.8071123,-0.9142953,-1.5180508,-0.01633625,0.06013757,-0.1701121,-0.40702152,-0.3415195,0.059962794,-3.0760026,0.6052907,-3.388716e-05,-0.16118456,0.03998816,0.0031849628,0.026851196,0.003996659,0.061186854,0.4457935,-1.38929,1.9125828,-2.0886357,-1.575951,2.408864,-0.18860216,0.2231105,-0.2845229,0.06816594,-0.027398858,-0.2494967,-0.45968673,0.15322891,-9.461885,0.947788,47.66091,-1.0082756,-1.8529001,-3.4703689,-0.04397117,-0.23426378,-0.4232912,28.5,29.5625,28.8125,32.875,35.25,36.3125
0.33605412,0.30753568,0.49110436,-1.7244912,-0.018511208,0.07442252,-0.1913244,-0.40736434,-0.34143633,0.059968024,-3.075991,0.605054,-3.6996298e-06,-0.1622157,0.040048417,0.0037045314,0.026599478,0.004062405,0.06833642,0.44539702,-1.3888092,1.9119738,-2.0884912,-1.5760111,2.4083214,-0.18949497,0.22409424,-0.28731626,0.06973924,-0.027241642,-0.25753883,-0.28730422,0.095768064,-9.519346,0.97464454,47.651955,-1.0486094,-1.9249008,-3.5474849,-0.01649609,-0.23535426,-0.39461684,28.5,29.5625,28.8125,32.875,35.25,36.3125
0.33805376,-1.0330266,-0.47243407,-1.9905307,-0.013596337,0.050514273,-0.18282683,-0.40765256,-0.3413586,0.05997007,-3.0759926,0.6047395,-8.2706865e-06,-0.16322403,0.040555853,0.004564281,0.026377443,0.004747771,0.0814214,0.4450488,-1.388401,1.9114574,-2.0883477,-1.5760592,2.4077766,-0.19097193,0.2236838,-0.28921437,0.071234584,-0.02740716,-0.27209896,-0.34476504,0.17238252,-9.634268,0.96569055,47.677036,-1.154886,-1.765131,-3.381651,-0.007108896,-0.24198423,-0.21667208,28.5,29.5625,28.8125,32.875,35.1875,36.3125
0.34005463,-1.1934327,-0.8656689,-1.3944815,-0.0585267,0.09102924,-0.18399268,-0.40801266,-0.34127042,0.059996475,-3.0759904,0.60456187,6.520105e-05,-0.16160849,0.039792094,0.0035455774,0.029173205,-0.00015930005,0.08986202,0.44462973,-1.3879439,1.9108247,-2.0881903,-1.5761193,2.407247,-0.18782388,0.2267262,-0.29167905,0.0762352,-0.027833268,-0.27738917,-0.30645782,0.15322891,-9.576807,0.947788,47.683304,-1.3779485,-1.7546494,-3.455984,-0.017814172,-0.2743662,-0.15935887,28.5,29.5625,28.8125,32.875,35.1875,36.3125
0.34205446,-0.8827017,-0.829555,-1.6777189,-0.045630477,0.10211607,-0.17998502,-0.4083401,-0.34119996,0.060000297,-3.0759807,0.60427517,8.120932e-05,-0.16161615,0.04015356,0.001768891,0.032843765,-0.0039491253,0.08419601,0.44427,-1.3874615,1.9102138,-2.0880334,-1.5761803,2.4067097,-0.18724538,0.23175012,-0.2941866,0.07873283,-0.029505573,-0.2711333,-0.30645782,0.038307227,-9.653421,0.9298854,47.65643,-1.376334,-1.931638,-3.4351425,-0.03891954,-0.26507068,-0.1597291,28.5,29.5625,28.8125,32.875,35.1875,36.3125
0.34405434,-1.4852561,-1.1824526,-1.6536402,-0.019893259,0.07427977,-0.16336328,-0.4086614,-0.34111035,0.060001813,-3.075969,0.6040494,8.177326e-05,-0.16047591,0.04128588,-0.0006403806,0.03545653,-0.010449657,0.07263548,0.44387364,-1.3870157,1.9096535,-2.087889,-1.5762275,2.406174,-0.18839616,0.23528282,-0.29359177,0.081630394,-0.029038515,-0.26072535,-0.34476507,0.11492168,-9.672575,0.96569055,47.709274,-1.4026735,-2.0643458,-3.4029818,-0.034914657,-0.28740507,-0.2923885,28.5,29.5625,28.8125,32.875,35.1875,36.3125
0.3460541,-0.39618024,-0.37133533,-1.4235821,-0.024652656,0.06874887,-0.17285019,-0.40897638,-0.3410472,0.059996285,-3.0759377,0.6037605,4.9590908e-05,-0.15943363,0.042807996,-0.0012461648,0.037647814,-0.017061831,0.06082809,0.4435369,-1.386511,1.9090313,-2.0877059,-1.5762872,2.4056609,-0.19058362,0.23603688,-0.29488745,0.08911093,-0.028151434,-0.25110886,-0.30645782,0.038307227,-9.500193,1.005978,47.66987,-1.3657694,-2.1661377,-3.5575223,-0.11200257,-0.3166783,-0.44471952,28.5,29.5625,28.8125,32.875,35.1875,36.3125
0.34805375,0.11056253,-0.47409162,-1.7317773,0.012406087,0.022802752,-0.1742221,-0.40930623,-0.34094453,0.059988733,-3.0758948,0.603712,2.984537e-05,-0.15997352,0.04406119,-0.0019937598,0.039791342,-0.018630918,0.05983588,0.44310462,-1.3860543,1.9084815,-2.0875742,-1.5763239,2.405204,-0.19223896,0.23780161,-0.2956471,0.09042295,-0.029439881,-0.2517635,0.038307227,-0.019153614,-9.481039,0.9455522,47.67614,-1.3176156,-2.0694132,-3.5622115,-0.13219696,-0.30977708,-0.5168959,28.5,29.5625,28.8125,32.875,35.1875,36.3125
0.3500547,0.4329974,-0.0076038656,-1.2787801,-0.0013072368,-0.0020660157,-0.1811866,-0.40966266,-0.34085563,0.06001286,-3.0758662,0.60343033,0.00013444162,-0.16128743,0.04518392,-0.0015893611,0.041730586,-0.019312229,0.072568335,0.44271985,-1.3855851,1.9078363,-2.0874054,-1.5764326,2.404647,-0.19415554,0.23912287,-0.29896593,0.09375039,-0.03097171,-0.26640362,0.0,0.11492168,-9.346964,0.97464454,47.719128,-1.2097629,-2.042737,-3.6471372,-0.16147207,-0.29547894,-0.44112146,28.5,29.5625,28.8125,32.875,35.1875,36.3125
0.35205436,0.6177006,0.2630617,-1.2560253,-0.0018109394,-0.010965933,-0.18739164,-0.40999326,-0.3407634,0.060011327,-3.0758138,0.603201,0.00014553993,-0.16312288,0.0451378,0.00027115826,0.0411874,-0.016709471,0.08741226,0.44233555,-1.3851047,1.9072365,-2.0872371,-1.5765165,2.4041264,-0.19497934,0.2387032,-0.3032689,0.09576603,-0.031691864,-0.28206503,0.22984336,-0.038307227,-9.251195,0.87393653,47.691364,-1.2287881,-1.9640968,-3.442078,-0.20997697,-0.30207038,-0.266559,28.5,29.5625,28.8125,32.875,35.1875,36.3125
0.35405463,1.1286982,-0.17411356,-1.4234276,0.005268139,-0.004655606,-0.17032628,-0.41032055,-0.34067377,0.060036037,-3.07579,0.60286963,0.00014291845,-0.16441962,0.045094643,0.00083035405,0.040580824,-0.01644983,0.09002117,0.44195145,-1.3846599,1.9066023,-2.0869973,-1.5765885,2.4035385,-0.1960558,0.2400324,-0.30651292,0.09713188,-0.03130093,-0.28575012,0.19153613,0.076614454,-9.232041,0.9701675,47.684196,-1.2402816,-2.0250976,-3.3547583,-0.25593466,-0.32348508,-0.17383239,28.5,29.5625,28.8125,32.875,35.1875,36.3125
0.3560546,0.25229827,-0.73567146,-1.1715335,-0.01524763,-0.00015780509,-0.16313864,-0.4106306,-0.34060723,0.0600427,-3.0757818,0.6025086,0.00012934505,-0.16471216,0.046483885,0.00037744737,0.04191011,-0.019166205,0.07944342,0.44161484,-1.3841912,1.9059914,-2.0868046,-1.5766486,2.4029775,-0.1985463,0.2409964,-0.3073775,0.10007785,-0.03132725,-0.27766111,-0.05746084,0.05746084,-9.174581,0.9925471,47.651955,-1.1657661,-1.8900548,-3.2348382,-0.27472687,-0.32289508,-0.2486744,28.5,29.5625,28.8125,32.875,35.1875,36.3125
0.35805428,-0.13182832,-0.91751873,-1.2353361,-0.04039457,0.03297595,-0.16852373,-0.4109541,-0.3405048,0.060026146,-3.0757241,0.60232836,-9.388286e-06,-0.1674492,0.046408903,0.0011390916,0.040377546,-0.014952356,0.071647935,0.44118202,-1.3836862,1.905383,-2.0865786,-1.5766724,2.4024396,-0.2002244,0.24248391,-0.3103036,0.09707077,-0.031776447,-0.2715357,0.0,0.095768064,-9.193734,0.9388393,47.682407,-1.0983707,-1.8980253,-3.3277345,-0.28996304,-0.34218258,-0.34214023,28.5,29.5625,28.8125,32.875,35.1875,36.3125
0.36005384,-0.5259513,-1.3117515,-1.4053427,-0.04951373,0.05979123,-0.17015976,-0.41131392,-0.34039983,0.060059737,-3.075683,0.6021304,7.189713e-05,-0.16840313,0.047432926,0.0007934965,0.041679244,-0.015340553,0.06961934,0.44076073,-1.3832412,1.9047359,-2.0863745,-1.5767692,2.4019,-0.20196703,0.24393365,-0.31144172,0.097632416,-0.032801483,-0.27124333,-0.15322891,0.076614454,-9.385271,0.9254084,47.677036,-0.9836675,-1.9248837,-3.3607826,-0.30014667,-0.32933715,-0.38410327,28.5,29.5625,28.8125,32.875,35.1875,36.3125
0.36205468,-1.4710685,-1.6748121,-0.93650347,-0.072910786,0.09575109,-0.17175512,-0.41163117,-0.34030542,0.060045607,-3.075656,0.60188806,-6.0820686e-05,-0.1714429,0.047644418,0.0013982385,0.039428897,-0.010597683,0.07762403,0.44034034,-1.3827481,1.9041384,-2.0861614,-1.5767812,2.401332,-0.20461306,0.24515334,-0.3133241,0.092964746,-0.032893497,-0.28188914,-0.38307226,0.05746084,-9.308657,0.8851263,47.695843,-0.8321629,-1.8452204,-3.354543,-0.29376045,-0.3513608,-0.3263401,28.5,29.5625,28.8125,32.875,35.1875,36.3125
0.36405513,-1.679265,-1.4137827,-1.0721828,-0.061943,0.11331233,-0.17328231,-0.41197777,-0.34020212,0.060043253,-3.075601,0.60158056,-5.6435427e-05,-0.17288586,0.046527382,0.002147687,0.037442032,-0.005633393,0.09285685,0.4399331,-1.3822438,1.9035062,-2.0859716,-1.576877,2.4007397,-0.20340133,0.24533358,-0.31431288,0.08831081,-0.03331552,-0.2959056,-0.34476504,0.038307227,-9.289502,0.91198283,47.694946,-1.0089529,-1.7778268,-3.4859085,-0.23099542,-0.3607368,-0.18702766,28.5,29.5625,28.8125,32.875,35.1875,36.3125
0.36605382,-2.0038986,-1.2818562,-1.0858988,-0.032412875,0.13481885,-0.16487777,-0.41231024,-0.34012428,0.060051665,-3.0756297,0.6012589,-7.225748e-05,-0.17392606,0.045378838,0.0026774732,0.035890628,-0.0016363423,0.09622205,0.43953753,-1.3817749,1.9028958,-2.0858052,-1.5769013,2.4001396,-0.20186007,0.2457806,-0.3153114,0.08455556,-0.033647507,-0.29772615,-0.6512228,0.095768064,-9.251195,0.9835985,47.66987,-1.1537362,-1.8233902,-3.5137486,-0.1850157,-0.3787031,-0.08819407,28.5,29.5625,28.8125,32.875,35.1875,36.3125
0.36805463,-1.8269297,-0.42445564,-0.89798665,-0.041564457,0.15803191,-0.17848757,-0.41264394,-0.34003675,0.06003649,-3.0755954,0.6009485,-8.815711e-05,-0.1749555,0.04421496,0.0031255474,0.035090953,0.00242767,0.08877441,0.43915448,-1.3812588,1.9022864,-2.0856512,-1.5769738,2.3995671,-0.19987139,0.24663004,-0.31666908,0.081075,-0.034643035,-0.28828079,-0.8810662,0.17238252,-9.232041,0.9545008,47.657326,-1.420845,-1.5625949,-3.5732489,-0.12012593,-0.35030547,-0.16762014,28.5,29.5625,28.8125,32.875,35.1875,36.3125
0.37005457,-2.0765445,-0.6059023,-1.2251297,-0.021445729,0.14612491,-0.16573699,-0.41299847,-0.33994448,0.060028866,-3.0755477,0.60073686,-9.275309e-05,-0.17692974,0.044153277,0.0026097992,0.03608863,0.0032578253,0.0750296,0.43874615,-1.3807284,1.9016393,-2.0854833,-1.5770458,2.3990328,-0.20042983,0.25093868,-0.32054207,0.08036622,-0.035866585,-0.27508274,-0.7086837,0.17238252,-9.3661175,0.94331104,47.72002,-1.3697546,-1.7613763,-3.5405495,-0.08098581,-0.35364002,-0.29983452,28.5,29.5625,28.8125,32.875,35.1875,36.3125
0.37205395,-1.5044342,-0.563944,-1.1268159,-0.015193249,0.12687384,-0.17174612,-0.41337448,-0.3398686,0.060051426,-3.075555,0.60049266,8.774752e-06,-0.17743267,0.04548839,0.0010981349,0.039778084,0.0010987766,0.06560002,0.43834996,-1.3802228,1.900958,-2.0853393,-1.5771192,2.3984833,-0.20147835,0.2544044,-0.32153776,0.08144647,-0.038247246,-0.26668733,-0.6895301,0.11492168,-9.308656,0.92764956,47.658226,-1.4174138,-1.7361208,-3.5124595,-0.07491347,-0.36414376,-0.47476524,28.5,29.5625,28.8125,32.875,35.1875,36.3125
0.37405464,-1.1769083,-0.8334323,-1.0331818,-0.025709322,0.10591166,-0.17714767,-0.41373754,-0.3397665,0.060059804,-3.0754874,0.6003021,6.671992e-05,-0.17884544,0.046566986,0.00072775217,0.041798666,0.0014001855,0.0723735,0.43794093,-1.3797176,1.9003013,-2.0851595,-1.5772275,2.397964,-0.20305996,0.25655594,-0.3233865,0.0816369,-0.040262006,-0.2750285,-0.5554548,0.076614454,-9.251195,0.9701675,47.683304,-1.3657207,-1.9317636,-3.5414138,-0.052037902,-0.33017382,-0.4763937,28.5,29.5625,28.8125,32.875,35.1875,36.3125
0.37605438,-0.557087,-0.58777624,-1.2120053,-0.025474885,0.07515699,-0.17849523,-0.41411725,-0.33966708,0.060063586,-3.0754685,0.6000781,0.00015119619,-0.1804088,0.04743426,0.00091181224,0.043598235,0.0023170232,0.08727143,0.43750873,-1.3792006,1.8996543,-2.0850399,-1.5773124,2.3973944,-0.20432734,0.25819528,-0.3260368,0.08244094,-0.04236483,-0.29118088,-0.3256114,0.11492168,-9.3661175,0.93436235,47.65106,-1.3552818,-1.8851204,-3.5330496,-0.023437824,-0.30418968,-0.3258173,28.5,29.5625,28.8125,32.875,35.1875,36.3125
0.3780542,-0.35823113,-0.88621926,-1.0100586,-0.030737264,0.05123637,-0.16179523,-0.41447213,-0.33954567,0.06002747,-3.0753686,0.59972733,0.00014048586,-0.18146701,0.048381187,0.00014368969,0.04691443,0.0024783078,0.09649204,0.437089,-1.3786353,1.899033,-2.084884,-1.5774454,2.3967683,-0.20467411,0.26099882,-0.3277303,0.08248023,-0.045523047,-0.300724,-0.28730422,0.17238252,-9.251195,0.9567419,47.687782,-1.4618835,-2.0450842,-3.48065,0.028969001,-0.27245724,-0.1975418,28.5,29.5625,28.8125,32.875,35.1875,36.3125
