Tylouw/Master_Thesis_Code/training_data/batch_1/small_rod_t0.3/sample_65_session_2.csv
timestamp[s],tcp_force_x[N],tcp_force_y[N],tcp_force_z[N],tcp_force_rx[Nm?],tcp_force_ry[Nm?],tcp_force_rz[Nm?],tcp_pose_x[m],tcp_pose_y[m],tcp_pose_z[m],tcp_pose_rx[rot_vec_x],tcp_pose_ry[rot_vec_y],tcp_pose_rz[rot_vec_z],tcp_velo_x[m/s],tcp_velo_y[m/s],tcp_velo_z[m/s],tcp_velo_rx[rot_vec_x/s],tcp_velo_ry[rot_vec_y/s],tcp_velo_rz[rot_vec_z/s],q1[rad],q2[rad],q3[rad],q4[rad],q5[rad],q6[rad],qd1[rad/s],qd2[rad/s],qd3[rad/s],qd4[rad/s],qd5[rad/s],qd6[rad/s],tool_acc_x,tool_acc_y,tool_acc_z,current_of_whole_robot[A],voltage_of_whole_robot[V],current_J1[A],current_J2[A],current_J3[A],current_J4[A],current_J5[A],current_J6[A],temp_J1[C],temp_J2[C],temp_J3[C],temp_J4[C],temp_J5[C],temp_J6[C]
9.920041e-07,-0.4071324,-0.19446053,1.3794044,-0.00015442393,0.0051159994,-0.012625332,-0.3810505,-0.34853658,0.059969753,-3.0785444,0.624902,-0.00021200752,0.0018956277,0.0009840352,-0.0017914611,0.0017592626,-0.0036711271,0.0001415957,0.47779807,-1.425946,1.9577278,-2.1008327,-1.5707215,2.452764,-8.077475e-05,-2.4554312e-05,0.004129983,-3.698697e-05,0.00013457394,-0.00022468985,0.15322891,0.076614454,-8.772355,0.7866488,47.70838,-0.017895516,-2.8026786,-2.5966046,-0.4439389,0.17666335,0.02661878,28.5625,29.6875,28.9375,32.9375,35.375,36.375
0.002054627,-0.3275329,0.23221266,1.3493842,0.0006739345,-0.00014944235,-0.011002625,-0.38105184,-0.3485242,0.05995572,-3.078508,0.62491363,-0.00018786777,-0.0004819553,-0.00025477435,-0.0026170965,-0.0007174387,0.0010745779,0.00013515232,0.47779807,-1.4259325,1.9577507,-2.1008599,-1.5707573,2.452776,-7.9878664e-05,0.0037942973,0.0036407067,-0.008719659,0.00013066456,-0.00021474613,0.095768064,0.095768064,-8.676587,0.6769922,47.70211,-0.014195634,-2.7679539,-2.4883852,-0.40495133,0.16712,0.032815807,28.5625,29.6875,28.9375,32.9375,35.375,36.4375
0.004054052,-0.23760082,0.47693694,1.2748269,-0.0064493422,0.00032318663,-0.012432557,-0.38106355,-0.34853253,0.059977423,-3.078547,0.62490225,-8.6441054e-05,-0.001344281,-0.0007427401,-0.0025626633,-0.0016605699,0.002889236,0.00019705549,0.47781014,-1.4259683,1.9577502,-2.1008966,-1.5707697,2.452776,-9.201201e-06,0.00472265,0.0029863406,-0.011038752,0.00012697726,-0.00020501114,0.076614454,0.1340753,-8.734048,0.7620334,47.704796,0.0061624837,-3.207716,-2.6653972,-0.30175042,0.16619447,0.023056883,28.5625,29.6875,28.9375,32.9375,35.375,36.4375
0.006054152,-0.21369302,0.18297862,1.1732761,0.008982222,-0.011120415,-0.0087773865,-0.38107398,-0.34852228,0.05995306,-3.078523,0.6249168,-0.00015811154,-0.0009611398,-0.0005460537,-0.0010841482,-0.0016719907,0.002933596,0.00019647159,0.47777414,-1.4259092,1.9577383,-2.1008952,-1.5707573,2.452752,-1.2344586e-07,0.00185159,0.0020152454,-0.0072412114,0.00012349202,-0.00019607886,0.05746084,0.15322891,-8.63828,0.7038487,47.687782,0.050365932,-3.07036,-2.6216056,-0.32820752,0.18533511,0.030382067,28.5625,29.6875,28.9375,32.9375,35.375,36.4375
0.008053971,-0.28704903,0.59403694,0.7289793,0.030452883,-0.030873364,-0.0069710575,-0.38104263,-0.3485127,0.05993424,-3.0784783,0.6249076,-0.00024627172,-0.00017159521,-0.00013314343,-0.00035790697,-0.0008145064,0.00130314,0.00018754651,0.47778618,-1.42591,1.9577736,-2.1008575,-1.5707573,2.452764,-1.656184e-09,3.7187852e-05,0.001466266,-0.003035655,0.00012019354,-0.0001878904,-0.038307227,0.1340753,-8.810662,0.7105615,47.690468,-0.012057561,-2.9396076,-2.58214,-0.3833671,0.16657631,0.029342063,28.5625,29.6875,28.9375,32.9375,35.375,36.4375
0.010054238,0.6245066,0.8561944,0.4395074,0.023667064,-0.006689488,-0.01765463,-0.38105392,-0.34852532,0.059951816,-3.078515,0.62487686,-0.000188461,2.4375759e-05,-2.998679e-05,-0.00027106804,-0.00036716645,0.000451183,0.0001976239,0.4777981,-1.425922,1.9577497,-2.100869,-1.5707573,2.452752,-2.2219821e-11,4.989225e-07,0.0009692156,-0.0015396606,0.00011706646,-0.00019800985,0.019153614,0.095768064,-9.059659,0.7486078,47.675243,-0.4121725,-2.3783674,-3.042481,-0.39987582,0.16214404,-0.02604891,28.5625,29.6875,28.9375,32.9375,35.375,36.4375
0.012054312,0.105141334,-0.069818184,0.21649395,0.010825235,-0.007828063,-0.013079179,-0.38101953,-0.34851375,0.059903845,-3.0784717,0.6248491,-0.0003713096,0.00017352459,0.000102395454,-0.003247347,0.0024966293,-0.0050766366,0.00016414952,0.47778615,-1.4258718,1.9577969,-2.1008456,-1.5707215,2.4527283,-0.00010012805,0.0070071733,-0.00033261112,-0.0010188972,0.000114098024,-0.00026300413,0.114921674,0.1340753,-9.212888,0.6948948,47.688675,-0.5751344,-2.460707,-3.2070503,-0.40104902,0.16330405,-0.08346094,28.5625,29.6875,28.9375,32.9375,35.375,36.4375
0.014053471,-0.7683056,-0.13340186,0.07443708,-0.023485059,-0.0036925552,-0.015321929,-0.381065,-0.34852672,0.059938315,-3.0785043,0.624818,-0.00026030673,-0.0058498136,0.002234788,-0.0031538252,0.002071772,-0.0042874333,-0.002988287,0.47778288,-1.4258573,1.9576987,-2.1008332,-1.5707458,2.4527016,-0.009470293,0.013174256,-0.007628234,-0.00078745733,0.000111276524,-0.0064760977,0.038307227,0.24899697,-9.461885,0.81351066,47.705692,-0.39424375,-2.9110522,-3.00803,-0.39860457,0.15247805,-0.0887171,28.5625,29.6875,28.9375,32.9375,35.375,36.4375
0.016053803,-1.4857037,-1.1457988,-0.1712525,-0.03322228,0.017726837,-0.023094863,-0.38104564,-0.34849647,0.059898384,-3.0784078,0.62485224,-0.0003420847,-0.0062798904,0.0030238219,-0.002914967,0.001972443,-0.0040960163,0.0040098513,0.47777024,-1.4258219,1.9577469,-2.1008208,-1.5707816,2.4527225,-0.011269166,0.012253769,-0.0071837357,-0.00052894274,0.000108590946,-0.015273539,-0.21068975,0.30645782,-9.595961,0.7777002,47.68599,-0.2976638,-2.8445575,-3.0180657,-0.384375,0.16786292,-0.016372018,28.5625,29.6875,28.9375,32.9375,35.375,36.4375
0.018053645,-1.8300102,-1.043827,-0.15138741,-0.056439843,0.04998118,-0.03583572,-0.38106364,-0.34848517,0.059899934,-3.078427,0.62485415,-0.00039367625,-0.005457213,0.0033270745,-0.0032477104,0.0026151547,-0.0053270543,0.008047505,0.47771028,-1.4258102,1.9577245,-2.100797,-1.5707458,2.4526613,-0.011043841,0.011652506,-0.0058983713,0.00017567418,0.00010603228,-0.019086752,-0.3256114,0.22984336,-9.691729,0.71279734,47.69763,-0.46106052,-2.6333985,-3.3552747,-0.39636928,0.1677894,0.02508796,28.5625,29.6875,28.9375,32.9375,35.375,36.4375
0.02005365,-2.1618807,-1.117121,-0.102435246,-0.036902666,0.0660366,-0.05317898,-0.38104832,-0.34848186,0.05986493,-3.078376,0.6247866,-0.00045755965,-0.006145858,0.003582124,-0.0036225615,0.00301056,-0.006134858,0.0076194266,0.477734,-1.4257495,1.9577354,-2.100797,-1.5707697,2.4526494,-0.012147561,0.01341681,-0.0071377354,0.00054925354,0.00012292493,-0.019761603,-0.47884035,0.19153613,-9.749189,0.779936,47.67345,-0.60141844,-2.5970628,-3.4877172,-0.41872948,0.16059995,0.021887245,28.5625,29.6875,28.9375,32.9375,35.375,36.4375
0.022053573,-2.04936,-0.23450986,-0.32742378,-0.02199951,0.069094956,-0.07557714,-0.38105494,-0.34847087,0.05985222,-3.0783777,0.6248094,-0.00053651544,-0.008909121,0.004016844,-0.0022654084,0.0018431984,-0.0038927703,0.0034230729,0.47768474,-1.4257253,1.957734,-2.1007845,-1.5707334,2.452614,-0.015478395,0.014153539,-0.011279406,0.0014272549,0.000121421705,-0.018894052,-0.45968673,0.24899697,-9.80665,0.67475104,47.694946,-0.58753014,-2.475154,-3.4498687,-0.41161513,0.163248,0.0004102735,28.5625,29.6875,28.9375,32.9375,35.375,36.4375
0.024054326,-1.670171,-0.10603906,-0.4206702,-0.0026945896,0.06807261,-0.10048413,-0.38107976,-0.34847674,0.059844337,-3.0783925,0.6247362,-0.00053703575,-0.010306943,0.0044290964,-0.0027519823,0.0021176212,-0.0044586645,0.0010445854,0.47767216,-1.4256644,1.9576854,-2.1007965,-1.5707334,2.452554,-0.01751423,0.016851053,-0.013211956,0.0012910009,0.00013352052,-0.018549994,-0.63206923,0.22984336,-9.921572,0.7553206,47.683304,-0.57492304,-2.536635,-3.3872051,-0.4037145,0.17184603,-0.015362851,28.5625,29.6875,28.9375,32.9375,35.375,36.4375
0.026055101,-1.9165924,-0.3674056,-0.51904875,-0.00020618355,0.058317225,-0.10921381,-0.3811066,-0.3484727,0.05984591,-3.0783837,0.6248113,-0.0004938169,-0.011317462,0.003826838,-0.002150947,0.001271418,-0.002838782,0.00067281903,0.47764826,-1.4256402,1.9576596,-2.1008203,-1.5707458,2.452578,-0.017379997,0.017623493,-0.01536511,0.00084397534,0.00013532423,-0.018042695,-0.8236054,0.19153613,-9.844957,0.7284641,47.677036,-0.57724226,-2.468619,-3.296553,-0.39514673,0.16541918,-0.03578587,28.5625,29.6875,28.9375,32.9375,35.375,36.4375
0.028054146,-2.03257,-0.6459116,-0.43501103,-0.011082152,0.068279676,-0.123547256,-0.38111466,-0.34848124,0.05984222,-3.0784004,0.6247397,-0.000521097,-0.011809646,0.00427549,-0.002334666,0.0013561067,-0.0030331363,-0.0018242301,0.4776478,-1.4256042,1.9576243,-2.1008089,-1.5707334,2.4525309,-0.018642055,0.018117642,-0.015468347,0.0006649347,0.00014925843,-0.016807567,-0.7661445,0.1340753,-9.864111,0.7665104,47.681515,-0.6947552,-2.5035942,-3.4198647,-0.4078231,0.14529938,-0.036388267,28.5625,29.6875,28.9375,32.9375,35.375,36.4375
0.030053912,-2.2097628,-0.46530437,-0.33044475,-0.020399915,0.07135997,-0.13520229,-0.38113692,-0.34844995,0.059829287,-3.0783577,0.62488514,-0.0005761475,-0.0129769,0.0035527113,-0.0016957863,0.0004943302,-0.0013808219,-0.0028383196,0.47756383,-1.4255798,1.9576234,-2.100797,-1.5707215,2.452543,-0.018436873,0.019268624,-0.018170105,0.00035253455,0.00014847325,-0.015586691,-0.7661445,0.076614454,-9.902418,0.7642693,47.66091,-0.76443946,-2.5087435,-3.3717299,-0.39455485,0.15694627,-0.080024794,28.5625,29.6875,28.9375,32.9375,35.375,36.4375
0.03205359,-2.027104,-0.44352904,-0.22213517,-0.0084037585,0.07556209,-0.13829787,-0.38117474,-0.34845626,0.059839148,-3.078353,0.62480736,-0.0005260902,-0.014085136,0.0038694704,-0.0011841599,-6.57858e-05,-0.00039589795,-0.005025047,0.47756323,-1.42552,1.957527,-2.1007726,-1.5707573,2.4524946,-0.020052098,0.019311314,-0.019402303,0.00040925198,0.00019122254,-0.015014658,-0.7469909,0.019153614,-9.825804,0.70608455,47.687782,-0.7595447,-2.413895,-3.382286,-0.3947522,0.15500644,-0.08203529,28.5625,29.6875,28.9375,32.9375,35.375,36.4375
0.034053586,-1.9519588,-0.10100781,-0.15853344,0.016159913,0.06156237,-0.15540747,-0.38121775,-0.3484663,0.05985197,-3.0784206,0.624899,-0.0005110117,-0.015566403,0.0041308785,-0.0005395101,-0.0007967287,0.0009361324,-0.0061080917,0.47750252,-1.4254957,1.9574784,-2.1008089,-1.5706977,2.4524825,-0.02190681,0.019669294,-0.021286048,0.00041677733,0.0002247253,-0.015785374,-0.53630114,0.0,-9.768343,0.784413,47.675243,-0.67964077,-2.4675913,-3.390853,-0.37102276,0.15352617,-0.10052434,28.5625,29.6875,28.9375,32.9375,35.375,36.4375
0.036053598,-1.7350278,0.3799793,-0.14672782,0.03358937,0.0432946,-0.1592244,-0.381242,-0.34842995,0.059829645,-3.0783377,0.6248827,-0.00052668015,-0.016664922,0.004292243,-0.0006597823,-0.00076130236,0.00087464426,-0.00703413,0.47745416,-1.4254353,1.957455,-2.100785,-1.5707573,2.4524345,-0.02320507,0.021458557,-0.023066197,0.00047759342,0.00021671623,-0.016156426,-0.45968673,-0.076614454,-9.730036,0.7486078,47.691364,-0.7187625,-2.4918501,-3.265822,-0.35600594,0.16607241,-0.10423551,28.5625,29.6875,28.9375,32.9375,35.375,36.4375
0.03805351,-1.2933003,1.2131568,0.09866179,0.019340666,0.03459967,-0.18862134,-0.3812801,-0.34845167,0.059845883,-3.0784009,0.62485653,-0.00047633445,-0.01748414,0.0043165106,-0.00043907482,-0.0010794362,0.0014280254,-0.0071013765,0.47744203,-1.4253991,1.9573821,-2.1008089,-1.5707334,2.452398,-0.024021292,0.022131497,-0.024327392,0.0004283591,0.00024278322,-0.016904688,-0.47884035,-0.15322891,-9.691729,0.77545905,47.696735,-0.7147888,-2.4076357,-3.3269143,-0.34999108,0.15754525,-0.11893438,28.5625,29.6875,28.9375,32.9375,35.375,36.4375
0.040053252,-0.9072668,0.60767835,-0.010359102,0.03224118,0.027608693,-0.1895227,-0.38132256,-0.34843302,0.059845302,-3.07839,0.62495095,-0.0004606972,-0.018655771,0.0044790036,0.0002881599,-0.0018446759,0.0029129637,-0.0077675157,0.47736955,-1.4253633,1.9573454,-2.1008208,-1.5707334,2.452386,-0.02538716,0.021937016,-0.02575831,0.00038318822,0.00023705166,-0.017603705,-0.34476504,-0.13407528,-9.615114,0.77545905,47.69763,-0.7312706,-2.3145223,-3.396573,-0.36019528,0.15907095,-0.12979871,28.5625,29.6875,28.9375,32.9375,35.375,36.4375
0.042054176,-0.67679936,0.1924036,0.1379308,0.032606285,0.025945263,-0.19797088,-0.38137817,-0.34841874,0.059846815,-3.0783875,0.6250474,-0.00045812794,-0.020502737,0.0043222858,0.0013186963,-0.002974203,0.0051043765,-0.008654888,0.47728497,-1.4253032,1.9572734,-2.1008208,-1.5707215,2.4523618,-0.026806913,0.022507941,-0.02875753,0.00034630246,0.0002273902,-0.018134456,-0.21068975,-0.05746084,-9.634268,0.7239871,47.705692,-0.6540704,-2.3428335,-3.2902575,-0.3436824,0.16484848,-0.15019457,28.5625,29.6875,28.9375,32.9375,35.375,36.4375
0.0440541,-1.1929281,-0.23569879,-0.29897213,0.019372296,0.00247113,-0.2026673,-0.38141158,-0.34840456,0.059842743,-3.0783677,0.6250624,-0.00046078736,-0.021297066,0.0047601494,0.00103939,-0.0026743787,0.0045404653,-0.009437415,0.47723654,-1.4252548,1.9572247,-2.1008089,-1.5707334,2.4523253,-0.028312178,0.023902321,-0.029768163,0.00060091325,0.00021822042,-0.018856501,-0.15322891,-0.05746084,-9.615114,0.70608455,47.692257,-0.65834045,-2.3968623,-3.2440886,-0.3317854,0.16648878,-0.16512017,28.5625,29.6875,28.9375,32.9375,35.375,36.4375
0.04605375,-0.9496671,-0.82300454,-0.30256224,0.020938667,0.0114639,-0.20934385,-0.38145784,-0.3484081,0.05984958,-3.0783784,0.62508446,-0.00043197596,-0.022129541,0.004994531,0.0011597924,-0.0027886613,0.004775605,-0.009481682,0.47720003,-1.4251946,1.9571403,-2.1008084,-1.5707334,2.4523013,-0.02949005,0.024632694,-0.030912044,0.0007529526,0.0002097435,-0.019989425,-0.1340753,-0.019153614,-9.500193,0.7150385,47.67614,-0.6975218,-2.4195023,-3.3471038,-0.32181612,0.15795967,-0.17399125,28.5625,29.6875,28.9375,32.9375,35.375,36.4375
0.048053794,-0.7914178,-0.4199983,-0.12522322,0.0072468077,0.0031952963,-0.22524624,-0.38149717,-0.34838295,0.059856273,-3.0783966,0.6251653,-0.00042607827,-0.022931663,0.005467928,0.00143375,-0.0026166097,0.004460538,-0.009570379,0.4771035,-1.4251944,1.9571275,-2.1008198,-1.5707096,2.4522529,-0.031064264,0.02511282,-0.03239555,0.0021155947,0.00020190072,-0.02147437,-0.076614454,0.11492168,-9.519346,0.74413085,47.61613,-0.6434666,-2.245179,-3.3198135,-0.33449155,0.16593915,-0.19494247,28.5625,29.6875,28.9375,32.9375,35.375,36.4375
0.05005361,-0.6595751,-0.79199564,-0.19055381,0.013629104,0.0035517865,-0.21713239,-0.3815538,-0.34836975,0.059864573,-3.0783925,0.6252023,-0.0003599793,-0.02338652,0.005957893,0.0013496425,-0.0022029928,0.0036785838,-0.009312242,0.47704312,-1.4251463,1.9570564,-2.1008317,-1.5707334,2.4522161,-0.032346778,0.025752988,-0.033164788,0.0031285665,0.00019462267,-0.023014715,-0.038307227,0.17238252,-9.5385,0.7777002,47.658226,-0.6231897,-2.2892678,-3.313683,-0.31641722,0.16306876,-0.21369572,28.5625,29.6875,28.9375,32.9375,35.375,36.4375
0.05205372,-0.14086878,-0.76743454,-0.11262264,-0.0020428598,0.013685966,-0.21383393,-0.38160235,-0.34835902,0.059850592,-3.078353,0.6251938,-0.00038010822,-0.024363348,0.006237849,0.0016401829,-0.0023985505,0.00406444,-0.009299897,0.47699463,-1.4250383,1.9569596,-2.1008074,-1.5707573,2.4521675,-0.03373919,0.0263365,-0.034590065,0.0035370335,0.00018785137,-0.024418745,0.076614454,0.19153613,-9.423578,0.7463667,47.667187,-0.61665684,-2.227271,-3.2704406,-0.33706,0.16593628,-0.21019241,28.5625,29.6875,28.9375,32.9375,35.375,36.4375
0.054053783,-0.29857305,-0.96607,-0.082909755,-0.0070818616,0.018756274,-0.19962063,-0.38162604,-0.34833062,0.05985558,-3.0783167,0.62518597,-0.00045213607,-0.025699463,0.0063316096,0.0022337325,-0.003146118,0.0055108503,-0.008630321,0.4769222,-1.4250143,1.956899,-2.100712,-1.5707573,2.4520948,-0.035133872,0.026721,-0.036321927,0.00325593,0.0001815356,-0.026482014,-0.019153614,0.2681506,-9.423578,0.8403672,47.704796,-0.6140781,-2.1621351,-3.2392259,-0.32480767,0.16522339,-0.21924251,28.5625,29.6875,28.9375,32.9375,35.375,36.4375
0.056053948,-0.41673473,-0.89077103,-0.17096578,-0.022107039,0.013231149,-0.19756679,-0.38171345,-0.3483508,0.05987932,-3.078394,0.62527853,-0.0003292514,-0.026879737,0.0061775097,0.0025798678,-0.0036899124,0.0065719173,-0.0077300067,0.4768618,-1.4249421,1.9567789,-2.100784,-1.5707334,2.4520824,-0.035939235,0.027796995,-0.038268093,0.0029342598,0.00017563044,-0.028186448,0.095768064,0.30645782,-9.481039,0.7777002,47.690468,-0.64778155,-2.1554031,-3.2712982,-0.31420428,0.17192711,-0.2538357,28.5625,29.6875,28.9375,32.9375,35.375,36.4375
0.058054093,-0.49523422,-0.80481714,-0.107020654,-0.02642253,0.017901212,-0.19711141,-0.38175106,-0.34832734,0.059866734,-3.078388,0.6253148,-0.00035674777,-0.027310487,0.0062883687,0.0021193319,-0.0032603897,0.0057479753,-0.0065312204,0.47677764,-1.4248936,1.956755,-2.100796,-1.5707215,2.4520216,-0.036527265,0.029486552,-0.039178386,0.0030843315,0.00017009738,-0.029972563,0.076614454,0.34476504,-9.461885,0.77545905,47.709274,-0.6838178,-2.1431284,-3.2472303,-0.2898525,0.17544968,-0.2258571,28.5625,29.6875,28.9375,32.9375,35.375,36.4375
0.060054254,-0.6577973,-1.2802747,0.00039270162,-0.007935284,0.019702189,-0.19381917,-0.3818051,-0.3483016,0.05987805,-3.0783641,0.6253297,-0.000307062,-0.028317697,0.006681886,0.002249575,-0.0032227514,0.005683347,-0.0070268894,0.47670516,-1.4248573,1.9566821,-2.1007712,-1.5707573,2.4519615,-0.03814885,0.03045241,-0.040728126,0.003741698,0.00016490235,-0.031097667,-0.076614454,0.34476504,-9.404425,0.7642693,47.687782,-0.7063486,-2.198326,-3.2459764,-0.30570346,0.1666608,-0.24520719,28.5625,29.6875,28.9375,32.9375,35.375,36.4375
0.06205412,-0.66116756,-1.0373577,-0.08645288,-0.0033837091,0.016344836,-0.1874165,-0.38186368,-0.34829566,0.059897516,-3.0783875,0.625333,-0.00029006903,-0.028741831,0.0066068717,0.0024179136,-0.0030160595,0.0052932785,-0.0054376526,0.47663304,-1.424809,1.9565743,-2.100735,-1.5707458,2.4518886,-0.038398497,0.03132228,-0.04238581,0.0049710628,0.00016001576,-0.032935813,-0.1340753,0.24899697,-9.461885,0.68818194,47.698532,-0.75751543,-2.1730635,-3.2969291,-0.3167068,0.17575493,-0.27117243,28.5625,29.6875,28.9375,32.9375,35.375,36.4375
0.06405408,-0.5866565,-0.49602184,-0.0074545536,-0.006964717,0.019916324,-0.19490515,-0.381915,-0.34831092,0.05990282,-3.0784361,0.625265,-0.0002850699,-0.029052977,0.0066361804,0.0028224932,-0.003137887,0.0055400953,-0.0039533116,0.47659698,-1.4247252,1.9564666,-2.100735,-1.5707215,2.451804,-0.038729444,0.031120189,-0.043265816,0.005778579,0.00015541007,-0.034750845,-0.095768064,0.2681506,-9.346964,0.81351066,47.674347,-0.7788163,-2.0148435,-3.2454486,-0.31845766,0.18791723,-0.25873542,28.5625,29.6875,28.9375,32.9375,35.375,36.4375
0.066054136,-1.1294081,-0.77477497,0.04974208,0.0066215205,0.011489829,-0.18386514,-0.381962,-0.34827685,0.059897758,-3.0783982,0.6253334,-0.00030166795,-0.029894201,0.0067544626,0.0022000172,-0.002572216,0.004445177,-0.003577256,0.47650078,-1.4246763,1.956417,-2.100711,-1.5707334,2.4517553,-0.039709598,0.033871427,-0.04504204,0.00603542,0.00015106195,-0.036105774,-0.11492168,0.2681506,-9.423578,0.7396539,47.677036,-0.847283,-2.0609548,-3.2460513,-0.3004725,0.17534876,-0.26610568,28.5625,29.6875,28.9375,32.9375,35.375,36.4375
0.06805386,-0.4396413,-0.57481766,0.008295005,0.0070545785,0.031845808,-0.1902173,-0.38202628,-0.3482628,0.0599028,-3.0783908,0.625409,-0.00028657002,-0.032214526,0.0060462886,0.003489821,-0.0042205052,0.0075762942,-0.0027379594,0.47641638,-1.4246039,1.9563202,-2.1006992,-1.5707334,2.451719,-0.040598106,0.03511772,-0.049291678,0.005500135,0.00016979885,-0.037831176,-0.076614454,0.28730422,-9.442732,0.75755644,47.691364,-0.91522497,-2.1839373,-3.0983295,-0.2978868,0.17125319,-0.28578588,28.5625,29.6875,28.9375,32.9375,35.375,36.4375
0.07005481,-0.6854189,-0.1423197,0.1254979,-0.00070318335,0.03267373,-0.1957141,-0.3821151,-0.34824616,0.05991981,-3.0784128,0.6253929,-0.00019205337,-0.031225672,0.0066548893,0.0024444885,-0.003005021,0.0052441033,-0.001961121,0.47632036,-1.4245319,1.9562019,-2.100711,-1.5707573,2.4516103,-0.04075579,0.035417218,-0.047330357,0.005868228,0.00016679316,-0.0387667,-0.19153613,0.22984336,-9.32781,0.78888994,47.690468,-0.9403832,-2.141052,-3.1702688,-0.297018,0.17425385,-0.28599805,28.5625,29.6875,28.9375,32.9375,35.375,36.4375
0.07205377,-0.8908164,-0.38213193,0.32189348,0.0074373884,0.032627482,-0.19214848,-0.38215512,-0.34824175,0.059915923,-3.0784268,0.62541485,-0.00021653081,-0.031809866,0.0067283623,0.0011722906,-0.0017879786,0.0028407557,-0.0018809935,0.4762601,-1.4244708,1.9561409,-2.1007106,-1.5707334,2.451562,-0.04143418,0.03948694,-0.049176235,0.0063390187,0.00018425654,-0.039523773,-0.21068975,0.17238252,-9.32781,0.7329411,47.685097,-0.9851668,-2.2418942,-3.1994429,-0.2889799,0.18439427,-0.30934337,28.5625,29.6875,28.9375,32.9375,35.375,36.4375
0.07405401,-0.9680647,-0.19443095,0.32066858,0.017950883,0.029195853,-0.19106603,-0.38225555,-0.34823972,0.059946228,-3.0784712,0.62542355,-0.00012925455,-0.032256953,0.0068525653,0.0012877623,-0.0014769515,0.002201831,-0.0010888485,0.47616383,-1.4243864,1.9559726,-2.1006982,-1.5707334,2.4514656,-0.042069096,0.04031399,-0.05070861,0.0077545485,0.00020350615,-0.04095024,-0.21068975,0.05746084,-9.32781,0.8314132,47.683304,-1.0562431,-2.2257538,-3.1957836,-0.29907426,0.20431924,-0.33184707,28.5625,29.6875,28.9375,32.9375,35.375,36.4375
0.07605349,-1.1609868,-0.058725502,0.19621481,0.025152614,0.01896666,-0.18711993,-0.38232782,-0.3482321,0.05996157,-3.0784988,0.62535137,-7.375908e-05,-0.0338834,0.0062442794,0.0033293234,-0.003425253,0.005896509,0.0012946575,0.47609168,-1.4243151,1.9558533,-2.1006858,-1.5707458,2.451345,-0.04250062,0.038906753,-0.053855073,0.008130512,0.00023708615,-0.04376404,-0.24899697,0.05746084,-9.32781,0.7642693,47.682407,-1.1702114,-2.200237,-3.017359,-0.30119342,0.1863981,-0.30720198,28.5625,29.6875,28.9375,32.9375,35.375,36.4375
0.07805432,-1.1808655,-0.09664809,0.26554275,0.024035413,0.018493863,-0.18498746,-0.38238168,-0.34820357,0.059933476,-3.078471,0.62538415,-0.00014593906,-0.033825938,0.0067290547,0.0016018038,-0.0020362902,0.0031359151,0.00039382186,0.47598326,-1.4242063,1.9557933,-2.1006858,-1.5707334,2.4512606,-0.04332181,0.04209056,-0.0534278,0.0076100966,0.00026579126,-0.043684073,-0.22984336,0.019153614,-9.3661175,0.78888994,47.661808,-1.137527,-2.1410933,-3.0841088,-0.28241712,0.17885295,-0.32725784,28.5625,29.6875,28.9375,32.9375,35.375,36.4375
0.08005385,-1.1024799,0.18571529,0.32805443,0.0071300557,0.018849278,-0.18641457,-0.38243088,-0.34817746,0.059928853,-3.0784276,0.6254326,-0.00017930815,-0.034108434,0.0067027006,0.0012534681,-0.0018005356,0.0026100215,-0.0004520105,0.47589955,-1.4241338,1.9557103,-2.1006382,-1.5707458,2.4512126,-0.04354844,0.043385785,-0.054102886,0.0075648986,0.00029445734,-0.043064382,-0.21068975,0.038307227,-9.308657,0.8224646,47.67614,-1.2550598,-2.215475,-3.23392,-0.28847593,0.16999337,-0.36199677,28.5625,29.6875,28.9375,32.9375,35.375,36.4375
0.082053944,-0.7685378,0.21903382,0.3525794,0.0038472011,0.026690867,-0.19733915,-0.38253772,-0.3481742,0.05995229,-3.0784721,0.62544155,-6.4113236e-05,-0.03600391,0.007064224,0.0017046386,-0.0027814773,0.0028802687,-0.0005490789,0.47580245,-1.4240377,1.9555525,-2.100662,-1.5707568,2.4511156,-0.046409518,0.044892136,-0.057020094,0.00828264,0.0010415389,-0.045828044,-0.2681506,0.0,-9.289502,0.81351066,47.709274,-1.2046353,-2.2442377,-3.1156118,-0.29961652,0.1831236,-0.36436585,28.5625,29.6875,28.9375,32.9375,35.375,36.4375
0.08405363,-1.2017977,-0.43910176,0.27727345,0.019206753,0.020494087,-0.18136531,-0.38258293,-0.3481611,0.05995817,-3.07847,0.62542033,-0.000105465115,-0.036634635,0.007322709,0.0018645276,-0.0027473841,0.002773791,0.0013169647,0.47573003,-1.4239775,1.9554566,-2.100602,-1.5707453,2.4510303,-0.047453858,0.045414265,-0.05814649,0.0089973165,0.001057792,-0.04873798,-0.2681506,0.11492168,-9.270349,0.8493211,47.68062,-1.2134832,-2.2135594,-3.1310701,-0.2996714,0.17790002,-0.37456557,28.5625,29.6875,28.9375,32.9375,35.375,36.4375
0.086054035,-0.8476029,-0.28669792,0.3755937,0.016838519,0.03588089,-0.18952145,-0.38267255,-0.34814036,0.059960645,-3.0784702,0.62545615,-9.131683e-05,-0.03675479,0.0066283345,0.0018147454,-0.0025931585,0.002660657,0.006105829,0.4756106,-1.4238691,1.9553245,-2.10059,-1.5707453,2.4509332,-0.04626343,0.04686133,-0.059767827,0.009342745,0.0009701307,-0.052335296,-0.24899697,0.095768064,-9.346964,0.7284641,47.666286,-1.3706744,-2.1555061,-3.0998573,-0.29918784,0.1765773,-0.340265,28.5625,29.6875,28.9375,32.9375,35.375,36.4375
0.08805413,-0.9088695,0.02122696,0.4377289,-0.00041652503,0.039169446,-0.19184141,-0.38275105,-0.3481289,0.059973177,-3.078502,0.6254079,-2.1447504e-05,-0.038132485,0.007641916,0.0017598799,-0.002233326,0.0022393954,0.0025765328,0.47552544,-1.423797,1.9552163,-2.100602,-1.5707568,2.450814,-0.0492406,0.048039135,-0.061161984,0.010098399,0.00084470963,-0.05178219,-0.21068975,0.15322891,-9.251195,0.779936,47.67614,-1.3636184,-2.2015376,-3.099531,-0.29919928,0.16727644,-0.34317118,28.5625,29.6875,28.9375,32.9375,35.375,36.4375
0.09005408,-1.0262241,-0.17669529,0.27420652,0.0016827864,0.04013518,-0.19070809,-0.38280126,-0.348116,0.05996648,-3.078495,0.62538546,-0.00010353535,-0.039499894,0.008141496,0.001943869,-0.002423946,0.0025994852,0.0034688262,0.4754408,-1.4237007,1.955108,-2.1005423,-1.570733,2.4507163,-0.05137779,0.04909977,-0.06284742,0.010316729,0.0008434493,-0.05481075,-0.21068975,0.15322891,-9.308657,0.7665104,47.678825,-1.298661,-2.107307,-3.058711,-0.29750627,0.19248414,-0.37142986,28.5625,29.6875,28.9375,32.9375,35.375,36.4375
0.092053935,-1.0282947,-0.48459655,0.12533754,-0.004173499,0.033217408,-0.19249289,-0.3828953,-0.34810758,0.059973445,-3.0785222,0.6253723,-8.7463326e-05,-0.041114632,0.009407347,0.0018541238,-0.002281389,0.0024885333,0.0037810113,0.4753315,-1.4235806,1.9549521,-2.1005294,-1.570721,2.4505954,-0.05504778,0.050109953,-0.063833065,0.010456672,0.0007666441,-0.05879217,-0.19153613,0.21068975,-9.32781,0.6948948,47.689575,-1.1616244,-2.214641,-3.0602956,-0.3108689,0.18935265,-0.33995855,28.5625,29.6875,28.9375,32.9375,35.375,36.4375
0.09405377,-0.8147364,-0.4866706,0.17447302,-0.010712476,0.03926971,-0.19641754,-0.38298154,-0.34808263,0.059997085,-3.0785367,0.625314,-2.0403586e-05,-0.04134658,0.008760605,0.0018028491,-0.002094668,0.0023401764,0.008209315,0.47522393,-1.4235202,1.954821,-2.1004937,-1.5707458,2.4504497,-0.054037124,0.051704,-0.06563497,0.010880408,0.0006675546,-0.062208567,-0.30645782,0.24899697,-9.3661175,0.8224646,47.681515,-1.3045254,-2.1529288,-3.0221343,-0.30427426,0.17465523,-0.2970131,28.5625,29.6875,28.9375,32.9375,35.375,36.4375
0.09605412,-0.6588319,-0.42904547,0.17381029,-0.012359761,0.056130826,-0.19169624,-0.38304257,-0.34807745,0.05997648,-3.078577,0.62530166,-0.00016162127,-0.042369395,0.008986989,0.0020762049,-0.0023656748,0.0028061618,0.010008699,0.47510353,-1.4233881,1.9547118,-2.1004698,-1.570661,2.4503164,-0.055382222,0.052411206,-0.06713232,0.011137332,0.00068963977,-0.06535232,-0.2681506,0.17238252,-9.32781,0.7530795,47.70211,-1.3387396,-2.1677232,-3.0590959,-0.30979,0.17960672,-0.27994037,28.5625,29.6875,28.9375,32.9375,35.375,36.4375
0.09805418,-1.1353017,-0.43737248,0.10535241,-0.00229755,0.05491275,-0.19466898,-0.3831426,-0.34805197,0.0599815,-3.078561,0.6253183,-0.00012540197,-0.04406593,0.010373776,0.0010955986,-0.0016328244,0.0013246352,0.009253568,0.47498202,-1.4232672,1.9545568,-2.100446,-1.5706853,2.4502075,-0.059405364,0.05536932,-0.06822863,0.010926384,0.00071316486,-0.06861932,-0.2681506,0.19153613,-9.346964,0.7597976,47.68062,-1.1851017,-2.1263542,-3.0273569,-0.3064742,0.19910273,-0.23266599,28.5625,29.6875,28.9375,32.9375,35.375,36.4375
0.10005424,-1.0166695,-0.108928666,0.13436797,-0.010597288,0.058945548,-0.19544733,-0.3832238,-0.348038,0.05999316,-3.0785663,0.62524027,-8.646648e-05,-0.044827983,0.010270093,0.0008591392,-0.0015173936,0.0010376719,0.012351863,0.47489798,-1.4231703,1.9544114,-2.1004102,-1.5707091,2.4500742,-0.0599269,0.057289254,-0.06989923,0.010983018,0.0007387413,-0.072238065,-0.34476504,0.1340753,-9.461885,0.800085,47.683304,-1.2346864,-2.361857,-3.0607276,-0.31465465,0.19491565,-0.18393701,28.5625,29.6875,28.9375,32.9375,35.375,36.4375
0.102053955,-1.1264459,-0.4779981,0.122274116,-0.005215935,0.057643384,-0.19159144,-0.38331625,-0.34799755,0.059974518,-3.0785594,0.6252,-0.000116065276,-0.04608239,0.010645846,0.0022596233,-0.0031487788,0.0036377492,0.013408825,0.47474122,-1.4230391,1.9543041,-2.1004102,-1.5707091,2.4498932,-0.061895553,0.055203833,-0.07067958,0.010789433,0.0009970566,-0.075264044,-0.45968673,0.17238252,-9.404425,0.7463667,47.690468,-1.2127354,-2.1211696,-3.0086617,-0.3026815,0.19250631,-0.15534909,28.5625,29.6875,28.9375,32.9375,35.375,36.4375
0.10405374,-1.1863436,-0.4369101,0.093701854,-0.0022232544,0.053825717,-0.19281241,-0.3833961,-0.34799328,0.059980407,-3.0785956,0.62514895,-0.00012688394,-0.046807516,0.011105569,0.0013896321,-0.0024272064,0.002013472,0.013403735,0.4746448,-1.42293,1.9541606,-2.1003864,-1.5706853,2.4497604,-0.063429736,0.057859045,-0.07178198,0.01101255,0.001096704,-0.076792374,-0.38307226,0.17238252,-9.404425,0.70608455,47.681515,-1.2141576,-2.1565883,-3.06382,-0.29914832,0.18823704,-0.10937352,28.5625,29.6875,28.9375,32.9375,35.375,36.4375
0.1060539,-1.2917217,-0.32829115,0.05512733,-0.003659479,0.048024755,-0.18634385,-0.38350135,-0.34795764,0.059984967,-3.0785809,0.62512857,-0.00010408952,-0.04779261,0.011299113,0.0007382228,-0.0023355861,0.0012477343,0.01165586,0.4745003,-1.422809,1.9540037,-2.1003501,-1.5707091,2.4496052,-0.06483249,0.06043554,-0.07312839,0.010502898,0.0013614467,-0.076446526,-0.3256114,0.019153614,-9.461885,0.7351769,47.658226,-1.2075287,-2.178677,-3.0892918,-0.2985896,0.18722364,-0.08551879,28.5625,29.6875,28.9375,32.9375,35.375,36.4375
0.10805384,-1.2447404,-0.23797224,0.039811052,-0.001750506,0.0434529,-0.18839538,-0.38359222,-0.34794348,0.059992068,-3.0786173,0.62502056,-7.680877e-05,-0.048525292,0.011708916,0.0004985757,-0.0024998938,0.0012162975,0.010170834,0.47439176,-1.4227004,1.9538606,-2.1003382,-1.5707091,2.4494247,-0.066320516,0.061300647,-0.0734385,0.009900416,0.001521866,-0.07644936,-0.38307226,-0.038307227,-9.385271,0.7665104,47.681515,-1.2225236,-2.365906,-3.1370573,-0.29097694,0.18144871,-0.079685315,28.5625,29.6875,28.9375,32.9375,35.375,36.4375
0.11005351,-1.1271977,-0.21948302,0.017764237,0.004332029,0.044733737,-0.18804955,-0.38367817,-0.34792003,0.059987932,-3.078618,0.62498444,-9.0250585e-05,-0.050639283,0.011641826,0.0018934475,-0.0037688343,0.0038578412,0.0047260826,0.47427124,-1.4225805,1.9537276,-2.1003144,-1.5707091,2.4492817,-0.068069816,0.061477657,-0.07691936,0.010275661,0.0014377643,-0.07275211,-0.4213795,0.038307227,-9.385271,0.8023209,47.661808,-1.2392843,-2.1669693,-3.0564964,-0.29807088,0.18621273,-0.09663342,28.5625,29.6875,28.9375,32.9375,35.375,36.4375
0.11205379,-0.64190966,0.07482462,0.04958937,0.0117139565,0.049882717,-0.19066577,-0.3838096,-0.34789068,0.059991267,-3.0786326,0.6250269,-7.684116e-05,-0.05004355,0.012722728,7.954581e-05,-0.0019554654,0.00032421044,0.00248878,0.47409078,-1.4224235,1.9535378,-2.1003025,-1.5706972,2.449126,-0.06942283,0.06349143,-0.075123966,0.010439495,0.0014444023,-0.071868435,-0.34476504,0.019153614,-9.423578,0.7083204,47.685097,-1.1933358,-2.2936897,-3.1528769,-0.30951697,0.18628454,-0.11937855,28.5625,29.6875,28.9375,32.9375,35.375,36.4375
0.11405435,-1.2206471,0.3190819,0.046591833,0.011211018,0.037537854,-0.1875904,-0.38393164,-0.34785208,0.05999955,-3.0786197,0.62506586,2.8704706e-06,-0.051509604,0.01382024,-0.00062193145,-0.0017355098,-0.00026623608,-0.0015797046,0.47393358,-1.4223026,1.953381,-2.100303,-1.570733,2.4489949,-0.072740555,0.06554882,-0.075681016,0.009562429,0.0015178324,-0.07111698,-0.40222588,-0.05746084,-9.385271,0.8560339,47.716442,-1.1690044,-2.2310452,-3.276537,-0.3030912,0.1991634,-0.10564062,28.5625,29.6875,28.9375,32.9375,35.375,36.4375
0.11605414,-1.2083411,-0.005445242,0.22997887,0.012939167,0.033743978,-0.1787957,-0.38401803,-0.3478355,0.05999104,-3.0786254,0.625068,-7.5837124e-05,-0.05363672,0.012370924,0.0011432047,-0.0038479334,0.003813274,-0.0051121437,0.4738018,-1.4221582,1.9532245,-2.1002557,-1.5706972,2.4488637,-0.07210205,0.06639025,-0.08055709,0.009006243,0.0015225057,-0.066943444,-0.3256114,0.019153614,-9.385271,0.7351769,47.684196,-1.1202662,-2.2588956,-2.9874287,-0.29229477,0.17848304,-0.15191545,28.5625,29.6875,28.9375,32.9375,35.375,36.4375
0.118053906,-1.6771135,-0.30393165,-0.09798927,0.018563166,0.023696654,-0.17760992,-0.3841243,-0.34782016,0.059995525,-3.0786624,0.62507665,-3.2075306e-05,-0.052572705,0.013609236,-0.00061588007,-0.0021234036,0.00011065121,-0.006958945,0.4736694,-1.4220378,1.953082,-2.100279,-1.5706853,2.4487321,-0.07341174,0.0673394,-0.0776931,0.009275215,0.0016873734,-0.06640787,-0.3256114,0.038307227,-9.385271,0.79560274,47.713753,-1.2260044,-2.2812016,-3.2741637,-0.2725257,0.17600921,-0.18329284,28.5625,29.6875,28.9375,32.9375,35.375,36.4375
0.120053746,-1.1093131,-0.180308,0.010753732,0.01462856,0.045757975,-0.18800883,-0.38427153,-0.34779438,0.06002574,-3.0786858,0.62512165,0.00011938141,-0.055385016,0.014547563,0.00026555738,-0.0032091863,0.002103423,-0.011962491,0.47351205,-1.4219173,1.9528779,-2.1002905,-1.570721,2.4486,-0.07766011,0.068189405,-0.080647446,0.009108726,0.0017446898,-0.065651,-0.4213795,0.076614454,-9.3661175,0.7777002,47.66091,-1.1673787,-2.2316449,-3.2622988,-0.26026016,0.16679999,-0.21790293,28.5625,29.6875,28.9375,32.9375,35.375,36.4375
0.1220538,-1.034685,0.045814987,0.0016616484,0.013852861,0.045259308,-0.19095914,-0.38436738,-0.34776193,0.060020708,-3.0786967,0.62520146,-1.0315019e-05,-0.05498069,0.0144391935,3.4274704e-05,-0.00289736,0.0008873981,-0.0116163455,0.4733201,-1.4217852,1.952722,-2.100219,-1.570649,2.4484565,-0.077253975,0.06865032,-0.08088333,0.010112276,0.0020207555,-0.06559153,-0.2681506,0.038307227,-9.385271,0.7933669,47.71286,-1.1167916,-2.1410265,-3.2458115,-0.27876183,0.18051419,-0.23506027,28.5625,29.6875,28.9375,32.9375,35.375,36.4375
0.12405365,-1.3062813,-0.32683352,0.119552694,0.01870501,0.032742858,-0.18170507,-0.38447294,-0.3477174,0.059989076,-3.078634,0.6252077,-9.254904e-06,-0.055945944,0.015096632,-4.5990753e-05,-0.0032169684,0.0004849989,-0.013844929,0.47317532,-1.4216046,1.9525903,-2.100231,-1.5706967,2.4483237,-0.07958342,0.069423825,-0.081640795,0.010304276,0.002485308,-0.06569275,-0.30645782,0.076614454,-9.404425,0.78217715,47.66987,-1.1667566,-2.2088566,-3.313496,-0.27904543,0.17502344,-0.28049818,28.5625,29.6875,28.9375,32.9375,35.375,36.4375
0.12605406,-0.7957005,0.020469794,0.13845526,0.009026719,0.044312734,-0.19552583,-0.3845823,-0.34768972,0.060006503,-3.0786572,0.62525237,2.1985365e-05,-0.056999084,0.01585954,-0.00036640395,-0.0034277085,0.00040090858,-0.015478001,0.47301847,-1.4215082,1.9524349,-2.100207,-1.5706848,2.448192,-0.08202264,0.07040783,-0.0818623,0.0095209535,0.0027115073,-0.06649875,-0.36391866,0.0,-9.385271,0.6926589,47.629562,-1.0687424,-2.1380424,-3.3766105,-0.2514869,0.15098915,-0.307644,28.5625,29.6875,28.9375,32.9375,35.375,36.4375
0.12805372,-0.8895944,0.044992954,0.00042063874,0.0111684175,0.03888899,-0.18143475,-0.38469586,-0.34766898,0.05998784,-3.07865,0.62530845,-3.1957796e-05,-0.058373466,0.016142933,0.00025574164,-0.003900046,0.0016747674,-0.016399922,0.47286206,-1.4213158,1.9522547,-2.1001952,-1.5706605,2.4480715,-0.08364924,0.070748016,-0.08372555,0.00969747,0.0025468776,-0.06720233,-0.22984336,0.0,-9.442732,0.842603,47.67614,-0.99856424,-2.0893917,-3.4324458,-0.24570367,0.15361124,-0.32021195,28.5625,29.6875,28.9375,32.9375,35.3125,36.4375
0.13005346,-0.5584207,0.16898125,0.041246288,0.0026797703,0.05075289,-0.19336712,-0.3848114,-0.3476135,0.059982985,-3.0785959,0.62531763,-4.2083295e-05,-0.058832698,0.016993703,-0.00030041925,-0.0027084642,6.804831e-05,-0.018117463,0.4726815,-1.4211714,1.9520868,-2.1001346,-1.5706967,2.4479036,-0.08534046,0.072172344,-0.0843649,0.010884807,0.0022169133,-0.06717529,-0.28730422,0.11492168,-9.404425,0.82022345,47.684196,-1.0417993,-2.107603,-3.3767967,-0.24479875,0.17576557,-0.37459147,28.5625,29.6875,28.9375,32.9375,35.3125,36.4375
0.13205414,-0.87299246,0.29314756,0.31426224,-0.010137099,0.055572193,-0.19305009,-0.38494232,-0.34759906,0.060006127,-3.078652,0.62540585,8.106672e-06,-0.05929582,0.017907033,-0.0005931181,-0.002174213,-0.0006460643,-0.019941181,0.47251284,-1.4210509,1.9518961,-2.1001346,-1.5706605,2.447783,-0.08726007,0.07250026,-0.084158756,0.011233153,0.0020723767,-0.06727094,-0.36391866,0.1340753,-9.3661175,0.7553206,47.70659,-1.0174216,-2.033709,-3.5494294,-0.2567076,0.16778314,-0.39798695,28.5625,29.6875,28.9375,32.9375,35.3125,36.4375
0.13405424,-1.1413618,0.0011041583,0.27200297,0.0043510394,0.050419398,-0.19354656,-0.3850935,-0.34756592,0.06004958,3.078681,-0.6255475,-0.00010053998,-0.062028266,0.0173029,0.0012969206,-0.0042457664,0.0031252701,-0.021109242,0.47230837,-1.4209548,1.9516786,-2.1000984,-1.5706486,2.4476633,-0.088726856,0.073083214,-0.089178815,0.011370175,0.0021967124,-0.06756713,-0.40222588,0.15322891,-9.346964,0.8023209,47.709274,-0.9334887,-1.9608357,-3.3775306,-0.25170246,0.15992758,-0.4278773,28.5625,29.6875,28.9375,32.9375,35.3125,36.4375
0.13605382,-1.0674062,0.1335784,0.067177996,0.0028232788,0.051710945,-0.19256093,-0.38520882,-0.34753248,0.060036633,-3.0786543,0.62561905,9.486942e-05,-0.062421277,0.01836885,-0.00089489913,-0.0026583183,-0.0008081605,-0.021651711,0.47215152,-1.420785,1.9515113,-2.100087,-1.5706605,2.4475546,-0.091194496,0.07734137,-0.089013696,0.011170084,0.002571647,-0.069492266,-0.34476507,0.076614454,-9.385271,0.7732232,47.687782,-0.88055813,-2.0861096,-3.4372084,-0.24202879,0.16065758,-0.45581356,28.5625,29.6875,28.9375,32.9375,35.3125,36.4375
0.13805375,-1.0173534,-0.17008132,0.021003524,-0.0057992344,0.04928165,-0.1907791,-0.3853366,-0.34749383,0.060044415,-3.078661,0.6256396,8.480945e-05,-0.064519376,0.018393971,0.0018211524,-0.0054108966,0.003965053,-0.021709539,0.47195873,-1.4206421,1.9513191,-2.1000392,-1.5706486,2.4473739,-0.09329652,0.07411766,-0.091607876,0.011485447,0.0028486736,-0.07153617,-0.38307226,0.095768064,-9.3661175,0.8112748,47.684196,-0.79900473,-1.9902072,-3.3802915,-0.2441984,0.15317239,-0.4860031,28.5625,29.6875,28.9375,32.9375,35.3125,36.4375
0.14005385,-1.1532941,-0.09708436,-0.21609846,-0.00621944,0.041797858,-0.18645148,-0.38544092,-0.347448,0.06001937,-3.0786467,0.62561244,-1.3948128e-05,-0.06516403,0.018076362,0.0015913487,-0.0054097683,0.0032393432,-0.014951159,0.47176686,-1.4204732,1.9511746,-2.1000025,-1.5706247,2.447167,-0.093502745,0.0763116,-0.09374072,0.012072329,0.0031708481,-0.07850017,-0.36391866,0.076614454,-9.500193,0.86498255,47.668976,-0.862684,-1.8285184,-3.3173814,-0.27110493,0.14101255,-0.4516294,28.5625,29.6875,28.9375,32.9375,35.3125,36.4375
0.14205386,-1.1422355,-0.25623104,-0.14922157,-0.0009815701,0.049435783,-0.18786152,-0.38557088,-0.34739664,0.060028166,-3.078628,0.625782,-1.403201e-05,-0.066511,0.019333893,0.00061232166,-0.0042166263,0.0015766075,-0.015807182,0.4715497,-1.4203517,1.9510072,-2.0999663,-1.5706128,2.447058,-0.09672882,0.07918852,-0.09487081,0.012351591,0.0028633345,-0.08086879,-0.4213795,0.076614454,-9.519346,0.8112748,47.67166,-0.69793075,-2.0905786,-3.402714,-0.25115818,0.1361754,-0.44839773,28.5625,29.6875,28.9375,32.9375,35.3125,36.4375
0.14405349,-1.637833,-0.41506186,-0.19721144,-0.0062872074,0.055863492,-0.18259057,-0.38574654,-0.34737256,0.06005116,3.0786083,-0.6257929,-0.0001400915,-0.0667257,0.018462691,0.0020963314,-0.005202271,0.004520922,-0.0076971236,0.4713702,-1.4201725,1.950755,-2.0999906,-1.5706486,2.446888,-0.09504413,0.077293865,-0.09611869,0.01242242,0.0024109394,-0.087292984,-0.4213795,0.076614454,-9.5385,0.7777002,47.689575,-0.9292025,-1.7789989,-3.3910027,-0.23145142,0.13968569,-0.43026733,28.5625,29.6875,28.9375,32.9375,35.3125,36.4375
0.14605369,-1.2307526,-0.5770121,-0.21976998,-0.00136609,0.079797804,-0.19142233,-0.3858459,-0.3473212,0.06001825,-3.0786095,0.62577254,3.4134955e-05,-0.06870316,0.019973848,0.0010701847,-0.004306388,0.0028762878,-0.0049831355,0.47118863,-1.4199911,1.9506115,-2.0999424,-1.5706486,2.4466937,-0.0994582,0.08076471,-0.09777865,0.012484086,0.0023494565,-0.09441984,-0.34476504,0.1340753,-9.5385,0.7553206,47.677036,-0.82800204,-1.768245,-3.3514614,-0.24182636,0.13556322,-0.33017862,28.5625,29.6875,28.9375,32.9375,35.3125,36.4375
0.14805387,-1.032055,-0.24482994,-0.41384846,-0.007676301,0.077512205,-0.19390894,-0.38597468,-0.3472774,0.060012877,-3.078605,0.62576526,-8.055783e-06,-0.06804842,0.018292958,0.0007367798,-0.004188948,0.0025491915,0.0038856694,0.47098604,-1.4198221,1.9504193,-2.0998948,-1.5706366,2.4464872,-0.09587443,0.08285254,-0.09939263,0.012356408,0.0023879064,-0.09970386,-0.36391866,0.17238252,-9.672575,0.8224646,47.67614,-0.9745806,-1.8786129,-3.3728204,-0.21822336,0.15650217,-0.2964853,28.5625,29.6875,28.9375,32.9375,35.3125,36.4375
0.15005401,-1.503464,-0.9777402,-0.28972468,0.0010904232,0.0606442,-0.18460862,-0.3861228,-0.34725595,0.060026992,3.0786486,-0.6256954,-3.8243576e-05,-0.06926704,0.018439071,0.0010426799,-0.004575381,0.0029366596,0.0074147433,0.47080564,-1.4196535,1.9501914,-2.0998828,-1.5706247,2.4462578,-0.09731387,0.08397794,-0.10149783,0.012816629,0.0025586542,-0.10467142,-0.34476504,0.15322891,-9.634268,0.84708,47.67614,-1.0270836,-1.8515443,-3.326551,-0.22985634,0.13591948,-0.22691083,28.5625,29.6875,28.9375,32.9375,35.3125,36.4375
0.15205339,-0.85042214,-0.62118286,-0.22312586,-0.0090489965,0.051716983,-0.1870322,-0.386299,-0.34723553,0.06007493,3.0785666,-0.62567645,-0.00017300632,-0.06993579,0.018007288,0.0014544526,-0.0052303346,0.003976608,0.010193057,0.47060168,-1.4195213,1.9499277,-2.099871,-1.5706128,2.4460526,-0.09718963,0.084525675,-0.10301757,0.012566178,0.0026808507,-0.10732449,-0.21068975,0.21068975,-9.5385,0.7620334,47.687782,-1.1145344,-1.8478597,-3.360552,-0.23343465,0.1334505,-0.16202402,28.5625,29.6875,28.9375,32.9375,35.3125,36.4375
0.15405433,-0.72576755,-0.89423597,-0.43429384,0.001169126,0.028298525,-0.18785273,-0.38642865,-0.34716454,0.060054954,3.0786107,-0.6257048,-0.00013595521,-0.07137499,0.017668458,0.001745238,-0.0052313935,0.005207598,0.010736448,0.47037345,-1.4193522,1.9497713,-2.0998347,-1.5706366,2.4458365,-0.097494505,0.086582124,-0.10601636,0.0124109,0.002113233,-0.10817031,-0.1340753,0.24899697,-9.481039,0.784413,47.677036,-1.0937023,-1.8542231,-3.3014393,-0.23296076,0.13955644,-0.14735682,28.5625,29.6875,28.9375,32.9375,35.3125,36.4375
0.1560535,-0.7949312,-0.91815156,-0.49396005,0.0021706389,0.012795765,-0.17468578,-0.38657114,-0.34713748,0.060060382,3.0785854,-0.6257006,-0.00012680679,-0.0723766,0.018258102,0.0013538591,-0.004428187,0.0049970374,0.0081987465,0.47018108,-1.4191716,1.9495438,-2.0997994,-1.5706133,2.4456449,-0.09900968,0.08834107,-0.10713364,0.012326108,0.0014924369,-0.1071461,-0.1340753,0.22984336,-9.576807,0.784413,47.685097,-1.160779,-1.9073727,-3.291123,-0.19966713,0.14117542,-0.12400531,28.5625,29.6875,28.9375,32.9375,35.3125,36.4375
0.15805376,-0.018526636,-0.57324183,-0.27017337,-0.006802711,0.017637294,-0.1904873,-0.3867359,-0.34710443,0.060059324,3.0785894,-0.6256278,-0.00020641195,-0.07426097,0.018409554,0.00017253634,-0.0033964713,0.0037799887,0.0018399882,0.4699884,-1.4189653,1.9493154,-2.0998232,-1.5706371,2.4454064,-0.100706816,0.09379194,-0.11060373,0.011896929,0.001120762,-0.10248131,-0.05746084,0.2681506,-9.442732,0.7553206,47.695843,-1.1079813,-2.0538616,-3.0807285,-0.19066626,0.14517668,-0.14863585,28.5625,29.6875,28.9375,32.9375,35.3125,36.4375
0.16005385,-0.3738104,-0.9608885,-0.37247118,-0.0014765909,0.01236637,-0.18322496,-0.3868688,-0.34706414,0.060074676,3.078593,-0.62560964,-0.00020612676,-0.07520121,0.018316792,0.0019088731,-0.0048350203,0.0069218343,-0.0011913991,0.46979645,-1.4188223,1.9490999,-2.0997508,-1.5706371,2.4452028,-0.101264104,0.09133968,-0.111817464,0.012111078,0.0009795666,-0.10000689,-0.095768064,0.30645782,-9.461885,0.8672237,47.71823,-1.1276658,-1.9036223,-3.1968942,-0.17464003,0.1587402,-0.18880722,28.5625,29.6875,28.9375,32.9375,35.3125,36.4375
0.16205414,-0.5181384,-1.353854,-0.35132375,0.0034748898,0.009419174,-0.18202268,-0.38706186,-0.3470419,0.060104072,3.0785,-0.6256743,-0.0002992673,-0.07703602,0.019610029,0.0006040482,-0.003412922,0.0043331264,-0.011019739,0.4695668,-1.4186285,1.9488105,-2.0997503,-1.5706133,2.4450254,-0.10510813,0.095912516,-0.114292406,0.012968222,0.00088936224,-0.094020635,0.0,0.28730422,-9.461885,0.784413,47.71823,-0.97714883,-1.9976695,-3.0181656,-0.18200153,0.14390208,-0.2597416,28.5625,29.6875,28.9375,32.9375,35.3125,36.4375
0.16405419,-0.6045308,-1.6497895,-0.4381942,0.0005857452,0.0077686543,-0.1718386,-0.3871791,-0.34698725,0.06009227,3.0785153,-0.6256741,-0.00026919978,-0.07680178,0.01861499,0.0013331276,-0.003888833,0.0052752807,-0.007416691,0.46936372,-1.4184846,1.9486669,-2.0997264,-1.5706133,2.4448204,-0.1030951,0.09550135,-0.11566417,0.0136958845,0.0008855341,-0.09561023,0.019153614,0.30645782,-9.404425,0.8090337,47.66808,-1.2455529,-2.0666986,-3.0823746,-0.16293515,0.15107086,-0.28125793,28.5625,29.6875,28.9375,32.9375,35.3125,36.4375
0.16605432,-0.5425681,-1.4499042,-0.17877445,-0.018932132,0.015027281,-0.17822544,-0.3873611,-0.34696165,0.0601128,3.0784657,-0.6256872,-0.00032911362,-0.07899179,0.020209135,0.0010301556,-0.0035697445,0.0046407916,-0.014073491,0.46914598,-1.4182794,1.9483794,-2.0997026,-1.5706013,2.4446173,-0.10785368,0.097615704,-0.117517814,0.014146753,0.0008912893,-0.093710855,-0.05746084,0.40222588,-9.289502,0.7239871,47.67793,-0.95493054,-1.9622676,-3.0007586,-0.17269926,0.1514091,-0.2852875,28.5625,29.6875,28.9375,32.9375,35.3125,36.4375
0.16805407,-1.031832,-1.8249567,-0.3731729,-0.012185375,0.015334206,-0.17344452,-0.38751757,-0.34692743,0.060130697,3.0784686,-0.6256661,-0.000421349,-0.078187935,0.019359125,0.0008237926,-0.0030665637,0.00399085,-0.011374861,0.46896693,-1.4181111,1.94814,-2.0996783,-1.5706371,2.4444249,-0.10548248,0.098333865,-0.11801936,0.01473475,0.000741981,-0.09403786,-0.05746084,0.4213795,-9.442732,0.8717007,47.672558,-1.2445462,-2.072229,-3.092337,-0.15801261,0.14851122,-0.3241384,28.5625,29.6875,28.9375,32.9375,35.3125,36.4375
0.17005396,-0.7273296,-1.4265709,-0.011640829,-0.018264644,0.031445984,-0.18673137,-0.38767087,-0.34688953,0.060119078,3.0784223,-0.6257925,-0.00036986687,-0.079235196,0.020240044,0.00047217388,-0.00278334,0.0033745766,-0.013851232,0.4687381,-1.4178945,1.9479126,-2.0996544,-1.5706013,2.4442809,-0.10795886,0.09963929,-0.118761666,0.014852913,0.0007662621,-0.094037406,-0.05746084,0.36391866,-9.442732,0.842603,47.67614,-1.2516257,-1.9330263,-3.0656013,-0.15120807,0.16320619,-0.34705102,28.5625,29.6875,28.9375,32.9375,35.3125,36.4375
0.17205474,-0.57201135,-1.0456675,0.07145421,-0.025733773,0.03208878,-0.18179461,-0.3878274,-0.34685406,0.060118668,3.0784154,-0.6257915,-0.0003827202,-0.08049492,0.019965868,0.0012798472,-0.0039477167,0.0048685744,-0.014342207,0.46853387,-1.4176902,1.9476737,-2.0996306,-1.5706013,2.444077,-0.10879747,0.100022316,-0.12108108,0.014929419,0.0011276554,-0.09438431,-0.15322891,0.28730422,-9.308657,0.78217715,47.690468,-1.2173289,-2.0325541,-3.201714,-0.14305668,0.14820348,-0.3691302,28.5625,29.6875,28.9375,32.9375,35.3125,36.4375
0.17405367,-0.6669582,-1.1836723,0.05650361,-0.014386545,0.02949759,-0.17893898,-0.3880184,-0.34681818,0.06015874,3.0783603,-0.6257787,-0.0005238123,-0.0804227,0.02062848,-0.0003381638,-0.0028444696,0.0018007408,-0.013697772,0.4683056,-1.4175328,1.947399,-2.0996187,-1.5706133,2.443848,-0.11011917,0.102812275,-0.12059393,0.014885559,0.0015410733,-0.09635059,-0.21068975,0.2681506,-9.308656,0.7866488,47.64837,-1.2101263,-1.9468358,-3.1434364,-0.13660963,0.15425527,-0.4015938,28.5625,29.6875,28.9375,32.9375,35.3125,36.4375
0.1760538,-0.4515553,-0.55177295,0.13776833,-0.0041918773,0.024313938,-0.19027306,-0.38818303,-0.3467731,0.060145225,3.0783744,-0.6257798,-0.00049506855,-0.08184047,0.0207985,0.0004187951,-0.00360919,0.0034734625,-0.0111220395,0.46807715,-1.4172928,1.9471463,-2.099583,-1.5706133,2.4436185,-0.11159939,0.1029562,-0.12249088,0.01480151,0.0014646417,-0.10040559,-0.19153613,0.21068975,-9.193734,0.7597976,47.688675,-1.2009681,-1.9713247,-3.1250806,-0.11547529,0.16219501,-0.3852759,28.5625,29.6875,28.9375,32.9375,35.3125,36.4375
0.17805418,-0.44949389,-0.5083181,0.18769602,0.019494427,0.021599632,-0.18674017,-0.38833225,-0.34673795,0.06013116,3.0783892,-0.6257408,-0.00045080512,-0.08240194,0.02124844,-0.00035519426,-0.002970269,0.0017922763,-0.006676917,0.46787265,-1.4170635,1.9469069,-2.0995467,-1.5706013,2.443388,-0.11297853,0.10524598,-0.12348932,0.015299825,0.0016521129,-0.10622939,-0.15322891,0.11492168,-9.155427,0.7978386,47.66539,-1.2291753,-1.9235375,-3.2021685,-0.105357155,0.14822757,-0.33499557,28.5625,29.6875,28.9375,32.9375,35.3125,36.4375
0.1800543,-0.10516831,0.251694,0.4822085,0.02119489,0.030858789,-0.18820176,-0.38851178,-0.3467048,0.060148112,3.0783174,-0.62578183,-0.00054142764,-0.08309403,0.02163572,-0.00035264267,-0.0030217338,0.0017829471,-0.0026253657,0.46764424,-1.4168836,1.9466671,-2.0995705,-1.570589,2.4431944,-0.114272125,0.105844006,-0.12422833,0.015427677,0.0017129882,-0.11157407,-0.095768064,0.0,-9.11712,0.7911258,47.63404,-1.2744098,-1.867192,-3.2533963,-0.092512056,0.15555206,-0.2684258,28.5625,29.6875,28.9375,32.9375,35.3125,36.4375
0.1820535,-0.2967168,0.32605433,0.62986064,0.034527045,0.031368423,-0.19622381,-0.3886652,-0.3466624,0.060138967,3.0783265,-0.62572235,-0.00048634058,-0.08411343,0.022066394,-0.00038120768,-0.0032962917,0.002044757,0.0034972446,0.4674156,-1.4166667,1.9464282,-2.0995228,-1.5705651,2.4429276,-0.11598404,0.10675357,-0.12515195,0.015087406,0.0018385857,-0.11940816,-0.24899697,-0.076614454,-9.021352,0.784413,47.682407,-1.214432,-2.0420423,-3.2208557,-0.08640565,0.16126055,-0.1975163,28.5625,29.6875,28.9375,32.9375,35.3125,36.4375
0.18405351,-0.6993645,0.75138366,0.6112546,0.045449343,0.039925728,-0.19033064,-0.3888383,-0.3466144,0.06014936,3.0783079,-0.62573624,-0.00051631016,-0.08592378,0.022763819,0.00044857012,-0.004312094,0.0038428756,0.004571065,0.46717483,-1.4164748,1.9461759,-2.099487,-1.5705651,2.442698,-0.118855126,0.10652026,-0.12674186,0.0148481075,0.0019372898,-0.12335239,-0.22984336,-0.17238252,-8.848969,0.81351066,47.689575,-1.2502738,-1.728261,-3.279438,-0.060170285,0.13495865,-0.15537828,28.5625,29.6875,28.9375,32.9375,35.3125,36.4375
0.1860544,-1.3674445,0.4717559,0.5276951,0.07151346,0.033457987,-0.17728683,-0.38899252,-0.34656584,0.060129948,3.078301,-0.625792,-0.0004451662,-0.085991934,0.022815203,-0.00023409208,-0.003850067,0.0012896908,0.0055189324,0.46693447,-1.4162455,1.9459485,-2.0994508,-1.5705408,2.4424934,-0.119430676,0.108771145,-0.12817377,0.016517991,0.0026720136,-0.124875955,-0.34476504,-0.22984336,-9.059659,0.75084364,47.6421,-1.1206083,-2.10531,-3.3109634,-0.048754945,0.1291838,-0.071307726,28.5625,29.6875,28.9375,32.9375,35.3125,36.4375
0.18805341,-1.5047873,0.75882775,0.49724588,0.060586993,0.039760496,-0.17883398,-0.3891997,-0.34654173,0.060166977,3.078255,-0.6256892,-0.00057329005,-0.08675278,0.023989474,-0.0010739904,-0.0031121168,-0.0017719669,0.0010220262,0.4667053,-1.4160407,1.9456257,-2.0994375,-1.5705403,2.4422061,-0.12260198,0.11104666,-0.12933666,0.01846965,0.0034055822,-0.12355024,-0.47884035,-0.19153613,-9.040505,0.8605109,47.66271,-1.0837388,-1.8434114,-3.2925458,-0.056469686,0.13224207,-0.09021805,28.5625,29.6875,28.9375,32.9375,35.3125,36.4375
0.19005339,-1.3341273,0.6919688,0.542648,0.058800906,0.049557418,-0.18237367,-0.3893422,-0.3464756,0.06013528,3.078304,-0.6256632,-0.0004566069,-0.08734259,0.025479313,-0.0017057861,-0.0018797831,-0.0039029405,-0.0044896803,0.46645254,-1.4158121,1.9454216,-2.099377,-1.5705284,2.441931,-0.12562338,0.112104155,-0.12948897,0.02002473,0.0032548262,-0.121060155,-0.5363012,-0.34476504,-9.078813,0.81351066,47.717335,-0.96799004,-1.9524274,-3.291725,-0.05766929,0.12033248,-0.09549253,28.5625,29.6875,28.9375,32.9375,35.3125,36.4375
0.19205332,-1.8182942,0.37180537,0.16900495,0.05938948,0.04556027,-0.176976,-0.38953453,-0.34643522,0.060144816,3.0782897,-0.62568253,-0.00053752016,-0.08922808,0.025475644,-0.00090488506,-0.0017392045,-0.002596303,-0.009391218,0.4662241,-1.4155831,1.945134,-2.099365,-1.5705527,2.4417167,-0.12678719,0.11380029,-0.13358505,0.021320933,0.0025392536,-0.11731961,-0.61291564,-0.28730422,-9.212888,0.7777002,47.703903,-0.98128235,-1.8626832,-3.3040376,-0.07100731,0.12334321,-0.13514563,28.5625,29.6875,28.9375,32.9375,35.3125,36.4375
0.19405337,-1.6757385,0.08732979,0.22025369,0.041392595,0.05959826,-0.18449138,-0.38969624,-0.3463768,0.060135175,3.078293,-0.6257617,-0.00043727682,-0.08839198,0.026363559,-0.0023838058,0.00023911914,-0.0058146035,-0.014215414,0.46595997,-1.4153545,1.9448713,-2.0992692,-1.5705284,2.4415016,-0.12734471,0.11523496,-0.13207127,0.0221409,0.0022134,-0.11305346,-0.7278373,-0.2681506,-9.212888,0.8672237,47.711063,-1.0148884,-1.9600201,-3.448392,-0.06882368,0.13447122,-0.191033,28.5625,29.6875,28.9375,32.9375,35.3125,36.4375
0.1960534,-2.2482374,-0.4251218,-0.03073446,0.02723682,0.07074639,-0.18589953,-0.389867,-0.3463276,0.060133245,3.0782888,-0.6257816,-0.0004378949,-0.08938036,0.025821596,-0.0017331549,-5.26071e-05,-0.004620996,-0.017348502,0.46572012,-1.4151379,1.9446186,-2.0992334,-1.5705289,2.441275,-0.12703252,0.11628251,-0.13492198,0.022747846,0.0019305714,-0.109606504,-0.7661445,-0.095768064,-9.251195,0.76874626,47.687782,-1.0561436,-1.9529946,-3.3052003,-0.07400285,0.114012994,-0.24758768,28.5625,29.6875,28.9375,32.9375,35.3125,36.4375
0.19805351,-1.9195378,-0.7644922,-0.122773975,0.03408171,0.09170213,-0.1844423,-0.3900406,-0.3462499,0.06011356,3.0782979,-0.6259182,-0.0003349272,-0.090790175,0.025975771,-0.0028243943,0.0009762999,-0.0065101893,-0.019459723,0.46541944,-1.4148958,1.9443659,-2.099149,-1.570517,2.4410584,-0.12845315,0.12113394,-0.13816077,0.023287434,0.0018436334,-0.10891378,-0.7469909,0.0,-9.32781,0.8717007,47.70211,-1.0035992,-2.0526843,-3.3470888,-0.09082772,0.13196805,-0.306089,28.5625,29.6875,28.9375,32.9375,35.3125,36.4375
0.2000535,-1.7299987,-0.39922994,-0.12737796,0.014960281,0.100640304,-0.19912894,-0.39021564,-0.34622943,0.06012342,3.078255,-0.6259499,-0.0003143348,-0.09191829,0.02587498,-6.7549474e-05,-0.0012963183,-0.0017126406,-0.023324149,0.46520355,-1.4146574,1.9440554,-2.099089,-1.5704812,2.440868,-0.12914066,0.11665262,-0.13942377,0.023728924,0.0017195772,-0.10573695,-0.57460845,0.05746084,-9.461885,0.80679786,47.67614,-1.2364469,-1.8164793,-3.3131099,-0.08165786,0.12867425,-0.34323385,28.5625,29.6875,28.9375,32.9375,35.3125,36.4375
0.2020534,-1.8511147,-0.84893596,-0.44631356,-0.0044727167,0.083925776,-0.18659121,-0.3903891,-0.34616607,0.06010401,3.0782776,-0.6260119,-0.0003047718,-0.09186812,0.026012177,-0.0023486337,0.0007626476,-0.00573362,-0.023554815,0.4649516,-1.414415,1.9438156,-2.099065,-1.570505,2.440652,-0.12925619,0.12194252,-0.14037165,0.023902379,0.0016773958,-0.1056206,-0.61291564,0.15322891,-9.481039,0.800085,47.703007,-1.1669505,-2.0743415,-3.297584,-0.091096744,0.12340863,-0.4136492,28.5625,29.6875,28.9375,32.9375,35.3125,36.4375
0.20405346,-1.3186202,-1.2618086,-0.78146195,-0.016387383,0.07252918,-0.18447535,-0.39058414,-0.34609267,0.060111273,3.0782835,-0.6261487,-0.00029868467,-0.094205365,0.02620679,-0.00083271373,-0.0005241316,-0.0028322618,-0.026802966,0.4646627,-1.414187,1.9435147,-2.0989687,-1.5705289,2.4404478,-0.13151681,0.121905714,-0.14390445,0.02430017,0.0015164901,-0.104631364,-0.59376204,0.24899697,-9.710882,0.8314132,47.667187,-1.2029386,-1.8391516,-3.3641217,-0.08515744,0.1382923,-0.44722372,28.5625,29.6875,28.9375,32.9375,35.3125,36.4375
0.20605372,-2.1745932,-1.87405,-0.7954049,-0.036941182,0.04646025,-0.18056403,-0.3907652,-0.3460257,0.060094453,3.0783093,-0.6262296,-0.00027663147,-0.0947729,0.027061505,-0.0017581095,0.00031360472,-0.004245661,-0.026231833,0.46439812,-1.4139342,1.9432515,-2.0989215,-1.5705532,2.4402306,-0.13339615,0.123784766,-0.14393762,0.024091786,0.001396191,-0.10708146,-0.49799395,0.34476504,-9.653421,0.82022345,47.661808,-1.1350365,-1.9917217,-3.3975592,-0.104918376,0.13677077,-0.5004288,28.5625,29.6875,28.9375,32.9375,35.3125,36.4375
0.2080537,-1.8264586,-1.8456804,-0.74582964,-0.03642533,0.05066149,-0.18185303,-0.39096546,-0.34597948,0.06009874,3.078269,-0.62629575,-0.00026622406,-0.096330464,0.026686268,-0.0009845715,-0.0007081502,-0.0017307063,-0.02051955,0.464122,-1.4136816,1.9429401,-2.0988739,-1.5705289,2.440001,-0.13390927,0.12451016,-0.14633171,0.023058707,0.0011784032,-0.11330521,-0.36391866,0.3256114,-9.653421,0.8157518,47.66987,-1.1319058,-1.9210268,-3.3117495,-0.09839523,0.12304951,-0.4672742,28.5625,29.6875,28.9375,32.9375,35.3125,36.4375
0.21005386,-1.1664487,-1.5232577,-0.82628304,-0.039325714,0.06226618,-0.19198482,-0.39118794,-0.34592405,0.060102526,3.078254,-0.6263454,-0.00030611144,-0.097738095,0.026767273,-0.0010389969,-0.0010151217,-0.0007506927,-0.013254048,0.46383354,-1.4134046,1.9426044,-2.098838,-1.5705413,2.4397457,-0.13512278,0.12633239,-0.14809373,0.021985099,0.0010131119,-0.12178276,-0.17238252,0.28730422,-9.787497,0.8873621,47.677036,-1.1781528,-1.9698703,-3.274552,-0.07197401,0.13761926,-0.43055767,28.5625,29.6875,28.9375,32.9375,35.3125,36.4375
0.21205382,-1.141763,-1.5251477,-0.46406776,-0.041090656,0.057641465,-0.18411344,-0.39137194,-0.3458674,0.060089055,3.0782804,-0.62632656,-0.00026040603,-0.099077776,0.026504025,-0.0004302169,-0.0016159163,0.0009907541,-0.0049284147,0.4635693,-1.41314,1.9423169,-2.0987785,-1.5705413,2.4394665,-0.1356226,0.12724656,-0.15048912,0.021642076,0.00076376845,-0.13060668,-0.15322891,0.30645782,-9.768343,0.8090337,47.71017,-1.1784003,-1.9044733,-3.3056967,-0.04360103,0.15386099,-0.34793478,28.5625,29.6875,28.9375,32.9375,35.3125,36.4375
0.21405365,-0.71873313,-1.1281064,-0.57739174,-0.022553572,0.044115923,-0.1857927,-0.39158988,-0.34581807,0.06011114,3.0782094,-0.6263672,-0.00035064988,-0.10074738,0.02761847,0.00023638875,-0.0022288589,0.0022933735,-0.0005625564,0.46328014,-1.4129242,1.9420179,-2.0987785,-1.5705289,2.4392118,-0.1389838,0.12678267,-0.15151234,0.021692798,0.00074198213,-0.1383333,-0.076614454,0.38307226,-9.615114,0.87617236,47.675243,-1.0924222,-1.8499343,-3.2589695,-0.051138774,0.15473913,-0.26769522,28.5625,29.6875,28.9375,32.9375,35.3125,36.4375
0.21605423,-0.3910009,-1.1066678,-0.7253982,-0.0010078927,0.02122357,-0.1807631,-0.3917897,-0.34577414,0.06010055,3.0781991,-0.6263414,-0.0003496126,-0.10048019,0.0268566,-0.0015589292,-0.00088370376,-0.0004727323,0.0057703373,0.463017,-1.412646,1.9417189,-2.0987666,-1.570517,2.438934,-0.13734841,0.13157977,-0.15290228,0.021363702,0.0007739214,-0.14302944,0.05746084,0.38307226,-9.595961,0.8560339,47.698532,-1.3319907,-2.0773728,-3.252529,-0.048515193,0.14441234,-0.2068634,28.5625,29.6875,28.9375,32.9375,35.3125,36.4375
0.21805352,-0.31305963,-0.69002706,-0.4906611,-0.0054569594,-0.0015035727,-0.18401983,-0.39201456,-0.3457014,0.0600955,3.0782025,-0.6263812,-0.00038765985,-0.10181925,0.027568111,-0.00074064883,-0.002103004,0.0015378371,0.0039796443,0.46270412,-1.4123706,1.9414076,-2.0987427,-1.5705413,2.4386458,-0.13983539,0.13040401,-0.15326406,0.020554112,0.00096686656,-0.14372587,0.076614454,0.2681506,-9.5385,0.82022345,47.684196,-1.1612012,-1.8016517,-3.3239794,-0.014382393,0.15705729,-0.14767824,28.5625,29.6875,28.9375,32.9375,35.3125,36.4375
0.22005358,0.060858928,-0.86491007,-0.6139308,0.0019317906,-0.009122952,-0.17764841,-0.3922408,-0.34565178,0.060104143,3.0781887,-0.6263405,-0.00042974105,-0.103018306,0.02821084,-0.0015384398,-0.0016347709,-3.008716e-05,0.0008307112,0.46241546,-1.412093,1.94106,-2.098707,-1.5705413,2.4383337,-0.1421344,0.13342682,-0.15504697,0.020925688,0.0012495216,-0.14287503,0.11492168,0.19153613,-9.5385,0.88289046,47.6636,-1.1904557,-2.1083632,-3.3664954,-0.010005647,0.15300153,-0.14232804,28.5625,29.6875,28.9375,32.9375,35.3125,36.4375
0.22205354,0.38368747,-0.5212036,-0.49220747,0.004410684,-0.011437829,-0.18304092,-0.39244106,-0.34561577,0.06011223,3.0781312,-0.6263359,-0.00045023067,-0.103198014,0.029287493,-0.0032843396,-0.00050029025,-0.0040463586,-0.009398448,0.46215054,-1.4118518,1.9407605,-2.0986946,-1.5705045,2.4380734,-0.14462204,0.13663185,-0.1549789,0.021755269,0.0020299745,-0.13513398,0.095768064,0.19153613,-9.461885,0.7978386,47.66987,-1.0722407,-2.087076,-3.3779526,0.011100196,0.16501543,-0.23247173,28.5625,29.6875,28.9375,32.9375,35.3125,36.4375
0.2240535,0.29545096,-0.4762809,-0.3974808,0.0066170613,-0.006927805,-0.1865127,-0.39266756,-0.34554872,0.06011913,3.078153,-0.6263812,-0.0005105451,-0.104492776,0.029294485,-0.0027607707,-0.0008912085,-0.003720701,-0.014455265,0.46186206,-1.4115751,1.9404119,-2.098634,-1.5705527,2.4378107,-0.14582656,0.13789465,-0.15794522,0.022986233,0.0022299748,-0.13128054,0.095768064,0.19153613,-9.461885,0.8918391,47.723602,-1.0536942,-2.1036906,-3.2696633,-0.002614696,0.14278981,-0.28195575,28.5625,29.6875,28.9375,32.9375,35.3125,36.4375
0.22605385,-0.49915054,-0.52579063,-0.3540011,0.021044744,-0.014283773,-0.17314078,-0.39285934,-0.34549493,0.060117986,3.0781038,-0.6264871,-0.00047183063,-0.104491554,0.029762251,-0.003212405,-0.00036648416,-0.005219117,-0.01648322,0.46157387,-1.4113345,1.9401263,-2.0985863,-1.5705165,2.437595,-0.14670226,0.13870291,-0.15808655,0.023899281,0.0024275363,-0.13012852,0.095768064,0.095768064,-9.461885,0.779936,47.687782,-1.0584258,-2.1470997,-3.3825269,-0.0018497125,0.15083963,-0.31981254,28.5625,29.6875,28.9375,32.9375,35.3125,36.4375
0.22805405,-0.41867146,0.22049275,-0.22238809,0.0077906614,0.0031184652,-0.18325166,-0.39304376,-0.3454349,0.060092244,3.0781455,-0.6264212,-0.00038419006,-0.1060819,0.030243617,-0.0027273276,-0.00059891737,-0.004515727,-0.019525157,0.46129683,-1.4110459,1.9398383,-2.0985258,-1.5705045,2.4372716,-0.14881074,0.13970757,-0.16055748,0.024634885,0.0023093256,-0.12919396,0.095768064,0.019153614,-9.346964,0.84484416,47.68599,-0.862121,-2.1027884,-3.476278,0.0148789445,0.1617341,-0.36597413,28.5625,29.6875,28.9375,32.9375,35.3125,36.4375
0.23005399,-0.58065534,-0.24160413,-0.010896169,0.019764708,0.017743764,-0.18608089,-0.3932744,-0.34538677,0.06011693,3.0780983,-0.626471,-0.00045610341,-0.10692845,0.0322049,-0.0048638033,0.001086719,-0.00836032,-0.023722889,0.46100777,-1.4107925,1.9394788,-2.098478,-1.5705045,2.4370198,-0.1530704,0.1433949,-0.1599494,0.024532638,0.002517477,-0.12925573,-0.076614454,0.076614454,-9.289503,0.84708,47.70659,-0.9667365,-2.0829473,-3.5024395,0.017433692,0.15715528,-0.37648755,28.5625,29.6875,28.9375,32.9375,35.3125,36.4375
0.2320539,-1.0870392,0.57604754,0.11522428,0.0033202511,0.021102127,-0.19455056,-0.39348283,-0.34531054,0.060098812,3.0781214,-0.6265884,-0.00039294243,-0.10771124,0.030865291,-0.0023658387,-0.0013960573,-0.004430343,-0.019702183,0.46069646,-1.410493,1.9391555,-2.0983942,-1.5705165,2.436779,-0.15160587,0.14082812,-0.16293576,0.02545974,0.0029807263,-0.13181178,-0.076614454,0.019153614,-9.212888,0.7530795,47.696735,-1.0391202,-2.0018091,-3.3677197,0.03490688,0.1332856,-0.36707485,28.5625,29.6875,28.9375,32.9375,35.3125,36.4375
0.23405409,-1.4125121,-0.12644856,0.1151667,0.024778146,0.026396599,-0.18485875,-0.3937189,-0.3452588,0.060103808,3.0780826,-0.6266328,-0.00044909932,-0.10865502,0.0303462,-0.0020742274,-0.0015942757,-0.005184941,-0.012088042,0.46039632,-1.4102035,1.9388069,-2.0983813,-1.570516,2.4365118,-0.15176122,0.14313188,-0.16678452,0.027592847,0.003498778,-0.13957992,-0.38307226,0.095768064,-9.155427,0.90750587,47.699425,-1.0825615,-2.1642368,-3.3305507,0.019472139,0.15297088,-0.36115995,28.5625,29.6875,28.9375,32.9375,35.3125,36.4375
0.23605347,-1.4287432,-0.08601232,0.2470826,0.026030049,0.03884255,-0.18941146,-0.39388847,-0.3452047,0.060088664,3.0780783,-0.6266482,-0.00032733844,-0.10928641,0.029945321,-0.0014198616,-0.0021623715,-0.00525293,-0.0061594327,0.46012026,-1.4099514,1.9385313,-2.0982974,-1.5704678,2.436246,-0.15187679,0.14380692,-0.16951658,0.029465396,0.0040292335,-0.14562388,-0.47884035,0.17238252,-9.212888,0.8247004,47.691364,-1.1566004,-2.001095,-3.2411895,-0.011175988,0.14440788,-0.27167454,28.5625,29.6875,28.9375,32.9375,35.3125,36.4375
0.2380535,-1.4735674,-0.16578405,0.3416939,0.016999584,0.062463857,-0.1915626,-0.39415756,-0.34513968,0.060115926,3.0780632,-0.62660205,-0.0004362981,-0.109931774,0.030534899,-0.0015162802,-0.0018292561,-0.00629507,0.0011113203,0.4597838,-1.4096626,1.9381245,-2.0982487,-1.5704921,2.4358828,-0.15349431,0.14481644,-0.17081241,0.030832078,0.0042064697,-0.1545116,-0.51714754,0.076614454,-9.155427,0.86945957,47.678825,-1.1067231,-1.9618623,-3.2352295,-0.020893134,0.13809064,-0.20039615,28.5625,29.6875,28.9375,32.9375,35.3125,36.4375
0.2400536,-1.9820144,-0.57814956,0.32042164,0.008940554,0.06891573,-0.17582524,-0.3943643,-0.3450832,0.060099274,3.0780375,-0.6266533,-0.0003424708,-0.11101033,0.031221613,-0.0012303346,-0.0018435197,-0.0065863277,0.0039975545,0.4594711,-1.4093621,1.9378017,-2.0981886,-1.570444,2.4356055,-0.15565525,0.14544612,-0.17254393,0.032198027,0.0043425863,-0.15955848,-0.63206923,0.21068975,-9.212888,0.8314132,47.64837,-1.0804279,-1.9572107,-3.3083758,-0.027956551,0.118573025,-0.09684485,28.5625,29.6875,28.9375,32.9375,35.3125,36.4375
0.24205413,-1.6990436,-0.45169464,0.12760845,-0.0013648674,0.08835094,-0.18254703,-0.39457676,-0.34502313,0.060091272,3.0780613,-0.62660146,-0.0002845165,-0.1124235,0.032196805,-0.00068213046,-0.0017181218,-0.006434042,0.0015262912,0.45917037,-1.4090617,1.9374536,-2.0981038,-1.5704321,2.4352696,-0.15841083,0.14574882,-0.1745566,0.033831168,0.004154731,-0.15984212,-0.7661445,0.21068975,-9.174581,0.86498255,47.684196,-1.1143818,-1.8535552,-3.2236423,-0.05807854,0.10546523,-0.06517106,28.5625,29.6875,28.9375,32.9375,35.3125,36.4375
0.24405405,-1.7058706,-0.4228246,0.20058167,-0.008214543,0.095266774,-0.18384455,-0.39479744,-0.34496972,0.06009642,3.0780277,-0.62659687,-0.0002599674,-0.11140344,0.031448442,-0.0011614003,-0.0007948638,-0.007904135,6.34746e-05,0.45885915,-1.408785,1.9371084,-2.0980437,-1.5703963,2.43496,-0.1559872,0.14683698,-0.17500883,0.034929093,0.003977879,-0.15595533,-0.842759,0.21068975,-9.212888,0.8806493,47.684196,-1.1776502,-1.8670985,-3.2437575,-0.08955076,0.124364644,-0.09376657,28.5625,29.6875,28.9375,32.9375,35.3125,36.4375
0.24605429,-2.4338708,-0.5942138,0.103080265,0.0032982659,0.08258279,-0.1782984,-0.39500868,-0.34488428,0.06007053,3.0780737,-0.6266278,-0.00015514519,-0.11221985,0.031690635,-0.0016324484,-0.00015128606,-0.008894771,-0.0053133196,0.45852268,-1.4084718,1.9367837,-2.0979478,-1.5703963,2.434637,-0.15694204,0.1492351,-0.17690289,0.035599202,0.003819897,-0.15153246,-0.93852705,0.076614454,-9.270349,0.7933669,47.675243,-1.1589355,-1.9708102,-3.1849933,-0.09980052,0.11539154,-0.12541853,28.5625,29.6875,28.9375,32.9375,35.3125,36.4375
0.24805373,-2.3118062,-0.0124903135,0.18273614,0.012591735,0.0844744,-0.18671699,-0.39525405,-0.34481394,0.060086258,3.0780482,-0.6267442,-0.0002183872,-0.113278195,0.031966306,-0.0023821506,0.00064010965,-0.010254574,-0.014883808,0.4581984,-1.4081947,1.9364136,-2.0978878,-1.5704201,2.4343889,-0.1581864,0.15257378,-0.1792154,0.036139026,0.003707378,-0.14320464,-0.8810662,0.0,-9.270349,0.87617236,47.688675,-1.1919805,-1.9177308,-3.235438,-0.1166254,0.09916559,-0.2228849,28.5625,29.6875,28.9375,32.9375,35.3125,36.4375
0.250054,-1.6295587,0.49602693,-0.0048686946,0.014678316,0.09502962,-0.18674088,-0.39549014,-0.34477192,0.060086824,3.078047,-0.62670696,-0.0002051238,-0.113929,0.03265342,-0.0018812722,0.0006866561,-0.0093019465,-0.019266065,0.45790988,-1.4078585,1.9360074,-2.0978162,-1.5704087,2.4340775,-0.15957256,0.15169024,-0.17944916,0.036426302,0.0032406538,-0.1402082,-0.7086837,-0.019153614,-9.270349,0.8537928,47.661808,-1.2034106,-1.9177818,-3.2609935,-0.13821876,0.10847284,-0.25501132,28.5625,29.6875,28.9375,32.9375,35.3125,36.4375
0.25205407,-2.0260577,0.0732167,0.080465816,0.03721512,0.06540205,-0.17323665,-0.39574012,-0.34468538,0.06007075,3.0780208,-0.6268764,-0.00018713066,-0.11469583,0.032144368,-0.0014074522,0.00022100545,-0.008219184,-0.02268104,0.45753813,-1.407534,1.9356602,-2.0977795,-1.5704087,2.433815,-0.15919283,0.15255071,-0.18159713,0.036537487,0.003169243,-0.13641244,-0.7469909,-0.1340753,-9.270349,0.8112748,47.696735,-1.2576709,-1.9225729,-3.25035,-0.14780547,0.100957684,-0.34398925,28.5625,29.6875,28.9375,32.9375,35.3125,36.4375
0.254054,-0.8643842,1.135859,0.20115216,0.030782904,0.062051047,-0.18580385,-0.39597607,-0.3446294,0.06006404,3.0779963,-0.62695044,-0.00017368793,-0.11533,0.033251833,-0.0017590309,0.0007036784,-0.009132634,-0.02733217,0.45722517,-1.4072095,1.9352893,-2.0977318,-1.5703968,2.4335515,-0.16158147,0.15310685,-0.181594,0.037013277,0.0031372344,-0.13415001,-0.49799395,-0.076614454,-9.289502,0.8560339,47.66091,-1.080896,-1.8990736,-3.354447,-0.1751787,0.09762112,-0.4185843,28.5625,29.6875,28.9375,32.9375,35.3125,36.4375
0.25605395,-0.18649904,0.7606706,0.05458027,0.0363078,0.041998517,-0.18937379,-0.39622158,-0.34453815,0.06004682,3.0780184,-0.62709016,-0.00013296878,-0.11670148,0.03400765,-0.0023437468,0.0015425914,-0.0101918345,-0.029141242,0.4568647,-1.406872,1.9349188,-2.097648,-1.5704206,2.4332757,-0.16381912,0.15595697,-0.18375133,0.037640426,0.0028385927,-0.13457714,-0.34476504,-0.076614454,-9.346964,0.80456203,47.693153,-1.2960963,-1.8832057,-3.326057,-0.18740909,0.10992305,-0.47507653,28.5625,29.6875,28.9375,32.9375,35.3125,36.4375
0.25805345,-0.6727657,0.7159641,-0.054629467,0.019968785,0.0127288,-0.1970319,-0.3964721,-0.3444828,0.060066804,3.0779638,-0.62717134,-0.00017671779,-0.11715524,0.03418303,-0.003866187,0.0032868227,-0.01261885,-0.023468832,0.4565406,-1.4065821,1.9345239,-2.0975878,-1.5704087,2.4330094,-0.16410434,0.16027184,-0.18537861,0.03790612,0.002344772,-0.14053278,-0.19153613,-0.076614454,-9.2703495,0.9097417,47.660015,-1.2002848,-2.0225244,-3.3397603,-0.20721945,0.10561082,-0.4665339,28.5625,29.6875,28.9375,32.9375,35.3125,36.4375
0.2600539,0.011819456,0.3522171,-0.088538446,0.020177191,0.019584479,-0.19424711,-0.39666998,-0.3443939,0.060012996,3.0780237,-0.62723637,-5.753814e-07,-0.11902447,0.035071377,-0.0026785869,0.0026628533,-0.01062266,-0.015450063,0.45620373,-1.4062345,1.934225,-2.097504,-1.5703973,2.4327056,-0.16699168,0.15956376,-0.18749246,0.038667593,0.0020018034,-0.15143812,-0.038307227,0.0,-9.3661175,0.83813137,47.66987,-1.1137216,-1.9458052,-3.3365612,-0.23755759,0.10987741,-0.3826761,28.5625,29.6875,28.9375,32.9375,35.3125,36.4375
0.26205388,0.02358012,0.26165944,-0.078465015,0.0061302255,0.023961633,-0.18843898,-0.3969327,-0.34433034,0.060018636,3.0779934,-0.6273015,-7.902022e-07,-0.120635085,0.036355786,-0.0027155152,0.0032622677,-0.010897855,-0.0060945177,0.4558546,-1.4058976,1.9338053,-2.0974314,-1.5703849,2.4324012,-0.17027819,0.1609078,-0.18922122,0.039570868,0.0015833955,-0.16407886,0.05746084,0.05746084,-9.346964,0.74413085,47.711063,-0.96335995,-2.0031667,-3.326712,-0.24934873,0.119809955,-0.27801758,28.5625,29.6875,28.9375,32.9375,35.3125,36.4375
0.2640538,-0.12481227,0.13824256,-0.12563111,-0.0047899713,0.020408625,-0.19345933,-0.39718664,-0.34426063,0.0600379,3.0779982,-0.6272991,-2.2844044e-05,-0.12136289,0.036586747,-0.0034370632,0.003871589,-0.011833045,-0.00089846563,0.45551836,-1.4055961,1.9333876,-2.0973237,-1.5703973,2.432063,-0.171119,0.16346654,-0.19056088,0.039460376,0.0014433237,-0.17011459,0.13407528,0.076614454,-9.32781,0.842603,47.67166,-0.9228766,-2.124433,-3.3602636,-0.26482174,0.13041604,-0.17524001,28.5625,29.6875,28.9375,32.9375,35.3125,36.4375
0.26605397,-0.09629837,-0.53136325,-0.30127442,0.00012551113,0.007362758,-0.18535422,-0.3974158,-0.34417883,0.060009867,3.0780544,-0.62729114,5.728022e-05,-0.12178124,0.036919486,-0.0038383466,0.004456606,-0.0130430665,0.00072415144,0.4551822,-1.4052472,1.9330281,-2.0972397,-1.5704092,2.431715,-0.17196082,0.16504876,-0.19174957,0.040410127,0.0014331515,-0.17257857,0.24899697,0.17238252,-9.423578,0.79560274,47.691364,-0.95384705,-2.1709435,-3.3529787,-0.31265324,0.14547229,-0.1410904,28.5625,29.6875,28.9375,32.9375,35.3125,36.4375
0.2680543,-0.4050058,-0.7700957,-0.17772794,-0.01481354,9.182795e-05,-0.17618829,-0.39766908,-0.3440991,0.059979696,3.0780678,-0.62733525,0.000103548104,-0.12330104,0.03729874,-0.0035028632,0.003695163,-0.011781744,-0.004208041,0.45482138,-1.4048748,1.9326571,-2.0972044,-1.5704092,2.4313803,-0.17390689,0.16585605,-0.19335724,0.039742537,0.0015464551,-0.16959181,0.0,0.24899697,-9.3661175,0.8493211,47.67614,-0.95289433,-2.2095923,-3.3233578,-0.3256489,0.14650081,-0.11238482,28.5625,29.6875,28.9375,32.9375,35.3125,36.4375
0.270054,0.7921838,-0.06168435,-0.15479118,-0.035548035,0.030084932,-0.1858673,-0.39790606,-0.34401387,0.0599839,3.0780544,-0.62741363,0.00017267792,-0.124407046,0.03646158,-0.0029018666,0.0021389027,-0.009440897,-0.010745437,0.45444974,-1.4045861,1.9322857,-2.0970852,-1.5703849,2.4310594,-0.1735023,0.16661298,-0.19528247,0.038126223,0.0018981016,-0.16264921,0.019153614,0.2681506,-9.289502,0.842603,47.64837,-1.1073298,-2.1144264,-3.321291,-0.33018452,0.14530042,-0.2037855,28.5625,29.6875,28.9375,32.9375,35.3125,36.4375
0.272054,-0.42339817,-1.2628429,-0.55538976,-0.01194274,0.00084740936,-0.1728922,-0.39815015,-0.34393886,0.05996428,3.0780895,-0.62744224,0.00022576694,-0.12526423,0.03667196,-0.0038989673,0.0023112379,-0.010228508,-0.016668692,0.4541133,-1.4042248,1.9318923,-2.0970018,-1.5703968,2.4307365,-0.17461728,0.16951886,-0.19615097,0.036869302,0.0020723238,-0.15784036,0.038307227,0.36391866,-9.404425,0.8247004,47.687782,-1.0400673,-2.2965255,-3.4245143,-0.3215209,0.15532604,-0.2787416,28.5625,29.6875,28.9375,32.9375,35.3125,36.4375
0.27405483,0.14121653,-1.0738505,-0.2863153,-0.039829697,0.020409595,-0.17464948,-0.39840066,-0.34384865,0.05997303,3.0780988,-0.6275623,0.00023319169,-0.12698157,0.037627455,-0.0043062465,0.0020207467,-0.010077073,-0.021212805,0.45375228,-1.4039242,1.9314965,-2.0968826,-1.5704206,2.4304495,-0.17779012,0.17145248,-0.19726685,0.035784326,0.0022546411,-0.15646853,0.095768064,0.38307226,-9.461885,0.8717007,47.66987,-0.9176339,-2.1643503,-3.427816,-0.3262052,0.13824698,-0.30845186,28.5625,29.6875,28.9375,32.9375,35.3125,36.4375
0.2760541,-0.42638,-1.5025476,-0.3239685,-0.047960445,0.024492845,-0.17247397,-0.39863974,-0.3437953,0.0599503,3.0780885,-0.62758124,0.00031608756,-0.12760602,0.03755306,-0.0038018827,0.0012074728,-0.008402574,-0.023822755,0.4534281,-1.4035518,1.9311026,-2.096823,-1.5703844,2.4301386,-0.17807536,0.17098252,-0.19771999,0.03485194,0.0022399533,-0.15414374,-0.019153614,0.40222588,-9.500193,0.80456203,47.690468,-0.87611115,-2.1869674,-3.4757385,-0.33448845,0.14563464,-0.40621746,28.5625,29.6875,28.9375,32.9375,35.3125,36.4375
0.27805403,-0.3656749,-1.4463559,-0.64351124,-0.04697568,0.037247963,-0.17581551,-0.39892352,-0.343721,0.05995719,3.078082,-0.6275985,0.0002493126,-0.13004042,0.03750314,-0.0029197067,-0.0001979078,-0.0057067536,-0.023460023,0.45306715,-1.4032029,1.9306711,-2.0967758,-1.5704087,2.4297895,-0.18000887,0.17239709,-0.20121089,0.033886835,0.002316196,-0.15643817,-0.05746084,0.4213795,-9.615114,0.8940802,47.66808,-0.7576046,-2.265337,-3.5324516,-0.33374918,0.14560078,-0.388905,28.5625,29.6875,28.9375,32.9375,35.3125,36.4375
0.28005412,-0.7950294,-1.5331913,-0.5727244,-0.04411906,0.05059698,-0.18222193,-0.39915636,-0.34362385,0.05991839,3.0781393,-0.62768376,0.0004004309,-0.13272175,0.0372773,-0.001687174,-0.0021731877,-0.001978818,-0.01864765,0.45269465,-1.4028302,1.9302996,-2.096656,-1.5704087,2.4294631,-0.18188182,0.1733543,-0.20484498,0.03234959,0.0024287677,-0.16312204,-0.17238252,0.40222588,-9.595961,0.90527004,47.664497,-0.8261317,-2.1991417,-3.4263535,-0.33074597,0.13166192,-0.34024924,28.5625,29.6875,28.9375,32.9375,35.3125,36.4375
0.28205433,-0.82135123,-1.2934135,-0.52876943,-0.04455815,0.068408385,-0.17865385,-0.39941677,-0.34359246,0.059940323,3.0780535,-0.62765807,0.00034450405,-0.13348703,0.035375886,-0.0013381855,-0.0037128807,-0.00015984618,-0.0059760083,0.45238394,-1.4025174,1.929881,-2.0966327,-1.5703605,2.4291475,-0.17944239,0.17563479,-0.20802136,0.03094612,0.0030209364,-0.17335306,-0.22984336,0.40222588,-9.653421,0.7933669,47.690468,-1.0391178,-2.1880217,-3.416305,-0.3162866,0.1601693,-0.27110946,28.5625,29.6875,28.9375,32.9375,35.3125,36.4375
0.28405342,-0.9486321,-1.1617838,-0.5370707,-0.034872763,0.06960735,-0.17803028,-0.3996821,-0.34352058,0.059929345,3.0780962,-0.62760395,0.00038025648,-0.134032,0.035557203,0.0001781448,-0.005511618,0.0020558143,0.0025845277,0.45203567,-1.4021338,1.9294385,-2.0965369,-1.570372,2.4287603,-0.18051079,0.1727384,-0.20825662,0.031298622,0.0036647154,-0.18298367,-0.15322891,0.3256114,-9.672575,0.842603,47.661808,-1.028568,-2.1024234,-3.4789305,-0.30941963,0.12808895,-0.14594391,28.5625,29.6875,28.9375,32.9375,35.3125,36.4375
0.28605342,-0.9840796,-1.1119686,-0.60510725,-0.039547186,0.08131421,-0.18193074,-0.3999335,-0.34341887,0.059883334,3.0781136,-0.6277033,0.00045911229,-0.13437887,0.034939565,-0.000359477,-0.006334125,0.0013584491,0.0054222764,0.45163953,-1.4017605,1.9291042,-2.0965135,-1.5703715,2.4284241,-0.18025023,0.1749661,-0.20952561,0.030607162,0.0046945964,-0.18556187,-0.40222588,0.17238252,-9.595961,0.8403672,47.694946,-1.1102058,-2.1320994,-3.4735718,-0.3076506,0.11208916,-0.10488138,28.5625,29.6875,28.9375,32.9375,35.3125,36.4375
0.28805348,-1.0364572,-0.8137012,-0.35168082,-0.034604363,0.080247276,-0.1745202,-0.4002358,-0.34334853,0.059911314,3.0780656,-0.627792,0.00040129627,-0.13686833,0.034139376,0.00023400862,-0.008047971,0.0042461865,0.0009850874,0.4512555,-1.4014112,1.9286126,-2.0964181,-1.5703715,2.4281018,-0.1810127,0.1777372,-0.21372025,0.028684653,0.004974599,-0.18188488,-0.34476504,0.15322891,-9.730036,0.8940802,47.672558,-1.1666884,-2.2087376,-3.357976,-0.29624638,0.120110914,-0.09550158,28.5625,29.6875,28.9375,32.9375,35.3125,36.4375
0.29005373,-0.7741898,-0.065234445,-0.50136006,-0.020655515,0.0767763,-0.18142265,-0.40050286,-0.34329662,0.059919797,3.0780437,-0.62765753,0.00036579187,-0.13847463,0.03372184,0.00066704233,-0.009295986,0.0070737484,-0.006349787,0.4509194,-1.4010745,1.9281939,-2.0963833,-1.5703477,2.4276848,-0.18145606,0.17885375,-0.21551493,0.026278548,0.004867587,-0.17499176,-0.45968673,0.038307227,-9.768343,0.900793,47.66271,-1.1743715,-2.1482377,-3.3377104,-0.2559975,0.104166076,-0.13741328,28.5625,29.6875,28.9375,32.9375,35.3125,36.4375
0.2920539,-0.43812114,0.36375952,-0.2988715,0.0031074502,0.084485196,-0.18429051,-0.40077835,-0.34323707,0.059906203,3.0780118,-0.62769425,0.00034979673,-0.13939618,0.0341324,0.0010638012,-0.009812331,0.008505807,-0.013882585,0.45057034,-1.4006903,1.9277753,-2.0963714,-1.5703357,2.427363,-0.18273383,0.17856069,-0.21596994,0.025515273,0.0047137695,-0.16873628,-0.59376204,0.0,-9.576807,0.8157518,47.69763,-1.0787121,-2.1055212,-3.4416537,-0.23144357,0.11242226,-0.23627576,28.5625,29.6875,28.9375,32.9375,35.3125,36.4375
0.29405406,-1.0747709,0.8576892,-0.4134872,0.03395085,0.058194984,-0.17650598,-0.40105435,-0.3431758,0.059903074,3.0779605,-0.62774426,0.0003323191,-0.14009018,0.03492631,0.00035783852,-0.009174248,0.007124027,-0.02163907,0.4502103,-1.4003292,1.9273566,-2.096347,-1.5703114,2.4270408,-0.18461013,0.18043941,-0.21669082,0.025883138,0.0047497074,-0.16285557,-0.40222588,-0.17238252,-9.615114,0.8247004,47.677036,-1.1970253,-2.156014,-3.419889,-0.21276304,0.11752199,-0.31465846,28.5625,29.6875,28.9375,32.9375,35.3125,36.4375
0.29605418,-0.4218553,0.9637933,-0.55739844,0.043916628,0.058926094,-0.18326174,-0.4013583,-0.34310186,0.059909463,3.0779238,-0.62787217,0.0002819162,-0.13954554,0.033857282,-0.0009462311,-0.008770227,0.005120963,-0.024015324,0.44982725,-1.3999432,1.9268793,-2.0962875,-1.5703233,2.4267426,-0.18243846,0.18386275,-0.21765943,0.025404675,0.0052626217,-0.15830734,-0.45968673,-0.15322891,-9.691729,0.842603,47.698532,-1.4210339,-2.2940536,-3.363111,-0.1900833,0.09134785,-0.39852428,28.5625,29.6875,28.9375,32.9375,35.3125,36.4375
0.2980536,-0.15157092,0.90717643,0.051064696,0.008325053,0.07874538,-0.19476739,-0.4016314,-0.3430427,0.05991238,3.0778582,-0.62793815,0.00027149086,-0.14082485,0.034040045,-0.00051952025,-0.008975594,0.0059721004,-0.026747443,0.44946668,-1.3995951,1.9264592,-2.0962517,-1.5702876,2.4264317,-0.18360025,0.1848678,-0.21996497,0.02585724,0.0050824434,-0.15673558,-0.40222588,-0.13407528,-9.481039,0.86498255,47.64658,-1.4271737,-2.206768,-3.5082388,-0.18001138,0.0916091,-0.49423516,28.5625,29.6875,28.9375,32.9375,35.3125,36.4375
0.30005348,-0.7821458,0.47763917,-0.09667989,0.0027956425,0.05825218,-0.18490422,-0.4019115,-0.3429531,0.059891243,3.0778625,-0.62803227,0.00032112814,-0.1430106,0.035504777,0.0007674007,-0.009532233,0.007787192,-0.02515261,0.44906947,-1.3991988,1.9260291,-2.0961788,-1.5702876,2.4260929,-0.18771423,0.1839065,-0.22213468,0.027116949,0.0047917506,-0.16244371,-0.2681506,-0.19153613,-9.595961,0.93436235,47.658226,-1.3217014,-2.1725118,-3.5030386,-0.14933753,0.09339724,-0.47451162,28.5625,29.6875,28.9375,32.9375,35.3125,36.4375
0.30205345,-0.8549517,0.13273065,-0.36159673,0.011022157,0.047534686,-0.18329097,-0.40219703,-0.34289524,0.059921153,3.0777996,-0.6279929,0.00024036347,-0.1442557,0.036267642,0.0005542163,-0.008688587,0.007200501,-0.01412545,0.4487091,-1.3988858,1.9255856,-2.096131,-1.5702642,2.4257162,-0.18966222,0.1859001,-0.22425963,0.028155584,0.004302759,-0.17541681,-0.1340753,-0.22984336,-9.730036,0.88289046,47.675243,-1.3631169,-2.189505,-3.4433184,-0.1473597,0.096969634,-0.38581076,28.5625,29.6875,28.9375,32.9375,35.3125,36.4375
0.30405337,-0.41203907,-0.17267554,-0.22855914,0.009198851,0.043206107,-0.17925403,-0.40248728,-0.34281322,0.059916914,3.077799,-0.6280459,0.0002321723,-0.14538896,0.036213014,0.0014619271,-0.008444893,0.008624124,-0.003416843,0.44832474,-1.3985014,1.9251307,-2.0960586,-1.5702761,2.4253652,-0.18985198,0.18634519,-0.22722001,0.029500667,0.0034674488,-0.18631302,-0.30645782,-0.019153614,-9.595961,0.90750587,47.666286,-1.2279546,-2.1888425,-3.393076,-0.12688388,0.10549738,-0.28444552,28.5625,29.6875,28.9375,32.9375,35.3125,36.4375
0.30605355,-0.55589634,-0.17380843,-0.027168062,0.007127151,0.04170767,-0.18664384,-0.402761,-0.3427287,0.059885275,3.0778146,-0.6280266,0.00031803132,-0.14753385,0.036938168,0.001580328,-0.008211734,0.0097223455,0.0015358003,0.44792798,-1.3980924,1.9247125,-2.095999,-1.5702528,2.4249547,-0.19236453,0.18851662,-0.23004332,0.029275265,0.0027704877,-0.19377594,-0.24899697,0.038307227,-9.461885,0.8717007,47.688675,-1.1482842,-2.2894878,-3.3857527,-0.11014487,0.09929659,-0.1685692,28.5625,29.6875,28.9375,32.9375,35.3125,36.4375
0.30805358,-0.75025564,0.2699745,-0.24089466,0.0131544825,0.039954014,-0.18483874,-0.403053,-0.34265825,0.059891474,3.0777826,-0.6280388,0.00026088758,-0.1483312,0.03727398,0.0012503942,-0.0076240627,0.008714956,0.0010869118,0.4475556,-1.3977308,1.9242686,-2.0959628,-1.5702528,2.4245942,-0.19342853,0.19059479,-0.23201956,0.030337725,0.0026883895,-0.19438991,-0.30645782,0.095768064,-9.461885,0.9030289,47.667187,-1.1701732,-2.3593326,-3.3645606,-0.091656014,0.122909725,-0.12949231,28.5625,29.6875,28.9375,32.9375,35.3125,36.4375
0.3100535,-0.4379823,-0.03239677,-0.097598776,0.0056706383,0.051849183,-0.19195132,-0.4033827,-0.34258094,0.059906147,3.0777519,-0.62809587,0.00019345073,-0.14910673,0.038129754,0.0013186268,-0.0074065323,0.0076197805,-0.007245814,0.44714692,-1.3973227,1.9237427,-2.0958903,-1.5702647,2.4242253,-0.19560367,0.19127584,-0.2334582,0.032172523,0.0029793694,-0.18823227,-0.28730422,0.17238252,-9.481039,0.85155696,47.688675,-1.1027272,-2.2541564,-3.3819237,-0.1025327,0.10607591,-0.18329145,28.5625,29.6875,28.9375,32.9375,35.3125,36.4375
0.3120534,-0.8442531,-0.41857657,0.09527954,-0.006346977,0.04443648,-0.18908094,-0.40366215,-0.3424887,0.059884533,3.0777876,-0.62812734,0.0002200643,-0.15055573,0.038612686,0.0012254732,-0.0076449034,0.006750457,-0.016575228,0.44676226,-1.3969254,1.9233121,-2.0958183,-1.5702881,2.423856,-0.19790204,0.19355251,-0.23624349,0.03335442,0.0035624523,-0.18120088,-0.36391866,0.11492168,-9.385271,0.83589023,47.67614,-1.0846959,-2.1937423,-3.2759018,-0.10587594,0.110171616,-0.27089202,28.5625,29.6875,28.9375,32.9375,35.3125,36.4375
0.31405348,-0.6983447,-0.6009626,0.051921424,-0.006671895,0.052619778,-0.19077371,-0.40399632,-0.34242326,0.05991227,3.07768,-0.6281845,0.00012076934,-0.15184422,0.03914386,0.0018990713,-0.008168525,0.007871594,-0.020473396,0.44634122,-1.3965528,1.9228085,-2.0957944,-1.5702523,2.4234846,-0.1997507,0.1935431,-0.2379413,0.033831764,0.0035710873,-0.17915049,-0.51714754,0.21068975,-9.423578,0.8605109,47.682407,-0.89931536,-2.1977055,-3.1200442,-0.0821981,0.1069642,-0.32102975,28.5625,29.6875,28.9375,32.9375,35.3125,36.4375
0.3160537,-0.902369,-0.60551494,0.0637046,-0.018217761,0.07197464,-0.18822253,-0.40425596,-0.34235469,0.059902232,3.0776925,-0.62822723,0.00019775756,-0.15242706,0.03997893,0.0017670355,-0.007621615,0.007088911,-0.02362182,0.44599286,-1.3961684,1.922355,-2.0956738,-1.5702399,2.4231615,-0.2014671,0.19416316,-0.2386753,0.03489146,0.0034103093,-0.17771833,-0.40222588,0.24899697,-9.481039,0.9030289,47.653748,-1.0117508,-2.147357,-3.177795,-0.07755783,0.10551517,-0.35675508,28.5625,29.6875,28.9375,32.9375,35.3125,36.4375
0.3180543,-1.8055447,-0.83449996,0.09235087,-0.022994407,0.069858305,-0.19014435,-0.4045485,-0.3422548,0.059894416,3.07772,-0.6282683,0.000209158,-0.15192801,0.040100027,0.0004854926,-0.0063768304,0.00405899,-0.020435333,0.44558516,-1.3957831,1.9219011,-2.095578,-1.5702642,2.4227762,-0.20121562,0.19671616,-0.23905674,0.035988335,0.0035941247,-0.18065342,-0.2873042,0.22984336,-9.442732,0.8985519,47.668976,-1.0526088,-2.1316226,-3.3891945,-0.07521127,0.10515985,-0.37995017,28.5625,29.6875,28.9375,32.9375,35.3125,36.4375
0.32005334,-1.5994167,-0.2566157,0.06494136,-0.023759149,0.0682423,-0.19358572,-0.4048811,-0.34218463,0.059924096,3.0776277,-0.6283404,0.00011692034,-0.15143767,0.040159106,0.0005105957,-0.006394965,0.0033871885,-0.012252129,0.44516551,-1.3954111,1.921388,-2.0955293,-1.5702399,2.4224136,-0.20093203,0.19617267,-0.23873344,0.036815464,0.00392356,-0.18855362,-0.36391866,0.22984336,-9.519346,0.9388393,47.681515,-1.057747,-1.9546276,-3.5263739,-0.071795374,0.1053183,-0.31207034,28.5625,29.6875,28.9375,32.9375,35.3125,36.4375
0.32205382,-1.7431095,-0.5253705,0.15189657,-0.017968161,0.052317534,-0.187296,-0.40518022,-0.34209466,0.059912574,3.0776591,-0.62831914,0.000110753885,-0.15175556,0.039173808,0.0022881299,-0.0076802056,0.006614701,0.0012627775,0.4447703,-1.3950032,1.9209212,-2.0954573,-1.5702642,2.4220014,-0.19916159,0.19405663,-0.2404747,0.037209123,0.0036945727,-0.20029765,-0.36391866,0.24899697,-9.308656,0.83813137,47.677036,-1.2146735,-1.8872864,-3.5419989,-0.054436147,0.108658955,-0.20840523,28.5625,29.6875,28.9375,32.9375,35.3125,36.4375
0.32405362,-1.1311022,-0.28840736,0.17154245,-0.011477341,0.054103695,-0.19934991,-0.40550047,-0.3420178,0.059919626,3.0776014,-0.628362,7.646942e-05,-0.15260848,0.039219804,0.0024735737,-0.007729262,0.007281498,0.00717715,0.44434994,-1.3946065,1.9204305,-2.0954096,-1.5702399,2.4216154,-0.19963934,0.19501977,-0.24210712,0.037265632,0.0034635793,-0.20668864,-0.2681506,0.21068975,-9.232041,0.97464454,47.666286,-1.3456378,-1.8866496,-3.4714153,-0.049616165,0.10566041,-0.100161985,28.5625,29.6875,28.9375,32.9375,35.3125,36.4375
0.32605383,-1.0026664,0.59997505,0.11980635,0.0087767,0.024977183,-0.19564323,-0.40580547,-0.34196237,0.059923764,3.0775514,-0.62831616,8.180544e-05,-0.15343936,0.039262768,0.0013150938,-0.0070577217,0.0056446483,0.0037737454,0.4439657,-1.3941972,1.9199289,-2.0953496,-1.5701922,2.421209,-0.20031182,0.19894259,-0.24409337,0.037105523,0.003565112,-0.20395641,-0.076614454,0.15322891,-9.3661175,0.8851263,47.689575,-1.3811173,-1.797456,-3.4565969,-0.033431143,0.116143554,-0.07978825,28.5625,29.6875,28.9375,32.9375,35.3125,36.4375
0.32805377,-0.1153248,0.44198456,0.01774701,0.02679825,0.0135230245,-0.1914406,-0.4061354,-0.34187555,0.059946198,3.0774927,-0.6283293,3.0293242e-05,-0.15568604,0.03973248,0.0019798724,-0.0076526594,0.0072276304,-0.005962725,0.44352108,-1.3938243,1.9194254,-2.095278,-1.5701689,2.4207804,-0.20275436,0.20045666,-0.24749273,0.037309226,0.0034293171,-0.1966606,0.0,0.11492168,-9.442732,0.96569055,47.675243,-1.3036032,-1.9251034,-3.4145424,-0.0012000566,0.10443741,-0.14203611,28.5625,29.6875,28.9375,32.9375,35.3125,36.4375
0.33005363,-0.3247742,0.04112918,0.0042839386,0.02391349,-0.017840091,-0.18572931,-0.4064279,-0.34178364,0.059917606,3.0775452,-0.628326,4.4926364e-05,-0.15687777,0.040153846,0.0026246097,-0.007824201,0.007980757,-0.015198458,0.44313663,-1.3933916,1.9189705,-2.0952175,-1.5702046,2.4203875,-0.20422181,0.20077884,-0.24966903,0.038401034,0.0032529435,-0.18889157,-0.076614454,0.1340753,-9.3661175,0.9388393,47.67166,-1.3170475,-1.8699186,-3.4610438,0.0038790982,0.10778773,-0.21362695,28.5625,29.6875,28.9375,32.9375,35.3125,36.4375
0.33205363,-0.20835334,-0.37906274,-0.17194983,0.022710562,-0.017321907,-0.18693018,-0.40676016,-0.34170708,0.059943784,3.0774782,-0.62846905,8.5672116e-07,-0.15797734,0.04116427,0.0013596957,-0.006359077,0.0056225923,-0.023254307,0.442716,-1.3929937,1.9184207,-2.0951102,-1.5701927,2.420065,-0.20654066,0.20456801,-0.25147262,0.039176255,0.0029479195,-0.18315299,-0.019153614,0.17238252,-9.308657,0.87393653,47.737038,-1.237887,-2.0511675,-3.4588637,-0.0040894984,0.10003142,-0.29194257,28.5625,29.6875,28.9375,32.9375,35.3125,36.4375
0.33405346,0.0182482,-0.55001646,-0.4429952,0.0072093448,-0.011499933,-0.19341601,-0.40706733,-0.3416235,0.05993518,3.0774698,-0.62856853,-4.0194027e-06,-0.159155,0.04197343,0.001170943,-0.0049421303,0.0031997983,-0.031424537,0.44231948,-1.3925722,1.91793,-2.0950363,-1.5702046,2.4197319,-0.20862259,0.20742719,-0.2553345,0.042972434,0.0027048525,-0.17706299,0.11492168,0.1340753,-9.519346,0.84708,47.679718,-1.2603049,-2.1998422,-3.2803338,-0.019367596,0.123536,-0.40501538,28.5625,29.6875,28.9375,32.9375,35.3125,36.4375
0.33605337,0.070842974,-0.6279438,-0.2644412,-0.0076092514,-0.0026179072,-0.19745184,-0.40738836,-0.3415455,0.059958164,3.0774267,-0.62857836,-2.3993205e-05,-0.16015735,0.042417362,0.0013241309,-0.004197514,0.0017192177,-0.03249509,0.44189897,-1.3921874,1.9174021,-2.0949275,-1.5701808,2.4193232,-0.21003638,0.20940354,-0.25878394,0.046108283,0.0026729803,-0.17740488,0.076614454,0.15322891,-9.461885,0.8873621,47.67793,-1.1854117,-2.250843,-3.2095017,-0.05039068,0.1260309,-0.45990914,28.5625,29.6875,28.9375,32.9375,35.3125,36.4375
0.33805427,-0.3512405,-0.21689028,0.047689404,-0.025996557,0.0050051077,-0.20509642,-0.4077167,-0.34144402,0.059949517,3.0774138,-0.62876445,-1.8108946e-06,-0.16132642,0.04331472,0.0012416703,-0.004496778,0.0015684142,-0.026535658,0.44145405,-1.3917423,1.9168762,-2.0948203,-1.5701927,2.4189963,-0.21260773,0.21029776,-0.2597497,0.046190612,0.0030059547,-0.18593575,-0.076614454,0.19153613,-9.423578,0.8851263,47.642998,-1.0202256,-2.1974058,-3.1873355,-0.053217884,0.112293124,-0.44132906,28.5625,29.6875,28.9375,32.9375,35.3125,36.4375
0.34005427,-0.6486924,-0.5861642,-0.57945925,0.00032933932,0.012818377,-0.20625012,-0.4080502,-0.34136072,0.059963908,3.0773926,-0.6287528,-1.5539405e-05,-0.1607609,0.044092294,0.0010707336,-0.0037078934,-0.0013331067,-0.014508948,0.4410218,-1.3913224,1.9163264,-2.094711,-1.5701803,2.4185598,-0.2136494,0.21017124,-0.2600694,0.0496059,0.0035485837,-0.19900519,0.019153614,0.22984336,-9.442732,0.88289046,47.674347,-1.04954,-2.1232448,-3.2913122,-0.086287215,0.11346013,-0.33292067,28.5625,29.6875,28.9375,32.9375,35.3125,36.4375
0.34205416,-0.89041895,-0.61918557,-0.3537864,-0.004983069,0.01637518,-0.2021476,-0.40833607,-0.34126797,0.059948854,3.077411,-0.6287326,4.6710964e-05,-0.15937415,0.045765087,-0.0009978903,-0.0015623579,-0.007554124,-0.006196857,0.44061333,-1.3909254,1.9158734,-2.0946147,-1.5701684,2.4181366,-0.21571437,0.21174996,-0.25793195,0.052438404,0.0042680698,-0.2093844,-0.13407528,0.30645782,-9.653421,0.842603,47.690468,-1.0310959,-2.145157,-3.3202205,-0.12798992,0.10681638,-0.20475328,28.5625,29.6875,28.9375,32.9375,35.3125,36.4375
0.34405428,-0.7758108,-0.41092646,0.0370603,-0.03442228,0.046891466,-0.20006208,-0.4086401,-0.3412017,0.05995173,3.0774095,-0.6286541,7.648247e-05,-0.1591973,0.046867255,-0.0016940719,0.00016435154,-0.011780262,-0.0057865093,0.44022867,-1.3905041,1.9153479,-2.0945055,-1.570144,2.4177034,-0.21747947,0.21343982,-0.25939837,0.05678132,0.004511106,-0.21155998,-0.2873042,0.1340753,-9.519346,0.9030289,47.693153,-0.9060248,-2.1177452,-3.5329542,-0.18845648,0.09218708,-0.12803508,28.5625,29.6875,28.9375,32.9375,35.3125,36.4375
0.34605363,-1.9512006,-0.53376573,-0.03675123,-0.01091685,0.037580762,-0.19154832,-0.4089743,-0.34110618,0.05994227,3.0773833,-0.62871194,0.00014264317,-0.15964158,0.046375927,-0.0015728393,-0.00028531172,-0.010638378,-0.011560245,0.43976083,-1.3900477,1.9148096,-2.0943983,-1.5701083,2.4172752,-0.2167307,0.2142,-0.26044568,0.055850454,0.0044149067,-0.205037,-0.53630114,0.05746084,-9.461885,0.8560339,47.683304,-0.9872283,-2.1248074,-3.5389266,-0.18531695,0.10973784,-0.17548484,28.5625,29.6875,28.9375,32.9375,35.3125,36.4375
0.34805354,-1.5941826,0.11795853,0.3423342,0.005192167,0.06426071,-0.20110998,-0.40932545,-0.3410104,0.05995496,3.0773115,-0.6288721,9.7054944e-05,-0.16072501,0.044770338,-5.2060095e-05,-0.0017897318,-0.007765491,-0.016457263,0.4392936,-1.3896267,1.9142703,-2.0943258,-1.5700959,2.4169173,-0.21469694,0.21470027,-0.26469448,0.05635949,0.0045490325,-0.19810453,-0.57460845,0.076614454,-9.461885,0.89631605,47.67345,-1.1757959,-2.045307,-3.474104,-0.22288525,0.10182753,-0.28097856,28.5625,29.6875,28.9375,32.9375,35.3125,36.4375
0.35005355,-1.9942825,0.48683074,0.51445425,0.031244272,0.06311714,-0.20116095,-0.4096425,-0.3409434,0.059965644,3.0773082,-0.6287951,0.00012323208,-0.1613072,0.043982495,0.0013786984,-0.0031866294,-0.00561162,-0.017716069,0.43889797,-1.3891948,1.913709,-2.0941942,-1.5700716,2.4164743,-0.21383087,0.2136255,-0.26695606,0.057156894,0.0048914556,-0.19597955,-0.51714754,-0.15322891,-9.193734,0.90527004,47.666286,-1.2940606,-1.870249,-3.5162807,-0.24678034,0.08426021,-0.33300442,28.5625,29.6875,28.9375,32.9375,35.3125,36.4375
0.35205343,-1.4883385,0.79452896,-0.08255204,0.07144239,0.045501962,-0.18478347,-0.40996465,-0.34085432,0.059973624,3.0773072,-0.628892,0.000102873106,-0.16277121,0.04352634,0.001825405,-0.0049937563,-0.0043648807,-0.018931184,0.4384897,-1.3887743,1.9131697,-2.0940745,-1.570095,2.416127,-0.21474971,0.21506342,-0.2695821,0.056442503,0.0059890677,-0.19568326,-0.38307226,-0.076614454,-9.251196,0.8157518,47.70211,-1.369514,-1.8984829,-3.3847966,-0.25444332,0.06867036,-0.38348073,28.5625,29.6875,28.9375,32.9375,35.3125,36.4375
0.3540536,-1.1597891,0.74269325,0.17862998,0.07293753,0.028269649,-0.19769016,-0.41028827,-0.3407479,0.059972823,3.077278,-0.6289801,0.00014249589,-0.1650935,0.04409839,0.003072943,-0.0061416295,-0.0013468039,-0.017712107,0.4380209,-1.3883657,1.9126672,-2.0939667,-1.5700716,2.4157171,-0.2173186,0.21500798,-0.27235055,0.05605733,0.0057392204,-0.19947,-0.36391866,-0.13407528,-9.289502,0.9254084,47.66091,-1.3860288,-1.7365716,-3.2670941,-0.27032155,0.08297253,-0.37686902,28.5625,29.6875,28.9375,32.9375,35.3125,36.4375
0.35605344,-0.49304852,0.84335494,0.060421634,0.040971372,0.019850506,-0.20619625,-0.41060838,-0.34067225,0.059976727,3.077302,-0.62890226,0.00016062932,-0.1661526,0.045104455,0.002077244,-0.0044346014,-0.0020865805,-0.008758385,0.4376243,-1.3879203,1.912105,-2.0938356,-1.570072,2.4152691,-0.21899433,0.21779096,-0.27336046,0.05569126,0.004504594,-0.21009743,-0.21068975,-0.05746084,-9.270349,0.8605109,47.6636,-1.3310816,-1.7587357,-3.2429476,-0.28277144,0.057517193,-0.28114104,28.5625,29.6875,28.9375,32.9375,35.3125,36.4375
0.3580541,-0.8598193,0.24646127,-0.43347788,0.02788103,-0.011107448,-0.1940462,-0.4109408,-0.34057042,0.059970763,3.077293,-0.6289321,0.00021900721,-0.16684197,0.04477778,0.0011468807,-0.0029698114,-0.0030908363,0.0025992175,0.43715674,-1.3874748,1.9115676,-2.0937154,-1.5700482,2.4148216,-0.2182204,0.22179556,-0.2761073,0.055981003,0.0035945526,-0.22067861,-0.17238252,0.0,-9.442732,0.8851263,47.70032,-1.4019583,-1.8096306,-3.3351917,-0.30228305,0.08277566,-0.14632039,28.5625,29.6875,28.9375,32.9375,35.3125,36.4375
0.36005366,-1.268984,-1.0393707,-0.3694711,-0.01592527,0.014921208,-0.19128379,-0.41128287,-0.3404722,0.059985057,3.0773025,-0.62893695,0.00021035975,-0.16851823,0.046481214,-0.00027124118,-0.0011365291,-0.0050751553,0.001984206,0.43671072,-1.3870411,1.9109925,-2.093572,-1.5700606,2.4143777,-0.22186418,0.22579773,-0.27771732,0.056166496,0.0027692432,-0.22370534,-0.19153614,0.19153613,-9.5385,0.8560339,47.67166,-1.2297878,-2.019599,-3.3208787,-0.31560788,0.095208034,-0.046403132,28.5625,29.6875,28.9375,32.9375,35.3125,36.4375
0.36205384,-1.3486264,-1.7931793,-0.3410597,-0.03707834,0.04858111,-0.18711199,-0.41162634,-0.34037387,0.05999084,3.077324,-0.6289454,0.0001662221,-0.16983977,0.047166675,0.00014782179,-0.0012971245,-0.0034939765,-0.0055568656,0.43627843,-1.3865963,1.9104317,-2.0934646,-1.5700964,2.4139483,-0.22361661,0.2259378,-0.27880052,0.0556008,0.002241336,-0.21791573,-0.36391866,0.17238252,-9.615114,0.8291774,47.688675,-1.2025609,-2.1224134,-3.4648604,-0.33761632,0.093626335,-0.08798541,28.5625,29.6875,28.9375,32.9375,35.3125,36.4375
0.36405385,-2.0939784,-1.6965438,-0.52701193,-0.046732597,0.050451003,-0.18119322,-0.41195238,-0.34028333,0.05999481,3.0772884,-0.62900037,0.00024335887,-0.17192677,0.047825005,0.000512002,-0.0020188102,-0.0018462013,-0.01670587,0.43582216,-1.3861634,1.9098805,-2.093321,-1.5700487,2.413531,-0.22624259,0.22725096,-0.28107694,0.054772206,0.0021838685,-0.20939164,-0.30645782,0.22984336,-9.787497,0.9791215,47.705692,-1.101551,-1.9896433,-3.3872707,-0.35417864,0.117494166,-0.15350696,28.5625,29.6875,28.9375,32.9375,35.3125,36.4375
0.3660538,-2.2336943,-1.8632238,-0.18648258,-0.057626203,0.064811215,-0.18796182,-0.412327,-0.34018674,0.060014673,3.0772326,-0.6291098,0.00014508054,-0.17305076,0.048729073,-8.654806e-05,-0.0026983821,-0.001207199,-0.02719744,0.43535325,-1.3857187,1.9092959,-2.0932505,-1.5700606,2.413138,-0.22874093,0.22823738,-0.28039083,0.052226342,0.002537448,-0.20139872,-0.36391866,0.36391866,-9.691729,0.8493211,47.694054,-1.0147619,-1.9497945,-3.5128894,-0.3651569,0.11505522,-0.27482927,28.5625,29.6875,28.9375,32.9375,35.3125,36.4375
0.36805376,-1.7822826,-1.3667734,-0.38453618,-0.049647238,0.059215005,-0.19390084,-0.41268653,-0.3400899,0.060033742,3.0771897,-0.6292232,7.607038e-05,-0.17524418,0.049101233,0.00034577126,-0.0051431544,0.0013666168,-0.039653946,0.4348964,-1.3852861,1.9087213,-2.0931551,-1.570072,2.4127576,-0.2316741,0.228952,-0.28166774,0.049413607,0.00366651,-0.19187573,-0.2681506,0.4405331,-9.5385,0.8314132,47.689575,-0.94420165,-1.9979587,-3.5649147,-0.3245507,0.0968014,-0.39521644,28.5625,29.6875,28.9375,32.9375,35.3125,36.4375
0.3700537,-0.73761773,-0.8401224,-0.36215276,-0.042428825,0.059566192,-0.20166387,-0.4130048,-0.33997616,0.05998713,3.0772572,-0.6292757,0.00017814068,-0.17707588,0.048784323,0.00044175965,-0.0070674126,0.0039058453,-0.040132456,0.43445197,-1.3847806,1.9082078,-2.0930488,-1.5700959,2.4123375,-0.23282348,0.23065677,-0.28327477,0.046198003,0.004315032,-0.19254665,-0.2681506,0.38307226,-9.576807,0.86498255,47.660015,-0.82346225,-1.8670762,-3.7088594,-0.2926357,0.099729344,-0.46949673,28.5625,29.6875,28.9375,32.9375,35.3125,36.4375
