Tylouw/Master_Thesis_Code/training_data/batch_1/small_rod_t0.3/sample_100_session_3.csv
timestamp[s],tcp_force_x[N],tcp_force_y[N],tcp_force_z[N],tcp_force_rx[Nm?],tcp_force_ry[Nm?],tcp_force_rz[Nm?],tcp_pose_x[m],tcp_pose_y[m],tcp_pose_z[m],tcp_pose_rx[rot_vec_x],tcp_pose_ry[rot_vec_y],tcp_pose_rz[rot_vec_z],tcp_velo_x[m/s],tcp_velo_y[m/s],tcp_velo_z[m/s],tcp_velo_rx[rot_vec_x/s],tcp_velo_ry[rot_vec_y/s],tcp_velo_rz[rot_vec_z/s],q1[rad],q2[rad],q3[rad],q4[rad],q5[rad],q6[rad],qd1[rad/s],qd2[rad/s],qd3[rad/s],qd4[rad/s],qd5[rad/s],qd6[rad/s],tool_acc_x,tool_acc_y,tool_acc_z,current_of_whole_robot[A],voltage_of_whole_robot[V],current_J1[A],current_J2[A],current_J3[A],current_J4[A],current_J5[A],current_J6[A],temp_J1[C],temp_J2[C],temp_J3[C],temp_J4[C],temp_J5[C],temp_J6[C]
8.409843e-07,-0.49364156,-0.23032567,0.9197882,-0.013979753,-0.004354253,-0.013831282,-0.3810555,-0.34853706,0.059983846,-3.078537,0.62488115,-0.00017346094,0.0024272697,0.0012560504,-0.0025762315,0.003222258,-0.0064748903,8.8114335e-05,0.4778101,-1.4259573,1.957703,-2.1008084,-1.5707458,2.452764,-6.922603e-05,0.0015228203,0.0036926155,0.0020155252,0.00012855293,-0.0001595929,-0.019153614,0.19153613,-8.791509,0.75084364,47.688675,0.10695567,-2.808258,-2.46704,-0.4456812,0.076318726,0.070633516,28.625,29.6875,29.0,33.0,35.375,36.5
0.002053121,-0.84866065,-0.27714014,0.73448604,-0.009818921,-0.00976096,-0.011925778,-0.38106063,-0.348531,0.059973862,-3.0785468,0.6248258,-0.00011645845,-0.0005259225,-0.0002822971,-0.0030297851,-0.0013024509,0.0022089442,8.821363e-05,0.4778101,-1.4259566,1.9577397,-2.1008732,-1.5707697,2.4527283,-6.7920046e-05,0.0036994652,0.005349649,-0.0116100805,0.00012556353,-0.00015613214,0.0,0.095768064,-8.810662,0.7777002,47.690468,0.09430369,-2.8478713,-2.5121436,-0.39322287,0.10248022,0.081055894,28.625,29.6875,29.0,33.0,35.375,36.5
0.004052641,-0.65351444,-0.4508028,0.74676853,-0.0025953823,-0.002463831,-0.019515345,-0.3810363,-0.34853595,0.059944965,-3.0785253,0.624898,-0.00024992385,-0.0016237323,-0.00085390144,-0.002444993,-0.0027546778,0.005003488,8.7119464e-05,0.4778101,-1.4259207,1.9577621,-2.1008613,-1.5707215,2.452776,-6.666234e-05,0.0038238387,0.004400534,-0.013934681,0.00012270997,-0.00015281815,0.038307227,0.19153613,-8.695741,0.800085,47.709274,0.04282377,-3.1199412,-2.726108,-0.27282584,0.07893289,0.07274136,28.625,29.6875,29.0,33.0,35.375,36.5
0.006051645,-0.30751792,0.15594134,0.7081645,0.013464683,-0.019487401,-0.017966367,-0.38105953,-0.34851933,0.05993201,-3.0784824,0.6249084,-0.00017795237,-0.0008638193,-0.00045743072,-0.0015809526,-0.0015662566,0.002735348,8.45769e-05,0.47779807,-1.4258852,1.9577616,-2.1009066,-1.5707816,2.452776,-6.545039e-05,0.002324847,0.0028599442,-0.00833449,0.00011998349,-0.00014964202,0.019153614,0.24899697,-8.714894,0.7530795,47.716442,0.09135401,-3.0458145,-2.635333,-0.31972793,0.082908794,0.069368355,28.625,29.6875,29.0,33.0,35.375,36.5
0.008051676,0.06641196,0.87293756,0.14803399,0.048342384,-0.044416416,-0.014424563,-0.38107237,-0.34853014,0.059965253,-3.078563,0.6248869,-0.00015272957,-0.00036102554,-0.00019461343,-0.0004633768,-0.0011271677,0.0019089343,8.207659e-05,0.4777741,-1.4259338,1.9577383,-2.1008942,-1.5707334,2.4527283,-6.4281674e-05,0.00018759968,0.0018016559,-0.004203158,0.0001173754,-0.00014659525,-0.019153614,0.15322891,-8.868123,0.7620334,47.690468,0.13232464,-2.9482477,-2.5231543,-0.3506105,0.09109296,0.082393855,28.625,29.6875,29.0,33.0,35.375,36.5
0.01005259,0.6609161,0.85996634,-0.19756848,0.04900351,-0.032202035,-0.02465132,-0.38105375,-0.34852308,0.059952077,-3.0784857,0.6249295,-0.00016321272,-0.0005170948,-0.00026990252,7.219691e-05,-0.0010226393,0.001714823,7.02117e-05,0.4778101,-1.425922,1.9577492,-2.1008694,-1.5707816,2.4528008,-7.3545074e-05,2.5168893e-06,0.00037072497,-0.0023667072,0.0001148784,-0.00014366975,0.076614454,0.1340753,-9.097966,0.7665104,47.661808,-0.36468768,-2.421146,-3.0078213,-0.38317114,0.06930443,0.0034923512,28.625,29.6875,29.0,33.0,35.375,36.5
0.012051865,-0.5359488,-0.040232588,-0.43403146,0.011771661,-0.036099512,-0.018563217,-0.38106236,-0.34849617,0.05992246,-3.0784318,0.62495583,-0.00022622701,2.228095e-05,4.5696503e-05,-0.0023510163,0.0015484974,-0.0032424743,1.6252909e-05,0.47776204,-1.4258728,1.9577607,-2.100869,-1.5707935,2.452776,-0.00013693045,0.004990259,4.973748e-06,-0.0014042854,0.00011248532,-0.0001523142,0.1340753,0.15322891,-9.308657,0.73069996,47.719128,-0.59622073,-2.273744,-3.0826268,-0.40284717,0.077453025,-0.039553255,28.625,29.6875,29.0,33.0,35.375,36.5
0.014051808,-0.6960445,-1.1408931,-0.603886,-0.02878737,0.006657096,-0.029244082,-0.3810748,-0.3485139,0.059919734,-3.0784757,0.6249075,-0.00025178373,-0.0049762405,0.0030015998,-0.00465109,0.0035466654,-0.007125703,-0.0017545562,0.47775847,-1.4258331,1.9577245,-2.1008809,-1.5707573,2.4527366,-0.010024066,0.014331987,-0.0055080955,-0.000867067,0.00011018991,-0.008264472,0.019153614,0.19153613,-9.423578,0.7418897,47.67166,-0.2622313,-3.06568,-2.9934278,-0.41047552,0.07106766,-0.030716762,28.625,29.6875,29.0,33.0,35.375,36.5
0.016052034,-1.6844888,-1.7199183,-0.6741999,-0.05065559,0.022749119,-0.025810942,-0.3810477,-0.34850824,0.05989519,-3.0784323,0.62487704,-0.00040583184,-0.0060604615,0.003332487,-0.0032243636,0.0025423956,-0.0051918593,0.0042086444,0.47775796,-1.4257978,1.957724,-2.1008089,-1.5707334,2.4527225,-0.01161424,0.01253267,-0.0069619794,0.00020626657,0.00010798608,-0.015817622,-0.15322891,0.24899697,-9.576807,0.7150385,47.72629,-0.274029,-2.876061,-3.021495,-0.41892081,0.09147302,0.02405361,28.625,29.6875,29.0,33.0,35.375,36.5
0.018052192,-2.33247,-1.5085272,-0.6922809,-0.058933858,0.04519604,-0.04126353,-0.38104078,-0.34851375,0.059895225,-3.0784457,0.62476176,-0.0003940229,-0.0053471513,0.0035231279,-0.0029443037,0.0025470173,-0.0051906933,0.008296833,0.4777822,-1.4257984,1.9577245,-2.1008084,-1.5707458,2.4526732,-0.011290087,0.010688107,-0.0056123557,0.00070155744,0.00010586902,-0.01958273,-0.30645782,0.30645782,-9.653421,0.72622824,47.705692,-0.44871363,-2.7088633,-3.2830358,-0.42927578,0.09074849,0.031367056,28.625,29.6875,29.0,33.0,35.375,36.5
0.020051712,-2.1567335,-0.94127995,-0.78984606,-0.038660273,0.06615039,-0.065961376,-0.38105145,-0.34849173,0.059877753,-3.0784316,0.62479883,-0.0004065046,-0.006159879,0.0045406707,-0.0036854441,0.0034788959,-0.0070408834,0.00652862,0.4777332,-1.4257859,1.9577583,-2.1008446,-1.5707458,2.452649,-0.013867324,0.012648032,-0.006344104,0.0015446766,0.0001285021,-0.020391285,-0.47884035,0.30645782,-9.710882,0.7732232,47.677036,-0.56385267,-2.521681,-3.4110708,-0.43653965,0.095730565,0.023038544,28.625,29.6875,29.0,33.0,35.375,36.5
0.022051902,-2.2013266,-0.50647324,-0.96394,-0.00942077,0.061652724,-0.08936965,-0.3810539,-0.34848842,0.059853263,-3.078397,0.62477463,-0.00045335302,-0.008767053,0.004364518,-0.0024833144,0.0019817385,-0.004256412,0.0033224516,0.47773245,-1.4257255,1.9577454,-2.1008446,-1.5707573,2.4526377,-0.01599494,0.013880359,-0.010425887,0.0012328515,0.00016789311,-0.019310497,-0.47884035,0.21068975,-9.883265,0.8560339,47.698532,-0.5422823,-2.4978218,-3.4445815,-0.45244864,0.086338416,-0.008124445,28.625,29.6875,29.0,33.0,35.375,36.5
0.02405206,-1.828172,-0.09049225,-0.80569845,-0.004508505,0.052809738,-0.104327366,-0.38108146,-0.3484686,0.059857275,-3.0783744,0.62481046,-0.0004829987,-0.010289248,0.004861631,-0.0028473467,0.0017466684,-0.0039608544,0.00029627018,0.47767165,-1.4257008,1.9576973,-2.100797,-1.5707573,2.4526021,-0.018331889,0.015907232,-0.011633934,4.3356624e-05,0.00023504856,-0.018620232,-0.5554548,0.15322891,-9.80665,0.80679786,47.689575,-0.48847947,-2.5791168,-3.446249,-0.44971997,0.104543895,0.0099957585,28.625,29.6875,29.0,33.0,35.375,36.5
0.026051981,-1.8857911,-0.5631822,-0.96310717,0.004812254,0.049664382,-0.11015421,-0.3811076,-0.34847492,0.059858356,-3.078437,0.624862,-0.00052473025,-0.010988348,0.003625034,-0.002166242,-0.0015527807,-0.0030259616,-0.00032231776,0.47761157,-1.4256768,1.957673,-2.1008213,-1.5706848,2.4525661,-0.018401183,0.01624866,-0.013360413,-0.0009261628,0.0027300804,-0.018074723,-0.7278373,0.038307227,-9.825804,0.78888994,47.71286,-0.5455536,-2.400306,-3.453912,-0.41544604,0.07132525,-0.009431388,28.625,29.6875,29.0,33.0,35.375,36.5
0.028051982,-2.19053,-0.5879348,-0.9299663,-0.003724462,0.05701918,-0.1264621,-0.3811143,-0.3484629,0.059836403,-3.0783932,0.6247964,-0.00057470397,-0.011681509,0.0033336335,-0.0022303122,-0.0019061201,-0.003202493,-0.0015915893,0.47759944,-1.4256161,1.9576486,-2.1007974,-1.5707086,2.4525187,-0.018779913,0.017857976,-0.015070792,-0.0008324603,0.00312095,-0.01718404,-0.78529817,-0.038307227,-9.883265,0.7911258,47.67614,-0.5807757,-2.5269623,-3.3721194,-0.4181669,0.07331674,-0.061174184,28.625,29.6875,29.0,33.0,35.375,36.5
0.03005263,-2.3696957,-0.5587208,-0.9034135,-0.0036259321,0.06704015,-0.12965071,-0.38116297,-0.34846792,0.059854403,-3.07843,0.6248418,-0.00048712242,-0.012552161,0.003351237,-0.001839575,-0.0016822884,-0.0025012305,-0.0019795347,0.47756332,-1.4255921,1.9575881,-2.1008327,-1.5707086,2.4525063,-0.019275919,0.018581493,-0.016929522,-0.00021516863,0.0025983774,-0.017289924,-0.7278373,0.0,-9.844957,0.7911258,47.687782,-0.7165952,-2.5026515,-3.380488,-0.41995233,0.06238602,-0.05240254,28.625,29.6875,29.0,33.0,35.375,36.5
0.03205274,-2.1331658,-0.12485215,-0.5786274,-0.0027837101,0.08092706,-0.15687625,-0.38117826,-0.3484799,0.059854705,-3.078436,0.6248237,-0.0005120319,-0.013610773,0.003847012,-0.0011853661,-0.0015723732,-0.0009988175,-0.0032524979,0.47756293,-1.4255444,1.9575275,-2.1008089,-1.5706972,2.452494,-0.020622395,0.018154223,-0.017984105,-1.4048975e-05,0.0018081858,-0.017361488,-0.7086837,-0.038307227,-9.80665,0.82694155,47.667187,-0.6862173,-2.4605317,-3.3040228,-0.43648762,0.07273155,-0.07045617,28.625,29.6875,29.0,33.0,35.375,36.5
0.034051985,-1.9527646,-0.33502176,-0.82683593,0.02140661,0.075850464,-0.15762432,-0.38120994,-0.3484579,0.059844982,-3.0784001,0.62487507,-0.00053046294,-0.014723964,0.0041508614,-0.0012816029,-0.0013933758,-0.00091673346,-0.004161867,0.47750226,-1.4254959,1.9574918,-2.100797,-1.5707091,2.4524698,-0.022061594,0.019720394,-0.019553475,-9.172976e-07,0.0016074257,-0.017889926,-0.59376204,-0.038307227,-9.749189,0.800085,47.70211,-0.64467824,-2.456828,-3.364327,-0.43186268,0.08548767,-0.08253744,28.625,29.6875,29.0,33.0,35.375,36.5
0.03605194,-2.1751292,-0.0032895969,-0.8163167,0.023037175,0.05088222,-0.16976054,-0.38125682,-0.34845027,0.059835695,-3.0784297,0.6249005,-0.00052443705,-0.016150799,0.004262908,-0.0006729216,-0.0020022134,0.00042910108,-0.004933978,0.4774298,-1.4254359,1.9574555,-2.100845,-1.5706853,2.4524095,-0.023525173,0.020310033,-0.021618288,-5.989298e-08,0.0015254109,-0.01858006,-0.51714754,-0.11492168,-9.80665,0.7530795,47.721813,-0.6340816,-2.3690448,-3.3541455,-0.41989255,0.0740216,-0.09440866,28.625,29.6875,29.0,33.0,35.375,36.5
0.038051803,-1.6346465,-0.3136355,-0.9645338,0.03201259,0.030235678,-0.17759944,-0.3812644,-0.34841624,0.05981252,-3.0783272,0.6249576,-0.00057887577,-0.017210558,0.004660618,-0.00018471688,-0.0026060867,0.0017615554,-0.0057114568,0.47739324,-1.425388,1.9574431,-2.1007974,-1.570733,2.4524217,-0.025159772,0.020011202,-0.022280851,-0.00050025753,0.0014449824,-0.01943676,-0.34476504,-0.11492168,-9.691729,0.7172743,47.709274,-0.6909021,-2.4279451,-3.3008828,-0.4232707,0.10725527,-0.13973847,28.625,29.6875,29.0,33.0,35.375,36.5
0.040052228,-1.4188724,-0.11096994,-0.8015488,0.029685855,0.007631753,-0.19140542,-0.38132033,-0.34843546,0.059834868,-3.0784187,0.6249571,-0.00052379817,-0.018091077,0.004859729,-0.00032466382,-0.003132468,0.0016300988,-0.0062175062,0.47734466,-1.4253516,1.9573587,-2.1008332,-1.5706853,2.452361,-0.026666975,0.021188674,-0.023221558,-0.0008630921,0.0019713244,-0.020438094,-0.26815057,-0.1340753,-9.634268,0.7642693,47.65912,-0.65683645,-2.4056838,-3.3899455,-0.41412348,0.09792537,-0.13297549,28.625,29.6875,29.0,33.0,35.375,36.5
0.042052496,-1.545787,-0.46758366,-0.7759701,0.03970933,-0.006087571,-0.196716,-0.38137817,-0.34842098,0.059857566,-3.0784273,0.6249585,-0.00038919577,-0.01931166,0.004965916,4.254081e-06,-0.0038600124,0.0022683875,-0.00656272,0.47729608,-1.4253393,1.9572982,-2.100857,-1.5707325,2.4523125,-0.028209368,0.022055592,-0.024953172,-0.00090186816,0.0023216372,-0.021634776,-0.22984336,-0.1340753,-9.615114,0.7978386,47.689575,-0.65417945,-2.3917077,-3.3132532,-0.40236187,0.09274933,-0.14008188,28.625,29.6875,29.0,33.0,35.375,36.5
0.044052634,-0.5587969,0.034117043,-0.68703693,0.024247479,0.011318633,-0.21493906,-0.38141912,-0.34839237,0.059839524,-3.0783954,0.6250872,-0.0004304699,-0.020962726,0.004736971,0.0011805637,-0.0055945367,0.0041840794,-0.0071230032,0.47719958,-1.4252795,1.9572738,-2.1008685,-1.5707206,2.4523003,-0.029751277,0.022075934,-0.02772319,-0.0006525451,0.0029765475,-0.022616368,-0.11492168,-0.019153614,-9.557653,0.8291774,47.719128,-0.65013504,-2.339156,-3.272572,-0.4104153,0.09212613,-0.1781936,28.625,29.6875,29.0,33.0,35.375,36.5
0.046052583,-1.0878675,-0.7701681,-0.7867867,0.028145727,0.004362231,-0.20693809,-0.38144803,-0.34839815,0.0598615,-3.0784426,0.6249809,-0.00041306365,-0.021605559,0.0051240684,0.0009792912,-0.0057518845,0.0035554657,-0.0073806304,0.47717506,-1.4252671,1.9572014,-2.1008327,-1.5707082,2.4522035,-0.031309742,0.023021972,-0.02838841,-0.0004485719,0.0034042166,-0.0239175,-0.076614454,-0.038307227,-9.519346,0.7933669,47.701214,-0.59257567,-2.2858086,-3.2281964,-0.41114253,0.08370016,-0.19267902,28.625,29.6875,29.0,33.0,35.375,36.5
0.04805262,-1.1465441,-0.55911905,-0.7941786,-0.0012705827,0.007112133,-0.20881307,-0.38150254,-0.34836966,0.059849944,-3.0784216,0.62513065,-0.00042399982,-0.02250967,0.005438791,0.0012979758,-0.0058804015,0.0041344366,-0.0068461923,0.47706658,-1.425207,1.9571646,-2.1008565,-1.5706967,2.452191,-0.032600243,0.023342988,-0.029543769,-0.00018653162,0.0032505163,-0.025741568,-0.038307227,0.095768064,-9.576807,0.7150385,47.687782,-0.63457054,-2.245474,-3.25905,-0.4177057,0.08679104,-0.19131017,28.625,29.6875,29.0,33.0,35.375,36.5
0.050052423,-0.62427616,-1.016653,-0.65614986,-0.005439558,0.020277716,-0.19735424,-0.38149607,-0.34835914,0.05982944,-3.0783942,0.6251058,-0.0005764397,-0.023426214,0.005520349,0.0014951425,-0.006101122,0.0045199934,-0.005985105,0.47703028,-1.4251589,1.9571403,-2.100785,-1.5706605,2.4521427,-0.033601213,0.024236795,-0.031054895,-1.2179182e-05,0.0032635273,-0.027603097,-0.038307227,0.1340753,-9.576807,0.779936,47.690468,-0.5718778,-2.2497282,-3.2866745,-0.40489948,0.099584915,-0.2170288,28.625,29.6875,29.0,33.0,35.375,36.5
0.05205246,-0.62783957,-1.4516294,-0.7086373,-0.008454809,0.011377051,-0.18358654,-0.38160568,-0.34835106,0.059854034,-3.0784273,0.6251693,-0.0003691987,-0.024171388,0.0058855433,0.0012763327,-0.0060035167,0.004181167,-0.005411406,0.47694582,-1.4250866,1.9570206,-2.1008685,-1.5707086,2.4520938,-0.034976695,0.025401203,-0.03188637,-7.9521345e-07,0.0033340296,-0.029551383,-0.05746084,0.24899697,-9.519346,0.8403672,47.711063,-0.55498385,-2.251062,-3.311521,-0.40100822,0.09438676,-0.23198386,28.625,29.6875,29.0,33.0,35.375,36.5
0.054052312,-0.895729,-1.5666851,-0.7693519,-0.0083003845,-0.0075231264,-0.18838038,-0.38163835,-0.34834084,0.05985724,-3.078421,0.6251294,-0.00039759703,-0.025505932,0.006088765,0.0017805368,-0.0068085636,0.0051428056,-0.0048574307,0.47689718,-1.4250386,1.9569477,-2.1008208,-1.5707082,2.4520211,-0.036742654,0.02591294,-0.033623777,-5.192176e-08,0.0036027897,-0.031870946,-0.019153614,0.30645782,-9.519346,0.8537928,47.705692,-0.585121,-2.2422411,-3.2423778,-0.39244616,0.085569054,-0.22048414,28.625,29.6875,29.0,33.0,35.375,36.5
0.056052268,-0.2061212,-1.4430196,-0.8513119,-0.0048932726,-0.00073243905,-0.18585922,-0.38171145,-0.3483339,0.0598797,-3.0784416,0.6252479,-0.00028324279,-0.026299931,0.005936852,0.0021515337,-0.007670524,0.0057229768,-0.0038824715,0.47682503,-1.4250025,1.9568633,-2.1008565,-1.5707201,2.4520204,-0.037523963,0.026375504,-0.034999587,-3.3901197e-09,0.0041020312,-0.033627044,0.019153614,0.34476504,-9.442732,0.7486078,47.71823,-0.6043705,-2.1810522,-3.3145163,-0.3854384,0.094236486,-0.24767989,28.625,29.6875,29.0,33.0,35.375,36.5
0.058052238,-0.89860904,-1.8043811,-0.8582088,0.006580931,-0.016885119,-0.17632712,-0.38175693,-0.3483098,0.05986929,-3.0784695,0.62517595,-0.0003488269,-0.027153036,0.0057196193,0.0024575193,-0.008656931,0.006123045,-0.0030501443,0.4767166,-1.4249425,1.9568161,-2.100845,-1.5706838,2.4518635,-0.038368132,0.027143892,-0.036577042,-2.2135062e-10,0.004791019,-0.035303984,-0.038307227,0.34476504,-9.461885,0.75755644,47.653748,-0.65555334,-2.1031404,-3.3114777,-0.3818757,0.08114134,-0.2564319,28.625,29.6875,29.0,33.0,35.375,36.5
0.060052406,-0.31652835,-1.0232086,-0.69383496,-0.019132812,0.0126479985,-0.18702593,-0.3818018,-0.34830135,0.059888136,-3.0785062,0.6252021,-0.00032978074,-0.027639037,0.005930863,0.0016858003,-0.008259182,0.0047031017,-0.001748347,0.47664437,-1.4249296,1.9567555,-2.1008327,-1.5706595,2.451803,-0.0393818,0.029416608,-0.0374056,-1.44526145e-11,0.005088484,-0.037619032,-0.1340753,0.2873042,-9.481039,0.7463667,47.650166,-0.66418064,-2.1543121,-3.309382,-0.38156813,0.078717954,-0.23998444,28.625,29.6875,29.0,33.0,35.375,36.5
0.062052514,-1.0326649,-1.4763974,-0.6159727,-0.0064258543,0.010630352,-0.18012814,-0.3818642,-0.3482933,0.059879445,-3.0784955,0.62529576,-0.0003157065,-0.028201832,0.005478201,0.0018507637,-0.00926829,0.0047584707,-0.00042625988,0.47657213,-1.4248334,1.9566711,-2.1008565,-1.570659,2.4517906,-0.03965521,0.030377096,-0.038881056,-9.436525e-13,0.0059571243,-0.03921512,0.0,0.2873042,-9.442732,0.78217715,47.677036,-0.67482215,-2.2010357,-3.292276,-0.36954367,0.06827733,-0.27722287,28.625,29.6875,29.0,33.0,35.375,36.5
0.06405243,-0.5490529,-1.0319383,-0.63326496,-0.015250443,0.03410084,-0.1864044,-0.38191003,-0.34829617,0.059893012,-3.0785599,0.62523067,-0.00030661444,-0.029315693,0.005434252,0.0026477375,-0.009881484,0.0064794864,0.00073726027,0.47651196,-1.4247975,1.9565991,-2.1008565,-1.5706238,2.4516816,-0.040439416,0.030279858,-0.04059177,-6.161376e-14,0.005710322,-0.041161362,-0.11492168,0.30645782,-9.442732,0.7665104,47.664497,-0.7600472,-2.1661823,-3.2608318,-0.37885705,0.061911047,-0.2776547,28.625,29.6875,29.0,33.0,35.375,36.5
0.06605203,-0.4172799,-0.23494425,-0.5382198,-0.024207788,0.040098093,-0.19890891,-0.381979,-0.34829566,0.05990819,-3.078591,0.6252371,-0.00027501828,-0.029766552,0.0058813444,0.0026356443,-0.009350931,0.0060043265,0.0008613249,0.47643963,-1.4247253,1.9564794,-2.1008446,-1.5706118,2.4516094,-0.0414796,0.030807849,-0.04137881,0.00092643895,0.005459147,-0.04232469,-0.11492168,0.19153613,-9.442732,0.78217715,47.655537,-0.7854295,-2.04119,-3.2665906,-0.37471163,0.074365824,-0.2787554,28.625,29.6875,29.0,33.0,35.375,36.5
0.06805204,-1.1521255,-0.9809446,-0.3983113,0.00968079,0.016263088,-0.18712148,-0.3820428,-0.34826797,0.05989788,-3.0785766,0.6252721,-0.00028944697,-0.030395761,0.005870398,0.0022532195,-0.008452229,0.0052862912,0.0015124349,0.4763315,-1.4246408,1.9564065,-2.1008446,-1.5706118,2.451525,-0.04172848,0.033076342,-0.04324307,0.0015746973,0.004987525,-0.043222774,-0.15322891,0.17238252,-9.3661175,0.81351066,47.690468,-0.8893706,-2.107093,-3.2469807,-0.3850784,0.0704828,-0.30886215,28.625,29.6875,29.0,33.0,35.375,36.5
0.07005235,-0.61009675,-0.40892035,-0.6197181,0.011125442,0.025967674,-0.19032803,-0.3821009,-0.34825078,0.059906263,-3.0785768,0.6252713,-0.00028999159,-0.031808294,0.0053131343,0.0029064834,-0.009628541,0.006628377,0.0032575068,0.4762473,-1.4245803,1.9563102,-2.1008084,-1.5706118,2.4514403,-0.04231029,0.034366854,-0.046193212,0.001501174,0.005411285,-0.045548685,-0.15322891,0.1340753,-9.385271,0.784413,47.67345,-0.9308497,-2.1654332,-3.1184845,-0.3809138,0.07830971,-0.30761778,28.625,29.6875,29.0,33.0,35.375,36.5
0.072052665,-1.3089291,-0.61265737,-0.5288306,0.01924707,0.011559878,-0.19214487,-0.38215762,-0.34825507,0.059909444,-3.0786402,0.6251672,-0.00027040092,-0.032220397,0.005555475,0.0028470487,-0.009688753,0.006707777,0.004836394,0.47618678,-1.4245085,1.9562262,-2.1008322,-1.5705875,2.4513068,-0.04312572,0.0347071,-0.04639374,0.0012647123,0.0054291757,-0.047942642,-0.17238252,0.05746084,-9.289502,0.8560339,47.711063,-0.9570219,-2.1509318,-3.1597233,-0.36387324,0.06778342,-0.29778278,28.625,29.6875,29.0,33.0,35.375,36.5
0.074051715,-1.1459862,-0.37691364,-0.4243243,0.00858116,0.027120957,-0.18449101,-0.3822224,-0.3482415,0.059918582,-3.0786762,0.6251368,-0.00021400838,-0.032134317,0.005894781,0.0008330436,-0.007985826,0.0033363523,0.0034282159,0.47610295,-1.4244592,1.9561547,-2.100856,-1.5705875,2.4511995,-0.043666188,0.03883386,-0.046430904,0.0009524148,0.00546325,-0.047074005,-0.17238252,0.038307227,-9.32781,0.842603,47.693153,-1.0949192,-2.2179549,-3.2741852,-0.3491477,0.06443936,-0.35135657,28.625,29.6875,29.0,33.0,35.375,36.5
0.076051734,-1.4239303,-0.41235307,-0.18487808,0.009243871,0.022210808,-0.17386425,-0.38228223,-0.34822026,0.059918083,-3.0786502,0.62524724,-0.0002808671,-0.03353253,0.005614991,0.0015098174,-0.008783071,0.0048427996,0.00402639,0.47599453,-1.4243748,1.956046,-2.1007965,-1.5705637,2.4511633,-0.04445768,0.0397429,-0.049010336,0.000920243,0.005474735,-0.048462447,-0.11492168,0.076614454,-9.308657,0.82022345,47.71286,-1.126377,-2.2531796,-3.2010415,-0.35291874,0.05831327,-0.35959703,28.625,29.6875,29.0,33.0,35.375,36.5
0.0780518,-1.009112,0.12501107,-0.19753897,0.004969772,0.03386829,-0.19242351,-0.3823399,-0.3482207,0.059932724,-3.078724,0.6250871,-0.00023240555,-0.03516023,0.0050761104,0.0033733912,-0.010342542,0.00872586,0.0063731116,0.47593445,-1.4243274,1.9559611,-2.1008084,-1.5705518,2.450994,-0.04473474,0.038548924,-0.051885292,0.0008256513,0.005077885,-0.051084045,-0.30645782,0.05746084,-9.3661175,0.7665104,47.691364,-1.186928,-2.1792166,-3.0844412,-0.33864957,0.082130186,-0.3677284,28.625,29.6875,29.0,33.0,35.375,36.5
0.08005194,-0.84331125,0.039462816,-0.2688554,0.01562123,0.035569593,-0.19210792,-0.3824226,-0.34822235,0.059946034,-3.0787697,0.6251141,-0.0002257578,-0.036063645,0.0058486946,0.002368439,-0.009566465,0.006903386,0.0090696,0.47583756,-1.4242307,1.9558176,-2.1007965,-1.5705155,2.4509082,-0.047024503,0.04130532,-0.052759685,0.0009214468,0.0052236225,-0.056069504,-0.15322891,0.05746084,-9.346964,0.79560274,47.689575,-1.2156286,-2.1471026,-2.9737718,-0.33022606,0.066006094,-0.35300392,28.625,29.6875,29.0,33.0,35.375,36.5
0.0820527,-1.6523933,-0.33471638,-0.3316559,0.017208457,0.01422172,-0.18611515,-0.38251728,-0.348202,0.059962176,-3.0787704,0.6250578,-9.611716e-05,-0.034983523,0.0071838833,0.0005379508,-0.007191535,0.002392608,0.007793838,0.47575313,-1.4241462,1.9556869,-2.100808,-1.5705756,2.4507887,-0.048370026,0.042794153,-0.05061215,0.0023798945,0.005190514,-0.05614005,-0.19153613,-0.019153614,-9.385271,0.83589023,47.690468,-1.2066233,-2.2877378,-3.2247643,-0.3399873,0.062446956,-0.3455369,28.625,29.6875,29.0,33.0,35.375,36.5
0.08405163,-0.8989955,-0.7026366,-0.30938157,0.010659359,0.035375856,-0.18203498,-0.38258034,-0.34817857,0.059950296,-3.0787666,0.625053,-0.00013592403,-0.035869934,0.0060734944,0.0013307766,-0.007968288,0.0034544363,0.011596396,0.4756457,-1.4240501,1.9556016,-2.100796,-1.5705637,2.4506788,-0.04733439,0.04416368,-0.054199856,0.0032990552,0.0053883,-0.05890557,-0.21068975,0.076614454,-9.270349,0.8023209,47.694946,-1.3208476,-2.2787793,-3.1652312,-0.34500664,0.083718956,-0.36848897,28.625,29.6875,29.0,33.0,35.375,36.5
0.08605257,-1.4894644,-0.6714446,-0.33342934,0.0071582897,0.022391835,-0.18891445,-0.38263735,-0.34816894,0.059953827,3.0787866,-0.6250372,0.00016024822,-0.03751545,0.0066671544,0.0018855358,-0.008762913,0.004580705,0.01339636,0.47556058,-1.423978,1.9555057,-2.1007717,-1.5705398,2.4505813,-0.0500167,0.044477496,-0.05581383,0.003235597,0.005575663,-0.063387275,-0.24899697,0.11492168,-9.289502,0.779936,47.696735,-1.3749423,-2.2750902,-3.0833411,-0.3387557,0.05422038,-0.33941922,28.625,29.6875,29.0,33.0,35.375,36.5
0.08805255,-0.9028127,-0.114243194,-0.40019876,-0.002312828,0.04199034,-0.1914444,-0.38274324,-0.3481401,0.05995498,3.0787547,-0.6250301,0.00012777287,-0.038803715,0.00748416,0.0017223065,-0.00853772,0.004872026,0.014981404,0.47540376,-1.4238697,1.9553851,-2.100796,-1.5705274,2.4504242,-0.052422103,0.045584626,-0.056601543,0.002763449,0.0052427384,-0.06737636,-0.21068975,0.11492168,-9.32781,0.8247004,47.687782,-1.2312499,-2.1707368,-3.1258545,-0.33423746,0.081191376,-0.27378023,28.625,29.6875,29.0,33.0,35.375,36.5
0.09005211,-0.96600693,-0.5405535,-0.35699898,-0.00070029683,0.036384806,-0.18746378,-0.3828013,-0.34812883,0.059972703,3.0787508,-0.6249333,8.331562e-05,-0.040861387,0.008587874,0.0020272979,-0.009020111,0.005823022,0.014967925,0.47533035,-1.4238337,1.9553007,-2.100784,-1.5705274,2.450291,-0.05626214,0.046345763,-0.05809158,0.0024267437,0.0052354936,-0.07120179,-0.17238252,0.019153614,-9.423578,0.800085,47.66987,-1.1257688,-2.2434835,-3.0430596,-0.3165837,0.06958608,-0.26604033,28.625,29.6875,29.0,33.0,35.375,36.5
0.092052,-0.76462,-0.31556815,-0.20220359,-0.008335649,0.04053144,-0.19053394,-0.382867,-0.34812894,0.059952572,3.078747,-0.62489134,0.00015015087,-0.040644012,0.007912717,0.0016980722,-0.0088183265,0.0048562945,0.02006633,0.47524682,-1.4236894,1.955182,-2.100784,-1.5704917,2.4501817,-0.055022668,0.04794268,-0.059297692,0.0029903604,0.005495932,-0.07506052,-0.36391866,0.15322891,-9.32781,0.87393653,47.713753,-1.231855,-2.1751328,-3.0816066,-0.32299608,0.08329013,-0.23440875,28.625,29.6875,29.0,33.0,35.375,36.5
0.09405193,-0.9569946,-0.53521144,-0.3918677,0.002339079,0.03872282,-0.1855932,-0.38299915,-0.3481051,0.059997253,3.0787053,-0.624765,-7.219685e-06,-0.041458286,0.008076513,0.0017003535,-0.0092954645,0.004137676,0.02242213,0.4750904,-1.423629,1.9550136,-2.1007955,-1.5705031,2.449952,-0.056537334,0.049169987,-0.060882527,0.0037663367,0.006257931,-0.07893055,-0.3256114,0.19153613,-9.251195,0.9231726,47.696735,-1.2992537,-2.178063,-3.0520532,-0.34423667,0.051135812,-0.15960029,28.625,29.6875,29.0,33.0,35.375,36.5
0.096052244,-1.4141346,-0.069244236,-0.60635716,-0.003513444,0.025995182,-0.1920683,-0.38304958,-0.34809825,0.05998751,3.0786853,-0.62474185,9.653086e-05,-0.043278746,0.0092036715,0.0017404527,-0.009711115,0.0039625186,0.021822618,0.4749929,-1.4235328,1.9549178,-2.1007597,-1.570443,2.4498425,-0.060491316,0.050355047,-0.062400848,0.004069568,0.006703173,-0.082285,-0.2681506,0.1340753,-9.308656,0.78217715,47.703007,-1.1916852,-2.211594,-3.0486736,-0.3400308,0.06442086,-0.12244135,28.625,29.6875,29.0,33.0,35.375,36.5
0.098052606,-1.2032425,-0.28599432,-0.37190124,-0.005346073,0.038901955,-0.18956897,-0.38312808,-0.34805787,0.059966348,3.0787578,-0.6246803,0.00011975922,-0.04404236,0.009401146,0.0016426484,-0.009303429,0.004112486,0.021136621,0.47487277,-1.4234005,1.9548095,-2.1007354,-1.5704798,2.4496748,-0.06124869,0.051581383,-0.06358785,0.004082676,0.006266484,-0.08235529,-0.30645782,0.17238252,-9.32781,0.7777002,47.691364,-1.2400124,-2.260802,-3.0226092,-0.33160147,0.072115846,-0.11508775,28.625,29.6875,29.0,33.0,35.375,36.5
0.10005206,-1.2017667,-0.5353354,-0.36254728,-0.009780445,0.046883993,-0.18763354,-0.38321656,-0.34803087,0.059957903,3.0787463,-0.6246776,0.00015748641,-0.04518584,0.00992786,0.0017112566,-0.009220988,0.0042562303,0.021843407,0.47472802,-1.4232804,1.9546889,-2.1007235,-1.5704559,2.44953,-0.06312732,0.052594062,-0.06497196,0.0043677483,0.0061252997,-0.084939785,-0.51714754,0.17238252,-9.32781,0.7620334,47.664497,-1.1891747,-2.1984324,-2.9954739,-0.32982302,0.056682914,-0.05873768,28.625,29.6875,29.0,33.0,35.375,36.5
0.102052204,-1.5186387,-0.81574315,-0.37170804,-0.00028043424,0.049655415,-0.18485305,-0.38332933,-0.3480414,0.059975196,3.0786936,-0.6244971,7.931292e-05,-0.046123724,0.01025445,0.0006117895,-0.008870056,0.0018883984,0.016424697,0.4746193,-1.4231589,1.9545215,-2.1007712,-1.5704192,2.4493153,-0.06505401,0.056263458,-0.066740505,0.0047337366,0.006900803,-0.081446886,-0.5554548,0.22984336,-9.423578,0.8537928,47.745995,-1.184877,-2.3661742,-3.057125,-0.32907486,0.06208831,-0.07515328,28.625,29.6875,29.0,33.0,35.375,36.5
0.104052074,-1.5286952,-0.29485402,-0.53757894,-0.004160218,0.04348201,-0.18161033,-0.38343638,-0.348007,0.059992395,3.0787072,-0.6244428,2.6068656e-05,-0.04692104,0.010202485,0.0024447674,-0.010926611,0.0046461853,0.0138163995,0.47447503,-1.423064,1.9543656,-2.100735,-1.5704426,2.4491355,-0.06604329,0.053256065,-0.067604795,0.005209481,0.007472133,-0.07982863,-0.36391866,0.076614454,-9.442732,0.7911258,47.684196,-1.2080139,-2.1533568,-3.0274947,-0.3331774,0.042119883,-0.09644404,28.625,29.6875,29.0,33.0,35.375,36.5
0.106052235,-1.1226531,-0.84213823,-0.41358903,0.013237103,0.04546188,-0.18501557,-0.38354918,-0.34797454,0.059994914,3.0786653,-0.624532,9.417662e-06,-0.04781371,0.010981071,0.0016122148,-0.009840319,0.00337383,0.011234156,0.47430646,-1.422943,1.9542216,-2.100735,-1.5704311,2.449028,-0.06797641,0.055673268,-0.06849422,0.005313237,0.0070884675,-0.07917803,-0.38307226,0.11492168,-9.500193,0.7351769,47.688675,-1.2024211,-2.1366804,-3.0148792,-0.33079565,0.048128266,-0.07127774,28.625,29.6875,29.0,33.0,35.375,36.5
0.108052395,-1.1780196,-0.56370234,-0.34247124,0.007461694,0.041534714,-0.17812704,-0.3836294,-0.347964,0.060011003,3.078671,-0.6244015,-5.9888498e-05,-0.048668798,0.011319467,0.0013940072,-0.009951761,0.0031668667,0.0047636875,0.47422186,-1.4228704,1.9541019,-2.100735,-1.570443,2.4488614,-0.06947421,0.05692187,-0.06937105,0.0050728573,0.007283147,-0.07420461,-0.40222588,0.11492168,-9.481039,0.81351066,47.679718,-1.2058959,-2.222619,-3.0317085,-0.3274728,0.054871447,-0.16469537,28.625,29.6875,29.0,33.0,35.375,36.5
0.11005195,-0.8225801,-0.15756626,-0.35148895,-0.0036858867,0.045711,-0.19338666,-0.3837167,-0.3479316,0.06001463,3.078645,-0.62441754,1.6454307e-05,-0.04936752,0.011482394,0.00023439618,-0.009286302,0.0011013558,0.0026018529,0.47405335,-1.4227731,1.9539689,-2.1006753,-1.5703954,2.4487062,-0.07061265,0.060529985,-0.07085501,0.0050935266,0.0076301163,-0.07318054,-0.2681506,0.076614454,-9.423578,0.77545905,47.690468,-1.2357148,-2.3262217,-2.9810982,-0.33054066,0.044375993,-0.19619605,28.625,29.6875,28.9375,33.0,35.375,36.5
0.11205272,-1.1661558,-0.055963613,-0.64294404,0.0041497303,0.031233497,-0.18667704,-0.38383338,-0.34790793,0.059992284,3.07862,-0.6244524,1.5530475e-05,-0.051101297,0.012881982,0.0014059204,-0.0105979545,0.0031789117,-0.002246451,0.473896,-1.4225937,1.9538258,-2.100723,-1.5703825,2.4485738,-0.074803814,0.058354434,-0.07103408,0.005002212,0.007850052,-0.07252387,-0.22984336,0.076614454,-9.481039,0.90527004,47.703007,-1.1021507,-2.1520767,-3.1706991,-0.32803994,0.04609605,-0.2164204,28.625,29.6875,28.9375,33.0,35.375,36.5
0.11405205,-1.3643647,-0.8319822,-0.65066767,0.022092056,0.022686983,-0.17075166,-0.3839231,-0.3478822,0.059996024,3.078621,-0.6243938,5.4657463e-05,-0.051754523,0.011740699,0.0011782426,-0.01028173,0.0029923865,-0.0009230784,0.47375262,-1.4224843,1.9536813,-2.1006753,-1.5703586,2.4483938,-0.07322881,0.06170948,-0.074436545,0.005363438,0.0076473886,-0.07226993,-0.3256114,-0.05746084,-9.5385,0.86945957,47.687782,-1.162698,-2.2787697,-3.0305939,-0.32968038,0.048413157,-0.25043365,28.625,29.6875,28.9375,33.0,35.375,36.5
0.11605201,-1.223078,-0.48746255,-0.49077964,0.011971846,0.027915418,-0.18613695,-0.38401783,-0.34786278,0.059993077,3.0785787,-0.6244254,7.772439e-05,-0.051329073,0.012988871,-0.00012456243,-0.008990316,0.00032457098,-0.0027762451,0.47360787,-1.4223641,1.9535507,-2.1006753,-1.5703224,2.4482741,-0.07508323,0.062495768,-0.07239943,0.005506714,0.0077214357,-0.07227214,-0.38307226,0.038307227,-9.442732,0.7911258,47.690468,-1.2166976,-2.2392573,-3.1563325,-0.32438743,0.046097897,-0.28268915,28.625,29.6875,28.9375,33.0,35.375,36.5
0.118052,-0.52580464,0.21990256,-0.37097004,0.0029095893,0.051004857,-0.19642831,-0.38409692,-0.3478393,0.059972573,3.0786102,-0.6244146,0.00016476976,-0.053364854,0.015155241,-0.00057139224,-0.008613205,-0.00040545894,-0.007822437,0.47348595,-1.4222075,1.9534076,-2.1006277,-1.5703105,2.4481416,-0.080770925,0.063682914,-0.07274048,0.005484343,0.007714079,-0.07291376,-0.34476504,0.019153614,-9.289502,0.8224646,47.698532,-1.0853763,-2.3029966,-3.2508707,-0.3357848,0.040438537,-0.31086248,28.625,29.6875,28.9375,33.0,35.375,36.5
0.12005246,-1.2606575,-0.44116557,-0.6161272,0.016275607,0.032666266,-0.18151048,-0.38425314,-0.34779444,0.060014267,3.0785434,-0.6245145,-4.5299545e-05,-0.05512922,0.013108636,0.0012673489,-0.011070292,0.0034934022,-0.005303971,0.4732946,-1.4221352,1.9532379,-2.100663,-1.5703586,2.4480212,-0.078987114,0.0646689,-0.07799669,0.0051610162,0.008122362,-0.07364507,-0.17238252,0.038307227,-9.442732,0.7709874,47.683304,-1.1876295,-2.2715266,-3.04991,-0.32801527,0.04622961,-0.3489625,28.625,29.6875,28.9375,33.0,35.375,36.5
0.12205265,-1.1603826,-0.41989306,-0.67261297,0.013853196,0.031526443,-0.18005715,-0.38432223,-0.34777254,0.059978597,3.0785801,-0.624409,0.00010599921,-0.055236224,0.015162247,1.08688276e-07,-0.009713158,0.0009162364,-0.009214322,0.47316122,-1.4219667,1.9531187,-2.1006277,-1.5703105,2.4478173,-0.08269131,0.06506771,-0.07559658,0.005279289,0.008089005,-0.07344074,-0.30645782,0.038307227,-9.442732,0.7911258,47.689575,-1.0430255,-2.2424154,-3.230451,-0.30198067,0.03307762,-0.3817624,28.625,29.6875,28.9375,33.0,35.375,36.5
0.12405175,-1.1966991,-0.074286915,-0.3473995,0.0002639454,0.031244695,-0.18160264,-0.38446814,-0.34774792,0.060009375,3.0784962,-0.62443066,1.3529276e-05,-0.056413103,0.015646407,0.00013810412,-0.009684324,0.0009776998,-0.010306301,0.47296867,-1.4218583,1.952927,-2.100639,-1.5702866,2.447649,-0.08456417,0.06613976,-0.07727226,0.005845129,0.008041174,-0.07421992,-0.36391866,-0.05746084,-9.461885,0.9164598,47.674347,-1.0507187,-2.1937954,-3.2029676,-0.30953714,0.043231614,-0.4146685,28.625,29.6875,28.9375,33.0,35.375,36.5
0.12605168,-1.0236814,-0.4770002,-0.5261204,0.012057041,0.033804983,-0.18149044,-0.38458696,-0.3477249,0.060013182,3.0784302,-0.6245332,4.8072536e-05,-0.05696058,0.016242582,-0.00010848791,-0.009314932,0.00016420607,-0.010114628,0.47278804,-1.421714,1.9527477,-2.1006148,-1.5702385,2.4475408,-0.08612364,0.06700153,-0.07784119,0.0064503225,0.008085087,-0.07597075,-0.2681506,0.019153614,-9.481039,0.8605109,47.694054,-0.95784754,-2.1687355,-3.251161,-0.34375376,0.037484974,-0.45481193,28.625,29.6875,28.9375,33.0,35.375,36.5
0.1280527,-1.2771631,-0.10513629,-0.5179499,-0.0027151918,0.037929837,-0.18437353,-0.38470423,-0.34769467,0.060015183,3.078414,-0.62449116,3.103746e-05,-0.05784281,0.016558062,9.199084e-05,-0.009556981,0.00047476133,-0.009965982,0.47261947,-1.4215815,1.9525918,-2.1006148,-1.5702266,2.447348,-0.08751159,0.067527525,-0.07895523,0.0066542984,0.008160254,-0.07750667,-0.38307226,0.019153614,-9.404425,0.7329411,47.686886,-0.97834873,-2.1924162,-3.3033428,-0.32667357,0.025764965,-0.4779091,28.625,29.6875,28.9375,33.0,35.375,36.5
0.13005182,-1.7166842,-0.6122744,-0.3320035,0.0127394,0.032523487,-0.1811016,-0.38482505,-0.34764588,0.060010735,3.0783794,-0.6246141,4.3312615e-05,-0.05877839,0.017226238,-0.0001192121,-0.0094555495,0.00040335636,-0.0050005815,0.47241482,-1.4214492,1.9524478,-2.1006029,-1.5702146,2.4472246,-0.08948666,0.06845578,-0.07947682,0.0063629644,0.008103513,-0.08444663,-0.45968673,0.0,-9.385271,0.8560339,47.682407,-0.94316864,-2.122564,-3.3559585,-0.3443161,0.041066185,-0.4540132,28.625,29.6875,28.9375,33.0,35.375,36.5
0.13205183,-1.9804757,-0.007776568,-0.6553574,0.0059334366,0.036293115,-0.18817824,-0.38493815,-0.3476109,0.06002473,3.0783658,-0.6245544,5.410977e-05,-0.05945647,0.018053176,-0.00057878013,-0.009749719,-0.0007260618,-0.004276464,0.47223404,-1.4213408,1.9522809,-2.1005547,-1.5701908,2.4470084,-0.09204958,0.06931284,-0.079401076,0.0063042245,0.008881926,-0.08773441,-0.38307226,0.0,-9.404425,0.88289046,47.71823,-0.9417907,-2.0970771,-3.4469142,-0.325157,0.016983464,-0.46629003,28.625,29.6875,28.9375,33.0,35.375,36.5
0.13405189,-1.4684272,-0.46504018,-0.5692041,0.015196075,0.0504711,-0.18639894,-0.3850584,-0.3475624,0.060024716,3.0783954,-0.6244978,3.0502753e-05,-0.061323076,0.018041138,0.0005992039,-0.010830802,0.0013290385,0.0027620236,0.4720534,-1.4212084,1.952124,-2.1005309,-1.5702142,2.4467888,-0.09371967,0.06962408,-0.08258077,0.006853699,0.008907981,-0.096441515,-0.3256114,0.038307227,-9.385271,0.85826975,47.69763,-0.84090924,-2.0840027,-3.2419095,-0.32360798,0.010294018,-0.4130633,28.625,29.6875,28.9375,33.0,35.375,36.5
0.13605186,-1.3503735,-0.30693147,-0.50681984,0.0036797926,0.05273478,-0.18528287,-0.38516936,-0.34752443,0.060001165,3.078411,-0.62453663,7.565182e-05,-0.06113414,0.019143265,-0.00071267725,-0.009128925,-0.00089802936,0.0069775875,0.47188511,-1.4210279,1.9519686,-2.100519,-1.5702146,2.4466429,-0.09515274,0.07103803,-0.081210844,0.0068326974,0.008406236,-0.10209035,-0.30645782,0.038307227,-9.385271,0.8224646,47.698532,-0.8603209,-1.9845127,-3.5261078,-0.33322626,0.017931234,-0.326595,28.625,29.6875,28.9375,33.0,35.375,36.5
0.13805193,-0.80612475,-0.034848407,-0.48372287,-0.0005190598,0.062029637,-0.19367687,-0.3853172,-0.3474909,0.06002726,3.078336,-0.6245002,7.2643024e-06,-0.064145625,0.01956123,0.00091889984,-0.010807649,0.0027673256,0.010837596,0.47166774,-1.4209197,1.9517878,-2.1005309,-1.5701789,2.4464123,-0.09849215,0.071093515,-0.0849237,0.006471424,0.008239151,-0.10928698,-0.4213795,0.05746084,-9.385271,0.8403672,47.703903,-0.79541373,-2.0421052,-3.466999,-0.3390835,0.019896127,-0.27477103,28.625,29.6875,28.9375,33.0,35.375,36.5
0.14005227,-1.1668764,-0.07559736,-0.59465516,0.0047090757,0.053103432,-0.18671001,-0.38546762,-0.34744912,0.060026392,3.0783575,-0.62444335,-2.6366558e-06,-0.06371671,0.018853161,-0.00066615193,-0.009848331,0.00017539275,0.017088594,0.47146428,-1.4207262,1.9515604,-2.1004956,-1.5701908,2.4461708,-0.0970204,0.07503982,-0.08574906,0.006096636,0.008562047,-0.11406553,-0.36391866,0.019153614,-9.423578,0.78888994,47.666286,-0.8516018,-2.1302044,-3.383195,-0.32142854,0.01583183,-0.19242057,28.625,29.6875,28.9375,33.0,35.375,36.5
0.14205238,-1.6440482,-0.31428623,-0.5138039,0.01230337,0.042799827,-0.18985517,-0.38559514,-0.34741938,0.060033087,3.078312,-0.62433684,-4.033414e-05,-0.06538924,0.019160286,0.0016093506,-0.011635582,0.004327033,0.017873107,0.47127196,-1.4206071,1.9514169,-2.1005309,-1.5701545,2.4459178,-0.09886632,0.07192814,-0.08746427,0.006421095,0.008275322,-0.116694875,-0.38307226,0.11492168,-9.3661175,0.8247004,47.699425,-0.92989373,-1.9576852,-3.4252124,-0.327088,0.023286682,-0.15286468,28.625,29.6875,28.9375,33.0,35.375,36.5
0.1440525,-1.345645,-0.10784316,-0.5923205,0.011828175,0.050067507,-0.19661689,-0.3857071,-0.34737265,0.060030244,3.078336,-0.6242458,1.0064683e-06,-0.06600256,0.019021232,0.0012190721,-0.011546563,0.0030886936,0.017640103,0.47107947,-1.4204743,1.9512604,-2.1004832,-1.5701426,2.4456656,-0.09945944,0.07426856,-0.089439064,0.007200787,0.008754632,-0.11705454,-0.38307226,0.1340753,-9.461885,0.8717007,47.678825,-0.7756432,-1.8148495,-3.3992534,-0.3397581,0.027078351,-0.12762888,28.625,29.6875,28.9375,33.0,35.375,36.5
0.14605246,-1.4905664,-0.07042382,-0.84298617,0.0065754144,0.04155142,-0.18695888,-0.3858425,-0.3473561,0.06005427,3.0782683,-0.6241949,3.3841798e-06,-0.06591915,0.018643068,0.00034259722,-0.010977336,0.001276495,0.014799898,0.4708878,-1.420341,1.9510449,-2.1004474,-1.5700821,2.4454508,-0.09888434,0.076879404,-0.090513535,0.007543483,0.0090735,-0.113638304,-0.4213795,0.1340753,-9.634268,0.7866488,47.70032,-1.0446682,-2.0780468,-3.4011881,-0.35126364,0.015579008,-0.11895835,28.625,29.6875,28.9375,33.0,35.375,36.5
0.14805262,-1.638864,-0.51078236,-0.7605736,-0.0017210928,0.035835903,-0.16971268,-0.38597187,-0.3472983,0.060043287,3.0783012,-0.62416524,-5.524278e-06,-0.06699302,0.018703429,0.0014796368,-0.012260928,0.0032019445,0.010608709,0.47068337,-1.4201854,1.950889,-2.100435,-1.5701064,2.4452238,-0.10010589,0.0757756,-0.09189998,0.00773223,0.009340449,-0.110668615,-0.36391866,0.21068975,-9.519346,0.7351769,47.66987,-1.002742,-1.7528985,-3.3746023,-0.3332538,0.019499395,-0.15973407,28.625,29.6875,28.9375,33.0,35.375,36.5
0.15005165,-1.3872733,-1.2361664,-0.9891645,0.003442142,0.03520806,-0.17844187,-0.3860992,-0.34724602,0.06001787,3.078324,-0.6241551,6.577439e-05,-0.06792091,0.018706877,0.0006451616,-0.011458377,0.0022355597,0.0032856727,0.4704672,-1.4199921,1.9507202,-2.1004112,-1.5700945,2.4449985,-0.10073637,0.079190366,-0.09387024,0.007513879,0.009052453,-0.10397467,-0.24899697,0.15322891,-9.576807,0.8224646,47.695843,-1.0190918,-1.8315799,-3.37923,-0.34607238,0.015123202,-0.23618662,28.625,29.6875,28.9375,33.0,35.375,36.5
0.15205188,-0.8947243,-0.66627485,-0.96133345,-0.02270781,0.038140737,-0.18794559,-0.3862562,-0.34720638,0.060042232,3.0782447,-0.62419516,-1.151844e-05,-0.06876287,0.018999321,0.00061627367,-0.010611242,0.0027748758,0.0037921024,0.47023895,-1.4198713,1.950529,-2.1004226,-1.5700706,2.4448054,-0.10133709,0.08036708,-0.095167734,0.0075465525,0.0080608055,-0.10507926,-0.24899697,0.15322891,-9.615114,0.900793,47.701214,-1.1310163,-1.8868889,-3.4053328,-0.35257307,0.04400907,-0.2742983,28.625,29.6875,28.9375,33.0,35.375,36.5
0.15405215,-0.7225796,-1.0446789,-0.7403545,-0.028644526,0.034723498,-0.18143544,-0.38638243,-0.3471692,0.060030196,3.0782735,-0.6241643,3.285004e-05,-0.070084825,0.019246759,0.0009425812,-0.011315036,0.0036959301,-6.721395e-05,0.47005838,-1.419679,1.9503254,-2.1003754,-1.5700706,2.444602,-0.10307265,0.08112002,-0.09671002,0.007195579,0.008263621,-0.1029551,-0.1340753,0.2681506,-9.519346,0.8784135,47.689575,-1.0993062,-1.8325493,-3.288609,-0.3477968,0.017706813,-0.2924825,28.625,29.6875,28.9375,33.0,35.375,36.5
0.1560522,-0.6703571,-1.3744148,-0.9113271,-0.013376884,0.018343428,-0.18450648,-0.3865518,-0.34712702,0.060038652,3.078218,-0.6242109,-5.526207e-05,-0.0715894,0.019150278,0.0016843413,-0.012281149,0.005586152,-0.00059337774,0.46982995,-1.4195105,1.9501213,-2.1004117,-1.5700706,2.4444098,-0.104226135,0.081645295,-0.09891743,0.006757193,0.008273115,-0.103580624,-0.038307227,0.30645782,-9.615114,0.83365434,47.688675,-1.0839533,-1.872689,-3.3223314,-0.3215355,0.028847363,-0.3163616,28.625,29.6875,28.9375,33.0,35.375,36.5
0.15805207,-0.53548855,-1.2060835,-0.97130215,-0.019535765,0.0063391463,-0.18248367,-0.38668528,-0.34708816,0.06005565,3.078192,-0.62420785,-4.6307057e-05,-0.0732723,0.020598087,0.0011381106,-0.011530491,0.0045314305,-0.005198821,0.4696246,-1.4193778,1.9499167,-2.1003516,-1.5700468,2.444206,-0.108157925,0.08379985,-0.10025561,0.007225604,0.00808227,-0.1029058,-0.05746084,0.3256114,-9.595961,0.84484416,47.66987,-1.0381494,-1.8418941,-3.3522716,-0.32700512,0.05082566,-0.34821606,28.625,29.6875,28.9375,33.0,35.375,36.5
0.16005197,-0.58821344,-1.2626401,-0.90704626,-0.018164454,-0.00020289222,-0.18191001,-0.38681915,-0.34704655,0.060031828,3.0782201,-0.6240961,-3.8858047e-06,-0.07364149,0.019152645,0.0014994285,-0.012317208,0.0055880873,-0.0021854236,0.4694215,-1.419173,1.9497365,-2.1003516,-1.5700344,2.4439297,-0.10603197,0.08537211,-0.102832444,0.006934631,0.008299413,-0.10379213,0.019153614,0.22984336,-9.500193,0.81351066,47.704796,-1.1635166,-1.8699182,-3.236479,-0.3385396,0.04330661,-0.39273614,28.625,29.6875,28.9375,33.0,35.375,36.5
0.16205212,-0.4113164,-1.1186415,-1.0063691,-0.020512037,0.0005297335,-0.18478294,-0.3869723,-0.34700617,0.060035817,3.0781784,-0.62414676,-3.3757027e-05,-0.076035485,0.020696435,0.00015332086,-0.011935748,0.0031842778,-0.004395665,0.46920353,-1.4190032,1.9495329,-2.1003516,-1.5700225,2.4437487,-0.11137781,0.09003153,-0.10509559,0.006857125,0.00904843,-0.10692635,0.05746084,0.22984336,-9.519346,0.82694155,47.664497,-1.0289669,-2.0048308,-3.2599783,-0.3356276,0.052399583,-0.3870439,28.625,29.6875,28.9375,33.0,35.375,36.5
0.16405231,-0.33197957,-1.1849039,-1.039221,-0.015169873,0.010664874,-0.18705204,-0.38715434,-0.34696886,0.060071908,3.078089,-0.6241619,-0.00016922565,-0.07616288,0.019006744,0.0016929458,-0.013749051,0.0061472016,0.0033267098,0.4689647,-1.4188715,1.9493049,-2.1003754,-1.5700101,2.4435308,-0.10863178,0.08880062,-0.10717471,0.006710107,0.009339868,-0.111901045,0.05746084,0.3256114,-9.5385,0.78217715,47.694946,-1.16033,-1.9475996,-3.1063917,-0.32380617,0.045106575,-0.3562858,28.625,29.6875,28.9375,33.0,35.375,36.5
0.16605245,-0.8905695,-1.3224533,-0.8951164,-0.017247833,0.014103938,-0.17952888,-0.3872925,-0.34695464,0.060070086,3.078069,-0.6240779,-0.00011990094,-0.07778727,0.019699233,0.00078939146,-0.012831629,0.0048048776,0.00751787,0.4687837,-1.4186659,1.9490651,-2.1003392,-1.5699624,2.4433,-0.111152224,0.09265118,-0.10958615,0.0068952437,0.009129088,-0.11861078,0.0,0.40222588,-9.461885,0.800085,47.655537,-1.1222774,-1.9897954,-3.179143,-0.3221323,0.045739587,-0.2973536,28.625,29.6875,28.9375,33.0,35.375,36.5
0.16805235,-0.4488078,-1.3902327,-0.77994174,-0.017582135,0.029352281,-0.18528228,-0.38746125,-0.34689856,0.060087662,3.0780554,-0.62403136,-0.0001630201,-0.07771315,0.01963448,0.00058774307,-0.013742302,0.003232858,0.01580763,0.46853146,-1.4185096,1.9488376,-2.1003034,-1.5699619,2.4430206,-0.11191141,0.09321156,-0.10996673,0.0077095954,0.010665191,-0.12766057,0.0,0.34476504,-9.481039,0.8157518,47.69763,-1.1972814,-2.0656943,-3.0425956,-0.3266899,0.034517974,-0.23835507,28.625,29.6875,28.9375,33.0,35.375,36.5
0.17005253,-0.617863,-1.5685683,-0.6517391,-0.02492799,0.030467091,-0.18678226,-0.38761994,-0.34686863,0.060104955,3.0780213,-0.6239269,-0.00023850595,-0.0789467,0.019784044,0.00088553864,-0.0139156375,0.0040158737,0.018450687,0.46832708,-1.4183533,1.9486216,-2.1003149,-1.5699495,2.4427555,-0.11312143,0.09430199,-0.11193402,0.007816618,0.010476126,-0.13151167,-0.019153614,0.36391866,-9.461885,0.7777002,47.698532,-1.1447915,-1.9678051,-3.1308565,-0.3339488,0.025522653,-0.16465859,28.625,29.6875,28.9375,33.0,35.375,36.5
0.17205258,-1.2273829,-1.335783,-0.8660659,-0.024988454,0.013132074,-0.17931567,-0.3877591,-0.34681863,0.060091544,3.0780163,-0.62386686,-0.0001217291,-0.080286875,0.020027028,0.0010650007,-0.014229969,0.004546336,0.020757984,0.46807468,-1.4181604,1.9484175,-2.1002557,-1.5698904,2.4424663,-0.114738524,0.09563769,-0.1138988,0.007843692,0.010511929,-0.13543548,-0.05746084,0.4213795,-9.423578,0.8940802,47.698532,-1.1695157,-1.9565177,-3.0838537,-0.3252408,0.055845983,-0.10445112,28.625,29.6875,28.9375,33.0,35.375,36.5
0.17405257,-1.2388037,-0.9832332,-0.6754577,-0.024108049,0.015465217,-0.17601086,-0.3879446,-0.34678674,0.0600944,3.078,-0.6238064,-0.00020529023,-0.0811291,0.020433016,0.00069828803,-0.014170657,0.004589765,0.018584646,0.46785814,-1.4179318,1.9481543,-2.10028,-1.5699018,2.4422143,-0.11612052,0.09695437,-0.114405416,0.007022121,0.010446071,-0.13464291,-0.1340753,0.3256114,-9.557653,0.8940802,47.695843,-1.1949676,-2.0015702,-3.0915916,-0.3201837,0.035011794,-0.078868866,28.625,29.6875,28.9375,33.0,35.375,36.5
0.17605245,-1.6182969,-1.4882628,-0.45300296,-0.013330108,0.015647443,-0.16974522,-0.3880854,-0.3467651,0.060111176,3.077964,-0.62370473,-0.0002557095,-0.081749,0.020800702,0.0008733402,-0.0141318,0.0049327156,0.014821489,0.4676778,-1.4177877,1.9479507,-2.10028,-1.5698785,2.441975,-0.1171691,0.09711831,-0.115049854,0.0072177732,0.010263567,-0.13192733,-0.34476507,0.2681506,-9.423578,0.80456203,47.709274,-1.1630023,-1.8838339,-3.0588365,-0.3196198,0.04094925,-0.09715392,28.625,29.6875,28.9375,33.0,35.375,36.5
0.17805247,-1.2945845,-1.0626533,-0.25335705,-0.012476193,0.0421902,-0.18813884,-0.38827458,-0.3467253,0.06012387,3.0779226,-0.6236613,-0.00025994433,-0.0827442,0.020895004,0.0007834019,-0.014633801,0.004359756,0.0088561,0.4674132,-1.4175708,1.9476646,-2.1002433,-1.5698417,2.4416888,-0.118628226,0.09884216,-0.116946176,0.007677133,0.010970257,-0.12742013,-0.45968673,0.21068975,-9.232041,0.8493211,47.661808,-1.1237309,-1.9601866,-3.2181091,-0.3202095,0.048235297,-0.13711995,28.625,29.6875,28.9375,33.0,35.375,36.5
0.18005247,-1.1473407,-0.1683238,-0.24071525,-0.0012437907,0.052776374,-0.18832654,-0.38841176,-0.34667897,0.060114056,3.0779114,-0.623645,-0.00019585413,-0.08384632,0.022162639,8.8843284e-05,-0.014349888,0.003072655,0.001270829,0.4671842,-1.4173901,1.9474715,-2.1002076,-1.5698055,2.441451,-0.122027814,0.100394875,-0.11714274,0.007600638,0.011291892,-0.1232346,-0.5363012,0.038307227,-9.193734,0.7620334,47.677036,-1.2560782,-1.8777816,-3.1985564,-0.30535167,0.036740653,-0.1962662,28.625,29.6875,28.9375,33.0,35.375,36.5
0.18205264,-1.8015907,-0.14737238,-0.041756507,0.027323095,0.049269777,-0.17998457,-0.38859472,-0.34664503,0.060120728,3.0778673,-0.62361836,-0.00023115858,-0.08475762,0.021992741,0.00038732297,-0.014712464,0.0040796394,-0.0035691233,0.466944,-1.4171735,1.9472078,-2.100208,-1.5697817,2.4412,-0.122404076,0.10125122,-0.11875794,0.0072995643,0.01116243,-0.11876937,-0.5554548,0.019153614,-9.155427,0.8918391,47.67614,-1.1173918,-1.9271536,-3.1586022,-0.28935295,0.03227269,-0.25310758,28.625,29.6875,28.9375,33.0,35.375,36.5
0.1840526,-1.3130349,0.16869685,0.08003248,0.03601513,0.06842676,-0.18766248,-0.38877127,-0.34659845,0.060130734,3.0778275,-0.62363064,-0.0003035763,-0.086165234,0.023207104,5.4752916e-05,-0.014612552,0.003661667,-0.007516099,0.46670273,-1.4169929,1.9469804,-2.10022,-1.5697817,2.4409716,-0.12583186,0.102488965,-0.11939583,0.0071199,0.011268444,-0.11824909,-0.51714754,-0.11492168,-9.078813,0.8672237,47.728977,-1.0689352,-1.9436553,-3.1893516,-0.28093562,0.018609567,-0.3072372,28.625,29.6875,28.9375,33.0,35.375,36.5
0.18605179,-1.3615637,0.66969335,0.20464477,0.04212277,0.05985371,-0.1784418,-0.38896027,-0.3465739,0.0601402,3.0777586,-0.6236199,-0.0003810569,-0.086714044,0.024275132,-0.0020014823,-0.012443262,0.00016685847,-0.013606752,0.46647403,-1.4167752,1.9467171,-2.1002562,-1.5697578,2.440745,-0.12792642,0.10692096,-0.11984017,0.0072326367,0.010909919,-0.11425107,-0.68953013,-0.24899697,-9.059659,0.7866488,47.66808,-0.96426153,-2.0856683,-3.2464085,-0.28009292,0.009436004,-0.3811733,28.625,29.6875,28.9375,33.0,35.375,36.5
0.1880517,-1.4545151,0.5377991,0.21291366,0.057914622,0.05044791,-0.18175225,-0.38913476,-0.34652606,0.0601538,3.0777037,-0.62370545,-0.00036171344,-0.088339925,0.024622012,0.00060619053,-0.014771711,0.0048089735,-0.0147654675,0.46620926,-1.4165845,1.9464535,-2.1001961,-1.5697216,2.4405408,-0.12993295,0.10284531,-0.12117895,0.0074616056,0.010904683,-0.115098834,-0.61291564,-0.24899697,-9.040505,0.78888994,47.694946,-0.9448077,-1.8368165,-3.2351093,-0.25459963,0.03826176,-0.4350521,28.625,29.6875,28.9375,33.0,35.375,36.5
0.1900518,-1.7060957,1.0170286,0.38696906,0.049551968,0.042688467,-0.18195628,-0.38929433,-0.34645313,0.06011436,3.0777164,-0.6237456,-0.00026019572,-0.08818271,0.024884047,-0.0020491958,-0.012096155,0.00031903855,-0.014014444,0.46592155,-1.4163421,1.9462622,-2.1001837,-1.5696977,2.4402766,-0.12995973,0.10872035,-0.12191268,0.007541688,0.010526535,-0.11587591,-0.57460845,-0.36391866,-9.078813,0.8403672,47.71286,-1.0010211,-1.9415188,-3.2933419,-0.261174,0.030942794,-0.4842292,28.625,29.6875,28.9375,33.0,35.375,36.5
0.19205187,-1.2535843,0.9766434,0.2791981,0.057007726,0.057608273,-0.18304452,-0.38946623,-0.3463904,0.06011644,3.0776742,-0.6237721,-0.00024105875,-0.08948047,0.02505816,-4.4411496e-05,-0.013187732,0.003929895,-0.009514791,0.46563327,-1.416163,1.9460462,-2.1001594,-1.569662,2.4400103,-0.13095598,0.10610552,-0.12364837,0.008190538,0.009886713,-0.12137109,-0.61291564,-0.28730422,-9.059659,0.79560274,47.721813,-1.1230333,-1.8809209,-3.3591158,-0.25073937,0.03061366,-0.47926393,28.625,29.6875,28.9375,33.0,35.375,36.5
0.19405195,-2.0124943,0.5938553,0.033896957,0.06717658,0.051211838,-0.17634726,-0.38965777,-0.34638077,0.060128782,3.0776105,-0.62373394,-0.00031890473,-0.08902912,0.025130352,-0.0009936981,-0.01166917,0.0015643919,-0.00012909686,0.46542925,-1.4159222,1.9457468,-2.1001828,-1.5696381,2.4397907,-0.13044205,0.10816425,-0.12416016,0.009453788,0.00961415,-0.13024166,-0.53630114,-0.2873042,-9.059659,0.8605109,47.65464,-1.0642656,-1.8613999,-3.3406844,-0.25215924,0.0414681,-0.43450415,28.625,29.6875,28.9375,33.0,35.375,36.5
0.19605182,-1.4375074,0.7414468,-0.01730975,0.0570238,0.07485886,-0.18779142,-0.389831,-0.34631634,0.060134914,3.077624,-0.6236565,-0.00029169343,-0.09104468,0.02601682,-0.0007516092,-0.012744658,0.0016266418,0.0056662583,0.46515206,-1.4157294,1.945495,-2.1001112,-1.5696257,2.4394636,-0.1343592,0.10949309,-0.12632981,0.009767165,0.010553585,-0.13995355,-0.53630114,-0.21068975,-9.059659,0.8672237,47.698532,-1.1963063,-1.9234003,-3.3876748,-0.2609282,0.02725903,-0.36887652,28.625,29.6875,28.9375,33.0,35.375,36.5
0.19805177,-1.6624234,-0.14856184,-0.33315238,0.055836745,0.05682103,-0.17637187,-0.39004654,-0.34627163,0.06015652,3.077542,-0.6237103,-0.00036938966,-0.09121543,0.025153596,-0.0011423785,-0.01166311,0.0011807402,0.0159757,0.46486476,-1.4155121,1.945196,-2.1001112,-1.5696019,2.4392204,-0.13242893,0.11228707,-0.12880458,0.010349186,0.009805392,-0.14833014,-0.3256114,-0.19153613,-9.346964,0.82694155,47.684196,-1.1844369,-1.9264816,-3.3595643,-0.2637088,0.03145147,-0.25512135,28.625,29.6875,28.9375,33.0,35.375,36.5
0.20005165,-1.4826239,-0.17389973,-0.49401182,0.025271589,0.041758496,-0.18115337,-0.3902084,-0.34619233,0.06012358,3.0775943,-0.6236612,-0.00031928628,-0.091076694,0.027025292,-0.002365566,-0.00919251,-0.0011807233,0.019866413,0.46458784,-1.4152838,1.9450058,-2.1000984,-1.5696148,2.4389064,-0.13482621,0.11294223,-0.12696038,0.01107937,0.008661161,-0.15461913,-0.4213795,-0.05746084,-9.346964,0.8291774,47.647476,-1.1704352,-1.9269271,-3.4470286,-0.2642967,0.059713237,-0.20894201,28.625,29.6875,28.9375,33.0,35.375,36.5
0.20205182,-1.5169177,-0.65955657,-0.60052127,-0.00234966,0.038197704,-0.1903864,-0.3903941,-0.34612286,0.060127985,3.0776217,-0.62359166,-0.0002924462,-0.09422447,0.026850455,-0.0003361292,-0.011023113,0.0029158827,0.017300822,0.46429893,-1.4150673,1.9447278,-2.100015,-1.5696148,2.4385707,-0.13712485,0.11342063,-0.13223414,0.011395151,0.008450066,-0.15434976,-0.3256114,0.0,-9.346964,0.87617236,47.68599,-1.0993874,-1.8647538,-3.2051172,-0.26591027,0.07706665,-0.16016872,28.625,29.6875,28.9375,33.0,35.375,36.5
0.20405188,-0.6994952,-0.51868993,-0.9574049,-0.01381546,0.042516347,-0.1853667,-0.3905591,-0.34605038,0.06009164,3.077671,-0.6235447,-0.0002139784,-0.09373426,0.027401205,-0.0019657647,-0.008854764,-0.00045328873,0.014713007,0.46402323,-1.4148139,1.9445137,-2.0999906,-1.5696148,2.4382596,-0.13732222,0.11628563,-0.13205506,0.012336028,0.008011355,-0.15195948,-0.2873042,0.11492168,-9.481039,0.8560339,47.681515,-1.2053039,-2.0536451,-3.3862987,-0.27544466,0.10137479,-0.17028464,28.625,29.6875,28.9375,33.0,35.375,36.5
0.206052,-0.9757619,-1.0580685,-0.99080396,-0.016846012,0.025575683,-0.18493532,-0.3907545,-0.34601256,0.060113296,3.0776088,-0.6235171,-0.00025441733,-0.095328264,0.027291814,-0.00073299726,-0.009999685,0.0022609893,0.007390334,0.46375874,-1.4146104,1.9442247,-2.0999663,-1.5695785,2.437986,-0.13835447,0.11594845,-0.13445465,0.012134909,0.007819313,-0.1456674,-0.26815057,0.32561144,-9.557653,0.88960326,47.674347,-1.1964388,-1.7871228,-3.3043437,-0.28530276,0.10964775,-0.24513753,28.625,29.6875,28.9375,33.0,35.375,36.5
0.20805176,-0.9688798,-1.5533465,-1.1045439,-0.037857145,0.037978966,-0.17578048,-0.39093035,-0.34593004,0.060073942,3.0776737,-0.6235505,-0.00017280609,-0.096717946,0.025962407,4.552304e-06,-0.01219708,0.003982123,0.0050623254,0.46347082,-1.4143332,1.9439849,-2.099919,-1.5696019,2.4377108,-0.13792983,0.11770611,-0.13802674,0.011419242,0.008993054,-0.14291397,-0.28730422,0.36391866,-9.5385,0.83813137,47.68062,-1.2038836,-2.0372727,-3.192248,-0.29947937,0.10689144,-0.29513714,28.625,29.6875,28.9375,33.0,35.375,36.5
0.2100519,-0.6796549,-1.9071447,-1.337621,-0.040207256,0.038290747,-0.182019,-0.3911285,-0.345882,0.060072504,3.0776455,-0.6234896,-0.00019058133,-0.095636375,0.027228283,-0.0023902813,-0.010744843,-0.0009404266,0.0019698504,0.46319395,-1.4140921,1.9437107,-2.099919,-1.569578,2.4373996,-0.13972232,0.11985197,-0.13504267,0.011343375,0.009905463,-0.14161529,-0.15322891,0.47884035,-9.634268,0.9321212,47.684196,-1.1514659,-1.892519,-3.4572215,-0.2789612,0.10499059,-0.348311,28.625,29.6875,28.9375,33.0,35.375,36.5
0.21205185,-1.2358404,-2.0042899,-1.2852144,-0.06435216,0.030474776,-0.18251184,-0.39132905,-0.34582114,0.060086753,3.0776048,-0.623484,-0.00021184016,-0.09894461,0.028577464,-0.0016891625,-0.01185958,0.0008989944,-0.0042765373,0.46289247,-1.4138874,1.9434346,-2.0998833,-1.5695542,2.4371,-0.14508867,0.12131642,-0.13826212,0.010959643,0.010079016,-0.1407332,-0.095768064,0.5554548,-9.691729,0.9030289,47.677036,-1.1466482,-1.9790462,-3.2849245,-0.29101,0.12239295,-0.3762523,28.625,29.6875,28.9375,33.0,35.375,36.5
0.21405199,-0.8900882,-2.1240613,-1.2262318,-0.068082646,0.032140713,-0.18494177,-0.39153498,-0.34577078,0.060088493,3.077561,-0.6235304,-0.00021804807,-0.099637516,0.027710102,-0.0011640292,-0.012521833,0.0023779094,-0.0002857289,0.46260482,-1.413635,1.9431347,-2.0998595,-1.5695304,2.436847,-0.1440497,0.122244984,-0.14048561,0.010645392,0.010014222,-0.14368358,-0.076614454,0.59376204,-9.710882,0.95002913,47.70211,-1.2099696,-1.884456,-3.289051,-0.27981815,0.13559954,-0.3806609,28.625,29.6875,28.9375,33.0,35.375,36.5
0.21605188,-0.9800783,-2.3554864,-1.3558668,-0.05244751,0.020313073,-0.17919758,-0.39176536,-0.34572408,0.0601082,3.0775485,-0.62346804,-0.00035520506,-0.101223685,0.027689239,-0.00054218236,-0.014846398,0.003221795,0.0024917943,0.46233985,-1.4133824,1.942799,-2.09986,-1.5695652,2.436545,-0.14644113,0.12286296,-0.14256708,0.010313757,0.011732888,-0.14885123,0.019153614,0.61291564,-9.749189,0.78217715,47.716442,-1.1080396,-1.9012382,-3.2909758,-0.29140967,0.12245098,-0.37277412,28.625,29.6875,28.9375,33.0,35.375,36.5
0.218052,-0.9416476,-1.9235321,-1.3428683,-0.05101792,0.012631778,-0.18141614,-0.3919362,-0.34566766,0.060092703,3.0775056,-0.6234191,-0.00021614728,-0.10291666,0.028341478,-0.0005145359,-0.014885447,0.0040314514,0.0076836688,0.46202707,-1.4131536,1.9425601,-2.0998118,-1.5694698,2.436207,-0.14881532,0.12441261,-0.14432588,0.009808651,0.011407373,-0.15641652,0.05746084,0.53630114,-9.749189,0.8672237,47.704796,-1.028888,-1.8523011,-3.2463918,-0.27595502,0.14894025,-0.31852782,28.625,29.6875,28.9375,33.0,35.375,36.5
0.22005194,-0.8671588,-1.542734,-1.2049168,-0.0338379,0.0055121593,-0.18085241,-0.3921594,-0.34559494,0.060084727,3.0775418,-0.6234006,-0.0003043662,-0.10447261,0.028321074,0.00040495562,-0.016254602,0.006615641,0.015941147,0.46173894,-1.4128774,1.9422601,-2.0998123,-1.5695299,2.435903,-0.15012945,0.12425752,-0.14603658,0.008755142,0.0114930365,-0.165987,0.0,0.40222588,-9.595961,0.84708,47.674347,-0.9966497,-1.8100346,-3.1943388,-0.2586329,0.14633855,-0.2173908,28.625,29.6875,28.9375,33.0,35.375,36.5
0.22205201,-0.8458348,-1.545207,-1.2297198,-0.0062696654,0.00043845922,-0.17708245,-0.3923836,-0.34557623,0.0601082,3.0774112,-0.6233552,-0.0003020148,-0.10679121,0.029732108,-0.00019742544,-0.016436027,0.006140727,0.017987223,0.46143734,-1.4126244,1.9419125,-2.0998008,-1.5694212,2.4355898,-0.15483929,0.12704152,-0.14773498,0.008042407,0.0118873,-0.17274082,0.019153614,0.34476504,-9.653421,0.8672237,47.691364,-1.0007303,-1.9833624,-3.258326,-0.23246735,0.16087866,-0.12537026,28.625,29.6875,28.9375,33.0,35.375,36.5
0.22405201,-0.426589,-0.406546,-0.9264558,-0.003373562,0.018966181,-0.18738905,-0.3925781,-0.34550178,0.060093537,3.0774145,-0.62325853,-0.00030350592,-0.10632114,0.028745176,-0.00085345283,-0.016720682,0.0049521956,0.020747928,0.4611258,-1.4123956,1.9416851,-2.0998123,-1.5694093,2.4352176,-0.15310372,0.12901242,-0.14847031,0.00774882,0.012675755,-0.1737654,-0.038307227,0.19153613,-9.576807,0.8493211,47.675243,-1.065236,-1.8107733,-3.276324,-0.22430025,0.13373736,-0.063990146,28.625,29.6875,28.9375,33.0,35.375,36.5
0.22605199,-0.7596837,-0.30113062,-0.94426477,0.004217152,0.030840399,-0.17835163,-0.39280024,-0.34544954,0.060090836,3.0773714,-0.62329227,-0.00028081704,-0.106967464,0.029166183,-0.0010862438,-0.017430438,0.004212811,0.0145599395,0.46081325,-1.4121069,1.9413503,-2.0997765,-1.5693725,2.4349318,-0.15494657,0.12985823,-0.14894271,0.007723548,0.01363939,-0.16942011,-0.13407528,-0.076614454,-9.576807,0.84708,47.68062,-0.94498444,-2.0725753,-3.3774235,-0.21886188,0.13741848,-0.093896,28.625,29.6875,28.9375,33.0,35.375,36.5
0.22805192,-1.2356145,-0.027220896,-0.823811,0.014435473,0.034887474,-0.18412761,-0.39303645,-0.34542432,0.060117282,3.077294,-0.62316436,-0.00039229024,-0.108072005,0.029094722,-0.0018440488,-0.016598944,0.0026815962,0.008405557,0.46053693,-1.4118532,1.9410032,-2.0998008,-1.5693368,2.4345856,-0.15566899,0.13387652,-0.15207192,0.008578826,0.013586155,-0.16398466,-0.2873042,-0.11492168,-9.519346,0.87617236,47.687782,-0.9736825,-2.0703564,-3.3383563,-0.20407733,0.14439042,-0.11926715,28.625,29.6875,28.9375,33.0,35.375,36.5
0.23005196,-0.8535844,0.69288427,-0.45087743,0.012698164,0.06222296,-0.18432572,-0.39325386,-0.34533602,0.060118917,3.0772798,-0.6232022,-0.00040557035,-0.10708039,0.029651057,-0.0033496327,-0.015560995,-0.0008340194,0.002634511,0.46018872,-1.4116246,1.9407276,-2.099764,-1.5693368,2.434263,-0.1560943,0.1353302,-0.1504699,0.0091295745,0.014220219,-0.15863955,-0.38307226,-0.05746084,-9.423578,0.88289046,47.661808,-1.0264906,-2.066527,-3.3470979,-0.19860722,0.13387227,-0.25781024,28.625,29.6875,28.9375,33.0,35.375,36.5
0.23205197,-0.682625,0.69395155,-0.4467681,0.028845586,0.07112333,-0.18180454,-0.39346132,-0.34528905,0.06010332,3.0772088,-0.6232684,-0.00033495517,-0.108589835,0.029823136,-0.0026124371,-0.016189266,0.0007558968,-0.004394259,0.45987645,-1.4113361,1.9404277,-2.0997517,-1.5692648,2.4340012,-0.15754227,0.13579273,-0.15274805,0.009250501,0.01406717,-0.15305771,-0.47884035,-0.21068975,-9.404425,0.8873621,47.703903,-1.1122065,-2.1003835,-3.283244,-0.19744645,0.13208279,-0.29596075,28.625,29.6875,28.9375,33.0,35.375,36.5
0.23405196,-1.2700236,0.35047013,-0.4623877,0.043182403,0.060090147,-0.17598286,-0.393687,-0.34523416,0.060115978,3.0772152,-0.6230998,-0.0004197613,-0.1093214,0.030113524,-0.0027699734,-0.01610235,0.00042202914,-0.0093775885,0.459588,-1.4110835,1.9401048,-2.0997403,-1.5692767,2.4336069,-0.15865713,0.1370438,-0.15392308,0.009509073,0.014141291,-0.14918779,-0.40222588,-0.22984336,-9.404425,0.87617236,47.689575,-1.0827346,-2.0809612,-3.426771,-0.18436232,0.14776334,-0.39187223,28.625,29.6875,28.9375,33.0,35.375,36.5
0.23605186,-1.2630234,0.7255209,-0.29800832,0.031662244,0.056803413,-0.17636871,-0.39388925,-0.34518006,0.060105644,3.0771577,-0.6231471,-0.00036045877,-0.11025428,0.030323226,-0.0034871255,-0.01524416,-0.00070163375,-0.011691481,0.4592757,-1.4108185,1.9398173,-2.0997164,-1.5692166,2.4333315,-0.15958674,0.1401432,-0.15598015,0.009866934,0.013866703,-0.14780219,-0.49799395,-0.21068975,-9.346964,0.8672237,47.690468,-1.1026239,-2.0133977,-3.4540818,-0.16908035,0.14544097,-0.46164465,28.625,29.6875,28.9375,33.0,35.4375,36.5
0.23805198,-1.3868202,0.23120025,-0.20064351,0.033198334,0.048474498,-0.17507508,-0.39414904,-0.3451151,0.060123254,3.0771065,-0.62319106,-0.00047427142,-0.11000814,0.030537214,-0.0025858665,-0.015880987,0.00033630017,-0.0076619633,0.45893988,-1.4105426,1.9394587,-2.099716,-1.5692285,2.43303,-0.15972646,0.13761514,-0.15529987,0.010510489,0.014001119,-0.15197122,-0.57460845,-0.22984336,-9.193734,0.8672237,47.67614,-1.1230292,-2.0534081,-3.5159059,-0.16588098,0.14689031,-0.4866627,28.625,29.75,28.9375,33.0,35.4375,36.5
0.240052,-1.6211036,0.57192904,-0.06792453,0.020268066,0.04968143,-0.18518475,-0.39436606,-0.3450606,0.060117275,3.07704,-0.62325007,-0.0004308085,-0.11192481,0.031093854,-0.0026074413,-0.015093047,0.00076957175,0.001405828,0.4586148,-1.4102652,1.9391469,-2.099692,-1.5691694,2.4327502,-0.16173534,0.1402854,-0.1584853,0.01101911,0.013117438,-0.16304605,-0.49799395,-0.22984336,-9.11712,0.9097417,47.658226,-1.030541,-2.0773933,-3.31785,-0.16532053,0.17790315,-0.39561445,28.625,29.75,28.9375,33.0,35.4375,36.5
0.24205214,-1.3679671,0.40150088,-0.012202736,0.03086287,0.06519551,-0.18257749,-0.39459404,-0.34497905,0.06010103,3.0770328,-0.62322044,-0.000394334,-0.113744296,0.030400187,-0.0008727034,-0.016808651,0.0042630015,0.014567108,0.4582548,-1.4099772,1.938846,-2.0996683,-1.5691451,2.4323728,-0.16200982,0.14002635,-0.1622045,0.011134254,0.013123415,-0.17648038,-0.59376204,-0.15322891,-9.097966,0.9567419,47.703903,-1.1555009,-2.0227838,-3.2984357,-0.1386711,0.175937,-0.31237292,28.625,29.75,28.9375,33.0,35.4375,36.5
0.24405205,-1.6437101,0.16770294,-0.14618365,0.02979311,0.07095682,-0.1794392,-0.39479655,-0.3449316,0.060107168,3.0769842,-0.6231499,-0.0003652718,-0.11468243,0.03055741,-0.0007744794,-0.016623423,0.004086442,0.021495268,0.45795476,-1.4097364,1.9385456,-2.0996315,-1.569085,2.432035,-0.1629747,0.14148574,-0.16436581,0.012103607,0.01305204,-0.18437216,-0.59376204,-0.019153614,-9.155427,0.88289046,47.675243,-1.2277544,-1.9782596,-3.188428,-0.15069166,0.17983088,-0.20695435,28.625,29.75,28.9375,33.0,35.4375,36.5
0.24605198,-1.7309357,-0.32873476,-0.15098655,0.022000931,0.077201806,-0.17303188,-0.3950572,-0.34486207,0.060093097,3.0770187,-0.62300307,-0.00041604502,-0.1155112,0.030424058,-0.0005166514,-0.017397443,0.004424996,0.02347734,0.45761853,-1.4093878,1.9381751,-2.0996315,-1.5691088,2.431603,-0.1637095,0.14235969,-0.16604666,0.0122671,0.013605439,-0.18708794,-0.61291564,0.11492168,-9.193734,0.9030289,47.682407,-1.2731755,-1.9373608,-3.2190373,-0.14904693,0.19553658,-0.1403586,28.625,29.75,28.9375,33.0,35.4375,36.5
0.24805191,-1.4609977,0.110980205,-0.2717108,-0.0038847257,0.07729771,-0.18133765,-0.39527893,-0.3447855,0.060107984,3.076995,-0.62300164,-0.00043373124,-0.11705418,0.03116624,0.00012728086,-0.017624255,0.0056106728,0.017026199,0.45728144,-1.4091595,1.9378637,-2.0995715,-1.5690969,2.4312682,-0.16606727,0.14252163,-0.167838,0.012734285,0.01328456,-0.18299356,-0.61291564,0.21068975,-9.232041,0.8537928,47.68599,-1.183804,-1.9314923,-3.2254717,-0.13521647,0.18444453,-0.1533229,28.625,29.75,28.9375,33.0,35.4375,36.5
0.25005195,-1.4676284,-0.88565105,-0.26908192,-0.018919483,0.06565812,-0.17125109,-0.39551753,-0.3446824,0.060083732,3.0770156,-0.62302816,-0.00041205905,-0.117240615,0.031089576,-0.00012897234,-0.016976751,0.004434355,0.010248696,0.45689803,-1.4088585,1.9375657,-2.0995471,-1.5691088,2.430899,-0.16594222,0.144144,-0.1694791,0.014087063,0.013211479,-0.17609064,-0.51714754,0.24899697,-9.212888,0.84708,47.65464,-1.4091537,-1.9074254,-3.2436519,-0.14326379,0.19541237,-0.22038168,28.625,29.75,28.9375,33.0,35.4375,36.5
0.25205222,-1.5159057,-1.0309054,-0.30679825,-0.035143998,0.048664793,-0.16160336,-0.39577782,-0.34464467,0.060100615,3.0769286,-0.6229762,-0.00048353308,-0.117786415,0.031727895,-0.0010715132,-0.015713947,0.0026592065,0.0043408703,0.45657328,-1.4085574,1.9371818,-2.0995586,-1.5690612,2.430553,-0.16721646,0.14670451,-0.17046309,0.014667362,0.012872658,-0.17145522,-0.5554548,0.34476504,-9.251196,0.9365982,47.689575,-1.2884243,-2.0646098,-3.2219374,-0.1528229,0.23031506,-0.30099466,28.625,29.75,28.9375,33.0,35.4375,36.5
0.25405234,-0.7820553,-1.3140595,-0.5081667,-0.02846252,0.049788248,-0.17860596,-0.39599988,-0.34459034,0.060089268,3.076901,-0.62301123,-0.00043221613,-0.1196753,0.03239554,-0.000669092,-0.016127683,0.0035269281,-0.0010258674,0.45626044,-1.408245,1.9368356,-2.099511,-1.5690254,2.4302657,-0.16993165,0.14792731,-0.17289498,0.014921271,0.012853332,-0.16880266,-0.34476504,0.34476504,-9.289503,0.9231726,47.67166,-1.2721845,-1.8164961,-3.1993723,-0.1593645,0.24512084,-0.35866994,28.625,29.75,28.9375,33.0,35.4375,36.5
0.25605202,-0.51158434,-0.71052116,-0.45026472,-0.036052447,0.045521412,-0.1879633,-0.39625442,-0.34450325,0.060097884,3.0768971,-0.6230106,-0.0004996074,-0.121157736,0.033530235,-0.0004891684,-0.017170206,0.004019114,-0.002462071,0.45589942,-1.4079688,1.9364885,-2.0994756,-1.5690488,2.429905,-0.1735804,0.14797264,-0.17326328,0.014345017,0.01358386,-0.17101446,-0.22984336,0.3256114,-9.193734,0.94331104,47.689575,-1.0261999,-1.9350289,-3.3487144,-0.1387275,0.24335957,-0.36085728,28.625,29.75,28.9375,33.0,35.4375,36.5
0.25805223,-0.8996638,-1.2286713,-0.66300917,-0.019823575,0.02027872,-0.17539226,-0.39650413,-0.34446874,0.0600869,3.0768394,-0.6229396,-0.00045802013,-0.121613346,0.0337465,-0.0011500013,-0.01709611,0.0027929267,0.0011887316,0.45557478,-1.4076077,1.9360932,-2.0994632,-1.5689768,2.4295435,-0.1745541,0.14991024,-0.1740493,0.0143499775,0.014070038,-0.17563806,-0.038307227,0.30645782,-9.232041,0.8851263,47.67614,-1.0266495,-1.8917408,-3.2880795,-0.13441752,0.26146045,-0.38499683,28.625,29.75,28.9375,33.0,35.4375,36.5
0.26005244,-0.53814924,-0.8100988,-0.6109367,-0.015765505,0.012085476,-0.17674036,-0.39674154,-0.34437916,0.060082987,3.076825,-0.62293035,-0.00036583058,-0.12251206,0.033511546,-0.0007765495,-0.018385395,0.0035743893,0.010433992,0.45517877,-1.4073191,1.9357466,-2.0993679,-1.5689281,2.4291437,-0.17533234,0.15052487,-0.17557594,0.014021701,0.014893959,-0.18566124,-0.11492168,0.34476504,-9.308657,0.8403672,47.661808,-1.0176568,-1.9151657,-3.276028,-0.115988776,0.24933022,-0.30081514,28.625,29.75,28.9375,33.0,35.4375,36.5
0.26205254,-0.29673243,-0.8511488,-0.44441,-0.0032875622,0.010977949,-0.16979304,-0.39701313,-0.34430864,0.06008213,3.0767944,-0.62290055,-0.00043854376,-0.12388835,0.033754934,-0.000607642,-0.01925087,0.003783059,0.019472163,0.45481795,-1.4069941,1.9353751,-2.0993793,-1.5689281,2.4287684,-0.17729054,0.15192783,-0.17766036,0.0141573,0.015608747,-0.1966556,-0.05746084,0.34476504,-9.270349,0.9164598,47.690468,-1.0592496,-1.9184396,-3.1000242,-0.10319072,0.25031126,-0.17753586,28.625,29.75,28.9375,33.0,35.4375,36.5
0.26405165,-0.1665096,-0.33797067,-0.80365634,0.0041238135,0.010830407,-0.17611864,-0.3972504,-0.3442482,0.060071863,3.076758,-0.6228326,-0.0004466399,-0.124573804,0.033567376,-0.001521531,-0.018640634,0.002345682,0.023670755,0.4544822,-1.406693,1.9350528,-2.0993917,-1.5688924,2.428395,-0.1775055,0.15549682,-0.17978273,0.014289837,0.01570521,-0.20106721,0.019153614,0.2681506,-9.404425,0.9567419,47.691364,-1.2238103,-1.9425561,-3.2586107,-0.096003,0.26393571,-0.13288064,28.625,29.75,28.9375,33.0,35.4375,36.5
0.2660526,0.08793446,0.22732916,-0.74686146,-0.0029843263,0.005294299,-0.18043159,-0.3974891,-0.34416115,0.060043015,3.0767548,-0.6228536,-0.00034969178,-0.1245099,0.033883493,-0.0014657188,-0.01915723,0.0017117979,0.020112332,0.45409784,-1.4063567,1.934718,-2.099343,-1.5688556,2.4280243,-0.17835873,0.15499938,-0.17951515,0.014868767,0.016438756,-0.19836308,0.095768064,0.22984336,-9.346964,0.8537928,47.71286,-1.1331469,-2.0077527,-3.3031068,-0.09681164,0.25596723,-0.1078283,28.625,29.75,28.9375,33.0,35.4375,36.5
0.26805264,-0.2536767,-0.72447866,-0.7999745,-0.0009805943,-0.009719341,-0.16628483,-0.3977482,-0.34409988,0.060044117,3.0767546,-0.6227635,-0.0004179218,-0.12601416,0.035111614,-0.002082999,-0.018696712,0.0006237424,0.009822402,0.45377278,-1.4060314,1.9343361,-2.0993311,-1.568868,2.4276433,-0.18175083,0.15727684,-0.18084486,0.015091375,0.016499814,-0.19146366,0.15322891,0.1340753,-9.32781,0.88960326,47.704796,-0.9898114,-2.2448149,-3.35706,-0.095207736,0.25413364,-0.14704879,28.625,29.75,28.9375,33.0,35.4375,36.5
0.27005196,-0.060773004,-0.9143619,-0.77638406,-0.007720762,-0.005741193,-0.16887543,-0.39800698,-0.34404895,0.060057186,3.0766733,-0.6226937,-0.00042265767,-0.1266616,0.035097722,-0.0026903755,-0.01860532,-0.00060326105,0.0026182677,0.45341247,-1.4057304,1.9339522,-2.0993073,-1.5687956,2.42725,-0.18245149,0.15982892,-0.18252338,0.015367147,0.016955074,-0.18495807,0.0,0.13407528,-9.404425,0.87393653,47.666286,-0.9189285,-2.03125,-3.3185391,-0.097522855,0.27441853,-0.25434655,28.625,29.75,28.9375,33.0,35.4375,36.5
0.2720523,0.111494325,-0.18607143,-0.994193,-0.013260157,-0.0022955856,-0.17410931,-0.39827356,-0.34397027,0.06005024,3.0766363,-0.62274855,-0.00041252768,-0.12786807,0.035507787,-0.0024943203,-0.018412637,-0.00016260956,-0.0053356984,0.45302764,-1.4053937,1.9335698,-2.099271,-1.5687717,2.4269042,-0.1838497,0.16100705,-0.18449663,0.015850542,0.01657888,-0.17840137,-0.05746084,0.095768064,-9.404425,0.8918391,47.69763,-0.7753304,-2.2945194,-3.2905712,-0.080904804,0.2692219,-0.35453427,28.625,29.75,28.9375,33.0,35.4375,36.5
0.27405244,-0.3328429,-0.23212516,-0.99793744,-0.008420233,-0.0015148142,-0.17138296,-0.39851272,-0.34389415,0.060044803,3.0766308,-0.6227317,-0.00039973174,-0.12851757,0.03604037,-0.002707585,-0.018514832,-0.0013794446,-0.011412438,0.45267895,-1.405093,1.9332227,-2.099223,-1.5687598,2.4265459,-0.18562855,0.16217338,-0.18564196,0.016876776,0.017197724,-0.17410286,0.0,0.0,-9.423578,0.8918391,47.696735,-0.8902854,-2.2109125,-3.327751,-0.081314474,0.2803505,-0.4326834,28.625,29.75,28.9375,33.0,35.4375,36.5
0.2760524,-0.18732727,-0.308992,-0.64682835,-0.0062242765,0.019140124,-0.17528772,-0.3987644,-0.34380725,0.06000678,3.0766642,-0.62275404,-0.00032215123,-0.12841102,0.03546781,-0.0028322374,-0.019054508,-0.002698,-0.00851204,0.45230782,-1.4047081,1.9328521,-2.0991747,-1.5687593,2.4261847,-0.18507755,0.1634318,-0.1871519,0.018085577,0.018254556,-0.1764525,-0.1340753,0.076614454,-9.481039,0.91198283,47.719128,-1.0508587,-2.172515,-3.4137406,-0.093999185,0.28158182,-0.5048386,28.625,29.75,28.9375,33.0,35.4375,36.5
0.27805257,-0.50091416,-0.3102374,-0.6218748,0.012334419,0.036063105,-0.17994845,-0.39901906,-0.34373587,0.059996657,3.0766115,-0.62273794,-0.0002778844,-0.12851888,0.03545748,-0.003417644,-0.01924119,-0.0038459648,0.0020327652,0.4519236,-1.4043837,1.9324936,-2.099151,-1.5686988,2.4257972,-0.18546467,0.16490018,-0.18755144,0.01800458,0.018945472,-0.18738382,-0.13407528,0.05746084,-9.461885,0.8851263,47.661808,-1.113227,-2.2158601,-3.3787026,-0.0854576,0.27121365,-0.45537928,28.625,29.75,28.9375,33.0,35.4375,36.5
0.2800518,-0.8916036,-0.100902766,-0.7593007,0.010497464,0.042719197,-0.18743412,-0.39928576,-0.3436839,0.0600036,3.0765312,-0.6227141,-0.0002935899,-0.12914848,0.034777306,-0.0022319322,-0.021145841,-0.0022606866,0.014353928,0.45156378,-1.4040593,1.9320987,-2.0991385,-1.5686387,2.425433,-0.18534485,0.16407382,-0.18945922,0.018520141,0.019998673,-0.19958328,-0.1340753,0.05746084,-9.519346,0.86945957,47.661808,-1.2070879,-2.2446237,-3.4266334,-0.087472714,0.2683342,-0.33408076,28.625,29.75,28.9375,33.0,35.4375,36.5
0.28205207,-1.7588567,-0.31544438,-0.6060102,-0.000215882,0.041800704,-0.18408538,-0.3995116,-0.34359106,0.059969496,3.0765543,-0.62265646,-0.00011545294,-0.12934506,0.03502514,-0.0029420336,-0.020507127,-0.00394646,0.02432294,0.4511673,-1.4037223,1.9317635,-2.0990427,-1.5685786,2.4249976,-0.18593654,0.16605724,-0.19036993,0.019284349,0.020159615,-0.21014544,-0.2681506,0.11492168,-9.5385,0.91198283,47.691364,-1.169873,-2.39327,-3.3749323,-0.096084885,0.2671073,-0.20373075,28.625,29.75,28.9375,33.0,35.4375,36.5
0.28405195,-1.3093992,-0.6065241,-0.8739255,-0.004997911,0.056830645,-0.181812,-0.3997644,-0.34355673,0.059967954,3.076508,-0.62249035,-9.0022484e-05,-0.13067128,0.03482139,-0.0028165907,-0.019920409,-0.003299106,0.026812378,0.45084342,-1.403373,1.9313563,-2.0990188,-1.5685066,2.424576,-0.18608207,0.16849996,-0.19367482,0.019849904,0.019356905,-0.21277829,-0.36391866,0.11492168,-9.557653,0.9768804,47.67345,-1.2594057,-2.2603638,-3.4524095,-0.094451696,0.26433808,-0.13112505,28.625,29.75,28.9375,33.0,35.4375,36.5
0.2860527,-1.9138407,-0.919245,-0.71240056,-0.013210085,0.050458267,-0.16997156,-0.4000206,-0.3434547,0.05994302,3.0765054,-0.62249535,-6.20663e-05,-0.13122112,0.03458766,-0.002657955,-0.020277347,-0.0030066897,0.020427546,0.4504357,-1.4030484,1.9310335,-2.0990064,-1.5684947,2.424172,-0.18612713,0.16939451,-0.19516654,0.020024665,0.019536661,-0.20643805,-0.53630114,0.095768064,-9.442732,0.8806493,47.70211,-1.2741151,-2.3578377,-3.4850998,-0.10040432,0.26311794,-0.17563063,28.625,29.75,28.9375,33.0,35.4375,36.5
0.28805256,-1.0574709,-0.18895425,-0.56367916,-0.030371005,0.07556906,-0.19494767,-0.40028173,-0.3433884,0.059959143,3.0764928,-0.62244016,-7.9461846e-05,-0.13254648,0.034723092,-0.0018900159,-0.020846337,-0.001354873,0.012064803,0.45008707,-1.402736,1.9306148,-2.0989225,-1.5684828,2.4237907,-0.18723634,0.16960333,-0.19723466,0.02014357,0.019320434,-0.19918329,-0.45968673,0.15322891,-9.404425,0.85155696,47.679718,-1.2631959,-2.2027218,-3.5072713,-0.09882421,0.28250158,-0.2794891,28.625,29.75,28.9375,33.0,35.4375,36.5
0.2900519,-1.6536072,-0.41699728,-0.707421,-0.014515276,0.053597473,-0.18845019,-0.400565,-0.3433274,0.059946615,3.0764296,-0.6224662,-1.0496937e-05,-0.13419487,0.03451128,-0.0012273116,-0.021110155,0.0011427923,0.00855519,0.44969115,-1.4023389,1.9301714,-2.0988748,-1.5684112,2.4234192,-0.18758462,0.17077222,-0.19999328,0.019387383,0.018461924,-0.19602081,-0.36391866,0.21068975,-9.557653,0.91421866,47.658226,-1.4705825,-2.3502917,-3.4059634,-0.08720367,0.282925,-0.3354823,28.625,29.75,28.9375,33.0,35.4375,36.5
0.2920519,-1.9960418,-0.6779936,-0.8206052,-0.009773765,0.049487576,-0.17746067,-0.40083066,-0.34326097,0.059924874,3.076422,-0.6223699,-1.7277652e-06,-0.13562551,0.033996433,-0.0009269397,-0.022399738,0.002180603,0.0076441495,0.449331,-1.4019662,1.929788,-2.0988748,-1.5683869,2.423,-0.18821834,0.17267723,-0.20282172,0.018824227,0.01917053,-0.1957416,-0.5554548,0.24899697,-9.442732,0.9947882,47.70032,-1.5027533,-2.1329882,-3.3399959,-0.07053691,0.2795108,-0.36810672,28.625,29.75,28.9375,33.0,35.4375,36.5
0.29405212,-1.460877,-0.37658152,-0.9297135,-0.010654276,0.060494505,-0.1979509,-0.4011208,-0.34318957,0.059957735,3.0763419,-0.62233204,-8.5684114e-05,-0.1367697,0.034842093,-0.00010431364,-0.023195557,0.0036876143,0.01069132,0.44893387,-1.4016782,1.9293703,-2.098839,-1.5683507,2.4225898,-0.19059676,0.17147163,-0.20335163,0.018883724,0.019265248,-0.2011655,-0.34476504,0.19153613,-9.519346,0.92764956,47.67345,-1.3810894,-2.118853,-3.4249396,-0.06450316,0.2919581,-0.36201763,28.625,29.75,28.9375,33.0,35.4375,36.5
0.2960521,-1.3168033,-0.42585585,-0.8081517,-0.017752316,0.05558854,-0.20059498,-0.4013929,-0.34312683,0.059941653,3.0763168,-0.62226564,-3.9169114e-05,-0.13825226,0.036477778,-0.00090306584,-0.022104396,0.0024176687,0.017262587,0.44856048,-1.4012932,1.9289511,-2.0988033,-1.568303,2.4221783,-0.1943433,0.17374314,-0.20431708,0.019237915,0.018854786,-0.21148296,-0.21068975,0.17238252,-9.672575,0.8851263,47.67345,-1.269598,-2.1696794,-3.4647923,-0.054374054,0.28178164,-0.27864707,28.625,29.75,28.9375,33.0,35.4375,36.5
0.29805234,-1.5059458,-1.1625838,-0.7619772,-0.013493044,0.044806227,-0.18710552,-0.4016595,-0.34301317,0.05992849,3.076367,-0.62221324,9.536211e-06,-0.14011416,0.037065882,-6.2087793e-06,-0.023267953,0.0038511998,0.025010642,0.44814017,-1.4009569,1.9285682,-2.0987074,-1.5683149,2.421719,-0.19710334,0.17393565,-0.20674528,0.01970603,0.019291202,-0.22199094,-0.21068975,0.15322891,-9.557653,0.91198283,47.675243,-1.2720888,-2.1950097,-3.3209167,-0.057601437,0.29193273,-0.16179737,28.625,29.75,28.9375,33.0,35.4375,36.5
0.30005223,-1.1676402,-0.6423958,-0.7187137,-0.017070508,0.04058882,-0.18682817,-0.401941,-0.34295645,0.059918176,3.076286,-0.6221405,9.6962256e-05,-0.14196843,0.037270054,0.00100318,-0.024503905,0.0062495773,0.025076846,0.44773147,-1.4005727,1.9281367,-2.0986717,-1.5682067,2.4212754,-0.19893813,0.17406829,-0.20917694,0.01934447,0.019372232,-0.22389075,-0.34476504,0.05746084,-9.442732,0.90527004,47.67166,-1.2251463,-2.06867,-3.2855403,-0.05325502,0.28929088,-0.09765375,28.625,29.75,28.9375,33.0,35.4375,36.5
0.30205256,-1.3769891,-0.33004883,-0.9362897,0.01368436,0.02604013,-0.1872703,-0.40223917,-0.34288463,0.059930697,3.0762575,-0.62204325,-3.2085707e-05,-0.14337575,0.03814508,0.0011029928,-0.024409693,0.007305274,0.016090846,0.4473586,-1.4002357,1.927719,-2.098684,-1.5682186,2.4208457,-0.20118539,0.17474215,-0.21008655,0.018659415,0.018841337,-0.21714994,-0.3256114,0.019153614,-9.519346,0.9186956,47.682407,-1.1884102,-2.051902,-3.351044,-0.04978612,0.30600724,-0.12597585,28.625,29.75,28.9375,33.0,35.4375,36.5
0.30405247,-1.2475537,-0.30321604,-0.9998937,0.027113112,0.027840162,-0.17166838,-0.4025333,-0.34278983,0.059916053,3.0762134,-0.6221353,-2.143585e-05,-0.14401107,0.038434852,0.00041507315,-0.02449445,0.0056261374,0.006240089,0.44692627,-1.3998624,1.9273123,-2.0986593,-1.5681947,2.4204767,-0.20257969,0.17708664,-0.21141143,0.019107126,0.019635005,-0.20869222,-0.36391866,-0.019153614,-9.634268,0.9835985,47.70659,-1.1518204,-2.2355657,-3.4035594,-0.03649261,0.29219288,-0.20887423,28.625,29.75,28.9375,33.0,35.4375,36.5
0.30605248,-1.3819357,0.07209419,-0.87328756,0.011246095,0.022057895,-0.18676959,-0.4028134,-0.34272757,0.05991761,3.0761354,-0.62202907,2.6740523e-05,-0.14450184,0.039339248,-0.0005586669,-0.024278808,0.0031924888,-0.0031774323,0.4465176,-1.3995135,1.9268945,-2.098624,-1.5680984,2.4200118,-0.20497504,0.17910612,-0.21173796,0.01970951,0.020491961,-0.2016688,-0.4405331,-0.019153614,-9.5385,0.842603,47.703007,-1.1010187,-2.29187,-3.4672503,-0.033231508,0.30391213,-0.30211842,28.625,29.75,28.9375,33.0,35.4375,36.5
0.30805257,-0.84248847,-0.41888258,-0.5521081,0.008824101,0.044499733,-0.19409399,-0.4030977,-0.3426535,0.0599073,3.0761275,-0.62203014,1.13632e-05,-0.14518376,0.038635988,-5.987536e-05,-0.025147036,0.0037006557,-0.008985743,0.44614586,-1.399129,1.926462,-2.0985873,-1.5680984,2.419642,-0.20451547,0.18017389,-0.2143386,0.020399008,0.021047072,-0.19539933,-0.4405331,0.05746084,-9.500193,0.8605109,47.68062,-1.161545,-2.1226175,-3.4250371,-0.019987777,0.29220092,-0.43784672,28.625,29.75,28.9375,33.0,35.4375,36.5
0.31005263,-1.4094393,-0.51582825,-0.5500434,0.0019221338,0.043358307,-0.18311629,-0.40340486,-0.34255922,0.05991652,3.0760555,-0.62209165,1.5405743e-05,-0.14653498,0.039466117,-0.00028858508,-0.024855336,0.0032012297,-0.009220082,0.445689,-1.3987802,1.926021,-2.0985272,-1.5680503,2.4192328,-0.20692867,0.18203963,-0.21618113,0.020977186,0.021013437,-0.19757669,-0.36391866,0.05746084,-9.404425,0.91198283,47.67345,-1.0756993,-2.2023787,-3.5015736,-0.025833735,0.2880378,-0.48798037,28.625,29.75,28.9375,33.0,35.4375,36.5
0.3120528,-1.1998003,-0.25809932,-0.69145757,0.011568426,0.04305153,-0.20325214,-0.40368572,-0.34249157,0.059905633,3.0760417,-0.6220254,2.32939e-05,-0.14739396,0.039405685,3.6415226e-05,-0.025391474,0.003282633,0.00065497827,0.44531664,-1.3983955,1.9255894,-2.0984914,-1.568026,2.418821,-0.20769566,0.18304265,-0.21836337,0.021891152,0.021487728,-0.2082175,-0.15322891,0.038307227,-9.481039,0.98807013,47.683304,-1.0643336,-2.1597776,-3.433682,-0.022752605,0.3035736,-0.43682814,28.625,29.75,28.9375,33.0,35.4375,36.5
0.31405175,-1.0010284,-0.31454602,-0.71329796,0.018599724,0.032643806,-0.19164667,-0.403993,-0.34243482,0.059927598,3.0759122,-0.6219538,-1.9282954e-05,-0.14832546,0.0386639,0.00071699964,-0.0264718,0.0048715724,0.015740616,0.44489595,-1.3980587,1.9251469,-2.0984914,-1.5679296,2.4183724,-0.20722032,0.18384314,-0.22087131,0.021767387,0.021831308,-0.22282438,-0.17238252,0.11492168,-9.519346,0.9612189,47.689575,-1.1114566,-2.221953,-3.3448534,-0.019208655,0.29269207,-0.30708617,28.625,29.75,28.9375,33.0,35.4375,36.5
0.31605178,-1.4238893,-0.010873599,-0.55299866,0.0024940867,0.022672523,-0.19856761,-0.4042909,-0.34231734,0.05990858,3.0759628,-0.62195754,2.0355355e-05,-0.14885268,0.038092792,0.00048593627,-0.025683753,0.0048847366,0.026283786,0.44445324,-1.3976613,1.9247049,-2.098395,-1.5679544,2.4179258,-0.20604913,0.18631878,-0.22339673,0.02217638,0.021124003,-0.23219661,-0.2681506,0.13407528,-9.308657,0.8873621,47.68599,-1.2938249,-2.3306265,-3.4197204,0.0013392726,0.31186724,-0.19442089,28.625,29.75,28.9375,33.0,35.4375,36.5
0.3180518,-1.3241153,-0.1691877,-0.7696443,0.015396965,0.022473816,-0.18695264,-0.4045629,-0.3422464,0.059897065,3.0759053,-0.6218313,7.090696e-05,-0.14891368,0.037823386,7.6510434e-05,-0.025472714,0.003523974,0.024547677,0.44404563,-1.3973124,1.9243215,-2.0983827,-1.56787,2.4174469,-0.20572302,0.18812759,-0.2248612,0.023172643,0.021524245,-0.2301331,-0.2681506,0.15322891,-9.32781,0.8224646,47.686886,-1.4975915,-2.281496,-3.4549785,-0.0017577058,0.29951042,-0.16039327,28.625,29.75,28.9375,33.0,35.4375,36.5
0.32005197,-1.3183018,-0.78986186,-0.9744232,0.021999845,0.01534609,-0.17940363,-0.40489292,-0.34217656,0.05992179,3.0758674,-0.6217913,8.9385285e-06,-0.14966184,0.03842855,-8.918715e-05,-0.02581764,0.0017851808,0.014110285,0.44363678,-1.3969156,1.9237832,-2.0982988,-1.5678576,2.4170182,-0.20790851,0.18947496,-0.2265132,0.024884492,0.02258417,-0.22187874,-0.21068975,0.19153613,-9.423578,0.93436235,47.67614,-1.4528197,-2.2751148,-3.3281443,-0.02236512,0.29144052,-0.2620599,28.625,29.75,28.9375,33.0,35.4375,36.5
0.32205212,-1.4255036,-1.4255497,-0.7863975,0.0064419233,-0.002416496,-0.18133257,-0.40517285,-0.3420862,0.059909776,3.0758462,-0.6216933,8.142668e-05,-0.15128501,0.038589563,0.0007327404,-0.026967872,0.002748812,0.0077709826,0.44320425,-1.396555,1.923376,-2.0982382,-1.5677975,2.4165273,-0.20978157,0.19020009,-0.22949925,0.02578978,0.023198642,-0.21741128,-0.11492168,0.1340753,-9.385271,0.95002913,47.65912,-1.394095,-2.2460594,-3.2571979,-0.031249125,0.28766182,-0.32744646,28.625,29.75,28.9375,33.0,35.4375,36.5
0.3240522,-1.0995605,-1.42373,-0.68931544,-0.01875791,-0.0025233636,-0.18818831,-0.40547842,-0.34200996,0.059891738,3.0757973,-0.62170553,0.00011140291,-0.15370798,0.0393634,0.0018396035,-0.027257528,0.0048561483,0.0033835403,0.4427832,-1.3961343,1.9229206,-2.0982144,-1.5677499,2.4161203,-0.212596,0.19090173,-0.23312147,0.026700223,0.022556597,-0.21583705,-0.2873042,0.26815057,-9.3661175,0.9858343,47.691364,-1.24449,-2.2088802,-3.1168764,-0.040686235,0.29180256,-0.3996,28.625,29.75,28.9375,33.0,35.4375,36.5
0.32605228,-0.9957056,-1.6900047,-0.7805108,-0.02110613,0.0044125766,-0.18983842,-0.40577894,-0.34191203,0.059883505,3.0758035,-0.6217042,0.00015434984,-0.15355146,0.04003028,0.001031078,-0.026394738,0.0027656595,0.00617103,0.44235113,-1.3957376,1.9224542,-2.098118,-1.5677379,2.4156868,-0.21354458,0.19209953,-0.23296201,0.027624547,0.022683088,-0.21957384,-0.22984336,0.40222588,-9.385271,0.9097417,47.716442,-1.3356713,-2.2406194,-3.1508327,-0.060731117,0.28884515,-0.3881342,28.625,29.75,28.9375,33.0,35.4375,36.5
0.32805237,-1.2743497,-1.2240778,-0.9106048,-0.03282221,-0.0029390007,-0.19124995,-0.40608478,-0.34184486,0.05990426,3.0757253,-0.6215868,0.00013588455,-0.15324268,0.04073491,0.0006933027,-0.027213246,0.00047007296,0.016006678,0.44193056,-1.3953894,1.9219893,-2.0980694,-1.567665,2.415203,-0.21546464,0.1917988,-0.23219901,0.02894184,0.02445523,-0.23132768,0.038307227,0.4405331,-9.5385,0.91421866,47.688675,-1.2187841,-2.0018451,-3.316609,-0.06934444,0.26264924,-0.28019044,28.625,29.75,28.9375,33.0,35.4375,36.5
0.33005252,-1.5720843,-1.899526,-0.742292,-0.02660896,-0.0035618455,-0.18276486,-0.40640554,-0.34177127,0.059915658,3.075689,-0.6214775,0.00011026504,-0.15421548,0.041604783,0.002015285,-0.028821778,0.0017392273,0.024297051,0.4415097,-1.3949935,1.9214872,-2.0980093,-1.5676287,2.4147189,-0.21822324,0.18946585,-0.23281373,0.03010372,0.025408356,-0.2423754,-0.05746084,0.40222588,-9.461885,0.98135734,47.668976,-1.1572636,-1.906862,-3.3989458,-0.104990944,0.25352085,-0.1387908,28.625,29.75,28.9375,33.0,35.4375,36.5
0.3320526,-1.5915143,-1.637984,-0.76619023,-0.025363708,0.0064891465,-0.18028629,-0.4067091,-0.3416551,0.059919063,3.075647,-0.62150836,0.00013109994,-0.15460984,0.042497158,0.0011237989,-0.028260374,-0.00017030364,0.024379652,0.4410288,-1.3946568,1.9210695,-2.0979373,-1.5675925,2.4142628,-0.22014305,0.19120328,-0.23296718,0.030512324,0.025729569,-0.24437726,-0.26815057,0.30645782,-9.3661175,0.99031126,47.70659,-1.1133208,-1.893085,-3.5597653,-0.11606169,0.24085346,-0.056104247,28.625,29.75,28.9375,33.0,35.4375,36.5
0.33405167,-1.0502952,-0.59094626,-0.715342,-0.012242089,0.018374456,-0.19362892,-0.40702122,-0.3415789,0.059908636,3.0756178,-0.62137455,0.00017238472,-0.15627226,0.0430206,0.00037940455,-0.028181044,-0.0012671874,0.014615391,0.4405963,-1.3942354,1.9205898,-2.0978897,-1.5675324,2.4137506,-0.22250809,0.19487405,-0.2356476,0.030549278,0.026111225,-0.23697591,-0.30645782,0.22984336,-9.500193,0.8873621,47.67345,-1.0873697,-1.8719599,-3.522081,-0.121820614,0.22866243,-0.112081885,28.625,29.75,28.9375,33.0,35.4375,36.5
0.33605307,-0.8948836,0.12596953,-0.8944535,0.0014127799,0.028140547,-0.19323161,-0.4073306,-0.34151846,0.059887927,3.0755215,-0.6213816,0.00026055283,-0.1581062,0.04281607,0.0020190456,-0.030571014,0.001337184,0.0028716286,0.4401637,-1.393791,1.920112,-2.0978658,-1.5674242,2.4133348,-0.22413783,0.19422942,-0.23879766,0.03096998,0.027142301,-0.22685985,-0.3256114,0.15322891,-9.5385,0.9164598,47.678825,-0.9733933,-1.9066402,-3.526392,-0.14147127,0.21356702,-0.22519596,28.625,29.75,28.9375,33.0,35.4375,36.5
0.33805215,-1.0635109,0.77350384,-0.4715795,0.0005085757,0.029760232,-0.1919892,-0.40767974,-0.34144193,0.059946474,3.0754025,-0.6213427,0.00012616758,-0.157739,0.04212394,0.0012888421,-0.031360716,-0.0006936022,-0.005904572,0.43970782,-1.3934662,1.9195851,-2.0978053,-1.5673755,2.4128702,-0.22341578,0.19622433,-0.23958454,0.031249803,0.02873646,-0.21735589,-0.34476507,0.019153614,-9.481039,0.93436235,47.67614,-1.0661995,-2.0055935,-3.4539287,-0.15161139,0.18271592,-0.363253,28.625,29.75,28.9375,33.0,35.4375,36.5
0.34005243,-1.5648637,0.57457244,-0.680759,0.0201744,0.030715425,-0.18947588,-0.40796933,-0.34137312,0.059916064,3.0753834,-0.6212615,0.00024162652,-0.15743044,0.041051902,0.00031215092,-0.031189142,-0.0027607887,-0.007048943,0.4393006,-1.3930204,1.9191192,-2.0977457,-1.5673035,2.4124148,-0.221551,0.19956185,-0.24146311,0.03174949,0.029446978,-0.2143462,-0.34476507,0.05746084,-9.404425,0.947788,47.657326,-1.243877,-1.9547443,-3.4057877,-0.1628719,0.14258105,-0.45543766,28.625,29.75,28.9375,33.0,35.4375,36.5
0.34205276,-0.94505155,0.32149902,-1.0237882,0.037954308,0.05604722,-0.19193952,-0.4083064,-0.34127918,0.059926677,3.0753322,-0.6212266,0.00021616185,-0.15778269,0.04069165,-0.00053393183,-0.030327553,-0.004483075,0.00018049101,0.4388328,-1.392623,1.9186162,-2.0976856,-1.5672673,2.411932,-0.22099966,0.20301707,-0.24386576,0.032666642,0.029426157,-0.22102179,-0.38307226,0.076614454,-9.500193,0.9612189,47.704796,-1.4091581,-2.231747,-3.4045725,-0.18405944,0.13961144,-0.47809872,28.625,29.75,28.9375,33.0,35.4375,36.5
0.3440522,-1.278675,0.2534495,-0.87938964,0.016971124,0.058847874,-0.1932051,-0.40858918,-0.34117702,0.059893854,3.0753496,-0.62120366,0.00036742594,-0.15895262,0.04105131,-0.00038973754,-0.029456789,-0.0043411907,0.012259471,0.43838865,-1.3922019,1.9181732,-2.0975773,-1.5672196,2.4114714,-0.22190101,0.20477273,-0.24663544,0.03399351,0.028588802,-0.23400433,-0.11492168,-0.095768064,-9.653421,0.95226496,47.682407,-1.4045715,-2.2035813,-3.295406,-0.20024535,0.12597558,-0.35264146,28.625,29.75,28.9375,33.0,35.4375,36.5
0.34605163,-1.2973809,-0.42492446,-0.71864045,-0.0020736542,0.05607119,-0.18981966,-0.40892094,-0.34111232,0.05991516,3.0752823,-0.62103236,0.00034412273,-0.16133213,0.041625086,0.0009863139,-0.029702002,-0.0017268774,0.021040732,0.4379551,-1.391805,1.9176463,-2.0975173,-1.5671481,2.4109397,-0.22414587,0.20520283,-0.25060433,0.03513207,0.027741965,-0.24502794,-0.095768064,-0.038307227,-9.576807,0.9321212,47.68062,-1.3152102,-2.2055438,-3.2720544,-0.23037556,0.11447169,-0.2257007,28.625,29.75,28.9375,33.0,35.4375,36.5
0.34805253,-0.9718966,-0.67302155,-0.83118373,-0.0057739057,0.038585488,-0.18536153,-0.40921822,-0.34102386,0.05991019,3.075271,-0.620973,0.0004203644,-0.16170014,0.041801028,0.0011991839,-0.028860647,-0.0013550307,0.02182343,0.43752375,-1.3914082,1.917168,-2.097409,-1.5671004,2.4104729,-0.22399719,0.20562962,-0.25186843,0.036018476,0.026821189,-0.24566321,-0.32561144,0.15322891,-9.481039,0.9186956,47.684196,-1.3449569,-2.295034,-3.239385,-0.25944108,0.123382166,-0.16033149,28.625,29.75,28.9375,33.0,35.4375,36.5
0.3500518,-0.6017076,-0.49522078,-1.1494652,-0.016256304,0.02280895,-0.19833514,-0.40958378,-0.34093976,0.059933867,3.0751698,-0.6209565,0.00033005665,-0.16193648,0.04259011,0.0005897051,-0.027374975,-0.0023203571,0.013348618,0.43704376,-1.3909998,1.9166301,-2.0973852,-1.5670522,2.4099958,-0.22477666,0.20684709,-0.2521073,0.036543675,0.025896955,-0.23796591,-0.34476504,0.19153613,-9.500193,0.9791215,47.670765,-1.4738575,-2.22336,-3.2466478,-0.29249668,0.10771127,-0.25760788,28.625,29.75,28.9375,33.0,35.4375,36.5
0.35205272,-0.5570781,-0.9259046,-0.9750026,-0.025990812,0.028796043,-0.19662158,-0.4099036,-0.34084517,0.05994033,3.075148,-0.6209375,0.00033817848,-0.16269572,0.042856537,0.00040196095,-0.027203754,-0.0015456773,0.0065876218,0.43659914,-1.3906032,1.9161285,-2.0972893,-1.5670289,2.4095423,-0.2253657,0.20786276,-0.2527087,0.03549629,0.02540179,-0.2317938,-0.36391866,0.22984336,-9.500193,0.9925471,47.716442,-1.3529987,-2.1428666,-3.3708882,-0.2898449,0.10155602,-0.32803974,28.625,29.75,28.9375,33.0,35.4375,36.5
0.3540518,-0.7685386,-1.155224,-1.116648,-0.025824877,0.023187479,-0.18393864,-0.41023314,-0.3407346,0.059919734,3.075135,-0.62097573,0.00039045958,-0.16472295,0.04472084,0.00040123056,-0.027036244,-0.0007437116,-0.0006462522,0.43611822,-1.3901588,1.9156379,-2.0972178,-1.5670046,2.4090872,-0.2297876,0.20854098,-0.25345933,0.034922075,0.024900384,-0.22898264,-0.22984336,0.24899697,-9.615114,0.97464454,47.684196,-1.3031824,-1.9571984,-3.4515886,-0.3120061,0.10274345,-0.41223547,28.625,29.75,28.9375,33.0,35.4375,36.5
0.3560517,-1.2878546,-1.4801306,-0.8533192,-0.038295023,0.033722185,-0.19064775,-0.41059873,-0.34066418,0.05998068,3.0749671,-0.6209777,0.00023010034,-0.16649489,0.045673992,0.00094887934,-0.02792183,0.0010377085,0.001843225,0.4356489,-1.3898225,1.9150995,-2.097194,-1.566933,2.4086409,-0.23275764,0.20855823,-0.25459698,0.034102056,0.02500695,-0.23443739,-0.21068975,0.24899697,-9.576807,0.9410752,47.684196,-1.2619039,-1.9876763,-3.547404,-0.33623126,0.1105015,-0.4223032,28.625,29.75,28.9375,33.0,35.4375,36.5
0.35805184,-1.6259435,-1.2211193,-0.5144601,-0.044347398,0.06277931,-0.18815169,-0.4109059,-0.3405667,0.05993139,3.0749686,-0.6208955,0.00038913012,-0.1684213,0.046487313,0.0014569575,-0.029582098,0.0026188134,0.012280174,0.43517986,-1.3893417,1.9146341,-2.0971348,-1.5668606,2.4081204,-0.23610476,0.20886242,-0.25597847,0.03312411,0.025863577,-0.24822205,-0.28730422,0.19153614,-9.385271,0.9186956,47.661808,-1.0201702,-1.8783379,-3.6505458,-0.33884132,0.067411765,-0.28461704,28.625,29.75,28.9375,33.0,35.4375,36.5
0.3600519,-1.161392,0.14239621,-0.7202131,-0.009478042,0.06116893,-0.19843413,-0.41126245,-0.34049037,0.059949473,3.074916,-0.62074524,0.00034266867,-0.17119148,0.04667893,0.0025225582,-0.031508252,0.0055696396,0.019963715,0.4347231,-1.388909,1.9140714,-2.0970752,-1.5668124,2.4075768,-0.23883106,0.21009721,-0.25972143,0.03220697,0.026408471,-0.25862798,-0.19153614,0.095768064,-9.385271,0.9545008,47.661808,-0.9826353,-1.8877852,-3.4840617,-0.32923394,0.043070097,-0.16956225,28.625,29.75,28.9375,33.0,35.4375,36.5
0.36205202,-0.96705574,0.26709852,-0.7243232,0.03773225,0.048415687,-0.18780299,-0.4116051,-0.3403965,0.059974432,3.0748553,-0.62071574,0.0002985993,-0.17186157,0.046144288,0.0035149816,-0.03303207,0.008042636,0.019157613,0.434255,-1.3885251,1.913545,-2.0969923,-1.5667762,2.4070983,-0.23844762,0.20920858,-0.2607983,0.031303808,0.026766695,-0.25743628,-0.1340753,-0.019153614,-9.481039,0.97240865,47.67166,-1.0010889,-1.7679651,-3.4713402,-0.3322038,0.053297084,-0.14842595,28.625,29.75,28.9375,33.0,35.4375,36.5
0.36405206,-0.8995153,0.07533824,-0.39988092,0.037472293,0.043898996,-0.17764457,-0.41195214,-0.34028542,0.059964728,3.074779,-0.6207449,0.00030956822,-0.17368405,0.04526574,0.0041044215,-0.03453023,0.010966758,0.011490159,0.4337386,-1.3881036,1.9130667,-2.096969,-1.5667161,2.40661,-0.23824418,0.21110487,-0.2639924,0.029316366,0.02688406,-0.24956265,-0.26815057,-0.076614454,-9.346964,0.9925471,47.707485,-1.0314955,-1.762053,-3.4199653,-0.31880763,0.02487896,-0.18435347,28.625,29.75,28.9375,33.0,35.4375,36.5
0.36605203,-0.8524592,0.60986555,-0.79338205,0.0425375,0.032573245,-0.17366028,-0.41229913,-0.34020194,0.059963364,3.0747404,-0.62062556,0.00033533527,-0.17463568,0.04510376,0.0035108286,-0.034080617,0.011235945,0.0015531965,0.4332713,-1.3876462,1.912516,-2.096897,-1.5666565,2.4060733,-0.23817675,0.21391685,-0.26579097,0.028236644,0.026346263,-0.2395572,-0.4405331,-0.095768064,-9.346964,0.9231726,47.687782,-1.0808625,-1.7742271,-3.3735497,-0.3001319,0.019248508,-0.32596585,28.625,29.75,28.9375,33.0,35.4375,36.5
0.36805212,-1.3578794,0.11505542,-1.1694956,0.047929924,0.019704357,-0.17355771,-0.41261604,-0.34011528,0.059959926,3.0746555,-0.6207258,0.0003890658,-0.17490667,0.04470706,0.0029157468,-0.03246187,0.010722426,-0.005022275,0.43281594,-1.3872368,1.9120263,-2.096825,-1.566585,2.4056916,-0.23670118,0.21671219,-0.26791745,0.028713783,0.025079954,-0.23150642,-0.38307226,0.076614454,-9.519346,0.97464454,47.679718,-1.2779317,-2.032883,-3.3505087,-0.3009147,0.03929335,-0.44889867,28.625,29.75,28.9375,33.0,35.4375,36.5
0.37005252,-0.9323964,-0.38700774,-1.053303,-0.0019453923,0.058071297,-0.1902621,-0.41295314,-0.34001768,0.05997071,3.07461,-0.6207331,0.0003907427,-0.17528874,0.045197833,0.00171095,-0.029969417,0.009005243,-0.0030285404,0.4323478,-1.3868276,1.9114989,-2.0967295,-1.5665492,2.405234,-0.23670112,0.22011699,-0.26944157,0.029470652,0.023556337,-0.23350064,-0.24899697,0.095768064,-9.519346,1.0708755,47.65106,-1.326737,-2.0491474,-3.354666,-0.31836998,0.043689832,-0.4982744,28.625,29.75,28.9375,33.0,35.4375,36.5
0.37205252,-1.6788454,-1.1320606,-0.9866101,-0.04019421,0.07625162,-0.19040975,-0.41335404,-0.33993822,0.060010713,3.0745363,-0.6206534,0.00026334528,-0.17693584,0.04573151,0.0017818256,-0.028983584,0.010341209,0.0099726105,0.43186775,-1.3863701,1.9108533,-2.096657,-1.5665258,2.404714,-0.23785788,0.2221086,-0.27200553,0.029323349,0.022172904,-0.24765685,-0.19153613,0.17238252,-9.461885,0.9634547,47.690468,-1.4418073,-2.1141574,-3.335786,-0.32264853,0.038410142,-0.41655064,28.625,29.75,28.9375,33.0,35.4375,36.5
0.37405244,-1.742315,-1.3848773,-0.93688524,-0.04071058,0.077001855,-0.19531804,-0.4136894,-0.33985448,0.060007967,3.0744817,-0.6205772,0.00027367726,-0.1779401,0.04651771,0.0019653998,-0.028443042,0.011144717,0.023168204,0.43141127,-1.3859371,1.9103392,-2.0966094,-1.5664662,2.4042172,-0.23934853,0.22253625,-0.27306634,0.029542588,0.021404197,-0.26234347,-0.3256114,0.2681506,-9.500193,1.0529729,47.661808,-1.4175539,-2.1093717,-3.3740654,-0.32606244,0.056013223,-0.25868988,28.625,29.75,28.9375,33.0,35.4375,36.5
0.37605265,-1.6834862,-1.7463703,-0.9888452,-0.039754674,0.08516975,-0.18132666,-0.41404045,-0.33974192,0.060005046,3.0744574,-0.62055254,0.00030575553,-0.1789702,0.047125287,0.0022856959,-0.028458426,0.011995247,0.02558433,0.43090692,-1.3854929,1.9098014,-2.096514,-1.5664304,2.4037008,-0.24081337,0.22284378,-0.27428776,0.029715301,0.021082358,-0.2662247,-0.34476507,0.2873042,-9.5385,0.9768804,47.677036,-1.4112523,-2.0153632,-3.3229194,-0.33522636,0.056835607,-0.171633,28.625,29.75,28.9375,33.0,35.4375,36.5
0.37805256,-1.8508794,-1.715357,-1.2683501,-0.016633399,0.036922604,-0.1658469,-0.4144265,-0.3396361,0.060013432,3.074417,-0.6204552,0.00021003661,-0.18019176,0.04880592,0.001423942,-0.02769842,0.0118283965,0.015022011,0.43040144,-1.3850362,1.9092392,-2.0964901,-1.5664185,2.40314,-0.24411146,0.2241904,-0.27366364,0.028198492,0.020470869,-0.25895977,-0.40222588,0.38307226,-9.481039,0.99031126,47.66987,-1.290946,-1.8240933,-3.488257,-0.30444324,0.0679054,-0.22685017,28.625,29.75,28.9375,33.0,35.4375,36.5
