Tylouw/Master_Thesis_Code/training_data/batch_1/small_rod_t0.3/sample_92_session_3.csv
timestamp[s],tcp_force_x[N],tcp_force_y[N],tcp_force_z[N],tcp_force_rx[Nm?],tcp_force_ry[Nm?],tcp_force_rz[Nm?],tcp_pose_x[m],tcp_pose_y[m],tcp_pose_z[m],tcp_pose_rx[rot_vec_x],tcp_pose_ry[rot_vec_y],tcp_pose_rz[rot_vec_z],tcp_velo_x[m/s],tcp_velo_y[m/s],tcp_velo_z[m/s],tcp_velo_rx[rot_vec_x/s],tcp_velo_ry[rot_vec_y/s],tcp_velo_rz[rot_vec_z/s],q1[rad],q2[rad],q3[rad],q4[rad],q5[rad],q6[rad],qd1[rad/s],qd2[rad/s],qd3[rad/s],qd4[rad/s],qd5[rad/s],qd6[rad/s],tool_acc_x,tool_acc_y,tool_acc_z,current_of_whole_robot[A],voltage_of_whole_robot[V],current_J1[A],current_J2[A],current_J3[A],current_J4[A],current_J5[A],current_J6[A],temp_J1[C],temp_J2[C],temp_J3[C],temp_J4[C],temp_J5[C],temp_J6[C]
6.490154e-07,-0.57206875,-0.04796457,0.89458644,-0.01256594,-0.005279239,-0.012091276,-0.3810972,-0.3485411,0.06001832,-3.078606,0.62487614,-1.54027e-05,0.0020644173,0.0010287695,-0.0022714534,0.002283821,-0.004667943,0.00019305908,0.47778618,-1.4259936,1.9576792,-2.1008685,-1.5707573,2.4527283,-1.2338134e-07,0.000899024,0.004126695,0.000169134,0.0001275612,-0.0001953661,0.095768064,0.1340753,-8.848969,0.62999195,47.699425,0.019030442,-2.8577917,-2.5260124,-0.44871846,0.14668977,0.06524027,28.625,29.75,28.9375,33.0,35.4375,36.5
0.002052535,-0.43506795,0.1976394,1.0383497,-0.01438677,-0.003499658,-0.014727248,-0.38107848,-0.34852248,0.05997411,-3.0785334,0.6248805,-9.111675e-05,-0.0007629057,-0.0004453397,-0.002924444,-0.0012540427,0.0021071008,0.00019069716,0.47778618,-1.4259443,1.9577278,-2.1008847,-1.5707816,2.4527402,-1.6553182e-09,0.0042743855,0.004325955,-0.011048626,0.0001285516,-0.00019020478,0.05746084,0.15322891,-8.791509,0.6926589,47.691364,0.0304982,-2.8499298,-2.4845371,-0.39554995,0.1706729,0.06452867,28.625,29.75,28.9375,33.0,35.4375,36.5
0.004052668,-0.63854074,0.05233149,0.9212411,-0.013861547,-0.005078471,-0.0102535905,-0.3810697,-0.34853578,0.059972458,-3.0785396,0.62486243,-0.00011630436,-0.0015397081,-0.0008498091,-0.0026137272,-0.0024170713,0.004341258,0.0001863991,0.47781014,-1.4259324,1.9577154,-2.1008732,-1.5707697,2.452752,-2.2208207e-11,0.0043257736,0.0040881797,-0.013380987,0.00012803721,-0.00018530896,0.076614454,0.1340753,-8.695741,0.79560274,47.67614,0.061792772,-3.1960912,-2.7465832,-0.30298185,0.17027494,0.059361644,28.625,29.75,28.9375,33.0,35.4375,36.5
0.006051641,-0.27834505,0.31508818,0.9377107,0.0030695328,-0.016036738,-0.017024284,-0.3810858,-0.3485374,0.05997242,-3.0785348,0.624919,-0.00010348869,-0.00081266335,-0.00046945756,-0.0015915821,-0.0013505984,0.0023100285,0.0001811431,0.4777981,-1.425909,1.9576911,-2.1008828,-1.5707697,2.452776,-2.9795144e-13,0.0025476776,0.0024877598,-0.0077083027,0.00012469446,-0.00018065903,0.038307227,0.21068975,-8.6574335,0.7732232,47.66808,0.022878643,-3.0591636,-2.6726604,-0.34151864,0.14741434,0.056706052,28.625,29.75,28.9375,33.0,35.4375,36.5
0.008051681,-0.045835067,1.2384992,0.5557017,0.029293554,-0.043691937,-0.011424079,-0.38105354,-0.34852734,0.059949327,-3.078518,0.6248581,-0.00015930654,-0.0004785316,-0.0002934595,-0.00025531606,-0.0012745444,0.0021837885,0.00017613692,0.47781014,-1.425922,1.9577612,-2.1008942,-1.5707697,2.452752,-3.9973988e-15,8.497716e-05,0.0013991464,-0.0040098964,0.00012134519,-0.00017623659,0.0,0.095768064,-8.810662,0.78888994,47.71823,0.09153287,-2.9294543,-2.539271,-0.35942477,0.15433317,0.06712128,28.625,29.75,28.9375,33.0,35.4375,36.5
0.010051873,0.09238528,1.1423179,0.049659677,0.03752445,-0.044801947,-0.015303548,-0.38105893,-0.34853017,0.05994388,-3.0784976,0.62487304,-0.00019227265,-4.7060363e-05,-4.011168e-05,-0.00020401241,-0.00040597565,0.0005233918,0.00012281991,0.47781014,-1.425886,1.9577268,-2.100869,-1.5707697,2.452764,-4.8886537e-05,1.1400771e-06,0.00079422805,-0.0014472854,0.00011815949,-0.00017202586,0.038307227,0.05746084,-9.040505,0.63671005,47.705692,-0.34293136,-2.330297,-3.1943002,-0.37391335,0.12816572,0.029219437,28.625,29.75,28.9375,33.0,35.4375,36.5
0.012052143,0.6434731,1.0252831,-0.014464886,-0.0044100634,-0.008989781,-0.024903629,-0.3810628,-0.34850755,0.059933428,-3.0784588,0.624942,-0.00020983188,-3.8085975e-05,-1.5692423e-06,-0.0025170129,0.002111523,-0.0042911214,6.6935456e-05,0.4777741,-1.4258844,1.9577488,-2.1008685,-1.5707816,2.452776,-9.84694e-05,0.006073079,-0.0011332277,-0.00015874034,9.5141535e-05,-0.00016400439,0.076614454,0.05746084,-9.251195,0.7396539,47.695843,-0.515656,-2.191689,-3.2010872,-0.37155336,0.10916358,-0.0104136765,28.625,29.75,28.9375,33.0,35.4375,36.5
0.014052034,-0.38238746,-0.22465964,-0.3050828,-0.024899082,0.0013800614,-0.02051621,-0.381048,-0.34849837,0.059918046,-3.078425,0.62491757,-0.00028375356,-0.0051521324,0.001268722,-0.0042364732,0.0032961045,-0.0066065877,-0.003743251,0.4777715,-1.4258682,1.9577574,-2.1008327,-1.5707816,2.4527624,-0.007096114,0.016410945,-0.009019191,-1.036461e-05,9.000899e-05,-0.0033458583,0.0,0.1340753,-9.423578,0.8291774,47.71823,-0.28495425,-3.0065975,-3.0213232,-0.35165203,0.10080966,-0.03351794,28.625,29.75,28.9375,33.0,35.4375,36.5
0.016052168,-1.3139086,-1.2070576,-0.5138777,-0.051660053,0.024355223,-0.01684004,-0.381061,-0.34851575,0.059916623,-3.078476,0.6248869,-0.00031911852,-0.0048988583,0.0023422383,-0.0036978906,0.0041320743,-0.008180754,0.0015843025,0.477759,-1.4258331,1.957723,-2.1008437,-1.5707334,2.4527242,-0.008759952,0.01469106,-0.009107156,0.0035790429,7.68728e-05,-0.010338175,-0.19153613,0.22984336,-9.481039,0.7396539,47.687782,-0.27133617,-2.8341074,-3.1796827,-0.36151952,0.07710199,0.010839343,28.625,29.75,28.9375,33.0,35.4375,36.5
0.01805176,-1.4356929,-1.0597514,-0.55324334,-0.0743824,0.057409685,-0.037424374,-0.3810358,-0.34849617,0.059888728,-3.0783713,0.6248443,-0.00044439148,-0.0046459036,0.0025643231,-0.003082707,0.0044209594,-0.008710195,0.0051864553,0.47777104,-1.4257855,1.9577106,-2.1007469,-1.5707697,2.452723,-0.008912729,0.013489259,-0.009684807,0.0059605115,6.488533e-05,-0.01409347,-0.2681506,0.30645782,-9.634268,0.7486078,47.71286,-0.3848958,-2.50619,-3.4372742,-0.37977928,0.07592331,0.03029485,28.625,29.75,28.9375,33.0,35.4375,36.5
0.020051897,-1.7623076,-1.2412287,-0.556385,-0.05844237,0.06533749,-0.044204228,-0.3810501,-0.3485012,0.059873708,-3.0783844,0.6248283,-0.0004566735,-0.0056754043,0.0026948634,-0.003114174,0.0046297708,-0.008705792,0.005136296,0.47775865,-1.425737,1.9576977,-2.1007826,-1.5707573,2.452699,-0.009974621,0.015141515,-0.011571023,0.006287282,-0.0001265032,-0.015103675,-0.34476504,0.3256114,-9.634268,0.7329411,47.684196,-0.53375614,-2.468935,-3.4510224,-0.3625086,0.054322556,0.04687034,28.625,29.75,28.9375,33.0,35.4375,36.5
0.022052085,-2.2342775,-0.81650376,-0.8199905,-0.03762971,0.060309947,-0.054258443,-0.3810623,-0.348478,0.059867643,-3.0783253,0.6248751,-0.0004903398,-0.007937246,0.0027448277,-0.0028804983,0.0041085873,-0.0074567837,0.0033153428,0.47772187,-1.4257122,1.9576725,-2.100735,-1.5707816,2.452699,-0.012080633,0.017784309,-0.014986521,0.0057112016,-0.00024781594,-0.015386223,-0.59376204,0.40222588,-9.768343,0.68146914,47.652847,-0.5695511,-2.429437,-3.470118,-0.36307842,0.02935876,0.04294643,28.625,29.75,28.9375,33.0,35.4375,36.5
0.024051659,-1.6677271,-0.5668877,-0.8841223,-0.03443701,0.071702704,-0.0721666,-0.3810698,-0.3484791,0.059867077,-3.0783532,0.6247862,-0.0005016497,-0.009142221,0.0032499612,-0.0029113546,0.004046457,-0.007113622,0.0005951713,0.47770914,-1.4256997,1.9576596,-2.100735,-1.5707697,2.4526272,-0.014026168,0.018892728,-0.01610665,0.0053902958,-0.00035323616,-0.014610567,-0.59376204,0.3256114,-9.902418,0.78888994,47.677036,-0.5430274,-2.3783567,-3.4047794,-0.36241114,0.021854803,0.011163227,28.625,29.75,28.9375,33.0,35.4375,36.5
0.026052652,-2.2551272,-0.7884064,-0.84537035,-0.026875881,0.04861639,-0.08221826,-0.3810758,-0.34846827,0.059838895,-3.0783043,0.6247964,-0.0005901493,-0.010606841,0.0037410045,-0.00243325,0.0044345437,-0.006050398,-0.0011639422,0.47768462,-1.4256275,1.9576362,-2.100711,-1.5707701,2.4526153,-0.015710935,0.019689187,-0.018238178,0.005962612,-0.0011911625,-0.014533357,-0.7661445,0.2681506,-9.902418,0.74413085,47.705692,-0.5687324,-2.5153203,-3.4472575,-0.34587353,0.019740984,-0.00044720387,28.625,29.75,28.9375,33.0,35.4375,36.5
0.028051713,-1.8061088,-0.43958586,-0.6331316,-0.031948086,0.06413259,-0.09708658,-0.38111925,-0.34847522,0.05984799,-3.0783248,0.62485826,-0.0005581411,-0.01095552,0.0039286227,-0.0024943803,0.005227238,-0.006613304,-0.0013588616,0.47764862,-1.4255794,1.9575633,-2.1007226,-1.5707577,2.4526153,-0.016077057,0.020652507,-0.01945142,0.0070785703,-0.0016362562,-0.014703146,-0.7852981,0.19153613,-9.9790325,0.7418897,47.719128,-0.58587575,-2.467195,-3.519951,-0.34115285,0.019646153,-0.043203954,28.625,29.75,28.9375,33.0,35.4375,36.5
0.030051783,-1.8848251,-0.38688797,-0.64981467,-0.020437988,0.06696294,-0.11077868,-0.38113827,-0.34847996,0.059852533,-3.078331,0.62487906,-0.0005970867,-0.012147809,0.0042099743,-0.0019334874,0.005661366,-0.005973905,-0.0016809943,0.47762424,-1.4255432,1.9575032,-2.1006858,-1.5707344,2.452603,-0.017237099,0.02140937,-0.021897959,0.008402632,-0.002318825,-0.015538534,-0.7278373,0.11492168,-9.883265,0.7239871,47.687782,-0.58139056,-2.3926263,-3.4528265,-0.3247506,0.0072563994,-0.020650117,28.625,29.75,28.9375,33.0,35.4375,36.5
0.032051936,-1.3826122,0.5936491,-0.4107223,-0.023404036,0.07471454,-0.12418648,-0.38116267,-0.3484639,0.059837673,-3.0782955,0.6248527,-0.00061659236,-0.012905524,0.0035467017,-0.0011500977,0.0047672815,-0.004838156,-0.0019642569,0.4775882,-1.4254831,1.957466,-2.100674,-1.5707577,2.4525552,-0.016933,0.021804286,-0.024265459,0.008954264,-0.002051092,-0.014950509,-0.7086837,0.019153614,-9.940725,0.7329411,47.698532,-0.67623025,-2.4175794,-3.3401606,-0.3335688,-0.02618799,-0.023082238,28.625,29.75,28.9375,33.0,35.4375,36.5
0.034052294,-1.4825042,0.5913228,-0.49373505,0.0076268218,0.06587306,-0.1326404,-0.38119844,-0.34847102,0.05982862,-3.0782938,0.62481517,-0.00060408894,-0.013985077,0.0036317788,-0.0011824272,0.004447305,-0.0048009236,-0.0038399324,0.4775758,-1.4253986,1.957393,-2.1006858,-1.5707701,2.4525197,-0.018254358,0.023365745,-0.025963623,0.008909756,-0.00178751,-0.014395636,-0.59376204,0.038307227,-9.749189,0.69041777,47.690468,-0.6589225,-2.4260576,-3.4056816,-0.3322025,-0.05365129,-0.049124107,28.625,29.75,28.9375,33.0,35.4375,36.5
0.036052413,-1.6167637,1.0066651,-0.61446816,0.022080904,0.03606024,-0.13363002,-0.38123962,-0.34847373,0.059846733,-3.0783184,0.6248983,-0.00058377034,-0.01494672,0.0041702646,-0.0013422546,0.0055091954,-0.0053322064,-0.006136922,0.4775273,-1.4253742,1.957321,-2.100674,-1.5707468,2.45252,-0.019645823,0.025049906,-0.027764553,0.009989335,-0.0024870906,-0.013487768,-0.53630114,-0.05746084,-9.615114,0.7620334,47.707485,-0.6220983,-2.4003615,-3.4032884,-0.31585887,-0.07682966,-0.06506118,28.625,29.75,28.9375,33.0,35.4375,36.5
0.038052414,-1.3615502,0.9282762,-0.36112267,0.040683936,0.027715078,-0.14610913,-0.38126805,-0.34846094,0.0598328,-3.078303,0.6248945,-0.0006120521,-0.017144047,0.0044556432,-6.71655e-05,0.0061020586,-0.0019536454,-0.007099255,0.47747886,-1.4253142,1.9572843,-2.1006734,-1.5707477,2.452471,-0.02082918,0.025456302,-0.031217415,0.010314981,-0.0045737396,-0.013702634,-0.4213795,-0.22984336,-9.576807,0.72622824,47.72002,-0.6522511,-2.3749206,-3.3037395,-0.31009522,-0.08202462,-0.07173312,28.625,29.75,28.9375,33.0,35.4375,36.5
0.040052377,-1.1084006,0.8633084,-0.36934477,0.03496873,0.021103872,-0.15817052,-0.38131544,-0.34844977,0.059845395,-3.0782962,0.6249129,-0.00055891037,-0.01767295,0.0050537908,-0.00030382222,0.007808807,-0.0025633194,-0.0076779467,0.47743064,-1.4252778,1.9572114,-2.100661,-1.5707716,2.4524353,-0.021577321,0.02674047,-0.03242651,0.011569581,-0.0058091986,-0.01386908,-0.21068975,-0.19153613,-9.595961,0.679228,47.637623,-0.67207026,-2.3534546,-3.2975411,-0.29121134,-0.05382735,-0.08871873,28.625,29.75,28.9375,33.0,35.4375,36.5
0.04205247,-0.65695673,0.53962266,-0.40021294,0.031476416,0.020081216,-0.16470748,-0.3813514,-0.3484415,0.059850395,-3.078261,0.6249444,-0.0005238946,-0.018739669,0.0054761963,1.4126267e-05,0.008364191,-0.00166784,-0.008189607,0.47740614,-1.4252295,1.9571394,-2.1006367,-1.5708078,2.452435,-0.022723814,0.027328989,-0.03390527,0.011922183,-0.0067168428,-0.014501267,-0.24899697,-0.19153613,-9.576807,0.6344689,47.67345,-0.61523414,-2.3102357,-3.3188007,-0.3049765,-0.07232937,-0.09900223,28.625,29.75,28.9375,33.0,35.4375,36.5
0.044051904,-0.53785735,0.39109662,-0.31381106,0.013281042,0.019682877,-0.18097219,-0.38137686,-0.34840906,0.059819415,-3.0782049,0.62501043,-0.0006638566,-0.020583393,0.006021155,0.00056667085,0.009428102,0.00065848685,-0.009149038,0.4773097,-1.4251455,1.9571036,-2.1005895,-1.5707844,2.4523869,-0.024082493,0.028337127,-0.03627113,0.011709305,-0.008738311,-0.014894113,-0.15322891,-0.11492168,-9.500193,0.7418897,47.650166,-0.6155139,-2.263453,-3.294549,-0.29664832,-0.05490759,-0.10780653,28.625,29.75,28.9375,33.0,35.4375,36.5
0.04605191,-1.1775756,0.0833906,-0.28563637,-0.0003542544,0.0027506086,-0.1816532,-0.38141814,-0.3483945,0.059838712,-3.0781696,0.6250608,-0.0005592331,-0.02186746,0.0068630343,0.0007744344,0.01131363,0.0016834474,-0.009879529,0.47728536,-1.4251331,1.9570426,-2.100577,-1.5708455,2.4523985,-0.025369668,0.029316634,-0.03803108,0.012452047,-0.010885962,-0.015445655,-0.095768064,0.05746084,-9.500193,0.6926589,47.696735,-0.5894611,-2.2449965,-3.343131,-0.31118655,-0.054692864,-0.13472264,28.625,29.75,28.9375,33.0,35.4375,36.5
0.048052147,-0.70335644,-0.2629403,-0.28885677,-0.0073211594,0.017145839,-0.20099895,-0.38148654,-0.34837842,0.059848834,-3.078151,0.62503767,-0.0004824205,-0.023164164,0.007423661,0.0012301184,0.012759873,0.0029582847,-0.010284416,0.47722504,-1.425061,1.9569343,-2.1005647,-1.5708941,2.4523263,-0.02634461,0.030129759,-0.04020504,0.01335001,-0.012759011,-0.016010989,-0.095768064,0.17238252,-9.481039,0.81351066,47.71286,-0.5794407,-2.2471378,-3.2841835,-0.3213442,-0.036804076,-0.13831821,28.625,29.75,28.9375,33.0,35.4375,36.5
0.050052013,-0.500382,-0.44153225,-0.20039396,-0.013720525,0.019600708,-0.20795292,-0.38151053,-0.34837908,0.059852473,-3.078128,0.62509036,-0.00056439353,-0.024392594,0.007947919,0.0017808479,0.013875831,0.005035484,-0.009850033,0.47718877,-1.425001,1.9568385,-2.1004808,-1.5708708,2.4523258,-0.027143115,0.030271474,-0.041612886,0.013290206,-0.014709238,-0.017238332,-0.076614454,0.22984336,-9.519346,0.6948948,47.677036,-0.5911078,-2.1664207,-3.401342,-0.31095994,-0.017842727,-0.14981125,28.625,29.75,28.9375,33.0,35.4375,36.5
0.052051947,-0.5832756,-0.5685113,-0.35322845,-0.01877031,0.014634971,-0.2146707,-0.38157535,-0.34835654,0.059855472,-3.0781064,0.6251826,-0.0005110216,-0.025157955,0.007914006,0.0016603257,0.013301139,0.004107663,-0.010404631,0.47710428,-1.4249407,1.9567655,-2.1004927,-1.5708946,2.4523017,-0.028393252,0.03191042,-0.043359257,0.013952687,-0.013775075,-0.017935213,-0.038307227,0.2873042,-9.557653,0.7329411,47.691364,-0.6101824,-2.1470191,-3.2988164,-0.32002816,-0.0175362,-0.1813258,28.625,29.75,28.9375,33.0,35.4375,36.5
0.05405251,-0.5528522,-1.0160301,-0.4553649,-0.026274301,0.011800794,-0.21279389,-0.38160494,-0.34834778,0.05985992,-3.078059,0.62511533,-0.0005096043,-0.025807258,0.0077431626,0.0012951697,0.012971175,0.003259364,-0.009977671,0.47709197,-1.4248799,1.9566697,-2.1004207,-1.5709418,2.4522536,-0.029129988,0.033949707,-0.044867404,0.014019718,-0.013097,-0.0190988,-0.076614454,0.30645782,-9.5385,0.8112748,47.688675,-0.5977556,-2.2285058,-3.301446,-0.3236953,-0.03339435,-0.17590493,28.625,29.75,28.9375,33.0,35.4375,36.5
0.05605247,-0.30658168,-0.91463494,-0.397482,-0.05290419,0.014105432,-0.21282694,-0.38168195,-0.34832284,0.059874557,-3.078039,0.6252446,-0.0004697446,-0.026355991,0.007361193,0.0013627,0.011759793,0.0026890796,-0.0094690835,0.47698388,-1.4248195,1.9565619,-2.1003969,-1.5709532,2.4522288,-0.029819345,0.03508582,-0.04639654,0.014356319,-0.011762196,-0.020299029,-0.076614454,0.3256114,-9.576807,0.7418897,47.62598,-0.58601665,-2.2393744,-3.3287468,-0.33285567,-0.060242094,-0.17117655,28.625,29.75,28.9375,33.0,35.4375,36.5
0.058052327,-0.75605994,-1.6750636,-0.44150463,-0.045442935,0.0072125075,-0.20089702,-0.3817163,-0.34830678,0.059869394,-3.0779972,0.6252361,-0.00046077717,-0.027606478,0.0075594364,0.0024094554,0.011050131,0.004767129,-0.009771999,0.47694737,-1.42476,1.9565004,-2.1003726,-1.57099,2.4521923,-0.031110985,0.034327548,-0.04795945,0.014505214,-0.012089965,-0.021286152,-0.095768064,0.38307226,-9.5385,0.800085,47.684196,-0.6128705,-2.0233889,-3.3455,-0.30696082,-0.06670541,-0.2070714,28.625,29.75,28.9375,33.0,35.4375,36.5
0.06005241,-0.6779722,-1.3896997,-0.5306053,-0.04317911,0.0076397825,-0.18628016,-0.38178167,-0.34832248,0.059895676,-3.078045,0.6252842,-0.00041247037,-0.029045578,0.007637486,0.0027685193,0.011561178,0.005544911,-0.009165513,0.47689906,-1.4246997,1.9563688,-2.1003606,-1.5709656,2.452168,-0.03204511,0.036046315,-0.050921895,0.015294823,-0.012905324,-0.022824164,-0.076614454,0.38307226,-9.519346,0.71279734,47.681515,-0.60432047,-1.9865432,-3.3280077,-0.31852266,-0.044621103,-0.20918436,28.625,29.75,28.9375,33.0,35.4375,36.5
0.062052492,-0.5203253,-1.2043786,-0.35430095,-0.031879194,0.024452154,-0.19030154,-0.3818309,-0.34829623,0.059904464,-3.0779746,0.6253269,-0.0004078166,-0.030860629,0.007829547,0.00284796,0.012934777,0.0070844674,-0.0082079,0.47683877,-1.4246386,1.9562601,-2.1002772,-1.5710148,2.4521434,-0.03280304,0.038630884,-0.053997565,0.015052991,-0.014841483,-0.024533106,-0.095768064,0.36391866,-9.481039,0.7418897,47.719128,-0.64605975,-2.1194768,-3.1760712,-0.3082975,-0.0423247,-0.2000553,28.625,29.75,28.9375,33.0,35.4375,36.5
0.06405165,-0.7602618,-0.72019607,-0.27011168,-0.027513718,0.032409217,-0.19256559,-0.38191605,-0.34829512,0.059914883,-3.0780175,0.62535393,-0.00037566223,-0.030054579,0.008843912,0.0015126301,0.015361864,0.0042592995,-0.006990082,0.47674266,-1.4245424,1.956129,-2.1002882,-1.5709909,2.4520588,-0.033298325,0.039728787,-0.052416872,0.015999928,-0.01569583,-0.026245918,-0.15322891,0.38307226,-9.442732,0.74413085,47.72002,-0.6502358,-2.0967717,-3.3959768,-0.31562912,-0.032767944,-0.22530663,28.625,29.75,28.9375,33.0,35.4375,36.5
0.06605192,-1.1140033,-0.50207573,-0.061810467,-0.01324732,0.030752713,-0.19047293,-0.3819521,-0.34828043,0.059904974,-3.0779727,0.62528694,-0.0003981812,-0.031576503,0.008309923,0.001257916,0.015199455,0.0046689287,-0.0065528452,0.47670642,-1.4244576,1.9560441,-2.100241,-1.5710267,2.4519866,-0.033718936,0.043174148,-0.055611756,0.015309291,-0.015749885,-0.027100628,-0.1340753,0.3256114,-9.423578,0.72622824,47.689575,-0.65543985,-2.2496545,-3.3812778,-0.28243285,-0.022734113,-0.24573892,28.625,29.75,28.9375,33.0,35.4375,36.5
0.06805189,-0.7088662,0.06632337,0.08407305,-0.02094335,0.03822766,-0.1934367,-0.38202536,-0.3482647,0.059908714,-3.077985,0.6253464,-0.00035352953,-0.033425197,0.00692535,0.0030985763,0.012140319,0.007958282,-0.005590643,0.4766105,-1.4243855,1.9559587,-2.1002648,-1.5710262,2.4519262,-0.03373684,0.043269992,-0.059899528,0.015168733,-0.014550156,-0.02808165,-0.1340753,0.24899697,-9.3661175,0.800085,47.73256,-0.75502264,-2.194222,-3.127851,-0.28493527,-0.026811833,-0.22849828,28.625,29.75,28.9375,33.0,35.4375,36.5
0.07005181,-1.1731778,-0.33981225,-0.009222106,-0.00998524,0.01906363,-0.18160874,-0.3821054,-0.3482505,0.059934195,-3.07793,0.62531507,-0.00022880065,-0.034081686,0.006971214,0.0034159822,0.011946197,0.0086589195,-0.004894549,0.4765742,-1.4243017,1.9557914,-2.1002052,-1.571123,2.4518776,-0.03432027,0.043508973,-0.060912833,0.015228085,-0.014701158,-0.029360682,-0.15322891,0.22984336,-9.32781,0.76874626,47.701214,-0.8225554,-2.1024003,-3.0725203,-0.25631046,-0.0272685,-0.24256773,28.625,29.75,28.9375,33.0,35.4375,36.5
0.07205179,-0.8834678,-0.15527964,0.12647258,-0.005613636,0.0164851,-0.17813656,-0.382194,-0.34826052,0.05996568,-3.0779827,0.62536323,-0.00014118836,-0.033693,0.007598485,0.0017662339,0.013873028,0.0052394797,-0.0041666743,0.47650215,-1.4242287,1.9556359,-2.1002047,-1.5711106,2.451829,-0.034978252,0.04633773,-0.06053653,0.015944472,-0.014840644,-0.030747352,-0.13407528,0.22984336,-9.32781,0.7239871,47.699425,-0.8395009,-2.1285763,-3.3197753,-0.26320344,-0.03993904,-0.25266138,28.625,29.75,28.9375,33.0,35.4375,36.5
0.074052036,-0.92354447,-0.01626292,0.15757276,-0.0060124295,0.016568685,-0.18281741,-0.38223398,-0.34823373,0.059939075,-3.0779243,0.6253895,-0.00024206817,-0.035565775,0.007307922,0.00241293,0.014141334,0.0069449986,-0.0038151091,0.47641793,-1.4241202,1.955562,-2.1001565,-1.5711111,2.4517686,-0.035516478,0.048471507,-0.064569965,0.016453622,-0.015871968,-0.031631522,-0.21068975,0.1340753,-9.270349,0.7329411,47.66808,-0.8966367,-2.1503131,-3.1473742,-0.23634392,-0.036664464,-0.24038132,28.625,29.75,28.9375,33.0,35.4375,36.5
0.07605252,-0.6306495,0.4361803,0.4047973,-0.001891391,0.029586745,-0.19320431,-0.38231885,-0.34822914,0.059961904,-3.0778956,0.6253065,-8.982757e-05,-0.035977453,0.006871461,0.0024196997,0.013463552,0.0062928325,-0.0022877895,0.47639364,-1.424024,1.9553946,-2.1001327,-1.5712069,2.4516964,-0.035699476,0.049805116,-0.06624899,0.017060058,-0.014972253,-0.033343494,-0.30645782,0.076614454,-9.212888,0.7172743,47.68599,-0.91457725,-2.1957102,-3.0832372,-0.2347166,-0.029864192,-0.25165617,28.625,29.75,28.9375,33.0,35.4375,36.5
0.07805261,-0.3186961,0.5690851,0.2366057,0.010563842,0.04579164,-0.19715603,-0.3823632,-0.34823173,0.059945717,-3.0778937,0.6253054,-0.00018499901,-0.036780644,0.00661173,0.0027186647,0.013320158,0.0063232784,-0.0019401374,0.47633374,-1.4239037,1.9552859,-2.100096,-1.5711707,2.451636,-0.036044475,0.051087104,-0.0686308,0.018066607,-0.014863663,-0.03403446,-0.38307226,0.095768064,-9.212888,0.80679786,47.689575,-0.981027,-2.1304078,-3.1153107,-0.22481382,-0.04271438,-0.28468493,28.625,29.75,28.9375,33.0,35.4375,36.5
0.08005166,-1.071572,0.40511462,0.3056165,0.014836966,0.029514141,-0.18460633,-0.38249493,-0.3482013,0.059984967,-3.0778937,0.6253821,-3.6579582e-05,-0.037268177,0.006842907,0.0026653365,0.013030156,0.0048837173,-0.0028731653,0.47618914,-1.4238194,1.9550947,-2.1000721,-1.5712184,2.4515395,-0.037487686,0.052122135,-0.070037454,0.019577296,-0.013943076,-0.034547154,-0.24899697,0.095768064,-9.251195,0.7530795,47.68599,-0.99977076,-2.110701,-3.001392,-0.21884727,-0.046969473,-0.27692366,28.625,29.75,28.9375,33.0,35.4375,36.5
0.08205196,-0.9422406,0.066096045,0.12960981,0.013910595,0.03517571,-0.1794155,-0.38254446,-0.34819308,0.059985388,-3.0778747,0.62539715,-6.651086e-05,-0.03806666,0.006848282,0.0028765418,0.013907602,0.005104811,-0.0027040774,0.47612914,-1.4237351,1.9549865,-2.1000235,-1.5712188,2.4514914,-0.03765421,0.053469975,-0.07232274,0.020722585,-0.01482769,-0.03487951,-0.22984336,0.076614454,-9.270349,0.7642693,47.68599,-0.99458057,-2.1432147,-3.0819702,-0.22667503,-0.05210223,-0.2994862,28.625,29.75,28.9375,33.0,35.4375,36.5
0.08405261,-0.7457674,0.4626224,0.17475511,-0.0077627054,0.03201535,-0.19210039,-0.3826231,-0.34818223,0.05998243,-3.0778592,0.62543184,-5.3736072e-05,-0.038720343,0.006915759,0.0026053458,0.014823598,0.0047319285,-0.0011863691,0.47604507,-1.4236146,1.9548529,-2.1000116,-1.5712308,2.451431,-0.037948824,0.055373613,-0.0740019,0.021248877,-0.015474477,-0.036689516,-0.24899697,0.15322891,-9.212888,0.6948948,47.701214,-1.1089671,-2.120648,-3.038516,-0.22290656,-0.056213994,-0.31925955,28.625,29.75,28.9375,33.0,35.4375,36.5
0.08605173,-0.75204057,-0.08831333,-0.06063155,-0.0047896053,0.032749295,-0.18636681,-0.38268083,-0.3481648,0.059968695,-3.0777905,0.6253593,-0.00012179135,-0.040145747,0.00714322,0.002981704,0.015295827,0.006056471,7.802325e-05,0.47598466,-1.4234705,1.954698,-2.0999157,-1.5712675,2.4513342,-0.03898786,0.056568872,-0.07625528,0.02134604,-0.016510505,-0.03898817,-0.34476504,0.17238252,-9.212888,0.7933669,47.684196,-1.1421831,-2.1247873,-3.0631454,-0.1981537,-0.039108537,-0.30303994,28.625,29.75,28.9375,33.0,35.4375,36.5
0.08805164,-0.83164704,-0.08597268,0.10290992,-0.012791558,0.03739123,-0.17628042,-0.38275805,-0.34816238,0.05998624,-3.0777647,0.62539196,-9.9263336e-05,-0.040411953,0.007182103,0.003130359,0.015540468,0.005454339,-0.0009206176,0.47592464,-1.4233626,1.9545182,-2.0998433,-1.5712913,2.451298,-0.039332353,0.057134382,-0.077560745,0.022731632,-0.01645141,-0.038333677,-0.22984336,0.1340753,-9.270349,0.8291774,47.745995,-1.1923641,-2.1202977,-3.0248919,-0.18799974,-0.05459386,-0.30967438,28.625,29.75,28.9375,33.0,35.4375,36.5
0.090051726,-1.1211344,-0.49586755,-0.20593415,-0.0077510355,0.033219695,-0.1795269,-0.38285166,-0.3481233,0.0599783,-3.0777018,0.62541884,-2.9700443e-05,-0.041304577,0.00826289,0.0015568946,0.017511439,0.0023119696,-0.0037575013,0.47581574,-1.4232411,1.9543976,-2.0998433,-1.5713633,2.451214,-0.04186101,0.061221708,-0.07884075,0.023617303,-0.016764836,-0.038023673,-0.2681506,0.24899697,-9.346964,0.7239871,47.703007,-1.1605862,-2.1961443,-3.0511642,-0.19139795,-0.034939304,-0.3577881,28.625,29.75,28.9375,33.0,35.4375,36.5
0.09205171,-0.5197496,-0.55524594,0.06577641,-0.019736862,0.04590795,-0.18838046,-0.38294628,-0.3481091,0.05999315,-3.0777001,0.62551385,-2.6563828e-05,-0.04234232,0.008129659,0.0023627472,0.01666357,0.0037846426,-0.0020193297,0.4756956,-1.4231329,1.9542292,-2.0997956,-1.5713514,2.4511535,-0.04261433,0.061131936,-0.080624975,0.02379018,-0.016690759,-0.0405147,-0.36391866,0.21068975,-9.289502,0.6702794,47.64837,-1.166607,-2.2632875,-3.0873313,-0.1963108,-0.030341934,-0.34154737,28.625,29.75,28.9375,33.0,35.4375,36.5
0.0940521,-1.1747347,-0.5915905,-0.36057657,-0.020585997,0.029571159,-0.17699423,-0.3829987,-0.34810293,0.059980635,-3.0776546,0.62536776,-8.136958e-05,-0.042731483,0.007794003,0.0027759578,0.016362648,0.004379548,-3.1823285e-05,0.4756595,-1.422989,1.9540743,-2.0997112,-1.5713872,2.4510322,-0.04236386,0.061377894,-0.08195107,0.02420029,-0.016701909,-0.04224989,-0.30645782,0.19153613,-9.461885,0.6948948,47.682407,-1.1729312,-1.988025,-3.1305997,-0.18020816,-0.05677432,-0.34778702,28.625,29.75,28.9375,33.0,35.4375,36.5
0.09605214,-1.2172874,-0.7346684,-0.30970418,-0.016278747,0.026898004,-0.16740558,-0.3831162,-0.348085,0.060007922,-3.0776432,0.62542206,3.8905786e-05,-0.0432741,0.008629685,0.0019562403,0.017908234,0.002802083,0.0021334053,0.47555104,-1.42288,1.9538821,-2.0996873,-1.5714358,2.4509592,-0.0439105,0.06342645,-0.08257902,0.024885187,-0.017353795,-0.045960885,-0.30645782,0.22984336,-9.385271,0.71279734,47.67345,-1.3246088,-2.087726,-3.1225615,-0.15460886,-0.03553303,-0.33479798,28.625,29.75,28.9375,33.0,35.4375,36.5
0.098052256,-1.0861702,-0.5948244,-0.29507342,-0.021307273,0.027539719,-0.18141921,-0.3831909,-0.3480655,0.060005657,-3.077607,0.62533885,5.445092e-05,-0.0448463,0.008876399,0.0010007354,0.01843791,0.001228474,0.00023427545,0.47547826,-1.4227582,1.9537371,-2.0996392,-1.571483,2.4508393,-0.045944385,0.06782469,-0.085454054,0.02499909,-0.017111955,-0.046093628,-0.19153613,0.21068975,-9.404425,0.83589023,47.7245,-1.2025477,-2.2609444,-3.1653419,-0.14471039,-0.06562493,-0.32257003,28.625,29.75,28.9375,33.0,35.4375,36.5
0.1000522,-1.0847256,-0.6475889,-0.38162917,-0.016826529,0.018818792,-0.18135437,-0.38328114,-0.34804866,0.059997298,-3.0775692,0.62535137,4.835081e-05,-0.045949675,0.01026286,0.0017311859,0.018248647,0.0030229248,-0.0025532467,0.47538134,-1.422603,1.9535707,-2.0996034,-1.5715078,2.4507551,-0.048980836,0.065776646,-0.08470422,0.02461459,-0.017766254,-0.04634137,-0.15322891,0.24899697,-9.404425,0.7463667,47.695843,-1.1527364,-2.1266577,-3.10795,-0.12922102,-0.046429016,-0.35416415,28.625,29.75,28.9375,33.0,35.4375,36.5
0.10205216,-0.7467045,-0.37084228,-0.24476703,-0.01619453,0.024040882,-0.18246575,-0.38337433,-0.348034,0.060007293,-3.077547,0.62532514,5.4596567e-05,-0.045826975,0.01100125,-0.00016565585,0.02045282,-0.00052775437,0.00023717151,0.47528505,-1.4224695,1.953379,-2.0995314,-1.5715317,2.4506454,-0.049948804,0.06937639,-0.08459412,0.02506546,-0.01810389,-0.05009837,-0.21068975,0.19153613,-9.404425,0.78217715,47.70659,-1.1064887,-2.1700225,-3.3420248,-0.10871556,-0.064846754,-0.33556408,28.625,29.75,28.9375,33.0,35.4375,36.5
0.104052424,-0.4525313,-0.05562638,-0.10900481,-0.021528326,0.0338806,-0.17982553,-0.38345733,-0.3480121,0.059994955,-3.0775094,0.62535405,2.1503325e-05,-0.047562882,0.009307101,0.0017366444,0.01834235,0.0017131692,0.0040464145,0.47517726,-1.4223249,1.9532336,-2.0994947,-1.5715431,2.4505606,-0.049068924,0.07054231,-0.09074128,0.0270802,-0.017266044,-0.0530261,-0.15322891,0.17238252,-9.423578,0.8493211,47.711964,-1.2596581,-2.2423894,-3.0312696,-0.09185933,-0.06685544,-0.30485603,28.625,29.75,28.9375,33.0,35.4375,36.5
0.106051646,-0.9601012,0.3210428,0.12730464,-0.014921757,0.0157325,-0.1849327,-0.38358137,-0.34798616,0.060011975,-3.0774775,0.62534666,0.00010846746,-0.04722418,0.01103203,-8.372819e-05,0.020993005,-0.0018919501,0.004219254,0.4750565,-1.4221803,1.9530185,-2.099447,-1.5716037,2.4504395,-0.051346086,0.07240186,-0.088870995,0.02776354,-0.017970007,-0.055475745,-0.19153613,0.15322891,-9.423578,0.7978386,47.683304,-1.2395073,-2.1869006,-3.3000574,-0.08009131,-0.05899605,-0.2597902,28.625,29.75,28.9375,33.0,35.4375,36.5
0.108052544,-1.0714995,-0.12257419,-0.10201179,0.00424222,0.012169106,-0.17925099,-0.38367167,-0.34799403,0.060031652,-3.0775115,0.62523794,0.00016167434,-0.049051695,0.011777779,0.00048748148,0.020816933,-0.0013036273,0.004135704,0.4749955,-1.4220597,1.9528273,-2.0994103,-1.571616,2.4503064,-0.054259684,0.07327135,-0.091421984,0.028837133,-0.01808623,-0.05830497,-0.24899697,0.095768064,-9.5385,0.8090337,47.701214,-1.0725456,-2.2313032,-3.259019,-0.07785012,-0.086480886,-0.25417656,28.625,29.75,28.9375,33.0,35.4375,36.5
0.11005253,-0.41498864,0.17567945,-0.070986375,-0.005516467,0.032630164,-0.18913655,-0.38375637,-0.34794858,0.06000443,-3.0774145,0.6252171,0.00011598974,-0.04898368,0.012029651,0.00010626418,0.021756062,-0.002777283,0.0062515866,0.47487557,-1.4218912,1.9526833,-2.0993497,-1.5716757,2.450186,-0.054522954,0.074313655,-0.09205352,0.030158812,-0.018254,-0.060682017,-0.19153613,0.11492168,-9.423578,0.7620334,47.701214,-1.1305782,-2.1716108,-3.4003015,-0.076680094,-0.06627543,-0.21770272,28.625,29.75,28.9375,33.0,35.4375,36.5
0.112052314,-0.98188496,0.20910822,-0.078314535,-0.0016074824,0.022853326,-0.1835333,-0.38386476,-0.3479412,0.060017634,-3.0774176,0.6251783,0.00016837001,-0.049493708,0.012726982,-0.0002005134,0.02296747,-0.0037869762,0.007457252,0.47477895,-1.4217467,1.9524797,-2.099314,-1.5717005,2.450065,-0.0558132,0.07547017,-0.092955515,0.031352386,-0.01887067,-0.06317661,-0.22984336,0.095768064,-9.423578,0.7486078,47.68599,-1.1376774,-2.1342664,-3.4028046,-0.06626584,-0.09507934,-0.16265894,28.625,29.75,28.9375,33.0,35.4375,36.5
0.11405196,-0.6803293,0.7005193,-0.077992894,-0.009126069,0.040176563,-0.19252993,-0.38395667,-0.34791717,0.060021874,-3.0773559,0.6251067,0.00013957573,-0.050061222,0.013056971,-0.00018795277,0.022813145,-0.0047103814,0.008288342,0.4746825,-1.4215902,1.9522637,-2.0991933,-1.5717477,2.4499319,-0.05726341,0.07624191,-0.09413902,0.032505542,-0.018318262,-0.06545755,-0.24899697,0.11492168,-9.385271,0.84708,47.677036,-1.1828241,-2.1581335,-3.441288,-0.05744785,-0.10027628,-0.15375723,28.625,29.75,28.9375,33.0,35.4375,36.5
0.116051845,-0.9040601,-0.029735966,0.019592931,0.013274991,0.039160933,-0.17803611,-0.38406357,-0.34789088,0.060015686,-3.0773187,0.62517524,9.496023e-05,-0.051566944,0.013125637,0.00036668853,0.0228824,-0.0036841952,0.009085525,0.4745381,-1.4214218,1.9520715,-2.0991333,-1.5717481,2.449835,-0.058397755,0.07754892,-0.09708384,0.033259336,-0.018859476,-0.067385666,-0.28730422,0.05746084,-9.32781,0.7777002,47.678825,-1.1877713,-2.0366626,-3.334724,-0.05098389,-0.09420931,-0.120274305,28.625,29.75,28.9375,33.0,35.4375,36.5
0.11805179,-1.0505178,-0.10137455,-0.07975228,0.013551142,0.033999078,-0.17578954,-0.3841414,-0.34786358,0.06000969,-3.0772789,0.62507224,6.859102e-05,-0.050611947,0.014418528,-0.0013890157,0.025779163,-0.007700127,0.0072958665,0.4744417,-1.421289,1.951917,-2.0990613,-1.5717844,2.4496796,-0.059325445,0.079233594,-0.09534075,0.03472679,-0.019598452,-0.066521905,-0.30645782,0.038307227,-9.442732,0.8023209,47.70211,-1.2624768,-2.1114244,-3.5371904,-0.036496416,-0.116377905,-0.080055475,28.625,29.75,28.9375,33.0,35.4375,36.5
0.120051794,-0.25002784,0.4299917,0.11633561,-0.0050323126,0.05596035,-0.1904768,-0.3842738,-0.3478355,0.060021162,-3.0772376,0.6250822,0.00014284533,-0.05318529,0.013803874,0.00078038615,0.023894101,-0.004543724,0.0067651877,0.47430936,-1.4211206,1.9516872,-2.0990126,-1.5718445,2.449559,-0.060718365,0.07953167,-0.10104254,0.036453158,-0.019373745,-0.06738241,-0.3256114,0.076614454,-9.3661175,0.779936,47.66091,-1.1836532,-2.064301,-3.3977652,-0.041174144,-0.11487751,-0.06782105,28.625,29.75,28.9375,33.0,35.4375,36.5
0.12205186,-1.1811825,0.1259756,-0.10495474,-0.003610808,0.03485665,-0.18227032,-0.3843802,-0.34780037,0.06002238,-3.0771933,0.625056,0.000106396685,-0.05380326,0.014331446,0.00056885945,0.024388252,-0.004511518,0.003998217,0.47416493,-1.4209645,1.9514841,-2.0989172,-1.5718683,2.449404,-0.06190379,0.08025364,-0.10134479,0.03622972,-0.01983322,-0.06579854,-0.40222588,0.11492168,-9.289502,0.784413,47.674347,-1.1897954,-2.0654812,-3.5381815,-0.028489541,-0.10700662,-0.0835323,28.625,29.75,28.9375,33.0,35.4375,36.5
0.12405238,-0.80589575,0.36682752,-0.18964456,-0.0033645353,0.044664588,-0.18483344,-0.38450676,-0.3477757,0.060035612,-3.0771537,0.62501067,0.00016464907,-0.055665888,0.014318646,9.597975e-06,0.025680767,-0.0041775135,0.00048049926,0.47404465,-1.4207947,1.9512433,-2.0988452,-1.5719293,2.4492607,-0.062720574,0.08454485,-0.104884796,0.035773344,-0.021143757,-0.063091956,-0.34476504,0.17238252,-9.32781,0.779936,47.653748,-1.1876681,-1.9846528,-3.3813045,-0.014982662,-0.13331024,-0.07297249,28.625,29.75,28.9375,33.0,35.4375,36.5
0.12605242,-0.99283046,-0.14270675,-0.21840031,-0.0026029227,0.045909062,-0.17671357,-0.38458255,-0.3477622,0.060026813,-3.0771203,0.6250454,5.101526e-05,-0.057116337,0.015637543,0.0014087793,0.024976503,-0.0028339862,-0.0043444647,0.47393522,-1.4206393,1.9510635,-2.0987484,-1.5719045,2.4491773,-0.06637599,0.08230824,-0.10593566,0.037544727,-0.02113358,-0.0619211,-0.45968673,0.21068975,-9.404425,0.77545905,47.684196,-1.0788963,-1.954679,-3.393587,-0.005880625,-0.13533917,-0.07242785,28.625,29.75,28.9375,33.0,35.4375,36.5
0.12805238,-1.2472651,-0.044303168,-0.21174681,-0.015104894,0.047096428,-0.1863821,-0.38473144,-0.34771454,0.060044445,-3.0770435,0.6250664,0.00021216834,-0.057207517,0.014572334,0.0014462742,0.024819935,-0.0030838295,-0.0023073547,0.4737921,-1.4204826,1.9508361,-2.0987132,-1.5720247,2.4490573,-0.0647095,0.08408415,-0.1082095,0.03818169,-0.020883815,-0.062291823,-0.51714754,0.19153613,-9.461885,0.84484416,47.71823,-1.1878076,-1.8467846,-3.487003,0.0029253713,-0.13388605,-0.099939,28.625,29.75,28.9375,33.0,35.4375,36.5
0.13005263,-0.9974448,-0.023712244,-0.3596326,-0.021343088,0.059895795,-0.18948229,-0.3848248,-0.34769472,0.060048275,-3.0770202,0.6249881,0.00013594743,-0.058025528,0.015295462,0.0005626712,0.02634919,-0.005553003,-0.008846299,0.4736715,-1.4203252,1.9506196,-2.0985925,-1.5720247,2.448891,-0.06657105,0.0872356,-0.11020631,0.039926954,-0.021119425,-0.057611417,-0.5363012,0.24899697,-9.442732,0.7597976,47.691364,-1.1771113,-2.0013943,-3.383982,-0.005010481,-0.15815896,-0.13501796,28.625,29.75,28.9375,33.0,35.4375,36.5
0.13205177,-0.9304527,-0.4394889,-0.36770564,-0.024029879,0.068677604,-0.18414183,-0.38493946,-0.34765604,0.060041957,-3.076956,0.6250929,0.00011487664,-0.05965647,0.016777305,0.0016301365,0.026335709,-0.0047058454,-0.013787387,0.47351402,-1.4201574,1.9504284,-2.0985324,-1.5720495,2.4488072,-0.07042148,0.08600316,-0.11169005,0.04188128,-0.021496065,-0.056518894,-0.5554548,0.24899697,-9.5385,0.7172743,47.711063,-1.1097656,-1.8294823,-3.4254913,-0.0188101,-0.14354587,-0.1677693,28.625,29.75,28.9375,33.0,35.4375,36.5
0.1340524,-1.2461843,0.011436469,-0.47409236,-0.039324436,0.06216079,-0.1874614,-0.38506734,-0.3476172,0.060051,-3.076863,0.62511134,0.00015162947,-0.06048303,0.016144654,0.0015422017,0.02604772,-0.0044179326,-0.013790169,0.47338217,-1.4199765,1.9501761,-2.0984247,-1.572133,2.448699,-0.070108585,0.08822858,-0.113974154,0.041544966,-0.021380546,-0.056201223,-0.34476504,0.22984336,-9.576807,0.82694155,47.64658,-1.0012869,-1.8087909,-3.365586,-0.023343086,-0.17895606,-0.20689315,28.625,29.75,28.9375,33.0,35.4375,36.5
0.13605231,-1.4336171,-0.91187185,-0.5468188,-0.028317703,0.05693047,-0.17744686,-0.38519496,-0.34759083,0.060049318,-3.076815,0.62512153,0.00018172768,-0.062012948,0.01639271,0.0016154133,0.02591292,-0.0039676344,-0.015968528,0.47324955,-1.4197836,1.9499482,-2.0983765,-1.5721806,2.448579,-0.071862616,0.09008791,-0.11628211,0.041526888,-0.021473177,-0.055774976,-0.4405331,0.22984336,-9.615114,0.8224646,47.674347,-1.1209425,-1.752837,-3.3902092,-0.0022964037,-0.1880277,-0.2073424,28.625,29.75,28.9375,33.0,35.4375,36.5
0.13805233,-1.092814,-0.80507255,-0.61520815,-0.024738356,0.054351553,-0.18594328,-0.3853493,-0.34753507,0.06006881,-3.0767553,0.6251679,0.00026589754,-0.06309156,0.017710991,0.0013098262,0.028084636,-0.0059546055,-0.018255312,0.47305658,-1.419627,1.9497079,-2.098304,-1.5722531,2.448423,-0.074489236,0.092115864,-0.11861031,0.044580422,-0.022501789,-0.056111544,-0.38307226,0.2681506,-9.519346,0.84708,47.695843,-0.96129787,-1.7711238,-3.3051531,-0.015786111,-0.17058593,-0.20614207,28.625,29.75,28.9375,33.0,35.4375,36.5
0.14005241,-0.6062514,0.04789942,-0.41074422,-0.021051338,0.05218698,-0.185017,-0.38546282,-0.3475166,0.06006353,-3.076684,0.6251917,0.00019914747,-0.065148726,0.017452603,0.0025487752,0.027524807,-0.004373058,-0.019376947,0.47293612,-1.4194102,1.9494442,-2.0981834,-1.5722779,2.4483266,-0.07573477,0.09346154,-0.12340416,0.046362236,-0.022736497,-0.05623097,-0.38307226,0.1340753,-9.615114,0.7530795,47.67614,-0.9744534,-1.8249235,-3.3177924,-0.031754978,-0.1922161,-0.27337566,28.625,29.75,28.9375,33.0,35.4375,36.5
0.14205246,-0.7735991,0.14184509,-0.39102334,-0.012889621,0.03612162,-0.18323669,-0.38558945,-0.34746104,0.06005506,-3.0765812,0.625267,0.00020809461,-0.06501754,0.018074403,0.0013441547,0.02907593,-0.0076691452,-0.020300873,0.47276798,-1.419229,1.9492396,-2.098111,-1.572349,2.4482188,-0.076767735,0.09595713,-0.12389555,0.047990516,-0.02261955,-0.056338914,-0.36391866,0.17238252,-9.615114,0.80456203,47.690468,-0.96409214,-1.8561673,-3.1426055,-0.043212943,-0.21245681,-0.2906797,28.625,29.75,28.9375,33.0,35.4375,36.5
0.1440519,-0.5243674,0.29836085,-0.27785686,-0.010344864,0.047025952,-0.18604074,-0.38573557,-0.3474411,0.060076468,-3.076573,0.625342,0.00022018806,-0.066429235,0.01821502,0.0005926005,0.030298905,-0.009725149,-0.020759866,0.47259933,-1.4190475,1.9489635,-2.098027,-1.572349,2.4480982,-0.07817083,0.10051331,-0.12781148,0.049732804,-0.022780929,-0.05728053,-0.40222588,0.15322891,-9.500193,0.7978386,47.668976,-0.98760784,-1.8753209,-3.0495722,-0.052590057,-0.2072666,-0.2997636,28.625,29.75,28.9375,33.0,35.4375,36.5
0.14605208,-0.81273323,0.57135993,-0.36841363,-0.010555808,0.048286967,-0.19885644,-0.38585374,-0.34739605,0.060060974,-3.0764542,0.6254333,0.0001471625,-0.06653677,0.018868275,0.0010944536,0.030233081,-0.010547938,-0.021643283,0.47244278,-1.4188316,1.9487242,-2.0979059,-1.5723971,2.448014,-0.079675786,0.099408105,-0.12820773,0.051928032,-0.022353593,-0.057901476,-0.30645782,0.19153613,-9.423578,0.8247004,47.674347,-0.9006055,-1.855741,-3.2086172,-0.07247889,-0.23292367,-0.32114834,28.625,29.75,28.9375,33.0,35.4375,36.5
0.14805205,-0.5974502,0.2766209,-0.19754834,-0.010746312,0.057131752,-0.1872771,-0.38600338,-0.34737587,0.06009827,-3.076449,0.62547183,0.0002116954,-0.06723729,0.019599605,-0.0005194466,0.032827336,-0.014890435,-0.023238368,0.4722863,-1.4186738,1.9484361,-2.0978096,-1.5724214,2.4478824,-0.0813635,0.10456396,-0.13106835,0.05467633,-0.022689957,-0.05799225,-0.28730422,0.15322891,-9.557653,0.86498255,47.683304,-0.877785,-1.9155134,-3.1382828,-0.0951419,-0.25726742,-0.35872638,28.625,29.75,28.9375,33.0,35.4375,36.5
0.150052,-1.0122881,-0.14826383,-0.19988732,-0.014151919,0.052539904,-0.18385324,-0.38615778,-0.34733814,0.060111918,-3.0763836,0.6255156,0.00025283842,-0.06760995,0.02083899,-0.00025313193,0.034403853,-0.015836934,-0.024601288,0.4721176,-1.4184697,1.9481491,-2.0977128,-1.5724815,2.4477496,-0.08323515,0.10408951,-0.13176847,0.057406176,-0.023664994,-0.05849826,-0.38307226,0.17238252,-9.385271,0.7486078,47.655537,-0.81409216,-2.010622,-3.209072,-0.14060485,-0.26218283,-0.3751989,28.625,29.75,28.9375,33.0,35.4375,36.5
0.15205204,-1.2831855,-0.04520484,-0.00655244,-0.018772459,0.045190778,-0.181876,-0.38627324,-0.34727398,0.06009275,-3.0762136,0.6255577,0.00018397093,-0.06789737,0.021585276,-0.000948642,0.03613806,-0.018088324,-0.025164397,0.47196123,-1.4182527,1.9479088,-2.0975564,-1.5725783,2.4476416,-0.084451646,0.106079005,-0.13291816,0.059351433,-0.024197401,-0.059146494,-0.45968673,0.22984336,-9.404425,0.73069996,47.62867,-0.7854308,-1.9487973,-3.160267,-0.16698389,-0.27243808,-0.41809493,28.625,29.75,28.9375,33.0,35.4375,36.5
0.15405177,-1.4730589,-0.008597885,0.20924649,-0.0129457135,0.039608687,-0.18438226,-0.3864374,-0.34725234,0.060104974,-3.0761962,0.6256682,0.00022186055,-0.06971009,0.02121864,1.904244e-05,0.03623636,-0.01702916,-0.024099095,0.47178116,-1.418036,1.9476212,-2.0975077,-1.5725902,2.447533,-0.08503967,0.10804589,-0.13787976,0.06144122,-0.024779055,-0.060796373,-0.4405331,0.095768064,-9.3661175,0.7665104,47.65643,-0.8223375,-1.9142938,-3.1425242,-0.22842772,-0.2872937,-0.4376368,28.625,29.75,28.9375,33.0,35.4375,36.5
0.15605268,-0.9715266,0.43231034,0.35905683,-0.014852589,0.048322104,-0.17898268,-0.38659057,-0.3472354,0.060144305,-3.0762022,0.625709,0.0002480574,-0.06999109,0.02297042,-0.0009541465,0.03750427,-0.019380104,-0.026028924,0.47161186,-1.4178674,1.9473108,-2.097388,-1.5725902,2.4473884,-0.08832094,0.1087051,-0.13659112,0.062157154,-0.024841908,-0.062148873,-0.40222588,0.19153613,-9.251195,0.7866488,47.66091,-0.6669966,-2.0263972,-3.2626305,-0.27002478,-0.30022195,-0.4494993,28.625,29.75,28.9375,33.0,35.4375,36.5
0.15805185,-1.3885546,0.30704847,0.56266075,-0.0027096532,0.035124853,-0.18349886,-0.38674995,-0.3471788,0.060147814,-3.0760725,0.62583107,0.00025562584,-0.069527045,0.022051109,-0.0010803685,0.03746577,-0.01997707,-0.018971523,0.4714208,-1.4176389,1.9470109,-2.0972564,-1.5726742,2.4472904,-0.08642204,0.10973799,-0.137619,0.06264495,-0.024555247,-0.067306206,-0.38307226,0.076614454,-9.136273,0.8403672,47.694946,-0.8515706,-1.8869991,-3.257411,-0.25914904,-0.30536473,-0.47279117,28.625,29.75,28.9375,33.0,35.4375,36.5
0.16005169,-1.0406528,0.3903801,0.5418291,0.010010393,0.041429803,-0.18091647,-0.38687497,-0.34710562,0.060108192,-3.0759177,0.62576044,0.00017001512,-0.07099421,0.023377053,-0.001858551,0.03852458,-0.020352801,-0.019060971,0.4712397,-1.4173857,1.9467839,-2.0971367,-1.5727705,2.4470854,-0.08956068,0.11183948,-0.13808386,0.061809264,-0.025351936,-0.07034875,-0.30645782,-0.038307227,-9.059659,0.78217715,47.678825,-0.8150079,-1.9081697,-3.294394,-0.27631566,-0.3307737,-0.43603915,28.625,29.75,28.9375,33.0,35.4375,36.5
0.16205189,-0.21297488,0.91202563,0.6043396,0.013010715,0.049633358,-0.19786762,-0.3870043,-0.34706378,0.06010693,-3.0758488,0.62583774,6.724057e-05,-0.07183422,0.022072189,-0.0011871541,0.03792617,-0.0177202,-0.013280238,0.47104844,-1.4171814,1.9465197,-2.0969937,-1.572771,2.4469514,-0.087536596,0.11298575,-0.14068626,0.06063753,-0.026040668,-0.07409952,-0.21068975,-0.038307227,-9.059659,0.73069996,47.693153,-0.79590964,-1.8388236,-3.2201967,-0.29677382,-0.31971595,-0.4176893,28.625,29.75,28.9375,33.0,35.4375,36.5
0.16405208,-1.4463013,0.25592253,0.45663998,0.022202417,0.01253056,-0.18298218,-0.38715374,-0.34703922,0.06011568,-3.0758266,0.6257706,8.623509e-05,-0.07280464,0.021800207,-0.0011237469,0.037445404,-0.0160698,-0.005296941,0.47089225,-1.4169647,1.9462322,-2.0969107,-1.5728067,2.4467564,-0.08767804,0.11403682,-0.14165184,0.05883997,-0.026386853,-0.08222196,-0.15322891,-0.019153614,-9.040505,0.800085,47.70838,-0.9139295,-1.8180969,-3.342628,-0.28504196,-0.35671908,-0.37158078,28.625,29.75,28.9375,33.0,35.4375,36.5
0.1660521,-0.69077605,0.5503974,0.6464375,0.018956812,0.019503545,-0.18850257,-0.3873145,-0.34699357,0.060128808,-3.0757484,0.6258305,0.00013985024,-0.07440314,0.021376781,-0.0019955204,0.038283892,-0.015416136,-0.0024875114,0.4707123,-1.4167587,1.9459442,-2.0968153,-1.5728792,2.446624,-0.087656245,0.11857715,-0.14444827,0.056880724,-0.027452582,-0.0850035,-0.095768064,0.038307227,-8.925584,0.7978386,47.62688,-0.87776566,-2.0750043,-3.3557224,-0.26346138,-0.35247937,-0.30894852,28.625,29.75,28.9375,33.0,35.4375,36.5
0.16805202,-0.26052523,0.19737363,0.37588975,0.02360381,0.02143705,-0.18596968,-0.38747248,-0.34694186,0.06011997,-3.075631,0.62582254,0.00012020908,-0.07629977,0.0214765,0.00032984954,0.036081437,-0.009449247,0.001043957,0.47053185,-1.4164959,1.9456333,-2.0966847,-1.5729636,2.446454,-0.08901537,0.11513259,-0.14538637,0.054925725,-0.028222417,-0.089889176,-0.05746084,0.076614454,-8.90643,0.84708,47.73077,-0.9709772,-1.7033546,-3.3273532,-0.25039536,-0.35332602,-0.26327842,28.625,29.75,28.9375,33.0,35.4375,36.5
0.1700519,0.40418315,0.34436828,0.1744448,0.0093536945,0.025402034,-0.19977047,-0.38762814,-0.34690252,0.0601268,-3.0755906,0.62575346,0.00013343206,-0.07631676,0.021733275,-0.0013172056,0.038295954,-0.012093401,0.005329868,0.47035187,-1.4162781,1.9453458,-2.0965889,-1.5730113,2.4462364,-0.08893987,0.11899729,-0.14613491,0.05515376,-0.029013582,-0.094095394,0.019153614,0.1340753,-9.078813,0.83589023,47.694946,-0.9999366,-2.018106,-3.3530407,-0.25501359,-0.3741967,-0.19362465,28.625,29.75,28.9375,33.0,35.4375,36.5
0.17205197,-0.40997624,-0.5100989,-0.0042754533,-0.0019545741,-0.004196999,-0.17989439,-0.38777623,-0.34686103,0.060129944,-3.075508,0.6257361,0.00011798765,-0.07898087,0.021654304,-0.0008433693,0.037256215,-0.0081797885,0.0054797777,0.47018328,-1.4160494,1.9450463,-2.0964582,-1.5730718,2.4460678,-0.09061364,0.12087023,-0.14863318,0.05180732,-0.029886609,-0.0959124,0.019153614,0.22984336,-9.097966,0.7911258,47.67166,-1.0457377,-1.8539257,-3.277317,-0.22143424,-0.3636039,-0.15238038,28.625,29.75,28.9375,33.0,35.4375,36.5
0.17405203,-0.8535991,-1.208717,-0.012958778,-0.022478977,-0.011042876,-0.17199789,-0.38794568,-0.34679034,0.06010939,-3.0753832,0.62574893,0.00012222801,-0.08186628,0.021365043,0.00045250932,0.03625715,-0.0041436874,0.0042127864,0.46996677,-1.4157845,1.9447702,-2.0963748,-1.5731682,2.4458756,-0.09205031,0.122354545,-0.15307519,0.05070156,-0.030848248,-0.09607415,0.038307227,0.3256114,-9.136273,0.80679786,47.64837,-0.95081663,-1.8756993,-3.2986732,-0.18240206,-0.3663873,-0.11754841,28.625,29.75,28.9375,33.0,35.4375,36.5
0.17605196,-0.1767173,-1.4148303,-0.17589647,-0.03905469,0.013194284,-0.18577687,-0.38811257,-0.34674716,0.060117036,-3.0753071,0.62582946,9.7431555e-05,-0.081858575,0.021417022,-0.0006951666,0.037693232,-0.0057618706,0.0033988701,0.46976298,-1.4155434,1.944446,-2.0962431,-1.5732049,2.445732,-0.09173474,0.12507728,-0.15357728,0.05056916,-0.03140417,-0.09494062,0.05746084,0.30645782,-9.174581,0.7418897,47.711964,-1.1003232,-1.9116814,-3.3846657,-0.15772012,-0.39226323,-0.11086893,28.625,29.75,28.9375,33.0,35.4375,36.5
0.17805183,-0.046392504,-1.1140008,-0.4327757,-0.045693435,0.016230034,-0.18213771,-0.38825607,-0.34670982,0.060119983,-3.075238,0.6257427,7.9109814e-05,-0.083349064,0.022950469,-0.0006302731,0.039280903,-0.0061384756,-0.003247968,0.4696058,-1.4153148,1.9441465,-2.0961106,-1.573265,2.44553,-0.094955094,0.12607174,-0.15529291,0.052347742,-0.032651518,-0.091507204,0.05746084,0.40222588,-9.3661175,0.83813137,47.704796,-0.93916035,-1.9207579,-3.233762,-0.18336584,-0.37210208,-0.12225952,28.625,29.75,28.9375,33.0,35.4375,36.5
0.18005206,-0.42958733,-1.6417367,-0.5926149,-0.0469081,0.02154635,-0.17977752,-0.38841513,-0.34665498,0.0601181,-3.075136,0.6256823,9.742061e-05,-0.084257424,0.021804117,-3.8666763e-05,0.039042387,-0.0032734997,-0.0050876685,0.4694267,-1.4150742,1.9438475,-2.0959918,-1.5733608,2.4453266,-0.09300376,0.12725425,-0.15770245,0.050911687,-0.0337451,-0.08770875,-0.05746084,0.47884035,-9.500193,0.84708,47.67614,-1.0995951,-1.8444393,-3.142336,-0.15565187,-0.3586533,-0.17460021,28.625,29.75,28.9375,33.0,35.4375,36.5
0.18205217,-0.272318,-1.3488452,-0.6901261,-0.06043211,0.040701546,-0.18712519,-0.3885766,-0.3466077,0.060113475,-3.075074,0.6256935,7.219993e-05,-0.087520175,0.02314157,6.495413e-05,0.038684662,-0.0014527503,-0.0134994015,0.4692208,-1.4148326,1.9435586,-2.095896,-1.5733975,2.4451358,-0.09793923,0.12969421,-0.16043442,0.049419478,-0.034259763,-0.08422707,-0.21068975,0.6512228,-9.595961,0.82694155,47.690468,-0.9521475,-2.0854661,-3.4446783,-0.10023217,-0.3766445,-0.18217191,28.625,29.75,28.9375,33.0,35.4375,36.5
0.18405212,-1.094507,-1.6172174,-0.65956324,-0.067616396,0.031225886,-0.1792817,-0.3887349,-0.34656602,0.060092453,-3.0749433,0.62572384,-2.0573116e-05,-0.08547005,0.02191647,-0.0012694424,0.040266234,-0.005482702,-0.013712157,0.4690424,-1.41452,1.9432119,-2.09574,-1.5734571,2.4449935,-0.094146974,0.13223988,-0.16084066,0.05158855,-0.033849273,-0.08021929,-0.17238252,0.7278373,-9.672575,0.8224646,47.66808,-1.1777476,-1.8706186,-3.4374244,-0.11968489,-0.3729561,-0.25590473,28.625,29.75,28.9375,33.0,35.4375,36.5
0.18605235,-0.7906841,-1.3901044,-0.85894746,-0.073158786,0.051643655,-0.17934018,-0.3889216,-0.34652388,0.06009288,-3.0748541,0.62574196,5.5793145e-05,-0.087300114,0.022550175,-0.00029800218,0.04090816,-0.0029218863,-0.012670649,0.46886167,-1.4142437,1.9428767,-2.0956676,-1.5735539,2.444836,-0.095746845,0.1323197,-0.16325314,0.051911693,-0.03559483,-0.08285264,-0.21068975,0.53630114,-9.691729,0.8537928,47.690468,-1.1503451,-1.9254698,-3.3702106,-0.10188319,-0.36762112,-0.26969332,28.625,29.75,28.9375,33.0,35.4375,36.5
0.18805237,-0.92482054,-1.2666328,-0.86714154,-0.066512145,0.058322962,-0.1874271,-0.38908044,-0.34650728,0.060086552,-3.0748122,0.6257361,3.233887e-05,-0.08891859,0.0236082,-0.0005968513,0.04309634,-0.002720233,-0.016773012,0.46870494,-1.4139667,1.9425534,-2.0955837,-1.5735787,2.4446812,-0.09771668,0.13471542,-0.16550903,0.052586712,-0.037642933,-0.08070972,-0.15322891,0.49799395,-9.787497,0.8851263,47.7245,-1.0956783,-1.9471699,-3.3649187,-0.08825126,-0.36037937,-0.27760103,28.625,29.75,28.9375,33.0,35.4375,36.5
0.19005229,-0.7748356,-1.1702309,-0.8324421,-0.044904437,0.062028043,-0.1791069,-0.38926095,-0.3464309,0.060081203,-3.0746603,0.6257991,3.4809727e-05,-0.08977778,0.023978962,-0.00051825965,0.044694256,-0.0019349736,-0.016745707,0.46847713,-1.4137018,1.9422287,-2.0954406,-1.5736874,2.4445126,-0.09794209,0.13588828,-0.16717798,0.053092238,-0.039437987,-0.08095155,-0.19153613,0.34476504,-9.730036,0.8090337,47.699425,-1.1842636,-1.9016036,-3.2684042,-0.08312988,-0.33374378,-0.29680485,28.625,29.75,28.9375,33.0,35.4375,36.5
0.19205225,-1.094504,-0.6204053,-0.7027543,-0.027040267,0.044849686,-0.18312997,-0.38944617,-0.3463833,0.06008484,-3.0745819,0.62582076,7.1616785e-05,-0.09133309,0.024569588,-0.00047000768,0.046263143,-0.0007952612,-0.0174463,0.46827272,-1.4134371,1.9418939,-2.0953443,-1.5737599,2.4443321,-0.099096715,0.13777146,-0.16951382,0.05322783,-0.04136483,-0.081395715,-0.3256114,0.3256114,-9.749189,0.79560274,47.653748,-1.1167088,-1.9770453,-3.2713404,-0.07800533,-0.31434575,-0.3156125,28.625,29.75,28.9375,33.0,35.4375,36.5
0.19405232,-1.0501031,0.15369372,-0.64427036,-0.014220628,0.038014043,-0.18446757,-0.38964793,-0.34635141,0.06009739,-3.0745306,0.6257533,0.00021638682,-0.09161146,0.024952449,-0.0008363685,0.046561822,-0.0017491272,-0.018429125,0.4681043,-1.4131603,1.9415358,-2.0952961,-1.5738682,2.4441285,-0.100077495,0.13870184,-0.16987108,0.053624485,-0.04120177,-0.081395514,-0.40222588,0.19153613,-9.576807,0.8537928,47.65912,-1.1861042,-1.9555688,-3.3577116,-0.04437256,-0.29975104,-0.34252176,28.625,29.75,28.9375,33.0,35.4375,36.5
0.19605242,-1.1755141,0.83025956,-0.66431546,-0.0011834097,0.02946712,-0.18946436,-0.38982365,-0.34632108,0.060104676,-3.0744817,0.6258388,0.00018187203,-0.091941275,0.025314955,-0.000866478,0.046315476,-0.002503592,-0.01869891,0.4678999,-1.412896,1.9411877,-2.0951765,-1.5738796,2.443984,-0.101317264,0.13900273,-0.17034672,0.054347124,-0.04065088,-0.08236611,-0.2681506,0.05746084,-9.710882,0.8493211,47.67166,-1.1534561,-1.8592961,-3.4144335,-0.015538808,-0.31448308,-0.36004812,28.625,29.75,28.9375,33.0,35.4375,36.5
0.19805251,-1.3098288,0.57757306,-0.44652575,0.007326149,0.035188217,-0.190273,-0.39003065,-0.3462715,0.060100257,-3.0743904,0.6258569,0.00028363444,-0.09283705,0.025747506,-0.0014333313,0.049092244,-0.0030359814,-0.016609509,0.46769604,-1.4125944,1.9408396,-2.0951278,-1.5739883,2.4438035,-0.10138557,0.1420378,-0.17284465,0.055520944,-0.042902235,-0.08451358,-0.34476507,-0.11492168,-9.615114,0.8873621,47.73077,-1.2049794,-2.0531135,-3.3925366,-0.0074148653,-0.28507614,-0.36442193,28.625,29.75,28.9375,33.0,35.4375,36.5
0.20005251,-0.9512899,0.7254437,-0.2634956,0.019940311,0.064374104,-0.1929675,-0.39020854,-0.34621674,0.060098678,-3.074261,0.62594414,0.00021866868,-0.09384667,0.027988555,-0.0026244044,0.05369799,-0.007248808,-0.016379738,0.4674786,-1.4123052,1.9404691,-2.0949466,-1.5740494,2.4436576,-0.104768425,0.14574017,-0.17549595,0.060287684,-0.045133054,-0.088112086,-0.45968673,-0.22984336,-9.481039,0.8157518,47.723602,-1.0565797,-1.9083905,-3.3983078,-0.017000392,-0.24990663,-0.3501039,28.625,29.75,28.9375,33.0,35.4375,36.5
0.20205249,-1.7625644,1.3942622,-0.124114655,0.029783387,0.053472307,-0.1727907,-0.39038858,-0.34617412,0.060090702,-3.0741463,0.6258581,0.00023270285,-0.09321572,0.02801779,-0.0027070036,0.05510283,-0.008445121,-0.010037233,0.4673111,-1.4119929,1.9400977,-2.0948145,-1.5741576,2.4434516,-0.10373272,0.1458791,-0.17595114,0.062271837,-0.045870103,-0.09341286,-0.4405331,-0.34476507,-9.481039,0.8112748,47.703007,-1.25788,-2.02758,-3.4827137,-0.034002706,-0.23243928,-0.32178545,28.625,29.75,28.9375,33.0,35.4375,36.5
0.20405284,-1.7806718,1.0827124,-0.15035032,0.05185288,0.061015084,-0.17420503,-0.3905951,-0.34610912,0.0600948,-3.0740786,0.6259411,0.00031311333,-0.09519101,0.030030906,-0.003000469,0.05703402,-0.010719808,-0.010360313,0.4670572,-1.4117396,1.9397854,-2.0947654,-1.5742296,2.4432585,-0.108539075,0.14842477,-0.17901081,0.06565472,-0.046587933,-0.097892515,-0.30645782,-0.4213795,-9.442732,0.8560339,47.682407,-0.9284496,-2.059379,-3.5399356,-0.042891406,-0.21074612,-0.2697483,28.625,29.75,28.9375,33.0,35.4375,36.5
0.2060537,-0.5654912,1.0486466,0.18092406,0.0588013,0.081782795,-0.18046299,-0.390793,-0.34606367,0.060116574,-3.0740063,0.62584233,0.00034434412,-0.09423664,0.030525334,-0.003475373,0.05995298,-0.015397217,-0.0019285621,0.46685362,-1.4114628,1.9393781,-2.0945952,-1.574314,2.443003,-0.108165964,0.14999002,-0.18111461,0.07163853,-0.047112286,-0.10594711,-0.36391866,-0.40222588,-9.385271,0.88289046,47.65912,-1.0986816,-2.1431398,-3.5579896,-0.0837813,-0.20958059,-0.1835686,28.625,29.75,28.9375,33.0,35.4375,36.5
0.20805374,-0.9632613,0.95537007,0.17590645,0.0721933,0.05148453,-0.1825894,-0.39100012,-0.34601516,0.060148288,-3.0739305,0.62588567,0.00042365683,-0.09610595,0.031925596,-0.0026304107,0.060500335,-0.015714092,-0.0042905654,0.4666362,-1.4112105,1.9389824,-2.0944512,-1.5743979,2.4428227,-0.112022854,0.15038799,-0.18427214,0.074904054,-0.04747065,-0.1074396,-0.49799395,-0.38307226,-9.289502,0.8493211,47.711063,-0.9501742,-2.0897808,-3.4317102,-0.15213831,-0.18775618,-0.14535484,28.625,29.75,28.9375,33.0,35.4375,36.5
0.21005486,-0.5004685,1.6409514,-0.026614163,0.061476935,0.034971464,-0.19008283,-0.3911671,-0.34592906,0.06010853,-3.0737526,0.62578833,0.00037176034,-0.097498536,0.032453187,-0.0023119878,0.061329786,-0.015408594,-0.001668537,0.46641967,-1.4108977,1.9386829,-2.094319,-1.5745305,2.4425688,-0.11356389,0.15179744,-0.18696342,0.07624878,-0.04838767,-0.1115908,-0.5554548,-0.30645782,-9.232041,0.75755644,47.67345,-0.86994386,-2.0008154,-3.2852776,-0.1642533,-0.16302238,-0.07227065,28.625,29.75,28.9375,33.0,35.4375,36.5
0.21205445,-0.6636194,0.8914299,0.01595838,0.060526185,0.027175084,-0.18012711,-0.39135826,-0.3458575,0.060094472,-3.0735843,0.6258134,0.00032367767,-0.09801607,0.03296445,-0.0019602894,0.06227312,-0.016638909,-0.0049881246,0.46619132,-1.4105729,1.9382995,-2.094138,-1.5746382,2.4423783,-0.11467775,0.1524461,-0.18926835,0.07941518,-0.0486917,-0.10937729,-0.5363012,-0.24899697,-9.232041,0.784413,47.66271,-0.9182964,-2.0663872,-3.2630086,-0.20667979,-0.118218705,-0.08115843,28.625,29.75,28.9375,33.0,35.4375,36.5
0.21405336,-1.1184366,0.39095607,0.21735665,0.015275659,0.034556378,-0.17503472,-0.39156935,-0.34576705,0.060103923,-3.0734193,0.6258754,0.0003570555,-0.09794469,0.032809906,-0.0027881488,0.062634595,-0.02008278,-0.007151302,0.46592727,-1.4102956,1.9379176,-2.0939581,-1.5747699,2.4421747,-0.11505684,0.15531598,-0.19125092,0.08174296,-0.04748058,-0.107594065,-0.7469909,-0.05746084,-9.193734,0.83589023,47.694054,-0.87942064,-2.0577455,-3.2826972,-0.2613517,-0.11173834,-0.061457507,28.625,29.75,28.9375,33.0,35.4375,36.5
0.21605323,-1.0814533,-0.2954536,0.30746076,-0.015970398,0.066180095,-0.19255504,-0.3917629,-0.3457237,0.06010927,-3.073318,0.62579757,0.00030674273,-0.098297514,0.031909797,-0.0018851897,0.060981736,-0.019875644,-0.010313815,0.46572348,-1.4099716,1.9374856,-2.0937545,-1.5748414,2.4419358,-0.11460618,0.15535198,-0.19374514,0.083266854,-0.046107218,-0.10398177,-0.80445176,0.11492168,-9.155427,0.81351066,47.678825,-0.951404,-1.8897052,-3.3118064,-0.30483454,-0.10385384,-0.093812265,28.625,29.75,28.9375,33.0,35.4375,36.5
0.2180529,-1.316129,-1.0908954,0.041567758,-0.035001356,0.08543287,-0.1894752,-0.3919513,-0.34565225,0.06009355,-3.0731573,0.6258446,0.00022036624,-0.09936488,0.032128315,-0.001996924,0.059344903,-0.0208072,-0.016624562,0.46548262,-1.4096466,1.9371032,-2.0935628,-1.5749248,2.4417455,-0.11708243,0.1567255,-0.19514981,0.08338581,-0.044241715,-0.10014907,-0.61291564,0.21068975,-9.212888,0.8605109,47.72719,-0.86717755,-1.9323475,-3.2982588,-0.34006724,-0.11905253,-0.122298464,28.625,29.75,28.9375,33.0,35.4375,36.5
0.22005212,-1.7919298,-1.3942889,0.024623115,-0.061441753,0.0912563,-0.18431304,-0.39215,-0.3455782,0.060098086,-3.0730088,0.62589014,0.00021901436,-0.099111974,0.030366886,-0.0018288363,0.057473447,-0.020597266,-0.01795605,0.4652436,-1.4093581,1.9367193,-2.093383,-1.5750326,2.4415545,-0.11469275,0.15786709,-0.19676736,0.08282401,-0.04267517,-0.0964307,-0.49799395,0.2873042,-9.308657,0.779936,47.711964,-1.0745687,-1.8437034,-3.1915758,-0.3585565,-0.13091704,-0.17470309,28.625,29.75,28.9375,33.0,35.4375,36.5
0.22202927,-1.5543265,-1.734407,0.04602332,-0.075071536,0.089159325,-0.18810901,-0.392349,-0.3455298,0.060090266,-3.0728946,0.62590736,0.00018110132,-0.10155877,0.03047232,-0.0012467756,0.054895215,-0.017580692,-0.02338432,0.46502647,-1.4090215,1.9363135,-2.0932286,-1.5751041,2.4413633,-0.11759473,0.15872721,-0.19845702,0.079793006,-0.041743476,-0.09390396,-0.5554548,0.40222588,-9.32781,0.8314132,47.68599,-0.9258592,-1.8210243,-3.301259,-0.34585887,-0.12450531,-0.21609424,28.625,29.75,28.9375,33.0,35.4375,36.5
0.22400928,-1.1695575,-1.8302909,-0.059597496,-0.06846211,0.067396656,-0.18625689,-0.39256805,-0.34545422,0.06008169,-3.07274,0.6260108,0.00022061882,-0.10319447,0.029724805,-0.002160632,0.053749215,-0.015947146,-0.026286623,0.46477452,-1.4086959,1.9359306,-2.0931108,-1.5752238,2.4411964,-0.11784042,0.16260767,-0.19990347,0.07537474,-0.04147129,-0.09124425,-0.40222588,0.38307226,-9.289502,0.8627467,47.677036,-1.1115104,-1.815358,-3.376841,-0.2985286,-0.13317835,-0.27351546,28.625,29.75,28.9375,33.0,35.4375,36.5
0.22605276,-0.51416814,-1.3850964,-0.2763814,-0.055281058,0.046974543,-0.17894381,-0.3927936,-0.34540117,0.060092755,-3.0726402,0.6260664,0.00025674366,-0.1074674,0.028351955,0.0012218567,0.047663055,-0.0062786145,-0.027326137,0.4645338,-1.408372,1.9354991,-2.0929682,-1.5753077,2.4410038,-0.11983335,0.1607996,-0.20445909,0.07034198,-0.040398847,-0.09219902,-0.4213795,0.40222588,-9.232041,0.8672237,47.693153,-1.0327553,-1.8836448,-3.2911472,-0.25914025,-0.12363,-0.2991908,28.625,29.75,28.9375,33.0,35.4375,36.5
0.22805245,-0.4364451,-0.78395796,-0.31500006,-0.051374845,0.024153803,-0.1806732,-0.39301512,-0.34534582,0.060072996,-3.0725405,0.6261821,0.00022416603,-0.109018214,0.028115628,0.00045232935,0.046155307,-0.0048355665,-0.031714056,0.46426925,-1.4080107,1.9351052,-2.0928743,-1.5753549,2.4408247,-0.12116134,0.16352065,-0.20495966,0.06615319,-0.039709657,-0.089138806,-0.2681506,0.51714754,-9.270349,0.92093146,47.709274,-0.95757353,-1.9665141,-3.3559256,-0.19703773,-0.12791304,-0.36164916,28.625,29.75,28.9375,33.0,35.4375,36.5
0.2300524,-0.338431,-1.2312475,-0.33373204,-0.026064903,0.0051989364,-0.18700285,-0.39322856,-0.34527197,0.060065243,-3.0723603,0.6262389,0.0002568578,-0.1094525,0.02781342,-0.00016716923,0.04541448,-0.00445696,-0.030194797,0.46404135,-1.4076738,1.9346989,-2.0927198,-1.5754989,2.4406562,-0.1212464,0.16504626,-0.20482478,0.06379134,-0.039240856,-0.09074179,-0.19153613,0.4405331,-9.308656,0.8224646,47.668976,-1.0240822,-1.8382547,-3.4523225,-0.16016844,-0.14342815,-0.40926135,28.625,29.75,28.9375,33.0,35.4375,36.5
0.2320524,-0.6955276,-1.2974838,-0.36508864,-0.027319817,0.004776642,-0.17983775,-0.39345142,-0.34523258,0.06007887,-3.0723236,0.62628895,0.000261747,-0.11085982,0.02752689,0.00027225536,0.044092577,-0.0026841376,-0.031946864,0.46378905,-1.4073614,1.9342793,-2.0926,-1.5755228,2.4404402,-0.12215458,0.16600098,-0.20669666,0.062522516,-0.03886286,-0.089898214,-0.15322891,0.34476504,-9.289503,0.9298854,47.683304,-1.0131099,-1.8504041,-3.377737,-0.123625845,-0.14658697,-0.44177628,28.625,29.75,28.9375,33.0,35.4375,36.5
0.23405202,-0.15124258,-1.345937,-0.2090306,-0.03056038,0.027511677,-0.18044156,-0.3936669,-0.34516597,0.06004667,-3.0721452,0.62636447,0.00021264917,-0.111413166,0.026698293,5.3975702e-05,0.04318384,-0.0028707965,-0.02878588,0.46354917,-1.4069642,1.9338611,-2.0924566,-1.5756305,2.4402711,-0.12166667,0.16816844,-0.20866099,0.062044706,-0.03799826,-0.09256998,-0.019153614,0.38307226,-9.32781,0.85155696,47.66091,-1.0479286,-1.8800228,-3.4490829,-0.075814635,-0.17016694,-0.46712,28.625,29.75,28.9375,33.0,35.4375,36.5
0.23605229,-0.20715885,-0.8021528,-0.5100828,-0.02955132,0.016690763,-0.18834704,-0.39389637,-0.3451226,0.060055543,-3.0720932,0.62637156,0.0002637296,-0.11219724,0.028488118,-0.0018957069,0.04596139,-0.008503287,-0.027728425,0.46330783,-1.4066384,1.933442,-2.0923593,-1.5756911,2.4400413,-0.12544863,0.17298831,-0.21058974,0.06539454,-0.037985977,-0.097408414,0.15322891,0.34476504,-9.308656,0.8314132,47.666286,-0.9407159,-1.9034989,-3.3787577,-0.06435047,-0.16510607,-0.44685775,28.625,29.75,28.9375,33.0,35.4375,36.5
0.23805241,0.13872622,-0.5038313,-0.2956418,-0.024655169,0.01452025,-0.17675075,-0.394138,-0.3450622,0.060059845,-3.0719838,0.6265147,0.0002852391,-0.112779886,0.027019251,-0.00037628086,0.04481254,-0.0050356914,-0.01843487,0.46303314,-1.4062902,1.9329995,-2.0922282,-1.5757631,2.4398706,-0.12292954,0.17225529,-0.21319006,0.06506241,-0.038550317,-0.10417766,0.15322891,0.36391866,-9.308656,0.9030289,47.690468,-1.2028134,-1.9381292,-3.4018245,-0.051752493,-0.16483651,-0.41740587,28.625,29.75,28.9375,33.0,35.4375,36.5
0.24005239,0.12571944,-0.3418198,-0.49473536,-0.014395197,-0.0087977145,-0.17779522,-0.39436933,-0.34500018,0.060060848,-3.0718737,0.62656605,0.00032880227,-0.11370876,0.027711868,-0.001247235,0.045057725,-0.0066668107,-0.013759222,0.4627799,-1.4059528,1.9325799,-2.0921085,-1.5758585,2.4396641,-0.12519407,0.17475055,-0.21413486,0.06502353,-0.038080268,-0.111118376,0.24899697,0.19153613,-9.289502,0.8224646,47.683304,-0.90746987,-2.0376272,-3.2845643,-4.880037e-05,-0.17927544,-0.36759445,28.625,29.75,28.9375,33.0,35.4375,36.5
0.2420519,0.7014014,0.026382921,-0.7009829,0.0028197162,-0.015669664,-0.18695587,-0.39458752,-0.34494576,0.060042623,-3.071763,0.6265002,0.00032380884,-0.11378683,0.027738009,-0.0020325643,0.045461964,-0.010736242,-0.0078786565,0.4625518,-1.4055793,1.9321617,-2.0919874,-1.5759538,2.4394097,-0.12614112,0.1778113,-0.21668191,0.06827148,-0.036665156,-0.1179499,0.17238252,0.095768064,-9.385271,0.83589023,47.668976,-1.1280655,-2.0206618,-3.3682358,0.010589542,-0.2027902,-0.272191,28.625,29.75,28.9375,33.0,35.4375,36.5
0.24405237,0.37380087,0.10783917,-0.671582,0.014162513,-0.032035105,-0.1782711,-0.39481157,-0.3449035,0.060014933,-3.0716982,0.626542,0.00024167604,-0.114547774,0.028417228,-0.002502385,0.046274215,-0.012164118,-0.0044885026,0.46228734,-1.4051825,1.9317435,-2.091892,-1.5759667,2.4391801,-0.12784642,0.17968805,-0.21810813,0.0694236,-0.036792647,-0.12304146,0.1340753,0.11492168,-9.385271,0.83365434,47.653748,-1.0314388,-2.2046444,-3.4475818,0.0068982765,-0.22240922,-0.23090002,28.625,29.75,28.9375,33.0,35.4375,36.5
0.2460524,0.21575403,0.4239657,-0.7701126,0.003931264,-0.029394614,-0.19187558,-0.39504665,-0.34482294,0.060008503,-3.0715668,0.6265122,0.00021105068,-0.116512164,0.028478255,-0.0014296469,0.046303555,-0.010019236,-0.0023077757,0.46199888,-1.4048216,1.9312996,-2.0917118,-1.5760626,2.4388907,-0.12894955,0.18068616,-0.22197886,0.07035314,-0.037815586,-0.12631457,0.11492168,0.11492168,-9.481039,0.9030289,47.675243,-1.0714604,-2.189091,-3.4034004,0.05861555,-0.21653765,-0.17996192,28.625,29.75,28.9375,33.0,35.4375,36.5
0.24805239,-0.4397364,0.28941318,-0.5595989,-0.004693799,-0.021335462,-0.18251836,-0.3952673,-0.34479132,0.060020067,-3.0714798,0.62653244,0.00022917049,-0.11625982,0.0295205,-0.0015850535,0.04817324,-0.012992978,-0.0042166617,0.46179456,-1.4044731,1.9308337,-2.0915544,-1.576135,2.4387107,-0.13026269,0.18105373,-0.22304378,0.07453377,-0.038165737,-0.12571561,0.0,0.11492168,-9.481039,0.90527004,47.68599,-0.9656429,-2.188199,-3.4785843,0.04981456,-0.24782509,-0.12356001,28.625,29.75,28.9375,33.0,35.4375,36.5
0.2500524,-0.31428736,0.105161555,-0.49643296,-0.010377944,0.006322352,-0.18336315,-0.395512,-0.34471786,0.06001194,-3.071363,0.6264904,0.0002523116,-0.116595045,0.030474572,-0.0015630332,0.049471565,-0.016027594,-0.0073147723,0.46151808,-1.4041008,1.9303907,-2.091421,-1.5762428,2.4384236,-0.13226713,0.18212132,-0.22542447,0.07912384,-0.037983865,-0.12462023,-0.114921674,0.038307227,-9.595961,0.8314132,47.68599,-1.0758402,-2.3180585,-3.400153,0.02088387,-0.25802404,-0.16415027,28.625,29.75,28.9375,33.0,35.4375,36.5
0.25205243,-0.023069786,1.2291561,-0.38264155,-0.037913445,0.0365637,-0.20217477,-0.395698,-0.34466437,0.05998839,-3.0712345,0.6264101,8.362257e-05,-0.11559074,0.030207712,-0.002206127,0.05034534,-0.021015711,-0.014502307,0.4612899,-1.403727,1.9299597,-2.0911925,-1.57629,2.4381626,-0.13176934,0.18424448,-0.22758946,0.08404519,-0.03653562,-0.11693633,-0.21068975,0.17238252,-9.500193,0.7530795,47.67345,-0.93049395,-2.332964,-3.4363885,-0.028894898,-0.2867009,-0.19638166,28.625,29.75,28.9375,33.0,35.4375,36.5
0.25405177,-1.3211422,0.18444455,-0.40086892,-0.017232269,0.032773763,-0.19091226,-0.39593962,-0.34460333,0.059983995,-3.0711246,0.62648755,1.6734877e-05,-0.115855664,0.0325659,-0.0036957646,0.053220548,-0.027081871,-0.022625921,0.46100032,-1.403342,1.9294819,-2.0910108,-1.5763382,2.437936,-0.13614574,0.1870425,-0.2286042,0.08897885,-0.0364087,-0.11318656,-0.4405331,0.095768064,-9.653421,0.8672237,47.67345,-0.9794282,-2.2549338,-3.4273286,-0.0765651,-0.32171834,-0.27456197,28.625,29.75,28.9375,33.0,35.4375,36.5
0.2560519,-1.7385617,0.08840145,-0.3697065,-0.016068004,0.053391412,-0.18086466,-0.39616445,-0.34454212,0.059979875,-3.0710204,0.62657833,-3.3519078e-05,-0.113635205,0.032687414,-0.0040910244,0.056965537,-0.032495935,-0.02136922,0.46072534,-1.4029934,1.9290513,-2.090853,-1.5763863,2.4377317,-0.13371792,0.18762335,-0.23009393,0.09639738,-0.037358623,-0.11200749,-0.5554548,0.05746084,-9.500193,0.8672237,47.67166,-0.9961524,-2.2558608,-3.4514747,-0.14095202,-0.3416335,-0.28376606,28.625,29.75,28.9375,33.0,35.4375,36.5
0.2580516,-1.6245502,0.4404335,-0.1449339,-0.006612778,0.07585755,-0.18678154,-0.3964175,-0.34449485,0.059990376,-3.070912,0.62659454,-3.045551e-05,-0.1151652,0.03270787,-0.0029687008,0.057206318,-0.030629221,-0.022395127,0.46047336,-1.402597,1.9285239,-2.0906613,-1.5764707,2.4375045,-0.13432862,0.1881047,-0.2336045,0.097849116,-0.038426697,-0.11158227,-0.61291564,0.0,-9.423578,0.86945957,47.70211,-1.0805166,-2.1817517,-3.3785286,-0.20643574,-0.35065636,-0.3248204,28.625,29.75,28.9375,33.0,35.4375,36.5
0.2600524,-2.0339665,0.37569654,-0.21409066,0.028245717,0.07483003,-0.17733724,-0.3966122,-0.34441808,0.059944347,-3.0707188,0.62665105,-0.00017670888,-0.11536998,0.033347823,-0.002286831,0.058684833,-0.03133114,-0.023782538,0.46022087,-1.4022009,1.9281286,-2.09048,-1.5765551,2.437313,-0.13490014,0.18763518,-0.23548974,0.10147928,-0.039465055,-0.11075292,-0.7661445,-0.15322891,-9.404425,0.8851263,47.685097,-1.0871103,-2.1346655,-3.3300362,-0.24846505,-0.37165958,-0.3344049,28.625,29.75,28.9375,33.0,35.4375,36.5
0.26205242,-1.8532444,1.0522879,-0.26138043,0.04031123,0.06613177,-0.17395203,-0.3968555,-0.34437254,0.059954304,-3.0706198,0.62661046,-0.00017738821,-0.115904845,0.033683773,-0.0024138815,0.0593396,-0.031896245,-0.024685046,0.45998085,-1.4018159,1.9276155,-2.0902884,-1.5766395,2.437061,-0.13564844,0.188784,-0.23680829,0.102429755,-0.039820846,-0.11059352,-0.7278373,-0.15322891,-9.404425,0.86945957,47.653748,-1.1764376,-2.1272514,-3.4556522,-0.3105514,-0.38537943,-0.37212723,28.625,29.75,28.9375,33.0,35.4375,36.5
0.26405194,-1.5994303,1.37279,-0.29195395,0.04336559,0.062038876,-0.18385968,-0.39709,-0.34428558,0.05995756,-3.0704618,0.62672967,-0.00026094762,-0.11855142,0.034035537,-0.0021876001,0.05985195,-0.029247347,-0.02334792,0.45966828,-1.4014667,1.9271487,-2.0900495,-1.576712,2.436844,-0.13742085,0.19158135,-0.24029012,0.10093485,-0.041512113,-0.11368542,-0.6512228,-0.05746084,-9.461885,0.83813137,47.66808,-1.0707338,-2.0306036,-3.5150452,-0.32234383,-0.39043552,-0.3703866,28.625,29.75,28.9375,33.0,35.4375,36.5
0.266052,-1.6069539,0.809519,-0.4132058,0.033425294,0.06265955,-0.17783323,-0.39733416,-0.34421936,0.059936903,-3.0703177,0.62677306,-0.00031623314,-0.12064982,0.034585055,-0.0015668845,0.060401022,-0.025355276,-0.020013733,0.45939177,-1.4010459,1.9266695,-2.089883,-1.5767969,2.436614,-0.13868347,0.19211507,-0.24189188,0.09871713,-0.043788657,-0.11826213,-0.59376204,-0.2681506,-9.404425,0.92764956,47.67345,-0.99900156,-2.111714,-3.4762268,-0.31654003,-0.3950894,-0.35655832,28.625,29.75,28.9375,33.0,35.4375,36.5
0.26805207,-2.3245132,0.22155178,-0.3704629,0.011418951,0.064627595,-0.1845262,-0.39757484,-0.3441154,0.059923057,-3.0701082,0.6267846,-0.00036030702,-0.12329548,0.03593209,-0.0010335619,0.060937367,-0.020716269,-0.016263286,0.4590904,-1.400662,1.9262041,-2.089656,-1.5769418,2.436348,-0.14161174,0.19219023,-0.24246405,0.095230766,-0.04640122,-0.12491678,-0.59376204,-0.2873042,-9.385271,0.84484416,47.685097,-0.89060044,-1.884528,-3.635281,-0.3067691,-0.38599354,-0.29504538,28.625,29.75,28.9375,33.0,35.4375,36.5
0.27005196,-2.072332,0.36327288,-0.30775917,-0.02496361,0.0924252,-0.1889002,-0.39781985,-0.34405872,0.05991849,-3.070009,0.62677795,-0.00040833614,-0.12635916,0.034971442,0.000252514,0.060058013,-0.013692665,-0.009413447,0.4588151,-1.4002646,1.9257125,-2.0894787,-1.5770029,2.436082,-0.1409803,0.1937559,-0.24627687,0.09074055,-0.04879783,-0.13111293,-0.6703765,-0.22984336,-9.423578,0.8493211,47.67793,-1.092293,-2.0090837,-3.5504634,-0.27533886,-0.3638366,-0.2212023,28.625,29.75,28.9375,33.0,35.4375,36.5
0.27205196,-2.6846051,-0.05690238,-0.36451304,-0.020919811,0.08704287,-0.19169237,-0.3980807,-0.34398547,0.0599358,-3.0698938,0.62676823,-0.000368925,-0.12918268,0.034311246,0.0010186723,0.059612125,-0.007978503,-0.002406346,0.45852712,-1.3999032,1.9252099,-2.0892885,-1.5771111,2.4358034,-0.14078568,0.19589359,-0.24963316,0.0865741,-0.05099801,-0.13790606,-0.61291564,-0.05746084,-9.442732,0.800085,47.70659,-1.0476925,-2.0956662,-3.4043708,-0.2154558,-0.3564049,-0.1512591,28.625,29.75,28.9375,33.0,35.4375,36.5
0.27405205,-1.6521521,-0.065385096,-0.47750583,-0.014486192,0.11072025,-0.19221541,-0.3983253,-0.34390387,0.059903532,-3.0697238,0.62676984,-0.00043183612,-0.13183846,0.033999555,0.002087949,0.058555152,-0.0028031855,-0.00091861736,0.4582391,-1.3994707,1.924743,-2.089122,-1.5772198,2.4355392,-0.14157039,0.19683671,-0.25252798,0.083377816,-0.05239342,-0.14016059,-0.5363012,0.076614454,-9.615114,0.842603,47.661808,-1.1092772,-2.1422682,-3.4899635,-0.16278067,-0.3389468,-0.06749275,28.625,29.75,28.9375,33.0,35.4375,36.5
0.27605206,-1.3080785,0.038226634,-0.5233599,-0.01923885,0.10272057,-0.18147357,-0.39860603,-0.34383076,0.05991831,-3.0696094,0.6268042,-0.00040438355,-0.13385545,0.034237254,0.0022688855,0.058949728,7.587163e-05,-0.0037660347,0.4579268,-1.399074,1.9242047,-2.0889313,-1.5773162,2.4352639,-0.14259002,0.19865827,-0.2546484,0.08125756,-0.054035347,-0.1383174,-0.51714754,0.22984336,-9.5385,0.9388393,47.670765,-1.1068745,-2.0347357,-3.4689393,-0.12701814,-0.32125252,-0.06465023,28.625,29.75,28.9375,33.0,35.4375,36.5
0.27805206,-1.4968716,0.09357694,-0.76562065,-0.02340286,0.06935768,-0.1943595,-0.39888102,-0.3437462,0.059919637,-3.0694568,0.62685233,-0.00029018737,-0.13515756,0.03527664,0.0015905888,0.06258966,0.0015773622,-0.008218467,0.45763847,-1.3986886,1.9237264,-2.0888116,-1.5774735,2.4350262,-0.14295046,0.20115419,-0.25581244,0.08019253,-0.057957653,-0.13419552,-0.4405331,0.2681506,-9.519346,0.9612189,47.73077,-1.1069499,-2.063057,-3.4920003,-0.084316894,-0.28572857,-0.06919389,28.625,29.75,28.9375,33.0,35.4375,36.5
0.28005216,-0.6001153,-0.8113446,-0.94626355,-0.027017388,0.065636486,-0.17719328,-0.39911562,-0.34366828,0.0598857,-3.0692766,0.6268173,-0.00035824088,-0.13672933,0.036363356,0.00087216875,0.06464882,0.0010059389,-0.015656916,0.45737383,-1.3982551,1.9232591,-2.0886323,-1.5775942,2.434764,-0.14512052,0.20432705,-0.25804698,0.080687664,-0.05955309,-0.12890601,-0.32561144,0.36391866,-9.557653,0.784413,47.684196,-1.1861143,-2.1919289,-3.4160523,-0.059309855,-0.2439226,-0.12765089,28.625,29.75,28.9375,33.0,35.4375,36.5
0.2820521,-0.6014894,-0.9320464,-0.95811445,-0.0459551,0.043995813,-0.17242552,-0.3994312,-0.34357935,0.05990361,-3.0691426,0.6269433,-0.0002401744,-0.13677229,0.03509418,0.0005968925,0.06627885,0.0010339526,-0.017636806,0.45702717,-1.3978456,1.9227089,-2.0884879,-1.5777267,2.434514,-0.14187478,0.20737152,-0.261217,0.08151257,-0.061013523,-0.12366798,-0.38307226,0.4405331,-9.634268,0.8672237,47.661808,-1.2882147,-2.2257872,-3.4017005,-0.042363588,-0.20351124,-0.18954271,28.625,29.75,28.9375,33.0,35.4375,36.5
0.28405198,-0.65810865,-1.3017983,-1.0532447,-0.05299221,0.03584762,-0.17623116,-0.39970034,-0.3434892,0.059907526,-3.0689397,0.6269984,-0.00016187811,-0.13825324,0.037233885,0.00053211715,0.06940304,0.0018808574,-0.022467364,0.4567499,-1.397449,1.9221953,-2.0882967,-1.5779079,2.4342985,-0.14479205,0.2078616,-0.26185864,0.08226872,-0.06419658,-0.12172714,-0.40222588,0.4405331,-9.691729,0.91198283,47.66091,-1.0844094,-2.1818895,-3.4406307,-0.018035378,-0.16075344,-0.24414355,28.625,29.75,28.9375,33.0,35.4375,36.5
0.28605202,-1.2746961,-1.9575623,-0.98744667,-0.048177116,0.02253639,-0.17075801,-0.3999943,-0.3434261,0.05990455,-3.0688317,0.627036,-0.00015179456,-0.1381773,0.03903367,-0.00060867943,0.07312962,-0.0026126734,-0.028783552,0.4564373,-1.3969918,1.9216336,-2.0881388,-1.5779923,2.434024,-0.14691068,0.2101722,-0.26304176,0.08682325,-0.0655443,-0.117516175,-0.30645782,0.4213795,-9.691729,0.92093146,47.651955,-1.1443498,-2.1696663,-3.5849276,-0.011680666,-0.10591492,-0.30396795,28.625,29.75,28.9375,33.0,35.4375,36.5
0.28805205,-0.945082,-1.5672446,-0.52848816,-0.07485532,0.037059624,-0.18120426,-0.40026852,-0.34335148,0.059917867,-3.068693,0.62710476,-0.0001302729,-0.13842398,0.03977159,-0.0007689396,0.07191038,-0.0048393593,-0.033823512,0.4561364,-1.3965958,1.9210957,-2.0879347,-1.5780996,2.433785,-0.14962354,0.21026376,-0.26320058,0.08833024,-0.06346983,-0.11520057,-0.19153613,0.4213795,-9.749189,1.0037369,47.691364,-1.0314168,-2.1865351,-3.6522384,-0.028647404,-0.09274258,-0.36793005,28.625,29.75,28.9375,33.0,35.4375,36.5
0.2900523,-0.43709302,-1.1646293,-0.52556294,-0.06642972,0.03512825,-0.18193099,-0.40055463,-0.34326512,0.0599117,-3.068512,0.627183,-6.424197e-05,-0.13883239,0.04069013,-0.0009961008,0.07325834,-0.008444255,-0.037331793,0.45583567,-1.3961624,1.9205693,-2.0877779,-1.5782555,2.4335575,-0.15171127,0.21213901,-0.26600915,0.093066595,-0.06309808,-0.113778114,-0.076614454,0.36391866,-9.653421,0.92764956,47.689575,-0.9054181,-2.248451,-3.64852,-0.046083428,-0.08862971,-0.40815678,28.625,29.75,28.9375,33.0,35.4375,36.5
0.29205242,0.086264506,-0.5235929,-0.5158772,-0.031412013,0.010664559,-0.17807767,-0.4008299,-0.34316716,0.05989399,-3.0683033,0.62729144,-4.3640444e-05,-0.13871595,0.040372904,-0.00068562245,0.07296598,-0.01193671,-0.036472026,0.45552355,-1.3957288,1.9200662,-2.0876086,-1.5784105,2.4333413,-0.1520661,0.21350147,-0.26954454,0.098194376,-0.061325934,-0.11499909,-0.019153614,0.28730422,-9.423578,0.8806493,47.691364,-0.9305684,-2.27141,-3.6043649,-0.11651687,-0.06156066,-0.47218525,28.625,29.75,28.9375,33.0,35.4375,36.5
0.29405236,0.92344064,0.81625605,-0.4502283,-0.0025419886,-0.016244644,-0.18722613,-0.401134,-0.34311154,0.05990849,-3.068211,0.6273255,2.548732e-05,-0.13844265,0.039957613,0.0006474969,0.0713284,-0.012923938,-0.03136484,0.45522356,-1.3952854,1.9194802,-2.0874517,-1.5785064,2.4330752,-0.15215752,0.21176918,-0.27150756,0.10197966,-0.059462436,-0.12021131,0.0,0.19153613,-9.404425,0.9254084,47.66808,-0.979933,-2.1365893,-3.5087214,-0.13279614,-0.07425648,-0.45060867,28.625,29.75,28.9375,33.0,35.4375,36.5
0.2960529,1.0442635,1.059402,-0.36174655,0.026365967,-0.03841038,-0.18389319,-0.40142727,-0.34303027,0.05991947,-3.0680683,0.62746125,3.3683526e-05,-0.1384744,0.039552532,0.00091823365,0.069521606,-0.015676863,-0.02236013,0.45488763,-1.3948649,1.9189185,-2.0872476,-1.5786012,2.4328434,-0.15309504,0.21257527,-0.27385405,0.10507904,-0.056710374,-0.13017078,0.1340753,0.019153614,-9.270349,0.8672237,47.689575,-1.1312964,-1.965137,-3.4457092,-0.16150427,-0.09626123,-0.37894303,28.625,29.75,28.9375,33.0,35.4375,36.5
0.29805225,1.4193679,0.98999655,-0.29023322,0.03988302,-0.032489806,-0.18079412,-0.40169117,-0.34296015,0.059914317,-3.0679228,0.62740564,2.0994583e-05,-0.1381736,0.037688874,0.0021281135,0.06723329,-0.016082456,-0.013242895,0.45461223,-1.3944328,1.9183797,-2.0870426,-1.5787205,2.432553,-0.15083206,0.2125137,-0.2772468,0.107798904,-0.054544996,-0.13703573,0.17238252,-0.038307227,-9.251195,0.9634547,47.737934,-1.1497,-1.9286958,-3.5080276,-0.19831285,-0.110323094,-0.32074115,28.625,29.75,28.9375,33.0,35.4375,36.5
0.30005231,1.5542123,1.173167,-0.33353278,0.019762306,-0.01221994,-0.194111,-0.40198207,-0.34287274,0.05991324,-3.0677385,0.62748,4.6383164e-05,-0.14004834,0.038208704,0.0030337886,0.06598266,-0.01744854,-0.00840684,0.45429882,-1.3939873,1.917816,-2.086838,-1.578864,2.432311,-0.15428182,0.21393873,-0.28192934,0.11162475,-0.052900683,-0.14532872,0.30645782,-0.11492168,-9.308657,0.7418897,47.705692,-0.9441046,-2.049912,-3.2934594,-0.24216607,-0.1317525,-0.22290811,28.625,29.75,28.9375,33.0,35.4375,36.5
0.3020524,-0.075498305,-0.021836583,-0.28810182,0.014351593,-0.021062648,-0.16755521,-0.40226403,-0.34278065,0.05991144,-3.0675776,0.6274429,-2.1307927e-05,-0.1423223,0.037911028,0.0031195816,0.06382713,-0.016169576,-0.006115323,0.45396227,-1.3935424,1.9172415,-2.0865757,-1.5789713,2.4319732,-0.15642118,0.21672872,-0.2850742,0.10981041,-0.051598094,-0.1497615,0.19153613,-0.19153613,-9.442732,0.8537928,47.71286,-1.0082779,-2.0356736,-3.1359558,-0.24974239,-0.1392159,-0.13627422,28.625,29.75,28.9375,33.0,35.4375,36.5
0.30405247,-0.11451577,0.05582663,-0.35748237,-0.017825345,0.010558219,-0.17267294,-0.40251765,-0.34272164,0.059903666,-3.0674596,0.6273999,-9.681557e-05,-0.14255151,0.03827684,0.0013904582,0.06393659,-0.019933192,-0.007669604,0.45368567,-1.3931087,1.9167036,-2.0863597,-1.5790428,2.431686,-0.15811376,0.22052708,-0.28571177,0.11004918,-0.05007723,-0.14990576,0.11492168,-0.11492168,-9.404425,0.8537928,47.67614,-0.85948324,-2.019739,-3.1883433,-0.2526614,-0.17205125,-0.10888293,28.625,29.75,28.9375,33.0,35.4375,36.5
0.30605268,-0.09847405,-0.035431433,-0.57425535,-0.03026499,0.032232795,-0.18047793,-0.40278572,-0.3426539,0.05992222,-3.067341,0.6274145,-0.00018093898,-0.14370695,0.037110068,0.0008687763,0.061813932,-0.017972793,-0.011517193,0.45337397,-1.3926995,1.9161185,-2.0860746,-1.5791024,2.4313996,-0.15759856,0.22317418,-0.28674328,0.10575053,-0.04904168,-0.14554457,0.095768064,-0.05746084,-9.519346,0.842603,47.651955,-0.9963845,-2.2054226,-3.3298419,-0.23613685,-0.19419497,-0.14095266,28.625,29.75,28.9375,33.0,35.4375,36.5
0.30805248,-0.61276144,-0.25372607,-0.92861557,-0.044574253,0.035551205,-0.1762806,-0.4030923,-0.3425583,0.05990389,-3.067142,0.62743413,-0.00014626989,-0.14466928,0.037277322,-5.366369e-05,0.060783833,-0.017203763,-0.019554738,0.45304906,-1.3922064,1.9155439,-2.0858963,-1.5792702,2.431114,-0.15896705,0.22505249,-0.2861248,0.10212686,-0.048442412,-0.1388753,-0.05746084,0.019153614,-9.710882,0.86498255,47.70211,-0.84156334,-2.1279805,-3.4481874,-0.18744712,-0.22628783,-0.18831727,28.625,29.75,28.9375,33.0,35.4375,36.5
0.31005254,-1.1636143,-1.4139415,-0.4706109,-0.06625292,0.051853776,-0.1704195,-0.40339264,-0.34248537,0.05992597,-3.0670476,0.6275126,-6.2521125e-05,-0.14680363,0.037751973,0.00016511722,0.059066497,-0.013990182,-0.026363492,0.4527244,-1.3918095,1.9149941,-2.0857413,-1.5793666,2.4308512,-0.1615859,0.22568202,-0.28659678,0.09833568,-0.048299335,-0.13468571,-0.26815057,0.1340753,-9.576807,0.83589023,47.683304,-0.933792,-2.2048552,-3.5822992,-0.12678756,-0.22814289,-0.26011738,28.625,29.75,28.9375,33.0,35.4375,36.5
0.31205252,-0.9475337,-1.1918212,-0.56193084,-0.062304053,0.062282212,-0.17277671,-0.4036867,-0.3424418,0.059936807,-3.0669718,0.6275148,-9.898124e-05,-0.14699273,0.035606086,0.0007558056,0.05668232,-0.011405582,-0.025602179,0.45242566,-1.3913412,1.9143728,-2.0855272,-1.5794138,2.4305644,-0.15849203,0.22630402,-0.28825793,0.096004464,-0.047297798,-0.13235757,-0.19153613,0.17238252,-9.615114,0.88289046,47.661808,-1.0547445,-2.0815275,-3.6313305,-0.0954014,-0.27270764,-0.32745987,28.625,29.75,28.9375,33.0,35.4375,36.5
0.31405252,-0.6931566,-0.34495407,-0.6825266,-0.04760604,0.044793542,-0.1794234,-0.40397814,-0.34234965,0.059934795,-3.0667806,0.6275704,-6.328313e-05,-0.14789873,0.035710998,0.0008536669,0.056397155,-0.011377871,-0.027954588,0.4521134,-1.3908963,1.9138111,-2.085323,-1.5795702,2.4303129,-0.15946928,0.22752571,-0.29010254,0.096454374,-0.04706935,-0.13097963,-0.2681506,0.28730422,-9.615114,0.92764956,47.66091,-1.053379,-2.0446076,-3.657351,-0.064390734,-0.28502727,-0.33409777,28.625,29.75,28.9375,33.0,35.375,36.5
0.31605244,-0.67610306,-0.27624416,-0.35149372,-0.044852957,0.04917309,-0.17749915,-0.4042699,-0.34228513,0.05995213,-3.066714,0.62768847,-9.445584e-05,-0.14878117,0.03493122,0.0014204509,0.055488486,-0.010136923,-0.024929188,0.45176575,-1.3904873,1.9132489,-2.0851314,-1.579594,2.4300482,-0.15887058,0.22859177,-0.292738,0.096469164,-0.04683326,-0.1334056,-0.28730422,0.22984336,-9.481039,0.9254084,47.67614,-1.204051,-2.0124485,-3.6499653,-0.035585836,-0.3079832,-0.362347,28.625,29.75,28.9375,33.0,35.375,36.5
0.31805235,-0.34650767,0.07731517,-0.7141521,-0.015665121,0.03775434,-0.18520638,-0.40457007,-0.3422481,0.05995788,-3.066618,0.62772524,-9.338198e-05,-0.15023483,0.034628678,0.0021104265,0.055049885,-0.00863303,-0.02435669,0.45148966,-1.3899941,1.9126147,-2.0849402,-1.579666,2.4298084,-0.159269,0.229855,-0.29598975,0.09688347,-0.04712354,-0.13437058,-0.19153613,0.2681506,-9.5385,1.0641627,47.737934,-1.2924862,-2.0720713,-3.4886346,-0.019752763,-0.34680057,-0.38287434,28.625,29.75,28.9375,33.0,35.375,36.5
0.32005244,-0.90867203,0.19940244,-0.7311577,-0.015625143,0.03479818,-0.17648034,-0.40487272,-0.342156,0.05994454,-3.0664332,0.62781537,-9.3820585e-05,-0.15166952,0.03474174,0.0033949784,0.054458342,-0.006398909,-0.019091265,0.45115328,-1.3895142,1.9120396,-2.084748,-1.5797981,2.4295535,-0.16022944,0.2293535,-0.29859892,0.09763768,-0.047636893,-0.1405874,-0.4213795,0.3256114,-9.576807,0.95002913,47.701214,-1.2405565,-1.994604,-3.5725355,0.021196548,-0.36642218,-0.3387668,28.625,29.75,28.9375,33.0,35.375,36.5
0.3220524,-1.0317576,-0.15489179,-0.42438278,-0.04035683,0.06968217,-0.18423216,-0.4051855,-0.3420949,0.059970047,-3.066383,0.62777954,-6.294733e-05,-0.15182774,0.034510445,0.003318122,0.055206098,-0.00824489,-0.00990731,0.45081738,-1.3890809,1.9114298,-2.0845559,-1.5798582,2.4292023,-0.15985243,0.23123325,-0.3013279,0.10036925,-0.047579706,-0.14939384,-0.59376204,0.22984336,-9.672575,0.9567419,47.709274,-1.2446455,-1.8348732,-3.5568674,0.014118649,-0.390776,-0.25758392,28.625,29.75,28.9375,33.0,35.375,36.5
0.32405233,-1.3388009,-0.7343975,-0.701119,-0.036453106,0.087882355,-0.17813931,-0.40546578,-0.34200937,0.059946325,-3.0661917,0.6277926,-0.00013765247,-0.15175475,0.03627373,0.0032496408,0.05950503,-0.011791986,-0.0040284465,0.45050487,-1.3885888,1.9108552,-2.0843256,-1.5799788,2.428924,-0.16123328,0.23207064,-0.30368242,0.106860526,-0.049979605,-0.15662625,-0.47884035,0.28730422,-9.615114,0.900793,47.66271,-1.2284974,-1.8294821,-3.475542,-0.020060247,-0.4152913,-0.16784006,28.625,29.75,28.9375,33.0,35.375,36.5
0.32605237,-1.29961,-0.23036829,-0.22246361,-0.04199166,0.09659038,-0.18246949,-0.4057847,-0.3419596,0.059980355,-3.0661378,0.6277623,-7.957842e-05,-0.15246506,0.037558604,0.003919985,0.06148674,-0.0134493355,-0.0036258954,0.45019197,-1.3881437,1.9102091,-2.084121,-1.5800513,2.4285998,-0.1632547,0.23223582,-0.3066234,0.111945845,-0.05106672,-0.15904036,-0.59376204,0.13407528,-9.5385,0.92093146,47.6421,-1.2097907,-1.7269871,-3.486484,-0.076076925,-0.41573423,-0.09079969,28.625,29.75,28.9375,33.0,35.375,36.5
0.32805255,-0.41224882,0.8693905,-0.27868497,-0.031775407,0.0967399,-0.19211473,-0.4061426,-0.3418766,0.060034484,-3.0660262,0.62783206,8.664929e-05,-0.14965855,0.03771646,0.002093552,0.06465735,-0.022399247,-0.0015316008,0.44983295,-1.3877109,1.9095286,-2.0839026,-1.5801948,2.4282997,-0.1616445,0.23489165,-0.30731466,0.119370535,-0.05002733,-0.15953559,-0.51714754,0.11492168,-9.442732,0.95897776,47.711063,-1.392756,-1.7534888,-3.4573517,-0.15988667,-0.45551342,-0.052243836,28.625,29.75,28.9375,33.0,35.375,36.5
0.33005205,-0.5462266,1.1657456,-0.27798823,0.022556908,0.056154385,-0.1760248,-0.40644246,-0.34178776,0.06000453,-3.0658581,0.6278576,3.3046774e-06,-0.15006278,0.039644457,0.00047186468,0.06958817,-0.025422523,-0.0091770245,0.44948444,-1.3871926,1.9089426,-2.0836985,-1.5802926,2.4279902,-0.16325627,0.23833662,-0.30828366,0.12179749,-0.053145446,-0.15346694,-0.36391866,-0.095768064,-9.500193,0.8247004,47.687782,-1.3550539,-2.023577,-3.5196455,-0.16199264,-0.46120197,-0.103182666,28.625,29.75,28.9375,33.0,35.375,36.5
0.33205217,0.07631828,1.9732478,-0.13334778,0.05215505,0.038670164,-0.17865324,-0.40671062,-0.34173533,0.05998221,-3.0657392,0.62779754,-0.00014175048,-0.15039386,0.042380203,-0.0016929216,0.07689369,-0.02957859,-0.017279448,0.44919604,-1.3866869,1.9083451,-2.0834577,-1.5803417,2.4276807,-0.1651976,0.2426539,-0.30930272,0.12547067,-0.057907153,-0.14725439,-0.22984336,-0.2681506,-9.404425,0.8717007,47.66091,-1.4277282,-2.009386,-3.6467996,-0.25898987,-0.44246638,-0.16311383,28.625,29.75,28.9375,33.0,35.375,36.5
0.3340521,0.5813853,2.0579946,-0.14261304,0.06752276,0.0364893,-0.18554042,-0.40703723,-0.34166455,0.059997812,-3.0656152,0.62781197,-8.073258e-05,-0.15315768,0.04264389,0.00011254447,0.07813219,-0.02427476,-0.022929246,0.4488717,-1.3862062,1.907699,-2.083254,-1.5804628,2.4273825,-0.16570546,0.24301544,-0.31394714,0.12553982,-0.0613208,-0.14207743,-0.095768064,-0.40222588,-9.289502,0.947788,47.661808,-1.3148134,-1.9877234,-3.6291757,-0.27511585,-0.41768396,-0.22648233,28.625,29.75,28.9375,33.0,35.375,36.5
0.3360521,0.398613,2.2185426,0.30041414,0.054079458,0.021430654,-0.18364517,-0.40737322,-0.3415574,0.060024545,-3.0654173,0.62794584,-2.7334025e-05,-0.15673622,0.04357454,0.0008620212,0.07818755,-0.019435363,-0.030005595,0.44849873,-1.3857493,1.90704,-2.0829804,-1.5806197,2.4271202,-0.16884333,0.24485749,-0.31727087,0.122687615,-0.063483946,-0.13811304,-0.19153613,-0.28730422,-9.097966,0.9388393,47.666286,-1.1169327,-1.9404181,-3.4644957,-0.26509184,-0.4049785,-0.30786812,28.625,29.75,28.9375,33.0,35.375,36.5
0.33805227,-0.31658494,1.0960567,0.21914187,0.050026976,0.01752522,-0.17314553,-0.40769053,-0.34145725,0.06002309,-3.0652163,0.6280014,1.9863151e-05,-0.15948644,0.044970937,0.0016165371,0.08056299,-0.014810479,-0.035812493,0.44816187,-1.3852684,1.9064301,-2.0827653,-1.580789,2.4268456,-0.17084765,0.2456602,-0.3196666,0.12115178,-0.06763746,-0.13426575,-0.40222588,-0.2681506,-9.11712,1.0015011,47.70838,-1.1695632,-1.8723037,-3.345222,-0.24598098,-0.36066756,-0.37418342,28.625,29.75,28.9375,33.0,35.375,36.5
0.34005243,-0.38460547,0.98169947,-0.014549588,0.02379,0.038109325,-0.18450327,-0.4080036,-0.3413673,0.060045872,-3.0650442,0.6281386,-2.688106e-05,-0.16385455,0.045170106,0.0025646235,0.08025676,-0.005821397,-0.039439715,0.4478014,-1.3848112,1.9057711,-2.0824573,-1.5808862,2.4265945,-0.1724321,0.24764588,-0.32262647,0.1138885,-0.071292624,-0.13217969,-0.19153614,-0.21068975,-9.193734,0.9612189,47.66987,-1.1312382,-1.9321353,-3.2963371,-0.17877878,-0.3212123,-0.42947027,28.625,29.75,28.9375,33.0,35.375,36.5
0.34205252,-0.7673038,0.2201914,-0.21508664,-0.019236436,0.0631556,-0.18628691,-0.408309,-0.34127524,0.060023963,-3.0648043,0.6281602,-7.1615905e-05,-0.16554292,0.046054527,0.0026921364,0.08237297,-0.003447751,-0.037174962,0.44748923,-1.3842703,1.905126,-2.0821931,-1.5810555,2.4263287,-0.17337179,0.24900222,-0.32441515,0.113030694,-0.07429244,-0.13534424,-0.095768064,-0.19153613,-9.308656,0.92093146,47.67614,-1.1541994,-1.8380958,-3.303938,-0.15059492,-0.2612934,-0.48244238,28.625,29.75,28.9375,33.0,35.375,36.5
0.34405252,-0.9073264,-0.1997771,0.06466574,-0.059484344,0.09147581,-0.19839856,-0.4086368,-0.3411759,0.060037833,-3.0646372,0.6280831,1.5975636e-05,-0.16827191,0.04620989,0.0033570803,0.08219691,0.0014701057,-0.032149766,0.44715273,-1.3838012,1.9044923,-2.0819676,-1.5812358,2.425967,-0.17449808,0.25042826,-0.32690907,0.10948214,-0.07634431,-0.1414711,-0.30645782,-0.095768064,-9.270349,1.0283576,47.647476,-1.0537298,-1.8730793,-3.3836322,-0.09027609,-0.2361996,-0.46029627,28.625,29.75,28.9375,33.0,35.375,36.5
0.3460519,-1.8104662,-0.85076874,-0.06741433,-0.05219426,0.07132735,-0.18680958,-0.40897027,-0.34107825,0.06005335,-3.0644412,0.6282445,5.3523032e-05,-0.16916968,0.04752805,0.0024567374,0.08475029,0.0005944107,-0.021686852,0.44679248,-1.3833202,1.9038342,-2.0817158,-1.5813807,2.4257345,-0.17610571,0.25269797,-0.32765734,0.1096849,-0.07839022,-0.15351728,-0.22984336,0.05746084,-9.3661175,0.8918391,47.67345,-1.0566349,-1.7902629,-3.3265562,-0.06579499,-0.18754017,-0.33638823,28.625,29.75,28.9375,33.0,35.375,36.5
0.34805194,-1.2890399,-0.5655179,-0.2516747,-0.040499162,0.07910244,-0.18386456,-0.40930432,-0.34097847,0.060029954,-3.0642486,0.6281806,6.488894e-05,-0.169973,0.049182143,0.0010785583,0.08716907,-0.0012379129,-0.015377267,0.4464433,-1.3827664,1.90319,-2.0815127,-1.5815495,2.425372,-0.17856798,0.2552939,-0.32767162,0.1096581,-0.07988263,-0.16226688,-0.49799395,0.05746084,-9.461885,1.0283576,47.685097,-0.9881214,-1.8467343,-3.52121,-0.05490177,-0.1429612,-0.2436887,28.625,29.75,28.9375,33.0,35.375,36.5
0.35005227,-1.4870548,0.16550012,-0.27403748,-0.03285086,0.06380929,-0.1998395,-0.40964803,-0.34089077,0.06003547,-3.0640924,0.6282384,0.000103367245,-0.17011365,0.048478525,0.0016164455,0.085235864,-0.000690651,-0.008973396,0.44608378,-1.3822503,1.902521,-2.0812972,-1.5816807,2.42507,-0.17818783,0.25489756,-0.32850915,0.109443374,-0.078450866,-0.16830042,-0.57460845,0.22984336,-9.461885,0.8851263,47.64121,-1.1548164,-1.7382848,-3.6069734,-0.034391094,-0.11447408,-0.16941401,28.625,29.75,28.9375,33.0,35.375,36.5
0.35205194,-0.93454957,0.2671204,-0.08287614,-0.029955687,0.07538922,-0.184784,-0.40998104,-0.34079844,0.060041226,-3.0639198,0.6282001,0.00016098653,-0.1698481,0.047857206,0.0023044853,0.08270793,-0.0016905605,-0.007945114,0.44574797,-1.3817459,1.9018625,-2.0810688,-1.5818475,2.424734,-0.17840077,0.2539671,-0.3294726,0.11107205,-0.07577257,-0.16956288,-0.7278373,0.21068975,-9.404425,0.9567419,47.677036,-1.0614982,-1.7715683,-3.5940785,0.00395519,-0.14569362,-0.12867993,28.625,29.75,28.9375,33.0,35.375,36.5
0.3540518,-1.0439692,0.10955101,-0.05917785,-0.031204527,0.068546996,-0.18715133,-0.41031379,-0.34069735,0.060026176,-3.063732,0.62822187,0.00012211493,-0.1698976,0.048119046,0.0023872112,0.0847028,-0.0046248357,-0.016281638,0.4453756,-1.3812053,1.9012054,-2.0808275,-1.5819796,2.4244013,-0.17842199,0.2558594,-0.33320832,0.116469145,-0.07626897,-0.16123177,-0.80445176,0.2681506,-9.404425,0.9545008,47.66271,-1.0379792,-1.4792321,-3.6938663,-0.019438855,-0.10621372,-0.1534872,28.625,29.75,28.9375,33.0,35.375,36.5
0.35605183,-0.6632663,-0.24745451,-0.25221956,-0.023092872,0.052888606,-0.19251299,-0.4106612,-0.3405906,0.060025774,-3.0635338,0.6282987,0.00017568887,-0.16863346,0.0482237,0.0009315307,0.08468627,-0.013751909,-0.023789262,0.4450032,-1.3806871,1.9005464,-2.0806096,-1.5821465,2.4241042,-0.17987235,0.25955874,-0.33603042,0.12382303,-0.07229018,-0.15520765,-0.59376204,0.17238252,-9.404425,1.0104496,47.64658,-1.1411102,-1.7287171,-3.6190076,-0.095958315,-0.13434683,-0.22993334,28.625,29.75,28.9375,33.0,35.375,36.5
0.358052,-1.113278,-0.36599,0.22556113,-0.028083201,0.022479389,-0.17806841,-0.4109854,-0.34050936,0.06004569,-3.0633545,0.628335,0.00019080735,-0.16604817,0.046929255,-0.0007257746,0.086204484,-0.022118542,-0.023926625,0.4446804,-1.3801934,1.8998536,-2.0803196,-1.58229,2.4238288,-0.17670688,0.26350263,-0.3385267,0.13056655,-0.07005281,-0.15192024,-0.59376204,0.19153613,-9.289502,1.0194036,47.70659,-1.3967452,-1.8280628,-3.6585147,-0.17598385,-0.13384351,-0.29730642,28.625,29.75,28.9375,33.0,35.375,36.5
0.36005214,-0.62467945,-0.53234935,0.14431186,-0.020124406,0.022755656,-0.18549727,-0.41135016,-0.34041512,0.060047615,-3.0631824,0.6283735,0.00024911706,-0.165902,0.046497874,-0.001303651,0.08646142,-0.0259602,-0.02462519,0.4443085,-1.3796399,1.8991474,-2.0801032,-1.582445,2.4235048,-0.1765362,0.26651216,-0.34173092,0.13429658,-0.068655156,-0.15105991,-0.51714754,0.19153613,-9.212888,0.91421866,47.682407,-1.4105377,-1.8729478,-3.5790863,-0.23720883,-0.15074651,-0.31688946,28.625,29.75,28.9375,33.0,35.375,36.5
0.36205232,-0.19915503,-0.094309226,-0.08161709,6.022673e-05,0.008034862,-0.19030918,-0.4116797,-0.34032303,0.060055055,-3.0630105,0.6283753,0.00020153221,-0.16673104,0.046385992,-0.0016176817,0.085588515,-0.028322687,-0.026882267,0.44394806,-1.3791227,1.8984526,-2.0798037,-1.5825647,2.4231694,-0.17797822,0.2692857,-0.34489584,0.13640754,-0.066887245,-0.15025374,-0.1340753,0.1340753,-9.232041,0.94331104,47.684196,-1.3723003,-1.9567444,-3.443647,-0.26804674,-0.17204577,-0.33950138,28.625,29.75,28.9375,33.0,35.375,36.5
0.3640523,0.16824678,0.030539067,0.16149248,0.0011952665,-0.008509759,-0.19368428,-0.41203597,-0.34022164,0.060047645,-3.062783,0.62847966,0.00023993902,-0.16906975,0.046475943,-0.00166401,0.08335863,-0.025780944,-0.027346998,0.443587,-1.378557,1.8977484,-2.0795662,-1.5827445,2.422905,-0.18044677,0.27125716,-0.3464271,0.13263687,-0.06603138,-0.1522595,-0.11492168,0.21068975,-9.136273,0.92093146,47.64389,-1.3360585,-2.013285,-3.3322186,-0.27149057,-0.16817537,-0.37357724,28.625,29.75,28.9375,33.0,35.375,36.5
0.3660523,0.07345953,0.015274162,0.42965502,-0.026187107,-0.010917878,-0.18680681,-0.41239545,-0.3401453,0.06004486,-3.0626588,0.6285256,0.00024494922,-0.1720432,0.04556093,0.0005336179,0.079329826,-0.019508718,-0.022337362,0.44321477,-1.3779927,1.8970417,-2.0793626,-1.5828403,2.4225788,-0.18167529,0.27053496,-0.3500341,0.12945478,-0.06518421,-0.15850207,-0.076614454,0.19153613,-9.021352,0.95226496,47.655537,-1.1991545,-1.9847648,-3.4163573,-0.23611765,-0.20130837,-0.3239626,28.625,29.75,28.9375,33.0,35.375,36.5
0.3680524,0.38223198,-0.19233395,0.3731298,-0.02989691,-0.0069332724,-0.1970179,-0.41271797,-0.34004936,0.06004943,-3.0624754,0.62851894,0.00016903873,-0.17534724,0.044815507,0.0013002838,0.07495594,-0.013110083,-0.016307972,0.4428542,-1.3774761,1.8963488,-2.0790427,-1.5829595,2.4222395,-0.18362813,0.27170184,-0.35167816,0.122132726,-0.064109035,-0.16648641,0.038307227,0.1340753,-9.021352,1.0194036,47.682407,-1.1761675,-1.8945897,-3.447001,-0.15152621,-0.22281428,-0.23532516,28.625,29.75,28.9375,33.0,35.375,36.5
0.37005252,0.136436,-0.64222145,0.25199854,-0.039221905,-0.009087967,-0.18605012,-0.41305584,-0.33994249,0.060016245,-3.0622816,0.62851083,0.000101803285,-0.17772628,0.043722466,0.0017573243,0.07151584,-0.009749571,-0.008945489,0.4424699,-1.3768986,1.8956908,-2.0788167,-1.5830911,2.4218771,-0.18448436,0.27389643,-0.35461056,0.118207365,-0.062571876,-0.17471223,0.0,0.17238252,-9.002198,0.9701675,47.66808,-1.1022172,-1.8972207,-3.452814,-0.07081967,-0.22752464,-0.11679304,28.625,29.75,28.9375,33.0,35.375,36.5
0.37205178,-0.5316647,-1.7260678,0.16866995,-0.03671195,-0.009989119,-0.18289636,-0.41340888,-0.33986712,0.06001372,-3.062112,0.62853175,6.605707e-05,-0.17827511,0.04432076,0.0016677699,0.07071287,-0.0104665365,-0.008317003,0.4421206,-1.3763099,1.8949379,-2.0785406,-1.5832108,2.4215646,-0.18640669,0.27418,-0.35495457,0.11849485,-0.061596673,-0.17726755,0.019153614,0.15322891,-9.021352,0.9545008,47.65464,-1.0043535,-1.8901453,-3.5294342,-0.0227112,-0.27913243,-0.05685667,28.625,29.75,28.9375,33.0,35.375,36.5
0.3740519,-0.5820905,-1.157252,0.13946778,-0.04962678,-0.007189394,-0.1843962,-0.41374242,-0.33978695,0.059999336,-3.0619748,0.628486,3.6468675e-05,-0.18028289,0.044750653,0.0021676235,0.06893028,-0.008408851,-0.015648147,0.44177213,-1.3757571,1.8942679,-2.078326,-1.5833186,2.4212067,-0.18909983,0.27486962,-0.35671836,0.116962984,-0.060859643,-0.1726308,0.019153614,0.21068975,-9.155427,0.9186956,47.655537,-0.97081786,-1.801317,-3.500184,-0.0125656,-0.30348337,-0.073410496,28.625,29.75,28.9375,33.0,35.375,36.5
0.37605193,-0.48628813,-0.6908024,0.3232738,-0.04640347,0.006718745,-0.18432352,-0.41409594,-0.33968163,0.0599911,-3.0618017,0.628567,-1.2354452e-05,-0.18091251,0.04496489,0.0022292312,0.069565795,-0.0101617575,-0.023425678,0.44136408,-1.3752038,1.8935746,-2.0780733,-1.5834268,2.4208734,-0.1899292,0.27678004,-0.35998285,0.12021883,-0.06065304,-0.16567661,-0.24899697,0.21068975,-9.174581,0.94331104,47.65643,-0.97111636,-1.851562,-3.5116844,0.018938374,-0.3278226,-0.11383871,28.625,29.75,28.9375,33.0,35.375,36.5
0.3780522,-0.94435346,-0.49778455,0.113584235,-0.008470224,0.0031574264,-0.18211298,-0.41445822,-0.33959407,0.059984554,-3.0616388,0.62861115,-5.7194487e-05,-0.18330497,0.044910986,0.0032657627,0.06767677,-0.0071467003,-0.031625163,0.44097966,-1.3746145,1.8928322,-2.077811,-1.5835346,2.4205394,-0.19188932,0.27770627,-0.3633739,0.11918916,-0.06021409,-0.15943386,-0.30645782,0.13407528,-9.193734,0.9992599,47.70659,-1.0523651,-1.9989393,-3.516423,0.037991773,-0.3639722,-0.18542668,28.625,29.75,28.9375,33.0,35.375,36.5
