Tylouw/Master_Thesis_Code/training_data/batch_1/small_rod_t0.3/sample_64_session_2.csv
timestamp[s],tcp_force_x[N],tcp_force_y[N],tcp_force_z[N],tcp_force_rx[Nm?],tcp_force_ry[Nm?],tcp_force_rz[Nm?],tcp_pose_x[m],tcp_pose_y[m],tcp_pose_z[m],tcp_pose_rx[rot_vec_x],tcp_pose_ry[rot_vec_y],tcp_pose_rz[rot_vec_z],tcp_velo_x[m/s],tcp_velo_y[m/s],tcp_velo_z[m/s],tcp_velo_rx[rot_vec_x/s],tcp_velo_ry[rot_vec_y/s],tcp_velo_rz[rot_vec_z/s],q1[rad],q2[rad],q3[rad],q4[rad],q5[rad],q6[rad],qd1[rad/s],qd2[rad/s],qd3[rad/s],qd4[rad/s],qd5[rad/s],qd6[rad/s],tool_acc_x,tool_acc_y,tool_acc_z,current_of_whole_robot[A],voltage_of_whole_robot[V],current_J1[A],current_J2[A],current_J3[A],current_J4[A],current_J5[A],current_J6[A],temp_J1[C],temp_J2[C],temp_J3[C],temp_J4[C],temp_J5[C],temp_J6[C]
9.700016e-07,-0.69017375,-0.6092317,0.82279,-0.0005622166,-0.005167069,-0.008400596,-0.381056,-0.34851077,0.05996951,-3.0784879,0.6249095,-0.00016649227,0.0014575976,0.0007550597,-0.0014115227,0.0012755186,-0.0027569395,5.3630978e-05,0.47778615,-1.4259579,1.9577392,-2.1008208,-1.5707816,2.452764,-8.400848e-05,-3.459565e-05,0.0033226057,-0.00025383758,0.000141526,-0.00013952245,0.095768064,0.05746084,-8.829816,0.71951014,47.695843,0.07644684,-2.7684493,-2.4941564,-0.46045893,0.16699547,0.05978536,28.5625,29.6875,28.9375,32.9375,35.375,36.375
0.002054669,-1.0420772,-1.063032,0.65959483,0.019038374,-0.0153613,0.0010135703,-0.38103965,-0.34851137,0.05995106,-3.0784514,0.62490267,-0.00020908119,-0.0011308707,-0.0005958924,-0.002447321,-0.0016835162,0.0029006975,5.6745423e-05,0.4778101,-1.4259324,1.9577507,-2.1008132,-1.5707935,2.4527884,-8.2903054e-05,0.003977395,0.003530756,-0.010858693,0.00014366674,-0.00013887881,-0.038307227,0.15322891,-8.695741,0.7463667,47.696735,0.07262887,-2.8152242,-2.4414902,-0.40966493,0.16489889,0.06203042,28.5625,29.6875,28.9375,32.9375,35.375,36.375
0.004053805,-0.65807045,-0.9825441,0.58997923,0.016672393,-0.0011845612,0.0012702784,-0.381051,-0.34852126,0.059963457,-3.0785174,0.6248774,-0.00021200255,-0.0021244953,-0.0011127015,-0.0021187752,-0.002965048,0.005368813,5.5895332e-05,0.47778615,-1.4259443,1.9577388,-2.1008255,-1.5707458,2.4527402,-8.18263e-05,0.0043881023,0.0028932558,-0.013412873,0.00013964294,-0.00013603871,0.038307227,0.17238252,-8.714894,0.6926589,47.703903,0.047501728,-3.1527672,-2.61395,-0.2972393,0.16922753,0.052366115,28.5625,29.6875,28.9375,32.9375,35.375,36.375
0.006054266,-0.58677965,-0.48341137,0.54005206,0.0172067,-0.017610164,-0.003919984,-0.38104334,-0.3485285,0.059942413,-3.0785232,0.62489766,-0.00022466839,-0.0012788491,-0.00067070575,-0.0011558443,-0.00201507,0.0035643985,5.318558e-05,0.47779807,-1.4259212,1.9577736,-2.1008832,-1.5707334,2.452764,-8.077719e-05,0.0022457053,0.0019734853,-0.0083115185,0.00013546686,-0.00013317322,0.076614454,0.1340753,-8.734048,0.71951014,47.689575,0.051970195,-3.0561028,-2.6103354,-0.3214724,0.17123024,0.054370612,28.5625,29.6875,28.9375,32.9375,35.375,36.375
0.008054221,0.13234961,0.13675763,0.066266514,0.036134183,-0.027635537,-0.0146960085,-0.38106605,-0.34852445,0.059942316,-3.078539,0.6249013,-0.00022294157,-0.0006785746,-0.00035644503,4.3786426e-05,-0.0014792383,0.0025563694,5.0713217e-05,0.47776207,-1.425898,1.9577497,-2.1008937,-1.5707215,2.4527283,-7.975474e-05,-0.000118768454,0.0008800469,-0.003712047,0.00013150978,-0.0001304169,-0.076614454,0.17238252,-8.887277,0.7709874,47.70211,0.12758452,-2.901719,-2.5501208,-0.37637448,0.16345656,0.056853876,28.5625,29.6875,28.9375,32.9375,35.375,36.375
0.010053621,-0.49879918,-0.09388458,-0.21874058,0.046170793,-0.04060742,-0.0024101506,-0.3810725,-0.34852374,0.059959568,-3.078517,0.62493455,-0.00013166759,-0.0005090934,-0.0002672903,0.0003738618,-0.0011905452,0.0020125203,4.8956153e-05,0.47778615,-1.4259223,1.9577378,-2.1008933,-1.5707697,2.452776,-7.875764e-05,-0.0006046151,0.00029588252,-0.002026337,0.00012777562,-0.00012777188,-0.05746084,0.11492168,-9.078813,0.7172743,47.696735,-0.20092595,-2.2493365,-3.154302,-0.36722285,0.12731448,0.030864088,28.5625,29.6875,28.9375,32.9375,35.375,36.375
0.012053527,0.105272226,-0.15085462,-0.3900668,0.013433292,-0.014204239,-0.013793417,-0.38105908,-0.34853217,0.05992842,-3.0785003,0.6249121,-0.00023164958,0.00042969818,0.00022442696,-0.0037714057,0.0030248382,-0.006116456,5.519505e-05,0.47779807,-1.4258598,1.9577378,-2.1008933,-1.5707458,2.452776,-8.686771e-05,0.0077434643,3.9696415e-06,-0.0009255417,0.00012424724,-0.00014086835,0.1340753,0.11492168,-9.289502,0.7329411,47.67345,-0.4264502,-2.1964977,-3.3939006,-0.35580677,0.10516095,0.009371445,28.5625,29.6875,28.9375,32.9375,35.375,36.375
0.014053726,-0.97020096,-1.432386,-0.64839983,0.010395299,-0.016263047,0.0010710245,-0.38104287,-0.34851566,0.059914663,-3.0784466,0.6249051,-0.0003366967,-0.004413029,0.0019092786,-0.0046391175,0.0046675485,-0.00925591,-0.007328765,0.4777837,-1.4258443,1.957735,-2.1008198,-1.5707458,2.452764,-0.0075559425,0.016449027,-0.008752133,0.0026682955,9.834955e-05,-0.00022085627,-0.038307227,0.21068975,-9.423578,0.6971306,47.67614,-0.2429555,-2.9748206,-3.1561675,-0.3518441,0.0838666,-0.03617119,28.5625,29.6875,28.9375,32.9375,35.375,36.375
0.016054304,-0.5052262,-1.3168936,-0.7115481,-0.017461114,0.02929885,-0.020223493,-0.38106036,-0.3485244,0.059922427,-3.0784853,0.62483233,-0.00029117818,-0.0051088147,0.0023660061,-0.0029183638,0.003936074,-0.0078097186,-0.0006575939,0.477783,-1.4258335,1.9577101,-2.1008432,-1.5707458,2.452713,-0.00900005,0.013756006,-0.010185782,0.0051732576,8.273445e-05,-0.008336309,-0.15322891,0.28730422,-9.557653,0.7284641,47.682407,-0.14391352,-2.7206523,-3.2473633,-0.3857929,0.08752119,0.0013051492,28.5625,29.6875,28.9375,32.9375,35.375,36.375
0.0180539,-2.2942474,-2.1478698,-0.8833821,-0.023939982,0.030899566,-0.010902834,-0.3810507,-0.34849727,0.059875656,-3.0783675,0.6249022,-0.00042933386,-0.005004885,0.0020537514,-0.0030267402,0.0041772006,-0.007977212,0.003473578,0.4777592,-1.4257493,1.9577101,-2.100795,-1.5707697,2.4527478,-0.008258001,0.01437771,-0.010675829,0.005300944,-5.8106478e-05,-0.011724848,-0.21068975,0.34476504,-9.634268,0.7642693,47.711063,-0.32158104,-2.4697387,-3.5123854,-0.3605318,0.047834687,0.042533584,28.5625,29.6875,28.9375,32.9375,35.375,36.375
0.020053832,-1.991107,-1.475304,-0.8559923,-0.04465059,0.063153856,-0.031964548,-0.38105243,-0.34848237,0.05986901,-3.0783694,0.624864,-0.0004713475,-0.006051948,0.0020714686,-0.0028818958,0.0043133483,-0.007755001,0.003557179,0.47772303,-1.4257488,1.9577221,-2.100783,-1.5707573,2.4526875,-0.009112198,0.015880065,-0.012838901,0.005827744,-0.0002857088,-0.012660967,-0.40222588,0.30645782,-9.825804,0.7597976,47.682407,-0.4452132,-2.4912977,-3.4950404,-0.34775215,0.03305555,0.040807582,28.5625,29.6875,28.9375,32.9375,35.375,36.375
0.022053609,-2.3239176,-1.431645,-0.9501307,-0.029259557,0.06138672,-0.044021383,-0.38105324,-0.34848714,0.059868358,-3.0783176,0.62483513,-0.00052044314,-0.007169907,0.0022205904,-0.003245999,0.004913214,-0.008698753,0.002717205,0.47774655,-1.4257,1.9576486,-2.1006987,-1.5707816,2.4526997,-0.010347721,0.018657869,-0.01537074,0.006695665,-0.00038871568,-0.013054743,-0.51714754,0.38307226,-9.768343,0.77545905,47.690468,-0.49642438,-2.4846776,-3.4954615,-0.35549617,0.007917639,0.03585461,28.5625,29.6875,28.9375,32.9375,35.375,36.375
0.024053615,-1.9428074,-1.4614929,-1.1046406,-0.01897962,0.059756752,-0.06187603,-0.38105792,-0.3484663,0.05983241,-3.0782928,0.62485033,-0.00059073116,-0.008601851,0.003408894,-0.0029366207,0.006370108,-0.00832526,0.0005582526,0.4776977,-1.4256518,1.9576839,-2.100734,-1.5707701,2.4526634,-0.012832638,0.019313961,-0.01716207,0.008174422,-0.0018560054,-0.013376908,-0.49799395,0.38307226,-9.80665,0.7172743,47.688675,-0.47292945,-2.4811387,-3.5145626,-0.3506019,0.007532281,0.026946288,28.5625,29.6875,28.9375,32.9375,35.375,36.375
0.026054252,-1.8389395,-1.6434845,-1.2759334,-0.010669658,0.046541978,-0.068266414,-0.3811004,-0.34848127,0.059855487,-3.0783257,0.62483907,-0.00053145376,-0.009771078,0.0037051179,-0.0023741405,0.0065171383,-0.007610862,-0.0013272193,0.47768524,-1.4256155,1.9575871,-2.1007216,-1.5707706,2.4526398,-0.014141779,0.019849027,-0.019293144,0.009205341,-0.0023163708,-0.012798772,-0.6512228,0.2681506,-9.844957,0.69041777,47.68062,-0.48589188,-2.4322004,-3.4533587,-0.34129626,0.009051517,0.02213205,28.5625,29.6875,28.9375,32.9375,35.375,36.375
0.028054206,-1.7149737,-1.1443496,-0.99964464,-0.019780306,0.052368633,-0.083849475,-0.38114312,-0.34848094,0.059873648,-3.0783498,0.6248839,-0.00050065794,-0.010681368,0.0040675667,-0.0025208453,0.0065591503,-0.008217017,-0.00360828,0.47763672,-1.4255912,1.9575151,-2.1007097,-1.5707577,2.4526162,-0.015784003,0.02128554,-0.020720921,0.009753515,-0.002076524,-0.0121596595,-0.7278373,0.19153613,-9.787497,0.75084364,47.707485,-0.536024,-2.421207,-3.5293932,-0.3292833,-0.031977456,-0.0077791223,28.5625,29.6875,28.9375,32.9375,35.375,36.375
0.030054312,-1.8304397,-0.60993624,-0.8890649,-0.016702723,0.053388763,-0.093472704,-0.38112658,-0.34846544,0.059835415,-3.0782838,0.6248702,-0.000630922,-0.011771323,0.0038362632,-0.002051488,0.006477645,-0.0074327043,-0.0037376694,0.4776247,-1.425531,1.9575256,-2.1006734,-1.5707582,2.452604,-0.016192477,0.022485813,-0.023312116,0.01041142,-0.0023703324,-0.012436536,-0.6703765,0.21068975,-9.844957,0.8157518,47.647476,-0.5918927,-2.3884532,-3.522953,-0.3297178,-0.057040665,-0.008880379,28.5625,29.6875,28.9375,32.9375,35.375,36.375
0.032053966,-1.9868957,-0.47759312,-0.68222404,0.0057394076,0.06703153,-0.1075352,-0.38117015,-0.3484809,0.059838593,-3.0783126,0.62483805,-0.00058741274,-0.0128480075,0.004348297,-0.0014171188,0.007680482,-0.0064486363,-0.0044481456,0.47761217,-1.4254591,1.9574417,-2.1006968,-1.5707587,2.4525678,-0.017109232,0.02278914,-0.025456201,0.011936601,-0.0038918199,-0.012638912,-0.5554548,0.095768064,-9.921572,0.7642693,47.68599,-0.4939738,-2.3753436,-3.453652,-0.34300083,-0.058875173,-0.033555392,28.5625,29.6875,28.9375,32.9375,35.375,36.375
0.034053918,-2.4244344,-0.511646,-0.7460334,0.034718767,0.058317453,-0.11377046,-0.38117543,-0.34847203,0.05983039,-3.0782824,0.6248886,-0.0006843802,-0.013266526,0.0045255926,-0.0015642925,0.009122283,-0.006835818,-0.0034089508,0.47757632,-1.4254225,1.957405,-2.1006362,-1.5707353,2.4525673,-0.017094279,0.02420469,-0.026990682,0.013066122,-0.0049968297,-0.013659782,-0.45968673,-0.019153614,-9.691729,0.7150385,47.72002,-0.5930761,-2.3265533,-3.5088592,-0.32718474,-0.06585663,-0.035652682,28.5625,29.6875,28.9375,32.9375,35.375,36.375
0.036053717,-2.1369758,0.16915758,-0.6385936,0.040756684,0.048756827,-0.118534915,-0.38121727,-0.34845796,0.059829786,-3.078246,0.62493944,-0.0006743845,-0.014693147,0.004500737,-0.0009222036,0.008915391,-0.005170841,-0.0040337723,0.47752798,-1.4253623,1.9573325,-2.1006129,-1.5707592,2.4525554,-0.01798753,0.024997933,-0.029366264,0.013076181,-0.005584201,-0.013925574,-0.4405331,-0.076614454,-9.595961,0.7351769,47.696735,-0.60023403,-2.411184,-3.4979062,-0.33081907,-0.09291738,-0.024754142,28.5625,29.6875,28.9375,32.9375,35.375,36.375
0.03805376,-1.7482101,0.027011532,-0.73520637,0.0500163,0.037128832,-0.12817818,-0.38125357,-0.3484452,0.059831012,-3.078217,0.62489605,-0.00062550197,-0.017312797,0.0045253825,9.475946e-05,0.008487649,-0.0014155196,-0.006097142,0.47750333,-1.4253141,1.9572719,-2.1006014,-1.5708078,2.4525075,-0.019573612,0.026234306,-0.032798465,0.011744376,-0.0069404524,-0.013443182,-0.34476504,-0.076614454,-9.672575,0.7530795,47.677036,-0.55573654,-2.4116812,-3.3760624,-0.32480985,-0.1007158,-0.034716442,28.5625,29.6875,28.9375,32.9375,35.375,36.375
0.040053662,-1.2805362,-0.06827069,-0.6948016,0.046001747,0.023156414,-0.14093427,-0.38130268,-0.34843892,0.059844665,-3.078222,0.6249358,-0.0005685655,-0.018895417,0.0052330843,0.000312054,0.010009334,0.00073994126,-0.00832036,0.47745502,-1.4252778,1.9571995,-2.1006014,-1.5708207,2.4524834,-0.020769348,0.027261268,-0.034299687,0.011011728,-0.009286477,-0.012409928,-0.3256114,-0.095768064,-9.576807,0.83589023,47.70032,-0.585004,-2.2825296,-3.422077,-0.3116566,-0.09593004,-0.05744347,28.5625,29.6875,28.9375,32.9375,35.375,36.375
0.042053577,-1.1659641,-0.19072728,-0.5550412,0.030243332,0.01620072,-0.14438483,-0.3813556,-0.3484459,0.05986382,-3.07824,0.624921,-0.0005381209,-0.020223679,0.005881579,0.00054089393,0.012714851,0.0020715531,-0.008961026,0.47741902,-1.4252173,1.9570783,-2.1005652,-1.5708216,2.452436,-0.021188406,0.028808719,-0.03682672,0.012062436,-0.012304077,-0.012180935,-0.22984336,-0.095768064,-9.615114,0.7642693,47.683304,-0.57481915,-2.266673,-3.4039624,-0.31123835,-0.0732812,-0.06739614,28.5625,29.6875,28.9375,32.9375,35.375,36.375
0.04405331,-1.6217188,-0.8469194,-0.6652203,0.035239488,0.007563872,-0.14828503,-0.38139305,-0.34841084,0.059851456,-3.078163,0.62500185,-0.0005598856,-0.021504907,0.0070718327,0.000728244,0.015974157,0.0034860382,-0.0095965,0.47734654,-1.4251571,1.9570297,-2.1005285,-1.5708593,2.4524238,-0.02218245,0.029710453,-0.038520772,0.013107262,-0.015851278,-0.012530544,-0.22984336,-0.019153614,-9.615114,0.7284641,47.719128,-0.55899364,-2.3063903,-3.299377,-0.30538154,-0.05404988,-0.06042526,28.5625,29.6875,28.9375,32.9375,35.375,36.375
0.046053775,-1.5349114,-0.9345978,-0.67449445,0.029386347,0.015727932,-0.16244727,-0.38141993,-0.34840673,0.059834402,-3.078109,0.62510645,-0.00059269636,-0.02277769,0.00736476,0.0012018911,0.016231727,0.0043919054,-0.010915966,0.47732207,-1.425073,1.9569701,-2.1005166,-1.5708712,2.4524715,-0.023457857,0.030505823,-0.040663257,0.013769924,-0.016499834,-0.012483429,-0.11492168,0.05746084,-9.653421,0.7777002,47.719128,-0.5341167,-2.2798395,-3.422742,-0.2980941,-0.021641523,-0.09851755,28.5625,29.6875,28.9375,32.9375,35.375,36.375
0.048054367,-1.3355604,-0.9054984,-0.6624081,0.014985093,0.01576198,-0.16737595,-0.3814666,-0.34837288,0.059840366,-3.0780473,0.6251135,-0.0005887452,-0.023799025,0.0073253163,0.0019128509,0.015286257,0.0047507267,-0.012094967,0.47724965,-1.4250249,1.9568852,-2.1004446,-1.5709189,2.4524114,-0.024765978,0.030795792,-0.042887617,0.014947022,-0.015827691,-0.012612523,-0.1340753,0.095768064,-9.653421,0.71279734,47.69763,-0.5364761,-2.2115269,-3.2971473,-0.31883913,-0.055590734,-0.097141355,28.5625,29.6875,28.9375,32.9375,35.375,36.375
0.05005362,-1.3394594,-1.7227683,-0.8714307,0.016311338,0.005437886,-0.1600956,-0.38149372,-0.34838036,0.0598356,-3.0780292,0.62509054,-0.00063373876,-0.02412058,0.006888661,0.0019202358,0.013926812,0.0035960982,-0.012090208,0.47723752,-1.424941,1.9567894,-2.1003964,-1.5709184,2.4523873,-0.025413843,0.031893574,-0.044327043,0.015683146,-0.014092177,-0.013267721,-0.19153613,0.24899697,-9.672575,0.7709874,47.689575,-0.5716994,-2.131971,-3.3592296,-0.3230769,-0.06074539,-0.11359106,28.5625,29.6875,28.9375,32.9375,35.375,36.375
0.05205353,-1.3229963,-1.8948154,-0.6528525,0.002650897,-0.01127324,-0.18067355,-0.3815635,-0.34835854,0.05985272,-3.0779934,0.62519825,-0.0005413865,-0.025291296,0.006825272,0.0017336272,0.014131613,0.0037053823,-0.011822125,0.47716516,-1.4248922,1.9566921,-2.100385,-1.5709661,2.4523869,-0.026225869,0.034236234,-0.046543792,0.015553037,-0.014329895,-0.014346317,-0.19153613,0.2681506,-9.691729,0.80679786,47.694054,-0.5943103,-2.1646636,-3.4016302,-0.30484676,-0.076415524,-0.121503785,28.5625,29.6875,28.9375,32.9375,35.375,36.375
0.054054234,-0.9789573,-2.099219,-0.89159155,-0.011025689,-0.011948599,-0.1870292,-0.3816237,-0.34833574,0.059866652,-3.0779567,0.62526834,-0.0004926162,-0.025932046,0.0072166575,0.001051565,0.015312376,0.0022177796,-0.012292762,0.47709283,-1.4248434,1.9565963,-2.1003482,-1.5710028,2.452363,-0.027272055,0.036747143,-0.048043393,0.016404971,-0.014697469,-0.014920225,-0.11492168,0.3256114,-9.615114,0.7553206,47.698532,-0.5499073,-2.2086356,-3.3956916,-0.3158904,-0.05445124,-0.13540673,28.5625,29.6875,28.9375,32.9375,35.375,36.375
0.056053713,-1.5598195,-2.388576,-0.8479035,-0.011432873,-0.02551808,-0.1855362,-0.38168633,-0.3483322,0.05986399,-3.0779302,0.6253014,-0.00046898416,-0.027346587,0.00789132,0.0021192175,0.017005723,0.005325023,-0.012230887,0.47704464,-1.4247357,1.9564766,-2.1003358,-1.5710276,2.452339,-0.027867284,0.036115684,-0.049877297,0.016896838,-0.017632036,-0.0155701535,-0.038307227,0.34476504,-9.653421,0.7172743,47.694946,-0.5771054,-2.1474624,-3.3872304,-0.31853437,-0.03268404,-0.1334739,28.5625,29.6875,28.9375,32.9375,35.375,36.375
0.058053743,-0.78856087,-2.1573212,-0.75592136,-0.01610221,0.008847351,-0.19639574,-0.38172176,-0.34832326,0.05986906,-3.0779157,0.62525964,-0.0005122034,-0.028236724,0.008239744,0.002570088,0.01775484,0.0058478564,-0.012386086,0.47699633,-1.4246757,1.9563802,-2.1002638,-1.5710281,2.4522665,-0.028716534,0.036597334,-0.051747393,0.018166894,-0.018539913,-0.016260788,-0.038307227,0.36391866,-9.615114,0.7597976,47.70838,-0.55054975,-2.0218127,-3.3821263,-0.32312238,-0.027693953,-0.17129755,28.5625,29.6875,28.9375,32.9375,35.375,36.375
0.06005344,-0.95599383,-1.7679148,-0.6879406,-0.01811131,0.020182358,-0.2056006,-0.38177264,-0.34831384,0.059891507,-3.0778975,0.625371,-0.00044421002,-0.030595204,0.007289452,0.003089975,0.01596937,0.007197753,-0.012579293,0.47694805,-1.4246505,1.9562949,-2.10024,-1.571052,2.45229,-0.029825145,0.03997075,-0.056679245,0.017701248,-0.017585289,-0.017175859,-0.11492168,0.45968673,-9.557653,0.82022345,47.709274,-0.5764756,-2.134071,-3.2114816,-0.29888928,-0.009082978,-0.18746966,28.5625,29.6875,28.9375,32.9375,35.375,36.375
0.06205432,-0.6477832,-1.6784344,-0.6183624,-0.022692956,0.036694065,-0.20758244,-0.38184774,-0.3482996,0.05990275,-3.077858,0.62532395,-0.0003596221,-0.029804196,0.0077181305,0.0018732671,0.015908832,0.004429257,-0.012354467,0.4768997,-1.4245543,1.9561514,-2.1002042,-1.5711235,2.4522176,-0.030712903,0.040724874,-0.0546892,0.017381405,-0.016257774,-0.018292373,-0.11492168,0.38307226,-9.519346,0.7463667,47.684196,-0.566032,-2.1843238,-3.4886353,-0.3054824,-0.058753524,-0.16890877,28.5625,29.6875,28.9375,32.9375,35.375,36.375
0.06405355,-0.81032795,-1.6993848,-0.5601201,-0.012817211,0.025155514,-0.19195054,-0.3819363,-0.34828693,0.05990813,-3.0778685,0.62547916,-0.00034099136,-0.03082556,0.0073522287,0.0013824662,0.016465519,0.003476603,-0.011939216,0.47677958,-1.4244576,1.9560312,-2.1002162,-1.5710992,2.452193,-0.030958725,0.044281695,-0.057772458,0.018008133,-0.01632059,-0.0189519,-0.019153614,0.34476504,-9.423578,0.71279734,47.713753,-0.6330335,-2.157474,-3.3798604,-0.29200715,-0.030501068,-0.19279388,28.5625,29.6875,28.9375,32.9375,35.375,36.375
0.06605406,-1.3286955,-1.8757596,-0.44141832,0.003931351,0.0051238374,-0.17259268,-0.3819679,-0.34826976,0.059891403,-3.0777972,0.6254648,-0.00039223704,-0.033036556,0.007068244,0.0026623548,0.01609423,0.006834563,-0.011599924,0.4767434,-1.4243611,1.9559458,-2.100156,-1.5711354,2.452157,-0.03170008,0.045165338,-0.061680116,0.017880835,-0.017542662,-0.020026552,-0.05746084,0.34476504,-9.404425,0.7597976,47.704796,-0.6618932,-2.2291193,-3.3227453,-0.25973302,-0.031941075,-0.19309829,28.5625,29.6875,28.9375,32.9375,35.375,36.375
0.06805418,-0.35936752,-1.1158636,-0.4624616,0.00072236644,0.026628675,-0.18986225,-0.3820378,-0.34827456,0.059929248,-3.0778294,0.6254894,-0.00029174806,-0.034290124,0.006621122,0.0040482935,0.014542742,0.008892781,-0.010617881,0.4766951,-1.4243256,1.9558133,-2.1001318,-1.5711473,2.45212,-0.03233578,0.044605736,-0.064370416,0.018586555,-0.017112404,-0.021645378,-0.21068975,0.2873042,-9.385271,0.7284641,47.721813,-0.64062744,-2.0022862,-3.15315,-0.25378105,-0.015338477,-0.1889157,28.5625,29.6875,28.9375,32.9375,35.375,36.375
0.07005409,-1.2339393,-1.1398805,-0.40658462,0.015910435,0.010766954,-0.1799974,-0.3821098,-0.34827852,0.059943333,-3.0778162,0.62544817,-0.0002431252,-0.033464223,0.0069586565,0.0021091064,0.016602546,0.0049202787,-0.009561735,0.47665915,-1.4242166,1.9556459,-2.100084,-1.5711836,2.4520602,-0.03216614,0.047810785,-0.06374657,0.019230543,-0.017117457,-0.022531996,-0.17238252,0.2681506,-9.346964,0.7329411,47.678825,-0.70253444,-2.143189,-3.3329628,-0.24519274,-0.046226185,-0.2069444,28.5625,29.6875,28.9375,32.9375,35.375,36.375
0.07205383,-1.317954,-1.0823992,-0.16005944,0.021632643,0.019732265,-0.18308908,-0.3821594,-0.34825554,0.059913203,-3.077727,0.625467,-0.00025750874,-0.03482623,0.0063990615,0.002434307,0.01637926,0.00537619,-0.00851905,0.4766111,-1.424084,1.9555606,-2.1000717,-1.5712432,2.4520354,-0.032413974,0.050233632,-0.067431726,0.019982394,-0.017136851,-0.023819381,-0.28730422,0.22984336,-9.346964,0.8112748,47.686886,-0.7253976,-2.1907504,-3.1687484,-0.23547047,-0.060572427,-0.22151762,28.5625,29.6875,28.9375,32.9375,35.375,36.375
0.07405412,-1.2724386,-0.942192,-0.30576828,0.01823229,0.025837377,-0.17313613,-0.38223475,-0.348223,0.05992436,-3.0776746,0.6255333,-0.00021205966,-0.035139475,0.0065110577,0.0022685588,0.016936844,0.0044096434,-0.008283986,0.47651502,-1.4240118,1.9554418,-2.1000235,-1.5712913,2.4519875,-0.032860506,0.05146478,-0.06872821,0.021159302,-0.017189853,-0.024500228,-0.2681506,0.22984336,-9.232041,0.76874626,47.71823,-0.76760554,-2.2011032,-3.1905394,-0.22034508,-0.0528024,-0.20733619,28.5625,29.6875,28.9375,32.9375,35.375,36.375
0.076053835,-1.4473681,-1.1833146,-0.29149488,0.029861536,0.02705702,-0.17323051,-0.38230792,-0.3482357,0.059945364,-3.0776887,0.6256325,-0.0002055529,-0.036223765,0.006451621,0.0027277574,0.017209379,0.005326407,-0.008223341,0.47645485,-1.4239156,1.955273,-2.0999753,-1.571268,2.4519875,-0.033315912,0.05250812,-0.07112376,0.021823477,-0.017856121,-0.025014022,-0.19153613,0.2681506,-9.136273,0.7642693,47.696735,-0.84132016,-2.1843967,-3.143745,-0.20449987,-0.061856333,-0.22746879,28.5625,29.6875,28.9375,32.9375,35.375,36.375
0.078053586,-1.435678,-0.73180383,-0.3166374,0.024678482,0.034346975,-0.17130852,-0.382392,-0.34823665,0.05995076,-3.0776749,0.625648,-0.00016691246,-0.037479054,0.0063524595,0.003088793,0.016996827,0.0059094233,-0.007818453,0.47639441,-1.4237833,1.9551042,-2.0999515,-1.5712918,2.4519386,-0.034236036,0.05395606,-0.07373105,0.022364987,-0.01793975,-0.026337665,-0.11492168,0.24899697,-9.289502,0.76874626,47.716442,-0.86318934,-2.1340265,-3.1500916,-0.1975011,-0.051506206,-0.24582168,28.5625,29.6875,28.9375,32.9375,35.375,36.375
0.08005352,-1.2926298,-1.1014707,-0.16644499,0.039934617,0.034110352,-0.16798897,-0.38246801,-0.34822282,0.05996006,-3.077635,0.62556106,-9.735928e-05,-0.038075812,0.006443967,0.003022255,0.017791852,0.005487684,-0.006281753,0.47634637,-1.423675,1.9549483,-2.0999029,-1.5713638,2.4518416,-0.034608334,0.055432122,-0.07550296,0.023397857,-0.018455788,-0.028244622,-0.15322891,0.24899697,-9.232041,0.76874626,47.704796,-0.9194622,-2.128509,-3.0797083,-0.18402287,-0.062132988,-0.22492659,28.5625,29.6875,28.9375,32.9375,35.375,36.375
0.08205412,-0.935095,-0.5224264,-0.27663875,0.027731182,0.033219833,-0.17599137,-0.38253185,-0.34819975,0.059964575,-3.0775983,0.6255728,-0.00010271009,-0.03914249,0.0062661506,0.0033065032,0.0179766,0.0061181122,-0.005967328,0.47626227,-1.4235907,1.9548281,-2.0998433,-1.5713881,2.4517696,-0.034971587,0.056938227,-0.07799047,0.023902604,-0.01891463,-0.028919483,-0.19153613,0.11492168,-9.174581,0.7866488,47.67614,-0.9408657,-2.132986,-3.10681,-0.1692191,-0.065452464,-0.25195867,28.5625,29.6875,28.9375,32.9375,35.375,36.375
0.08405371,-0.83773947,-1.123292,-0.37481663,0.031823117,0.026649179,-0.17455678,-0.38262773,-0.34819126,0.059977956,-3.077558,0.625622,-4.0693165e-05,-0.039833486,0.006260084,0.0032103292,0.018456414,0.005656586,-0.005448887,0.47619003,-1.4234582,1.9546355,-2.099795,-1.5714363,2.4517334,-0.035447996,0.058640037,-0.07991268,0.02475035,-0.019132238,-0.029913038,-0.28730422,0.17238252,-9.193734,0.7172743,47.719128,-1.0108992,-2.1092172,-3.0396142,-0.16685963,-0.07356888,-0.2501063,28.5625,29.6875,28.9375,32.9375,35.375,36.375
0.086053826,-1.3221735,-1.3252425,-0.44752094,0.026830196,0.008721258,-0.17187981,-0.38270026,-0.34817538,0.05997645,-3.0775201,0.62559444,-3.5105597e-05,-0.04038928,0.0063166535,0.003467666,0.01883409,0.006057164,-0.0051759626,0.4761181,-1.4233384,1.954491,-2.0997465,-1.571472,2.4516492,-0.035714224,0.059149772,-0.08123022,0.02537424,-0.019654267,-0.03044998,-0.28730422,0.15322891,-9.251195,0.7351769,47.705692,-1.098938,-2.0990298,-3.0420732,-0.15993488,-0.06480179,-0.25002098,28.5625,29.6875,28.9375,32.9375,35.375,36.375
0.08805355,-1.1974279,-1.2066139,-0.44364324,0.009786653,0.020522203,-0.16899878,-0.382769,-0.34817258,0.05997256,-3.077483,0.6256451,-5.6320696e-05,-0.041016396,0.0071267835,0.0014820965,0.022044003,0.002628884,-0.0058343234,0.47605777,-1.4232045,1.954336,-2.0996983,-1.5714844,2.4516253,-0.03689264,0.064392455,-0.08290346,0.026325589,-0.02093899,-0.030965177,-0.21068975,0.15322891,-9.32781,0.7597976,47.704796,-1.0993025,-2.189438,-3.0859013,-0.14411429,-0.055409975,-0.2817484,28.5625,29.6875,28.9375,32.9375,35.375,36.375
0.09005421,-0.79921836,-1.620579,-0.3481837,0.008740413,0.04267081,-0.17674123,-0.38289088,-0.3481527,0.060011473,-3.0774555,0.62569666,6.233201e-05,-0.041655246,0.007346365,0.0032668728,0.021390457,0.0051470716,-0.006299049,0.47594944,-1.4230975,1.9541086,-2.0996263,-1.571545,2.4515529,-0.037484836,0.061475907,-0.083986096,0.027784865,-0.021510268,-0.031092638,-0.34476504,0.038307227,-9.346964,0.8023209,47.703903,-1.1150413,-2.134256,-3.1277666,-0.12331875,-0.08067791,-0.285135,28.5625,29.6875,28.9375,32.9375,35.375,36.375
0.09205398,-1.1376737,-0.86525524,-0.4148615,-0.0025775423,0.036243852,-0.17583366,-0.38295427,-0.34814307,0.060008425,-3.0774226,0.62565076,4.0413648e-05,-0.04190027,0.0071192533,0.002746501,0.022026412,0.0031439636,-0.005514709,0.47588935,-1.4229763,1.9539632,-2.0995653,-1.5715688,2.4514685,-0.037528526,0.06404177,-0.08610294,0.02940364,-0.021160778,-0.031919517,-0.21068975,0.19153613,-9.308656,0.79560274,47.687782,-1.1768932,-2.0426102,-3.099317,-0.108097956,-0.05438054,-0.28820327,28.5625,29.6875,28.9375,32.9375,35.375,36.375
0.09405361,-0.8441832,-1.0662427,-0.5596497,0.0077121677,0.029885514,-0.17299652,-0.3830411,-0.34810686,0.059984736,-3.0773268,0.62582386,1.344072e-05,-0.042550366,0.008644422,0.001259264,0.023769256,-0.00045357365,-0.0070417332,0.4757683,-1.4228193,1.9538325,-2.099541,-1.5716046,2.4514678,-0.040886577,0.067030236,-0.08643019,0.03073283,-0.021063903,-0.033749335,-0.1340753,0.24899697,-9.404425,0.7597976,47.703007,-1.1249884,-2.1215034,-3.2198749,-0.102170125,-0.09107377,-0.30757162,28.5625,29.6875,28.9375,32.9375,35.375,36.375
0.096053824,-1.1377147,-1.1937973,-0.2877308,0.005902491,0.01915275,-0.17449458,-0.3831276,-0.3480847,0.06000798,-3.0772684,0.62575394,5.5347038e-05,-0.04413651,0.008226676,0.0020055482,0.023542682,0.0012677487,-0.006304787,0.47569627,-1.4227105,1.953628,-2.0994213,-1.5716771,2.4513597,-0.04120959,0.068532094,-0.08994036,0.031104254,-0.021659963,-0.034805525,-0.1340753,0.1340753,-9.385271,0.7418897,47.691364,-1.1729319,-2.2269263,-3.0362792,-0.101529896,-0.08312541,-0.28612536,28.5625,29.6875,28.9375,32.9375,35.375,36.375
0.09805413,-1.4451491,-1.6214222,-0.5291175,0.02043884,0.0021124138,-0.16677994,-0.38320953,-0.34810036,0.06001598,-3.0772831,0.62571746,6.865522e-05,-0.042925898,0.008470972,0.0010533028,0.024918316,-0.0010149918,-0.006241422,0.47564858,-1.4225663,1.9534367,-2.0993855,-1.5716771,2.4512875,-0.04040906,0.06893815,-0.08839936,0.031816874,-0.021832116,-0.03406907,-0.21068975,0.17238252,-9.385271,0.7665104,47.70211,-1.2271924,-2.1057947,-3.2163277,-0.070647806,-0.099813014,-0.293284,28.5625,29.6875,28.9375,32.9375,35.375,36.375
0.100054,-0.67355233,-0.64052737,-0.5521737,-0.0033227277,0.023983255,-0.17824213,-0.38328072,-0.34805635,0.060005598,-3.0771842,0.62569875,5.1558698e-05,-0.045564305,0.008408894,0.0018634406,0.02439367,0.00031437102,-0.008469028,0.4755516,-1.4224454,1.9533032,-2.099301,-1.5717491,2.4511917,-0.042617496,0.071619116,-0.09356019,0.032870714,-0.02198661,-0.034045197,-0.17238252,0.17238252,-9.32781,0.7732232,47.70032,-1.24865,-2.1022973,-3.2070398,-0.07722608,-0.119365335,-0.34238398,28.5625,29.6875,28.9375,32.9375,35.375,36.375
0.102053456,-1.1645108,-1.4726046,-0.60913587,0.017575331,0.009588952,-0.17032583,-0.383409,-0.34805757,0.060016185,-3.0771453,0.62580496,0.00013934253,-0.045168664,0.009865981,0.0003066099,0.027111115,-0.0029889385,-0.00794361,0.47546726,-1.4222524,1.9530529,-2.0992768,-1.5717977,2.4511788,-0.044241786,0.07334616,-0.09224669,0.03400824,-0.02288669,-0.03619417,-0.11492168,0.11492168,-9.385271,0.7597976,47.694054,-1.1454693,-2.232677,-3.2635329,-0.06689682,-0.08646816,-0.3277521,28.5625,29.6875,28.9375,32.9375,35.375,36.375
0.104054324,-0.9607136,-1.246332,-0.47950035,0.012607446,0.014126919,-0.1738042,-0.38344517,-0.34803525,0.05998797,-3.0770793,0.62575436,-7.322896e-06,-0.046757095,0.010726455,0.00028995154,0.027788412,-0.0033202467,-0.009247235,0.47539428,-1.4221199,1.9529442,-2.099181,-1.5717977,2.4510827,-0.046925064,0.07516038,-0.09453511,0.035085384,-0.02334646,-0.03756877,-0.15322891,0.22984336,-9.3661175,0.7239871,47.691364,-1.1277747,-2.2182105,-3.3320107,-0.039073877,-0.1128089,-0.32849947,28.5625,29.6875,28.9375,32.9375,35.375,36.375
0.10605502,-0.8625962,-0.6184443,-0.46649387,-0.000393529,0.014910207,-0.17351827,-0.38358507,-0.34802052,0.06002466,-3.0770645,0.62573004,0.00013413152,-0.046712857,0.011149255,-0.00024573848,0.028481955,-0.005020532,-0.007752289,0.4752862,-1.4219753,1.9526814,-2.0991209,-1.5718697,2.4509616,-0.04772227,0.07617283,-0.094698295,0.036056627,-0.023184778,-0.03986263,-0.1340753,0.17238252,-9.385271,0.7463667,47.709274,-1.1077335,-2.231747,-3.3449106,-0.029796554,-0.11756374,-0.3335162,28.5625,29.6875,28.9375,32.9375,35.375,36.375
0.10805397,-1.1020182,-0.7378083,-0.52537477,0.005125569,0.01637389,-0.16894129,-0.38364536,-0.34800258,0.059994362,-3.0769799,0.6257116,2.3875265e-05,-0.04686797,0.010721197,0.00025895523,0.028696246,-0.0049988925,-0.0052302754,0.47521427,-1.4217948,1.952525,-2.099036,-1.5718936,2.450889,-0.04696253,0.0765218,-0.09664086,0.037724923,-0.023392957,-0.04162119,-0.15322891,0.15322891,-9.346964,0.78217715,47.71286,-1.209225,-2.1544933,-3.3681254,-0.034191534,-0.1290002,-0.32025027,28.5625,29.6875,28.9375,32.9375,35.375,36.375
0.11005392,-1.1727693,-0.5247133,-0.48126626,0.015226963,0.011165486,-0.17155837,-0.38375774,-0.34798178,0.06000627,-3.0769417,0.62574387,8.433531e-05,-0.04705717,0.012068131,-0.0006549733,0.031100083,-0.0075972183,-0.008229192,0.47510564,-1.4216505,1.9523219,-2.0989878,-1.5719422,2.4508057,-0.04889903,0.0781373,-0.09686732,0.03974636,-0.024338229,-0.040556718,-0.095768064,0.15322891,-9.346964,0.800085,47.703903,-1.2214345,-2.1146011,-3.4834433,-0.035986982,-0.13592035,-0.3179288,28.5625,29.6875,28.9375,32.9375,35.375,36.375
0.112053744,-1.3999923,-0.6597132,-0.5236089,0.021109995,0.0062270877,-0.17025384,-0.38385192,-0.34794948,0.05999673,-3.0768564,0.6258029,3.141433e-05,-0.049895953,0.012260644,0.00024273976,0.029711133,-0.0051858346,-0.009602892,0.4749846,-1.4214815,1.9521288,-2.0988925,-1.5719775,2.4507325,-0.05190749,0.07981667,-0.10070903,0.039122038,-0.02422272,-0.042187776,-0.076614454,0.11492168,-9.404425,0.83813137,47.705692,-1.0978752,-2.0692592,-3.3464413,-0.029121507,-0.13019645,-0.3442008,28.5625,29.6875,28.9375,32.9375,35.375,36.375
0.11405395,-1.3739522,-1.0594956,-0.40531012,0.02249385,0.015170436,-0.16975647,-0.3839827,-0.34792298,0.060018864,-3.0768116,0.625849,0.00014393382,-0.04929798,0.01261691,-0.00064789766,0.030338304,-0.007145697,-0.0064775785,0.47486448,-1.4213372,1.9519023,-2.0988443,-1.57205,2.450647,-0.052190803,0.080541044,-0.09954081,0.039247137,-0.023885887,-0.04559859,-0.15322891,0.05746084,-9.32781,0.76874626,47.703007,-1.153927,-2.0514894,-3.602981,0.006994374,-0.1587644,-0.32248452,28.5625,29.6875,28.9375,32.9375,35.375,36.375
0.11605426,-1.3028216,-0.7384977,-0.3799475,0.009112845,0.02182348,-0.17425077,-0.38407347,-0.3479229,0.060039297,-3.0767958,0.6257876,0.00017885555,-0.051393215,0.012254204,0.0010736276,0.029254504,-0.005068153,-0.005375843,0.47480407,-1.4212048,1.9516848,-2.0987594,-1.5720857,2.4505506,-0.053460743,0.0810344,-0.10453656,0.04139976,-0.023881225,-0.04796816,-0.19153613,0.076614454,-9.32781,0.79560274,47.687782,-1.1568806,-2.049447,-3.461132,0.01286842,-0.19571047,-0.27927834,28.5625,29.6875,28.9375,32.9375,35.375,36.375
0.11805407,-1.0589657,-0.948728,-0.42347616,0.021551706,0.032384317,-0.17213169,-0.3841879,-0.34788987,0.060046516,-3.0767322,0.6258305,0.00019451928,-0.051656056,0.012697097,0.0006302574,0.030251306,-0.0065693394,-0.0043964437,0.47467196,-1.4210483,1.9514703,-2.0986755,-1.5721344,2.4504535,-0.05433733,0.08246122,-0.10545585,0.0426755,-0.024086326,-0.0498226,-0.19153613,0.1340753,-9.32781,0.82022345,47.698532,-1.1759008,-1.9583254,-3.5102477,0.012082315,-0.19708183,-0.27321622,28.5625,29.6875,28.9375,32.9375,35.375,36.375
0.12005368,-1.6048481,-0.58210135,-0.38970593,0.01926156,0.020306868,-0.17632543,-0.38428968,-0.34786803,0.060045533,-3.0766714,0.6257989,0.00015540532,-0.052945886,0.013321118,0.00081716763,0.03208984,-0.0071634687,-0.00393515,0.4745633,-1.4208674,1.9512409,-2.0985663,-1.5721706,2.450333,-0.055723492,0.08449949,-0.10884219,0.045389887,-0.02545848,-0.051663578,-0.2681506,0.095768064,-9.481039,0.8314132,47.694946,-1.1211263,-1.937851,-3.3677595,0.0008502649,-0.22014081,-0.24474274,28.5625,29.6875,28.9375,32.9375,35.375,36.375
0.12205335,-1.0280288,-0.5158841,-0.5183001,0.018006405,0.043573994,-0.18080536,-0.38437814,-0.34782216,0.0600353,-3.076545,0.6258299,0.00013495395,-0.053672314,0.0134635065,0.0011472051,0.032167517,-0.0065608113,-0.0028909945,0.47445512,-1.4207112,1.9510611,-2.098459,-1.5722545,2.4502606,-0.056398403,0.08486147,-0.11010971,0.045786235,-0.025813397,-0.053378984,-0.24899697,0.095768064,-9.423578,0.842603,47.67614,-1.2062237,-2.0136483,-3.4373097,-0.0065336,-0.18172193,-0.20105046,28.5625,29.6875,28.9375,32.9375,35.375,36.375
0.124054,-1.565608,-0.91341305,-0.6853192,0.018640613,0.039686713,-0.17403425,-0.38450453,-0.34781137,0.06005616,-3.0765038,0.62580067,0.00019246359,-0.055100553,0.013392624,0.0020869328,0.030777104,-0.0049111173,-0.0017528277,0.47435862,-1.4205309,1.9507855,-2.0983632,-1.5723141,2.4501514,-0.057868533,0.08485244,-0.11227301,0.045844115,-0.025339708,-0.055987522,-0.34476504,0.095768064,-9.423578,0.6859408,47.66271,-1.1728427,-1.847296,-3.4704394,0.0288713,-0.22821155,-0.19257143,28.5625,29.6875,28.9375,32.9375,35.375,36.375
0.12605348,-1.652379,-0.8766924,-0.5783968,0.0061978893,0.045906834,-0.17877318,-0.3845997,-0.3477769,0.06003741,-3.076417,0.6258201,9.468249e-05,-0.055012356,0.014340889,0.00030415616,0.034278966,-0.010077429,-0.0008277321,0.47422627,-1.4203373,1.9505819,-2.098254,-1.5723389,2.4500425,-0.058961406,0.08930765,-0.11412687,0.049432684,-0.026102288,-0.05799995,-0.36391866,0.17238252,-9.500193,0.74413085,47.705692,-1.1945186,-2.0161304,-3.3902528,0.0032971422,-0.24179673,-0.16722521,28.5625,29.6875,28.9375,32.9375,35.375,36.375
0.12805428,-1.6647618,-0.79520255,-0.7856418,-0.01098497,0.04700982,-0.17421913,-0.38470036,-0.34773687,0.06003429,-3.076348,0.625787,6.8521054e-05,-0.055665262,0.014688768,0.0017636318,0.03409535,-0.009330359,-0.00048474543,0.4740939,-1.4201819,1.9503893,-2.0981576,-1.5723866,2.4498985,-0.060038272,0.08761481,-0.11622173,0.052463863,-0.026286134,-0.05941758,-0.40222588,0.13407528,-9.615114,0.7553206,47.688675,-1.18289,-1.8809228,-3.460257,-0.013473114,-0.24508289,-0.09860566,28.5625,29.6875,28.9375,32.9375,35.375,36.375
0.13005435,-1.3994726,-1.0687943,-0.88063693,-0.011083521,0.05222208,-0.17944968,-0.3848141,-0.3477255,0.060053132,-3.076314,0.62577987,5.986006e-05,-0.056524962,0.015614375,0.0012906466,0.035935614,-0.011649673,-0.0021094847,0.47398534,-1.4200127,1.9501251,-2.0980365,-1.572411,2.44979,-0.06207152,0.09006978,-0.11860534,0.055293225,-0.026868222,-0.05982273,-0.40222588,0.1340753,-9.653421,0.8023209,47.666286,-1.1882508,-1.8509157,-3.3807123,-0.046789408,-0.27269503,-0.0862045,28.5625,29.6875,28.9375,32.9375,35.375,36.375
0.13205405,-0.8371542,-0.5535568,-0.7427562,-0.009892753,0.0584078,-0.1799365,-0.3849675,-0.34768793,0.060055114,-3.0762467,0.62572986,0.00015160178,-0.057562973,0.016376503,0.0013296534,0.037470385,-0.012465045,-0.0053159515,0.47384056,-1.419796,1.9498614,-2.097988,-1.5725073,2.4496229,-0.063703984,0.09163921,-0.12102161,0.05756296,-0.027863583,-0.058244847,-0.38307226,0.1340753,-9.576807,0.82022345,47.675243,-1.0561545,-1.8374159,-3.4146166,-0.07696175,-0.28603786,-0.08006251,28.5625,29.6875,28.9375,32.9375,35.375,36.375
0.1340536,-1.6072295,-0.96704996,-0.61303264,-0.000111089765,0.04541588,-0.16892178,-0.38506836,-0.34767935,0.06006753,-3.0762136,0.6257404,9.070406e-05,-0.05721007,0.015976248,0.0008165332,0.03870265,-0.014786592,-0.003680193,0.473733,-1.4196271,1.9496096,-2.0978558,-1.5725073,2.4495263,-0.06262791,0.09385749,-0.122927204,0.059874468,-0.027906507,-0.05880221,-0.45968673,0.17238252,-9.576807,0.81351066,47.689575,-1.2324024,-1.8275814,-3.404183,-0.100631624,-0.2862003,-0.054245636,28.5625,29.6875,28.9375,32.9375,35.375,36.375
0.13605364,-1.5184252,-0.70144886,-0.6432695,0.015660563,0.044045113,-0.17760073,-0.3851791,-0.34761974,0.06004185,-3.0760508,0.62578595,3.664567e-05,-0.060321204,0.016139884,0.0027123862,0.038419705,-0.0121724615,-0.0076698195,0.47358832,-1.4194103,1.9493927,-2.0977347,-1.5726036,2.4494312,-0.06512373,0.095167644,-0.1293837,0.06256217,-0.028863907,-0.057299282,-0.47884035,0.1340753,-9.557653,0.77545905,47.68599,-1.1384904,-1.6925956,-3.1485224,-0.14460845,-0.30406597,-0.059829507,28.5625,29.6875,28.9375,32.9375,35.375,36.375
0.13805367,-0.7146263,-0.18767862,-0.75626796,0.023825863,0.046483397,-0.1771853,-0.3853183,-0.3476011,0.060078166,-3.076003,0.62585664,0.0001221673,-0.060572606,0.018375559,0.00069149816,0.04103971,-0.017058283,-0.014924258,0.4734668,-1.4192532,1.9491051,-2.0976264,-1.5726637,2.4493601,-0.06923007,0.09805514,-0.12848401,0.064317904,-0.02895921,-0.054151867,-0.36391866,0.21068975,-9.519346,0.7553206,47.68599,-0.9537947,-1.7739671,-3.2460222,-0.17502794,-0.3224511,-0.095672555,28.5625,29.6875,28.9375,32.9375,35.375,36.375
0.14005351,-0.7941661,-0.40875477,-0.69124633,0.020699661,0.043603193,-0.17712945,-0.38546523,-0.3475695,0.060107,-3.0759673,0.62588525,0.00015317982,-0.060333513,0.017350696,-0.00076566945,0.04346765,-0.020682823,-0.012781002,0.4732997,-1.4190832,1.9488171,-2.0975058,-1.5726994,2.4492157,-0.06683873,0.10370723,-0.13218385,0.06669415,-0.029475996,-0.053899895,-0.30645782,0.21068975,-9.519346,0.8627467,47.694054,-1.105392,-1.8335223,-3.1616502,-0.20253134,-0.34818965,-0.083780125,28.5625,29.6875,28.9375,32.9375,35.375,36.375
0.14205413,-0.92969954,-0.8637341,-0.6493727,0.021815682,0.032655656,-0.17039622,-0.3855617,-0.3475202,0.06008083,-3.075803,0.62587225,4.3327826e-05,-0.06188199,0.018579422,0.00036220675,0.043254618,-0.01945835,-0.01572945,0.4731787,-1.4188553,1.9485778,-2.0973375,-1.5727838,2.449108,-0.07016341,0.102396935,-0.13362838,0.06825447,-0.029857617,-0.05427014,-0.3256114,0.15322891,-9.481039,0.78217715,47.655537,-1.0891354,-1.9352726,-3.1478019,-0.2538753,-0.35551414,-0.081700094,28.5625,29.6875,28.9375,32.9375,35.375,36.375
0.14405382,-0.6327482,-0.8954568,-0.64055234,0.014360332,0.036819603,-0.16964543,-0.38567966,-0.34746614,0.060074646,-3.0756774,0.62590605,-4.525927e-06,-0.062868424,0.019096864,-0.0010945185,0.045184333,-0.022320662,-0.019782435,0.47302204,-1.4186616,1.9483374,-2.0971944,-1.5728563,2.4489887,-0.07168682,0.10722792,-0.13609138,0.069312304,-0.030280795,-0.051734556,-0.24899697,0.17238252,-9.442732,0.7418897,47.719128,-0.9666794,-1.870689,-3.1207333,-0.30320635,-0.3622808,-0.108020365,28.5625,29.6875,28.9375,32.9375,35.375,36.375
0.14605384,-0.858276,-0.79916793,-0.545768,-0.008154165,0.04143375,-0.17853266,-0.38581482,-0.34742585,0.060090158,-3.0755591,0.6259611,3.062599e-05,-0.06491052,0.019405518,0.0001967533,0.04484925,-0.01934236,-0.024655038,0.47288948,-1.4184695,1.9480494,-2.0970504,-1.5729526,2.448906,-0.073382236,0.10712847,-0.13898465,0.06950334,-0.03134676,-0.04855104,-0.34476504,0.19153613,-9.3661175,0.82022345,47.698532,-0.957227,-1.952627,-3.1199827,-0.3147124,-0.37611735,-0.14519136,28.5625,29.6875,28.9375,32.9375,35.375,36.375
0.14805387,-1.3835833,-1.6642703,-0.37501633,-0.020183891,0.050411742,-0.17056578,-0.3859583,-0.3474092,0.06008732,-3.0755234,0.62599176,-5.810224e-05,-0.06463624,0.020007674,-0.0012138335,0.046009872,-0.021184292,-0.025100945,0.4727213,-1.4182165,1.9477385,-2.0969307,-1.5729407,2.4487617,-0.07403738,0.1088767,-0.13756132,0.06849579,-0.031550456,-0.048757926,-0.30645782,0.15322891,-9.346964,0.78217715,47.691364,-0.95147026,-1.9621968,-3.235063,-0.3340391,-0.39744446,-0.16559452,28.5625,29.6875,28.9375,32.9375,35.375,36.375
0.15005437,-1.6152871,-1.5874385,-0.08407896,-0.02576034,0.06219698,-0.17974734,-0.3861025,-0.34738454,0.060130104,-3.0754666,0.6260565,6.898458e-05,-0.06712,0.020244082,-0.00058463844,0.045502022,-0.01778408,-0.026679974,0.47260067,-1.418072,1.947451,-2.0968244,-1.5730251,2.448689,-0.07597608,0.11021516,-0.14007126,0.06640389,-0.03265998,-0.049113244,-0.34476504,0.17238252,-9.232041,0.7911258,47.67345,-0.95870084,-1.8504102,-3.1909754,-0.32985938,-0.4065238,-0.19265938,28.5625,29.6875,28.9375,32.9375,35.375,36.375
0.15205385,-1.7971137,-1.6881511,-0.19093527,-0.013934976,0.06385943,-0.17133388,-0.38624823,-0.34734496,0.060133684,-3.075353,0.62614924,6.556284e-05,-0.06911654,0.020244079,-0.0002475586,0.044548288,-0.01464687,-0.028545814,0.4724442,-1.4178435,1.9471511,-2.0966933,-1.5730971,2.4486053,-0.07737994,0.111389235,-0.14154299,0.06346871,-0.03325607,-0.048645888,-0.4213795,0.21068975,-9.346964,0.8291774,47.691364,-0.8858437,-1.8867788,-3.2840567,-0.31229246,-0.42863476,-0.19351949,28.5625,29.6875,28.9375,32.9375,35.375,36.375
0.15405348,-1.5278012,-0.64749885,0.08781553,-0.026460817,0.07164885,-0.18296194,-0.3863748,-0.34730178,0.060105924,-3.075255,0.6261495,-3.3461863e-05,-0.07016739,0.020764468,-0.0006732877,0.04515333,-0.014258792,-0.02971311,0.47227576,-1.4175905,1.9469002,-2.0965865,-1.5731333,2.4484499,-0.07875848,0.11302426,-0.14223881,0.062453996,-0.033986617,-0.048850212,-0.3256114,0.24899697,-9.232041,0.7732232,47.65464,-0.8584113,-1.8334539,-3.311079,-0.30288514,-0.44042563,-0.22781014,28.5625,29.6875,28.9375,32.9375,35.375,36.375
0.15605342,-0.675447,-0.81545615,0.22509897,-0.0026500951,0.0765797,-0.1855958,-0.3865366,-0.3472699,0.060127012,-3.0751588,0.6263024,2.3301744e-05,-0.073275186,0.020944292,-0.00032193706,0.044371232,-0.008960197,-0.031562325,0.47211903,-1.4173737,1.9465765,-2.0964682,-1.5732063,2.4484012,-0.08075085,0.11491651,-0.14406668,0.0573121,-0.035721622,-0.04898478,-0.34476504,0.17238252,-9.251195,0.7732232,47.67345,-0.7527102,-1.8925681,-3.3586955,-0.26112604,-0.43095595,-0.26281035,28.5625,29.6875,28.9375,32.9375,35.375,36.375
0.158054,-1.1277046,-0.46672028,0.32312205,0.01560247,0.04571992,-0.17424747,-0.38667232,-0.34720516,0.060109966,-3.0749907,0.62640214,9.457136e-06,-0.07521918,0.021327192,-0.00057609595,0.04481732,-0.0062049986,-0.03244462,0.4719507,-1.4171448,1.9463261,-2.0963495,-1.5733145,2.448317,-0.08208949,0.11695296,-0.14510337,0.054054756,-0.03739177,-0.049430247,-0.38307226,0.13407528,-9.155427,0.81351066,47.695843,-0.72007775,-1.8768361,-3.383677,-0.20823827,-0.42921376,-0.26651004,28.5625,29.6875,28.9375,32.9375,35.375,36.375
0.16005354,-1.2376474,-0.0354122,0.3348049,0.014676829,0.03787717,-0.17637752,-0.38686064,-0.3471868,0.06014057,-3.0749626,0.62654966,0.00010355434,-0.077137224,0.021198371,0.00044966253,0.04501849,-0.0017754504,-0.03190665,0.4717706,-1.4169166,1.945978,-2.096278,-1.5733513,2.448233,-0.082139194,0.11725422,-0.14738923,0.052183084,-0.039596807,-0.050010387,-0.45968673,0.17238252,-8.983045,0.8493211,47.675243,-0.7739353,-1.7491455,-3.4503675,-0.1531233,-0.42171925,-0.28441572,28.5625,29.6875,28.9375,32.9375,35.375,36.375
0.1620542,-0.7403299,-0.5646258,0.066029765,0.04190633,0.04392323,-0.17890702,-0.38696992,-0.34713474,0.060109194,-3.0748334,0.626524,2.4057932e-05,-0.078840055,0.022444502,2.9317814e-06,0.046039905,-0.003134952,-0.034646645,0.4716255,-1.4166873,1.945762,-2.0961697,-1.5734233,2.4480886,-0.08566997,0.11985348,-0.14968199,0.053541347,-0.039901894,-0.050794024,-0.36391866,0.13407528,-9.002198,0.8023209,47.71286,-0.6245365,-2.0315058,-3.3767014,-0.13941906,-0.43466175,-0.32430884,28.5625,29.6875,28.9375,32.9375,35.375,36.375
0.16405386,-1.0668069,-0.48553064,0.108933315,0.04738632,0.037768092,-0.17499746,-0.38718995,-0.34709796,0.06015358,-3.0747468,0.62665784,0.0002424354,-0.07919238,0.02189042,0.00026308405,0.04769433,-0.00055432494,-0.031328756,0.47144628,-1.416447,1.9453663,-2.0960867,-1.5735563,2.4480045,-0.083251104,0.120575935,-0.15087876,0.05246119,-0.04255546,-0.051685497,-0.36391866,0.095768064,-9.021352,0.78217715,47.67345,-0.89396703,-1.6714498,-3.365829,-0.10650155,-0.42548293,-0.32134557,28.5625,29.6875,28.9375,32.9375,35.375,36.375
0.1660538,-1.5664456,-0.4294024,0.15873462,0.037735954,0.04330904,-0.17567264,-0.38732514,-0.34704983,0.060142748,-3.0746307,0.62673086,0.00019876714,-0.08202003,0.022496866,0.0016689737,0.04825665,0.0038830428,-0.033523954,0.47127765,-1.4162186,1.9451016,-2.095967,-1.5736173,2.4478967,-0.08522391,0.12096613,-0.15443662,0.051930197,-0.045087636,-0.051448345,-0.36391866,0.0,-9.021352,0.8112748,47.64837,-0.79747856,-1.8267455,-3.3202472,-0.056148887,-0.3931531,-0.34334427,28.5625,29.6875,28.9375,32.9375,35.375,36.375
0.16805382,-1.2303613,-0.3788006,0.026236454,0.044480175,0.06125612,-0.18088256,-0.38746598,-0.34698933,0.060124848,-3.0744874,0.62679625,0.00016002181,-0.08296954,0.023203982,0.0010723934,0.05225072,0.0023201592,-0.033555284,0.47109744,-1.4159771,1.9448379,-2.0958464,-1.5737022,2.447776,-0.085460626,0.12468514,-0.15806787,0.055045273,-0.04794682,-0.051636692,-0.3256114,0.038307227,-9.040505,0.83365434,47.699425,-0.6937417,-1.8369412,-3.4349756,-0.05118963,-0.38178852,-0.40538055,28.5625,29.6875,28.9375,32.9375,35.375,36.375
0.17005353,-1.8131331,-0.6934504,-0.008811057,0.038915064,0.043875407,-0.16950954,-0.38765204,-0.34695053,0.060121305,-3.0743668,0.62684685,0.0002187074,-0.08229562,0.023299294,6.6398316e-05,0.054805703,-0.000109568944,-0.03186038,0.47092998,-1.415676,1.9444784,-2.09575,-1.5738109,2.4476562,-0.08421839,0.12686989,-0.1587076,0.056814067,-0.04912523,-0.052082762,-0.34476504,0.076614454,-9.193734,0.82022345,47.705692,-0.9582886,-1.8482637,-3.3542032,-0.04747186,-0.3421397,-0.40557685,28.5625,29.6875,28.9375,32.9375,35.375,36.375
0.17205425,-0.75756824,-0.15019588,0.045500595,0.02306689,0.054915916,-0.18592958,-0.38779038,-0.34688258,0.060120683,-3.0741866,0.6269242,0.0002024056,-0.08344257,0.02332186,0.0004566596,0.055246517,4.121717e-05,-0.03130513,0.47076175,-1.4154593,1.9441904,-2.0955703,-1.5739311,2.4475598,-0.084958196,0.12841716,-0.16174378,0.05835154,-0.04960253,-0.05336926,-0.3256114,0.19153613,-9.11712,0.87617236,47.690468,-0.8698128,-1.9084259,-3.2736678,-0.04246754,-0.33440003,-0.4217577,28.5625,29.6875,28.9375,32.9375,35.375,36.375
0.17405407,-0.878665,-0.09431183,-0.37147236,0.015162424,0.029851023,-0.17306261,-0.387974,-0.34683093,0.060133312,-3.074041,0.6270838,0.00028602273,-0.08445146,0.024251316,-0.00013993817,0.059134774,-0.0005393976,-0.029876774,0.4705817,-1.415206,1.9438432,-2.0954492,-1.5740517,2.4474986,-0.08540429,0.1314323,-0.16426513,0.060128283,-0.052816883,-0.05522828,-0.21068975,0.22984336,-9.2703495,0.86945957,47.703903,-0.9482224,-1.9821415,-3.1342096,-0.017354116,-0.2857954,-0.45311296,28.5625,29.6875,28.9375,32.9375,35.375,36.375
0.17605394,-0.6644306,-1.0666115,-0.5726074,0.021312796,0.026782928,-0.17040439,-0.3881442,-0.34676751,0.060110543,-3.0738895,0.6271091,0.00024508985,-0.085246116,0.024611253,-0.0010143134,0.062275086,-0.0020066928,-0.028110461,0.47037765,-1.4149045,1.943519,-2.0953171,-1.5741485,2.4473302,-0.08533386,0.13535775,-0.16719685,0.061851654,-0.05496952,-0.056907974,-0.11492168,0.2681506,-9.404425,0.82694155,47.704796,-0.9802425,-1.8842974,-3.3222933,-0.0136483945,-0.2527712,-0.45255876,28.5625,29.6875,28.9375,32.9375,35.375,36.375
0.17805387,-0.39237222,-1.0663022,-0.6010478,-0.011431435,0.029535748,-0.18421166,-0.38828355,-0.3467221,0.060100116,-3.0737653,0.6271178,0.0002504147,-0.08569296,0.025423387,0.0006214586,0.06274856,0.0004025749,-0.023483263,0.4702335,-1.4146652,1.9432434,-2.095209,-1.5742453,2.447208,-0.0861514,0.1319764,-0.16744289,0.06351833,-0.056502923,-0.06234323,-0.076614454,0.24899697,-9.461885,0.8291774,47.689575,-0.97118807,-1.8687236,-3.333216,-0.010893639,-0.22144109,-0.4432389,28.5625,29.6875,28.9375,32.9375,35.375,36.375
0.18005349,-0.6502468,-1.8259537,-0.6696103,-0.020509442,0.023679543,-0.17468157,-0.38848716,-0.3466717,0.060120847,-3.073616,0.627164,0.00034216788,-0.08631999,0.02612025,-0.0010381077,0.06561672,-0.0031808068,-0.023192557,0.4700531,-1.4143752,1.9428247,-2.095041,-1.5743898,2.447076,-0.0872981,0.1369177,-0.16978364,0.06539058,-0.05744911,-0.063772984,-0.11492168,0.34476504,-9.557653,0.91198283,47.691364,-1.0070236,-2.0703607,-3.3112159,-0.010750634,-0.17330417,-0.42459238,28.5625,29.6875,28.9375,32.9375,35.375,36.375
0.18205422,-0.7864222,-2.4323778,-0.95298254,-0.027252056,0.024914967,-0.17463869,-0.38863635,-0.34661788,0.06010592,-3.073461,0.62724483,0.00031407826,-0.085933365,0.026901059,-0.0010311692,0.06781509,-0.006388005,-0.01983705,0.46988472,-1.4141109,1.9425248,-2.094907,-1.5744857,2.4469786,-0.08795659,0.13744234,-0.17158054,0.070488565,-0.0579722,-0.06777918,-0.095768064,0.3256114,-9.576807,0.79560274,47.694946,-1.0095608,-1.9013324,-3.3220782,-0.04292867,-0.13643834,-0.4007858,28.5625,29.6875,28.9375,32.9375,35.375,36.375
0.18405397,-0.954368,-1.9414104,-0.9292408,-0.041801374,0.017236508,-0.18144463,-0.3888118,-0.3465505,0.06009123,-3.073291,0.62722427,0.00030750546,-0.08698964,0.027789587,-0.0014988895,0.0681532,-0.007823284,-0.015194509,0.46969196,-1.41381,1.9421772,-2.0947511,-1.5746177,2.4467955,-0.09064011,0.13926704,-0.17282449,0.07129027,-0.057660744,-0.07509975,-0.095768064,0.36391866,-9.595961,0.8403672,47.7245,-0.99930227,-1.9926723,-3.2800274,-0.045706645,-0.11430724,-0.34690157,28.5625,29.6875,28.9375,32.9375,35.375,36.375
0.1860538,-1.2178174,-2.2740119,-1.0707808,-0.026381677,-0.0054950467,-0.16757718,-0.38900754,-0.34649876,0.060104582,-3.0731926,0.62720114,0.00040558263,-0.08624011,0.026793722,-0.0016778054,0.06742521,-0.010940449,-0.012339746,0.4695004,-1.4135451,1.9418176,-2.0946429,-1.574737,2.4466026,-0.089476384,0.14079207,-0.17486946,0.07422638,-0.055612016,-0.07679848,0.0,0.36391866,-9.730036,0.81351066,47.690468,-0.9642793,-1.9507091,-3.3442726,-0.09744303,-0.092487335,-0.28607872,28.5625,29.6875,28.9375,32.9375,35.375,36.375
0.1880539,-0.7883613,-1.9122387,-1.0039647,-0.018010778,-0.011238988,-0.16612236,-0.38918942,-0.34642446,0.06010326,-3.0729795,0.6272316,0.00045512203,-0.0841274,0.027715677,-0.0029332766,0.06976158,-0.019167645,-0.009121737,0.4693202,-1.4132565,1.9414476,-2.0944602,-1.5749162,2.4464695,-0.09020678,0.14205213,-0.17514493,0.08158956,-0.053985342,-0.08074976,-0.019153614,0.40222588,-9.576807,0.9567419,47.68599,-1.1694247,-1.9477866,-3.4260142,-0.15304336,-0.09435828,-0.23708034,28.5625,29.6875,28.9375,32.9375,35.375,36.375
0.19005376,-0.5770898,-1.477689,-0.87400115,-0.0015907399,-0.02703305,-0.16604906,-0.38936052,-0.34641898,0.060110632,-3.0729384,0.6272414,0.00040477794,-0.085364304,0.027806817,-0.0023916306,0.0674245,-0.019559374,-0.008782463,0.4691631,-1.412956,1.9410523,-2.0943172,-1.5749272,2.446324,-0.09287969,0.14248635,-0.17710651,0.08237922,-0.051746927,-0.08376882,0.038307227,0.30645782,-9.500193,0.85826975,47.67614,-0.8564824,-1.940369,-3.5069718,-0.19794413,-0.105713665,-0.18846789,28.5625,29.6875,28.9375,32.9375,35.375,36.375
0.19205335,-0.10975338,-0.84512603,-0.6295464,4.1054853e-05,-0.025734203,-0.17862724,-0.389533,-0.34635153,0.060100168,-3.072765,0.62720346,0.00047383405,-0.08387195,0.02679784,-0.004359197,0.06798076,-0.02538169,-0.0057090377,0.468996,-1.4126782,1.9407295,-2.0941966,-1.5750946,2.4461563,-0.09107981,0.14677897,-0.17805715,0.084446296,-0.049627095,-0.085047685,0.076614454,0.2681506,-9.404425,0.85826975,47.647476,-1.1799847,-1.9567077,-3.4887424,-0.22030267,-0.12825394,-0.16552061,28.5625,29.6875,28.9375,32.9375,35.375,36.375
0.1940542,-0.1853491,-0.9506233,-0.6499652,0.014807313,-0.021383803,-0.17901668,-0.38969547,-0.34629264,0.060103774,-3.0726268,0.6272322,0.00039463362,-0.08525062,0.02670994,-0.0026593427,0.06511874,-0.024323054,-0.00794168,0.4687912,-1.4124147,1.940369,-2.09398,-1.5751656,2.4459877,-0.09344197,0.1454113,-0.18082514,0.08632028,-0.04757529,-0.085180394,0.019153614,0.17238252,-9.423578,0.8247004,47.709274,-1.1088879,-1.8811108,-3.433125,-0.25210166,-0.12994048,-0.12524678,28.5625,29.6875,28.9375,32.9375,35.375,36.375
0.19605409,-0.8834887,-1.3474876,-0.7499059,0.023623897,-0.025277656,-0.15955545,-0.3898701,-0.3462423,0.060091913,-3.0724924,0.6272245,0.00034000984,-0.08540193,0.026651712,-0.0035711664,0.06487374,-0.02716855,-0.009701056,0.4685988,-1.4121015,1.9399976,-2.0938122,-1.5752496,2.4458084,-0.09438853,0.14807326,-0.18207584,0.08731929,-0.04608837,-0.084368885,0.0,0.038307227,-9.385271,0.8179876,47.677036,-1.0353754,-1.9925377,-3.5263367,-0.29144138,-0.13946478,-0.109357506,28.5625,29.6875,28.9375,32.9375,35.375,36.375
0.19805393,-0.16930151,-0.7535669,-0.4705128,0.001044616,0.0039433655,-0.17590833,-0.3900416,-0.34619984,0.060080964,-3.0723565,0.62721556,0.0003112195,-0.08642363,0.026044678,-0.004155687,0.063910626,-0.028274244,-0.012444102,0.46843064,-1.4117877,1.9396261,-2.0936568,-1.5753449,2.4456527,-0.09505784,0.15153998,-0.18471436,0.08703206,-0.04474617,-0.08229556,0.076614454,0.038307227,-9.3661175,0.8493211,47.704796,-1.1438442,-2.019968,-3.464636,-0.29986435,-0.16438378,-0.11057693,28.5625,29.6875,28.9375,32.9375,35.375,36.375
0.2000534,-0.407698,-0.9077656,-0.12739222,0.0090295635,0.012344471,-0.18277802,-0.3902279,-0.34616417,0.060089137,-3.0722744,0.62723875,0.00030876658,-0.08813847,0.025516732,-0.0036624132,0.062232543,-0.026925128,-0.017352263,0.46823826,-1.4114988,1.9392422,-2.0935142,-1.5754045,2.4454858,-0.09618438,0.15331908,-0.18778372,0.08636256,-0.04386672,-0.078514405,0.095768064,0.019153614,-9.404425,0.9030289,47.67614,-1.0956607,-2.0688643,-3.345579,-0.31596053,-0.17252609,-0.12314053,28.5625,29.6875,28.9375,32.9375,35.375,36.375
0.20205419,-0.15545018,-0.64331865,-0.2788574,0.010577739,0.0148781,-0.1851923,-0.39041668,-0.3461095,0.060104337,-3.072146,0.6272719,0.00031314403,-0.09093559,0.02461722,-0.0021091136,0.059339855,-0.022239618,-0.021838898,0.46803382,-1.4112226,1.938846,-2.093323,-1.5755008,2.4453192,-0.09734796,0.15416302,-0.19182843,0.08407491,-0.04341719,-0.07518813,0.095768064,-0.1340753,-9.385271,0.84708,47.674347,-1.085023,-2.0027432,-3.3599608,-0.2932439,-0.18662265,-0.18372883,28.5625,29.6875,28.9375,32.9375,35.375,36.375
0.2040539,-0.47983095,-0.57280105,-0.510702,0.024191525,0.005388209,-0.18111867,-0.3905885,-0.34605524,0.060087483,-3.0719922,0.62737554,0.00023405933,-0.09327355,0.023902107,-0.0010663557,0.056734174,-0.018067133,-0.025497878,0.4678295,-1.4109098,1.9384865,-2.0931566,-1.5755724,2.4452,-0.0984075,0.15494722,-0.19447398,0.081034295,-0.042994663,-0.07258389,-0.019153614,0.038307227,-9.385271,0.8291774,47.705692,-1.1207951,-1.9991046,-3.3046641,-0.24943364,-0.22108191,-0.18178973,28.5625,29.6875,28.9375,32.9375,35.375,36.375
0.2060538,-1.0338677,-0.9467395,-0.42610565,0.023759186,0.008692632,-0.17129186,-0.39077792,-0.3460148,0.06010457,-3.0718806,0.6274307,0.0002786629,-0.094532,0.023450451,-0.0012917698,0.05591778,-0.016018242,-0.029444605,0.46764952,-1.4106326,1.9380931,-2.093002,-1.5756682,2.4450693,-0.09856101,0.1568247,-0.19546779,0.077959016,-0.043194808,-0.06878673,-0.30645782,0.11492168,-9.308656,0.85155696,47.684196,-1.1262523,-2.0845363,-3.3769574,-0.2233305,-0.23134218,-0.2595709,28.5625,29.6875,28.9375,32.9375,35.375,36.375
0.20805362,-1.2240763,-0.6323734,-0.46791425,-0.016000165,0.04184643,-0.18072756,-0.39094797,-0.34597495,0.060102984,-3.0717573,0.62740475,0.000240963,-0.096429884,0.02415685,-0.0019428745,0.057416108,-0.014803878,-0.030283634,0.46748096,-1.4103317,1.9377092,-2.0928228,-1.5757531,2.444901,-0.10023901,0.15993573,-0.19719666,0.076157734,-0.045104045,-0.069609866,-0.5363012,0.24899697,-9.3661175,0.8179876,47.698532,-0.9816385,-1.9866488,-3.3891525,-0.17510858,-0.21549022,-0.28181335,28.5625,29.6875,28.9375,32.9375,35.375,36.375
0.21005341,-2.4437017,-2.194178,-0.49393716,-0.022410741,0.05749123,-0.16663042,-0.3911415,-0.34591615,0.06008037,-3.0715997,0.6274657,0.00019812181,-0.09741449,0.023122458,-0.0007697205,0.054773636,-0.012251468,-0.027557585,0.467265,-1.4099834,1.9373268,-2.0926797,-1.5758489,2.444744,-0.09999531,0.15942903,-0.19909957,0.07506472,-0.04392709,-0.07209293,-0.47884035,0.34476504,-9.404425,0.9298854,47.68062,-1.2034546,-1.9288667,-3.3947995,-0.16038322,-0.2288397,-0.23294209,28.5625,29.6875,28.9375,32.9375,35.375,36.375
0.21205416,-2.4130075,-2.7169163,-0.6392371,-0.045794908,0.09613401,-0.16625626,-0.39134428,-0.34585857,0.060094815,-3.0714757,0.627558,0.00020156929,-0.10043689,0.023989186,-0.00038295877,0.053297617,-0.011072567,-0.0342502,0.46703514,-1.4096944,1.93692,-2.0925004,-1.5759324,2.4445884,-0.10466857,0.16163926,-0.202446,0.07447564,-0.043153,-0.07007321,-0.59376204,0.45968673,-9.442732,0.8403672,47.64837,-0.8422992,-1.9471296,-3.4728456,-0.1386459,-0.27785176,-0.28160122,28.5625,29.6875,28.9375,32.9375,35.375,36.375
0.21405397,-3.0530577,-3.2394888,-0.57271713,-0.049636804,0.1045625,-0.16823657,-0.3915387,-0.34582683,0.060091376,-3.0713518,0.6275882,0.00012228722,-0.09988668,0.024173586,-0.0006565059,0.054847326,-0.012651003,-0.03308616,0.46684375,-1.409334,1.9364656,-2.092296,-1.575993,2.4444325,-0.10400461,0.16216406,-0.20293704,0.0765364,-0.043839086,-0.07056484,-0.80445176,0.38307226,-9.461885,0.7978386,47.709274,-1.0553151,-1.9002895,-3.5311875,-0.12894563,-0.27697596,-0.30214292,28.5625,29.6875,28.9375,32.9375,35.375,36.375
0.21605378,-3.0236204,-2.5692613,-0.513679,-0.046676405,0.09929853,-0.17148356,-0.3917447,-0.3457828,0.060089856,-3.0712287,0.6276591,0.00018065108,-0.101822995,0.025200922,-0.0005889344,0.05471487,-0.011232246,-0.03631277,0.46665072,-1.4090093,1.9360703,-2.092189,-1.5761007,2.4443002,-0.107147045,0.16317043,-0.20401143,0.0752643,-0.044373494,-0.070475325,-0.8236054,0.36391866,-9.500193,0.800085,47.668976,-1.0076079,-1.7792132,-3.517126,-0.129006,-0.30378845,-0.30846488,28.5625,29.6875,28.9375,32.9375,35.375,36.375
0.21805407,-2.1834776,-1.6386578,-0.52167076,-0.031023018,0.09821413,-0.17788252,-0.39192092,-0.34575462,0.060073588,-3.0711186,0.627695,0.00013083486,-0.103925146,0.025363803,-0.0012407735,0.05494984,-0.010253488,-0.038086597,0.46648213,-1.4086717,1.9356879,-2.0920575,-1.5761613,2.4441688,-0.10883179,0.16699813,-0.20652069,0.07316873,-0.045045417,-0.070376545,-0.91937345,0.3256114,-9.423578,0.8493211,47.70032,-0.923508,-1.7807465,-3.483093,-0.07195592,-0.29997003,-0.34010196,28.5625,29.6875,28.9375,32.9375,35.375,36.375
0.2200539,-2.326845,-1.1315904,-0.41796437,0.0023987656,0.062293787,-0.17282549,-0.39215463,-0.3456619,0.06006377,-3.0709329,0.627866,0.00016555194,-0.10435617,0.02549358,-5.485821e-06,0.053575393,-0.010041252,-0.038290333,0.46619374,-1.4083363,1.9352931,-2.091925,-1.5762924,2.444012,-0.110085085,0.16533293,-0.2079861,0.07545992,-0.043930374,-0.07142945,-0.8619126,0.2681506,-9.461885,0.8493211,47.71465,-0.9005929,-1.8812277,-3.528185,-0.034960028,-0.32764012,-0.35708094,28.5625,29.6875,28.9375,32.9375,35.375,36.375
0.22205381,-1.411534,-0.42122275,-0.14944771,0.01825404,0.066765875,-0.1854173,-0.39237577,-0.3456498,0.06008263,-3.0708761,0.62787175,0.00020660102,-0.10604918,0.024785366,0.00011801075,0.05244811,-0.008407322,-0.03652423,0.46601358,-1.4079866,1.9348139,-2.0917828,-1.576353,2.4438431,-0.110441126,0.16791497,-0.21094485,0.073845275,-0.04368368,-0.07355061,-0.8619126,0.13407528,-9.32781,0.84708,47.684196,-0.8849528,-1.964212,-3.5136127,-0.014563484,-0.38067925,-0.35541403,28.5625,29.6875,28.9375,32.9375,35.375,36.375
0.22405347,-2.2432015,-0.34748113,-0.4398694,0.04487985,0.044808198,-0.1766204,-0.39260176,-0.34560442,0.060098015,-3.0707664,0.62799907,0.00025406462,-0.106408656,0.024969257,-0.00034440288,0.054781374,-0.008733745,-0.032871332,0.46578583,-1.4076616,1.9343704,-2.0916383,-1.5764374,2.4437096,-0.109760314,0.1700078,-0.21252804,0.07464923,-0.045645326,-0.076509334,-0.80445176,-0.019153614,-9.32781,0.8537928,47.71554,-0.93184805,-1.8566185,-3.512031,0.047035508,-0.39817762,-0.350671,28.5625,29.6875,28.9375,32.9375,35.375,36.375
0.22605363,-2.4520645,0.030212456,-0.10898555,0.04998561,0.04513549,-0.17356813,-0.39279133,-0.34552878,0.060049277,-3.070589,0.62803745,0.00016387795,-0.1076089,0.026495758,-0.00015336303,0.056848418,-0.010247798,-0.031989716,0.46554503,-1.4072889,1.9340237,-2.0915172,-1.5765337,2.4435165,-0.11268977,0.17109565,-0.21511415,0.078392126,-0.046845928,-0.08030601,-0.63206923,-0.17238252,-9.32781,0.83365434,47.674347,-0.9071553,-1.8665617,-3.4106836,0.0611286,-0.39965752,-0.31625006,28.5625,29.6875,28.9375,32.9375,35.375,36.375
0.22805414,-1.4292485,0.27060083,-0.14951265,0.054964423,0.06515768,-0.17521998,-0.3930605,-0.3455053,0.060083162,-3.0705156,0.6281713,0.00028354893,-0.10668447,0.025903622,-0.0005741046,0.05904406,-0.01346153,-0.025134647,0.4653177,-1.4069159,1.9334849,-2.0913842,-1.5766181,2.4433827,-0.1103967,0.17331702,-0.21772116,0.08259251,-0.04738772,-0.08486568,-0.45968673,-0.17238252,-9.174581,0.82694155,47.695843,-1.0846422,-1.870948,-3.4223003,0.024376,-0.40278047,-0.28571904,28.5625,29.6875,28.9375,32.9375,35.375,36.375
0.230054,-1.605795,0.14847223,-0.22777762,0.07047468,0.027476924,-0.16613795,-0.39324212,-0.34543914,0.06005298,-3.0703278,0.6281517,0.00024225925,-0.10790006,0.028563684,-0.0024037103,0.064086184,-0.019124754,-0.026689606,0.4651241,-1.4065655,1.9331135,-2.0912268,-1.5767506,2.443202,-0.11483716,0.17839168,-0.22059922,0.08768856,-0.049380813,-0.087731525,-0.24899697,-0.28730422,-9.136273,0.90750587,47.695843,-0.9482396,-2.014995,-3.3480594,0.025082968,-0.41710943,-0.229287,28.5625,29.6875,28.9375,32.9375,35.375,36.375
0.23205388,-0.018233843,0.8882898,-0.12734158,0.07694442,0.024037309,-0.18445814,-0.39350095,-0.3453897,0.060066774,-3.0702107,0.6282741,0.00027425942,-0.10689629,0.028594298,-0.0025593918,0.06808735,-0.021700164,-0.017506933,0.46486118,-1.4061811,1.932599,-2.091058,-1.576836,2.4430313,-0.11234263,0.17971152,-0.22296141,0.09277414,-0.051842775,-0.094402485,-0.038307227,-0.28730422,-9.155427,0.90527004,47.651955,-1.0530341,-1.9377704,-3.252896,-0.025286302,-0.41238654,-0.15404293,28.5625,29.6875,28.9375,32.9375,35.375,36.375
0.23405378,0.5149504,1.0610038,-0.08634418,0.0809439,0.0030562272,-0.17545786,-0.39368793,-0.34532163,0.060058754,-3.0700371,0.62827617,0.00020888886,-0.106811635,0.031166568,-0.0025110575,0.07342173,-0.02522816,-0.01931114,0.46464446,-1.4058565,1.9321927,-2.0908396,-1.5769447,2.4428391,-0.11469146,0.17955676,-0.22455624,0.10005519,-0.055043593,-0.09492056,-0.1340753,-0.2681506,-9.193734,0.93436235,47.72719,-0.9973674,-1.9628215,-3.3161898,-0.09971996,-0.39353156,-0.123945415,28.5625,29.6875,28.9375,32.9375,35.375,36.375
0.23605399,0.08569562,0.77380925,0.07211079,0.086158626,-0.021025613,-0.16914347,-0.39393893,-0.3452499,0.060062908,-3.0698757,0.62835515,0.0002581222,-0.10750725,0.03245343,-0.0031673352,0.077239424,-0.026573624,-0.016277114,0.46438012,-1.4054834,1.9317135,-2.0906713,-1.5770777,2.4426458,-0.115676604,0.18191268,-0.2263432,0.10235677,-0.057892997,-0.09891771,-0.11492168,-0.28730422,-9.040505,0.84484416,47.703007,-0.9745305,-2.1641886,-3.3935022,-0.13082868,-0.37794766,-0.085658655,28.5625,29.6875,28.9375,32.9375,35.375,36.375
0.23805377,0.27421474,0.7231068,-0.29892388,0.09230498,-0.028973058,-0.18223287,-0.3941392,-0.34517312,0.060026925,-3.0696478,0.6283469,0.00014289118,-0.10747496,0.03352577,-0.003261801,0.08151756,-0.030400302,-0.019688264,0.46415198,-1.4050746,1.931271,-2.0904415,-1.5772108,2.4424431,-0.11611888,0.18394129,-0.23011348,0.10943674,-0.060014877,-0.09592283,0.019153614,-0.21068975,-9.040505,0.9298854,47.70659,-0.9519979,-2.1103084,-3.3449016,-0.2183719,-0.3410949,-0.06919116,28.5625,29.6875,28.9375,32.9375,35.375,36.375
0.24005355,-0.074792445,0.09882382,-0.21809001,0.07358226,-0.01712366,-0.17775418,-0.39434198,-0.3450865,0.060025234,-3.0694048,0.6284107,5.682409e-05,-0.10800901,0.034426406,-0.0034121068,0.083858006,-0.03085644,-0.0219307,0.46391174,-1.4047258,1.9308037,-2.0901415,-1.5773553,2.4422753,-0.11689237,0.18495713,-0.2313573,0.111108854,-0.061927658,-0.094429865,0.019153614,-0.05746084,-9.11712,0.8940802,47.705692,-0.9528959,-2.2040577,-3.3822885,-0.26510763,-0.32251954,-0.06697102,28.5625,29.6875,28.9375,32.9375,35.375,36.375
0.24205334,-0.8865651,-0.8382262,-0.29856306,0.03190753,-0.0054172026,-0.17081214,-0.39455062,-0.34503347,0.06002104,-3.0692713,0.6283456,1.21360645e-05,-0.10964642,0.035355892,-0.0038640795,0.08756638,-0.030038383,-0.025174579,0.46369547,-1.4043643,1.9303488,-2.089938,-1.5774525,2.4420364,-0.117552504,0.18819511,-0.23424551,0.111695,-0.06562587,-0.09181237,0.038307227,0.019153614,-9.174581,0.8851263,47.704796,-1.0074351,-2.0722144,-3.3231668,-0.3019571,-0.28901696,-0.087217666,28.5625,29.6875,28.9375,32.9375,35.375,36.375
0.24405347,-1.0095074,-1.7792891,-0.5691622,0.009294401,0.010742944,-0.17410892,-0.39474222,-0.3449441,0.05999624,-3.0690033,0.628347,-0.00011935105,-0.11145816,0.034401413,-0.0021309503,0.08555112,-0.024576338,-0.027964076,0.46346787,-1.4039804,1.9298939,-2.08964,-1.5776085,2.4418457,-0.116988994,0.1872884,-0.23664878,0.109215125,-0.066293165,-0.088438585,0.05746084,0.17238252,-9.270349,0.88289046,47.69763,-1.0816419,-2.0002232,-3.294127,-0.2876888,-0.24837822,-0.10397533,28.5625,29.6875,28.9375,32.9375,35.375,36.375
0.24605417,-1.539798,-2.531726,-0.88508534,-0.028985567,0.02617997,-0.17101432,-0.39498043,-0.34485263,0.059993595,-3.0687513,0.6285452,-0.00010962336,-0.113203436,0.03456013,-0.0028456259,0.08599109,-0.021786712,-0.031898953,0.46320337,-1.4036072,1.929417,-2.089414,-1.5777768,2.4417388,-0.117677756,0.18993801,-0.23713234,0.10474722,-0.067952864,-0.08517124,0.019153614,0.28730422,-9.423578,0.81351066,47.68062,-1.0136875,-2.1322792,-3.3680604,-0.26941797,-0.22436814,-0.14273424,28.5625,29.6875,28.9375,32.9375,35.375,36.375
0.24805397,-1.9169642,-3.2084367,-0.6109663,-0.07173126,0.04867712,-0.17631283,-0.39518622,-0.3447833,0.05997597,-3.0685306,0.6284992,-7.1214585e-05,-0.11628977,0.035914488,-0.0024983226,0.08823446,-0.015169325,-0.03632217,0.4630231,-1.4032344,1.9289855,-2.089236,-1.5779709,2.4415596,-0.119547516,0.190824,-0.23784214,0.0996611,-0.072934724,-0.0825722,0.019153614,0.36391866,-9.442732,0.8851263,47.703007,-1.1930289,-2.1463377,-3.4433508,-0.23714855,-0.16782069,-0.18794364,28.5625,29.6875,28.9375,32.9375,35.375,36.375
0.25005385,-1.5675446,-3.5382676,-0.8238141,-0.07037828,0.06024911,-0.17230918,-0.3954299,-0.34470803,0.059961297,-3.0683165,0.6286264,-0.00010990315,-0.117811605,0.034725845,-0.002230773,0.08509831,-0.0116301235,-0.038188063,0.46275905,-1.4028138,1.9284834,-2.0890224,-1.5781025,2.4414039,-0.11948576,0.1919829,-0.23880005,0.094873264,-0.071735024,-0.08064268,-0.076614454,0.45968673,-9.461885,0.8314132,47.686886,-1.0208642,-2.1020894,-3.3805711,-0.1883387,-0.12035387,-0.22747943,28.5625,29.6875,28.9375,32.9375,35.375,36.375
0.25205463,-1.450772,-3.1463485,-0.9284071,-0.064830996,0.043857574,-0.17336687,-0.39567143,-0.34464422,0.059956495,-3.0681794,0.6287335,-9.673875e-05,-0.12077563,0.034220014,-0.0018703559,0.0835322,-0.008257294,-0.041792773,0.46249455,-1.4024398,1.9280285,-2.0888798,-1.5781983,2.4412248,-0.12105153,0.19519791,-0.24275242,0.09188285,-0.07185935,-0.078595735,-0.11492168,0.59376204,-9.672575,0.8247004,47.683304,-1.1459479,-2.1417859,-3.4294035,-0.13394926,-0.10964582,-0.25904065,28.5625,29.6875,28.9375,32.9375,35.375,36.375
0.25405404,-1.4572523,-2.9212174,-0.8997853,-0.04931597,0.022035938,-0.17256512,-0.3959006,-0.34459147,0.059967514,-3.0679867,0.62874836,-1.5535197e-05,-0.121801,0.034195155,-0.0011528084,0.08105231,-0.0064035803,-0.042133868,0.462314,-1.4020683,1.9275268,-2.0886767,-1.5783781,2.4410796,-0.12271246,0.19423331,-0.24297321,0.090260886,-0.07049266,-0.07992081,-0.22984336,0.61291564,-9.557653,0.8940802,47.72719,-1.0451453,-1.9908338,-3.541707,-0.096178524,-0.094559774,-0.27233815,28.5625,29.6875,28.9375,32.9375,35.375,36.375
0.25605398,-1.3667938,-2.3899975,-1.2586814,-0.038353235,0.003933501,-0.16784902,-0.39613277,-0.34449184,0.059940673,-3.0677488,0.62887305,-7.1980256e-05,-0.12352961,0.03377041,1.6691596e-05,0.07834698,-0.004246295,-0.046247635,0.46202543,-1.4016715,1.9270824,-2.0884736,-1.5785216,2.440901,-0.12432631,0.1942783,-0.24565604,0.089744605,-0.06904857,-0.077419974,-0.28730422,0.57460845,-9.730036,0.8560339,47.707485,-1.0258974,-1.9721539,-3.499185,-0.048875168,-0.07611181,-0.324685,28.5625,29.6875,28.9375,32.9375,35.375,36.375
0.25805375,-1.3174387,-2.5420473,-1.3976129,-0.03388638,0.002468621,-0.17561395,-0.39638358,-0.3444494,0.059932984,-3.067614,0.6289594,-3.63239e-05,-0.122816324,0.03316195,-0.001266828,0.07708745,-0.008220712,-0.04744595,0.46179745,-1.4012504,1.9265813,-2.088342,-1.578628,2.4407454,-0.124389574,0.19683668,-0.24593815,0.09043988,-0.066154875,-0.07630362,-0.38307226,0.57460845,-9.825804,0.84484416,47.701214,-1.0300868,-2.044191,-3.7215562,-0.025345504,-0.098070174,-0.39585948,28.5625,29.6875,28.9375,32.9375,35.375,36.375
0.26005363,-1.4248743,-2.5985358,-1.1038569,-0.04780275,0.016567728,-0.16708054,-0.39663568,-0.34439966,0.059933923,-3.06746,0.6290982,-1.3277875e-05,-0.124666825,0.032785162,0.00011355298,0.07429138,-0.008766272,-0.04707628,0.46155655,-1.4008416,1.9260663,-2.0881727,-1.5787357,2.440612,-0.1269958,0.19787252,-0.25113496,0.09378609,-0.06344569,-0.07929498,-0.34476504,0.4405331,-9.844957,0.8314132,47.70659,-1.0559708,-1.9335023,-3.7302685,-0.025717627,-0.13553575,-0.40062118,28.5625,29.6875,28.9375,32.9375,35.375,36.375
0.26205438,-1.1511581,-1.8236156,-1.0409737,-0.042502537,0.027624026,-0.17117572,-0.39689705,-0.34430978,0.05991972,-3.06725,0.6292843,-5.2989148e-05,-0.12519304,0.031760912,0.00034541538,0.07233511,-0.010289439,-0.048718672,0.46124443,-1.4004204,1.9255637,-2.087969,-1.5788549,2.4404447,-0.1271005,0.19988193,-0.2544955,0.09560534,-0.061031565,-0.077767394,-0.34476504,0.21068975,-9.691729,0.8157518,47.684196,-0.95511603,-2.0491004,-3.6585035,-0.036064334,-0.14940616,-0.45960984,28.5625,29.6875,28.9375,32.9375,35.375,36.375
0.2640533,-1.5029172,-1.0440094,-1.0107771,-0.007349376,0.019302545,-0.17620018,-0.39714536,-0.34427842,0.05991696,-3.0671358,0.6292966,-4.401422e-06,-0.12575926,0.033031955,-0.0010927332,0.073613,-0.017158568,-0.049305327,0.46103922,-1.3999988,1.9250497,-2.087835,-1.5789622,2.4402628,-0.13094926,0.20437142,-0.2577246,0.10101065,-0.05914755,-0.08104109,-0.4405331,0.11492168,-9.710882,0.8291774,47.711964,-0.93974495,-2.0606518,-3.521783,-0.039879743,-0.18354344,-0.46461773,28.5625,29.6875,28.9375,32.9375,35.375,36.375
0.26605415,-1.1913363,-0.23220824,-0.82935977,0.029056413,0.030629538,-0.18000454,-0.39740553,-0.34419754,0.059917774,-3.0669363,0.62942296,-1.7229358e-05,-0.124540456,0.031998634,-0.000988221,0.07374173,-0.021317672,-0.04314128,0.46075198,-1.39959,1.9245213,-2.0876057,-1.5790933,2.4400816,-0.12904571,0.20562117,-0.26071614,0.1064655,-0.057458367,-0.0853086,-0.38307226,0.0,-9.653421,0.92093146,47.66091,-0.9545088,-2.106092,-3.4551148,-0.0961106,-0.2162583,-0.4448579,28.5625,29.6875,28.9375,32.9375,35.375,36.375
0.268054,-1.2319212,-0.03567936,-0.6478657,0.07332947,0.027315455,-0.1744572,-0.39763817,-0.3441427,0.059917785,-3.0667698,0.62951773,-6.841197e-05,-0.12334683,0.03201451,-0.001093515,0.07408754,-0.026170637,-0.037609264,0.460512,-1.3991932,1.9240083,-2.0873764,-1.5791887,2.4399235,-0.12908718,0.20601772,-0.2622594,0.112037376,-0.055661526,-0.09089102,-0.36391866,-0.11492168,-9.442732,0.8314132,47.691364,-1.0738374,-2.1372185,-3.398512,-0.14504385,-0.24741998,-0.413656,28.5625,29.6875,28.9375,32.9375,35.375,36.375
0.27005357,-0.8160081,1.0403095,-0.72109,0.07360195,0.027470062,-0.18104349,-0.39786983,-0.34405744,0.05988983,-3.0665317,0.6295785,-0.00021124961,-0.124335475,0.032088924,-0.0005375783,0.0741179,-0.028186778,-0.033423286,0.46023542,-1.3987485,1.9234928,-2.0870993,-1.5793089,2.4397173,-0.13050589,0.20782055,-0.26668563,0.116403185,-0.05486593,-0.09649001,-0.24899697,-0.2681506,-9.3661175,0.86498255,47.668976,-0.9398713,-2.119867,-3.3188415,-0.20916851,-0.28325102,-0.3616871,28.5625,29.6875,28.9375,32.9375,35.375,36.375
0.27205327,-0.69551826,0.76041687,-0.743045,0.08480734,0.019225093,-0.17993774,-0.39816287,-0.34400785,0.05992236,-3.0664299,0.6296867,-0.00010128018,-0.12569234,0.031234547,-9.681531e-05,0.07363076,-0.028390465,-0.027540928,0.45995972,-1.3983512,1.9229182,-2.086931,-1.5794162,2.4395232,-0.13038711,0.21073842,-0.2715896,0.118278146,-0.05440035,-0.1022562,-0.34476504,-0.24899697,-9.461885,0.8627467,47.699425,-1.0927069,-2.2123969,-3.295905,-0.2323359,-0.31718856,-0.31157494,28.5625,29.6875,28.9375,32.9375,35.375,36.375
0.27405396,-1.1292948,0.15475626,-0.63718456,0.063066766,0.024535287,-0.1800088,-0.39837494,-0.3439484,0.05988448,-3.066221,0.6296973,-0.00026704077,-0.12604594,0.032375604,-0.0014277868,0.07534666,-0.031790346,-0.024592467,0.45973077,-1.3978935,1.9224156,-2.0866797,-1.5795125,2.4393294,-0.1325604,0.21358615,-0.2723012,0.11988328,-0.05449832,-0.107366055,-0.34476504,-0.34476504,-9.461885,0.9365982,47.698532,-0.97602665,-2.177113,-3.2142391,-0.27584118,-0.35233402,-0.24737766,28.5625,29.6875,28.9375,32.9375,35.375,36.375
0.27605394,-1.5962493,-0.5855804,-0.9180692,0.03848551,0.030116634,-0.17047723,-0.39863807,-0.3438785,0.059891764,-3.0660565,0.6296983,-0.00029107643,-0.12696038,0.03326634,-0.0013570708,0.07523514,-0.030997975,-0.023555703,0.4594542,-1.3974733,1.9218534,-2.0864284,-1.5796326,2.439076,-0.13463166,0.21339749,-0.27213755,0.1190943,-0.054802574,-0.110466,-0.3256114,-0.40222588,-9.5385,0.80679786,47.67345,-0.9312191,-2.2499733,-3.3993754,-0.2609759,-0.37632477,-0.1926022,28.5625,29.6875,28.9375,32.9375,35.375,36.375
0.27805376,-2.3920534,-0.9301035,-0.7761719,0.00042580988,0.041894604,-0.17492402,-0.39888597,-0.34380573,0.05989361,-3.0658646,0.62969476,-0.00030796946,-0.12857044,0.03407059,-0.0020114512,0.07589033,-0.029655814,-0.022352817,0.4592015,-1.397064,1.9213165,-2.086178,-1.5797771,2.4388473,-0.13657032,0.21550427,-0.27257228,0.11645608,-0.056043956,-0.11358951,-0.30645782,-0.24899697,-9.615114,0.86498255,47.72719,-0.93584836,-2.266971,-3.457306,-0.26227745,-0.4020523,-0.13492276,28.5625,29.6875,28.9375,32.9375,35.375,36.375
0.28005335,-2.6227832,-1.4703548,-0.48399326,-0.011710687,0.066952184,-0.16798744,-0.39914396,-0.34373504,0.059893366,-3.0657089,0.62989175,-0.00038800784,-0.12936795,0.032574054,-0.0014288129,0.073887646,-0.025035258,-0.023344267,0.4588902,-1.3966558,1.9207906,-2.0859525,-1.5798372,2.4386804,-0.13436513,0.2155058,-0.27294436,0.11180362,-0.056313884,-0.11038366,-0.4405331,-0.17238252,-9.5385,0.83813137,47.684196,-1.0011597,-2.2153478,-3.5316186,-0.21311639,-0.40858212,-0.11593085,28.5625,29.6875,28.9375,32.9375,35.375,36.375
0.282054,-2.2522967,-1.1029837,-0.5460131,-0.010177383,0.08618843,-0.17728962,-0.39943224,-0.3436751,0.059898134,-3.0655572,0.62987983,-0.00032901615,-0.13328257,0.032730807,-7.37429e-05,0.07296692,-0.017759139,-0.026888102,0.45862553,-1.3961985,1.920204,-2.0857623,-1.5799822,2.438429,-0.13640799,0.21668284,-0.27646443,0.10720744,-0.058737837,-0.10885522,-0.5554548,-0.05746084,-9.423578,0.8605109,47.713753,-0.8547256,-2.2095413,-3.6558404,-0.16221045,-0.4271717,-0.14319615,28.5625,29.6875,28.9375,32.9375,35.375,36.375
0.28405377,-2.3541362,-0.9546249,-0.60886395,0.0028625045,0.07722645,-0.17640568,-0.39968377,-0.3435927,0.059878074,-3.065344,0.62997186,-0.00041176463,-0.13463701,0.03196278,0.00017782504,0.071799435,-0.0146284,-0.033915132,0.45833787,-1.3957537,1.9196781,-2.0855243,-1.5801023,2.4382281,-0.13593718,0.21800177,-0.27797094,0.104113474,-0.059059817,-0.10134378,-0.5363012,0.095768064,-9.423578,0.9298854,47.70838,-1.0557933,-2.1227539,-3.5515816,-0.1075353,-0.4413693,-0.18832402,28.5625,29.6875,28.9375,32.9375,35.375,36.375
0.28605393,-1.8481289,-1.0731531,-0.84317905,0.008009064,0.06653535,-0.16949788,-0.39997527,-0.34352314,0.05989295,-3.065185,0.63009304,-0.00037798667,-0.13591713,0.031719875,0.0016108926,0.0712527,-0.011678751,-0.03776829,0.45803788,-1.3953215,1.9190916,-2.0853083,-1.580222,2.4380257,-0.13599771,0.21728316,-0.2805864,0.10457014,-0.059868656,-0.09753909,-0.49799395,0.21068975,-9.615114,0.8179876,47.67166,-1.0426072,-2.020574,-3.6069906,-0.060391694,-0.4709112,-0.2593197,28.5625,29.6875,28.9375,32.9375,35.375,36.375
0.28805366,-1.6867911,-1.0314689,-1.1677454,0.013298436,0.041220564,-0.17992248,-0.40025237,-0.34346843,0.059907936,-3.0650346,0.6301182,-0.00032946272,-0.13684489,0.033078052,0.0023353726,0.07434205,-0.009074318,-0.039396003,0.45778573,-1.39489,1.9185055,-2.0850928,-1.580356,2.43781,-0.13658655,0.21619071,-0.2811728,0.1052752,-0.06379894,-0.09646021,-0.49799395,0.34476504,-9.576807,0.9545008,47.672558,-1.0589265,-1.8983822,-3.5731583,-0.033753254,-0.4660154,-0.2661214,28.5625,29.6875,28.9375,32.9375,35.375,36.375
0.2900535,-1.6714292,-1.7829411,-1.1242766,0.010805845,0.030599758,-0.16424958,-0.40054384,-0.343394,0.05990463,-3.0648336,0.63024634,-0.00024618796,-0.13957907,0.03358898,0.0039611375,0.077872485,-0.0033910184,-0.039342258,0.4575098,-1.3944329,1.9179424,-2.0849254,-1.5805262,2.4376416,-0.13613157,0.21709952,-0.28610283,0.10574885,-0.0695002,-0.09599971,-0.45968673,0.30645782,-9.576807,0.8627467,47.67793,-1.1339543,-1.8655481,-3.5425735,-0.0417246,-0.42537025,-0.28474906,28.5625,29.6875,28.9375,32.9375,35.375,36.375
0.2920542,-1.296568,-1.564619,-1.0493746,-0.022801671,0.036814407,-0.17277123,-0.40081188,-0.3433341,0.05992624,-3.0646923,0.63029444,-0.0002668985,-0.14202935,0.034635745,0.0049539288,0.07963226,-0.0012881287,-0.0420977,0.45723298,-1.3940237,1.9173559,-2.0846608,-1.5806226,2.4374144,-0.13838314,0.21837835,-0.29033205,0.10757574,-0.07202718,-0.09546432,-0.24899697,0.3256114,-9.634268,0.8806493,47.678825,-0.9507048,-1.891643,-3.4030933,-0.016572103,-0.40832508,-0.31824037,28.5625,29.6875,28.9375,32.9375,35.375,36.375
0.2940539,-1.6484754,-1.7871109,-1.2506104,-0.030360023,0.035408393,-0.16990629,-0.40111926,-0.34323588,0.05990915,-3.064427,0.6305052,-0.00024855818,-0.14260326,0.03629033,0.003938711,0.08533095,-0.003128854,-0.04298252,0.4569092,-1.3935189,1.9167575,-2.0844448,-1.5808042,2.4372587,-0.13892141,0.2215107,-0.2924218,0.11067882,-0.076347046,-0.09506699,-0.30645782,0.40222588,-9.576807,0.92093146,47.72002,-1.2252792,-1.9652954,-3.3856554,-0.0137699945,-0.34871215,-0.3505879,28.5625,29.6875,28.9375,32.9375,35.375,36.375
0.29605398,-1.1373179,-1.9344665,-1.0238419,-0.022901246,0.047506884,-0.17356409,-0.40138277,-0.34314305,0.059911128,-3.0641851,0.63062584,-0.00022093739,-0.14127052,0.038644124,0.0013691983,0.092365906,-0.010510985,-0.044764042,0.45663282,-1.393109,1.9162205,-2.084203,-1.5809854,2.4370909,-0.13985038,0.22534426,-0.29236826,0.11650191,-0.07940757,-0.09417651,-0.30645782,0.3256114,-9.653421,0.83589023,47.698532,-1.094834,-1.936203,-3.3888888,-0.03877011,-0.31867245,-0.37451142,28.5625,29.6875,28.9375,32.9375,35.375,36.375
0.2980537,-0.67955273,-1.0718565,-1.1077738,-0.016174527,0.044947635,-0.17576322,-0.40167314,-0.34305897,0.059921436,-3.0639648,0.630672,-0.00015235717,-0.1402626,0.04137352,-0.00067002024,0.09988994,-0.018494472,-0.041808873,0.45635605,-1.3926635,1.9156226,-2.0839608,-1.5811781,2.4368732,-0.14157258,0.22897093,-0.29383007,0.12474272,-0.08268845,-0.09881533,-0.076614454,0.2873042,-9.672575,0.8291774,47.695843,-1.0518937,-2.1467211,-3.5624044,-0.097811,-0.27207828,-0.34576946,28.5625,29.6875,28.9375,32.9375,35.375,36.375
0.30005336,-0.5929408,-0.7697793,-0.7888282,0.0064794347,0.01637549,-0.16904555,-0.4019965,-0.34301448,0.059955925,-3.0638554,0.63080204,-4.4645887e-05,-0.14078805,0.043505274,-0.0017705866,0.10422498,-0.02180944,-0.042611685,0.45606738,-1.392206,1.9149655,-2.0837681,-1.5812873,2.436681,-0.14407957,0.23150097,-0.2951517,0.12837665,-0.08514569,-0.100495964,0.0,0.2681506,-9.672575,0.79560274,47.681515,-0.917045,-2.204013,-3.6316495,-0.17229974,-0.22366178,-0.37097088,28.5625,29.6875,28.9375,32.9375,35.375,36.375
0.30205417,-0.42943344,-0.15292941,-0.26087895,0.00818731,-0.0049319174,-0.1794714,-0.4022814,-0.3429277,0.059947114,-3.0636241,0.63084245,-2.2675838e-06,-0.14125808,0.044596612,-0.0012985676,0.10665719,-0.024399452,-0.03611545,0.4557907,-1.3917373,1.9143895,-2.0835502,-1.5814794,2.4364614,-0.14557014,0.23233207,-0.2985851,0.1342506,-0.086279474,-0.10846251,0.095768064,0.17238252,-9.3661175,0.92093146,47.664497,-0.87434304,-2.055507,-3.6026647,-0.2333816,-0.18377984,-0.27373213,28.5625,29.6875,28.9375,32.9375,35.375,36.375
0.30405396,0.5051864,0.43616536,-0.24330498,0.035930213,-0.025075994,-0.17246784,-0.40257934,-0.3428285,0.05994428,-3.0633833,0.63098025,2.3641883e-06,-0.1424625,0.045144867,-0.0008604734,0.10936002,-0.02250969,-0.032519855,0.4554668,-1.391269,1.913792,-2.0832984,-1.5816487,2.436257,-0.14534603,0.23340677,-0.3010949,0.13510731,-0.089605674,-0.11178974,0.19153613,0.0,-9.174581,0.95897776,47.704796,-0.8609562,-2.1224687,-3.5101597,-0.2707561,-0.13116461,-0.24393636,28.5625,29.6875,28.9375,32.9375,35.375,36.375
0.30605412,0.16177373,0.0697605,-0.3690394,0.071035326,-0.07119193,-0.17478096,-0.40287566,-0.34275693,0.05997986,-3.0632055,0.6310137,8.200047e-05,-0.14392202,0.043464772,0.0001934019,0.105202205,-0.020509655,-0.026444133,0.45519105,-1.390848,1.9131573,-2.0830247,-1.5818151,2.4360266,-0.14530082,0.23441915,-0.30449086,0.13374606,-0.08683829,-0.117841996,0.19153614,-0.11492168,-9.212888,0.88289046,47.694946,-0.9745724,-2.0673146,-3.4503002,-0.25431406,-0.11007631,-0.17352197,28.5625,29.6875,28.9375,32.9375,35.375,36.375
0.30805358,1.0742028,0.5655977,0.0022969127,0.029858956,-0.03121963,-0.18364038,-0.4031691,-0.34268013,0.059983525,-3.0630233,0.6309911,0.000104859486,-0.14640215,0.04263446,0.0018227263,0.10256229,-0.015901588,-0.022769649,0.4549029,-1.3903793,1.912547,-2.0827854,-1.581972,2.4357495,-0.14603557,0.2347068,-0.30821294,0.13178732,-0.0865725,-0.122244485,0.11492168,-0.1340753,-9.040505,0.85826975,47.68599,-1.087825,-2.0494926,-3.3425398,-0.23813465,-0.11188282,-0.093038715,28.5625,29.6875,28.9375,32.9375,35.375,36.375
0.31005523,0.1958133,-0.2565885,-0.30623105,0.040159926,-0.045061655,-0.17000566,-0.40346628,-0.34258187,0.05996651,-3.0627735,0.6310883,6.5628046e-05,-0.14894512,0.03848515,0.0039532646,0.09396326,-0.0074855406,-0.019992353,0.45457986,-1.3898743,1.9119366,-2.082525,-1.582138,2.4355218,-0.14334945,0.23510747,-0.31188753,0.12366061,-0.082608014,-0.12236116,0.05746084,-0.13407528,-9.212888,0.82694155,47.684196,-1.1375508,-2.0608015,-3.3179002,-0.1628161,-0.12149505,-0.06867792,28.5625,29.6875,28.9375,32.9375,35.375,36.375
0.3120543,-0.17952903,-0.8050439,-0.4884841,0.007987379,-0.011518418,-0.17166193,-0.4037543,-0.342503,0.059976503,-3.0625472,0.6310796,9.3812516e-05,-0.15093459,0.03835916,0.0044747023,0.09018572,-0.0065707006,-0.025545903,0.45431462,-1.3894062,1.911302,-2.0822384,-1.5823287,2.4352825,-0.1466066,0.23611549,-0.31408334,0.122339495,-0.079629935,-0.120085046,-0.019153614,-0.095768064,-9.308657,0.8403672,47.666286,-0.9306588,-1.8731588,-3.236373,-0.13195361,-0.1463678,-0.031036338,28.5625,29.6875,28.9375,32.9375,35.375,36.375
0.31405392,-1.229788,-1.8800042,-0.45609134,-0.033527113,0.013933584,-0.16139822,-0.40402168,-0.342398,0.059964314,-3.062281,0.6311199,3.420624e-05,-0.15244982,0.03747113,0.004916498,0.087036654,-0.0046540294,-0.0303227,0.4540146,-1.3889489,1.9107279,-2.0819395,-1.5825084,2.4350445,-0.14749208,0.23735066,-0.31614083,0.12005205,-0.077650376,-0.116199136,-0.095768064,-0.095768064,-9.3661175,0.9388393,47.745995,-1.0642151,-1.8223636,-3.2452483,-0.08139059,-0.1441164,-0.09299864,28.5625,29.6875,28.9375,32.9375,35.375,36.375
0.3160542,-1.3081131,-2.065501,-0.9267211,-0.046465762,0.03351064,-0.17062789,-0.40432152,-0.34233513,0.059973415,-3.0620995,0.6311414,4.2205753e-05,-0.15228222,0.03805824,0.0045834393,0.08584436,-0.006818218,-0.03781585,0.45373774,-1.3884567,1.9100713,-2.0816758,-1.582652,2.4348063,-0.14954437,0.23719278,-0.31552362,0.121035226,-0.07559965,-0.11077288,-0.1340753,0.019153614,-9.442732,0.8537928,47.677036,-0.98954964,-1.7499137,-3.3059049,-0.06757088,-0.16726735,-0.12009725,28.5625,29.6875,28.9375,32.9375,35.375,36.375
0.31805417,-1.5581228,-1.7648783,-0.7515159,-0.0557104,0.042750914,-0.16931017,-0.40462178,-0.34226766,0.059991144,-3.0619133,0.6313512,5.7430785e-05,-0.15190054,0.037914928,0.0033107894,0.08598926,-0.009747327,-0.040177558,0.4534377,-1.3879992,1.909438,-2.0814245,-1.5827717,2.4346633,-0.14956775,0.23978356,-0.31584948,0.12145551,-0.07444633,-0.108440965,-0.4405331,0.095768064,-9.481039,0.8784135,47.69763,-1.0257498,-1.6285651,-3.5456154,-0.058086425,-0.21340519,-0.13953121,28.5625,29.6875,28.9375,32.9375,35.375,36.375
0.32005394,-1.472966,-1.3335009,-1.031088,-0.03796325,0.03323235,-0.17457256,-0.40491378,-0.34220928,0.059982944,-3.0617352,0.63137496,1.0589922e-05,-0.15229991,0.038747266,0.0013402381,0.086143166,-0.014126418,-0.048973367,0.45316052,-1.3874817,1.9087933,-2.0811727,-1.5828909,2.4344258,-0.15238342,0.24382214,-0.31631282,0.12191808,-0.07263756,-0.10247033,-0.34476504,0.17238252,-9.595961,0.8224646,47.677036,-0.85018134,-1.8106836,-3.6361141,-0.045625474,-0.22956549,-0.21971661,28.5625,29.6875,28.9375,32.9375,35.375,36.375
0.3220537,-1.2587261,-1.3673809,-1.2625097,-0.00990291,0.028551724,-0.17092744,-0.40522397,-0.34210643,0.059981953,-3.0614932,0.6315681,-1.7801688e-06,-0.15105455,0.038659662,-0.0008015071,0.08795831,-0.020457065,-0.047616303,0.45281327,-1.3869996,1.908171,-2.080908,-1.5830463,2.434233,-0.15172905,0.24814723,-0.31728768,0.12500125,-0.07153207,-0.10317608,-0.4213795,0.21068975,-9.634268,0.900793,47.66539,-1.0861921,-1.846735,-3.7500906,-0.035836995,-0.24828823,-0.24567278,28.5625,29.6875,28.9375,32.9375,35.375,36.375
0.32405362,-1.797305,-1.2881345,-0.9619189,0.00571145,0.01942764,-0.1621742,-0.40551603,-0.3420616,0.060004797,-3.061372,0.63163936,-8.533699e-06,-0.1503587,0.03789437,-0.00028862615,0.08751376,-0.023903301,-0.05060012,0.4525374,-1.3865426,1.9075254,-2.0806553,-1.5831293,2.4340186,-0.15088913,0.2488621,-0.3206478,0.13056408,-0.06960542,-0.0993682,-0.57460845,0.22984336,-9.557653,1.0261165,47.711964,-1.0980331,-2.0295434,-3.6257036,-0.07870173,-0.31133014,-0.31238577,28.5625,29.6875,28.9375,32.9375,35.375,36.375
0.3260536,-1.0061496,-0.4737977,-0.7773404,0.0108403405,0.029642234,-0.17091037,-0.40580815,-0.34198996,0.060006868,-3.0611541,0.6317081,-2.0753485e-05,-0.14995733,0.038440023,-0.00095820444,0.08970418,-0.029932844,-0.053501725,0.45226115,-1.386049,1.9068793,-2.0803773,-1.5832857,2.4338157,-0.15179858,0.25190789,-0.32436454,0.13760404,-0.06894199,-0.09737381,-0.53630114,0.21068975,-9.385271,0.8851263,47.666286,-1.0756447,-2.0318475,-3.6216788,-0.14440304,-0.35176677,-0.34696168,28.5625,29.6875,28.9375,32.9375,35.375,36.375
0.3280538,-1.2418683,-0.27080262,-0.6740969,0.011080946,0.028445505,-0.1748464,-0.4061181,-0.34189373,0.060011666,-3.0609143,0.6318658,4.985434e-05,-0.15020703,0.03853771,0.00028843668,0.090674795,-0.031132856,-0.054413345,0.45194924,-1.3855805,1.9062675,-2.0801485,-1.5834774,2.4336357,-0.15182345,0.25167674,-0.32828015,0.1432274,-0.0693067,-0.09647647,-0.5746084,0.22984336,-9.308656,0.8873621,47.691364,-1.144682,-1.8876793,-3.535757,-0.21359988,-0.3823899,-0.41137275,28.5625,29.6875,28.9375,32.9375,35.375,36.375
0.33005342,-1.156084,-0.47358656,-0.6952532,0.02430007,0.03198495,-0.17616843,-0.40643248,-0.34185183,0.060020845,-3.060734,0.6320356,-2.9824881e-05,-0.15015347,0.038853474,0.0004308069,0.0921271,-0.032262735,-0.053378697,0.45166132,-1.3850281,1.905527,-2.0798357,-1.5835623,2.4334793,-0.15166073,0.2521329,-0.32985583,0.14596184,-0.07015743,-0.09733016,-0.47884035,0.24899697,-9.3661175,0.8806493,47.66987,-1.1934515,-1.8833435,-3.4802792,-0.27047783,-0.38563675,-0.44209212,28.5625,29.6875,28.9375,32.9375,35.375,36.375
0.33205345,-0.9696272,-0.5141787,-0.6799104,-0.0062067234,0.05625278,-0.18404472,-0.40675345,-0.34173706,0.060032055,-3.0604641,0.63216645,-6.0724935e-05,-0.15207912,0.039045617,0.00046954336,0.09302135,-0.03017939,-0.05044746,0.45130107,-1.3845351,1.9048451,-2.0794895,-1.5837425,2.4332385,-0.15236448,0.25461975,-0.33268526,0.1447369,-0.07195664,-0.100932576,-0.3256114,0.076614454,-9.423578,0.9567419,47.691364,-1.2232437,-1.8828897,-3.5179052,-0.30892947,-0.4007784,-0.46080044,28.5625,29.6875,28.9375,32.9375,35.375,36.375
0.3340533,-2.1360478,-1.1405747,-0.4512257,-0.016733887,0.04731277,-0.1729324,-0.40703112,-0.3416729,0.060008068,-3.0602353,0.63220745,-0.000165166,-0.1548242,0.039663266,0.0006818894,0.09435715,-0.025877716,-0.04590368,0.45103666,-1.3839937,1.9041995,-2.0792034,-1.583876,2.4330318,-0.15365489,0.25682536,-0.33516964,0.1416297,-0.07514268,-0.106715776,-0.34476504,0.05746084,-9.385271,0.9925471,47.744205,-1.2538515,-1.8850381,-3.3915067,-0.29238787,-0.41948766,-0.42479444,28.5625,29.6875,28.9375,32.9375,35.375,36.375
0.33605337,-1.8584703,-0.7539171,-0.24597593,-0.02986942,0.076629385,-0.18421875,-0.407373,-0.34158823,0.060027726,-3.0600355,0.6322934,-7.429479e-05,-0.15918222,0.04008382,0.0021103884,0.09298835,-0.016474353,-0.03893088,0.450712,-1.383489,1.9035057,-2.078955,-1.5840567,2.4327888,-0.15605003,0.25716022,-0.33726618,0.13417384,-0.0781526,-0.116043694,-0.26815057,-0.019153614,-9.32781,0.8918391,47.67793,-1.2820323,-1.8798287,-3.4583697,-0.2033311,-0.39123172,-0.341327,28.5625,29.6875,28.9375,32.9375,35.375,36.375
0.33805418,-2.2779083,-1.0467654,-0.38404864,-0.0020714,0.07937524,-0.17389917,-0.40769303,-0.34153128,0.06004272,-3.0598752,0.63236743,-2.8638267e-05,-0.1617905,0.03923589,0.002850456,0.094774514,-0.007452956,-0.03055819,0.45042506,-1.3829838,1.9028238,-2.078718,-1.5841907,2.4325707,-0.15310588,0.25867227,-0.33926576,0.1272282,-0.08378766,-0.12139985,-0.22984336,0.0,-9.289502,0.85155696,47.66987,-1.3238494,-1.8741078,-3.5367541,-0.114871845,-0.33142108,-0.28064704,28.5625,29.6875,28.9375,32.9375,35.375,36.375
0.34005404,-2.8872263,-0.82554203,-0.59141797,0.017692031,0.064760946,-0.17052265,-0.40801823,-0.34143388,0.06003741,-3.059635,0.6324077,-6.7316478e-06,-0.16372825,0.039845068,0.0027815804,0.09586569,-0.0061711813,-0.025508614,0.45010036,-1.3824548,1.9021548,-2.0784543,-1.5843834,2.4323049,-0.15463322,0.26112255,-0.3419738,0.12667291,-0.08543466,-0.1279467,-0.24899697,-0.076614454,-9.3661175,0.97464454,47.65912,-1.2174909,-1.7969811,-3.5777707,-0.05046786,-0.3360772,-0.18536156,28.5625,29.6875,28.9375,32.9375,35.375,36.375
0.34205383,-2.2128036,-0.26060063,-0.48555037,0.0262869,0.055617947,-0.1773564,-0.4083567,-0.34135157,0.06004192,-3.0594323,0.6324373,2.5144012e-05,-0.16570419,0.04039532,0.0022546763,0.09904257,-0.0030452693,-0.022406394,0.44977635,-1.3819131,1.9014481,-2.078192,-1.5845526,2.4320278,-0.15442337,0.2643567,-0.34408092,0.12403985,-0.08972359,-0.13077816,-0.2681506,-0.019153614,-9.385271,1.0305934,47.658226,-1.3662796,-1.8368859,-3.51928,0.011502776,-0.30452392,-0.15605424,28.5625,29.6875,28.9375,32.9375,35.375,36.375
0.34405372,-1.8408657,-0.230015,-0.13015695,0.0241991,0.048173543,-0.16994776,-0.4086722,-0.3412758,0.0600288,-3.0592222,0.63250613,2.9678542e-05,-0.16737594,0.042169463,0.004417335,0.102033325,0.0013492664,-0.02366757,0.4494763,-1.381373,1.900791,-2.0779636,-1.5847105,2.4318004,-0.15587696,0.2613651,-0.34606922,0.12632954,-0.09435579,-0.1309045,-0.2681506,0.076614454,-9.232041,0.9858343,47.694946,-1.4617314,-1.815419,-3.507761,0.016233165,-0.2085256,-0.09554432,28.5625,29.6875,28.9375,32.9375,35.375,36.375
0.346054,-0.73025686,-0.0656976,-0.49737176,0.044940762,0.031743445,-0.16161361,-0.40904108,-0.34119093,0.060060322,-3.0590093,0.63253987,0.0002572349,-0.16865827,0.044322766,0.0027972437,0.10587522,-0.00096757885,-0.030379716,0.4491751,-1.3808557,1.900062,-2.077748,-1.5849632,2.43155,-0.15903169,0.2652345,-0.3472499,0.12739551,-0.096785784,-0.1273161,-0.34476504,0.038307227,-9.136273,0.9612189,47.688675,-1.3678937,-1.7113863,-3.5293975,0.05827105,-0.19441167,-0.13160431,28.5625,29.6875,28.9375,32.9375,35.375,36.375
0.34805393,-0.6459147,-0.26348025,-0.71025664,0.04111332,0.003321297,-0.16909581,-0.40935314,-0.34109825,0.060052417,-3.0587664,0.6325642,0.00023731202,-0.1679887,0.044923916,0.0011684344,0.11122795,-0.0053099543,-0.034644313,0.4488637,-1.3803259,1.8993915,-2.077459,-1.5851444,2.431288,-0.15755403,0.2695352,-0.3496549,0.13177682,-0.09968979,-0.12152213,-0.36391866,0.05746084,-9.2703495,0.90527004,47.692257,-1.3938286,-1.7992436,-3.562211,0.04951661,-0.13733712,-0.16317353,28.5625,29.6875,28.9375,32.9375,35.375,36.375
0.35005364,-0.8035847,-0.92522454,-0.22434427,0.012980017,0.0025081772,-0.15485601,-0.40970924,-0.34098402,0.060038283,-3.0584826,0.6326979,0.00033107557,-0.1683327,0.046526812,0.001145144,0.11389008,-0.010817603,-0.04245033,0.44851473,-1.3797607,1.8987092,-2.0772407,-1.5853842,2.4310625,-0.16049081,0.27156895,-0.3539837,0.14019771,-0.099667445,-0.116641864,-0.47884035,0.076614454,-9.212888,0.8672237,47.684196,-1.189402,-1.9354935,-3.4566567,0.001767036,-0.1003486,-0.22898808,28.5625,29.6875,28.9375,32.9375,35.375,36.375
0.35205412,-0.2805333,-0.7059185,-0.10345394,0.004388247,0.0060563176,-0.17176113,-0.41002288,-0.34089395,0.060034815,-3.058215,0.6328696,0.0002536493,-0.16625,0.047168054,5.698961e-05,0.11419164,-0.021536455,-0.047052402,0.4481901,-1.3792193,1.898003,-2.0769017,-1.5855383,2.430883,-0.16245534,0.2734698,-0.35610464,0.15018159,-0.09528602,-0.11404264,-0.5363012,-0.038307227,-9.097966,0.9186956,47.65106,-1.2597463,-1.9589148,-3.487415,-0.07996668,-0.097328395,-0.27579194,28.5625,29.6875,28.9375,32.9375,35.375,36.375
0.35405436,0.07981427,-0.23112695,-0.3748012,0.01776328,-0.0045817085,-0.17158957,-0.41035703,-0.34080198,0.060033474,-3.0579963,0.6328604,0.00023088459,-0.16414486,0.048483692,-0.0016589233,0.11693759,-0.031668074,-0.050296366,0.4478535,-1.3786665,1.8972863,-2.0765994,-1.5857056,2.4305716,-0.16401963,0.27589977,-0.35715553,0.15909165,-0.09337546,-0.11237476,-0.36391866,0.0,-9.232041,1.0641627,47.74241,-1.1295645,-1.9316508,-3.5299454,-0.17832655,-0.10518801,-0.29082677,28.5625,29.6875,28.9375,32.9375,35.375,36.375
0.35605422,0.25463405,-0.17303927,-0.038692255,0.0067542987,0.00042275913,-0.17047234,-0.41069812,-0.34071895,0.060052346,-3.0577533,0.63296014,0.00026494038,-0.16368657,0.047027286,-0.0012018181,0.11244353,-0.036474817,-0.051818516,0.44754133,-1.3781253,1.8965324,-2.076275,-1.5858959,2.430356,-0.16477682,0.27700907,-0.3607641,0.16391777,-0.08726932,-0.111677736,-0.22984336,0.0,-9.059659,0.7866488,47.682407,-1.172684,-1.9645844,-3.4533052,-0.2699707,-0.18712087,-0.3207218,28.5625,29.6875,28.9375,32.9375,35.375,36.375
0.3580539,0.036356177,-0.43295464,-0.046305545,0.0012342909,0.0006276685,-0.16666214,-0.4110141,-0.3406289,0.060021143,-3.0574594,0.6330874,0.000119950106,-0.16556807,0.047198422,-2.971313e-05,0.110738166,-0.03315509,-0.05453054,0.4472167,-1.3775127,1.8958029,-2.075929,-1.5860518,2.4301527,-0.16654126,0.2764426,-0.3626169,0.1625759,-0.08721557,-0.11071072,-0.21068975,0.038307227,-9.002198,0.92093146,47.686886,-1.0994978,-1.9365045,-3.432837,-0.28533304,-0.19937989,-0.39057654,28.5625,29.6875,28.9375,32.9375,35.375,36.375
0.3600536,-0.2344308,-0.6509507,0.24348705,-0.0015729495,0.0037377358,-0.16285957,-0.41134652,-0.34054032,0.060031384,-3.0572386,0.6331903,0.000105637875,-0.16756614,0.045934953,-0.00031958584,0.10524638,-0.031961393,-0.05370285,0.44688004,-1.3769836,1.8950852,-2.0756185,-1.5862058,2.4299116,-0.16858774,0.27927566,-0.3644907,0.15805979,-0.08286727,-0.11363156,-0.26815057,0.0,-8.925584,0.90750587,47.677036,-1.0605881,-1.800716,-3.4363976,-0.26584253,-0.22314307,-0.33504888,28.5625,29.6875,28.9375,32.9375,35.375,36.375
0.36205423,-0.73910815,-1.1017941,0.24979562,-0.031562537,0.037265673,-0.17375308,-0.41166827,-0.34040964,0.059980568,-3.0569036,0.63332385,-5.9304846e-05,-0.17199986,0.044111636,0.001482764,0.097868964,-0.022339726,-0.052518666,0.44649556,-1.3763707,1.8944033,-2.0752876,-1.5863856,2.4296582,-0.17045896,0.2799368,-0.36744538,0.1483809,-0.08049206,-0.116696745,-0.24899697,0.0,-9.040505,0.9567419,47.67793,-1.0472412,-1.8096578,-3.5070114,-0.16437262,-0.28685236,-0.35886344,28.5625,29.6875,28.9375,32.9375,35.375,36.375
0.36405405,-1.2453401,-1.4561448,0.27128708,-0.05455181,0.052988105,-0.17532946,-0.41200307,-0.34033427,0.05997542,-3.0566583,0.63337886,-7.751741e-05,-0.17468025,0.04160399,0.00338595,0.09296459,-0.014669235,-0.043841932,0.44619623,-1.3757818,1.8936499,-2.0749786,-1.5865649,2.429428,-0.16879793,0.28029576,-0.37107953,0.14246076,-0.079520576,-0.12371427,-0.1340753,-0.095768064,-9.002198,0.8940802,47.707485,-1.0751872,-1.7278609,-3.384788,-0.081130214,-0.33937082,-0.28202778,28.5625,29.6875,28.9375,32.9375,35.375,36.375
0.36605403,-1.3320243,-1.1800665,0.43254915,-0.054826025,0.065130375,-0.17080817,-0.41235122,-0.3402624,0.059997905,-3.056502,0.6334929,-7.808443e-05,-0.17651546,0.041411746,0.0032069387,0.09092101,-0.014020458,-0.03838256,0.4458475,-1.3752522,1.8929075,-2.074691,-1.5866727,2.429173,-0.1707243,0.28284064,-0.37343726,0.14064315,-0.078084156,-0.13111444,-0.34476507,0.076614454,-8.944737,0.9545008,47.667187,-0.96774733,-1.7324164,-3.4040618,-0.031157084,-0.37479985,-0.2010411,28.5625,29.6875,28.9375,32.9375,35.375,36.375
0.3680538,-1.4675553,-1.0340594,0.028358614,-0.010020093,0.044710554,-0.16006424,-0.41271815,-0.34016675,0.059998903,-3.056263,0.63361037,-5.840189e-05,-0.17759368,0.04138318,0.0029052715,0.090753615,-0.014267748,-0.03476649,0.44548708,-1.3746625,1.8921431,-2.0744035,-1.5868524,2.42892,-0.17150047,0.28521168,-0.37568495,0.14054848,-0.077919364,-0.13550064,-0.38307226,0.1340753,-9.136273,0.90750587,47.691364,-1.0151348,-1.8853731,-3.4238791,0.010947575,-0.41439745,-0.1559119,28.5625,29.6875,28.9375,32.9375,35.375,36.375
0.37005377,-0.97945017,-0.32638368,-0.41290423,0.026831444,0.026814176,-0.16739236,-0.41304767,-0.34009564,0.05998476,-3.0560763,0.6336041,-0.000137676,-0.17759217,0.04095764,0.0028095054,0.09199963,-0.016164426,-0.031663746,0.44516385,-1.3740737,1.8914136,-2.0741155,-1.5869731,2.4286196,-0.1703697,0.2873668,-0.37887013,0.14375573,-0.07828803,-0.1374559,-0.3256114,0.19153613,-9.174581,0.8537928,47.681515,-1.084871,-1.901643,-3.410201,-0.010089798,-0.454446,-0.06203475,28.5625,29.6875,28.9375,32.9375,35.375,36.375
0.3720537,-1.1294162,-0.03695844,-0.36253554,0.050873313,0.008710821,-0.16052747,-0.41336966,-0.33999214,0.05995108,-3.0557833,0.6336896,-0.0002378574,-0.17489153,0.041991852,0.0004674085,0.09796205,-0.024294432,-0.029346898,0.44482827,-1.3734721,1.8907083,-2.0738018,-1.5871533,2.4283793,-0.1685618,0.29036096,-0.37863714,0.1503823,-0.08020924,-0.13792245,-0.51714754,0.28730422,-9.270349,0.91198283,47.657326,-1.1984565,-1.915037,-3.4104257,-0.033915546,-0.476174,-0.059371993,28.5625,29.6875,28.9375,32.9375,35.375,36.375
0.3740536,-0.22931832,0.5257474,-0.5616273,0.033753045,0.041246373,-0.16913326,-0.4137394,-0.33993018,0.059974957,-3.055604,0.63374895,-0.00020879395,-0.1727869,0.044763375,-0.0017589777,0.10628465,-0.031676475,-0.0350878,0.44450414,-1.3728826,1.8898848,-2.073488,-1.5872997,2.428118,-0.16877781,0.2924738,-0.37773713,0.15767634,-0.084490575,-0.1323301,-0.59376204,0.19153613,-9.193734,1.0328293,47.71823,-1.2748532,-1.9579892,-3.7617993,-0.10996225,-0.4517648,-0.08571525,28.5625,29.6875,28.9375,32.9375,35.375,36.375
