Tylouw/Master_Thesis_Code/training_data/batch_1/small_rod_t0.3/sample_22_session_1.csv
timestamp[s],tcp_force_x[N],tcp_force_y[N],tcp_force_z[N],tcp_force_rx[Nm?],tcp_force_ry[Nm?],tcp_force_rz[Nm?],tcp_pose_x[m],tcp_pose_y[m],tcp_pose_z[m],tcp_pose_rx[rot_vec_x],tcp_pose_ry[rot_vec_y],tcp_pose_rz[rot_vec_z],tcp_velo_x[m/s],tcp_velo_y[m/s],tcp_velo_z[m/s],tcp_velo_rx[rot_vec_x/s],tcp_velo_ry[rot_vec_y/s],tcp_velo_rz[rot_vec_z/s],q1[rad],q2[rad],q3[rad],q4[rad],q5[rad],q6[rad],qd1[rad/s],qd2[rad/s],qd3[rad/s],qd4[rad/s],qd5[rad/s],qd6[rad/s],tool_acc_x,tool_acc_y,tool_acc_z,current_of_whole_robot[A],voltage_of_whole_robot[V],current_J1[A],current_J2[A],current_J3[A],current_J4[A],current_J5[A],current_J6[A],temp_J1[C],temp_J2[C],temp_J3[C],temp_J4[C],temp_J5[C],temp_J6[C]
9.709911e-07,-1.0894145,-0.73902553,-0.010720558,-0.02100642,0.0026086813,-0.006243,-0.38105547,-0.3485194,0.059962563,-3.07851,0.6248567,-0.0002059043,0.0020004432,0.0009999451,-0.0016716114,0.0020557349,-0.004230143,-0.00032258767,0.47778618,-1.425934,1.9577278,-2.1008208,-1.5707573,2.4527283,-9.205232e-06,-9.237416e-06,0.0035710237,0.0011394888,0.00012995726,0.0003111169,0.05746084,0.19153613,-8.734048,0.7597976,47.696735,-0.02661274,-2.7894063,-2.5220773,-0.46039093,0.097164325,0.17589018,28.375,29.5,28.8125,32.8125,35.1875,36.25
0.002039684,-0.8725677,-0.94963133,-0.2718258,-0.009880683,0.0077067884,0.0024500352,-0.38107494,-0.34854043,0.059971996,-3.0785687,0.6248113,-0.00014006627,-0.0007471193,-0.00043689786,-0.0027080572,-0.00090918655,0.0014467413,-0.00031661958,0.4777981,-1.4259204,1.9577025,-2.1008723,-1.5707458,2.4527044,-1.2349994e-07,0.0043900637,0.003329525,-0.009422811,0.00012765302,0.00031718565,0.019153614,0.13407528,-8.714894,0.7553206,47.68062,0.03842472,-2.8819003,-2.4530163,-0.42541584,0.0922155,0.16043493,28.375,29.5,28.8125,32.8125,35.1875,36.25
0.004056379,-0.7949259,-0.71288276,-0.067772776,-0.021871503,0.009424587,-0.012188032,-0.38105932,-0.34853035,0.059953682,-3.0785255,0.62485963,-0.00014420817,-0.0017456515,-0.00095622096,-0.0022579473,-0.002485709,0.0044794963,-0.00032080608,0.47781014,-1.4259205,1.9577502,-2.100897,-1.5707697,2.452752,-1.6569093e-09,0.004285583,0.0031285957,-0.012535434,0.0001254293,0.00032220487,0.05746084,0.17238252,-8.791509,0.784413,47.709274,0.0366178,-3.1790018,-2.616868,-0.29683256,0.07968406,0.1745508,28.375,29.5,28.8125,32.8125,35.1875,36.25
0.006045561,-0.14298607,-0.58892035,-0.26852688,-0.010650654,0.009290491,-0.0061444826,-0.38107097,-0.34852073,0.05994953,-3.0785074,0.62491363,-0.0001889013,-0.00077221915,-0.00044755265,-0.0011950767,-0.0015337513,0.0026694774,-0.00030933227,0.47777414,-1.4258974,1.9577273,-2.1008708,-1.5707573,2.452752,-2.2229553e-11,0.001701489,0.0024326944,-0.007210372,0.0001232817,0.00030960445,0.038307227,0.1340753,-8.791509,0.83589023,47.71017,0.035993814,-3.053074,-2.650443,-0.32368404,0.09842858,0.17524448,28.375,29.5,28.8125,32.8125,35.1875,36.25
0.008059784,-0.22326101,-0.20944867,-0.65277,0.023151044,-0.021239057,-0.004018467,-0.38104331,-0.34853527,0.059942037,-3.078534,0.6248423,-0.00022562257,3.2065018e-05,-2.7409671e-05,-0.00050922757,-0.0005736384,0.0008385702,-0.00029745282,0.47781014,-1.42591,1.9577612,-2.1008813,-1.5707334,2.4527402,-2.982378e-13,3.4317523e-05,0.0017631793,-0.0028063345,0.00012120628,0.00029691655,0.019153614,0.11492168,-8.868123,0.7486078,47.690468,0.033050764,-2.9075804,-2.5672636,-0.36713314,0.096402206,0.16973606,28.375,29.5,28.8125,32.8125,35.1875,36.25
0.01004303,0.15079726,0.35562813,-0.887113,0.02070471,-0.019548137,-0.015080768,-0.38104075,-0.34851846,0.059929594,-3.078493,0.6248342,-0.00024688707,5.3200918e-05,1.198395e-05,-0.00015051202,-0.00015618681,4.189637e-05,-0.0003349124,0.4777981,-1.4258981,1.9577731,-2.1008685,-1.5707573,2.4527283,-4.941532e-05,4.6041342e-07,0.00047692956,-0.0005868022,0.00011919968,0.00028515927,0.05746084,0.05746084,-9.11712,0.71279734,47.66271,-0.40494275,-2.3751047,-3.0778139,-0.423432,0.06516977,0.05549311,28.375,29.5,28.8125,32.8125,35.1875,36.25
0.012043757,-0.26425913,-0.040621094,-0.96575063,-0.006540019,-0.00992388,-0.011381269,-0.38105828,-0.34852508,0.059937946,-3.0785036,0.6248936,-0.00023251315,0.0005521976,0.00027130215,-0.0034453596,0.0029639772,-0.0059805973,-0.00010028849,0.47778618,-1.4258838,1.9577378,-2.1008685,-1.5707458,2.452752,-5.1751642e-05,0.006961699,6.398619e-06,-0.00029477803,0.00011725844,4.9491486e-05,0.1340753,0.019153614,-9.232041,0.7530795,47.670765,-0.6245885,-2.5074053,-3.23201,-0.4111927,0.07131257,0.04929977,28.375,29.5,28.8125,32.8125,35.1875,36.25
0.014040424,-0.541637,-0.89184767,-1.08398,-0.03580749,0.016538976,-0.016460164,-0.38102728,-0.34849158,0.059890468,-3.07842,0.6247999,-0.000368638,-0.0057592005,0.0022683528,-0.0035769404,0.0026255564,-0.005340436,-0.0018742492,0.47777084,-1.4258451,1.9577941,-2.1008327,-1.5707697,2.452689,-0.009442206,0.0142113045,-0.007950655,-0.00031267217,0.00010284246,-0.0075618117,0.038307227,0.1340753,-9.289503,0.6769922,47.637623,-0.3443873,-2.9583583,-3.028125,-0.39337897,0.07305739,0.017908316,28.375,29.5,28.8125,32.8125,35.1875,36.25
0.016041074,-1.8357782,-1.5449686,-1.2901666,-0.060761366,0.02306612,-0.014992764,-0.38105708,-0.34851134,0.059924517,-3.0784736,0.62477124,-0.00030849504,-0.006127975,0.0031005065,-0.003062364,0.002299566,-0.004702063,0.0015755267,0.47777027,-1.4258457,1.9577116,-2.1008089,-1.5707573,2.4526637,-0.011258693,0.012474929,-0.00721189,-3.2562675e-05,9.9487675e-05,-0.012828769,-0.13407528,0.24899697,-9.481039,0.7978386,47.677036,-0.29985273,-2.864502,-3.1111248,-0.3959542,0.050501492,0.06449685,28.375,29.5,28.8125,32.8125,35.1875,36.25
0.018047903,-2.0315166,-1.8374553,-1.3519028,-0.06781372,0.05028592,-0.035164963,-0.38104296,-0.34850836,0.059892327,-3.0784197,0.6248179,-0.00042204236,-0.0052543487,0.0029416508,-0.00352497,0.002798268,-0.0056594857,0.0032354733,0.47777057,-1.425786,1.9577116,-2.100785,-1.5707458,2.4527,-0.010166541,0.012481973,-0.0061697825,-2.12611e-06,9.782974e-05,-0.013397101,-0.30645782,0.22984336,-9.653421,0.86945957,47.73077,-0.47551447,-2.5764499,-3.3939028,-0.40230632,0.06406306,0.047840398,28.375,29.5,28.8125,32.8125,35.1875,36.25
0.020041108,-2.5206234,-1.7892693,-1.3774964,-0.05113762,0.06029911,-0.03923244,-0.381042,-0.3484941,0.05986234,-3.078412,0.6247401,-0.00046676962,-0.0054957652,0.0035315254,-0.0038596112,0.0039811037,-0.007935658,0.0016424553,0.47774613,-1.4257494,1.9577464,-2.1008198,-1.5707458,2.452628,-0.011438978,0.013908732,-0.00762008,0.0025866309,9.632662e-05,-0.013076081,-0.40222588,0.2681506,-9.672575,0.784413,47.689575,-0.61870086,-2.5759754,-3.5614,-0.40348592,0.06041438,-0.009663625,28.375,29.5,28.8125,32.8125,35.1875,36.25
0.022045434,-2.1796737,-0.89818573,-1.5134573,-0.034782972,0.068954974,-0.05276233,-0.38108596,-0.34849194,0.059886858,-3.0784292,0.624764,-0.00039619103,-0.008366314,0.0036887305,-0.0027196375,0.0027912809,-0.005654078,-0.0001419162,0.47770903,-1.425737,1.9576734,-2.100808,-1.5707573,2.4526036,-0.014375537,0.015501808,-0.012117228,0.0029171978,9.4875526e-05,-0.014225801,-0.4405331,0.24899697,-9.730036,0.7396539,47.67166,-0.5819353,-2.5155497,-3.4603014,-0.39390665,0.062428623,-0.024537098,28.375,29.5,28.8125,32.8125,35.1875,36.25
0.024043825,-2.0445035,-0.88763964,-1.6499715,-0.015933542,0.06302482,-0.06958537,-0.38107258,-0.34849554,0.05986154,-3.078401,0.6247589,-0.000480773,-0.009718238,0.004223778,-0.0030018792,0.0026533809,-0.005396676,-0.0014477503,0.47772032,-1.4256885,1.9576734,-2.1007965,-1.5707458,2.4526153,-0.016578823,0.01713771,-0.013128794,0.0020009077,9.346785e-05,-0.015122304,-0.6512228,0.22984336,-9.902418,0.82022345,47.67166,-0.56827533,-2.511676,-3.4908643,-0.3757828,0.0443589,-0.018129531,28.375,29.5,28.8125,32.8125,35.1875,36.25
0.02604612,-2.1687775,-1.2072662,-1.5317646,-0.020649891,0.0672659,-0.081532724,-0.38110435,-0.34847608,0.059853315,-3.0784032,0.6248359,-0.0004781747,-0.010923767,0.00392925,-0.0027311766,0.002060333,-0.004261131,-0.0020652714,0.47764823,-1.4256641,1.9576725,-2.1008322,-1.5707334,2.452591,-0.01717014,0.018511036,-0.015175149,0.0013930638,9.2101516e-05,-0.015094723,-0.7278373,0.24899697,-9.921572,0.82022345,47.68599,-0.6001536,-2.5355573,-3.4013388,-0.3731847,0.038075686,-0.033552077,28.375,29.5,28.8125,32.8125,35.1875,36.25
0.028048009,-1.9076324,-0.8942513,-1.4952774,-0.04147603,0.087249145,-0.09766465,-0.38112837,-0.3484929,0.05985203,-3.0784092,0.6248179,-0.0005039167,-0.011701532,0.0037989977,-0.0022660247,0.0014753718,-0.0031360975,-0.0018358153,0.47764805,-1.4255922,1.9575881,-2.1008084,-1.5707215,2.4525788,-0.017656894,0.01867318,-0.016371217,0.0011590644,9.0774425e-05,-0.015810257,-0.78529817,0.24899697,-9.883265,0.79560274,47.67614,-0.61446273,-2.4565694,-3.4460976,-0.37953478,0.02301038,-0.05821897,28.375,29.5,28.8125,32.8125,35.1875,36.25
0.03005716,-2.6542268,-1.2131628,-1.4620576,-0.041762557,0.07976828,-0.096602865,-0.38114393,-0.34846726,0.059848193,-3.07838,0.6248504,-0.00054678443,-0.012804081,0.003143249,-0.0013637338,0.0005447159,-0.0012947583,-0.0010232226,0.4775881,-1.42558,1.9575747,-2.1007721,-1.5707215,2.4525428,-0.017494353,0.019162243,-0.019011293,0.0012470251,6.4351574e-05,-0.016458865,-0.8236054,0.21068975,-9.864111,0.75084364,47.684196,-0.7272041,-2.4726212,-3.4149947,-0.34522477,0.03332203,-0.06589181,28.375,29.5,28.8125,32.8125,35.1875,36.25
0.03205349,-2.3173203,-1.2947606,-1.5030853,-0.02556184,0.08915918,-0.11094501,-0.38115415,-0.34848097,0.05982905,-3.0783987,0.6247764,-0.0005999354,-0.013723661,0.003498029,-0.0014236298,0.00057463563,-0.0013053765,-0.0014090089,0.4775875,-1.4255078,1.957539,-2.1007845,-1.5706977,2.4524937,-0.018960085,0.02025235,-0.020130431,0.0012996158,3.9359657e-05,-0.017538037,-0.7278373,0.11492168,-9.787497,0.7553206,47.619713,-0.7267958,-2.4250994,-3.4456286,-0.32388407,0.0176653,-0.09790854,28.375,29.5,28.8125,32.8125,35.1875,36.25
0.034052357,-2.1775026,-0.18953474,-1.310511,-0.012824227,0.06841918,-0.14618783,-0.3811893,-0.34845698,0.059818078,-3.078338,0.62484145,-0.000541927,-0.014518267,0.0039116587,-0.00080460834,0.00079448975,-0.0016950219,-0.0014962034,0.477551,-1.4254599,1.9575146,-2.1008074,-1.5707573,2.4525056,-0.020419348,0.020415192,-0.022286838,0.0037390837,2.3322207e-05,-0.018909449,-0.68953013,0.019153614,-9.749189,0.8023209,47.65643,-0.7036134,-2.3389373,-3.4613967,-0.3599893,0.0025076203,-0.092530645,28.375,29.5,28.8125,32.8125,35.1875,36.25
0.03605251,-1.5135742,0.040107403,-1.4699292,0.012661306,0.05743451,-0.14864305,-0.38122445,-0.34844765,0.059811674,-3.0783424,0.6248809,-0.0006075062,-0.015212938,0.0042033736,-0.00081366993,0.0009639861,-0.0019973847,-0.0018831881,0.47747862,-1.4253995,1.957455,-2.1007836,-1.5707215,2.4524572,-0.021570088,0.021348462,-0.023466276,0.004332328,9.502562e-06,-0.019672554,-0.5554548,-0.038307227,-9.691729,0.842603,47.703903,-0.7189276,-2.3771844,-3.3953843,-0.361546,0.017776452,-0.114227876,28.375,29.5,28.8125,32.8125,35.1875,36.25
0.03805236,-1.5129625,-0.17901081,-1.274176,0.027832882,0.039937995,-0.16169807,-0.38130444,-0.34844908,0.059844933,-3.078379,0.6249077,-0.00043899004,-0.016453633,0.004053286,-0.0005710267,0.00030134307,-0.00070644246,-0.0016446003,0.47743037,-1.4253632,1.9573458,-2.1008198,-1.5707573,2.4524212,-0.022442201,0.022499226,-0.025117354,0.003380729,6.204494e-07,-0.020782031,-0.36391866,-0.095768064,-9.519346,0.842603,47.687782,-0.6862643,-2.4053578,-3.4304252,-0.3418961,-0.0049652085,-0.13357538,28.375,29.5,28.8125,32.8125,35.1875,36.25
0.04005226,-2.118125,-0.008946203,-1.2161714,0.011407956,0.016985187,-0.18159449,-0.3813226,-0.34844214,0.059840746,-3.0783846,0.6248514,-0.00047839363,-0.018099243,0.004181234,-0.00019389592,-0.0004780574,0.0007854898,-0.0019356372,0.47739375,-1.425327,1.9573087,-2.100796,-1.5707458,2.4523487,-0.024190912,0.023591118,-0.02702865,0.0025169211,4.0510912e-08,-0.022238396,-0.19153613,-0.11492168,-9.576807,0.7217513,47.703007,-0.67986715,-2.3494709,-3.3385928,-0.30552882,-0.0075756274,-0.16378255,28.375,29.5,28.8125,32.8125,35.1875,36.25
0.04205247,-1.5528637,-0.46109644,-1.2098663,-0.0005530221,0.02780885,-0.18791634,-0.38134736,-0.34842098,0.05983419,-3.0783668,0.624905,-0.00049219653,-0.020162735,0.003978717,0.0008903694,-0.0019103541,0.0035354286,-0.0021305566,0.47733322,-1.4253029,1.9572963,-2.1007965,-1.5707458,2.452324,-0.025738077,0.024152026,-0.029987184,0.0018137732,2.6450728e-09,-0.023588922,-0.15322891,-0.076614454,-9.519346,0.7866488,47.699425,-0.71044815,-2.3524225,-3.3338156,-0.28560403,7.906067e-05,-0.16410267,28.375,29.5,28.8125,32.8125,35.1875,36.25
0.044051643,-0.62082106,-0.09630331,-1.0705334,-0.016751006,0.039726462,-0.20730178,-0.38139227,-0.34841916,0.05984445,-3.078377,0.62498397,-0.000502889,-0.020728048,0.0045874994,0.00076865294,-0.0015253524,0.0027912227,-0.0019808172,0.47727263,-1.4252547,1.9572123,-2.1007717,-1.5707215,2.4523113,-0.027339786,0.024813985,-0.030657338,0.0026602321,1.7270436e-10,-0.025340099,-0.1340753,0.0,-9.461885,0.75084364,47.705692,-0.64336646,-2.3304777,-3.3351576,-0.25576615,-0.028515251,-0.18421191,28.375,29.5,28.8125,32.8125,35.1875,36.25
0.04605178,-0.5968994,-0.4699061,-1.2049576,-0.011723037,0.035954863,-0.19774093,-0.38141966,-0.34838673,0.059819795,-3.0782962,0.6248706,-0.00052140217,-0.02074286,0.0051574544,0.0006404864,-0.00039080234,0.0005999718,-0.0011053602,0.4772364,-1.4251705,1.9571642,-2.1007345,-1.5707935,2.4522147,-0.02836585,0.025569534,-0.031899653,0.0056123617,1.127636e-11,-0.027241468,-0.095768064,0.095768064,-9.5385,0.84708,47.70032,-0.6626116,-2.303894,-3.281398,-0.30364808,-0.036356606,-0.20257878,28.375,29.5,28.8125,32.8125,35.1875,36.25
0.048052214,-0.39768308,-0.9037725,-1.3574909,0.00617413,0.025415337,-0.16769041,-0.38147235,-0.34839776,0.05983518,-3.0783384,0.6248981,-0.0004591709,-0.021511631,0.0059695146,0.0010351943,0.0011589929,0.00031653227,-0.0007212053,0.4771998,-1.4251226,1.9570798,-2.1007583,-1.5707821,2.45219,-0.029708348,0.025906062,-0.033751022,0.008095327,-0.0012439826,-0.028965153,-0.095768064,0.11492168,-9.519346,0.84708,47.690468,-0.6439738,-2.2653515,-3.3523893,-0.32673156,-0.021630386,-0.21258754,28.375,29.5,28.8125,32.8125,35.1875,36.25
0.050051842,-0.68052095,-1.1500396,-1.408908,0.005334729,0.011480204,-0.16091298,-0.3815379,-0.34837505,0.059866127,-3.0783465,0.62501466,-0.00042747444,-0.022571474,0.006448841,0.0011030381,0.0018601926,0.0008992136,0.0003070663,0.47709134,-1.4251102,1.9569839,-2.1007102,-1.5707706,2.4521532,-0.03095482,0.026921164,-0.03509435,0.008230995,-0.0021371446,-0.03123738,0.019153614,0.24899697,-9.461885,0.7665104,47.709274,-0.6576793,-2.2140136,-3.4140522,-0.32216847,-0.015905399,-0.22158533,28.375,29.5,28.8125,32.8125,35.1875,36.25
0.052051943,-0.7961226,-1.4567338,-1.4166284,-0.008973726,0.010557118,-0.15832672,-0.38157842,-0.34834912,0.059855398,-3.078324,0.62499,-0.00039102355,-0.024429578,0.0063099856,0.0020771204,0.0010147028,0.0036207906,0.0016583591,0.47703105,-1.4250621,1.9569591,-2.1007345,-1.5708064,2.4520805,-0.032093324,0.02745285,-0.03777983,0.00757893,-0.0026440981,-0.033724625,0.05746084,0.2681506,-9.481039,0.7239871,47.66987,-0.6678209,-2.1893306,-3.2992053,-0.31130123,-0.0046898164,-0.24186905,28.375,29.5,28.8125,32.8125,35.1875,36.25
0.054052114,-1.5905169,-1.73407,-1.483193,-0.027047556,-0.0061239144,-0.15458046,-0.38165665,-0.34834924,0.059879825,-3.0783536,0.6249951,-0.0003340774,-0.024976427,0.006386172,0.002167118,0.00043616944,0.0035519972,0.0030410513,0.4769586,-1.42499,1.9568156,-2.1007102,-1.5708059,2.4520075,-0.03308158,0.027916847,-0.038535636,0.0076636313,-0.0020992258,-0.036096305,0.038307227,0.21068975,-9.519346,0.7463667,47.705692,-0.6439631,-2.1671598,-3.324504,-0.29137716,-0.020006143,-0.22566783,28.375,29.5,28.8125,32.8125,35.1875,36.25
0.056052238,-0.71491337,-1.9056662,-1.351637,-0.03692374,0.019662697,-0.15072873,-0.38169304,-0.34832987,0.05986991,-3.07833,0.62498987,-0.0003519346,-0.025254121,0.006726013,0.0019113345,0.0009368162,0.0012900364,0.0032053879,0.47689825,-1.4249296,1.9567665,-2.1006973,-1.5708178,2.451947,-0.03432583,0.029383887,-0.040173948,0.010071277,-0.0015050303,-0.037505414,-0.019153614,0.24899697,-9.557653,0.86498255,47.70032,-0.6230951,-2.102675,-3.3276086,-0.31509072,-0.048113108,-0.24801391,28.375,29.5,28.8125,32.8125,35.1875,36.25
0.05805171,-0.9978957,-1.90394,-1.4587889,-0.032858826,0.0089771375,-0.15779193,-0.38172704,-0.3483311,0.05986305,-3.0783517,0.62499386,-0.0004284551,-0.025945807,0.006762816,0.0017041888,0.0010013279,0.00032481647,0.004389342,0.476838,-1.4248571,1.956694,-2.1006734,-1.5707701,2.4518864,-0.035275616,0.031197168,-0.041968666,0.010939827,-0.0011230918,-0.03963885,0.0,0.3256114,-9.423578,0.78888994,47.6636,-0.68379855,-2.2190018,-3.3506,-0.32192054,-0.036842797,-0.27787548,28.375,29.5,28.8125,32.8125,35.1875,36.25
0.06005185,-1.1767751,-1.3327276,-1.4021481,-0.037002094,0.013207834,-0.15076202,-0.38178945,-0.34831607,0.05987841,-3.078374,0.62495923,-0.00039995942,-0.026885482,0.0067912843,0.0020149834,0.0006296999,0.0008762869,0.0055300104,0.47675365,-1.4248091,1.9565986,-2.1006496,-1.5707701,2.4517777,-0.036236603,0.031932,-0.043563683,0.011138788,-0.0010490027,-0.0417398,-0.019153614,0.38307226,-9.423578,0.7777002,47.703903,-0.7602039,-2.169515,-3.286222,-0.32699355,-0.059824027,-0.26132414,28.375,29.5,28.8125,32.8125,35.1875,36.25
0.06205191,-1.1374823,-1.6667227,-1.3170943,-0.019871106,0.026226379,-0.15327743,-0.38183647,-0.34829786,0.05987614,-3.0783606,0.6248594,-0.00040482596,-0.028068481,0.006631701,0.0028610686,-0.00041101433,0.0030751517,0.0072522135,0.4766933,-1.4247373,1.9565138,-2.1006134,-1.570794,2.4516568,-0.036981553,0.031671062,-0.04504472,0.010448313,-0.0011401535,-0.044205915,-0.15322891,0.34476504,-9.461885,0.7777002,47.682407,-0.6831827,-1.9893612,-3.249929,-0.29501495,-0.043184903,-0.27059454,28.375,29.5,28.8125,32.8125,35.1875,36.25
0.06405201,-0.76923984,-1.406584,-1.0894871,-0.022842282,0.04261994,-0.1599343,-0.38188174,-0.34829012,0.05987137,-3.0783515,0.6248562,-0.0003940521,-0.028564224,0.0063645346,0.002303687,-2.7946751e-05,0.0022317658,0.008278914,0.47664544,-1.4246646,1.9564418,-2.1006134,-1.5708059,2.4516082,-0.03698973,0.03415804,-0.0466112,0.010452009,-0.0010973323,-0.0452397,-0.11492168,0.30645782,-9.404425,0.7777002,47.684196,-0.69431466,-2.0596728,-3.3457162,-0.29867008,-0.05815454,-0.29227006,28.375,29.5,28.8125,32.8125,35.1875,36.25
0.06605264,-1.5906612,-1.3963478,-1.2060726,-0.021139553,0.023989365,-0.15622672,-0.38196528,-0.3482678,0.059888165,-3.0783617,0.62493575,-0.0004038337,-0.029999154,0.0061954595,0.0024701196,-2.3499058e-05,0.0023644243,0.007988517,0.47651315,-1.4245917,1.9563092,-2.1005652,-1.5707821,2.4515243,-0.037960764,0.03655659,-0.049908455,0.011235952,-0.0011669691,-0.045918334,-0.11492168,0.30645782,-9.442732,0.83589023,47.721813,-0.8415503,-2.1108959,-3.1884334,-0.30594617,-0.09360221,-0.31753996,28.375,29.5,28.8125,32.8125,35.1875,36.25
0.068051845,-0.7227194,-1.083557,-1.0386256,-0.026156401,0.043441847,-0.16543928,-0.3819977,-0.34827986,0.059897285,-3.0784285,0.6248136,-0.0003850589,-0.029803365,0.006680989,0.0022210772,0.0007909679,0.0015234754,0.010093904,0.47648886,-1.4245558,1.9562501,-2.100577,-1.5707577,2.4514153,-0.03842179,0.03652623,-0.049467724,0.011948344,-0.001501883,-0.04848452,-0.11492168,0.2681506,-9.423578,0.8314132,47.690468,-0.8545259,-2.107405,-3.211412,-0.30957735,-0.080366515,-0.30975008,28.375,29.5,28.8125,32.8125,35.1875,36.25
0.0700521,-1.0873828,-0.82701826,-0.98869777,-0.028622111,0.034488633,-0.16224033,-0.38207838,-0.34827444,0.05992658,-3.0784585,0.6248184,-0.00032621954,-0.030579394,0.006712957,0.001151486,0.0015839386,0.0003169004,0.012266391,0.47640473,-1.4244949,1.9561056,-2.1005418,-1.5707577,2.4513304,-0.039088048,0.04002329,-0.05086405,0.011283487,-0.0016564617,-0.051321663,-0.1340753,0.21068975,-9.423578,0.779936,47.66539,-0.8594593,-2.215362,-3.3298287,-0.32344913,-0.066406354,-0.3155999,28.375,29.5,28.8125,32.8125,35.1875,36.25
0.07205214,-0.89707917,-0.8863496,-1.010744,-0.022009503,0.038512997,-0.15854636,-0.3821526,-0.34825242,0.05991407,-3.0784276,0.62479347,-0.00030493355,-0.03174466,0.006252744,0.0016328759,0.00092203746,0.0013569319,0.01071919,0.47632062,-1.4243746,1.9559969,-2.1005418,-1.570794,2.4512348,-0.039407276,0.041325387,-0.05347185,0.011359302,-0.0015506787,-0.050092377,-0.28730422,0.15322891,-9.251195,0.7642693,47.637623,-0.9894644,-2.1914244,-3.215911,-0.31094405,-0.08695671,-0.33696753,28.375,29.5,28.8125,32.8125,35.1875,36.25
0.07405222,-0.89724886,-0.6490465,-0.9249292,-0.01069674,0.043954626,-0.15630361,-0.382195,-0.3482227,0.059902593,-3.0783947,0.62468934,-0.00037907387,-0.033957172,0.0054463544,0.0040236264,-0.0016448884,0.006320533,0.012031802,0.47623637,-1.4242911,1.9559115,-2.1004698,-1.5708059,2.4510899,-0.040003747,0.039935894,-0.057259157,0.010946956,-0.001558333,-0.051999584,-0.28730422,0.076614454,-9.270349,0.7933669,47.64837,-1.0093248,-2.127927,-3.0943115,-0.30263004,-0.115530126,-0.37023884,28.375,29.5,28.8125,32.8125,35.1875,36.25
0.07605227,-1.427358,-0.6004781,-0.8674141,-0.0035685261,0.035340566,-0.16034423,-0.3822785,-0.34822536,0.0599394,-3.0784454,0.6246974,-0.0002792256,-0.033691756,0.006055195,0.002087758,4.90808e-05,0.003159296,0.014411807,0.47616407,-1.4242423,1.955769,-2.100458,-1.5708059,2.4510162,-0.040799405,0.04315654,-0.056399316,0.010451979,-0.0016106571,-0.055175103,-0.2681506,0.15322891,-9.32781,0.84708,47.693153,-1.0423242,-2.149361,-3.0357552,-0.298728,-0.11254774,-0.36859295,28.375,29.5,28.8125,32.8125,35.1875,36.25
0.078051716,-1.5544486,-0.5071357,-0.8904969,-0.011281559,0.03533423,-0.15105262,-0.38232976,-0.34823793,0.059958104,-3.0784988,0.6246486,-0.00028619543,-0.033769935,0.0063899136,0.0013061386,0.00097481307,0.0017035984,0.018554445,0.4761159,-1.4241816,1.9556488,-2.1004217,-1.5707701,2.4509308,-0.041359775,0.04481498,-0.05655838,0.010672384,-0.0017663932,-0.059877567,-0.17238252,0.17238252,-9.3661175,0.8672237,47.70211,-1.1049969,-2.2430458,-3.2850685,-0.31212297,-0.11343842,-0.32471654,28.375,29.5,28.8125,32.8125,35.1875,36.25
0.08005186,-1.4047439,-0.613522,-0.8390352,-0.014876568,0.038059168,-0.15131235,-0.38242558,-0.3481958,0.05995547,-3.0784626,0.62464243,-0.00023888532,-0.03533949,0.0058793398,0.0019097329,0.00029926858,0.0031180535,0.017891224,0.47598365,-1.4240733,1.9555286,-2.1004102,-1.5708178,2.4507995,-0.041853786,0.04655065,-0.05994064,0.010749371,-0.0018209292,-0.05970631,-0.3256114,0.15322891,-9.308657,0.85826975,47.70211,-1.1981221,-2.2097015,-3.1661267,-0.29293516,-0.13186456,-0.3686575,28.375,29.5,28.8125,32.8125,35.1875,36.25
0.08205193,-1.5297788,-0.8256237,-0.72219896,-0.007385172,0.03155219,-0.16079307,-0.382479,-0.34820747,0.059944015,-3.0784984,0.6245113,-0.00025092703,-0.03613002,0.0060408367,0.0020730111,0.0005814152,0.0040028524,0.021630533,0.47594762,-1.4239533,1.9554204,-2.1004217,-1.5708064,2.4506772,-0.042434637,0.047161877,-0.060960658,0.010503138,-0.0024814042,-0.06402461,-0.2681506,0.1340753,-9.270349,0.8314132,47.67614,-1.2353773,-2.1556587,-3.073192,-0.2880175,-0.11647896,-0.38130724,28.375,29.5,28.8125,32.8125,35.1875,36.25
0.08405197,-0.9009222,-0.3705218,-0.95410854,-0.008437433,0.044715628,-0.16465096,-0.382542,-0.3481745,0.05993925,-3.0784788,0.624449,-0.00028316624,-0.0377008,0.0068529737,0.0021343143,0.0012657585,0.004458575,0.023704346,0.47583875,-1.4238689,1.955324,-2.100374,-1.5708183,2.450532,-0.044781383,0.04858427,-0.06280298,0.010832491,-0.00330541,-0.068442464,-0.19153613,0.19153613,-9.232041,0.78888994,47.675243,-1.2456031,-2.152739,-3.11662,-0.2922595,-0.14143538,-0.32112145,28.375,29.5,28.8125,32.8125,35.1875,36.25
0.086052045,-1.1264951,-1.0617359,-0.83080864,0.0025747083,0.036894154,-0.15736018,-0.38265398,-0.34817344,0.05997296,-3.0785565,0.62438536,-0.00021817563,-0.038595203,0.0072963345,0.0021501635,0.0022562256,0.004542773,0.026851341,0.4757185,-1.4237728,1.9551319,-2.1003501,-1.5707949,2.4503622,-0.04578364,0.04979029,-0.06439416,0.011600207,-0.004222155,-0.07258947,-0.22984336,0.15322891,-9.308657,0.8403672,47.674347,-1.2318195,-2.1954405,-3.120016,-0.29018027,-0.11401364,-0.2911269,28.375,29.5,28.8125,32.8125,35.1875,36.25
0.088052444,-0.98004,-0.7598138,-0.78311455,-0.008763616,0.046108577,-0.15593752,-0.382682,-0.34815204,0.05994162,-3.0785089,0.624258,-0.00029747738,-0.039122183,0.0072953585,0.0019952855,0.003919107,0.0051531415,0.031623702,0.47567073,-1.4236643,1.9550713,-2.1003134,-1.5708197,2.450241,-0.0451174,0.051336743,-0.065838344,0.011720378,-0.00599049,-0.07669097,-0.2681506,0.15322891,-9.3661175,0.8314132,47.689575,-1.3127661,-2.1384842,-3.1282072,-0.2886839,-0.10956162,-0.2542485,28.375,29.5,28.8125,32.8125,35.1875,36.25
0.09005255,-1.925808,-0.84236455,-0.6845539,-0.014372722,0.033033792,-0.14846706,-0.3827727,-0.3481175,0.059945814,-3.0784888,0.62417567,-0.0002762253,-0.040775497,0.00841435,0.0023036518,0.0049368837,0.006323665,0.03335479,0.47554967,-1.4235566,1.9549278,-2.1002657,-1.5708565,2.4500713,-0.047676604,0.051952183,-0.06731557,0.012008159,-0.0074361693,-0.08097768,-0.28730422,0.17238252,-9.32781,0.7777002,47.703903,-1.3885784,-2.1898077,-3.1301317,-0.30963546,-0.102828234,-0.19945008,28.375,29.5,28.8125,32.8125,35.1875,36.25
0.092052616,-1.4624491,-0.8009362,-0.8900584,-0.018546158,0.05148699,-0.15984888,-0.3828765,-0.34810975,0.05995898,-3.078583,0.62407887,-0.00022399194,-0.042499762,0.009233873,0.0024138594,0.006255714,0.0077866293,0.035320785,0.47541717,-1.42346,1.9547957,-2.100302,-1.5708207,2.4498665,-0.04950893,0.053405244,-0.06916378,0.0117140645,-0.009278133,-0.08477196,-0.1340753,0.15322891,-9.308656,0.83813137,47.67614,-1.3335228,-2.1788445,-3.016145,-0.27959836,-0.067883044,-0.17392246,28.375,29.5,28.8125,32.8125,35.1875,36.25
0.09405169,-1.4095404,-1.0596265,-0.88104516,-0.013471259,0.049461726,-0.16047628,-0.38293514,-0.34811017,0.059957158,-3.0785797,0.62392443,-0.00022918994,-0.04438506,0.011048754,0.00271186,0.007889263,0.008599423,0.033165343,0.47537994,-1.4233402,1.9546522,-2.1002543,-1.5708455,2.4497335,-0.05327318,0.053779934,-0.07050397,0.012708381,-0.011105646,-0.086376645,-0.34476504,0.19153613,-9.346964,0.81351066,47.690468,-1.1915329,-2.0776966,-3.0484252,-0.29029733,-0.048107453,-0.10225202,28.375,29.5,28.8125,32.8125,35.1875,36.25
0.09605179,-1.5868866,-1.3206161,-0.95854634,-0.015301553,0.04641285,-0.15289491,-0.38302505,-0.34808713,0.059964854,-3.0785973,0.62381065,-0.00017917498,-0.044492472,0.010922316,0.0010919659,0.010109116,0.006175687,0.035577904,0.4752721,-1.4232424,1.9545201,-2.1002414,-1.5708698,2.4495525,-0.052575953,0.058251422,-0.0719466,0.012849826,-0.011971518,-0.08808924,-0.36391866,0.19153613,-9.289502,0.83813137,47.696735,-1.2345382,-2.2855947,-3.0590363,-0.28354058,-0.02816239,-0.08691536,28.375,29.5,28.8125,32.8125,35.1875,36.25
0.09805181,-1.6223884,-1.4495517,-1.0916774,-0.015702534,0.044817884,-0.15279496,-0.38311556,-0.34806913,0.059969798,-3.078619,0.62366384,-0.00016791132,-0.045107417,0.010038042,0.0024894916,0.0068288613,0.007670264,0.032759227,0.47516394,-1.423123,1.9543642,-2.1002057,-1.5708808,2.44935,-0.053003207,0.056769725,-0.07349831,0.013043873,-0.009740274,-0.08570142,-0.4213795,0.17238252,-9.346964,0.86945957,47.69763,-1.3866587,-2.1900363,-3.05378,-0.2948542,-0.039453316,-0.075570345,28.375,29.5,28.8125,32.8125,35.1875,36.25
0.10005179,-1.677536,-1.2690084,-1.1756864,-0.021570612,0.03552582,-0.15070671,-0.38322505,-0.34803152,0.059996586,-3.0785978,0.62360424,-5.412246e-05,-0.046680614,0.010464578,0.0027330664,0.0039012462,0.0070162313,0.026570922,0.47504255,-1.4230387,1.9541959,-2.1001575,-1.5709518,2.4491944,-0.05707276,0.057462126,-0.074816525,0.012895206,-0.0068366136,-0.08358744,-0.4213795,0.17238252,-9.461885,0.8112748,47.70032,-1.2639841,-2.0646415,-3.0842743,-0.27627712,-0.068139344,-0.0963308,28.375,29.5,28.8125,32.8125,35.1875,36.25
0.102052085,-1.1925927,-0.97968704,-1.1464196,-0.032454655,0.039074633,-0.15164419,-0.3833268,-0.3480342,0.05999267,-3.0786717,0.62350446,-7.390375e-05,-0.04720473,0.010260239,0.0022381109,0.0027616613,0.005526018,0.02548928,0.4749222,-1.4228818,1.9540285,-2.1001704,-1.5709032,2.4490025,-0.058273613,0.059442114,-0.07594624,0.012846211,-0.00514182,-0.08370894,-0.3256114,0.1340753,-9.481039,0.7620334,47.683304,-1.2199509,-2.104815,-3.1009245,-0.2757894,-0.086258315,-0.09147085,28.375,29.5,28.8125,32.8125,35.1875,36.25
0.104052015,-1.3414196,-1.2462661,-1.0937892,-0.023408227,0.03375856,-0.14941299,-0.38341537,-0.34798557,0.059991717,-3.0786242,0.62351763,-7.064252e-05,-0.04741654,0.010749115,0.0004338191,0.004021024,0.0019753,0.019250143,0.4747777,-1.4227844,1.9539083,-2.1001217,-1.570939,2.4488723,-0.05964909,0.06345961,-0.07647519,0.01308744,-0.0046393494,-0.07884521,-0.45968673,0.11492168,-9.461885,0.79560274,47.694054,-1.2638192,-2.2509437,-3.1571126,-0.259583,-0.10851203,-0.16428363,28.375,29.5,28.8125,32.8125,35.1875,36.25
0.106052265,-1.2272794,-1.095513,-1.2711775,-0.015057327,0.04852928,-0.14970265,-0.38350424,-0.34798166,0.05999432,-3.0786572,0.62337065,-9.554352e-05,-0.049305506,0.010494978,0.0027620276,0.0016442625,0.006138755,0.01646297,0.47468132,-1.422641,1.9537276,-2.100074,-1.570927,2.4486802,-0.061048348,0.061204463,-0.07928916,0.013367336,-0.0044340817,-0.077456646,-0.49799395,0.15322891,-9.423578,0.779936,47.683304,-1.231565,-2.1242685,-3.1366348,-0.26232564,-0.11038429,-0.17964193,28.375,29.5,28.8125,32.8125,35.1875,36.25
0.108051986,-1.4337173,-0.37650663,-1.1991949,-0.010374922,0.052410215,-0.15319549,-0.3835982,-0.3479511,0.059981618,-3.0786388,0.6233308,-0.00011734831,-0.04920366,0.011684304,0.00079387944,0.0037890514,0.0026104073,0.013512501,0.47454855,-1.4224957,1.953585,-2.1000497,-1.570939,2.448525,-0.062860414,0.06421485,-0.07825983,0.013446102,-0.004728304,-0.07631765,-0.36391866,0.038307227,-9.385271,0.8672237,47.67614,-1.2111137,-2.2114835,-3.123055,-0.25726983,-0.11524052,-0.23213638,28.375,29.5,28.8125,32.8125,35.1875,36.25
0.11005203,-1.5162835,-0.49924257,-0.97079504,0.0052891094,0.05104293,-0.15536785,-0.38369957,-0.34794453,0.060002312,-3.0786824,0.6233201,-9.809678e-05,-0.04934695,0.012152608,0.0003650042,0.0044656526,0.0014384093,0.011602154,0.47442836,-1.4223874,1.9534057,-2.100014,-1.5709151,2.4483926,-0.063765064,0.065103754,-0.078451715,0.014102558,-0.0047906027,-0.075311914,-0.34476507,0.076614454,-9.519346,0.800085,47.675243,-1.217638,-2.1876035,-3.282672,-0.25780618,-0.1289127,-0.2674078,28.375,29.5,28.8125,32.8125,35.1875,36.25
0.11205213,-1.3379571,-0.31960478,-1.0527569,-0.009756389,0.05568602,-0.15942623,-0.38383034,-0.34791937,0.060010433,-3.0786953,0.6233626,-2.6954114e-05,-0.052639097,0.011694753,0.001893522,0.002982385,0.0050022528,0.009836973,0.4742717,-1.4222426,1.9532245,-2.100026,-1.5709275,2.448261,-0.065743685,0.06719228,-0.08432479,0.014038676,-0.005107955,-0.07552178,-0.3256114,0.05746084,-9.461885,0.78217715,47.66808,-1.2304053,-2.278121,-3.1167905,-0.25410384,-0.12753773,-0.29812187,28.375,29.5,28.8125,32.8125,35.1875,36.25
0.11405258,-1.4263356,-0.6966116,-1.2346528,-0.002100029,0.043834478,-0.15294208,-0.38390747,-0.34790042,0.059998896,-3.0786965,0.62322754,-4.6716756e-05,-0.05199062,0.013343479,0.00021434328,0.0061340607,0.002417277,0.00945049,0.47417533,-1.4221101,1.9530939,-2.100002,-1.5709399,2.4480803,-0.06701246,0.0682453,-0.08172024,0.014124168,-0.006727719,-0.07640223,-0.28730422,0.019153614,-9.519346,0.800085,47.67614,-1.2237244,-2.1563728,-3.2879243,-0.22792108,-0.100356,-0.32140338,28.375,29.5,28.8125,32.8125,35.1875,36.25
0.116051756,-1.1648436,-0.54385906,-1.1885412,-0.0027219402,0.040507402,-0.15211694,-0.38401863,-0.34786278,0.059984833,-3.0786738,0.6232238,-9.124718e-05,-0.05315153,0.013744727,0.0005507945,0.0069832723,0.0032663094,0.008716475,0.4740069,-1.4219416,1.9529251,-2.0999653,-1.5709404,2.4479125,-0.068023264,0.06916847,-0.083715856,0.014831786,-0.007876511,-0.07667572,-0.24899697,-0.076614454,-9.423578,0.85155696,47.705692,-1.2773042,-2.249301,-3.301426,-0.21572009,-0.091511935,-0.37502128,28.375,29.5,28.8125,32.8125,35.1875,36.25
0.11805226,-0.881553,-0.11451834,-1.0847245,-0.016676668,0.045744564,-0.16041534,-0.38414457,-0.34783304,0.06001766,-3.078677,0.62314874,6.555024e-05,-0.054922067,0.01562646,0.00028942846,0.008157268,0.0030542535,0.004930249,0.47388533,-1.4218451,1.9527344,-2.0999415,-1.5710124,2.447744,-0.0723518,0.07023023,-0.0844208,0.015196195,-0.008819816,-0.077216506,-0.3256114,-0.038307227,-9.423578,0.8493211,47.67614,-1.0735805,-2.135494,-3.3008053,-0.21228597,-0.10801968,-0.3985573,28.375,29.5,28.8125,32.8125,35.1875,36.25
0.120052285,-1.3324565,-0.8617402,-1.1659875,0.005279262,0.045271844,-0.15057075,-0.38424835,-0.34779406,0.060003273,-3.0786548,0.6232003,-1.5308922e-05,-0.054568585,0.0150478,0.0002847599,0.009474851,0.003561243,0.007814115,0.47370628,-1.4216887,1.9525775,-2.0998938,-1.5709895,2.4476,-0.07006799,0.07089228,-0.08525075,0.015519137,-0.010228679,-0.07781319,-0.4405331,0.038307227,-9.3661175,0.8023209,47.674347,-1.2916169,-2.15526,-3.3452678,-0.21187773,-0.052705847,-0.43893987,28.375,29.5,28.8125,32.8125,35.1875,36.25
0.12205223,-0.8544571,-0.38394132,-1.1055591,0.0054245023,0.06839166,-0.1675785,-0.38433954,-0.34777102,0.05999243,-3.0786397,0.6231394,-8.947879e-06,-0.055625502,0.016159415,-4.277248e-05,0.01027359,0.003158579,0.0074748956,0.4735973,-1.4215444,1.9524344,-2.0998814,-1.5710133,2.447455,-0.07264794,0.07192782,-0.085734926,0.015688507,-0.010758433,-0.08005248,-0.3256114,0.11492168,-9.32781,0.79560274,47.675243,-1.2651012,-2.109315,-3.3756342,-0.2034564,-0.060215607,-0.47470674,28.375,29.5,28.8125,32.8125,35.1875,36.25
0.12405224,-1.9113992,-0.48169297,-1.0158173,0.01090762,0.053899825,-0.14866853,-0.38449362,-0.34774408,0.06002774,-3.0786717,0.62316513,9.0246605e-05,-0.05796537,0.016735224,0.00092602806,0.0081274705,0.004308027,0.0076038437,0.47341585,-1.4214119,1.9521941,-2.0998456,-1.5710248,2.4472857,-0.076675884,0.072329774,-0.088495746,0.01603629,-0.009373196,-0.0842112,-0.30645782,0.076614454,-9.442732,0.8179876,47.67166,-1.0490228,-2.0575514,-3.4564114,-0.18013442,-0.06381956,-0.48544383,28.375,29.5,28.8125,32.8125,35.1875,36.25
0.12605225,-1.3718207,-0.13678777,-1.1015096,-0.011179843,0.0579536,-0.17066596,-0.38458592,-0.34773356,0.06003497,-3.0786886,0.6230298,9.963613e-05,-0.056974236,0.016437693,-0.0002895733,0.009197574,0.0013410281,0.013585747,0.4733204,-1.4212792,1.9520148,-2.0997975,-1.5710367,2.4471037,-0.07548491,0.07442976,-0.08832459,0.016888397,-0.008972193,-0.08900274,-0.28730422,0.0,-9.442732,0.91421866,47.71465,-1.2182001,-2.1056664,-3.3858693,-0.18773296,-0.080219515,-0.4535032,28.375,29.5,28.8125,32.8125,35.1875,36.25
0.12805183,-1.9061036,-1.1100402,-1.2192819,-0.008774464,0.031068498,-0.14713566,-0.3846881,-0.34767532,0.060004856,-3.0786417,0.622942,3.3637538e-05,-0.058533274,0.017548287,-4.0644158e-05,0.008675926,0.0015121449,0.015653968,0.47313908,-1.4211107,1.9518827,-2.0997612,-1.5710605,2.4468737,-0.07910118,0.074758716,-0.08934957,0.017186759,-0.00859623,-0.09468679,-0.34476504,0.095768064,-9.346964,0.8851263,47.67614,-1.1031183,-2.0307817,-3.5403743,-0.17847735,-0.08405073,-0.45465285,28.375,29.5,28.8125,32.8125,35.1875,36.25
0.13005215,-1.6161753,-1.1918485,-1.078455,-0.013977208,0.027080534,-0.15051576,-0.3848224,-0.34764525,0.060013805,-3.0786562,0.62290096,7.4966476e-05,-0.060683068,0.017007092,0.0017018152,0.006432514,0.0043167137,0.024266094,0.47297063,-1.4209546,1.9516782,-2.0997374,-1.5710725,2.446678,-0.08053671,0.07478726,-0.09351075,0.017791016,-0.007885446,-0.104733996,-0.3256114,0.076614454,-9.3661175,0.86498255,47.683304,-1.0725516,-2.0119026,-3.3815422,-0.17018789,-0.08228374,-0.3546551,28.375,29.5,28.8125,32.8125,35.1875,36.25
0.13205227,-1.0970664,-0.6687169,-1.4809455,-0.020184202,0.032460887,-0.15269615,-0.38494608,-0.34762505,0.06002546,-3.0787015,0.6228693,0.00011864109,-0.060945295,0.018028952,-0.0002779698,0.008782552,0.00068232697,0.02801424,0.47281408,-1.4208213,1.9514989,-2.099737,-1.5710605,2.446496,-0.082283735,0.078819774,-0.09372348,0.01827628,-0.008318468,-0.11022814,-0.24899697,0.05746084,-9.519346,0.8112748,47.674347,-1.0245656,-2.01773,-3.4757364,-0.1527131,-0.084787324,-0.30036846,28.375,29.5,28.8125,32.8125,35.1875,36.25
0.13405243,-1.2755218,-1.0982251,-1.3640035,-0.012439827,0.039932203,-0.15279984,-0.38507614,-0.34757465,0.060024206,-3.0786855,0.6227476,0.00010083672,-0.06294501,0.018086197,0.0018666162,0.007463589,0.005175504,0.0328915,0.4726216,-1.4206538,1.9512938,-2.0996659,-1.5710849,2.4462297,-0.08360885,0.07685171,-0.09638658,0.018302452,-0.009201352,-0.11642771,-0.30645782,0.17238252,-9.461885,0.8247004,47.685097,-1.0236702,-2.0584128,-3.401431,-0.13906172,-0.062224843,-0.23024058,28.375,29.5,28.8125,32.8125,35.1875,36.25
0.13605244,-1.285067,-0.89631736,-1.2544557,-0.014283154,0.06120294,-0.15062207,-0.38521865,-0.34753066,0.06004339,-3.0787,0.62269187,0.00016623159,-0.06427185,0.018462436,0.0024477937,0.00696008,0.0060427166,0.03496004,0.47242892,-1.4205215,1.9510902,-2.0996292,-1.5711087,2.4460006,-0.08548944,0.07719503,-0.09822714,0.018791713,-0.009147221,-0.1203764,-0.3256114,0.19153613,-9.442732,0.8605109,47.693153,-0.9333521,-1.8962203,-3.3924618,-0.14285673,-0.08915909,-0.17255159,28.375,29.5,28.8125,32.8125,35.1875,36.25
0.13805194,-2.3329628,-0.83217776,-1.5992332,-0.010917798,0.04559025,-0.15141807,-0.38532937,-0.3475018,0.060039487,-3.0787163,0.62252116,0.00016013879,-0.06455469,0.019129677,0.0004949251,0.008400504,0.0018630894,0.034651633,0.47228444,-1.4203638,1.9509104,-2.099593,-1.5711206,2.4457476,-0.087306984,0.081606194,-0.09899483,0.0195199,-0.008530324,-0.121885575,-0.38307226,0.24899697,-9.500193,0.8717007,47.688675,-0.9671403,-1.9772094,-3.3895736,-0.14928165,-0.072909035,-0.13421081,28.375,29.5,28.8125,32.8125,35.1875,36.25
0.14005218,-1.8726814,-0.89250064,-1.3263446,-0.025436636,0.06290087,-0.15418725,-0.38546145,-0.34745908,0.060040075,-3.0787206,0.62237066,0.00016876329,-0.06648528,0.01916901,0.002375921,0.0061649815,0.004780525,0.030288175,0.4721036,-1.4201963,1.9507064,-2.0995448,-1.5711445,2.4454725,-0.08952996,0.080173716,-0.10180487,0.020141847,-0.007871878,-0.11974514,-0.38307226,0.22984336,-9.423578,0.8224646,47.71465,-0.8461057,-1.6978886,-3.3520198,-0.12747163,-0.07687727,-0.1329874,28.375,29.5,28.8125,32.8125,35.1875,36.25
0.1420523,-1.711744,-1.3738015,-1.4484161,-0.025982657,0.06667582,-0.15017346,-0.38561362,-0.34743378,0.060055744,-3.0787344,0.6223184,0.00023393903,-0.06666365,0.019736374,0.0009475159,0.007890339,0.0018116382,0.025923194,0.47193536,-1.4200147,1.9504546,-2.099509,-1.5711683,2.44527,-0.0905483,0.08349561,-0.10255463,0.020996872,-0.008053376,-0.11639775,-0.51714754,0.24899697,-9.500193,0.784413,47.67166,-0.89105046,-1.8403336,-3.4168768,-0.13863374,-0.07981758,-0.16959018,28.375,29.5,28.8125,32.8125,35.1875,36.25
0.14405212,-1.6387607,-1.1735928,-1.4708556,-0.040069774,0.055137727,-0.15073858,-0.38574207,-0.34739316,0.060056396,-3.078748,0.6223056,0.000194113,-0.068369456,0.019790888,0.0014901758,0.007274614,0.0033323055,0.018216474,0.47173092,-1.4198583,1.9502629,-2.0994608,-1.5711445,2.445056,-0.09206905,0.084688395,-0.10511211,0.020732218,-0.008202353,-0.11020995,-0.53630114,0.21068975,-9.634268,0.8023209,47.70032,-0.8271426,-1.8905602,-3.3529282,-0.13462201,-0.05644743,-0.22041745,28.375,29.5,28.8125,32.8125,35.1875,36.25
0.14605163,-1.747751,-1.424236,-1.5829309,-0.02743539,0.052306905,-0.14935564,-0.38589922,-0.3473477,0.06007152,-3.0787523,0.6222499,0.0002998524,-0.06997226,0.020251513,0.0016812133,0.0065911803,0.0040895427,0.014969042,0.47153807,-1.4197017,1.9500464,-2.0994494,-1.5711921,2.444828,-0.09447878,0.085843615,-0.106773034,0.020245628,-0.007936716,-0.10937203,-0.4213795,0.1340753,-9.615114,0.8784135,47.683304,-0.70349973,-1.7766218,-3.3393683,-0.10473491,-0.082443856,-0.2828844,28.375,29.5,28.8125,32.8125,35.1875,36.25
0.14805198,-1.7605103,-0.9116705,-1.2396656,-0.03197234,0.05922524,-0.15269385,-0.38600883,-0.34732044,0.060070727,-3.0787568,0.6221939,0.00025690894,-0.07015595,0.019328665,0.001931327,0.006441713,0.0044523845,0.015006229,0.47138256,-1.4195452,1.9498552,-2.0993893,-1.5711807,2.444637,-0.09295825,0.087026745,-0.10882,0.020719372,-0.007973978,-0.10788734,-0.36391866,0.05746084,-9.615114,0.86498255,47.687782,-0.9250933,-1.8710191,-3.343845,-0.0883857,-0.07050128,-0.2933541,28.375,29.5,28.8125,32.8125,35.1875,36.25
0.15005201,-1.3777373,-0.93537414,-1.3996103,-0.013547264,0.07220462,-0.15124154,-0.3861714,-0.34727082,0.060082182,-3.0787387,0.6220945,0.00030090663,-0.07171658,0.02052173,0.0015207946,0.0065928423,0.0027394579,0.012139103,0.47117716,-1.419352,1.9495915,-2.0993173,-1.5712279,2.4443722,-0.096867494,0.089204565,-0.110682346,0.021989157,-0.007332338,-0.10892957,-0.45968673,0.15322891,-9.481039,0.84484416,47.683304,-0.75490427,-1.8158914,-3.2828593,-0.1056319,-0.088919275,-0.31924888,28.375,29.5,28.8125,32.8125,35.1875,36.25
0.15205237,-1.4432982,-0.42431334,-1.0521821,-0.0037979546,0.06822878,-0.15130398,-0.3863023,-0.34722108,0.0600821,-3.0787375,0.62207276,0.00025906094,-0.07288732,0.018176641,0.0031054486,0.004697687,0.0054360135,0.0144073265,0.47096232,-1.4191954,1.9493984,-2.0992568,-1.571216,2.444144,-0.094031855,0.090732194,-0.116238624,0.022753386,-0.006879868,-0.10835996,-0.3256114,0.19153613,-9.461885,0.8493211,47.71017,-0.9849174,-1.8736298,-3.0411496,-0.08736475,-0.097885765,-0.35144368,28.375,29.5,28.8125,32.8125,35.1875,36.25
0.15405199,-1.1780281,-0.24213155,-1.3479828,0.0015163994,0.07043749,-0.15522686,-0.38646418,-0.34719345,0.060093608,-3.0787506,0.6220564,0.000337126,-0.07226569,0.019379081,-8.3665065e-05,0.007900594,-0.00059590297,0.013507426,0.47078162,-1.4190016,1.9491471,-2.0992444,-1.5712398,2.4439516,-0.09549077,0.095967285,-0.11506857,0.023173079,-0.0069896374,-0.10891896,-0.34476504,0.1340753,-9.519346,0.8851263,47.701214,-1.0386999,-1.9823427,-3.1639388,-0.09055181,-0.09509312,-0.38377935,28.375,29.5,28.8125,32.8125,35.1875,36.25
0.15605195,-1.2885393,-0.7098989,-1.2796987,0.0029843508,0.04817641,-0.1504388,-0.38659894,-0.34714755,0.060074504,-3.0787196,0.62202877,0.0002650151,-0.07416558,0.018510662,0.0025903098,0.0058198953,0.0044388077,0.016790384,0.47057787,-1.418786,1.9489301,-2.0991848,-1.5712398,2.4437346,-0.095351495,0.09400026,-0.119057834,0.023696812,-0.0074333022,-0.11205996,-0.28730422,0.19153613,-9.442732,0.8605109,47.668976,-1.1162932,-1.9467678,-2.9975605,-0.081831455,-0.10406569,-0.3888804,28.375,29.5,28.8125,32.8125,35.1875,36.25
0.15805225,-0.91943735,-0.80663425,-1.3713021,-0.016253691,0.043761663,-0.15791717,-0.38674277,-0.34711042,0.060080808,-3.0787437,0.62187725,0.00031352183,-0.07415985,0.019081123,-0.0003520468,0.009114209,-0.00057149364,0.021813868,0.4703975,-1.4186155,1.9487146,-2.09916,-1.5712646,2.443457,-0.09589465,0.100505665,-0.11987226,0.023959849,-0.008099041,-0.117624246,-0.15322891,0.24899697,-9.385271,0.86498255,47.691364,-1.0356812,-2.0909877,-3.0811682,-0.061437063,-0.07012582,-0.3685733,28.375,29.5,28.8125,32.8125,35.1875,36.25
0.16005224,-0.5479215,-1.3494022,-1.3986624,-0.026543465,0.036785718,-0.15473913,-0.38691634,-0.34708017,0.060103253,-3.0787563,0.6218177,0.0004343408,-0.07558399,0.019363143,0.0017151929,0.0079369135,0.003065075,0.027000995,0.4702172,-1.4184245,1.948439,-2.099136,-1.5713123,2.443238,-0.09725602,0.09777224,-0.12163708,0.024673443,-0.008694312,-0.12417199,-0.17238252,0.22984336,-9.385271,0.8291774,47.699425,-1.1223953,-1.9283864,-3.0437226,-0.06344786,-0.08754936,-0.3086997,28.375,29.5,28.8125,32.8125,35.1875,36.25
0.16205248,-0.82172954,-1.5492871,-1.4177039,-0.04467012,0.017454216,-0.15250966,-0.38706964,-0.34702063,0.060108416,-3.0787523,0.6216586,0.0004254395,-0.07552225,0.020275472,8.9458656e-05,0.010313339,-0.00040366428,0.03508439,0.4699887,-1.418243,1.9482001,-2.0990522,-1.5713371,2.442911,-0.098421246,0.10092553,-0.12183033,0.025872637,-0.009245372,-0.13341911,-0.19153613,0.30645782,-9.3661175,0.784413,47.66539,-1.0904953,-2.0351396,-3.1391475,-0.06384797,-0.0711194,-0.19941261,28.375,29.5,28.8125,32.8125,35.1875,36.25
0.16405246,-1.2490171,-2.120554,-1.2991252,-0.04065259,0.0036170855,-0.1418489,-0.3872369,-0.3469711,0.06010633,-3.0787363,0.621595,0.00045852686,-0.07634478,0.020414121,0.00034778367,0.010871674,-0.0001686456,0.040061295,0.4697725,-1.4180266,1.9479483,-2.099016,-1.5713729,2.4426572,-0.09897539,0.10193546,-0.12383188,0.026898824,-0.009854026,-0.13894822,0.019153614,0.36391866,-9.32781,0.8291774,47.67614,-1.099616,-2.0238726,-3.0120184,-0.07333296,-0.061197452,-0.14916357,28.375,29.5,28.8125,32.8125,35.1875,36.25
0.16605535,-1.0322119,-2.1870909,-1.0248948,-0.03807345,0.0075352876,-0.14755431,-0.3873933,-0.34693557,0.060133614,-3.078752,0.62144476,0.0005206962,-0.0782107,0.021462664,0.0004928686,0.010189767,-0.000106163665,0.03825499,0.46959126,-1.4178581,1.9476737,-2.098932,-1.5714091,2.4423804,-0.10285361,0.10301423,-0.12545495,0.027068347,-0.009275557,-0.14102043,-0.019153614,0.34476504,-9.3661175,0.8717007,47.695843,-0.98300946,-1.9813826,-3.2346835,-0.06394422,-0.057252444,-0.09369643,28.375,29.5,28.8125,32.8125,35.1875,36.25
0.16805264,-0.8793538,-1.9084883,-1.0199859,-0.04268513,0.014210605,-0.14982098,-0.38757154,-0.34690726,0.060141426,-3.0787973,0.62139565,0.0005255371,-0.07758155,0.02077002,-2.2644106e-05,0.00964672,-0.0005867682,0.03884413,0.4693638,-1.4176296,1.9473857,-2.0988967,-1.5713843,2.4421167,-0.101460986,0.1036645,-0.12478927,0.025934964,-0.008572558,-0.14021839,0.038307227,0.38307226,-9.346964,0.8918391,47.67345,-1.1591592,-1.9183171,-3.1753378,-0.03354676,-0.05816639,-0.0702164,28.375,29.5,28.8125,32.8125,35.1875,36.25
0.17005184,-0.3884402,-1.1299196,-0.73785585,-0.045489747,0.021718819,-0.15304464,-0.38771328,-0.3468775,0.06012491,-3.078802,0.6211893,0.0005440765,-0.080060296,0.021967212,-0.00019057479,0.009462396,-0.00048526918,0.031054782,0.46920618,-1.4174005,1.9471577,-2.0988848,-1.5714206,2.44183,-0.10585647,0.106146134,-0.12722592,0.025712093,-0.008461774,-0.13682303,0.019153614,0.2681506,-9.232041,0.8179876,47.703903,-0.96842957,-2.0047932,-3.2419066,-0.026333593,-0.081478864,-0.1176817,28.375,29.5,28.8125,32.8125,35.1875,36.25
0.17205182,-0.9610256,-1.5192249,-0.9791145,-0.022600457,0.0038377263,-0.1445825,-0.38787678,-0.34683958,0.06012561,-3.0788343,0.6211006,0.00057068944,-0.07899497,0.020921892,-0.0003674492,0.009358052,-0.0014519226,0.02880499,0.46899128,-1.4171962,1.9469188,-2.0988724,-1.5714206,2.4415557,-0.10334074,0.106558315,-0.1274615,0.02635078,-0.007927989,-0.13205855,-0.019153614,0.2681506,-9.212888,0.8291774,47.678825,-1.1707292,-1.929773,-3.2121086,-0.012755017,-0.062047295,-0.16282533,28.375,29.5,28.8125,32.8125,35.1875,36.25
0.17405182,-0.3345416,-1.1388035,-0.7321971,-0.01045285,0.010241241,-0.1466479,-0.38805175,-0.346791,0.0601544,-3.0788298,0.6211413,0.00063603075,-0.07997833,0.021690708,-0.0006188694,0.009349324,-0.0026496798,0.021839408,0.46876225,-1.4170276,1.9466432,-2.0988004,-1.5714439,2.4413528,-0.10589733,0.10792982,-0.12868695,0.027266176,-0.0073756464,-0.12765011,0.076614454,0.24899697,-9.040505,0.8224646,47.660015,-1.1078868,-1.998759,-3.3207326,-0.0030017835,-0.08362658,-0.22122517,28.375,29.5,28.8125,32.8125,35.1875,36.25
0.17605205,-0.5538739,-0.78851116,-0.8825037,0.001287124,-0.005186712,-0.14143777,-0.38818547,-0.34676847,0.060122352,-3.078831,0.62098855,0.00054800394,-0.08070361,0.021729674,-0.0021905508,0.010581833,-0.0047299843,0.018947113,0.46859413,-1.4167618,1.9464029,-2.0987642,-1.5714325,2.4410894,-0.10647295,0.11255391,-0.13030116,0.026671825,-0.0075491797,-0.12533112,0.038307227,0.17238252,-9.021352,0.8560339,47.723602,-1.1187787,-1.9086998,-3.2668033,0.013212349,-0.082397476,-0.30080128,28.375,29.5,28.8125,32.8125,35.1875,36.25
0.17805226,-0.7517485,-0.609664,-0.7319029,0.010224921,-0.010992847,-0.14773384,-0.3883853,-0.34673685,0.060162604,-3.078891,0.6209063,0.0006616511,-0.0816754,0.02219638,-0.00046901355,0.00956858,-0.0018658366,0.014107169,0.46836558,-1.4165705,1.9460806,-2.0987165,-1.5714444,2.440802,-0.107871726,0.10965053,-0.13106494,0.027327001,-0.0079293605,-0.12189023,0.019153614,0.11492168,-9.136273,0.8851263,47.69763,-1.1335056,-2.002213,-3.3532195,0.021840703,-0.07823069,-0.35760576,28.375,29.5,28.8125,32.8125,35.1875,36.25
0.18005256,-0.07907842,0.036680233,-0.39667574,0.0033410268,0.011743809,-0.15594503,-0.38853273,-0.3466786,0.06014382,-3.0788224,0.62096936,0.0005815131,-0.08237773,0.022572245,-0.0020661894,0.011096291,-0.005541534,0.013100895,0.46813715,-1.4163406,1.9458402,-2.098632,-1.5714563,2.4406219,-0.10931088,0.11459002,-0.13343413,0.028721714,-0.0076464997,-0.12232137,0.038307227,0.05746084,-8.944737,0.9030289,47.704796,-1.0999367,-1.9190297,-3.274395,0.04689539,-0.08179785,-0.4175673,28.375,29.5,28.8125,32.8125,35.1875,36.25
0.18205285,-0.5851581,0.0059437766,-0.7883859,0.012112258,0.005350174,-0.1591179,-0.3887,-0.34663504,0.06015617,-3.0788555,0.6209205,0.0006248389,-0.082992956,0.022544738,-0.00060586835,0.009798109,-0.0038014206,0.010729766,0.46790898,-1.4161612,1.9456004,-2.0986078,-1.5714558,2.440359,-0.11000682,0.11252637,-0.13468279,0.02989389,-0.0072702793,-0.120647036,-0.095768064,0.038307227,-9.021352,0.80679786,47.65912,-1.1280012,-1.9247749,-3.3456705,0.03758502,-0.078530684,-0.4883898,28.375,29.5,28.8125,32.8125,35.1875,36.25
0.18405221,-0.6685762,-0.12132817,-0.72333294,0.008538166,0.016113276,-0.14835794,-0.38884252,-0.34659025,0.060132183,-3.0788002,0.62079036,0.00052590977,-0.08300023,0.02285378,-0.001715053,0.011221153,-0.006136159,0.014570913,0.4677169,-1.4158959,1.9453257,-2.0984995,-1.5714802,2.440093,-0.11037091,0.11513928,-0.1353588,0.030675543,-0.0075020175,-0.12485062,-0.095768064,0.05746084,-9.097966,0.9298854,47.683304,-1.1448896,-1.9345169,-3.4296257,0.031157762,-0.099956796,-0.50494045,28.375,29.5,28.8125,32.8125,35.1875,36.25
0.18605278,-1.2435617,-0.6251955,-0.64464045,0.0050001224,0.029782522,-0.15165235,-0.38902318,-0.34654802,0.060146473,-3.078828,0.62071586,0.000580951,-0.08478978,0.024270713,-0.0015308762,0.01185046,-0.0059840567,0.019820258,0.46748757,-1.4156915,1.9450501,-2.0984638,-1.5714926,2.4398139,-0.11402797,0.11602832,-0.1370326,0.031599525,-0.008133734,-0.13375549,-0.19153613,-0.038307227,-8.983045,0.8784135,47.689575,-1.0886488,-1.9460605,-3.2780852,0.04748705,-0.09627913,-0.47177774,28.375,29.5,28.8125,32.8125,35.1875,36.25
0.18805195,-1.0573628,0.117023565,-0.67391753,-0.0072895316,0.055897675,-0.16426149,-0.3891866,-0.34651864,0.060152296,-3.07882,0.62063026,0.00055943336,-0.0854574,0.023271307,-0.0008837567,0.011316685,-0.0067805597,0.030769788,0.46729589,-1.4154506,1.9447378,-2.0983665,-1.571504,2.43957,-0.11334296,0.11796848,-0.14142817,0.034510553,-0.0073091197,-0.14401937,-0.24899697,-0.038307227,-9.193734,0.89631605,47.71286,-1.2157857,-1.9248995,-3.3541884,0.02766388,-0.12616666,-0.37681174,28.375,29.5,28.8125,32.8125,35.1875,36.25
0.19005215,-1.8634892,-0.5444759,-0.9481689,0.004854296,0.056335997,-0.14662656,-0.38935217,-0.34645078,0.06013295,-3.0788054,0.62048984,0.0005345323,-0.0860416,0.0252772,-0.0017994101,0.012796041,-0.010414227,0.036131952,0.46704224,-1.4152219,1.9445108,-2.0983298,-1.5715278,2.4392307,-0.117565624,0.11935675,-0.14155994,0.037149675,-0.0069991997,-0.1536047,-0.36391866,-0.038307227,-9.346964,0.88289046,47.71465,-0.8985003,-1.9787334,-3.317687,-0.00012145471,-0.12511957,-0.27921668,28.375,29.5,28.8125,32.8125,35.1875,36.25
0.1920525,-1.8822782,-0.6576068,-1.1069016,0.004363979,0.07168158,-0.16036524,-0.38951984,-0.34640026,0.060145464,-3.0788174,0.62035394,0.0005041656,-0.08683558,0.025504876,-0.0022724709,0.0145678995,-0.011428671,0.042245936,0.4668025,-1.4150169,1.9442219,-2.0982215,-1.5715283,2.4389048,-0.11789815,0.122195385,-0.14407973,0.038530815,-0.008136529,-0.16004765,-0.49799395,-0.1340753,-9.174581,0.86945957,47.67614,-1.1239867,-1.9432812,-3.2900043,-0.031347822,-0.11114767,-0.21953908,28.375,29.5,28.8125,32.8125,35.1875,36.25
0.19405273,-1.8724068,-0.3255712,-1.1353042,-0.0020625598,0.08067567,-0.15512054,-0.38967097,-0.3463406,0.060109314,-3.0787632,0.6202095,0.000340199,-0.08932274,0.026284704,-0.00028308865,0.01341806,-0.008364864,0.039988283,0.46656117,-1.4147289,1.9439458,-2.0981014,-1.5715283,2.4385803,-0.121213235,0.120897576,-0.14749028,0.03998419,-0.008517419,-0.16110218,-0.6895301,0.019153614,-9.308657,0.80679786,47.682407,-0.9100958,-1.9114606,-3.240172,-0.049796827,-0.12154774,-0.15960144,28.375,29.5,28.8125,32.8125,35.1875,36.25
0.19605199,-2.431058,-0.509781,-1.424421,-0.010197415,0.07332188,-0.15726778,-0.38983262,-0.34628034,0.060091514,-3.0787416,0.62001497,0.00031141305,-0.08786562,0.027654389,-0.0036077937,0.016443465,-0.01570673,0.035880532,0.46633276,-1.4144874,1.943695,-2.0980408,-1.5715646,2.4382334,-0.12266573,0.12515035,-0.14511171,0.04126371,-0.007920716,-0.15844841,-0.7661445,0.11492168,-9.442732,0.8985519,47.667187,-0.9416496,-1.9493309,-3.4273481,-0.07288911,-0.1267015,-0.1604503,28.375,29.5,28.8125,32.8125,35.1875,36.25
0.19805236,-2.647741,-1.3498816,-1.5309517,-0.017715164,0.07371387,-0.13490802,-0.3900249,-0.34624618,0.060098983,-3.0787535,0.61992645,0.0002679055,-0.08896398,0.028125132,-0.0023664762,0.016107947,-0.014270853,0.02787933,0.46609226,-1.4142115,1.9433359,-2.0979326,-1.5715526,2.4379363,-0.12419369,0.12399165,-0.14701541,0.04290005,-0.008272435,-0.15197389,-0.8619126,0.1340753,-9.595961,0.8918391,47.696735,-0.9264399,-1.8719807,-3.3225675,-0.105466604,-0.14028108,-0.26061913,28.375,29.5,28.8125,32.8125,35.1875,36.25
0.20005268,-2.9688795,-1.194387,-1.4869833,-0.040589593,0.08361398,-0.1441802,-0.3901937,-0.34618476,0.060094595,-3.0787327,0.61982644,0.00021792897,-0.09009128,0.02825762,-0.0023947419,0.017646123,-0.014199643,0.024797622,0.46584028,-1.4139823,1.9430603,-2.0978367,-1.571565,2.4376247,-0.12446996,0.12640437,-0.15003335,0.044136547,-0.009693359,-0.14916359,-0.9959879,0.19153613,-9.595961,0.85826975,47.705692,-0.954054,-1.9676723,-3.3149915,-0.14149077,-0.11842285,-0.31173992,28.375,29.5,28.8125,32.8125,35.1875,36.25
0.20205176,-2.8610575,-1.7888936,-1.501788,-0.03477566,0.10802406,-0.13856766,-0.39039603,-0.34613776,0.06010172,-3.0787363,0.61973274,0.00018570686,-0.09100434,0.02834108,-0.0018848926,0.017521145,-0.0138407005,0.023078324,0.46557593,-1.4137057,1.9427012,-2.097729,-1.571565,2.4373016,-0.12532985,0.12700719,-0.15219045,0.045312606,-0.009753494,-0.14830296,-1.0342951,0.17238252,-9.557653,0.83365434,47.68062,-1.021204,-1.951362,-3.298801,-0.17262906,-0.13005003,-0.34851497,28.375,29.5,28.8125,32.8125,35.1875,36.25
0.2040518,-2.761826,-1.119246,-1.6341466,-0.036367252,0.117238685,-0.14840984,-0.39055458,-0.34607396,0.060088318,-3.0786886,0.6196839,0.0001324267,-0.0909429,0.027749313,-0.002507146,0.018290631,-0.015273756,0.023185665,0.46533653,-1.4134767,1.942449,-2.0976446,-1.5715889,2.437038,-0.12413922,0.12957522,-0.15393443,0.04611004,-0.00981326,-0.1472179,-0.68953013,0.095768064,-9.710882,0.88960326,47.696735,-1.1418118,-1.9269502,-3.2628088,-0.21663034,-0.12031491,-0.39024496,28.375,29.5,28.8125,32.8125,35.1875,36.25
0.20605226,-2.2869453,-0.08492967,-1.544006,-0.040047873,0.10511394,-0.16101007,-0.39076957,-0.34602627,0.060113925,-3.078679,0.6196632,0.00019451347,-0.09293215,0.028956952,-0.0019300896,0.017928308,-0.013742163,0.02257807,0.4650829,-1.4132245,1.9420785,-2.0975492,-1.5716246,2.4367728,-0.12774487,0.12961599,-0.15527333,0.045867525,-0.010183825,-0.15021478,-0.59376204,0.15322891,-9.691729,0.83365434,47.684196,-1.0439377,-1.9334428,-3.3214126,-0.22565953,-0.12004629,-0.37680054,28.375,29.5,28.8125,32.8125,35.1875,36.25
0.20805252,-2.359167,-1.0794053,-1.5118119,-0.006635663,0.07505546,-0.14882144,-0.39095595,-0.34596288,0.06008567,-3.0786476,0.6195729,0.00015682516,-0.09338806,0.027801327,-0.0013412182,0.017045146,-0.012311193,0.032747734,0.4648199,-1.4129359,1.9418024,-2.097513,-1.571649,2.4364576,-0.12612614,0.13040183,-0.15750176,0.0456197,-0.01005962,-0.15876433,-0.45968673,0.17238252,-9.557653,0.8784135,47.68062,-1.1992636,-1.8619523,-3.2461972,-0.2436375,-0.14785363,-0.35302663,28.375,29.5,28.8125,32.8125,35.1875,36.25
0.21005276,-1.6647484,-0.8315042,-1.4483347,-0.0011970372,0.045675315,-0.14023328,-0.39116612,-0.3458971,0.06009565,-3.0786378,0.6194539,0.00024293883,-0.09412222,0.029105436,-0.003118775,0.018779403,-0.015125935,0.037149172,0.46455485,-1.4126942,1.9414905,-2.0974658,-1.5717095,2.4361198,-0.12883087,0.13396642,-0.15751806,0.045346137,-0.010355567,-0.16586955,-0.34476507,0.1340753,-9.461885,0.79560274,47.690468,-1.0908368,-2.0273314,-3.3478122,-0.2683015,-0.13720186,-0.28139883,28.375,29.5,28.8125,32.8125,35.1875,36.25
0.21205197,-0.5806106,-0.6838636,-1.6514486,-0.0019801925,0.04176445,-0.15531026,-0.3913759,-0.34584662,0.060103964,-3.0786538,0.6193359,0.00022557357,-0.09529429,0.029658223,-0.002475047,0.018905178,-0.0131300595,0.046414904,0.4642784,-1.4124184,1.941132,-2.09737,-1.5717095,2.435768,-0.13012294,0.13353151,-0.15843076,0.044955093,-0.011379869,-0.17642468,-0.22984336,0.11492168,-9.5385,0.8493211,47.675243,-1.0665727,-1.9279597,-3.3992682,-0.29924312,-0.12775353,-0.1707873,28.375,29.5,28.8125,32.8125,35.1875,36.25
0.21405222,-1.1225305,-0.9281642,-1.7412304,0.0007894636,0.011565484,-0.14135389,-0.39155868,-0.3457899,0.060103048,-3.0786376,0.6191577,0.00021278091,-0.09641406,0.02963624,-0.0031272266,0.019072466,-0.01389173,0.049917188,0.46403813,-1.4121648,1.9408201,-2.097274,-1.5717453,2.4354186,-0.13113174,0.13672975,-0.16059282,0.04466038,-0.011208551,-0.18093419,-0.05746084,0.095768064,-9.5385,0.83365434,47.66091,-1.0710747,-2.0880375,-3.2721667,-0.2955293,-0.12649861,-0.107099935,28.375,29.5,28.8125,32.8125,35.1875,36.25
0.2160524,-0.51881486,-0.52382547,-1.4452431,-0.017862698,0.012996008,-0.14618842,-0.3917367,-0.3457123,0.060072627,-3.0785851,0.6190332,8.8817e-05,-0.097888306,0.029346049,-0.002974277,0.018786732,-0.013077614,0.048027325,0.46374995,-1.411876,1.9405321,-2.0971663,-1.5717572,2.4350595,-0.13177818,0.1390341,-0.16359903,0.04450298,-0.011348715,-0.1796875,0.019153614,0.0,-9.461885,0.9365982,47.666286,-1.109768,-2.0434053,-3.2962723,-0.29681158,-0.10581857,-0.08520529,28.375,29.5,28.8125,32.8125,35.1875,36.25
0.21805175,-0.29265222,-0.8171306,-1.3766185,-0.018177584,0.022933684,-0.14430483,-0.3919576,-0.34568104,0.060090415,-3.0786314,0.61895007,0.00014471466,-0.097783275,0.029386811,-0.0040238556,0.019585228,-0.014694205,0.042463966,0.46349803,-1.4115988,1.9401611,-2.0971186,-1.5717572,2.43475,-0.13169189,0.14122395,-0.16370152,0.044222333,-0.011333572,-0.17403802,0.038307227,0.038307227,-9.442732,0.79560274,47.68062,-1.1002619,-2.1058805,-3.4074743,-0.31316358,-0.13167015,-0.1310387,28.375,29.5,28.8125,32.8125,35.1875,36.25
0.22005272,-0.30065277,-0.748848,-1.3802278,-0.015061413,0.013797425,-0.15173353,-0.3921504,-0.34559962,0.060085163,-3.0785851,0.61871535,0.000111561036,-0.09918734,0.02977693,-0.00394889,0.019040534,-0.013916302,0.032649606,0.4632212,-1.4113343,1.9398383,-2.0969875,-1.5718173,2.4343328,-0.13364162,0.14240454,-0.16510434,0.04350073,-0.0112107275,-0.16617195,0.1340753,0.1340753,-9.385271,0.83589023,47.67793,-1.0146368,-2.1712077,-3.4840126,-0.3233667,-0.09944808,-0.19207099,28.375,29.5,28.8125,32.8125,35.1875,36.25
0.22205195,-0.59680355,-0.9870618,-1.1665677,-0.019967914,0.0025813968,-0.13592853,-0.39236993,-0.34554744,0.060092825,-3.0785751,0.61869735,0.00017399904,-0.100511275,0.030287774,-0.0040824795,0.018467914,-0.01260999,0.02629071,0.46295676,-1.4110578,1.9394912,-2.0969403,-1.571853,2.4340587,-0.13559622,0.14328916,-0.16539927,0.041483454,-0.011285156,-0.1617672,0.11492168,0.21068975,-9.32781,0.8560339,47.701214,-1.1908721,-2.0735853,-3.473925,-0.33478197,-0.12880996,-0.290335,28.375,29.5,28.8125,32.8125,35.1875,36.25
0.22405247,0.06799928,-0.87715477,-1.1877927,-0.034684435,0.009445142,-0.14322807,-0.39257377,-0.34547573,0.060085252,-3.078548,0.6186361,0.00012447228,-0.10234243,0.029426228,-0.004317365,0.01710425,-0.011756954,0.021079252,0.46265665,-1.4107802,1.9391664,-2.096845,-1.571865,2.433724,-0.13615027,0.14707129,-0.16888675,0.03981445,-0.010466667,-0.15710871,0.076614454,0.22984336,-9.251195,0.8537928,47.71286,-1.1404915,-2.1510026,-3.3597975,-0.30486104,-0.114694364,-0.3696576,28.375,29.5,28.8125,32.8125,35.1875,36.25
0.22605278,-0.19967866,-1.2534204,-1.3094481,-0.024161743,-0.012458644,-0.1393011,-0.39277336,-0.34541297,0.060068566,-3.0785065,0.61855376,0.00010016735,-0.105629474,0.029214256,-0.00083001034,0.01363056,-0.003942887,0.016550208,0.46239188,-1.410481,1.9388431,-2.0967739,-1.5719012,2.4334133,-0.13835905,0.14367528,-0.17265369,0.038430437,-0.010864961,-0.15478563,0.1340753,0.30645782,-9.251195,0.9254084,47.71465,-1.1285534,-2.002924,-3.2957458,-0.28591284,-0.10955738,-0.46086293,28.375,29.5,28.8125,32.8125,35.1875,36.25
0.22805218,-0.33130464,-1.4171542,-1.3268639,-0.035715908,-0.0127011435,-0.13976303,-0.39297763,-0.34537664,0.060076777,-3.0785336,0.6185387,0.00011665157,-0.107877225,0.029337121,-0.0007149339,0.013257674,-0.0018716315,0.017175755,0.4621392,-1.4102157,1.9385074,-2.0967267,-1.5718898,2.433148,-0.14010616,0.14613342,-0.17539512,0.036691915,-0.011465599,-0.15715522,0.076614454,0.3256114,-9.270349,0.8224646,47.661808,-1.0636959,-2.1762664,-3.228239,-0.2645691,-0.10752948,-0.48811787,28.375,29.5,28.8125,32.8125,35.1875,36.25
0.23005244,-0.5091379,-1.9730356,-1.4083614,-0.044022158,-0.002688774,-0.13922428,-0.39318022,-0.34530738,0.06007501,-3.078486,0.61834997,9.623604e-05,-0.10789087,0.029341944,-0.0014063929,0.012940833,-0.004086681,0.02715492,0.4618752,-1.4099271,1.9381484,-2.0965946,-1.5719489,2.4327724,-0.14085288,0.14790422,-0.17606229,0.037399236,-0.01021647,-0.16788307,0.095768064,0.40222588,-9.212888,0.90750587,47.70838,-1.0328499,-1.9989948,-3.334889,-0.26768154,-0.11833182,-0.45545363,28.375,29.5,28.8125,32.8125,35.1875,36.25
0.23205264,-0.8359946,-2.20983,-1.4427937,-0.05718336,0.01641569,-0.14024597,-0.39340848,-0.3452466,0.06007857,-3.078508,0.61832845,6.785538e-05,-0.10868987,0.029541051,-0.0014093708,0.012888956,-0.004654745,0.039020497,0.46155053,-1.4096384,1.9377903,-2.096522,-1.571925,2.4324317,-0.1420016,0.14924556,-0.17785373,0.03831795,-0.009934747,-0.1808972,-0.019153614,0.4405331,-9.289502,0.80679786,47.71286,-1.0681171,-2.0073872,-3.2919388,-0.2899078,-0.13469762,-0.36296925,28.375,29.5,28.8125,32.8125,35.1875,36.25
0.23405181,-1.5100384,-2.7168913,-1.4722855,-0.06974708,0.048631698,-0.13879158,-0.3935995,-0.34519312,0.06006211,-3.0784757,0.6181257,1.2700898e-05,-0.11047349,0.029459773,-0.00086997356,0.011103955,-0.0020938911,0.046877444,0.4613099,-1.4093257,1.9374427,-2.0964158,-1.5719608,2.4320688,-0.14363395,0.14986277,-0.17933187,0.036068354,-0.009509578,-0.19038582,-0.28730422,0.51714754,-9.346964,0.8784135,47.705692,-0.9469981,-1.9437346,-3.292638,-0.27673995,-0.12271159,-0.22307092,28.375,29.5,28.8125,32.8125,35.1875,36.25
0.23605196,-1.8972929,-2.3021588,-1.3900657,-0.09065994,0.07856961,-0.14480336,-0.39386684,-0.3451318,0.060080208,-3.0785313,0.618022,0.00010789881,-0.11226298,0.030815318,-0.00089936773,0.009974701,-0.0016070899,0.0471465,0.46097276,-1.4090254,1.9370488,-2.0963914,-1.5719723,2.4316602,-0.1480132,0.15029033,-0.17953503,0.03489145,-0.008711448,-0.19503646,-0.45968673,0.5554548,-9.385271,0.89631605,47.719128,-0.9420493,-1.9181511,-3.298771,-0.25438356,-0.1435315,-0.16705436,28.375,29.5,28.8125,32.8125,35.1875,36.25
0.2380523,-2.5633307,-2.0811183,-1.2650843,-0.07320758,0.09735531,-0.1402066,-0.3940488,-0.34508234,0.060045846,-3.078525,0.6178101,-5.1988933e-05,-0.111927666,0.029858684,-0.001586806,0.010215643,-0.0031733934,0.04563315,0.46070933,-1.4086883,1.9367131,-2.0962837,-1.5719484,2.4312654,-0.1462481,0.15285209,-0.1810918,0.03540178,-0.008252518,-0.19175728,-0.5554548,0.45968673,-9.423578,0.88289046,47.687782,-0.9942647,-1.841264,-3.3314338,-0.24309164,-0.15182556,-0.16232684,28.375,29.5,28.8125,32.8125,35.1875,36.25
0.24005257,-2.6996288,-1.8596216,-1.3685126,-0.04512014,0.09722166,-0.13347168,-0.3943105,-0.34503004,0.06007534,-3.0785472,0.6177413,5.4928943e-05,-0.11349429,0.029483512,-0.0004016297,0.009073057,6.0413255e-05,0.038264647,0.4604093,-1.408388,1.9362825,-2.0962126,-1.5719846,2.43092,-0.14660656,0.15272558,-0.18349417,0.034527723,-0.008656811,-0.18474557,-0.8236054,0.36391866,-9.481039,0.8537928,47.72002,-1.0562384,-1.990048,-3.2932203,-0.2291504,-0.16406515,-0.22744936,28.375,29.5,28.8125,32.8125,35.1875,36.25
0.2420523,-2.4885721,-0.92075884,-1.1797054,-0.026623277,0.0990901,-0.13868938,-0.3945001,-0.34497944,0.06003563,-3.0785415,0.6175902,-5.1171744e-05,-0.11441424,0.029395312,-0.0007703126,0.008887435,-0.00018032524,0.03243718,0.46014485,-1.4080505,1.9359721,-2.096165,-1.5719723,2.430562,-0.14734952,0.15495947,-0.18519762,0.034136638,-0.008397607,-0.17965996,-0.7086837,0.22984336,-9.481039,0.86945957,47.689575,-1.0782213,-2.0709138,-3.3983254,-0.20458029,-0.18697551,-0.32958052,28.375,29.5,28.8125,32.8125,35.1875,36.25
0.24405243,-1.9469429,-0.4441785,-1.1014882,0.0039045108,0.08739994,-0.13760896,-0.39475515,-0.3449302,0.060063645,-3.0785866,0.61744744,7.184283e-05,-0.11722694,0.028653253,0.0010105426,0.006247813,0.004217778,0.0281478,0.4598565,-1.4077623,1.9355639,-2.0961173,-1.5720085,2.430179,-0.14868045,0.15558413,-0.18975785,0.03295337,-0.00798201,-0.17670082,-0.6895301,0.11492168,-9.3661175,0.8851263,47.688675,-1.1305757,-1.931214,-3.3655891,-0.1668944,-0.18291834,-0.3837288,28.375,29.5,28.8125,32.8125,35.1875,36.25
0.2460526,-1.9113365,0.3704929,-1.0477298,0.010549425,0.06987903,-0.13442823,-0.39499974,-0.34485903,0.060046308,-3.0785916,0.6174293,4.1390605e-05,-0.1178634,0.029378416,0.00021434201,0.006792418,0.0038136542,0.02850779,0.45950803,-1.4074255,1.9352058,-2.096082,-1.5719966,2.4298189,-0.15021405,0.15707499,-0.18944244,0.03174904,-0.008297082,-0.17859334,-0.7278373,-0.095768064,-9.289503,0.9097417,47.703007,-1.0696098,-1.927715,-3.3986063,-0.14535639,-0.19276716,-0.39017838,28.375,29.5,28.8125,32.8125,35.1875,36.25
0.24805257,-0.37288094,1.0145147,-1.1329812,0.011137516,0.09726746,-0.16004427,-0.39524254,-0.344808,0.06002688,-3.078585,0.6173272,4.571123e-05,-0.11886002,0.02976301,6.558199e-05,0.0068550445,0.004220172,0.03356272,0.45921972,-1.4070528,1.9348105,-2.0960457,-1.5720204,2.429468,-0.1515105,0.15828465,-0.19042814,0.031174198,-0.008545769,-0.1849434,-0.6512228,-0.22984336,-9.3661175,0.9097417,47.72002,-1.0854807,-1.9425678,-3.3945167,-0.111226276,-0.2219764,-0.40613794,28.375,29.5,28.8125,32.8125,35.1875,36.25
0.25005266,-1.5188177,0.09105219,-1.0906757,0.03636456,0.06476122,-0.13924174,-0.39546758,-0.34475273,0.06003832,-3.0786092,0.61715204,5.216188e-05,-0.118965186,0.029677272,-0.00011782344,0.007832763,0.0027269807,0.045216914,0.4589321,-1.4067638,1.9344281,-2.0959494,-1.5720323,2.429068,-0.15121387,0.15994331,-0.19245224,0.033292044,-0.008772379,-0.19629961,-0.68953013,-0.30645782,-9.442732,0.86945957,47.729877,-1.0759974,-1.9812263,-3.336386,-0.07653817,-0.21508744,-0.303722,28.375,29.5,28.8125,32.8125,35.1875,36.25
0.2520518,-1.1933966,0.748214,-0.92039037,0.020521114,0.081971906,-0.15572283,-0.39572906,-0.3447032,0.06005514,-3.0786586,0.61702436,0.00015924296,-0.11932596,0.030906484,-0.0009914925,0.0102153765,-0.00036623524,0.05343449,0.45863083,-1.4064505,1.9340214,-2.0959246,-1.5720567,2.4286811,-0.15310782,0.16226466,-0.19384603,0.03617425,-0.009532271,-0.20640945,-0.6703765,-0.34476504,-9.346964,0.8247004,47.687782,-1.0019524,-2.19878,-3.3926263,-0.08281043,-0.22877151,-0.17373729,28.375,29.5,28.8125,32.8125,35.1875,36.25
0.25405198,-1.5974834,0.7489376,-1.1469507,0.037261464,0.07611832,-0.15000248,-0.39597425,-0.34462574,0.06004752,-3.0786362,0.61692065,0.00013408915,-0.1199487,0.031077692,-0.0017724304,0.011939902,-0.0017155135,0.056870326,0.45829505,-1.4061129,1.933626,-2.0958288,-1.5720814,2.4282837,-0.153237,0.1654451,-0.19601399,0.03712515,-0.0104974685,-0.20997049,-0.51714754,-0.36391866,-9.385271,0.89631605,47.667187,-1.0779444,-2.2767076,-3.2627926,-0.07104252,-0.22743708,-0.12453553,28.375,29.5,28.8125,32.8125,35.1875,36.25
0.2560521,-1.5292346,0.6782437,-1.2569156,0.03672777,0.076599695,-0.15245424,-0.396208,-0.34454465,0.06002134,-3.0786064,0.61680394,2.4108916e-05,-0.12082064,0.031166656,-0.001020979,0.01129657,-0.0008291412,0.050885666,0.45794696,-1.405753,1.9332441,-2.09572,-1.572081,2.4278667,-0.15416138,0.16525525,-0.19776027,0.037985258,-0.010329193,-0.20490922,-0.45968673,-0.34476504,-9.519346,0.92093146,47.688675,-1.1582587,-2.0875177,-3.32615,-0.050671086,-0.2073271,-0.12993094,28.375,29.5,28.8125,32.8125,35.1875,36.25
0.2580525,-1.2412319,0.5679876,-1.1463194,0.019956015,0.07709255,-0.14939833,-0.3964483,-0.34448537,0.060034834,-3.0786026,0.61665314,0.00010919778,-0.12166188,0.03157769,-0.0013510688,0.012869529,-0.0015525883,0.04298755,0.45767075,-1.405452,1.9328483,-2.095648,-1.5721415,2.4274971,-0.15483466,0.1675398,-0.19999206,0.039276347,-0.011411639,-0.19768079,-0.3256114,-0.38307226,-9.385271,0.8560339,47.664497,-1.1728755,-2.1969848,-3.4503317,-0.048444465,-0.24126938,-0.1946072,28.375,29.5,28.8125,32.8125,35.1875,36.25
0.26005262,-0.8544049,0.38747025,-1.4082258,0.014897418,0.0530907,-0.14526312,-0.39670423,-0.3444192,0.06001872,-3.0785775,0.6165571,8.008536e-05,-0.122210436,0.033235364,-0.0023402397,0.014782137,-0.0039231237,0.03373221,0.4573458,-1.405067,1.9324197,-2.0955637,-1.5721658,2.4271157,-0.15770125,0.1691978,-0.20002247,0.040624224,-0.012081191,-0.19128992,-0.2873042,-0.17238252,-9.461885,0.8717007,47.68062,-1.2017149,-2.1923633,-3.424137,-0.043167993,-0.21656662,-0.3201255,28.375,29.5,28.8125,32.8125,35.1875,36.25
0.26205173,-0.43482244,-0.121107526,-1.3602321,-0.0049238554,0.04500998,-0.15230738,-0.3969553,-0.3443207,0.060014986,-3.078515,0.6165076,0.000118157484,-0.12190456,0.032246843,-0.0021304225,0.0155451605,-0.004070487,0.030296024,0.45699877,-1.4047544,1.9320468,-2.0954797,-1.5722378,2.426746,-0.15518956,0.170335,-0.20221153,0.04213912,-0.012703389,-0.1853393,-0.21068975,-0.038307227,-9.500193,0.8873621,47.699425,-1.293037,-2.2360768,-3.4761598,-0.038050964,-0.21154177,-0.41088003,28.375,29.5,28.8125,32.8125,35.1875,36.25
0.26405203,-0.6582954,-0.91724503,-1.4745839,-0.021169273,0.029928518,-0.1508046,-0.3971947,-0.34424835,0.060013015,-3.0784888,0.61640906,0.00011795157,-0.122981414,0.03356802,-0.0024638758,0.016921448,-0.005088309,0.025553599,0.45668572,-1.4044297,1.9316529,-2.0953834,-1.5722746,2.426375,-0.1578511,0.17173633,-0.20342825,0.043470737,-0.01349527,-0.18325554,-0.17238252,0.019153614,-9.500193,0.8179876,47.685097,-1.1163299,-2.0690486,-3.460951,-0.045022078,-0.2179518,-0.49204868,28.375,29.5,28.8125,32.8125,35.1875,36.25
0.26605216,-0.5666709,-1.383153,-1.6019244,-0.027477069,0.026330285,-0.14698575,-0.39745992,-0.3441904,0.060009707,-3.078519,0.61631775,7.630453e-05,-0.12441879,0.03453388,-0.0016884649,0.016510297,-0.004333136,0.02785219,0.45633677,-1.4040575,1.9312094,-2.095299,-1.5722502,2.4259653,-0.16070181,0.17134205,-0.20506378,0.044633195,-0.0134724965,-0.18840435,-0.11492168,0.19153613,-9.461885,0.9768804,47.687782,-1.164875,-2.2523212,-3.349437,-0.050049942,-0.1950551,-0.5292856,28.375,29.5,28.8125,32.8125,35.1875,36.25
0.26805225,-0.37421212,-1.6054075,-1.3028018,-0.053913638,0.045737237,-0.15748021,-0.39767876,-0.3440968,0.05998787,-3.0784547,0.61621934,2.898694e-05,-0.12617773,0.035545867,-0.0020280213,0.017123887,-0.005018951,0.03932385,0.45601192,-1.4037443,1.9308742,-2.0952032,-1.5722984,2.4255874,-0.16373636,0.1738914,-0.20745392,0.045323826,-0.013760508,-0.20290756,-0.05746084,0.24899697,-9.576807,0.8090337,47.690468,-0.9781935,-2.2502408,-3.411922,-0.053614967,-0.18798475,-0.39812234,28.375,29.5,28.8125,32.8125,35.1875,36.25
0.27005225,-0.43820003,-1.7683284,-1.4535344,-0.07088218,0.05477927,-0.15963688,-0.39793113,-0.34401062,0.059959263,-3.0783958,0.6160282,-7.692437e-05,-0.12739983,0.035573427,-0.0017957797,0.016112892,-0.005578137,0.05096967,0.45566317,-1.4033355,1.9304322,-2.0950592,-1.5723342,2.425127,-0.16544002,0.17551884,-0.21019864,0.046460025,-0.012654692,-0.21625753,0.0,0.38307226,-9.519346,0.90750587,47.684196,-0.88071465,-2.300475,-3.368744,-0.056859918,-0.2109257,-0.2696545,28.375,29.5,28.8125,32.8125,35.1875,36.25
0.2720525,-0.6405427,-2.1044633,-1.6036029,-0.053664774,0.03879248,-0.14734629,-0.39819148,-0.3439533,0.059978757,-3.0784285,0.6158401,-2.8218783e-05,-0.12776768,0.035818595,-0.0016352615,0.016689429,-0.0066366023,0.057297844,0.45535105,-1.4030106,1.9299887,-2.0949628,-1.572358,2.4246936,-0.16603956,0.17635594,-0.2120985,0.048706554,-0.012714086,-0.22318482,0.0,0.5554548,-9.576807,0.8717007,47.67166,-0.94093966,-2.1948,-3.3743994,-0.07273421,-0.19909215,-0.18560189,28.375,29.5,28.8125,32.8125,35.1875,36.25
0.2740526,-0.35368842,-2.1336222,-1.5316125,-0.064884275,0.04031707,-0.15404786,-0.39844906,-0.34387192,0.059964903,-3.0784183,0.61572504,-6.751504e-05,-0.12661324,0.035691295,-0.0016410963,0.017334238,-0.0089699505,0.054194722,0.4549915,-1.4026501,1.9295825,-2.094878,-1.5723699,2.4242637,-0.16497959,0.1759676,-0.21238576,0.051760193,-0.012269249,-0.21902303,-0.05746084,0.61291564,-9.557653,0.9567419,47.705692,-0.98221046,-2.1679306,-3.3783429,-0.10009819,-0.2323755,-0.20168673,28.375,29.5,28.8125,32.8125,35.1875,36.25
0.27605245,-0.67244625,-2.3611758,-1.2720482,-0.07177915,0.034713738,-0.14980327,-0.39869243,-0.34381947,0.059960812,-3.078429,0.61550134,-7.7533274e-05,-0.1281838,0.03505984,-0.00074944797,0.015460004,-0.006267618,0.045301545,0.4547031,-1.4022897,1.9291514,-2.0947826,-1.5723938,2.4238346,-0.16543439,0.17653206,-0.21482569,0.05038928,-0.011778956,-0.21058448,-0.076614454,0.63206923,-9.519346,0.9925471,47.704796,-0.96942973,-2.1779833,-3.3965425,-0.062317308,-0.23807752,-0.27760422,28.375,29.5,28.8125,32.8125,35.1875,36.25
0.2780527,-0.45624298,-2.0394952,-1.3918504,-0.061718874,0.02516057,-0.1559833,-0.3989763,-0.34374362,0.05997995,-3.0784187,0.61546403,6.7566543e-06,-0.12980412,0.03640121,-0.0007797585,0.016183602,-0.008054739,0.03781323,0.45435384,-1.4019527,1.928697,-2.0946977,-1.5724415,2.4234636,-0.16916555,0.17853414,-0.21779048,0.053267837,-0.011636896,-0.206827,0.05746084,0.45968673,-9.461885,0.88289046,47.651955,-0.9635544,-2.1440983,-3.466669,-0.090321824,-0.22438513,-0.35580707,28.375,29.5,28.8125,32.8125,35.1875,36.25
0.2800517,-0.39282805,-1.5182774,-1.1981524,-0.04909805,0.009711529,-0.14738785,-0.3992734,-0.3436705,0.059975937,-3.078408,0.61530894,7.431837e-05,-0.1306243,0.03641914,-0.00012728237,0.016244028,-0.008702495,0.035866875,0.454006,-1.4015445,1.9282178,-2.0946367,-1.5725015,2.4230206,-0.16992125,0.1794692,-0.22110906,0.056245293,-0.011408716,-0.20563605,0.21068975,0.36391866,-9.461885,0.9298854,47.666286,-0.99875176,-2.0230756,-3.3751378,-0.11522801,-0.237169,-0.39653292,28.375,29.5,28.8125,32.8125,35.1875,36.25
0.28205174,0.20405333,-0.69512796,-0.9770031,-0.036375828,0.00464558,-0.16119249,-0.39951625,-0.34358916,0.059959758,-3.0784023,0.61519045,-1.9106703e-05,-0.13020186,0.03818365,-0.0014444316,0.01894755,-0.013070899,0.038781248,0.45364514,-1.4011953,1.9278239,-2.094528,-1.5724896,2.4225867,-0.17220807,0.18096727,-0.22060592,0.05934653,-0.011942063,-0.21083558,0.038307227,0.22984336,-9.385271,0.8985519,47.661808,-0.9143894,-2.1557262,-3.3476615,-0.18569505,-0.22669959,-0.37502873,28.375,29.5,28.8125,32.8125,35.1875,36.25
0.28405163,0.24328402,-0.3689275,-1.2148606,0.0032548774,-0.011421261,-0.16489413,-0.39977518,-0.34353936,0.0599577,-3.0784192,0.6150334,-5.272627e-05,-0.13097204,0.03732304,-0.00083225156,0.017026903,-0.011267993,0.050341714,0.45333335,-1.4008108,1.9273571,-2.0944207,-1.5724891,2.422175,-0.17181385,0.18122928,-0.2220859,0.058075413,-0.011038816,-0.22200343,0.019153614,0.13407528,-9.385271,0.97464454,47.691364,-0.93096244,-2.0296571,-3.394865,-0.17589673,-0.2459127,-0.2893653,28.375,29.5,28.8125,32.8125,35.1875,36.25
0.2860526,0.03792303,-0.027176222,-1.2228231,0.010926629,-0.008992185,-0.16522641,-0.40004057,-0.34346783,0.059964377,-3.0784261,0.6147982,-1.2223313e-05,-0.13093692,0.037895575,-0.001712508,0.018351585,-0.014231462,0.061058052,0.45300898,-1.4004619,1.9269141,-2.0943239,-1.5725373,2.421703,-0.17272745,0.1833705,-0.2230987,0.06015519,-0.0109533,-0.23363328,0.19153613,0.019153614,-9.308657,0.9254084,47.704796,-0.8330933,-2.0507333,-3.3219311,-0.20053762,-0.26913112,-0.16660298,28.375,29.5,28.8125,32.8125,35.1875,36.25
0.28805256,-0.2777894,-0.36138514,-1.0976638,0.012450001,0.006349203,-0.15240534,-0.4002781,-0.3433725,0.059922274,-3.078351,0.614688,-0.00021214026,-0.13199353,0.03838591,-0.0024594436,0.019263802,-0.016011083,0.060722772,0.45263627,-1.4000523,1.9264954,-2.0941565,-1.5725373,2.4212713,-0.17432931,0.18664709,-0.22554022,0.06131373,-0.011044797,-0.2348966,0.1340753,-0.05746084,-9.346964,0.93436235,47.681515,-0.83544815,-2.0393977,-3.4140878,-0.23038533,-0.28565022,-0.081725955,28.375,29.5,28.8125,32.8125,35.1875,36.25
0.29005256,-0.7741846,-0.0042138253,-1.0596106,0.0013752141,0.009737166,-0.15722148,-0.40052792,-0.34328642,0.059898186,-3.0783277,0.6144175,-0.00034252886,-0.13234137,0.03779124,-0.0018523203,0.01845433,-0.016073516,0.05524932,0.45227677,-1.3996559,1.9260534,-2.0939996,-1.5725487,2.420746,-0.1739271,0.1871203,-0.22790754,0.06291245,-0.010315134,-0.2290213,-0.076614454,-0.11492168,-9.32781,0.91198283,47.661808,-1.0304376,-2.0633233,-3.4067254,-0.24820513,-0.30863982,-0.13294306,28.375,29.5,28.8125,32.8125,35.1875,36.25
0.29205245,-1.6478028,-0.2806749,-0.9296174,0.010964035,0.0076663042,-0.15272942,-0.4008247,-0.3432453,0.059944082,-3.0784054,0.6142268,-0.00020179947,-0.13352092,0.037869595,-0.0009598773,0.018427001,-0.014379852,0.04610717,0.45196474,-1.3993194,1.925538,-2.0939162,-1.5725735,2.4203055,-0.17450778,0.18721835,-0.23028606,0.06366789,-0.011004937,-0.22045778,-0.19153613,-0.17238252,-9.270349,0.8851263,47.66987,-1.0667732,-2.1121428,-3.504088,-0.29822,-0.29943854,-0.23561978,28.375,29.5,28.8125,32.8125,35.1875,36.25
0.29405242,-0.824822,0.04105643,-0.8292805,0.008596653,0.042336393,-0.15799059,-0.40107238,-0.34316936,0.05991625,-3.0783412,0.61410296,-0.0002921412,-0.1352727,0.037038874,-0.00027204878,0.017822297,-0.011982492,0.037992522,0.4516408,-1.3989103,1.925095,-2.0937846,-1.5726093,2.4199126,-0.17410298,0.1893198,-0.23424959,0.06311658,-0.011530814,-0.21193355,-0.22984336,-0.24899697,-9.308657,0.8717007,47.666286,-1.170433,-2.1637464,-3.3961244,-0.30624282,-0.29191372,-0.33751452,28.375,29.5,28.8125,32.8125,35.1875,36.25
0.2960526,-1.3201212,-0.075464964,-1.1717317,0.023404937,0.023672825,-0.16459216,-0.4013285,-0.34308025,0.059908852,-3.078326,0.61404413,-0.00038157956,-0.13691054,0.036581695,0.0005100908,0.016561212,-0.00969434,0.03238681,0.4512565,-1.3985616,1.9246758,-2.0936534,-1.5725974,2.4194937,-0.17465222,0.1903532,-0.23712926,0.062361676,-0.011412863,-0.20687534,-0.21068975,-0.21068975,-9.346964,0.9567419,47.67614,-1.2104123,-2.1534421,-3.3728817,-0.30964106,-0.3308159,-0.45499057,28.375,29.5,28.8125,32.8125,35.1875,36.25
0.29805177,-1.1040174,-0.08694094,-1.1761736,0.003266291,0.048900917,-0.17314838,-0.40160155,-0.34301627,0.059919763,-3.0783198,0.613886,-0.00036778467,-0.1380533,0.03658537,9.272234e-05,0.017073227,-0.0087121995,0.036265846,0.45093265,-1.3981882,1.9241861,-2.0935223,-1.5726336,2.4190722,-0.17493375,0.19267958,-0.23860846,0.06083798,-0.012324145,-0.21103169,-0.38307226,-0.038307227,-9.404425,0.98135734,47.675243,-1.2425778,-2.2817254,-3.3474774,-0.31731215,-0.32391423,-0.48618597,28.375,29.5,28.8125,32.8125,35.1875,36.25
0.30005178,-2.0501482,-0.95665854,-1.2177012,-0.009849881,0.053305767,-0.16726162,-0.4018591,-0.34292364,0.059897296,-3.0782506,0.6137113,-0.0004883473,-0.13928765,0.036738224,-0.00061458285,0.017093878,-0.008995173,0.048127566,0.45057192,-1.3977787,1.9237193,-2.093343,-1.5726699,2.4186113,-0.17616235,0.19566143,-0.24030575,0.059778936,-0.012281965,-0.22411954,-0.47884035,0.076614454,-9.3661175,0.9365982,47.71465,-1.1560663,-2.31988,-3.3329382,-0.3186719,-0.31631994,-0.3907905,28.375,29.5,28.8125,32.8125,35.1875,36.25
0.30205172,-2.736667,-1.5595542,-1.5345371,-0.02351596,0.06361667,-0.1535569,-0.4021144,-0.3428343,0.05985945,-3.0781915,0.61357766,-0.0006036692,-0.14078946,0.03722578,-4.7817313e-05,0.016660599,-0.0065355203,0.06002615,0.45021155,-1.3973587,1.9232887,-2.0932238,-1.5726942,2.4181752,-0.17770642,0.19560695,-0.24129671,0.05838716,-0.013024738,-0.23755792,-0.51714754,0.15322891,-9.519346,0.97240865,47.658226,-1.341955,-2.2339635,-3.3537118,-0.3052388,-0.33652824,-0.24432647,28.375,29.5,28.8125,32.8125,35.1875,36.25
0.30405256,-2.5915298,-2.0722017,-1.6484573,-0.04760864,0.09346871,-0.16370828,-0.40239048,-0.34276447,0.059878144,-3.0782218,0.6133496,-0.00064006605,-0.14106634,0.035884917,0.00015512531,0.015719328,-0.005159218,0.06569895,0.44985232,-1.3969978,1.9227871,-2.0930564,-1.5726937,2.41767,-0.17559248,0.19686154,-0.24301927,0.0571943,-0.01280045,-0.24111627,-0.63206923,0.2873042,-9.691729,0.9768804,47.67345,-1.4576182,-2.1719048,-3.2692318,-0.30994734,-0.31998792,-0.15318501,28.375,29.5,28.8125,32.8125,35.1875,36.25
0.30605263,-3.025591,-2.450991,-1.7279325,-0.0761085,0.10095709,-0.14745763,-0.40271005,-0.3426836,0.05988204,-3.0782304,0.613107,-0.00059916824,-0.14255966,0.03616873,0.000478893,0.0152904205,-0.0029508357,0.05874137,0.44946793,-1.3965653,1.9222492,-2.0929492,-1.5727423,2.4171333,-0.17685005,0.19753385,-0.24425635,0.055581566,-0.013373274,-0.2354135,-0.842759,0.4213795,-9.710882,0.9231726,47.689575,-1.4459324,-2.176344,-3.3769975,-0.31519884,-0.33861828,-0.20823108,28.375,29.5,28.8125,32.8125,35.1875,36.25
0.30805165,-2.7037847,-2.2770014,-1.5850645,-0.09448294,0.10976559,-0.16890384,-0.40295324,-0.34260795,0.059869226,-3.0782154,0.61289895,-0.0006545395,-0.14479706,0.03765371,0.00024898342,0.014915873,-0.0010485223,0.047745433,0.44914275,-1.3962047,1.9218305,-2.0928304,-1.5727667,2.4166803,-0.18093038,0.19857463,-0.24438405,0.05279898,-0.013871333,-0.22849485,-0.7852981,0.4405331,-9.768343,0.8985519,47.668976,-1.4832153,-2.1338725,-3.5665462,-0.31071496,-0.3491518,-0.29489338,28.375,29.5,28.8125,32.8125,35.1875,36.25
0.31005263,-2.4148407,-2.9227364,-1.9487512,-0.076477654,0.09822617,-0.16343316,-0.40327245,-0.3425381,0.059885755,-3.0782185,0.6128431,-0.0005809809,-0.1456462,0.037584893,-0.00064854254,0.015179586,-0.0001301879,0.04421633,0.44877073,-1.3957951,1.9212931,-2.092736,-1.5728029,2.4162734,-0.18097806,0.20105402,-0.24464327,0.0498627,-0.014502659,-0.2250109,-0.6512228,0.38307226,-9.825804,0.98807013,47.67614,-1.4237325,-2.1386054,-3.5892656,-0.26826578,-0.32429248,-0.3825112,28.375,29.5,28.8125,32.8125,35.1875,36.25
0.3120526,-2.7013469,-2.5391622,-1.7757097,-0.0703485,0.06463022,-0.15762685,-0.40357408,-0.3424501,0.059878383,-3.0782158,0.6127263,-0.0005775983,-0.14765482,0.03798379,0.00016310075,0.013260996,0.003259005,0.0446275,0.4483741,-1.395387,1.9208144,-2.0926526,-1.5728263,2.4158044,-0.1833855,0.20068443,-0.245546,0.04723167,-0.014262445,-0.2278297,-0.5554548,0.40222588,-9.825804,0.9947882,47.64658,-1.2978361,-1.9801915,-3.6625137,-0.21761405,-0.34552598,-0.3955424,28.375,29.5,28.8125,32.8125,35.1875,36.25
0.31405267,-1.8206935,-1.8128456,-1.647378,-0.053229522,0.053624485,-0.16051798,-0.40383476,-0.34237382,0.059836857,-3.0781784,0.61246395,-0.00063965755,-0.15031756,0.038536068,0.0017889342,0.011221504,0.007813598,0.052025676,0.44804868,-1.3949432,1.9203719,-2.09257,-1.5728744,2.4153202,-0.18636803,0.19959295,-0.24765056,0.045401726,-0.014448739,-0.23820783,-0.53630114,0.3256114,-9.691729,0.9567419,47.655537,-1.1958963,-1.8993059,-3.6592917,-0.1607256,-0.35226923,-0.33896226,28.375,29.5,28.8125,32.8125,35.1875,36.25
0.3160524,-1.5939772,-0.84569645,-1.7378076,-0.022818666,0.034626324,-0.16100675,-0.40418294,-0.34232187,0.059873927,-3.0782678,0.61228156,-0.00047398845,-0.15216702,0.038059864,0.002472745,0.010040474,0.009917587,0.06513148,0.4476767,-1.3945339,1.9197978,-2.092522,-1.5728983,2.4148233,-0.18702015,0.20124775,-0.251064,0.044710744,-0.014303604,-0.2519663,-0.34476504,0.19153613,-9.730036,1.0082139,47.65912,-1.1367428,-1.9112276,-3.633953,-0.13359644,-0.3467011,-0.17144513,28.375,29.5,28.8125,32.8125,35.1875,36.25
0.31805253,-0.5474372,0.37779462,-1.6730655,-0.007404555,0.046600353,-0.17709047,-0.40451014,-0.3422496,0.059902094,-3.078351,0.61206806,-0.00036308207,-0.15397264,0.038826678,0.0014481016,0.010919044,0.008536855,0.066792846,0.44727996,-1.39416,1.9192828,-2.0924623,-1.5729107,2.414283,-0.18961085,0.20558922,-0.25389525,0.044808384,-0.014490546,-0.25621712,-0.26815057,0.038307227,-9.749189,0.92093146,47.66808,-1.1206187,-2.0014446,-3.6124697,-0.09087082,-0.3772313,-0.08342499,28.375,29.5,28.8125,32.8125,35.1875,36.25
0.32005167,-1.5502548,0.06635016,-1.8495307,0.017847544,0.020585865,-0.15064256,-0.40481472,-0.34217533,0.059893012,-3.0783708,0.611904,-0.00042612874,-0.15514684,0.039066423,0.0021845133,0.010749705,0.008250386,0.058696214,0.44688353,-1.3937157,1.9187564,-2.0923417,-1.5728983,2.413782,-0.19103906,0.2064914,-0.25733462,0.04754264,-0.014210481,-0.24954802,-0.2681506,-0.038307227,-9.691729,0.96569055,47.689575,-1.086153,-1.956343,-3.5768995,-0.10645241,-0.3691124,-0.09978011,28.375,29.5,28.8125,32.8125,35.1875,36.25
0.32205167,-1.3237842,-0.11567674,-1.6231163,0.0096274065,0.038959306,-0.15826909,-0.4051173,-0.3420941,0.059903007,-3.0783808,0.61168355,-0.00034300017,-0.15701638,0.039738163,0.0032451388,0.010002082,0.0102596795,0.046281647,0.44652268,-1.3933312,1.9182647,-2.0922577,-1.5729584,2.4132824,-0.19353332,0.2062941,-0.25969055,0.047964543,-0.014381414,-0.23962666,-0.49799395,0.0,-9.634268,0.9388393,47.71465,-1.0358496,-1.9562166,-3.4416547,-0.07928941,-0.39056724,-0.22291604,28.375,29.5,28.8125,32.8125,35.1875,36.25
0.3240525,-1.8793476,-0.7288394,-1.4535244,-0.0033725386,0.049687307,-0.14849111,-0.4054601,-0.34202355,0.059914578,-3.078402,0.6115578,-0.00023073384,-0.15809079,0.0390636,0.0029002235,0.0104364855,0.009651941,0.036498476,0.44613913,-1.3928854,1.917703,-2.0921977,-1.573006,2.412818,-0.19301768,0.21010013,-0.2636467,0.04885849,-0.014482383,-0.22932626,-0.34476504,-0.095768064,-9.576807,0.8672237,47.70211,-1.1449395,-2.1869216,-3.3033857,-0.045920305,-0.37494197,-0.35292986,28.375,29.5,28.8125,32.8125,35.1875,36.25
0.3260526,-1.5634522,-0.3455008,-1.5359958,-0.009719344,0.05418909,-0.1557973,-0.4057396,-0.3419386,0.05990183,-3.078362,0.61149406,-0.00034201206,-0.15942849,0.039913837,0.002282509,0.011952651,0.007988096,0.030994914,0.44575423,-1.3924639,1.9172004,-2.0920298,-1.5730065,2.4123986,-0.19506459,0.21340859,-0.26660338,0.050667018,-0.015146632,-0.22586468,-0.2681506,-0.11492168,-9.576807,0.94331104,47.687782,-1.0244532,-2.2282753,-3.2420542,-0.03355951,-0.3704083,-0.45655382,28.375,29.5,28.8125,32.8125,35.1875,36.25
0.3280519,-1.6917709,-0.29157618,-1.6587464,-0.0024175926,0.035723954,-0.16452977,-0.40608105,-0.34185535,0.05990201,-3.0783715,0.61129874,-0.0002499635,-0.15854195,0.04066021,0.0017562724,0.0136320675,0.0043819193,0.03843327,0.44535804,-1.3920072,1.9166511,-2.0919678,-1.5730666,2.4118795,-0.19547044,0.21386988,-0.26688272,0.054425023,-0.015108498,-0.23371004,-0.21068975,-0.15322891,-9.615114,0.9567419,47.70032,-1.0015986,-2.2433805,-3.218904,-0.028670263,-0.4050548,-0.46838903,28.375,29.5,28.8125,32.8125,35.1875,36.25
0.330052,-1.3339021,-0.3446063,-1.5467639,0.007450486,0.029277403,-0.1616862,-0.4063814,-0.34176424,0.0599104,-3.0783823,0.6112162,-0.00029605237,-0.15888973,0.04132604,0.0006100476,0.0155724585,0.002220385,0.051141612,0.4449379,-1.3916224,1.9161485,-2.0918243,-1.5730551,2.4114068,-0.19622369,0.21680862,-0.26799765,0.055355366,-0.015963918,-0.24716768,-0.17238253,-0.038307227,-9.557653,0.9186956,47.695843,-1.0807946,-2.1967816,-3.4120145,-0.039479177,-0.3877597,-0.3312568,28.375,29.5,28.8125,32.8125,35.1875,36.25
0.33205193,-1.2221105,-0.26772505,-1.3739313,-0.006876919,0.028478146,-0.16036886,-0.4067216,-0.34168994,0.059935503,-3.0784352,0.6109134,-0.00012853804,-0.15861765,0.04071366,0.00050564244,0.015036483,0.0032253312,0.06281535,0.4445664,-1.3912134,1.9155988,-2.0917656,-1.5731267,2.4108398,-0.19477496,0.21678022,-0.26741382,0.05361388,-0.0159162,-0.25739443,-0.22984336,0.038307227,-9.557653,0.95002913,47.705692,-1.3004907,-2.1180422,-3.5249476,0.007923132,-0.3968902,-0.20347749,28.375,29.5,28.8125,32.8125,35.1875,36.25
0.3340519,-1.7271011,-1.1326528,-1.2725526,-0.012556024,0.029192293,-0.14768651,-0.40703,-0.34162825,0.059948344,-3.0784745,0.61069113,-0.00010914257,-0.1581208,0.040462825,0.00073300774,0.016351866,0.0025531997,0.06302846,0.4442071,-1.390793,1.915049,-2.0916445,-1.5731395,2.410337,-0.19319125,0.21694839,-0.26873678,0.055939052,-0.016809136,-0.2560208,-0.11492168,0.1340753,-9.423578,0.947788,47.685097,-1.352536,-2.1784775,-3.5710783,0.025437579,-0.40020895,-0.19729301,28.375,29.5,28.8125,32.8125,35.1875,36.25
0.3360519,-1.3633327,-1.1560366,-1.2778476,-0.01155419,0.032192,-0.15219454,-0.4073686,-0.34152016,0.059956737,-3.078415,0.61056936,-6.505227e-05,-0.1589473,0.041008603,0.0019019269,0.016637256,0.0028857852,0.05454449,0.44378653,-1.3903491,1.9144739,-2.0914876,-1.573224,2.4098482,-0.19441395,0.21621229,-0.2713365,0.05908897,-0.017202362,-0.24875739,-0.05746084,0.05746084,-9.404425,0.9634547,47.677036,-1.3608766,-2.0581522,-3.5681634,0.012143912,-0.38613033,-0.28298968,28.375,29.5,28.8125,32.8125,35.1875,36.25
0.33805212,-0.4285488,-0.5863084,-1.2449803,-0.013770697,0.03239141,-0.16261457,-0.4077068,-0.34145814,0.059985597,-3.0784714,0.6104879,4.514316e-05,-0.15976934,0.042323682,0.0019619951,0.01793251,0.0018229642,0.04710278,0.44340175,-1.3899399,1.9139117,-2.0914156,-1.5732359,2.4094057,-0.19679591,0.2167798,-0.27275476,0.061461974,-0.017886123,-0.24369648,-0.05746084,0.19153613,-9.346964,1.0149267,47.689575,-1.2932826,-2.130088,-3.453911,-0.01029845,-0.3954655,-0.35480222,28.375,29.5,28.8125,32.8125,35.1875,36.25
0.34005207,-0.47449285,-0.4555255,-1.1561685,-0.009761219,0.0039251214,-0.16079241,-0.40804592,-0.34135678,0.059990775,-3.078455,0.61029243,0.00014775299,-0.16112283,0.04335028,0.0028593687,0.01869624,0.0023845627,0.045165837,0.4429933,-1.389508,1.9133738,-2.0913308,-1.5733203,2.4088776,-0.19896202,0.21668527,-0.27532986,0.06392713,-0.018814461,-0.2439224,-0.038307227,0.19153613,-9.193734,0.9097417,47.688675,-1.2766899,-1.9041067,-3.4726686,-0.021694556,-0.36279744,-0.43161228,28.375,29.5,28.8125,32.8125,35.1875,36.25
0.34205186,-0.42417952,-0.58978987,-1.1478792,0.004024298,-0.01470483,-0.15829569,-0.4083713,-0.34127894,0.059998814,-3.0784907,0.6100659,0.00012305636,-0.16219063,0.04401237,0.0027856766,0.019630658,0.00016220436,0.0508721,0.44258448,-1.3890626,1.9127997,-2.0911853,-1.5733198,2.408323,-0.20088959,0.21913959,-0.2789297,0.067453586,-0.018727414,-0.25155497,-0.019153614,0.095768064,-9.078813,0.9186956,47.678825,-1.2110478,-1.8776953,-3.4477124,-0.020441324,-0.37177056,-0.36966485,28.375,29.5,28.8125,32.8125,35.1875,36.25
0.34405196,-0.43983236,-0.06009057,-1.274271,0.0053114747,-0.04110812,-0.1586929,-0.40868357,-0.34118813,0.060007162,-3.0784786,0.60994256,0.00013810204,-0.16411,0.04508491,0.0042728567,0.019839814,0.0010928158,0.061242126,0.44218737,-1.3886542,1.9122709,-2.0910523,-1.573356,2.4078507,-0.20380655,0.21881004,-0.28277436,0.07082687,-0.01934661,-0.26483876,0.038307227,0.1340753,-9.174581,0.9567419,47.685097,-1.1492422,-1.762186,-3.301649,-0.052118465,-0.37075144,-0.23397005,28.375,29.5,28.8125,32.8125,35.1875,36.25
0.3460519,-0.21299464,-0.58375466,-1.0942639,-0.0004090656,-0.009106548,-0.1552346,-0.40901417,-0.34110364,0.06002567,-3.0784943,0.60967445,0.000119819306,-0.16269085,0.04703973,0.003436687,0.023015093,-0.005302822,0.06591672,0.44177884,-1.3882099,1.9116629,-2.0908587,-1.5733804,2.407273,-0.20577164,0.21889205,-0.28259882,0.077677384,-0.019489942,-0.27147853,-0.095768064,0.24899697,-9.308657,0.9768804,47.70032,-1.0846426,-1.6231062,-3.2973943,-0.13308938,-0.36300486,-0.15084116,28.375,29.5625,28.8125,32.8125,35.1875,36.25
0.34805194,-0.7503529,-1.1116877,-1.3001716,-0.010568093,0.0111150965,-0.15588742,-0.4092972,-0.34101075,0.059992295,-3.078448,0.6094376,-1.6850483e-05,-0.16332577,0.04682768,0.0027294413,0.02310036,-0.007256442,0.060282584,0.44139495,-1.3877405,1.9111494,-2.0906913,-1.5734037,2.4067473,-0.20622721,0.22218575,-0.28520808,0.07879395,-0.018764125,-0.2662989,-0.076614454,0.22984336,-9.251195,1.0507371,47.675243,-1.069407,-1.7635579,-3.308667,-0.18860537,-0.37799287,-0.15135819,28.375,29.5625,28.8125,32.8125,35.1875,36.25
0.35005176,-0.79631037,-1.5376946,-1.3081831,-0.021136595,0.037548184,-0.14682,-0.40964073,-0.34090254,0.059985306,-3.078393,0.6093564,-4.142214e-05,-0.16320549,0.04877667,0.00067178527,0.026498439,-0.012832264,0.047642604,0.44095013,-1.3872578,1.9105624,-2.090534,-1.5734524,2.406259,-0.20891637,0.225785,-0.28558892,0.08207784,-0.019451281,-0.2563445,-0.19153614,0.21068975,-9.289502,0.96569055,47.67345,-1.0843041,-1.9170786,-3.3498921,-0.24484327,-0.34973028,-0.27041543,28.375,29.5625,28.8125,32.8125,35.1875,36.25
0.35205168,-1.1056756,-1.2618457,-1.199354,-0.045729034,0.066998474,-0.15451832,-0.4099524,-0.3408039,0.06000693,-3.0783663,0.6092232,-6.0654464e-05,-0.16366814,0.050252825,0.00010434871,0.028778952,-0.016667176,0.035103228,0.44054118,-1.3868616,1.9100007,-2.090329,-1.5734886,2.4057705,-0.2114455,0.22796601,-0.28799668,0.08675885,-0.019871362,-0.24633132,-0.38307226,0.21068975,-9.442732,0.9231726,47.661808,-0.9902761,-2.0193849,-3.4079561,-0.3254822,-0.35840666,-0.42195413,28.375,29.5625,28.8125,32.8125,35.1875,36.25
0.35405242,-1.9668248,-1.512913,-1.2556814,-0.02905256,0.06292977,-0.15254445,-0.4102947,-0.340698,0.060006738,-3.0783236,0.6090801,-5.5008997e-05,-0.1640804,0.049892306,-0.00015969893,0.028431553,-0.015524973,0.034758776,0.4401094,-1.3863927,1.9094146,-2.0901744,-1.5735487,2.405255,-0.21084356,0.22899832,-0.28826287,0.08479207,-0.020067805,-0.24538323,-0.4213795,0.15322891,-9.308656,0.9030289,47.64121,-0.93388736,-1.9735737,-3.48699,-0.3380028,-0.34195226,-0.50421274,28.375,29.5625,28.8125,32.8125,35.1875,36.25
0.3560523,-1.7214503,-0.8093846,-1.104828,-0.022809688,0.07958937,-0.16735955,-0.4106287,-0.34061238,0.06002417,-3.0783405,0.6089402,-5.2136405e-05,-0.16432533,0.04899196,-0.00055409234,0.027591344,-0.015128222,0.04849307,0.43968987,-1.3859591,1.9088296,-2.0900195,-1.5735601,2.4047463,-0.20962732,0.23078495,-0.28919357,0.08317082,-0.019521128,-0.25790262,-0.34476504,0.19153613,-9.3661175,1.0283576,47.687782,-0.97434163,-2.002027,-3.5306065,-0.35139722,-0.35609102,-0.44426996,28.375,29.5625,28.8125,32.8125,35.1875,36.25
0.35805237,-1.9179962,-0.5835297,-0.7964902,-0.025328754,0.09054608,-0.1688342,-0.4109808,-0.34052038,0.060039274,-3.0783148,0.60877126,9.430843e-06,-0.165332,0.04777893,-0.00037130475,0.026353275,-0.011735549,0.06573101,0.4392825,-1.3854905,1.9082087,-2.0898654,-1.5736321,2.404237,-0.20791061,0.23209661,-0.29040164,0.07939985,-0.019899288,-0.27342167,-0.28730422,0.076614454,-9.308657,0.9231726,47.66539,-1.2356031,-1.9041917,-3.6861625,-0.34085757,-0.3650248,-0.29212844,28.375,29.5625,28.8125,32.8125,35.1875,36.25
0.36005238,-1.7781426,-0.6840769,-1.0327365,-0.013439457,0.08156235,-0.15349267,-0.4112699,-0.34043247,0.060016945,-3.0783195,0.6085209,-0.00015224634,-0.16833064,0.04627437,0.0006410644,0.02364399,-0.0061318628,0.07175708,0.43887466,-1.3850335,1.9076809,-2.089687,-1.5736083,2.4036725,-0.20758852,0.23463054,-0.2948072,0.07502995,-0.019899003,-0.27912107,-0.36391866,0.1340753,-9.289503,0.96569055,47.689575,-1.3543447,-1.8232481,-3.5447414,-0.326566,-0.34610915,-0.16807821,28.375,29.5625,28.8125,32.8125,35.1875,36.25
0.36205223,-1.5528452,-0.82808995,-0.92317086,-0.01370863,0.07581851,-0.13741459,-0.41164517,-0.34033498,0.060026493,-3.078294,0.6082888,-5.2436324e-05,-0.17077182,0.04584474,0.0012074212,0.022590805,-0.0009836165,0.06529985,0.4384546,-1.3845284,1.9070348,-2.089557,-1.5737046,2.403111,-0.20787196,0.23613524,-0.29697055,0.07056893,-0.02113571,-0.2729415,-0.4405331,0.095768064,-9.32781,0.9925471,47.658226,-1.3153826,-1.9296961,-3.4502707,-0.27635676,-0.32942873,-0.22077402,28.375,29.5625,28.8125,32.8125,35.1875,36.25
0.36405188,-1.3283976,-0.85121095,-1.0952388,-0.017394558,0.06326595,-0.15189055,-0.41199404,-0.34025434,0.060034133,-3.07833,0.6081656,5.6614346e-07,-0.17407542,0.046182375,0.0017643039,0.021729467,0.0038856782,0.05626905,0.43803394,-1.3840712,1.9064597,-2.0894744,-1.5737175,2.402609,-0.21018136,0.2382498,-0.29995126,0.06667361,-0.022416474,-0.26621425,-0.4405331,0.17238252,-9.289502,0.9410752,47.67614,-1.4195352,-1.8129,-3.2961333,-0.2201773,-0.3144916,-0.31873438,28.375,29.5625,28.8125,32.8125,35.1875,36.25
0.36605185,-1.2452139,-0.87641823,-1.2716488,-0.026103526,0.037954926,-0.14851424,-0.41232613,-0.34016082,0.060033876,-3.0782883,0.60794777,4.150475e-05,-0.17602761,0.04625075,0.0020123913,0.021448692,0.0068931947,0.053354066,0.43764973,-1.3836021,1.9058751,-2.0893319,-1.5738019,2.4020944,-0.21107194,0.23986115,-0.3019608,0.06420845,-0.02345172,-0.26418433,-0.30645782,0.21068975,-9.2703495,1.0126908,47.690468,-1.4602369,-1.9380729,-3.4499402,-0.18909545,-0.27893788,-0.3907773,28.375,29.5625,28.8125,32.8125,35.1875,36.25
0.36805186,-0.9804058,-1.2371631,-1.3662245,-0.041525338,0.03716304,-0.15045933,-0.41269252,-0.34005088,0.06003356,-3.0782604,0.6078032,7.566332e-05,-0.17679875,0.045738332,0.0023571989,0.019876232,0.008353759,0.060419496,0.43719354,-1.3831092,1.9052647,-2.0892007,-1.5738615,2.4015517,-0.21108416,0.2403176,-0.3030863,0.06283753,-0.022672178,-0.27126426,-0.30645782,0.19153613,-9.346964,0.9612189,47.677036,-1.3917352,-1.9344103,-3.418343,-0.14960033,-0.27927536,-0.35784692,28.375,29.5625,28.8125,32.8125,35.1875,36.25
0.37005177,-0.72851527,-1.313044,-1.0570338,-0.06834841,0.05496384,-0.16437759,-0.41304266,-0.33994612,0.06000711,-3.0782192,0.60753936,3.322103e-05,-0.17860027,0.046688296,0.0025475638,0.018820202,0.009321007,0.070616566,0.43676037,-1.3825688,1.9046549,-2.0890567,-1.5739216,2.4009593,-0.2143229,0.2410775,-0.30433527,0.061932817,-0.022181287,-0.2847,-0.30645782,0.22984336,-9.385271,0.9298854,47.67614,-1.283405,-1.898066,-3.470039,-0.12994935,-0.26888072,-0.21799994,28.375,29.5625,28.8125,32.8125,35.1875,36.25
0.37205178,-1.2176008,-1.1094753,-1.5025227,-0.06411204,0.05663583,-0.15942685,-0.41340002,-0.3398777,0.060046617,-3.0783036,0.60734206,9.01794e-05,-0.18041691,0.047264397,0.0022540616,0.019323345,0.009236192,0.07588155,0.43633988,-1.3821354,1.9040207,-2.0889132,-1.5739092,2.4004052,-0.21633838,0.244122,-0.3074243,0.062239986,-0.022607638,-0.29197866,-0.24899697,0.19153613,-9.519346,0.900793,47.64479,-1.3065188,-1.8928256,-3.4526634,-0.090760335,-0.24216603,-0.10840505,28.375,29.5625,28.8125,32.8125,35.1875,36.25
0.37405175,-1.8838695,-1.4626049,-1.2432137,-0.053098094,0.05979426,-0.14382638,-0.41376138,-0.3397754,0.060034674,-3.078301,0.6070763,9.713881e-05,-0.18038836,0.048068777,0.0018775305,0.020389067,0.008261752,0.07047505,0.43589562,-1.3816193,1.9034113,-2.088793,-1.5739578,2.3997955,-0.2171589,0.24441402,-0.30721194,0.063062504,-0.023157073,-0.2873904,-0.36391866,0.22984336,-9.500193,0.98807013,47.63315,-1.2856785,-1.6980448,-3.5622926,-0.061627433,-0.23979689,-0.1324452,28.375,29.5625,28.8125,32.8125,35.1875,36.25
0.37605175,-1.5956029,-0.9617959,-0.94333875,-0.050116394,0.0843794,-0.14399888,-0.4141181,-0.33967328,0.060035568,-3.078284,0.6069075,0.00014423813,-0.18159834,0.04929812,0.0018236409,0.020269118,0.007602518,0.055750992,0.43546268,-1.3811381,1.9028138,-2.0886734,-1.5740174,2.3992596,-0.22033753,0.24522513,-0.30835772,0.06395484,-0.0227454,-0.27584618,-0.8236054,0.24899697,-9.404425,0.9992599,47.682407,-1.1339686,-1.6670654,-3.5974467,-0.059200734,-0.23061697,-0.25853097,28.375,29.5625,28.8125,32.8125,35.1875,36.25
