Tylouw/Master_Thesis_Code/training_data/batch_1/small_rod_t0.3/sample_24_session_1.csv
timestamp[s],tcp_force_x[N],tcp_force_y[N],tcp_force_z[N],tcp_force_rx[Nm?],tcp_force_ry[Nm?],tcp_force_rz[Nm?],tcp_pose_x[m],tcp_pose_y[m],tcp_pose_z[m],tcp_pose_rx[rot_vec_x],tcp_pose_ry[rot_vec_y],tcp_pose_rz[rot_vec_z],tcp_velo_x[m/s],tcp_velo_y[m/s],tcp_velo_z[m/s],tcp_velo_rx[rot_vec_x/s],tcp_velo_ry[rot_vec_y/s],tcp_velo_rz[rot_vec_z/s],q1[rad],q2[rad],q3[rad],q4[rad],q5[rad],q6[rad],qd1[rad/s],qd2[rad/s],qd3[rad/s],qd4[rad/s],qd5[rad/s],qd6[rad/s],tool_acc_x,tool_acc_y,tool_acc_z,current_of_whole_robot[A],voltage_of_whole_robot[V],current_J1[A],current_J2[A],current_J3[A],current_J4[A],current_J5[A],current_J6[A],temp_J1[C],temp_J2[C],temp_J3[C],temp_J4[C],temp_J5[C],temp_J6[C]
8.43982e-07,-0.9815792,-1.5123144,0.040268153,-0.020639027,0.018874776,-0.007019167,-0.38104644,-0.34852558,0.059961442,-3.0785148,0.62483865,-0.0002319471,0.001979721,0.0010028267,-0.0022300235,0.002822138,-0.0057118293,-0.00027827875,0.4777981,-1.4259334,1.9577268,-2.1008084,-1.5707458,2.4527283,-3.5275305e-05,0.0017110409,0.0027004126,0.0019579665,0.00013075068,0.00024128438,0.076614454,0.17238252,-8.810662,0.7620334,47.698532,0.02783652,-2.8830636,-2.3544297,-0.43321714,0.10365448,0.15478273,28.375,29.5625,28.8125,32.875,35.25,36.25
0.002054432,-0.8021136,-1.2405425,0.22999384,-0.017497895,0.017523,-0.011005441,-0.38106114,-0.3485313,0.059972916,-3.078528,0.62480277,-0.00016139247,0.0005748193,0.00027100038,-0.0033394354,0.00036202892,-0.0009941017,-0.00030225774,0.47781014,-1.4259326,1.9577035,-2.100824,-1.5707697,2.4527164,-3.4597273e-05,0.0035116444,0.0054236446,-0.0078864815,0.00012921687,0.00026683562,0.0,0.19153613,-8.791509,0.7351769,47.684196,-0.0009955689,-2.8564167,-2.5259223,-0.4467797,0.09451127,0.16522735,28.375,29.5625,28.8125,32.875,35.25,36.25
0.004054123,-0.1931774,-0.6601233,0.09710271,-0.021850558,0.025948407,-0.020887062,-0.38103476,-0.34851804,0.05993964,-3.0784838,0.6247361,-0.00018179324,-0.0015386761,-0.0008293894,-0.0021104629,-0.0026640606,0.0048234584,-0.00029130268,0.47783422,-1.4259208,1.9577745,-2.1008613,-1.5708054,2.4527044,-3.394485e-05,0.003329799,0.003934783,-0.012773299,0.00012669325,0.0002582366,0.05746084,0.076614454,-8.772355,0.8314132,47.716442,-0.030810287,-3.112596,-2.7053504,-0.31161648,0.081142925,0.1591118,28.375,29.5625,28.8125,32.875,35.25,36.25
0.006053542,-0.23159385,-0.77466136,-0.124587215,0.002813014,0.008555084,-0.008858811,-0.3810863,-0.34852892,0.05997827,-3.0785427,0.6249015,-3.5517e-05,-0.0010362102,-0.00056662195,-0.000929086,-0.0019200516,0.0034102043,-0.000311802,0.4777981,-1.4259454,1.9577273,-2.100919,-1.5707935,2.452764,-3.3316555e-05,0.0014960639,0.0021348277,-0.0075424863,0.00012420044,0.00027895317,0.019153614,0.15322891,-8.676587,0.73069996,47.690468,0.022947138,-3.051548,-2.5721374,-0.33434722,0.07873202,0.16746974,28.375,29.5625,28.8125,32.875,35.25,36.25
0.008053412,-0.2760731,-0.45447296,-0.50670856,0.031159453,-0.013761285,0.0028429586,-0.38105783,-0.34852958,0.059954662,-3.0785165,0.6248196,-0.00017701802,-0.000274123,-0.00016881118,-0.000282257,-0.00083846995,0.0013455098,-0.0003055256,0.47781014,-1.4259099,1.9577268,-2.1008575,-1.5707697,2.4527283,-3.2711123e-05,0.00013711324,0.0011388122,-0.0028567037,0.00012179947,0.00027262061,-0.019153614,0.15322891,-8.714894,0.70608455,47.674347,0.018923007,-2.898045,-2.5268514,-0.37549883,0.07935859,0.16336112,28.375,29.5625,28.8125,32.875,35.25,36.25
0.01005338,0.05025324,-0.3326957,-0.83208746,0.022732256,-0.008197438,-0.010493996,-0.3810242,-0.34853205,0.05992224,-3.0785153,0.62474227,-0.00029976817,-2.0108055e-05,-3.0053992e-05,-0.00018878345,-0.00034276277,0.00039946235,-0.00032468722,0.47782207,-1.425886,1.9577736,-2.100857,-1.5707334,2.452692,-4.269912e-05,1.839549e-06,0.00070733833,-0.0012219168,0.0001194894,0.00028165814,-0.019153614,0.17238252,-9.040505,0.7038487,47.652847,-0.4433456,-2.4495842,-2.9421444,-0.4260543,0.08209801,0.096901536,28.375,29.5625,28.8125,32.875,35.25,36.25
0.012054282,-0.53051645,-1.2676724,-1.087185,-0.011803329,0.008231842,-0.0075563495,-0.38103843,-0.3485307,0.059934683,-3.078497,0.6248532,-0.00023202768,-0.00019947677,-3.8536127e-05,-0.0018876656,0.0012241134,-0.002658925,0.0008069678,0.477822,-1.4258969,1.9577602,-2.100869,-1.5707573,2.4527636,-0.00020489065,0.004500651,-0.0005910495,-0.0009862188,0.00013182296,-0.0010108815,0.076614454,0.076614454,-9.251196,0.7418897,47.655537,-0.741246,-2.3751826,-2.9577692,-0.41752237,0.11156236,0.053529598,28.375,29.5625,28.8125,32.875,35.25,36.25
0.014054064,-1.3676765,-1.9820713,-1.2644385,-0.046766955,0.019273857,-0.006711881,-0.3810385,-0.34850824,0.0599037,-3.0784352,0.6248448,-0.00035324227,-0.004749868,0.0041019213,-0.004888666,0.0040470436,-0.008125764,-0.006862343,0.47778198,-1.4258335,1.9577478,-2.1008208,-1.5707573,2.4527261,-0.01178399,0.013224153,-0.0038256843,-0.00032304195,0.00013144917,-0.004917794,0.0,0.19153613,-9.404425,0.8403672,47.733456,-0.36669672,-3.0525215,-3.0060427,-0.4408698,0.10730323,0.04537279,28.375,29.5625,28.8125,32.875,35.25,36.25
0.01605405,-1.4095154,-2.2379239,-1.3062218,-0.06892644,0.05060009,-0.021841096,-0.38103747,-0.34850928,0.05989243,-3.0784395,0.6248451,-0.0004044054,-0.006217924,0.0045820368,-0.0031920953,0.0024503297,-0.005087377,-0.004761179,0.47776926,-1.4258105,1.9577473,-2.1008208,-1.5707334,2.452713,-0.014006054,0.0107577,-0.004921576,-0.00019354495,0.0001481379,-0.009240922,-0.24899697,0.21068975,-9.461885,0.80456203,47.70659,-0.27573374,-2.982846,-2.978611,-0.46811348,0.13569015,0.05317307,28.375,29.5625,28.8125,32.875,35.25,36.25
0.018054076,-2.1766052,-2.2108488,-1.446768,-0.06124416,0.057757303,-0.026086584,-0.3810484,-0.34850192,0.05990231,-3.0784476,0.6248446,-0.0003906895,-0.00550143,0.003807189,-0.0026543515,0.0008709426,-0.0047982717,-0.002263569,0.47774577,-1.425823,1.9577364,-2.1008089,-1.570733,2.4526882,-0.012789562,0.009237672,-0.0044270814,-0.00015569989,0.0014183512,-0.010524948,-0.34476504,0.19153613,-9.615114,0.71279734,47.696735,-0.55779094,-2.6800885,-3.1900644,-0.49180335,0.13525435,0.069331124,28.375,29.5625,28.8125,32.875,35.25,36.25
0.020053834,-1.5881813,-1.2800788,-1.3782778,-0.050229996,0.09063435,-0.039293136,-0.38105777,-0.3484932,0.05988301,-3.078425,0.624842,-0.0004372932,-0.005901157,0.0039312937,-0.003426527,-0.0005782073,-0.0071661454,-0.0043816525,0.47772092,-1.4257742,1.9577249,-2.1008089,-1.570732,2.4526646,-0.014924315,0.011094795,-0.0047573247,-0.0002546545,0.00379247,-0.010545783,-0.4405331,0.28730422,-9.691729,0.784413,47.674347,-0.61012304,-2.6409864,-3.3372302,-0.4963554,0.10495815,0.014981401,28.375,29.5625,28.8125,32.875,35.25,36.25
0.022053532,-2.3509068,-1.2131659,-1.5980582,-0.019657003,0.07842306,-0.039839003,-0.3810517,-0.34848252,0.059861504,-3.0784042,0.6248577,-0.00056123966,-0.0069316593,0.0042344015,-0.0036805202,-0.0020585235,-0.008315479,-0.005695311,0.477684,-1.425738,1.9577245,-2.1007726,-1.5706958,2.45264,-0.017613616,0.012529409,-0.0057988274,-0.00031392806,0.0056313714,-0.011924624,-0.49799395,0.22984336,-9.80665,0.69937176,47.682407,-0.59571016,-2.6046956,-3.4082112,-0.495252,0.09337327,-0.026323011,28.375,29.5625,28.8125,32.875,35.25,36.25
0.024054067,-1.7112045,-0.9672897,-1.6568893,-0.0037859904,0.08990496,-0.06143626,-0.3810807,-0.34848168,0.059851047,-3.0784366,0.6248642,-0.00052816817,-0.008901662,0.0037087582,-0.0030039947,-0.0036005562,-0.0067785834,-0.005141764,0.47764757,-1.4257013,1.957723,-2.100845,-1.5706834,2.4526036,-0.018928282,0.014424289,-0.009427991,-0.0006555774,0.0062850066,-0.013791713,-0.59376204,0.21068975,-9.883265,0.81351066,47.723602,-0.55746514,-2.6123502,-3.4366405,-0.5072765,0.07557304,-0.019723693,28.375,29.5625,28.8125,32.875,35.25,36.25
0.02605353,-2.5065634,-1.385898,-1.7782184,-0.0042391466,0.078217745,-0.06538624,-0.38107392,-0.34847128,0.059841793,-3.0784042,0.6248768,-0.00058527174,-0.010311524,0.00329955,-0.0022134515,-0.0051394417,-0.0040357,-0.0045864508,0.47763538,-1.4256893,1.9577225,-2.1008098,-1.5706834,2.4526033,-0.019569581,0.014540736,-0.010979034,-0.0023646748,0.006382194,-0.014987672,-0.6895301,0.11492168,-9.902418,0.6098535,47.660015,-0.6549359,-2.5889258,-3.385189,-0.5269167,0.07299085,-0.010994913,28.375,29.5625,28.8125,32.875,35.25,36.25
0.028053345,-2.2825294,-1.3231846,-1.8139133,-0.021765452,0.09124066,-0.08233435,-0.38112453,-0.34845966,0.059836708,-3.0783885,0.62498885,-0.0005423642,-0.011088972,0.0023838973,-0.0024759413,-0.0066272593,-0.003174447,-0.0047957664,0.47757557,-1.4256287,1.9576734,-2.100847,-1.5706953,2.4526155,-0.019257411,0.01656199,-0.012163798,-0.0046529896,0.007300456,-0.014466475,-0.80445176,0.095768064,-9.825804,0.779936,47.67614,-0.77919126,-2.5368018,-3.394278,-0.5035825,0.08045462,-0.017719563,28.375,29.5625,28.8125,32.875,35.25,36.25
0.030053897,-2.5651958,-1.557405,-1.6851552,-0.029032221,0.08796298,-0.09113369,-0.38110694,-0.3484815,0.059824944,-3.0784333,0.6248833,-0.000619739,-0.0123210065,0.0021148548,-0.0016857884,-0.008129794,-0.002146903,-0.0060146027,0.47759902,-1.4256047,1.957673,-2.1008465,-1.5706466,2.4525673,-0.020477857,0.01691761,-0.014449331,-0.004328872,0.008158032,-0.014468842,-0.63206923,0.0,-9.902418,0.7978386,47.693153,-0.7519041,-2.5477977,-3.343698,-0.4893745,0.05319165,-0.036206868,28.375,29.5625,28.8125,32.875,35.25,36.25
0.03205358,-2.6266956,-1.599567,-1.6410804,-0.028610574,0.0757609,-0.099525996,-0.38116845,-0.34845263,0.059829313,-3.0783901,0.6249525,-0.000584932,-0.012696645,0.002999141,-0.0021777058,-0.007563902,-0.0039614937,-0.0077303126,0.47751427,-1.4255444,1.9575886,-2.1008217,-1.5706829,2.4525313,-0.02261183,0.017855795,-0.014654516,-0.0031912646,0.008491476,-0.01488776,-0.6512228,0.0,-9.883265,0.7463667,47.690468,-0.73014563,-2.5606022,-3.3327217,-0.51446575,0.057762846,-0.06396302,28.375,29.5625,28.8125,32.875,35.25,36.25
0.034054063,-2.1265087,-1.6972344,-1.7329394,-0.008701431,0.07234807,-0.10740956,-0.38118574,-0.3484385,0.05981588,-3.0783904,0.62502897,-0.00067528966,-0.01420064,0.0030333647,-0.0011371098,-0.008653325,-0.0022823366,-0.008302683,0.47744188,-1.4255086,1.9575757,-2.1008098,-1.5706347,2.4525065,-0.024187118,0.017783515,-0.017062247,-0.002702635,0.0086823255,-0.015890261,-0.7086837,0.076614454,-9.902418,0.7016076,47.717335,-0.7942289,-2.5348346,-3.3565145,-0.53772146,0.06848177,-0.05884987,28.375,29.5625,28.8125,32.875,35.25,36.25
0.03605343,-1.554296,-0.74389076,-1.6700057,-0.0060676946,0.073158756,-0.12998378,-0.3812273,-0.34845722,0.059841733,-3.0784788,0.62508523,-0.000605803,-0.014971645,0.0032059976,-0.00066122256,-0.009242169,-0.0012582584,-0.008602978,0.47740537,-1.4255086,1.9575275,-2.1008575,-1.5705866,2.452494,-0.02523795,0.017500766,-0.017788462,-0.002872899,0.008734065,-0.01663971,-0.53630114,-0.019153614,-9.825804,0.7016076,47.67614,-0.792406,-2.477664,-3.346622,-0.5520523,0.053060677,-0.09737007,28.375,29.5625,28.8125,32.875,35.25,36.25
0.038053907,-1.6357684,-1.1347657,-1.6289796,0.007944376,0.06716687,-0.14650106,-0.38124114,-0.3484263,0.059805915,-3.0783947,0.6250875,-0.0006450384,-0.016933221,0.0035314295,-0.00053095317,-0.009425549,0.0012107872,-0.009102959,0.4773689,-1.4254363,1.957527,-2.1008584,-1.5706347,2.4524696,-0.026993567,0.01897831,-0.019251866,-0.005161277,0.007752368,-0.01789255,-0.4213795,-0.076614454,-9.749189,0.7642693,47.69763,-0.7703054,-2.4224586,-3.3488493,-0.53456104,0.06409317,-0.09447786,28.375,29.5625,28.8125,32.875,35.25,36.25
0.04005384,-1.5282408,-1.2049907,-1.4920516,0.0034789324,0.07202165,-0.15288672,-0.3812565,-0.34841552,0.059801888,-3.078379,0.6251809,-0.0006974037,-0.018968614,0.00368137,0.00052304287,-0.010454669,0.0049191853,-0.009879864,0.4773203,-1.4254123,1.9575037,-2.100835,-1.5706114,2.4524813,-0.02862267,0.01875628,-0.02100072,-0.006953394,0.006954266,-0.018742096,-0.28730422,-0.076614454,-9.653421,0.71951014,47.670765,-0.73648465,-2.3490014,-3.306544,-0.49587685,0.08406182,-0.10312957,28.375,29.5625,28.8125,32.875,35.25,36.25
0.04205343,-1.2118431,-0.80790156,-1.384408,-0.0076508443,0.065176085,-0.1782415,-0.3813408,-0.34842265,0.059826255,-3.0784826,0.62520295,-0.00061226,-0.020035578,0.0043386864,0.0006113689,-0.010397923,0.005521308,-0.011047072,0.47722363,-1.4253643,1.9574069,-2.1008952,-1.5705632,2.4523852,-0.030559167,0.01919362,-0.021629471,-0.007267966,0.0066277757,-0.019509546,-0.24899697,-0.095768064,-9.653421,0.7597976,47.652847,-0.7049654,-2.3459616,-3.331105,-0.48507732,0.09024589,-0.14110897,28.375,29.5625,28.8125,32.875,35.25,36.25
0.04405428,-1.0605836,-1.218504,-1.3832856,-0.0035273,0.044946596,-0.177831,-0.38135093,-0.34839422,0.05980087,-3.0784028,0.6252633,-0.00065079366,-0.020379705,0.004665414,0.00024004173,-0.010301157,0.0040976,-0.011157345,0.47718725,-1.4253159,1.9574069,-2.1008828,-1.5705994,2.4523966,-0.031826746,0.020402849,-0.022346381,-0.0064537018,0.0071945945,-0.020668002,-0.15322891,0.0,-9.5385,0.75755644,47.677036,-0.73497266,-2.4051623,-3.3713818,-0.48835576,0.065888196,-0.13595617,28.375,29.5625,28.8125,32.875,35.25,36.25
0.04605363,-1.2197809,-1.3190157,-1.4553008,-0.007268916,0.015209061,-0.19728437,-0.38143358,-0.3484027,0.059864767,-3.0785265,0.625328,-0.0004806299,-0.021666523,0.005069619,0.0008649353,-0.010951888,0.0051246984,-0.011917613,0.47710246,-1.425352,1.9573101,-2.1009185,-1.5705632,2.4523365,-0.033797815,0.020413524,-0.023848675,-0.006172282,0.0073021757,-0.02187708,-0.11492168,0.019153614,-9.404425,0.72622824,47.68599,-0.6926216,-2.3441968,-3.3392882,-0.51273245,0.084668905,-0.16278702,28.375,29.5625,28.8125,32.875,35.25,36.25
0.048053525,-0.55568606,-1.4327999,-1.430818,-0.0029582374,0.016080098,-0.19900806,-0.38145706,-0.3483878,0.0598264,-3.0784748,0.62535554,-0.0005690466,-0.023126366,0.005015762,0.0017058487,-0.011665325,0.0072771152,-0.011649394,0.47705415,-1.425244,1.9572748,-2.100919,-1.5705632,2.452312,-0.034814693,0.020620735,-0.025925944,-0.006540197,0.0069406494,-0.02316087,-0.076614454,0.11492168,-9.461885,0.7911258,47.660015,-0.7430567,-2.3339252,-3.2118564,-0.5108726,0.08977535,-0.189194,28.375,29.5625,28.8125,32.875,35.25,36.25
0.050053675,-0.44300964,-1.6479255,-1.3626999,-0.010866193,0.024732083,-0.18673752,-0.3815136,-0.3483587,0.059858248,-3.0784914,0.62541735,-0.00048454307,-0.023779329,0.005363441,0.001534215,-0.011992965,0.006872858,-0.011868695,0.4769576,-1.4252677,1.9572262,-2.1009066,-1.5705746,2.452252,-0.036341537,0.021439739,-0.026445637,-0.0066320696,0.0074180225,-0.024468465,-0.095768064,0.095768064,-9.481039,0.7620334,47.66271,-0.6793746,-2.2819679,-3.3015528,-0.50401527,0.10717469,-0.17816135,28.375,29.5625,28.8125,32.875,35.25,36.25
0.052053347,-0.7441329,-2.0140913,-1.5170784,-0.017670462,0.023630738,-0.15913825,-0.38157174,-0.34837022,0.05985681,-3.0785568,0.6254488,-0.00050001603,-0.024723781,0.0052366247,0.0017556583,-0.0139459735,0.006794371,-0.011919834,0.476885,-1.4251835,1.9571418,-2.1009429,-1.5705141,2.4521906,-0.038132105,0.022113653,-0.027654028,-0.0069285794,0.009187029,-0.026210053,-0.038307227,0.21068975,-9.557653,0.74413085,47.705692,-0.6989546,-2.2262173,-3.252665,-0.49749488,0.08992858,-0.20701872,28.375,29.5625,28.8125,32.875,35.25,36.25
0.05405387,-1.2140375,-1.9462129,-1.480721,-0.023519833,0.019021893,-0.16337593,-0.38160205,-0.34833643,0.059846222,-3.0785313,0.6254433,-0.0004902387,-0.025700469,0.0053575994,0.002171623,-0.014313461,0.00755356,-0.011574814,0.4768127,-1.4251595,1.9571413,-2.1009548,-1.5705384,2.4521182,-0.039230846,0.022544762,-0.029146945,-0.00670973,0.009162481,-0.0276531,0.0,0.22984336,-9.461885,0.8493211,47.72002,-0.7175492,-2.2051907,-3.2630496,-0.50302374,0.083992675,-0.20871803,28.375,29.5625,28.8125,32.875,35.25,36.25
0.05605418,-1.1711359,-2.3351219,-1.2697692,-0.021155579,0.020570967,-0.16168563,-0.38167062,-0.3483402,0.059858758,-3.0785604,0.625545,-0.00045627792,-0.02624311,0.0056110416,0.0021320367,-0.014610242,0.0070787137,-0.011012651,0.47674024,-1.4250875,1.957033,-2.1009662,-1.5705141,2.4521055,-0.040489234,0.02319583,-0.0298845,-0.00633778,0.009645066,-0.029473675,0.05746084,0.22984336,-9.423578,0.7217513,47.682407,-0.72325253,-2.2049754,-3.2250423,-0.50348055,0.1012533,-0.22512102,28.375,29.5625,28.8125,32.875,35.25,36.25
0.058054075,-1.0412742,-1.9757229,-1.456259,-0.02321544,0.020961797,-0.16509323,-0.38172087,-0.34831905,0.05986562,-3.0785568,0.6256019,-0.00044272508,-0.026977481,0.005654017,0.0023804104,-0.015230455,0.007237576,-0.009898729,0.47665587,-1.4250513,1.9569734,-2.1009543,-1.5705136,2.4520571,-0.041548513,0.023705706,-0.031097164,-0.006061417,0.010122093,-0.03164697,0.038307227,0.2681506,-9.346964,0.784413,47.678825,-0.74712056,-2.1877584,-3.2355194,-0.51101464,0.10843416,-0.24366209,28.375,29.5625,28.8125,32.875,35.25,36.25
0.06005387,-0.4835523,-1.7040899,-1.3947867,-0.027435252,0.032229733,-0.16391537,-0.38181004,-0.34832668,0.059895106,-3.0786457,0.6256387,-0.00031908034,-0.02773078,0.0052877725,0.0027243157,-0.016234444,0.008067812,-0.008631626,0.47657162,-1.425003,1.9568647,-2.1010144,-1.5704898,2.4519846,-0.041916404,0.024295297,-0.032457672,-0.0064888494,0.010634106,-0.033280723,-0.05746084,0.2681506,-9.346964,0.7911258,47.69763,-0.7686562,-2.1842248,-3.219643,-0.51041526,0.09635066,-0.23594579,28.375,29.5625,28.8125,32.875,35.25,36.25
0.06205346,-0.3034373,-1.7679709,-1.2658151,-0.025894066,0.031385858,-0.1727051,-0.38183415,-0.34830087,0.059872802,-3.0786235,0.625652,-0.00041813252,-0.028612886,0.0052588196,0.0023955551,-0.01681807,0.0078049917,-0.007986655,0.47648737,-1.4249426,1.9568413,-2.1009905,-1.570465,2.4519114,-0.04308829,0.026101626,-0.033612598,-0.007174729,0.011267987,-0.035098307,-0.038307227,0.24899697,-9.461885,0.8112748,47.699425,-0.83781564,-2.171645,-3.2185125,-0.52454096,0.08656214,-0.24792257,28.375,29.5625,28.8125,32.875,35.25,36.25
0.06405405,-0.7496796,-1.996384,-1.2445571,-0.024103643,0.025910763,-0.1585195,-0.38190728,-0.34830904,0.05991209,3.0786164,-0.6256499,0.00028338563,-0.029361138,0.005266417,0.0021768543,-0.017201763,0.007459501,-0.00730047,0.47642693,-1.4249301,1.9567455,-2.1010268,-1.5704535,2.4518507,-0.044110734,0.02761132,-0.03478682,-0.007379624,0.011769285,-0.03680551,-0.1340753,0.2681506,-9.442732,0.81351066,47.71465,-0.8938628,-2.220036,-3.3151517,-0.5114453,0.09987594,-0.26942077,28.375,29.5625,28.8125,32.875,35.25,36.25
0.066054255,-1.0623881,-1.8856934,-1.2198412,-0.02208549,0.030052355,-0.15839875,-0.38193825,-0.34829086,0.059864417,3.078612,-0.62564874,0.00045651975,-0.030008974,0.004988524,0.002490214,-0.017817276,0.007817542,-0.0062233726,0.47631893,-1.42481,1.9567202,-2.1010387,-1.570381,2.4517424,-0.04445524,0.028298406,-0.03635491,-0.0070961397,0.012147631,-0.03822789,-0.15322891,0.21068975,-9.519346,0.7150385,47.705692,-0.96358716,-2.2122946,-3.1758308,-0.51068443,0.090843484,-0.2578758,28.375,29.5625,28.8125,32.875,35.25,36.25
0.0680533,-1.1116705,-1.6623166,-1.2244595,-0.022291884,0.040472623,-0.1611781,-0.38202578,-0.3482689,0.059895597,3.0785375,-0.62574846,0.00035456262,-0.030239305,0.00454366,0.0027141552,-0.019489363,0.007364471,-0.0044668503,0.47619882,-1.4247861,1.9566244,-2.1010506,-1.5703806,2.451694,-0.04496878,0.028549554,-0.037205152,-0.006865051,0.013844858,-0.040499195,-0.095768064,0.17238252,-9.461885,0.7396539,47.660015,-1.0232766,-2.146778,-3.1985817,-0.5125931,0.06859404,-0.27299595,28.375,29.5625,28.8125,32.875,35.25,36.25
0.0700541,-1.2716961,-1.5008078,-1.1863191,-0.016759213,0.049798366,-0.15933605,-0.38206106,-0.34827104,0.059903644,3.0785253,-0.62568825,0.00033771447,-0.031211494,0.0045968066,0.0030565176,-0.020128092,0.008304802,-0.004380126,0.47616234,-1.42475,1.9565648,-2.1010506,-1.5703686,2.4516215,-0.0460431,0.028976034,-0.038390372,-0.007234043,0.013979524,-0.041659392,-0.1340753,0.1340753,-9.423578,0.77545905,47.653748,-1.0755138,-2.1159565,-3.2172894,-0.503221,0.0672775,-0.2864439,28.375,29.5625,28.8125,32.875,35.25,36.25
0.0720537,-1.4914138,-1.3974717,-1.0910064,-0.013465337,0.050299596,-0.15521415,-0.3821601,-0.348257,0.059913885,3.0784545,-0.6257119,0.00027327967,-0.031696636,0.0043950295,0.0025239836,-0.020623395,0.0076299533,-0.0044407533,0.4760303,-1.4246656,1.9564561,-2.1010988,-1.5703443,2.4515133,-0.046608012,0.030865343,-0.039160166,-0.007980435,0.014730838,-0.04216295,-0.17238252,0.114921674,-9.442732,0.784413,47.661808,-1.1938211,-2.1198697,-3.1965861,-0.49977976,0.055106103,-0.2742884,28.375,29.5625,28.8125,32.875,35.25,36.25
0.074053586,-1.5893079,-1.7053468,-1.0951422,0.0036225196,0.047278166,-0.15282886,-0.38217503,-0.34824345,0.05987951,3.0784411,-0.6257663,0.00044806537,-0.03242315,0.0047557275,0.0022904144,-0.019649355,0.0075212643,-0.0035701706,0.47594592,-1.424581,1.9564327,-2.101075,-1.5702728,2.4514644,-0.0473831,0.032306947,-0.040340036,-0.0076914798,0.013910578,-0.04380783,-0.15322891,0.15322891,-9.481039,0.88960326,47.73883,-1.1996734,-2.2231648,-3.193846,-0.5050114,0.055540625,-0.3101021,28.375,29.5625,28.8125,32.875,35.25,36.25
0.076054506,-1.7558482,-1.0695113,-0.93063617,-0.00793379,0.03769916,-0.15444848,-0.38226682,-0.34824124,0.05991708,3.078376,-0.6256947,0.00032618907,-0.034455236,0.004238358,0.00362599,-0.021398794,0.0104210535,-0.0019496713,0.4758497,-1.4245449,1.9563111,-2.1010988,-1.5702609,2.4513319,-0.048470784,0.032781005,-0.04385496,-0.008027673,0.014135264,-0.046512917,-0.28730422,0.11492168,-9.346964,0.7642693,47.719128,-1.2521796,-2.1839175,-3.1245565,-0.49527127,0.041489914,-0.31780502,28.375,29.5625,28.8125,32.875,35.25,36.25
0.07805426,-1.1714379,-0.6619869,-0.867872,-0.012935843,0.04938869,-0.16509779,-0.3823204,-0.34821212,0.05989655,3.0783749,-0.62573487,0.00036964365,-0.034410648,0.005917689,0.0017087102,-0.01890182,0.0074610705,-0.0053341626,0.47574076,-1.4244604,1.9562644,-2.1011107,-1.570249,2.4512482,-0.050848637,0.034978356,-0.041900158,-0.008400043,0.013275466,-0.045505933,-0.22984336,0.076614454,-9.423578,0.7933669,47.70032,-1.1535223,-2.2631326,-3.1377027,-0.4951765,0.033274278,-0.31554163,28.375,29.5625,28.8125,32.875,35.25,36.25
0.08005398,-1.4647871,-0.9860447,-0.79177165,-0.011671384,0.04579718,-0.1555884,-0.38239998,-0.34822372,0.05992167,3.078275,-0.62577075,0.00031375114,-0.034733944,0.0054976856,0.001614812,-0.01877519,0.007344406,-0.004044802,0.4756568,-1.4244002,1.9561437,-2.101135,-1.5702008,2.4511993,-0.050353196,0.036393866,-0.043345787,-0.008204372,0.013218832,-0.046297744,-0.34476504,0.0,-9.3661175,0.8112748,47.647476,-1.2539467,-2.2564957,-3.2937675,-0.49140233,0.049883086,-0.37304896,28.375,29.5625,28.8125,32.875,35.25,36.25
0.08205407,-1.2244955,-0.8739346,-0.7335219,-0.016708296,0.057992786,-0.15985733,-0.3824669,-0.34821972,0.059929922,3.078268,-0.6256732,0.00032283601,-0.03589451,0.0055359956,0.002387563,-0.019388903,0.009049448,-0.0023806659,0.47557253,-1.4243163,1.9560236,-2.1011107,-1.570177,2.451055,-0.051326632,0.036291514,-0.044985157,-0.008255253,0.012982173,-0.048934024,-0.21068975,0.11492168,-9.404425,0.8112748,47.685097,-1.4276805,-2.1840875,-3.0266237,-0.5117479,0.03861487,-0.36478555,28.375,29.5625,28.8125,32.875,35.25,36.25
0.0840539,-1.6945907,-1.1388999,-1.0784727,-0.0034165243,0.044186626,-0.15704842,-0.3825536,-0.348201,0.059951227,3.0781817,-0.6257112,0.00020286534,-0.037225176,0.006251232,0.0024206692,-0.019551773,0.00898063,-0.0011141127,0.47545174,-1.4242918,1.9559635,-2.1011827,-1.570165,2.450969,-0.0539282,0.037356924,-0.046339218,-0.007976757,0.013164239,-0.05280019,-0.24899697,0.1340753,-9.423578,0.8179876,47.690468,-1.3557014,-2.1312478,-3.1325238,-0.49035951,0.036531344,-0.33511388,28.375,29.5625,28.8125,32.875,35.25,36.25
0.08605413,-1.189571,-1.3673949,-1.1075479,-0.0004872351,0.056629624,-0.15613742,-0.3826141,-0.3481795,0.059949715,3.07817,-0.62571037,0.0002411365,-0.039585717,0.0076921,0.0020524217,-0.01931814,0.008984954,-0.0038287323,0.47534204,-1.4242193,1.9558786,-2.1011589,-1.5701407,2.4508603,-0.058513094,0.039697085,-0.04805293,-0.008495747,0.012951205,-0.054669015,-0.21068975,0.05746084,-9.442732,0.65908957,47.652847,-1.2627757,-2.279315,-3.0366452,-0.49856773,0.01465021,-0.34988183,28.375,29.5625,28.8125,32.875,35.25,36.25
0.08805393,-1.1322421,-0.8982014,-0.9225376,-0.024501473,0.05691229,-0.15925953,-0.38272265,-0.34817278,0.0599487,3.0781403,-0.62566507,0.00019725884,-0.038459457,0.0077730096,0.00075035356,-0.018068247,0.0065157893,-0.0025005767,0.47522244,-1.4240751,1.9557246,-2.1011946,-1.5701288,2.4507163,-0.057622164,0.040977195,-0.046539195,-0.00851981,0.012977344,-0.055106252,-0.34476507,0.095768064,-9.442732,0.78217715,47.66539,-1.3503234,-2.2531433,-3.1420357,-0.49553353,0.029566515,-0.34225988,28.375,29.5625,28.8125,32.875,35.25,36.25
0.09005373,-1.2327473,-1.125424,-0.82411736,-0.02319557,0.062025122,-0.16913126,-0.38277617,-0.34816387,0.059952363,3.0780888,-0.6256527,0.00021499507,-0.039800208,0.0077326135,0.0014980874,-0.018837504,0.008076322,0.0005723546,0.47512615,-1.424027,1.955664,-2.1012065,-1.5700806,2.4506187,-0.058754217,0.04132628,-0.048654024,-0.008487413,0.012946764,-0.05930978,-0.40222588,0.05746084,-9.423578,0.8493211,47.711964,-1.4479325,-2.275783,-3.2221136,-0.5057893,0.036363445,-0.3347838,28.375,29.5625,28.8125,32.875,35.25,36.25
0.09205354,-1.5079733,-1.2521557,-1.0103878,-0.014461396,0.059925206,-0.15817085,-0.38282812,-0.34813762,0.05993593,3.078096,-0.6256353,0.00028078034,-0.042430494,0.009058681,0.0021510336,-0.019083735,0.009918281,-0.0005653876,0.4750165,-1.423943,1.955603,-2.1011946,-1.5700573,2.4504974,-0.06311114,0.04198265,-0.05085243,-0.00868915,0.012318436,-0.06252739,-0.34476504,0.11492168,-9.308656,0.7418897,47.640312,-1.2519788,-2.2924187,-3.0710187,-0.50604945,0.033807814,-0.3099371,28.375,29.5625,28.8125,32.875,35.25,36.25
0.09405423,-1.5869291,-0.8826722,-0.8073727,-0.013837639,0.058729976,-0.15357822,-0.3829749,-0.3481235,0.059974924,3.0780065,-0.6256158,0.00013364994,-0.042650755,0.0090497285,0.0020811118,-0.019773379,0.009439091,0.0020128158,0.47484845,-1.4238467,1.9554123,-2.1012304,-1.5700449,2.4503286,-0.06382108,0.042379178,-0.05114997,-0.008675606,0.013162468,-0.06581468,-0.24899697,0.1340753,-9.385271,0.75084364,47.72719,-1.3009351,-2.2157457,-3.0598695,-0.5016869,0.045757998,-0.27356702,28.375,29.5625,28.8125,32.875,35.25,36.25
0.09605386,-1.1319128,-0.35107002,-0.68287903,-0.02714518,0.07495555,-0.17029917,-0.3830512,-0.34810564,0.05998313,3.0779216,-0.62573177,0.00013614283,-0.043889392,0.009681881,0.0020941778,-0.019518372,0.009692271,0.0034951193,0.4747157,-1.4237869,1.9553279,-2.1012423,-1.5699972,2.450279,-0.06584801,0.043490484,-0.052476037,-0.008561191,0.012823356,-0.06932226,-0.38307226,0.15322891,-9.3661175,0.7329411,47.66271,-1.3044891,-2.1841235,-3.1592126,-0.5089154,0.04217306,-0.26794118,28.375,29.5625,28.8125,32.875,35.25,36.25
0.098053426,-1.9403489,-1.0580084,-0.78589237,-0.011746275,0.06396609,-0.16463117,-0.38310167,-0.3480838,0.0599641,3.0779495,-0.6256018,0.00022998927,-0.044963185,0.009809509,0.0019092724,-0.020613194,0.009375788,0.005185874,0.474607,-1.4236903,1.9552559,-2.1012194,-1.569961,2.4500856,-0.06777396,0.045003597,-0.053661216,-0.009105748,0.013937796,-0.07293992,-0.47884035,0.076614454,-9.3661175,0.7933669,47.70211,-1.3466957,-2.2161634,-3.0474124,-0.49647444,0.023192395,-0.20954339,28.375,29.5625,28.8125,32.875,35.25,36.25
0.10005419,-1.5920125,-1.355512,-0.88154846,-0.0066259373,0.08003024,-0.16141665,-0.38322598,-0.34807807,0.059992462,3.0778704,-0.6255268,8.078274e-05,-0.046062525,0.010143495,0.0019163667,-0.020737546,0.009645362,0.007088412,0.4744746,-1.4236062,1.9551114,-2.101291,-1.5699486,2.4499166,-0.06935385,0.0461741,-0.054983526,-0.009245459,0.013935646,-0.076419644,-0.45968673,0.11492168,-9.308657,0.8179876,47.67614,-1.3267887,-2.1512797,-3.0953832,-0.4963833,0.027969755,-0.14199424,28.375,29.5625,28.8125,32.875,35.25,36.25
0.102054015,-1.5346525,-0.81558865,-0.87371784,-0.019728957,0.07997522,-0.17016745,-0.38327593,-0.34803835,0.05994751,3.0779421,-0.6254829,0.00017188276,-0.04711788,0.010458596,0.00224981,-0.021421226,0.010022548,0.007483212,0.47436586,-1.4234741,1.9550632,-2.101291,-1.5699605,2.4497714,-0.07115139,0.04658358,-0.056272935,-0.009012884,0.014365687,-0.078612976,-0.38307226,0.11492168,-9.442732,0.7777002,47.72002,-1.3260398,-2.159523,-3.0331247,-0.48929363,0.016725779,-0.120052755,28.375,29.5625,28.8125,32.875,35.25,36.25
0.10405377,-1.5763607,-1.0479122,-0.8707625,-0.015435035,0.074628815,-0.15833367,-0.38339454,-0.34801048,0.059987105,3.0778172,-0.6255176,0.00012521124,-0.048336495,0.011020438,0.0021532408,-0.021219961,0.010231104,0.005091424,0.4741612,-1.4234376,1.9549311,-2.101291,-1.569889,2.4496043,-0.0730706,0.04791566,-0.057538297,-0.009164019,0.014099418,-0.0781379,-0.49799395,0.038307227,-9.3661175,0.83589023,47.709274,-1.290548,-2.1746593,-2.9920912,-0.4973526,0.040803924,-0.09424344,28.375,29.5625,28.8125,32.875,35.25,36.25
0.10605424,-1.1741965,-0.74485296,-0.8347123,-0.016078757,0.07872196,-0.17191786,-0.38348356,-0.34799558,0.05998179,3.0778139,-0.625458,9.726989e-05,-0.049184706,0.011149951,0.0022620684,-0.02176522,0.01063641,0.005899394,0.4740527,-1.4233178,1.9548119,-2.1013148,-1.5698885,2.449459,-0.07425779,0.0486011,-0.05849887,-0.009496472,0.014401536,-0.08013239,-0.49799395,0.05746084,-9.385271,0.74413085,47.66271,-1.3342052,-2.168324,-3.0246613,-0.49762374,0.040992722,-0.05478438,28.375,29.5625,28.8125,32.875,35.25,36.25
0.10805399,-1.4121362,-1.0094755,-1.0834976,-0.009632777,0.06919395,-0.15436831,-0.3836054,-0.3479694,0.05999267,3.0777419,-0.6254863,6.0500293e-05,-0.051053356,0.012867417,0.0009391465,-0.020352481,0.008531103,-0.0024667187,0.47387132,-1.4232084,1.9546674,-2.1013386,-1.5698527,2.4493046,-0.07880782,0.052360285,-0.059787028,-0.009445792,0.014108632,-0.07631398,-0.51714754,0.11492168,-9.423578,0.7597976,47.677036,-1.1454383,-2.301058,-3.0187206,-0.49531758,0.030198954,-0.08110481,28.375,29.5625,28.8125,32.875,35.25,36.25
0.11005388,-1.1526926,-1.1172282,-1.0054104,-0.013039999,0.0797781,-0.16560617,-0.38371164,-0.34794345,0.05998719,3.0777223,-0.62550175,3.0957748e-05,-0.051614515,0.011978552,0.0027218582,-0.022480689,0.012189568,-0.0031674057,0.47372752,-1.423077,1.9545354,-2.1013625,-1.5698522,2.449173,-0.07786588,0.049877904,-0.06087966,-0.010097213,0.014332946,-0.07467095,-0.45968673,0.095768064,-9.442732,0.8112748,47.68062,-1.3269854,-2.176114,-2.9975047,-0.48416764,0.035975598,-0.07749849,28.375,29.5625,28.8125,32.875,35.25,36.25
0.11205371,-1.6368002,-0.8401698,-0.91060513,-0.023702513,0.07400006,-0.15784486,-0.38379228,-0.34791625,0.05998794,3.0776632,-0.6254727,8.706854e-05,-0.05296774,0.013025336,0.002535584,-0.022280918,0.011872768,-0.006888644,0.47355863,-1.4230045,1.954451,-2.1013625,-1.5697802,2.4489934,-0.080924995,0.05103568,-0.061815493,-0.009938721,0.014302032,-0.07400802,-0.4213795,0.15322891,-9.308656,0.7911258,47.695843,-1.3163438,-2.12677,-3.0374699,-0.4743896,0.03957562,-0.08868565,28.375,29.5625,28.8125,32.875,35.25,36.25
0.11405425,-1.3691676,-0.96521634,-1.0278503,-0.018996667,0.07522013,-0.15959014,-0.38389915,-0.34787637,0.059990216,3.07764,-0.6255484,7.255718e-05,-0.053706568,0.0134030245,0.0018886233,-0.022368044,0.010316109,-0.013067736,0.4733899,-1.4228958,1.9543189,-2.101351,-1.5697802,2.448875,-0.082760625,0.053181857,-0.06284653,-0.00971213,0.0150893275,-0.06966427,-0.4213795,0.076614454,-9.3661175,0.8314132,47.70211,-1.06881,-2.2181425,-3.0132322,-0.48555058,0.056764476,-0.16751106,28.375,29.5625,28.8125,32.875,35.25,36.25
0.11605366,-1.4925501,-0.93379295,-1.083538,-0.018269535,0.06839904,-0.16085699,-0.3840168,-0.34786206,0.05999031,3.0775616,-0.6255337,7.531614e-06,-0.05454884,0.01395585,0.001033268,-0.021528281,0.0094693955,-0.015404459,0.47323334,-1.4227748,1.9541997,-2.101435,-1.569744,2.4487193,-0.084257714,0.055600695,-0.063525654,-0.010309944,0.014733084,-0.0688223,-0.40222588,-0.019153614,-9.442732,0.7396539,47.66987,-1.2272977,-2.2229476,-3.0638933,-0.481786,0.05814069,-0.17104599,28.375,29.5625,28.8125,32.875,35.25,36.25
0.118053526,-1.3375862,-0.86397165,-1.0926481,-0.01810264,0.062059656,-0.15561083,-0.38413477,-0.34783354,0.05999951,3.0774581,-0.6256481,3.327524e-05,-0.05622668,0.014505277,0.0017411105,-0.022897646,0.011048492,-0.018867627,0.4730284,-1.4226667,1.9540552,-2.101435,-1.5696725,2.4485989,-0.087063566,0.055420697,-0.06481313,-0.010866492,0.015234363,-0.068164125,-0.38307226,0.0,-9.519346,0.7486078,47.647476,-1.1057016,-2.302566,-3.068184,-0.46783626,0.04699839,-0.21878648,28.375,29.5625,28.8125,32.875,35.25,36.25
0.12005412,-1.8357992,-1.2980584,-1.115321,-0.007294699,0.0419314,-0.15346995,-0.38425627,-0.34781465,0.06001058,3.077411,-0.6256592,-5.2515028e-05,-0.05736503,0.015616762,0.0017487794,-0.022444723,0.0113182105,-0.021752004,0.4728837,-1.4225465,1.9539007,-2.1014707,-1.5696725,2.4484673,-0.08971458,0.055731334,-0.065202124,-0.010818049,0.014715084,-0.067929134,-0.36391866,-0.038307227,-9.519346,0.69041777,47.639416,-1.0388143,-2.100506,-2.9999113,-0.4796831,0.066331275,-0.2422783,28.375,29.5625,28.8125,32.875,35.25,36.25
0.122053824,-0.7926714,-0.77324796,-1.0589935,-0.021892563,0.06530692,-0.15876248,-0.3843724,-0.34775063,0.060018644,3.0774062,-0.62573546,-9.051371e-05,-0.058161817,0.01576948,0.0012435699,-0.023043584,0.010233609,-0.023234235,0.47267902,-1.4224617,1.95378,-2.1014469,-1.5696958,2.4483109,-0.09135492,0.057719145,-0.066272855,-0.011044245,0.015744355,-0.06808687,-0.45968673,0.038307227,-9.500193,0.7866488,47.63852,-1.0624926,-2.2557902,-3.0899017,-0.45448363,0.0820231,-0.26548803,28.375,29.5625,28.8125,32.875,35.25,36.25
0.12405354,-0.7739763,-1.0624973,-1.1822417,-0.01283299,0.073933885,-0.1577128,-0.38447508,-0.34772107,0.05999106,3.0773284,-0.6258745,-4.142767e-06,-0.059971504,0.016278703,0.0016322345,-0.023560803,0.011158322,-0.02529461,0.47248605,-1.4223051,1.9536723,-2.101483,-1.5696238,2.4482145,-0.093910135,0.058883086,-0.068501994,-0.01102951,0.015782587,-0.06858067,-0.45968673,0.019153614,-9.423578,0.81351066,47.6636,-1.0588839,-2.255474,-3.0015101,-0.46338165,0.08965132,-0.29845226,28.375,29.5625,28.8125,32.875,35.25,36.25
0.12605412,-1.098264,-0.64685255,-1.1902108,-0.013363433,0.070477456,-0.16833417,-0.38462803,-0.34768894,0.06002669,3.0772357,-0.62587494,-0.00015220909,-0.059504285,0.017354019,0.00027723063,-0.022274837,0.008682912,-0.026309423,0.47228166,-1.4222207,1.9535054,-2.1015308,-1.5696119,2.4480224,-0.09535571,0.05985971,-0.06648133,-0.011232818,0.015780924,-0.06901021,-0.4213795,0.05746084,-9.423578,0.7709874,47.70211,-1.0434119,-2.2498066,-3.1666727,-0.4661713,0.10505739,-0.32171464,28.375,29.5625,28.8125,32.875,35.25,36.25
0.12805408,-0.9673657,-0.92663246,-1.0335921,-0.008157518,0.0767359,-0.16396526,-0.38471848,-0.34765983,0.060015604,3.077169,-0.62592125,-8.124032e-05,-0.060816504,0.017919784,0.00011359753,-0.022905858,0.008645159,-0.02883345,0.47210076,-1.4221122,1.9534096,-2.1015432,-1.5695399,2.4478788,-0.09790792,0.06117895,-0.06749464,-0.01178631,0.01635985,-0.06903792,-0.40222588,0.038307227,-9.461885,0.7530795,47.63225,-0.9420763,-2.2783403,-3.2468574,-0.4473465,0.12433599,-0.3596604,28.375,29.5625,28.8125,32.875,35.25,36.25
0.13005415,-1.3144174,-0.86271346,-0.8966503,-0.019267809,0.06976371,-0.16112362,-0.3848593,-0.34761077,0.060010478,3.0771618,-0.62605464,-0.0001306561,-0.063336484,0.017549863,0.0019570873,-0.025635904,0.011505099,-0.031208651,0.471908,-1.421944,1.9532288,-2.1015427,-1.5695752,2.4477704,-0.10024568,0.06121598,-0.0718816,-0.011228172,0.01748755,-0.06899883,-0.4405331,0.076614454,-9.346964,0.7709874,47.66987,-0.87973005,-2.2416382,-2.9561877,-0.45644176,0.10442427,-0.41669285,28.375,29.5625,28.8125,32.875,35.25,36.25
0.132054,-1.2557855,-0.9809626,-1.106305,-0.007987543,0.06596057,-0.1607206,-0.38500047,-0.34756526,0.06001807,3.0770628,-0.6261311,-0.00016985896,-0.062354416,0.01910677,-0.00028407187,-0.024427073,0.0070261247,-0.032948885,0.47166738,-1.4218357,1.9530987,-2.1015913,-1.569527,2.44759,-0.102708794,0.06256993,-0.06820803,-0.011711685,0.018463468,-0.06972248,-0.45968673,0.095768064,-9.404425,0.77545905,47.694054,-0.86814284,-2.2464957,-3.2209995,-0.45308506,0.102465525,-0.4406334,28.375,29.5625,28.8125,32.875,35.25,36.25
0.13405396,-1.0749356,-0.34321725,-0.98853874,-0.024128513,0.07283686,-0.16275811,-0.3851037,-0.34752086,0.0599963,3.0770156,-0.6262161,-0.000107573345,-0.06316354,0.018368611,0.00058299454,-0.024785561,0.008964655,-0.029963713,0.4714636,-1.4217032,1.9530023,-2.1016147,-1.5694793,2.4474454,-0.1017445,0.06297033,-0.07070192,-0.011496615,0.017902134,-0.071742095,-0.3256114,0.019153614,-9.519346,0.80679786,47.705692,-0.85961187,-2.1484945,-3.293407,-0.43019676,0.122913375,-0.4637509,28.375,29.5625,28.8125,32.875,35.25,36.25
0.13605332,-1.7068933,-1.1403432,-0.92789584,-0.009446728,0.06612962,-0.15693814,-0.38522664,-0.34750408,0.060013533,3.076926,-0.62627363,-0.00010633191,-0.064282686,0.019053947,0.0006453925,-0.024887498,0.009237975,-0.029152863,0.47128293,-1.4215828,1.9528226,-2.1016023,-1.5694193,2.447312,-0.10393053,0.06359615,-0.07155361,-0.011549298,0.017876834,-0.07473762,-0.40222588,0.038307227,-9.481039,0.75084364,47.72002,-0.962473,-2.1738777,-3.1751857,-0.4347918,0.14405577,-0.49295157,28.375,29.5625,28.8125,32.875,35.25,36.25
0.13805431,-1.9531602,-1.0938244,-0.98042566,-0.0048186183,0.066393204,-0.14949705,-0.38539088,-0.3474465,0.06004947,3.076811,-0.62645775,-0.000254274,-0.064522885,0.018683882,0.00066186016,-0.025463315,0.009682395,-0.022948693,0.47103095,-1.4215105,1.9526662,-2.101639,-1.5694188,2.4471898,-0.10366338,0.06413997,-0.07205874,-0.012234843,0.018206399,-0.080672145,-0.45968673,-0.019153614,-9.3661175,0.84708,47.66987,-0.82810324,-2.1544971,-3.2922835,-0.4258721,0.14051822,-0.43324435,28.375,29.5625,28.8125,32.875,35.25,36.25
0.14005406,-1.2747251,-0.8104947,-1.11159,-0.007186584,0.07675073,-0.16246374,-0.38551176,-0.34740928,0.060025524,3.0768287,-0.62642103,-0.00026517373,-0.064803466,0.018876811,0.000486605,-0.02522968,0.009280914,-0.01973115,0.47086287,-1.4213301,1.9525226,-2.1016748,-1.5694312,2.4469967,-0.10421866,0.06484245,-0.07252788,-0.01199777,0.018187512,-0.084444724,-0.2873042,-0.019153614,-9.3661175,0.76874626,47.645687,-1.0261786,-2.1374707,-3.3372946,-0.44687563,0.14018542,-0.46067268,28.375,29.5625,28.8125,32.875,35.25,36.25
0.14205371,-1.2176856,-1.1714885,-0.9459143,-0.0020647268,0.066186965,-0.15227497,-0.38564637,-0.34736285,0.06002307,3.0767455,-0.626475,-0.00022208059,-0.06474911,0.018621111,8.6117434e-05,-0.025332486,0.008345654,-0.010485587,0.47061116,-1.4211978,1.9523796,-2.1016867,-1.5693587,2.4467893,-0.10402235,0.06604959,-0.07302313,-0.011902526,0.01871987,-0.09349334,-0.24899697,0.05746084,-9.289502,0.6948948,47.63046,-1.1542864,-2.0874927,-3.3864477,-0.4304667,0.16353565,-0.36754024,28.375,29.5625,28.8125,32.875,35.25,36.25
0.14405341,-0.93384844,-1.3335055,-1.1729854,-0.00544336,0.05540396,-0.15272179,-0.38578674,-0.3473479,0.06006438,3.0766194,-0.6264471,-0.00032623403,-0.0662094,0.01855946,0.0008151264,-0.026350765,0.009804719,-0.0074759717,0.47041857,-1.4211254,1.9522108,-2.1017225,-1.5692991,2.4465954,-0.105371356,0.066624865,-0.07534585,-0.011903212,0.018982887,-0.09784833,-0.15322891,0.15322891,-9.289502,0.8560339,47.694054,-1.1301996,-2.0628972,-3.384803,-0.41465646,0.17768134,-0.3140891,28.375,29.5625,28.8125,32.875,35.25,36.25
0.14605415,-0.38284647,-1.2207049,-1.051006,-0.012647583,0.043466907,-0.1582367,-0.3859421,-0.34729862,0.060066856,3.0765798,-0.6264937,-0.00038410127,-0.066473916,0.019308532,0.000458522,-0.025801206,0.009330593,-0.0020457753,0.47019,-1.4209691,1.952032,-2.1017468,-1.5692991,2.4464011,-0.10673456,0.06687178,-0.07479962,-0.012010442,0.018727224,-0.10464107,-0.019153614,0.17238252,-9.346964,0.7777002,47.658226,-1.2029974,-2.01328,-3.2967248,-0.4063133,0.18193167,-0.25246605,28.375,29.5625,28.8125,32.875,35.25,36.25
0.14805421,-1.0505023,-1.7685188,-1.0511693,-0.01858225,0.008549053,-0.14707436,-0.3860484,-0.3472579,0.06004056,3.0765643,-0.6264318,-0.00034560953,-0.06679,0.0200673,-0.0013633504,-0.02474747,0.0056848265,-0.0003134734,0.46999747,-1.4208238,1.9519366,-2.1017945,-1.5692624,2.446172,-0.108805664,0.07064915,-0.075013444,-0.011836308,0.019447539,-0.10844397,-0.019153614,0.15322891,-9.423578,0.8314132,47.675243,-1.1366677,-2.0551183,-3.4638505,-0.39705473,0.20157564,-0.17629376,28.375,29.5625,28.8125,32.875,35.25,36.25
0.15005384,-0.16395783,-1.8788358,-1.1069598,-0.02785542,0.01948593,-0.156588,-0.38619906,-0.3472236,0.0600597,3.0764935,-0.6263973,-0.0003757611,-0.06940781,0.019238725,0.0016323267,-0.0275643,0.011428708,0.0011277433,0.4697691,-1.4206921,1.951742,-2.101794,-1.5692147,2.4459312,-0.10961072,0.06880273,-0.079799056,-0.0115879625,0.01936297,-0.11068705,-0.019153614,0.19153613,-9.346964,0.8112748,47.678825,-1.191539,-2.0908732,-3.317972,-0.40720442,0.22631356,-0.14290899,28.375,29.5625,28.8125,32.875,35.25,36.25
0.1520534,-0.050354637,-1.9410591,-1.2998,-0.015894886,0.017681623,-0.15293977,-0.3863498,-0.3471666,0.06005343,3.0764072,-0.6264773,-0.00035872342,-0.06970785,0.020544792,0.00081477116,-0.026887015,0.00965278,-0.0015611401,0.4694921,-1.4205478,1.9515995,-2.1018298,-1.5691541,2.4457152,-0.112292565,0.069480576,-0.07875973,-0.011403599,0.019575128,-0.110679835,0.038307227,0.24899697,-9.346964,0.779936,47.690468,-0.9914925,-1.8506358,-3.3804212,-0.40530854,0.24581526,-0.11286561,28.375,29.5625,28.8125,32.875,35.25,36.25
0.15405424,-0.361275,-1.5822449,-1.2907256,-0.02181925,0.012670332,-0.15226696,-0.38644347,-0.34713537,0.06003985,3.0764186,-0.62644345,-0.00028852868,-0.07015753,0.020115046,-9.329696e-05,-0.027192526,0.0070501687,-0.004793914,0.46933606,-1.4204025,1.951456,-2.1017935,-1.5691298,2.4455366,-0.11284405,0.07306412,-0.08098666,-0.010580667,0.021017095,-0.10799787,0.038307227,0.22984336,-9.3661175,0.8247004,47.70032,-1.2247554,-1.9671673,-3.4024568,-0.41038233,0.248844,-0.12893607,28.375,29.5625,28.8125,32.875,35.25,36.25
0.15605423,-0.24960864,-1.4775221,-1.2008617,-0.026920198,0.018685179,-0.15931445,-0.38660145,-0.34709817,0.0600415,3.0763476,-0.6263737,-0.00033064905,-0.07137325,0.020002075,0.0007443977,-0.028933568,0.007918542,-0.010447387,0.46909553,-1.4202464,1.9512872,-2.1018536,-1.5690812,2.4452617,-0.114448965,0.07311432,-0.083071224,-0.010108056,0.022180373,-0.10394686,0.0,0.22984336,-9.404425,0.679228,47.70211,-1.0297393,-1.9434209,-3.3175564,-0.39681965,0.25130063,-0.16195256,28.375,29.5625,28.8125,32.875,35.25,36.25
0.15805385,-0.4758364,-1.8098617,-1.3896282,-0.024367278,0.032836124,-0.15133902,-0.38674167,-0.34705162,0.060044672,3.0762625,-0.62649447,-0.00032756108,-0.07199562,0.020084301,0.001081527,-0.029308999,0.008242262,-0.016673978,0.46885523,-1.4201142,1.9511312,-2.101865,-1.5690335,2.4451077,-0.11523654,0.073336676,-0.08420669,-0.009652333,0.022367822,-0.09850657,-0.038307227,0.2681506,-9.423578,0.7553206,47.63673,-1.2669566,-1.93363,-3.3287053,-0.39149204,0.26420963,-0.20986281,28.375,29.5625,28.8125,32.875,35.25,36.25
0.16005391,-0.9676533,-1.8091893,-1.5146526,-0.033504482,0.031527165,-0.15676978,-0.38690576,-0.34701508,0.06006338,3.0761898,-0.62650037,-0.00040550058,-0.072624,0.020694626,0.0004500885,-0.029081753,0.006511729,-0.02112319,0.4686266,-1.4199692,1.9509281,-2.101889,-1.5690097,2.4448922,-0.117219955,0.075163335,-0.08500802,-0.009029653,0.022955226,-0.09603833,0.0,0.40222588,-9.481039,0.7463667,47.617023,-1.2262851,-1.8691986,-3.331951,-0.41218796,0.24894825,-0.27136445,28.375,29.5625,28.8125,32.875,35.25,36.25
0.16205631,-0.86848897,-2.0568104,-1.5747845,-0.042299163,0.043099124,-0.15279195,-0.3870516,-0.34696487,0.060065005,3.0761187,-0.6265815,-0.00038860692,-0.07359294,0.020686517,0.0011471764,-0.030482523,0.007039581,-0.021321032,0.4683742,-1.4198251,1.9507593,-2.101889,-1.568961,2.4446995,-0.1186934,0.075121455,-0.08670557,-0.008384674,0.023973871,-0.09731253,-0.038307227,0.24899697,-9.557653,0.7866488,47.686886,-1.2046995,-1.9360069,-3.2981272,-0.42508298,0.25594425,-0.27197284,28.375,29.5625,28.8125,32.875,35.25,36.25
0.16405398,-1.2733907,-2.294361,-1.3714628,-0.039432835,0.035168637,-0.14418009,-0.38717958,-0.3469368,0.06004704,3.0760684,-0.62663037,-0.000313558,-0.07428641,0.021022923,0.00060994655,-0.030931007,0.0057812175,-0.024015302,0.4681696,-1.4196327,1.95058,-2.101889,-1.5689005,2.444532,-0.120501526,0.07685073,-0.087462276,-0.008430872,0.02494157,-0.09642595,-0.1340753,0.22984336,-9.519346,0.9097417,47.674347,-1.1990374,-1.8127327,-3.315558,-0.43934697,0.2835775,-0.31144854,28.375,29.5625,28.8125,32.875,35.25,36.25
0.16605401,-0.8465124,-2.1702297,-1.4387773,-0.0361316,0.04670048,-0.15036546,-0.38734102,-0.34689453,0.060066596,3.0760088,-0.62661755,-0.00040407816,-0.07520563,0.020892305,0.00051721494,-0.03174072,0.0059321313,-0.02440582,0.4679412,-1.4194998,1.9503888,-2.1019132,-1.5688885,2.4443033,-0.12147987,0.078340456,-0.0888219,-0.009055397,0.025605116,-0.09701058,-0.095768064,0.24899697,-9.519346,0.73741806,47.679718,-1.2415557,-1.8742878,-3.3758888,-0.43989065,0.26389438,-0.33048528,28.375,29.5625,28.8125,32.875,35.25,36.25
0.1680537,-1.1667589,-1.7617449,-1.494059,-0.030455628,0.039109025,-0.15278299,-0.38746253,-0.34685174,0.060056094,3.0759437,-0.62664354,-0.000307158,-0.07600931,0.020499228,0.00073911453,-0.032528125,0.0062671555,-0.02473376,0.46770114,-1.419355,1.9502443,-2.1019013,-1.5688041,2.4440877,-0.12182258,0.07955539,-0.0907436,-0.008990287,0.02615644,-0.09702446,-0.19153613,0.15322891,-9.634268,0.8605109,47.704796,-1.2863594,-1.886488,-3.32998,-0.43920666,0.28366643,-0.36167574,28.375,29.5625,28.8125,32.875,35.25,36.25
0.17005429,-0.97772115,-1.6738449,-1.4787108,-0.027985925,0.060280222,-0.15399505,-0.3876612,-0.34681833,0.06007844,3.0757875,-0.62676543,-0.00041001258,-0.07747993,0.021276714,0.0005698142,-0.03336539,0.0061322,-0.026490493,0.46742398,-1.4191866,1.9500169,-2.1019733,-1.5687441,2.4439068,-0.12499734,0.08082467,-0.09169084,-0.009556321,0.026982212,-0.09843808,-0.2681506,0.17238252,-9.653421,0.8247004,47.71017,-1.1339333,-1.9024297,-3.281166,-0.44332346,0.28758177,-0.37544146,28.375,29.5625,28.8125,32.875,35.25,36.25
0.17205398,-1.4210594,-1.3507415,-1.4599158,-0.02518777,0.072541684,-0.15252514,-0.38778841,-0.346765,0.060058575,3.0757432,-0.626832,-0.0003473204,-0.07876256,0.02169493,-0.0010126551,-0.033467256,0.0037422618,-0.025498645,0.46718335,-1.4190289,1.9498843,-2.1019857,-1.5686954,2.4437134,-0.12761015,0.08541439,-0.093106374,-0.010628571,0.028154142,-0.10204111,-0.4213795,0.19153613,-9.557653,0.7642693,47.705692,-1.2451525,-2.0109334,-3.3021045,-0.43947703,0.27512577,-0.36110514,28.375,29.5625,28.8125,32.875,35.25,36.25
0.1740538,-1.9145285,-1.5485631,-1.5015026,-0.009507842,0.08567593,-0.15711382,-0.38794115,-0.34673575,0.060073525,3.0756724,-0.6267957,-0.00034728917,-0.07986843,0.021087067,0.0009059997,-0.03616949,0.0064314315,-0.021160347,0.46695513,-1.4188733,1.9496692,-2.1019733,-1.5686353,2.4434717,-0.12825993,0.08345391,-0.09539173,-0.009982417,0.029371267,-0.10702678,-0.45968673,0.15322891,-9.5385,0.82022345,47.73883,-1.0886247,-1.9597,-3.251488,-0.44511813,0.27161968,-0.3437165,28.375,29.5625,28.8125,32.875,35.25,36.25
0.17605373,-2.0390208,-1.5953139,-1.4408593,0.0041000284,0.090449624,-0.148546,-0.38811934,-0.3466893,0.06007027,3.0755572,-0.62692475,-0.00033652794,-0.08268929,0.021638473,0.0010337994,-0.03702562,0.0067352694,-0.019323668,0.46666566,-1.4186803,1.9494637,-2.102009,-1.5685629,2.4432776,-0.13212927,0.08676924,-0.099542335,-0.009777969,0.03001299,-0.11272867,-0.51714754,0.0,-9.423578,0.7463667,47.667187,-1.1276875,-1.9621996,-3.1573622,-0.44083738,0.28554988,-0.2909969,28.375,29.5625,28.8125,32.875,35.25,36.25
0.17805436,-1.6537831,-1.0310284,-1.1515085,0.000753789,0.10189635,-0.15789211,-0.38827825,-0.34664962,0.06007584,3.0755296,-0.6268191,-0.00037097782,-0.083178066,0.02281503,-0.00023087737,-0.036386874,0.004665904,-0.013080116,0.46643662,-1.418511,1.9492596,-2.102021,-1.5685385,2.4429862,-0.1348528,0.08866066,-0.09871074,-0.010338505,0.030401424,-0.12169426,-0.57460845,0.0,-9.461885,0.8112748,47.645687,-1.03969,-2.1763299,-3.0640936,-0.4519354,0.28285915,-0.19318573,28.375,29.5625,28.8125,32.875,35.25,36.25
0.18005419,-1.9916035,-0.91506547,-1.2703516,-0.00030373974,0.088908434,-0.15138653,-0.3884384,-0.34659427,0.060081355,3.0754237,-0.62687236,-0.00037514343,-0.084977776,0.02265383,0.0012657543,-0.037614223,0.007568524,-0.011122739,0.46614847,-1.4183792,1.9491042,-2.1020567,-1.568467,2.442745,-0.13599928,0.0882924,-0.101783365,-0.010017281,0.030206662,-0.12479511,-0.7086837,0.019153614,-9.481039,0.8314132,47.63852,-0.9881262,-2.0393968,-3.1853251,-0.44726682,0.27541,-0.14651331,28.375,29.5625,28.8125,32.875,35.25,36.25
0.18205377,-2.448401,-1.4266343,-1.1821991,-0.00037915254,0.086065054,-0.15164767,-0.38860086,-0.34655145,0.060086492,3.0753524,-0.6268565,-0.00030713037,-0.08521736,0.023054212,0.00019012073,-0.036742304,0.0060520563,-0.0087477965,0.46587214,-1.4181983,1.9488772,-2.1020215,-1.5683826,2.442468,-0.13681112,0.090555094,-0.10183931,-0.01045114,0.030121997,-0.12798123,-0.7469909,-0.076614454,-9.481039,0.79560274,47.666286,-1.0301517,-1.9754565,-3.010131,-0.4509282,0.28849918,-0.063825116,28.375,29.5625,28.8125,32.875,35.25,36.25
0.18405366,-2.250265,-1.2069644,-1.014019,-0.010999733,0.10095368,-0.14596929,-0.38877988,-0.3465062,0.06009015,3.075273,-0.62687904,-0.000361184,-0.08652386,0.023050914,0.000593731,-0.03752622,0.007217305,-0.0109974155,0.4656079,-1.4180176,1.9486727,-2.1020696,-1.5683464,2.442228,-0.13803376,0.09145448,-0.10370999,-0.010863376,0.030307146,-0.1269509,-0.8810662,-0.019153614,-9.423578,0.84708,47.68599,-1.1590288,-2.0825284,-2.999776,-0.46409398,0.28729707,-0.08185738,28.375,29.5625,28.8125,32.875,35.25,36.25
0.18605398,-2.2127676,-1.1578989,-0.87814564,-0.008151089,0.11759355,-0.15664397,-0.38895056,-0.34649667,0.060104046,3.0751398,-0.6268138,-0.0003741609,-0.08669724,0.02181027,0.00086934125,-0.03861555,0.0080417665,-0.012090185,0.46536848,-1.4178371,1.9484452,-2.1021178,-1.5682386,2.441965,-0.13631962,0.09247742,-0.10539625,-0.0114136,0.030917224,-0.124139674,-0.8236054,-0.019153614,-9.404425,0.7732232,47.690468,-1.2186792,-1.9706316,-3.022064,-0.4668069,0.2837677,-0.08370854,28.375,29.5625,28.8125,32.875,35.25,36.25
0.18805382,-1.771586,-0.8969492,-0.98720944,-0.0051577725,0.1271788,-0.15332471,-0.3891385,-0.34642118,0.06010662,3.0750554,-0.6270128,-0.00036783764,-0.087777205,0.02320876,0.00039434296,-0.038513653,0.0070678447,-0.019348625,0.46504286,-1.4176568,1.9482297,-2.1021054,-1.5682024,2.4417746,-0.13992266,0.09332799,-0.10529635,-0.0114433905,0.031265795,-0.120483264,-0.6895301,0.019153614,-9.423578,0.7911258,47.668976,-1.141999,-1.9865702,-3.0527077,-0.44024032,0.2878507,-0.13843845,28.375,29.5625,28.8125,32.875,35.25,36.25
0.19005334,-1.7093843,-0.6113398,-0.922782,-0.0066713654,0.10129968,-0.1529741,-0.38934395,-0.34638703,0.060126115,3.074931,-0.6270654,-0.00046800714,-0.08893997,0.022552643,0.000982056,-0.03875012,0.008930807,-0.022899434,0.46476734,-1.4174641,1.9479779,-2.102165,-1.5681542,2.441548,-0.13932829,0.09466506,-0.108121455,-0.011720197,0.030646574,-0.11633333,-0.57460845,0.038307227,-9.32781,0.82694155,47.67345,-1.2859975,-1.9796507,-2.9787703,-0.45039833,0.2961902,-0.1638192,28.375,29.5625,28.8125,32.875,35.25,36.25
0.19205411,-1.3363714,-1.0044551,-0.89057845,-0.00904052,0.08555561,-0.15697646,-0.38950026,-0.34631175,0.06009583,3.0749195,-0.6270663,-0.0004302126,-0.08872799,0.023693806,-0.00025288432,-0.03786388,0.006224257,-0.028745936,0.46447867,-1.4172716,1.9478344,-2.1022012,-1.5681304,2.4412615,-0.14137515,0.0957733,-0.10664925,-0.011483188,0.031067418,-0.112534344,-0.59376204,0.05746084,-9.270349,0.82022345,47.674347,-1.2275851,-2.0298073,-3.0796943,-0.45562834,0.3077107,-0.22818118,28.375,29.5625,28.8125,32.875,35.25,36.25
0.19405395,-1.0053087,-1.1659986,-0.8210406,-0.012232986,0.06873162,-0.1557239,-0.38971162,-0.3462866,0.060146555,3.07478,-0.62715256,-0.00054598786,-0.09091075,0.023597796,6.887748e-05,-0.039190084,0.0074321576,-0.031344403,0.4642141,-1.4171026,1.947522,-2.1021893,-1.5680822,2.441069,-0.14350218,0.09815498,-0.109957665,-0.012220198,0.03172318,-0.11205614,-0.40222588,-0.076614454,-9.193734,0.8537928,47.71286,-1.1991751,-2.0059288,-2.9957085,-0.44096074,0.30743864,-0.2956721,28.375,29.5625,28.8125,32.875,35.25,36.25
0.19605388,-0.69418633,-0.8876547,-0.93910664,-0.005172821,0.05012144,-0.1582785,-0.3898968,-0.34623402,0.060137138,3.074665,-0.62724715,-0.0005217187,-0.09080753,0.024347989,-0.000417898,-0.038527235,0.00672965,-0.03598714,0.46390176,-1.4168985,1.9473203,-2.102237,-1.5679988,2.4408305,-0.14449178,0.09811987,-0.10877674,-0.012430453,0.031450287,-0.10840246,-0.24899697,0.0,-9.308657,0.8314132,47.689575,-1.1965126,-1.9997383,-3.1651165,-0.45171532,0.31998745,-0.3415079,28.375,29.5625,28.8125,32.875,35.25,36.25
0.19805366,0.028285725,-0.728041,-0.9637927,-0.014446222,0.050149046,-0.16252469,-0.39010447,-0.34616008,0.060131434,3.0745852,-0.6274427,-0.00056873274,-0.091482356,0.024783537,-0.0015625281,-0.037401136,0.0052488083,-0.037092526,0.46357733,-1.4166809,1.9470919,-2.1022732,-1.5679864,2.4406385,-0.14557533,0.101256795,-0.10970544,-0.01279783,0.031114912,-0.10837856,-0.095768064,0.038307227,-9.32781,0.8403672,47.67614,-1.2465854,-2.2209232,-3.1331127,-0.44201285,0.34081554,-0.40879512,28.375,29.5625,28.8125,32.875,35.25,36.25
0.20005342,-0.6094769,-1.4649293,-0.8221709,-0.004909282,0.027734488,-0.14676362,-0.39026442,-0.3461259,0.060131,3.0744588,-0.62749577,-0.00055041694,-0.0930809,0.025284095,0.00061329454,-0.04085499,0.00867072,-0.041713238,0.46331215,-1.4165143,1.9469126,-2.102321,-1.56789,2.4404228,-0.14882842,0.097513445,-0.110321365,-0.013034022,0.032682102,-0.10700762,-0.019153614,0.17238252,-9.002198,0.82022345,47.670765,-1.2101278,-1.8747859,-3.188082,-0.43210125,0.3221831,-0.45703351,28.375,29.5625,28.8125,32.875,35.25,36.25
0.20205407,0.23046987,-1.0166477,-0.7142698,-0.012518643,0.030419203,-0.1585874,-0.39045367,-0.34607002,0.060131893,3.0743792,-0.6275912,-0.0005440205,-0.09195908,0.024414802,-0.002524683,-0.040147696,0.0019423822,-0.03750431,0.46301284,-1.4163074,1.9466733,-2.102321,-1.5678409,2.4401934,-0.14775819,0.104214944,-0.110941686,-0.012764277,0.03507322,-0.110141255,0.038307227,0.076614454,-9.11712,0.8784135,47.657326,-1.3471781,-2.2488852,-3.2849905,-0.429637,0.32043007,-0.4935088,28.375,29.5625,28.8125,32.875,35.25,36.25
0.2040541,0.110339865,-1.034686,-0.7332412,-0.014350554,0.014052594,-0.16141066,-0.3906513,-0.3460055,0.060121845,3.0742638,-0.62775713,-0.0005203034,-0.09310659,0.02514271,-0.0012921651,-0.04164535,0.003473814,-0.03395869,0.46267593,-1.4160922,1.9464573,-2.1023571,-1.5677685,2.439975,-0.15042953,0.10225585,-0.111675486,-0.012075149,0.035757054,-0.11635633,0.19153613,0.1340753,-9.193734,0.8023209,47.692257,-1.214057,-1.9065555,-3.2534363,-0.44252434,0.3166985,-0.47857726,28.375,29.5625,28.8125,32.875,35.25,36.25
0.20605408,0.032359187,-1.2262785,-0.83720857,-0.008720642,-0.0066170385,-0.15181094,-0.39084202,-0.34597582,0.060133927,3.0741317,-0.6277841,-0.0005531065,-0.09338569,0.025535513,-0.0025957401,-0.042647548,-0.00024556502,-0.027738215,0.462399,-1.415899,1.9462188,-2.1024044,-1.5676836,2.439732,-0.15296972,0.10505835,-0.11204608,-0.011589206,0.03835435,-0.12510997,0.2681506,0.095768064,-9.212888,0.84484416,47.655537,-1.2076573,-2.0855114,-3.329922,-0.44848222,0.29654402,-0.40755555,28.375,29.5625,28.8125,32.875,35.25,36.25
0.20805375,0.6524973,-1.132914,-0.8900482,-0.020897252,-0.0039842473,-0.16386949,-0.39102495,-0.34592822,0.06013318,3.0740566,-0.6277831,-0.0004878261,-0.09474231,0.025736261,-0.0020454917,-0.044288494,0.00035743322,-0.020580001,0.4620981,-1.4156826,1.9459666,-2.1023805,-1.5675997,2.4394403,-0.1552469,0.105458185,-0.113806844,-0.0114534525,0.03958404,-0.13454258,0.2681506,0.17238252,-9.155427,0.8247004,47.675243,-1.1208524,-2.059946,-3.3431635,-0.44732267,0.26983732,-0.3289945,28.375,29.5625,28.8125,32.875,35.25,36.25
0.21005346,0.22055525,-1.3623022,-1.0587424,-0.025920412,-0.004139917,-0.1575239,-0.39120743,-0.34587374,0.060130868,3.073946,-0.62781435,-0.0004797694,-0.09570161,0.02658524,-0.0023713086,-0.04357758,-0.00014836877,-0.014963101,0.46178555,-1.415502,1.9457754,-2.1024282,-1.5675157,2.4391615,-0.15728614,0.10682289,-0.11473633,-0.011070204,0.03920747,-0.1421965,0.21068975,0.2681506,-9.136273,0.84484416,47.691364,-1.093643,-2.0783792,-3.3306894,-0.46066198,0.2706372,-0.23862049,28.375,29.5625,28.8125,32.875,35.25,36.25
0.21205331,-0.20888434,-1.929258,-1.3696786,-0.020905336,-0.0004183836,-0.15312266,-0.39138526,-0.34579226,0.060101885,3.0738895,-0.62787867,-0.00038066876,-0.09699917,0.027464414,-0.0024676574,-0.045144733,-0.0013167316,-0.0136183435,0.46143645,-1.4152855,1.9455956,-2.1024406,-1.5674428,2.43886,-0.16116674,0.10774292,-0.11568458,-0.01065993,0.04114765,-0.14741983,0.17238252,0.22984336,-9.289502,0.7665104,47.67614,-1.0726322,-2.003364,-3.3712358,-0.4838006,0.2603299,-0.17973688,28.375,29.5625,28.8125,32.875,35.25,36.25
0.21405418,-0.5966922,-2.169342,-1.4553761,-0.03224634,0.01467923,-0.14497145,-0.39157593,-0.34574503,0.060094144,3.0738082,-0.62788206,-0.00035381693,-0.09632333,0.026484588,-0.0025353718,-0.04685417,-0.0031564843,-0.014276503,0.46113673,-1.4150571,1.9453562,-2.102464,-1.5673698,2.438573,-0.16026731,0.10828124,-0.11641396,-0.009572485,0.04350437,-0.14585744,0.019153614,0.30645782,-9.3661175,0.84708,47.691364,-1.0618694,-2.0326178,-3.480561,-0.4951467,0.2258108,-0.14980382,28.375,29.5625,28.8125,32.875,35.25,36.25
0.21605411,-0.9760428,-1.8113366,-1.1267531,-0.05324832,0.039464004,-0.14978372,-0.39177048,-0.34571114,0.060100257,3.0736578,-0.62791115,-0.00027238723,-0.09709296,0.02698939,-0.0034701747,-0.047079913,-0.0056823716,-0.019153101,0.46081182,-1.4148396,1.9450926,-2.1024635,-1.5672258,2.4382856,-0.16261391,0.1110897,-0.117672876,-0.008938305,0.044833675,-0.14332275,-0.15322891,0.2873042,-9.346964,0.7777002,47.687782,-0.8972542,-2.2737017,-3.2847672,-0.4998013,0.1915144,-0.15710779,28.375,29.5625,28.8125,32.875,35.25,36.25
0.21805401,-1.1879835,-1.8107685,-1.3404125,-0.044627935,0.0640606,-0.1457431,-0.39195505,-0.34565127,0.06009717,3.073579,-0.6279181,-0.0002092519,-0.09856984,0.02608893,-0.0011277591,-0.050745945,-0.0016137045,-0.02629945,0.46048778,-1.4146367,1.9448637,-2.1024516,-1.5671409,2.4379761,-0.16318075,0.108672425,-0.120159015,-0.009310471,0.046291627,-0.13673969,-0.36391866,0.3256114,-9.481039,0.8627467,47.694946,-1.0387868,-1.8469927,-3.501028,-0.52375704,0.16376305,-0.23363836,28.375,29.5625,28.8125,32.875,35.25,36.25
0.22005369,-1.1301711,-1.2480438,-1.2525305,-0.047032885,0.09470945,-0.16123335,-0.39214098,-0.34559172,0.06006877,3.0734706,-0.6280899,-0.00013893012,-0.09849581,0.026312781,-0.002748912,-0.05019989,-0.005135701,-0.030295644,0.4601636,-1.414395,1.9446615,-2.1024992,-1.5670565,2.4377732,-0.16412331,0.112108655,-0.12051302,-0.008982819,0.04736551,-0.13368355,-0.4213795,0.28730422,-9.481039,0.9030289,47.66271,-1.0762756,-2.1674614,-3.4028313,-0.51563233,0.12707254,-0.30967522,28.375,29.5625,28.8125,32.875,35.25,36.25
0.22205405,-1.519096,-1.3866651,-1.4831,-0.02565723,0.100672536,-0.15633993,-0.39232644,-0.34554267,0.060060147,3.073399,-0.62809575,-3.433364e-05,-0.10047086,0.025663268,-0.0014904304,-0.052351825,-0.0020247714,-0.032223187,0.4598512,-1.4141546,1.9443969,-2.102464,-1.5669607,2.4374738,-0.16498254,0.112611055,-0.12375382,-0.009965514,0.047904864,-0.13261327,-0.51714754,0.24899697,-9.481039,0.8247004,47.692257,-1.1357452,-1.9465644,-3.3048015,-0.54807377,0.08405182,-0.3284616,28.375,29.5625,28.8125,32.875,35.25,36.25
0.2240536,-2.039448,-1.4864811,-1.4289272,-0.014774397,0.09363594,-0.14978284,-0.39252782,-0.34550765,0.060064893,3.0732346,-0.6281593,4.404475e-06,-0.1015735,0.026382638,-0.0019166272,-0.052122414,-0.0024439017,-0.034809172,0.4595263,-1.4139377,1.9441451,-2.1025002,-1.5668281,2.4372098,-0.16713575,0.11429897,-0.12468596,-0.010212341,0.047897574,-0.13217649,-0.63206923,0.19153613,-9.385271,0.8560339,47.689575,-1.0705693,-2.013474,-3.3052015,-0.54222107,0.067493215,-0.35018307,28.375,29.5625,28.8125,32.875,35.25,36.25
0.22605361,-1.7417653,-1.1224892,-1.5319859,-0.02282409,0.11084808,-0.15765941,-0.392751,-0.34544095,0.06008464,3.0731068,-0.62824786,-3.1475654e-05,-0.103627406,0.027243184,-0.0014048658,-0.052093275,-0.00040657845,-0.03482499,0.45916563,-1.4137455,1.9438819,-2.1025121,-1.5667571,2.4369211,-0.16979098,0.11505433,-0.12659913,-0.0108276885,0.046989422,-0.13481238,-0.7278373,0.19153613,-9.634268,0.75084364,47.682407,-1.1286623,-2.0033102,-3.1728945,-0.54917306,0.0469651,-0.37596497,28.375,29.5625,28.8125,32.875,35.25,36.25
0.22805333,-2.3393614,-1.1247301,-1.5364684,-0.030971149,0.10912546,-0.15579583,-0.39293325,-0.34539494,0.060067404,3.0729985,-0.62828207,4.2583124e-05,-0.103664845,0.026703974,-0.0017138458,-0.050915197,8.617305e-06,-0.03179894,0.45885435,-1.4135166,1.9436663,-2.1025484,-1.5666493,2.4366453,-0.16799806,0.116703145,-0.12774566,-0.011141844,0.045759957,-0.1360457,-0.7852981,0.17238252,-9.691729,0.84484416,47.707485,-1.2001374,-1.97852,-3.3928971,-0.55716366,0.034026213,-0.37724572,28.375,29.5625,28.8125,32.875,35.25,36.25
0.230054,-2.1518614,-0.66615903,-1.349933,-0.046378907,0.12964322,-0.16185792,-0.39316764,-0.34533387,0.060072523,3.0728705,-0.6284424,3.6708923e-05,-0.10468059,0.026984265,-0.0013949357,-0.050921336,0.0017589302,-0.023876363,0.4584939,-1.4132644,1.9433674,-2.1025608,-1.5665778,2.4364016,-0.16881776,0.116931595,-0.12854718,-0.012076649,0.045030273,-0.14478615,-0.78529817,0.038307227,-9.615114,0.8985519,47.67614,-1.1830826,-1.9729501,-3.3019247,-0.5623383,0.008100606,-0.30338794,28.375,29.5625,28.8125,32.875,35.25,36.25
0.23205379,-2.7725282,-1.4324474,-1.4982532,-0.008839806,0.12093796,-0.14998919,-0.39335528,-0.34527183,0.06003472,3.072811,-0.62846524,0.00017047199,-0.10669315,0.02718099,-0.00034669772,-0.05044658,0.0046596914,-0.017517125,0.4581577,-1.4129878,1.943138,-2.1025727,-1.5664824,2.4360874,-0.16976596,0.11773391,-0.13195653,-0.011795745,0.04334022,-0.15209645,-0.7469909,-0.076614454,-9.710882,0.8537928,47.666286,-1.2845454,-1.9154451,-3.2093148,-0.5724823,0.029160924,-0.25035957,28.375,29.5625,28.8125,32.875,35.25,36.25
0.23405346,-2.6234903,-0.6469304,-1.395914,-0.008157973,0.13063283,-0.15736096,-0.39358848,-0.3452348,0.060053673,3.07269,-0.62847406,0.00014881963,-0.10779489,0.028042024,-0.0015681257,-0.048049193,0.004088359,-0.010245868,0.45783332,-1.4127345,1.9428033,-2.1025727,-1.5663985,2.4357843,-0.17096822,0.12123524,-0.13306418,-0.012547735,0.04148584,-0.16056868,-0.7086837,0.0,-9.691729,0.8851263,47.71465,-1.254262,-1.9076769,-3.262068,-0.5640228,0.034640964,-0.134615,28.375,29.5625,28.8125,32.875,35.25,36.25
0.23605362,-2.3505583,-0.5666819,-1.4671406,0.010853182,0.12131474,-0.15059529,-0.39382267,-0.3451686,0.06006123,3.0725553,-0.6284632,0.000118893615,-0.109563254,0.028192967,4.8676084e-05,-0.047665223,0.008949664,-0.0070281173,0.45744962,-1.4125186,1.9425515,-2.1026328,-1.5663036,2.4354115,-0.17110081,0.1200866,-0.13527119,-0.013329303,0.03902353,-0.16391872,-0.4405331,-0.15322891,-9.634268,0.842603,47.666286,-1.4716707,-2.023382,-3.1905046,-0.580881,0.041443557,-0.0782654,28.375,29.5625,28.8125,32.875,35.25,36.25
0.23805337,-1.9155715,0.38554212,-1.5267252,0.004160346,0.098140195,-0.1596183,-0.394045,-0.3451123,0.060062744,3.0724244,-0.6285918,0.00012422973,-0.11053738,0.028408358,-0.0012683023,-0.045764722,0.008305507,-0.009258993,0.45710143,-1.4122767,1.9422754,-2.1026576,-1.5662202,2.4351606,-0.17133065,0.12425991,-0.1368423,-0.014491093,0.037609436,-0.16191654,-0.4405331,-0.15322891,-9.576807,0.7172743,47.685097,-1.3680592,-2.016301,-3.191647,-0.5671494,0.053411163,-0.06582645,28.375,29.5625,28.8125,32.875,35.25,36.25
0.24005409,-1.9301231,0.101212755,-1.3423121,0.009082546,0.07176137,-0.15987802,-0.39428288,-0.34504068,0.060063146,3.0723314,-0.62863487,0.00010745066,-0.11198291,0.030011915,-0.0014869928,-0.04420695,0.0093739685,-0.01806076,0.45672825,-1.4120244,1.9419893,-2.1026814,-1.566161,2.4348266,-0.17412798,0.12487736,-0.13689828,-0.015320918,0.035737377,-0.15591334,-0.47884035,-0.05746084,-9.557653,0.8224646,47.66808,-1.2654165,-2.152905,-3.2707276,-0.54852486,0.080389485,-0.10748884,28.375,29.5625,28.8125,32.875,35.25,36.25
0.24205387,-1.8396534,-0.15105015,-1.6872633,0.0069318316,0.050981387,-0.15600851,-0.39451873,-0.34497276,0.060057074,3.0722246,-0.62865657,8.604663e-05,-0.11327187,0.031345055,-0.0022177633,-0.04230253,0.008849765,-0.02616261,0.4563557,-1.4117714,1.9417256,-2.1027415,-1.5660895,2.4344816,-0.17656055,0.127126,-0.13786514,-0.015288785,0.034258652,-0.15024374,-0.3256114,-0.076614454,-9.672575,0.8940802,47.68599,-1.3676891,-2.2689736,-3.2128148,-0.5572064,0.09220524,-0.16977984,28.375,29.5625,28.8125,32.875,35.25,36.25
0.24405369,-0.68475163,-0.3821658,-1.415334,-0.0073187184,0.0677552,-0.14882769,-0.3947483,-0.34492612,0.060070243,3.0721047,-0.62876886,1.3864152e-05,-0.1145277,0.03361776,-0.0029857655,-0.03969233,0.007633559,-0.033297647,0.4560421,-1.4115306,1.9414262,-2.1027763,-1.5660423,2.434254,-0.18042804,0.1285667,-0.13803408,-0.014309697,0.03246347,-0.14697671,-0.22984336,0.0,-9.5385,0.9030289,47.690468,-1.170676,-2.2184663,-3.2941208,-0.56814134,0.1348202,-0.24669895,28.375,29.5625,28.8125,32.875,35.25,36.25
0.24605373,-1.0831143,-1.0404054,-1.451615,-0.015333101,0.05149796,-0.15055391,-0.3949845,-0.34482235,0.060052995,3.0720198,-0.62889004,1.4590458e-05,-0.11547141,0.03478094,-0.003429405,-0.038492426,0.00711569,-0.040664874,0.45562148,-1.41129,1.9411992,-2.102824,-1.5659946,2.4339201,-0.18265328,0.1298311,-0.13857439,-0.014040867,0.031610105,-0.14183505,-0.22984336,0.038307227,-9.500193,0.7463667,47.68599,-1.1085801,-2.253927,-3.3292398,-0.56544733,0.16437574,-0.3244992,28.375,29.5625,28.8125,32.875,35.25,36.25
0.24805346,-0.23268485,-1.1420941,-1.3437498,-0.025646832,0.063021705,-0.15747039,-0.3952286,-0.34477225,0.06008114,3.0718603,-0.6290509,-5.2094478e-05,-0.11658278,0.03444347,-0.0025574903,-0.039734926,0.008562698,-0.044348057,0.45527336,-1.4110618,1.9408749,-2.1028364,-1.5659221,2.4336934,-0.1832224,0.1300321,-0.1408726,-0.013784797,0.03209736,-0.13871552,-0.11492168,0.076614454,-9.481039,0.81351066,47.694946,-1.0987439,-2.1502783,-3.185968,-0.56404936,0.16913852,-0.387518,28.375,29.5625,28.8125,32.875,35.25,36.25
0.25005412,-0.31204122,-1.0741816,-1.194203,-0.033870645,0.059111115,-0.1498487,-0.39546436,-0.34468675,0.060070615,3.0718093,-0.629176,-4.2834392e-05,-0.11772349,0.034708675,-0.0034027412,-0.03980366,0.0070276316,-0.047025956,0.45490116,-1.4107842,1.940576,-2.102824,-1.5658983,2.433406,-0.18505007,0.13338314,-0.14283907,-0.013812079,0.032836687,-0.13786198,-0.11492168,0.13407528,-9.423578,0.92093146,47.688675,-1.2415862,-2.1727307,-3.3855364,-0.5728948,0.18404244,-0.45165426,28.375,29.5625,28.8125,32.875,35.25,36.25
0.25205413,-0.99245405,-1.6281465,-1.1665597,-0.026439968,0.04416386,-0.14275624,-0.3956847,-0.344624,0.060069904,3.071663,-0.6292775,-1.6822092e-05,-0.11785343,0.034799628,-0.0021815326,-0.040697232,0.009289932,-0.042901117,0.45452896,-1.410557,1.9403242,-2.1028602,-1.56579,2.4331164,-0.18511195,0.1306471,-0.14249001,-0.013801962,0.03267995,-0.14204793,-0.114921674,0.19153613,-9.385271,0.87393653,47.661808,-1.2917926,-2.149334,-3.441784,-0.5877547,0.20594406,-0.4767902,28.375,29.5625,28.8125,32.875,35.25,36.25
0.25405392,-0.40316597,-1.0789351,-1.0105445,-0.03335026,0.05882578,-0.15453854,-0.39595264,-0.34452713,0.06006225,3.0715945,-0.62941086,-0.00013166947,-0.11862588,0.036256943,-0.0036304302,-0.038270317,0.007356107,-0.0345107,0.45413226,-1.4102798,1.9400381,-2.1029322,-1.5658025,2.4328122,-0.18742856,0.13363802,-0.14270256,-0.013710187,0.031409997,-0.15275511,-0.05746084,0.3256114,-9.32781,0.8784135,47.698532,-1.121425,-2.1918638,-3.4101412,-0.59011096,0.24789637,-0.40957558,28.375,29.5625,28.8125,32.875,35.25,36.25
0.25605392,-0.19548033,-0.8857705,-0.8186668,-0.042215724,0.047707345,-0.1574002,-0.39620104,-0.3444731,0.060076512,3.0714693,-0.62941897,-0.00013247637,-0.12113782,0.03667417,-0.0022194018,-0.040683296,0.009814051,-0.027319336,0.45375907,-1.4100155,1.939701,-2.1029322,-1.5657061,2.4324605,-0.19095875,0.13352169,-0.14581378,-0.013674415,0.03255637,-0.16347054,0.076614454,0.34476504,-9.251195,0.8806493,47.70211,-1.0606034,-2.1513789,-3.3743153,-0.59284204,0.26312566,-0.32022268,28.375,29.5625,28.8125,32.875,35.25,36.25
0.2580538,-0.24194181,-1.7607453,-0.68063086,-0.04171036,0.039776344,-0.15273154,-0.3964433,-0.3444016,0.060072783,3.0713885,-0.62945616,-0.00018557235,-0.12132721,0.036530647,-0.0023431352,-0.04165549,0.009309338,-0.019177737,0.45339873,-1.409751,1.9394153,-2.10298,-1.5656694,2.4321342,-0.19148621,0.13413526,-0.1462456,-0.013771643,0.03370553,-0.17213447,0.19153613,0.4213795,-9.059659,0.8627467,47.690468,-0.991308,-2.0445967,-3.5272832,-0.6093463,0.25948,-0.2212458,28.375,29.5625,28.8125,32.875,35.25,36.25
0.26005384,0.48220888,-0.9223732,-0.55014694,-0.0511988,0.03829928,-0.16450234,-0.39669022,-0.34433338,0.060070746,3.0712707,-0.6295069,-0.00015459934,-0.12277161,0.036303,-0.0016450167,-0.043026417,0.011064666,-0.01574244,0.45300227,-1.4094743,1.9391035,-2.1029918,-1.5655731,2.4317849,-0.1925269,0.1348064,-0.14851862,-0.014297252,0.034200348,-0.17660666,-0.019153614,0.3256114,-9.078813,0.88960326,47.651955,-0.8843814,-2.1006532,-3.388525,-0.61373115,0.30046633,-0.14784545,28.375,29.5625,28.8125,32.875,35.25,36.25
0.26205358,-0.01669331,-1.3530958,-0.72301394,-0.034782168,0.020092165,-0.15020771,-0.3969094,-0.34424943,0.060042277,3.0711987,-0.6295325,-0.00010398105,-0.12431881,0.03605847,-0.00068320555,-0.045431003,0.011775347,-0.019247726,0.45261753,-1.4092098,1.9388741,-2.1030395,-1.5655006,2.4314256,-0.19450568,0.13534607,-0.15154064,-0.013494343,0.036054395,-0.17507368,-0.095768064,0.30645782,-9.097966,0.8560339,47.65912,-0.9129319,-2.0020452,-3.2587416,-0.6108748,0.28915852,-0.12720713,28.375,29.5625,28.8125,32.875,35.25,36.25
0.26405418,0.037113477,-0.8537698,-0.7186602,-0.04719048,0.03982175,-0.15226342,-0.39715576,-0.34418613,0.06003947,3.0710938,-0.6296106,-9.6561984e-05,-0.124994256,0.035495717,-0.0005095906,-0.046748538,0.011726115,-0.026619729,0.45224595,-1.4089214,1.9385504,-2.103052,-1.5654281,2.4311166,-0.19473195,0.13665293,-0.1534992,-0.013389701,0.03724741,-0.16792203,-0.1340753,0.24899697,-9.040505,0.83813137,47.684196,-1.1225392,-1.9519026,-3.1849322,-0.61768305,0.28754216,-0.18399224,28.375,29.5625,28.8125,32.875,35.25,36.25
0.26605406,-0.8100475,-1.1091195,-0.84343565,-0.025355926,0.04252182,-0.14247438,-0.39741823,-0.34412083,0.060048033,3.070957,-0.6297005,-0.00011943795,-0.12530947,0.03547004,-0.0018551478,-0.045749605,0.009504103,-0.032330025,0.45184988,-1.408644,1.9382161,-2.1030757,-1.5653442,2.4307947,-0.19487241,0.14042136,-0.15482062,-0.013402511,0.037318576,-0.16234788,-0.17238252,0.30645782,-9.040505,0.784413,47.677036,-1.1843566,-2.0380464,-3.1616716,-0.62739515,0.33329982,-0.2665586,28.375,29.5625,28.8125,32.875,35.25,36.25
0.2680539,-1.3085186,-1.1072026,-0.7215264,-0.025102114,0.059871692,-0.14497745,-0.397658,-0.34405348,0.060059577,3.0708501,-0.6297173,-0.00014329018,-0.12601507,0.034911584,0.00031653707,-0.048307117,0.0127644325,-0.033807606,0.45147768,-1.4084046,1.9379162,-2.1030872,-1.5652722,2.430447,-0.19493854,0.13727818,-0.15628533,-0.012829422,0.038211793,-0.16093133,-0.21068975,0.3256114,-9.136273,0.8672237,47.684196,-1.2113044,-1.9568748,-3.198163,-0.6316312,0.3285325,-0.32044446,28.375,29.5625,28.8125,32.875,35.25,36.25
0.27005357,-1.0863727,-0.81237143,-0.76729506,-0.03461245,0.08624437,-0.1554669,-0.39790964,-0.34398022,0.0600374,3.0707345,-0.62986916,-6.506868e-05,-0.1265716,0.034826323,-0.0006475211,-0.049514364,0.009856886,-0.039252177,0.45106915,-1.408079,1.9375933,-2.103099,-1.5651754,2.4301486,-0.19663684,0.1404374,-0.15790115,-0.012280306,0.040562324,-0.1571771,-0.22984336,0.19153613,-9.232041,0.90750587,47.687782,-1.2988105,-2.2029648,-3.2209682,-0.644534,0.31417006,-0.38772795,28.375,29.5625,28.8125,32.875,35.25,36.25
0.27205414,-1.1858822,-1.0521424,-0.8754867,-0.028848603,0.08007697,-0.14458454,-0.39816225,-0.34388936,0.060025446,3.0706065,-0.6300534,-2.9518742e-05,-0.12803157,0.03574472,-0.0005164466,-0.049979348,0.009949257,-0.03987622,0.4506366,-1.4078026,1.9373068,-2.103123,-1.5650905,2.429848,-0.1996424,0.14128785,-0.15928055,-0.011994428,0.04096695,-0.15955563,-0.17238252,0.19153613,-9.385271,0.7978386,47.647476,-1.2974489,-1.9767218,-3.1979923,-0.6679419,0.32458347,-0.37481964,28.375,29.5625,28.8125,32.875,35.25,36.25
0.27405396,-0.64675146,-0.65781164,-0.69697076,-0.042325135,0.09070796,-0.15797743,-0.3984049,-0.34382734,0.060001124,3.0705166,-0.6300886,1.9357693e-05,-0.12845424,0.03529295,-0.00029474666,-0.051190518,0.00989039,-0.0337209,0.45026442,-1.4074781,1.9369954,-2.1031587,-1.5650066,2.4295096,-0.19981654,0.1420197,-0.16073963,-0.011681209,0.042122755,-0.16588049,-0.34476504,0.15322891,-9.32781,0.88289046,47.688675,-1.3412757,-2.096703,-3.2408762,-0.67900085,0.3326277,-0.3772633,28.375,29.5625,28.8125,32.875,35.25,36.25
0.27605376,-0.65928376,-0.4206425,-0.96669966,-0.03800953,0.07972943,-0.1556466,-0.3986729,-0.34376258,0.060004793,3.0704217,-0.63013744,1.949031e-06,-0.12708418,0.03501012,-0.001653671,-0.050336048,0.007747932,-0.021498587,0.44988108,-1.4071655,1.9366258,-2.1031592,-1.5649465,2.4291694,-0.1981495,0.14325291,-0.15897124,-0.012296495,0.04235476,-0.17643368,-0.28730422,0.17238252,-9.404425,0.8023209,47.67345,-1.382735,-1.9405288,-3.3278573,-0.67723656,0.3340729,-0.28755826,28.375,29.5625,28.8125,32.875,35.25,36.25
0.27805316,-1.1550019,-1.1042081,-1.0367174,-0.014339656,0.06388697,-0.14613411,-0.3989426,-0.34370157,0.06002737,3.0702603,-0.63013816,-4.560674e-05,-0.12856157,0.03488163,-0.0015700796,-0.05140388,0.008244618,-0.013084871,0.44947258,-1.4069123,1.9362901,-2.103195,-1.5648383,2.4287827,-0.1995694,0.14532547,-0.16150072,-0.012660383,0.04317093,-0.18625882,-0.24899697,0.038307227,-9.519346,0.8672237,47.66271,-1.4800464,-2.0058942,-3.2316298,-0.70204544,0.35009181,-0.15219942,28.375,29.5625,28.8125,32.875,35.25,36.25
0.28005445,-0.48186997,-0.55886644,-1.0657676,-0.02396969,0.08345794,-0.15193056,-0.39916724,-0.34363213,0.059992477,3.0702202,-0.6300542,2.2837148e-05,-0.13013256,0.03624828,-0.003198906,-0.050630327,0.0056358036,-0.013880339,0.44911107,-1.4065986,1.936015,-2.1032307,-1.5647663,2.428374,-0.2035054,0.14963453,-0.16274658,-0.012991856,0.043627463,-0.18939705,-0.30645782,-0.019153614,-9.461885,0.9410752,47.66808,-1.3826332,-2.1168709,-3.2418685,-0.70338106,0.35457706,-0.11165716,28.375,29.5625,28.8125,32.875,35.25,36.25
0.28205407,-0.3295407,-0.30558062,-1.1815628,-0.015038564,0.076438814,-0.15075807,-0.39944527,-0.34354407,0.0599962,3.0700874,-0.6302414,-1.2860206e-05,-0.13234054,0.03637471,-0.0008476282,-0.054184612,0.010162763,-0.019858971,0.44867852,-1.4063113,1.9356798,-2.103255,-1.5647057,2.428076,-0.20626165,0.14686978,-0.1647256,-0.013862208,0.044870622,-0.18616721,-0.24899697,0.076614454,-9.461885,0.8493211,47.677036,-1.4112356,-2.1520648,-3.2998528,-0.70291495,0.3502133,-0.08294013,28.375,29.5625,28.8125,32.875,35.25,36.25
0.28405374,-0.34273505,-0.34834304,-1.3780888,-0.013387865,0.06314781,-0.14632238,-0.39972806,-0.3434755,0.059999306,3.0699487,-0.6303129,1.4352153e-05,-0.13209637,0.036235157,-0.0013281233,-0.054948464,0.009076348,-0.027148265,0.4482462,-1.4059867,1.9352974,-2.103255,-1.5645975,2.4277067,-0.20638423,0.14752626,-0.16433427,-0.014270131,0.046021555,-0.17899437,-0.24899697,0.05746084,-9.557653,0.9030289,47.68062,-1.302849,-2.1610208,-3.3058617,-0.70605534,0.3597176,-0.15022095,28.375,29.5625,28.8125,32.875,35.25,36.25
0.28605342,-0.53859264,-0.40588772,-1.2220119,-0.030902747,0.06271832,-0.15123814,-0.39996892,-0.3433778,0.059961416,3.069845,-0.6304868,9.3731636e-05,-0.13312435,0.036684196,-0.0021101697,-0.05523185,0.0075448123,-0.03560998,0.4478135,-1.4056854,1.9350461,-2.1033032,-1.5645126,2.4273963,-0.20849553,0.1502663,-0.16574791,-0.014346,0.046921134,-0.17264013,-0.36391866,0.019153614,-9.461885,0.842603,47.717335,-1.2585444,-2.1611972,-3.295187,-0.70724213,0.3557223,-0.25996506,28.375,29.5625,28.8125,32.875,35.25,36.25
0.2880541,-1.0327525,-0.6710155,-1.3989654,-0.028356723,0.054825358,-0.14516748,-0.40025127,-0.3433135,0.059971273,3.0697222,-0.6305049,6.939268e-05,-0.1336252,0.03706946,-0.0028073762,-0.05562712,0.0051921755,-0.043116488,0.4474049,-1.4053724,1.9346641,-2.103315,-1.5644282,2.4270153,-0.2103256,0.15240848,-0.1668964,-0.013396316,0.04829487,-0.16695485,-0.2681506,0.05746084,-9.500193,0.842603,47.678825,-1.1831524,-2.213881,-3.376185,-0.71793467,0.35997203,-0.32825342,28.375,29.5625,28.8125,32.875,35.25,36.25
0.29005414,-0.65656126,-1.2526143,-1.4182867,-0.025725124,0.0662896,-0.1412545,-0.40051946,-0.34325978,0.05997246,3.0695498,-0.63060504,0.000104935985,-0.13434562,0.037008505,-0.0032003124,-0.057578113,0.0036911427,-0.049181756,0.4469965,-1.4050596,1.9343051,-2.103339,-1.5642952,2.4266922,-0.21221428,0.1541739,-0.16805641,-0.013485044,0.050703775,-0.16276628,-0.2681506,0.076614454,-9.615114,0.8851263,47.67793,-1.1912308,-2.2553535,-3.4435155,-0.72174656,0.33522955,-0.40971178,28.375,29.5625,28.8125,32.875,35.25,36.25
0.29205385,-0.48355263,-0.6638023,-1.2696937,-0.043983005,0.078560024,-0.15652952,-0.4007657,-0.3431778,0.059932362,3.0694532,-0.6307405,0.00018361643,-0.13524342,0.0369101,-0.0028615906,-0.05998982,0.00329392,-0.051931296,0.4465878,-1.404723,1.9340175,-2.1033866,-1.5642103,2.4263809,-0.21416168,0.15469854,-0.16953857,-0.013190178,0.05305539,-0.16195592,-0.28730422,0.076614454,-9.615114,0.8851263,47.668976,-1.1799927,-2.2875962,-3.4345322,-0.7477318,0.31067348,-0.49237818,28.375,29.5625,28.8125,32.875,35.25,36.25
0.29405347,-0.82168245,-0.7830437,-1.1502242,-0.041570265,0.0761335,-0.15822774,-0.4010215,-0.343102,0.059921466,3.069301,-0.63083935,0.00028914138,-0.13617145,0.03577986,-0.0021959778,-0.06369612,0.00391184,-0.047028285,0.4461439,-1.4044226,1.9336947,-2.1033866,-1.5640653,2.4260187,-0.21478406,0.15541656,-0.17177857,-0.013752948,0.056168783,-0.16746902,-0.22984336,0.038307227,-9.691729,0.9388393,47.70211,-1.2486455,-2.21525,-3.4724984,-0.74618,0.27950308,-0.49120566,28.375,29.5625,28.8125,32.875,35.25,36.25
0.2960542,-1.2889255,-0.71739256,-1.0486186,-0.041487478,0.08079209,-0.1602198,-0.40128353,-0.34299552,0.059904303,3.069215,-0.63096833,0.00035366818,-0.13750607,0.03576588,-0.0015029067,-0.06598124,0.0045987363,-0.035488352,0.44568694,-1.404122,1.9333829,-2.1033752,-1.5639929,2.4256537,-0.21691303,0.15575418,-0.17383265,-0.013519287,0.058009874,-0.18113153,-0.30645782,0.22984336,-9.634268,0.84484416,47.694946,-1.1849575,-2.4217832,-3.494326,-0.75308865,0.23612922,-0.37109363,28.375,29.5625,28.8125,32.875,35.25,36.25
0.29805404,-1.3870175,-0.7881278,-1.2141331,-0.02989078,0.088358045,-0.15417942,-0.40160602,-0.3429474,0.059936706,3.0690138,-0.63099724,0.00020679533,-0.13759692,0.03539936,-0.0028177388,-0.06764657,0.0014694827,-0.025259318,0.44526652,-1.4038084,1.9329652,-2.1034591,-1.5638961,2.4252782,-0.21804051,0.15895721,-0.1745104,-0.013829904,0.060962282,-0.19246672,-0.28730422,0.17238252,-9.634268,0.9388393,47.692257,-1.1451409,-2.369025,-3.4523206,-0.780941,0.19578981,-0.2648629,28.375,29.5625,28.8125,32.875,35.25,36.25
0.30005395,-1.5706376,-1.106831,-1.2907172,-0.026824417,0.07706568,-0.1474266,-0.40186098,-0.34289703,0.05993453,3.0688493,-0.6309787,0.00032997364,-0.13772295,0.034694735,-0.0024802461,-0.06755632,0.0025569596,-0.018349715,0.4448468,-1.4034964,1.9326061,-2.1034467,-1.5637158,2.4248686,-0.21642783,0.15946732,-0.17592372,-0.013770696,0.060455635,-0.1977632,-0.22984336,0.24899697,-9.653421,0.9186956,47.67166,-1.1780797,-2.329163,-3.4513667,-0.7776252,0.18177989,-0.18160997,28.375,29.5625,28.8125,32.875,35.25,36.25
0.30205393,-1.4784379,-1.540764,-0.95741343,-0.042908296,0.090357944,-0.1436404,-0.40217203,-0.3428053,0.059932478,3.0687394,-0.6310336,0.00025069536,-0.13877697,0.034295596,-0.002080004,-0.06858588,0.0039556473,-0.020164762,0.444391,-1.4031596,1.9322342,-2.1035073,-1.5636681,2.4244618,-0.21666281,0.16043001,-0.1778247,-0.014513332,0.060803153,-0.19617519,-0.53630114,0.28730422,-9.500193,0.9030289,47.65912,-1.3524292,-2.2373574,-3.4148428,-0.77065814,0.15221433,-0.14404379,28.375,29.5625,28.8125,32.875,35.25,36.25
0.3040537,-0.99173886,-1.703925,-1.3543998,-0.04464164,0.097483516,-0.15551409,-0.40245044,-0.34274983,0.059946217,3.0685017,-0.6311412,0.00031005734,-0.13957179,0.033564802,-0.0012570121,-0.070964925,0.0053599696,-0.026756257,0.44393525,-1.4028716,1.9318751,-2.1035311,-1.5634755,2.4241047,-0.21685348,0.16032016,-0.17947318,-0.01503133,0.062344003,-0.18976226,-0.59376204,0.36391866,-9.423578,0.9567419,47.71465,-1.5807062,-2.295078,-3.4428449,-0.7563944,0.13266033,-0.19441038,28.375,29.5625,28.8125,32.875,35.25,36.25
0.3060536,-1.2058787,-1.7323735,-1.3038017,-0.041067354,0.07749198,-0.15777694,-0.40272272,-0.3426829,0.059923057,3.0683873,-0.63121724,0.00035575533,-0.14118852,0.03482456,-0.0018698381,-0.070102006,0.004835363,-0.034714505,0.44352612,-1.4025103,1.931517,-2.103567,-1.5633796,2.4237583,-0.2199284,0.16271614,-0.18088552,-0.01516071,0.06178141,-0.1848781,-0.36391866,0.3256114,-9.519346,0.8940802,47.701214,-1.4068518,-2.1204138,-3.4690347,-0.77479696,0.09290001,-0.29547265,28.375,29.5625,28.8125,32.875,35.25,36.25
0.30805355,-1.1041644,-1.6888815,-1.2593855,-0.051147163,0.06254643,-0.15946408,-0.4030143,-0.34261742,0.059937626,3.068198,-0.63129395,0.00033932892,-0.1431358,0.035941735,0.0003727527,-0.06941047,0.010402892,-0.038524207,0.44308156,-1.4022113,1.9311455,-2.1036026,-1.563249,2.4233868,-0.22146896,0.15954103,-0.18233207,-0.015226792,0.05878955,-0.18261401,-0.2681506,0.24899697,-9.500193,0.9097417,47.664497,-1.3941844,-2.0971358,-3.4333217,-0.7730845,0.12900862,-0.32296234,28.375,29.5625,28.8125,32.875,35.25,36.25
0.31005353,-0.48122627,-1.4827008,-1.125125,-0.042911157,0.059238598,-0.15838194,-0.40329242,-0.3425259,0.059904322,3.0680895,-0.63140786,0.00041180558,-0.14590554,0.036542755,0.0008349802,-0.06979046,0.01276292,-0.042042077,0.44262475,-1.4018499,1.9308103,-2.1036394,-1.5631531,2.4230156,-0.22427694,0.16175477,-0.18577187,-0.016254758,0.05812815,-0.18190429,-0.22984336,0.2681506,-9.346964,0.9612189,47.667187,-1.2919173,-2.2734165,-3.344811,-0.7651582,0.115064085,-0.3847913,28.375,29.5625,28.8125,32.875,35.25,36.25
0.31205428,-0.207849,-1.0861422,-1.2744426,-0.02308478,0.054928947,-0.16699816,-0.40359852,-0.34243536,0.059899155,3.0679243,-0.63152474,0.0004322111,-0.14870933,0.037931647,0.0011559636,-0.068953544,0.01475952,-0.040183194,0.44213137,-1.4015129,1.9304394,-2.1036751,-1.5630335,2.4226172,-0.22791366,0.16376305,-0.18881585,-0.016567606,0.05657276,-0.18740086,-0.11492168,0.21068975,-9.346964,0.8851263,47.66808,-1.2240943,-2.0880368,-3.2455044,-0.7720867,0.104362234,-0.36899203,28.375,29.5625,28.8125,32.875,35.25,36.25
0.31405407,-0.8582264,-0.8761595,-1.3083482,-0.008661668,0.04055576,-0.16032591,-0.40388045,-0.3423784,0.059907492,3.067769,-0.6315448,0.000461917,-0.15043435,0.039233822,0.0013686734,-0.06724773,0.016894469,-0.033414736,0.4417107,-1.4011883,1.930044,-2.1036756,-1.5629023,2.4222298,-0.22997841,0.16448027,-0.1900623,-0.017113604,0.054193597,-0.19623967,-0.05746084,0.24899697,-9.500193,0.92764956,47.70211,-1.1236991,-2.1770563,-3.2553048,-0.78146714,0.137717,-0.28843358,28.375,29.5625,28.8125,32.875,35.25,36.25
0.3160541,-0.781972,-0.9386969,-1.2787303,-0.017078778,0.05596455,-0.16460113,-0.40422097,-0.34229892,0.059933916,3.0676126,-0.63158476,0.00028077766,-0.1516597,0.04014032,0.0018008292,-0.06601278,0.018682422,-0.024772909,0.44125432,-1.400864,1.9296263,-2.1037586,-1.5628546,2.4218194,-0.2312817,0.16462103,-0.19128561,-0.017002156,0.0524217,-0.20618299,-0.05746084,0.19153614,-9.481039,0.81351066,47.67345,-1.0628467,-2.1417627,-3.2815313,-0.7635639,0.14052282,-0.14456688,28.375,29.5625,28.8125,32.875,35.25,36.25
0.31805387,-1.1859035,-1.1077081,-1.0723811,-0.016255781,0.059267458,-0.15244141,-0.40451327,-0.34220982,0.05992515,3.0674422,-0.63174075,0.00036781063,-0.15332244,0.041568298,0.0016986219,-0.06460516,0.019308588,-0.023321304,0.4407611,-1.4005271,1.9292554,-2.1037586,-1.5627111,2.4214463,-0.23406325,0.16599914,-0.19276285,-0.01677441,0.050931968,-0.21042044,-0.22984336,0.095768064,-9.404425,0.8851263,47.670765,-1.0064241,-2.0010498,-3.30472,-0.76079583,0.17584264,-0.06674042,28.375,29.5625,28.8125,32.875,35.25,36.25
0.3200536,-1.6124772,-0.97212285,-1.1648346,-0.01594006,0.06468649,-0.14963646,-0.40480173,-0.34213752,0.059922185,3.0673068,-0.63167655,0.00037079465,-0.15391655,0.043197908,0.0010999218,-0.0628582,0.018464752,-0.029925669,0.44031653,-1.4002029,1.9288968,-2.1038067,-1.5625919,2.4209797,-0.23648925,0.16662966,-0.19228272,-0.01635885,0.049726486,-0.2062435,-0.22984336,0.019153614,-9.461885,0.88960326,47.660015,-0.8652409,-1.9704612,-3.2983902,-0.7600248,0.20324054,-0.07880183,28.375,29.5625,28.8125,32.875,35.25,36.25
0.3220534,-1.1595224,-0.6443215,-0.8417114,-0.0136966845,0.084155075,-0.16080233,-0.40512642,-0.34205824,0.059922718,3.0671291,-0.63179547,0.00033459236,-0.15467487,0.043046962,0.0012773549,-0.062213257,0.01913995,-0.036249254,0.43983695,-1.399842,1.92849,-2.1038663,-1.5624841,2.4205983,-0.23610343,0.16802023,-0.19446133,-0.015912972,0.048854858,-0.1995317,-0.24899697,-0.05746084,-9.442732,0.84708,47.64121,-1.0246017,-2.1576757,-3.2671714,-0.7645772,0.191522,-0.16223097,28.375,29.5625,28.8125,32.875,35.25,36.25
0.32405394,-1.5005184,0.34918126,-0.85351276,-0.0076630237,0.072736725,-0.16365846,-0.40545917,-0.34198093,0.059947606,3.0669672,-0.63186044,0.0002443948,-0.15505223,0.041941963,0.0014682321,-0.06188534,0.02075726,-0.04104954,0.43936992,-1.3995047,1.9280471,-2.1038907,-1.5624007,2.4201937,-0.2336414,0.16957398,-0.19657417,-0.016695239,0.04786647,-0.1922663,-0.30645782,-0.1340753,-9.423578,0.8851263,47.67166,-1.2098482,-2.2815957,-3.227985,-0.7337897,0.22883971,-0.27489293,28.375,29.5625,28.8125,32.875,35.25,36.25
0.32605383,-1.7734892,0.2257516,-0.8098647,0.0050330386,0.08258033,-0.16834992,-0.4057243,-0.3418866,0.05991031,3.0668552,-0.63205194,0.0003731619,-0.15559971,0.04154009,0.001259196,-0.06143911,0.021130256,-0.048819285,0.43891427,-1.3991438,1.9277123,-2.1038907,-1.5622929,2.4198725,-0.2328379,0.17148107,-0.19829565,-0.017056122,0.047263697,-0.18369576,-0.53630114,-0.05746084,-9.3661175,0.87393653,47.703007,-1.4216461,-2.1024976,-3.3316536,-0.75403625,0.24664068,-0.36261094,28.375,29.5625,28.8125,32.875,35.25,36.25
0.32805347,-1.8062598,0.1619213,-0.91820025,0.01710079,0.08569523,-0.16181779,-0.40603533,-0.3417981,0.05991173,3.06671,-0.63221496,0.0003595983,-0.1559379,0.04182033,0.0005771162,-0.06123693,0.01998604,-0.05274499,0.43844602,-1.3987949,1.927306,-2.1039026,-1.562209,2.4195256,-0.23362018,0.17324258,-0.19882365,-0.01715821,0.04757982,-0.18054728,-0.40222588,-0.019153614,-9.346964,0.8851263,47.693153,-1.4522605,-2.184764,-3.3994884,-0.7383461,0.27260962,-0.46832946,28.375,29.5625,28.8125,32.875,35.25,36.25
0.33005345,-1.7204949,-0.21700454,-1.1256149,-0.0018705251,0.0807277,-0.1616397,-0.40635484,-0.3417306,0.0599244,3.066503,-0.6323035,0.00031624414,-0.15633266,0.043074965,5.5493525e-05,-0.0607287,0.018495722,-0.05045628,0.4379772,-1.3984586,1.9269003,-2.1039627,-1.562076,2.4191399,-0.23611401,0.17380077,-0.19851488,-0.016373593,0.047827523,-0.18532342,-0.3256114,-0.019153614,-9.442732,0.9365982,47.689575,-1.469046,-2.1817298,-3.3746233,-0.74627614,0.27448654,-0.49527937,28.375,29.5625,28.8125,32.875,35.25,36.25
0.3320543,-0.9715709,-0.6958874,-0.8686923,-0.039972052,0.07476919,-0.17297961,-0.40667766,-0.34162033,0.059912927,3.066392,-0.63244545,0.0002669445,-0.15745066,0.04330498,0.00032807034,-0.06046514,0.01929496,-0.038819302,0.4374848,-1.3980976,1.9265169,-2.1040099,-1.5620288,2.4187512,-0.23695125,0.17500268,-0.2007146,-0.015846403,0.047358155,-0.1977965,-0.22984336,0.0,-9.423578,0.9030289,47.637623,-1.4072366,-2.24049,-3.428524,-0.7534077,0.29256904,-0.39864457,28.375,29.5625,28.8125,32.875,35.25,36.25
0.33405423,-1.2501563,-1.6035645,-1.2603002,-0.04164056,0.039621662,-0.15997452,-0.40699026,-0.34152085,0.059915267,3.0662878,-0.63245404,0.00023954053,-0.15832134,0.043258544,-3.1257616e-05,-0.060237974,0.01932079,-0.026095474,0.4370047,-1.3977605,1.9261221,-2.1040223,-1.5619568,2.4182906,-0.23732962,0.17730573,-0.2025867,-0.016053256,0.047253948,-0.21089578,-0.19153614,0.1340753,-9.423578,0.9612189,47.703903,-1.492712,-2.3050404,-3.4470682,-0.75161177,0.3119607,-0.2683234,28.375,29.5625,28.8125,32.875,35.25,36.25
0.3360541,-0.87487745,-1.5129012,-1.0935428,-0.047510494,0.03299535,-0.1671896,-0.40729946,-0.34143955,0.059905913,3.0661492,-0.63251823,0.00026168168,-0.15954107,0.04314316,0.00033427982,-0.061855026,0.019878723,-0.020869507,0.4365366,-1.397388,1.9257153,-2.1040466,-1.561848,2.4178813,-0.23875852,0.17837222,-0.20469807,-0.016098933,0.04855343,-0.21754122,-0.24899697,0.24899697,-9.346964,0.90527004,47.66808,-1.4615008,-2.223733,-3.4081028,-0.7321198,0.33179188,-0.16406861,28.375,29.5625,28.8125,32.875,35.25,36.25
0.33805373,-1.087287,-1.747061,-1.2840378,-0.026730325,0.015641777,-0.15155575,-0.4076247,-0.34135184,0.059909146,3.0660238,-0.63255364,0.00020494162,-0.16214326,0.043601938,0.00063304225,-0.064915575,0.020654356,-0.029126057,0.43606693,-1.397027,1.9252957,-2.1040823,-1.5617751,2.4174507,-0.2430603,0.18035248,-0.20743814,-0.017340777,0.051006693,-0.21356806,-0.1340753,0.24899697,-9.385271,0.9298854,47.667187,-1.3504648,-2.21068,-3.4004464,-0.7051908,0.341263,-0.18691856,28.375,29.5625,28.8125,32.875,35.25,36.25
0.34005368,-1.0048586,-1.3933588,-1.0356251,-0.029688457,0.023070179,-0.1644171,-0.40794572,-0.3412671,0.059906784,3.0658474,-0.63259894,0.0002298061,-0.16345727,0.044840325,0.0008905786,-0.064772785,0.021191785,-0.040088624,0.43556216,-1.3966666,1.9248899,-2.104118,-1.561632,2.416998,-0.24587801,0.18045767,-0.2082654,-0.01706202,0.050636537,-0.20542066,-0.22984336,0.15322891,-9.385271,0.9298854,47.670765,-1.2143928,-2.1769886,-3.3360195,-0.7192682,0.34193546,-0.26059434,28.375,29.5625,28.8125,32.875,35.25,36.25
0.3420533,-1.7034882,-1.1876926,-0.8568156,-0.041339897,0.03742605,-0.15531893,-0.40827686,-0.3411831,0.059913393,3.0656266,-0.6327867,0.00020005612,-0.16498801,0.04604011,0.0009850494,-0.06626397,0.020722538,-0.048780493,0.4350568,-1.3963183,1.9244832,-2.1041777,-1.5614985,2.4166396,-0.2500188,0.18099588,-0.20919162,-0.016871812,0.0522023,-0.20085526,-0.34476504,0.2873042,-9.270349,0.93436235,47.67614,-1.0804313,-2.2368295,-3.2927792,-0.71159744,0.37310186,-0.36194766,28.375,29.5625,28.8125,32.875,35.25,36.25
0.34405378,-1.5177394,-1.4478003,-0.9995338,-0.031285107,0.06759862,-0.16984212,-0.4086118,-0.34109953,0.05992088,3.0654914,-0.6328378,0.00012752885,-0.16674386,0.045898803,0.0018916317,-0.06933448,0.021732975,-0.053304825,0.43458804,-1.3959458,1.9240402,-2.1042135,-1.561426,2.4162211,-0.25249875,0.18152958,-0.21190988,-0.016885553,0.054585263,-0.19879167,-0.2873042,0.34476504,-9.3661175,0.8918391,47.691364,-0.91861606,-2.0291164,-3.2602491,-0.7025964,0.34561127,-0.37789023,28.375,29.5625,28.8125,32.875,35.25,36.25
0.34605384,-1.6003131,-1.8365775,-1.2364379,-0.026843872,0.073689066,-0.16591968,-0.4089362,-0.34098545,0.05991675,3.065329,-0.63295305,0.00018393426,-0.16709511,0.04395123,0.003783429,-0.07320623,0.023598272,-0.047458366,0.4340365,-1.3955976,1.923644,-2.104213,-1.561293,2.4157634,-0.2508901,0.18034124,-0.21511763,-0.015724355,0.057374418,-0.2030116,-0.17238252,0.28730422,-9.423578,0.83589023,47.687782,-1.05124,-2.0318003,-3.223935,-0.7127528,0.33866066,-0.38992065,28.375,29.5625,28.8125,32.875,35.25,36.25
0.34805363,-1.4776651,-1.3698184,-1.0124047,-0.04695859,0.075807385,-0.16965787,-0.40924168,-0.34088975,0.05988272,3.0652263,-0.6330395,0.00025372862,-0.1681006,0.043812815,0.0044367206,-0.07366853,0.02552671,-0.03817622,0.4335569,-1.3951892,1.9232506,-2.1042378,-1.5611976,2.4153516,-0.25107294,0.1806,-0.21690615,-0.016001312,0.057070695,-0.21247785,-0.38307226,0.2681506,-9.461885,0.9254084,47.677036,-1.203489,-1.9962192,-3.2092094,-0.7160919,0.32646942,-0.3199692,28.375,29.5625,28.8125,32.875,35.25,36.25
0.35005412,-1.6338836,-1.4968842,-1.2562035,-0.021889819,0.06277133,-0.1676891,-0.40960327,-0.34080365,0.059908327,3.0650358,-0.6331473,0.00018562782,-0.16867268,0.044055365,0.0040515405,-0.07404259,0.024728753,-0.0281645,0.4330403,-1.3948159,1.9227599,-2.1042492,-1.5610889,2.4149282,-0.25223422,0.18215418,-0.21794249,-0.015795348,0.057876095,-0.22363976,-0.51714754,0.22984336,-9.385271,0.95226496,47.68062,-1.1692706,-1.9088457,-3.1660218,-0.6890355,0.34073865,-0.18608618,28.375,29.5625,28.8125,32.875,35.25,36.25
0.35205382,-1.4938896,-1.0639272,-1.4746225,-0.011999668,0.054218285,-0.16283152,-0.40998566,-0.34073147,0.059964366,3.064769,-0.63318366,-3.8943574e-05,-0.16901308,0.043613773,0.0038599481,-0.07620975,0.023714902,-0.024291473,0.43252394,-1.3945035,1.9222935,-2.1043575,-1.5609678,2.414471,-0.25306043,0.18339425,-0.21894531,-0.015927624,0.060386073,-0.22830985,-0.30645782,0.21068975,-9.481039,0.8851263,47.684196,-1.2720172,-1.9380051,-3.2270918,-0.6804637,0.3381318,-0.09832856,28.375,29.5625,28.8125,32.875,35.25,36.25
0.35405374,-1.9181415,-1.5961285,-1.5325333,-0.021113137,0.050680112,-0.15110737,-0.41029012,-0.34064186,0.05993177,3.06469,-0.63318896,4.83567e-05,-0.16802494,0.042755272,0.002610532,-0.07737474,0.019965038,-0.027917637,0.43205628,-1.3940815,1.9218749,-2.104357,-1.560871,2.4140172,-0.2521849,0.18581852,-0.2191583,-0.015225368,0.06300691,-0.22379297,-0.30645782,0.19153614,-9.576807,0.92093146,47.684196,-1.2716091,-2.138658,-3.4044333,-0.6792069,0.3001925,-0.07578291,28.375,29.5625,28.8125,32.875,35.25,36.25
0.35605374,-1.5210935,-1.1974002,-1.217309,-0.02698232,0.051492006,-0.14849526,-0.4106102,-0.340566,0.059907153,3.0644958,-0.6332676,0.00017929642,-0.16767603,0.043018974,0.0011393788,-0.0774777,0.016358946,-0.03669749,0.43154025,-1.3936608,1.9214457,-2.1043808,-1.5606784,2.4135764,-0.25313252,0.18838634,-0.21898893,-0.0147391455,0.0645866,-0.21594937,-0.34476504,0.05746084,-9.576807,0.9231726,47.66987,-1.356069,-2.0396523,-3.4386563,-0.66906667,0.28673157,-0.18486765,28.375,29.5625,28.8125,32.875,35.25,36.25
0.35805365,-0.5302409,-0.85824496,-1.3561662,-0.030882496,0.059879817,-0.16725728,-0.41095126,-0.3404512,0.059911683,3.0643353,-0.6334495,0.00017275648,-0.1686222,0.04286149,0.0016559871,-0.08013085,0.015936939,-0.046954557,0.4309993,-1.3933004,1.9210147,-2.1043804,-1.5605816,2.4131708,-0.25500473,0.18885252,-0.22090192,-0.014056218,0.06715014,-0.20754395,-0.22984336,0.17238252,-9.595961,0.9388393,47.67345,-1.3746485,-1.9770856,-3.5519369,-0.6745968,0.2395794,-0.2912231,28.375,29.5625,28.8125,32.875,35.25,36.25
0.36005354,-0.7462126,-1.3791952,-1.6436518,-0.021368409,0.04571781,-0.15775864,-0.41131768,-0.34037262,0.059944928,3.0641077,-0.63356125,2.6869384e-05,-0.17013133,0.04325473,0.00071049144,-0.081237204,0.01434369,-0.058511104,0.43049476,-1.3929508,1.9205478,-2.1044528,-1.5604733,2.4127672,-0.25772297,0.19248691,-0.22288287,-0.01476404,0.068811595,-0.1986813,-0.019153614,0.1340753,-9.595961,0.93436235,47.67345,-1.2788763,-2.1125998,-3.5437903,-0.6604237,0.21703395,-0.40794772,28.375,29.5625,28.8125,32.875,35.25,36.25
0.36205438,-0.8245555,-1.2497064,-1.5202442,-0.019162174,0.0055361013,-0.1624228,-0.411669,-0.3402723,0.059930902,3.063914,-0.6337506,8.1249826e-05,-0.17156455,0.042993397,0.00037809156,-0.083623976,0.01316476,-0.060851585,0.42994165,-1.3925292,1.9200929,-2.1044767,-1.5603284,2.4123585,-0.25987142,0.19549601,-0.22567905,-0.014845714,0.071501896,-0.19846775,0.076614454,0.15322891,-9.595961,0.9388393,47.67345,-1.1291833,-2.2089195,-3.472504,-0.64011264,0.19073159,-0.47896913,28.375,29.5625,28.8125,32.875,35.25,36.25
0.3640541,-0.3947225,-1.1900314,-1.7233815,-0.025983788,-0.009160514,-0.15993924,-0.41198087,-0.34019214,0.05994443,3.0637252,-0.6337627,0.00010002241,-0.17286295,0.043704335,0.00035782089,-0.08508975,0.013305107,-0.054827828,0.42944908,-1.3922045,1.9196862,-2.1044886,-1.5601715,2.411899,-0.26281783,0.19630904,-0.22648562,-0.015434907,0.07288311,-0.20742345,0.019153614,0.17238252,-9.653421,0.97464454,47.711964,-1.1283904,-2.290693,-3.4386144,-0.644951,0.14637515,-0.4701866,28.375,29.5625,28.8125,32.875,35.25,36.25
0.36605403,-0.6235876,-1.6793315,-1.5429701,-0.027651314,0.0011838881,-0.15351634,-0.41234413,-0.34011692,0.05995409,3.0634782,-0.63389343,0.00011049526,-0.17342885,0.04330114,0.0012722418,-0.08666349,0.01464176,-0.042989362,0.4289093,-1.3917967,1.9191965,-2.1045244,-1.5599912,2.4114745,-0.26294464,0.19572766,-0.22803906,-0.014969618,0.07389882,-0.21937504,-0.17238252,0.15322891,-9.442732,0.8672237,47.733456,-1.108104,-2.162316,-3.3755243,-0.62668365,0.0997514,-0.33474702,28.375,29.5625,28.8125,32.875,35.25,36.25
0.3680537,-1.055088,-1.7524987,-1.7692629,-0.023596896,0.020677611,-0.16111517,-0.4126852,-0.34004262,0.05994957,3.0632958,-0.633947,0.00015947758,-0.17504859,0.043668263,0.0019474971,-0.08794559,0.015329733,-0.035628676,0.42840454,-1.3913759,1.9187177,-2.1045358,-1.5598348,2.411028,-0.2652786,0.19655345,-0.23082039,-0.01399975,0.07489129,-0.2290586,-0.095768064,0.24899697,-9.481039,0.8717007,47.696735,-1.1455598,-2.2815747,-3.4840791,-0.60802686,0.07281138,-0.21359587,28.375,29.5625,28.8125,32.875,35.25,36.25
0.37005362,-1.3388064,-1.6238441,-1.5554804,-0.03496361,0.06345656,-0.15179074,-0.41304454,-0.33994034,0.059939474,3.0631034,-0.634004,0.00012362275,-0.17597632,0.044347018,0.0020096106,-0.08821885,0.014435943,-0.03772328,0.4278516,-1.3909792,1.9182991,-2.1046317,-1.5597028,2.4105368,-0.26738542,0.19759656,-0.23258576,-0.012508915,0.075565174,-0.22905761,-0.17238252,0.36391866,-9.615114,0.9410752,47.670765,-1.0158664,-2.1815157,-3.3692775,-0.6214339,0.02697689,-0.18692729,28.375,29.5625,28.8125,32.875,35.25,36.25
0.37205365,-1.7093716,-1.6555269,-1.282463,-0.043769516,0.09088589,-0.15466893,-0.41338462,-0.33984724,0.05993931,3.06293,-0.63410515,0.00017477824,-0.176894,0.044685185,0.0020927773,-0.085195385,0.01574926,-0.044290714,0.42732424,-1.3905821,1.9178323,-2.1046188,-1.5595602,2.4100962,-0.266392,0.19938314,-0.23515235,-0.011670885,0.07224427,-0.22151297,-0.32561144,0.34476504,-9.557653,0.8537928,47.668976,-1.103188,-2.0849414,-3.3234801,-0.6199485,0.062366776,-0.26515275,28.375,29.5625,28.8125,32.875,35.25,36.25
0.37405333,-2.1290233,-1.4241118,-1.4037178,-0.022995899,0.087213315,-0.16005243,-0.41372716,-0.33975512,0.05994353,3.062759,-0.6341864,0.00022494036,-0.1780059,0.044543106,0.0026888736,-0.08485686,0.017062413,-0.05048064,0.42679626,-1.3901856,1.9173535,-2.104595,-1.5594162,2.4096422,-0.26624477,0.20046797,-0.23801358,-0.010948416,0.071375854,-0.21517612,-0.45968673,0.21068975,-9.557653,0.90750587,47.687782,-1.1789008,-2.025981,-3.1865344,-0.6149386,0.046286687,-0.33065802,28.375,29.5625,28.8125,32.875,35.25,36.25
0.37605417,-2.2575078,-0.6540211,-1.4726936,-0.019051543,0.10112237,-0.15316322,-0.41408265,-0.3396726,0.059952978,3.062536,-0.63433063,0.00022396028,-0.17894237,0.045098517,0.0032015615,-0.08279282,0.020002035,-0.053530183,0.4262683,-1.3897892,1.9168743,-2.1046193,-1.5592612,2.4092348,-0.26578718,0.20035122,-0.23895876,-0.011667686,0.06829836,-0.21168205,-0.5554548,0.22984336,-9.557653,0.842603,47.698532,-1.281513,-2.0201309,-3.2171931,-0.6391609,0.040159725,-0.41345698,28.375,29.5625,28.8125,32.875,35.25,36.25
