Tylouw/Master_Thesis_Code/training_data/batch_1/small_rod_t0.3/sample_7_session_1.csv
timestamp[s],tcp_force_x[N],tcp_force_y[N],tcp_force_z[N],tcp_force_rx[Nm?],tcp_force_ry[Nm?],tcp_force_rz[Nm?],tcp_pose_x[m],tcp_pose_y[m],tcp_pose_z[m],tcp_pose_rx[rot_vec_x],tcp_pose_ry[rot_vec_y],tcp_pose_rz[rot_vec_z],tcp_velo_x[m/s],tcp_velo_y[m/s],tcp_velo_z[m/s],tcp_velo_rx[rot_vec_x/s],tcp_velo_ry[rot_vec_y/s],tcp_velo_rz[rot_vec_z/s],q1[rad],q2[rad],q3[rad],q4[rad],q5[rad],q6[rad],qd1[rad/s],qd2[rad/s],qd3[rad/s],qd4[rad/s],qd5[rad/s],qd6[rad/s],tool_acc_x,tool_acc_y,tool_acc_z,current_of_whole_robot[A],voltage_of_whole_robot[V],current_J1[A],current_J2[A],current_J3[A],current_J4[A],current_J5[A],current_J6[A],temp_J1[C],temp_J2[C],temp_J3[C],temp_J4[C],temp_J5[C],temp_J6[C]
7.3900446e-07,-0.39186868,0.25137866,1.391015,-0.018789813,0.00055714877,-0.021850778,-0.3810707,-0.34852517,0.059981477,-3.078503,0.6248743,-0.00015154685,0.0021945606,0.0011211784,-0.0019330644,0.0021960035,-0.0044919997,7.075221e-05,0.4777981,-1.425934,1.9576792,-2.100797,-1.5707816,2.452752,-4.2423108e-05,-9.182683e-06,0.004256694,0.00075073616,0.00012631831,-0.00011569997,0.095768064,0.1340753,-8.772355,0.7486078,47.695843,0.101934984,-2.80382,-2.472209,-0.4644109,0.14850576,0.05965273,28.375,29.5625,28.75,32.8125,35.125,36.25
0.002053415,-0.43871975,0.21642524,1.5014932,-0.010617799,-0.0011493567,-0.01503128,-0.381056,-0.34851968,0.059955504,-3.0785043,0.624932,-0.00018754363,-0.00023520588,-0.0001454533,-0.003658794,-0.00065570173,0.0009648605,7.179133e-05,0.47778618,-1.4259323,1.9577512,-2.1008608,-1.5707573,2.452776,-4.1766874e-05,0.0046308194,0.0056976504,-0.011487269,0.0001243853,-0.00011361353,-0.019153614,0.19153613,-8.714894,0.71279734,47.675243,0.029581554,-2.862513,-2.5394955,-0.39479446,0.15041007,0.057581272,28.375,29.5625,28.75,32.8125,35.125,36.25
0.004052107,-0.7276384,-0.024808394,1.3500012,-0.0057311235,-0.013460207,-0.019599093,-0.3810648,-0.34851974,0.059950072,-3.0784988,0.6249117,-0.00017472805,-0.0016053758,-0.00085860037,-0.0026232407,-0.0025308852,0.0045731813,7.1574694e-05,0.47778618,-1.4259084,1.9577392,-2.1008732,-1.5707697,2.452764,-4.1130726e-05,0.0043123434,0.0042081513,-0.013745775,0.000122012854,-0.00011160096,0.019153614,0.11492168,-8.676587,0.7597976,47.690468,0.03836633,-3.2355013,-2.6840115,-0.29621518,0.1367014,0.043625783,28.375,29.5625,28.75,32.8125,35.125,36.25
0.006052173,-0.3637749,0.810122,1.2938436,-0.00024312224,-0.023838375,-0.024126792,-0.38106936,-0.34852213,0.059948888,-3.0785055,0.624952,-0.00014665116,-0.0007073482,-0.0003900063,-0.0018610704,-0.0012055426,0.0020410882,8.11478e-05,0.47778618,-1.425909,1.9577502,-2.1009066,-1.5707697,2.4527884,-4.051353e-05,0.002776239,0.0029251943,-0.008068747,0.000119697004,-0.00012128555,0.076614454,0.17238252,-8.7532015,0.76874626,47.679718,0.020852659,-3.064564,-2.6821601,-0.32549244,0.1514279,0.06212428,28.375,29.5625,28.75,32.8125,35.125,36.25
0.008052508,0.025934687,1.0194267,0.90071887,0.037726946,-0.04072326,-0.016807416,-0.38106185,-0.34852943,0.059952103,-3.0785153,0.62491506,-0.00017349028,-0.0006663499,-0.00036742116,-9.386125e-05,-0.001474424,0.0025764047,8.3075436e-05,0.4777981,-1.42591,1.9577383,-2.1008818,-1.5707573,2.452776,-3.99156e-05,4.8481743e-05,0.0010943774,-0.0041091633,0.00011746548,-0.00012291598,0.0,0.1340753,-8.810662,0.7284641,47.672558,0.054242507,-2.9019017,-2.6061573,-0.37686998,0.14417,0.035213828,28.375,29.5625,28.75,32.8125,35.125,36.25
0.010052573,0.7946314,1.5481361,0.565737,0.031943943,-0.021001356,-0.028899793,-0.38105476,-0.34851015,0.05992611,-3.0784678,0.62490547,-0.00020668449,-0.0005835027,-0.00031903302,0.00012419633,-0.0011189514,0.0018989817,7.3297466e-05,0.47778615,-1.425886,1.9577731,-2.1008937,-1.5707816,2.452764,-4.7965685e-05,6.5044446e-07,0.00028025697,-0.0024821893,0.00011531527,-0.00012111254,0.0,0.11492168,-9.097966,0.6859408,47.660015,-0.43345267,-2.4911282,-2.9081736,-0.4061566,0.15025602,-0.023118667,28.375,29.5625,28.75,32.8125,35.125,36.25
0.012051728,-0.2952852,0.021476816,0.13504389,0.010696008,-0.022501754,-0.019789955,-0.38104755,-0.34852615,0.05993569,-3.078501,0.624834,-0.00026040568,9.7187134e-05,8.444787e-05,-0.0033057458,0.0022857378,-0.0046888795,0.0029949567,0.47779804,-1.4258839,1.9577378,-2.1008456,-1.5707458,2.452727,-0.00014341167,0.006978352,3.7600046e-06,-0.0017682072,0.000121205,-0.003137124,0.05746084,0.1340753,-9.212888,0.7620334,47.664497,-0.6903103,-2.536465,-3.0365481,-0.4282205,0.16442066,-0.111402616,28.375,29.5625,28.75,32.8125,35.125,36.25
0.014051873,-0.6874834,-0.484854,0.11888984,-0.0367533,0.0033765857,-0.036467064,-0.3810689,-0.34851307,0.05991875,-3.078471,0.6248467,-0.00025365132,-0.0047699613,0.0033638943,-0.004187932,0.0030046413,-0.00611352,0.0025263152,0.47777048,-1.425834,1.9577249,-2.100869,-1.5707697,2.4527113,-0.010486193,0.012164607,-0.003980368,-0.0013764461,0.00012659839,-0.013008516,0.05746084,0.15322891,-9.461885,0.7709874,47.682407,-0.37342504,-2.9671004,-3.0790238,-0.4282822,0.16525522,-0.032622557,28.375,29.5625,28.75,32.8125,35.125,36.25
0.016051903,-1.5530337,-0.8354818,0.018608643,-0.06554552,0.022303682,-0.049826313,-0.38105473,-0.34850305,0.059896454,-3.078415,0.6249089,-0.0003670918,-0.0064987605,0.003636373,-0.0027898818,0.0016503438,-0.003578428,0.008378935,0.47775772,-1.4257983,1.9577245,-2.1008213,-1.5707573,2.4527445,-0.012589636,0.011158965,-0.0060821106,-0.001144186,0.0001550964,-0.02096379,-0.076614454,0.19153613,-9.5385,0.7665104,47.687782,-0.2845186,-2.9063494,-2.9846904,-0.43771762,0.17927617,-0.004761804,28.375,29.5625,28.75,32.8125,35.125,36.25
0.018051753,-1.7588531,-0.94467574,-0.16235532,-0.06207922,0.046100836,-0.06583583,-0.38107285,-0.34849235,0.059911136,-3.078427,0.6248908,-0.00035120323,-0.0058613415,0.0037612438,-0.0026182213,0.0017863859,-0.0039570183,0.012107311,0.47772193,-1.4258108,1.9576997,-2.100797,-1.5707573,2.4526958,-0.012256296,0.009902726,-0.0052236966,-0.00034833714,0.00021075085,-0.024359722,-0.4213795,0.21068975,-9.80665,0.7038487,47.690468,-0.5037661,-2.6214676,-3.1713045,-0.47564036,0.16469026,0.023431195,28.375,29.5625,28.75,32.8125,35.125,36.25
0.020051872,-1.6882408,-0.79640585,-0.30611894,-0.036426865,0.06813825,-0.10166079,-0.38106602,-0.34850216,0.059883285,-3.0784347,0.62474036,-0.00039718157,-0.006123042,0.0043808557,-0.0036391164,0.00086198555,-0.0068882215,0.009374116,0.477745,-1.4257503,1.9576997,-2.1008208,-1.5707563,2.452624,-0.015010709,0.01156182,-0.0048029604,-0.00025805525,0.002379676,-0.024385083,-0.51714754,0.24899697,-9.787497,0.7866488,47.698532,-0.55263746,-2.592627,-3.3297243,-0.47347987,0.18394603,0.023787696,28.375,29.5625,28.75,32.8125,35.125,36.25
0.022052322,-1.6298481,-0.15092207,-0.4618839,-0.013283203,0.06626748,-0.112344034,-0.3810481,-0.3484832,0.0598492,-3.07842,0.62473917,-0.00054756185,-0.00721951,0.0039190603,-0.003499689,-0.0017729893,-0.0076099886,0.0057195714,0.4776963,-1.4257257,1.9577469,-2.1008089,-1.5707077,2.4525764,-0.016939444,0.01308258,-0.006841515,-0.0003188999,0.0050455593,-0.022663537,-0.51714754,0.24899697,-9.825804,0.8023209,47.66808,-0.6386821,-2.6642132,-3.446836,-0.48116073,0.15126872,0.0048635756,28.375,29.5625,28.75,32.8125,35.125,36.25
0.024052372,-1.9792763,-0.028375305,-0.37404102,0.003395265,0.050849237,-0.122591555,-0.381076,-0.34847924,0.05985293,-3.0784264,0.6248383,-0.0005566443,-0.008795374,0.0037651702,-0.0029591336,-0.002568807,-0.0062469635,0.0027629696,0.4776479,-1.4257014,1.9577106,-2.1008089,-1.5706838,2.452589,-0.018173499,0.014325492,-0.009445317,-0.0005336614,0.0051205223,-0.020939523,-0.6512228,0.15322891,-9.844957,0.78888994,47.674347,-0.6099144,-2.5673442,-3.46172,-0.49480724,0.13202403,-0.015260085,28.375,29.5625,28.75,32.8125,35.125,36.25
0.026052542,-1.8559964,0.08144849,-0.269222,0.008677847,0.05911099,-0.15021469,-0.3810969,-0.34847438,0.059845176,-3.0784123,0.6247792,-0.0005456561,-0.010307646,0.0035118873,-0.0022749803,-0.0028946544,-0.004208945,0.00079143833,0.4776357,-1.4256531,1.9576734,-2.1008093,-1.5707082,2.4525418,-0.018698737,0.015344019,-0.012096868,-0.0008582725,0.004467105,-0.01949041,-0.7852981,0.17238252,-9.768343,0.7486078,47.699425,-0.64083296,-2.5430212,-3.4199886,-0.50266963,0.14590502,-0.03481305,28.375,29.5625,28.75,32.8125,35.125,36.25
0.028052514,-2.4205363,-0.2974743,-0.4984746,0.008710599,0.05854398,-0.14780766,-0.38113427,-0.34847122,0.059857007,-3.0784433,0.6248246,-0.0004994035,-0.011568944,0.003048044,-0.00219658,-0.0033912016,-0.002164026,-1.076325e-05,0.47758773,-1.4256406,1.9576377,-2.1008337,-1.5706962,2.4525182,-0.018712245,0.01696906,-0.013647114,-0.0029750464,0.003961148,-0.018699048,-0.63206923,0.076614454,-9.749189,0.784413,47.70211,-0.67639464,-2.5034778,-3.4252276,-0.4850306,0.15715763,-0.08114757,28.375,29.5625,28.75,32.8125,35.125,36.25
0.030051624,-2.5266745,-0.6140089,-0.35952064,-0.0054125655,0.066569366,-0.16709407,-0.3811436,-0.3484823,0.059846126,-3.0784647,0.62475157,-0.00057758845,-0.012435568,0.0033213522,-0.0019052104,-0.0043074153,-0.0014521885,-0.0013458831,0.4775752,-1.4255809,1.957589,-2.1008103,-1.57066,2.4524574,-0.020313622,0.016919658,-0.014141635,-0.00348548,0.004444641,-0.018966064,-0.6895301,-0.076614454,-9.864111,0.79560274,47.685097,-0.72552407,-2.5051532,-3.4084477,-0.47503757,0.17103684,-0.09016438,28.375,29.5625,28.75,32.8125,35.125,36.25
0.03205168,-1.878072,0.06490296,-0.15463749,-0.027299846,0.072596245,-0.18719882,-0.38118201,-0.3484727,0.05984925,-3.07847,0.62481177,-0.00057547144,-0.013647727,0.0033018268,-0.0014599292,-0.005673698,-0.0013768896,-0.0027509844,0.47751448,-1.4255445,1.9575404,-2.1008098,-1.5706476,2.4524336,-0.022163335,0.017775685,-0.01626563,-0.0029160876,0.005620276,-0.019411856,-0.63206923,-0.019153614,-9.768343,0.79560274,47.67614,-0.73586744,-2.509742,-3.3623645,-0.49053887,0.16647336,-0.10164356,28.375,29.5625,28.75,32.8125,35.125,36.25
0.034052067,-2.0205212,-0.370211,-0.20809673,0.0011919921,0.050651826,-0.19275387,-0.38117462,-0.34844872,0.05980781,-3.0784118,0.62479997,-0.00069326535,-0.014011469,0.0032629967,-0.0011947647,-0.0073553715,-0.002069625,-0.0033324827,0.47747803,-1.4254848,1.9575642,-2.100798,-1.5706466,2.452397,-0.023607105,0.017665127,-0.016873218,-0.0023618853,0.007429863,-0.020278245,-0.6703765,-0.038307227,-9.768343,0.7530795,47.691364,-0.7591386,-2.4306197,-3.3743584,-0.5049447,0.14853665,-0.13104048,28.375,29.5625,28.75,32.8125,35.125,36.25
0.036052503,-2.0102253,-0.09520349,-0.24687217,0.020605532,0.030524407,-0.19915295,-0.38124424,-0.34843326,0.05982896,-3.0784469,0.6248837,-0.00056465296,-0.01493133,0.0029824602,-0.0004545993,-0.008458873,-0.00096987357,-0.0028744845,0.4773939,-1.4254726,1.9575156,-2.100857,-1.5706586,2.4523609,-0.024263145,0.017727898,-0.0187004,-0.0020826878,0.007902909,-0.021391632,-0.45968673,-0.038307227,-9.768343,0.7284641,47.67614,-0.7411169,-2.4646757,-3.3448095,-0.5054429,0.1340647,-0.15999252,28.375,29.5625,28.75,32.8125,35.125,36.25
0.038052376,-1.476548,0.20997496,-0.14326276,0.028366806,0.033111952,-0.20478055,-0.38125595,-0.3484478,0.059823886,-3.0784843,0.62483335,-0.0005728616,-0.016660295,0.0029273133,-0.00012967165,-0.009283526,0.0007550189,-0.003248831,0.47739336,-1.4254363,1.9574913,-2.1008818,-1.5706347,2.4523242,-0.025720749,0.019185541,-0.02082193,-0.003329024,0.00783513,-0.022473106,-0.36391866,-0.019153614,-9.787497,0.7284641,47.66987,-0.74730396,-2.4595523,-3.245534,-0.510835,0.13553931,-0.16563852,28.375,29.5625,28.75,32.8125,35.125,36.25
0.04005232,-1.0437627,0.6007841,0.18630639,0.00891628,0.04453497,-0.21339367,-0.38130978,-0.34844843,0.05984971,-3.0784962,0.62489384,-0.0005271021,-0.018087383,0.0031756915,0.00010742756,-0.010759394,0.0031262788,-0.0033966491,0.47734466,-1.4254004,1.9573835,-2.1008475,-1.5706347,2.4523118,-0.027618323,0.019228067,-0.020754285,-0.006223901,0.008050373,-0.024222434,-0.38307226,-0.095768064,-9.653421,0.7866488,47.703007,-0.7131512,-2.3507526,-3.3143983,-0.48232836,0.14250922,-0.18554261,28.375,29.5625,28.75,32.8125,35.125,36.25
0.0420531,-0.602716,0.31252474,-0.016881717,0.015286866,0.055255253,-0.1981935,-0.38135913,-0.3484285,0.05984281,-3.0785284,0.62493944,-0.00050809275,-0.019258881,0.0034134297,0.00042902923,-0.011692771,0.0039924644,-0.003204581,0.47724807,-1.4253643,1.9573716,-2.1009066,-1.5706109,2.4522395,-0.029398812,0.019634625,-0.021833753,-0.006749343,0.008478811,-0.026194809,-0.22984336,-0.076614454,-9.557653,0.76874626,47.687782,-0.71184194,-2.4331214,-3.364443,-0.4627347,0.11861691,-0.20560515,28.375,29.5625,28.75,32.8125,35.125,36.25
0.04405203,-0.8625689,-0.31753132,-0.12409645,0.02274655,0.03711482,-0.18288341,-0.38138342,-0.34840265,0.05984111,-3.0785084,0.624953,-0.0005097668,-0.020238878,0.0039027892,0.0006020736,-0.010856459,0.0041090697,-0.002370602,0.47718772,-1.425352,1.9573587,-2.1008947,-1.5706233,2.4521902,-0.030654881,0.020620788,-0.023594696,-0.00569099,0.007680344,-0.0282826,-0.22984336,-0.019153614,-9.481039,0.7083204,47.699425,-0.7128736,-2.3209586,-3.2719016,-0.4669608,0.12510681,-0.21186835,28.375,29.5625,28.75,32.8125,35.125,36.25
0.046052516,-1.17896,-0.06773982,0.11201355,0.015656918,0.015439658,-0.18659845,-0.3814288,-0.3484189,0.05983833,-3.0785506,0.62496185,-0.0005171558,-0.02189008,0.004474512,0.0016114237,-0.010764488,0.0057241507,-0.0025825845,0.47715107,-1.425268,1.9572748,-2.100918,-1.570587,2.4521537,-0.032657396,0.020557554,-0.026099019,-0.004511541,0.0068544787,-0.030070385,-0.095768064,0.11492168,-9.500193,0.79560274,47.657326,-0.7458681,-2.3321817,-3.2159405,-0.48553705,0.13409016,-0.22411983,28.375,29.5625,28.75,32.8125,35.125,36.25
0.048052438,-0.36061373,-0.23324515,0.010281257,0.01729065,0.018158458,-0.1895985,-0.38146698,-0.34838662,0.059841916,-3.0785415,0.6249595,-0.00050456927,-0.022507962,0.0052061034,0.0015213815,-0.010164834,0.0054399916,-0.001700665,0.47706643,-1.425256,1.95725,-2.1009057,-1.5705994,2.4520688,-0.034264483,0.020977158,-0.026484616,-0.0040160874,0.006452401,-0.03255847,-0.019153614,0.11492168,-9.557653,0.7597976,47.67614,-0.6709095,-2.237708,-3.243979,-0.4854372,0.15188815,-0.2433987,28.375,29.5625,28.75,32.8125,35.125,36.25
0.050052065,-0.9915137,-0.3275013,-0.041380487,0.006108047,-0.0106059285,-0.1827977,-0.38153213,-0.348395,0.059866928,-3.0786316,0.6249771,-0.0004763041,-0.023423048,0.0051911087,0.0016055042,-0.010972692,0.0056091505,-0.00040245694,0.47698206,-1.4252197,1.9571542,-2.100918,-1.5705394,2.451984,-0.035492796,0.02200274,-0.027791785,-0.004255325,0.0070913453,-0.035084818,0.05746084,0.17238252,-9.5385,0.800085,47.682407,-0.68988883,-2.3340197,-3.2920547,-0.49916095,0.13853699,-0.24492088,28.375,29.5625,28.75,32.8125,35.125,36.25
0.052051775,-0.40029952,-0.9532712,0.007485066,-0.0021224306,0.009889704,-0.18546756,-0.38160652,-0.3483709,0.059884816,-3.0786116,0.62499243,-0.0003588063,-0.024772104,0.005377823,0.0019221711,-0.011500368,0.006717284,-0.00034618907,0.4769095,-1.4251714,1.9570583,-2.100918,-1.5705994,2.4519236,-0.03703809,0.02286572,-0.029387688,-0.004750538,0.0070488313,-0.03668493,0.11492168,0.24899697,-9.404425,0.7933669,47.67166,-0.6936388,-2.2182186,-3.27886,-0.49039292,0.14695963,-0.24177907,28.375,29.5625,28.75,32.8125,35.125,36.25
0.05405252,-0.825425,-1.1466019,-0.18445018,-0.011370565,0.0018103084,-0.17722349,-0.3816273,-0.34835866,0.05986471,-3.0786085,0.6250485,-0.00046364786,-0.02547237,0.005502584,0.0018991783,-0.011828829,0.0068627615,0.0007470216,0.4768372,-1.4251113,1.957033,-2.1009061,-1.5705513,2.4518867,-0.038047753,0.02367387,-0.03019476,-0.0050300388,0.007269884,-0.038787946,0.019153614,0.34476504,-9.404425,0.779936,47.705692,-0.745247,-2.1707218,-3.2906532,-0.4906335,0.1504802,-0.2685875,28.375,29.5625,28.75,32.8125,35.125,36.25
0.056051865,-0.80280304,-1.0859709,-0.047284752,-0.017531145,0.0052069994,-0.17809148,-0.3816861,-0.3483486,0.0598705,-3.0786498,0.6249988,-0.0004061247,-0.02626745,0.005601984,0.0024504608,-0.012899215,0.0073516215,0.0017163889,0.47676468,-1.4250635,1.9569734,-2.100942,-1.5705508,2.451778,-0.03942511,0.023469936,-0.031312425,-0.0046359617,0.0079970695,-0.041135155,-0.05746084,0.22984336,-9.481039,0.81351066,47.701214,-0.7294765,-2.2059407,-3.1867874,-0.49782574,0.14558122,-0.26942495,28.375,29.5625,28.75,32.8125,35.125,36.25
0.05805191,-0.4715522,-0.719056,0.040028084,-0.018631412,0.016899323,-0.18387987,-0.38172466,-0.34834376,0.059885595,-3.0786984,0.6249697,-0.00038646033,-0.027035816,0.0053436016,0.0030369645,-0.014568273,0.007772028,0.0027791057,0.47670436,-1.4250516,1.9569253,-2.100942,-1.570526,2.4516933,-0.04050846,0.02349053,-0.032735065,-0.0043763258,0.009286377,-0.04328249,-0.019153614,0.15322891,-9.442732,0.73069996,47.689575,-0.7358198,-2.1528184,-3.1973343,-0.4967178,0.14583217,-0.28328547,28.375,29.5625,28.75,32.8125,35.125,36.25
0.060051844,-0.8064229,-0.6571566,-0.14184327,-0.0074374964,0.008380978,-0.19222423,-0.3817916,-0.3483264,0.05987759,-3.0787094,0.62504786,-0.00039557906,-0.027392067,0.0053749615,0.0027873428,-0.014605407,0.007165638,0.004076528,0.47659618,-1.4249672,1.9568528,-2.1009657,-1.5705022,2.4516325,-0.041088443,0.024610585,-0.0334767,-0.0042318595,0.009597824,-0.0451598,-0.019153614,0.2681506,-9.5385,0.75755644,47.678825,-0.7928454,-2.0983129,-3.1653476,-0.51003206,0.1614567,-0.28479993,28.375,29.5625,28.75,32.8125,35.125,36.25
0.062051833,-0.5560433,-0.7095773,0.00972828,-0.0045669605,0.01644872,-0.17580326,-0.3818684,-0.34829223,0.05990121,-3.0786972,0.6251216,-0.0003009339,-0.02824979,0.005330465,0.0025720154,-0.015120779,0.007179114,0.0041931467,0.47648776,-1.4249429,1.9567684,-2.1009543,-1.5705379,2.4515717,-0.04208709,0.02616839,-0.03460738,-0.004909472,0.010049015,-0.0462744,-0.095768064,0.24899697,-9.481039,0.779936,47.666286,-0.8077874,-2.1689193,-3.2132175,-0.49947655,0.148222,-0.32496953,28.375,29.5625,28.75,32.8125,35.125,36.25
0.064051844,-0.81039464,-0.6332771,-0.05257493,-0.0061318763,0.018106833,-0.18896188,-0.38189852,-0.34831595,0.05991011,3.0787768,-0.6249645,0.00035376125,-0.02904609,0.005238782,0.0021179595,-0.0155265955,0.006365986,0.0055373227,0.47643954,-1.424906,1.9567088,-2.1009662,-1.5704416,2.4514153,-0.04313077,0.028402131,-0.036063127,-0.00514834,0.010780724,-0.04866197,-0.095768064,0.24899697,-9.500193,0.80679786,47.61882,-0.8582771,-2.2064917,-3.262751,-0.49870813,0.13164496,-0.31979084,28.375,29.5625,28.75,32.8125,35.125,36.25
0.06605253,-0.9011999,-0.7150124,0.09817716,-0.009813198,0.017177977,-0.17746969,-0.38195878,-0.34830657,0.059906233,3.0787807,-0.62490493,0.00033857918,-0.029912794,0.004779203,0.0024577826,-0.016664248,0.007280037,0.008261745,0.4763672,-1.4248217,1.9566244,-2.1009786,-1.5704416,2.4513054,-0.043489385,0.029233182,-0.037660282,-0.0057170517,0.011368912,-0.05174478,-0.11492168,0.3256114,-9.519346,0.7418897,47.675243,-0.8764386,-2.1630821,-3.2375205,-0.5151895,0.12704802,-0.30298674,28.375,29.5625,28.75,32.8125,35.125,36.25
0.068052515,-0.70840514,-0.19395663,0.24048409,-0.024571516,0.031315148,-0.18128707,-0.3820121,-0.34828904,0.059916563,3.078736,-0.6249162,0.0003188834,-0.030363748,0.0046979813,0.0029492783,-0.017690044,0.0077484287,0.0067664334,0.4762711,-1.424798,1.9565762,-2.10099,-1.5704173,2.451222,-0.044207677,0.028837003,-0.03838453,-0.0054835067,0.012068078,-0.050968207,-0.19153614,0.21068975,-9.461885,0.7597976,47.719128,-1.0222967,-2.1564677,-3.1211524,-0.49296415,0.12900835,-0.3638291,28.375,29.5625,28.75,32.8125,35.125,36.25
0.070052624,-0.92986244,-0.6356153,0.057237774,-0.004338001,0.02444795,-0.17519732,-0.38210702,-0.34827256,0.059926283,3.078692,-0.6249264,0.0002989593,-0.031176774,0.004906319,0.0030504859,-0.017808314,0.008325454,0.0076084714,0.4761387,-1.424702,1.9564446,-2.10099,-1.5703934,2.4511015,-0.045213304,0.029459588,-0.039256383,-0.0057974937,0.011909769,-0.052814607,-0.2681506,0.095768064,-9.404425,0.78217715,47.694946,-1.016697,-2.110095,-3.235267,-0.4995968,0.124328926,-0.37821677,28.375,29.5625,28.75,32.8125,35.125,36.25
0.07205161,-0.99627566,-0.10464689,0.24516498,0.002343456,0.024941523,-0.18160808,-0.3821439,-0.34828448,0.059932895,3.0786617,-0.6247835,0.00027533981,-0.03187444,0.005075578,0.0025932447,-0.017009491,0.007609055,0.010223417,0.47610265,-1.4246655,1.956396,-2.1010263,-1.5703577,2.4509802,-0.04590654,0.031617414,-0.040752158,-0.005452175,0.011528705,-0.05612062,-0.17238252,0.17238252,-9.442732,0.80679786,47.694946,-1.1133907,-2.119564,-3.1847687,-0.4956969,0.12447538,-0.36667714,28.375,29.5625,28.75,32.8125,35.125,36.25
0.07405166,-0.99129856,-0.11774539,0.23369715,0.010105314,0.026170934,-0.17917036,-0.3822322,-0.34826958,0.059938855,3.078628,-0.62483156,0.000231507,-0.03263403,0.004510934,0.00305913,-0.018593503,0.007842676,0.014787432,0.47599444,-1.4245692,1.9562753,-2.1010382,-1.5703572,2.4509063,-0.046437494,0.03236847,-0.042745627,-0.0051454282,0.012829667,-0.06121602,-0.13407528,0.05746084,-9.442732,0.7463667,47.657326,-1.1667885,-2.1969771,-3.120133,-0.4987868,0.121580005,-0.3567859,28.375,29.5625,28.75,32.8125,35.125,36.25
0.07605195,-0.9192099,0.33118653,0.27314705,0.002690764,0.032853574,-0.18150443,-0.38228676,-0.34824815,0.0599586,3.078623,-0.624774,0.00022939799,-0.032542244,0.0048461724,0.002091268,-0.017792953,0.0063788933,0.014392973,0.47589833,-1.4245448,1.9561914,-2.10099,-1.5703453,2.450775,-0.04691684,0.03393384,-0.042226363,-0.005560033,0.012791029,-0.061300635,-0.19153613,0.11492168,-9.385271,0.8247004,47.703903,-1.2706643,-2.1135607,-3.0872078,-0.496987,0.107136175,-0.38807976,28.375,29.5625,28.75,32.8125,35.125,36.25
0.07805199,-0.61201346,0.31855977,0.21147393,0.002923327,0.04203377,-0.18208364,-0.38237372,-0.34825435,0.059972625,3.0785692,-0.6246845,0.00015427115,-0.03339121,0.006064711,0.0003628793,-0.01716458,0.003510094,0.015763337,0.47581306,-1.4244599,1.9560736,-2.1010387,-1.5703205,2.4506407,-0.05034831,0.037234772,-0.041856732,-0.0063913986,0.013552082,-0.066101976,-0.1340753,0.0,-9.346964,0.71951014,47.709274,-1.2065219,-2.2335136,-3.272256,-0.4847316,0.08990118,-0.34693557,28.375,29.5625,28.75,32.8125,35.125,36.25
0.080051966,-0.98415846,0.5065054,0.39396256,-0.0015498439,0.030777732,-0.1942067,-0.38240486,-0.348227,0.059939332,3.0785737,-0.6246255,0.00025994628,-0.035044603,0.0057836804,0.001522908,-0.018214423,0.0060507413,0.01947663,0.47570482,-1.4243878,1.9560727,-2.101062,-1.5702728,2.450495,-0.051211387,0.037398174,-0.044679124,-0.006464753,0.013313844,-0.070677206,-0.11492168,-0.038307227,-9.289502,0.83365434,47.690468,-1.1915611,-2.2528772,-3.186728,-0.47314698,0.09247145,-0.33258367,28.375,29.5625,28.75,32.8125,35.125,36.25
0.08205167,-1.1058263,0.172149,0.3180278,0.006457582,0.024455551,-0.17812587,-0.38245624,-0.34821063,0.059915584,3.078555,-0.6245987,0.00033408028,-0.035282955,0.0047712587,0.0027325952,-0.019016458,0.008502562,0.026076086,0.47559744,-1.4242924,1.9560236,-2.1010864,-1.5702251,2.4503732,-0.049355276,0.036389347,-0.04632008,-0.006353794,0.012901025,-0.07541962,-0.13407528,-0.038307227,-9.212888,0.7732232,47.69763,-1.3566844,-2.1283143,-3.1558712,-0.49305373,0.10768791,-0.29941094,28.375,29.5625,28.75,32.8125,35.125,36.25
0.08405325,-0.49144614,0.86537904,0.4298197,-0.0011272547,0.043550897,-0.19464272,-0.38256508,-0.34820992,0.05996676,3.078488,-0.6244695,0.00018562884,-0.03730067,0.005833624,0.00215853,-0.018371351,0.007770124,0.026721036,0.47548825,-1.4242555,1.9558672,-2.1010978,-1.5702132,2.450192,-0.052937433,0.03949476,-0.048574574,-0.0062533817,0.012670476,-0.07964314,-0.15322891,-0.019153614,-9.193734,0.784413,47.677036,-1.3848772,-2.1667948,-3.0207405,-0.48076463,0.08423114,-0.24383658,28.375,29.5625,28.75,32.8125,35.125,36.25
0.08605165,-0.76198643,0.36554953,0.32132483,0.008810739,0.038103867,-0.18732521,-0.38262674,-0.3481799,0.05995753,3.0784876,-0.62444955,0.0002659952,-0.037832994,0.0076776072,0.0010523165,-0.016222466,0.0055061346,0.02789647,0.4753552,-1.4241711,1.9557837,-2.1010616,-1.5701779,2.4500465,-0.056127917,0.040917773,-0.047876794,-0.0053681913,0.011799106,-0.084008664,-0.26815057,0.019153614,-9.270349,0.800085,47.690468,-1.3399627,-2.2441812,-3.1768265,-0.48282313,0.09323913,-0.18906587,28.375,29.5625,28.75,32.8125,35.125,36.25
0.08805165,-0.7519911,0.20824902,0.35847318,-0.0009788808,0.041180782,-0.18944605,-0.38269004,-0.3481896,0.059958994,3.078502,-0.6242192,0.00023422588,-0.038931113,0.008453099,0.001148936,-0.016186627,0.005761611,0.030104177,0.4753064,-1.4240752,1.9556764,-2.101086,-1.570166,2.4498522,-0.058412127,0.041361738,-0.04863116,-0.0052644406,0.011653256,-0.08849955,-0.22984336,-0.019153614,-9.32781,0.7463667,47.70211,-1.2210875,-2.2586193,-3.2418776,-0.49075615,0.097600445,-0.14807871,28.375,29.5625,28.75,32.8125,35.125,36.25
0.0900517,-1.1496266,-0.15327284,0.48863974,-0.008902814,0.03855245,-0.18651308,-0.38278267,-0.3481588,0.059966702,3.078468,-0.62417364,0.00021294238,-0.039766934,0.007664825,0.0018004033,-0.016582737,0.007516091,0.031830743,0.4751507,-1.424003,1.9555792,-2.1010978,-1.5701417,2.4496725,-0.05747385,0.042211935,-0.051055048,-0.005426085,0.011202635,-0.08928546,-0.34476504,0.0,-9.289502,0.84484416,47.71286,-1.3851621,-2.2223225,-3.102487,-0.50089765,0.09393497,-0.10889915,28.375,29.5625,28.75,32.8125,35.125,36.25
0.09205183,-0.64984316,-0.061693706,0.4125929,-0.013749547,0.06030126,-0.19432777,-0.382829,-0.34813502,0.059941962,3.0785303,-0.62405163,0.0002865703,-0.0413293,0.00863481,0.0021494213,-0.017596172,0.007888017,0.03131364,0.47506544,-1.4238952,1.9555072,-2.101074,-1.5701412,2.4495032,-0.061095975,0.04230826,-0.05197357,-0.0053983573,0.011928134,-0.09239166,-0.4213795,0.11492168,-9.193734,0.82022345,47.719128,-1.3468051,-2.1993668,-3.1548638,-0.5090961,0.086190976,-0.052626513,28.375,29.5625,28.75,32.8125,35.125,36.25
0.09405184,-1.3689358,-0.49470687,0.13345839,0.0013605617,0.052466165,-0.18308409,-0.38293776,-0.3481184,0.059964947,3.0784607,-0.6239639,0.00017809865,-0.042401098,0.009244482,0.0018164504,-0.017204417,0.0073796087,0.02545647,0.4749208,-1.4238348,1.9553994,-2.101134,-1.5701178,2.4493127,-0.06307747,0.04400531,-0.053184945,-0.005250321,0.011821088,-0.08851374,-0.34476504,0.1340753,-9.308656,0.74413085,47.664497,-1.2398177,-2.1478908,-3.1185799,-0.49476078,0.097980976,-0.09116177,28.375,29.5625,28.75,32.8125,35.125,36.25
0.09605209,-1.2919846,-0.22822712,0.24213642,-0.0072214785,0.051690552,-0.1873663,-0.38302666,-0.34809875,0.05997802,3.0784464,-0.6238655,0.00017393577,-0.043533497,0.009650061,0.0019419556,-0.016894622,0.007878049,0.023263983,0.47478843,-1.4237505,1.9552678,-2.1011097,-1.5700935,2.4491208,-0.06449746,0.045056425,-0.054716486,-0.005066401,0.0113185495,-0.08773948,-0.4213795,0.076614454,-9.346964,0.7351769,47.64658,-1.319081,-2.102928,-3.0918963,-0.49243593,0.08532752,-0.11370188,28.375,29.5625,28.75,32.8125,35.125,36.25
0.098052315,-1.4912102,-0.07046544,0.46561795,-0.005005581,0.048316166,-0.18222275,-0.3831271,-0.34807822,0.06000168,3.0783947,-0.62379956,0.00010999407,-0.044459943,0.009885692,0.0018057765,-0.01732406,0.007993091,0.01912912,0.4746439,-1.4236902,1.9551476,-2.1011217,-1.5700692,2.4489417,-0.065965965,0.046202928,-0.055584464,-0.005642354,0.0116522545,-0.085071966,-0.47884035,0.05746084,-9.3661175,0.7642693,47.709274,-1.3142865,-2.1755924,-3.091106,-0.49382854,0.0826675,-0.10340279,28.375,29.5625,28.75,32.8125,35.125,36.25
0.10005252,-1.4067142,0.3547431,0.42411247,-0.008424239,0.055505853,-0.18844472,-0.38318905,-0.3480798,0.059980076,3.078395,-0.6236489,0.0001711756,-0.04571535,0.010360793,0.0017683998,-0.017563019,0.008307992,0.014066884,0.47455916,-1.4235581,1.9550518,-2.101146,-1.570022,2.448763,-0.06799288,0.047398776,-0.05678279,-0.006026149,0.0117167,-0.08203601,-0.47884035,0.21068975,-9.3661175,0.83813137,47.67614,-1.3218477,-2.1083868,-3.0561848,-0.49413025,0.079863854,-0.15504268,28.375,29.5625,28.75,32.8125,35.125,36.25
0.10205243,-1.576575,0.01555711,0.25515667,0.002403098,0.048885986,-0.18375638,-0.38329503,-0.34804446,0.05998853,3.0783737,-0.62362635,0.00015429493,-0.046943665,0.010345598,0.0019882417,-0.018607702,0.0088000465,0.011155553,0.4743907,-1.4234617,1.9549197,-2.1011345,-1.5700091,2.4485831,-0.069530554,0.04854843,-0.058528565,-0.0063452744,0.01242085,-0.08066175,-0.5363012,0.17238252,-9.3661175,0.7642693,47.668976,-1.3228807,-2.1994793,-3.0449681,-0.49710572,0.08339086,-0.22339255,28.375,29.5625,28.75,32.8125,35.125,36.25
0.10405241,-1.4338714,0.22628766,0.23110649,-0.012604465,0.045295537,-0.18537883,-0.38339302,-0.3480267,0.059997633,3.0782976,-0.6236701,0.000115732815,-0.048080638,0.010805246,0.002313477,-0.018691028,0.009732233,0.008941878,0.474246,-1.423378,1.9548115,-2.1011703,-1.5699733,2.4484754,-0.071145825,0.048913967,-0.059672527,-0.0064286045,0.012073584,-0.0800616,-0.38307226,0.038307227,-9.404425,0.73741806,47.658226,-1.284567,-2.1679199,-3.0653687,-0.49370039,0.07928873,-0.26099896,28.375,29.5625,28.75,32.8125,35.125,36.25
0.10605191,-1.249353,-0.32372352,0.047877252,0.0042681503,0.048350964,-0.18277676,-0.38350978,-0.34799019,0.060003586,3.078294,-0.6236311,3.406826e-05,-0.049198397,0.011375261,0.0010271728,-0.017551681,0.007884991,0.00706633,0.47408947,-1.4232686,1.9546784,-2.1011941,-1.5699972,2.448295,-0.07305548,0.05288011,-0.061209142,-0.0066938284,0.011905806,-0.08009353,-0.51714754,0.095768064,-9.404425,0.83589023,47.690468,-1.3066146,-2.2017658,-2.9575472,-0.49468306,0.08865079,-0.2761488,28.375,29.5625,28.75,32.8125,35.125,36.25
0.108051926,-1.7045069,0.1664046,0.06061179,-0.0031204363,0.0346877,-0.17653857,-0.3835855,-0.34797868,0.059994236,3.078295,-0.6234789,9.80269e-05,-0.050940476,0.012453336,0.0013578027,-0.01787864,0.008715,0.0042505413,0.47396833,-1.4231483,1.9545597,-2.1011822,-1.569949,2.4480789,-0.07649247,0.053248845,-0.062370956,-0.006782432,0.011816183,-0.080714166,-0.4213795,0.11492168,-9.442732,0.7016076,47.698532,-1.2497802,-2.3864598,-2.9753332,-0.49570835,0.094387785,-0.31512,28.375,29.5625,28.75,32.8125,35.125,36.25
0.11005197,-1.290546,0.07249341,0.31869948,-0.001747358,0.05001353,-0.183379,-0.38369095,-0.3479825,0.05999951,3.0781896,-0.6235152,0.00012006296,-0.05156233,0.011866639,0.002794493,-0.019370526,0.01160074,0.005621216,0.47382435,-1.4230168,1.9544028,-2.101206,-1.5698656,2.4479709,-0.07600553,0.05146327,-0.06355571,-0.007051573,0.0118304575,-0.081597,-0.38307226,-0.019153614,-9.423578,0.83589023,47.690468,-1.1986736,-2.125938,-3.0262718,-0.50401944,0.09736492,-0.3482467,28.375,29.5625,28.75,32.8125,35.125,36.25
0.112051845,-1.1294225,0.11258603,0.34445703,-0.004221132,0.05007383,-0.18578033,-0.38379946,-0.34793064,0.06000049,3.0782096,-0.6235573,8.568626e-05,-0.052261904,0.012238441,0.0020297423,-0.01917084,0.009943832,0.003736503,0.47365597,-1.4229078,1.9542707,-2.1011822,-1.5699013,2.4478264,-0.07766202,0.05387143,-0.0646146,-0.0068384255,0.012409821,-0.08136849,-0.5363012,-0.038307227,-9.404425,0.80456203,47.690468,-1.3289926,-2.1699023,-3.0230362,-0.49708492,0.091718785,-0.38175407,28.375,29.5625,28.75,32.8125,35.125,36.25
0.114052266,-1.0854528,0.14061098,0.33582,0.0018823774,0.054576773,-0.18443629,-0.38390243,-0.34790125,0.059998564,3.0781567,-0.6235308,6.470098e-05,-0.054087013,0.014315174,0.000982125,-0.01845357,0.007993528,-0.0016386671,0.473486,-1.422811,1.9541754,-2.10123,-1.5698651,2.4476466,-0.08316516,0.05629108,-0.06499809,-0.006807519,0.012666834,-0.081495576,-0.4213795,0.038307227,-9.346964,0.8112748,47.667187,-1.1409979,-2.2161674,-2.9955049,-0.4970157,0.09579773,-0.4312328,28.375,29.5625,28.75,32.8125,35.125,36.25
0.11605253,-1.166016,0.05975091,0.19993919,0.0046972996,0.052848786,-0.18762885,-0.38400325,-0.34787202,0.06001773,3.0780966,-0.623574,5.6067463e-05,-0.053913195,0.013361097,0.00091802224,-0.018789481,0.007857626,0.002048425,0.4733186,-1.4227384,1.9540433,-2.101206,-1.5698293,2.4475138,-0.08152675,0.057465054,-0.06619497,-0.006811444,0.013031853,-0.08354336,-0.38307226,0.019153614,-9.385271,0.7732232,47.691364,-1.1834342,-2.3508434,-3.0661626,-0.48471197,0.10726817,-0.4756778,28.375,29.5625,28.75,32.8125,35.125,36.25
0.11805239,-1.2211155,0.30810747,0.18082547,-0.003053545,0.042646807,-0.18643959,-0.38411948,-0.3478342,0.06001375,3.078084,-0.6234751,2.3685934e-05,-0.055864833,0.014523057,0.0019040315,-0.019919567,0.010456574,0.0021859077,0.47313738,-1.4226189,1.9539241,-2.1012423,-1.5698174,2.4472725,-0.08523569,0.056119367,-0.066691235,-0.007790806,0.012858334,-0.08738897,-0.28730422,0.019153614,-9.500193,0.71279734,47.690468,-1.2042711,-2.1570542,-3.0425029,-0.46805406,0.10018507,-0.50220716,28.375,29.5625,28.75,32.8125,35.125,36.25
0.12005236,-1.0345944,0.34403002,0.22082996,-0.006528246,0.04002487,-0.18624663,-0.3842344,-0.3477916,0.060000516,3.0780694,-0.6235462,2.4093946e-05,-0.0572544,0.015210011,0.0011928284,-0.019184731,0.009629878,0.0052506123,0.47295663,-1.4224737,1.953791,-2.1012542,-1.5698174,2.447138,-0.08752379,0.059018314,-0.06835196,-0.007950743,0.0125833545,-0.092740245,-0.30645782,-0.038307227,-9.5385,0.8023209,47.68599,-1.1245925,-2.2431433,-3.0644903,-0.48381925,0.12697667,-0.46756795,28.375,29.5625,28.75,32.8125,35.125,36.25
0.12205256,-0.7231532,0.18420824,0.27253938,0.0002804204,0.044762813,-0.18879935,-0.38436958,-0.34777078,0.060015332,3.0780392,-0.6234224,-5.1004652e-05,-0.05814171,0.015728766,0.0010831108,-0.01942675,0.009376094,0.009163468,0.47278795,-1.4223412,1.9536113,-2.101278,-1.569805,2.446896,-0.08944765,0.0598881,-0.06910245,-0.007947528,0.012926274,-0.09857585,-0.40222588,-0.095768064,-9.461885,0.7777002,47.666286,-1.0635214,-2.212927,-2.9300518,-0.48340076,0.11349378,-0.46535438,28.375,29.5625,28.75,32.8125,35.125,36.25
0.1240517,-1.1904615,0.0764019,0.14005573,0.006272129,0.038436804,-0.182808,-0.38444862,-0.34773183,0.06000533,3.0780122,-0.62343174,5.341298e-05,-0.05836059,0.01655986,0.0003505902,-0.018853305,0.007737115,0.017680056,0.4726073,-1.4222449,1.9535159,-2.1012423,-1.5697445,2.4467247,-0.09125985,0.06091399,-0.06867199,-0.0076671382,0.013169468,-0.10890545,-0.28730422,0.0,-9.385271,0.7709874,47.68062,-1.0707556,-2.292058,-3.170981,-0.48648444,0.12949407,-0.36490613,28.375,29.5625,28.75,32.8125,35.125,36.25
0.12605302,-0.6500702,0.5723969,0.3508904,-0.00453724,0.056418136,-0.19510001,-0.38460252,-0.3477046,0.06002852,3.07794,-0.6233558,-5.4022254e-05,-0.059424054,0.016724166,0.00043748983,-0.020158676,0.0073854206,0.022394953,0.4724027,-1.4221244,1.9533361,-2.10129,-1.5697201,2.446482,-0.093354024,0.06195333,-0.07008613,-0.0075665447,0.014509019,-0.11571325,-0.28730422,0.038307227,-9.500193,0.86945957,47.689575,-1.0417911,-2.2099152,-3.2175398,-0.4792329,0.122290716,-0.31740457,28.375,29.5625,28.75,32.8125,35.125,36.25
0.12805203,-1.0796667,0.25014505,0.29186568,0.00751248,0.04823988,-0.19177698,-0.38472506,-0.34767628,0.060042426,3.077905,-0.62319255,-6.6262415e-05,-0.061541203,0.016798545,0.0015630203,-0.021359062,0.0099900495,0.026983755,0.47220996,-1.4220161,1.9531807,-2.1012905,-1.569673,2.4461918,-0.09531665,0.062335722,-0.073032215,-0.007853605,0.014400056,-0.122262366,-0.24899697,0.019153614,-9.385271,0.7642693,47.696735,-0.9407782,-2.2521589,-3.030083,-0.46769762,0.12359066,-0.231325,28.375,29.5625,28.75,32.8125,35.125,36.25
0.13005207,-1.0308888,0.21063702,0.13694133,0.01058654,0.049013425,-0.18653834,-0.3848335,-0.34763044,0.060006592,3.0779538,-0.62306666,-1.934938e-05,-0.060889628,0.01834683,-9.6755044e-05,-0.019812195,0.00641751,0.028547714,0.47202927,-1.4218357,1.9530615,-2.1013138,-1.5696725,2.4459264,-0.097609244,0.06325617,-0.070379764,-0.0075358646,0.0146548655,-0.12612091,-0.4405331,0.038307227,-9.289502,0.8403672,47.704796,-0.91382265,-2.2018373,-3.2877412,-0.47632462,0.11767346,-0.17827325,28.375,29.5625,28.75,32.8125,35.125,36.25
0.13205211,-1.1657236,0.013660977,0.23854901,0.008811016,0.047462165,-0.18149737,-0.3849614,-0.34760076,0.06002203,3.077897,-0.62301695,-5.798758e-05,-0.06258382,0.018543858,0.0006150291,-0.019832509,0.008146889,0.028702982,0.4718368,-1.4217273,1.952905,-2.1013258,-1.5696367,2.4457102,-0.098978825,0.06416154,-0.073111296,-0.007247715,0.0138933165,-0.12764297,-0.3256114,-0.019153614,-9.385271,0.7553206,47.689575,-0.9134079,-2.1812158,-3.1968098,-0.46902126,0.13225658,-0.13385418,28.375,29.5625,28.75,32.8125,35.125,36.25
0.13405187,-0.6728811,0.19035207,0.17180648,0.0029429854,0.05656585,-0.18982619,-0.38509846,-0.34756002,0.060051434,3.07785,-0.6228957,-0.00016471016,-0.063648924,0.019782135,0.00021905634,-0.020363841,0.0071651894,0.021731433,0.47163156,-1.421655,1.952761,-2.1013505,-1.5696243,2.4454353,-0.102715455,0.0648026,-0.07289026,-0.00747879,0.014825306,-0.12440721,-0.34476504,0.038307227,-9.442732,0.8314132,47.703903,-0.7976273,-2.1128988,-3.1801825,-0.46948993,0.14455462,-0.14027092,28.375,29.5625,28.75,32.8125,35.125,36.25
0.13605198,-1.133306,-0.06797884,0.39617282,0.0088960035,0.04464384,-0.17662272,-0.38522154,-0.34752434,0.060044132,3.0778327,-0.62281454,-0.00016858568,-0.06330989,0.018765587,0.00037327225,-0.020883556,0.0074741174,0.020784339,0.47144032,-1.4215107,1.952618,-2.1013744,-1.5696,2.4451957,-0.10078045,0.06524265,-0.07372835,-0.0075901924,0.015149016,-0.12152447,-0.40222588,0.019153614,-9.32781,0.8112748,47.667187,-0.9234131,-2.1073034,-3.2614355,-0.45786774,0.14318648,-0.17933446,28.375,29.5625,28.75,32.8125,35.125,36.25
0.13805199,-1.5826383,-0.17374846,0.16074042,0.006921604,0.039950885,-0.17764407,-0.38537586,-0.34747577,0.060032807,3.0777597,-0.6228264,-0.00015300499,-0.06487203,0.019944182,0.00019977569,-0.022409996,0.0067212866,0.009457728,0.47117472,-1.4213421,1.9524621,-2.101422,-1.5695399,2.4449468,-0.10535293,0.06600173,-0.074119665,-0.007982114,0.01685106,-0.114770286,-0.45968673,0.076614454,-9.32781,0.7530795,47.683304,-0.896495,-2.0772943,-3.2812881,-0.46233916,0.14703089,-0.25580135,28.375,29.5625,28.75,32.8125,35.125,36.25
0.14005192,-0.88453126,-0.012405027,0.2221379,0.015357509,0.05851129,-0.18143196,-0.3854726,-0.3474354,0.060022276,3.0777426,-0.6228001,-7.514436e-05,-0.06406129,0.018695574,-0.000127866,-0.021948354,0.0065980437,0.013615584,0.4709839,-1.4212217,1.9523429,-2.1013982,-1.5694917,2.4447417,-0.1021429,0.067230515,-0.07471626,-0.0082838675,0.016494695,-0.11571783,-0.40222588,0.038307227,-9.308657,0.7978386,47.675243,-1.0167321,-2.1674826,-3.382214,-0.45784372,0.15631586,-0.26803133,28.375,29.5625,28.75,32.8125,35.125,36.25
0.14205196,-0.9799563,0.4513544,0.23485507,0.0058343564,0.04947456,-0.1854313,-0.38562074,-0.34738904,0.06003469,3.0777087,-0.6227377,-0.00016585669,-0.06649672,0.018825239,0.0013095922,-0.02279381,0.009548851,0.009842798,0.47076717,-1.4211013,1.952185,-2.101434,-1.5694922,2.4444904,-0.10417277,0.06767425,-0.078612745,-0.007840675,0.015912522,-0.11397156,-0.28730422,0.0,-9.481039,0.77545905,47.66808,-1.0687163,-1.9887931,-3.2628436,-0.46597987,0.16035303,-0.32559773,28.375,29.5625,28.75,32.8125,35.125,36.25
0.1440519,-1.3232859,-0.06539927,0.17722832,0.011878313,0.037991088,-0.17734958,-0.38575754,-0.34733763,0.060032126,3.0777094,-0.62273717,-0.0001634547,-0.065309785,0.019234942,0.00017267547,-0.022352155,0.007111281,0.009925556,0.47055122,-1.4209452,1.9520067,-2.1014102,-1.5694917,2.4442742,-0.104251094,0.06779025,-0.076102994,-0.00809243,0.016632868,-0.11413419,-0.24899697,0.095768064,-9.346964,0.8314132,47.65912,-1.1770047,-2.0102808,-3.3993378,-0.46384972,0.18321118,-0.34695053,28.375,29.5625,28.75,32.8125,35.125,36.25
0.14605251,-1.1708658,0.06474526,0.15137437,0.0013208323,0.026308,-0.18133037,-0.38589376,-0.34732306,0.060066547,3.0776308,-0.6225673,-0.00026303538,-0.06631824,0.019267082,-0.0007836948,-0.021091383,0.0058833887,0.00933562,0.4703711,-1.4208599,1.9518389,-2.101446,-1.5694445,2.443998,-0.104830556,0.07176613,-0.078494914,-0.007999999,0.016077012,-0.114119805,-0.19153613,0.095768064,-9.289502,0.84484416,47.682407,-1.1508839,-2.0910318,-3.4376857,-0.45323005,0.18485957,-0.39258176,28.375,29.5625,28.75,32.8125,35.125,36.25
0.14805254,-0.6513041,-0.3326794,0.11048451,-0.00058276515,0.024900975,-0.18413115,-0.38602975,-0.34727952,0.06005341,3.077615,-0.62250644,-0.0002544887,-0.068800494,0.018993968,0.0018519132,-0.023869757,0.011130427,0.00990544,0.47015432,-1.4206923,1.9516824,-2.1014698,-1.5694197,2.4437454,-0.10662394,0.069539,-0.08190488,-0.00829048,0.016176226,-0.11648149,0.0,0.1340753,-9.251195,0.7933669,47.692257,-1.1838486,-2.0356734,-3.2533875,-0.45242396,0.21191892,-0.39302182,28.375,29.5625,28.75,32.8125,35.125,36.25
0.1500523,-0.03859956,-0.10391649,-0.039343636,-0.013886913,0.018200994,-0.18434438,-0.38614887,-0.34724697,0.060046032,3.0775735,-0.6225146,-0.00018080535,-0.06934845,0.019803949,0.0011846101,-0.023100847,0.0101522375,0.013154018,0.46994987,-1.4205357,1.9515146,-2.101446,-1.5693601,2.4435513,-0.10837232,0.07087707,-0.08189967,-0.008395995,0.01594183,-0.12147839,0.038307227,0.15322891,-9.385271,0.8090337,47.690468,-1.1580876,-1.8275514,-3.355137,-0.44654477,0.21678683,-0.38930744,28.375,29.5625,28.75,32.8125,35.125,36.25
0.15205234,0.5269948,-0.25838107,-0.07983131,-0.018565116,0.022667048,-0.1969731,-0.3863035,-0.34718814,0.06004828,3.0775542,-0.62244964,-0.0002125318,-0.07049328,0.0202163,0.00015866275,-0.022846907,0.007983874,0.018458096,0.4696972,-1.4203902,1.9513458,-2.1014578,-1.5693477,2.4432607,-0.110597916,0.074582,-0.08388664,-0.00805316,0.016711395,-0.12900627,0.038307227,0.22984336,-9.346964,0.7866488,47.67614,-1.2167771,-1.9732797,-3.2777247,-0.45003816,0.23884967,-0.31863225,28.375,29.5625,28.75,32.8125,35.125,36.25
0.15405212,-0.10532311,-0.5943908,-0.2655797,-0.018105362,0.003162878,-0.18498455,-0.38645634,-0.34712866,0.060052585,3.0775242,-0.62239885,-0.0002594094,-0.070839,0.019625945,0.0010383424,-0.024439514,0.009280108,0.0288901,0.4694451,-1.4202586,1.9511908,-2.1014822,-1.5693353,2.4429808,-0.11037169,0.0737238,-0.08492805,-0.008014216,0.017566167,-0.13921113,0.0,0.24899697,-9.385271,0.8314132,47.684196,-1.0751936,-1.9618993,-3.2373252,-0.45095125,0.24755889,-0.23721422,28.375,29.5625,28.75,32.8125,35.125,36.25
0.15605243,0.021495223,-0.6218789,-0.32332352,-0.030608363,0.014959947,-0.18814129,-0.38658455,-0.3471184,0.06005498,3.077463,-0.62227017,-0.00024644728,-0.072078384,0.020535128,0.0009105882,-0.025009451,0.0088954475,0.03065571,0.4692642,-1.420102,1.9510115,-2.101506,-1.5692633,2.4427273,-0.113518745,0.074550256,-0.08557383,-0.008092188,0.01826304,-0.14412272,0.05746084,0.2681506,-9.404425,0.8493211,47.689575,-1.2400087,-1.8377836,-3.3023865,-0.45344886,0.23945087,-0.18537387,28.375,29.5625,28.75,32.8125,35.125,36.25
0.15805252,-0.39048004,-0.5790818,-0.1323966,-0.03325257,0.012782406,-0.1907497,-0.3867399,-0.3470604,0.060046617,3.0774505,-0.6222075,-0.00026394645,-0.07233704,0.019618366,0.0009971784,-0.025865017,0.009021114,0.035099525,0.46901265,-1.4199336,1.9508432,-2.1015298,-1.569251,2.4424384,-0.112543926,0.07587587,-0.08727391,-0.008207971,0.018978216,-0.14759038,-0.019153614,0.3256114,-9.500193,0.7642693,47.691364,-1.1970954,-1.8875482,-3.3208692,-0.445818,0.24909237,-0.10495962,28.375,29.5625,28.75,32.8125,35.125,36.25
0.16005169,-0.63529843,-1.2781333,-0.33884132,-0.028648509,0.02444509,-0.17021742,-0.38687605,-0.3470344,0.060051743,3.07745,-0.62195814,-0.00027088018,-0.07306225,0.020292414,0.0006636736,-0.025815615,0.0074043297,0.032937508,0.46881986,-1.4197769,1.950652,-2.1015294,-1.5692147,2.44209,-0.11480542,0.07725585,-0.08837564,-0.0070148897,0.019673975,-0.14768882,-0.11492168,0.34476504,-9.519346,0.7866488,47.657326,-1.2511702,-1.8575749,-3.2977257,-0.44175816,0.26149923,-0.08671695,28.375,29.5625,28.75,32.8125,35.125,36.25
0.16205183,-0.7683575,-0.98378116,-0.32208923,-0.025042117,0.026259728,-0.18248387,-0.38703758,-0.34698313,0.060060393,3.077402,-0.6219131,-0.00032033716,-0.07396386,0.02063675,0.0005883608,-0.026067944,0.006980509,0.027890043,0.46856716,-1.4196324,1.9504722,-2.1015532,-1.5691904,2.4418154,-0.116456844,0.07846265,-0.089677766,-0.006653143,0.020097155,-0.14429092,-0.076614454,0.38307226,-9.5385,0.8179876,47.634937,-1.1738039,-1.865334,-3.3131824,-0.44975385,0.26918966,-0.117888354,28.375,29.5625,28.75,32.8125,35.125,36.25
0.16405171,-1.0574615,-0.7188861,-0.2942643,-0.022611713,0.016878372,-0.1806984,-0.38718304,-0.34697688,0.06008084,3.0773134,-0.62178296,-0.0003011198,-0.075294234,0.02058908,0.0010566299,-0.027527986,0.008023485,0.021225287,0.4683627,-1.419476,1.9502438,-2.1015413,-1.5690945,2.441541,-0.11806487,0.07912644,-0.09139353,-0.00718366,0.020929202,-0.13923201,0.019153614,0.34476504,-9.653421,0.83589023,47.66808,-1.2178553,-1.7914352,-3.322729,-0.45590886,0.25732678,-0.16441575,28.375,29.5625,28.75,32.8125,35.125,36.25
0.16605176,-0.53675264,-0.3919167,-0.31132984,-0.03363137,0.022011178,-0.18438898,-0.38730344,-0.34690276,0.060047347,3.0773492,-0.6217932,-0.00022646693,-0.0765205,0.020781947,0.0006959504,-0.028108086,0.007912333,0.01466738,0.46812212,-1.4193071,1.9501241,-2.1015298,-1.5690941,2.4413023,-0.11983405,0.081194066,-0.09275331,-0.008058236,0.021481728,-0.13444345,-0.15322891,0.3256114,-9.691729,0.80679786,47.6636,-1.1756799,-1.8701625,-3.3283577,-0.44279712,0.27613112,-0.2482987,28.375,29.5625,28.75,32.8125,35.125,36.25
0.16805245,-0.42833674,-0.35172752,-0.19850565,-0.025472146,0.02414224,-0.185818,-0.38748208,-0.34689122,0.0600726,3.0772474,-0.62163866,-0.000303081,-0.07750201,0.02084472,0.0006109262,-0.028571049,0.008202824,0.012044284,0.467894,-1.4191386,1.9498843,-2.1015775,-1.569022,2.4409907,-0.12096645,0.08257494,-0.094021015,-0.008628279,0.02177807,-0.13294931,-0.11492168,0.24899697,-9.634268,0.76874626,47.65464,-1.1850818,-1.8711263,-3.27453,-0.4358185,0.29461327,-0.30355108,28.375,29.5625,28.75,32.8125,35.125,36.25
0.17005223,-0.92337877,-0.53275627,-0.34947503,-0.013958056,0.017556699,-0.17934208,-0.38762692,-0.3468246,0.06005796,3.0772133,-0.621712,-0.0002788889,-0.07850561,0.020872729,-0.0010716076,-0.027793488,0.005239851,0.0054479367,0.46762943,-1.4189804,1.9497393,-2.10159,-1.5689977,2.4407763,-0.12228631,0.088033356,-0.09643962,-0.008674542,0.022411583,-0.12767078,-0.17238252,0.21068975,-9.710882,0.8627467,47.698532,-1.2338094,-2.0386424,-3.2074087,-0.43886155,0.27585274,-0.38567495,28.375,29.5625,28.75,32.8125,35.125,36.25
0.1720521,-1.3391697,-0.6571087,-0.12160195,-0.012422218,0.029935354,-0.1783626,-0.38778248,-0.34679684,0.060067307,3.0771344,-0.6216381,-0.0003084593,-0.080351084,0.020485295,0.0009974273,-0.030707305,0.0094939275,0.0044887634,0.46740085,-1.4188249,1.9495481,-2.1016257,-1.5689372,2.4405117,-0.12365515,0.0860216,-0.09866657,-0.009535426,0.02310301,-0.1280779,-0.28730422,0.17238252,-9.500193,0.85155696,47.68599,-1.1988674,-1.9691516,-3.2623682,-0.44317955,0.27700824,-0.4379989,28.375,29.5625,28.75,32.8125,35.125,36.25
0.17405215,-1.753291,-0.45459163,-0.07332131,0.0014746814,0.039840415,-0.1750759,-0.38796088,-0.3467443,0.060089145,3.0770628,-0.62162524,-0.00036130444,-0.08202579,0.021841161,-0.00046737146,-0.03034464,0.0062466348,0.00033976033,0.46712363,-1.4186795,1.9493316,-2.1016257,-1.568901,2.4402356,-0.12825386,0.09028656,-0.100330606,-0.009065954,0.024255011,-0.12852441,-0.38307226,0.17238252,-9.500193,0.7665104,47.67793,-1.2105212,-1.9338015,-3.0378366,-0.43277946,0.28165913,-0.5009161,28.375,29.5625,28.75,32.8125,35.125,36.25
0.17605217,-1.4673024,0.22245263,0.11534637,0.00022515855,0.06715567,-0.18567055,-0.38811922,-0.3467153,0.06008724,3.0769625,-0.62162024,-0.00028500846,-0.08219971,0.021082105,0.0007916909,-0.032278504,0.0077347937,0.006945527,0.46685982,-1.4184877,1.9491161,-2.1016252,-1.5687927,2.4399815,-0.12769899,0.08868413,-0.1015194,-0.008446521,0.025329087,-0.1345744,-0.38307226,0.19153613,-9.519346,0.81351066,47.684196,-1.1321293,-2.0456455,-3.1939137,-0.4364738,0.27670857,-0.5214155,28.375,29.5625,28.75,32.8125,35.125,36.25
0.17805228,-2.1154656,0.23878238,0.1444694,-0.0059067025,0.06999861,-0.18773134,-0.38825887,-0.34667683,0.060087506,3.0769544,-0.6214414,-0.00027941918,-0.08438495,0.021738585,0.001009012,-0.033217084,0.008471991,0.013633362,0.46664256,-1.418331,1.9489359,-2.1016252,-1.5687565,2.4396536,-0.13111956,0.09042444,-0.10393575,-0.008823774,0.025854463,-0.14468065,-0.57460845,0.13407528,-9.461885,0.8112748,47.687782,-1.1243112,-1.9370866,-2.9921188,-0.43806216,0.26764193,-0.43846062,28.375,29.5625,28.75,32.8125,35.125,36.25
0.18005244,-1.8396678,0.42615554,0.17889597,-0.00831241,0.082707815,-0.1863703,-0.38846704,-0.3466238,0.060095124,3.076889,-0.6214227,-0.00038403706,-0.08546795,0.022810986,0.0006443145,-0.032873444,0.007834424,0.021992005,0.46635368,-1.4181262,1.9486974,-2.1016853,-1.5687445,2.4393616,-0.13393672,0.09158752,-0.10448598,-0.008682445,0.02587331,-0.1558537,-0.5363012,0.05746084,-9.404425,0.8314132,47.687782,-0.92865515,-2.0206282,-3.103157,-0.42337066,0.2824301,-0.36429268,28.375,29.5625,28.75,32.8125,35.125,36.25
0.18205251,-1.850112,0.27436614,0.09345342,0.0017109693,0.07642714,-0.18781318,-0.38861662,-0.3466009,0.0601125,3.076807,-0.62130654,-0.0003788494,-0.087127425,0.023210108,0.000966729,-0.0330518,0.00920594,0.027982268,0.4661249,-1.4179819,1.9484924,-2.1016858,-1.5686611,2.4390707,-0.13580056,0.09275218,-0.10646261,-0.009139879,0.025439853,-0.16370526,-0.7086837,0.038307227,-9.404425,0.84708,47.672558,-0.9327109,-2.031741,-3.077851,-0.4067498,0.27954966,-0.26597196,28.375,29.5625,28.75,32.8125,35.125,36.25
0.1840525,-2.1162543,-0.037552144,0.30654332,-0.004653176,0.08011088,-0.17635944,-0.38879088,-0.34655774,0.060112704,3.0767868,-0.6210686,-0.00039062407,-0.08734967,0.023267489,0.0006631207,-0.032627847,0.008755666,0.033579238,0.46586093,-1.4177892,1.9482764,-2.1017091,-1.5686129,2.4386609,-0.13594136,0.093859315,-0.10708713,-0.009003021,0.025286859,-0.16944155,-0.80445176,0.019153614,-9.3661175,0.83589023,47.684196,-1.0081581,-1.9387527,-3.039849,-0.41470104,0.29054204,-0.1853433,28.375,29.5625,28.75,32.8125,35.125,36.25
0.18605171,-2.1395745,0.08411294,0.38443637,-0.0032099742,0.083619125,-0.1798146,-0.38898364,-0.3465103,0.060134348,3.0767095,-0.6209953,-0.0004478392,-0.08896782,0.023189465,0.001441252,-0.03374973,0.010302938,0.032671914,0.46557254,-1.4176209,1.948037,-2.101722,-1.5685643,2.4383366,-0.1373935,0.09461505,-0.10974803,-0.008968564,0.025610792,-0.16998276,-0.8619126,0.0,-9.308657,0.8806493,47.698532,-1.1040969,-1.9846765,-3.0347311,-0.41712412,0.2925545,-0.18141809,28.375,29.5625,28.75,32.8125,35.125,36.25
0.18805178,-2.0743823,-0.10312801,0.25398937,0.021294333,0.088324115,-0.17320177,-0.38915467,-0.34647,0.060119174,3.0766602,-0.6208943,-0.000431777,-0.08716024,0.022753997,-6.53657e-05,-0.0328062,0.0070091635,0.027187949,0.46530905,-1.4174043,1.9478339,-2.1017692,-1.5685042,2.4380164,-0.13535021,0.0960196,-0.107988,-0.00876743,0.026246715,-0.16245502,-0.9002198,0.019153614,-9.385271,0.71951014,47.717335,-1.1720251,-1.9222172,-3.1481006,-0.41665167,0.28662625,-0.24968567,28.375,29.5625,28.75,32.8125,35.125,36.25
0.19005167,-1.8403114,0.5486362,0.41921517,0.015247789,0.08701337,-0.17540793,-0.38935882,-0.34642926,0.060136344,3.0765464,-0.62087405,-0.00048091906,-0.09026402,0.02304117,0.0013046103,-0.034374975,0.009851016,0.019960362,0.46500793,-1.4172117,1.9475821,-2.1018054,-1.5684327,2.4377172,-0.13864847,0.09722401,-0.11253188,-0.008661057,0.026378471,-0.1585208,-0.7469909,-0.05746084,-9.289503,0.91421866,47.711964,-1.0705085,-2.0069637,-2.9675076,-0.40660936,0.2882158,-0.3056505,28.375,29.5625,28.75,32.8125,35.125,36.25
0.19205257,-1.3986697,0.85919666,0.4835067,0.021097105,0.06849175,-0.18529442,-0.3895133,-0.34636974,0.06012001,3.0765817,-0.6207291,-0.0004385215,-0.08959992,0.023375222,1.4768139e-05,-0.033403683,0.007958649,0.018385766,0.46475616,-1.417007,1.947379,-2.1017816,-1.5684203,2.4373705,-0.13857822,0.09853166,-0.11093506,-0.009433442,0.02635866,-0.15687712,-0.51714754,-0.11492168,-9.174581,0.8247004,47.701214,-1.2734979,-1.9572225,-3.0903158,-0.40149748,0.29903,-0.36972588,28.375,29.5625,28.75,32.8125,35.125,36.25
0.19405258,-1.269709,0.8972753,0.57186943,0.023990806,0.040088788,-0.18411072,-0.38971663,-0.3463289,0.060144443,3.0764549,-0.620704,-0.00051453017,-0.090315565,0.02397023,-0.0012723968,-0.03254084,0.0059673786,0.015596454,0.46445563,-1.4168378,1.9471401,-2.1018293,-1.5683483,2.4370706,-0.14028947,0.101783074,-0.11166929,-0.00976749,0.026499454,-0.15579502,-0.61291564,-0.019153614,-9.021352,0.8493211,47.696735,-1.2497303,-2.004477,-3.1105034,-0.39179015,0.30284727,-0.39114183,28.375,29.5625,28.75,32.8125,35.125,36.25
0.19605164,-0.5462822,0.9001537,0.6474772,0.015374419,0.041073702,-0.19026542,-0.38990012,-0.3462697,0.060130257,3.076438,-0.6206237,-0.00054928655,-0.091453984,0.024375869,6.470836e-05,-0.03409733,0.00862245,0.016878245,0.46417904,-1.4166222,1.946936,-2.1018775,-1.5683364,2.4367461,-0.14209789,0.09962408,-0.112166695,-0.010166531,0.026718708,-0.15888421,-0.34476507,-0.19153613,-8.963891,0.86945957,47.683304,-1.2141101,-1.9995589,-3.205719,-0.36928567,0.31235573,-0.39178562,28.375,29.5625,28.75,32.8125,35.125,36.25
0.19805257,-0.34078035,0.6941813,0.3768108,0.02792353,0.020563984,-0.18868038,-0.39008644,-0.34620237,0.060136676,3.0763597,-0.6206987,-0.0005208779,-0.092222616,0.024577918,-0.0004378638,-0.03377843,0.008169418,0.023717843,0.46385467,-1.4164414,1.9467086,-2.101854,-1.5682763,2.4364786,-0.14303453,0.101664655,-0.11330793,-0.01048131,0.026661646,-0.16665906,-0.076614454,-0.1340753,-9.021352,0.79560274,47.696735,-1.2532614,-1.8783288,-3.257957,-0.3727854,0.32318556,-0.3693217,28.375,29.5625,28.75,32.8125,35.125,36.25
0.2000518,-0.3792513,0.42903796,0.5477477,0.025093239,0.0076439627,-0.17830446,-0.39029613,-0.3461649,0.060168315,3.0762687,-0.6205621,-0.0006635374,-0.0929927,0.025145298,-6.691052e-05,-0.033435814,0.00871234,0.030035194,0.46357822,-1.4162731,1.9464568,-2.1019132,-1.5682405,2.4361286,-0.14432667,0.101614915,-0.11427394,-0.009764591,0.026160164,-0.17426504,-0.076614454,0.038307227,-9.040505,0.8157518,47.698532,-1.2207248,-2.0231109,-3.2103882,-0.3545181,0.3397072,-0.3097598,28.375,29.5625,28.75,32.8125,35.125,36.25
0.20205177,0.30770266,0.5228153,0.5785028,0.015800172,0.014258968,-0.19620554,-0.39047313,-0.34611687,0.06014772,3.0762413,-0.620418,-0.00059204653,-0.093616664,0.026618144,-0.0017734343,-0.032003753,0.0048986087,0.037608862,0.4632889,-1.416032,1.9462293,-2.1019247,-1.5681685,2.4357529,-0.14771885,0.10497573,-0.11448352,-0.008818683,0.026617492,-0.18523021,0.038307227,-0.05746084,-9.040505,0.83589023,47.672558,-1.184191,-1.9351335,-3.2580335,-0.36098862,0.34254462,-0.18718274,28.375,29.5625,28.75,32.8125,35.125,36.25
0.20405181,0.04003177,0.3117122,0.31983656,0.01778185,-0.0039908984,-0.17613666,-0.39065874,-0.34607255,0.060148917,3.0762093,-0.62027276,-0.0005892233,-0.09374026,0.02541234,-0.0011129074,-0.03395135,0.0052236216,0.044054136,0.46301374,-1.4158155,1.945978,-2.1019247,-1.5681199,2.4353912,-0.14666288,0.1052332,-0.11642802,-0.008268356,0.028236585,-0.19061626,0.095768064,0.05746084,-9.078813,0.8314132,47.67614,-1.3357141,-1.9696892,-3.2805233,-0.3569439,0.3489215,-0.100233644,28.375,29.5625,28.75,32.8125,35.125,36.25
0.20605195,0.31301814,-0.031251702,0.09521371,0.012425254,-0.0018555317,-0.18293564,-0.3908483,-0.34599155,0.0601167,3.0762458,-0.620091,-0.00058930065,-0.09435618,0.02620855,-0.0016863073,-0.03373641,0.0034277514,0.04027591,0.46270117,-1.4155748,1.9457859,-2.1019723,-1.5681194,2.4349606,-0.1489442,0.10674347,-0.1170727,-0.007428002,0.028848808,-0.18911844,0.11492168,0.17238252,-9.136273,0.8627467,47.672558,-1.2165623,-1.9250143,-3.215938,-0.35302404,0.34515998,-0.10173407,28.375,29.5625,28.75,32.8125,35.125,36.25
0.208052,0.26189098,-0.3245817,-0.13904355,0.00019437865,-0.010687824,-0.17379846,-0.39105138,-0.34595582,0.060157094,3.076109,-0.6200098,-0.00061751774,-0.09530004,0.02710462,-0.0021351723,-0.033385765,0.0019645847,0.032774895,0.462388,-1.4154181,1.9455112,-2.1019604,-1.5680116,2.4346142,-0.15151565,0.10841842,-0.118199795,-0.0064946553,0.029200548,-0.18418491,0.076614454,0.17238252,-9.232041,0.7709874,47.716442,-1.2124,-2.003652,-3.332174,-0.3814972,0.34373337,-0.12748244,28.375,29.5625,28.75,32.8125,35.125,36.25
0.21005279,0.086924285,-0.43019742,-0.20180883,-0.027128475,-0.012089498,-0.17898759,-0.39121968,-0.34586373,0.0601423,3.0761416,-0.6199264,-0.00058755913,-0.096128836,0.02798135,-0.0022103952,-0.033195853,0.0012969591,0.02247914,0.4620753,-1.4152377,1.9453319,-2.101936,-1.5680116,2.4342453,-0.15380897,0.10902956,-0.11893054,-0.0057049873,0.029308848,-0.17618278,0.11492168,0.2681506,-9.3661175,0.8940802,47.698532,-1.0963496,-1.8914211,-3.4881663,-0.39822218,0.36456764,-0.23119378,28.375,29.5625,28.75,32.8125,35.125,36.25
0.21205226,-0.4129422,-1.297507,-0.2947563,-0.035637755,-0.013794088,-0.16933168,-0.39141566,-0.3458341,0.060126048,3.0760636,-0.61985767,-0.0005234598,-0.096446596,0.028293658,-0.0031071014,-0.0334509,-0.0012831775,0.015116039,0.46178684,-1.4149609,1.9450563,-2.10196,-1.5679153,2.433924,-0.15544721,0.111309335,-0.119687885,-0.0050262306,0.0306807,-0.17045528,0.076614454,0.40222588,-9.32781,0.8493211,47.678825,-1.1122074,-1.9433184,-3.296408,-0.40499717,0.35959846,-0.30264384,28.375,29.5625,28.75,32.8125,35.125,36.25
0.21405202,-0.37941778,-1.2576557,-0.41264194,-0.04425931,-0.00533652,-0.17842567,-0.3916102,-0.34575728,0.060111377,3.0760467,-0.61983836,-0.000500866,-0.099028416,0.028339839,-0.0009461236,-0.037368238,0.0015506354,0.0068639438,0.46146187,-1.4147327,1.9448274,-2.1019595,-1.56789,2.4335892,-0.15917331,0.110009395,-0.12327347,-0.0044285893,0.032913193,-0.1659255,0.0,0.40222588,-9.461885,0.8493211,47.667187,-1.1021571,-1.9830915,-3.4061143,-0.41702905,0.3344944,-0.4002207,28.375,29.5625,28.75,32.8125,35.125,36.25
0.21605211,-0.34316602,-1.1470143,-0.38044477,-0.04932314,0.007931757,-0.17741214,-0.39177778,-0.34569767,0.060089678,3.075986,-0.6197881,-0.00036438444,-0.09813823,0.028022053,-0.00286428,-0.036694493,-0.002694921,0.0065216147,0.46113792,-1.4145154,1.9446243,-2.101947,-1.5677813,2.4332416,-0.15857647,0.11362439,-0.12317171,-0.0040221005,0.03419911,-0.16498551,-0.076614454,0.34476504,-9.481039,0.8493211,47.67614,-1.1105028,-1.8538611,-3.3269246,-0.42362398,0.32668912,-0.47827014,28.375,29.5625,28.75,32.8125,35.125,36.25
0.2180519,-0.71527797,-1.2668264,-0.50543743,-0.036539115,0.022995122,-0.17209384,-0.39198512,-0.34567073,0.060114108,3.075837,-0.6197941,-0.00037899963,-0.09985741,0.02756577,-0.0014079047,-0.04105784,-0.00096392765,0.010362018,0.4608367,-1.4143115,1.9443372,-2.1019595,-1.5676726,2.4329631,-0.16123699,0.11281967,-0.12550291,-0.0043410277,0.037368532,-0.17147869,-0.21068975,0.30645782,-9.461885,0.7665104,47.655537,-0.9092877,-1.9157351,-3.2865007,-0.42352864,0.28799823,-0.4868401,28.375,29.5625,28.75,32.8125,35.125,36.25
0.2200517,-0.9569194,-0.64110774,-0.5484202,-0.03865198,0.047862682,-0.1907032,-0.39216116,-0.34560654,0.06007501,3.0758286,-0.6196507,-0.00023807221,-0.09997892,0.02727518,-0.0019974867,-0.04186094,-0.0022674103,0.021499582,0.46051297,-1.4140466,1.9441217,-2.1019595,-1.5675882,2.432551,-0.16160364,0.11451766,-0.1260795,-0.004594869,0.038691852,-0.1829829,-0.21068975,0.4405331,-9.576807,0.8493211,47.66808,-0.99861646,-1.9228681,-3.3787808,-0.43916628,0.25336474,-0.4012494,28.375,29.5625,28.75,32.8125,35.125,36.25
0.22205162,-1.7242104,-0.6714109,-0.6243785,-0.033586845,0.068577655,-0.1808364,-0.39234173,-0.34554636,0.060081553,3.0757747,-0.61955696,-0.00019950132,-0.10115713,0.027106903,-0.0016296016,-0.042263605,-0.0011628402,0.03413971,0.46020052,-1.4138662,1.9438938,-2.1019356,-1.5675162,2.4321868,-0.16221127,0.11572792,-0.12830889,-0.0046773404,0.038600568,-0.19622879,-0.2681506,0.4405331,-9.768343,0.8627467,47.677036,-1.0464823,-1.9717062,-3.2208514,-0.44710362,0.24670026,-0.2844539,28.375,29.5625,28.75,32.8125,35.125,36.25
0.22405174,-2.0220206,-0.75203395,-0.5132943,-0.032055426,0.083393864,-0.1753848,-0.3925743,-0.345497,0.060090497,3.0757196,-0.6194457,-0.0002293036,-0.102405526,0.026991252,-0.001406895,-0.04334777,-0.00048722356,0.040355824,0.45987636,-1.4136015,1.9435691,-2.101936,-1.5674676,2.4318004,-0.16346452,0.117057025,-0.13027921,-0.005079574,0.039304294,-0.20369396,-0.5363012,0.30645782,-9.80665,0.82694155,47.681515,-1.1507583,-1.8938615,-3.4828644,-0.44712424,0.22162268,-0.18200782,28.375,29.5625,28.75,32.8125,35.125,36.25
0.22605187,-2.3521879,-1.0319078,-0.5208246,-0.024249293,0.07967215,-0.16578877,-0.39278704,-0.34546536,0.06010814,3.0755918,-0.61924833,-0.00019293091,-0.10316447,0.026917564,-0.001414095,-0.04560328,-0.0013277276,0.03830354,0.45953986,-1.4133849,1.9432825,-2.1019475,-1.5673231,2.431357,-0.165457,0.11794653,-0.1312754,-0.005186314,0.04171883,-0.20362748,-0.4405331,0.24899697,-9.749189,0.89631605,47.661808,-1.1238801,-1.9515584,-3.3279958,-0.45454174,0.20042838,-0.15038002,28.375,29.5625,28.75,32.8125,35.125,36.25
0.22805177,-1.6062856,-0.44658685,-0.49675396,-0.022183355,0.075930364,-0.17206523,-0.39297545,-0.3454112,0.06007864,3.0755694,-0.6191154,-0.00013753807,-0.10501575,0.026858788,-0.00052565965,-0.047144264,0.0009689173,0.029904108,0.4592392,-1.4131204,1.9430536,-2.1019838,-1.567263,2.4309762,-0.16712275,0.118438296,-0.13371018,-0.005984219,0.042062517,-0.19689202,-0.6703765,0.30645782,-9.691729,0.82694155,47.7245,-1.1533965,-1.8748469,-3.2557626,-0.46488658,0.15746234,-0.21829693,28.375,29.5625,28.75,32.8125,35.125,36.25
0.2300517,-1.8449792,0.089984044,-0.27565134,-0.022638971,0.05816995,-0.16724253,-0.3931981,-0.3453561,0.06008658,3.0754683,-0.6190587,-0.00014694232,-0.10578648,0.026176006,4.497758e-05,-0.04761701,0.003239778,0.02483102,0.45889163,-1.4128922,1.9427785,-2.102008,-1.5671791,2.4306061,-0.1661199,0.1189142,-0.13533226,-0.007071075,0.041479018,-0.19081293,-0.7469909,0.17238253,-9.653421,0.8247004,47.69763,-1.1548723,-1.7891204,-3.2215774,-0.46270013,0.14442167,-0.33847064,28.375,29.5625,28.75,32.8125,35.125,36.25
0.23205185,-1.5630028,0.3942609,-0.1574863,-0.00533462,0.06399904,-0.17425083,-0.3934274,-0.34532374,0.060112897,3.0753248,-0.6189936,-0.00014991584,-0.10701018,0.026023434,-0.0006847631,-0.04790605,0.0024002097,0.020138,0.4585551,-1.4126625,1.9424542,-2.102008,-1.5670584,2.4302473,-0.16723536,0.12246228,-0.13763931,-0.007665336,0.042119164,-0.18722893,-0.59376204,-0.05746084,-9.634268,0.84708,47.687782,-1.1636742,-2.0564222,-3.2140975,-0.45256174,0.11447202,-0.35482314,28.375,29.5625,28.75,32.8125,35.125,36.25
0.2340518,-1.167951,0.8899838,-0.01945668,0.014725141,0.08768906,-0.18098901,-0.39364415,-0.34523612,0.060091168,3.0752673,-0.6189629,-0.00012406602,-0.10783525,0.025949545,-3.658257e-05,-0.0491381,0.0037215648,0.020751279,0.45817086,-1.4124227,1.9422387,-2.1020563,-1.5669984,2.4298513,-0.16807379,0.122133106,-0.13868718,-0.007987551,0.04265429,-0.1886785,-0.63206923,-0.1340753,-9.634268,0.88960326,47.690468,-1.2642417,-1.8360066,-3.1669388,-0.44609413,0.094873354,-0.41736594,28.375,29.5625,28.75,32.8125,35.125,36.25
0.23605183,-1.1931419,1.1407696,0.08697315,0.027085496,0.1015521,-0.17866956,-0.39384645,-0.34522113,0.060094025,3.0751672,-0.61878544,-5.7624056e-05,-0.109362185,0.026230633,-0.0006280008,-0.04909131,0.0036703285,0.025282053,0.4578822,-1.4121573,1.9419268,-2.1020567,-1.5668668,2.4294646,-0.1698254,0.12517741,-0.1406567,-0.008934871,0.04266303,-0.19495757,-0.5554548,-0.19153613,-9.423578,0.8672237,47.705692,-1.2986152,-2.0174117,-3.2249706,-0.4397349,0.058572162,-0.41794088,28.375,29.5625,28.75,32.8125,35.125,36.25
0.23805186,-1.2793045,1.5434887,-0.015532271,0.030924851,0.1028429,-0.18713035,-0.39410397,-0.3451296,0.06009262,3.075125,-0.6186919,-0.000150117,-0.109085225,0.026143886,-0.001826876,-0.04800867,0.0018869746,0.03788139,0.45748654,-1.4119042,1.9416522,-2.1021168,-1.5668548,2.429016,-0.169239,0.1277093,-0.14082193,-0.009158247,0.04254074,-0.20696697,-0.4213795,-0.21068975,-9.519346,0.88960326,47.688675,-1.374922,-2.0422242,-3.2089255,-0.43293977,0.042861003,-0.28481212,28.375,29.5625,28.75,32.8125,35.125,36.25
0.24005179,-1.1613984,1.3351297,0.04923742,0.037224635,0.0866075,-0.17966191,-0.39433032,-0.34509927,0.060103785,3.075004,-0.61850965,-0.000127887,-0.10961499,0.027022237,-0.002577255,-0.0462923,0.001520682,0.046169836,0.45715004,-1.4116515,1.9413413,-2.1021407,-1.5667232,2.4285812,-0.17030403,0.1292408,-0.14082487,-0.009517493,0.041215133,-0.2163192,-0.2681506,-0.2681506,-9.519346,0.90750587,47.694054,-1.3384557,-2.082272,-3.2738976,-0.4130565,0.028714523,-0.17908172,28.375,29.5625,28.75,32.8125,35.125,36.25
0.24205175,-1.0238116,1.0727558,0.14218304,0.019775096,0.06626024,-0.17826879,-0.39454052,-0.3450386,0.06010767,3.0749466,-0.6184026,-0.00010435413,-0.11156898,0.028445771,-0.0022610123,-0.044888362,0.0027139988,0.047096536,0.456813,-1.4114228,1.9410661,-2.1021283,-1.5666522,2.4281847,-0.173309,0.13019879,-0.14282742,-0.008873266,0.039452955,-0.22025166,-0.34476504,-0.1340753,-9.557653,0.7978386,47.66091,-1.3182833,-2.1245563,-3.3129368,-0.42158288,0.024537096,-0.10404715,28.375,29.5625,28.75,32.8125,35.125,36.25
0.24405172,-0.33552927,0.82518804,0.28418288,0.0044680503,0.05598277,-0.17650306,-0.39476106,-0.34496573,0.060085904,3.0749109,-0.6183035,-6.371535e-05,-0.11185683,0.02968937,-0.002771494,-0.04301724,0.002331001,0.040498484,0.45645282,-1.4111466,1.9408029,-2.1021526,-1.5665926,2.4277673,-0.17468938,0.13052413,-0.14210805,-0.008737686,0.03793801,-0.21503653,-0.3256114,-0.076614454,-9.423578,0.8940802,47.67166,-1.3424176,-2.0576644,-3.260189,-0.40628472,0.039503194,-0.13917974,28.375,29.5625,28.75,32.8125,35.125,36.25
0.24605246,-0.7180092,0.18232629,0.009544359,0.010475382,0.028236656,-0.16877382,-0.39499828,-0.34490478,0.0600952,3.0748332,-0.61821616,-7.1830946e-05,-0.114470005,0.03100888,-0.0019016073,-0.04222025,0.004865904,0.029730376,0.45609176,-1.410894,1.9404906,-2.1021526,-1.566521,2.4273617,-0.17801929,0.13119957,-0.14496036,-0.008480413,0.03609685,-0.20759797,-0.2681506,0.076614454,-9.385271,0.9254084,47.681515,-1.1937058,-2.1180282,-3.2541213,-0.42704454,0.047137793,-0.23983991,28.375,29.5625,28.75,32.8125,35.125,36.25
0.24805257,-0.48395824,0.11205489,0.14780879,-0.0035158265,0.035345703,-0.17136675,-0.39524466,-0.34483516,0.06010186,3.0747705,-0.6181332,-0.00014141276,-0.11513955,0.032920398,-0.003129184,-0.03919572,0.003159928,0.019565243,0.4557308,-1.4106408,1.9401916,-2.1021879,-1.5664858,2.4269571,-0.18061751,0.13316202,-0.14458373,-0.007960365,0.034133956,-0.20003177,-0.24899697,0.019153614,-9.385271,0.83589023,47.681515,-1.0563145,-2.1894872,-3.3445745,-0.42379522,0.05427268,-0.36806744,28.375,29.5625,28.75,32.8125,35.125,36.25
0.2500526,-0.30236167,-0.0090590045,0.38057718,-0.012117409,0.034417987,-0.17708229,-0.3954704,-0.3447659,0.060100935,3.074649,-0.6181489,-7.180632e-05,-0.11550685,0.03375087,-0.0033139328,-0.037550256,0.0032134654,0.013569274,0.4553347,-1.4104007,1.939917,-2.1021874,-1.5663661,2.4265864,-0.1813339,0.13354798,-0.14474875,-0.0074854023,0.032630406,-0.19475392,-0.2681506,0.15322891,-9.423578,0.9455522,47.709274,-1.1318325,-1.9154819,-3.4461164,-0.43424198,0.08433308,-0.44411665,28.375,29.5625,28.75,32.8125,35.125,36.25
0.2520524,0.3140296,-0.041241404,0.65259737,-0.018917102,0.055838082,-0.18730448,-0.3957376,-0.3447138,0.06011637,3.0745797,-0.6180172,-0.00017416917,-0.116420075,0.03345005,-0.0027126216,-0.037517272,0.004723132,0.015280929,0.45498708,-1.4101124,1.9395574,-2.1022236,-1.5663308,2.4261656,-0.1810511,0.13422212,-0.14698954,-0.007233508,0.031965602,-0.19617969,-0.24899697,0.22984336,-9.251196,0.800085,47.698532,-1.2038981,-2.0322802,-3.394442,-0.43169847,0.09701866,-0.5176947,28.375,29.5625,28.75,32.8125,35.125,36.25
0.2540523,-0.6311572,-0.42759338,0.64577574,-0.016139785,0.041939206,-0.19296765,-0.39594576,-0.34464133,0.060103048,3.0745535,-0.6179084,-0.00011812711,-0.11844825,0.03256578,-0.0014207361,-0.038709104,0.007815801,0.026599016,0.45463914,-1.4098595,1.9392933,-2.1022112,-1.5662707,2.425753,-0.18099189,0.13558355,-0.15152001,-0.007293339,0.031713974,-0.20743704,-0.05746084,0.3256114,-9.059659,0.8537928,47.695843,-1.2770486,-1.8533845,-3.3216248,-0.42519957,0.095404804,-0.48217905,28.375,29.5625,28.75,32.8125,35.125,36.25
0.2560524,-0.24716568,-0.13326727,0.503904,-0.010451373,0.04260477,-0.18852745,-0.39618775,-0.3445616,0.060093723,3.0744846,-0.6178131,-0.00011127906,-0.120446146,0.034161907,-0.0011845053,-0.038364958,0.008870103,0.03684801,0.45424154,-1.4095951,1.9390177,-2.1022475,-1.5661987,2.425305,-0.18498215,0.13612707,-0.15270507,-0.0073547913,0.031008339,-0.22167599,0.0,0.3256114,-9.002198,0.94331104,47.67614,-1.1421615,-1.9971596,-3.3326092,-0.43793008,0.11918415,-0.35434103,28.375,29.5625,28.75,32.8125,35.125,36.25
0.25805265,-0.5150309,-0.5305511,0.4537861,0.0016425628,0.016800405,-0.18245348,-0.3964398,-0.34447634,0.06008536,3.074475,-0.61765444,-0.00013496207,-0.122502744,0.035057914,-0.0006901158,-0.038901426,0.010225711,0.043799713,0.45385647,-1.4093065,1.9387063,-2.1022594,-1.5661749,2.424822,-0.18819094,0.13696747,-0.15480797,-0.0074830246,0.030944277,-0.23183471,0.019153614,0.30645782,-9.097966,0.8605109,47.705692,-1.0641311,-1.9259415,-3.2179637,-0.43977308,0.1332661,-0.23402502,28.375,29.5625,28.75,32.8125,35.125,36.25
0.26005167,0.029358158,-0.6109081,0.6434729,-0.020828567,0.018226901,-0.17580155,-0.39669108,-0.34439725,0.060085464,3.0744069,-0.6175659,-0.00015477264,-0.12393267,0.035540707,-0.0004946999,-0.03880433,0.010657447,0.042214815,0.45346,-1.4090418,1.9384059,-2.1022832,-1.5661148,2.424379,-0.18999782,0.13839132,-0.15704373,-0.0069885924,0.030689074,-0.23205441,-0.11492168,0.34476504,-8.963891,0.8985519,47.678825,-0.98748934,-1.9098167,-3.2205637,-0.41819036,0.1388131,-0.18694574,28.375,29.5625,28.75,32.8125,35.125,36.25
0.26205257,-0.28850162,-0.690229,0.3766605,-0.026132189,0.005796753,-0.18034624,-0.39693493,-0.34434512,0.06009526,3.0743306,-0.61740243,-0.00019147531,-0.12516488,0.03690149,-0.0010141329,-0.037826713,0.00986026,0.031920496,0.45311067,-1.408777,1.9380835,-2.1023076,-1.5660433,2.4239376,-0.19301248,0.13997626,-0.15779671,-0.0066801,0.030159717,-0.22477296,-0.21068975,0.3256114,-9.078813,0.88960326,47.695843,-0.876951,-1.8384261,-3.1610894,-0.43484312,0.16403317,-0.26608777,28.375,29.5625,28.75,32.8125,35.125,36.25
0.26405165,-0.33817104,-0.6034108,0.5020996,-0.029516676,0.013624483,-0.18402778,-0.39718378,-0.34429818,0.06008842,3.0742562,-0.6172754,-0.00014566105,-0.1263632,0.03700449,-0.00069435313,-0.038342416,0.0103598675,0.025588509,0.45275053,-1.4084522,1.937724,-2.1023076,-1.5659469,2.4235077,-0.19425832,0.14110452,-0.15995021,-0.006321993,0.030399114,-0.21968426,-0.19153614,0.36391866,-9.232041,0.8560339,47.68599,-0.96115613,-1.9817123,-3.1386843,-0.4321655,0.18553334,-0.33498043,28.375,29.5625,28.75,32.8125,35.125,36.25
0.26605165,-0.4461935,-0.4547336,0.5140494,-0.04285454,0.030730931,-0.19146857,-0.39741513,-0.34420535,0.06006251,3.074238,-0.6172144,-8.502413e-05,-0.12573174,0.03580493,-0.0016976821,-0.03836662,0.008049057,0.025227118,0.4523554,-1.4081631,1.9374489,-2.102307,-1.5658988,2.4230769,-0.19213082,0.14416979,-0.16133592,-0.005926799,0.031426728,-0.21719255,-0.1340753,0.3256114,-9.232041,0.8806493,47.68062,-1.0611745,-2.021081,-3.1539187,-0.42898262,0.19445927,-0.4187624,28.375,29.5625,28.75,32.8125,35.125,36.25
0.2680517,-1.1612581,-0.5604831,0.37708405,-0.018612226,0.026613574,-0.17978568,-0.3976651,-0.3441277,0.06005795,3.0741982,-0.61710775,-8.48542e-05,-0.12622148,0.03605132,-0.00091184274,-0.03981058,0.0088870665,0.028040314,0.451971,-1.4078752,1.9371265,-2.102307,-1.5658501,2.422631,-0.19347799,0.1427766,-0.16162506,-0.0055899112,0.03239195,-0.22135004,-0.21068975,0.30645782,-9.2703495,0.80456203,47.717335,-1.1082232,-1.9001403,-3.1750705,-0.45605567,0.1802029,-0.40315855,28.375,29.5625,28.75,32.8125,35.125,36.25
0.27005163,-1.4693148,-0.05806374,0.35102242,-0.0073887636,0.034747858,-0.19195066,-0.39792946,-0.3440766,0.06008037,3.0741117,-0.6169096,-0.00012598884,-0.12694125,0.036251254,-0.00096496724,-0.0388384,0.009386609,0.03916962,0.4515991,-1.4075986,1.936756,-2.102307,-1.5657667,2.4221466,-0.19366714,0.14408801,-0.1631128,-0.005349292,0.031369824,-0.23266749,-0.19153613,0.24899697,-9.289502,0.8224646,47.698532,-1.1913702,-1.9533792,-3.0864716,-0.4672961,0.211118,-0.3400426,28.375,29.5625,28.75,32.8125,35.125,36.25
0.27205172,-1.3290902,0.37724942,0.56660205,0.0012458323,0.052114613,-0.19493447,-0.39819664,-0.34398237,0.060044836,3.074089,-0.6168412,-0.00010797172,-0.12822391,0.036074698,-0.00028944682,-0.039723475,0.010879659,0.050869063,0.45117888,-1.40725,1.9364446,-2.1023548,-1.5657305,2.4216866,-0.19445382,0.14478175,-0.16551252,-0.005290639,0.031570967,-0.24515201,-0.095768064,0.17238252,-9.3661175,0.8224646,47.672558,-1.2518152,-1.8856224,-3.2389092,-0.45990902,0.21758753,-0.221255,28.375,29.5625,28.75,32.8125,35.125,36.25
0.27405187,-0.92697966,0.8414284,0.45309147,0.00023621594,0.04852898,-0.20009121,-0.39843076,-0.34390527,0.06002308,3.0740669,-0.61666435,-3.954164e-05,-0.1279218,0.036089275,-0.0016474131,-0.04006434,0.008087515,0.052017473,0.45079464,-1.406949,1.9361461,-2.1023548,-1.565658,2.4211948,-0.1950795,0.147155,-0.1651184,-0.0056602554,0.03311074,-0.24692252,-0.17238252,0.13407528,-9.404425,0.92093146,47.678825,-1.3033594,-1.9858649,-3.292607,-0.45503187,0.24181096,-0.118000835,28.375,29.5625,28.75,32.8125,35.125,36.25
0.27605194,-1.1522558,0.26463053,0.38172403,0.00578896,0.03298021,-0.18134415,-0.3986905,-0.34384745,0.06002488,3.0740125,-0.61642665,-6.21003e-05,-0.12854564,0.035944812,-0.002895468,-0.039560836,0.006531791,0.046305936,0.45042297,-1.4066476,1.935799,-2.102379,-1.565586,2.4206817,-0.19537306,0.15099521,-0.16659006,-0.0064072544,0.033335127,-0.24150042,-0.36391866,-0.019153614,-9.3661175,0.8918391,47.642998,-1.311955,-2.006741,-3.2540915,-0.47361892,0.24047936,-0.17776911,28.375,29.5625,28.75,32.8125,35.125,36.25
0.27805257,-0.8611873,0.81196,0.33471373,0.0031870014,0.030594597,-0.18922287,-0.39894766,-0.34374526,0.060000114,3.0739908,-0.6164084,1.0120511e-05,-0.12977265,0.035603795,-0.0014540122,-0.041980147,0.009107123,0.037355624,0.44999018,-1.4063233,1.9354748,-2.1023552,-1.5655373,2.4202404,-0.19634362,0.14971018,-0.16834374,-0.006758303,0.034362182,-0.23351832,-0.34476504,-0.1340753,-9.404425,0.79560274,47.66271,-1.3182577,-2.1300716,-3.1506736,-0.4591718,0.2643006,-0.27837905,28.375,29.5625,28.75,32.8125,35.125,36.25
0.2800526,-1.0513887,0.5780429,-0.21709044,0.01787567,0.024352979,-0.18440919,-0.39919487,-0.34369248,0.060008716,3.0739408,-0.61621183,-4.9704515e-05,-0.13047282,0.035340134,-0.0017085613,-0.04234363,0.008470171,0.026624765,0.44965416,-1.4060463,1.93514,-2.102379,-1.5654896,2.4197881,-0.19672808,0.1518082,-0.17027882,-0.006538508,0.03494975,-0.22316648,-0.36391866,-0.095768064,-9.481039,0.8403672,47.689575,-1.4720011,-2.2258716,-3.3093538,-0.46829343,0.25119668,-0.38795656,28.375,29.5625,28.75,32.8125,35.125,36.25
0.28205243,-1.1887916,0.37991506,0.071134135,0.0030987654,0.03455932,-0.18729742,-0.39945808,-0.34361467,0.05999137,3.0738509,-0.6161575,2.3830618e-05,-0.13022844,0.036542136,-0.0032922933,-0.040328745,0.0051353914,0.021211606,0.4492219,-1.4057214,1.9348062,-2.1023905,-1.5653814,2.4193335,-0.19826989,0.15404671,-0.169521,-0.005635782,0.034586996,-0.21929565,-0.38307226,-0.1340753,-9.557653,0.8403672,47.678825,-1.4949749,-2.204317,-3.3800354,-0.47979182,0.27539042,-0.49591577,28.375,29.5625,28.75,32.8125,35.125,36.25
0.28405187,-1.4306816,0.23327152,-0.008696937,0.008548328,0.03295265,-0.19845326,-0.39974546,-0.3435356,0.0600066,3.0737894,-0.6160638,-4.8725087e-05,-0.13162826,0.037281856,-0.0031542436,-0.040226586,0.0060766353,0.02694865,0.44881314,-1.4054207,1.9344233,-2.1023905,-1.5653456,2.4188743,-0.20034456,0.15493338,-0.17083353,-0.005948589,0.03414159,-0.22710529,-0.22984336,-0.038307227,-9.5385,0.84708,47.67793,-1.4305781,-2.2197933,-3.4074426,-0.47116768,0.30568105,-0.5048565,28.375,29.5625,28.75,32.8125,35.125,36.25
0.28605175,-0.45139253,0.64897966,-0.18758653,-0.002625364,0.054767925,-0.2051949,-0.40000418,-0.343435,0.059968896,3.0737498,-0.6160104,3.3248685e-05,-0.1329531,0.03825794,-0.003220455,-0.040676307,0.005657246,0.039768238,0.4483681,-1.405084,1.9341248,-2.1024144,-1.5652736,2.418401,-0.20347954,0.15599765,-0.17207028,-0.005478225,0.034798257,-0.24305855,-0.19153613,0.038307227,-9.634268,0.8403672,47.68599,-1.2548715,-2.253229,-3.3668585,-0.46470684,0.31581753,-0.36351544,28.375,29.5625,28.75,32.8125,35.125,36.25
0.28805187,-1.3540634,0.0070066527,-0.068237156,-0.011481953,0.032420903,-0.2000718,-0.40027022,-0.3433834,0.05997207,3.0736933,-0.61576366,3.6917107e-05,-0.13437812,0.038595114,-0.0032507863,-0.042368166,0.004792421,0.048968773,0.4479952,-1.4047593,1.9337415,-2.1024144,-1.5651883,2.4178813,-0.20640303,0.15778042,-0.17422184,-0.004970065,0.03676646,-0.25517473,-0.21068975,-0.019153614,-9.672575,0.76874626,47.703007,-1.2134699,-2.2229075,-3.370534,-0.48123017,0.31499627,-0.24651477,28.375,29.5625,28.75,32.8125,35.125,36.25
0.29005188,-1.1039469,-0.06400675,-0.18030728,-0.017611906,0.034347065,-0.18882784,-0.4005524,-0.34330517,0.05998442,3.0736074,-0.6155945,8.281919e-06,-0.13495763,0.038812317,-0.0028573477,-0.04335325,0.0054601743,0.04686756,0.44756263,-1.4044712,1.9333824,-2.1024263,-1.5651044,2.417354,-0.20752376,0.15736955,-0.17463757,-0.0051422818,0.03739097,-0.25418964,-0.38307226,0.038307227,-9.576807,0.8627467,47.666286,-1.2323756,-2.2500603,-3.4464846,-0.48914492,0.32573205,-0.19370571,28.375,29.5625,28.75,32.8125,35.125,36.25
0.29205182,-0.7887245,0.216601,-0.31204987,-0.023282943,0.03379116,-0.19695555,-0.40082738,-0.34321222,0.059970938,3.0735369,-0.6155869,4.606898e-05,-0.13611117,0.03934317,-0.0030202775,-0.043529786,0.0052074785,0.036462452,0.44711813,-1.4041458,1.9330362,-2.1024263,-1.5650324,2.416914,-0.20944972,0.15890992,-0.17611623,-0.005066255,0.037636578,-0.24570817,-0.40222588,0.19153613,-9.634268,0.81351066,47.703903,-1.1440156,-2.3490264,-3.4058328,-0.49805212,0.33613643,-0.29230025,28.375,29.5625,28.75,32.8125,35.125,36.25
0.29405308,-1.3466008,-0.2879194,-0.017369492,-0.024393376,0.025341094,-0.1913055,-0.401094,-0.3431429,0.05997085,3.0735133,-0.6153731,2.0260613e-06,-0.13760485,0.039552644,-0.0032419437,-0.04401182,0.005157468,0.030178634,0.44674549,-1.4038328,1.9326762,-2.1024387,-1.5649961,2.416411,-0.21123862,0.1613516,-0.17841697,-0.0053746155,0.038091347,-0.24120837,-0.3256114,0.19153613,-9.615114,0.9254084,47.67793,-1.1291606,-2.3543894,-3.3207316,-0.51415575,0.3536083,-0.36841744,28.375,29.5625,28.75,32.8125,35.125,36.25
0.29605222,-1.2392277,-0.4814636,-0.15770404,-0.013286188,0.031693477,-0.19276792,-0.40136933,-0.34305176,0.05995234,3.073456,-0.61522835,7.44464e-05,-0.13916443,0.03943565,-0.002405489,-0.04632307,0.0066476227,0.02809349,0.44628873,-1.4034965,1.9323286,-2.1024387,-1.5648993,2.4158711,-0.21312179,0.16163866,-0.18060085,-0.005785432,0.03953992,-0.24100105,-0.36391866,0.24899697,-9.519346,0.9567419,47.6636,-1.0397235,-2.363391,-3.380004,-0.5048525,0.35350108,-0.41421527,28.375,29.5625,28.75,32.8125,35.125,36.25
0.29805183,-1.5759825,-0.31272206,0.061837774,-0.016889479,0.033858933,-0.18883678,-0.40165797,-0.34299836,0.059974242,3.0733223,-0.61509997,2.6726491e-05,-0.13941368,0.039704308,-0.0030782572,-0.04680354,0.0053271423,0.035964146,0.4458806,-1.4031957,1.9319357,-2.1024625,-1.5647916,2.4154,-0.21433194,0.1630501,-0.1806876,-0.0060345875,0.040620293,-0.25007445,-0.49799395,0.2681506,-9.461885,0.85826975,47.683304,-1.0461166,-2.211657,-3.4205456,-0.4921493,0.34975338,-0.3838671,28.375,29.5625,28.75,32.8125,35.125,36.25
0.30005196,-1.6066883,-0.45595825,0.04312445,-0.011963729,0.060632296,-0.1854047,-0.40191084,-0.342915,0.05994098,3.0733354,-0.614846,0.00013630064,-0.1403777,0.03943999,-0.0021910572,-0.04924067,0.0059811855,0.04869918,0.44547236,-1.4028356,1.931588,-2.1024387,-1.5647186,2.4148314,-0.21579427,0.16281095,-0.1826221,-0.00538947,0.042597696,-0.2642674,-0.36391866,0.19153613,-9.461885,0.87617236,47.666286,-1.1017647,-2.277207,-3.558619,-0.50794935,0.3510096,-0.22928113,28.375,29.5625,28.75,32.8125,35.125,36.25
0.30205193,-1.450512,0.08944521,-0.046871897,-0.006089231,0.053750463,-0.19830352,-0.40220523,-0.34281707,0.05992358,3.07328,-0.61471736,0.00015604317,-0.14146714,0.039278276,-0.002404709,-0.04997241,0.0054400563,0.053953804,0.44500387,-1.4024866,1.931228,-2.1024625,-1.5646461,2.4142897,-0.21686067,0.16526623,-0.18509576,-0.0051241247,0.043535553,-0.2705832,-0.21068975,0.21068975,-9.576807,0.8314132,47.684196,-1.2312872,-2.1099937,-3.3760207,-0.5105404,0.35617685,-0.10711493,28.375,29.5625,28.75,32.8125,35.125,36.25
0.30405185,-1.5587009,0.031786475,0.21343857,-0.021121155,0.040626302,-0.18725266,-0.40248132,-0.34274402,0.0599156,3.0732033,-0.61455065,0.00020820266,-0.14291856,0.03745906,0.0007656647,-0.053790223,0.01157731,0.050545163,0.4445727,-1.4021511,1.9308571,-2.1024625,-1.5645384,2.4137642,-0.21522163,0.16221203,-0.18868038,-0.005653966,0.04433238,-0.26553062,-0.36391866,0.2681506,-9.557653,0.92093146,47.661808,-1.4137185,-2.1050606,-3.4301653,-0.50378954,0.35753548,-0.10570346,28.375,29.5625,28.75,32.8125,35.125,36.25
0.30605194,-1.2363498,-0.15573493,0.08112694,-0.020339161,0.04899851,-0.18805593,-0.4027806,-0.34266263,0.059929833,3.0731332,-0.61438924,8.962244e-05,-0.14333308,0.036573745,0.00068954466,-0.054510593,0.012172974,0.042283654,0.4441529,-1.4018503,1.9304866,-2.1025107,-1.5645021,2.4132528,-0.2140921,0.1638455,-0.19022198,-0.00662442,0.044724107,-0.2561321,-0.59376204,0.24899697,-9.385271,0.8985519,47.67614,-1.5003324,-2.1311736,-3.3470302,-0.50118464,0.34559506,-0.2153854,28.375,29.5625,28.75,32.8125,35.125,36.25
0.30805197,-1.2833493,0.0063617313,-0.4616994,-0.0007927123,0.032518603,-0.19155337,-0.4030682,-0.34259206,0.059936453,3.0730135,-0.6143134,0.00012601988,-0.14409286,0.036498543,0.00011361621,-0.055467725,0.010768899,0.030018637,0.4437085,-1.401525,1.9300913,-2.1024988,-1.564381,2.4127765,-0.21534784,0.16630758,-0.19180062,-0.0066743605,0.04616727,-0.24511464,-0.30645782,0.24899697,-9.519346,0.8291774,47.691364,-1.4746153,-2.1520793,-3.3593488,-0.50454164,0.34880894,-0.36224282,28.375,29.5625,28.75,32.8125,35.125,36.25
0.31005195,-0.92434657,0.029629163,-0.49432713,-0.021900235,0.031856593,-0.18933387,-0.40335086,-0.34253702,0.05992629,3.072958,-0.61405474,0.0001542606,-0.14534461,0.03665171,0.00038187753,-0.05761968,0.010095578,0.023323094,0.44331178,-1.4011526,1.9296845,-2.1025102,-1.5642847,2.4122252,-0.21792695,0.16739734,-0.19387798,-0.005994202,0.04840239,-0.2409882,-0.1340753,0.19153613,-9.634268,0.9388393,47.66091,-1.4505608,-2.1770008,-3.2834585,-0.5042912,0.3310801,-0.48176432,28.375,29.5625,28.75,32.8125,35.125,36.25
0.3120521,-0.4583749,-0.47635922,-0.362485,-0.038354304,0.020106005,-0.20102303,-0.4036476,-0.34243396,0.05991356,3.072855,-0.61406684,0.00019573722,-0.14607178,0.037464496,0.00037849628,-0.05889917,0.00896378,0.030034525,0.44281885,-1.4008161,1.9293255,-2.1025226,-1.5641884,2.4117532,-0.22087929,0.1676074,-0.19434863,-0.005156018,0.050114416,-0.25064528,-0.17238252,0.22984336,-9.615114,0.94331104,47.70032,-1.3795414,-2.1022177,-3.3755932,-0.5090126,0.3065164,-0.4302548,28.375,29.5625,28.75,32.8125,35.125,36.25
0.31405237,-0.28701693,-0.37274867,-0.20246565,-0.04576383,0.012410062,-0.1990452,-0.403941,-0.34236616,0.059916254,3.0727575,-0.6138867,0.00013948162,-0.1464231,0.03721059,-5.743614e-05,-0.060444698,0.007767396,0.04343817,0.44239852,-1.4004911,1.9289554,-2.1025817,-1.5641035,2.411233,-0.22183216,0.16918685,-0.19518685,-0.0053486763,0.052129555,-0.2649901,-0.1340753,0.22984336,-9.557653,0.9612189,47.653748,-1.3340739,-2.1153643,-3.388887,-0.5328926,0.27775526,-0.33005148,28.375,29.5625,28.75,32.8125,35.125,36.25
0.31605256,-0.32417348,-0.3224975,-0.28792548,-0.03308374,-9.597504e-05,-0.18989669,-0.4042439,-0.3422887,0.05991898,3.0727086,-0.61364305,0.00015380878,-0.14829196,0.037400704,0.0001974642,-0.06207861,0.008746737,0.04921495,0.44195408,-1.4001306,1.9285249,-2.1025584,-1.5640196,2.4106426,-0.22426613,0.17084368,-0.1975651,-0.0061156466,0.053247076,-0.27319384,0.076614454,0.17238252,-9.615114,0.9365982,47.65464,-1.3112838,-1.9794059,-3.2591617,-0.5159101,0.26719895,-0.2022215,28.375,29.5625,28.75,32.8125,35.125,36.25
0.3180526,-0.06509811,-0.39561284,-0.15058337,-0.019860268,-0.00853715,-0.19020115,-0.40452915,-0.34222424,0.059907947,3.0725877,-0.61347,0.00021037477,-0.1504181,0.037319854,0.0015851442,-0.06638544,0.010262008,0.041315846,0.44150883,-1.3997821,1.9281534,-2.1025946,-1.5638741,2.4101048,-0.22778662,0.17052785,-0.20036931,-0.006184351,0.05649713,-0.26880005,-0.076614454,0.1340753,-9.519346,0.900793,47.719128,-1.1905086,-2.082428,-3.2657828,-0.51336855,0.22440347,-0.20494351,28.375,29.5625,28.75,32.8125,35.125,36.25
0.32005164,-0.21837296,-0.2918298,-0.103559524,-0.010595743,-0.011682505,-0.18473876,-0.4048462,-0.34212828,0.05990136,3.072513,-0.61340344,0.00021501978,-0.15134068,0.038265113,0.0011179441,-0.06598176,0.00981793,0.03161053,0.4410279,-1.3994093,1.9277347,-2.1025946,-1.5638016,2.409592,-0.2299169,0.17181897,-0.20080002,-0.0064757583,0.05631304,-0.26122272,-0.21068975,0.19153613,-9.404425,0.92093146,47.66091,-1.1100943,-2.2004046,-3.3637152,-0.50454223,0.20555863,-0.31529325,28.375,29.5625,28.75,32.8125,35.125,36.25
0.32205176,-0.15245788,0.38538784,-0.07568564,-0.008145459,0.006291822,-0.19188958,-0.405136,-0.3420632,0.059899382,3.0723786,-0.61322534,0.0002699761,-0.15215063,0.039278153,0.00017922839,-0.06599052,0.0076246085,0.024971906,0.44057146,-1.399072,1.9273528,-2.102618,-1.5636452,2.4090414,-0.23280297,0.17402415,-0.20136198,-0.0061023473,0.057271745,-0.25746277,-0.24899697,0.2873042,-9.423578,0.97464454,47.666286,-1.1331915,-2.1388564,-3.389633,-0.5012043,0.19047889,-0.41985023,28.375,29.5625,28.75,32.8125,35.125,36.25
0.3240518,-1.2946373,0.0070165573,-0.23939802,-0.0134600215,0.012704619,-0.18799257,-0.40543237,-0.3419725,0.05990202,3.072291,-0.61316615,0.00031276207,-0.15180455,0.039272826,-0.0007393132,-0.0668072,0.004666628,0.029212555,0.44010285,-1.3987352,1.9269465,-2.1025817,-1.5635489,2.4085472,-0.23361707,0.1757335,-0.20149735,-0.005268294,0.05932261,-0.26250863,-0.038307227,0.21068975,-9.500193,0.9298854,47.66271,-1.0067649,-2.2247975,-3.387526,-0.5076108,0.14117554,-0.39235917,28.375,29.5625,28.75,32.8125,35.125,36.25
0.32605174,-0.96214664,-0.13522135,0.24540041,-0.024303446,0.055266157,-0.19173811,-0.40572932,-0.3419219,0.05989999,3.0721526,-0.61291766,0.00036139993,-0.15188615,0.038338277,-0.0010520138,-0.067801,0.0034797178,0.043596882,0.43965915,-1.3983742,1.9265398,-2.1026175,-1.5633806,2.407966,-0.23280327,0.1779204,-0.20352949,-0.0046082926,0.060829133,-0.27606878,-0.17238252,0.17238252,-9.500193,0.9097417,47.684196,-1.1189108,-2.1185317,-3.4346328,-0.51058435,0.101983234,-0.321901,28.375,29.5625,28.75,32.8125,35.125,36.25
0.32805166,-1.8830653,-0.09517119,0.3126281,-0.019265302,0.058685776,-0.18297103,-0.40605542,-0.34183833,0.059918836,3.0720305,-0.6128107,0.00030913675,-0.15236756,0.03816754,-0.00018726451,-0.065538846,0.00634197,0.055125047,0.43917993,-1.3980383,1.9261087,-2.1026294,-1.5632857,2.4074357,-0.23069736,0.17775135,-0.20551561,-0.0039455,0.057655692,-0.2854966,-0.3256114,0.15322891,-9.385271,0.842603,47.70659,-1.3062375,-2.2092688,-3.4977787,-0.5043769,0.108552136,-0.17629975,28.375,29.5625,28.75,32.8125,35.125,36.25
0.3300517,-1.6815428,0.5060779,0.18777347,0.00023135921,0.08135062,-0.19687246,-0.40627974,-0.34174907,0.05985932,3.0720367,-0.61262244,0.0005556795,-0.15285121,0.038103145,-0.00069447764,-0.06540991,0.0053114616,0.053620964,0.4387598,-1.3976649,1.9257983,-2.1025808,-1.5631655,2.4068968,-0.23102614,0.17994472,-0.20707168,-0.0035467623,0.057950426,-0.28432587,-0.34476504,0.17238252,-9.308656,0.8918391,47.661808,-1.3391166,-2.236528,-3.4048772,-0.51737285,0.08124071,-0.13144,28.375,29.5625,28.75,32.8125,35.125,36.25
0.33205253,-1.7709901,0.9389177,0.056349955,0.023281984,0.06582406,-0.1794113,-0.406629,-0.34168378,0.05988077,3.0718517,-0.61243707,0.0004993288,-0.15441783,0.037847407,-7.128992e-05,-0.064982556,0.007631467,0.044283766,0.43825597,-1.3973039,1.9253434,-2.1026413,-1.5630101,2.406301,-0.23079519,0.18149722,-0.21030106,-0.0037844293,0.05658123,-0.2747526,-0.2681506,0.114921674,-9.385271,0.92093146,47.7254,-1.4901261,-2.2472034,-3.378271,-0.52092004,0.071880475,-0.25441226,28.375,29.5625,28.75,32.8125,35.125,36.25
0.33405238,-1.635422,0.6391067,0.19602843,0.03056299,0.04925095,-0.18084364,-0.40694126,-0.3416043,0.059885807,3.071778,-0.61229336,0.00046931932,-0.15634428,0.038699497,0.00012150471,-0.062748305,0.010585725,0.03247075,0.43781164,-1.3969429,1.9249114,-2.1026418,-1.562939,2.4057765,-0.23161599,0.18304698,-0.21232647,-0.0050655804,0.053274192,-0.26376778,-0.2681506,0.038307227,-9.32781,0.9791215,47.651955,-1.4609814,-2.2761068,-3.3573713,-0.5291179,0.08916943,-0.38494045,28.375,29.5625,28.75,32.8125,35.125,36.25
0.33605307,-0.9073544,0.43550983,0.21178816,0.025131041,0.051808577,-0.1865976,-0.4072611,-0.3415339,0.059896868,3.0716488,-0.6122126,0.0004441314,-0.15797998,0.040532332,0.00015449623,-0.060130525,0.012330467,0.026967462,0.4373549,-1.3965826,1.9244694,-2.1026542,-1.5628322,2.405286,-0.23404996,0.18361144,-0.21307513,-0.0053135296,0.050186213,-0.26070565,-0.4405331,0.19153614,-9.3661175,1.0015011,47.701214,-1.4875735,-2.259744,-3.254392,-0.49852106,0.12176712,-0.5086782,28.375,29.5625,28.75,32.8125,35.125,36.25
0.33805197,-1.0167016,0.32574046,0.16708328,-0.000804888,0.05240744,-0.19546273,-0.4075994,-0.3414336,0.05990749,3.071552,-0.6121289,0.00045230318,-0.16064021,0.04216282,0.0009864481,-0.05838531,0.015386563,0.035201173,0.43683815,-1.3962098,1.9240025,-2.102618,-1.5627373,2.4047296,-0.23715131,0.18435526,-0.21596974,-0.0050428305,0.047402203,-0.27204865,-0.24899697,0.15322891,-9.346964,0.8605109,47.684196,-1.5257039,-2.1535296,-3.1949136,-0.5116589,0.15344362,-0.4697957,28.375,29.5625,28.75,32.8125,35.125,36.25
0.34005198,-1.6570616,-0.20242974,-0.1311002,-0.0030821555,0.041722566,-0.1822914,-0.40789762,-0.34134656,0.05987971,3.071521,-0.6119242,0.00048520713,-0.16259196,0.043399077,0.0009706358,-0.05620575,0.0163319,0.0490883,0.43639323,-1.3958126,1.9236077,-2.1026413,-1.5626663,2.4041607,-0.2393216,0.18662162,-0.21885836,-0.0041788635,0.04513407,-0.2881139,-0.11492168,0.15322891,-9.32781,0.9858343,47.679718,-1.4822927,-2.2029648,-3.202232,-0.53464454,0.16594514,-0.3101694,28.375,29.5625,28.75,32.8125,35.125,36.25
0.34205186,-1.3770455,-0.34781367,-0.055075806,-0.001386801,0.04230342,-0.17594068,-0.40824124,-0.34127364,0.05990905,3.071382,-0.6117398,0.00039880426,-0.16400702,0.04437935,0.0024573077,-0.056140155,0.019354444,0.054404557,0.43591267,-1.3954655,1.9231418,-2.1026652,-1.562558,2.403583,-0.24121314,0.18464944,-0.22014321,-0.003518321,0.043897185,-0.2953213,-0.34476504,0.22984336,-9.308656,0.900793,47.685097,-1.31638,-1.9250493,-3.2275667,-0.5337595,0.21975687,-0.19779709,28.375,29.5625,28.75,32.8125,35.125,36.25
0.34405196,-1.0519035,0.23182262,0.102300145,-0.0127679985,0.05714131,-0.1832758,-0.40856272,-0.34117338,0.059880473,3.0712771,-0.61162853,0.00044292596,-0.16595273,0.04524751,0.0040089656,-0.057093937,0.02202066,0.043982536,0.4353958,-1.3950692,1.9227585,-2.1027248,-1.5624388,2.4030101,-0.24395801,0.18336204,-0.22239338,-0.002805219,0.043625552,-0.28764272,-0.47884032,0.22984336,-9.308656,0.8918391,47.668976,-1.2288162,-1.9680089,-3.134131,-0.52864,0.2197848,-0.24379659,28.375,29.5625,28.75,32.8125,35.125,36.25
0.34605223,-1.2378681,0.16187917,-0.16645311,-0.0024904578,0.06708924,-0.18097994,-0.40890655,-0.34108454,0.059907347,3.0711765,-0.611498,0.0003955249,-0.16698253,0.04690139,0.00337385,-0.05656603,0.020655664,0.034188252,0.434903,-1.3947086,1.9222683,-2.102689,-1.5623544,2.402449,-0.2475612,0.18452948,-0.22244851,-0.0024636807,0.043735314,-0.2814471,-0.61291564,0.24899697,-9.289502,0.91421866,47.67793,-1.0755913,-1.8855538,-3.2270284,-0.52881134,0.23985979,-0.35139441,28.375,29.5625,28.75,32.8125,35.125,36.25
0.34805223,-1.4100577,0.3450372,-0.4604323,-0.0009865565,0.07510356,-0.18267381,-0.40922388,-0.3410104,0.05992081,3.0710986,-0.6112903,0.00036350405,-0.1673831,0.04744633,0.0031240457,-0.05629155,0.020358367,0.032829527,0.43445832,-1.3943483,1.9218143,-2.102677,-1.56227,2.4018846,-0.2485885,0.18514949,-0.22266899,-0.002437546,0.04365088,-0.2811128,-0.2873042,0.076614454,-9.576807,0.8605109,47.705692,-1.0351428,-1.8335959,-3.3434544,-0.5330972,0.25706857,-0.40891218,28.375,29.5625,28.75,32.8125,35.125,36.25
0.3500522,-1.4787141,0.06369131,-0.35008,-0.0014612768,0.061390597,-0.18038264,-0.4095867,-0.34087196,0.059911557,3.0710316,-0.6112315,0.00028652596,-0.16778813,0.048132595,0.0026532253,-0.05593379,0.019612124,0.042587537,0.43389416,-1.3939633,1.9213966,-2.1027248,-1.5622343,2.4012926,-0.24995464,0.18616632,-0.22288842,-0.002279549,0.043752253,-0.29223374,-0.2873042,0.019153614,-9.634268,0.9254084,47.703903,-1.1941552,-1.9516678,-3.4607391,-0.5418497,0.2639416,-0.346774,28.375,29.5625,28.75,32.8125,35.125,36.25
0.35205224,-1.1898446,0.11568346,0.04585433,-0.009368472,0.062927455,-0.18712908,-0.40990293,-0.34079462,0.05990695,3.0709841,-0.61100245,0.00034083112,-0.16767757,0.047940157,0.0014463505,-0.055460706,0.017572545,0.05726393,0.43343806,-1.3935539,1.9209179,-2.102677,-1.562138,2.4006994,-0.24965528,0.1890803,-0.22363205,-0.0022315711,0.044288684,-0.30660787,-0.45968673,0.1340753,-9.500193,0.9231726,47.667187,-1.2586849,-1.9696724,-3.5098128,-0.5466692,0.2882439,-0.19651963,28.375,29.5625,28.75,32.8125,35.125,36.25
0.35405236,-0.81853706,0.4908319,-0.22196488,-0.0055619315,0.058721576,-0.17919283,-0.4102325,-0.34070474,0.05990062,3.0708785,-0.61082745,0.00035663752,-0.16814797,0.046947807,0.00065060187,-0.055621468,0.01676149,0.060517725,0.43293464,-1.3931681,1.9204873,-2.102701,-1.5620183,2.4001002,-0.24841055,0.1927879,-0.22611052,-0.002717914,0.04482108,-0.30861047,-0.36391866,0.019153614,-9.519346,0.9545008,47.652847,-1.2806594,-2.0209835,-3.5223203,-0.5285995,0.29946995,-0.120319076,28.375,29.5625,28.75,32.8125,35.125,36.25
0.35605237,-0.52401304,0.7229922,-0.5460543,0.005633924,0.038383145,-0.18169583,-0.41054568,-0.34059578,0.059873573,3.0708146,-0.61062896,0.00042093932,-0.1684232,0.046094723,-0.00018038199,-0.056008946,0.01540018,0.050764214,0.43241847,-1.3927827,1.9201039,-2.1027248,-1.5619096,2.3994682,-0.24747664,0.19610581,-0.22809966,-0.0030138744,0.045700148,-0.2979165,-0.17238252,-0.05746084,-9.634268,0.95897776,47.66808,-1.2610035,-2.2169228,-3.397874,-0.5279654,0.3257169,-0.15375268,28.375,29.5625,28.75,32.8125,35.125,36.25
0.3580524,-1.1069261,0.34745225,-0.15993284,-0.0019697843,0.011487697,-0.16847125,-0.41094562,-0.34050554,0.059911463,3.0706902,-0.6105525,0.0002488147,-0.16899233,0.046129216,-0.0005155344,-0.056654226,0.014542817,0.037225507,0.43190286,-1.3923736,1.9195422,-2.1027372,-1.5618614,2.3989213,-0.2483325,0.19770987,-0.2292808,-0.0030061349,0.04663202,-0.2852208,-0.2681506,-0.038307227,-9.653421,0.91198283,47.681515,-1.4357316,-2.3036811,-3.4732554,-0.53269815,0.30691832,-0.33964595,28.375,29.5625,28.75,32.8125,35.125,36.25
0.3600525,-0.5269464,-0.013949573,-0.28970072,-0.00023162233,0.025481436,-0.17472208,-0.41127142,-0.34039748,0.05990407,3.0706036,-0.6104417,0.0002717481,-0.17043951,0.045962084,5.1484738e-05,-0.05929148,0.014784389,0.029945996,0.43138608,-1.3920012,1.9191235,-2.1027372,-1.5617641,2.3983464,-0.2504352,0.19870855,-0.23184168,-0.0027693545,0.048921302,-0.28002977,-0.40222588,0.15322891,-9.5385,0.92093146,47.68599,-1.4845273,-2.2129977,-3.4626412,-0.53688693,0.32670373,-0.4748454,28.375,29.5625,28.75,32.8125,35.125,36.25
0.36205176,-0.49473897,0.010590502,-0.60447484,-0.01111548,0.048135642,-0.1917958,-0.41159794,-0.34032732,0.05990081,3.0705333,-0.6102102,0.0003052986,-0.17137516,0.04705277,-0.0010204028,-0.057746235,0.013268462,0.039336797,0.43092945,-1.3915796,1.9186324,-2.1027129,-1.5616568,2.3977542,-0.25247473,0.2016167,-0.23299083,-0.0023477639,0.048251078,-0.2914615,-0.11492168,0.17238252,-9.691729,0.9567419,47.703007,-1.3991154,-2.2525542,-3.4133425,-0.5347383,0.31566444,-0.4505442,28.375,29.5625,28.75,32.8125,35.125,36.25
0.36405247,-1.1735831,-0.8091832,-0.5506691,-0.022496471,0.046186805,-0.17279911,-0.41194403,-0.34024787,0.059916615,3.0703797,-0.6100736,0.00027111208,-0.17345828,0.047508486,-0.00010742195,-0.05891667,0.0149307875,0.053685907,0.43042484,-1.3912071,1.9181665,-2.1027367,-1.5615238,2.3971841,-0.25506082,0.20244795,-0.23624209,-0.0017108542,0.048776496,-0.3083888,0.0,0.21068975,-9.749189,0.91198283,47.704796,-1.3667696,-2.172996,-3.3317118,-0.5476667,0.35098764,-0.28308898,28.375,29.5625,28.75,32.8125,35.125,36.25
0.36605245,-1.168734,-0.90969867,-0.13008164,-0.04909623,0.046259154,-0.1692415,-0.41230997,-0.34010124,0.05991133,3.0703497,-0.609934,0.0002349156,-0.17571895,0.047731616,0.0018342427,-0.061747465,0.01805091,0.054207835,0.42984793,-1.390811,1.9177116,-2.1027243,-1.5614885,2.396524,-0.25786734,0.20127478,-0.23943089,-0.0013007021,0.05010123,-0.3117078,-0.15322891,0.22984336,-9.442732,0.8851263,47.66091,-1.2710547,-2.167433,-3.315127,-0.5445015,0.34896106,-0.18950918,28.375,29.5625,28.75,32.8125,35.125,36.25
0.36805248,-0.5818725,-0.79894614,-0.26228634,-0.03431597,0.043614946,-0.18125951,-0.41264838,-0.34004068,0.05994064,3.0702338,-0.6097248,0.00021752546,-0.1771708,0.047905236,0.002429073,-0.06415331,0.018361107,0.044540655,0.42939118,-1.3904265,1.9171842,-2.1026766,-1.5613674,2.3959515,-0.2604044,0.20181733,-0.24152493,-0.0010467442,0.052157477,-0.3045617,-0.34476504,0.34476504,-9.461885,0.83589023,47.70032,-1.1852237,-2.156413,-3.249282,-0.5459997,0.34358972,-0.26235333,28.375,29.5625,28.75,32.8125,35.125,36.25
0.37005255,-0.4065353,-0.47816628,-0.44786638,-0.030474264,0.04652321,-0.18628176,-0.4129949,-0.3399317,0.05992653,3.0701292,-0.60962874,0.00023666545,-0.17684633,0.047537968,0.001960765,-0.064553335,0.017243579,0.03828274,0.42885137,-1.3900173,1.9167427,-2.1027005,-1.5612592,2.3953652,-0.259768,0.20286638,-0.24176762,-0.0010106085,0.052980244,-0.2976601,-0.28730422,0.3256114,-9.615114,1.0037369,47.691364,-1.2092184,-2.12254,-3.2686555,-0.5469731,0.35408098,-0.33852983,28.375,29.5625,28.75,32.8125,35.125,36.25
0.37205175,-1.26723,-0.46934566,-0.317771,-0.03907568,0.0399997,-0.17985386,-0.41335544,-0.33982372,0.059930015,3.070053,-0.6094027,0.00022757382,-0.17749451,0.04924921,0.0016915108,-0.06393573,0.016943712,0.038847137,0.42831022,-1.3896091,1.9162539,-2.1026886,-1.5611633,2.3946927,-0.26281285,0.20248723,-0.24079177,-0.0009855572,0.052612573,-0.301269,-0.21068975,0.36391866,-9.615114,1.0328293,47.68599,-1.143505,-2.1205878,-3.3279614,-0.5432555,0.3544227,-0.38877136,28.375,29.5625,28.75,32.8125,35.125,36.25
0.37405205,-1.6424633,-0.88017917,-0.33767986,-0.036576167,0.05601052,-0.17697681,-0.41372,-0.33971816,0.0599181,3.0699651,-0.60926205,0.00023361997,-0.17802823,0.04884727,0.0021380745,-0.06684918,0.016792987,0.052064147,0.42776966,-1.389165,1.9157633,-2.1027,-1.561066,2.3940756,-0.26406622,0.202569,-0.2420202,-0.00072437944,0.05546151,-0.31572232,-0.30645782,0.3256114,-9.5385,1.005978,47.694054,-1.0805217,-1.8982457,-3.494068,-0.5384948,0.36431283,-0.27521646,28.375,29.5625,28.75,32.8125,35.125,36.25
0.37605226,-1.55673,-0.91849625,-0.18151893,-0.03506074,0.061308056,-0.17662726,-0.41409498,-0.33963534,0.059957895,3.0698202,-0.60907215,0.00012806362,-0.17801163,0.047805175,0.002038776,-0.069299966,0.015838513,0.062922716,0.42725408,-1.3887924,1.9152364,-2.1027,-1.5609573,2.3934603,-0.26369518,0.20382324,-0.24332017,-0.00067131495,0.05822775,-0.32618704,-0.38307226,0.22984336,-9.5385,0.9365982,47.65912,-1.145983,-1.9232498,-3.5717134,-0.54172957,0.31366923,-0.1263756,28.375,29.5625,28.75,32.8125,35.125,36.25
