Tylouw/Master_Thesis_Code/training_data/batch_1/small_rod_t0.3/sample_36_session_2.csv
timestamp[s],tcp_force_x[N],tcp_force_y[N],tcp_force_z[N],tcp_force_rx[Nm?],tcp_force_ry[Nm?],tcp_force_rz[Nm?],tcp_pose_x[m],tcp_pose_y[m],tcp_pose_z[m],tcp_pose_rx[rot_vec_x],tcp_pose_ry[rot_vec_y],tcp_pose_rz[rot_vec_z],tcp_velo_x[m/s],tcp_velo_y[m/s],tcp_velo_z[m/s],tcp_velo_rx[rot_vec_x/s],tcp_velo_ry[rot_vec_y/s],tcp_velo_rz[rot_vec_z/s],q1[rad],q2[rad],q3[rad],q4[rad],q5[rad],q6[rad],qd1[rad/s],qd2[rad/s],qd3[rad/s],qd4[rad/s],qd5[rad/s],qd6[rad/s],tool_acc_x,tool_acc_y,tool_acc_z,current_of_whole_robot[A],voltage_of_whole_robot[V],current_J1[A],current_J2[A],current_J3[A],current_J4[A],current_J5[A],current_J6[A],temp_J1[C],temp_J2[C],temp_J3[C],temp_J4[C],temp_J5[C],temp_J6[C]
6.920018e-07,-0.026318645,-0.6251527,0.96465296,0.0028179402,0.014515712,-0.019952577,-0.38105533,-0.3485215,0.059974235,-3.0785112,0.624876,-0.00016500945,0.0023801422,0.0012155223,-0.0026906885,0.003025766,-0.0061035273,6.9772555e-05,0.4777981,-1.4259573,1.9577278,-2.1008208,-1.5707697,2.452752,-4.2456457e-05,0.0015661948,0.0041039404,0.0011406947,0.00013107134,-0.0001145129,0.019153614,0.21068975,-8.848969,0.70608455,47.71465,0.060477078,-2.8531747,-2.5740442,-0.45186704,0.09714976,0.05115816,28.4375,29.625,28.875,32.875,35.25,36.3125
0.002052528,-0.17662449,-0.6513977,0.93577063,0.009497744,0.004260843,-0.016365161,-0.38108477,-0.34852788,0.0599887,-3.078549,0.6249412,-9.901346e-05,-0.0006190018,-0.00034661315,-0.0026711277,-0.0011525366,0.001915585,7.014617e-05,0.47777414,-1.4259566,1.957703,-2.1008608,-1.5707573,2.452764,-4.1799158e-05,0.003682441,0.0042115306,-0.010125493,0.00012840005,-0.00011167083,-0.019153614,0.1340753,-8.772355,0.7217513,47.688675,0.041527897,-2.856689,-2.4573102,-0.41255796,0.101631865,0.051366128,28.4375,29.625,28.875,32.875,35.25,36.3125
0.004052683,0.025670616,-0.49755108,0.7904913,0.009184876,0.006804181,-0.019130828,-0.38107967,-0.34850958,0.059957426,-3.0784976,0.62495,-0.00013279833,-0.0022687877,-0.0012052984,-0.0020123578,-0.0036101174,0.0066405577,6.935172e-05,0.4777621,-1.4259207,1.9577392,-2.1008856,-1.5707816,2.452764,-4.116199e-05,0.0038069894,0.003684915,-0.015049309,0.00012583539,-0.000108966626,0.038307227,0.17238252,-8.714894,0.79560274,47.70211,0.08467355,-3.1469142,-2.6405816,-0.28134865,0.08705515,0.038538232,28.4375,29.625,28.875,32.875,35.25,36.3125
0.00605195,0.25161314,0.2132719,0.74537075,0.0087724775,-0.0015870215,-0.015942642,-0.38106537,-0.34853086,0.059959814,-3.0785577,0.624924,-0.00017822633,-0.0012413645,-0.0006693096,-0.0013476772,-0.0021014074,0.0037561413,6.655872e-05,0.47777414,-1.4259331,1.9577502,-2.1008956,-1.5707215,2.452752,-4.0543855e-05,0.0023081244,0.0025292924,-0.009139663,0.00012337128,-0.00010639042,0.05746084,0.21068975,-8.714894,0.7553206,47.705692,0.07043723,-3.0730715,-2.6007805,-0.32396063,0.089813486,0.045416556,28.4375,29.625,28.875,32.875,35.25,36.3125
0.008051844,0.698249,0.9925636,0.45635304,0.03844461,-0.024563737,-0.025581315,-0.3810632,-0.34852344,0.05995042,-3.0785303,0.62487996,-0.00015819503,-0.00028721956,-0.00017115113,-0.0004542034,-0.0010798394,0.0018106594,8.171524e-05,0.47778618,-1.425922,1.9577612,-2.1009052,-1.5707573,2.4527402,-3.9944043e-05,7.928939e-05,0.0018702669,-0.0040544407,0.000121001634,-0.00012198719,-0.019153614,0.21068975,-8.829816,0.73741806,47.71286,0.0899653,-2.9102354,-2.5749245,-0.37196258,0.08878748,0.037868224,28.4375,29.625,28.875,32.875,35.25,36.3125
0.010051953,0.5522965,0.7626312,0.044268217,0.04763413,-0.030449016,-0.015451616,-0.38105407,-0.3485254,0.05993505,-3.0784965,0.6248922,-0.00021793929,9.537907e-05,2.857389e-05,-0.00039542417,-0.00032984428,0.0003758535,8.185096e-05,0.4777981,-1.425886,1.9577497,-2.1008809,-1.5707573,2.452764,-3.936176e-05,1.0637684e-06,0.0013116931,-0.0017986419,0.000118721255,-0.00012172552,0.019153614,0.13407528,-9.11712,0.7239871,47.690468,-0.29347396,-2.3650742,-3.180932,-0.3784349,0.077221215,0.025770092,28.4375,29.625,28.875,32.875,35.25,36.3125
0.012051781,0.23905441,-0.17923945,-0.24814059,0.027617248,-0.014931036,-0.027866622,-0.3810458,-0.34852105,0.059934806,-3.0784736,0.6248876,-0.000263349,0.00021102758,0.0001552117,-0.0026347565,0.0019962848,-0.004113092,-2.5013005e-05,0.47779804,-1.4258846,1.9577378,-2.1008332,-1.5707573,2.452764,-0.00015977112,0.0054415856,2.3059682e-05,-0.0008946859,0.000116525516,-0.000133936,0.1340753,0.11492168,-9.308657,0.68818194,47.71465,-0.53142023,-2.2608232,-3.2464952,-0.37624454,0.07037374,-0.023590129,28.4375,29.625,28.875,32.875,35.25,36.3125
0.014052133,-0.9145791,-1.0899925,-0.47066438,-0.007939359,-0.0022644268,-0.007878673,-0.3810585,-0.34849715,0.059912283,-3.0784204,0.6249381,-0.00028462723,-0.005085046,0.0016273432,-0.0040693777,0.0033889748,-0.006709731,-0.0073321746,0.47775954,-1.4258447,1.9577464,-2.1008446,-1.5707816,2.4527638,-0.00764997,0.01561979,-0.008619463,0.0005160289,5.8094436e-05,-0.00031116497,0.0,0.21068975,-9.519346,0.77545905,47.67345,-0.32864398,-2.9554653,-2.9872656,-0.38560092,0.050922446,-0.05703246,28.4375,29.625,28.875,32.875,35.25,36.3125
0.016052091,-1.0192354,-1.3840547,-0.49959695,-0.04156021,0.03373386,-0.02507015,-0.38102216,-0.34850007,0.059871677,-3.0783994,0.62483424,-0.00042575147,-0.0055411714,0.002895569,-0.0034077456,0.003347006,-0.0066078454,-0.0010239828,0.4777826,-1.4257975,1.9577826,-2.1008322,-1.5707573,2.4527247,-0.0103199445,0.013527825,-0.0080736885,0.0019510742,4.8872236e-05,-0.009290217,-0.22984336,0.2681506,-9.519346,0.7978386,47.6636,-0.24115011,-2.8777854,-3.1137161,-0.38901758,0.028436245,-0.0038315554,28.4375,29.625,28.875,32.875,35.25,36.3125
0.01805267,-1.7155427,-1.890034,-0.5132707,-0.05191731,0.05398762,-0.03428425,-0.3810338,-0.34846607,0.059869546,-3.0783396,0.62480026,-0.0004622962,-0.0046184016,0.0029682263,-0.003425263,0.0039578346,-0.0077796597,0.0036743933,0.47773486,-1.4257859,1.9577578,-2.1007597,-1.5707935,2.4526634,-0.009592883,0.012666291,-0.0073929788,0.0034522614,4.7093894e-05,-0.013262315,-0.40222588,0.2681506,-9.653421,0.7396539,47.729877,-0.43227148,-2.5117598,-3.4459012,-0.40641144,0.04887022,0.052576996,28.4375,29.625,28.875,32.875,35.25,36.3125
0.0200517,-1.5119661,-1.3835105,-0.5955284,-0.044515938,0.080538586,-0.046209697,-0.38105625,-0.34849298,0.05988948,-3.0784085,0.62481445,-0.0003851848,-0.0060364967,0.0027783692,-0.002874649,0.0034404257,-0.006787084,0.0035759367,0.47774646,-1.4257854,1.9577225,-2.1008074,-1.5707697,2.452675,-0.010568217,0.0139663,-0.0102284895,0.003868597,4.5861165e-05,-0.014137629,-0.45968673,0.2681506,-9.691729,0.7463667,47.692257,-0.55857223,-2.523533,-3.530678,-0.38993555,0.02988967,0.03223503,28.4375,29.625,28.875,32.875,35.25,36.3125
0.02205164,-1.4422832,-0.9273429,-0.83676505,-0.010693067,0.0756978,-0.064195655,-0.3810333,-0.3484735,0.059838906,-3.0783296,0.62489676,-0.0005944479,-0.008136824,0.0032586495,-0.0029384457,0.0031881009,-0.0063164276,0.00052351,0.47770947,-1.4257127,1.9577445,-2.1007602,-1.5707334,2.4526994,-0.013368306,0.016516041,-0.012894087,0.0034510237,4.471962e-05,-0.013883461,-0.53630114,0.2681506,-9.730036,0.80456203,47.71823,-0.5678495,-2.4485507,-3.4175239,-0.3834743,0.026993956,0.044613615,28.4375,29.625,28.875,32.875,35.25,36.3125
0.02405184,-1.2646348,-0.54598284,-0.92786247,0.00058987783,0.06608011,-0.07464667,-0.38110045,-0.34847245,0.05987578,-3.0783734,0.62488747,-0.00045509337,-0.009768932,0.0034972942,-0.002639963,0.00252192,-0.005036838,-0.0018741185,0.4776609,-1.4257003,1.9576486,-2.1007717,-1.5707573,2.4526396,-0.01530158,0.017656682,-0.014700579,0.0026740083,4.363534e-05,-0.01341785,-0.51714754,0.2681506,-9.768343,0.79560274,47.690468,-0.5900433,-2.4967003,-3.472443,-0.3733784,0.01379119,0.0025803123,28.4375,29.625,28.875,32.875,35.25,36.3125
0.02605233,-1.0130106,-0.7810285,-0.63787127,0.00053778273,0.065464824,-0.087871365,-0.38108048,-0.34846374,0.059828278,-3.0783253,0.62487906,-0.000609834,-0.011031433,0.003665336,-0.0026154926,0.002266973,-0.0045138407,-0.0041493704,0.4776484,-1.4256278,1.957672,-2.1007602,-1.5707334,2.452628,-0.016758012,0.019144423,-0.016360002,0.0022645248,2.4102297e-05,-0.01259784,-0.6512228,0.15322891,-9.921572,0.67475104,47.66271,-0.5603689,-2.5532246,-3.4201093,-0.35259274,-0.007348266,-0.015793115,28.4375,29.625,28.875,32.875,35.25,36.3125
0.028052205,-1.2358627,-0.063301906,-0.6418514,-0.028490666,0.07427181,-0.10633117,-0.3810999,-0.3484625,0.059826054,-3.0783234,0.6248401,-0.00059775094,-0.012135517,0.0034237904,-0.0018652929,0.0014491016,-0.0029147589,-0.004352706,0.47763622,-1.425592,1.9576362,-2.1007602,-1.5707458,2.4525917,-0.017341632,0.019350344,-0.01829503,0.0021973862,1.0762448e-05,-0.012977076,-0.57460845,0.21068975,-9.864111,0.73069996,47.68599,-0.5889494,-2.4280434,-3.4746068,-0.34888348,-0.003081977,-0.017238282,28.4375,29.625,28.875,32.875,35.25,36.3125
0.030052247,-1.6869432,-0.77205014,-0.5775016,-0.014917027,0.075817,-0.10905321,-0.38115653,-0.34848985,0.05985834,-3.0783813,0.6249098,-0.0004917524,-0.012405822,0.0032579969,-0.0016155336,0.0015892986,-0.003162046,-0.004201736,0.4776243,-1.4255558,1.9575266,-2.1007836,-1.5707334,2.452616,-0.017288854,0.019901477,-0.019769901,0.003405372,7.027109e-07,-0.013074657,-0.68953013,0.19153613,-9.787497,0.7597976,47.690468,-0.59472966,-2.4562273,-3.4155865,-0.3322708,-0.008838535,-0.041582514,28.4375,29.625,28.875,32.875,35.25,36.3125
0.032052208,-1.7105138,-0.5044492,-0.4639141,-0.0007753768,0.08002041,-0.11733524,-0.38114622,-0.34845486,0.059819963,-3.078294,0.62493014,-0.00068008754,-0.012886025,0.0035973312,-0.0017003843,0.0024716288,-0.0048686024,-0.0043892176,0.4775639,-1.4254953,1.9575261,-2.1006992,-1.5707215,2.4525793,-0.018337453,0.021414153,-0.021872222,0.0059162276,4.5881997e-08,-0.0139349755,-0.7278373,0.0,-9.940725,0.75084364,47.704796,-0.68341255,-2.3835475,-3.4004211,-0.34585744,-0.018422583,-0.036067203,28.4375,29.625,28.875,32.875,35.25,36.3125
0.034052115,-1.8548859,0.15353431,-0.55341935,0.018468093,0.061758067,-0.12635545,-0.3812182,-0.34846747,0.059842777,-3.078377,0.6248899,-0.0005081503,-0.014463671,0.0035163914,-0.0010016116,0.0017230154,-0.003430051,-0.005777592,0.4775274,-1.4254591,1.9574546,-2.100795,-1.5707334,2.4525073,-0.019651186,0.02233275,-0.024549002,0.0060525774,2.9957663e-09,-0.013858865,-0.57460845,-0.114921674,-9.883265,0.7777002,47.701214,-0.698249,-2.4036415,-3.3490658,-0.35430276,-0.05122363,-0.04963491,28.4375,29.625,28.875,32.875,35.25,36.3125
0.036052432,-1.136677,0.57161605,-0.3982555,0.037400294,0.0540325,-0.14098355,-0.38123572,-0.34844744,0.059825305,-3.0783036,0.6249726,-0.0005569101,-0.015469976,0.0036916123,-0.00077713904,0.0011692463,-0.002369447,-0.0072792782,0.47749102,-1.4253991,1.9574178,-2.1007593,-1.5707573,2.4525318,-0.020893138,0.022762839,-0.025370471,0.005247204,1.9560215e-10,-0.01359849,-0.47884035,-0.1340753,-9.768343,0.78888994,47.70032,-0.6321833,-2.3658252,-3.4040694,-0.32836422,-0.060436003,-0.050739497,28.4375,29.625,28.875,32.875,35.25,36.3125
0.0380526,-0.9864023,0.7858197,-0.20794736,0.036997933,0.03834794,-0.14508143,-0.38128802,-0.3484516,0.05983343,-3.0783348,0.6249789,-0.00052417896,-0.016930507,0.0037152357,-0.00020727371,0.00047370733,-0.00042608177,-0.009215819,0.4774426,-1.425339,1.9573334,-2.1007712,-1.5707458,2.4524834,-0.022101762,0.023299174,-0.027089996,0.0043860227,-0.0002801604,-0.012868886,-0.36391866,-0.17238252,-9.672575,0.7530795,47.716442,-0.58013266,-2.45217,-3.391614,-0.31698912,-0.06906853,-0.056831874,28.4375,29.625,28.875,32.875,35.25,36.3125
0.040052462,-0.5714715,0.79255503,-0.22989641,0.03279463,0.03213684,-0.15454121,-0.38131785,-0.34844205,0.059843957,-3.078321,0.6249965,-0.00051261816,-0.018739142,0.0042771716,0.0003972073,0.0017006578,0.0015131545,-0.0105979955,0.477406,-1.4253147,1.9572734,-2.100735,-1.5707582,2.4524596,-0.023482691,0.024391944,-0.029830411,0.004882069,-0.0022657553,-0.012862178,-0.28730422,-0.17238252,-9.5385,0.7396539,47.682407,-0.62904006,-2.3619146,-3.3817978,-0.28802443,-0.043910585,-0.08566265,28.4375,29.625,28.875,32.875,35.25,36.3125
0.04205254,-0.6153005,-0.21645081,-0.4045924,0.045113824,0.02029829,-0.15547119,-0.38135213,-0.34839922,0.059822798,-3.078231,0.6251131,-0.0005486422,-0.019633418,0.004849363,0.00061356806,0.002919264,0.001371355,-0.011688872,0.4773217,-1.4252545,1.9572476,-2.1007106,-1.5707945,2.4524596,-0.024663633,0.025330208,-0.031783435,0.006585646,-0.0032840606,-0.012949205,-0.3256114,-0.15322891,-9.423578,0.7978386,47.705692,-0.61082613,-2.297212,-3.285357,-0.30685684,-0.06363663,-0.08442521,28.4375,29.625,28.875,32.875,35.25,36.3125
0.04405273,-0.55298364,-0.42868757,-0.41992214,0.034133263,0.0074625146,-0.16654432,-0.381414,-0.34840855,0.059851944,-3.078269,0.625198,-0.00047337776,-0.019975599,0.005223043,0.00046011014,0.0035189525,1.8396324e-05,-0.012178216,0.47727332,-1.4252181,1.9571394,-2.1007102,-1.5707825,2.4524593,-0.025699863,0.026374042,-0.0329986,0.008233788,-0.0031934325,-0.013496059,-0.1340753,-0.019153614,-9.595961,0.82022345,47.711964,-0.61157775,-2.3935304,-3.347605,-0.30939323,-0.059897482,-0.10418603,28.4375,29.625,28.875,32.875,35.25,36.3125
0.04605235,-0.40361625,-0.3269465,-0.3712517,0.0154109765,0.0055477396,-0.17801261,-0.38142443,-0.348398,0.05982811,-3.0782337,0.62519115,-0.0005737389,-0.020871123,0.0053279814,0.00082967046,0.0032135379,0.00019822047,-0.012758328,0.47723708,-1.4251461,1.9571036,-2.100674,-1.5707706,2.4524233,-0.026834382,0.027025672,-0.03477603,0.009058847,-0.0030080357,-0.014049789,-0.095768064,0.076614454,-9.615114,0.7866488,47.67614,-0.6346084,-2.2589955,-3.322496,-0.31397694,-0.07261567,-0.11816329,28.4375,29.625,28.875,32.875,35.25,36.3125
0.048052326,-0.29182974,-0.87375957,-0.40126315,0.015949724,0.0013778892,-0.18208317,-0.3814924,-0.3483819,0.059845727,-3.0782113,0.6252631,-0.00046972022,-0.021275163,0.0057340986,0.00070670823,0.0036676337,-0.0009504967,-0.013330859,0.4771766,-1.425098,1.9570082,-2.1006734,-1.5708183,2.4524107,-0.028007474,0.02793414,-0.035848603,0.010450477,-0.0028826902,-0.014650339,-0.076614454,0.15322891,-9.481039,0.7396539,47.693153,-0.62073797,-2.2337358,-3.278354,-0.30362034,-0.08934969,-0.124908015,28.4375,29.625,28.875,32.875,35.25,36.3125
0.05005257,-0.2836815,-1.1516428,-0.4739036,0.014438532,0.0074336817,-0.18790238,-0.3815367,-0.34837952,0.059867155,-3.0782328,0.6253256,-0.0004631163,-0.022877289,0.005976083,0.0014139685,0.0038495928,0.0006697659,-0.014140155,0.47711623,-1.4250736,1.9569234,-2.1006372,-1.5707949,2.4523866,-0.02932414,0.028720828,-0.038472895,0.010935707,-0.0037929881,-0.015154605,0.0,0.22984336,-9.5385,0.74413085,47.690468,-0.5613154,-2.2432308,-3.3164988,-0.30228606,-0.08589423,-0.14059208,28.4375,29.625,28.875,32.875,35.25,36.3125
0.052052792,-0.55796206,-1.0975974,-0.49761286,0.0025214867,0.0064175846,-0.19879238,-0.38158917,-0.3483727,0.0598621,-3.078221,0.62538135,-0.0004630008,-0.023688678,0.0065701283,0.0016255046,0.004773618,0.0010935658,-0.014581987,0.47705585,-1.4249896,1.956839,-2.1006367,-1.5707954,2.4523625,-0.03046553,0.02912214,-0.03959066,0.011703293,-0.0048095337,-0.015851654,0.019153614,0.24899697,-9.5385,0.7351769,47.685097,-0.602918,-2.1360388,-3.269792,-0.309739,-0.10035181,-0.15115756,28.4375,29.625,28.875,32.875,35.25,36.3125
0.054052167,-0.345798,-1.3052914,-0.39090458,-0.0043544243,0.012289416,-0.19805314,-0.38162166,-0.3483377,0.059844512,-3.0781643,0.62542796,-0.0005238841,-0.024491463,0.006848071,0.0015425729,0.0049557392,0.00072603027,-0.01536163,0.47697133,-1.4249294,1.9568022,-2.100601,-1.5708073,2.4523144,-0.03170155,0.030388327,-0.040964663,0.012220534,-0.004805677,-0.016306967,0.019153614,0.34476504,-9.442732,0.79560274,47.70032,-0.62974495,-2.1444468,-3.2475662,-0.32015902,-0.089661986,-0.1734814,28.4375,29.625,28.875,32.875,35.25,36.3125
0.05605173,-0.13958919,-1.0927261,-0.5604592,-0.02127796,0.01940151,-0.20510463,-0.38168478,-0.34833467,0.059858873,-3.0781615,0.6254274,-0.00047042684,-0.025507538,0.0068822205,0.0013248847,0.004894175,0.00021375644,-0.015253176,0.47692305,-1.4248567,1.9566811,-2.100577,-1.5708312,2.4522662,-0.032883227,0.03251303,-0.042959817,0.012515879,-0.0045198468,-0.01759652,0.0,0.4213795,-9.5385,0.81351066,47.704796,-0.6076453,-2.1697993,-3.3446674,-0.3310626,-0.09385009,-0.15790866,28.4375,29.625,28.875,32.875,35.25,36.3125
0.05805269,-0.29423627,-1.1846302,-0.41957846,-0.02703439,0.016740093,-0.20554695,-0.38172168,-0.34832203,0.05986226,-3.0781324,0.6254797,-0.0004747455,-0.026215391,0.0073051252,0.0013432984,0.0055403155,-0.00011613582,-0.015837908,0.47687453,-1.4248084,1.9566101,-2.1005409,-1.5708436,2.452254,-0.034010794,0.033454254,-0.04430234,0.013507826,-0.0049437378,-0.0181378,0.0,0.38307226,-9.557653,0.72622824,47.72002,-0.5977138,-2.2262611,-3.2963228,-0.33399886,-0.09182938,-0.1796419,28.4375,29.625,28.875,32.875,35.25,36.3125
0.06005205,-0.5431997,-1.7047676,-0.38054726,-0.014416054,0.017462889,-0.18460152,-0.3817959,-0.34831542,0.05988074,-3.0781474,0.625578,-0.00046928597,-0.027429968,0.006981694,0.0027123173,0.0045704544,0.003161974,-0.0148759885,0.47677836,-1.4247369,1.956478,-2.1005046,-1.5708193,2.4522173,-0.034128945,0.032392167,-0.04611141,0.013023461,-0.005591858,-0.019215843,-0.038307227,0.3256114,-9.519346,0.7620334,47.683304,-0.58626443,-2.1862001,-3.2927365,-0.33701897,-0.11335429,-0.20614544,28.4375,29.625,28.875,32.875,35.25,36.3125
0.062052004,-0.2433252,-1.3213911,-0.24030378,-0.016406532,0.03545047,-0.18751593,-0.3818279,-0.34828043,0.059858438,-3.078067,0.625599,-0.00049331406,-0.028728053,0.0072777737,0.0026735503,0.005157439,0.0042050695,-0.014462986,0.4767182,-1.4246646,1.9564413,-2.1004813,-1.5708679,2.4521806,-0.035197865,0.033973493,-0.047675956,0.012351234,-0.0065989634,-0.020694166,-0.076614454,0.34476504,-9.3661175,0.74413085,47.677036,-0.6970495,-2.0063472,-3.326656,-0.33790508,-0.09889882,-0.18811414,28.4375,29.625,28.875,32.875,35.25,36.3125
0.06405225,-0.57792467,-0.7980383,-0.36946172,-0.018932842,0.036959417,-0.18563056,-0.3818936,-0.34829602,0.059891924,-3.07815,0.62565386,-0.00046418412,-0.03047842,0.0068454333,0.0026839485,0.0052637295,0.0051302733,-0.014007112,0.47664616,-1.4246275,1.9563197,-2.1004694,-1.5708078,2.4521322,-0.035698816,0.037203457,-0.051299747,0.011974238,-0.007125488,-0.021648,-0.11492168,0.30645782,-9.461885,0.78888994,47.688675,-0.7174092,-2.1409657,-3.2102356,-0.33469826,-0.10099828,-0.21717499,28.4375,29.625,28.875,32.875,35.25,36.3125
0.06605223,-1.2896196,-1.6232402,-0.30405858,0.0120963715,0.030656582,-0.17476745,-0.38195664,-0.34827968,0.059915304,-3.0781076,0.62570244,-0.0003763587,-0.03043011,0.0069914204,0.0022817513,0.005428025,0.0045341905,-0.013178244,0.47659793,-1.4245794,1.9562005,-2.1004217,-1.5708679,2.4521198,-0.035991415,0.037749752,-0.050934616,0.011665441,-0.006997912,-0.022769928,-0.19153613,0.21068975,-9.519346,0.7284641,47.62867,-0.7999373,-2.135323,-3.2111712,-0.3281033,-0.10961264,-0.22100094,28.4375,29.625,28.875,32.875,35.25,36.3125
0.068052076,-0.7392578,-1.0813856,-0.1970186,0.009986723,0.040348865,-0.18389836,-0.38201293,-0.3482657,0.059906453,-3.078101,0.6257008,-0.0004189331,-0.031249791,0.0073492406,0.0014135685,0.007091185,0.0036708952,-0.012485243,0.47651368,-1.4244825,1.9561046,-2.1003973,-1.5708565,2.4520354,-0.03667399,0.040793225,-0.052420955,0.011641581,-0.008084281,-0.024141906,-0.114921674,0.22984336,-9.423578,0.7597976,47.71823,-0.79103327,-2.1512349,-3.3532944,-0.32586882,-0.10775289,-0.20952448,28.4375,29.625,28.875,32.875,35.25,36.3125
0.07005192,-0.6868424,-0.73490304,-0.21428087,0.015961096,0.039910607,-0.18311161,-0.38210028,-0.34823972,0.05990628,-3.0780299,0.62580067,-0.00030547386,-0.032612454,0.007059659,0.0017236036,0.00706847,0.0051944386,-0.0112729035,0.47644162,-1.4243742,1.9559845,-2.1004102,-1.5709409,2.452035,-0.03696534,0.04245763,-0.05490909,0.011100399,-0.008769611,-0.02564282,-0.22984336,0.15322891,-9.385271,0.75755644,47.677036,-0.8066492,-2.2405431,-3.2766776,-0.30141073,-0.10287047,-0.22201556,28.4375,29.625,28.875,32.875,35.25,36.3125
0.07205198,-0.99320364,-0.48859403,-0.21020651,0.015072895,0.021990255,-0.17516524,-0.38214472,-0.34826207,0.059920922,-3.0781262,0.62576306,-0.0003177815,-0.034718707,0.0062186765,0.0041016433,0.004288135,0.0094292285,-0.011591917,0.47639322,-1.4243267,1.9558991,-2.1004212,-1.5708684,2.4519508,-0.037746478,0.04117709,-0.058948316,0.011381312,-0.008247783,-0.02610462,-0.22984336,0.13407528,-9.3661175,0.75084364,47.68062,-0.90820324,-2.1395812,-3.0752783,-0.31159437,-0.0806483,-0.24236706,28.4375,29.625,28.875,32.875,35.25,36.3125
0.074052155,-0.892534,-0.64055777,-0.17982656,0.021331104,0.021993015,-0.18119624,-0.38222063,-0.34825233,0.05994075,-3.0781078,0.62579644,-0.00028074314,-0.033412036,0.0066086873,0.0019199136,0.005864913,0.0045489953,-0.010502548,0.4763213,-1.424242,1.9557437,-2.1003616,-1.5708922,2.4519022,-0.037774295,0.04399117,-0.057315733,0.011990042,-0.007406235,-0.027224027,-0.38307226,0.05746084,-9.32781,0.82022345,47.68062,-0.96631885,-2.1112752,-3.119297,-0.30781892,-0.12259235,-0.23315072,28.4375,29.625,28.875,32.875,35.25,36.3125
0.07605179,-0.3473966,-0.33839175,-0.07138696,0.01056274,0.03702332,-0.18416803,-0.38224918,-0.34823972,0.059915267,-3.0780876,0.6258111,-0.00040506024,-0.034324635,0.0066233785,0.0018230292,0.0059327013,0.004492106,-0.009877733,0.47624904,-1.4241455,1.9556836,-2.1003258,-1.570856,2.4518416,-0.038612265,0.045677375,-0.05905384,0.012123813,-0.0074464893,-0.028685093,-0.34476504,0.05746084,-9.289503,0.7083204,47.679718,-0.9813354,-2.2188623,-3.291628,-0.2888183,-0.10657956,-0.25364837,28.4375,29.625,28.875,32.875,35.25,36.3125
0.07805267,-0.5848186,-0.9287119,-0.1433694,0.023892894,0.04016579,-0.17351373,-0.38234022,-0.34820873,0.05992387,-3.0780265,0.6258562,-0.00029343794,-0.035642695,0.006914487,0.0021269186,0.0070403675,0.0049553714,-0.009492438,0.47616476,-1.424049,1.955551,-2.100313,-1.5709404,2.4517934,-0.039558075,0.047339004,-0.06195092,0.013456144,-0.008646359,-0.030012548,-0.2681506,0.019153614,-9.251195,0.7665104,47.703903,-1.0597054,-2.1976078,-3.1076217,-0.30220568,-0.12022288,-0.24751729,28.4375,29.625,28.875,32.875,35.25,36.3125
0.08005165,-0.5312765,-0.23943998,0.008443629,0.020511756,0.04153025,-0.1863897,-0.38243923,-0.34819058,0.059948694,-3.0780203,0.6258736,-0.00023960922,-0.036501266,0.0064477664,0.002462896,0.0060776444,0.0059265406,-0.00840937,0.47605667,-1.4239529,1.9553713,-2.1002543,-1.5709642,2.451697,-0.039773025,0.048226934,-0.06361515,0.012924487,-0.008240304,-0.031310506,-0.2681506,0.095768064,-9.289502,0.7463667,47.682407,-1.1146157,-2.1511087,-3.1068058,-0.28302923,-0.13212961,-0.26242387,28.4375,29.625,28.875,32.875,35.25,36.3125
0.08205203,-0.58228207,-0.4718496,-0.019185318,0.028276503,0.04418081,-0.18184566,-0.3824798,-0.3481908,0.059932396,-3.078033,0.6258764,-0.0003044691,-0.037562102,0.0065466478,0.0025471977,0.0064422013,0.006364249,-0.008860763,0.47599646,-1.4238565,1.9552983,-2.1002538,-1.5709285,2.451637,-0.04057802,0.049716752,-0.065568805,0.013168764,-0.008769339,-0.031661704,-0.21068975,0.038307227,-9.289502,0.7463667,47.695843,-1.1575134,-2.194149,-3.0482383,-0.2797833,-0.122780114,-0.2640507,28.4375,29.625,28.875,32.875,35.25,36.3125
0.084052205,-0.88045955,-0.71160465,-0.10505223,0.031012543,0.03931905,-0.1735762,-0.38256443,-0.3481896,0.059948247,-3.0780234,0.6259506,-0.00026372742,-0.038574323,0.0069981604,0.0026277744,0.0075896764,0.0071368073,-0.009310523,0.47592428,-1.4237485,1.9551305,-2.1002176,-1.5709409,2.4516125,-0.041410744,0.050792847,-0.06703955,0.013406309,-0.010145127,-0.032041334,-0.21068975,0.11492168,-9.212888,0.78888994,47.677036,-1.2383533,-2.1215727,-3.0529528,-0.26508132,-0.13839264,-0.2789384,28.4375,29.625,28.875,32.875,35.25,36.3125
0.086052485,-0.56771314,-0.42089295,-0.18221746,0.018598216,0.03927,-0.17840461,-0.38267273,-0.34816,0.059961088,-3.0779965,0.626004,-0.00017308879,-0.039772663,0.007884691,0.0025384196,0.009078087,0.0070053805,-0.011011405,0.4758035,-1.42364,1.9549745,-2.1002052,-1.5709895,2.4515285,-0.043257266,0.05227714,-0.0687727,0.014455553,-0.011407926,-0.032184016,-0.22984336,0.095768064,-9.193734,0.81351066,47.67166,-1.1569473,-2.1633635,-3.0879788,-0.2633716,-0.11137546,-0.29056278,28.4375,29.625,28.875,32.875,35.25,36.3125
0.08805233,-0.7021464,-0.5452686,-0.016104037,0.013324628,0.037503403,-0.17753671,-0.3827559,-0.34815985,0.059980687,-3.0780272,0.6260482,-0.00012655348,-0.040868964,0.008358623,0.0025695025,0.009732929,0.007413254,-0.011149889,0.47571915,-1.423556,1.954831,-2.1001933,-1.570978,2.451468,-0.04459826,0.053467136,-0.070259705,0.014691658,-0.012178302,-0.033384744,-0.28730422,0.1340753,-9.289502,0.7530795,47.711063,-1.1361246,-2.1738818,-3.0629833,-0.27260104,-0.10267846,-0.31055775,28.4375,29.625,28.875,32.875,35.25,36.3125
0.09005251,-0.8485922,-0.76751184,-0.1749,0.008306014,0.033624563,-0.17825483,-0.38281885,-0.34813464,0.059977334,-3.0779617,0.62603325,-0.00013879596,-0.041224062,0.007955881,0.0026491666,0.010106421,0.007194922,-0.008599101,0.4756473,-1.4234475,1.9546984,-2.1001208,-1.5710257,2.4513953,-0.044050023,0.054834235,-0.07222678,0.015654318,-0.012414737,-0.035385255,-0.28730422,0.11492168,-9.385271,0.7284641,47.65912,-1.2822412,-2.1347423,-3.0272665,-0.26285252,-0.08355312,-0.29855832,28.4375,29.625,28.875,32.875,35.25,36.3125
0.092052534,-0.4011314,-0.3153658,-0.066592865,-0.009487127,0.046492085,-0.18428457,-0.3828927,-0.34813198,0.059977714,-3.0779574,0.6260529,-0.00014023916,-0.04224256,0.008486078,0.0030825385,0.009926008,0.007679435,-0.009416725,0.47557455,-1.4233279,1.9545554,-2.1000965,-1.5710257,2.4513354,-0.045877967,0.05489287,-0.07343429,0.016288769,-0.012477681,-0.03639497,-0.17238252,0.22984336,-9.3661175,0.7553206,47.71017,-1.3909966,-2.1250374,-3.0734606,-0.27110147,-0.090942904,-0.30716896,28.4375,29.625,28.875,32.875,35.25,36.3125
0.09405258,-0.5303168,-0.5358254,-0.16118766,-0.011223578,0.045306142,-0.18940605,-0.38298786,-0.34810895,0.05999073,-3.0779293,0.62614423,-0.00012916348,-0.043167837,0.009096017,0.0012884572,0.011154127,0.0040865173,-0.012701592,0.4754538,-1.4232179,1.9543866,-2.1000373,-1.5710377,2.4512753,-0.048158806,0.059909075,-0.07518001,0.016771363,-0.01192688,-0.035390433,-0.17238252,0.17238252,-9.3661175,0.7642693,47.65912,-1.2418101,-2.2839022,-3.042996,-0.25985363,-0.111682475,-0.3320328,28.4375,29.625,28.875,32.875,35.25,36.3125
0.09605181,-0.51391625,-0.8349708,-0.35865554,-0.008171481,0.04366744,-0.17510903,-0.3830612,-0.3480816,0.059983056,-3.0778854,0.6261367,-9.739652e-05,-0.044668563,0.00989561,0.0027724076,0.009171954,0.0062052677,-0.015750917,0.47536862,-1.4231107,1.9542788,-2.1000245,-1.5710853,2.4511912,-0.051459495,0.057530787,-0.07593688,0.017109834,-0.011135681,-0.035643265,-0.21068975,0.17238252,-9.404425,0.8157518,47.66808,-1.1989257,-2.1540964,-3.0516384,-0.26902354,-0.10168753,-0.34748498,28.4375,29.625,28.875,32.875,35.25,36.3125
0.09805221,-0.4934633,-0.7232476,-0.25287333,-0.009343211,0.041658968,-0.17947622,-0.3831294,-0.3480917,0.059979096,-3.0778883,0.6261352,-0.00015169347,-0.045499157,0.01023334,0.0024211444,0.010332243,0.0060134814,-0.01371227,0.4753086,-1.4229658,1.9541115,-2.0999768,-1.571062,2.45113,-0.052198794,0.059449848,-0.07738792,0.017345669,-0.012084368,-0.038418103,-0.28730422,0.13407528,-9.481039,0.77545905,47.703007,-1.1660628,-2.1109881,-3.0984023,-0.24677745,-0.10045184,-0.35518563,28.4375,29.625,28.875,32.875,35.25,36.3125
0.10005195,-0.4566109,-0.9317921,-0.2922364,0.011522116,0.06300939,-0.18011689,-0.38323006,-0.34803864,0.05998438,-3.0778377,0.626162,-0.0001189059,-0.046087135,0.009734132,0.0024113625,0.010602737,0.0062692254,-0.011814296,0.47515273,-1.4228691,1.953978,-2.0999286,-1.5711097,2.4509974,-0.051603563,0.061227996,-0.07943975,0.017512657,-0.01244692,-0.039718732,-0.21068975,0.17238252,-9.5385,0.72622824,47.658226,-1.3309389,-2.115762,-3.0987945,-0.23742765,-0.10352765,-0.35291243,28.4375,29.625,28.875,32.875,35.25,36.3125
0.10205186,-0.7602038,-0.5222195,-0.16296026,0.011186508,0.054061327,-0.17857601,-0.3833442,-0.3480502,0.06001164,-3.0778568,0.62618417,1.5918615e-05,-0.0470192,0.01113149,0.00066210417,0.012382469,0.0036190555,-0.011550394,0.4750918,-1.4227358,1.9537634,-2.0999286,-1.5711459,2.450948,-0.054687858,0.06483066,-0.07947612,0.017114477,-0.012816438,-0.04306659,-0.24899697,0.19153613,-9.461885,0.75084364,47.682407,-1.2614208,-2.2721698,-3.1709414,-0.22558253,-0.090389416,-0.3192944,28.4375,29.625,28.875,32.875,35.25,36.3125
0.10405201,-0.8209011,-0.119210534,-0.16914919,-0.0036719283,0.052301586,-0.17876324,-0.38344252,-0.34801513,0.06001174,-3.0778224,0.62627476,1.4659517e-05,-0.049024776,0.0112222405,0.0024879347,0.010407932,0.006651706,-0.013104307,0.4749469,-1.4226162,1.9536184,-2.0998929,-1.5711578,2.450864,-0.05690872,0.063556306,-0.08231393,0.017622687,-0.012453279,-0.043733,-0.21068975,0.19153613,-9.423578,0.82022345,47.65464,-1.1144605,-2.054572,-2.9943297,-0.21236876,-0.12429382,-0.33195132,28.4375,29.625,28.875,32.875,35.25,36.3125
0.1060517,-0.33067524,-0.20997788,-0.2026698,0.0012084529,0.04428449,-0.18085167,-0.3835421,-0.3479946,0.06002039,-3.077808,0.6263306,3.7596066e-05,-0.04824828,0.011875246,0.00046626205,0.012151042,0.0025182932,-0.013942762,0.47482663,-1.422495,1.953452,-2.099857,-1.5711697,2.4507806,-0.057562884,0.06640507,-0.08103656,0.01796648,-0.012109649,-0.043549746,-0.21068975,0.19153613,-9.346964,0.83813137,47.657326,-1.2047029,-2.175793,-3.2694335,-0.21403846,-0.10932216,-0.34277892,28.4375,29.625,28.875,32.875,35.25,36.3125
0.1080526,-0.88962716,-0.75531083,-0.13771828,0.009375182,0.028102059,-0.1784124,-0.38363412,-0.34795687,0.06000216,-3.0777318,0.62637043,2.725219e-05,-0.050484005,0.011649542,0.0015582923,0.011442219,0.005274435,-0.0121554835,0.47470635,-1.4223384,1.9533066,-2.0998213,-1.5712179,2.450695,-0.058784474,0.067607805,-0.084885105,0.017833887,-0.012751419,-0.046554692,-0.28730422,0.019153614,-9.308656,0.7911258,47.698532,-1.2614568,-2.1618133,-3.178514,-0.20231456,-0.10961877,-0.31650263,28.4375,29.625,28.875,32.875,35.25,36.3125
0.11005247,-0.6994825,-0.9003884,-0.265083,0.019457486,0.038834073,-0.1805935,-0.383724,-0.34795564,0.06000137,-3.0777302,0.62640786,3.779904e-05,-0.050530534,0.012515972,0.00042264862,0.01246938,0.002786824,-0.0111916065,0.47462162,-1.4221938,1.9531401,-2.0998085,-1.5712179,2.450634,-0.06049632,0.06934963,-0.08439219,0.018277705,-0.012526977,-0.049231037,-0.3256114,0.038307227,-9.404425,0.7642693,47.674347,-1.2255219,-2.2366042,-3.1488273,-0.19438764,-0.10557333,-0.30297822,28.4375,29.625,28.875,32.875,35.25,36.3125
0.11205241,-0.3908478,-0.23682709,-0.28089473,0.019706406,0.042728286,-0.18386027,-0.38385344,-0.34791705,0.06002148,-3.077727,0.62634796,0.00012837324,-0.05123925,0.012746677,0.0002191546,0.012892102,0.0022543266,-0.009983253,0.47446555,-1.422073,1.952948,-2.0997727,-1.571266,2.4504411,-0.06144821,0.07087598,-0.08580385,0.018824602,-0.012661165,-0.05139065,-0.2873042,0.0,-9.404425,0.73069996,47.68062,-1.2262312,-2.219832,-3.2845082,-0.16334389,-0.10520025,-0.2661389,28.4375,29.625,28.875,32.875,35.25,36.3125
0.11405265,-0.8867191,-0.32808998,-0.11599797,0.017558396,0.04514184,-0.17466569,-0.38394442,-0.34789613,0.06001411,-3.0776978,0.6264183,9.879614e-05,-0.05225014,0.012951077,0.00076526555,0.011873525,0.0028167393,-0.009240146,0.47434488,-1.421929,1.952792,-2.099737,-1.571266,2.4503682,-0.06313838,0.07088351,-0.08715477,0.019196982,-0.012016764,-0.053824287,-0.19153613,0.038307227,-9.346964,0.86498255,47.674347,-1.2719921,-2.184877,-3.27338,-0.15702352,-0.10634594,-0.26702434,28.4375,29.625,28.875,32.875,35.25,36.3125
0.11605222,-0.5165899,-0.032431517,-0.2634535,0.013792105,0.057785906,-0.17782526,-0.3840525,-0.3478867,0.06001522,-3.077692,0.6263978,0.00010755959,-0.052759785,0.013338911,0.00034772992,0.012136992,0.0015050083,-0.008499282,0.47423643,-1.4217604,1.9525884,-2.0997002,-1.5712775,2.4502478,-0.06451087,0.07237262,-0.088078275,0.019914046,-0.011653831,-0.055937782,-0.22984336,0.038307227,-9.289503,0.83813137,47.65912,-1.226337,-2.1530893,-3.3426723,-0.15261593,-0.10415481,-0.2264317,28.4375,29.625,28.875,32.875,35.25,36.3125
0.11805223,-0.91143066,0.16084711,-0.09568004,0.016823048,0.04547777,-0.18578675,-0.38416517,-0.34784153,0.06002378,-3.0776389,0.6264233,0.00016683139,-0.053207174,0.013864821,0.00017680494,0.013085354,0.0011478715,-0.00700954,0.4740922,-1.4216398,1.9524201,-2.0996525,-1.571338,2.4501264,-0.065392874,0.073123,-0.08869163,0.020523453,-0.012336134,-0.058307935,-0.28730422,0.0,-9.3661175,0.8090337,47.719128,-1.2087151,-2.1412842,-3.4020677,-0.15245852,-0.134049,-0.19369964,28.4375,29.625,28.875,32.875,35.25,36.3125
0.120052025,-0.73184586,-0.21575847,-0.31151226,0.019645628,0.046378825,-0.18138131,-0.38428333,-0.34780276,0.060031295,-3.0776143,0.62649655,0.00017729166,-0.054926742,0.014883406,0.00034951832,0.012470491,0.0012551955,-0.0086268885,0.47392285,-1.4215076,1.9522408,-2.0996048,-1.57135,2.450006,-0.06907163,0.07394159,-0.09007267,0.020703731,-0.01184238,-0.06036952,-0.28730422,0.0,-9.32781,0.8157518,47.698532,-1.1046675,-2.0599046,-3.4619863,-0.13970722,-0.11555329,-0.17874017,28.4375,29.625,28.875,32.875,35.25,36.3125
0.12205201,-0.7290023,-0.30909643,-0.22683895,0.021626532,0.043585785,-0.17417169,-0.38440585,-0.34779185,0.060040798,-3.0776212,0.626573,0.00021925013,-0.054895163,0.014783156,-6.6029235e-05,0.013306048,0.0005988206,-0.0063633677,0.47379124,-1.421351,1.9520372,-2.0995924,-1.57135,2.4499214,-0.068555616,0.07523127,-0.09067154,0.020977039,-0.0122863185,-0.062116176,-0.30645782,0.076614454,-9.404425,0.78217715,47.698532,-1.1052517,-2.0264368,-3.3358464,-0.11851259,-0.11883502,-0.12440008,28.4375,29.625,28.875,32.875,35.25,36.3125
0.124052145,-0.9846863,-0.4444187,-0.26217034,0.015652271,0.03715272,-0.17622434,-0.38451117,-0.34776467,0.060053017,-3.0776243,0.62655467,0.00021736519,-0.05510553,0.015189198,-0.00024850553,0.013782821,-0.00034394994,-0.0068945107,0.4736466,-1.4212306,1.9518579,-2.0995324,-1.57135,2.449765,-0.069451824,0.07582955,-0.09116296,0.021924604,-0.012280477,-0.062481098,-0.30645782,0.095768064,-9.404425,0.83365434,47.677036,-1.257118,-2.045284,-3.595923,-0.09331447,-0.11728977,-0.091374606,28.4375,29.625,28.875,32.875,35.25,36.3125
0.12605242,-0.88123,-0.350629,-0.18914361,0.007924467,0.05038507,-0.17841372,-0.38462827,-0.3477349,0.06003661,-3.0775633,0.6265068,0.00023139817,-0.058233455,0.01579334,0.0009991409,0.01273216,0.001121346,-0.012304491,0.47352543,-1.4210259,1.9516529,-2.0994956,-1.5714101,2.449622,-0.073530525,0.077485114,-0.09630851,0.023626322,-0.012023265,-0.061147414,-0.40222588,0.076614454,-9.385271,0.7933669,47.674347,-1.1774728,-2.009915,-3.3493285,-0.09585674,-0.10154498,-0.08400977,28.4375,29.625,28.875,32.875,35.25,36.3125
0.12805235,-0.83570755,-0.42008036,-0.11953456,0.018297497,0.043581385,-0.18005899,-0.38474458,-0.3476919,0.060053065,-3.0775065,0.6265516,0.00028879373,-0.057853274,0.016070718,0.00036927915,0.013617394,-0.000722238,-0.011536973,0.47338134,-1.4209055,1.9514612,-2.0994236,-1.5714697,2.4495132,-0.07368826,0.0784296,-0.09617738,0.024588805,-0.0119693065,-0.062072884,-0.38307226,0.05746084,-9.423578,0.77545905,47.66271,-1.0502644,-1.9574802,-3.5070088,-0.098869406,-0.11566144,-0.061841235,28.4375,29.625,28.875,32.875,35.25,36.3125
0.13005175,-0.701856,-0.5028813,-0.26946583,0.021288252,0.04689896,-0.18083037,-0.38484386,-0.347657,0.060037952,-3.0774834,0.6266063,0.00020381765,-0.059354898,0.016016234,0.00061970414,0.01312922,-0.00079991727,-0.014462966,0.47321287,-1.4207484,1.9513048,-2.099375,-1.5714453,2.4493818,-0.07524158,0.08054928,-0.099404216,0.025541626,-0.011507673,-0.060698804,-0.4213795,0.1340753,-9.32781,0.8493211,47.675243,-1.1911062,-2.148946,-3.3497446,-0.08973223,-0.12207216,-0.07424484,28.4375,29.625,28.875,32.875,35.25,36.3125
0.1320526,-0.6681014,-0.408489,-0.42457706,0.014890261,0.05236697,-0.18263842,-0.38497615,-0.34764132,0.060054306,-3.0774722,0.6266449,0.00025749093,-0.06107244,0.016870026,0.0020792747,0.012467616,0.0018337762,-0.019776411,0.47307986,-1.4205809,1.951065,-2.0993273,-1.5714697,2.4492745,-0.07790146,0.07886053,-0.10095105,0.026132882,-0.012118826,-0.05804397,-0.40222588,0.19153613,-9.308656,0.7978386,47.703007,-1.0030832,-1.8658814,-3.4295988,-0.08920322,-0.13622434,-0.08022022,28.4375,29.625,28.875,32.875,35.25,36.3125
0.1340526,-0.5194391,-0.15204468,-0.62111616,-0.0018840643,0.056469955,-0.18191963,-0.3850794,-0.34758213,0.06003685,-3.077365,0.626759,0.00021473851,-0.061566316,0.017239453,0.0007162477,0.013331406,-0.0012260539,-0.022662584,0.4729114,-1.4204237,1.9509085,-2.0992553,-1.5715173,2.449191,-0.079388164,0.08259006,-0.10228104,0.026845025,-0.011499475,-0.056643788,-0.3256114,0.114921674,-9.423578,0.8403672,47.689575,-0.9786817,-1.8588367,-3.360579,-0.08340266,-0.12401738,-0.080605924,28.4375,29.625,28.875,32.875,35.25,36.3125
0.13605168,-1.0564672,-0.74929625,-0.41140768,-0.0028282208,0.046339605,-0.17425339,-0.38518602,-0.3475558,0.060030673,-3.0773427,0.62675416,0.00016939086,-0.062591635,0.0174455,0.0017218002,0.012740908,0.00011934054,-0.023221785,0.47276723,-1.4202555,1.9507164,-2.0991948,-1.5715173,2.4490469,-0.08060569,0.08188905,-0.10400564,0.027802056,-0.011591381,-0.057300977,-0.3256114,0.17238252,-9.461885,0.7777002,47.703007,-0.9388683,-1.8765647,-3.384956,-0.08458619,-0.13714218,-0.10339691,28.4375,29.625,28.875,32.875,35.25,36.3125
0.13805263,-0.76367587,-1.3862735,-0.56421465,-0.0031469006,0.067443095,-0.17756818,-0.38533568,-0.3475176,0.06005456,-3.0773017,0.6268832,0.0002319296,-0.06400883,0.017888263,0.001956888,0.013030717,0.00045141557,-0.02893485,0.47258663,-1.4200988,1.950466,-2.0991232,-1.5715541,2.4489522,-0.08238711,0.0833042,-0.10634766,0.028566223,-0.012001421,-0.05336754,-0.4213795,0.076614454,-9.500193,0.77545905,47.694054,-0.9857777,-1.7491626,-3.3828526,-0.0906699,-0.12600842,-0.12510726,28.4375,29.625,28.875,32.875,35.25,36.3125
0.14005262,-0.72565883,-0.32315928,-0.5343115,-0.023756048,0.06893865,-0.19196913,-0.385475,-0.34748954,0.06004228,-3.0772824,0.6269968,0.00017681194,-0.06493482,0.018315867,0.0011613198,0.01377123,-0.0011458199,-0.03222197,0.47239396,-1.4198817,1.9502372,-2.0990865,-1.5715297,2.448833,-0.08399939,0.086261794,-0.10805003,0.029070608,-0.011937989,-0.05169135,-0.40222588,0.17238252,-9.557653,0.800085,47.682407,-0.9363104,-1.756916,-3.3428783,-0.07268943,-0.13229503,-0.15216978,28.4375,29.625,28.875,32.875,35.25,36.3125
0.14205241,-1.2480617,-0.93810916,-0.52727824,-0.00411596,0.055789307,-0.17177686,-0.3855935,-0.3474513,0.060052004,-3.0772307,0.62702566,0.00020886675,-0.06620478,0.019023681,0.0011182553,0.0143016605,-0.0014559018,-0.03447969,0.47224924,-1.4197371,1.9500331,-2.099015,-1.5715779,2.448713,-0.08616992,0.087761454,-0.109869815,0.029905291,-0.012272932,-0.051602375,-0.40222588,0.17238252,-9.5385,0.7642693,47.66808,-0.8642775,-1.8328127,-3.3455944,-0.066547304,-0.16138765,-0.18309592,28.4375,29.625,28.875,32.875,35.25,36.3125
0.14405248,-0.76681393,-0.4469578,-0.40205374,-0.01015815,0.06768904,-0.18807732,-0.38573387,-0.34741294,0.060059115,-3.0771706,0.6271868,0.00021522446,-0.0676618,0.019140836,0.0015213779,0.013600232,-0.0012507363,-0.036693204,0.47206867,-1.4195563,1.9497932,-2.0989425,-1.5716017,2.4486408,-0.08801262,0.08914613,-0.11257723,0.0307214,-0.011747342,-0.051231124,-0.38307226,0.095768064,-9.634268,0.80456203,47.61882,-0.83092254,-1.8046317,-3.315124,-0.08213048,-0.1487167,-0.19838932,28.4375,29.625,28.875,32.875,35.25,36.3125
0.1460522,-0.55498904,-0.1506341,-0.40672916,-0.0062380843,0.055899806,-0.18623793,-0.38588664,-0.34737647,0.06007784,-3.0771458,0.6273169,0.00030848864,-0.068692476,0.019692391,0.0010555263,0.014624912,-0.0011947864,-0.03795111,0.47188827,-1.4193996,1.9495658,-2.0989192,-1.571638,2.448545,-0.089286655,0.0910843,-0.11364162,0.030263064,-0.012687721,-0.051245,-0.4213795,0.05746084,-9.557653,0.86498255,47.690468,-0.85344243,-1.8161502,-3.3520045,-0.050774552,-0.15140823,-0.22623703,28.4375,29.625,28.875,32.875,35.25,36.3125
0.1480521,-0.6618879,-0.4502409,-0.40572813,0.010941333,0.059026934,-0.17686224,-0.38603675,-0.34735405,0.060089547,-3.0771265,0.62737036,0.00032113752,-0.07180483,0.019430231,0.002453625,0.012635156,0.002859069,-0.039524842,0.4717195,-1.419195,1.9492882,-2.0988476,-1.5716499,2.4484122,-0.091564216,0.092330545,-0.117948554,0.028805317,-0.012771705,-0.05194613,-0.40222588,0.019153614,-9.557653,0.8314132,47.71017,-0.83658946,-1.8174253,-3.041689,-0.024916366,-0.14072642,-0.25849986,28.4375,29.625,28.875,32.875,35.25,36.3125
0.15005204,-0.5874105,-0.19159302,-0.40204108,0.00972362,0.06495449,-0.18845925,-0.38618082,-0.34729323,0.06009014,-3.0770483,0.62760407,0.0003513018,-0.071453355,0.019210953,0.00026058676,0.014944749,-0.0013279993,-0.038251095,0.4715037,-1.4190369,1.9490975,-2.0988114,-1.5716857,2.4483523,-0.09072112,0.097714745,-0.11929095,0.029538358,-0.0129297385,-0.05237507,-0.36391866,0.019153614,-9.672575,0.80679786,47.661808,-0.72381043,-2.0005937,-3.258529,-0.013532792,-0.13587654,-0.2532711,28.4375,29.625,28.875,32.875,35.25,36.3125
0.1520521,-0.86267734,-0.19095218,-0.296906,0.004506409,0.064574786,-0.18205462,-0.38629588,-0.34726435,0.060075313,-3.077012,0.62759596,0.00027689984,-0.07198402,0.019079898,0.001526878,0.01452458,-2.768133e-05,-0.03780699,0.4713478,-1.4188333,1.9488815,-2.098739,-1.5716857,2.4481962,-0.090798564,0.09645774,-0.12116481,0.031318188,-0.013150508,-0.05289503,-0.40222588,0.15322891,-9.576807,0.7642693,47.67614,-0.92078924,-1.8665037,-3.1093302,-0.011090998,-0.16423665,-0.2814017,28.4375,29.625,28.875,32.875,35.25,36.3125
0.15405217,-1.1920135,-0.3212868,-0.26569068,-0.0029391658,0.06730793,-0.17575002,-0.38646075,-0.34720838,0.0600915,-3.0769327,0.62779254,0.000322374,-0.0738182,0.020508785,6.575047e-05,0.01569231,-0.0024070537,-0.041285895,0.47113016,-1.4186517,1.9486173,-2.098655,-1.5717343,2.4481115,-0.09497993,0.10081617,-0.122828946,0.031267796,-0.013116697,-0.05359606,-0.45968673,0.17238252,-9.461885,0.83813137,47.64479,-0.6285969,-1.9869757,-3.1304488,-0.0058888053,-0.16130531,-0.31406748,28.4375,29.625,28.875,32.875,35.25,36.3125
0.15605207,-0.60783714,-0.14681756,-0.12557015,-0.004088012,0.07734511,-0.18630937,-0.38661918,-0.3471689,0.060098775,-3.0768719,0.6279507,0.00035734713,-0.073493525,0.018978208,0.0011914128,0.015307742,-0.0011642996,-0.037928876,0.47093958,-1.4184477,1.9483532,-2.098595,-1.5717705,2.4480276,-0.09178886,0.10046398,-0.12538238,0.032887712,-0.013341498,-0.05376069,-0.4405331,0.2681506,-9.519346,0.8493211,47.688675,-0.9573134,-1.9483026,-3.086986,-0.013995608,-0.16459648,-0.3191252,28.4375,29.625,28.875,32.875,35.25,36.3125
0.15805191,-0.5885234,-0.6296288,-0.17663848,-0.0045219427,0.0751359,-0.18132019,-0.3867662,-0.34712029,0.06009934,-3.0768187,0.62803644,0.0003475837,-0.07426463,0.019111428,0.001300685,0.015691146,-0.0016997341,-0.038444817,0.47073534,-1.4182549,1.9481143,-2.0985224,-1.5717944,2.4478838,-0.0926207,0.101843454,-0.12755993,0.034332942,-0.013444984,-0.05407504,-0.38307226,0.22984336,-9.461885,0.8560339,47.716442,-0.94694716,-1.9699805,-3.1406124,-0.010325486,-0.18364936,-0.3455637,28.4375,29.625,28.875,32.875,35.25,36.3125
0.16005182,-0.7247832,-0.6654205,-0.09530403,-0.013573144,0.061083045,-0.18027975,-0.38690627,-0.3470958,0.060098615,-3.0767608,0.6281198,0.0004172537,-0.0734405,0.01986796,-0.00058549293,0.01818476,-0.0051400783,-0.038531754,0.4706032,-1.4180498,1.9478754,-2.098498,-1.571854,2.4478114,-0.09275674,0.10431093,-0.1261802,0.03468017,-0.014104475,-0.054123264,-0.19153613,0.24899697,-9.481039,0.8023209,47.685097,-1.0322521,-1.9360082,-3.2277002,-0.017954066,-0.15555544,-0.38607693,28.4375,29.625,28.875,32.875,35.25,36.3125
0.16205183,-0.26363325,-0.73613393,0.15328164,-0.019270927,0.055696312,-0.18844815,-0.38708466,-0.3470583,0.060131278,-3.0767496,0.6282901,0.0004614665,-0.07614937,0.018771097,0.0015840646,0.015368417,-8.117693e-05,-0.03839449,0.47037497,-1.4178696,1.947575,-2.0984147,-1.571854,2.447691,-0.0933539,0.104375534,-0.13098796,0.033632595,-0.013900974,-0.05485611,-0.15322891,0.22984336,-9.32781,0.7016076,47.66808,-1.0139477,-1.9262512,-3.0714903,0.0009183432,-0.17323345,-0.4026392,28.4375,29.625,28.875,32.875,35.25,36.3125
0.16405207,0.37250677,-0.4768991,0.21399799,-0.02979356,0.052661505,-0.19096583,-0.3872745,-0.34702912,0.0601535,-3.0767226,0.6283809,0.00056621595,-0.07571447,0.02030133,5.9485927e-05,0.018144581,-0.003431248,-0.0388529,0.47018257,-1.417641,1.9472512,-2.0983665,-1.5719026,2.4475589,-0.09501087,0.10596021,-0.12964371,0.034944616,-0.014851661,-0.056054085,-0.1340753,0.24899697,-9.32781,0.83365434,47.695843,-1.0960047,-1.9393702,-3.2315273,0.011371262,-0.16807276,-0.44320738,28.4375,29.625,28.875,32.875,35.25,36.3125
0.16605222,0.44694087,-0.6543957,0.18692757,-0.009287702,0.019100977,-0.17910187,-0.38742122,-0.34700918,0.0601544,-3.076702,0.628472,0.0005612634,-0.076035514,0.020853378,-0.00086435216,0.019839305,-0.006405611,-0.038230643,0.47001424,-1.4174235,1.9469885,-2.0983179,-1.5719026,2.4474502,-0.09613613,0.10888668,-0.1314316,0.037221327,-0.015017217,-0.05780034,-0.095768064,0.2681506,-9.212888,0.800085,47.677036,-0.99044544,-2.0036223,-3.2408485,0.005277638,-0.1500724,-0.45556533,28.4375,29.625,28.875,32.875,35.25,36.3125
0.16805217,0.4724689,-0.74996,0.09387874,0.0065260082,-0.0055666715,-0.17853008,-0.38758472,-0.34694195,0.06015058,-3.0766113,0.6286057,0.0005886685,-0.07573268,0.021189649,-0.0012839694,0.020603245,-0.007680906,-0.03588935,0.4697859,-1.4172192,1.9467491,-2.0982578,-1.5719627,2.4473171,-0.09634579,0.109318666,-0.1311653,0.03799615,-0.0151250195,-0.060350947,0.05746084,0.15322891,-9.155427,0.81351066,47.695843,-1.0761505,-1.9888511,-3.2788289,0.020151531,-0.16085574,-0.4481331,28.4375,29.625,28.875,32.875,35.25,36.3125
0.17005214,1.008448,-0.54340667,0.2984449,0.015529709,-0.0043196273,-0.1899108,-0.38773626,-0.34692177,0.06016052,-3.076585,0.62863743,0.0006106693,-0.0779075,0.022370527,-0.0011231179,0.0203646,-0.007871106,-0.03487527,0.4696286,-1.4170023,1.9464611,-2.0981858,-1.571987,2.4471831,-0.1005522,0.110992365,-0.13367806,0.03888484,-0.014835188,-0.06557075,0.17238252,0.1340753,-9.059659,0.8023209,47.65912,-0.9391709,-1.931308,-3.243563,0.013631144,-0.15608743,-0.4416343,28.4375,29.625,28.875,32.875,35.25,36.3125
0.1720521,1.0884179,-0.20319928,0.27429962,0.025252443,-0.012942184,-0.18453652,-0.3879084,-0.346866,0.060159754,-3.0765395,0.6287984,0.0006448694,-0.076616384,0.021824488,-0.0030291656,0.022791909,-0.012838241,-0.031443037,0.4693896,-1.4167968,1.9462212,-2.098161,-1.5720109,2.4470506,-0.09842725,0.11530409,-0.13483654,0.041252345,-0.01475418,-0.06687757,0.095768064,0.1340753,-8.963891,0.7709874,47.661808,-1.1015146,-2.0195854,-3.326558,-0.0148848165,-0.1655515,-0.4215422,28.4375,29.625,28.875,32.875,35.25,36.3125
0.1740521,0.59120387,0.021693572,0.5457619,0.029264396,-0.030350506,-0.184351,-0.388063,-0.34682727,0.060150355,-3.0764723,0.6288228,0.00067335437,-0.07877577,0.02326094,-0.00064180855,0.020580092,-0.010362192,-0.031455882,0.4692196,-1.416558,1.9459575,-2.0981123,-1.5720705,2.4469047,-0.103423566,0.11172357,-0.1367068,0.043477777,-0.013908242,-0.07186257,0.15322891,0.076614454,-8.925584,0.9030289,47.67614,-1.0374984,-1.8585751,-3.312458,-0.026943915,-0.17431518,-0.4008227,28.4375,29.625,28.875,32.875,35.25,36.3125
0.17605229,1.1682245,0.26434183,0.5456318,0.026357874,-0.0065556713,-0.19096382,-0.38821557,-0.3467795,0.060151,-3.0763996,0.62889725,0.00059084373,-0.07708137,0.022347368,-0.0029492783,0.023551423,-0.016162947,-0.020536039,0.46900484,-1.4163276,1.9456586,-2.0979679,-1.5720824,2.4467459,-0.10021258,0.11700857,-0.13813218,0.046120692,-0.013948459,-0.079569295,0.21068975,0.15322891,-8.848969,0.81351066,47.637623,-1.1094484,-2.029595,-3.2711616,-0.037402146,-0.2039423,-0.33127582,28.4375,29.625,28.875,32.875,35.25,36.3125
0.17805253,0.6557975,0.22507897,0.4452991,0.03396813,-0.014009457,-0.1802866,-0.3883851,-0.34672603,0.06016503,-3.0763402,0.6289622,0.00062168087,-0.07791925,0.023380663,-0.0018635887,0.023601882,-0.015832333,-0.021810157,0.46878815,-1.4161242,1.945371,-2.097871,-1.5721306,2.4465775,-0.10262355,0.115390204,-0.13935407,0.04868103,-0.014146788,-0.08070572,0.24899697,0.1340753,-8.90643,0.83589023,47.709274,-1.1598015,-1.8525794,-3.2721105,-0.073793106,-0.2069332,-0.29301864,28.4375,29.625,28.875,32.875,35.25,36.3125
0.18005261,0.18808691,0.61964667,0.41089278,0.019991005,-0.012027736,-0.18440092,-0.3885059,-0.34669912,0.060147822,-3.0762854,0.62892926,0.0005025863,-0.07905294,0.023389312,-0.0016638297,0.024543663,-0.016760765,-0.017681625,0.46863174,-1.4158832,1.9451059,-2.0977504,-1.572131,2.4464078,-0.1033469,0.11785611,-0.14328288,0.051389724,-0.0145854335,-0.08555349,0.21068975,0.05746084,-9.021352,0.83365434,47.674347,-1.0615728,-1.8803082,-3.2048097,-0.10503355,-0.18873024,-0.23445705,28.4375,29.625,28.875,32.875,35.25,36.3125
0.18205264,0.37814805,0.084969774,0.33516273,0.01720934,0.0036503123,-0.18323785,-0.38865465,-0.34665537,0.060141716,-3.0762506,0.62894005,0.00046655134,-0.079180464,0.023907123,-0.0018002279,0.025172655,-0.018375082,-0.01619922,0.46842748,-1.4156667,1.9448546,-2.097678,-1.5721425,2.446215,-0.104439564,0.11846429,-0.1441399,0.053354595,-0.014425821,-0.08812827,0.076614454,0.1340753,-9.002198,0.8605109,47.67614,-1.1259334,-1.9210134,-3.3977547,-0.14939637,-0.21518213,-0.18553917,28.4375,29.625,28.875,32.875,35.25,36.3125
0.18405275,0.7391041,-0.116359405,0.20579514,0.012715415,0.019326264,-0.18990465,-0.38882425,-0.3465928,0.06014225,-3.0761554,0.6290349,0.00040899392,-0.07984995,0.024630219,-0.0022874242,0.02624988,-0.020538056,-0.016369771,0.4681869,-1.4154258,1.9445437,-2.0975335,-1.5721782,2.4460459,-0.10627665,0.120564505,-0.14594607,0.05546776,-0.0144248055,-0.08979297,-0.019153614,0.076614454,-9.021352,0.8179876,47.68599,-1.0719793,-1.8578677,-3.2847018,-0.2028324,-0.22258756,-0.14643602,28.4375,29.625,28.875,32.875,35.25,36.3125
0.18605217,-0.03609301,-0.4365989,0.12502797,0.010546764,0.011818215,-0.1857136,-0.38896826,-0.34653574,0.060129035,-3.0760474,0.629032,0.00034844514,-0.080580935,0.024292506,-0.0020824294,0.02598914,-0.021198831,-0.016781887,0.46799475,-1.415185,1.9442672,-2.0974014,-1.5722383,2.445866,-0.106630035,0.12224553,-0.14872684,0.05702974,-0.013910798,-0.08973285,-0.15322891,0.11492168,-9.212888,0.8314132,47.672558,-1.1585507,-1.8831148,-3.257865,-0.2391434,-0.22254793,-0.122358605,28.4375,29.625,28.875,32.875,35.25,36.3125
0.18805225,-0.10634843,-0.36317813,-0.045665026,-0.0008751765,0.027082233,-0.18653762,-0.38912866,-0.34650856,0.060136862,-3.0760124,0.6290847,0.0002998097,-0.08176144,0.024544423,-0.0033693446,0.027537806,-0.023685314,-0.019750312,0.4678022,-1.4149431,1.9439439,-2.0972812,-1.5722383,2.4457111,-0.10791966,0.12727217,-0.15181845,0.05801351,-0.014183911,-0.08805076,-0.21068975,0.19153613,-9.3661175,0.83589023,47.716442,-1.0902966,-1.9807582,-3.1952946,-0.28760913,-0.23176782,-0.096190155,28.4375,29.625,28.875,32.875,35.25,36.3125
0.19005238,-0.56620437,-0.8618619,-0.4531484,-0.0042893114,0.045551214,-0.17419274,-0.38925624,-0.34643567,0.060090758,-3.075849,0.6290539,0.00012231604,-0.08223013,0.026197683,-0.0021598507,0.026835637,-0.021777352,-0.026166467,0.46759728,-1.414656,1.9436811,-2.0971138,-1.5722989,2.4455082,-0.11106645,0.12294384,-0.14966626,0.05816824,-0.014431857,-0.084779836,-0.36391866,0.17238252,-9.3661175,0.8157518,47.70032,-1.0843648,-1.8763505,-3.3877258,-0.3303586,-0.24851036,-0.11963618,28.4375,29.625,28.875,32.875,35.25,36.3125
0.19205229,-1.157278,-0.89068323,-0.33980498,-0.018967615,0.07633603,-0.17839912,-0.38943723,-0.34638116,0.060094878,-3.0757947,0.6291594,8.706527e-05,-0.08311475,0.025207762,-0.0030640715,0.027602794,-0.021924838,-0.02927333,0.4673457,-1.4144143,1.9433693,-2.0970066,-1.5723108,2.4453297,-0.1096525,0.12750864,-0.15262435,0.05704423,-0.015064668,-0.08025444,-0.5363012,0.21068975,-9.500193,0.7709874,47.67166,-1.1574472,-2.0003643,-3.2494774,-0.35884827,-0.24146317,-0.1566932,28.4375,29.625,28.875,32.875,35.25,36.3125
0.19405241,-1.6158426,-1.1581618,-0.43867835,-0.016184254,0.100967936,-0.19179185,-0.3895766,-0.346329,0.06008242,-3.0756986,0.6293348,-3.1295458e-05,-0.08619371,0.026471263,-0.0021049408,0.02567528,-0.01899195,-0.035980918,0.46712813,-1.4141862,1.9431056,-2.0968754,-1.5723108,2.445234,-0.114853,0.12751602,-0.15447666,0.055400442,-0.014684795,-0.07874587,-0.5554548,0.2681506,-9.5385,0.8157518,47.64837,-1.0676548,-1.9109123,-3.3290982,-0.368338,-0.27750197,-0.18435827,28.4375,29.625,28.875,32.875,35.25,36.3125
0.1960525,-2.110177,-1.3018202,-0.47001833,-0.03035644,0.114410564,-0.18002672,-0.3897547,-0.34630215,0.06007641,-3.0756633,0.6293669,-0.00011909516,-0.086855836,0.024943173,-0.0017081617,0.024553988,-0.016764224,-0.038536396,0.4669129,-1.4138855,1.942746,-2.0967557,-1.5722989,2.4450436,-0.11268132,0.12900282,-0.15674181,0.053690642,-0.0146993715,-0.07401621,-0.7852981,0.24899697,-9.576807,0.8179876,47.675243,-1.1641052,-1.855104,-3.293304,-0.36778933,-0.246804,-0.24276058,28.4375,29.625,28.875,32.875,35.25,36.3125
0.19805251,-2.2300103,-1.468993,-0.51446867,-0.03557061,0.12038922,-0.17670506,-0.38992518,-0.34623975,0.06008074,-3.0755572,0.62946177,-0.000107221626,-0.089453764,0.025765002,-0.0017473934,0.023268806,-0.014582271,-0.042269852,0.46669576,-1.4136567,1.9424461,-2.096638,-1.5723709,2.4448996,-0.11650965,0.13074124,-0.15799516,0.05066958,-0.014552301,-0.074109495,-0.9768343,0.22984336,-9.710882,0.86498255,47.695843,-1.0167063,-1.8556261,-3.251195,-0.39613485,-0.292722,-0.25453448,28.4375,29.625,28.875,32.875,35.25,36.3125
0.20005246,-2.2956388,-1.3335042,-0.75782245,-0.019925805,0.11249256,-0.17794879,-0.39013866,-0.34619,0.06009924,-3.0755026,0.6296041,-7.022891e-06,-0.09178652,0.026133392,-0.0012608627,0.022282517,-0.010740922,-0.042252686,0.4664549,-1.4134039,1.9420995,-2.0965788,-1.572431,2.4447548,-0.11863232,0.13145323,-0.1591835,0.047262844,-0.015415518,-0.07624611,-0.842759,0.21068975,-9.787497,0.8493211,47.668976,-0.8639528,-1.8706787,-3.3492284,-0.35837364,-0.30994776,-0.24271132,28.4375,29.625,28.875,32.875,35.25,36.3125
0.20205238,-1.4970453,-0.4511867,-0.72958064,-0.022282852,0.11067652,-0.18675077,-0.39028612,-0.34613743,0.06007052,-3.0754251,0.629743,-0.00016437411,-0.09382952,0.026289383,-0.0010778611,0.021919867,-0.0078806225,-0.045905214,0.4662144,-1.413139,1.9418358,-2.096472,-1.5724071,2.444611,-0.12005641,0.13307178,-0.16090544,0.04465395,-0.016396599,-0.07401159,-0.91937345,0.17238252,-9.9790325,0.8851263,47.67614,-0.95820814,-1.8554027,-3.2946305,-0.3380484,-0.28860584,-0.29486632,28.4375,29.625,28.875,32.875,35.25,36.3125
0.20405242,-1.2343844,-0.13238864,-0.5101632,-0.018766332,0.11549149,-0.19107829,-0.39050832,-0.34609243,0.060096823,-3.075383,0.62983006,-6.195223e-05,-0.0953518,0.025813943,-0.00066767057,0.019689057,-0.0037498882,-0.04569702,0.46597433,-1.4128752,1.9414533,-2.09639,-1.5724672,2.444431,-0.12058782,0.13312092,-0.16083957,0.039836247,-0.016272996,-0.07475142,-0.91937345,0.076614454,-9.902418,0.91198283,47.67345,-0.9529046,-1.7434195,-3.4845846,-0.3022365,-0.30292967,-0.30344123,28.4375,29.625,28.875,32.875,35.25,36.3125
0.20605244,-1.6132911,-0.5102442,-0.57490546,-0.0023286983,0.11468838,-0.18282068,-0.39069965,-0.34604734,0.060077425,-3.0753067,0.62998587,-5.908186e-05,-0.09632409,0.025184082,-0.001206346,0.01919653,-0.0022856507,-0.045113973,0.46574658,-1.4125737,1.9411424,-2.0963552,-1.5725034,2.4443107,-0.12013454,0.13557687,-0.16178744,0.036793005,-0.016504478,-0.0748788,-0.842759,0.0,-9.825804,0.85155696,47.677036,-1.0320804,-1.9352946,-3.5394115,-0.25445986,-0.32681078,-0.31941187,28.4375,29.625,28.875,32.875,35.25,36.3125
0.20805232,-1.7344846,-0.31007996,-0.73601604,0.009062121,0.11336567,-0.18337557,-0.39092797,-0.34599084,0.06008094,-3.0752497,0.6301681,-3.938821e-05,-0.097553685,0.02597812,-0.003018248,0.020496484,-0.0049219336,-0.04764781,0.4654577,-1.4122721,1.9407705,-2.0962832,-1.5725273,2.444143,-0.122572646,0.14052351,-0.16326863,0.036260583,-0.016490396,-0.07478158,-0.7852981,-0.095768064,-9.730036,0.84484416,47.71286,-0.91426176,-1.8757246,-3.4495072,-0.22425836,-0.3235271,-0.35009122,28.4375,29.625,28.875,32.875,35.25,36.3125
0.21005233,-1.42198,0.057917405,-0.64800745,0.013508982,0.11721139,-0.18925136,-0.39109048,-0.3459622,0.060090818,-3.0752444,0.6302418,-5.0883296e-05,-0.09839955,0.02471504,-0.0018886325,0.02026392,-0.0016244788,-0.043938875,0.4652545,-1.4120557,1.9404825,-2.0962121,-1.5725158,2.4439867,-0.1202158,0.14089866,-0.1661938,0.035759054,-0.017774245,-0.07612835,-0.5746084,-0.038307227,-9.653421,0.88289046,47.66091,-1.1939232,-2.036477,-3.4532068,-0.19880714,-0.3491162,-0.35554537,28.4375,29.625,28.875,32.875,35.25,36.3125
0.2120525,-1.4258188,-0.097475216,-0.80072945,0.029565219,0.08460795,-0.17626113,-0.39132875,-0.3458997,0.06009413,-3.0751493,0.63045245,2.7990714e-05,-0.09897067,0.025830293,-0.003133378,0.021487108,-0.004903113,-0.04427538,0.46497744,-1.4117426,1.9401001,-2.096151,-1.5725878,2.4438536,-0.12285973,0.14377774,-0.16703536,0.037184432,-0.017401755,-0.07843652,-0.49799395,-0.019153614,-9.653421,0.8560339,47.679718,-0.9960244,-2.0778573,-3.567204,-0.18348628,-0.33687997,-0.36151284,28.4375,29.625,28.875,32.875,35.25,36.3125
0.21405257,-0.65307933,-0.16445126,-0.62454426,0.032160625,0.0588856,-0.18289983,-0.39153174,-0.34583578,0.060084358,-3.0750675,0.63045263,7.892899e-05,-0.10091349,0.025961138,-0.0026848903,0.021577597,-0.0031396078,-0.04206782,0.46473712,-1.4114536,1.9397758,-2.096092,-1.5726718,2.4436243,-0.12418746,0.14560273,-0.1701398,0.036913376,-0.018291071,-0.08196701,-0.36391866,-0.1340753,-9.634268,0.8672237,47.674347,-1.0930223,-2.1267416,-3.6146235,-0.1673133,-0.35078767,-0.341968,28.4375,29.625,28.875,32.875,35.25,36.3125
0.21605262,-0.54066926,-0.074798815,-0.26619416,0.01511041,0.034056965,-0.17868349,-0.3917514,-0.3457834,0.06008395,-3.0750093,0.6305921,0.000112985195,-0.102038644,0.026825568,-0.0027878194,0.022910574,-0.0018304668,-0.038969595,0.46447256,-1.4111531,1.9394168,-2.0960329,-1.572709,2.4434545,-0.12549292,0.14638668,-0.17065354,0.03605948,-0.02008253,-0.08636486,-0.34476504,-0.17238252,-9.500193,0.8672237,47.670765,-1.0199418,-2.1333232,-3.6370873,-0.13847056,-0.34566373,-0.33120584,28.4375,29.625,28.875,32.875,35.25,36.3125
0.21805167,0.6633145,0.13989566,-0.3771655,0.011316564,0.038273115,-0.19174756,-0.39196062,-0.3457245,0.060086086,-3.0749187,0.6307243,0.00013891525,-0.104284436,0.026699392,-0.0014872972,0.021726511,0.0014972162,-0.03590305,0.4642205,-1.4108645,1.9390572,-2.0959365,-1.572769,2.443297,-0.12690827,0.14680102,-0.17400694,0.035474848,-0.0205345,-0.09084323,-0.2873042,-0.095768064,-9.346964,0.842603,47.71286,-1.0370485,-2.0588374,-3.5140882,-0.06352889,-0.3323313,-0.25912595,28.4375,29.625,28.875,32.875,35.25,36.3125
0.22005317,0.57751745,0.21529503,-0.32179207,0.01767297,0.0097630285,-0.18672392,-0.39217213,-0.34565717,0.06008149,-3.0748594,0.6308623,0.00019712599,-0.10553002,0.026739914,-0.0009228,0.02179914,0.0008815487,-0.030806929,0.46394387,-1.4105991,1.9387559,-2.0959113,-1.5728167,2.4431143,-0.12814057,0.14846964,-0.17788556,0.038243543,-0.020337148,-0.09717095,-0.076614454,0.038307227,-9.346964,0.8672237,47.666286,-1.0844895,-2.2149663,-3.425537,-0.07161921,-0.34291536,-0.22691295,28.4375,29.625,28.875,32.875,35.25,36.3125
0.22205238,0.27109814,-0.42706248,-0.09175966,0.02310982,0.0060447403,-0.17632817,-0.39237309,-0.34562737,0.060096364,-3.0748332,0.63085645,0.00020150749,-0.10627981,0.026887322,-0.0014162114,0.02291162,-0.0009820048,-0.028967237,0.46372762,-1.4103104,1.9383615,-2.0957916,-1.5728406,2.442898,-0.12889022,0.15146764,-0.18070637,0.04021904,-0.020507524,-0.09975811,-0.038307227,0.15322891,-9.270349,0.8537928,47.67166,-1.0939964,-2.0523396,-3.2756257,-0.06407854,-0.33646524,-0.14051723,28.4375,29.625,28.875,32.875,35.25,36.3125
0.22405277,0.2169068,-0.5344775,-0.11430658,0.011134426,0.006996622,-0.18350416,-0.39258167,-0.345563,0.060084403,-3.0747647,0.6309349,0.00018904854,-0.106675126,0.026822127,-0.0007839533,0.022564858,-0.0005671576,-0.025664834,0.46345168,-1.4100102,1.9380258,-2.0957186,-1.5728768,2.4426801,-0.12912178,0.15114555,-0.18208194,0.04137316,-0.020395603,-0.10329137,-0.076614454,0.24899697,-9.212888,0.8851263,47.66091,-1.1117342,-2.0071125,-3.288052,-0.064533845,-0.35173368,-0.11040212,28.4375,29.625,28.875,32.875,35.25,36.3125
0.22605176,0.3487108,-0.96672994,-0.35728845,-0.0006637658,0.011842799,-0.1881656,-0.39281002,-0.345529,0.060095932,-3.07475,0.6310092,0.0002780404,-0.10682479,0.026594466,-0.0009787956,0.023272736,-0.00198015,-0.026023848,0.4632117,-1.4097093,1.9376439,-2.0956829,-1.5729126,2.4424887,-0.12877527,0.15294623,-0.18418378,0.043247912,-0.020394508,-0.1025859,-0.038307227,0.34476504,-9.232041,0.8023209,47.67345,-1.1036252,-1.9845637,-3.294757,-0.04599838,-0.35505247,-0.05580356,28.4375,29.625,28.875,32.875,35.25,36.3125
0.22805174,0.10745554,-1.4518415,0.0038819513,-0.04011613,0.02437271,-0.1813223,-0.39300776,-0.3454648,0.060091376,-3.0746439,0.63112533,0.00020677905,-0.108954445,0.028720796,-0.0004283529,0.023589542,-0.002327224,-0.033235822,0.46294594,-1.4094086,1.9372715,-2.095526,-1.5729488,2.4423094,-0.13425705,0.15302414,-0.18608661,0.045520414,-0.02053095,-0.100853115,-0.019153614,0.3256114,-9.308657,0.85826975,47.71823,-1.134011,-2.0269957,-3.2539954,-0.04208216,-0.3477843,-0.07789416,28.4375,29.625,28.875,32.875,35.25,36.3125
0.23005168,0.44316357,-1.3709718,-0.25130278,-0.056393713,0.03230777,-0.18536368,-0.3932243,-0.34538916,0.06008608,-3.0745537,0.6311836,0.00020262571,-0.10946991,0.027820272,0.0006201427,0.023612006,-0.0010598525,-0.034725845,0.46265846,-1.4091089,1.9369129,-2.0954182,-1.5730084,2.4420702,-0.13266543,0.15341786,-0.18937705,0.047290802,-0.021123065,-0.09776737,0.0,0.4213795,-9.308657,0.90750587,47.70211,-1.1425092,-1.918464,-3.318025,-0.05124247,-0.35247037,-0.07704875,28.4375,29.625,28.875,32.875,35.25,36.3125
0.23205303,-0.28149158,-1.6589019,-0.23454167,-0.051074307,0.008382365,-0.17356949,-0.39347124,-0.34533897,0.060097743,-3.0745027,0.6313098,0.00027328695,-0.10926243,0.029128961,-0.0006455566,0.025382424,-0.0042276666,-0.03997611,0.46238187,-1.4087839,1.9364942,-2.0953453,-1.5730566,2.4418793,-0.13459942,0.15492329,-0.18856923,0.048600756,-0.021285288,-0.09445147,-0.095768064,0.49799395,-9.193734,0.82694155,47.679718,-1.0838029,-1.9020383,-3.4249063,-0.041273136,-0.35523468,-0.09717674,28.4375,29.625,28.875,32.875,35.25,36.3125
0.23405237,-0.09087732,-2.1474009,-0.12388538,-0.038054504,0.018334264,-0.17453225,-0.39365247,-0.34526503,0.060081925,-3.0743785,0.6314206,0.00022514432,-0.1103139,0.029539565,-0.0007303314,0.025361558,-0.004625888,-0.045246225,0.46212927,-1.4085065,1.9361829,-2.095226,-1.5731167,2.4417121,-0.13630795,0.15641728,-0.19026606,0.049148,-0.021097045,-0.090887845,-0.05746084,0.5363012,-9.251195,0.8493211,47.66808,-1.0126034,-2.0894566,-3.3986702,-0.031493466,-0.3686262,-0.13375953,28.4375,29.625,28.875,32.875,35.25,36.3125
0.23605263,0.10683447,-1.3102589,0.017791089,-0.024577234,0.013842133,-0.18014576,-0.39390355,-0.34522808,0.060088754,-3.074344,0.63155025,0.00029863947,-0.11108213,0.029697716,-0.0015374853,0.025804423,-0.0060697277,-0.049471617,0.46186504,-1.4081575,1.9357527,-2.0951774,-1.5731529,2.4415336,-0.1373356,0.15937866,-0.19194646,0.049355406,-0.020848868,-0.08769045,-0.038307227,0.4213795,-9.212888,0.8985519,47.685097,-1.0392233,-1.931828,-3.2920802,-0.014094533,-0.37859872,-0.19280759,28.4375,29.625,28.875,32.875,35.25,36.3125
0.23805267,-0.21393289,-0.8150498,-0.20320626,0.0048255255,0.0050157714,-0.17466155,-0.39413154,-0.34518394,0.060100447,-3.0742846,0.6316733,0.00028996164,-0.11172931,0.029676566,-0.0006536053,0.024682147,-0.0047757695,-0.05234049,0.46160078,-1.4078337,1.9353217,-2.0950458,-1.5731767,2.441354,-0.1380552,0.15839638,-0.19294938,0.049678728,-0.020424634,-0.08554189,-0.17238252,0.34476504,-9.289502,0.87617236,47.734352,-1.0233105,-1.8834434,-3.2289426,-0.003305258,-0.38295305,-0.23017874,28.4375,29.625,28.875,32.875,35.25,36.3125
0.24005267,-0.17688365,-0.34217334,0.07004432,0.012640759,0.021743245,-0.1723895,-0.39436606,-0.34511524,0.060079884,-3.0741928,0.63190717,0.00026299857,-0.1122587,0.030749608,-0.00070191844,0.026099956,-0.0073228762,-0.05650974,0.46128795,-1.4074851,1.9349517,-2.0949848,-1.5732011,2.4411993,-0.14023797,0.15953918,-0.19509904,0.053594872,-0.020560725,-0.08355371,-0.15322891,0.34476504,-9.232041,0.8112748,47.667187,-0.88784456,-1.8414229,-3.2762697,-0.027072892,-0.40566278,-0.27066728,28.4375,29.625,28.875,32.875,35.25,36.3125
0.24205175,0.011299877,0.22226979,0.109593816,0.02304686,0.03544803,-0.18554549,-0.3945808,-0.34504396,0.060086973,-3.0740907,0.6320202,0.00025755318,-0.11427832,0.032286186,-0.00063100265,0.026459454,-0.0073794634,-0.05865684,0.46101075,-1.4071963,1.9345688,-2.0948408,-1.5732607,2.4410062,-0.14444794,0.16082723,-0.19696796,0.054371558,-0.020872785,-0.08561368,-0.17238252,0.19153613,-9.155427,0.91421866,47.683304,-0.9305063,-1.7961128,-3.404007,-0.044923015,-0.40730047,-0.29221827,28.4375,29.625,28.875,32.875,35.25,36.3125
0.24405202,-0.5743105,0.2332369,0.16997561,0.03593174,0.03982436,-0.17658739,-0.39479598,-0.34499288,0.06005428,-3.0740025,0.63219476,0.00012304245,-0.1133902,0.031728603,-0.0010138995,0.028567165,-0.009741601,-0.060089316,0.4607235,-1.4068114,1.934173,-2.0947316,-1.5732492,2.4408395,-0.14205945,0.16261707,-0.1989604,0.05763532,-0.021713603,-0.081787206,-0.30645782,-0.076614454,-9.270349,0.8851263,47.66808,-0.9588765,-1.9151968,-3.3712826,-0.033859532,-0.4032333,-0.34334767,28.4375,29.625,28.875,32.875,35.25,36.3125
0.24605192,-1.026764,0.38400108,0.10621159,0.038689744,0.04215395,-0.17901643,-0.39502865,-0.3449401,0.06005055,-3.0739117,0.6322718,0.00015620788,-0.113279015,0.032233015,-0.0018725692,0.031202454,-0.014091799,-0.060718745,0.46047133,-1.4064612,1.9337543,-2.0946348,-1.5733212,2.4406476,-0.14249285,0.16584304,-0.20185637,0.062364396,-0.022143956,-0.081588104,-0.34476504,-0.17238252,-9.193734,0.900793,47.66808,-0.9854269,-2.058631,-3.329315,-0.088373184,-0.42002353,-0.42007297,28.4375,29.625,28.875,32.875,35.25,36.3125
0.24805191,-0.7383741,0.9556574,0.13900217,0.0519717,0.0506522,-0.18859324,-0.3952563,-0.34490648,0.06006312,-3.073855,0.6324892,0.00016026529,-0.112547316,0.033140834,-0.0033247657,0.03447085,-0.019682573,-0.0599967,0.46021914,-1.4061365,1.9333247,-2.094525,-1.5733331,2.4405386,-0.14307983,0.16898157,-0.20330139,0.06712334,-0.022590961,-0.08289518,-0.34476507,-0.2681506,-9.193734,0.8247004,47.699425,-1.0399264,-2.0014346,-3.3525383,-0.14546475,-0.41941905,-0.40475804,28.4375,29.625,28.875,32.875,35.25,36.3125
0.25005198,-0.8017797,0.9820527,-0.048827644,0.07397381,0.04819674,-0.17721693,-0.39547604,-0.34481475,0.060049098,-3.0737295,0.63265526,0.00010112457,-0.113297455,0.033519585,-0.0027465462,0.034064192,-0.018298617,-0.060153227,0.45989487,-1.4058244,1.9329656,-2.094394,-1.5733813,2.4403346,-0.14414617,0.16824865,-0.20376521,0.06688679,-0.022861924,-0.08380213,-0.53630114,-0.38307226,-9.193734,0.9097417,47.687782,-1.1584886,-1.910425,-3.3439825,-0.14611872,-0.43024048,-0.4588349,28.4375,29.625,28.875,32.875,35.25,36.3125
0.25205207,-0.59239626,1.2130733,0.14610796,0.067305,0.054112744,-0.18947211,-0.39571288,-0.34475404,0.060051598,-3.073619,0.63280284,9.482784e-05,-0.11384042,0.034671303,-0.0036613508,0.036804833,-0.020696932,-0.058017854,0.4596183,-1.4054753,1.9325227,-2.094249,-1.5734419,2.4401648,-0.14566432,0.17089193,-0.205295,0.06912221,-0.024273098,-0.08744878,-0.4405331,-0.38307226,-9.212888,0.84708,47.660015,-0.9832578,-2.0865731,-3.350344,-0.18981585,-0.4282933,-0.46897963,28.4375,29.625,28.875,32.875,35.25,36.3125
0.2540522,-0.4701244,0.8481743,-0.060652807,0.08104128,0.053098895,-0.17686771,-0.39593914,-0.3446828,0.060040854,-3.0735185,0.63298976,-2.8900728e-05,-0.114818,0.03523497,-0.0039197826,0.039188232,-0.020845288,-0.053024106,0.45929426,-1.4051261,1.9321045,-2.0940812,-1.5734423,2.4399707,-0.14608134,0.17317788,-0.20769544,0.07041112,-0.026377872,-0.09284828,-0.38307226,-0.30645782,-9.193734,0.84708,47.66987,-1.0047977,-2.0090537,-3.3103232,-0.22972256,-0.39206415,-0.44392782,28.4375,29.625,28.875,32.875,35.25,36.3125
0.25605232,-1.1749705,0.5571484,-0.079803355,0.07432302,0.047036324,-0.17849125,-0.39616138,-0.3445836,0.06001434,-3.0733178,0.6331365,-9.0009846e-05,-0.11566741,0.035856023,-0.004256007,0.040820688,-0.021434397,-0.04729501,0.45899376,-1.4047651,1.9317087,-2.0939133,-1.573551,2.4397883,-0.14704373,0.17513366,-0.20948443,0.07146298,-0.027620666,-0.09953074,-0.4213795,-0.3256114,-9.385271,0.8403672,47.651955,-0.94592214,-2.2180421,-3.3728728,-0.2806953,-0.39670932,-0.39361346,28.4375,29.625,28.875,32.875,35.25,36.3125
0.25805214,-1.3454735,0.27196306,-0.019484764,0.04354659,0.0724005,-0.1852421,-0.39638653,-0.34451416,0.060005553,-3.0732074,0.6332263,-0.00014981322,-0.118142955,0.036782924,-0.0032610726,0.041043933,-0.018870587,-0.043700144,0.45870492,-1.4044167,1.9312896,-2.0937579,-1.5735997,2.4395702,-0.14987855,0.17573105,-0.2125564,0.071711056,-0.028996965,-0.10595142,-0.53630114,-0.24899697,-9.3661175,0.84708,47.67793,-1.0298414,-2.0429611,-3.37878,-0.3089009,-0.36976558,-0.31523952,28.4375,29.625,28.875,32.875,35.25,36.3125
0.26005203,-1.6163996,0.20712969,-0.39678976,0.022741111,0.0794767,-0.18477422,-0.39662614,-0.34443653,0.060004056,-3.07311,0.6333736,-0.0001925907,-0.11867977,0.036743786,-0.0024647955,0.04169649,-0.016600495,-0.037055474,0.45838135,-1.4040809,1.9308709,-2.0936139,-1.5736359,2.4393516,-0.14914513,0.1750366,-0.21361324,0.07169063,-0.030621566,-0.11185425,-0.6703765,-0.17238252,-9.404425,0.95002913,47.6636,-1.1853603,-2.1036563,-3.459196,-0.3223933,-0.36188978,-0.27392364,28.4375,29.625,28.875,32.875,35.25,36.3125
0.2620538,-2.3141158,-0.7038373,-0.20072298,0.008818,0.083651334,-0.18621875,-0.39687276,-0.34435183,0.06000428,-3.072961,0.6335136,-0.00012472333,-0.1202324,0.036533706,-0.002471834,0.041690227,-0.015228766,-0.033665888,0.4580932,-1.4037435,1.9304522,-2.0934947,-1.5737566,2.4391706,-0.14963661,0.17744507,-0.21619686,0.07060086,-0.031254325,-0.11573008,-0.63206923,0.038307227,-9.423578,0.9097417,47.705692,-1.1163589,-2.1579165,-3.3293273,-0.35002595,-0.33404854,-0.19836089,28.4375,29.625,28.875,32.875,35.25,36.3125
0.26405275,-1.646255,-0.7449586,-0.49304634,-0.018058931,0.11359277,-0.18468209,-0.39708886,-0.3442578,0.059955977,-3.0727904,0.6335721,-0.00031794218,-0.12129309,0.036397755,-0.0028470675,0.041627917,-0.013927343,-0.031312987,0.45776922,-1.4033343,1.9300445,-2.0933044,-1.5738047,2.4389057,-0.14987324,0.17938383,-0.21715878,0.0684075,-0.031820424,-0.11831038,-0.63206923,0.15322891,-9.423578,0.91198283,47.67345,-1.1827652,-2.166478,-3.4538074,-0.3520876,-0.31268936,-0.16807672,28.4375,29.625,28.875,32.875,35.25,36.3125
0.26605168,-1.4704355,-1.1054518,-0.649621,-0.02592303,0.108850956,-0.1826334,-0.39733887,-0.34418994,0.05995502,-3.0726957,0.6336106,-0.00033930573,-0.12254904,0.035422735,-0.0026219431,0.039741695,-0.011262774,-0.03260195,0.4574695,-1.4029616,1.9295791,-2.0931494,-1.5738648,2.4386427,-0.14946681,0.18076491,-0.21862778,0.06525901,-0.031327434,-0.11661389,-0.5554548,0.21068975,-9.634268,0.85826975,47.67166,-1.2814399,-2.2052915,-3.3786929,-0.33629212,-0.30184117,-0.123812854,28.4375,29.625,28.875,32.875,35.25,36.3125
0.26805198,-1.5357391,-1.5940472,-0.70711356,-0.042050682,0.094400026,-0.17544426,-0.39757648,-0.3441133,0.05993015,-3.0725644,0.63373756,-0.00033504015,-0.12452742,0.035847787,-0.002137486,0.039533406,-0.0073181363,-0.03528542,0.4571808,-1.4025891,1.9291848,-2.093067,-1.5739492,2.4384508,-0.15084162,0.18112893,-0.21950991,0.06213714,-0.032902274,-0.11529575,-0.49799395,0.28730422,-9.691729,0.86498255,47.70211,-1.1872933,-2.0926137,-3.4825401,-0.30567294,-0.29441988,-0.16673408,28.4375,29.625,28.875,32.875,35.25,36.3125
0.27005202,-1.3030974,-1.8113607,-0.67700166,-0.056363054,0.085998,-0.17660075,-0.3978786,-0.3440255,0.05994111,-3.072424,0.63396436,-0.0002476026,-0.12839732,0.03665425,-0.0004951687,0.03828412,-0.00084143266,-0.04607396,0.45683166,-1.4021926,1.9286698,-2.0929368,-1.5740575,2.438262,-0.15440251,0.18116088,-0.22261731,0.058856387,-0.03464149,-0.10805838,-0.59376204,0.30645782,-9.710882,0.88960326,47.67614,-1.2113209,-2.168882,-3.6696007,-0.2738181,-0.25248927,-0.18588538,28.4375,29.625,28.875,32.875,35.25,36.3125
0.27205202,-0.368746,-1.2090429,-0.6782148,-0.051628664,0.08130897,-0.1877517,-0.39810696,-0.34395063,0.059942253,-3.0723388,0.63404435,-0.00026231483,-0.1309529,0.035648976,0.0006347443,0.0366973,0.004014382,-0.049821608,0.45653188,-1.4018795,1.928274,-2.092806,-1.5741061,2.4380236,-0.15429392,0.18282066,-0.22654825,0.05607015,-0.03537208,-0.104194924,-0.47884035,0.40222588,-9.768343,0.85155696,47.681515,-1.1938415,-2.1691837,-3.6217391,-0.23533307,-0.19981083,-0.25561762,28.4375,29.625,28.875,32.875,35.25,36.3125
0.27405214,0.066343285,-0.81982875,-0.8376239,-0.036459148,0.062275916,-0.18826716,-0.3983904,-0.3438735,0.059918907,-3.072219,0.63423204,-0.00024397798,-0.13256174,0.03639672,-0.00014612582,0.035894662,0.0038992076,-0.05427977,0.45619485,-1.4014465,1.9278077,-2.092734,-1.5741776,2.4378197,-0.15737347,0.18522792,-0.22717863,0.054026105,-0.034611136,-0.10281751,-0.34476504,0.38307226,-9.80665,0.8873621,47.65464,-1.0807216,-2.0800219,-3.4685977,-0.18970867,-0.18178925,-0.27180436,28.4375,29.625,28.875,32.875,35.25,36.3125
0.276052,-0.18094589,-0.9675857,-0.8853444,-0.020148475,0.038778815,-0.18150283,-0.39865118,-0.3438053,0.05990812,-3.0721214,0.6343476,-0.00020962526,-0.13426727,0.0371172,-0.00045378148,0.03498225,0.0048389193,-0.057507876,0.45589384,-1.4010615,1.9273661,-2.0926511,-1.5742496,2.437604,-0.16026215,0.18672808,-0.22780585,0.051889967,-0.03421736,-0.102478266,-0.1340753,0.34476504,-9.80665,0.9030289,47.647476,-0.92191535,-2.1583126,-3.523953,-0.1524736,-0.18327212,-0.3139513,28.4375,29.625,28.875,32.875,35.25,36.3125
0.27805188,-0.042589985,-1.0588081,-1.0391079,-0.019365953,0.030319536,-0.1778693,-0.39889604,-0.34372452,0.05989907,-3.0719953,0.63455224,-0.00025614776,-0.13511482,0.03742167,-4.2091106e-05,0.034621414,0.0056825457,-0.05916099,0.45556954,-1.4007014,1.9269356,-2.0925076,-1.5742978,2.4374242,-0.16138522,0.18675523,-0.22886099,0.051988024,-0.034276046,-0.10194516,-0.095768064,0.3256114,-9.80665,0.8873621,47.672558,-0.95955324,-2.029771,-3.5872211,-0.10922837,-0.1562542,-0.32496622,28.4375,29.625,28.875,32.875,35.25,36.3125
0.28005162,-0.1226984,-0.94967633,-0.8305069,-0.033193298,0.023491604,-0.18158276,-0.39921626,-0.34362534,0.05991961,-3.0718875,0.63475937,-0.00011372697,-0.13601665,0.03700399,5.475408e-05,0.034650195,0.0057421857,-0.05951981,0.45518568,-1.4003283,1.926433,-2.0924118,-1.5744056,2.437184,-0.16125822,0.18886039,-0.23175903,0.05271823,-0.034331705,-0.10145888,-0.019153614,0.24899697,-9.844957,0.8851263,47.68062,-0.9490626,-2.1221323,-3.621314,-0.08284873,-0.13449788,-0.37331888,28.4375,29.625,28.875,32.875,35.25,36.3125
0.28205252,-0.046405595,-1.1898247,-0.6752725,-0.039421298,0.026442844,-0.17593013,-0.3994804,-0.3435641,0.059906457,-3.0717745,0.6348496,-6.0388895e-05,-0.13642846,0.037501864,-0.0005572675,0.035503935,0.0025365718,-0.05872438,0.45490956,-1.3999182,1.9259666,-2.0923264,-1.5745009,2.4369795,-0.1627812,0.19143291,-0.23410507,0.055716354,-0.03370102,-0.10377833,0.038307227,0.21068975,-9.787497,0.9455522,47.65643,-1.0058246,-2.299582,-3.5703816,-0.09214401,-0.12841243,-0.36915618,28.4375,29.625,28.875,32.875,35.25,36.3125
0.2840527,-0.24390697,-1.0693399,-0.81086797,-0.02316241,0.013379618,-0.16792437,-0.39975435,-0.34349528,0.059910856,-3.0717063,0.63500726,-4.210008e-05,-0.13725665,0.035653066,-0.00011816749,0.033787895,0.0044958275,-0.05543041,0.4545743,-1.3995457,1.9254988,-2.09222,-1.5745372,2.4367518,-0.16054451,0.19348173,-0.2372339,0.05426132,-0.03303853,-0.10483649,0.076614454,0.2681506,-9.749189,0.92764956,47.64389,-1.106662,-2.1982107,-3.550072,-0.07453317,-0.10041634,-0.3589527,28.4375,29.625,28.875,32.875,35.25,36.3125
0.2860526,0.6544794,-0.52623653,-0.88138634,-0.011652853,0.022378039,-0.18774596,-0.40003496,-0.3434115,0.059897788,-3.0715752,0.6352064,-1.1282691e-05,-0.1395765,0.035960604,0.0011301496,0.031969264,0.0062249936,-0.05205912,0.45423713,-1.3991375,1.9250315,-2.0921233,-1.5746206,2.4365566,-0.16350035,0.19394648,-0.24087642,0.055039514,-0.032196205,-0.111164905,0.17238252,0.24899697,-9.730036,0.86945957,47.65464,-0.9936681,-2.2185044,-3.4320507,-0.029656604,-0.09815678,-0.33863616,28.4375,29.625,28.875,32.875,35.25,36.3125
0.28805175,0.66339517,-0.3206581,-0.62666124,0.00089414715,0.0022419312,-0.17662057,-0.4003172,-0.34334624,0.059903253,-3.0715036,0.6353062,6.815026e-05,-0.14092034,0.036484987,0.0014711772,0.03138779,0.0052439985,-0.04946733,0.4539241,-1.3987527,1.9245518,-2.0920389,-1.5746926,2.4363155,-0.16605048,0.19529176,-0.24377602,0.057178553,-0.031262025,-0.11631046,0.24899697,0.11492168,-9.595961,0.9321212,47.687782,-0.99703515,-2.2242408,-3.3181348,-0.0053729177,-0.08568142,-0.27122018,28.4375,29.625,28.875,32.875,35.25,36.3125
0.29005176,1.2349871,-0.09022044,-0.59157157,0.018755,-0.0031170049,-0.18808484,-0.4006023,-0.3432642,0.05990758,-3.0714052,0.635513,7.4486794e-05,-0.14073451,0.037035737,0.0003125016,0.03174043,0.00079984445,-0.04554097,0.45356363,-1.3983674,1.9240631,-2.0919063,-1.5747398,2.4360974,-0.16774814,0.19781344,-0.24471112,0.059696,-0.029651968,-0.121940754,0.17238252,0.076614454,-9.442732,0.88289046,47.674347,-0.8271113,-2.1851122,-3.3716364,-0.00935744,-0.083542414,-0.21441251,28.4375,29.625,28.875,32.875,35.25,36.3125
0.2920517,0.4201376,-0.19418433,-0.7213418,0.013334878,-0.02193272,-0.1809084,-0.40086302,-0.34322137,0.059902485,-3.0713775,0.6355419,2.6968337e-05,-0.14293575,0.036822516,0.0013809457,0.029413925,0.003606725,-0.041245226,0.45326343,-1.3979592,1.923572,-2.0917876,-1.5747398,2.4358191,-0.16967122,0.19836946,-0.24759546,0.05844507,-0.028826531,-0.12816104,0.15322891,0.17238252,-9.442732,0.9835985,47.692257,-0.8917382,-2.1936734,-3.3337998,0.03499527,-0.09069432,-0.11832534,28.4375,29.625,28.875,32.875,35.25,36.3125
0.29405183,0.25049523,-0.4559886,-0.717624,0.0058067846,-0.0041486635,-0.17557183,-0.40117198,-0.3431587,0.059919853,-3.071314,0.6356233,0.00014350144,-0.14288718,0.03548799,0.0015784424,0.029164543,0.0020299687,-0.037893064,0.45294,-1.3975499,1.9230331,-2.0916898,-1.5748233,2.4355552,-0.16772376,0.20065162,-0.25142145,0.061268706,-0.027917422,-0.12956938,0.076614454,0.05746084,-9.461885,0.8717007,47.664497,-0.9977542,-2.226688,-3.2874255,0.045096714,-0.09322989,-0.0852373,28.4375,29.625,28.875,32.875,35.25,36.3125
0.29605174,-0.047708087,-0.43997955,-0.3908942,-0.007542761,0.021301726,-0.17139962,-0.4014342,-0.3430647,0.05990681,-3.0711753,0.6358451,7.865041e-05,-0.14274837,0.036011826,0.0015022776,0.029944433,-0.0012395332,-0.040239435,0.45257962,-1.3971647,1.9225782,-2.091533,-1.5748714,2.4353518,-0.16885625,0.20160505,-0.25340044,0.06556219,-0.027194789,-0.12835622,-0.038307227,0.11492168,-9.461885,0.85826975,47.660015,-0.8729482,-2.2762995,-3.2763772,0.025808174,-0.09432915,-0.050283864,28.4375,29.625,28.875,32.875,35.25,36.3125
0.29805234,0.052326877,-0.24937336,-0.37265596,-0.013891563,0.051781446,-0.18680105,-0.40171692,-0.34300146,0.05991672,-3.0710998,0.6359089,7.117475e-05,-0.14086151,0.03678656,-5.7462054e-05,0.03170146,-0.0072279302,-0.044630457,0.4522553,-1.3967562,1.9220408,-2.0913641,-1.5749186,2.4350777,-0.16913229,0.20269088,-0.25201347,0.06924272,-0.026143188,-0.12424621,-0.30645782,0.19153613,-9.481039,0.94331104,47.72002,-1.0557113,-2.2470326,-3.4075894,-0.007851914,-0.0956171,-0.08136742,28.4375,29.625,28.875,32.875,35.25,36.3125
0.3000523,-0.6992161,-0.24023356,-0.21780194,-0.01592569,0.05834137,-0.17653602,-0.4019751,-0.34292188,0.059880685,-3.0709648,0.6359976,-1.2583822e-05,-0.14013134,0.036913842,-0.00013418657,0.032399006,-0.010571571,-0.049917977,0.45193142,-1.3963118,1.9215745,-2.091231,-1.5749782,2.4348273,-0.16913939,0.20320868,-0.25349173,0.07352,-0.025306575,-0.118966945,-0.3256114,0.15322891,-9.481039,0.8985519,47.690468,-1.076305,-2.1898985,-3.369699,-0.034321554,-0.12521133,-0.11630292,28.4375,29.625,28.875,32.875,35.25,36.3125
0.30205214,-1.0559858,-0.48494422,-0.33113593,0.0013728427,0.055180892,-0.17261368,-0.40227455,-0.34287077,0.059919983,-3.0709367,0.63616586,8.948831e-05,-0.13913149,0.037154593,-0.000181287,0.03315607,-0.013394151,-0.052321672,0.45160764,-1.3959517,1.9210371,-2.0911105,-1.5750145,2.4346125,-0.1689268,0.2028666,-0.25385776,0.07709529,-0.024740767,-0.116355285,-0.30645782,0.11492168,-9.346964,0.95002913,47.698532,-1.1591352,-2.0623534,-3.5582352,-0.086195886,-0.12569615,-0.1480263,28.4375,29.625,28.875,32.875,35.25,36.3125
0.3040522,-1.2447788,-0.24202037,-0.13185535,0.010103507,0.04424224,-0.17714038,-0.40254626,-0.34277004,0.059897605,-3.070782,0.6363487,4.230579e-06,-0.1396184,0.037236504,0.00096435123,0.03261739,-0.013912447,-0.059621736,0.45123526,-1.3955315,1.9205593,-2.0909412,-1.5750736,2.434375,-0.16980936,0.20224404,-0.25664818,0.08074979,-0.02402866,-0.10993799,-0.38307226,0.076614454,-9.423578,0.9567419,47.67614,-1.1759868,-2.061965,-3.5796642,-0.11902791,-0.12498082,-0.22209334,28.4375,29.625,28.875,32.875,35.25,36.3125
0.3060522,-0.66420114,0.28799844,0.041530263,0.023336006,0.03801992,-0.17519498,-0.40280604,-0.34269652,0.05989221,-3.070675,0.6365178,-8.1287304e-05,-0.14018594,0.03737638,0.001642659,0.032702655,-0.014478506,-0.059832025,0.45089906,-1.395135,1.9200677,-2.090761,-1.5750979,2.4341588,-0.17051236,0.2025237,-0.2592363,0.083591744,-0.023877833,-0.11042882,-0.4213795,0.0,-9.232041,0.8672237,47.65464,-1.1761408,-1.9195977,-3.4719443,-0.18971315,-0.14046405,-0.24476802,28.4375,29.625,28.875,32.875,35.25,36.3125
0.30805206,-0.3156422,0.97597814,0.011004564,0.03185396,0.040337622,-0.17688712,-0.40314293,-0.3426448,0.05992564,-3.070622,0.6367597,3.2037835e-05,-0.14104803,0.0380348,0.0015515297,0.033376697,-0.014549153,-0.06510781,0.45055056,-1.394702,1.9194583,-2.0906413,-1.5751461,2.4339685,-0.17189302,0.20356543,-0.26044306,0.084120184,-0.02444518,-0.10653174,-0.57460845,-0.076614454,-9.212888,0.8985519,47.690468,-1.1054267,-1.9390273,-3.5056953,-0.18742016,-0.15478884,-0.30978876,28.4375,29.625,28.875,32.875,35.25,36.3125
0.31005204,0.090008244,1.0446374,0.032134928,0.05134928,0.04425201,-0.18065616,-0.4033785,-0.34255987,0.059902705,-3.0704646,0.6368807,-8.148012e-05,-0.14125416,0.039056033,0.0013033816,0.03511973,-0.018290972,-0.06899408,0.4502381,-1.3943053,1.9190034,-2.0904477,-1.5752062,2.4337528,-0.17378123,0.20521191,-0.26300886,0.08916215,-0.024395954,-0.10453011,-0.38307226,-0.095768064,-9.174581,0.8717007,47.668976,-1.2799792,-1.8113661,-3.414935,-0.23945925,-0.147796,-0.36506826,28.4375,29.625,28.875,32.875,35.25,36.3125
0.31205204,-0.22094761,0.91265523,-0.19308855,0.04998499,0.03847361,-0.1737647,-0.40370002,-0.3424781,0.05992178,-3.0703714,0.6371481,-6.862015e-05,-0.14145555,0.0376584,0.001376976,0.034547348,-0.017472,-0.06727989,0.44984305,-1.3938843,1.9184297,-2.0902803,-1.5752424,2.4335372,-0.17143893,0.20698963,-0.26520523,0.08858373,-0.024254598,-0.103901215,-0.40222588,-0.095768064,-9.404425,0.9298854,47.670765,-1.308377,-1.872531,-3.468832,-0.27916974,-0.16094247,-0.4380995,28.4375,29.625,28.875,32.875,35.25,36.3125
0.3140521,-0.4928892,0.5422736,0.08118376,0.01790161,0.054027606,-0.17814693,-0.4039764,-0.3424104,0.059931964,-3.0702682,0.637318,-8.596866e-05,-0.14353053,0.037451785,0.0022197203,0.03382878,-0.015534377,-0.066761136,0.44951868,-1.3934871,1.9179014,-2.090101,-1.5752901,2.433333,-0.17257406,0.20869653,-0.2692611,0.08885599,-0.024478534,-0.105551004,-0.34476504,-0.11492168,-9.308657,0.92764956,47.655537,-1.3745737,-1.7888966,-3.3249068,-0.30464026,-0.15881623,-0.4460212,28.4375,29.625,28.875,32.875,35.25,36.3125
0.31605223,-0.70263046,-0.20296764,-0.20326363,0.007122261,0.06338522,-0.17888431,-0.40427005,-0.34231508,0.05992197,-3.070096,0.63747084,-9.282508e-05,-0.14678171,0.038075607,0.0028774366,0.033210468,-0.012428916,-0.064896636,0.44916978,-1.3930418,1.917363,-2.0899217,-1.5753983,2.4331026,-0.17576697,0.21096809,-0.27317256,0.08738952,-0.025319744,-0.11060004,-0.11492168,-0.038307227,-9.385271,0.900793,47.64658,-1.3916615,-1.9682319,-3.1885645,-0.3308971,-0.17420387,-0.4493376,28.4375,29.625,28.875,32.875,35.25,36.3125
0.31805208,-0.36891726,-0.16158253,-0.58545625,0.007570997,0.05740791,-0.1808873,-0.40454102,-0.34222737,0.059909575,-3.0699787,0.6376717,-0.00024779091,-0.14776275,0.037901998,0.00111606,0.034054354,-0.012878228,-0.05558709,0.4487856,-1.39262,1.916849,-2.0897076,-1.5753988,2.4328597,-0.17575915,0.215726,-0.27410394,0.08428284,-0.025953345,-0.11989414,-0.11492168,0.019153614,-9.5385,0.9365982,47.698532,-1.3637148,-2.1238036,-3.2229562,-0.32558134,-0.1590077,-0.3815838,28.4375,29.625,28.875,32.875,35.25,36.3125
0.32005203,-0.6474442,-0.34747848,-0.6123439,-0.025308153,0.054304957,-0.18338233,-0.4048495,-0.34217256,0.05991813,-3.0698938,0.63776666,-0.00019792024,-0.14962164,0.038962103,0.0006223632,0.033431903,-0.010720632,-0.052882746,0.44847274,-1.392163,1.9162625,-2.0895655,-1.5754708,2.4326177,-0.17878982,0.21684279,-0.2734732,0.080278784,-0.026367685,-0.12562655,-0.2681506,0.19153613,-9.615114,0.8560339,47.67345,-1.1306595,-2.1033554,-3.237248,-0.27762303,-0.16380218,-0.31576717,28.4375,29.625,28.875,32.875,35.25,36.3125
0.32205206,-1.2504685,-1.7593564,-0.40920192,-0.042464778,0.05538114,-0.1657832,-0.40515772,-0.34208077,0.059936926,-3.0697906,0.63795143,-0.00017823222,-0.15135099,0.03964656,3.9083666e-06,0.032820717,-0.008594964,-0.045937832,0.44808805,-1.3917662,1.9157146,-2.0893872,-1.5755309,2.4323623,-0.18103296,0.21847266,-0.2730913,0.07602599,-0.02679509,-0.13481134,-0.38307226,0.15322891,-9.557653,0.9388393,47.684196,-1.1753191,-2.145049,-3.4724038,-0.2436421,-0.18209782,-0.2012248,28.4375,29.625,28.875,32.875,35.25,36.3125
0.32405192,-1.0135885,-1.7846406,-0.78541666,-0.051670797,0.07108144,-0.17271413,-0.40548062,-0.3419857,0.059958134,-3.0696843,0.63804317,-8.0981874e-05,-0.15322423,0.03937836,0.00080734363,0.030601108,-0.0048069768,-0.043929834,0.4477156,-1.391358,1.9151534,-2.0892327,-1.5756387,2.4320617,-0.18220048,0.21855037,-0.27437603,0.072816454,-0.026464995,-0.13798793,-0.38307226,0.21068975,-9.557653,0.9231726,47.66539,-1.0659878,-2.0383914,-3.5669606,-0.21465836,-0.17073762,-0.15583503,28.4375,29.625,28.875,32.875,35.25,36.3125
0.32605177,-0.9975783,-1.5140054,-0.49522513,-0.05724057,0.07252099,-0.18089259,-0.40578637,-0.3419172,0.059955526,-3.0695906,0.6381971,-8.558956e-05,-0.15507722,0.039747305,0.00063951383,0.029997656,-0.0030188698,-0.04517306,0.4473669,-1.3909009,1.9145912,-2.08909,-1.5756868,2.4318218,-0.18410338,0.22044043,-0.2757625,0.070421875,-0.026716964,-0.13864432,-0.30645782,0.34476504,-9.691729,0.91421866,47.666286,-1.0686996,-2.0624413,-3.643464,-0.16903827,-0.17609408,-0.095305204,28.4375,29.625,28.875,32.875,35.25,36.3125
0.3280525,-1.1694391,-1.1308358,-0.31105766,-0.047766197,0.05899704,-0.17121589,-0.40609622,-0.34183475,0.059940964,-3.0695105,0.6383359,-0.00010218711,-0.15739527,0.039428603,0.001518773,0.028689275,0.00050996855,-0.048780844,0.44698274,-1.3904438,1.9140643,-2.0889828,-1.5757226,2.4315352,-0.18511835,0.2217567,-0.27899483,0.06858996,-0.027074767,-0.13604693,-0.28730422,0.30645782,-9.519346,0.8851263,47.68599,-1.0775008,-2.000717,-3.611012,-0.12458136,-0.17865355,-0.09437817,28.4375,29.625,28.875,32.875,35.25,36.3125
0.33005264,-0.5116817,-0.25011224,-0.77809936,-0.011490455,0.04886562,-0.17972563,-0.40640128,-0.3417562,0.059926316,-3.0694025,0.6385277,-0.00014941792,-0.15894246,0.03955408,0.0018109176,0.028369708,0.0025432114,-0.055738363,0.44661042,-1.3899741,1.9135145,-2.0888398,-1.5757593,2.4312973,-0.1861157,0.22293015,-0.28084671,0.06731449,-0.027660893,-0.13008085,-0.38307226,0.22984336,-9.423578,0.84484416,47.66271,-0.9987362,-2.0921152,-3.6074786,-0.0795828,-0.17283574,-0.16647416,28.4375,29.625,28.875,32.875,35.25,36.3125
0.33205178,-0.59722424,-0.5823612,-0.5231102,0.015212736,0.04160861,-0.16901967,-0.40671718,-0.34168404,0.05995379,-3.0693238,0.63866836,-6.940243e-05,-0.16051096,0.038428757,0.0036125218,0.025307175,0.0055356636,-0.061533995,0.44626245,-1.3895665,1.9129385,-2.0886838,-1.5758308,2.431048,-0.1862424,0.22249421,-0.28456554,0.06745339,-0.026176797,-0.12441901,-0.45968673,0.15322891,-9.519346,0.8672237,47.707485,-0.97812045,-1.9789009,-3.5214877,-0.042245135,-0.17896579,-0.22517851,28.4375,29.625,28.875,32.875,35.25,36.3125
0.33405185,-0.41869584,-0.0021322216,-0.3512627,0.007586563,0.055956367,-0.17585084,-0.4070499,-0.34163153,0.059963632,-3.0692985,0.63885725,-4.818309e-05,-0.16240786,0.038474858,0.0042175786,0.024017707,0.0064034713,-0.06654977,0.44588962,-1.3890976,1.912341,-2.088576,-1.5758303,2.4307966,-0.18824677,0.22410291,-0.28805906,0.06800255,-0.025381692,-0.12141096,-0.63206923,0.1340753,-9.423578,0.9298854,47.677036,-0.8976994,-1.8834925,-3.436901,-0.033289738,-0.22003482,-0.25222516,28.4375,29.625,28.875,32.875,35.25,36.3125
0.33605173,-0.4037924,-0.061072446,-0.79823065,0.026274629,0.055141028,-0.17107262,-0.40736172,-0.34150687,0.05994521,-3.0691273,0.6390522,-6.773508e-05,-0.16274616,0.03929319,0.0040944526,0.025120812,0.005320117,-0.068603,0.4454694,-1.388653,1.911826,-2.0884197,-1.5759267,2.4305212,-0.18945792,0.22471762,-0.288981,0.06974728,-0.025917245,-0.120563745,-0.47884035,0.11492168,-9.519346,0.93436235,47.64837,-1.03037,-1.8887815,-3.42292,-0.017756773,-0.22182636,-0.3240675,28.4375,29.625,28.875,32.875,35.25,36.3125
0.3380527,-0.4853432,-0.12974785,-0.7827558,0.0006338693,0.0795644,-0.17134392,-0.40768915,-0.34144825,0.05996349,-3.0690544,0.6392476,-1.3795404e-05,-0.16307881,0.0394137,0.004577639,0.02618402,0.0054450207,-0.06963784,0.44512165,-1.3881967,1.9112157,-2.0882752,-1.5759748,2.4303055,-0.18914393,0.22499923,-0.29096147,0.071787715,-0.026925705,-0.11920915,-0.38307226,0.11492168,-9.595961,0.8985519,47.71017,-1.1540492,-1.739195,-3.354807,-7.1278773e-06,-0.22881055,-0.34276032,28.4375,29.625,28.875,32.875,35.25,36.3125
0.34005296,-0.9161193,-0.6228443,-0.5449,-0.023851952,0.09681656,-0.17323476,-0.40799636,-0.3413524,0.059943393,-3.0689037,0.63948137,-9.911074e-05,-0.16120054,0.03941412,0.0033069795,0.029703852,-0.0005555892,-0.06531057,0.44472638,-1.3877152,1.9106549,-2.0880935,-1.5760235,2.4300766,-0.18702057,0.22759245,-0.2925274,0.07766614,-0.027535236,-0.12140687,-0.4405331,0.038307227,-9.672575,0.8672237,47.67345,-1.1891749,-1.7545792,-3.364701,-0.022138678,-0.24315059,-0.36472416,28.4375,29.625,28.875,32.875,35.25,36.3125
0.3420526,-0.8010998,-0.70380664,-0.5824625,-0.0065412247,0.098842375,-0.16591975,-0.40835792,-0.34129602,0.060008056,-3.0688896,0.63970894,8.599803e-05,-0.16188927,0.039660797,0.0016651787,0.03145743,-0.0036918207,-0.06484657,0.44435433,-1.3873161,1.9100083,-2.0879614,-1.5760711,2.4298487,-0.18770105,0.23269688,-0.29509485,0.078693785,-0.027769094,-0.12255164,-0.40222588,0.019153614,-9.710882,0.9858343,47.674347,-1.3071127,-2.1489978,-3.4365487,-0.013838166,-0.25546944,-0.3876673,28.4375,29.625,28.875,32.875,35.25,36.3125
0.3440518,-0.5960412,0.029311422,-0.48302943,0.0057349307,0.07746523,-0.17173995,-0.40869474,-0.34121624,0.060000185,-3.0688043,0.63984114,0.00011879955,-0.16078609,0.040469404,0.00029971404,0.034029655,-0.009044205,-0.06014053,0.44397017,-1.3868238,1.9094228,-2.0878522,-1.5761312,2.4295588,-0.18798995,0.23488693,-0.2956078,0.0829104,-0.027812928,-0.12754622,-0.24899697,0.05746084,-9.557653,0.95226496,47.66987,-1.3982221,-2.1757076,-3.5246902,-0.037652455,-0.25827116,-0.3408181,28.4375,29.625,28.875,32.875,35.25,36.3125
0.34605184,0.45206487,0.72262394,-0.4078571,0.01076965,0.0632393,-0.18294036,-0.40903836,-0.3411294,0.060025238,-3.0687227,0.64003175,0.00015410951,-0.16046846,0.042867206,-0.0006884875,0.03801514,-0.01448857,-0.05525033,0.44356126,-1.386379,1.9088014,-2.0876706,-1.5761799,2.42928,-0.19092356,0.23631445,-0.2964701,0.08891777,-0.029105833,-0.13536325,-0.019153614,0.019153614,-9.519346,0.97240865,47.67614,-1.3572195,-2.1236064,-3.5567546,-0.11785735,-0.26981756,-0.26166284,28.4375,29.625,28.875,32.875,35.25,36.3125
0.34805197,0.93930537,0.9184811,-0.27150398,0.030262982,0.014440846,-0.18155813,-0.40934542,-0.34103993,0.06000149,-3.068576,0.64015067,0.000120086486,-0.16068247,0.04347297,-0.0007556206,0.03868634,-0.01607323,-0.04952518,0.44320077,-1.3858854,1.9082397,-2.0875146,-1.5762638,2.4290137,-0.1920181,0.23696303,-0.29768658,0.091145486,-0.02908084,-0.14218068,0.0,0.11492168,-9.385271,0.98135734,47.703903,-1.2134271,-2.236282,-3.6538534,-0.1344996,-0.27508837,-0.19172731,28.4375,29.625,28.875,32.875,35.25,36.3125
0.35005203,1.2473754,0.9484469,0.09815812,0.017714763,-0.0062036435,-0.18045,-0.4096848,-0.34095553,0.060008984,-3.0684886,0.64032215,0.000101784775,-0.16220465,0.043933608,-0.00021272434,0.039138738,-0.016920034,-0.04669968,0.44279224,-1.3854052,1.9076165,-2.0873334,-1.5762995,2.4287243,-0.19385971,0.23890686,-0.30207163,0.094503365,-0.029166168,-0.14684482,-0.17238252,0.076614454,-9.308657,0.9298854,47.677036,-1.2014594,-2.1114635,-3.525907,-0.17345041,-0.27077872,-0.07304793,28.4375,29.625,28.875,32.875,35.25,36.3125
0.35205194,1.7865071,0.7841333,-0.17100371,0.017053163,-0.017093292,-0.18659468,-0.41001013,-0.34086993,0.060019694,-3.0683532,0.6404479,0.0001263055,-0.16325517,0.04425278,0.00019499246,0.040131494,-0.016997619,-0.04843296,0.44243205,-1.3849363,1.9069942,-2.0871294,-1.5763963,2.428461,-0.19457334,0.24029984,-0.30524656,0.09676537,-0.030046418,-0.14581767,0.11492168,0.095768064,-9.251195,0.9030289,47.694946,-1.1812531,-2.0163736,-3.3615031,-0.19464883,-0.28047642,-0.082509354,28.4375,29.625,28.875,32.875,35.25,36.3125
0.35405236,0.8833493,-0.019329349,-0.21235406,0.022270652,-0.030028898,-0.16256139,-0.41036165,-0.34077784,0.060027067,-3.0682366,0.6405807,0.00012542073,-0.16482016,0.04479038,0.0010425228,0.04023601,-0.015738204,-0.053454097,0.4420232,-1.3844317,1.9063371,-2.0869257,-1.5764679,2.4281511,-0.19622514,0.24077478,-0.30814394,0.098093905,-0.030689193,-0.14244218,0.076614454,-0.019153614,-9.32781,0.947788,47.66271,-1.1215502,-1.97207,-3.358868,-0.2355721,-0.2853431,-0.078994155,28.4375,29.625,28.875,32.875,35.25,36.3125
0.35605234,0.8763558,0.18604726,0.11712537,-0.007676069,-0.00030705958,-0.177636,-0.4106835,-0.34069446,0.06005138,-3.068125,0.6407133,0.00016888029,-0.16617748,0.04558082,0.0010310534,0.040858895,-0.01672583,-0.061465137,0.44166267,-1.3839985,1.9057254,-2.0867212,-1.5765523,2.4278886,-0.19848186,0.24281706,-0.3110808,0.10015932,-0.03082197,-0.13668512,-0.05746084,0.05746084,-9.232041,0.9231726,47.65106,-0.998507,-2.0269935,-3.3330975,-0.26830846,-0.289045,-0.12280622,28.4375,29.625,28.875,32.875,35.25,36.3125
0.3580524,-0.03783296,-0.8569688,-0.022689002,-0.016783027,0.018605547,-0.15840138,-0.4110147,-0.3405915,0.060040798,-3.0679715,0.6409921,6.2343606e-05,-0.16842514,0.045924213,0.0023485438,0.038084846,-0.011973551,-0.06980661,0.44123,-1.3834946,1.9051045,-2.0864956,-1.576588,2.427651,-0.20105171,0.24142826,-0.31180897,0.0968092,-0.030355982,-0.13091262,-0.114921674,0.13407528,-9.232041,0.9298854,47.688675,-0.9926289,-1.8603656,-3.3254864,-0.28020447,-0.29067332,-0.20324633,28.4375,29.625,28.875,32.875,35.25,36.3125
0.36005235,0.13409698,-0.81151277,0.16075678,-0.039464403,0.06284015,-0.17471553,-0.4113331,-0.34051183,0.060042705,-3.0678654,0.64116484,3.9587467e-05,-0.1698696,0.046652142,0.0025835747,0.037371833,-0.011882973,-0.07633942,0.44085678,-1.3830256,1.9045066,-2.0863154,-1.5766362,2.4274,-0.20372297,0.24237008,-0.31368527,0.09736114,-0.02975219,-0.12705243,-0.21068975,0.19153613,-9.251195,0.9186956,47.683304,-0.865834,-1.9183146,-3.359343,-0.29338616,-0.31585276,-0.26554862,28.4375,29.625,28.875,32.875,35.25,36.3125
0.3620522,-0.43610802,-0.9507034,0.13322559,-0.040805575,0.07944652,-0.18241875,-0.41169286,-0.3404288,0.060058814,-3.0677803,0.6413997,5.3133914e-05,-0.17335308,0.046751786,0.0028892853,0.035076376,-0.0070157866,-0.082681954,0.440436,-1.3825327,1.903848,-2.0861375,-1.576672,2.4271376,-0.20657162,0.24485151,-0.31622988,0.092047475,-0.029765965,-0.12355625,-0.2681506,0.13407528,-9.32781,0.90750587,47.70032,-0.80107385,-1.7338438,-3.2525349,-0.24553382,-0.32541895,-0.2985769,28.4375,29.625,28.875,32.875,35.25,36.3125
0.3640784,-1.4437586,-0.9004559,0.14076568,-0.026049362,0.081878,-0.1745733,-0.41202113,-0.34032282,0.060048826,-3.0676064,0.64170814,-1.8661507e-05,-0.17260276,0.04622522,0.00041847888,0.036051873,-0.008311155,-0.0840241,0.4400169,-1.382039,1.9032401,-2.085924,-1.576732,2.4269347,-0.20463182,0.24848911,-0.31405008,0.087819345,-0.03010811,-0.12026937,-0.51714754,0.21068975,-9.3661175,0.9768804,47.657326,-0.8835437,-1.7418464,-3.4904103,-0.20300552,-0.3498014,-0.39321318,28.4375,29.625,28.875,32.875,35.25,36.3125
0.36610112,-1.3258185,-0.36399308,0.38919225,-0.016138745,0.10888119,-0.17738144,-0.4123574,-0.34024945,0.060042307,-3.0675151,0.641861,-5.166501e-05,-0.17426781,0.044850092,0.0017393575,0.033747945,-0.0027840955,-0.08376722,0.4396335,-1.3815222,1.9026073,-2.085758,-1.5767683,2.4266593,-0.2032376,0.24836001,-0.31619483,0.08410377,-0.030398529,-0.11912777,-0.7661445,0.22984336,-9.289502,0.9186956,47.647476,-1.0198829,-1.6985654,-3.5434575,-0.1323892,-0.35478002,-0.46264854,28.4375,29.625,28.875,32.875,35.25,36.3125
0.36810005,-1.4437035,0.020253163,0.17954475,-0.0042244988,0.1293334,-0.18271461,-0.4127099,-0.34015432,0.060036704,-3.067379,0.64213675,-6.026079e-05,-0.17520976,0.04359429,0.0024487518,0.032991353,0.0006117955,-0.08059971,0.43921432,-1.3810055,1.9019722,-2.0855906,-1.5768288,2.426431,-0.20113373,0.24917078,-0.31844085,0.08212072,-0.031185202,-0.12018419,-0.8619126,0.22984336,-9.212888,0.9947882,47.684196,-1.2979435,-1.6157882,-3.5076277,-0.09350233,-0.35803938,-0.48591453,28.4375,29.625,28.875,32.875,35.25,36.3125
0.37010002,-1.6220034,0.2627813,0.15476796,0.009659712,0.1267744,-0.18320903,-0.41307354,-0.34007353,0.06006036,-3.0672872,0.64236265,2.8809403e-05,-0.1762529,0.043756157,0.001690532,0.03445136,-0.00026237092,-0.07414619,0.4388182,-1.3805239,1.9013141,-2.0854352,-1.5769004,2.4261885,-0.20145783,0.252768,-0.32117942,0.08261487,-0.032174677,-0.12695524,-0.5554548,0.15322891,-9.251195,0.947788,47.69763,-1.349236,-1.7396208,-3.532642,-0.053518943,-0.37814605,-0.4578197,28.4375,29.625,28.875,32.875,35.25,36.3125
0.37209842,-1.0558612,0.119199984,0.18720931,0.0009935261,0.12173873,-0.18588611,-0.41343412,-0.34000334,0.06007853,-3.0672448,0.6424815,8.296423e-05,-0.17728204,0.044445515,0.001306298,0.03669394,-0.0006779009,-0.06437666,0.43842208,-1.3800306,1.900657,-2.0852907,-1.5769376,2.4258726,-0.2021124,0.25523263,-0.32359225,0.08381634,-0.034082994,-0.13736762,-0.4213795,0.1340753,-9.212888,0.9567419,47.66808,-1.3811221,-1.7748798,-3.5306127,-0.07111853,-0.37330428,-0.4156468,28.4375,29.625,28.875,32.875,35.25,36.3125
0.37405744,-0.505085,0.061776977,0.099300854,-0.00075287593,0.098747335,-0.18676557,-0.41380116,-0.33988234,0.060063433,-3.0670555,0.64274573,8.653814e-05,-0.17882411,0.04647823,0.0003535496,0.04030844,-0.0011365113,-0.059140854,0.43797716,-1.3794892,1.900011,-2.085111,-1.5770463,2.4256184,-0.20475599,0.25798616,-0.32488126,0.084232196,-0.0372183,-0.14522475,-0.4405331,0.22984336,-9.212888,0.9925471,47.686886,-1.365586,-1.9130831,-3.543036,-0.049908906,-0.33198118,-0.28989735,28.4375,29.625,28.875,32.875,35.25,36.3125
