Tylouw/Master_Thesis_Code/training_data/batch_1/small_rod_t0.3/sample_81_session_3.csv
timestamp[s],tcp_force_x[N],tcp_force_y[N],tcp_force_z[N],tcp_force_rx[Nm?],tcp_force_ry[Nm?],tcp_force_rz[Nm?],tcp_pose_x[m],tcp_pose_y[m],tcp_pose_z[m],tcp_pose_rx[rot_vec_x],tcp_pose_ry[rot_vec_y],tcp_pose_rz[rot_vec_z],tcp_velo_x[m/s],tcp_velo_y[m/s],tcp_velo_z[m/s],tcp_velo_rx[rot_vec_x/s],tcp_velo_ry[rot_vec_y/s],tcp_velo_rz[rot_vec_z/s],q1[rad],q2[rad],q3[rad],q4[rad],q5[rad],q6[rad],qd1[rad/s],qd2[rad/s],qd3[rad/s],qd4[rad/s],qd5[rad/s],qd6[rad/s],tool_acc_x,tool_acc_y,tool_acc_z,current_of_whole_robot[A],voltage_of_whole_robot[V],current_J1[A],current_J2[A],current_J3[A],current_J4[A],current_J5[A],current_J6[A],temp_J1[C],temp_J2[C],temp_J3[C],temp_J4[C],temp_J5[C],temp_J6[C]
8.3100167e-07,-0.09683178,-0.71045524,0.26431775,-0.024624964,0.027700495,-0.018007068,-0.38104755,-0.34853965,0.05996733,-3.078545,0.62484455,-0.0001722186,0.0016028292,0.0007886646,-0.0012930048,0.0016611723,-0.0034658983,-0.0002740694,0.47782207,-1.425946,1.9577388,-2.1008565,-1.5707458,2.452752,0.0,-9.078654e-06,0.0027040432,0.0011462185,0.00012719065,0.00027225039,0.05746084,0.15322891,-8.772355,0.75084364,47.693153,-0.030314084,-2.7864776,-2.3555312,-0.44009966,0.1490579,0.19125201,28.625,29.6875,28.9375,33.0,35.375,36.4375
0.002055844,-0.20516327,-0.24018304,0.31364846,-0.024707777,0.01721994,-0.016226918,-0.38104096,-0.34854558,0.059975218,-3.0785408,0.62482417,-0.00015954829,0.00011771426,1.5094242e-05,-0.0031689825,-0.0003391031,0.00036185328,-0.00026229257,0.47784615,-1.4259566,1.9577283,-2.1008365,-1.5707573,2.452764,0.0,0.0035602448,0.005311878,-0.009349811,0.00012467611,0.0002618354,0.019153614,0.17238252,-8.791509,0.7463667,47.690468,-0.043387026,-2.7975616,-2.5072305,-0.40231115,0.17023194,0.19603401,28.625,29.6875,28.9375,33.0,35.375,36.4375
0.004054941,0.12970646,-0.30197796,0.38223168,-0.021622859,0.024122091,-0.015852349,-0.38107735,-0.34853297,0.05996591,-3.078536,0.62484276,-0.00013101027,-0.0011228902,-0.00063047267,-0.0028108067,-0.0019189308,0.0033981588,-0.000249208,0.4777981,-1.4259084,1.957703,-2.1008728,-1.5707697,2.4527283,0.0,0.0041691368,0.004541742,-0.012611274,0.00012225662,0.00024989728,0.095768064,0.1340753,-8.772355,0.7777002,47.69763,-0.0216496,-3.161455,-2.691268,-0.29852587,0.1429339,0.1964914,28.625,29.6875,28.9375,33.0,35.375,36.4375
0.006055114,-0.124129646,-0.014086064,0.1194912,-0.0032309273,0.00026255558,-0.018848008,-0.38105017,-0.34853914,0.059928868,-3.0785096,0.6247796,-0.00020570519,-0.00039827614,-0.00025177436,-0.0017043811,-0.0008617515,0.0013829581,-0.000268141,0.47783422,-1.4258612,1.9577388,-2.1008947,-1.5707697,2.4527283,0.0,0.0022784148,0.0028305596,-0.006733716,0.00011992921,0.0002682108,0.019153614,0.17238252,-8.7532015,0.7620334,47.723602,-0.057470623,-3.056385,-2.6337633,-0.3166566,0.15413892,0.20378023,28.625,29.6875,28.9375,33.0,35.375,36.4375
0.008054367,0.35929963,0.5133116,-0.25409245,0.030126281,-0.021423196,-0.012560908,-0.38105014,-0.34853476,0.0599424,-3.0785122,0.6247992,-0.00016320417,-0.0005239804,-0.0003162066,-0.0004199175,-0.0008678956,0.0014070894,-0.00026591503,0.47783422,-1.4258977,1.9577492,-2.1008937,-1.5707816,2.4527402,0.0,0.0009187252,0.00064326957,-0.003210975,0.00011768893,0.00026617447,0.0,0.11492168,-8.848969,0.7351769,47.674347,-0.0461467,-2.987362,-2.4878666,-0.37336826,0.15414035,0.18925399,28.625,29.6875,28.9375,33.0,35.375,36.4375
0.010054657,0.80319136,0.58112687,-0.78319424,0.027780307,-0.001158808,-0.02140771,-0.38106102,-0.348529,0.059929624,-3.0785193,0.62478137,-0.00021739081,-0.0004445628,-0.00027366192,0.00030015805,-0.0009456233,0.0015674965,-0.00025592014,0.4777981,-1.4258622,1.9577378,-2.1008933,-1.5707573,2.452692,0.0,-0.0003100205,1.6332411e-05,-0.0015334692,0.000115530675,0.00025596516,0.076614454,0.21068975,-9.078813,0.7597976,47.650166,-0.701143,-2.4901133,-2.7978477,-0.42545778,0.16562063,0.09057506,28.625,29.6875,28.9375,33.0,35.375,36.4375
0.012054838,0.2085165,-0.13931094,-1.0415118,-0.025491368,0.0071982783,-0.022056518,-0.38104507,-0.34851393,0.059912592,-3.0784817,0.6248129,-0.00027696096,-8.239254e-05,7.383924e-05,-0.00082935544,0.00044511602,-0.0011353102,-0.00032293756,0.47778606,-1.4258616,1.9577731,-2.1008804,-1.5707573,2.4527044,-0.00029023242,0.001775236,2.1912011e-07,-0.00056306476,0.00012547811,3.287146e-05,0.17238252,0.15322891,-9.32781,0.7978386,47.7245,-0.8301101,-2.512557,-2.9204836,-0.4497923,0.18872777,0.062309206,28.625,29.6875,28.9375,33.0,35.375,36.4375
0.01405496,-0.867657,-1.6862954,-1.186356,-0.057636555,0.020245757,-0.0146767255,-0.38103664,-0.34854263,0.059904817,-3.078482,0.62481475,-0.00033550183,-0.0039662113,0.005781076,-0.006074004,0.0051958095,-0.010353301,-0.0059634834,0.4778293,-1.4258096,1.9577264,-2.100857,-1.5707334,2.4527488,-0.014048588,0.012328581,2.939776e-09,-0.0007471963,0.00014233006,-0.008083259,0.038307227,0.095768064,-9.519346,0.8157518,47.666286,-0.28920782,-3.067336,-2.9839504,-0.4734717,0.20591037,0.030022357,28.625,29.6875,28.9375,33.0,35.375,36.4375
0.016055392,-1.1256715,-2.0497794,-1.1922573,-0.08668842,0.047356173,-0.024485832,-0.38104132,-0.34849575,0.05988437,-3.0784225,0.62484086,-0.00037998226,-0.006220466,0.0046602944,-0.0035402968,0.0007678733,-0.005326605,-0.0032043906,0.47775686,-1.4258106,1.9577717,-2.100846,-1.5707568,2.4527001,-0.015188225,0.010458932,-0.0033719349,-0.0020120272,0.0017501024,-0.011983404,-0.22984336,0.21068975,-9.634268,0.70608455,47.690468,-0.35079378,-2.974598,-2.9467835,-0.4740209,0.22010621,0.08218801,28.625,29.6875,28.9375,33.0,35.375,36.4375
0.01805467,-1.7874323,-1.8396673,-1.1883118,-0.07178935,0.062261023,-0.029063638,-0.38106054,-0.34850392,0.059897993,-3.0784543,0.6248083,-0.00036452184,-0.006049427,0.0031682437,-0.0021081148,-0.0037972166,-0.0039198697,-0.002487124,0.47774518,-1.4257994,1.9577249,-2.1008337,-1.5707439,2.4526641,-0.014588582,0.008011131,-0.0037304305,-0.0025661238,0.005155418,-0.0121075045,-0.5363012,0.24899697,-9.653421,0.80456203,47.696735,-0.5920598,-2.7115278,-2.9995835,-0.5084722,0.20100358,0.039455116,28.625,29.6875,28.9375,33.0,35.375,36.4375
0.020054717,-1.5656726,-0.86240077,-1.4950637,-0.037714526,0.09009216,-0.05270676,-0.38105068,-0.3484939,0.059871882,-3.0784483,0.62478966,-0.00044662794,-0.006450581,0.0036981942,-0.002853825,-0.005331748,-0.0058894297,-0.0052167815,0.47772008,-1.425775,1.9577597,-2.100846,-1.5707186,2.4526281,-0.017376624,0.009007606,-0.0030065952,-0.0032507095,0.0074230293,-0.012170581,-0.61291564,0.17238252,-9.787497,0.7463667,47.689575,-0.66559374,-2.6701021,-3.1886208,-0.50783443,0.19185176,-0.005659638,28.625,29.6875,28.9375,33.0,35.375,36.4375
0.02205445,-1.5050969,0.16695037,-1.5792317,-0.01963406,0.099820554,-0.065586664,-0.38107538,-0.34848818,0.05987942,-3.0784574,0.62486863,-0.00045830742,-0.007121939,0.003993004,-0.0036614675,-0.0060834573,-0.0072386507,-0.0059497408,0.4776715,-1.4257624,1.9577254,-2.1008341,-1.5706948,2.4526277,-0.019357547,0.010971899,-0.003187216,-0.0041858978,0.0087077385,-0.013420351,-0.57460845,0.1340753,-9.864111,0.7150385,47.71286,-0.6382301,-2.7408624,-3.338446,-0.5118073,0.18138161,-0.013263693,28.625,29.6875,28.9375,33.0,35.375,36.4375
0.024055235,-2.0387583,-0.07334232,-1.3919021,-0.01473701,0.082344145,-0.07161063,-0.38108334,-0.3484613,0.05984467,-3.0783832,0.62496835,-0.0005338543,-0.00804808,0.003052579,-0.0030599667,-0.008644004,-0.0057655447,-0.0050017205,0.4776235,-1.4257023,1.9577364,-2.1008346,-1.5707058,2.4526513,-0.019575968,0.011435049,-0.0047813915,-0.00554577,0.010296312,-0.014589423,-0.7278373,-0.038307227,-9.864111,0.8560339,47.721813,-0.6699133,-2.6171274,-3.3836167,-0.50744396,0.16082093,-0.0028017154,28.625,29.6875,28.9375,33.0,35.375,36.4375
0.026055116,-1.93417,-0.48870412,-1.4158071,-0.014526286,0.07787907,-0.08556257,-0.38110018,-0.34848475,0.059857626,-3.0784976,0.6249345,-0.000569508,-0.009863985,0.001907916,-0.0025496557,-0.0119828945,-0.004013976,-0.0053633326,0.477587,-1.4257016,1.9577116,-2.1008594,-1.5706095,2.452579,-0.020619072,0.013356166,-0.007648142,-0.007696454,0.012445754,-0.015272405,-0.6895301,-0.095768064,-9.883265,0.7083204,47.687782,-0.7424138,-2.6248436,-3.3165936,-0.5134921,0.13679834,-0.04043823,28.625,29.6875,28.9375,33.0,35.375,36.4375
0.0280553,-2.016623,-0.42201644,-1.4522696,-0.029137656,0.068325005,-0.09874464,-0.38110614,-0.3484835,0.059834767,-3.07846,0.6249655,-0.0006001591,-0.010826379,0.0013945195,-0.0019713843,-0.013456971,-0.0023047626,-0.004949869,0.47758693,-1.4256417,1.9576982,-2.1008713,-1.5706214,2.452603,-0.02093337,0.01362861,-0.009035024,-0.008779606,0.012962901,-0.016000662,-0.6512228,-0.019153614,-9.80665,0.7486078,47.661808,-0.75035614,-2.6021214,-3.2429957,-0.5143849,0.12962458,-0.04817719,28.625,29.6875,28.9375,33.0,35.375,36.4375
0.030054992,-1.7050946,-0.28460577,-1.5228556,-0.047488328,0.06493927,-0.11342113,-0.38112414,-0.34846324,0.05982718,-3.0784678,0.62500554,-0.0005993224,-0.011332146,0.0019911954,-0.0025446091,-0.012669139,-0.0035018618,-0.005603537,0.4775265,-1.4256411,1.957723,-2.100907,-1.5706095,2.4525666,-0.022364944,0.015160492,-0.009568156,-0.00835158,0.012813233,-0.016777713,-0.68953013,-0.1340753,-9.883265,0.8112748,47.677036,-0.87767804,-2.6269646,-3.3678312,-0.52425927,0.12525445,-0.057410408,28.625,29.6875,28.9375,33.0,35.375,36.4375
0.032054856,-1.9473675,-0.42500848,-1.3453691,-0.023199458,0.05775275,-0.118210904,-0.3811526,-0.3484707,0.059829302,-3.078501,0.62499356,-0.00063199067,-0.013123374,0.0022479172,-0.0014997871,-0.013387549,-0.0010790448,-0.005873473,0.4774898,-1.4255933,1.957661,-2.1008956,-1.5705732,2.4525182,-0.024164587,0.015065087,-0.01181729,-0.008486148,0.012332113,-0.018305294,-0.6703765,-0.076614454,-9.864111,0.7597976,47.72629,-0.81711876,-2.5063384,-3.3559566,-0.5325128,0.12984535,-0.07140905,28.625,29.6875,28.9375,33.0,35.375,36.4375
0.034055106,-1.6101328,-0.24256057,-1.3313075,-0.002908817,0.07550861,-0.12968269,-0.3811734,-0.34848076,0.059835277,-3.0785656,0.6250059,-0.0005934953,-0.014712561,0.0022444932,-0.0013456066,-0.01448547,0.000401057,-0.0063656736,0.47746527,-1.4255927,1.9576606,-2.1009562,-1.5705374,2.4524932,-0.025815973,0.016416552,-0.0133333905,-0.010140636,0.012620754,-0.019462971,-0.61291564,-0.038307227,-9.787497,0.74413085,47.71286,-0.82728434,-2.5325725,-3.2695289,-0.5252285,0.14666209,-0.07518599,28.625,29.6875,28.9375,33.0,35.375,36.4375
0.036054708,-1.8665023,0.2486153,-1.4732786,-0.0012394799,0.07679001,-0.1614848,-0.38119286,-0.34845915,0.05981556,-3.0785403,0.62507826,-0.00067581877,-0.016088828,0.0021742254,-0.0005306302,-0.016505254,0.0026092546,-0.0069525964,0.47739267,-1.425545,1.9576486,-2.1009448,-1.5705127,2.4524689,-0.027464734,0.01594827,-0.014341439,-0.011554961,0.013393785,-0.0205262,-0.47884035,0.0,-9.672575,0.79560274,47.72719,-0.74873495,-2.4863536,-3.3216236,-0.5065869,0.14273037,-0.11252602,28.625,29.6875,28.9375,33.0,35.375,36.4375
0.038054585,-1.7142568,-0.17240322,-1.394439,-0.0030046832,0.07918915,-0.16648388,-0.38125804,-0.3484566,0.059830874,-3.0785751,0.6251436,-0.00061426515,-0.017417096,0.0023862428,-1.2022883e-05,-0.01749762,0.0039010285,-0.0073587275,0.47732005,-1.4254969,1.9575642,-2.1009686,-1.5705007,2.4524326,-0.029251318,0.016193284,-0.015693516,-0.012050862,0.01367911,-0.02190557,-0.4405331,0.0,-9.691729,0.74413085,47.687782,-0.7718116,-2.4393327,-3.2388208,-0.5125135,0.13706908,-0.12815022,28.625,29.6875,28.9375,33.0,35.375,36.4375
0.040054798,-0.92257476,0.08521156,-1.0720905,-0.036430907,0.08546977,-0.19542132,-0.3812792,-0.34845766,0.059824686,-3.0786004,0.62520695,-0.0006609821,-0.018651731,0.002641774,0.0005384387,-0.018695261,0.005325152,-0.00803415,0.47727138,-1.4254612,1.9575404,-2.100981,-1.570453,2.4524202,-0.031108962,0.016026372,-0.01659068,-0.012801503,0.014085147,-0.023087978,-0.38307226,0.095768064,-9.634268,0.7553206,47.69763,-0.7762123,-2.423561,-3.2824981,-0.5104394,0.13288721,-0.1421397,28.625,29.6875,28.9375,33.0,35.375,36.4375
0.04205446,-0.86908275,-0.91529495,-1.1334639,-0.02583021,0.06206532,-0.20336659,-0.38134456,-0.34845808,0.05986089,-3.0786622,0.62514246,-0.0004790794,-0.01975033,0.0030603006,0.0007458382,-0.018993128,0.006062485,-0.008240053,0.47723493,-1.4254609,1.9574684,-2.1010292,-1.5704888,2.4523358,-0.032816503,0.01651407,-0.017546132,-0.013125387,0.014011057,-0.02458717,-0.4213795,0.05746084,-9.557653,0.779936,47.677036,-0.7979363,-2.4056828,-3.2846544,-0.51773983,0.14420664,-0.14553612,28.625,29.6875,28.9375,33.0,35.375,36.4375
0.04405522,-0.78820896,-0.2432591,-1.2538394,-0.046293613,0.038496755,-0.21565051,-0.38135612,-0.34844732,0.05983107,-3.0786748,0.6252221,-0.0006356471,-0.021078544,0.003228048,0.001003429,-0.020251445,0.006957292,-0.00885963,0.47715026,-1.4254007,1.9574679,-2.1010292,-1.5704044,2.452299,-0.03479657,0.017217174,-0.018735833,-0.014010559,0.014712525,-0.025948897,-0.2681506,0.11492168,-9.691729,0.8314132,47.661808,-0.7765107,-2.428306,-3.2116313,-0.5241816,0.11562573,-0.1994975,28.625,29.6875,28.9375,33.0,35.375,36.4375
0.046054512,-0.40265182,-0.46218267,-1.0824003,-0.03626294,0.04065671,-0.21028565,-0.38141924,-0.34840775,0.059833296,-3.0786726,0.62529844,-0.0005794503,-0.022117395,0.0040183566,0.0014251308,-0.020480746,0.008392043,-0.0089965975,0.4770296,-1.4253771,1.9574441,-2.101065,-1.5704168,2.4522264,-0.036860127,0.016494246,-0.018724054,-0.014675799,0.014258137,-0.02787413,-0.19153613,0.11492168,-9.615114,0.7665104,47.66987,-0.7437841,-2.3268528,-3.3540146,-0.51658416,0.12469748,-0.2131374,28.625,29.6875,28.9375,33.0,35.375,36.4375
0.04805438,-0.9552727,-1.2110363,-1.1651845,-0.006979988,0.023121351,-0.1711163,-0.38144827,-0.34842658,0.059826877,3.078721,-0.62532794,0.00056799484,-0.02329904,0.004307952,0.0013660005,-0.020685798,0.00927925,-0.008886113,0.47700492,-1.4253289,1.9574202,-2.1011379,-1.5703686,2.452214,-0.038316146,0.0176367,-0.019639367,-0.015782362,0.014029769,-0.029438684,0.0,0.095768064,-9.519346,0.7463667,47.66091,-0.8013246,-2.3879542,-3.2655258,-0.5099552,0.14081363,-0.20352606,28.625,29.6875,28.9375,33.0,35.375,36.4375
0.050054733,-0.40471104,-0.23006631,-1.0872244,-0.017619869,0.03738694,-0.18211047,-0.38152754,-0.34839994,0.05985212,3.0786722,-0.6253749,0.00049345585,-0.024811117,0.0046525057,0.0021552301,-0.021546867,0.011113596,-0.00843977,0.47688428,-1.425305,1.9573354,-2.1011379,-1.5703686,2.452129,-0.040267397,0.017467886,-0.021178402,-0.0160969,0.013952158,-0.03183448,-0.038307227,0.15322891,-9.481039,0.7620334,47.68062,-0.73202825,-2.218903,-3.2380607,-0.5074419,0.12396132,-0.24572599,28.625,29.6875,28.9375,33.0,35.375,36.4375
0.052054416,-0.6237733,-0.3334809,-1.1330272,-0.012075725,0.033174176,-0.18107092,-0.38157958,-0.34841064,0.059847992,3.0786104,-0.625343,0.0004840808,-0.026191518,0.004650387,0.0024923014,-0.0225321,0.012097148,-0.007472768,0.47682387,-1.4252325,1.9572757,-2.1011975,-1.5703205,2.4520564,-0.041807123,0.01849897,-0.023003729,-0.016627127,0.014373189,-0.03434006,0.0,0.21068975,-9.481039,0.7217513,47.66808,-0.7185724,-2.2947783,-3.194916,-0.49816847,0.11597819,-0.24540125,28.625,29.6875,28.9375,33.0,35.375,36.4375
0.05405513,-0.8139261,-0.8987869,-1.345984,-0.01401385,0.024519186,-0.16415346,-0.3816172,-0.34839568,0.059854772,3.0785754,-0.62537366,0.0005188666,-0.026669234,0.0052369446,0.002061965,-0.02200094,0.011487538,-0.006339675,0.47673935,-1.4252082,1.9572271,-2.1011736,-1.5702847,2.4519954,-0.043162413,0.019455347,-0.02309327,-0.01670465,0.014181997,-0.036827914,0.038307227,0.17238252,-9.442732,0.76874626,47.670765,-0.7593739,-2.324717,-3.2164283,-0.48390543,0.12543899,-0.23299462,28.625,29.6875,28.9375,33.0,35.375,36.4375
0.056054804,-0.5180015,-0.97585803,-1.2035,-0.02616609,0.02888244,-0.16162898,-0.38168555,-0.3483617,0.059882045,3.0785306,-0.6253829,0.00037821702,-0.027093975,0.005472225,0.0023166267,-0.022450479,0.011571859,-0.005564457,0.47663102,-1.4252324,1.9572033,-2.1012218,-1.5703081,2.4518986,-0.044203263,0.019254358,-0.023524035,-0.016354172,0.014548238,-0.038643066,-0.019153614,0.19153613,-9.385271,0.78888994,47.672558,-0.77905667,-2.197925,-3.2375555,-0.4836573,0.107436195,-0.25192234,28.625,29.6875,28.9375,33.0,35.375,36.4375
0.05805444,-0.35511157,-0.9855287,-1.0257322,-0.032224562,0.02306404,-0.17405374,-0.3817194,-0.3483583,0.059870403,3.0785038,-0.62537664,0.00041380493,-0.027742429,0.0055453116,0.0025598817,-0.022378853,0.011927597,-0.0043751374,0.47657076,-1.4251722,1.9571666,-2.1012447,-1.5702728,2.4518378,-0.04478016,0.019796742,-0.024803288,-0.015896887,0.014320787,-0.040408306,-0.05746084,0.17238252,-9.423578,0.7978386,47.661808,-0.84186846,-2.2446322,-3.1678112,-0.49585423,0.116826236,-0.2649212,28.625,29.6875,28.9375,33.0,35.375,36.4375
0.060054958,-0.1693439,-0.99316734,-0.981105,-0.02342162,0.024411635,-0.1719692,-0.38179192,-0.34834194,0.05988224,3.0784667,-0.6254459,0.00037097614,-0.028462179,0.005700473,0.002465462,-0.022441173,0.011523182,-0.0034636885,0.47647434,-1.4251119,1.9570707,-2.1012447,-1.5702723,2.4517894,-0.0458703,0.021039529,-0.026091179,-0.015519803,0.014563119,-0.042408984,0.019153614,0.21068975,-9.3661175,0.75084364,47.64837,-0.9006733,-2.1982872,-3.1583009,-0.48241183,0.109427154,-0.26755583,28.625,29.6875,28.9375,33.0,35.375,36.4375
0.062054463,-0.26303473,-0.20633255,-1.0241773,-0.02981076,0.023651712,-0.1750909,-0.38185725,-0.34833446,0.059879337,3.0783823,-0.62542796,0.00038330178,-0.029203132,0.0059908037,0.0023939447,-0.022663461,0.011539453,-0.0025239803,0.47635403,-1.4250519,1.9570225,-2.1013048,-1.5702003,2.4516685,-0.047186535,0.021832893,-0.026784005,-0.0157317,0.014755743,-0.044663996,-0.05746084,0.19153613,-9.32781,0.7665104,47.689575,-0.9178257,-2.1925046,-3.2151222,-0.47947043,0.12185431,-0.29299903,28.625,29.6875,28.9375,33.0,35.375,36.4375
0.06405531,-0.42312172,-0.72238266,-1.0828458,-0.012624901,0.027862519,-0.16210008,-0.38191262,-0.3483315,0.059902254,3.078319,-0.6254146,0.0003187539,-0.02957069,0.005466282,0.0029500283,-0.024263568,0.012072633,-0.0010579985,0.47628188,-1.4250399,1.956962,-2.1013286,-1.570176,2.451596,-0.04735278,0.021612512,-0.027810333,-0.015693882,0.015936058,-0.046296317,-0.05746084,0.21068975,-9.308656,0.842603,47.709274,-1.0037007,-2.1545265,-3.1684518,-0.46733722,0.11078136,-0.2854577,28.625,29.6875,28.9375,33.0,35.375,36.4375
0.06605451,-0.80998623,-0.9808829,-0.965329,-0.00097354216,0.035026707,-0.16088928,-0.38197273,-0.34831062,0.05989843,3.078275,-0.62542456,0.0002993037,-0.030474406,0.005425185,0.0030455857,-0.025365446,0.012243117,-0.0014360714,0.4761735,-1.4249916,1.9569267,-2.1013772,-1.5701517,2.4514995,-0.048691384,0.02251904,-0.02897084,-0.016096486,0.016837915,-0.047256697,-0.15322891,0.11492168,-9.32781,0.73069996,47.63404,-1.0330813,-2.1542182,-3.1412375,-0.45194492,0.110694505,-0.29322734,28.625,29.6875,28.9375,33.0,35.375,36.4375
0.06805453,-1.0941075,-0.5484364,-0.96401083,-0.009637853,0.039614443,-0.17317836,-0.3820412,-0.34829396,0.05990474,3.0782235,-0.6254316,0.00026364537,-0.03062774,0.0057056923,0.0024331636,-0.024857882,0.010752302,0.00085184607,0.47606525,-1.4249432,1.9568652,-2.1014125,-1.5701278,2.4514022,-0.04947742,0.024006143,-0.029377181,-0.0156160295,0.017075473,-0.050329804,-0.17238252,0.076614454,-9.32781,0.7620334,47.667187,-1.140434,-2.2297642,-3.167831,-0.4551798,0.09578894,-0.33422992,28.625,29.6875,28.9375,33.0,35.375,36.4375
0.07005511,-0.6409814,-0.63538057,-1.0061914,-0.011029527,0.053679094,-0.1710551,-0.38207254,-0.34830722,0.0599064,3.078175,-0.6253059,0.00033407126,-0.031183952,0.0057267207,0.0020262217,-0.024834925,0.010104187,0.001994064,0.4760051,-1.4248947,1.9568061,-2.1014125,-1.5700434,2.4512696,-0.0502025,0.025722736,-0.030376717,-0.015741179,0.017351722,-0.052196484,-0.17238252,0.1340753,-9.404425,0.8090337,47.67614,-1.1314534,-2.2030041,-3.1625056,-0.44840014,0.1087197,-0.3246351,28.625,29.6875,28.9375,33.0,35.375,36.4375
0.07205457,-1.0270551,-0.5560596,-0.9028331,-0.015147154,0.047031976,-0.16754466,-0.38216868,-0.34828946,0.059913684,3.0781333,-0.6253562,0.0002743729,-0.03163566,0.005677982,0.0021374354,-0.025073098,0.010533122,0.00055815536,0.47588485,-1.4247987,1.9566854,-2.1014369,-1.5700434,2.4511862,-0.050531916,0.026130801,-0.03104588,-0.015969044,0.017369708,-0.051088728,-0.19153613,0.11492168,-9.442732,0.71951014,47.72002,-1.2799214,-2.1452067,-3.153081,-0.46672827,0.09434138,-0.35833326,28.625,29.6875,28.9375,33.0,35.375,36.4375
0.07405446,-0.95800304,-0.57509905,-0.91821986,-0.01992281,0.051926974,-0.17208952,-0.3822188,-0.34827593,0.059928633,3.078069,-0.62532496,0.0002898221,-0.032986347,0.0065297796,0.0024533246,-0.026340587,0.010847171,-0.0003175974,0.47577563,-1.4247868,1.9566377,-2.1014369,-1.5699834,2.4510655,-0.05392167,0.026007937,-0.031580504,-0.016168322,0.018355733,-0.053603012,-0.21068975,0.095768064,-9.461885,0.8247004,47.704796,-1.2367487,-2.1914048,-3.1513805,-0.46427524,0.0937304,-0.39163268,28.625,29.6875,28.9375,33.0,35.375,36.4375
0.07605535,-1.1144681,-0.44856626,-0.9110869,-0.018806001,0.045208063,-0.16864951,-0.3823049,-0.34827533,0.05994544,3.0779703,-0.62534046,0.00016820473,-0.033805918,0.006246501,0.0030450409,-0.027629768,0.012439895,0.0033432313,0.47567946,-1.424739,1.9565667,-2.1015327,-1.569959,2.4509916,-0.05443538,0.02581545,-0.032510743,-0.017047627,0.018778438,-0.05777522,-0.24899697,0.1340753,-9.404425,0.71951014,47.723602,-1.248828,-2.1000195,-3.1013787,-0.46493155,0.0987795,-0.35748848,28.625,29.6875,28.9375,33.0,35.375,36.4375
0.078054994,-0.56756717,-0.37033665,-0.8657849,-0.022125125,0.06115903,-0.17472182,-0.3823459,-0.34822688,0.05991173,3.078013,-0.62534654,0.00028213862,-0.034061123,0.006200977,0.0025135805,-0.026603332,0.012160047,0.00702883,0.4755478,-1.4246546,1.9565419,-2.1015089,-1.5699471,2.4508584,-0.05407288,0.027572494,-0.03323538,-0.017353091,0.017991023,-0.06109827,-0.19153613,0.13407528,-9.385271,0.8247004,47.678825,-1.4737767,-2.1173527,-3.21622,-0.44326335,0.09886904,-0.33866122,28.625,29.6875,28.9375,33.0,35.375,36.4375
0.08005485,-0.6015471,-0.1436801,-0.9965446,-0.024944387,0.064533286,-0.17270675,-0.38242218,-0.34823567,0.059941206,3.0778897,-0.62528425,0.00023285263,-0.0353593,0.0071205716,0.0018823002,-0.026655788,0.011534069,0.004933186,0.47543874,-1.4246299,1.9564575,-2.101557,-1.5698632,2.450726,-0.057111092,0.029413903,-0.03370087,-0.018189896,0.018330721,-0.062038574,-0.21068975,0.019153614,-9.346964,0.779936,47.675243,-1.4254701,-2.1936405,-3.1491456,-0.4445024,0.10729152,-0.3841067,28.625,29.6875,28.9375,33.0,35.375,36.4375
0.08205492,-1.5249296,-0.7180938,-1.1071166,-0.0065741977,0.048794195,-0.16476119,-0.38247868,-0.3482167,0.05994435,3.0778863,-0.62522674,0.00020405927,-0.03712835,0.0087048,0.0019476587,-0.026943367,0.0116173355,0.004386702,0.47535303,-1.4245819,1.9563984,-2.1015694,-1.5698632,2.450605,-0.06168952,0.029724333,-0.034202784,-0.01820029,0.018552313,-0.06607002,-0.21068975,0.019153614,-9.3661175,0.8157518,47.704796,-1.2423936,-2.1954222,-3.1469822,-0.4408607,0.12538789,-0.33693486,28.625,29.6875,28.9375,33.0,35.375,36.4375
0.08405494,-0.45846507,-0.23313148,-0.988776,-0.025431225,0.06794705,-0.17271477,-0.38255024,-0.34819955,0.059939433,3.077849,-0.6251575,0.0001955478,-0.037455328,0.008249534,0.0017820011,-0.02657995,0.01170957,0.009813403,0.47523344,-1.4245094,1.9563378,-2.101617,-1.5698274,2.4504468,-0.060936294,0.031310014,-0.035616986,-0.018277952,0.018190965,-0.070741504,-0.2681506,0.038307227,-9.461885,0.77545905,47.698532,-1.3392241,-2.2457914,-3.1234288,-0.43363637,0.1137331,-0.3208452,28.625,29.6875,28.9375,33.0,35.375,36.4375
0.086054526,-1.8017088,-0.7365197,-0.8815656,-0.01792323,0.03547867,-0.1563801,-0.38264263,-0.3481726,0.0599338,3.0777776,-0.6251413,0.00014394989,-0.038348824,0.008271037,0.001290262,-0.02727878,0.011198502,0.012405824,0.47507706,-1.4244368,1.9562896,-2.101713,-1.5697912,2.4502895,-0.062341288,0.033337805,-0.036602005,-0.01918035,0.019052675,-0.074737445,-0.30645782,0.11492168,-9.442732,0.7732232,47.704796,-1.4491143,-2.259581,-3.0737066,-0.43138504,0.13042256,-0.2832794,28.625,29.6875,28.9375,33.0,35.375,36.4375
0.088054426,-1.0686988,-0.59634507,-1.0172194,-0.01946242,0.05775948,-0.16621932,-0.38273782,-0.34817117,0.0599684,3.077678,-0.62514096,7.5177144e-05,-0.039249636,0.010017335,0.00047935089,-0.026983747,0.009848264,0.012703421,0.4749554,-1.4243886,1.9561585,-2.1017253,-1.5697426,2.4501803,-0.06649571,0.033951495,-0.03532475,-0.019727113,0.019421894,-0.07918841,-0.34476504,0.11492168,-9.423578,0.85155696,47.677036,-1.2803506,-2.278898,-3.2579212,-0.40678567,0.1342352,-0.22139978,28.625,29.6875,28.9375,33.0,35.375,36.4375
0.09005517,-0.9364651,-0.61154634,-0.91428226,-0.012663384,0.061723292,-0.16584398,-0.38278925,-0.34816995,0.059961658,3.0776415,-0.6249967,0.00013006238,-0.04048378,0.009500069,0.0017787219,-0.02908502,0.011905692,0.016095538,0.47485918,-1.4243169,1.9560975,-2.1017492,-1.5696706,2.4499986,-0.06730319,0.0333481,-0.03763363,-0.019597223,0.02035107,-0.083387494,-0.2681506,0.038307227,-9.385271,0.75755644,47.67793,-1.3160641,-2.2067633,-3.2146657,-0.40636426,0.11395837,-0.20731312,28.625,29.6875,28.9375,33.0,35.375,36.4375
0.09205532,-1.1154187,0.07047677,-0.80526465,-0.025071628,0.058857575,-0.174807,-0.3828831,-0.34811896,0.05995727,3.0775826,-0.6250801,0.000110734254,-0.041477147,0.010151866,0.0015910526,-0.029220397,0.011505887,0.017787997,0.4746666,-1.4242567,1.9560498,-2.1017969,-1.5696462,2.4498656,-0.069559805,0.034393113,-0.038404904,-0.019568603,0.02066282,-0.087335564,-0.3256114,-0.038307227,-9.404425,0.8112748,47.707485,-1.3876913,-2.2067318,-3.1100745,-0.42319155,0.14051645,-0.133158,28.625,29.6875,28.9375,33.0,35.375,36.4375
0.09405497,-0.7498363,0.13236594,-0.6938176,-0.020410052,0.071315475,-0.17114393,-0.3829614,-0.3481226,0.059967846,3.0775468,-0.6248427,7.050778e-05,-0.04271915,0.010603831,0.0012199985,-0.02936741,0.011260656,0.01622782,0.47456983,-1.4241842,1.955954,-2.101845,-1.5695981,2.4496253,-0.07165093,0.03631614,-0.039628644,-0.020111077,0.02091067,-0.087864205,-0.4405331,-0.019153614,-9.404425,0.8291774,47.69763,-1.3051898,-2.301461,-3.1654177,-0.42555213,0.16252507,-0.09957005,28.625,29.6875,28.9375,33.0,35.375,36.4375
0.09605461,-1.1196933,-0.01898769,-0.9051285,-0.013587729,0.074547805,-0.16947705,-0.3830189,-0.3480907,0.05995083,3.0775568,-0.6247674,0.00015035264,-0.04412791,0.010617846,0.0016701462,-0.030261287,0.01198542,0.016527945,0.47443715,-1.4241,1.9558939,-2.1018326,-1.5695623,2.4494443,-0.07325728,0.037389673,-0.04192453,-0.019935554,0.021371426,-0.08977052,-0.57460845,0.0,-9.3661175,0.7866488,47.687782,-1.3877207,-2.2648864,-3.02174,-0.42266464,0.15021662,-0.08596337,28.625,29.6875,28.9375,33.0,35.375,36.4375
0.09805456,-1.4627459,-0.2801728,-1.0969229,-0.013283571,0.07025264,-0.16474776,-0.38315335,-0.34807852,0.059992984,3.0774217,-0.62476236,-1.9585514e-05,-0.044171944,0.011366338,0.0010148399,-0.030569507,0.010160483,0.011025046,0.4742686,-1.4240519,1.9557618,-2.1019166,-1.5695261,2.4492898,-0.07533262,0.03783497,-0.04094748,-0.01987604,0.022497458,-0.08634048,-0.4213795,0.019153614,-9.32781,0.8112748,47.67166,-1.3441429,-2.2063246,-3.0988216,-0.4199181,0.15778005,-0.06521563,28.625,29.6875,28.9375,33.0,35.375,36.4375
0.100054495,-1.6100242,-0.71758574,-0.9160713,-0.011122128,0.0701542,-0.15422836,-0.38323566,-0.34803936,0.059983578,3.0773978,-0.6247388,1.645006e-05,-0.045037977,0.012192229,0.00085404253,-0.030107375,0.010177955,0.008429049,0.47409996,-1.423968,1.9556903,-2.1019285,-1.5694898,2.4491096,-0.0773079,0.03844578,-0.041258138,-0.019972986,0.022080705,-0.08571927,-0.45968673,0.076614454,-9.32781,0.8291774,47.655537,-1.381022,-2.2686756,-3.2480326,-0.41153315,0.17591947,-0.10644636,28.625,29.6875,28.9375,33.0,35.375,36.4375
0.10205518,-1.3002874,-0.44430688,-0.88353324,-0.02212897,0.07772369,-0.1705284,-0.38333046,-0.3480149,0.05996867,3.077317,-0.6247846,3.0466737e-05,-0.047526263,0.012988709,0.0016472795,-0.031158883,0.011626468,0.0013852522,0.4739305,-1.4238597,1.9556173,-2.1020005,-1.5694298,2.448979,-0.08116227,0.03932126,-0.044121727,-0.019749459,0.022353657,-0.08252767,-0.5554548,-0.038307227,-9.32781,0.7597976,47.69763,-1.2518697,-2.269289,-3.0636892,-0.43212694,0.17514685,-0.13817419,28.625,29.6875,28.9375,33.0,35.375,36.4375
0.10405506,-1.7602069,-0.14825238,-1.1616505,-0.012692841,0.05668465,-0.17572077,-0.3833945,-0.3479777,0.059976757,3.0772953,-0.6246656,6.1533014e-05,-0.04782731,0.012519191,0.0020045338,-0.031518787,0.012466164,-0.0007708666,0.4737748,-1.4238356,1.9555687,-2.1019886,-1.5693821,2.4487517,-0.08054904,0.03957895,-0.04521504,-0.01982098,0.022290569,-0.07975741,-0.51714754,0.0,-9.32781,0.7418897,47.69763,-1.2698075,-2.28965,-3.0734794,-0.42327642,0.2064336,-0.16462287,28.625,29.6875,28.9375,33.0,35.375,36.4375
0.10605504,-1.0749055,-0.10605662,-1.0217326,-0.009326193,0.06786553,-0.16729966,-0.3835076,-0.34796792,0.059985977,3.0772202,-0.62463194,-4.1909484e-06,-0.048131637,0.013009196,0.0014330493,-0.0315212,0.011397257,-0.0035423124,0.47363028,-1.4237276,1.955438,-2.1020486,-1.5693458,2.4485958,-0.081998974,0.040553767,-0.044962004,-0.020096028,0.022789102,-0.07843422,-0.47884035,0.11492168,-9.289502,0.84484416,47.684196,-1.3860989,-2.2197137,-3.046337,-0.42462373,0.20587164,-0.2079933,28.625,29.6875,28.9375,33.0,35.375,36.4375
0.10805469,-1.1214865,-0.5566581,-0.92218524,-0.0045192633,0.066241525,-0.16327606,-0.38360333,-0.34793252,0.059980113,3.0771494,-0.62467927,-7.589323e-07,-0.050623093,0.01444118,0.0015810771,-0.032926884,0.0116499495,-0.009848159,0.47344843,-1.4236432,1.955366,-2.1020968,-1.5692977,2.4484525,-0.08754158,0.0416644,-0.046460308,-0.020571383,0.023927074,-0.07766964,-0.4405331,0.095768064,-9.270349,0.7933669,47.637623,-1.1728051,-2.231701,-3.0680652,-0.42357248,0.2326692,-0.25652614,28.625,29.6875,28.9375,33.0,35.375,36.4375
0.11005469,-0.73679936,0.05969584,-0.84591246,-0.022797437,0.07602645,-0.17860161,-0.3836968,-0.3478956,0.059968796,3.0771115,-0.6246894,-6.194639e-06,-0.050552607,0.013484294,0.0014976255,-0.034387235,0.010831818,-0.009183998,0.47328085,-1.4235471,1.955293,-2.1021445,-1.5692724,2.448296,-0.08684401,0.042846274,-0.04763301,-0.020518143,0.02560353,-0.077635564,-0.4405331,0.11492168,-9.3661175,0.81351066,47.67614,-1.3245916,-2.2648103,-3.0361795,-0.4229396,0.22420388,-0.27233756,28.625,29.6875,28.9375,33.0,35.375,36.4375
0.11205474,-0.4921557,-0.36421242,-0.9903311,-0.016423453,0.07832043,-0.17283747,-0.3838065,-0.34785607,0.059977025,3.0770082,-0.62476635,6.2405325e-06,-0.052141756,0.014812244,0.0013092195,-0.034505386,0.010462107,-0.012826289,0.47306353,-1.4234748,1.9551972,-2.1021683,-1.5692004,2.44814,-0.09081428,0.043868627,-0.048371084,-0.020516528,0.02588509,-0.077961914,-0.26815057,0.038307227,-9.404425,0.7978386,47.699425,-1.1432871,-2.2398036,-2.9853048,-0.4517766,0.24808332,-0.32551208,28.625,29.6875,28.9375,33.0,35.375,36.4375
0.114055015,-1.2084982,-0.6089239,-1.0017723,-0.012921005,0.059293516,-0.16259119,-0.3839171,-0.34783554,0.059981484,3.0769086,-0.62476635,-6.4267115e-05,-0.053395275,0.015450968,0.001567127,-0.03535683,0.010823564,-0.014899197,0.47289464,-1.423391,1.9551133,-2.1022642,-1.5691522,2.4479837,-0.09346092,0.044166077,-0.04927849,-0.020609364,0.02648868,-0.07853282,-0.30645782,0.038307227,-9.251195,0.8918391,47.687782,-1.1566801,-2.1958032,-3.0004208,-0.4659887,0.23490423,-0.34249473,28.625,29.6875,28.9375,33.0,35.375,36.4375
0.116054356,-0.8694053,-0.44073203,-1.1950036,-0.017922549,0.06437731,-0.16095413,-0.38403544,-0.3478077,0.059996102,3.0768127,-0.62480533,-5.0957922e-05,-0.05442461,0.015810583,0.0014303491,-0.035855297,0.010467337,-0.016711198,0.47269002,-1.4232944,1.9549698,-2.1022642,-1.5690798,2.4478157,-0.0954094,0.04548594,-0.05046743,-0.020640945,0.027101144,-0.0786674,-0.38307226,0.05746084,-9.385271,0.8247004,47.71465,-1.1312035,-2.257794,-2.9673848,-0.4762354,0.27166638,-0.37646216,28.625,29.6875,28.9375,33.0,35.375,36.4375
0.11805517,-0.9286954,-0.038473383,-1.0376761,-0.028958607,0.06506436,-0.1633321,-0.3841254,-0.34777638,0.059992943,3.0767543,-0.62483233,-3.2848493e-05,-0.055286553,0.016156154,0.00038381506,-0.035752416,0.008716562,-0.018162472,0.47252125,-1.4232094,1.9548854,-2.102288,-1.5690321,2.4476712,-0.097249605,0.04857297,-0.051506504,-0.021076765,0.027809767,-0.07905476,-0.51714754,0.076614454,-9.32781,0.81351066,47.68062,-1.1283567,-2.3208692,-2.9868734,-0.48120406,0.2779764,-0.42450058,28.625,29.6875,28.9375,33.0,35.375,36.4375
0.12005482,-0.8269517,-0.6548661,-1.3246616,-0.015144333,0.07527675,-0.15855919,-0.38428646,-0.3477303,0.06001525,3.07663,-0.62492263,-0.00014426016,-0.05653716,0.016512387,0.0021202895,-0.03816874,0.011495162,-0.019296471,0.47226846,-1.4231143,1.9547423,-2.10236,-1.5689954,2.4474907,-0.099569,0.04569012,-0.05217385,-0.021091627,0.028713325,-0.08023703,-0.4405331,0.11492168,-9.3661175,0.8157518,47.70032,-1.062444,-2.2184725,-3.0014918,-0.49228692,0.2777562,-0.45959306,28.625,29.6875,28.9375,33.0,35.375,36.4375
0.12205463,-0.31815723,0.12166982,-1.0105875,-0.029707538,0.089069106,-0.18192142,-0.3843547,-0.34770352,0.059984148,3.0765886,-0.624954,-2.9795307e-05,-0.05753512,0.017051812,0.0015330272,-0.038944043,0.010010779,-0.02030684,0.47211155,-1.4229935,1.9546808,-2.1023839,-1.5689229,2.4473586,-0.10230573,0.04762392,-0.053020727,-0.021200854,0.03008062,-0.08196382,-0.34476504,0.095768064,-9.461885,0.80456203,47.71465,-0.9825206,-2.1715183,-2.9799223,-0.5131258,0.29528406,-0.49288446,28.625,29.6875,28.9375,33.0,35.375,36.4375
0.12405441,-0.7948475,-0.57749623,-1.1804236,-0.022252308,0.075324796,-0.17184508,-0.38448843,-0.347697,0.060024794,3.0764537,-0.62492234,-0.000119631804,-0.058581524,0.01751825,0.0010309309,-0.03975085,0.009067821,-0.015380153,0.47193095,-1.4229208,1.9545134,-2.10242,-1.5688504,2.4471755,-0.10481357,0.049407866,-0.053791597,-0.021720601,0.031251714,-0.08939365,-0.36391866,0.1340753,-9.423578,0.80679786,47.703903,-0.961966,-2.2705908,-2.9903443,-0.5147346,0.28950053,-0.48248118,28.625,29.6875,28.9375,33.0,35.375,36.4375
0.126055,-1.4330627,-1.1238047,-1.1433117,-0.02040875,0.062146615,-0.16187188,-0.38463143,-0.3476453,0.060030866,3.0763476,-0.6249966,-0.00017530356,-0.05995371,0.018190596,0.0007610577,-0.040437385,0.009020704,-0.014274226,0.47167787,-1.4228241,1.9544057,-2.102492,-1.5688027,2.4469824,-0.10764294,0.05080056,-0.05456952,-0.022588395,0.031901263,-0.09332555,-0.4405331,-0.076614454,-9.500193,0.7777002,47.684196,-0.918134,-2.2870884,-3.0095184,-0.51474917,0.29548645,-0.45981374,28.625,29.6875,28.9375,33.0,35.375,36.4375
0.12805478,-0.9406572,-0.64040744,-1.1213189,-0.021044482,0.0723946,-0.16381639,-0.38470778,-0.34757632,0.059992205,3.0763726,-0.62495667,-5.0636998e-05,-0.059748434,0.017546032,0.00049491343,-0.040870838,0.0083717685,-0.0028951578,0.4714619,-1.4227157,1.9543699,-2.102492,-1.568766,2.4467382,-0.106740095,0.05190334,-0.055216417,-0.022635883,0.032595366,-0.1038036,-0.4405331,-0.095768064,-9.442732,0.85826975,47.698532,-0.93654495,-2.32608,-3.0161288,-0.5264335,0.3054428,-0.41387922,28.625,29.6875,28.9375,33.0,35.375,36.4375
0.1300545,-0.53988427,-0.04849988,-1.1903338,-0.030909183,0.09166639,-0.17455238,-0.384856,-0.3475564,0.059996955,3.0762439,-0.62500596,-9.805574e-05,-0.06123096,0.018581435,0.0013971514,-0.042416766,0.009559235,-0.0012066532,0.47124487,-1.4225721,1.9542145,-2.102576,-1.568694,2.4465685,-0.11044632,0.050518762,-0.05573274,-0.022473063,0.033457175,-0.10919514,-0.34476504,0.038307227,-9.461885,0.784413,47.629562,-0.9931894,-2.1702065,-3.0343103,-0.5449459,0.30212802,-0.32458764,28.625,29.6875,28.9375,33.0,35.375,36.4375
0.13205509,-0.825846,-0.65224075,-1.0940331,-0.012227992,0.08425343,-0.1677206,-0.38499787,-0.34751222,0.060027637,3.0761428,-0.6249799,-0.00018148487,-0.06056603,0.017462889,0.0003410398,-0.042877104,0.0072809886,0.007820399,0.47100568,-1.4225111,1.9540828,-2.1026118,-1.5686454,2.446326,-0.10877133,0.053280905,-0.056425348,-0.022698887,0.034930002,-0.116542526,-0.34476504,-0.038307227,-9.423578,0.76874626,47.716442,-0.9938317,-2.2392724,-3.072301,-0.5590197,0.30143356,-0.24451412,28.625,29.6875,28.9375,33.0,35.375,36.4375
0.13405508,-0.53971225,-0.017991185,-1.0545608,-0.018819837,0.085920565,-0.17555766,-0.38510087,-0.34748077,0.060013477,3.0760818,-0.62490815,-0.00011496456,-0.061396617,0.017132198,0.0006436199,-0.044424016,0.008251198,0.011477697,0.47080144,-1.4223907,1.953986,-2.102648,-1.568561,2.4460847,-0.10952385,0.053735543,-0.05740466,-0.02371797,0.03587841,-0.12095095,-0.36391866,0.076614454,-9.346964,0.87393653,47.70211,-1.0892442,-2.3489976,-3.0045204,-0.55511796,0.30355668,-0.1978732,28.625,29.6875,28.9375,33.0,35.375,36.4375
0.13605484,-1.4254552,0.068973474,-0.95272857,-0.03225663,0.05868,-0.18333066,-0.38524455,-0.347423,0.060018506,3.0759938,-0.6249272,-0.00015775119,-0.061781175,0.017153844,-6.940271e-05,-0.044847287,0.00807479,0.013152507,0.47053722,-1.4222943,1.9538783,-2.102709,-1.5685133,2.4458437,-0.11018008,0.055199936,-0.05702845,-0.025574792,0.036352348,-0.12327889,-0.2681506,0.019153614,-9.404425,0.8179876,47.698532,-1.1775382,-2.2833934,-3.0940175,-0.54699206,0.31610018,-0.14223373,28.625,29.6875,28.9375,33.0,35.375,36.4375
0.13805455,-0.06379897,-0.43927807,-1.0255388,-0.021631889,0.07873069,-0.16842437,-0.38536292,-0.34739712,0.060018726,3.0759048,-0.6248719,-0.00010776604,-0.06307713,0.016792957,0.0005785289,-0.045936607,0.009683902,0.011669344,0.47032103,-1.4221737,1.9537457,-2.102733,-1.5684165,2.4456043,-0.11084092,0.055960335,-0.05928303,-0.025991548,0.036597196,-0.1224539,-0.17238252,0.095768064,-9.423578,0.7553206,47.677036,-1.2548782,-2.3347087,-3.03206,-0.5447046,0.34686524,-0.13034669,28.625,29.6875,28.9375,33.0,35.375,36.4375
0.14005442,-0.26875794,-0.36766344,-1.199205,-0.02609038,0.042085044,-0.16657907,-0.38547257,-0.34735733,0.06000076,3.07585,-0.6247876,-6.564144e-05,-0.06402521,0.017317958,0.00045083702,-0.04650673,0.0090820985,0.0052562216,0.47010416,-1.4220532,1.9536628,-2.102793,-1.5683445,2.4453418,-0.113107786,0.05696351,-0.060182296,-0.025812663,0.037377976,-0.11830597,-0.095768064,0.11492168,-9.404425,0.83589023,47.682407,-1.1767782,-2.3032494,-2.956331,-0.5731473,0.34297055,-0.17139992,28.625,29.6875,28.9375,33.0,35.375,36.4375
0.14205523,-0.17849296,-0.89611155,-1.0436182,-0.021564748,0.0217753,-0.160777,-0.3856272,-0.34730065,0.060004808,3.0757735,-0.6247942,-0.00012031242,-0.06431526,0.01781745,5.074908e-05,-0.04767197,0.008569379,-0.0015730917,0.46983957,-1.4219333,1.9535302,-2.102853,-1.5683082,2.4450912,-0.11504094,0.056962457,-0.05897881,-0.027087217,0.038655605,-0.11340689,-0.11492168,0.21068975,-9.346964,0.75755644,47.655537,-1.1877086,-2.277018,-3.117094,-0.5821955,0.3484497,-0.18948992,28.625,29.6875,28.9375,33.0,35.375,36.4375
0.14405595,1.023501,-0.055310488,-0.84071094,-0.048947763,0.03317943,-0.17981485,-0.38577825,-0.34731087,0.060044747,3.0756052,-0.62468517,-0.00024614352,-0.06588396,0.019335492,-0.0002488107,-0.04729268,0.008478059,-0.008440029,0.46965834,-1.4218369,1.9533509,-2.102949,-1.5682119,2.4448636,-0.11893514,0.057918794,-0.059304185,-0.027453244,0.038376417,-0.110427104,0.019153614,0.1340753,-9.270349,0.8806493,47.664497,-1.1576462,-2.2688413,-3.1786685,-0.6087711,0.36705387,-0.28097346,28.625,29.6875,28.9375,33.0,35.375,36.4375
0.14605524,-0.2686721,-1.0846626,-1.077932,-0.023738597,-0.009677467,-0.15532176,-0.38590032,-0.3472624,0.0600403,3.0755,-0.62479776,-0.000192916,-0.06668634,0.017384848,0.0011303708,-0.049973737,0.010092046,-0.0073161363,0.46940702,-1.4217285,1.9532427,-2.1029723,-1.5681275,2.444696,-0.11723646,0.058634628,-0.06344902,-0.026664972,0.04003886,-0.10984834,0.095768064,0.17238252,-9.346964,0.7418897,47.717335,-1.2438431,-2.2746124,-3.0183506,-0.6108781,0.3570199,-0.2806552,28.625,29.6875,28.9375,33.0,35.375,36.4375
0.14805426,0.023340026,-1.0046693,-1.1110892,-0.02449739,0.006958659,-0.1543399,-0.38602465,-0.3472073,0.06004108,3.0754528,-0.6247332,-0.00018761297,-0.06647011,0.019727344,-0.0004281017,-0.049802557,0.0051269517,-0.012535925,0.46916494,-1.4216323,1.9531363,-2.1029956,-1.5680789,2.4444196,-0.1225291,0.058979865,-0.0605884,-0.02535728,0.042151757,-0.10992003,0.095768064,0.15322891,-9.3661175,0.7239871,47.664497,-1.0909901,-2.2140923,-3.1154332,-0.62572706,0.354198,-0.33781862,28.625,29.6875,28.9375,33.0,35.375,36.4375
0.15005478,0.45946234,-0.835245,-0.9586736,-0.031399794,0.029948078,-0.16606066,-0.38615358,-0.34719068,0.060037896,3.0752845,-0.6247357,-0.00015092894,-0.06611868,0.018714752,-0.00027569433,-0.04981308,0.005565744,-0.010039396,0.46892586,-1.4215119,1.9530281,-2.1030915,-1.5679353,2.4442036,-0.120257966,0.059569266,-0.061630007,-0.025274139,0.041976895,-0.11014153,0.05746084,0.21068975,-9.270349,0.8605109,47.683304,-1.2957501,-2.2126422,-3.2051468,-0.66429734,0.36973315,-0.35692233,28.625,29.6875,28.9375,33.0,35.375,36.4375
0.15205446,-0.1855053,-0.74136555,-1.0361935,-0.034005597,0.035685517,-0.16608436,-0.38628542,-0.3471489,0.060035232,3.0751874,-0.6247741,-0.00014021616,-0.0677898,0.018714549,0.0003470448,-0.052564256,0.006697746,-0.012227172,0.46868512,-1.4213916,1.9529079,-2.10314,-1.5678624,2.4439993,-0.12299016,0.059946995,-0.063254684,-0.026267326,0.04392744,-0.110681295,0.1340753,0.17238252,-9.3661175,0.7284641,47.66987,-1.2379923,-2.1349277,-3.1598902,-0.66956353,0.35445964,-0.38312423,28.625,29.6875,28.9375,33.0,35.375,36.4375
0.15405501,-0.5406264,-1.2701342,-1.3158994,-0.027745767,0.03021177,-0.15529884,-0.38643092,-0.3471185,0.06003945,3.075095,-0.6247156,-0.00012889666,-0.067836694,0.01871244,-0.00010661704,-0.05432975,0.005192852,-0.011025779,0.46844462,-1.4212474,1.9527415,-2.1031754,-1.5677775,2.4437342,-0.12445329,0.060543254,-0.062788,-0.026765356,0.046201773,-0.113341406,0.1340753,0.24899697,-9.308656,0.8179876,47.652847,-1.2577329,-2.138643,-3.220375,-0.68269944,0.33463892,-0.40061986,28.625,29.6875,28.9375,33.0,35.375,36.4375
0.15605432,-0.26415303,-1.2161721,-1.1869928,-0.038006496,0.026596075,-0.1607523,-0.3865504,-0.3470683,0.060033053,3.0750036,-0.62471396,-9.07891e-05,-0.06830335,0.018239524,-2.0006575e-05,-0.05804747,0.0036934488,-0.007803308,0.46819195,-1.421151,1.9526571,-2.1032236,-1.5676917,2.4434922,-0.12659216,0.06102578,-0.063514665,-0.02683844,0.050218552,-0.118697,-0.2681506,0.21068975,-9.32781,0.7866488,47.67614,-1.240103,-2.1284988,-3.1765327,-0.69848734,0.30107093,-0.3767007,28.625,29.6875,28.9375,33.0,35.375,36.4375
0.15805513,-0.026016438,-1.5895278,-1.3597754,-0.032777943,0.021407211,-0.15370643,-0.386677,-0.3470435,0.06002936,3.0748918,-0.6246884,-4.5019027e-05,-0.06879693,0.017977366,-0.00015546277,-0.059788253,0.0033215114,-0.0021352135,0.46796355,-1.4210186,1.9525255,-2.1032722,-1.5675834,2.443262,-0.12765978,0.06188522,-0.06400952,-0.027617903,0.051965836,-0.12542821,-0.11492168,0.24899697,-9.423578,0.8023209,47.677036,-1.287025,-2.0860603,-3.3294482,-0.7158896,0.2596571,-0.31052446,28.625,29.6875,28.9375,33.0,35.375,36.4375
0.16005431,-0.43431434,-0.5566931,-1.4428856,-0.03997255,0.006983634,-0.1618265,-0.38681793,-0.34699193,0.060014483,3.0747955,-0.624663,2.9483057e-05,-0.06950499,0.018606136,-0.00061618775,-0.059537392,0.0030907216,0.005924305,0.46767503,-1.4208741,1.9524053,-2.1033204,-1.5674757,2.44297,-0.12931354,0.06298776,-0.06407326,-0.028278265,0.0518797,-0.13514017,-0.076614454,0.21068975,-9.346964,0.80679786,47.68062,-1.2945126,-1.9467595,-3.3504102,-0.73570603,0.25887927,-0.22442967,28.625,29.6875,28.9375,33.0,35.375,36.4375
0.16205505,-0.27183533,-0.89393365,-1.0990459,-0.02290379,0.03075531,-0.16264579,-0.38694248,-0.34697738,0.060003586,3.0747142,-0.624511,2.5735164e-05,-0.070605956,0.01874891,-0.0016574413,-0.061121535,0.000825292,0.008347531,0.46748194,-1.4207286,1.9522856,-2.1034157,-1.5673908,2.4426925,-0.13210942,0.06630193,-0.06532376,-0.029004067,0.054338627,-0.14035189,-0.095768064,0.22984336,-9.3661175,0.8157518,47.711063,-1.1327449,-2.1232955,-3.4280252,-0.7464219,0.23857018,-0.1650528,28.625,29.6875,28.9375,33.0,35.375,36.4375
0.16405483,-0.9797889,-0.53157914,-1.2168974,-0.029021095,0.040888093,-0.16032998,-0.3871197,-0.34695098,0.060062855,3.0745254,-0.62441486,-1.3122685e-05,-0.072202794,0.018540818,9.5344796e-05,-0.06577524,0.0035048847,0.008034893,0.4671813,-1.4206575,1.9520696,-2.1034162,-1.5672454,2.442356,-0.13504061,0.06395786,-0.06638598,-0.03005144,0.05731795,-0.14295875,-0.36391866,0.17238252,-9.3661175,0.800085,47.690468,-1.2110542,-1.977364,-3.2928495,-0.74192286,0.18940282,-0.08578956,28.625,29.6875,28.9375,33.0,35.375,36.4375
0.16605464,-1.4682022,-0.8517085,-1.2085491,-0.016823381,0.062794775,-0.15266079,-0.38723862,-0.3469106,0.060034353,3.0744164,-0.6243932,0.00010060678,-0.07200659,0.018610481,-0.00068860484,-0.06709087,0.001392636,0.006195651,0.46691674,-1.420513,1.9519862,-2.1034887,-1.5671128,2.442092,-0.13632296,0.06492095,-0.065600164,-0.030482018,0.05945299,-0.14239883,-0.45968673,0.076614454,-9.519346,0.79560274,47.68599,-1.0810528,-1.8995802,-3.4660187,-0.75041044,0.15502632,-0.08317321,28.625,29.6875,28.9375,33.0,35.375,36.4375
0.1680546,-1.2488308,-0.037435725,-1.0701667,-0.032695785,0.09223012,-0.16075723,-0.38739288,-0.34686294,0.060020234,3.0742838,-0.62442833,0.00016077324,-0.07371425,0.019374857,-0.0014342144,-0.06796112,-2.1660126e-05,-0.001416549,0.4666153,-1.4203557,1.9518551,-2.1035602,-1.5669922,2.4418294,-0.1400779,0.067887954,-0.06718241,-0.030979235,0.060867243,-0.13853581,-0.40222588,0.095768064,-9.442732,0.8940802,47.711964,-1.0655715,-2.036037,-3.4766278,-0.7704861,0.08879036,-0.10300337,28.625,29.6875,28.9375,33.0,35.375,36.4375
0.17005521,-1.7095273,-0.43285266,-1.083838,-0.019572724,0.09784884,-0.15979333,-0.38753843,-0.34683114,0.06002838,3.074142,-0.62434584,0.00015402635,-0.0764161,0.019347752,0.0010300339,-0.071137965,0.005284666,-0.008703502,0.46635056,-1.4202485,1.9517335,-2.1036446,-1.5668725,2.4415314,-0.14269738,0.0657047,-0.07004432,-0.03208863,0.061318763,-0.1338605,-0.45968673,0.038307227,-9.404425,0.81351066,47.678825,-0.9738859,-1.8658391,-3.3192427,-0.78413534,0.06812744,-0.15347031,28.625,29.6875,28.9375,33.0,35.375,36.4375
0.17205498,-1.636159,-0.20742221,-1.2649014,-0.0065432102,0.09098918,-0.16811147,-0.3876927,-0.34679276,0.060026806,3.0740077,-0.6244353,0.00020001897,-0.07701988,0.020367924,-5.1536616e-05,-0.069784306,0.0046320586,-0.014956813,0.46607405,-1.4200917,1.9515661,-2.1036808,-1.5667647,2.441328,-0.1444061,0.06748031,-0.06932222,-0.033377826,0.060404632,-0.12931421,-0.6703765,-0.05746084,-9.500193,0.88289046,47.682407,-0.97185385,-1.8865464,-3.385583,-0.7907702,0.05346775,-0.21599436,28.625,29.6875,28.9375,33.0,35.375,36.4375
0.17405462,-1.8820285,-0.11647101,-1.3759053,-0.0018068382,0.09530178,-0.16126485,-0.38782936,-0.34676516,0.060031008,3.0738225,-0.62441725,0.00028560098,-0.07811744,0.019832328,0.0001560431,-0.07020215,0.006521817,-0.017299343,0.46578622,-1.419983,1.9514464,-2.103741,-1.566585,2.4410527,-0.14408326,0.068925835,-0.071102545,-0.03488756,0.05993338,-0.12664397,-0.6895301,-0.038307227,-9.557653,0.88289046,47.684196,-1.0321153,-1.8944416,-3.393579,-0.8168157,0.013317651,-0.29847515,28.625,29.6875,28.9375,33.0,35.375,36.4375
0.17605476,-2.3630092,-0.5110806,-1.2446792,0.0054000914,0.101460814,-0.1468125,-0.38799033,-0.34672534,0.060030792,3.073685,-0.6244503,0.0002713808,-0.080527,0.020416172,0.0010931056,-0.0704988,0.010352475,-0.023094678,0.46550938,-1.4198388,1.9513015,-2.1038258,-1.5664896,2.4408143,-0.14628646,0.06917032,-0.07312074,-0.036650933,0.05848078,-0.12304769,-0.842759,-0.05746084,-9.576807,0.8291774,47.66987,-1.0644706,-1.9314944,-3.3428211,-0.7901318,0.005519113,-0.3563982,28.625,29.6875,28.9375,33.0,35.375,36.4375
0.1780547,-1.9570507,0.11942352,-1.3889191,0.0040528052,0.12820409,-0.15042955,-0.3881389,-0.34669524,0.060017098,3.0735445,-0.62445784,0.00039310014,-0.080788076,0.020425625,0.000486974,-0.06814876,0.0114236325,-0.021076243,0.4652223,-1.4196582,1.9511346,-2.103862,-1.5663341,2.4405499,-0.14482264,0.07097312,-0.07352951,-0.037900336,0.055912293,-0.1236045,-0.80445176,-0.05746084,-9.634268,0.8784135,47.690468,-1.319087,-1.8160726,-3.3342865,-0.78154695,0.030364107,-0.41080993,28.625,29.6875,28.9375,33.0,35.375,36.4375
0.18005437,-1.7734854,0.18998894,-1.3521787,0.0034997466,0.14344546,-0.16631581,-0.38828668,-0.34665126,0.060019877,3.0734143,-0.62447107,0.0003545835,-0.082278624,0.021087589,0.00076989713,-0.067025915,0.013732769,-0.023631398,0.4649578,-1.4195497,1.9510263,-2.103958,-1.5662507,2.4403105,-0.1459725,0.07165866,-0.07473359,-0.038915988,0.053886462,-0.12219647,-0.7086837,-0.095768064,-9.634268,0.81351066,47.71286,-1.2577244,-1.8624942,-3.3602736,-0.7930002,0.036304608,-0.48795837,28.625,29.6875,28.9375,33.0,35.375,36.4375
0.18205503,-1.771474,-0.052795347,-1.2788197,-0.01234874,0.13982157,-0.17128082,-0.38847232,-0.34662533,0.06003604,3.0732467,-0.6244921,0.000335433,-0.0843604,0.022503087,0.0005566077,-0.0649759,0.015486235,-0.021745302,0.4646688,-1.4193809,1.9508103,-2.1040184,-1.566132,2.4400563,-0.14861456,0.073500074,-0.07613135,-0.039948676,0.051302657,-0.1267225,-0.6512229,-0.038307227,-9.672575,0.7978386,47.67614,-1.3112882,-1.9126112,-3.3013685,-0.77592254,0.05571226,-0.52030236,28.625,29.6875,28.9375,33.0,35.375,36.4375
0.18405503,-2.1083279,-0.37501642,-1.4792409,-0.01966355,0.123745225,-0.16962758,-0.38865483,-0.34655356,0.060022417,3.0731158,-0.6245948,0.00029923924,-0.08617377,0.02383244,0.00028403546,-0.062664986,0.017682772,-0.014854449,0.4643321,-1.4192251,1.9506906,-2.1041381,-1.5660609,2.4398007,-0.15059456,0.07503233,-0.076913066,-0.041550614,0.04830194,-0.13559404,-0.6895301,0.05746084,-9.634268,0.8605109,47.689575,-1.2536699,-1.9977665,-3.317539,-0.7577654,0.08523084,-0.4654583,28.625,29.6875,28.9375,33.0,35.375,36.4375
0.18605542,-1.7582341,-0.5911644,-1.3934134,-0.020983616,0.11806611,-0.16779773,-0.38884312,-0.34650767,0.060048603,3.0729961,-0.6245064,0.0001785303,-0.08798283,0.024199916,0.0001434678,-0.061247077,0.020934602,-0.004876751,0.4640441,-1.4191035,1.9505113,-2.104223,-1.5660018,2.4394732,-0.15107755,0.07699627,-0.07819256,-0.044428416,0.045637425,-0.14605206,-0.45968673,0.15322891,-9.615114,0.81351066,47.690468,-1.2848191,-1.8807108,-3.3366385,-0.74576473,0.12627108,-0.37706107,28.625,29.6875,28.9375,33.0,35.375,36.4375
0.18805507,-1.7669196,-0.5557956,-1.5636592,-0.028646426,0.08924018,-0.16749075,-0.38903368,-0.34644225,0.060038663,3.072848,-0.6245876,0.00016394236,-0.09018313,0.024280824,-3.513459e-05,-0.062106818,0.023315726,0.0027801162,0.4636955,-1.4189351,1.9503664,-2.1043322,-1.5659055,2.4391944,-0.1529552,0.079511434,-0.079937786,-0.04763676,0.045392714,-0.15558165,-0.34476504,0.15322891,-9.730036,0.8291774,47.66091,-1.312473,-2.1865098,-3.2913132,-0.70468485,0.13836071,-0.2914155,28.625,29.6875,28.9375,33.0,35.375,36.4375
0.19005476,-1.0618554,-1.0384802,-1.3833019,-0.03237434,0.08895041,-0.1609163,-0.38922215,-0.3463956,0.060071412,3.0727108,-0.6245171,0.00010715067,-0.09135575,0.025408585,0.0008258049,-0.06172333,0.02467406,0.0076487316,0.4633829,-1.4188156,1.9501632,-2.1043675,-1.5658101,2.4388556,-0.15535465,0.07834956,-0.080816686,-0.046572432,0.044503454,-0.16284655,-0.36391866,0.21068975,-9.653421,0.81351066,47.65912,-1.4341886,-1.9603353,-3.260776,-0.6958306,0.17797533,-0.21280086,28.625,29.6875,28.9375,33.0,35.375,36.4375
0.1920544,-0.6312252,-0.19725393,-1.4455713,-0.04937481,0.07293207,-0.16981222,-0.3893953,-0.3463551,0.060066815,3.0725775,-0.62446994,6.6911896e-05,-0.09159791,0.025454959,-0.0009993783,-0.057841156,0.023773627,0.009325779,0.46309534,-1.4186567,1.9500197,-2.1044881,-1.5657152,2.438556,-0.15362458,0.08313953,-0.0819071,-0.047693063,0.04145862,-0.16279462,-0.3256114,0.24899697,-9.500193,0.7732232,47.701214,-1.4247906,-2.1680934,-3.2704482,-0.6881809,0.23208594,-0.17911705,28.625,29.6875,28.9375,33.0,35.375,36.4375
0.19405538,-0.9780809,-1.0652287,-1.5126722,-0.03303608,0.054528136,-0.15503572,-0.3896111,-0.34628,0.060080506,3.0724494,-0.6245047,-7.911948e-05,-0.09451755,0.02584435,0.00075540453,-0.06119486,0.028735468,0.0021836525,0.46274593,-1.4185132,1.9498519,-2.1046088,-1.5656785,2.438245,-0.1573495,0.08172495,-0.08364445,-0.050477687,0.04226102,-0.15936837,-0.2681506,0.2681506,-9.500193,0.8851263,47.683304,-1.2434156,-2.0690174,-3.2208402,-0.6420659,0.26485553,-0.18152648,28.625,29.6875,28.9375,33.0,35.375,36.4375
0.19605443,-0.20123656,-0.83770406,-1.2694857,-0.055516694,0.06425821,-0.15914221,-0.38977346,-0.34622452,0.060064286,3.0723403,-0.62442946,-5.1394338e-05,-0.09670789,0.02566242,0.00078419375,-0.06348496,0.03049605,-0.005893655,0.46243334,-1.4183561,1.9497312,-2.104705,-1.5655707,2.4378996,-0.15971729,0.08397678,-0.085635714,-0.053338736,0.0435175,-0.15365133,-0.22984336,0.2681506,-9.3661175,0.8717007,47.661808,-1.3100524,-2.095749,-3.1871955,-0.6172532,0.2792771,-0.26838186,28.625,29.6875,28.9375,33.0,35.375,36.4375
0.19805503,-0.27245158,-1.5356388,-1.4869037,-0.04704949,0.037709758,-0.15886417,-0.38998857,-0.34616277,0.060062516,3.0722382,-0.6244486,-0.00015164797,-0.09827384,0.02602417,0.0008934821,-0.065255255,0.029782556,-0.011410897,0.46210825,-1.4181525,1.9495267,-2.1048124,-1.5655335,2.4376,-0.1629053,0.08556091,-0.08780497,-0.05290328,0.045441665,-0.15131117,-0.05746084,0.3256114,-9.423578,0.8873621,47.689575,-1.2523534,-2.1021752,-3.2027116,-0.579214,0.29469952,-0.32956272,28.625,29.6875,28.9375,33.0,35.375,36.4375
0.20005488,-0.44761997,-1.487409,-1.2183479,-0.055222467,0.022350298,-0.15292436,-0.39018753,-0.34613237,0.060085505,3.072058,-0.6243945,-0.00025376174,-0.098884895,0.026572585,0.00090582785,-0.06573558,0.028608648,-0.014385236,0.46180764,-1.418007,1.9493355,-2.104932,-1.5654253,2.437289,-0.1649748,0.086126365,-0.08876856,-0.051646557,0.046433397,-0.1503959,-0.019153614,0.36391866,-9.385271,0.8112748,47.67166,-1.185227,-2.0910158,-2.9962425,-0.57621014,0.30963925,-0.35789263,28.625,29.6875,28.9375,33.0,35.375,36.4375
0.2020546,-0.43639964,-1.3928005,-1.2068754,-0.05289786,0.018172495,-0.15109023,-0.3904166,-0.34608045,0.060125418,3.0718503,-0.6244879,-0.00041427385,-0.10113227,0.028348126,0.0011586427,-0.0660093,0.030023213,-0.01888376,0.46145824,-1.4178759,1.9491194,-2.1050403,-1.5653418,2.437025,-0.16980569,0.086295344,-0.08931341,-0.05262746,0.04609484,-0.15072009,-0.11492168,0.30645782,-9.289502,0.8806493,47.703007,-1.1555275,-2.0031722,-3.119871,-0.53914493,0.34514475,-0.41476056,28.625,29.6875,28.9375,33.0,35.375,36.4375
0.20405532,-0.9286766,-1.2358403,-1.2294242,-0.0444697,0.012525454,-0.15885836,-0.39059454,-0.3460264,0.060100768,3.0717344,-0.6244816,-0.00036904428,-0.10233892,0.026804507,0.0024540448,-0.06895559,0.031528547,-0.01602296,0.46113402,-1.4176716,1.9489635,-2.1051352,-1.5652326,2.436712,-0.16934216,0.08715845,-0.0933929,-0.05203321,0.04809209,-0.15310735,0.0,0.26815057,-9.308656,0.84708,47.704796,-1.1450785,-1.9882157,-2.8503618,-0.5096984,0.36662012,-0.3990485,28.625,29.6875,28.9375,33.0,35.375,36.4375
0.20605494,-0.9590035,-1.3719318,-1.0331783,-0.031769842,0.023893015,-0.14868936,-0.3908032,-0.34596524,0.060093805,3.0715985,-0.6244875,-0.00041879065,-0.10184949,0.02731062,0.0011454921,-0.07033426,0.026752522,-0.009628597,0.46078548,-1.4174776,1.9487847,-2.105255,-1.5651473,2.436385,-0.17192772,0.088832155,-0.092627145,-0.050741393,0.051533077,-0.16207217,-0.076614454,0.21068975,-9.270349,0.8493211,47.705692,-0.98568916,-2.1101148,-3.0813894,-0.5121731,0.3712613,-0.33597025,28.625,29.6875,28.9375,33.0,35.375,36.4375
0.20805493,-0.3977004,-0.29806933,-0.85374516,-0.042725034,0.048939314,-0.1664059,-0.39099583,-0.34592003,0.06009287,3.0714464,-0.6244125,-0.00041362116,-0.10181456,0.026935007,0.0012903684,-0.07190897,0.025134696,-0.0012733366,0.46044922,-1.4172987,1.948604,-2.1053498,-1.5650147,2.4360216,-0.17256095,0.08927917,-0.09383363,-0.049151186,0.05374013,-0.17104861,-0.21068975,0.36391866,-9.155427,0.784413,47.677036,-1.1049188,-1.9739511,-2.9962175,-0.50511247,0.36362958,-0.27032098,28.625,29.6875,28.9375,33.0,35.375,36.4375
0.21005511,-0.8956042,-0.27137908,-0.87620807,-0.0142411515,0.05776149,-0.16243055,-0.39122137,-0.34587735,0.060114905,3.071234,-0.6244212,-0.00049493514,-0.10185457,0.026908109,0.0010146296,-0.07266298,0.022710122,0.0070688576,0.46008888,-1.4171298,1.948388,-2.105469,-1.5648826,2.4356945,-0.17363498,0.09057985,-0.09513865,-0.047220003,0.05558772,-0.18044968,-0.22984336,0.24899697,-9.232041,0.87393653,47.677036,-1.0922318,-2.0687335,-2.9771357,-0.5138953,0.35588413,-0.15211406,28.625,29.6875,28.9375,33.0,35.375,36.4375
0.21205515,-0.9129322,0.44848046,-0.7248492,-0.013266567,0.06886513,-0.16429293,-0.39141846,-0.3458117,0.060101338,3.0711148,-0.6243586,-0.0004808679,-0.10205983,0.027382644,0.0011017082,-0.07371225,0.021251375,0.0080814585,0.45972812,-1.4169378,1.9482211,-2.1055644,-1.5647739,2.4353101,-0.17561948,0.09038232,-0.09543176,-0.04583653,0.057224236,-0.18343763,-0.22984336,0.038307227,-9.232041,0.8157518,47.701214,-1.1118479,-2.0281334,-2.9858117,-0.50103927,0.35283014,-0.07473087,28.625,29.6875,28.9375,33.0,35.375,36.4375
0.21405476,-0.94693553,0.6960685,-0.5334185,-0.015640493,0.07897544,-0.1590334,-0.3916326,-0.345755,0.060121845,3.0709946,-0.6242987,-0.0005592771,-0.10280521,0.02764903,-0.00047997857,-0.07361209,0.016936077,0.0028039946,0.4593914,-1.4167677,1.9479932,-2.105624,-1.564701,2.4349518,-0.17784438,0.095260754,-0.097743355,-0.044483416,0.05906944,-0.18037018,-0.4213795,-0.05746084,-9.232041,0.8806493,47.682407,-1.0653393,-2.21999,-2.8912249,-0.5026866,0.3469612,-0.097667605,28.625,29.6875,28.9375,33.0,35.375,36.4375
0.21605474,-0.95993155,0.7599357,-0.4686198,-0.0072456617,0.06428162,-0.1621133,-0.3918345,-0.34571323,0.060122494,3.0707736,-0.6243527,-0.00054706377,-0.10219094,0.028344985,0.00019784602,-0.07478532,0.016279336,-0.0036652,0.4590308,-1.4165888,1.9478143,-2.1057427,-1.5645326,2.4346538,-0.17931314,0.09217152,-0.096088775,-0.04296381,0.060431924,-0.17535943,-0.38307226,-0.05746084,-9.232041,0.81351066,47.688675,-0.9204648,-2.0312004,-3.0895283,-0.5148157,0.34096962,-0.1433036,28.625,29.6875,28.9375,33.0,35.375,36.4375
0.21805488,-1.4074236,0.59470457,-0.70154494,-0.0040058005,0.050169922,-0.15211906,-0.39203665,-0.34565854,0.060127053,3.0706244,-0.62430704,-0.0005255972,-0.104056135,0.028017001,0.00038821957,-0.07607292,0.015842328,-0.012869011,0.4586703,-1.4164063,1.9476088,-2.1058023,-1.5644001,2.4342842,-0.18113968,0.095288344,-0.10031515,-0.042038523,0.061765745,-0.16796973,-0.47884035,-0.13407528,-9.174581,0.8605109,47.688675,-1.0849323,-1.9219024,-2.9614084,-0.54380643,0.34664357,-0.2525596,28.625,29.6875,28.9375,33.0,35.375,36.4375
0.22005591,-0.9193612,0.6804454,-0.4372082,0.0035488303,0.056213353,-0.16048647,-0.39227033,-0.34561306,0.060140066,3.070398,-0.62437725,-0.0006089151,-0.10214311,0.02784891,1.5382471e-05,-0.07735106,0.013749089,-0.01673094,0.4582985,-1.4162163,1.9473947,-2.1059458,-1.5642675,2.433986,-0.18039507,0.09322078,-0.09713712,-0.041829176,0.06386629,-0.16334659,-0.47884035,-0.21068975,-9.097966,0.842603,47.719128,-1.2344007,-2.1322808,-3.1253843,-0.53724325,0.33324432,-0.32024312,28.625,29.6875,28.9375,33.0,35.375,36.4375
0.2220545,-0.45709538,0.91339797,-0.5594875,0.005244691,0.058564547,-0.15833655,-0.39245147,-0.3455351,0.060119487,3.0703096,-0.62439924,-0.0005304543,-0.10239919,0.027239868,-0.001142625,-0.07946168,0.010056319,-0.022225438,0.45793822,-1.4160225,1.9472278,-2.1059816,-1.5641702,2.433651,-0.18171687,0.096827105,-0.09872345,-0.041471142,0.067384884,-0.15915805,-0.51714754,-0.24899697,-9.193734,0.84708,47.705692,-1.1785431,-2.0401113,-3.0322125,-0.5311638,0.29531997,-0.39461556,28.625,29.6875,28.9375,33.0,35.375,36.4375
0.22405522,-0.21759692,0.9010208,-0.35169914,0.0008792836,0.068435796,-0.16662629,-0.39265665,-0.34547743,0.060125478,3.0700939,-0.62447107,-0.00052996806,-0.101287395,0.026255809,-0.0017475735,-0.08183613,0.0066977465,-0.023165958,0.45755446,-1.4158661,1.94706,-2.1060889,-1.5640129,2.4333403,-0.18123536,0.09772516,-0.09858531,-0.040515244,0.07102905,-0.15771343,-0.40222588,-0.17238252,-9.136273,0.8918391,47.72002,-1.27086,-2.0510483,-3.1935625,-0.5521919,0.25538418,-0.48377585,28.625,29.6875,28.9375,33.0,35.375,36.4375
0.22605425,-0.77813494,0.5603951,-0.6817954,0.006609024,0.047874924,-0.16154344,-0.39288414,-0.34542796,0.060136568,3.069919,-0.62443364,-0.00055350095,-0.10118207,0.02634873,-0.0019585784,-0.08483641,0.0039571445,-0.021078182,0.45718107,-1.4156619,1.9468201,-2.1061723,-1.5638794,2.4329665,-0.18374638,0.09770152,-0.09827921,-0.039599027,0.074994184,-0.16228783,-0.17238252,-0.22984336,-9.212888,0.8403672,47.688675,-1.2110895,-1.9977603,-3.2597823,-0.5774554,0.21998315,-0.48820594,28.625,29.6875,28.9375,33.0,35.375,36.4375
0.2280548,-0.09687343,0.64448786,-0.6889379,-0.004841762,0.051338024,-0.17632504,-0.3930914,-0.34537926,0.060132425,3.0697165,-0.624535,-0.00045694795,-0.10212109,0.026820542,-0.0026034636,-0.08478072,0.0024590602,-0.011592501,0.45679703,-1.415445,1.9465922,-2.10622,-1.5636991,2.4326723,-0.18575639,0.10021588,-0.09983176,-0.039056752,0.07569381,-0.17377585,-0.1340753,-0.22984336,-9.32781,0.9030289,47.68062,-1.2373922,-2.1445155,-3.2532496,-0.59402937,0.16481428,-0.41184556,28.625,29.6875,28.9375,33.0,35.375,36.4375
0.23005424,-0.118701294,0.5840433,-0.80531144,-0.0128768915,0.051498566,-0.17454787,-0.3932941,-0.34529737,0.06012742,3.0695825,-0.62452316,-0.0004865174,-0.10234268,0.027443422,-0.0027591959,-0.08509996,0.0018485669,-9.815709e-05,0.45641252,-1.4152889,1.9464496,-2.1063278,-1.5636033,2.432298,-0.1873866,0.10012548,-0.09943093,-0.038824458,0.07635871,-0.18689142,-0.11492168,-0.19153613,-9.308656,0.85826975,47.71286,-1.2815244,-1.9921567,-3.2586899,-0.6095585,0.16998695,-0.28411755,28.625,29.6875,28.9375,33.0,35.375,36.4375
0.23205537,-0.026671635,0.76743746,-0.7195512,-0.026204403,0.04492453,-0.17054938,-0.39351955,-0.34524173,0.060135953,3.0694077,-0.62446463,-0.0004587122,-0.10345294,0.028032223,-0.0027600643,-0.087697595,0.0002982015,0.0046944986,0.45601538,-1.4150844,1.9462098,-2.1063879,-1.5634459,2.4318871,-0.19128175,0.10083622,-0.100374654,-0.038232915,0.07945756,-0.19555838,-0.076614454,0.0,-9.212888,0.8605109,47.737038,-1.1214011,-2.0249496,-3.3520017,-0.6095636,0.13508162,-0.19334978,28.625,29.6875,28.9375,33.0,35.375,36.4375
0.23405443,-0.35329607,-0.13101718,-0.83292776,-0.020727817,0.035754483,-0.15476947,-0.39370495,-0.3451655,0.060098544,3.0693004,-0.62442476,-0.00029586113,-0.1042154,0.02981169,-0.0041115168,-0.08405113,-0.0021614155,0.0039480077,0.45561844,-1.414855,1.9460429,-2.1064346,-1.563291,2.4314792,-0.19362304,0.10392151,-0.10126545,-0.03653289,0.07728901,-0.1971638,0.019153614,0.11492168,-9.289502,0.9030289,47.705692,-1.0866317,-2.2308059,-3.3983474,-0.6394528,0.116275474,-0.14893997,28.625,29.6875,28.9375,33.0,35.375,36.4375
0.23605429,0.24745415,-0.2584043,-1.1445591,-0.030895915,0.04609415,-0.15848528,-0.39391094,-0.3451025,0.060092878,3.069158,-0.62443787,-0.0002087884,-0.105459824,0.02971696,-0.0020126465,-0.08590993,0.0021093695,-0.0021342111,0.45523423,-1.4146401,1.945815,-2.106459,-1.563147,2.4311218,-0.1942959,0.10092807,-0.102520734,-0.036919143,0.07706573,-0.19175245,-0.076614454,0.17238252,-9.423578,0.7866488,47.71286,-1.1181763,-1.9299983,-3.3605528,-0.66779035,0.10306819,-0.17745328,28.625,29.6875,28.9375,33.0,35.375,36.4375
0.23805484,-0.31371477,-0.78149104,-1.2255098,-0.042604934,0.046381894,-0.15156566,-0.39411598,-0.3450385,0.06008562,3.0689797,-0.6244617,-0.00019175441,-0.10607555,0.03110649,-0.0046643275,-0.08242886,-0.0011404214,-0.010413446,0.45484993,-1.4144578,1.9456476,-2.1065667,-1.5630039,2.430776,-0.19610469,0.10625994,-0.10241233,-0.037897058,0.07535823,-0.18528177,-0.15322891,0.36391866,-9.461885,0.7620334,47.667187,-1.1212828,-2.1433442,-3.375235,-0.67583776,0.107382946,-0.2609748,28.625,29.6875,28.9375,33.0,35.375,36.4375
0.24005422,-0.2328569,-0.7511668,-1.1208186,-0.054691076,0.070908,-0.15991743,-0.3943441,-0.3449925,0.06010018,3.0687861,-0.62440443,-0.000237795,-0.10691905,0.032506727,-0.0033311003,-0.08021859,0.0013034322,-0.01460172,0.45447755,-1.4142665,1.9454201,-2.106674,-1.5628608,2.4303932,-0.19726513,0.10386019,-0.10316312,-0.035930052,0.07232332,-0.18225811,-0.095768064,0.3256114,-9.481039,0.8291774,47.657326,-1.2245018,-1.9255524,-3.427894,-0.7149013,0.1231166,-0.34530115,28.625,29.6875,28.9375,33.0,35.375,36.4375
0.2420548,-0.33413684,-0.39188147,-1.1144794,-0.052037377,0.082258575,-0.15392058,-0.3945524,-0.34491396,0.060077537,3.0686216,-0.6244866,-0.00013802975,-0.109241545,0.033308163,-0.0026559054,-0.07820513,0.0031095992,-0.0167634,0.454057,-1.4140495,1.9452394,-2.1067455,-1.5627054,2.4300456,-0.19894741,0.10591772,-0.10745125,-0.034375284,0.06973463,-0.18178669,-0.05746084,0.3256114,-9.500193,0.84484416,47.716442,-1.1011561,-2.0012717,-3.2795067,-0.76202226,0.1562255,-0.38746908,28.625,29.6875,28.9375,32.9375,35.375,36.5
0.24405453,-1.0109712,-0.7891778,-1.2109048,-0.041400302,0.07980074,-0.14815418,-0.3947643,-0.34483272,0.06006045,3.0685136,-0.6245217,-6.986499e-05,-0.11013947,0.035765782,-0.0036976272,-0.07554924,0.0037296184,-0.018610904,0.45365992,-1.4138213,1.9450248,-2.1067822,-1.5625986,2.4296846,-0.2022968,0.10608298,-0.10481293,-0.036503557,0.067104645,-0.18330073,0.0,0.34476504,-9.442732,0.8784135,47.687782,-0.98421717,-1.9688934,-3.424839,-0.79366225,0.19320385,-0.41143215,28.625,29.6875,28.9375,32.9375,35.375,36.5
0.24605496,-1.2858785,-1.0301968,-1.0672635,-0.048404034,0.078660585,-0.14599474,-0.3949835,-0.34478843,0.06006914,3.0683095,-0.62443614,-5.381403e-05,-0.11423384,0.035383437,-0.0013622707,-0.07750706,0.010257078,-0.010943652,0.45327523,-1.4136289,1.9448069,-2.106878,-1.5624183,2.4292734,-0.20441422,0.10709632,-0.11096781,-0.037944917,0.0660879,-0.19307989,0.019153614,0.38307226,-9.423578,0.81351066,47.69763,-1.0484531,-1.9233483,-3.30995,-0.7966252,0.20701143,-0.36121738,28.625,29.6875,28.9375,32.9375,35.375,36.5
0.24805422,-0.3909172,-0.8993516,-1.2205005,-0.045962628,0.08488356,-0.15597934,-0.39523998,-0.3447023,0.060077373,3.0681376,-0.62452805,-9.026533e-05,-0.11476105,0.03592025,-0.0017923929,-0.07618225,0.011766673,0.00038064082,0.4528312,-1.4134123,1.9445566,-2.106951,-1.5623115,2.4289095,-0.20457976,0.10780876,-0.110390745,-0.03986046,0.06434682,-0.20457223,-0.05746084,0.45968673,-9.385271,0.78888994,47.681515,-1.0852858,-1.9523053,-3.307291,-0.8043245,0.268336,-0.2263803,28.625,29.6875,28.9375,32.9375,35.375,36.5
0.2500548,-0.59681815,-0.45556343,-1.3914547,-0.055667434,0.072873525,-0.15129909,-0.39546245,-0.34463802,0.06006886,3.0680213,-0.62432826,-0.00010108764,-0.11634967,0.03541989,-0.0010212825,-0.07697944,0.01502843,0.0071935495,0.45244715,-1.4131958,1.9443525,-2.1070592,-1.5621914,2.428416,-0.20454878,0.10864049,-0.112733476,-0.041522875,0.06370971,-0.2113505,-0.095768064,0.38307226,-9.5385,0.7597976,47.692257,-1.1040587,-1.8806885,-3.2854514,-0.7983929,0.28925177,-0.14076501,28.625,29.6875,28.9375,32.9375,35.375,36.5
0.25205448,-0.5754349,-0.9051224,-1.3218281,-0.046987217,0.06770429,-0.14240576,-0.3957175,-0.34456858,0.060082804,3.067803,-0.62441784,-0.00010443994,-0.11650205,0.03578249,-0.00097003434,-0.07730534,0.014276297,0.0057049487,0.45200276,-1.4129796,1.9440893,-2.1071303,-1.562035,2.4280565,-0.20561594,0.10860843,-0.11303308,-0.04060205,0.064375795,-0.21091858,-0.24899697,0.30645782,-9.557653,0.8023209,47.69763,-1.123883,-1.8382918,-3.3453872,-0.8405461,0.30355752,-0.0898429,28.625,29.6875,28.9375,32.9375,35.375,36.5
0.25405484,-0.50908816,-0.69387347,-1.3057952,-0.051004123,0.06906352,-0.15691902,-0.39591438,-0.34450454,0.060048573,3.0676897,-0.62428397,9.625906e-06,-0.117707185,0.035435956,-0.0023623195,-0.07722541,0.012622145,-0.0019390909,0.45161882,-1.4127377,1.943909,-2.1072147,-1.561879,2.4276037,-0.20633677,0.1137839,-0.11558526,-0.041707847,0.064993925,-0.2039884,-0.36391866,0.2681506,-9.595961,0.92093146,47.71017,-1.1691375,-1.9287225,-3.1006846,-0.862646,0.33195013,-0.14604291,28.625,29.6875,28.9375,32.9375,35.375,36.5
0.25605464,-0.4725636,-0.46386582,-1.4952826,-0.050824672,0.07935608,-0.15061729,-0.3961773,-0.3444464,0.060066722,3.0674927,-0.6243611,-4.477769e-05,-0.118328236,0.03438286,-0.0012278627,-0.08254531,0.014781607,-0.010182152,0.45121044,-1.4124982,1.9436096,-2.1072872,-1.5617574,2.4272697,-0.20732252,0.111865774,-0.11533934,-0.04432643,0.06882997,-0.19670184,-0.4213795,0.24899697,-9.634268,0.92093146,47.72002,-1.2042369,-1.9280757,-3.4290566,-0.8482759,0.3071774,-0.25016966,28.625,29.6875,28.9375,32.9375,35.375,36.5
0.25805444,-0.88598233,-0.2757927,-1.554055,-0.055107642,0.08765326,-0.16199504,-0.396384,-0.34438008,0.060045835,3.067332,-0.6243508,2.4761941e-05,-0.11999184,0.03399555,-0.002011395,-0.08238254,0.01484655,-0.017651035,0.4508145,-1.4122803,1.9434294,-2.1073835,-1.5616015,2.4268885,-0.20783319,0.116393134,-0.11846573,-0.04571954,0.068628214,-0.18973821,-0.38307226,0.1340753,-9.80665,0.8918391,47.668976,-1.2788337,-2.1158576,-3.178115,-0.8417703,0.3181208,-0.37267843,28.625,29.6875,28.9375,32.9375,35.375,36.5
0.2600551,-0.9068444,-0.6164501,-1.5553441,-0.038645033,0.08921749,-0.14741366,-0.39663342,-0.34431413,0.060065314,3.0671158,-0.6244228,1.6711494e-05,-0.12167346,0.03331182,-0.0005938682,-0.08472939,0.018659858,-0.022801207,0.45038247,-1.4120764,1.9431652,-2.107444,-1.5614456,2.4265301,-0.20822683,0.115912996,-0.120753035,-0.047393344,0.069083,-0.18496975,-0.32561144,0.13407528,-9.634268,0.88960326,47.684196,-1.3584776,-2.0092459,-3.2309725,-0.859923,0.33681735,-0.44408196,28.625,29.6875,28.9375,32.9375,35.375,36.5
0.26205474,-0.88728076,-0.20130047,-1.2909825,-0.03522083,0.09448072,-0.15745637,-0.39689916,-0.34423023,0.060053293,3.0669615,-0.6244412,-7.153578e-05,-0.122643046,0.03226629,-0.0010862474,-0.08810137,0.018140811,-0.020264613,0.44994998,-1.4118233,1.9429377,-2.1076005,-1.5613602,2.4261298,-0.20919642,0.11869023,-0.12233854,-0.04951867,0.072409,-0.18844706,-0.4213795,0.15322891,-9.634268,0.8493211,47.711964,-1.3616097,-2.1735046,-3.226842,-0.8360469,0.32317883,-0.48524207,28.625,29.6875,28.9375,32.9375,35.375,36.5
0.26405513,-0.8739537,-0.6401929,-1.2271075,-0.040183797,0.09451043,-0.1593339,-0.3971543,-0.34416455,0.060065918,3.0667808,-0.6244391,-0.00010039639,-0.12376728,0.03214686,-0.001437931,-0.08961838,0.019061983,-0.008866846,0.44952935,-1.4115944,1.9426631,-2.1076734,-1.5612282,2.425732,-0.21051463,0.12036711,-0.12291929,-0.05193295,0.07350553,-0.2011485,-0.24899697,0.17238252,-9.634268,0.9164598,47.684196,-1.4476345,-2.2176647,-3.131437,-0.81391865,0.33257583,-0.43094558,28.625,29.6875,28.9375,32.9375,35.375,36.5
0.26605538,-0.6740395,-0.15603775,-1.1831809,-0.058401402,0.093126506,-0.16137138,-0.3973882,-0.3441237,0.060073804,3.0665681,-0.6243116,-8.9583664e-05,-0.12590404,0.033030845,-0.0010559071,-0.0909784,0.021523079,0.0010083285,0.44913262,-1.411378,1.9424223,-2.1077816,-1.5610355,2.4252837,-0.213974,0.12074373,-0.12372077,-0.05412098,0.07380248,-0.21447232,-0.19153613,0.11492168,-9.749189,0.9186956,47.707485,-1.4902911,-2.1748247,-3.2002497,-0.7943339,0.33472985,-0.29116982,28.625,29.6875,28.9375,32.9375,35.375,36.5
0.2680552,-0.8041385,-0.76645315,-1.3413483,-0.045634173,0.07611271,-0.16084307,-0.3976501,-0.34402952,0.06005245,3.0664248,-0.624279,-8.735619e-05,-0.12767383,0.032778554,-0.000621705,-0.09507006,0.022858491,0.0070402315,0.4486635,-1.4111137,1.9421948,-2.1079023,-1.5609149,2.4248133,-0.21695104,0.12145912,-0.12500174,-0.056397635,0.07701449,-0.22345579,-0.22984336,0.15322891,-9.615114,0.82022345,47.67614,-1.4365895,-2.093406,-3.2190323,-0.7535594,0.3295532,-0.1813312,28.625,29.6875,28.9375,32.9375,35.375,36.5
0.27005467,-0.5851728,-0.6987303,-1.2486757,-0.0514044,0.071487986,-0.15749227,-0.39790753,-0.343967,0.06004467,3.066224,-0.6242386,-0.0001083619,-0.12877719,0.03129283,0.00013785063,-0.09977802,0.024841879,0.005707229,0.44823122,-1.4108611,1.9419559,-2.1080468,-1.5607575,2.4243824,-0.21730126,0.12185546,-0.12656808,-0.059009854,0.08043665,-0.2224412,-0.47884035,0.11492168,-9.653421,0.7933669,47.694946,-1.3794773,-2.111082,-3.2079382,-0.7325534,0.31107345,-0.15351608,28.625,29.6875,28.9375,32.9375,35.375,36.5
0.27205443,-1.0711573,-1.1596272,-1.092625,-0.055642534,0.06272482,-0.1525359,-0.3981608,-0.3439079,0.06005277,3.0659804,-0.6242311,-0.00011032633,-0.12970746,0.03169081,-0.0009796595,-0.10272019,0.022815334,-0.0055551357,0.44778606,-1.4106442,1.9417166,-2.108167,-1.5605644,2.423965,-0.22090475,0.124042735,-0.1260268,-0.061197657,0.08396368,-0.21474831,-0.49799395,0.21068975,-9.595961,0.7620334,47.68599,-1.2352778,-2.3432293,-3.2584658,-0.6891016,0.24409992,-0.22328912,28.625,29.6875,28.9375,32.9375,35.375,36.5
0.27402785,-1.3034387,-0.75152,-0.96182036,-0.06449514,0.059885196,-0.15866318,-0.39845315,-0.34388176,0.060089696,3.0656836,-0.62419033,-0.00023183784,-0.1302847,0.031125236,-0.00093193003,-0.10644196,0.022170201,-0.0117265675,0.44736582,-1.410404,1.9413933,-2.1083229,-1.5603708,2.423559,-0.22257027,0.124644704,-0.12655576,-0.062282674,0.08763703,-0.21019831,-0.47884035,0.22984336,-9.481039,0.8851263,47.688675,-1.1822557,-2.0168962,-3.2999322,-0.66351163,0.21838301,-0.29967913,28.625,29.6875,28.9375,32.9375,35.375,36.5
0.27605477,-1.0068269,-0.8945146,-0.9927524,-0.049533725,0.06550393,-0.16027203,-0.39872238,-0.3438105,0.06009217,3.0654533,-0.624259,-0.0002688358,-0.13077587,0.03071373,-0.0009023046,-0.11061443,0.021032441,-0.016305592,0.44690892,-1.4101638,1.9411424,-2.1084554,-1.5602134,2.4231758,-0.22484018,0.124939024,-0.12674452,-0.06313297,0.09193028,-0.20784816,-0.40222588,0.19153613,-9.500193,0.84484416,47.68062,-1.2235628,-2.1105256,-3.2957578,-0.62607276,0.16681604,-0.3675618,28.625,29.6875,28.9375,32.9375,35.375,36.5
0.27805454,-0.57390463,-0.50425017,-0.8439432,-0.04819004,0.067620255,-0.16401382,-0.39900067,-0.34374923,0.060093373,3.0652177,-0.6242091,-0.00027454854,-0.13363925,0.030810492,-0.00052985654,-0.11431144,0.023194466,-0.017360428,0.44643974,-1.4098984,1.9408659,-2.108588,-1.5600208,2.4227068,-0.22886617,0.12688586,-0.12913202,-0.066133685,0.094404854,-0.21078831,-0.38307226,0.19153613,-9.423578,0.84484416,47.70211,-1.0887353,-2.1486256,-3.1805224,-0.5828938,0.1052701,-0.383174,28.625,29.6875,28.9375,32.9375,35.375,36.5
0.28005433,-0.9133647,-0.058472663,-0.33712307,-0.053144183,0.07020109,-0.16703169,-0.39924943,-0.34367472,0.060068656,3.065041,-0.62416655,-0.00025092537,-0.13401428,0.030541848,-0.00032066402,-0.11609858,0.02289352,-0.009287754,0.4459955,-1.409634,1.9406513,-2.108731,-1.5598639,2.4222596,-0.22974706,0.12721808,-0.13005057,-0.065882586,0.096271016,-0.21972117,-0.4405331,0.22984336,-9.346964,0.76874626,47.71286,-1.1595852,-2.1286485,-3.3795142,-0.52796423,0.07278454,-0.3111995,28.625,29.6875,28.9375,32.9375,35.375,36.5
0.2820551,-1.2205117,-0.23551568,-0.49098036,-0.018367508,0.06642811,-0.16783862,-0.39953536,-0.34363672,0.060100775,3.064752,-0.62409955,-0.0002814345,-0.13372266,0.030816497,-0.00081885676,-0.11514575,0.020950269,0.0024221216,0.44553927,-1.4093937,1.9403275,-2.1088378,-1.559636,2.4218001,-0.22990806,0.12839913,-0.13072212,-0.06400431,0.09642672,-0.2315746,-0.3256114,0.22984336,-9.193734,0.80456203,47.723602,-1.140844,-2.1052802,-3.3520412,-0.52782005,0.01767546,-0.18295191,28.625,29.6875,28.9375,32.9375,35.375,36.5
0.28405508,-1.3105274,0.59031785,-0.5520706,-0.0030993687,0.060759768,-0.17215894,-0.39980265,-0.34358072,0.06010184,3.0644882,-0.62407887,-0.00030624928,-0.13448957,0.031915903,-0.00036053036,-0.113146245,0.022706581,0.00738315,0.4450832,-1.4091536,1.9400886,-2.1090057,-1.5594329,2.4213665,-0.23078643,0.1277434,-0.13115436,-0.06347569,0.0939867,-0.2374172,-0.095768064,0.038307227,-9.270349,0.8851263,47.709274,-1.2070429,-2.0474153,-3.3133085,-0.512777,0.03696742,-0.0838008,28.625,29.6875,28.9375,32.9375,35.375,36.5
0.2860548,-1.133629,0.47365326,-0.35954326,0.008457908,0.061444104,-0.16240455,-0.40007594,-0.34349194,0.060080692,3.0642924,-0.6240395,-0.00026505248,-0.13516252,0.032031745,-0.0005332658,-0.1108735,0.023359371,0.0031158938,0.4445798,-1.4088767,1.9398488,-2.1091368,-1.559254,2.4208646,-0.2299151,0.12972987,-0.13320708,-0.06298222,0.09166262,-0.23228598,-0.26815057,0.095768064,-9.136273,0.81351066,47.69763,-1.3746704,-2.0756114,-3.4046907,-0.47036678,0.041670166,-0.09738271,28.625,29.6875,28.9375,32.9375,35.375,36.5
0.28805432,-0.5353224,1.0895972,0.17444639,0.00679985,0.07778927,-0.16994767,-0.40034276,-0.34343147,0.060077302,3.0641036,-0.62399936,-0.00027196557,-0.13363816,0.0347309,-0.002865215,-0.101664856,0.017559031,-0.005282306,0.44414777,-1.4085995,1.9395622,-2.1092427,-1.5590996,2.4204328,-0.22953078,0.13257961,-0.13261162,-0.057237834,0.085832536,-0.22353715,-0.4213795,0.076614454,-8.925584,0.8112748,47.705692,-1.4640988,-2.1570568,-3.349793,-0.49527192,0.06930089,-0.18211538,28.625,29.6875,28.9375,32.9375,35.375,36.5
0.29005522,-0.010386721,1.4129043,-0.19929735,0.035737377,0.07140543,-0.17234173,-0.40061513,-0.34335473,0.06006214,3.0638723,-0.62401783,-0.00027993845,-0.13697009,0.03529622,0.00083845836,-0.10101821,0.025577206,-0.014746115,0.44366744,-1.4083362,1.9393328,-2.10941,-1.5589212,2.419995,-0.23060754,0.12958701,-0.13791625,-0.055907834,0.08178071,-0.21516766,-0.21068975,0.0,-8.848969,0.8090337,47.668976,-1.4407759,-1.9979932,-3.174262,-0.51992965,0.13822994,-0.2933226,28.625,29.6875,28.9375,32.9375,35.375,36.5
0.29205525,-0.0406692,1.3744959,-0.40752372,0.052417852,0.050115146,-0.17304048,-0.4009122,-0.34328777,0.060101684,3.0636153,-0.6241205,-0.00036565473,-0.1383429,0.0373112,0.0004933263,-0.09722201,0.025193488,-0.023858631,0.44319874,-1.4081074,1.9389967,-2.109481,-1.5587662,2.4196253,-0.23308682,0.13127793,-0.13957968,-0.053956486,0.07852502,-0.20854458,0.0,-0.076614454,-9.040505,0.900793,47.705692,-1.4306749,-2.1153803,-3.177815,-0.51595336,0.17721389,-0.43293512,28.625,29.6875,28.9375,32.9375,35.375,36.5
0.29405504,0.33155403,1.1887364,-0.3498394,0.033128534,0.042663988,-0.17896394,-0.40117794,-0.34319738,0.060087044,3.063497,-0.6240757,-0.00038883204,-0.13988371,0.039705943,0.00026980357,-0.09235134,0.02515914,-0.024556749,0.4427539,-1.4078306,1.938733,-2.109576,-1.5586718,2.4191685,-0.23572181,0.13286722,-0.14158396,-0.05133027,0.07420426,-0.21050905,0.076614454,-0.019153614,-9.136273,0.88960326,47.72092,-1.4478208,-2.054203,-3.1522365,-0.5272444,0.24438149,-0.5052444,28.625,29.6875,28.9375,32.9375,35.375,36.5
0.2960554,0.05282488,0.72230476,-0.38270554,0.011817581,0.028331514,-0.18300812,-0.40146932,-0.3431251,0.060074434,3.063308,-0.62404794,-0.0003583054,-0.14120083,0.041287247,0.0007054622,-0.091277406,0.0253729,-0.01518291,0.44227308,-1.4075061,1.9384102,-2.1096714,-1.558504,2.4186957,-0.23888417,0.13281637,-0.14300683,-0.04936396,0.073311016,-0.2230473,-0.038307227,0.11492168,-8.963891,0.800085,47.70659,-1.3666887,-1.9411669,-3.0827587,-0.556167,0.30588648,-0.4413969,28.625,29.6875,28.9375,32.9375,35.375,36.5
0.29805467,-0.054994576,0.95262325,-0.5485169,-0.01190431,0.02659008,-0.18997476,-0.40174538,-0.34303913,0.060077116,3.0631297,-0.62404156,-0.0003902478,-0.1415941,0.04270289,0.000259819,-0.09018103,0.023511825,-0.0029057835,0.44180405,-1.4072539,1.9381355,-2.1097658,-1.5583719,2.4182467,-0.24155495,0.13348359,-0.14324646,-0.047393534,0.07331692,-0.23798922,-0.05746084,0.11492168,-9.11712,0.84484416,47.70211,-1.3214177,-1.9297793,-3.1468587,-0.5824048,0.322236,-0.2706192,28.625,29.6875,28.9375,32.9375,35.375,36.5
0.30005446,-0.6073337,-0.049730573,-0.92881656,-0.026986714,0.021203818,-0.17858301,-0.40201616,-0.34294134,0.06005526,3.0629961,-0.62394667,-0.00033955535,-0.14152287,0.04340792,-0.0006821833,-0.088821,0.019920705,0.0028856548,0.44131163,-1.4069647,1.9378713,-2.1098487,-1.5582284,2.417713,-0.24284106,0.13585863,-0.14456177,-0.04446937,0.07373581,-0.24506013,-0.038307227,0.1340753,-9.404425,0.8851263,47.72629,-1.2221298,-1.9594086,-3.1277251,-0.6314274,0.36867553,-0.17453808,28.625,29.6875,28.9375,32.9375,35.375,36.5
0.30205494,-0.6382568,-0.7850631,-0.82588345,-0.03918482,0.035231527,-0.16605625,-0.4022918,-0.342845,0.06005426,3.062789,-0.6239917,-0.00028243999,-0.1421547,0.044716455,-0.0016401592,-0.08952413,0.015738606,-0.006413799,0.44079405,-1.4067119,1.9375967,-2.1099083,-1.5580472,2.4172513,-0.24705254,0.13793325,-0.14528616,-0.04232889,0.07615892,-0.23994608,-0.19153613,0.11492168,-9.385271,0.8403672,47.719128,-1.1073478,-1.9702417,-3.2012608,-0.686471,0.39268023,-0.18325123,28.625,29.6875,28.9375,32.9375,35.375,36.5
0.30405462,-1.4620695,-0.9761892,-1.0706061,-0.044358686,0.019997008,-0.17161967,-0.4025539,-0.3427703,0.060039144,3.0626442,-0.6239479,-0.00022824392,-0.14274117,0.044936128,-0.001082873,-0.09130755,0.015575385,-0.016195802,0.4403495,-1.4064119,1.9372991,-2.109968,-1.5579022,2.4167988,-0.24881089,0.13734484,-0.14604464,-0.0416352,0.07780062,-0.23190399,-0.2681506,0.17238252,-9.385271,0.8112748,47.678825,-0.96397805,-2.1179976,-3.1833568,-0.7283475,0.38827777,-0.2880998,28.625,29.6875,28.9375,32.9375,35.375,36.5
0.3060552,-1.1762046,-1.0558107,-1.2344176,-0.0473801,0.04770165,-0.17001687,-0.40284058,-0.34269086,0.060044874,3.0624177,-0.6239345,-0.00020546818,-0.14190945,0.044436432,-0.0027520156,-0.09197354,0.011098933,-0.020427031,0.43984598,-1.406146,1.9369997,-2.1100514,-1.5577096,2.4163175,-0.2486475,0.14060584,-0.1461848,-0.04097268,0.08032083,-0.22747897,-0.3256114,0.24899697,-9.404425,0.842603,47.685097,-1.0989778,-2.262385,-3.2674985,-0.7496979,0.39675707,-0.372473,28.625,29.6875,28.9375,32.9375,35.375,36.5
0.30805463,-0.73941034,-0.7818507,-1.3297006,-0.050859965,0.080384284,-0.18352535,-0.40310708,-0.34259775,0.060020104,3.0622358,-0.6239934,-8.975512e-05,-0.14053108,0.042527467,-0.0023669063,-0.09648976,0.009532838,-0.01612089,0.43934253,-1.4058465,1.9367245,-2.1101105,-1.5575279,2.4158752,-0.24699834,0.13954042,-0.14589295,-0.04060493,0.08513423,-0.230094,-0.38307226,0.22984336,-9.5385,0.8940802,47.705692,-1.2558484,-2.1846366,-3.2852342,-0.7925375,0.3998239,-0.39368284,28.625,29.6875,28.9375,32.9375,35.375,36.5
0.3100552,-1.7748594,-1.1174259,-1.3452543,-0.04817899,0.07033985,-0.18059182,-0.40337873,-0.34252447,0.06001454,3.0620568,-0.6238148,-3.912057e-05,-0.14090265,0.040845934,-0.0024284215,-0.0995886,0.00917101,-0.005523162,0.43886292,-1.4055694,1.936438,-2.110195,-1.5573348,2.415308,-0.24612449,0.14180455,-0.14819111,-0.041357663,0.08822832,-0.2397842,-0.34476504,0.24899697,-9.557653,0.8605109,47.661808,-1.5021253,-2.1093361,-3.2938318,-0.8174723,0.3433258,-0.34776914,28.625,29.6875,28.9375,32.9375,35.375,36.5
0.3120549,-1.4769096,-1.0805091,-1.2666054,-0.05772889,0.08811435,-0.16980235,-0.40368035,-0.3424249,0.060001418,3.0618594,-0.623899,-7.054947e-06,-0.14090969,0.039904684,-0.0032347706,-0.10396265,0.0068876604,0.006966106,0.43833444,-1.4052565,1.9361266,-2.1102793,-1.557177,2.4148588,-0.24751894,0.14367512,-0.14817727,-0.042779505,0.09334028,-0.25361884,-0.53630114,0.2681506,-9.595961,0.85155696,47.705692,-1.5181923,-2.1491303,-3.36513,-0.8318824,0.3485297,-0.19632521,28.625,29.6875,28.9375,32.9375,35.375,36.5
0.3140553,-1.2801579,-1.1104531,-1.3697137,-0.05433575,0.07001856,-0.1693066,-0.40397662,-0.34234244,0.059997983,3.0616448,-0.6238136,1.2701177e-05,-0.14135766,0.03770288,-0.003065687,-0.11055323,0.0060431166,0.012357058,0.43781787,-1.4049674,1.9358267,-2.1103876,-1.5569824,2.4143178,-0.24788749,0.14530678,-0.15002008,-0.044446576,0.09977359,-0.2593116,-0.28730422,0.24899697,-9.653421,1.0037369,47.71017,-1.4789994,-2.2205906,-3.3006086,-0.84208775,0.24941769,-0.08950697,28.625,29.6875,28.9375,32.9375,35.375,36.5
0.31605512,-0.5210246,-1.0752933,-1.5770403,-0.055232562,0.04047805,-0.17299944,-0.40426856,-0.34226385,0.059986234,3.0614412,-0.6237556,6.0785304e-05,-0.14376695,0.037074212,-0.0021481223,-0.11441081,0.008676247,0.004326107,0.43731362,-1.404655,1.9355158,-2.110484,-1.5567902,2.4138048,-0.25008807,0.14658552,-0.15305787,-0.04669733,0.10213206,-0.25344917,-0.28730422,0.28730422,-9.672575,0.82694155,47.685097,-1.4810891,-2.2963955,-3.2036033,-0.86196196,0.21202564,-0.09637933,28.625,29.6875,28.9375,32.9375,35.375,36.5
0.31805456,-0.38742107,-0.6645377,-1.404143,-0.06693089,0.014059223,-0.16678458,-0.4045364,-0.34219563,0.05995631,3.0612328,-0.6236617,0.0001494435,-0.14496616,0.037913006,-0.0032113944,-0.11689297,0.0065488005,-0.010125048,0.43683246,-1.404342,1.935254,-2.110616,-1.5565733,2.413293,-0.254347,0.14879698,-0.15282631,-0.048315,0.10521986,-0.24322022,-0.3256114,0.24899697,-9.653421,0.8560339,47.690468,-1.5177046,-2.2645319,-3.4665942,-0.8594581,0.18493685,-0.20281887,28.625,29.6875,28.9375,32.9375,35.375,36.5
0.32005435,-0.014416971,-0.8111606,-1.4078468,-0.06680086,0.024752717,-0.16843268,-0.4048297,-0.3421349,0.059990793,3.0609744,-0.623672,0.00014729486,-0.14702958,0.038156766,-0.0014273694,-0.12114173,0.011375994,-0.023246568,0.4363513,-1.4040908,1.9348954,-2.1106536,-1.5563682,2.4128532,-0.25740844,0.14596419,-0.15277797,-0.051752202,0.10697869,-0.23312852,-0.3256114,0.22984336,-9.5385,0.87617236,47.692257,-1.451683,-2.1935883,-3.356874,-0.8645495,0.14342436,-0.34089246,28.625,29.6875,28.9375,32.9375,35.375,36.5
0.3220551,-0.505686,-0.7001778,-1.3507074,-0.051570915,0.031669367,-0.17107397,-0.40512916,-0.3420384,0.059973788,3.0607598,-0.6237037,0.00020819157,-0.14885134,0.03890604,-0.0019823287,-0.12093929,0.011906434,-0.02995445,0.43581057,-1.4037772,1.934595,-2.11075,-1.5561765,2.4123614,-0.2597853,0.14871974,-0.15439583,-0.053245038,0.10657101,-0.22879119,-0.24899697,0.24899697,-9.557653,0.86498255,47.71286,-1.2763311,-2.442116,-3.3916938,-0.84691447,0.10854941,-0.45470917,28.625,29.6875,28.9375,32.9375,35.375,36.5
0.32405493,-0.6283509,-0.8325891,-1.1690701,-0.038818393,0.07192463,-0.17684406,-0.40545493,-0.341947,0.059959386,3.0605118,-0.6237629,0.00021165726,-0.1504709,0.040630408,-0.0026683053,-0.11882995,0.011196834,-0.026192093,0.43525752,-1.4034402,1.9342722,-2.110893,-1.5559849,2.411879,-0.26302266,0.1512843,-0.15605424,-0.052408207,0.10509417,-0.2357921,-0.21068975,0.28730422,-9.634268,0.9321212,47.70032,-1.1790776,-2.2832994,-3.3371952,-0.8793744,0.13339098,-0.47270215,28.625,29.6875,28.9375,32.9375,35.375,36.5
0.3260551,-1.5184484,-0.103097536,-0.8693852,-0.03578995,0.097927876,-0.1796536,-0.4057383,-0.34191623,0.059972353,3.0601544,-0.62367994,0.00027452572,-0.15334237,0.042185307,-0.0023073875,-0.11853211,0.015528392,-0.015967462,0.43476397,-1.4031756,1.9339732,-2.111038,-1.5556616,2.411382,-0.26675004,0.1519942,-0.15695743,-0.05567441,0.10321339,-0.24974611,-0.05746084,0.21068975,-9.404425,0.7866488,47.66987,-1.0320475,-2.332097,-3.365645,-0.8483548,0.13890114,-0.35077995,28.625,29.6875,28.9375,32.9375,35.375,36.5
0.32805508,-1.5896696,0.25253603,-1.10024,-0.0095713055,0.12456793,-0.17638865,-0.40605104,-0.34182757,0.059965216,3.059956,-0.62361234,0.00028936192,-0.15664387,0.042762715,-0.00066858757,-0.11727799,0.024591342,-0.0060258685,0.43423614,-1.4028515,1.933638,-2.1111352,-1.5554837,2.4108388,-0.26724905,0.15153499,-0.15908806,-0.060504194,0.0984223,-0.26022264,-0.11492168,0.24899697,-9.385271,0.8157518,47.66808,-1.0133862,-2.2680407,-3.3403845,-0.8024212,0.1499528,-0.2024005,28.625,29.6875,28.9375,32.9375,35.375,36.5
0.33005488,-1.4216038,0.86822075,-1.008383,-0.012780184,0.13871358,-0.16558138,-0.40637246,-0.34171835,0.05995727,3.0597262,-0.623679,0.00026718545,-0.15736525,0.042819176,-0.00085500785,-0.114124864,0.027203497,-0.005367465,0.4336722,-1.4025509,1.93334,-2.1112673,-1.5553168,2.410348,-0.2652507,0.15325962,-0.16042054,-0.06184983,0.094516635,-0.25890765,-0.2681506,0.1340753,-9.461885,0.8090337,47.667187,-1.1027471,-2.1936407,-3.3083255,-0.76591486,0.23743123,-0.17768794,28.625,29.6875,28.9375,32.9375,35.375,36.5
0.33205447,-1.6310668,0.43695652,-0.7716808,-0.012224751,0.1226315,-0.16631466,-0.40668356,-0.3416341,0.059959512,3.059523,-0.6236201,0.00021691818,-0.15889043,0.043633807,2.2063225e-05,-0.11386896,0.030688062,-0.0142794615,0.4331686,-1.4022506,1.9330162,-2.1113875,-1.5551614,2.4098353,-0.26664957,0.15229289,-0.1609616,-0.06342075,0.09280608,-0.25139722,-0.4213795,0.17238252,-9.346964,0.85826975,47.70838,-1.2405114,-2.2236195,-3.310586,-0.7528585,0.23034233,-0.28794134,28.625,29.6875,28.9375,32.9375,35.375,36.5
0.33405432,-0.51406145,1.0734142,-1.1338999,-0.014062297,0.10725088,-0.18066944,-0.4070118,-0.3415645,0.059967473,3.0592086,-0.62365013,0.00022466418,-0.16131009,0.043533046,0.0008356588,-0.11408445,0.036088265,-0.019452576,0.43261668,-1.4019377,1.932669,-2.111521,-1.5549101,2.4093451,-0.26692656,0.15327343,-0.16309634,-0.067215875,0.09075213,-0.24650505,-0.38307226,0.11492168,-9.481039,0.900793,47.70211,-1.4298483,-2.3509037,-3.263112,-0.70441914,0.29374796,-0.35691154,28.625,29.6875,28.9375,32.9375,35.375,36.5
0.3360549,-0.9159894,0.48499438,-1.2202303,-0.0133481035,0.07520617,-0.17188266,-0.40733665,-0.3414773,0.059955586,3.059018,-0.62359,0.00013897839,-0.16313162,0.042950578,0.0014726651,-0.11612567,0.038875118,-0.019691935,0.43211186,-1.4016014,1.9323462,-2.1116889,-1.5547775,2.408829,-0.2676488,0.15457295,-0.1655725,-0.06934266,0.09151239,-0.24696577,-0.36391866,0.1340753,-9.461885,0.88289046,47.683304,-1.4896184,-2.1240811,-3.3436735,-0.6618483,0.3365143,-0.40341246,28.625,29.6875,28.9375,32.9375,35.375,36.5
0.3380546,-1.0225685,-0.31745186,-1.2757659,-0.020034993,0.0684231,-0.16467908,-0.40764922,-0.34137738,0.05993271,3.0587988,-0.62363243,0.00013153329,-0.16274361,0.042903416,0.00028598536,-0.11570671,0.03787789,-0.011093408,0.4315725,-1.4012762,1.9320587,-2.1118448,-1.5546092,2.4083462,-0.2671539,0.1563408,-0.16463852,-0.07074422,0.09171665,-0.25505918,-0.34476504,0.11492168,-9.519346,0.87617236,47.691364,-1.5814564,-2.208498,-3.3576179,-0.63266253,0.32979536,-0.37518087,28.625,29.6875,28.9375,32.9375,35.375,36.5
0.3400549,-0.9796948,0.046135567,-1.4552494,-0.027395828,0.054138303,-0.17433317,-0.40799662,-0.34129167,0.059955865,3.0585253,-0.6235854,6.477687e-05,-0.1642119,0.04324211,0.0012438279,-0.11741869,0.040198926,0.0010299146,0.43100765,-1.4009763,1.9316882,-2.1119645,-1.5544051,2.4077895,-0.2692389,0.15575871,-0.16601427,-0.07127987,0.09256176,-0.26924506,-0.24899697,0.15322891,-9.557653,0.8985519,47.705692,-1.4807997,-2.1639562,-3.458902,-0.58111924,0.353893,-0.23461583,28.625,29.6875,28.9375,32.9375,35.375,36.5
0.34205496,-0.9154196,-0.63785374,-1.5693138,-0.023091555,0.061419785,-0.16045105,-0.40833414,-0.3411802,0.05993939,3.0583277,-0.6236179,3.4483954e-05,-0.16570447,0.0434988,0.0020401464,-0.11959995,0.04021123,0.003373222,0.4304432,-1.4006279,1.931353,-2.1120956,-1.5542601,2.4072726,-0.27200773,0.15630157,-0.16880761,-0.06978504,0.09467729,-0.27432504,-0.24899697,0.19153613,-9.5385,0.9947882,47.72002,-1.4741104,-2.051064,-3.4068012,-0.5589683,0.35779446,-0.12947446,28.625,29.6875,28.9375,32.9375,35.375,36.5
0.34405488,-1.1724547,-0.67805994,-1.5186995,-0.030771973,0.056377564,-0.16618556,-0.40864086,-0.34110028,0.059933886,3.058122,-0.6234439,-8.184988e-06,-0.16578728,0.04473077,0.001103252,-0.120098464,0.037121177,-0.004766929,0.42993778,-1.4003271,1.9310545,-2.112251,-1.5540799,2.4066865,-0.27514568,0.15717435,-0.16789664,-0.06896164,0.096446924,-0.26929015,-0.38307226,0.21068975,-9.576807,0.99031126,47.687782,-1.370806,-2.123393,-3.4891832,-0.5508367,0.35805365,-0.16407011,28.625,29.6875,28.9375,32.9375,35.375,36.5
0.34605458,-0.39348674,-0.5492834,-1.7255203,-0.025194077,0.06497549,-0.1612921,-0.40898535,-0.34097546,0.059941206,3.057863,-0.6236238,-7.1534625e-05,-0.16614634,0.044894412,-0.00030102616,-0.122202195,0.031032614,-0.017969398,0.42933717,-1.4000376,1.9307312,-2.1123703,-1.5539225,2.4062343,-0.27826554,0.16132772,-0.17014371,-0.06629502,0.10086255,-0.2591426,-0.38307226,0.24899697,-9.672575,0.8537928,47.693153,-1.3538206,-2.21822,-3.407587,-0.5574171,0.34385508,-0.2603224,28.625,29.6875,28.9375,32.9375,35.375,36.5
0.3480544,-0.6195041,-0.59497297,-1.7308849,-0.045134693,0.053242482,-0.15216191,-0.40929666,-0.34090808,0.059919085,3.057583,-0.62360847,2.534432e-05,-0.16585812,0.043170445,0.0008990374,-0.12765399,0.029158525,-0.028060999,0.42879695,-1.3996776,1.9303964,-2.112501,-1.5536565,2.4057226,-0.2783324,0.16053233,-0.17248015,-0.063796006,0.106545724,-0.24904369,-0.51714754,0.24899697,-9.672575,0.8314132,47.660015,-1.3533077,-2.15797,-3.3439236,-0.56467164,0.3174382,-0.4282967,28.625,29.6875,28.9375,32.9375,35.375,36.5
0.35005483,-0.4280417,-0.7157403,-1.5292164,-0.053759024,0.05150268,-0.1712817,-0.40964854,-0.34084588,0.059960302,3.057247,-0.62362415,-7.6921504e-05,-0.16545387,0.04268922,0.0007258533,-0.13157241,0.024029566,-0.030361122,0.42825598,-1.3993889,1.9300007,-2.112631,-1.5534261,2.405238,-0.28055218,0.16163686,-0.17418991,-0.06006253,0.11234559,-0.24887438,-0.49799395,0.30645782,-9.576807,0.85155696,47.67166,-1.2343882,-2.096462,-3.4072318,-0.57300806,0.2460531,-0.511444,28.625,29.6875,28.9375,32.9375,35.375,36.5
0.3520547,-0.49000618,-1.2299644,-1.8556323,-0.043975297,0.048400853,-0.16859797,-0.40996802,-0.34074655,0.059937015,3.0570161,-0.62364954,-2.1278105e-05,-0.1652303,0.042246386,0.0002428903,-0.13538311,0.020597441,-0.018846974,0.4276918,-1.3990403,1.9296783,-2.1127498,-1.5532206,2.4047213,-0.28258327,0.16278937,-0.17469268,-0.05883991,0.11747628,-0.26235542,-0.34476504,0.28730422,-9.595961,0.8940802,47.705692,-1.1762335,-2.1596675,-3.3601665,-0.60847545,0.17145206,-0.43035245,28.625,29.6875,28.9375,32.9375,35.375,36.5
0.35405436,-0.12728877,-0.36602736,-1.6881214,-0.071934514,0.055018812,-0.18137506,-0.41030478,-0.34068486,0.0599488,3.056691,-0.6235503,4.8246384e-06,-0.1645235,0.041452944,-0.00030370077,-0.13812363,0.016305774,-0.0033821,0.42712745,-1.3987153,1.9293078,-2.112881,-1.5529307,2.4041395,-0.28323394,0.16453286,-0.17611451,-0.055981465,0.122047774,-0.27840313,-0.22984336,0.22984336,-9.691729,0.9254084,47.677036,-1.2526442,-2.234877,-3.3808227,-0.6129898,0.12799942,-0.2752147,28.625,29.6875,28.9375,32.9375,35.375,36.5
0.3560551,-1.0471226,-1.03475,-1.195796,-0.056523047,0.05595193,-0.15908737,-0.41063106,-0.34057844,0.059926372,3.056484,-0.62348557,9.728738e-05,-0.16391432,0.041794565,-0.0016428856,-0.13689438,0.011825148,0.0013502692,0.4265396,-1.398354,1.9289602,-2.1129634,-1.5527147,2.4035394,-0.28364784,0.16742352,-0.17717268,-0.053006873,0.122914925,-0.28353322,-0.4213795,0.28730422,-9.519346,0.81351066,47.674347,-1.3268886,-2.174274,-3.3909736,-0.6584108,0.055669334,-0.1825706,28.625,29.6875,28.9375,32.9375,35.375,36.5
0.35805485,-1.0477068,-0.16571993,-0.9652764,-0.03663395,0.07863027,-0.15906271,-0.4109968,-0.3405132,0.059972532,3.056091,-0.6235376,-2.4739662e-05,-0.16576822,0.04157026,0.00021060811,-0.13760357,0.016137104,-0.006809393,0.42596346,-1.3980781,1.9285773,-2.1131313,-1.5524515,2.4030504,-0.28376135,0.16657427,-0.18035163,-0.053197417,0.121781565,-0.27546588,-0.47884035,0.22984336,-9.423578,0.8179876,47.67166,-1.3798349,-2.1610165,-3.2193847,-0.6715543,0.04160652,-0.24627459,28.625,29.6875,28.9375,32.9375,35.375,36.5
0.3600544,-1.6026205,0.5725946,-1.1802154,0.007972469,0.08640783,-0.16246308,-0.41132274,-0.3404466,0.059960388,3.055782,-0.62351227,0.00012203106,-0.16826728,0.041844003,0.0006743224,-0.13562362,0.021090336,-0.0128933145,0.4253875,-1.397705,1.9281944,-2.1132166,-1.5521406,2.4025009,-0.2835654,0.16869242,-0.18327956,-0.056029845,0.117904626,-0.26921913,-0.24899697,0.19153613,-9.404425,0.84708,47.688675,-1.4068522,-2.3189223,-3.2152436,-0.6487288,0.053184,-0.3312839,28.625,29.6875,28.9375,32.9375,35.375,36.5
0.36205497,-1.4636532,0.7562843,-1.1680119,0.040793266,0.10296955,-0.15660962,-0.41165468,-0.340332,0.059941474,3.0555735,-0.62356377,0.00019109876,-0.1691561,0.04540152,-0.00057269493,-0.12885125,0.01982289,-0.01705408,0.42479867,-1.3973441,1.9278358,-2.1132872,-1.5519508,2.401973,-0.28679323,0.1702132,-0.18284205,-0.05391912,0.11231271,-0.26834667,-0.095768064,0.19153613,-9.308657,0.88960326,47.691364,-1.4021939,-2.265202,-3.2521996,-0.6576659,0.073217675,-0.38552678,28.625,29.6875,28.9375,32.9375,35.375,36.5
0.36405468,-1.1012131,0.9974043,-0.61890715,0.050955314,0.117384546,-0.15674825,-0.41199282,-0.34023497,0.05993805,3.055321,-0.6234855,0.00017429855,-0.17106278,0.049148366,-0.0013450551,-0.12177072,0.02024212,-0.011995488,0.42422143,-1.3970188,1.9275011,-2.1134303,-1.5517372,2.4013817,-0.29064572,0.17208509,-0.18386231,-0.05192411,0.10589271,-0.2773224,-0.17238252,0.17238252,-9.251196,0.9791215,47.690468,-1.3149011,-2.2964482,-3.2721038,-0.70231396,0.15204664,-0.3254121,28.625,29.6875,28.9375,32.9375,35.375,36.5
0.36605513,-1.200477,0.7973123,-0.6401123,0.052149624,0.1090044,-0.15834029,-0.4123759,-0.3401437,0.05996926,3.0550208,-0.6235462,5.9248432e-05,-0.17374675,0.05014021,1.11555e-05,-0.12066862,0.025168948,0.0004793337,0.42363268,-1.3966827,1.9270695,-2.11355,-1.5515455,2.400873,-0.29254016,0.17221431,-0.18699594,-0.052558593,0.103152305,-0.2917073,-0.17238252,0.17238252,-9.059659,0.8627467,47.71554,-1.2645222,-2.2313664,-3.2448688,-0.700043,0.22550376,-0.19252461,28.625,29.6875,28.9375,32.9375,35.375,36.5
0.36805472,-1.003494,0.65480834,-0.9700949,0.024969934,0.08806336,-0.16716407,-0.41269997,-0.3400262,0.059941225,3.0548687,-0.6233959,6.162938e-05,-0.17390825,0.05166152,-0.00030901254,-0.11536986,0.026262574,0.0043933736,0.42306933,-1.3963343,1.9267596,-2.113681,-1.551392,2.4002366,-0.2918642,0.17260966,-0.1870977,-0.0514902,0.09798697,-0.29500258,0.05746084,0.1340753,-9.136273,0.88960326,47.64479,-1.2637357,-2.260385,-3.3557687,-0.7093415,0.2977644,-0.100486666,28.625,29.6875,28.9375,32.9375,35.375,36.5
0.37005466,-0.5243236,-0.43961072,-0.6429699,-0.019693129,0.07189403,-0.15929997,-0.4130459,-0.33991522,0.059941832,3.054631,-0.62338233,7.931706e-05,-0.17437771,0.052827228,5.2065807e-05,-0.11565537,0.02492652,-0.0048336224,0.42246816,-1.3959981,1.9263886,-2.113764,-1.5511869,2.3996599,-0.29453126,0.1719607,-0.18773991,-0.049111295,0.09878485,-0.28842115,-0.17238252,0.15322891,-9.078813,0.8985519,47.683304,-1.2274435,-2.0809927,-3.2977242,-0.7507655,0.33416325,-0.12375146,28.625,29.6875,28.9375,32.9375,35.375,36.5
0.37205458,-0.118040524,-0.55588824,-0.4122797,-0.042398106,0.044641793,-0.14535517,-0.41339678,-0.3398038,0.059932876,3.0544133,-0.62336904,7.123989e-05,-0.1765269,0.05465127,0.0009596414,-0.11458292,0.027109137,-0.022189744,0.421879,-1.395638,1.9260167,-2.1138718,-1.5510076,2.3990927,-0.29794306,0.17151114,-0.18943682,-0.048675854,0.096789144,-0.27448735,-0.57460845,0.17238252,-8.925584,0.9410752,47.691364,-1.1436044,-2.1549344,-3.3043838,-0.77722025,0.38909525,-0.27722472,28.625,29.6875,28.9375,32.9375,35.375,36.5
0.3740552,-0.016414119,-0.29972377,-0.97066355,-0.023271872,0.024639929,-0.15845372,-0.4137543,-0.33970207,0.059930135,3.0541582,-0.6233957,0.00010013446,-0.17733347,0.053739965,0.0017094259,-0.117801175,0.027631184,-0.032219682,0.42127874,-1.3952653,1.9256109,-2.1139557,-1.5507911,2.3985445,-0.29836774,0.1718986,-0.19154727,-0.048831403,0.09944562,-0.26483464,-0.21068975,0.13407528,-9.097966,0.99031126,47.694054,-1.1298136,-2.078098,-3.3135707,-0.79657686,0.40455562,-0.4367535,28.625,29.6875,28.9375,32.9375,35.375,36.5
0.3760547,0.5488375,0.11560315,-1.1236097,-0.007635396,0.03240206,-0.17106448,-0.4141003,-0.33959365,0.05993414,3.0538976,-0.6234681,7.6009346e-05,-0.178116,0.052669283,0.00203704,-0.12180649,0.027335944,-0.028250817,0.42069086,-1.394941,1.9252514,-2.1140635,-1.5505975,2.3980384,-0.29929334,0.17317855,-0.19367965,-0.049154386,0.103367485,-0.2696661,0.1340753,0.11492168,-9.232041,0.8985519,47.689575,-1.1552424,-1.9555898,-3.2157578,-0.80386066,0.39406717,-0.4852423,28.625,29.6875,28.9375,32.9375,35.375,36.5
