Tylouw/Master_Thesis_Code/training_data/batch_1/small_rod_t0.3/sample_93_session_3.csv
timestamp[s],tcp_force_x[N],tcp_force_y[N],tcp_force_z[N],tcp_force_rx[Nm?],tcp_force_ry[Nm?],tcp_force_rz[Nm?],tcp_pose_x[m],tcp_pose_y[m],tcp_pose_z[m],tcp_pose_rx[rot_vec_x],tcp_pose_ry[rot_vec_y],tcp_pose_rz[rot_vec_z],tcp_velo_x[m/s],tcp_velo_y[m/s],tcp_velo_z[m/s],tcp_velo_rx[rot_vec_x/s],tcp_velo_ry[rot_vec_y/s],tcp_velo_rz[rot_vec_z/s],q1[rad],q2[rad],q3[rad],q4[rad],q5[rad],q6[rad],qd1[rad/s],qd2[rad/s],qd3[rad/s],qd4[rad/s],qd5[rad/s],qd6[rad/s],tool_acc_x,tool_acc_y,tool_acc_z,current_of_whole_robot[A],voltage_of_whole_robot[V],current_J1[A],current_J2[A],current_J3[A],current_J4[A],current_J5[A],current_J6[A],temp_J1[C],temp_J2[C],temp_J3[C],temp_J4[C],temp_J5[C],temp_J6[C]
7.499766e-07,-0.62327677,-1.0346022,0.7905803,0.0070187906,-0.0018101351,-0.0015246092,-0.3810596,-0.34853026,0.059979483,-3.0785348,0.62493825,-0.0001862271,0.0023296876,0.0011702855,-0.0027218447,0.0026750162,-0.0055167265,0.0001918561,0.47778618,-1.4259574,1.9577159,-2.1008208,-1.5707334,2.452776,-3.4801444e-05,0.0013548854,0.0046465728,0.00012684584,0.00017144601,-0.0002291141,0.019153614,0.15322891,-8.868123,0.78217715,47.703007,0.047473636,-2.875238,-2.5532632,-0.44328046,0.18251202,0.04227637,28.625,29.6875,28.9375,33.0,35.4375,36.5
0.002052551,-0.5858909,-0.5157657,0.93437093,0.00091941823,-0.009908739,-0.013569463,-0.38106683,-0.3485275,0.059969928,-3.0785172,0.62489635,-0.00014586779,-0.0003743679,-0.00023726458,-0.0031764305,-0.0010848581,0.0017022707,0.00020368869,0.4777981,-1.4259325,1.9577159,-2.1008494,-1.5707697,2.452764,-3.414135e-05,0.0038783348,0.0054100864,-0.011299561,0.00016617167,-0.00023796647,0.0,0.15322891,-8.7532015,0.7463667,47.696735,0.03949173,-2.8789983,-2.4905229,-0.3998186,0.1707887,0.030608244,28.625,29.6875,28.9375,33.0,35.4375,36.5
0.004052306,-0.554552,-0.4629458,0.6592612,0.0033733174,-0.00769521,-0.009027043,-0.3810403,-0.34853587,0.059952073,-3.07854,0.62480533,-0.00019680001,-0.0013922784,-0.0007661604,-0.0025399772,-0.00237404,0.004188492,0.00019640062,0.47782207,-1.4259325,1.9577621,-2.1008732,-1.5707458,2.4527283,-3.3505843e-05,0.003940718,0.0042788894,-0.01303132,0.00016121054,-0.00022910831,0.05746084,0.095768064,-8.695741,0.7396539,47.67614,0.036340505,-3.155966,-2.6611092,-0.29859087,0.1715576,0.02650976,28.625,29.6875,28.9375,33.0,35.4375,36.5
0.006052484,-0.37263328,0.025631594,0.641892,0.02368499,-0.026374068,-0.010393862,-0.38106292,-0.3485368,0.05995661,-3.0785258,0.6248979,-0.00015987954,-0.00076145295,-0.0004358525,-0.0014983922,-0.0013542338,0.0022491284,0.00018730045,0.47781014,-1.4259092,1.9577273,-2.1008828,-1.5707573,2.452776,-3.2893535e-05,0.0023151627,0.0024712144,-0.007406955,0.00015653681,-0.00021985863,0.076614454,0.1340753,-8.734048,0.7642693,47.709274,0.0269686,-2.9968214,-2.6679158,-0.3161245,0.17865536,0.026340827,28.625,29.6875,28.9375,33.0,35.4375,36.5
0.008052552,0.28558064,0.85210484,0.13959539,0.046158113,-0.04323868,-0.017318826,-0.38104215,-0.3485057,0.059934787,-3.0784743,0.6249261,-0.00024675886,-0.0002574003,-0.00017138693,-0.00039428857,-0.0009186881,0.0014333677,0.00017865024,0.47777414,-1.4259219,1.957786,-2.1008575,-1.5707573,2.452764,-3.2303215e-05,0.00018473068,0.0014478883,-0.0033284875,0.00015212681,-0.00021126162,0.05746084,0.15322891,-8.963891,0.7016076,47.704796,0.052276522,-2.9067397,-2.5286376,-0.37268513,0.1746428,0.03346839,28.625,29.6875,28.9375,33.0,35.4375,36.5
0.01005169,0.5768587,0.8403301,0.029933106,0.042222682,-0.028146893,-0.021633592,-0.38105738,-0.3485339,0.05995201,-3.0785332,0.62482303,-0.00017466278,-8.917021e-06,-4.0773266e-05,-0.00025335752,-0.000427526,0.00050018687,0.00018775034,0.47781014,-1.42591,1.9577383,-2.1008809,-1.5707573,2.4527283,-3.1733765e-05,2.4783978e-06,0.00093551184,-0.001579325,0.00014795813,-0.00021989718,0.076614454,0.1340753,-9.232041,0.784413,47.696735,-0.35726672,-2.3835764,-3.060625,-0.39186662,0.1460358,-0.012571886,28.625,29.6875,28.9375,33.0,35.4375,36.5
0.012051855,0.08499425,-0.37801418,-0.441886,0.016163955,-0.017697576,-0.01072726,-0.38105223,-0.34852442,0.05992279,-3.0784779,0.6249072,-0.00024786592,-0.00014021987,-3.0091262e-05,-0.0023680867,0.0016663095,-0.0035396193,0.0003115335,0.47779804,-1.4258605,1.9577488,-2.1008809,-1.5707573,2.4527757,-0.00017367995,0.0055788294,-0.00073329976,-0.0009367078,0.00014401204,-0.00048402682,0.11492168,0.13407528,-9.3661175,0.7105615,47.71554,-0.58814555,-2.2570884,-3.199483,-0.3898776,0.1514121,-0.10421578,28.625,29.6875,28.9375,33.0,35.4375,36.5
0.014052231,-0.5406884,-0.7774075,-0.5158554,-0.033975113,0.004605289,-0.027364615,-0.3810602,-0.34850687,0.059926916,-3.0784488,0.62482285,-0.0002452817,-0.005232702,0.001996668,-0.004237191,0.0031069443,-0.006352291,0.0024065063,0.477783,-1.4258567,1.957724,-2.1008327,-1.5707935,2.4527118,-0.008496132,0.015240606,-0.007542948,-0.0006307527,0.00014027079,-0.010896532,0.038307227,0.21068975,-9.442732,0.69937176,47.703903,-0.44508898,-2.9845147,-3.0486856,-0.3774242,0.15418571,-0.06823214,28.625,29.6875,28.9375,33.0,35.4375,36.5
0.016052095,-1.4011399,-1.3751171,-0.73148185,-0.053723123,0.02605715,-0.031218832,-0.38105345,-0.34850457,0.05991905,-3.0784419,0.6248387,-0.00031184245,-0.0067645945,0.003443183,-0.0032261983,0.002627144,-0.0054237912,0.0074426765,0.47776967,-1.4258454,1.9577235,-2.1008084,-1.5707697,2.4527092,-0.01248257,0.01367934,-0.008382041,0.00072320754,0.00013671926,-0.019919235,-0.22984336,0.3256114,-9.595961,0.7083204,47.63404,-0.09469493,-2.9277728,-3.0374787,-0.37061808,0.14331776,0.01258978,28.625,29.6875,28.9375,33.0,35.4375,36.5
0.01805163,-1.8897907,-1.7008753,-0.8799872,-0.054452945,0.0472787,-0.051327072,-0.38104716,-0.34847927,0.0598721,-3.0783746,0.6248805,-0.0004548631,-0.0051084715,0.0031092246,-0.0029678051,0.0030571918,-0.0062407693,0.01220558,0.47772247,-1.4257742,1.9577469,-2.100796,-1.5707573,2.4526966,-0.010352127,0.01162698,-0.0069948696,0.0023114835,0.00013334303,-0.022553053,-0.38307226,0.3256114,-9.710882,0.7486078,47.68062,-0.38178027,-2.5826352,-3.3411965,-0.38151377,0.14474972,0.01703751,28.625,29.6875,28.9375,33.0,35.4375,36.5
0.02005171,-1.506158,-0.84931135,-0.68384695,-0.053213894,0.08114529,-0.07958727,-0.38103038,-0.34848392,0.059856914,-3.0783784,0.6247859,-0.00048431617,-0.0059044156,0.0032474261,-0.0033072042,0.0036616265,-0.007405693,0.010618018,0.4777462,-1.4257616,1.9577698,-2.1008074,-1.5707573,2.4526608,-0.011334904,0.013948065,-0.009118203,0.0034262307,0.00013012941,-0.021947045,-0.49799395,0.3256114,-9.749189,0.77545905,47.698532,-0.5607182,-2.4563498,-3.5553713,-0.40482685,0.11771187,0.012689494,28.625,29.6875,28.9375,33.0,35.4375,36.5
0.022051852,-2.0996153,-0.761568,-0.9035316,-0.015848896,0.07086308,-0.09056108,-0.38105232,-0.34848082,0.05985336,-3.0784056,0.6247547,-0.0005342729,-0.008152441,0.0035885477,-0.0029269506,0.0029659036,-0.006071611,0.007133753,0.47769713,-1.4257249,1.9577335,-2.100796,-1.5707215,2.4525888,-0.014021485,0.015820796,-0.012012836,0.0029444383,0.00012706716,-0.0211475,-0.6512228,0.36391866,-9.749189,0.7016076,47.67793,-0.59609795,-2.4769487,-3.4091904,-0.40748554,0.12186365,-0.016853154,28.625,29.6875,28.9375,33.0,35.4375,36.5
0.024051977,-1.8596419,-0.5815956,-1.0740305,0.003124808,0.06430675,-0.10693283,-0.38107023,-0.34846988,0.0598458,-3.0783708,0.62475,-0.00051337905,-0.00986551,0.0039726067,-0.0029676168,0.002521345,-0.005218419,0.0032432994,0.47768435,-1.4256883,1.9577092,-2.1007965,-1.5707573,2.4525776,-0.016289122,0.01759101,-0.013700511,0.0018993441,0.00012414594,-0.019523337,-0.6895301,0.21068975,-9.844957,0.7597976,47.747787,-0.5648525,-2.4995685,-3.4420047,-0.38155222,0.11294494,-0.029360417,28.625,29.6875,28.9375,33.0,35.4375,36.5
0.02605253,-2.001871,-0.5515224,-1.0378407,-0.0049881837,0.05208805,-0.12073079,-0.38109595,-0.34849152,0.059843577,-3.07842,0.62478054,-0.0005571298,-0.011231993,0.0035748708,-0.0024973268,0.0017793851,-0.0037913653,0.0014761137,0.47766018,-1.425628,1.9576482,-2.1008084,-1.5706977,2.4525661,-0.016845109,0.018942606,-0.01621663,0.0014567517,0.00012135592,-0.018310558,-0.78529817,0.15322891,-9.825804,0.74413085,47.70211,-0.5244477,-2.4812295,-3.4370108,-0.35418776,0.11292151,-0.054151177,28.625,29.6875,28.9375,33.0,35.4375,36.5
0.028052505,-1.4096068,-0.5692403,-0.8923936,-0.0142200915,0.06838289,-0.13912225,-0.38112238,-0.34847182,0.05984297,-3.0783854,0.6247351,-0.00055161264,-0.012046076,0.0037081456,-0.0019706835,0.0011936626,-0.0026596908,0.00021539953,0.47762394,-1.4255922,1.9576005,-2.1007721,-1.5707334,2.452506,-0.01783278,0.018681074,-0.017091356,0.0013181375,0.000118688244,-0.018037086,-0.7661445,0.15322891,-9.864111,0.7172743,47.655537,-0.59676,-2.4722633,-3.4716105,-0.3576136,0.09557155,-0.072566606,28.625,29.6875,28.9375,33.0,35.4375,36.5
0.03005161,-1.7118634,-0.63341206,-0.7965572,-0.0060703256,0.071702264,-0.1475381,-0.38116014,-0.34844908,0.059843298,-3.078357,0.62482536,-0.0005113196,-0.012822799,0.003161135,-0.0017105814,0.0007913683,-0.001886707,0.000389588,0.477564,-1.4255677,1.9575747,-2.1007845,-1.5707573,2.452506,-0.017577099,0.019975655,-0.01913406,0.0011944562,0.000116135656,-0.017954325,-0.7469909,-0.019153614,-9.959879,0.78888994,47.694946,-0.6933768,-2.490936,-3.44635,-0.36133033,0.095456734,-0.08431561,28.625,29.6875,28.9375,33.0,35.4375,36.5
0.03205248,-1.9331506,-0.60994273,-0.65755296,0.005443258,0.06787552,-0.16736925,-0.38117343,-0.34846878,0.059838064,-3.0783944,0.6247376,-0.00056330266,-0.013518262,0.0035227325,-0.0016488489,0.0012112227,-0.0026934536,-0.00084741873,0.47756344,-1.4255075,1.9575151,-2.1007717,-1.5707215,2.452446,-0.018862087,0.021035654,-0.020838276,0.0027487774,0.00011369043,-0.018001588,-0.61291564,-0.05746084,-9.844957,0.75084364,47.689575,-0.70840627,-2.4386308,-3.3746872,-0.34700602,0.08373916,-0.112252146,28.625,29.6875,28.9375,33.0,35.4375,36.5
0.03405209,-1.5982016,-0.09675315,-0.7527702,0.028025521,0.061444633,-0.17774607,-0.38121554,-0.34846127,0.05983565,-3.0783796,0.6247541,-0.0005251066,-0.014776843,0.0038037023,-0.0005992708,0.00084207166,-0.0019784484,-0.0014354013,0.47752687,-1.4254477,1.957455,-2.100783,-1.5707458,2.4524217,-0.020523015,0.020891294,-0.023537666,0.0047872737,0.000111346155,-0.019073598,-0.5554548,-0.076614454,-9.691729,0.75084364,47.677036,-0.68716943,-2.3843684,-3.3852415,-0.33962435,0.07638882,-0.1385439,28.625,29.6875,28.9375,33.0,35.4375,36.5
0.036052566,-0.85903627,0.8982958,-0.49185875,0.040444538,0.05221254,-0.20421848,-0.38122973,-0.34844813,0.05982603,-3.0783467,0.6248055,-0.000567867,-0.015563415,0.0042131627,-0.00075263355,0.00085435115,-0.0020041005,-0.0020932471,0.47749037,-1.4254113,1.9574302,-2.1007597,-1.5707458,2.4524214,-0.02197686,0.021796016,-0.02416199,0.0045351987,0.0001090966,-0.01986909,-0.51714754,-0.05746084,-9.519346,0.8291774,47.63225,-0.6304763,-2.4186049,-3.4059095,-0.34277874,0.06733703,-0.1351428,28.625,29.6875,28.9375,33.0,35.4375,36.5
0.038052548,-0.5688065,0.68646353,-0.46941808,0.045297008,0.04639974,-0.21066712,-0.38125685,-0.3484306,0.059823357,-3.0783617,0.62478924,-0.0006065744,-0.016555283,0.0040468345,-0.0007599534,0.00034148648,-0.0010216815,-0.0017828861,0.4774183,-1.425387,1.9574059,-2.1007478,-1.5707215,2.4523373,-0.022596303,0.023075614,-0.02532664,0.0033124096,0.00010693615,-0.020797856,-0.34476504,-0.15322891,-9.634268,0.6658024,47.667187,-0.65589464,-2.4425306,-3.3756428,-0.31406128,0.055890545,-0.14173865,28.625,29.6875,28.9375,33.0,35.4375,36.5
0.04005161,-0.8278543,0.37611747,-0.43942097,0.036491778,0.030729601,-0.21850158,-0.3813067,-0.3484229,0.0598095,-3.0783274,0.6248201,-0.00057116675,-0.01827861,0.0039001391,-1.4560046e-05,-0.00071791105,0.0010330089,-0.0018229448,0.47738168,-1.425291,1.9573334,-2.1007717,-1.5707573,2.4523244,-0.02392087,0.023878627,-0.027802944,0.0026730748,9.6260184e-05,-0.022080842,-0.3256114,-0.19153613,-9.653421,0.71951014,47.699425,-0.6503894,-2.3595521,-3.4007423,-0.3113313,0.04750085,-0.17144912,28.625,29.6875,28.9375,33.0,35.4375,36.5
0.042051714,-0.9523124,-0.1632972,-0.58691436,0.029264638,0.019839335,-0.22449198,-0.38136998,-0.34841722,0.05984444,-3.0783553,0.62486464,-0.00047013082,-0.01992132,0.003971633,0.0006965547,-0.0015233054,0.0026025826,-0.002222654,0.47732112,-1.4252788,1.9572371,-2.1007602,-1.5707697,2.4522882,-0.025557404,0.024578774,-0.030214697,0.0026201017,8.629808e-05,-0.023316303,-0.24899697,-0.076614454,-9.557653,0.7239871,47.639416,-0.609453,-2.338573,-3.3222487,-0.28488767,0.041992977,-0.19563597,28.625,29.6875,28.9375,33.0,35.4375,36.5
0.04405191,-0.56463706,-0.29997927,-0.48761752,0.017920462,0.02199328,-0.2254675,-0.38141295,-0.3484036,0.0598409,-3.078326,0.6249165,-0.00044675212,-0.020403963,0.004495966,0.00071139855,-0.0010125786,0.001648587,-0.0024875202,0.4772726,-1.4252186,1.9571766,-2.1007597,-1.5707935,2.4522758,-0.026923824,0.0251998,-0.03131264,0.0041783103,7.1669936e-05,-0.02441749,-0.1340753,0.019153614,-9.519346,0.8224646,47.681515,-0.6086762,-2.3001475,-3.2764444,-0.27480057,0.04587163,-0.20983616,28.625,29.6875,28.9375,33.0,35.4375,36.5
0.04605259,-0.76288676,-0.6553947,-0.72359586,0.019838402,0.010178412,-0.22137132,-0.38145247,-0.34840804,0.05984825,-3.078368,0.62482786,-0.00043126434,-0.020740988,0.005194896,0.0009954897,6.9771695e-06,-0.00028506224,-0.0020094174,0.47723615,-1.4251705,1.9571046,-2.1007583,-1.5707816,2.4521787,-0.028466584,0.02560573,-0.033277825,0.00792346,5.8215795e-05,-0.026438018,0.019153614,0.095768064,-9.519346,0.7597976,47.705692,-0.62438595,-2.2954233,-3.3331428,-0.29926106,0.014078729,-0.24269252,28.625,29.6875,28.9375,33.0,35.4375,36.5
0.048051603,-0.81477356,-0.7744248,-0.71942663,0.022917641,-0.0028926625,-0.20185792,-0.3814789,-0.3483787,0.059835616,-3.0783255,0.62489605,-0.0005156917,-0.021676386,0.005314397,0.0015593788,-0.00025771817,0.0004255944,-0.0008798345,0.47715175,-1.4251226,1.9570678,-2.1007102,-1.5707697,2.4521422,-0.029478999,0.02584414,-0.035007887,0.0086625805,-3.7830272e-05,-0.028579066,0.0,0.19153613,-9.595961,0.68818194,47.66271,-0.60963017,-2.2352014,-3.3302524,-0.31616145,0.017654175,-0.22120872,28.625,29.6875,28.9375,33.0,35.4375,36.5
0.0500522,-0.37845498,-0.5968576,-0.6916604,0.0052853096,0.0072345724,-0.20499837,-0.38154805,-0.34838706,0.05986003,-3.0783901,0.6249472,-0.00046395755,-0.022897331,0.005595153,0.0015467829,-0.0004636334,0.0009675553,-0.00029458478,0.47707915,-1.4250742,1.9569596,-2.100722,-1.5707334,2.4520934,-0.031056669,0.027155511,-0.036352303,0.008120633,-0.000106876956,-0.03074086,-0.076614454,0.28730422,-9.653421,0.7351769,47.67614,-0.58184725,-2.2277536,-3.2619762,-0.32380676,0.020717485,-0.23336512,28.625,29.6875,28.9375,33.0,35.4375,36.5
0.05205214,-0.5257393,-1.3862051,-0.7830595,-0.0011603617,0.006521482,-0.20255682,-0.381588,-0.3483517,0.059856415,-3.0783362,0.624935,-0.0004188639,-0.023904473,0.005960783,0.0019223408,0.00057887455,0.0022516693,0.0015141034,0.477019,-1.425038,1.9569238,-2.1007102,-1.5707945,2.4520326,-0.031647667,0.027705008,-0.03791942,0.008479327,-0.0016266485,-0.03313675,-0.1340753,0.28730422,-9.576807,0.87617236,47.695843,-0.5634419,-2.2254937,-3.2706482,-0.3142649,0.017816665,-0.25555524,28.625,29.6875,28.9375,33.0,35.4375,36.5
0.05405223,-0.4973385,-1.3056314,-0.6752595,-0.018709183,0.010140611,-0.19556983,-0.3816518,-0.34834173,0.0598832,-3.0783527,0.62493825,-0.00041662029,-0.02457334,0.0063636852,0.0023539062,0.0011811071,0.00195683,0.0017751101,0.4769346,-1.42499,1.9567913,-2.1006372,-1.5707825,2.4519482,-0.03271721,0.028047167,-0.039760485,0.01051811,-0.0020257132,-0.034465965,0.019153614,0.34476504,-9.500193,0.7329411,47.652847,-0.5974814,-2.1481855,-3.3214645,-0.32827598,0.011727081,-0.26363933,28.625,29.6875,28.9375,33.0,35.4375,36.5
0.056052025,-0.4620816,-1.4263785,-0.69453317,-0.022624552,0.005977296,-0.19610325,-0.38168547,-0.34835252,0.059891015,-3.0783834,0.6248668,-0.0003871064,-0.025231067,0.0066096094,0.0020492035,0.0013353893,0.0010781764,0.002390782,0.47692227,-1.4249417,1.9567183,-2.1006372,-1.5707821,2.4518874,-0.033932295,0.02961004,-0.040958274,0.011003157,-0.0017608756,-0.03629653,-0.019153614,0.34476504,-9.481039,0.7665104,47.679718,-0.5781216,-2.1543765,-3.270924,-0.31923425,0.007121576,-0.24819228,28.625,29.6875,28.9375,33.0,35.4375,36.5
0.05805219,-0.15174869,-1.4403106,-0.8687711,-0.022257283,0.011150307,-0.19533126,-0.38173842,-0.34832802,0.059868913,-3.078372,0.6249023,-0.00045653578,-0.026079891,0.0065602707,0.0017608334,0.0012391858,0.0007938859,0.0038917249,0.476814,-1.4248452,1.9566587,-2.1006372,-1.5707577,2.4518027,-0.034760475,0.031561825,-0.04247755,0.010778652,-0.0015511815,-0.03862489,-0.038307227,0.40222588,-9.461885,0.6948948,47.695843,-0.61780745,-2.1952147,-3.3144531,-0.31305787,0.004590655,-0.2773425,28.625,29.6875,28.9375,33.0,35.4375,36.5
0.060052175,-0.61439866,-1.4305974,-0.7766508,-0.015325337,0.004569613,-0.19451454,-0.3817929,-0.34831583,0.059878502,-3.0783558,0.6248791,-0.00040628912,-0.027223092,0.0065239985,0.0023204712,0.00029485897,0.0018873491,0.0048962263,0.4767655,-1.4247851,1.9565629,-2.1006134,-1.570794,2.451742,-0.0359636,0.03193115,-0.044157416,0.010681202,-0.0012184004,-0.040832266,-0.05746084,0.4213795,-9.519346,0.7642693,47.66987,-0.66717833,-2.1271062,-3.2937164,-0.30788362,-0.020129215,-0.29390538,28.625,29.6875,28.9375,33.0,35.4375,36.5
0.06205249,-0.53889656,-1.1858118,-0.52766085,-0.007747341,0.017084597,-0.1984374,-0.38182792,-0.34830663,0.05989025,-3.0783842,0.6248077,-0.00047072265,-0.028000869,0.006403457,0.0026718301,-0.000109630455,0.0026726027,0.0060295253,0.47669327,-1.4247489,1.9564785,-2.1005418,-1.5707577,2.4516215,-0.03645998,0.032455236,-0.045557864,0.010675418,-0.0012240177,-0.04246112,-0.019153614,0.40222588,-9.423578,0.7530795,47.73883,-0.66258943,-2.0334907,-3.2820387,-0.30452573,-0.047782663,-0.26819146,28.625,29.6875,29.0,33.0,35.4375,36.5
0.06405172,-0.75782967,-0.8788854,-0.3963272,-0.0057568965,0.022795305,-0.20348306,-0.38190845,-0.34830356,0.05991397,-3.0784037,0.62488735,-0.00037163994,-0.028399684,0.006146274,0.002468095,0.00030970012,0.0016384467,0.007227958,0.47662145,-1.4246885,1.9563578,-2.1005528,-1.5707701,2.451597,-0.036431957,0.034409333,-0.04759419,0.011867758,-0.0011211144,-0.04363072,0.0,0.30645782,-9.3661175,0.7620334,47.71017,-0.6894976,-2.0595415,-3.2445288,-0.31039673,-0.05181644,-0.30808896,28.625,29.6875,29.0,33.0,35.375,36.5
0.066052474,-0.48843926,-0.6579665,-0.22095326,0.0034099477,0.033922955,-0.204705,-0.3819572,-0.3482929,0.059924513,-3.078416,0.6247741,-0.00033288042,-0.030380476,0.0057689147,0.0030287972,-0.0003166353,0.003130271,0.007059248,0.47657293,-1.4246396,1.9562725,-2.100529,-1.570794,2.4514763,-0.03749854,0.036668535,-0.051450484,0.011851162,-0.001257031,-0.04452605,-0.11492168,0.2681506,-9.3661175,0.70608455,47.64837,-0.7702267,-2.1424565,-3.085853,-0.3250047,-0.064363815,-0.33500582,28.625,29.6875,29.0,33.0,35.375,36.5
0.06805236,-0.963574,-0.65572053,-0.36847758,0.011251933,0.028747883,-0.1932959,-0.38199213,-0.34827903,0.05989728,-3.0784047,0.62477,-0.00041528448,-0.030109871,0.0067241765,0.001921157,0.0018741358,0.0021198378,0.010134381,0.47650084,-1.4245435,1.9562253,-2.1005294,-1.5707706,2.4514031,-0.03797786,0.03757537,-0.049812496,0.011214832,-0.0027418898,-0.048078116,-0.076614454,0.28730422,-9.404425,0.77545905,47.690468,-0.8241621,-2.099368,-3.2527215,-0.3059484,-0.04453405,-0.32461601,28.625,29.6875,29.0,33.0,35.375,36.5
0.07005242,-1.1684455,-0.7282643,-0.43364564,0.01162996,0.022645814,-0.18710321,-0.38209596,-0.3482745,0.059922993,-3.0784357,0.62471783,-0.00034697886,-0.030991295,0.0067139594,0.0011266237,0.002874856,0.00098348,0.01107593,0.47640467,-1.4244345,1.9560341,-2.1004937,-1.5707825,2.4512706,-0.038524155,0.041019797,-0.051972426,0.011399345,-0.00311259,-0.049563795,-0.1340753,0.30645782,-9.385271,0.800085,47.696735,-0.863629,-2.1765194,-3.3164604,-0.31839138,-0.05581117,-0.33075184,28.625,29.6875,29.0,33.0,35.375,36.5
0.07205271,-0.7585383,-0.29242843,-0.08008169,0.0010028919,0.02683772,-0.19911121,-0.38215926,-0.34825596,0.059936173,-3.0784333,0.6246602,-0.00025401366,-0.03242352,0.006032383,0.0021781796,0.0011839677,0.0035684553,0.01005808,0.47634456,-1.4243865,1.9559492,-2.1004941,-1.5708307,2.451175,-0.038831107,0.041260395,-0.05446381,0.010574053,-0.002800391,-0.048852146,-0.21068975,0.19153613,-9.251195,0.7284641,47.687782,-0.9094293,-2.244622,-3.0986185,-0.30466977,-0.0713239,-0.37217098,28.625,29.6875,29.0,33.0,35.375,36.5
0.07405168,-0.5248367,-0.2566971,-0.21741027,0.005597416,0.03626987,-0.2025485,-0.3822163,-0.34824464,0.059921585,-3.0784175,0.6246562,-0.00037667452,-0.034025177,0.0054968614,0.0037757664,-0.0006374813,0.006618824,0.011884205,0.47624826,-1.4242551,1.9558161,-2.1004217,-1.5707945,2.4510782,-0.03948485,0.040603146,-0.05737518,0.010596978,-0.0025906377,-0.051330883,-0.30645782,0.17238252,-9.251195,0.784413,47.71554,-0.9749207,-2.1022375,-3.0663242,-0.30104643,-0.079932846,-0.37600556,28.625,29.6875,29.0,33.0,35.375,36.5
0.07605241,-0.5844884,0.34694993,-0.06279884,0.0035196897,0.038915895,-0.20216182,-0.38228765,-0.34824297,0.059942942,-3.0784943,0.62463105,-0.00030004015,-0.033053998,0.0064263134,0.0013508928,0.0018460809,0.0020360965,0.015161336,0.476164,-1.424218,1.9557332,-2.100458,-1.5707706,2.4509685,-0.04016964,0.043736603,-0.055444963,0.010745375,-0.0026896086,-0.055293337,-0.19153613,0.11492168,-9.289502,0.800085,47.689575,-1.048771,-2.195297,-3.1870239,-0.3086431,-0.101634234,-0.37618804,28.625,29.6875,29.0,33.0,35.375,36.5
0.07805245,-0.9659143,-0.013574619,-0.04579917,0.020484097,0.03264516,-0.20161207,-0.3823387,-0.34823322,0.059946463,-3.0784822,0.6246272,-0.00035516877,-0.03466807,0.006311702,0.0018988001,0.002254929,0.0035125262,0.017813092,0.47609186,-1.4241337,1.9556125,-2.1003864,-1.5707587,2.4508955,-0.04076771,0.045457378,-0.05877507,0.011233634,-0.003738936,-0.05853925,-0.15322891,0.095768064,-9.212888,0.7597976,47.687782,-1.0622141,-2.2088652,-3.1656702,-0.28327876,-0.08351668,-0.35597104,28.625,29.6875,29.0,33.0,35.375,36.5
0.08005252,-1.2960336,-0.12237055,0.025471894,0.023982538,0.031533282,-0.19986053,-0.38242435,-0.34821236,0.05996272,-3.078489,0.6245516,-0.00024898074,-0.03607177,0.006822413,0.002188603,0.0038099266,0.0050166743,0.017351076,0.47600767,-1.4240613,1.9554929,-2.1003864,-1.5708078,2.4507635,-0.041615095,0.046692878,-0.06091383,0.011516812,-0.005811471,-0.058919776,-0.28730422,0.15322891,-9.270349,0.7597976,47.68062,-1.1212544,-2.1716423,-3.0798218,-0.29075736,-0.10038187,-0.38887888,28.625,29.6875,29.0,33.0,35.375,36.5
0.082052305,-1.1482394,-0.11213907,-0.0016214492,0.024290137,0.033133052,-0.19130121,-0.38249522,-0.3481886,0.059949283,-3.078474,0.6244109,-0.00024203557,-0.03671431,0.007062634,0.001985045,0.0050247572,0.005589274,0.021975022,0.47592366,-1.4239411,1.9553837,-2.100374,-1.570844,2.4505937,-0.04175176,0.04795152,-0.06182164,0.011214759,-0.0071593,-0.06367704,-0.4213795,0.17238252,-9.212888,0.7396539,47.67793,-1.212899,-2.1638024,-3.0821643,-0.2880478,-0.065178186,-0.33546,28.625,29.6875,29.0,33.0,35.375,36.5
0.08405217,-0.7541401,0.009861045,-0.02528009,0.015664056,0.042718463,-0.19965585,-0.38257244,-0.34818518,0.05996421,-3.0784938,0.624394,-0.00024023224,-0.038088933,0.0075645247,0.0021204294,0.0053757653,0.0061642663,0.024354342,0.4758389,-1.4238448,1.9552287,-2.1003263,-1.5708326,2.450496,-0.043524224,0.049225822,-0.06363223,0.011402025,-0.0077388394,-0.06782677,-0.24899697,0.15322891,-9.212888,0.7642693,47.67614,-1.2149649,-2.1711068,-3.056847,-0.27516133,-0.07979069,-0.33037263,28.625,29.6875,29.0,33.0,35.375,36.5
0.08605173,-0.70740414,-0.416394,-0.1852129,0.00938714,0.037426278,-0.19637367,-0.38267538,-0.34816852,0.059989564,-3.0785236,0.62434083,-0.00014323437,-0.0395057,0.0085199,0.0023344122,0.0066714226,0.0067131417,0.026253201,0.4757303,-1.4237607,1.9550718,-2.1003134,-1.5708569,2.4503505,-0.045603864,0.050203275,-0.06545686,0.012356316,-0.00914062,-0.07180235,-0.30645782,0.1340753,-9.270349,0.7665104,47.666286,-1.1359339,-2.1855767,-3.119937,-0.2802404,-0.056314107,-0.2979272,28.625,29.6875,29.0,33.0,35.375,36.5
0.08805185,-0.960641,-0.8886173,-0.20924373,0.011153678,0.03376265,-0.18928911,-0.3827232,-0.34814832,0.05996358,-3.0785,0.6242186,-0.00020561957,-0.040287644,0.008484281,0.0024413764,0.008083392,0.00803258,0.030536624,0.47565833,-1.4236404,1.9549884,-2.1002896,-1.5708693,2.4502053,-0.045042485,0.051480483,-0.06713812,0.012238259,-0.0110095255,-0.07551932,-0.36391866,0.1340753,-9.32781,0.6971306,47.68062,-1.2240646,-2.2176323,-3.0086036,-0.28239685,-0.031766787,-0.2364685,28.625,29.6875,29.0,33.0,35.375,36.5
0.090051815,-1.0657688,-0.27831006,-0.1618301,-0.0121844495,0.03901678,-0.19182523,-0.38278738,-0.34813413,0.059969738,-3.0785203,0.6240856,-0.00021911481,-0.0410078,0.008751229,0.0021721567,0.00824512,0.0070596356,0.033824023,0.47557402,-1.4235561,1.9548672,-2.100242,-1.5708693,2.4500356,-0.046364654,0.05312047,-0.06856385,0.012959812,-0.010711581,-0.080128506,-0.4405331,0.21068975,-9.346964,0.7665104,47.687782,-1.3690137,-2.1502948,-3.0564337,-0.27973694,-0.030887872,-0.21339142,28.625,29.6875,29.0,33.0,35.375,36.5
0.09205196,-0.2388144,-0.35755444,-0.3156532,-0.0059516043,0.058786083,-0.20933871,-0.38289246,-0.34811637,0.059977736,-3.0785408,0.6240507,-0.00016534638,-0.042375695,0.008818725,0.0023155739,0.0066125826,0.0066548567,0.035753503,0.47545314,-1.4234357,1.9547113,-2.1002414,-1.5708808,2.4498904,-0.048789226,0.05459579,-0.07062591,0.013149832,-0.009077265,-0.084484704,-0.2873042,0.1340753,-9.308657,0.6926589,47.63225,-1.2487969,-2.1835008,-3.0575743,-0.2696411,-0.038875483,-0.14705788,28.625,29.6875,29.0,33.0,35.375,36.5
0.09405203,-0.77517694,-0.8674214,-0.53421193,-0.0013398353,0.036745097,-0.19412123,-0.38295096,-0.34809697,0.05997627,-3.0785346,0.62387687,-0.00018685438,-0.04353854,0.009682188,0.002423109,0.005553674,0.0056712455,0.033697173,0.47537997,-1.4233398,1.9545916,-2.1001813,-1.5709041,2.4497097,-0.052283935,0.055057537,-0.071609914,0.0140539,-0.007689024,-0.08592497,-0.22984336,0.24899697,-9.346964,0.7418897,47.613445,-1.2048846,-2.146484,-3.1045923,-0.28176904,-0.054864578,-0.10100411,28.625,29.6875,29.0,33.0,35.375,36.5
0.096052565,-0.68682164,-0.8531035,-0.3221123,-0.015335154,0.035526723,-0.1949641,-0.3830637,-0.3480678,0.059983633,-3.0785472,0.62378263,-0.00011020581,-0.044106435,0.009409035,0.0008494,0.005766509,0.0028721464,0.034363404,0.4752476,-1.423218,1.9544357,-2.1001813,-1.5709399,2.449517,-0.05301435,0.059753686,-0.073283754,0.013609395,-0.0065993704,-0.08732221,-0.34476504,0.19153613,-9.385271,0.7911258,47.67614,-1.1236942,-2.2774343,-3.0199082,-0.27925992,-0.07143182,-0.0782601,28.625,29.6875,29.0,33.0,35.375,36.5
0.09805178,-1.279122,-1.3662158,-0.6204398,-0.005497494,0.026256785,-0.18687122,-0.38312763,-0.3480673,0.059988186,-3.0785701,0.6236351,-0.0001242219,-0.044430334,0.008700917,0.0025118724,0.003794381,0.0057843216,0.03234817,0.47518796,-1.423111,1.9542922,-2.1001337,-1.5709399,2.4493625,-0.0523158,0.057131737,-0.074074775,0.013529591,-0.006179947,-0.08460915,-0.38307226,0.22984336,-9.3661175,0.7038487,47.667187,-1.2844265,-2.1466343,-3.0564823,-0.2660272,-0.08725235,-0.085020214,28.625,29.6875,29.0,33.0,35.375,36.5
0.10005187,-0.83422697,-0.8731726,-0.65042806,-0.0033775691,0.046675358,-0.18977635,-0.3832431,-0.34804726,0.05998999,-3.0785983,0.623586,-0.00015004673,-0.045920204,0.009971224,0.0020010557,0.0044471673,0.0048013623,0.026595859,0.47503066,-1.4229541,1.9541005,-2.1000974,-1.570916,2.449171,-0.05583686,0.05907043,-0.07521715,0.013908228,-0.0063112513,-0.08237686,-0.34476504,0.17238252,-9.461885,0.82022345,47.694946,-1.2601887,-2.1079483,-3.1028783,-0.26982683,-0.08761041,-0.08441988,28.625,29.6875,29.0,33.0,35.375,36.5
0.10205191,-0.87031543,-0.6184547,-0.5042868,-0.0005929218,0.046654224,-0.19718468,-0.38333324,-0.34803754,0.06000776,-3.0786324,0.62343955,-8.238973e-05,-0.047115088,0.010796741,0.0015661748,0.0056940885,0.0042870073,0.02509375,0.474946,-1.4228573,1.9539441,-2.100074,-1.5709399,2.4489908,-0.057821948,0.06114631,-0.076698616,0.014341998,-0.007184124,-0.08285752,-0.3256114,0.17238252,-9.461885,0.7239871,47.734352,-1.1432297,-2.1813846,-3.0516272,-0.26152682,-0.10131739,-0.09863665,28.625,29.6875,29.0,33.0,35.375,36.5
0.10405195,-0.97383213,-0.46787712,-0.521938,-0.0041786553,0.045270126,-0.19461088,-0.3834297,-0.3480195,0.060003903,-3.078642,0.6234248,-6.979671e-05,-0.047399983,0.011670316,-6.6524786e-05,0.008196482,0.0019769608,0.019089466,0.47482562,-1.422724,1.9538006,-2.100074,-1.5709404,2.4488602,-0.058863923,0.06448429,-0.076777644,0.014286641,-0.008351282,-0.077892624,-0.36391866,0.095768064,-9.404425,0.77545905,47.67614,-1.1571105,-2.2853723,-3.2077727,-0.25855717,-0.077157,-0.16165966,28.625,29.6875,29.0,33.0,35.375,36.5
0.10605176,-0.67868894,-0.20943955,-0.41297367,0.0016241355,0.051880047,-0.20071621,-0.3835394,-0.3479815,0.06001245,-3.0786366,0.62338674,-3.0494127e-06,-0.050007228,0.011244261,0.0026687842,0.0059449305,0.00737704,0.0163451,0.47468123,-1.4226167,1.9536556,-2.1000617,-1.5709771,2.4486928,-0.060175724,0.062698886,-0.08104059,0.014501092,-0.008823374,-0.07645765,-0.4405331,0.15322891,-9.404425,0.7777002,47.65464,-1.1723754,-2.1133237,-2.994266,-0.26056105,-0.07024207,-0.1889499,28.625,29.6875,29.0,33.0,35.375,36.5
0.10805177,-1.2479839,-0.013941735,-0.49793684,0.013418081,0.03349916,-0.19084077,-0.38362953,-0.34797806,0.060025282,-3.0786667,0.6233172,-3.1241418e-06,-0.049853142,0.0129751135,0.00034596896,0.009466106,0.004043626,0.013884428,0.47458458,-1.4224954,1.9534768,-2.100014,-1.5709652,2.448549,-0.062053133,0.06576587,-0.079163104,0.014136853,-0.010427659,-0.07587204,-0.28730422,0.038307227,-9.385271,0.7463667,47.64837,-1.1793146,-2.1965504,-3.2139516,-0.22542037,-0.06506224,-0.21413222,28.625,29.6875,29.0,33.0,35.375,36.5
0.1100517,-0.7871178,0.191353,-0.40382543,0.007894184,0.039208822,-0.20780228,-0.38372266,-0.34794953,0.05999454,-3.078618,0.62326807,-5.4504133e-05,-0.050556064,0.013281923,0.00034111293,0.010537391,0.003948362,0.012802102,0.47446445,-1.4223027,1.9533213,-2.0999897,-1.57099,2.4484046,-0.062634476,0.06699912,-0.08079475,0.015109853,-0.011342942,-0.07536796,-0.30645782,0.05746084,-9.346964,0.8247004,47.689575,-1.1968414,-2.257105,-3.2428608,-0.22081509,-0.05482123,-0.25722533,28.625,29.6875,29.0,33.0,35.375,36.5
0.11205179,-0.812228,-0.502949,-0.51785237,0.02148281,0.0348942,-0.18061003,-0.3838025,-0.34792534,0.059988666,-3.078613,0.623173,-7.274548e-05,-0.051931433,0.013616049,0.00033437944,0.010371659,0.0039748563,0.011020501,0.47435567,-1.4221822,1.9531888,-2.099954,-1.5710014,2.4482372,-0.06455924,0.06873166,-0.08280835,0.015289055,-0.011213524,-0.07550987,-0.36391866,0.076614454,-9.385271,0.6948948,47.655537,-1.1902871,-2.2275848,-3.0267837,-0.21684602,-0.048446007,-0.29135305,28.625,29.6875,29.0,33.0,35.375,36.5
0.11405214,-0.71076936,0.4790167,-0.25744238,0.006144947,0.033479784,-0.20333564,-0.38390934,-0.34788808,0.060000557,-3.0786104,0.62321013,-3.4132365e-05,-0.05201254,0.014184006,-0.00041846154,0.0111216,0.0024198906,0.01044094,0.47419927,-1.4220856,1.9530457,-2.0999296,-1.5710133,2.4481044,-0.065651655,0.069981284,-0.08257866,0.015532588,-0.011168313,-0.07602303,-0.28730422,0.019153614,-9.3661175,0.8403672,47.629562,-1.2445933,-2.2793946,-3.300029,-0.19407281,-0.044635285,-0.30854148,28.625,29.6875,29.0,33.0,35.375,36.5
0.11605248,-0.6726673,0.22567707,-0.37404248,0.014973152,0.033658944,-0.18820147,-0.38401654,-0.34788486,0.060003806,-3.0786161,0.6230961,-3.8965172e-05,-0.053235926,0.013877924,0.00036719872,0.009543053,0.0033788183,0.0096250605,0.47410288,-1.4219052,1.9528183,-2.0998695,-1.5710253,2.4479363,-0.066833705,0.070398904,-0.084947705,0.015904587,-0.010207321,-0.07638967,-0.2681506,-0.05746084,-9.461885,0.7777002,47.683304,-1.1927365,-2.1818447,-3.2648568,-0.18686879,-0.041623503,-0.35789442,28.625,29.6875,29.0,33.0,35.375,36.5
0.11805246,-0.90752804,0.07026258,-0.47108543,0.0101958895,0.03214803,-0.19237314,-0.38412806,-0.34782475,0.059981443,-3.0785613,0.62312543,-7.368236e-05,-0.054225475,0.015198951,3.715967e-05,0.009361299,0.0016089127,0.005841552,0.47390947,-1.4217489,1.9526852,-2.0998456,-1.5710491,2.4477682,-0.070688486,0.071176216,-0.08534482,0.017008994,-0.009240058,-0.0764622,-0.34476504,0.019153614,-9.423578,0.7709874,47.677036,-1.1213799,-2.1547096,-3.3363867,-0.2041131,-0.0669324,-0.402689,28.625,29.6875,29.0,33.0,35.375,36.5
0.12005255,-0.87077826,-0.10612443,-0.36191735,0.012486046,0.036182176,-0.18936902,-0.38423237,-0.34780446,0.05999483,-3.0785646,0.62314373,-6.0030125e-05,-0.054180644,0.014743755,-3.4379056e-05,0.010476058,0.0020399669,0.0080599515,0.4737782,-1.4216282,1.952506,-2.099798,-1.5710496,2.447648,-0.06905,0.072195634,-0.08638941,0.017162073,-0.010430369,-0.07703935,-0.4405331,0.076614454,-9.442732,0.84708,47.698532,-1.2182114,-2.2014062,-3.34683,-0.17215127,-0.059640657,-0.43493408,28.625,29.6875,29.0,33.0,35.375,36.5
0.12205064,-0.4488797,-0.05436597,-0.41252387,0.018326877,0.058652364,-0.19563663,-0.38434902,-0.34779662,0.06000844,-3.0786195,0.62305856,1.1322073e-05,-0.054986693,0.015769228,-0.00032712286,0.011503493,0.001805747,0.0077344417,0.47365746,-1.4214962,1.9523262,-2.099809,-1.5710496,2.4474673,-0.07106512,0.072924845,-0.08659955,0.017321078,-0.011234373,-0.078727946,-0.28730422,0.076614454,-9.442732,0.8314132,47.691364,-1.2359378,-2.0964904,-3.4337115,-0.17529106,-0.05159081,-0.4782525,28.625,29.6875,29.0,33.0,35.375,36.5
0.12405169,-1.5189207,-0.40764913,-0.49950582,0.02760747,0.04234655,-0.1873511,-0.384469,-0.34776348,0.060004923,-3.078589,0.6230332,3.204315e-05,-0.05796425,0.01645275,0.0007798754,0.009907033,0.0035519286,0.0073203323,0.4735119,-1.4213274,1.952133,-2.0997732,-1.5710853,2.44731,-0.075376906,0.07403078,-0.09052539,0.01785042,-0.010619886,-0.08262462,-0.24899697,0.019153614,-9.32781,0.8403672,47.667187,-1.0665693,-2.093128,-3.3101654,-0.16051003,-0.04196387,-0.49711668,28.625,29.6875,29.0,33.0,35.375,36.5
0.12605213,-1.1487362,-0.22267556,-0.6970208,0.019443003,0.043667022,-0.19444998,-0.38461345,-0.34773225,0.0600467,-3.078638,0.62300086,0.00014395082,-0.05658278,0.01691499,-0.00049756304,0.01228358,0.0012131538,0.013610384,0.4733324,-1.4212312,1.9519194,-2.0997374,-1.5710977,2.4471042,-0.074233085,0.07470905,-0.088491894,0.018302063,-0.01165848,-0.08777091,-0.11492168,0.095768064,-9.385271,0.78888994,47.678825,-1.1227194,-2.0597153,-3.5166245,-0.14808819,-0.050600246,-0.45303944,28.625,29.6875,29.0,33.0,35.375,36.5
0.12805218,-0.7554825,-0.45869082,-0.46826455,0.0067064026,0.047222186,-0.19682331,-0.38471586,-0.34769243,0.060013544,-3.0785863,0.6229495,5.2313684e-05,-0.059264004,0.016774591,0.0008038182,0.010046153,0.003192172,0.015921522,0.4731754,-1.4210266,1.9517502,-2.0996892,-1.5711092,2.4469218,-0.07710695,0.07594197,-0.093000695,0.018787453,-0.0105872275,-0.0929546,-0.22984336,0.15322891,-9.442732,0.73069996,47.66091,-1.1537101,-2.013769,-3.4514499,-0.13468802,-0.042047597,-0.45080847,28.625,29.6875,29.0,33.0,35.375,36.5
0.13005257,-0.5138053,-0.51244193,-0.7867043,-0.0039395546,0.040171105,-0.20102975,-0.3848268,-0.34765062,0.060013074,-3.0785656,0.62286407,9.825223e-05,-0.05979211,0.0172458,0.00074792706,0.009599239,0.00242198,0.024565935,0.47303066,-1.4208941,1.9515942,-2.0996654,-1.5711569,2.4467266,-0.078884944,0.07633666,-0.09345394,0.019313695,-0.009842239,-0.1033782,-0.22984336,0.17238252,-9.3661175,0.83589023,47.682407,-1.0094823,-1.9568696,-3.3950183,-0.12872787,-0.046516333,-0.3613654,28.625,29.6875,29.0,33.0,35.375,36.5
0.1320519,-1.0636386,-0.9179741,-0.6877863,0.01279524,0.027320772,-0.1859266,-0.38493326,-0.34761494,0.060004774,-3.0785463,0.6227042,6.012144e-05,-0.06106015,0.017805586,-2.9974856e-06,0.010763971,0.0011872723,0.027679674,0.4728861,-1.4207249,1.951403,-2.099593,-1.5711817,2.4464848,-0.08070123,0.079631135,-0.095638074,0.01982807,-0.010327861,-0.10830534,-0.2681506,0.1340753,-9.576807,0.7933669,47.642998,-1.0334724,-2.2044806,-3.4674106,-0.11918427,-0.05099816,-0.3235732,28.625,29.6875,29.0,33.0,35.375,36.5
0.13405195,-0.836109,-0.5649648,-0.6991333,0.0049019987,0.041141037,-0.20283549,-0.38508946,-0.34758028,0.06003383,-3.0785894,0.62265176,0.00012029173,-0.06249706,0.017878423,0.0017287632,0.009077897,0.0040377066,0.03319377,0.47268164,-1.4205816,1.9511617,-2.0995448,-1.5711812,2.4462423,-0.08223702,0.077775165,-0.097592704,0.02032642,-0.010125358,-0.11535556,-0.34476507,0.21068975,-9.442732,0.8672237,47.668976,-1.0262092,-1.8769342,-3.3831592,-0.129527,-0.03931676,-0.22819653,28.625,29.6875,29.0,33.0,35.375,36.5
0.13605274,-1.1459316,-0.8176474,-0.7684864,0.0089072855,0.054441072,-0.19033465,-0.3851869,-0.34756675,0.060057662,-3.0786352,0.6225433,0.00013577132,-0.06343181,0.018514618,0.0008233531,0.009785771,0.0021226797,0.035454035,0.472561,-1.4204844,1.9509825,-2.0994852,-1.5711693,2.4460483,-0.084353305,0.08068848,-0.098980024,0.020824669,-0.009884776,-0.11973173,-0.5554548,0.22984336,-9.5385,0.82694155,47.68062,-0.9694539,-1.9504296,-3.4237309,-0.13299693,-0.0698446,-0.18941137,28.625,29.6875,29.0,33.0,35.375,36.5
0.13805202,-1.0293375,-0.4634003,-0.77715284,0.00025807263,0.07781831,-0.19695744,-0.38531914,-0.34752643,0.060023714,-3.0786164,0.62244517,5.8639667e-05,-0.06456042,0.01874374,0.0015871008,0.009369224,0.0033166006,0.035558723,0.47236842,-1.4202441,1.9507793,-2.0994604,-1.5711688,2.445797,-0.085639276,0.080581866,-0.10076615,0.021462832,-0.010067918,-0.121120736,-0.36391866,0.17238252,-9.595961,0.73069996,47.660015,-0.9809263,-1.9775717,-3.4358559,-0.1025545,-0.05795878,-0.12974647,28.625,29.6875,29.0,33.0,35.375,36.5
0.14005198,-1.1339736,-0.38094157,-0.7322307,-0.006490833,0.07830473,-0.2032681,-0.38546225,-0.34747377,0.060034037,-3.078606,0.62231,0.00010554748,-0.06606754,0.019320283,0.0022835555,0.0088628065,0.004246315,0.031542506,0.47217563,-1.4200879,1.9505633,-2.0994008,-1.571217,2.4455214,-0.08801969,0.08075108,-0.102726966,0.02218932,-0.010041892,-0.11948416,-0.45968673,0.1340753,-9.595961,0.8157518,47.71465,-0.8495337,-1.8668501,-3.3654284,-0.096665636,-0.04884211,-0.115927525,28.625,29.6875,29.0,33.0,35.375,36.5
0.14205237,-1.1752048,-0.91104114,-0.8302368,0.001986299,0.06442477,-0.18861601,-0.3855737,-0.34743637,0.060045756,-3.0786257,0.6221434,0.00016934442,-0.06685118,0.02010959,0.0018279818,0.010541393,0.003033236,0.026338596,0.47203118,-1.4199792,1.9504064,-2.099376,-1.5712532,2.4452705,-0.08950172,0.082726024,-0.10427832,0.023609491,-0.01098126,-0.11575999,-0.51714754,0.15322891,-9.557653,0.82022345,47.686886,-0.86264664,-1.7368217,-3.40025,-0.10371122,-0.06429061,-0.16363265,28.625,29.6875,29.0,33.0,35.375,36.5
0.14405246,-0.94142497,-0.63405335,-0.99825263,-0.004402552,0.06528264,-0.19297795,-0.38572514,-0.3474123,0.060047373,-3.0786238,0.6221461,0.00016674073,-0.067860164,0.020368597,0.0015259343,0.011352724,0.0025192178,0.01963112,0.47185075,-1.4197621,1.9501432,-2.0993278,-1.5712537,2.4450922,-0.09052809,0.08501306,-0.106368706,0.024242954,-0.011471837,-0.11007672,-0.63206923,0.11492168,-9.634268,0.7777002,47.709274,-0.7729427,-1.778585,-3.3708735,-0.10814364,-0.04960805,-0.20675921,28.625,29.6875,29.0,33.0,35.375,36.5
0.14605248,-0.9316696,-0.37491646,-0.9452568,-0.00654644,0.056617305,-0.19044365,-0.38586923,-0.34735087,0.06005222,-3.0786037,0.622067,0.00018623633,-0.06971355,0.020873465,0.0014100306,0.010392977,0.002130823,0.014501698,0.47163373,-1.4196055,1.9499391,-2.0992682,-1.5712894,2.4448285,-0.0937381,0.087293305,-0.10872344,0.024218597,-0.010446757,-0.108157575,-0.63206923,0.11492168,-9.557653,0.7486078,47.66271,-0.6937108,-1.8613479,-3.2802725,-0.09998877,-0.058917888,-0.26990297,28.625,29.6875,29.0,33.0,35.375,36.5
0.14805163,-0.84483457,-0.4044184,-0.8311509,0.0037476616,0.0623219,-0.19781768,-0.3859983,-0.34730914,0.06003297,-3.0785813,0.6221009,0.00015483556,-0.06992938,0.01991949,0.0015834192,0.010497321,0.00282624,0.015395255,0.47144225,-1.4194126,1.9497594,-2.0992563,-1.5712894,2.4446611,-0.09194257,0.08864463,-0.110694624,0.024266493,-0.010862592,-0.10725342,-0.34476504,0.17238252,-9.595961,0.7351769,47.645687,-0.90041804,-1.8161001,-3.3076587,-0.07972384,-0.054188427,-0.28502208,28.625,29.6875,29.0,33.0,35.375,36.5
0.15005173,-1.4279257,-0.12663247,-0.7057153,0.004484948,0.052791305,-0.1954149,-0.38615525,-0.3472676,0.060061805,-3.078587,0.62200606,0.00021907338,-0.07264244,0.020379944,0.002298066,0.009420347,0.0043408093,0.0125601,0.47124922,-1.4192557,1.9494947,-2.0991724,-1.5713257,2.4444084,-0.09535948,0.09050066,-0.114486165,0.024356285,-0.010596678,-0.10783382,-0.4405331,0.019153614,-9.634268,0.8291774,47.652847,-0.82993805,-1.8762221,-3.3089437,-0.073296696,-0.041553877,-0.32708484,28.625,29.6875,29.0,33.0,35.375,36.5
0.15205191,-1.3515631,-0.5251726,-0.84196854,0.026885742,0.052517176,-0.19195457,-0.38630024,-0.34723225,0.060067214,-3.0785837,0.62196565,0.00025464667,-0.071936764,0.019498372,0.0009190576,0.010293191,0.0014583137,0.014591469,0.47106978,-1.4190744,1.9492663,-2.099136,-1.571349,2.4442043,-0.09346437,0.09405865,-0.11553171,0.024802152,-0.010066442,-0.10797021,-0.2873042,0.095768064,-9.5385,0.7732232,47.70211,-0.8062346,-1.8856235,-3.161993,-0.05773945,-0.07606344,-0.34877396,28.625,29.6875,29.0,33.0,35.375,36.5
0.15405254,-1.3584656,-0.5045763,-0.85346115,0.024816453,0.04575982,-0.18139283,-0.3864568,-0.3471751,0.060067717,-3.0785656,0.62196124,0.00027812153,-0.07389823,0.018824305,0.002342446,0.00926797,0.0042548114,0.01484808,0.4708419,-1.4188939,1.9490503,-2.0991008,-1.5713733,2.4439762,-0.09377556,0.09493033,-0.11992398,0.025361523,-0.010430508,-0.10853519,-0.30645782,0.13407528,-9.500193,0.800085,47.668976,-1.0093008,-2.062687,-3.123194,-0.057516895,-0.0573536,-0.37996095,28.625,29.6875,29.0,33.0,35.375,36.5
0.15605173,-1.135392,-0.7556968,-0.75276506,0.011730477,0.05113553,-0.19326742,-0.38661098,-0.34716153,0.060098458,-3.0786068,0.62189144,0.00035955117,-0.07342243,0.019513484,0.0011727503,0.0110645415,0.0017416889,0.01681745,0.4706855,-1.4187256,1.9487761,-2.0990522,-1.5713853,2.4437711,-0.09423545,0.09647037,-0.11921484,0.02616387,-0.0108832745,-0.11096452,-0.32561144,0.1340753,-9.481039,0.8179876,47.635834,-0.9420167,-1.8124118,-3.1716397,-0.060918983,-0.056401737,-0.3900862,28.625,29.6875,29.0,33.0,35.375,36.5
0.15805167,-0.8355542,-1.2517136,-0.71441823,0.0046341065,0.045088276,-0.1981864,-0.38676098,-0.34711665,0.060098745,-3.0785794,0.6218063,0.00036330312,-0.07428474,0.019840617,0.00073093444,0.012017423,0.00036331118,0.021284278,0.4704932,-1.4185201,1.9485234,-2.0989797,-1.5714215,2.4435294,-0.095411345,0.09902219,-0.12145431,0.027502371,-0.011114911,-0.11660534,-0.30645782,0.19153613,-9.500193,0.7486078,47.661808,-1.0208942,-2.159769,-3.129766,-0.051568758,-0.0763561,-0.3738661,28.625,29.6875,29.0,33.0,35.375,36.5
0.16005169,-0.8602686,-0.9622953,-0.7835215,-0.01625173,0.029002374,-0.19841911,-0.38690832,-0.34706146,0.060083665,-3.0785434,0.62173665,0.00032645356,-0.074924,0.01970866,0.00078463624,0.012921236,0.0008888743,0.028250003,0.47027734,-1.4183035,1.948296,-2.09892,-1.5714458,2.4432747,-0.09503703,0.10041555,-0.12327675,0.027865717,-0.012171233,-0.12319324,-0.22984336,0.2681506,-9.423578,0.81351066,47.67166,-1.1225021,-1.9375832,-3.060429,-0.053846173,-0.039538678,-0.29622787,28.625,29.6875,29.0,33.0,35.375,36.5
0.16205202,-0.026770793,-1.099721,-0.66212696,-0.027430419,0.03775267,-0.20443624,-0.387079,-0.34702718,0.060100242,-3.0785656,0.62163925,0.00041939362,-0.076664224,0.019621091,0.0011929664,0.011372332,0.0020810927,0.03605371,0.47008467,-1.4181108,1.9480318,-2.0988967,-1.5714811,2.4430187,-0.0969549,0.10179036,-0.1256191,0.027050722,-0.011335683,-0.13291545,-0.076614454,0.28730422,-9.3661175,0.75755644,47.6421,-1.0591553,-2.0228214,-3.0954027,-0.040573936,-0.05875411,-0.2139343,28.625,29.6875,29.0,33.0,35.375,36.5
0.16405225,-0.37289456,-1.2545662,-0.5334789,-0.040407185,0.020449953,-0.19063558,-0.38724267,-0.346989,0.060119707,-3.0785882,0.621489,0.0004956194,-0.07599408,0.020927945,-0.00019571326,0.013167323,-0.00072314934,0.03861376,0.46989238,-1.4179305,1.9477695,-2.098848,-1.5715178,2.44273,-0.09841298,0.10248065,-0.12333052,0.027375529,-0.011658152,-0.1369345,-0.019153614,0.2681506,-9.385271,0.78217715,47.70838,-1.0430484,-1.953052,-3.227545,-0.01469156,-0.047116317,-0.17519534,28.625,29.6875,29.0,33.0,35.375,36.5
0.16605231,-0.25016093,-1.7928072,-0.36588454,-0.025484245,0.016294869,-0.19424033,-0.38742462,-0.34696883,0.0601482,-3.0786567,0.6213672,0.0006096599,-0.07811728,0.02091962,0.00075921614,0.0123653915,0.0006524369,0.040377904,0.4696996,-1.4177378,1.9474806,-2.0988357,-1.5715297,2.4424527,-0.10033441,0.10392898,-0.12743048,0.028430108,-0.01156272,-0.14061922,-0.038307227,0.24899697,-9.32781,0.7016076,47.683304,-1.1088022,-2.0287724,-3.0702162,-0.022763673,-0.023833478,-0.08268393,28.625,29.6875,29.0,33.0,35.375,36.5
0.16805258,-0.20994698,-1.240617,-0.38914323,-0.020598855,0.0032122682,-0.19032083,-0.38757223,-0.34689638,0.0601308,-3.078573,0.62127286,0.0005899029,-0.077925935,0.02050323,0.00013341742,0.012225628,-0.0006085545,0.040283613,0.46948373,-1.417521,1.9472526,-2.0987523,-1.5716013,2.4421887,-0.09982565,0.10554865,-0.12784596,0.028272882,-0.010879873,-0.14001611,-0.05746084,0.28730422,-9.232041,0.77545905,47.65643,-1.0133412,-1.9232838,-3.161323,0.007971584,-0.044176042,-0.074309744,28.625,29.6875,29.0,33.0,35.375,36.5
0.1700525,-0.5412159,-1.4251621,-0.3033079,0.008982928,-0.017015543,-0.18158565,-0.3877433,-0.34686354,0.060134467,-3.0786233,0.62118876,0.0005927494,-0.07865968,0.021145869,-0.00026974626,0.012677286,-0.001333746,0.035622846,0.46925542,-1.4173045,1.9469904,-2.0987284,-1.5715774,2.4419017,-0.101531625,0.10687242,-0.12851135,0.02846965,-0.010953266,-0.13706097,0.095768064,0.36391866,-9.174581,0.8291774,47.677036,-1.1335258,-2.0257728,-3.2366424,0.00395725,-0.032629967,-0.08359547,28.625,29.6875,29.0,33.0,35.375,36.5
0.17205165,-0.18132997,-0.8133032,0.090905845,0.006973498,-0.015668456,-0.1960238,-0.38788897,-0.3468477,0.060145997,-3.0786517,0.62098676,0.00062697753,-0.078797996,0.0214862,-0.0012055424,0.013159097,-0.0039484813,0.029647136,0.46911073,-1.4170994,1.9467148,-2.0986679,-1.5716008,2.4416275,-0.10270891,0.10915033,-0.12923722,0.029464971,-0.010198558,-0.13226348,0.038307227,0.30645782,-9.136273,0.8023209,47.687782,-0.9559971,-1.9321799,-3.2532077,0.029401505,-0.052041657,-0.15188,28.625,29.6875,29.0,33.0,35.375,36.5
0.17405191,0.016214337,-0.3851302,0.08126302,0.008729747,-0.014366335,-0.19565442,-0.38806975,-0.3468155,0.060159512,-3.0786932,0.62093973,0.00065740733,-0.079380244,0.021147968,-0.0005169497,0.011962621,-0.003624198,0.024589764,0.46888265,-1.4168833,1.9464277,-2.0986316,-1.5715889,2.441365,-0.10317915,0.10913878,-0.13104369,0.030453488,-0.009275866,-0.12767762,0.038307227,0.24899697,-9.040505,0.8537928,47.704796,-1.1749346,-1.8864197,-3.274491,0.02772038,-0.06842646,-0.20788565,28.625,29.6875,29.0,33.0,35.375,36.5
0.17605183,-0.2549507,-0.1463144,0.17487678,0.021251477,-0.020577323,-0.18923672,-0.3881952,-0.3467842,0.060132314,-3.078671,0.6208222,0.0005670407,-0.080458686,0.021999985,-0.0008909063,0.012816405,-0.004003203,0.01897839,0.46871394,-1.4166423,1.9461993,-2.0985715,-1.5715889,2.4411259,-0.10523754,0.110705726,-0.13205244,0.03062327,-0.009877829,-0.12412224,0.11492168,0.19153613,-9.002198,0.88960326,47.691364,-1.049444,-2.06945,-3.2628536,0.033271566,-0.06599293,-0.2950557,28.625,29.6875,29.0,33.0,35.375,36.5
0.17805187,0.77457875,0.5579535,0.2455042,0.020999111,0.0020576988,-0.21135528,-0.38838145,-0.34671724,0.060153473,-3.0786345,0.620759,0.00065210473,-0.082007594,0.021686072,0.00022516277,0.011355718,-0.0018591199,0.015506598,0.46847364,-1.4164504,1.9459118,-2.0984886,-1.5716609,2.440851,-0.10623926,0.11084228,-0.13477771,0.030629545,-0.0095484285,-0.121651575,0.17238252,0.17238252,-8.983045,0.67475104,47.7245,-1.1028064,-1.7319202,-3.266586,0.053630985,-0.06132016,-0.34411326,28.625,29.6875,29.0,33.0,35.375,36.5
0.180052,1.2104595,0.7786251,0.28470707,0.021070046,0.016090099,-0.21505257,-0.3885435,-0.34668192,0.060155053,-3.0786464,0.6207415,0.00063706713,-0.081923254,0.02226017,-0.00038764373,0.012232655,-0.004221398,0.014161407,0.46825728,-1.4162337,1.9456481,-2.0984395,-1.571649,2.4406223,-0.107315734,0.11205162,-0.13517536,0.032320376,-0.009263413,-0.12138331,0.13407528,0.05746084,-8.963891,0.7709874,47.64837,-1.1131544,-2.0611203,-3.3254058,0.05604782,-0.07534851,-0.4275242,28.625,29.6875,29.0,33.0,35.375,36.5
0.18205202,-0.3251521,0.062054228,0.10385286,0.04606569,-0.018106902,-0.18743777,-0.38869873,-0.34661886,0.060134463,-3.0785992,0.6206764,0.00060846005,-0.081756786,0.02319802,-0.0016438701,0.014661338,-0.008237781,0.011633839,0.46802875,-1.4160044,1.9454206,-2.0983903,-1.5716847,2.4403594,-0.10855137,0.11478345,-0.13612905,0.03521868,-0.0096222265,-0.12008993,0.019153614,0.038307227,-9.059659,0.8112748,47.64837,-1.1486677,-1.8901932,-3.3058925,0.04021375,-0.08305562,-0.45872742,28.625,29.6875,29.0,33.0,35.375,36.5
0.18405218,-0.29718298,0.1272376,-0.1425696,0.04311121,-0.013874901,-0.20041016,-0.38885528,-0.34660092,0.060140632,-3.078613,0.62058085,0.0005663083,-0.083515726,0.023202034,-0.000631127,0.014000559,-0.0076914807,0.0128268385,0.46784824,-1.4157639,1.9451083,-2.0982945,-1.5716728,2.4401176,-0.11031111,0.115952216,-0.14031646,0.037447207,-0.009289226,-0.1230413,0.0,0.038307227,-9.002198,0.8157518,47.635834,-1.1036069,-1.9828959,-3.17357,0.006162765,-0.084007725,-0.49404842,28.625,29.6875,29.0,33.0,35.375,36.5
0.18605241,-1.0302626,-0.13122895,-0.18503447,0.036253482,-0.012911095,-0.19912218,-0.38901496,-0.34656462,0.060147714,-3.0786157,0.62050015,0.00060005573,-0.08350953,0.023992443,-0.001550005,0.015354203,-0.010751824,0.019186758,0.46765584,-1.415559,1.9448456,-2.0982454,-1.5716971,2.4398746,-0.11176891,0.11786093,-0.14088753,0.03943783,-0.009118841,-0.13085924,-0.076614454,0.0,-9.155427,0.8784135,47.67345,-1.1634169,-1.8764913,-3.4012842,-0.00034139532,-0.10782552,-0.46891302,28.625,29.6875,29.0,33.0,35.375,36.5
0.18805243,-1.1833918,-0.19997418,-0.18997659,0.025916766,0.01588133,-0.19822912,-0.3891541,-0.34650207,0.06012187,-3.0785499,0.620366,0.00044742628,-0.08368198,0.024313945,-0.0016278449,0.016551921,-0.0122879185,0.028719395,0.46742755,-1.4153063,1.9445814,-2.0981014,-1.571709,2.4395711,-0.1121924,0.118978195,-0.14258336,0.04191448,-0.009519895,-0.14081289,-0.11492168,-0.076614454,-9.097966,0.7284641,47.672558,-1.0813344,-1.9314508,-3.3374572,-0.019447854,-0.099646635,-0.39424065,28.625,29.6875,29.0,33.0,35.375,36.5
0.19005245,-1.725509,-0.012001466,-0.27490842,0.025463006,0.029443841,-0.1945774,-0.38931885,-0.34644103,0.060120564,-3.078506,0.62029463,0.00039280416,-0.08539885,0.025186732,-0.00084365334,0.016545184,-0.0122350585,0.035750877,0.4671867,-1.415078,1.9442943,-2.0979803,-1.5717329,2.4392915,-0.11520534,0.1195694,-0.14561754,0.044290684,-0.009557544,-0.15085557,-0.28730422,0.038307227,-9.308657,0.7418897,47.689575,-1.1370014,-1.9276816,-3.2557988,-0.06592089,-0.095888466,-0.3328607,28.625,29.6875,29.0,33.0,35.375,36.5
0.19205254,-1.3533548,-0.09485394,-0.626913,0.030235762,0.06507645,-0.19503105,-0.38946342,-0.34639868,0.060092766,-3.0785084,0.6201189,0.00023607268,-0.08575899,0.025156707,-0.0016311136,0.018077742,-0.014619713,0.04178022,0.46695873,-1.4148122,1.9440302,-2.097884,-1.5716971,2.4389536,-0.11522543,0.122950435,-0.14819483,0.04630421,-0.009876393,-0.15690203,-0.36391866,0.095768064,-9.385271,0.78888994,47.688675,-1.1032045,-2.0791953,-3.2272034,-0.10171957,-0.10811499,-0.22955923,28.625,29.6875,29.0,33.0,35.375,36.5
0.19405182,-1.8076684,-0.13750361,-0.73562765,0.01487202,0.076467805,-0.2003383,-0.38965914,-0.34634897,0.06010145,-3.0784934,0.6199418,0.00031885723,-0.085531875,0.027026659,-0.0021942572,0.019359207,-0.016888002,0.04280473,0.46674165,-1.4145607,1.9437073,-2.0978234,-1.5717696,2.4386282,-0.1181949,0.12204886,-0.1462506,0.04784637,-0.0099978,-0.16089728,-0.5554548,0.17238252,-9.385271,0.83365434,47.63404,-1.0599974,-1.7634342,-3.3329535,-0.13829301,-0.09494235,-0.16797885,28.625,29.6875,29.0,33.0,35.375,36.5
0.19605178,-2.610485,-0.42974025,-0.6278454,-0.005311424,0.078337684,-0.19949941,-0.38981065,-0.34629866,0.060097866,-3.078476,0.61986244,0.00018936877,-0.0868875,0.027909914,-0.0025458187,0.020062564,-0.018417286,0.039699215,0.46650064,-1.4143316,1.9434193,-2.0976799,-1.5717448,2.43834,-0.12095014,0.124466956,-0.14862841,0.049490258,-0.009958642,-0.16054507,-0.7661445,0.24899697,-9.5385,0.74413085,47.684196,-0.94182616,-2.0457377,-3.2050223,-0.1905162,-0.11456634,-0.14004482,28.625,29.6875,29.0,33.0,35.375,36.5
0.198052,-1.837012,-0.8064898,-0.90547174,-0.015241688,0.09680406,-0.19700557,-0.38999036,-0.34622943,0.060099002,-3.0784373,0.61974555,0.00018944647,-0.08775013,0.028335664,-0.0025135675,0.020643426,-0.01898094,0.031050391,0.46624827,-1.4141029,1.9431318,-2.0975835,-1.5717934,2.4380198,-0.12224596,0.12578388,-0.1505547,0.05086366,-0.010231913,-0.15319024,-0.80445176,0.15322891,-9.576807,0.7463667,47.68599,-0.89677477,-1.916986,-3.3471231,-0.2247585,-0.12998436,-0.2325966,28.625,29.6875,29.0,33.0,35.375,36.5
0.20005204,-2.2204916,-1.1362742,-0.87851465,-0.025410647,0.09951147,-0.19360465,-0.39015612,-0.34619123,0.06008928,-3.078423,0.61959004,9.8367724e-05,-0.08878338,0.028395174,-0.0025373942,0.02124758,-0.01867932,0.02728099,0.466032,-1.4138259,1.942808,-2.0974638,-1.5717934,2.4377084,-0.12277906,0.12763438,-0.15273818,0.051202897,-0.010925258,-0.14995037,-0.9768343,0.15322891,-9.749189,0.8493211,47.68599,-0.91181254,-1.8664751,-3.3808331,-0.2782876,-0.10842781,-0.27718282,28.625,29.6875,29.0,33.0,35.375,36.5
0.20205216,-2.6865683,-0.9626197,-0.8899647,-0.03846354,0.09828371,-0.20159452,-0.3903315,-0.3461247,0.060079195,-3.0783706,0.61944574,2.7391954e-05,-0.08926636,0.027622594,-0.0026155645,0.020579524,-0.018744646,0.026250836,0.4657802,-1.413561,1.9424962,-2.0973322,-1.5718292,2.4373734,-0.12217833,0.1294912,-0.15469398,0.051051985,-0.010321402,-0.14831883,-0.91937345,0.22984336,-9.749189,0.80456203,47.67614,-1.0808445,-1.9786453,-3.317711,-0.29408914,-0.14228494,-0.34392703,28.625,29.6875,29.0,33.0,35.375,36.5
0.2040523,-2.6182764,-0.5985477,-0.80673534,-0.027707204,0.10608601,-0.19524494,-0.39053065,-0.34607744,0.060086377,-3.0783846,0.61947036,2.1887683e-06,-0.09123051,0.02864925,-0.002207692,0.02011016,-0.01689007,0.021440104,0.465503,-1.413309,1.9421734,-2.0972607,-1.5718054,2.43711,-0.12541164,0.12979178,-0.15575014,0.049943894,-0.010745176,-0.14673969,-0.9576807,0.114921674,-9.749189,0.8247004,47.677036,-0.91837627,-1.8083733,-3.256512,-0.31885564,-0.13366446,-0.36096746,28.625,29.6875,29.0,33.0,35.375,36.5
0.2060527,-1.9817262,-0.4329894,-0.94835716,0.00013226828,0.11106864,-0.19333719,-0.3907353,-0.34601498,0.060093284,-3.0783517,0.6194414,4.542716e-05,-0.091741264,0.027089009,-0.0014800701,0.01953281,-0.014686019,0.026849514,0.46524015,-1.4130561,1.9418501,-2.0971887,-1.571853,2.4368334,-0.12273005,0.13089864,-0.15860419,0.049451057,-0.011234397,-0.14946476,-0.842759,0.095768064,-9.749189,0.87393653,47.660015,-1.1169865,-1.8773382,-3.3075204,-0.3403535,-0.12977326,-0.3808859,28.625,29.6875,29.0,33.0,35.375,36.5
0.20805186,-2.176831,-0.01536852,-0.8372195,0.00781594,0.083607495,-0.19644345,-0.39090776,-0.3459484,0.060084023,-3.0783007,0.6193508,3.0436555e-05,-0.09274487,0.028070854,-0.002678245,0.020021347,-0.015781725,0.030311393,0.46499917,-1.4128153,1.9415749,-2.0971053,-1.5719012,2.4365425,-0.12532912,0.13337505,-0.15841296,0.04796425,-0.011201249,-0.15552476,-0.49799395,0.019153614,-9.710882,0.80679786,47.64927,-0.93961287,-1.7567987,-3.38521,-0.3708162,-0.16256036,-0.3761489,28.625,29.6875,29.0,33.0,35.375,36.5
0.21005212,-1.0712115,0.27314383,-0.7869906,0.0069893883,0.06938596,-0.19717823,-0.39112175,-0.34591126,0.060082003,-3.0783298,0.61921924,4.0675045e-06,-0.09444553,0.02811654,-0.0019849103,0.01899704,-0.012128445,0.036486093,0.464735,-1.4125028,1.9412035,-2.0970352,-1.5718898,2.4361928,-0.12637682,0.13330911,-0.15933597,0.04522091,-0.011946244,-0.16274439,-0.34476504,0.019153614,-9.672575,0.8627467,47.690468,-1.1660954,-1.8523762,-3.382739,-0.34172678,-0.13689406,-0.30450448,28.625,29.6875,29.0,33.0,35.375,36.5
0.21205214,-0.82866246,-0.22049329,-0.78705883,0.011725846,0.04257658,-0.1938675,-0.3913034,-0.34585172,0.06007498,-3.078274,0.6191054,1.3010125e-06,-0.09660526,0.028076086,-0.0031709368,0.019639578,-0.011592756,0.046081994,0.46450645,-1.4122365,1.9408911,-2.0969403,-1.5719503,2.4359004,-0.12762915,0.13860147,-0.16214836,0.042526178,-0.012796551,-0.17358735,-0.34476504,0.038307227,-9.557653,0.8224646,47.689575,-1.0602444,-2.0458465,-3.3106008,-0.33753556,-0.14596102,-0.19726744,28.625,29.6875,29.0,33.0,35.375,36.5
0.2140524,0.0573526,0.27981958,-0.6269364,-0.010357254,0.04821965,-0.20283256,-0.39149648,-0.34579772,0.0600577,-3.0782602,0.618928,-3.743311e-05,-0.09890421,0.027964922,-0.002102813,0.017980436,-0.008038245,0.05040242,0.46425402,-1.4119362,1.9405683,-2.0968688,-1.5719742,2.4355392,-0.12932643,0.13907361,-0.16476336,0.040733088,-0.012934213,-0.17960256,-0.13407528,-0.15322891,-9.481039,0.8291774,47.67345,-1.0673121,-1.9449449,-3.444745,-0.31798834,-0.15571958,-0.111147776,28.625,29.6875,29.0,33.0,35.375,36.5
0.21605268,-0.12856956,-0.021283256,-0.9307984,0.005929838,0.019675579,-0.19642952,-0.3917313,-0.34574407,0.060088497,-3.078314,0.6187861,7.2041956e-05,-0.09961758,0.0284825,-0.0030659384,0.018696468,-0.008463446,0.049545404,0.46396556,-1.4116955,1.9402097,-2.0968215,-1.5719985,2.4351556,-0.13051045,0.14127599,-0.16480154,0.03926289,-0.0133798,-0.17992881,-0.095768064,0.0,-9.5385,0.8627467,47.67345,-1.0440083,-2.0694463,-3.426188,-0.30647534,-0.11741907,-0.0740263,28.625,29.6875,29.0,33.0,35.375,36.5
0.21805188,0.31270617,0.071757145,-0.6197363,-0.007741134,0.023259407,-0.2020558,-0.39194334,-0.34566355,0.060091197,-3.0782733,0.6186848,7.246345e-05,-0.10030973,0.028657682,-0.0032426252,0.018161556,-0.007867939,0.04322655,0.4636653,-1.4114307,1.939874,-2.0967143,-1.5720466,2.4347975,-0.13149148,0.14197949,-0.16493943,0.03791979,-0.013176812,-0.17459069,-0.038307227,0.019153614,-9.5385,0.7642693,47.70032,-1.0896658,-2.0181963,-3.5108118,-0.29130602,-0.13397855,-0.09364995,28.625,29.6875,29.0,33.0,35.375,36.5
0.22005191,0.30798125,-0.71514076,-0.41821593,0.007566776,0.020033665,-0.18668523,-0.39211476,-0.34562716,0.0600744,-3.0783153,0.6185446,4.6970813e-06,-0.101481155,0.028549314,-0.0030446213,0.018000027,-0.00626953,0.036324624,0.4634252,-1.4111661,1.9395989,-2.0966785,-1.5720104,2.4344647,-0.13190776,0.14314891,-0.1665352,0.036858525,-0.01375389,-0.16810217,0.0,0.11492168,-9.289502,0.8493211,47.67614,-1.1532242,-1.9681714,-3.4261446,-0.26361284,-0.13536459,-0.16071358,28.625,29.6875,29.0,33.0,35.375,36.5
0.22205216,0.53584456,-0.20199768,-0.7258048,0.004565541,0.008121391,-0.19177513,-0.39233217,-0.3455653,0.060087305,-3.078292,0.6183877,4.7370824e-05,-0.102980465,0.027524974,-0.0019599474,0.016092205,-0.004256724,0.03199936,0.46316108,-1.4108895,1.939226,-2.0965707,-1.5720705,2.4341059,-0.13186722,0.14418948,-0.17025232,0.036871817,-0.012955123,-0.16373642,0.076614454,0.17238252,-9.251195,0.8112748,47.683304,-1.1028731,-2.0105853,-3.340986,-0.27104363,-0.14351685,-0.23511565,28.625,29.6875,29.0,33.0,35.375,36.5
0.22405256,0.0072173243,-0.6223041,-0.67733675,0.005969221,-0.005407952,-0.1812573,-0.39254564,-0.34550512,0.06006906,-3.0782468,0.6183068,4.5835004e-05,-0.10615405,0.028705891,-0.0013005222,0.015225868,-0.0020321694,0.021747373,0.46289566,-1.4105647,1.9388794,-2.0965116,-1.5721182,2.433796,-0.13654761,0.14566943,-0.17333305,0.036093384,-0.013184564,-0.15816203,0.05746084,0.19153613,-9.212888,0.84708,47.661808,-1.1065824,-2.0980833,-3.3613262,-0.24522805,-0.15016674,-0.34130028,28.625,29.6875,29.0,33.0,35.375,36.5
0.22605205,0.31519705,-0.8874088,-0.5546122,-0.0054586073,-0.005177409,-0.19077459,-0.39275834,-0.34543186,0.06006188,-3.078192,0.6182776,4.56332e-05,-0.10717055,0.027337175,-0.0016996315,0.013877411,-0.001341199,0.019663054,0.46260798,-1.4102751,1.9385427,-2.0964282,-1.5721658,2.4334972,-0.13552052,0.14911081,-0.17597535,0.0340646,-0.012301228,-0.15505043,0.13407528,0.34476504,-9.251195,0.9030289,47.67345,-1.0859448,-2.0165205,-3.2995782,-0.23052402,-0.14768139,-0.41663456,28.625,29.6875,29.0,33.0,35.375,36.5
0.22805218,0.24994245,-0.84338826,-0.66270673,-0.03044529,0.0012048492,-0.19416127,-0.3929963,-0.34538844,0.06008904,-3.0781999,0.61827993,0.00015088783,-0.108719945,0.028082289,-0.00086945435,0.013317518,0.0005949584,0.018219551,0.4623431,-1.409999,1.9381484,-2.096368,-1.5722016,2.433233,-0.137892,0.1485367,-0.1772017,0.033873733,-0.0126607865,-0.15597776,0.076614454,0.4213795,-9.32781,0.7911258,47.661808,-1.0489457,-1.9786505,-3.325583,-0.20153873,-0.14278424,-0.49245036,28.625,29.6875,29.0,33.0,35.375,36.5
0.23005225,-0.66761017,-2.2936223,-1.039209,-0.035991244,-0.010215144,-0.18407501,-0.39320362,-0.34533632,0.060088053,-3.0781953,0.61811954,0.00016845152,-0.109692425,0.02845828,-0.00079190073,0.013252315,-2.162564e-06,0.025787568,0.46209052,-1.4097105,1.9378012,-2.0962965,-1.5722378,2.432881,-0.13953865,0.14979775,-0.17913766,0.0350295,-0.012351343,-0.16519226,-0.019153614,0.53630114,-9.404425,0.9925471,47.677036,-1.0196631,-2.0130875,-3.2960207,-0.18840814,-0.15858105,-0.464768,28.625,29.6875,29.0,33.0,35.375,36.5
0.2320523,-0.21872512,-1.9164667,-0.78872263,-0.06619222,0.02970955,-0.19940694,-0.39341408,-0.34527206,0.060085125,-3.078174,0.618032,8.9377485e-05,-0.11018199,0.028655821,-0.00037819744,0.013546419,3.2953105e-06,0.035926852,0.46179062,-1.40941,1.9374307,-2.096164,-1.5722378,2.4325294,-0.14005125,0.14998047,-0.18066323,0.036478993,-0.012641654,-0.17584223,-0.038307227,0.4213795,-9.385271,0.77545905,47.653748,-1.0465658,-1.9791108,-3.3233738,-0.19139501,-0.16660511,-0.37900788,28.625,29.6875,29.0,33.0,35.375,36.5
0.23405245,-1.0892072,-1.978859,-0.8660542,-0.06328433,0.029165095,-0.18492705,-0.3936279,-0.34519568,0.060071878,-3.0781367,0.617924,6.220538e-05,-0.11076879,0.029913437,-0.00057316956,0.01425659,-0.0017422042,0.044903774,0.4614897,-1.4091098,1.937095,-2.0960796,-1.5722741,2.432166,-0.14278412,0.15046687,-0.18126868,0.038447592,-0.012521774,-0.18755183,-0.15322891,0.5554548,-9.423578,0.83589023,47.661808,-1.0664182,-1.8867475,-3.3033109,-0.19757798,-0.15840171,-0.23402467,28.625,29.6875,29.0,33.0,35.375,36.5
0.23605165,-0.99090695,-1.7858797,-0.6768817,-0.056642123,0.059672616,-0.18987046,-0.393851,-0.3451717,0.06007506,-3.0781956,0.61770165,8.659451e-05,-0.11116521,0.029200638,-0.0008925205,0.01328706,-0.00231295,0.05163468,0.46124977,-1.4087846,1.9367012,-2.0960324,-1.5722736,2.43178,-0.14250425,0.15247785,-0.18282227,0.038052518,-0.011409464,-0.1940051,-0.36391866,0.45968673,-9.404425,0.85155696,47.698532,-0.9515693,-1.8627176,-3.273179,-0.1980398,-0.18774024,-0.16981617,28.625,29.6875,29.0,33.0,35.375,36.5
0.23805176,-2.0166073,-1.7739967,-0.62787706,-0.027994733,0.05483288,-0.17927389,-0.3940549,-0.34510723,0.060060386,-3.0782018,0.61753345,-2.2482416e-06,-0.114084244,0.030071462,-0.00071856845,0.0117545435,-6.758758e-05,0.046523985,0.46094793,-1.4084836,1.936365,-2.0959365,-1.5722612,2.4313726,-0.14675835,0.15433481,-0.18483509,0.03551502,-0.01105898,-0.19314723,-0.40222588,0.38307226,-9.404425,0.8179876,47.691364,-0.8137976,-2.0466335,-3.2879257,-0.14239414,-0.18768564,-0.13666624,28.625,29.6875,29.0,33.0,35.375,36.5
0.24005178,-1.2605201,-0.38163224,-0.46138757,-0.020738112,0.07526489,-0.18080024,-0.3943035,-0.34506208,0.06007021,-3.0782657,0.61743444,8.216392e-05,-0.114174075,0.028949011,-0.001323439,0.011438974,-0.001046103,0.040986333,0.46064878,-1.4081826,1.9359945,-2.0959365,-1.5722612,2.4310038,-0.14522816,0.15727511,-0.18686049,0.035342183,-0.010325861,-0.18608074,-0.47884035,0.22984336,-9.481039,0.95226496,47.703007,-0.9984517,-1.9449874,-3.3811445,-0.11377461,-0.21348403,-0.18805256,28.625,29.6875,29.0,33.0,35.375,36.5
0.2420518,-1.6675693,-0.24178308,-0.19194533,0.012197905,0.07026051,-0.17865182,-0.39451817,-0.34500417,0.06005907,-3.0782402,0.61731654,4.3060754e-05,-0.11586163,0.028707014,0.00043144252,0.010400518,0.0015356641,0.034341305,0.46037248,-1.4078583,1.935623,-2.0958407,-1.572285,2.4306574,-0.14605762,0.15675406,-0.19066267,0.036894456,-0.010550721,-0.18026273,-0.6512228,0.19153614,-9.346964,0.92764956,47.704796,-1.0454065,-1.9010193,-3.3664565,-0.09851204,-0.22982511,-0.29309556,28.625,29.6875,29.0,33.0,35.375,36.5
0.24405202,-1.053522,0.8167103,-0.32978705,0.035157256,0.068508886,-0.19290905,-0.39478043,-0.34496793,0.060072787,-3.07826,0.6172063,0.00016006402,-0.11588071,0.02882458,0.0001532853,0.010938008,0.001386602,0.031680018,0.46010855,-1.4075098,1.9351805,-2.0958045,-1.5723337,2.4303224,-0.14592437,0.15731294,-0.1906865,0.036726598,-0.0109536825,-0.17746772,-0.5554548,-0.019153614,-9.270349,0.8247004,47.674347,-1.0630878,-1.942129,-3.4039307,-0.08507952,-0.2248278,-0.3228116,28.625,29.6875,29.0,33.0,35.375,36.5
0.24605256,-1.567778,0.41333592,-0.406105,0.065818325,0.051411714,-0.16676721,-0.39501008,-0.3449141,0.060073216,-3.0782776,0.617172,0.000116688374,-0.117219895,0.029272642,5.162957e-05,0.010783139,0.0013319047,0.03054871,0.45979583,-1.4071971,1.9347986,-2.0957205,-1.5723094,2.4299862,-0.14789559,0.15906799,-0.19255279,0.036817342,-0.010799241,-0.17830685,-0.53630114,-0.15322891,-9.155427,0.84484416,47.681515,-1.0244716,-1.8762819,-3.4008904,-0.054857336,-0.2611427,-0.38341677,28.625,29.6875,29.0,33.0,35.375,36.5
0.24805214,-0.83918905,1.0048062,-0.3257904,0.049252976,0.06302076,-0.18452321,-0.3952383,-0.3448377,0.060054846,-3.0782504,0.6170505,0.00010406468,-0.1181646,0.030188246,-0.00012269233,0.012089909,0.0008088328,0.03186688,0.4594834,-1.4068723,1.934451,-2.095661,-1.5723456,2.4296017,-0.14963943,0.16037792,-0.19398054,0.037972216,-0.011750406,-0.18136533,-0.45968673,-0.22984336,-9.232041,0.8537928,47.66091,-1.0199393,-1.907057,-3.3359652,-0.047836754,-0.25969252,-0.40367353,28.625,29.6875,29.0,33.0,35.375,36.5
0.25005248,-0.6234302,1.2191966,-0.30777615,0.04156628,0.06489817,-0.18514982,-0.39548135,-0.34478375,0.06006314,-3.0782654,0.61691403,0.00010869432,-0.119053386,0.03135356,-0.0016304378,0.014486431,-0.0024052742,0.040136762,0.45918262,-1.4065459,1.9340323,-2.0955641,-1.572358,2.429214,-0.15190512,0.16454852,-0.19576466,0.039508186,-0.01248972,-0.19189773,-0.4405331,-0.3256114,-9.270349,0.88289046,47.668976,-0.97697806,-2.1692076,-3.353247,-0.036074556,-0.257581,-0.32191926,28.625,29.6875,29.0,33.0,35.375,36.5
0.25205198,-0.96176773,1.222861,-0.13475755,0.04241252,0.06286431,-0.18654948,-0.39573544,-0.34473678,0.060074817,-3.078291,0.6166992,0.00019408742,-0.1185728,0.03045631,-0.001992478,0.015732385,-0.0037028175,0.054924924,0.45890746,-1.4062098,1.9336027,-2.0955036,-1.5724062,2.4288018,-0.14944856,0.16665952,-0.19779807,0.041113682,-0.013043583,-0.20422739,-0.47884035,-0.34476504,-9.289503,0.85155696,47.67614,-1.1108551,-1.9229904,-3.3475885,-0.014250778,-0.28601992,-0.19575295,28.625,29.6875,29.0,33.0,35.375,36.5
0.2540523,-0.6283007,1.3306835,-0.06480361,0.043984205,0.075683445,-0.19105825,-0.3959887,-0.34465623,0.06006904,-3.0782654,0.61665416,0.00018523223,-0.11953879,0.031429213,-0.0011877496,0.016324108,-0.002940112,0.058178857,0.45855877,-1.4058734,1.9332074,-2.0954201,-1.5724305,2.4284284,-0.15134023,0.16582611,-0.19910616,0.042818032,-0.0139256045,-0.20937023,-0.51714754,-0.40222588,-9.346964,0.87393653,47.657326,-0.9938645,-1.9847298,-3.3330579,-0.021844547,-0.25773066,-0.14665931,28.625,29.6875,29.0,33.0,35.375,36.5
0.25605264,-0.9136999,1.2021377,-0.106504835,0.04397842,0.0712584,-0.18605687,-0.39621946,-0.34458068,0.060052082,-3.0782554,0.61640465,0.00015535508,-0.12054003,0.031566005,-0.0012448302,0.016778728,-0.0034428101,0.054257758,0.45824644,-1.4055364,1.9328364,-2.0953357,-1.5724667,2.4279618,-0.15223625,0.1678724,-0.20166121,0.043973375,-0.014123577,-0.20634271,-0.4213795,-0.36391866,-9.423578,0.90750587,47.684196,-1.0762388,-2.0597987,-3.412504,-0.007573733,-0.28481436,-0.09434686,28.625,29.6875,29.0,33.0,35.375,36.5
0.25805202,-0.21001987,1.3243862,-0.312023,0.035700686,0.08386058,-0.19145426,-0.396452,-0.34453082,0.060059257,-3.0782604,0.61623764,0.00015703171,-0.12054993,0.032407682,-0.0022226512,0.018462844,-0.005850874,0.045891926,0.4579701,-1.4052113,1.9324187,-2.0952275,-1.5724906,2.4275808,-0.15335302,0.16971679,-0.20191735,0.045296133,-0.014563718,-0.1990921,-0.57460845,-0.2681506,-9.346964,0.8537928,47.684196,-1.1868688,-2.0366714,-3.4436245,-0.022918738,-0.29189506,-0.18498547,28.625,29.6875,29.0,33.0,35.375,36.5
0.26005188,-0.5035085,1.0830401,-0.17398165,0.02030061,0.066762015,-0.18541734,-0.39668956,-0.3444406,0.060016293,-3.0781684,0.6161647,6.49216e-05,-0.12128285,0.032417316,-0.002178246,0.018592032,-0.006258254,0.038265996,0.45763394,-1.4048145,1.9320349,-2.0951307,-1.5725387,2.427211,-0.15393977,0.17119505,-0.20403683,0.046358924,-0.014518209,-0.19205058,-0.49799395,-0.22984336,-9.289502,0.95226496,47.67614,-1.1815008,-2.1554012,-3.3851128,-0.017834334,-0.2930529,-0.28041583,28.625,29.6875,29.0,33.0,35.375,36.5
0.26205194,-0.14539063,0.17946765,-0.5367829,0.014317247,0.056929696,-0.19645034,-0.39693952,-0.34436283,0.060022183,-3.0781405,0.6161065,0.00010672544,-0.12211627,0.033852424,-0.0014616078,0.019553399,-0.006451703,0.028879859,0.4573091,-1.4045025,1.9316405,-2.0950463,-1.5725869,2.4268537,-0.15660086,0.17015615,-0.20513533,0.049096618,-0.015286829,-0.18532348,-0.40222588,0.0,-9.423578,0.84708,47.667187,-1.1578634,-2.0366113,-3.403401,-0.021935398,-0.29193148,-0.37494022,28.625,29.6875,29.0,33.0,35.375,36.5
0.26405215,0.054626435,-0.4033581,-0.55970705,-0.0011710661,0.03989349,-0.19050702,-0.39717412,-0.3442939,0.06001835,-3.078096,0.61600226,3.5764795e-05,-0.12079953,0.03332142,-0.0017677229,0.021937177,-0.009270018,0.027213976,0.45699826,-1.4041536,1.931209,-2.0948894,-1.5726112,2.4264836,-0.1538433,0.17140317,-0.20685507,0.05315335,-0.01618842,-0.180896,-0.30645782,0.13407528,-9.461885,0.92093146,47.661808,-1.2695045,-2.1794705,-3.37499,-0.055876907,-0.2938921,-0.4774148,28.625,29.6875,29.0,33.0,35.375,36.5
0.26605216,-0.17816623,-0.74448,-0.42752555,-0.029173527,0.027375916,-0.19388989,-0.39743748,-0.34420636,0.060002677,-3.0780356,0.61600703,6.6496355e-06,-0.12289531,0.03424614,-0.002065606,0.022473384,-0.009271146,0.027820071,0.45663738,-1.4037801,1.9307898,-2.094794,-1.5726475,2.4261336,-0.15686485,0.17427735,-0.20958754,0.053231616,-0.016695973,-0.18451978,-0.2681506,0.19153613,-9.442732,0.92764956,47.661808,-1.1849904,-2.2019835,-3.3801546,-0.063804336,-0.2634419,-0.5139711,28.625,29.6875,29.0,33.0,35.375,36.5
0.2680522,-0.6983204,-1.3917662,-0.4590862,-0.02425417,0.018719269,-0.19125722,-0.3976809,-0.34413603,0.060008936,-3.0780225,0.61584425,5.346277e-06,-0.123908594,0.03532789,-0.002131948,0.023941282,-0.011086941,0.038863484,0.4563244,-1.4034557,1.9303716,-2.094673,-1.5726837,2.425721,-0.15920147,0.17596507,-0.21215183,0.05634813,-0.01724347,-0.19789691,-0.15322891,0.2681506,-9.423578,0.8493211,47.66091,-1.1152464,-2.2085872,-3.3784337,-0.07445817,-0.283018,-0.44019264,28.625,29.6875,29.0,33.0,35.375,36.5
0.27005237,0.3575611,-0.7928391,-0.5759441,-0.025951263,0.04126676,-0.20729826,-0.39790264,-0.34407103,0.05998729,-3.0779896,0.6155836,-4.53935e-05,-0.124111906,0.036838714,-0.0028105238,0.0252641,-0.015614535,0.048550364,0.45604715,-1.4030948,1.9299773,-2.0945637,-1.5727314,2.4252853,-0.16243865,0.17753974,-0.21347697,0.06070236,-0.016471695,-0.21082208,-0.076614454,0.4405331,-9.481039,0.85155696,47.679718,-0.95672077,-2.1198187,-3.4395795,-0.13166563,-0.28890413,-0.3295805,28.625,29.6875,29.0,33.0,35.375,36.5
0.27205235,0.20228855,-0.88245964,-0.8055955,-0.025069492,0.03128991,-0.19307412,-0.39815983,-0.34398228,0.059967134,-3.0779407,0.61551243,-0.00014448313,-0.12409206,0.03770711,-0.0027754414,0.02612581,-0.018130485,0.055476863,0.4556746,-1.4027104,1.9295467,-2.0944307,-1.5727433,2.4248748,-0.16402543,0.17772987,-0.21465568,0.064302176,-0.01617485,-0.21933505,0.095768064,0.47884035,-9.442732,0.93436235,47.66539,-0.92275894,-2.1388602,-3.3683386,-0.20709231,-0.29355764,-0.20217524,28.625,29.6875,29.0,33.0,35.375,36.5
0.27405274,0.29686487,-1.089534,-0.67318934,-0.02967549,0.028497688,-0.18823148,-0.39840662,-0.34391207,0.059966452,-3.0779133,0.61529726,-0.00013569453,-0.12495899,0.037285503,-0.002736018,0.02467364,-0.017260112,0.053887296,0.4553744,-1.402361,1.9291157,-2.094312,-1.5728029,2.424444,-0.16450535,0.17884685,-0.21577744,0.06286813,-0.015273685,-0.21822697,-0.095768064,0.5554548,-9.423578,0.8717007,47.66987,-0.9424963,-2.249563,-3.4700944,-0.20777169,-0.31447968,-0.18398654,28.625,29.6875,29.0,33.0,35.375,36.5
0.27605185,0.38618636,-1.4542301,-0.40995157,-0.037018567,0.03171725,-0.20241183,-0.39867556,-0.34384543,0.059975468,-3.0779157,0.6151456,-0.00013266143,-0.12610352,0.036179133,-0.0018569349,0.02452989,-0.016270189,0.04869835,0.455039,-1.4020005,1.9286488,-2.0941913,-1.5728272,2.4240139,-0.16323535,0.18089172,-0.22064339,0.06474203,-0.015586359,-0.21176465,-0.11492168,0.4405331,-9.461885,0.8918391,47.66987,-0.94765997,-2.123045,-3.5076623,-0.2526612,-0.2886418,-0.2574562,28.625,29.6875,29.0,33.0,35.375,36.5
0.27805188,-0.37441733,-0.9083442,-0.3550917,-0.032539763,0.009727316,-0.19033101,-0.39892027,-0.34377065,0.05994992,-3.0778754,0.615006,-0.00024299145,-0.12773874,0.035980698,-0.0005299109,0.023267424,-0.013606772,0.043091796,0.45470262,-1.4016044,1.9282168,-2.0940597,-1.5728391,2.4235957,-0.16415341,0.18066414,-0.2235067,0.064888775,-0.01564789,-0.20707338,0.0,0.3256114,-9.346964,0.8605109,47.65464,-0.95375943,-1.9602585,-3.3964407,-0.2671258,-0.32340482,-0.32922143,28.625,29.6875,29.0,33.0,35.375,36.5
0.2800521,0.16115256,-0.32344398,-0.4848598,-0.009283434,0.0046144985,-0.20264708,-0.39919415,-0.3436939,0.059951857,-3.0778604,0.6148526,-0.00024508915,-0.12896667,0.037274677,-0.0011490561,0.023872677,-0.014725262,0.037550554,0.45435324,-1.4012312,1.9277514,-2.09394,-1.5728754,2.4231527,-0.1673334,0.18246804,-0.2243138,0.065155536,-0.015711045,-0.204711,0.05746084,0.3256114,-9.442732,0.93436235,47.674347,-0.97822726,-2.1303744,-3.3853002,-0.29181555,-0.3338806,-0.39547756,28.625,29.6875,29.0,33.0,35.375,36.5
0.28205216,0.27027214,-0.23604432,-0.5132055,0.005920497,-0.0011085704,-0.20233959,-0.39948013,-0.3436172,0.05997228,-3.0778472,0.6148091,-0.00020026171,-0.12995763,0.037312977,-0.0008943932,0.023279788,-0.01365398,0.039097857,0.4539934,-1.4008826,1.9272722,-2.0938199,-1.5729111,2.4227676,-0.1681605,0.18314067,-0.22559221,0.06452044,-0.01566314,-0.2070851,0.11492168,0.21068975,-9.308656,0.9545008,47.653748,-1.007528,-2.006934,-3.4004827,-0.31092066,-0.3322721,-0.39977098,28.625,29.6875,29.0,33.0,35.375,36.5
0.28405243,-0.6610047,-0.8376782,-0.51260483,0.010355557,-0.01996365,-0.18907957,-0.39970928,-0.34353918,0.05993302,-3.0777748,0.614618,-0.00033455007,-0.131371,0.038037177,-0.0013225577,0.023011206,-0.013675121,0.045103386,0.4536806,-1.400474,1.926854,-2.0936773,-1.5729469,2.422345,-0.1706757,0.18498416,-0.2266145,0.06356829,-0.015468687,-0.21560378,-0.038307227,0.21068975,-9.308656,0.8627467,47.67614,-0.85437846,-2.0596914,-3.4032526,-0.3220818,-0.34867883,-0.35992795,28.625,29.6875,29.0,33.0,35.375,36.5
0.28605253,-0.29197833,-0.21097535,-0.48752895,-0.0069855102,-0.0007219791,-0.20049849,-0.3999632,-0.34347966,0.05992409,-3.0777836,0.6144203,-0.00039888086,-0.1326837,0.03748776,-0.0013608196,0.022923999,-0.012227586,0.05756617,0.45335674,-1.4000888,1.9263991,-2.0935576,-1.5729474,2.4218967,-0.17033978,0.18745959,-0.22918618,0.06229469,-0.01607592,-0.2277262,0.17238253,0.038307227,-9.404425,0.90527004,47.674347,-0.9492882,-2.0248337,-3.462918,-0.3197961,-0.36189407,-0.21341205,28.625,29.6875,29.0,33.0,35.375,36.5
0.28805253,-0.5203039,-0.46232963,-0.44790915,-0.013096393,0.005203146,-0.196385,-0.40022948,-0.34338796,0.059920937,-3.0777657,0.61416554,-0.00041753857,-0.13404553,0.03739399,-0.0006794083,0.021379666,-0.010136547,0.062962666,0.45299613,-1.3997284,1.9259571,-2.0934265,-1.5729955,2.4213796,-0.1715015,0.18756662,-0.23065032,0.06106248,-0.015641287,-0.23428455,0.076614454,0.038307227,-9.442732,0.82694155,47.68062,-0.88665056,-2.06934,-3.4390755,-0.32286578,-0.35790306,-0.11023088,28.625,29.6875,29.0,33.0,35.375,36.5
0.2900517,-1.0612254,-0.5915527,-0.247112,-0.015909968,0.007580717,-0.19085872,-0.40049016,-0.34332436,0.05991496,-3.0777767,0.6140357,-0.000451704,-0.13632262,0.03763508,-0.0002314645,0.020802423,-0.0071042296,0.05795616,0.45265946,-1.3993555,1.925515,-2.093332,-1.5729955,2.4209607,-0.17324172,0.18903194,-0.232963,0.05893631,-0.016463527,-0.23101345,-0.05746084,0.038307227,-9.461885,0.8873621,47.68062,-0.8553638,-2.1133165,-3.4776294,-0.3136429,-0.3554814,-0.13101822,28.625,29.6875,29.0,33.0,35.375,36.5
0.292052,-0.58355093,-0.15959504,-0.33904493,-0.020507433,0.033902537,-0.19908834,-0.40075925,-0.3432571,0.05990725,-3.0777626,0.6138237,-0.0005081118,-0.13764942,0.036409248,0.00015978089,0.019356987,-0.0044140145,0.05100601,0.45232442,-1.3989463,1.9250234,-2.0931885,-1.5730194,2.4204953,-0.17217253,0.1908828,-0.23556714,0.056646187,-0.016351871,-0.22299188,-0.1340753,0.076614454,-9.442732,0.8717007,47.66271,-0.9897568,-2.0524971,-3.3819332,-0.3002946,-0.38345146,-0.21134695,28.625,29.6875,29.0,33.0,35.375,36.5
0.29405233,-0.7485314,-0.04620186,-0.57792753,0.0021126512,0.030068172,-0.19661197,-0.40103376,-0.3431717,0.059908696,-3.07772,0.6136851,-0.00049882726,-0.13966027,0.035762083,0.00076182734,0.01804319,-0.001189279,0.04282684,0.45197615,-1.3985733,1.9245561,-2.0930579,-1.5730795,2.420066,-0.17248698,0.19261302,-0.23851284,0.054388255,-0.016584808,-0.21512394,-0.17238253,0.17238252,-9.500193,0.87393653,47.65912,-1.0509334,-2.1836493,-3.339945,-0.28035742,-0.37980548,-0.30532545,28.625,29.6875,29.0,33.0,35.375,36.5
0.29605263,-1.2949208,-0.24239418,-0.501623,-0.0034979281,0.034112446,-0.20400824,-0.40129545,-0.3431087,0.059899375,-3.0777295,0.6135965,-0.00051928463,-0.14022781,0.035330478,0.00024998028,0.017623592,-0.0006296208,0.03467695,0.45164046,-1.3981996,1.9241256,-2.0929868,-1.5730795,2.4196742,-0.17217818,0.19451742,-0.2392083,0.052507527,-0.016444474,-0.20666477,-0.51714754,0.13407528,-9.595961,0.92093146,47.675243,-1.1381618,-2.2370186,-3.3416343,-0.23161955,-0.3955384,-0.4402671,28.625,29.6875,29.0,33.0,35.375,36.5
0.2980517,-1.750701,-0.3234795,-0.5236613,-0.011216082,0.039544906,-0.20620155,-0.40156987,-0.34300914,0.059882797,-3.0776544,0.61350316,-0.00055630726,-0.14158778,0.035209674,-4.0925945e-05,0.017624117,0.0001261087,0.03453161,0.45126814,-1.3978027,1.9236711,-2.0928557,-1.57314,2.4192533,-0.17277494,0.19713105,-0.24141398,0.05140174,-0.016801195,-0.2071123,-0.59376204,0.15322891,-9.576807,0.8493211,47.691364,-1.2195355,-2.314977,-3.404965,-0.20594591,-0.41512164,-0.5097538,28.625,29.6875,29.0,33.0,35.375,36.5
0.3000519,-1.8131051,-1.0428052,-0.6528843,-0.0036430524,0.050706193,-0.20586215,-0.4018372,-0.3429734,0.059883557,-3.0776985,0.61329514,-0.00058798556,-0.14312345,0.03527421,0.00074754766,0.01726111,0.002208702,0.044099864,0.45096803,-1.3973947,1.923169,-2.092748,-1.5731276,2.418818,-0.17368522,0.19765143,-0.24386604,0.05127515,-0.01741745,-0.21758729,-0.45968673,0.17238252,-9.557653,0.86498255,47.655537,-1.2199321,-2.209031,-3.388918,-0.19850472,-0.41065842,-0.4645428,28.625,29.6875,29.0,33.0,35.375,36.5
0.30205208,-2.4461834,-0.91272545,-0.68770444,-0.019354034,0.05910561,-0.20908007,-0.40210873,-0.3428879,0.05986666,-3.0776436,0.6130841,-0.0006007885,-0.1447718,0.035833128,0.0005262986,0.017620638,0.0028309892,0.057738297,0.45063102,-1.3969854,1.9227031,-2.0926282,-1.5732001,2.4183564,-0.17553549,0.19986562,-0.24586664,0.050599806,-0.018070813,-0.23307136,-0.57460845,0.17238252,-9.691729,0.88289046,47.657326,-1.1725588,-2.2124643,-3.3537898,-0.15863167,-0.4123543,-0.33901775,28.625,29.6875,29.0,33.0,35.375,36.5
0.30405235,-2.06957,-0.4849872,-0.69986796,-0.031391755,0.080987886,-0.21237312,-0.40242112,-0.34281528,0.059881773,-3.0776634,0.6128726,-0.00055690244,-0.14548074,0.036621135,0.00036701898,0.018727532,0.0028791379,0.066406116,0.4502589,-1.3965769,1.9221648,-2.0925086,-1.5732363,2.41785,-0.1767147,0.20065352,-0.24656677,0.050914235,-0.019112254,-0.24291441,-0.63206923,0.21068975,-9.768343,0.8873621,47.65464,-1.377135,-2.1953454,-3.3585105,-0.16169246,-0.41236037,-0.20725568,28.625,29.6875,29.0,33.0,35.375,36.5
0.3060517,-2.8922205,-1.2103951,-0.68178946,-0.023189293,0.071204565,-0.19222283,-0.40270856,-0.342742,0.059885055,-3.0776918,0.61262804,-0.0005397029,-0.1447754,0.035877787,-0.00021000876,0.019851495,0.0024791113,0.06661274,0.44989976,-1.3961918,1.921686,-2.0924127,-1.5732607,2.4173348,-0.17413571,0.20199174,-0.24683124,0.050686523,-0.019948382,-0.24053857,-0.7278373,0.2681506,-9.787497,0.9634547,47.668976,-1.4558012,-2.1652465,-3.5402415,-0.12363876,-0.41758555,-0.19650495,28.625,29.6875,29.0,33.0,35.375,36.5
0.30805185,-2.7460876,-1.1973422,-0.36707637,-0.026245011,0.077274695,-0.19304332,-0.40302357,-0.34266606,0.05988735,-3.0776916,0.6124989,-0.00047231073,-0.1443302,0.036692,-0.0015470276,0.021591123,-0.0011744302,0.05732071,0.44952777,-1.3957705,1.9211725,-2.0923402,-1.5733088,2.4168825,-0.17506598,0.2041683,-0.24682297,0.05255178,-0.019900978,-0.23217744,-0.7661445,0.21068975,-9.557653,0.8627467,47.688675,-1.4312689,-2.1873462,-3.6529365,-0.12625986,-0.4150321,-0.2712579,28.625,29.6875,29.0,33.0,35.375,36.5
0.31005192,-2.2886012,-0.0327396,-0.43028247,-0.024147803,0.068161726,-0.2040279,-0.40331274,-0.34259474,0.059892237,-3.077703,0.6123317,-0.0004270322,-0.14662015,0.03760678,-0.00011024068,0.020845944,0.002756327,0.05029489,0.44917873,-1.3953869,1.9206942,-2.0922568,-1.5733451,2.4164279,-0.17782852,0.20298667,-0.24858284,0.051629275,-0.02093352,-0.22790985,-0.6895301,0.19153614,-9.595961,0.9545008,47.64927,-1.5039914,-1.962758,-3.731349,-0.11677168,-0.393646,-0.3422247,28.625,29.6875,29.0,33.0,35.375,36.5
0.31205225,-1.2990794,0.4191349,-0.5913563,-0.0031206869,0.049940106,-0.2139144,-0.4036278,-0.34253234,0.05990823,-3.0777133,0.61212224,-0.00027521132,-0.14927487,0.037392594,0.0021814345,0.01921618,0.00871173,0.04921011,0.44885436,-1.394979,1.9201678,-2.0921977,-1.57343,2.4159718,-0.17885804,0.2017192,-0.2521099,0.050329745,-0.022048559,-0.22785029,-0.38307226,0.076614454,-9.672575,0.900793,47.653748,-1.403036,-1.978704,-3.6402712,-0.068240955,-0.40269274,-0.36516416,28.625,29.6875,28.9375,33.0,35.375,36.5
0.31405255,-1.2424473,-0.013317256,-0.43142584,0.01549105,0.020679547,-0.21043745,-0.40392044,-0.34243262,0.059876014,-3.077652,0.61203116,-0.00037973784,-0.1511062,0.038419846,0.0025302696,0.01892062,0.009369413,0.05190595,0.44844523,-1.3945221,1.9196771,-2.092065,-1.5734538,2.4155138,-0.18202871,0.20259829,-0.25410265,0.050692573,-0.022107707,-0.23371373,-0.40222588,-0.019153614,-9.557653,0.92093146,47.670765,-1.213092,-1.8898717,-3.5911617,-0.044123046,-0.40666458,-0.35623962,28.625,29.6875,28.9375,33.0,35.375,36.5
0.3160518,-1.0026693,0.25493118,-0.421405,0.028623225,0.0028196622,-0.20360816,-0.4042369,-0.3423787,0.05991141,-3.077741,0.61181295,-0.00022960833,-0.15217604,0.03988978,0.0013784996,0.021537174,0.005875102,0.06213047,0.44809657,-1.3941605,1.9191626,-2.0920165,-1.5734776,2.4150178,-0.18482532,0.20645584,-0.25673023,0.053699322,-0.022956198,-0.2467328,-0.4213795,0.0,-9.385271,0.9567419,47.678825,-1.221176,-2.019941,-3.5436625,-0.013567448,-0.38646495,-0.24538451,28.625,29.6875,28.9375,33.0,35.375,36.5
0.31805182,-0.026305417,1.2121464,-0.67220646,0.03668615,0.020714225,-0.21210144,-0.4045353,-0.3422838,0.05989691,-3.077721,0.611575,-0.0002758875,-0.15336344,0.040594622,0.0017609594,0.022547057,0.006447974,0.06930911,0.4476998,-1.3937277,1.9186596,-2.0918844,-1.5735143,2.4144752,-0.1861575,0.20724298,-0.258887,0.05495227,-0.024153285,-0.255237,-0.30645782,-0.095768064,-9.557653,0.842603,47.674347,-1.1082566,-1.913186,-3.4513195,-0.011838898,-0.37927324,-0.11236898,28.625,29.6875,28.9375,33.0,35.375,36.5
0.32005197,-0.59310377,0.041753203,-0.7614933,0.03755881,0.030780854,-0.2011275,-0.40487096,-0.3422165,0.059918303,-3.0777345,0.61138827,-0.00020547541,-0.15595591,0.04080937,0.003179876,0.020911947,0.009927575,0.06487511,0.44732708,-1.3932834,1.9180611,-2.0917532,-1.573562,2.4139845,-0.18854198,0.20746554,-0.26232228,0.054306,-0.024183987,-0.25318652,-0.24899697,-0.05746084,-9.691729,0.900793,47.667187,-1.0945362,-1.9861156,-3.3319101,0.030255381,-0.35733336,-0.08931954,28.625,29.6875,28.9375,33.0,35.375,36.5
0.322052,-0.9934332,0.12383061,-0.37439254,-0.00028273585,0.039260093,-0.20308332,-0.40520194,-0.34213793,0.059945896,-3.0777507,0.6111858,-7.0313705e-05,-0.15730976,0.041174196,0.002608071,0.023065114,0.0075577246,0.05468997,0.4469546,-1.3928852,1.9175104,-2.0916564,-1.5736345,2.4134839,-0.18960369,0.21202676,-0.26719412,0.05768795,-0.025069129,-0.24405885,-0.22984336,-0.17238252,-9.5385,0.90527004,47.65643,-1.0158697,-2.1980376,-3.2342362,0.031757295,-0.3575779,-0.16327094,28.625,29.6875,28.9375,33.0,35.375,36.5
0.32405207,-1.4628757,-0.37417656,-0.7730705,0.023509791,0.013369934,-0.19396244,-0.4054954,-0.34202486,0.059937473,-3.0776832,0.61108243,-9.674398e-05,-0.1576942,0.042642336,0.0017222521,0.026034134,0.004324881,0.04214163,0.44654617,-1.3924884,1.9170321,-2.091511,-1.5736951,2.4130197,-0.19154549,0.21446496,-0.268885,0.061151005,-0.026338572,-0.23344536,-0.3256114,-0.019153614,-9.500193,0.87393653,47.645687,-1.0243769,-2.140767,-3.2251968,0.012003271,-0.3451955,-0.27903572,28.625,29.6875,28.9375,33.0,35.375,36.5
0.32605237,-1.1223538,-0.2166859,-0.7297449,0.019715369,0.02066139,-0.20107542,-0.40580568,-0.34195885,0.059948143,-3.0776832,0.61087596,-5.9824535e-05,-0.15729,0.042827796,0.0014566206,0.027684074,0.0024585288,0.033298884,0.44619846,-1.3920555,1.9164709,-2.0913785,-1.5737432,2.4125433,-0.1909533,0.21545884,-0.2701254,0.06380479,-0.026999468,-0.22400759,-0.36391866,0.11492168,-9.691729,0.90527004,47.661808,-1.037849,-2.2835732,-3.2932057,-0.015580285,-0.32277364,-0.43877196,28.625,29.6875,28.9375,33.0,35.375,36.5
0.32805163,-1.1671728,0.09873566,-0.59284353,0.0073238974,0.025879964,-0.20505534,-0.40609476,-0.34187943,0.059916526,-3.0776412,0.6107125,-0.00012440328,-0.15656725,0.044365592,-0.0006786003,0.03049396,-0.0035845984,0.033794444,0.44583765,-1.391586,1.9159683,-2.0912697,-1.573779,2.412086,-0.19292179,0.21861354,-0.26974845,0.066912174,-0.026947213,-0.22647016,-0.2873042,0.095768064,-9.576807,0.8023209,47.647476,-0.9774859,-2.1650903,-3.3977242,-0.043926574,-0.31037375,-0.48748475,28.625,29.6875,28.9375,33.0,35.375,36.5
0.33005178,-0.27221778,0.18220404,-0.5782249,0.009907747,0.030497288,-0.21345359,-0.40642652,-0.3417778,0.059935935,-3.0776331,0.6105699,-4.8362857e-05,-0.15521483,0.04546885,-0.0018250595,0.03204573,-0.009072717,0.046892688,0.4454173,-1.3911893,1.9154319,-2.0911486,-1.5738386,2.411578,-0.1941341,0.2193225,-0.2689594,0.070962355,-0.02600902,-0.24078593,-0.076614454,0.038307227,-9.519346,0.92093146,47.67614,-1.0478077,-2.2040987,-3.5305448,-0.06909091,-0.3198466,-0.39803594,28.625,29.6875,28.9375,33.0,35.375,36.5
0.33205193,-0.9290972,0.015188172,-0.5043453,-0.018427134,0.014717968,-0.21453907,-0.40675268,-0.34167972,0.059962373,-3.077605,0.6104599,2.8794282e-06,-0.15586135,0.046266038,-0.00046777536,0.031972215,-0.008526495,0.058354184,0.4450089,-1.3907937,1.9148697,-2.0909803,-1.5738991,2.4111047,-0.19577338,0.21741112,-0.27054626,0.07386979,-0.026215415,-0.25388616,-0.24899697,0.038307227,-9.461885,0.88960326,47.67166,-1.141058,-2.1288009,-3.5880847,-0.10618513,-0.29816896,-0.2641371,28.625,29.6875,28.9375,33.0,35.375,36.5
0.3340523,-0.57129306,-0.49411634,-0.08472337,-0.010448839,0.029143954,-0.18978256,-0.40705684,-0.34159753,0.059954703,-3.0775723,0.6101233,1.3837215e-05,-0.15378737,0.04604061,-0.0008070975,0.035445627,-0.0125366915,0.065548785,0.4446621,-1.3903368,1.9143184,-2.0908344,-1.5739836,2.410552,-0.19258147,0.21791485,-0.27175328,0.07964948,-0.027645588,-0.25788233,-0.32561144,0.0,-9.251195,0.8985519,47.66091,-1.2570201,-2.0364254,-3.4864116,-0.1728749,-0.28479385,-0.15237126,28.625,29.6875,28.9375,33.0,35.375,36.5
0.3360516,-0.71246576,0.03867063,-0.31048337,0.034933984,0.0094235325,-0.19118963,-0.40738222,-0.34148824,0.059960373,-3.07752,0.61002165,4.633751e-05,-0.15591832,0.044746004,0.001535549,0.032876194,-0.0071758702,0.05906884,0.44424224,-1.3899168,1.9137806,-2.0906918,-1.5740551,2.4100757,-0.19193625,0.21717793,-0.27612364,0.0788067,-0.027640777,-0.25075483,-0.22984336,0.0,-9.212888,0.97464454,47.655537,-1.3330082,-2.0973945,-3.541999,-0.17758349,-0.25225523,-0.22934547,28.625,29.6875,28.9375,33.0,35.375,36.5
0.3380517,-0.19925553,0.24566211,-0.28162357,0.045883093,0.011430703,-0.19193786,-0.40769908,-0.34143007,0.059965283,-3.077567,0.609728,4.9655893e-05,-0.15669513,0.044809617,0.0015502338,0.032416373,-0.008750855,0.05076155,0.44388184,-1.3894601,1.913206,-2.0905707,-1.574067,2.409526,-0.19322804,0.21901655,-0.27889946,0.080976225,-0.026540942,-0.24374254,-0.038307227,0.038307227,-9.308657,0.9321212,47.66987,-1.3571446,-1.9128317,-3.3975215,-0.21733469,-0.23464137,-0.34140086,28.625,29.6875,28.9375,33.0,35.375,36.5
0.3400518,0.015280428,0.6220214,0.11301626,0.03301741,0.004310209,-0.20316324,-0.40803823,-0.34134358,0.059996635,-3.0775688,0.60969263,9.608056e-05,-0.15831608,0.045135725,0.002496138,0.031617947,-0.008341695,0.045474913,0.4434611,-1.3890511,1.912619,-2.0904148,-1.5740908,2.4090834,-0.19532076,0.21976025,-0.2824922,0.083105676,-0.025994122,-0.24055013,0.0,0.019153614,-9.078813,0.9545008,47.655537,-1.291398,-1.8635857,-3.227789,-0.2663597,-0.2361085,-0.4070544,28.625,29.6875,28.9375,33.0,35.375,36.5
0.3420519,0.27439407,0.6507958,-0.16599241,0.037932586,-0.022367664,-0.20340058,-0.40834635,-0.34123927,0.059989296,-3.0774791,0.60943985,8.6607084e-05,-0.15987322,0.045501657,0.003290089,0.030770265,-0.005850244,0.04925434,0.44308853,-1.3885947,1.9120568,-2.0902236,-1.5741991,2.4085646,-0.19688383,0.21955343,-0.28391397,0.0820673,-0.026343936,-0.2458887,0.019153614,0.038307227,-9.11712,0.9298854,47.62867,-1.2536908,-1.6963084,-3.2405078,-0.26837343,-0.21691157,-0.40787828,28.625,29.6875,28.9375,33.0,35.375,36.5
0.34405214,0.1364254,-0.10434069,-0.43217832,0.019302307,-0.004148053,-0.20268461,-0.40865204,-0.34113896,0.05998263,-3.077439,0.6092321,8.113328e-06,-0.16145174,0.045924954,0.0035851593,0.030905893,-0.00490627,0.061800197,0.44268006,-1.38815,1.911506,-2.0900314,-1.5742353,2.4080317,-0.19840074,0.221016,-0.28643754,0.082266495,-0.026941687,-0.25994587,-0.038307227,0.05746084,-9.270349,0.8851263,47.65464,-1.1633971,-1.6935993,-3.332038,-0.31443375,-0.1969195,-0.29908592,28.625,29.6875,28.9375,33.0,35.375,36.5
0.34605247,-0.40556318,-1.2316357,-0.7503381,-0.009828954,0.016354345,-0.1949741,-0.40896276,-0.34106848,0.059996538,-3.0774152,0.6090128,-4.2082418e-05,-0.16303438,0.046720315,0.003162258,0.030922221,-0.0046492224,0.06956109,0.44231954,-1.3876926,1.9108857,-2.089805,-1.5742711,2.4075375,-0.20083413,0.22310336,-0.28778836,0.081250265,-0.027122168,-0.27013704,0.11492168,0.1340753,-9.3661175,0.9186956,47.677036,-1.2351265,-1.7028632,-3.3074782,-0.31212527,-0.17893936,-0.16021492,28.625,29.6875,28.9375,33.0,35.375,36.5
0.3480525,-0.2680325,-1.3018079,-0.7785458,-0.043299116,0.04456251,-0.1986474,-0.40930817,-0.3409602,0.060010873,-3.0773838,0.60887325,1.8730956e-05,-0.16423753,0.046763696,0.0023727112,0.030615872,-0.004424962,0.06724327,0.44188717,-1.387259,1.9103111,-2.0896618,-1.5743431,2.4070222,-0.20183255,0.22599272,-0.28901926,0.07923186,-0.026953017,-0.26881734,-0.05746084,0.19153613,-9.500193,0.8717007,47.677036,-1.2059886,-1.9642873,-3.3705187,-0.3026739,-0.15741387,-0.13450107,28.625,29.6875,28.9375,33.0,35.375,36.5
0.35005254,-1.4767379,-2.354272,-0.6923788,-0.05931985,0.058579523,-0.17531681,-0.40961868,-0.3408735,0.060008932,-3.0773585,0.60856736,-6.8111203e-06,-0.16593367,0.047249492,0.0008072068,0.030417418,-0.0044298507,0.056393057,0.4415145,-1.3868016,1.9097375,-2.089484,-1.5744032,2.406462,-0.20403567,0.23020265,-0.28968164,0.07561,-0.026780447,-0.26016816,-0.40222588,0.24899697,-9.500193,0.91198283,47.675243,-1.0723525,-1.9639431,-3.38762,-0.28889585,-0.15186356,-0.20985594,28.625,29.6875,28.9375,33.0,35.375,36.5
0.35205263,-1.6510394,-1.8678293,-0.7527685,-0.06553576,0.07557353,-0.18682665,-0.40997493,-0.3407718,0.060027447,-3.0773523,0.60843784,4.697595e-05,-0.1671478,0.046973884,0.00054716674,0.028684665,-0.0020856233,0.045305282,0.44107002,-1.3863565,1.9091395,-2.0893419,-1.5744509,2.4059377,-0.20472907,0.2313965,-0.28967783,0.07156627,-0.026199887,-0.249776,-0.3256114,0.3256114,-9.5385,0.92093146,47.655537,-0.9911463,-2.00894,-3.5490546,-0.26146665,-0.14173794,-0.32872418,28.625,29.6875,28.9375,33.0,35.375,36.5
0.3540521,-1.4434663,-1.3189791,-0.9405759,-0.054240853,0.07340444,-0.20060728,-0.4102847,-0.3406821,0.059996996,-3.0772896,0.6083345,-5.8111887e-06,-0.16945599,0.04707141,0.0014430949,0.026149385,0.0022240637,0.03469947,0.4406855,-1.3858637,1.9086021,-2.0892231,-1.5744985,2.4054968,-0.20691991,0.23126134,-0.2908421,0.06789549,-0.025756463,-0.24136035,-0.36391866,0.36391866,-9.615114,0.95897776,47.647476,-0.9783156,-2.0027313,-3.6036415,-0.22883347,-0.1373043,-0.48371643,28.625,29.6875,28.9375,33.0,35.375,36.5
0.35605237,-2.2646337,-1.8681141,-0.63567334,-0.046268824,0.055386834,-0.19134815,-0.41063586,-0.34059522,0.06003139,-3.077308,0.60827637,9.827778e-05,-0.17095426,0.047257744,0.001069643,0.024617964,0.0035824238,0.04011867,0.44026488,-1.3854554,1.9080161,-2.0891044,-1.5745348,2.4050379,-0.2087845,0.23291649,-0.29132995,0.06479688,-0.02496804,-0.24864846,-0.3256114,0.3256114,-9.595961,0.9455522,47.657326,-0.91730523,-1.9366819,-3.5974,-0.1825856,-0.14423522,-0.50522214,28.625,29.6875,28.9375,33.0,35.375,36.5
0.35805234,-1.4083414,-0.91568613,-0.40783536,-0.04072785,0.06149076,-0.20522739,-0.41100287,-0.34049922,0.06001137,-3.0772736,0.6080665,0.00015428972,-0.17332512,0.04564165,0.0023898783,0.02207922,0.0076433737,0.057416838,0.43984511,-1.3849142,1.9074057,-2.0890214,-1.5746182,2.4044917,-0.20803376,0.23488115,-0.29637405,0.06302346,-0.02446762,-0.2651956,-0.4405331,0.30645782,-9.404425,0.88960326,47.668976,-1.0273755,-1.797935,-3.5292006,-0.1340549,-0.13255918,-0.37970728,28.625,29.6875,28.9375,33.0,35.375,36.5
0.36005256,-1.3783798,-0.28656924,-0.7729371,-0.007185409,0.05016501,-0.19767761,-0.41133136,-0.34041515,0.060012873,-3.0773015,0.6078524,0.00011685484,-0.17397995,0.043769494,0.002967019,0.019890299,0.009528387,0.07359924,0.4394259,-1.384457,1.9068311,-2.0888784,-1.5746177,2.4039354,-0.20581491,0.2363109,-0.29917812,0.061692182,-0.023344843,-0.27916223,-0.38307226,0.24899697,-9.423578,0.9410752,47.64658,-1.1725657,-1.7493669,-3.48147,-0.09380917,-0.12702157,-0.21282244,28.625,29.6875,28.9375,33.0,35.375,36.5
0.36205244,-0.97145045,0.26970866,-0.70657444,0.0021887438,0.05823676,-0.20608927,-0.41166124,-0.34032768,0.060015,-3.077306,0.60758555,0.00013744942,-0.17420787,0.042677864,0.0023933412,0.019532725,0.007901032,0.07227171,0.43903047,-1.3839997,1.9062575,-2.0887463,-1.5746659,2.403373,-0.204545,0.23966606,-0.30213326,0.06259791,-0.02233078,-0.2765674,-0.5554548,0.15322891,-9.442732,0.88289046,47.64837,-1.3681849,-1.8318645,-3.4457035,-0.059030086,-0.14844912,-0.18877895,28.625,29.6875,28.9375,33.0,35.375,36.5
0.36405274,-1.2887436,0.24766183,-0.5395155,0.00026910636,0.05490926,-0.19849598,-0.41204247,-0.34023884,0.06004355,-3.077342,0.6074075,0.0002917311,-0.17469083,0.043459754,0.0021922332,0.020419901,0.007091916,0.06252025,0.43859807,-1.3835429,1.9056348,-2.088662,-1.574726,2.402825,-0.20583506,0.24050543,-0.30302683,0.063771725,-0.022744363,-0.26810583,-0.49799395,0.19153613,-9.461885,0.92764956,47.657326,-1.3847572,-1.9325314,-3.4301963,-0.03673178,-0.1349226,-0.2829598,28.625,29.6875,28.9375,33.0,35.375,36.5
0.36605185,-0.8483921,0.14304066,-0.4556828,-0.012145794,0.06424424,-0.2002582,-0.4123861,-0.34015912,0.060043383,-3.0773335,0.6072336,0.00025894088,-0.17512918,0.043437414,0.0027669359,0.020227766,0.0072660884,0.057498038,0.43819034,-1.3830379,1.9050015,-2.0884936,-1.5747498,2.4023101,-0.20602217,0.24054866,-0.30484682,0.06531365,-0.022642901,-0.26326993,-0.51714754,0.17238252,-9.481039,0.9321212,47.66987,-1.4225206,-1.933819,-3.50879,-0.02836862,-0.12273094,-0.36810857,28.625,29.6875,28.9375,33.0,35.375,36.5
0.3680519,-1.147815,-0.3227925,-0.5789854,-0.013524101,0.06054416,-0.19935758,-0.4127436,-0.34005433,0.0600387,-3.0772943,0.6070902,0.00030245664,-0.17590727,0.04354587,0.0018079792,0.021147469,0.004731261,0.05863368,0.43775803,-1.3825448,1.9044031,-2.0883734,-1.5748218,2.4017935,-0.20679222,0.24455394,-0.30787653,0.0669871,-0.02241416,-0.26517493,-0.30645782,-0.038307227,-9.442732,0.8940802,47.66091,-1.4582448,-1.9715973,-3.464324,-0.0137046855,-0.1460492,-0.40616596,28.625,29.6875,28.9375,33.0,35.375,36.5
0.37005207,-0.7490235,-0.29998526,-0.5847392,-0.003068918,0.040298473,-0.2143554,-0.4131008,-0.3399896,0.06004947,-3.0773067,0.6068754,0.00032674335,-0.175624,0.044848897,0.00061641156,0.022630667,0.0007172298,0.069893,0.43737325,-1.3820275,1.9037327,-2.088217,-1.5748571,2.4012733,-0.2088341,0.24618949,-0.3077578,0.06942337,-0.022091465,-0.27847797,-0.1340753,-0.019153614,-9.500193,0.9097417,47.658226,-1.3719479,-1.8637724,-3.2945054,-0.0061458796,-0.12901968,-0.30855933,28.625,29.6875,28.9375,33.0,35.375,36.5
0.37205207,-0.68693924,-0.2588445,-0.24059746,-0.0032501656,0.03151787,-0.1995275,-0.41347536,-0.33987924,0.060038444,-3.077338,0.60672283,0.00035511857,-0.17630342,0.045467094,3.4076475e-05,0.023437297,-0.0020415038,0.07978408,0.43688074,-1.3815339,1.9031609,-2.0881565,-1.5748695,2.4006817,-0.21050072,0.24888992,-0.3103337,0.07207656,-0.021686176,-0.29003698,-0.26815057,0.05746084,-9.442732,0.90527004,47.66987,-1.4017031,-1.8824611,-3.5196657,-0.019911442,-0.11418304,-0.14980888,28.625,29.6875,28.9375,33.0,35.375,36.5
0.37405226,0.12928239,0.25808066,-0.3185118,0.015371025,0.02509948,-0.19217643,-0.41380677,-0.33982682,0.06004274,-3.077368,0.60636574,0.00032735433,-0.17779177,0.045467384,0.0020734537,0.021218,0.000995067,0.07829625,0.43653226,-1.3810183,1.9025015,-2.0879767,-1.5748934,2.4001067,-0.21197388,0.24676211,-0.31278107,0.07294534,-0.02097665,-0.29002434,-0.22984336,0.038307227,-9.232041,0.9365982,47.67345,-1.4196424,-1.7490275,-3.4538596,0.0065250983,-0.15292874,-0.09488448,28.625,29.6875,28.9375,33.0,35.375,36.5
0.37605232,-0.07614294,0.3350514,-0.45363572,0.05069934,-0.005292512,-0.18312472,-0.41421744,-0.33970112,0.060055606,-3.0773258,0.606172,0.00046922508,-0.17724247,0.0472602,2.3427688e-06,0.024482395,-0.0065985634,0.06417199,0.43605137,-1.3805003,1.9018325,-2.0878541,-1.575013,2.3995104,-0.21460243,0.25074968,-0.3141697,0.07861304,-0.020681664,-0.27853012,-0.1340753,-0.038307227,-9.32781,0.8940802,47.65912,-1.2224519,-1.885112,-3.3848534,-0.011227059,-0.13122384,-0.16512825,28.625,29.6875,28.9375,33.0,35.375,36.5
0.37805238,0.9695967,1.1592728,0.05272906,0.028381765,0.014244402,-0.20310108,-0.4145727,-0.33960652,0.06005196,-3.0772982,0.6060804,0.0004618196,-0.17819884,0.048857376,-0.0005513671,0.026347803,-0.01058969,0.049026992,0.43561816,-1.379995,1.9012107,-2.0877092,-1.5750488,2.3990238,-0.21796949,0.2535312,-0.31741956,0.08352012,-0.020666217,-0.26675057,-0.24899697,0.0,-9.232041,0.9030289,47.691364,-1.1389127,-2.020325,-3.4555125,-0.06867427,-0.1354899,-0.32361853,28.625,29.6875,28.9375,33.0,35.375,36.5
