Tylouw/Master_Thesis_Code/training_data/batch_1/small_rod_t0.3/sample_63_session_2.csv
timestamp[s],tcp_force_x[N],tcp_force_y[N],tcp_force_z[N],tcp_force_rx[Nm?],tcp_force_ry[Nm?],tcp_force_rz[Nm?],tcp_pose_x[m],tcp_pose_y[m],tcp_pose_z[m],tcp_pose_rx[rot_vec_x],tcp_pose_ry[rot_vec_y],tcp_pose_rz[rot_vec_z],tcp_velo_x[m/s],tcp_velo_y[m/s],tcp_velo_z[m/s],tcp_velo_rx[rot_vec_x/s],tcp_velo_ry[rot_vec_y/s],tcp_velo_rz[rot_vec_z/s],q1[rad],q2[rad],q3[rad],q4[rad],q5[rad],q6[rad],qd1[rad/s],qd2[rad/s],qd3[rad/s],qd4[rad/s],qd5[rad/s],qd6[rad/s],tool_acc_x,tool_acc_y,tool_acc_z,current_of_whole_robot[A],voltage_of_whole_robot[V],current_J1[A],current_J2[A],current_J3[A],current_J4[A],current_J5[A],current_J6[A],temp_J1[C],temp_J2[C],temp_J3[C],temp_J4[C],temp_J5[C],temp_J6[C]
1.0470103e-06,-0.5594749,-0.5203947,1.0985134,0.00018392489,-0.009517819,0.018830478,-0.38104135,-0.348521,0.05996237,-3.0784972,0.6248348,-0.00020744422,0.0018344518,0.0008995414,-0.0018001547,0.0017786535,-0.0037513943,0.000103392784,0.47781014,-1.425946,1.9577392,-2.1008089,-1.5707697,2.4527402,-3.0251816e-14,0.0002612872,0.0037947448,9.254093e-05,0.00015391952,-0.000105562365,0.038307227,0.17238252,-8.7532015,0.6322331,47.677036,0.059650917,-2.6417017,-2.5518534,-0.44262052,0.15815015,0.04178793,28.5625,29.6875,28.9375,33.0,35.3125,36.4375
0.002044934,-1.0165437,-0.55238694,1.0680033,0.009697355,-0.020748042,0.019090528,-0.38106892,-0.3485373,0.059975337,-3.0785499,0.6248648,-0.00015522342,-0.0004477943,-0.00028883768,-0.002942494,-0.00047558345,0.0005672278,0.00010357639,0.4777981,-1.4259323,1.957703,-2.1008484,-1.5707458,2.4527402,-4.0586672e-16,0.0045315255,0.0035671776,-0.008821663,0.00014882881,-0.000103143,0.05746084,0.095768064,-8.810662,0.7597976,47.709274,0.05122172,-2.8582783,-2.440565,-0.40470153,0.158041,0.04444245,28.5625,29.6875,28.9375,33.0,35.3125,36.4375
0.004043567,0.16686562,0.08969424,1.2719514,-0.0094742635,0.0066652126,0.0062639494,-0.38104576,-0.34852105,0.05993694,-3.0784795,0.62490785,-0.0002441096,-0.0015015546,-0.00083597976,-0.0024807383,-0.002030578,0.0035635906,0.00010208103,0.4777981,-1.4258965,1.9577502,-2.1008494,-1.5707573,2.452776,-5.44522e-18,0.0045720492,0.0031478603,-0.0118186865,0.00014406379,-0.00010083171,0.019153614,0.15322891,-8.6574335,0.8157518,47.704796,0.06716277,-3.184577,-2.6873171,-0.31135303,0.16522989,0.03732127,28.5625,29.6875,28.9375,33.0,35.3125,36.4375
0.006043262,-0.37713423,0.06520555,0.9209159,0.007966833,-0.01847192,0.0151081085,-0.3810521,-0.34853333,0.059950575,-3.0785022,0.62489384,-0.00017567609,-0.00094007485,-0.00054139085,-0.001420772,-0.0013853582,0.0023442297,9.928438e-05,0.47782207,-1.425909,1.9577383,-2.1008708,-1.5707697,2.4527884,-7.3054575e-20,0.0026209957,0.0019095148,-0.0072497744,0.00013959427,-9.862188e-05,0.0,0.21068975,-8.714894,0.68146914,47.689575,0.07275261,-3.1362934,-2.5947044,-0.32779306,0.17830989,0.038453493,28.5625,29.6875,28.9375,33.0,35.3125,36.4375
0.008043408,-0.115395956,0.27769452,0.4996273,0.03504231,-0.037579663,0.011098438,-0.38104144,-0.348523,0.059932422,-3.0785093,0.6248757,-0.0002284921,-0.0002671737,-0.00018854956,-0.00023842929,-0.00085921213,0.0013559975,9.629056e-05,0.4777981,-1.42591,1.957786,-2.1008937,-1.5707458,2.452752,-9.801204e-22,8.567383e-05,0.0010754804,-0.0027608918,0.00013539368,-9.6506796e-05,-0.019153614,0.19153613,-8.925584,0.800085,47.72002,0.071854375,-2.9057317,-2.5174417,-0.36917138,0.15235245,0.03164195,28.5625,29.6875,28.9375,33.0,35.3125,36.4375
0.010044151,0.17808925,0.25156274,0.18498768,0.03268152,-0.02912637,0.0071258717,-0.3810419,-0.34851235,0.05992079,-3.078472,0.6248298,-0.0002890073,-2.1302272e-05,-6.741304e-05,-0.00016387194,-0.000390444,0.00041551745,0.00011174721,0.47778618,-1.4258741,1.9577607,-2.1008456,-1.5707573,2.4527164,-1.3149564e-23,1.1494238e-06,0.00064514077,-0.0011953884,0.00015425457,-0.00011211622,-0.019153614,0.21068975,-9.11712,0.7239871,47.694946,-0.32110053,-2.3506637,-3.1058297,-0.37516737,0.14836958,-0.043172747,28.5625,29.6875,28.9375,33.0,35.3125,36.4375
0.012043346,-0.66357034,-0.22098903,0.0962425,0.0029516309,-0.032100588,0.00850626,-0.38105088,-0.34852374,0.05993318,-3.078496,0.6248535,-0.00023403243,-5.303252e-05,-3.3530305e-05,-0.003058056,0.002339585,-0.0048599024,0.00029973776,0.47779807,-1.4258838,1.9577488,-2.100869,-1.5707573,2.45274,-9.380984e-05,0.007187842,-0.0010285383,-0.0007684874,0.00015302328,-0.00039200397,0.11492168,0.13407528,-9.2703495,0.7665104,47.691364,-0.54364544,-2.3988295,-3.1953933,-0.36195403,0.13569818,-0.108210035,28.5625,29.6875,28.9375,33.0,35.3125,36.4375
0.014043353,-0.52843195,-0.87947154,-0.0990079,-0.01869266,0.0013049494,0.0042997804,-0.38105223,-0.34851378,0.059905622,-3.0784457,0.6249165,-0.00033418904,-0.004441289,0.0017298772,-0.0041683624,0.003470684,-0.0070422012,0.0042524207,0.4777717,-1.4258212,1.957735,-2.100845,-1.5707458,2.4527593,-0.0072865877,0.014691623,-0.0073283515,0.00048398174,0.00013681059,-0.011533321,0.019153614,0.19153613,-9.442732,0.7866488,47.733456,-0.3923015,-2.9880836,-3.0788517,-0.36862582,0.11126815,-0.07833173,28.5625,29.6875,28.9375,33.0,35.3125,36.4375
0.016043385,-1.428984,-1.6339235,-0.39904776,-0.031229932,0.0096585015,-0.0141321905,-0.38103688,-0.34851184,0.059896283,-3.0784314,0.6248349,-0.0003929653,-0.0058626467,0.0030323986,-0.0032945455,0.0027748663,-0.0056741657,0.009240182,0.47778243,-1.4258097,1.957735,-2.1008084,-1.5707458,2.4527209,-0.01090731,0.013059403,-0.0075335433,0.0007854045,0.00012167291,-0.020142,-0.15322891,0.2681506,-9.634268,0.7597976,47.719128,-0.13718528,-2.8180108,-3.2449005,-0.35985708,0.10464582,-0.0023363102,28.5625,29.6875,28.9375,33.0,35.3125,36.4375
0.018044045,-1.6683328,-1.4262358,-0.4164997,-0.044677734,0.03916058,-0.035843734,-0.3810274,-0.34851632,0.05989291,-3.078434,0.6246989,-0.00041198402,-0.0056574885,0.002859257,-0.0030266494,0.002970699,-0.0060449345,0.013317756,0.47780657,-1.4257978,1.9577235,-2.100784,-1.5707573,2.4526598,-0.010407318,0.012880128,-0.008237704,0.002087352,0.0001177416,-0.023719512,-0.3256114,0.22984336,-9.749189,0.800085,47.690468,-0.3897326,-2.533238,-3.5111363,-0.35061723,0.11020943,0.012102937,28.5625,29.6875,28.9375,33.0,35.3125,36.4375
0.02004332,-2.117261,-1.0851921,-0.3966649,-0.040157765,0.04631386,-0.05767872,-0.38105989,-0.34849498,0.059875064,-3.0784063,0.6247129,-0.00042853746,-0.006258663,0.0025758399,-0.0030859539,0.003502217,-0.007071977,0.013954279,0.4777466,-1.4257371,1.9576977,-2.1007955,-1.5707697,2.4526122,-0.01045938,0.0150693,-0.010988796,0.0038053093,0.00011469173,-0.024406701,-0.47884035,0.30645782,-9.672575,0.7665104,47.683304,-0.5393478,-2.507204,-3.5298812,-0.3647866,0.08118832,0.014876865,28.5625,29.6875,28.9375,33.0,35.3125,36.4375
0.022043323,-1.9672655,-0.8601107,-0.5281299,-0.016739111,0.05621218,-0.07101372,-0.38109583,-0.34849074,0.05987543,-3.0784192,0.6247751,-0.00041114062,-0.007986808,0.0030343612,-0.003043821,0.0034133142,-0.0069031813,0.0108580915,0.47769773,-1.4257005,1.9576606,-2.1008193,-1.5707573,2.4526005,-0.012873076,0.017093511,-0.01344897,0.004050927,0.0001118379,-0.023722686,-0.5363012,0.3256114,-9.787497,0.6948948,47.692257,-0.5516635,-2.4806895,-3.4485254,-0.36321646,0.07173078,0.009881767,28.5625,29.6875,28.9375,33.0,35.3125,36.4375
0.024043754,-2.1746385,-0.98311394,-0.55815357,-0.0034148367,0.053952176,-0.09617603,-0.381066,-0.348477,0.05985033,-3.078377,0.6246725,-0.0005005992,-0.009899,0.0031463047,-0.0022623783,0.0024817002,-0.005112653,0.006644723,0.47770897,-1.4256883,1.9576958,-2.1007836,-1.5707697,2.452553,-0.014842443,0.017938491,-0.016164368,0.0039030446,0.00010912541,-0.021477154,-0.51714754,0.28730422,-9.902418,0.7642693,47.693153,-0.5513337,-2.498966,-3.3653393,-0.35931888,0.06156155,-0.011744003,28.5625,29.6875,28.9375,33.0,35.3125,36.4375
0.026043963,-1.7885206,-0.7491043,-0.49405664,-0.023092378,0.0570277,-0.11837958,-0.381113,-0.34846306,0.059850175,-3.0783668,0.6246715,-0.0004907584,-0.010735917,0.0039325445,-0.0028810333,0.0030303847,-0.006133276,0.0022806171,0.47764835,-1.4256277,1.9576243,-2.1007712,-1.5707816,2.4524932,-0.017002236,0.019612005,-0.016653137,0.003877141,9.074317e-05,-0.019272286,-0.68953013,0.24899697,-9.940725,0.68818194,47.65643,-0.5095292,-2.5408924,-3.46789,-0.3538651,0.049690492,-0.041153997,28.5625,29.6875,28.9375,33.0,35.3125,36.4375
0.028043289,-2.1550167,-1.2655742,-0.5506166,-0.024229929,0.052739426,-0.12952861,-0.38114235,-0.348476,0.059856582,-3.0783997,0.6246786,-0.00045567792,-0.011848366,0.0033253264,-0.0018665671,0.0020845719,-0.0042772875,0.0019435136,0.4776364,-1.4255917,1.9575742,-2.1007955,-1.5707697,2.4524815,-0.016940622,0.019884374,-0.019364258,0.0042332066,7.3389485e-05,-0.01887219,-0.78529817,0.22984336,-9.825804,0.8291774,47.719128,-0.5778451,-2.4502978,-3.394826,-0.32992733,0.040248565,-0.07017989,28.5625,29.6875,28.9375,33.0,35.3125,36.4375
0.030043205,-2.0283186,-0.6940518,-0.46514255,-0.02532878,0.06492917,-0.13844912,-0.38116288,-0.3484708,0.059845306,-3.0783753,0.62473184,-0.0005126996,-0.012274309,0.003434809,-0.0014399763,0.0021840443,-0.0044454066,0.0013582483,0.4776001,-1.4255319,1.9575261,-2.1007707,-1.5707573,2.4524815,-0.01752126,0.019995874,-0.020816926,0.005769686,6.187625e-05,-0.018867102,-0.7852981,0.19153613,-9.787497,0.7597976,47.694946,-0.56672305,-2.442916,-3.4741411,-0.31886703,0.030556038,-0.09239204,28.5625,29.6875,28.9375,33.0,35.3125,36.4375
0.03204321,-2.8000734,-0.83148193,-0.42282233,-0.00012616598,0.05371181,-0.14785434,-0.38117805,-0.3484472,0.05981919,-3.0783212,0.62475914,-0.0005743922,-0.012820605,0.0032744328,-0.0013393542,0.002623591,-0.004920742,0.0017949686,0.4775521,-1.4254714,1.9575142,-2.1007588,-1.5707697,2.4524574,-0.017628467,0.021422194,-0.022984616,0.0071355454,-0.000113254595,-0.019409623,-0.59376204,0.019153614,-9.768343,0.7642693,47.709274,-0.6919329,-2.4338315,-3.43365,-0.33929265,0.0043421676,-0.1008849,28.5625,29.6875,28.9375,33.0,35.3125,36.4375
0.034044698,-1.7146374,-0.26599798,-0.31354544,0.022110097,0.06311214,-0.17071295,-0.38121578,-0.34847313,0.059840064,-3.0783782,0.6247329,-0.0005667838,-0.01373365,0.0035645906,-0.0012397256,0.0026781973,-0.0048668473,0.0012944242,0.4775397,-1.4254231,1.9574059,-2.1007345,-1.5707334,2.4524214,-0.018939236,0.022378277,-0.024403851,0.0075767986,-0.00018840085,-0.02021892,-0.45968673,-0.05746084,-9.768343,0.7284641,47.696735,-0.6913806,-2.3618915,-3.369639,-0.3253272,0.0048110834,-0.13152012,28.5625,29.6875,28.9375,33.0,35.3125,36.4375
0.03604346,-1.1658022,0.52475554,-0.3661442,0.034381974,0.043482292,-0.18859391,-0.3812514,-0.34845963,0.059838887,-3.078372,0.6247506,-0.0005400158,-0.015312542,0.004012438,-0.0009350249,0.0027670662,-0.0029954687,0.000611776,0.47749108,-1.425387,1.9573702,-2.1007464,-1.5707463,2.4523847,-0.020580936,0.02317912,-0.02577585,0.006529756,-0.0011332685,-0.021175029,-0.4405331,-0.05746084,-9.730036,0.72622824,47.709274,-0.6427611,-2.345381,-3.4229467,-0.31219518,-0.0016290764,-0.15179425,28.5625,29.6875,28.9375,33.0,35.3125,36.4375
0.038043257,-1.5665377,-0.14261472,-0.2912023,0.053291686,0.013105745,-0.19404514,-0.3812975,-0.348459,0.05985083,-3.078375,0.6247709,-0.00049802486,-0.016975682,0.0039720326,-0.00022465282,0.0020989296,-0.0010365454,0.0004228126,0.47745466,-1.4253389,1.9572853,-2.100735,-1.5707577,2.4523606,-0.021842659,0.023976369,-0.028218403,0.006128872,-0.0014463781,-0.022245752,-0.2681506,-0.1340753,-9.653421,0.7239871,47.68599,-0.62989736,-2.3815281,-3.350655,-0.29453117,-0.00738688,-0.15725037,28.5625,29.6875,28.9375,33.0,35.3125,36.4375
0.040043306,-1.2939874,-0.36999547,-0.358952,0.04775776,0.0026326934,-0.20156784,-0.38131875,-0.34845397,0.059847854,-3.0783882,0.62471515,-0.0005232729,-0.018103698,0.0036831263,0.0005899126,0.0015022076,0.00010786295,0.0012544648,0.47741863,-1.4253027,1.9572481,-2.1007226,-1.5707463,2.4522882,-0.022371387,0.024504686,-0.030873729,0.0069652544,-0.00144707,-0.02360486,-0.22984336,-0.076614454,-9.615114,0.7642693,47.681515,-0.69152117,-2.3626332,-3.3150811,-0.28240335,-0.029604439,-0.19197461,28.5625,29.6875,28.9375,33.0,35.3125,36.4375
0.042044222,-1.0012147,-0.4420947,-0.27830222,0.04165463,-0.0009365429,-0.21283215,-0.38136163,-0.34842682,0.059835333,-3.0783324,0.62478054,-0.0005453554,-0.018649517,0.0041765836,0.00030179427,0.0026208044,-0.00091711874,0.0019941381,0.47734612,-1.4252303,1.9571885,-2.1006982,-1.5707701,2.4522636,-0.023410808,0.025965212,-0.03216865,0.008224911,-0.001971572,-0.025382195,-0.24899697,-0.15322891,-9.672575,0.7351769,47.650166,-0.6593161,-2.3693626,-3.3519228,-0.29716498,-0.0362571,-0.19600639,28.5625,29.6875,28.9375,33.0,35.3125,36.4375
0.04404337,-1.3371015,-0.57449555,-0.19672002,0.034820184,-0.0071062446,-0.22704336,-0.3813938,-0.34842747,0.059844527,-3.0783167,0.6247583,-0.0005221229,-0.019662382,0.0051376694,0.00065235473,0.0044832756,-0.0010776396,0.0017278944,0.4773336,-1.425182,1.9571041,-2.100661,-1.5707949,2.4522393,-0.025028035,0.026621781,-0.03427764,0.010680394,-0.003551846,-0.026729254,-0.15322891,-0.05746084,-9.500193,0.800085,47.691364,-0.68985784,-2.2937336,-3.3093936,-0.2869417,-0.04826564,-0.20333754,28.5625,29.6875,28.9375,33.0,35.3125,36.4375
0.046043284,-0.8567798,-1.0198838,-0.25187835,0.03192667,0.012234273,-0.23091637,-0.38146046,-0.34840527,0.059866104,-3.0783591,0.6247853,-0.00045949,-0.021165786,0.0056564244,0.0010716089,0.0054031964,0.00017542565,0.002256869,0.4772251,-1.4251697,1.9570435,-2.1006734,-1.5707835,2.4521422,-0.026428923,0.02767244,-0.036557477,0.0112237,-0.00494792,-0.02865534,-0.1340753,-0.038307227,-9.519346,0.78217715,47.711063,-0.59121656,-2.3235614,-3.3190765,-0.3066142,-0.039862946,-0.23896688,28.5625,29.6875,28.9375,33.0,35.3125,36.4375
0.048043214,-1.0657097,-1.016119,-0.4123727,0.025279665,0.0010634481,-0.17398535,-0.38149345,-0.3484002,0.059883405,-3.0783384,0.6247608,-0.00045037764,-0.021681558,0.005696354,0.0010526299,0.0051658857,-0.00036658617,0.0038913838,0.47720072,-1.4251336,1.9569463,-2.100601,-1.5708069,2.4521053,-0.027272189,0.028629482,-0.03774207,0.011820755,-0.004491051,-0.031133354,-0.19153613,0.15322891,-9.557653,0.79560274,47.704796,-0.621856,-2.2782562,-3.310945,-0.2903351,-0.058463458,-0.25074053,28.5625,29.6875,28.9375,33.0,35.3125,36.4375
0.05004405,-0.5066652,-1.1460077,-0.34867325,0.010477864,0.0017025922,-0.19500569,-0.38154766,-0.34838337,0.059870195,-3.0783224,0.6247954,-0.0004383447,-0.022647453,0.005761569,0.0014609096,0.0044468828,-0.00018674765,0.0052124723,0.4771284,-1.4250495,1.9568862,-2.1006253,-1.5708188,2.4520566,-0.028636035,0.029231241,-0.03951924,0.01250294,-0.0039387993,-0.033818547,-0.095768064,0.2681506,-9.576807,0.68818194,47.681515,-0.60376245,-2.2381594,-3.2921274,-0.2984969,-0.07720248,-0.23279606,28.5625,29.6875,28.9375,33.0,35.3125,36.4375
0.052043285,-0.7643546,-1.2364932,-0.489484,-0.005096141,-0.011941267,-0.18212608,-0.38158545,-0.34838718,0.059876796,-3.0783155,0.62469715,-0.00042913086,-0.023942877,0.005794931,0.0022598647,0.0040598833,0.0015540278,0.006392049,0.477116,-1.4249774,1.9567779,-2.100577,-1.5708431,2.451984,-0.029590871,0.029403314,-0.041580852,0.012668684,-0.004400069,-0.035950955,-0.076614454,0.19153613,-9.481039,0.7642693,47.684196,-0.568871,-2.1985745,-3.3035197,-0.30365416,-0.08196245,-0.254079,28.5625,29.6875,28.9375,33.0,35.3125,36.4375
0.0540433,-0.25269425,-1.0783986,-0.37179664,-0.016551455,0.0010522001,-0.1938384,-0.3816009,-0.3483632,0.059848655,-3.0782592,0.6247231,-0.0005849778,-0.024576949,0.0063556707,0.0019866808,0.0059391116,0.0015634455,0.0078924,0.47704384,-1.4248933,1.9567298,-2.1005046,-1.5708197,2.451935,-0.030080851,0.030778171,-0.042653725,0.013227396,-0.006080093,-0.037936598,-0.038307227,0.3256114,-9.5385,0.85826975,47.7245,-0.6031885,-2.158421,-3.3177729,-0.3118762,-0.07418037,-0.26963827,28.5625,29.6875,28.9375,33.0,35.3125,36.4375
0.056043357,-0.73212427,-1.6677192,-0.3380139,-0.009352002,-0.00036023188,-0.17923404,-0.38167244,-0.34836173,0.059875138,-3.078313,0.6246748,-0.00046919665,-0.026137367,0.0069537656,0.0019534782,0.0074811806,0.0029040002,0.008909497,0.47698346,-1.4248567,1.956633,-2.100529,-1.5708326,2.4518378,-0.03128952,0.0326194,-0.04459168,0.012847039,-0.008068696,-0.04015748,-0.019153614,0.40222588,-9.576807,0.7396539,47.683304,-0.67684364,-2.2245312,-3.271017,-0.31783295,-0.068393216,-0.26118124,28.5625,29.6875,28.9375,33.0,35.3125,36.4375
0.05804397,-1.0807987,-2.239996,-0.591544,-0.0052329106,0.0063659875,-0.1685957,-0.38173798,-0.3483308,0.05987466,-3.078273,0.624685,-0.00042200478,-0.027319333,0.007347434,0.0021169337,0.008498015,0.004112728,0.010349343,0.47689915,-1.4247844,1.956549,-2.100517,-1.5708808,2.451765,-0.03212594,0.033714313,-0.04619327,0.012748696,-0.0095319655,-0.04242976,-0.038307227,0.40222588,-9.5385,0.7978386,47.691364,-0.64457315,-2.2143226,-3.335703,-0.2992541,-0.03862019,-0.29289222,28.5625,29.6875,28.9375,33.0,35.3125,36.4375
0.060043212,-0.73851335,-1.3239937,-0.18607858,-0.021467926,0.023703624,-0.18296257,-0.38177466,-0.34832686,0.059872784,-3.0782633,0.6246247,-0.00049146306,-0.028219976,0.00786444,0.0027280669,0.009486133,0.0060800603,0.011598543,0.47685108,-1.424701,1.9564418,-2.1004455,-1.5708698,2.4516807,-0.032712888,0.033233814,-0.04705648,0.012804095,-0.011317748,-0.044261385,-0.019153614,0.4213795,-9.481039,0.7620334,47.67345,-0.6477399,-1.9497395,-3.2601314,-0.32333505,-0.031707883,-0.30880514,28.5625,29.6875,28.9375,33.0,35.3125,36.4375
0.06204324,-1.2823068,-1.3968567,-0.2780672,-0.020159833,0.013645267,-0.17127131,-0.38183463,-0.34830827,0.059901975,-3.078267,0.62458587,-0.00043754486,-0.02991578,0.007873635,0.0028828396,0.010544647,0.0072381203,0.012578225,0.47677872,-1.424676,1.956333,-2.100386,-1.5708946,2.4515836,-0.0333317,0.035828244,-0.05042204,0.013035087,-0.01279619,-0.04585504,-0.11492168,0.36391866,-9.519346,0.7105615,47.691364,-0.7115828,-2.0592828,-3.2707705,-0.3008592,-0.01904849,-0.3079062,28.5625,29.6875,28.9375,33.0,35.3125,36.4375
0.0640433,-0.7483412,-1.033328,-0.09804769,-0.020665783,0.02305514,-0.18525459,-0.38188908,-0.34830952,0.059902433,-3.0782793,0.62456983,-0.00042236812,-0.031159077,0.0076492364,0.0028325028,0.009548374,0.0072436044,0.012434542,0.47673035,-1.4245912,1.9562353,-2.100386,-1.5708941,2.4515238,-0.034646764,0.0378818,-0.05256817,0.012661502,-0.011918998,-0.047026917,-0.11492168,0.34476504,-9.423578,0.8224646,47.703903,-0.7190896,-2.1782424,-3.122365,-0.30235487,-0.041633364,-0.3368615,28.5625,29.6875,28.9375,33.0,35.3125,36.4375
0.06604408,-1.2099289,-1.2092309,-0.022672594,-0.008890805,0.0068107713,-0.17644541,-0.3819574,-0.34831357,0.05991997,-3.078349,0.6245045,-0.00037697612,-0.030333415,0.0075139944,0.0020230338,0.009151134,0.0049834745,0.01606368,0.4766583,-1.4245313,1.9561294,-2.1003973,-1.5708693,2.4514022,-0.03454227,0.038549524,-0.051502407,0.012748269,-0.010525557,-0.050555475,-0.21068975,0.36391866,-9.3661175,0.7105615,47.71465,-0.7691371,-2.0837808,-3.3101988,-0.31257918,-0.034816187,-0.3238463,28.5625,29.6875,28.9375,33.0,35.3125,36.4375
0.06804335,-0.94618124,-1.0127746,0.015401729,-0.01072681,0.008331272,-0.1773379,-0.38202664,-0.34828043,0.059909027,-3.078308,0.6244383,-0.0003322178,-0.031378925,0.0066165207,0.0015128455,0.008013469,0.0041021523,0.016304744,0.47657415,-1.4244342,1.9560436,-2.1003973,-1.5709289,2.451282,-0.034822267,0.042212076,-0.054403674,0.0122390315,-0.009118595,-0.051077105,-0.15322891,0.30645782,-9.385271,0.8023209,47.704796,-0.83452046,-2.2175336,-3.233573,-0.28326708,-0.05335141,-0.32910225,28.5625,29.6875,28.9375,33.0,35.3125,36.4375
0.07004334,-0.8259922,-1.1182823,0.015106452,0.006852302,0.015663853,-0.17303613,-0.38208866,-0.348288,0.05993735,-3.0783403,0.6243489,-0.0002761981,-0.033089183,0.0059778923,0.002829842,0.006208759,0.00665683,0.015594817,0.4765381,-1.4243741,1.9558996,-2.1003497,-1.5709409,2.4511862,-0.035537366,0.042473152,-0.057697985,0.012171895,-0.0086921835,-0.051081743,-0.22984336,0.22984336,-9.404425,0.6859408,47.639416,-0.88425213,-2.160399,-3.165204,-0.28158206,-0.0750034,-0.3862505,28.5625,29.6875,28.9375,33.0,35.3125,36.4375
0.07204314,-1.131392,-0.62569046,0.10393904,0.01110089,0.016410531,-0.18550882,-0.3821453,-0.34829223,0.059924867,-3.0783665,0.62427646,-0.00031472516,-0.033680275,0.006319902,0.003140407,0.0066499123,0.006850315,0.017463373,0.4764778,-1.4242544,1.9557914,-2.1003492,-1.570917,2.4510775,-0.036370672,0.042652257,-0.058844283,0.013171113,-0.009174922,-0.05378215,-0.21068975,0.1340753,-9.308656,0.73741806,47.68062,-0.95459735,-2.134595,-3.0691113,-0.28177547,-0.07456353,-0.3953333,28.5625,29.6875,28.9375,33.0,35.3125,36.4375
0.074044056,-1.5471594,-0.4708737,0.12849365,0.018781194,0.016568448,-0.17695461,-0.38220227,-0.3482588,0.059917398,-3.0783372,0.6242477,-0.0003212966,-0.033712797,0.007130159,0.0016189972,0.009292147,0.004702465,0.022292387,0.47638157,-1.4241815,1.9557198,-2.1003258,-1.5709413,2.450967,-0.0369481,0.04550745,-0.05864321,0.01323617,-0.010541394,-0.059185293,-0.19153613,0.11492168,-9.32781,0.779936,47.707485,-1.0337502,-2.2305818,-3.2665606,-0.25764653,-0.09714634,-0.3659478,28.5625,29.6875,28.9375,33.0,35.3125,36.4375
0.07604317,-1.18755,-0.19856687,0.32397515,0.018317435,0.03641729,-0.18586956,-0.3822903,-0.34827504,0.05996858,-3.0784388,0.6240952,-0.0002165664,-0.035168894,0.006502402,0.0021472473,0.008773787,0.005734756,0.023590138,0.4763215,-1.4241328,1.9555391,-2.100289,-1.5709294,2.450799,-0.037158962,0.047558773,-0.062293895,0.013680123,-0.010555907,-0.060692817,-0.17238252,0.11492168,-9.32781,0.7709874,47.67614,-1.0138724,-2.2302885,-3.1339495,-0.27266747,-0.083953604,-0.37825185,28.5625,29.6875,28.9375,33.0,35.3125,36.4375
0.078043394,-1.1978222,0.20343666,0.29762068,0.019009113,0.033345073,-0.18532498,-0.38235438,-0.3482721,0.059964087,-3.0784209,0.6240511,-0.00020672115,-0.03632227,0.007384444,0.002284167,0.010801546,0.0067527713,0.024964802,0.47627318,-1.4240129,1.955407,-2.1002653,-1.5709542,2.4507256,-0.03830848,0.048416484,-0.063728005,0.014286863,-0.012828227,-0.063211784,-0.30645782,0.0,-9.289502,0.88960326,47.703007,-1.0601866,-2.2344153,-3.1494112,-0.2511004,-0.06157404,-0.386915,28.5625,29.6875,28.9375,33.0,35.3125,36.4375
0.08004313,-1.7748883,-0.28280836,0.26124406,0.031548865,0.017983865,-0.18862717,-0.3824223,-0.3482354,0.059949648,-3.0783758,0.6240009,-0.00028288277,-0.037171565,0.007582747,0.0024846026,0.011725796,0.00718056,0.029249275,0.47615302,-1.4238926,1.9552864,-2.1001933,-1.5709661,2.45058,-0.038769163,0.04950309,-0.065625824,0.015141256,-0.013854754,-0.067953035,-0.24899697,0.095768064,-9.251195,0.7777002,47.66987,-1.116301,-2.163623,-3.0923357,-0.2524867,-0.050473258,-0.34038568,28.5625,29.6875,28.9375,33.0,35.3125,36.4375
0.08204394,-1.5543317,-0.6219254,0.13930988,0.034948036,0.016037935,-0.16713017,-0.38251665,-0.34823275,0.05998095,-3.0784318,0.6238749,-0.00010343988,-0.038060673,0.007575399,0.0027049875,0.012517272,0.008302182,0.033597678,0.4760929,-1.4238324,1.9551543,-2.100229,-1.5710148,2.4504342,-0.03877818,0.05058571,-0.067373075,0.01517027,-0.015070381,-0.072308615,-0.28730422,0.1340753,-9.155427,0.7732232,47.664497,-1.1743894,-2.1403708,-3.1060967,-0.23861386,-0.042858995,-0.33560127,28.5625,29.6875,28.9375,33.0,35.3125,36.4375
0.08404323,-1.3799978,-0.6467958,0.10971975,0.023435652,0.015005252,-0.16957252,-0.38257432,-0.3482043,0.05995069,-3.0783856,0.6237866,-0.0001980557,-0.038674407,0.007716438,0.002281518,0.012275932,0.0067991526,0.036638755,0.47599664,-1.423688,1.9550475,-2.1001804,-1.5710262,2.4502888,-0.0401671,0.05248727,-0.06873961,0.015853222,-0.0141768055,-0.076738246,-0.22984336,0.05746084,-9.193734,0.78217715,47.687782,-1.2256548,-2.1743352,-3.1038988,-0.24717411,-0.05799412,-0.27717477,28.5625,29.6875,28.9375,33.0,35.3125,36.4375
0.08604325,-1.2179228,-0.53648376,0.039462637,0.0074601085,0.013180588,-0.17806347,-0.38265014,-0.34817666,0.059970655,-3.078373,0.62357026,-0.00012657323,-0.039460465,0.0076893214,0.0023490433,0.0123649575,0.006685826,0.04021884,0.47592434,-1.4236157,1.954903,-2.1001089,-1.5710982,2.4500833,-0.040815182,0.053849515,-0.07059383,0.016478213,-0.014208586,-0.08096535,-0.2681506,0.0,-9.212888,0.6971306,47.66091,-1.2643132,-2.1158998,-3.0833523,-0.22489455,-0.051504344,-0.23714721,28.5625,29.6875,28.9375,33.0,35.3125,36.4375
0.088043235,-0.5585847,-0.7474221,0.08999611,0.011576005,0.031747635,-0.18431602,-0.38273194,-0.34816226,0.059949055,-3.078355,0.62345034,-0.00014597746,-0.040717304,0.008663383,0.0023963342,0.012926111,0.0060323267,0.04167277,0.4758394,-1.4234476,1.9547576,-2.100096,-1.571123,2.449926,-0.0435598,0.054937117,-0.072277434,0.017907567,-0.014413467,-0.08516227,-0.3256114,0.0,-9.270349,0.7665104,47.690468,-1.2752426,-2.1478314,-3.0682044,-0.25043434,-0.050437175,-0.19338854,28.5625,29.6875,28.9375,33.0,35.3125,36.4375
0.09004386,-1.6204792,-0.9881736,-0.017713698,0.014801186,0.013830577,-0.1738202,-0.3828177,-0.34814352,0.059979573,-3.0783978,0.6233609,-0.00013077163,-0.041322075,0.009204319,0.0023559656,0.014245886,0.005498585,0.044059653,0.47571915,-1.4233873,1.9546026,-2.100024,-1.5711106,2.4497445,-0.04446341,0.055991106,-0.073726326,0.019382449,-0.015341811,-0.08845065,-0.28730422,0.076614454,-9.423578,0.7777002,47.688675,-1.2184896,-2.1871598,-3.0704677,-0.23316282,-0.050676405,-0.119191825,28.5625,29.6875,28.9375,33.0,35.3125,36.4375
0.092043296,-1.8882202,-1.3405745,0.0043085413,0.017581064,0.01762903,-0.16293932,-0.38289407,-0.34814498,0.059987172,-3.0784407,0.623176,-8.999114e-05,-0.041245516,0.008438826,0.0015273571,0.014203707,0.003624214,0.045825712,0.47565937,-1.4232785,1.9544581,-2.100012,-1.571123,2.449564,-0.043606993,0.05888462,-0.075192556,0.019596437,-0.014447101,-0.089361265,-0.28730422,0.15322891,-9.3661175,0.79560274,47.684196,-1.3264694,-2.143116,-3.0599718,-0.22160397,-0.053798743,-0.11204144,28.5625,29.6875,28.9375,33.0,35.3125,36.4375
0.09404326,-1.8683207,-0.80099183,-0.10721056,0.0035059524,0.02718862,-0.17423627,-0.38298064,-0.34809983,0.05996478,-3.0783794,0.6230885,-9.119629e-05,-0.042748272,0.009110653,0.0014191429,0.014320138,0.0036627084,0.043407008,0.47553846,-1.4231335,1.9543384,-2.0999882,-1.5711831,2.4493964,-0.046087585,0.06055802,-0.07686755,0.019610468,-0.01457661,-0.08942111,-0.2681506,0.17238252,-9.3661175,0.7463667,47.693153,-1.4061463,-2.3130288,-3.1223898,-0.21898708,-0.04066319,-0.096081644,28.5625,29.6875,28.9375,33.0,35.3125,36.4375
0.09604329,-1.2808266,-1.021984,-0.15701899,-0.0019613618,0.03406266,-0.18352969,-0.3830599,-0.34810024,0.059988722,-3.0784135,0.62296355,-7.655206e-05,-0.043911636,0.009356267,0.002701637,0.012264618,0.005706331,0.038194288,0.4754659,-1.4230384,1.9541587,-2.0999162,-1.5711826,2.4492416,-0.048160143,0.058717906,-0.07767574,0.019498484,-0.01368402,-0.08628279,-0.22984336,0.15322891,-9.3661175,0.73069996,47.684196,-1.2745094,-2.0504909,-3.1139078,-0.23870179,-0.06629656,-0.09531362,28.5625,29.6875,28.9375,33.0,35.3125,36.4375
0.098044,-0.9603507,-0.8304474,-0.05084404,-0.014850072,0.025229143,-0.18102093,-0.3831546,-0.3480726,0.059990615,-3.0783741,0.62287974,-3.4359146e-05,-0.045585193,0.010594467,0.0018801632,0.013536386,0.0045151534,0.035513937,0.4753686,-1.4229051,1.9539913,-2.0998685,-1.5712427,2.4490972,-0.051503427,0.061764564,-0.079344705,0.019757193,-0.014274187,-0.086943105,-0.17238252,0.15322891,-9.481039,0.78888994,47.684196,-1.2208596,-2.1354408,-3.1189907,-0.20562822,-0.051263053,-0.11224097,28.5625,29.6875,28.9375,33.0,35.3125,36.4375
0.100043274,-0.8482418,-1.4591904,-0.00463966,-0.013322467,0.016939731,-0.17335282,-0.38324463,-0.34804976,0.059999645,-3.078385,0.62273103,-1.2071624e-05,-0.045421336,0.010495711,0.00046794722,0.014441793,0.0017305706,0.0307654,0.4752607,-1.4227958,1.9538349,-2.0998209,-1.5712665,2.4488952,-0.051471435,0.06505595,-0.079925425,0.019934662,-0.013803659,-0.082162745,-0.30645782,0.2681506,-9.5385,0.73741806,47.64389,-1.223151,-2.195384,-3.2203236,-0.1952829,-0.06057118,-0.16323242,28.5625,29.6875,28.9375,33.0,35.3125,36.4375
0.10204313,-0.8564013,-0.809226,-0.11010474,-0.021433985,0.013089448,-0.17000495,-0.38335449,-0.34805024,0.06000011,-3.078432,0.6226253,5.769167e-06,-0.04748036,0.009676273,0.0027745466,0.012798413,0.006421374,0.029338231,0.47515276,-1.4226282,1.9536422,-2.0998204,-1.5712546,2.4487154,-0.051444445,0.06406442,-0.08413653,0.020217318,-0.014494457,-0.08070569,-0.3256114,0.2681506,-9.442732,0.78217715,47.691364,-1.312532,-2.1928983,-3.095183,-0.17868468,-0.04013905,-0.2038146,28.5625,29.6875,28.9375,33.0,35.3125,36.4375
0.104043186,-1.0115927,-1.1445581,-0.28307816,0.007791825,0.013561471,-0.1679239,-0.38343075,-0.34800655,0.05999013,-3.0783637,0.62253606,-1.1266992e-05,-0.0473144,0.01129909,0.00067150744,0.014104884,0.0018545636,0.024837198,0.47504368,-1.422507,1.9535102,-2.099748,-1.5713142,2.4485595,-0.054762594,0.06656022,-0.08225276,0.020487541,-0.013567116,-0.07952443,-0.21068975,0.22984336,-9.423578,0.7418897,47.72092,-1.2972723,-2.1276999,-3.282099,-0.18142076,-0.04374578,-0.23478666,28.5625,29.6875,28.9375,33.0,35.3125,36.4375
0.106043994,-0.8088899,-0.6338817,-0.3085757,0.0026110345,0.023123458,-0.16912778,-0.38351986,-0.34799826,0.059984468,-3.0783665,0.622519,-1.3067455e-05,-0.04905738,0.011411713,0.001135215,0.013422473,0.0030550666,0.022594137,0.47494707,-1.4223624,1.9533552,-2.0997365,-1.5713142,2.448452,-0.056583155,0.06790792,-0.08482676,0.020332988,-0.013515429,-0.07910051,-0.17238252,0.22984336,-9.500193,0.76874626,47.693153,-1.1657125,-2.178806,-3.2971208,-0.14171863,-0.05948615,-0.29171765,28.5625,29.6875,28.9375,33.0,35.3125,36.4375
0.10804314,-1.1465386,-0.49441293,0.01762714,0.004490056,0.02430914,-0.17615731,-0.38362455,-0.34798512,0.06000177,-3.0783803,0.6223489,3.6467358e-05,-0.049413174,0.01156216,0.00048189217,0.013698156,0.0012567211,0.021693302,0.47485074,-1.4222295,1.9531502,-2.0996764,-1.57135,2.448248,-0.057536084,0.07001641,-0.085910514,0.021027451,-0.012938523,-0.079153225,-0.3256114,0.22984336,-9.500193,0.8112748,47.707485,-1.1760552,-2.2275126,-3.1264026,-0.13946655,-0.05383452,-0.29966718,28.5625,29.6875,28.9375,33.0,35.3125,36.4375
0.110043295,-1.2117324,-0.4437857,-0.13787842,0.015125692,0.02689607,-0.18047045,-0.38374603,-0.3479669,0.060015976,-3.0783741,0.6223475,0.000113721464,-0.049707867,0.012130516,-2.2198294e-05,0.014610591,-2.067494e-05,0.02115378,0.47473028,-1.422085,1.952947,-2.099652,-1.5713862,2.4481275,-0.058651,0.07124949,-0.086349145,0.021782205,-0.013163569,-0.079728365,-0.24899697,0.17238252,-9.461885,0.69937176,47.645687,-1.20109,-2.2233698,-3.366733,-0.13955636,-0.079724245,-0.33227724,28.5625,29.6875,28.9375,33.0,35.3125,36.4375
0.11204334,-1.7194761,-0.60744053,-0.24434116,0.017287632,0.02357203,-0.17501178,-0.38381362,-0.34791163,0.059980556,-3.078293,0.6222349,-2.5286075e-05,-0.051093996,0.012297905,0.00036319403,0.013980698,0.0007319639,0.020026717,0.47458586,-1.4219286,1.9528273,-2.0995562,-1.5714105,2.4479232,-0.060336713,0.072237186,-0.08838993,0.021873007,-0.012963317,-0.08028457,-0.19153613,0.095768064,-9.385271,0.83589023,47.691364,-1.2054517,-2.1986518,-3.2596173,-0.13236654,-0.059918784,-0.37867323,28.5625,29.6875,28.9375,33.0,35.3125,36.4375
0.11404398,-0.95166194,-0.5491365,0.08615239,0.015032888,0.03193736,-0.17907733,-0.38393697,-0.34792998,0.060021553,-3.078407,0.62214255,9.543598e-05,-0.05174431,0.012572938,0.00040646532,0.014027979,0.00066909066,0.018823689,0.47448948,-1.4218202,1.9526123,-2.0995681,-1.5713862,2.4477549,-0.061397363,0.0729106,-0.08934912,0.022237202,-0.012968849,-0.08014321,-0.13407528,-0.019153614,-9.423578,0.79560274,47.67614,-1.2203063,-2.1771085,-3.365345,-0.10342543,-0.08095056,-0.42062747,28.5625,29.6875,28.9375,33.0,35.3125,36.4375
0.11604323,-1.264705,-0.46372536,0.15046757,0.010499046,0.018660473,-0.17751493,-0.38403776,-0.34789664,0.060015697,-3.078366,0.6220386,9.652408e-05,-0.052280538,0.013379431,-1.6272194e-05,0.015690107,-0.0006396254,0.018458707,0.47436902,-1.4216636,1.952433,-2.099508,-1.5714344,2.4475749,-0.062731415,0.0744223,-0.090469256,0.023766112,-0.013852798,-0.08110951,-0.24899697,0.076614454,-9.442732,0.8157518,47.678825,-1.2433866,-2.1597438,-3.3963816,-0.08653687,-0.08228624,-0.4524528,28.5625,29.6875,28.9375,33.0,35.3125,36.4375
0.118043244,-0.89336014,0.016532078,0.12131485,0.006570558,0.028774604,-0.17466201,-0.38414466,-0.34786847,0.06001684,-3.0783556,0.6220355,0.00013426635,-0.052906916,0.013854164,0.00015689495,0.016027724,-0.0009268172,0.01933189,0.47423646,-1.4215312,1.9522761,-2.0994956,-1.5714582,2.4474418,-0.064018674,0.07481021,-0.09157201,0.024885697,-0.014023078,-0.083269395,-0.3256114,0.095768064,-9.385271,0.8851263,47.703007,-1.284064,-2.0720778,-3.441329,-0.088258885,-0.06293154,-0.50030476,28.5625,29.6875,28.9375,33.0,35.3125,36.4375
0.12004328,-0.6055439,0.31389573,0.062388048,0.01694974,0.03466085,-0.18275665,-0.38426974,-0.34783384,0.06002556,-3.0783386,0.62202877,0.00012918455,-0.053242717,0.014250094,-4.985026e-05,0.017033251,-0.0017646888,0.024114998,0.4740684,-1.4213749,1.952061,-2.0994232,-1.5714706,2.4472718,-0.06467142,0.075848535,-0.09255817,0.0260319,-0.014540373,-0.08870359,-0.24899697,0.1340753,-9.251195,0.800085,47.65912,-1.2173157,-2.09439,-3.3164356,-0.084545135,-0.08543597,-0.49351406,28.5625,29.6875,28.9375,33.0,35.3125,36.4375
0.122043885,-1.1338512,-0.07032152,0.18987319,0.02574165,0.025435468,-0.17417504,-0.38440785,-0.3478213,0.060037788,-3.0783572,0.6219552,0.00019509817,-0.054200377,0.015753027,-0.0008613759,0.017854935,-0.0041716928,0.02437109,0.47393504,-1.4211941,1.9518207,-2.0993989,-1.5714945,2.4470904,-0.06842938,0.077618204,-0.093013346,0.02722524,-0.014171504,-0.092718646,-0.30645782,0.095768064,-9.32781,0.83813137,47.65912,-1.1272962,-2.05629,-3.6110125,-0.06828304,-0.084483445,-0.48333767,28.5625,29.6875,28.9375,33.0,35.3125,36.4375
0.12404316,-0.9556449,0.031383228,0.036725894,0.015454723,0.032291174,-0.18757829,-0.384496,-0.34777495,0.060033318,-3.078322,0.62178844,0.00018245039,-0.056215156,0.014436754,0.0010161306,0.016208112,-0.0005150596,0.033111382,0.47380325,-1.4210736,1.9516767,-2.0993268,-1.5715426,2.4468591,-0.067778304,0.07830628,-0.098208435,0.027713997,-0.014395459,-0.10080415,-0.24899697,0.038307227,-9.32781,0.84484416,47.711964,-1.1740872,-2.0878797,-3.362018,-0.06357291,-0.090117246,-0.45567945,28.5625,29.6875,28.9375,33.0,35.3125,36.4375
0.12604319,-1.4554291,-0.44637886,0.089565925,0.019736473,0.029638004,-0.1661347,-0.38459396,-0.34776908,0.06003252,-3.07834,0.6216731,0.00014025593,-0.05611971,0.014869469,0.0008137942,0.016516453,-0.001771201,0.04016124,0.47369504,-1.4209056,1.9514726,-2.0992668,-1.5715302,2.4466767,-0.068629205,0.07843087,-0.098141976,0.02877284,-0.014102411,-0.108705424,-0.28730422,0.076614454,-9.308656,0.81351066,47.71823,-1.2982261,-1.9473191,-3.5101154,-0.059328932,-0.115822636,-0.35878047,28.5625,29.6875,28.9375,33.0,35.3125,36.4375
0.12804307,-1.1422743,-0.58746326,-0.065695286,0.023131369,0.041337255,-0.18515626,-0.38471326,-0.3477155,0.060033098,-3.0783005,0.62150884,0.00018126267,-0.05852311,0.016272556,1.419995e-05,0.018427255,-0.0031964574,0.04411473,0.4735377,-1.4207599,1.951291,-2.0992067,-1.5716027,2.446422,-0.07260704,0.08281543,-0.10161938,0.029991467,-0.015166807,-0.11663201,-0.3256114,0.038307227,-9.404425,0.8314132,47.711063,-1.191709,-2.116463,-3.3799617,-0.034535047,-0.06620655,-0.30114496,28.5625,29.6875,28.9375,33.0,35.3125,36.4375
0.13004397,-1.4573746,-0.26542443,-0.21660398,0.010222421,0.034096207,-0.17242236,-0.38481864,-0.34768215,0.060033087,-3.078282,0.62127113,0.00014365558,-0.058948927,0.016147414,0.0013425311,0.01754951,-0.0011610837,0.049520288,0.4734056,-1.4205925,1.951075,-2.099099,-1.571639,2.446144,-0.07264947,0.080769636,-0.10247898,0.03067396,-0.0153260445,-0.12207882,-0.38307226,0.11492168,-9.461885,0.784413,47.686886,-1.0012038,-1.925503,-3.3718953,-0.060866736,-0.104359284,-0.22729464,28.5625,29.6875,28.9375,33.0,35.3125,36.4375
0.1320433,-1.3556306,-0.40783712,-0.12025443,-0.0036509004,0.03437734,-0.16718513,-0.38493124,-0.34765676,0.060015872,-3.0783014,0.62110054,8.196276e-05,-0.059850078,0.01633109,0.00090154615,0.018337429,-0.002493629,0.05140142,0.47324952,-1.4203993,1.9508847,-2.0990622,-1.5716265,2.4458792,-0.073708735,0.08349859,-0.104888365,0.03189619,-0.015430843,-0.12501702,-0.4213795,0.1340753,-9.442732,0.79560274,47.67614,-1.2304878,-1.9096489,-3.3733785,-0.066087954,-0.1030802,-0.16647503,28.5625,29.6875,28.9375,33.0,35.3125,36.4375
0.13404311,-1.6918726,-1.373401,-0.37099728,0.007478401,0.030472707,-0.16349074,-0.38504648,-0.3476189,0.06002899,-3.0782704,0.6209415,0.00011182473,-0.061175775,0.017461857,0.0014181031,0.018384982,-0.0021224467,0.048880994,0.47311625,-1.4202551,1.9506677,-2.098966,-1.5716871,2.4456508,-0.076761924,0.08322264,-0.10600672,0.032972403,-0.015646985,-0.12554866,-0.36391866,0.30645782,-9.500193,0.8314132,47.66271,-1.0640883,-2.01438,-3.3992422,-0.06855589,-0.110875696,-0.13411883,28.5625,29.6875,28.9375,33.0,35.3125,36.4375
0.13604388,-1.5144584,-0.95640475,-0.47329783,-0.0064640203,0.037919607,-0.17093556,-0.3852069,-0.3475952,0.060050562,-3.0783198,0.62080055,0.00018175671,-0.062328633,0.017935598,0.0017432563,0.018413689,-0.0015995348,0.042957976,0.47293565,-1.4200748,1.950404,-2.0989301,-1.5716995,2.4453762,-0.07845374,0.08383246,-0.10757704,0.033481743,-0.015905758,-0.12131689,-0.38307226,0.21068975,-9.615114,0.7777002,47.689575,-1.062186,-1.8485134,-3.4129019,-0.08197957,-0.09737195,-0.15108186,28.5625,29.6875,28.9375,33.0,35.3125,36.4375
0.13804395,-1.5347067,-0.87362546,-0.3505902,-0.016217513,0.039925635,-0.17145918,-0.38530973,-0.3475495,0.060033735,-3.0782616,0.62071306,0.00015421657,-0.06407105,0.017768,0.0020043931,0.018075082,2.0676922e-05,0.03867772,0.47279152,-1.4199061,1.9502357,-2.0988705,-1.5717472,2.445185,-0.07943482,0.08584781,-0.110289015,0.032579068,-0.01635615,-0.11801395,-0.49799395,0.11492168,-9.595961,0.8493211,47.687782,-1.0378193,-1.7853281,-3.3943524,-0.041865215,-0.11006153,-0.18147936,28.5625,29.6875,28.9375,33.0,35.3125,36.4375
0.14004317,-1.7152824,-1.3004279,-0.42737496,-0.011630506,0.047274295,-0.16931546,-0.38544807,-0.34751442,0.060049485,-3.078262,0.6206221,0.00014851983,-0.065183766,0.018229298,0.0017038073,0.018206848,-0.00072391727,0.03031575,0.47261074,-1.4197371,1.9499844,-2.0987747,-1.5717591,2.4449475,-0.08138048,0.08780632,-0.111957826,0.0330146,-0.016135119,-0.11159689,-0.57460845,0.17238252,-9.557653,0.800085,47.675243,-0.98086345,-1.7941353,-3.3985975,-0.033995565,-0.1222993,-0.28392103,28.5625,29.6875,28.9375,33.0,35.3125,36.4375
0.14204316,-1.8360208,-1.0058241,-0.38923496,-0.008968038,0.05136693,-0.17622177,-0.38558975,-0.34749025,0.060068537,-3.078279,0.6205099,0.00019774544,-0.066277035,0.018587086,0.001417759,0.019032879,-0.0016294826,0.030282559,0.47245434,-1.4195682,1.9497336,-2.098714,-1.5717834,2.444719,-0.08277127,0.090233736,-0.114359796,0.03416587,-0.016461149,-0.11295278,-0.51714754,0.17238252,-9.653421,0.8247004,47.690468,-0.9412524,-1.850455,-3.3625998,-0.024813998,-0.1106437,-0.2828757,28.5625,29.6875,28.9375,33.0,35.3125,36.4375
0.14408295,-1.5131357,-0.60178083,-0.41876045,-0.0019358852,0.052430954,-0.17057231,-0.38571975,-0.3474397,0.06006677,-3.0782583,0.6204105,0.00017764365,-0.06788294,0.018771408,0.0014801084,0.018405534,-0.0013721436,0.02745804,0.4722616,-1.4193994,1.9495281,-2.0986426,-1.5718073,2.444467,-0.084810115,0.09221271,-0.11676166,0.034067795,-0.016030177,-0.11216604,-0.30645782,0.076614454,-9.634268,0.7866488,47.70211,-0.9934787,-1.8075387,-3.35238,-0.026741955,-0.13946567,-0.32648146,28.5625,29.6875,28.9375,33.0,35.3125,36.4375
0.1460834,-1.3508656,-0.5267302,-0.27840757,0.005405028,0.044289585,-0.17878653,-0.38586122,-0.34739995,0.06007138,-3.0782404,0.6203104,0.00022310439,-0.06942734,0.019207245,0.0018261253,0.018802242,-0.0008311741,0.026317796,0.472093,-1.4192188,1.9492997,-2.0985944,-1.571855,2.4442384,-0.08656688,0.09366266,-0.11943608,0.034984343,-0.0166353,-0.11277984,-0.40222588,0.17238252,-9.615114,0.800085,47.709274,-0.8358487,-1.8135368,-3.152764,-0.020487772,-0.14263952,-0.35854083,28.5625,29.6875,28.9375,33.0,35.3125,36.4375
0.14804484,-1.0708497,-0.79050434,-0.39238843,0.0061490186,0.050234642,-0.18000655,-0.38601604,-0.34736863,0.0600815,-3.07822,0.62030685,0.00024309616,-0.07123688,0.019346777,0.0010343842,0.019931411,-0.002077907,0.0251878,0.47191244,-1.4190128,1.9490241,-2.098522,-1.5718797,2.4440584,-0.08813838,0.098554306,-0.1234108,0.03568656,-0.017083602,-0.11321772,-0.38307226,0.17238252,-9.500193,0.8314132,47.71823,-0.8380281,-1.9833908,-3.2303326,-0.015194476,-0.1352426,-0.3865214,28.5625,29.6875,28.9375,33.0,35.3125,36.4375
0.1500851,-1.0817426,-0.076050766,-0.28365618,-0.011049821,0.04418331,-0.18782225,-0.38614476,-0.34732717,0.060077958,-3.0781775,0.6201243,0.0002698029,-0.0720529,0.01996242,0.0015447871,0.019588552,-0.0006361933,0.025790561,0.4717683,-1.418821,1.9487962,-2.098451,-1.5719517,2.443806,-0.08971007,0.097587034,-0.123362966,0.035153814,-0.01744188,-0.115390874,-0.38307226,0.21068975,-9.5385,0.7396539,47.69763,-0.86189944,-1.851176,-3.220461,-0.009504766,-0.155678,-0.4020912,28.5625,29.6875,28.9375,33.0,35.3125,36.4375
0.15208267,-1.2409577,-0.88384765,-0.30859426,-0.0010418433,0.04868681,-0.1830399,-0.386325,-0.3472799,0.060110874,-3.0781987,0.6200488,0.00040183088,-0.07291887,0.020609776,0.00015447296,0.021539267,-0.003016542,0.029591816,0.4715516,-1.4186633,1.948532,-2.0984142,-1.5719999,2.4435396,-0.09117928,0.10174118,-0.12509184,0.035721127,-0.018098855,-0.12065972,-0.47884035,0.17238252,-9.595961,0.7732232,47.691364,-0.6985219,-1.9740064,-3.203001,0.0064726905,-0.14055237,-0.3938738,28.5625,29.6875,28.9375,33.0,35.3125,36.4375
0.1540844,-1.0150317,-0.913396,-0.08393141,-0.009882881,0.06001032,-0.17869888,-0.3864342,-0.34725246,0.060102075,-3.0782049,0.6199104,0.0003282119,-0.0725832,0.019690199,0.0009504673,0.02080963,-0.003852047,0.03795251,0.47139594,-1.4184834,1.9483293,-2.0983417,-1.571988,2.443297,-0.08987364,0.101607606,-0.12742567,0.038586866,-0.017081533,-0.12771566,-0.4405331,0.22984336,-9.442732,0.7665104,47.664497,-0.9374969,-1.9119732,-3.134238,-0.002097291,-0.16132717,-0.32073867,28.5625,29.6875,28.9375,33.0,35.3125,36.4375
0.15609355,-1.0900513,-0.6701349,-0.105040476,-0.014798351,0.06322724,-0.18353076,-0.38659725,-0.3471961,0.060105465,-3.0781543,0.61978084,0.00029866805,-0.074352406,0.021107793,0.0008950849,0.021546286,-0.0051344982,0.043784432,0.47117862,-1.4182544,1.9480289,-2.0982091,-1.5720357,2.4430053,-0.09389154,0.103406794,-0.1298563,0.040672068,-0.017175492,-0.1375632,-0.59376204,0.2873042,-9.500193,0.784413,47.69763,-0.7925222,-2.028447,-3.108976,-0.018881373,-0.1778531,-0.23380828,28.5625,29.6875,28.9375,33.0,35.3125,36.4375
0.15813349,-1.0965441,-0.98234683,-0.15093908,0.0008487513,0.05634293,-0.16918088,-0.38673645,-0.34715825,0.060104217,-3.0781443,0.61961955,0.00027383165,-0.071642086,0.020249391,-0.0009735242,0.023432726,-0.010000332,0.052574154,0.47100013,-1.4180495,1.9477776,-2.0981247,-1.572059,2.4427276,-0.090213925,0.10547398,-0.12834127,0.04226644,-0.016654065,-0.14267667,-0.34476504,0.2681506,-9.461885,0.7933669,47.704796,-0.96446055,-1.9112301,-3.3262324,-0.02970377,-0.18761122,-0.16387412,28.5625,29.6875,28.9375,33.0,35.3125,36.4375
0.1600871,-1.3032633,-0.30556035,0.24080203,-0.010262482,0.041159146,-0.1661006,-0.38692054,-0.34714377,0.060123622,-3.078214,0.6194605,0.0003458552,-0.07300308,0.020517446,-0.00024095173,0.02353142,-0.009197566,0.05422835,0.4708076,-1.4178212,1.9474658,-2.0981004,-1.5720595,2.4424272,-0.09158703,0.10613791,-0.13112669,0.04371142,-0.017106777,-0.14570273,-0.34476504,0.17238252,-9.346964,0.80456203,47.67345,-0.98754567,-1.9312521,-3.1003225,-0.055823445,-0.19650197,-0.105424754,28.5625,29.6875,28.9375,33.0,35.3125,36.4375
0.16209011,-0.74816763,-0.20314202,0.19441997,-0.005593224,0.03452305,-0.17998312,-0.3870737,-0.34708962,0.0601294,-3.078174,0.61927885,0.0004104414,-0.07358537,0.020977441,-0.00021674113,0.0252594,-0.009428208,0.05305658,0.4706275,-1.4176286,1.9472154,-2.0980284,-1.5721444,2.442139,-0.091965295,0.10726126,-0.13284427,0.045285895,-0.018547129,-0.14490493,-0.2681506,0.19153613,-9.193734,0.79560274,47.699425,-0.9905015,-1.8390269,-3.202809,-0.06737918,-0.19199082,-0.1035823,28.5625,29.6875,28.9375,33.0,35.3125,36.4375
0.16408964,-0.22366506,-0.24542749,0.46236038,0.011340152,0.025253925,-0.17837326,-0.3872105,-0.347056,0.060143135,-3.0781882,0.61903423,0.00040122622,-0.07361003,0.02172749,-0.0013502121,0.02744684,-0.012216643,0.04856397,0.47045922,-1.4174476,1.9469517,-2.0979202,-1.5721682,2.4418163,-0.0928401,0.109796554,-0.13355747,0.046942513,-0.019234447,-0.1412846,-0.15322891,0.15322891,-9.097966,0.8493211,47.691364,-1.0754746,-1.9177142,-3.2531924,-0.08821879,-0.17846793,-0.11580008,28.5625,29.6875,28.9375,33.0,35.3125,36.4375
0.16609,-0.083674096,0.30386367,0.52100503,0.016870508,-0.0012294977,-0.16914128,-0.38739082,-0.34699994,0.060150366,-3.078154,0.6189533,0.0004838251,-0.074169464,0.021820195,-0.0012808742,0.027958412,-0.012737709,0.043437224,0.47024295,-1.417231,1.9466757,-2.0978715,-1.5722402,2.441554,-0.09332621,0.110986084,-0.13540938,0.048295345,-0.019454626,-0.13664286,-0.038307227,0.038307227,-9.040505,0.81351066,47.70032,-1.1128442,-1.9832883,-3.2489462,-0.09183658,-0.19670339,-0.17563403,28.5625,29.6875,28.9375,33.0,35.3125,36.4375
0.16809058,-0.03768698,-0.13340013,0.50115055,0.02797916,-0.02590025,-0.17111686,-0.38754687,-0.34696245,0.060143277,-3.078132,0.6188551,0.0004609452,-0.07504171,0.022334969,-0.0012931766,0.02829007,-0.013627191,0.037321057,0.47005045,-1.4169902,1.9463991,-2.097799,-1.5722641,2.4413033,-0.09505367,0.11224931,-0.13718678,0.049752727,-0.019353472,-0.13225293,0.05746084,-0.019153614,-9.021352,0.8851263,47.704796,-1.0597941,-1.9286425,-3.2710214,-0.09875287,-0.18199988,-0.24396041,28.5625,29.6875,28.9375,33.0,35.3125,36.4375
0.1700991,0.3342017,0.22815558,0.6023642,0.030092258,-0.04027327,-0.18125817,-0.3877324,-0.34692,0.060163584,-3.0781085,0.61875457,0.00052619126,-0.07489031,0.022909403,-0.0033238283,0.030136839,-0.018409327,0.034613695,0.46984607,-1.4167604,1.9460672,-2.0977032,-1.5723242,2.4410393,-0.09622456,0.11661815,-0.13791986,0.051205985,-0.018836077,-0.13071708,0.095768064,0.038307227,-8.848969,0.7777002,47.666286,-1.0038844,-2.104846,-3.3186185,-0.122990556,-0.23747909,-0.3172446,28.5625,29.6875,28.9375,33.0,35.3125,36.4375
0.172098,1.0561638,0.8785285,0.9317942,0.023421751,-0.033152714,-0.18471158,-0.38787404,-0.34686595,0.06016449,-3.078066,0.61863446,0.00051693845,-0.07685305,0.023429936,-0.00037033256,0.028552305,-0.013889947,0.027874483,0.46965322,-1.4165696,1.945824,-2.097606,-1.5723723,2.440777,-0.09846818,0.112757534,-0.14067234,0.053072315,-0.019477421,-0.12621874,0.15322891,0.019153614,-8.772355,0.81351066,47.66808,-0.9985645,-1.8799,-3.2834606,-0.15884966,-0.21074449,-0.38262707,28.5625,29.6875,28.9375,33.0,35.3125,36.4375
0.17410092,0.6648428,-0.0017405351,0.6113173,0.049679868,-0.040498357,-0.17334089,-0.38802606,-0.3468403,0.060170256,-3.0780392,0.6185888,0.00050668995,-0.07553936,0.023218315,-0.0027662602,0.031814538,-0.019362831,0.029913584,0.46948594,-1.4163398,1.945525,-2.09751,-1.5723966,2.440585,-0.0965894,0.117722236,-0.14140831,0.055195328,-0.01991506,-0.12637675,0.15322891,0.11492168,-8.810662,0.8672237,47.68599,-1.0501212,-2.010981,-3.258947,-0.17472027,-0.21433449,-0.43419844,28.5625,29.6875,28.9375,33.0,35.3125,36.4375
0.17608985,0.3031592,0.04141458,0.57021344,0.036854323,-0.036728922,-0.17044249,-0.38815284,-0.3467894,0.060140327,-3.0779772,0.61848176,0.00034136567,-0.07702919,0.024028935,-0.0018821608,0.030468306,-0.0192394,0.02587779,0.46928087,-1.4160875,1.9452738,-2.097378,-1.5723962,2.440321,-0.10005658,0.117277004,-0.14331082,0.05681714,-0.018793205,-0.12580791,0.21068975,0.11492168,-8.848969,0.7486078,47.691364,-1.1512415,-1.860665,-3.3641918,-0.20487446,-0.24039401,-0.5006248,28.5625,29.6875,28.9375,33.0,35.3125,36.4375
0.17808424,0.012439221,-0.33544573,0.4701394,0.017982565,-0.027961304,-0.17851816,-0.38830674,-0.34672686,0.060131073,-3.0778959,0.61832625,0.00030270292,-0.07601234,0.023724312,-0.003036948,0.031806543,-0.022289421,0.03229591,0.46907747,-1.4158466,1.9449881,-2.097246,-1.5724682,2.440031,-0.09866785,0.11941992,-0.14345585,0.058122136,-0.018628757,-0.13083601,0.1340753,0.17238252,-8.810662,0.86945957,47.69763,-1.0595177,-1.8766143,-3.3159032,-0.252247,-0.2261351,-0.52534497,28.5625,29.6875,28.9375,33.0,35.3125,36.4375
0.18008222,-0.09326144,-0.49793127,0.48229116,-0.008801973,-0.0051410696,-0.18479908,-0.3884697,-0.34666553,0.060131814,-3.07783,0.6181544,0.0002585794,-0.0785986,0.023676103,-0.0018115684,0.03139533,-0.019400926,0.040407263,0.46886075,-1.415606,1.9446748,-2.0970905,-1.5725287,2.4397156,-0.100244306,0.12087812,-0.14802627,0.058444988,-0.019607032,-0.14051728,0.15322891,0.21068975,-9.078813,0.88289046,47.67614,-1.1547965,-1.8899622,-3.2284398,-0.28641182,-0.26409608,-0.45295787,28.5625,29.6875,28.9375,33.0,35.3125,36.4375
0.18208532,-0.779948,-1.0259222,0.06254485,-0.012001477,-0.009909043,-0.17408517,-0.3886026,-0.3466316,0.06013953,-3.077825,0.6179548,0.00016778748,-0.07949228,0.023921842,-0.0022387765,0.03142396,-0.019792872,0.05020671,0.46868038,-1.4154012,1.9443864,-2.0969346,-1.5725282,2.4394114,-0.10152431,0.12275957,-0.14913654,0.05801148,-0.019489918,-0.15159482,0.15322891,0.24899697,-9.078813,0.8247004,47.690468,-1.1243098,-1.944289,-3.2828455,-0.31446505,-0.27339903,-0.3911356,28.5625,29.6875,28.9375,33.0,35.3125,36.4375
0.18408981,-1.0729359,-1.7471685,-0.19992867,-0.018589117,-0.0022424303,-0.1654957,-0.38876736,-0.34658495,0.060130373,-3.0777936,0.61775136,0.00017797263,-0.08105989,0.023670636,-0.0016431571,0.030289643,-0.017402148,0.05865652,0.46848822,-1.4151486,1.9441007,-2.096863,-1.5725888,2.4390965,-0.10238507,0.12350994,-0.15104273,0.05649123,-0.019589966,-0.16090314,0.05746084,0.38307226,-9.289503,0.76874626,47.642998,-1.1333791,-1.949399,-3.2406564,-0.3268454,-0.26429075,-0.2666365,28.5625,29.6875,28.9375,33.0,35.3125,36.4375
0.18608522,-1.2239885,-1.9038849,-0.50080335,-0.038530022,0.011914264,-0.16124128,-0.38891578,-0.34654096,0.06011239,-3.0777395,0.61760134,4.1695985e-05,-0.08225645,0.023709865,-0.0031335752,0.031692848,-0.017888365,0.06517971,0.4682842,-1.4148705,1.943787,-2.0967085,-1.5726007,2.4388058,-0.10279962,0.12820555,-0.15259269,0.054397214,-0.020666504,-0.16783357,0.019153614,0.4405331,-9.481039,0.8314132,47.691364,-1.2094891,-2.042481,-3.2387314,-0.3378778,-0.28071362,-0.19153768,28.5625,29.6875,28.9375,33.0,35.3125,36.4375
0.18809006,-1.6507233,-2.1940172,-0.65496075,-0.041432843,0.022444658,-0.15697868,-0.38906932,-0.3464952,0.060113493,-3.0777097,0.61736614,4.150944e-05,-0.08499405,0.023019237,-9.656956e-05,0.027579926,-0.01103316,0.063651174,0.46810353,-1.4146438,1.9434994,-2.0966012,-1.5726608,2.4384823,-0.10435412,0.12526406,-0.1557423,0.05249908,-0.02011353,-0.16785896,-0.1340753,0.47884035,-9.557653,0.88289046,47.690468,-1.1237392,-1.8133333,-3.3313036,-0.32134163,-0.29944456,-0.18919256,28.5625,29.6875,28.9375,33.0,35.3125,36.4375
0.19008441,-1.3349324,-1.9836279,-0.70767903,-0.06299219,0.05001462,-0.16641371,-0.3892074,-0.34643653,0.060084887,-3.0776618,0.61714894,-0.00013919185,-0.085307986,0.023398526,-0.0013640798,0.028066775,-0.012873962,0.05656745,0.4678753,-1.4143783,1.9432243,-2.0964463,-1.5726608,2.4381247,-0.105506726,0.12788728,-0.15571912,0.051721506,-0.019738935,-0.16192564,-0.24899697,0.47884035,-9.730036,0.8247004,47.661808,-1.1866877,-2.0464602,-3.3896089,-0.3245128,-0.30276147,-0.2074493,28.5625,29.6875,28.9375,33.0,35.3125,36.4375
0.19204192,-2.2024891,-2.379627,-0.8017925,-0.06935953,0.054634757,-0.16229165,-0.38937494,-0.34635544,0.060073595,-3.077562,0.61697763,-0.00019101307,-0.08741119,0.022802206,-0.0012999176,0.02678467,-0.009216853,0.051187374,0.46763507,-1.4141254,1.9429244,-2.0962923,-1.5727447,2.4377904,-0.10595308,0.13014525,-0.15751515,0.04741141,-0.020270962,-0.15698618,-0.51714754,0.4405331,-9.787497,0.8224646,47.661808,-1.2634816,-1.9328315,-3.341937,-0.31557488,-0.32963502,-0.30087313,28.5625,29.6875,28.9375,33.0,35.3125,36.4375
0.19404185,-2.8464127,-2.282468,-0.7180628,-0.07550555,0.07540801,-0.16402104,-0.38955337,-0.34633335,0.060068175,-3.0775836,0.61671525,-0.00013193593,-0.08966891,0.022666967,-0.0007240049,0.024984095,-0.0060679177,0.047455415,0.46746644,-1.4138488,1.942613,-2.096269,-1.5727929,2.4374554,-0.10780867,0.1313008,-0.15957889,0.044689726,-0.020091552,-0.15510905,-0.7086837,0.4213795,-9.825804,0.842603,47.65912,-1.1018049,-1.9152005,-3.3523326,-0.27626565,-0.3316777,-0.33132726,28.5625,29.6875,28.9375,33.0,35.3125,36.4375
0.1960414,-2.3365397,-1.6847736,-0.82218623,-0.057760302,0.10175166,-0.17083935,-0.38972372,-0.34630415,0.060054466,-3.0775864,0.6166587,-0.00024440527,-0.091162145,0.022318166,-0.00114639,0.02380901,-0.005084582,0.04539341,0.46723804,-1.4135594,1.9422897,-2.096174,-1.5727562,2.4371915,-0.10885577,0.13398021,-0.16117187,0.0421974,-0.019505927,-0.15409333,-0.68953013,0.3256114,-9.864111,0.84484416,47.67166,-1.2008401,-1.9906015,-3.3472655,-0.24403846,-0.35963804,-0.3808003,28.5625,29.6875,28.9375,33.0,35.3125,36.4375
0.19804168,-2.5611587,-1.1498511,-0.8610766,-0.026991367,0.09572285,-0.16539618,-0.38992795,-0.34627432,0.060082104,-3.0776014,0.61650693,-0.00015392498,-0.09304796,0.02292891,-0.00053462276,0.023243504,-0.0035273216,0.045419227,0.4670331,-1.4133073,1.9419173,-2.09609,-1.5728048,2.4368901,-0.11143742,0.13457546,-0.16324334,0.04201229,-0.019709324,-0.15669979,-0.7852981,0.3256114,-9.902418,0.9455522,47.694946,-0.9634629,-1.919719,-3.411325,-0.21563646,-0.38257405,-0.38823646,28.5625,29.6875,28.9375,33.0,35.3125,36.4375
0.20004146,-3.6409316,-0.59710896,-0.5751181,-0.00073451444,0.06237533,-0.17579384,-0.39011088,-0.34622747,0.060057428,-3.0775757,0.61632663,-0.00015550428,-0.09418507,0.023329895,-0.0003366348,0.023337657,-0.0018948902,0.048799887,0.46681696,-1.4130068,1.9416198,-2.0960553,-1.572853,2.436565,-0.11256962,0.1349967,-0.1639593,0.040873017,-0.020549562,-0.16120861,-0.8236054,0.2681506,-9.730036,0.8493211,47.68599,-1.1782693,-1.8960283,-3.3597708,-0.20553152,-0.39501405,-0.40578365,28.5625,29.6875,28.9375,33.0,35.3125,36.4375
0.2020417,-2.341196,0.081797875,-0.42787093,0.015126372,0.0782835,-0.17527653,-0.3903397,-0.34619153,0.060090873,-3.077622,0.6162176,-4.8364836e-05,-0.09604596,0.024513906,-0.0019834265,0.024639266,-0.0024319685,0.054123737,0.46656382,-1.4127531,1.9412378,-2.0959961,-1.5728773,2.436238,-0.11565945,0.13928472,-0.16457155,0.03823801,-0.021484992,-0.1696193,-0.68953013,0.0,-9.787497,0.8291774,47.684196,-1.0219262,-1.9346045,-3.4723845,-0.13411458,-0.40891516,-0.31405476,28.5625,29.6875,28.9375,33.0,35.3125,36.4375
0.20404136,-1.8875486,0.57432175,-0.58857656,0.031830747,0.075403325,-0.17915562,-0.39050967,-0.3461403,0.060060613,-3.0775979,0.61588025,-7.833657e-05,-0.098258026,0.024421394,-0.00039936768,0.023048846,0.0010832737,0.06322416,0.46635944,-1.4124528,1.9409474,-2.095936,-1.5729374,2.4358263,-0.11729259,0.13894525,-0.16775282,0.037865307,-0.021687394,-0.18034934,-0.7086837,-0.1340753,-9.749189,0.82694155,47.68062,-0.9808676,-1.9532621,-3.3128486,-0.09849236,-0.41553834,-0.20858663,28.5625,29.6875,28.9375,33.0,35.3125,36.4375
0.20604171,-2.2523909,0.26056433,-0.40620854,0.043387983,0.055878613,-0.16491815,-0.3907144,-0.34607926,0.06008018,-3.077584,0.61570203,-2.426541e-05,-0.09881501,0.025229411,-0.0016399018,0.025880348,-0.0020617808,0.068543784,0.46610704,-1.4122112,1.9405998,-2.0958278,-1.5729979,2.4354646,-0.11842909,0.14287268,-0.17001475,0.040254556,-0.022817649,-0.18680045,-0.7278373,-0.22984336,-9.749189,0.7933669,47.691364,-0.9754927,-2.1761384,-3.5484297,-0.09594147,-0.43507114,-0.11976661,28.5625,29.6875,28.9375,33.0,35.3125,36.4375
0.20804144,-1.6224345,0.88793254,-0.11450877,0.036249783,0.064339876,-0.15973943,-0.3909096,-0.34607112,0.060075637,-3.0776453,0.6155235,-3.7630496e-05,-0.09879328,0.026244445,-0.0028367839,0.028426476,-0.0043091318,0.06824176,0.46590257,-1.4118984,1.9402412,-2.0957916,-1.5729741,2.435141,-0.11932757,0.14494063,-0.16993313,0.041259866,-0.024082473,-0.18739285,-0.842759,-0.28730422,-9.595961,0.8851263,47.696735,-0.99638367,-2.0724404,-3.480556,-0.07699959,-0.42747682,-0.05755128,28.5625,29.6875,28.9375,33.0,35.3125,36.4375
0.21004161,-1.4804314,0.89750916,-0.295862,0.050565485,0.06171135,-0.16508134,-0.39113358,-0.3460088,0.060100906,-3.077647,0.6152962,5.7581798e-05,-0.09905311,0.026846854,-0.003852671,0.030243933,-0.0061596865,0.06203213,0.4656387,-1.411645,1.9398698,-2.0956953,-1.5730466,2.4347353,-0.120050654,0.14740466,-0.17064802,0.041976783,-0.024865583,-0.18190369,-0.842759,-0.4213795,-9.557653,0.88289046,47.672558,-1.0706772,-2.1747549,-3.6097624,-0.053759594,-0.45254695,-0.10565004,28.5625,29.6875,28.9375,33.0,35.3125,36.4375
0.21204144,-1.758706,0.7689589,-0.36821947,0.05522537,0.058799457,-0.16301322,-0.39135268,-0.3459465,0.060102064,-3.0775938,0.6151754,0.00011633382,-0.099021405,0.026690535,-0.0036554057,0.03128647,-0.0063721417,0.054821394,0.46538663,-1.4113446,1.9395016,-2.0956109,-1.5731305,2.4344149,-0.11914519,0.1479208,-0.17209145,0.043563873,-0.025694082,-0.1737839,-0.59376204,-0.49799395,-9.500193,0.8224646,47.674347,-1.088601,-2.1804597,-3.542757,-0.035515063,-0.4427414,-0.18428993,28.5625,29.6875,28.9375,33.0,35.3125,36.4375
0.21404135,-1.0096732,0.9606596,-0.015955208,0.04619972,0.060493443,-0.16831961,-0.39153638,-0.34588972,0.06008802,-3.077571,0.61500025,9.343472e-05,-0.10155687,0.027801706,-0.0025990128,0.031833783,-0.00468983,0.04697301,0.4651458,-1.4110681,1.9391984,-2.0955384,-1.5731672,2.4340677,-0.122505054,0.14874566,-0.17587718,0.045270316,-0.026946235,-0.16928841,-0.45968673,-0.36391866,-9.3661175,0.8314132,47.684196,-1.1268518,-2.1584983,-3.4566193,-0.021421818,-0.4362538,-0.2615432,28.5625,29.6875,28.9375,33.0,35.3125,36.4375
0.2160414,-0.18587685,0.8615571,-0.0145862,0.044992834,0.049822055,-0.16696197,-0.3917807,-0.34582466,0.060108278,-3.07752,0.6149337,0.00023944891,-0.10244118,0.027177652,-0.0029117821,0.033787534,-0.00498485,0.04348711,0.46488228,-1.4107788,1.9388021,-2.0954664,-1.5732754,2.4337695,-0.121083654,0.1525807,-0.17992923,0.046620667,-0.028555758,-0.16437446,-0.34476507,-0.24899697,-9.423578,0.85826975,47.66808,-1.1314473,-2.1046495,-3.3516946,-0.009848886,-0.43325585,-0.37422195,28.5625,29.6875,28.9375,33.0,35.3125,36.4375
0.21804138,-0.39075252,0.22697675,-0.2252215,0.044106003,0.017698308,-0.16739738,-0.39197898,-0.34578866,0.06011829,-3.077539,0.6146903,0.0002733355,-0.104392126,0.027827619,-0.00017571365,0.033478003,-0.00031715742,0.039301272,0.46466577,-1.4105035,1.9384426,-2.095382,-1.5733126,2.4333987,-0.122736394,0.14930522,-0.18286054,0.04851733,-0.030372225,-0.1618348,-0.19153613,-0.038307227,-9.32781,0.8851263,47.71017,-1.1232378,-1.9810265,-3.3499274,0.009031185,-0.42989802,-0.426658,28.5625,29.6875,28.9375,33.0,35.3125,36.4375
0.22004145,-0.80883706,-0.2483151,0.032002486,0.010087742,0.0025709507,-0.16817757,-0.39218655,-0.3457308,0.060117565,-3.0774677,0.6146359,0.0002933784,-0.10509158,0.029022358,-0.001210933,0.03599851,-0.0024822594,0.04007966,0.4644251,-1.4102023,1.9380721,-2.0952737,-1.5733851,2.4331334,-0.124568544,0.15208046,-0.18407278,0.04999782,-0.03167015,-0.16443914,-0.2681506,0.21068975,-9.289503,0.800085,47.696735,-1.035743,-2.1569934,-3.3143802,0.011053389,-0.40518555,-0.48747522,28.5625,29.6875,28.9375,33.0,35.3125,36.4375
0.22204132,-0.5362873,-0.88803196,-0.054121178,-0.01679663,0.004462595,-0.17012173,-0.39240667,-0.34564364,0.060110733,-3.0773888,0.6145178,0.00023898309,-0.10552197,0.029099707,-0.00095806975,0.03661599,-0.003607852,0.050409857,0.46411306,-1.4098893,1.9376911,-2.0951173,-1.5734442,2.4327579,-0.12495319,0.15316758,-0.18653862,0.052610323,-0.03175938,-0.17515019,-0.19153613,0.28730422,-9.308657,0.87393653,47.70659,-1.0875405,-2.0325418,-3.2917328,-0.0081476765,-0.4083455,-0.42655927,28.5625,29.6875,28.9375,33.0,35.3125,36.4375
0.22404143,-0.85313416,-1.901648,-0.25668782,-0.03571896,0.012314137,-0.16360909,-0.39259982,-0.34558323,0.060098648,-3.0773232,0.6142268,0.0002399703,-0.10527937,0.029987656,-0.0011972771,0.039635055,-0.005933096,0.06435555,0.46389684,-1.4095769,1.9373306,-2.0949957,-1.5735415,2.4323685,-0.12515296,0.1540611,-0.18793958,0.05648949,-0.033459395,-0.18928738,-0.076614454,0.45968673,-9.289502,0.8851263,47.684196,-1.1371807,-2.0244498,-3.2703533,-0.03109043,-0.384058,-0.32528114,28.5625,29.6875,28.9375,33.0,35.3125,36.4375
0.22604144,-0.5183777,-1.9907866,0.06175537,-0.053952143,0.03585147,-0.16819781,-0.3928299,-0.34554285,0.06011625,-3.077342,0.6140533,0.00029931782,-0.10598465,0.031097695,-0.0009843402,0.042127676,-0.0075899395,0.0718038,0.4636445,-1.4092762,1.9369239,-2.0949109,-1.5735782,2.4320056,-0.12669691,0.15515089,-0.19067504,0.060695723,-0.03496432,-0.19827437,-0.05746084,0.51714754,-9.270349,0.7665104,47.687782,-1.1137989,-1.9353821,-3.3598018,-0.06591165,-0.35423505,-0.20834306,28.5625,29.6875,28.9375,33.0,35.3125,36.4375
0.22804146,-0.36133942,-1.5086068,-0.0061541935,-0.055025544,0.037555188,-0.17677839,-0.39303386,-0.34547642,0.06010765,-3.077302,0.6137389,0.00027552003,-0.10697939,0.03214641,-0.0010768744,0.042591102,-0.0073012593,0.0728924,0.46339184,-1.4089638,1.9365529,-2.0947793,-1.5736498,2.431562,-0.12899323,0.15550315,-0.19085413,0.06044061,-0.035537,-0.20165467,0.0,0.5554548,-9.32781,0.9186956,47.71017,-1.162019,-1.9366312,-3.3653002,-0.06921838,-0.34084487,-0.13196257,28.5625,29.6875,28.9375,33.0,35.3125,36.4375
0.23004177,-0.74308234,-1.7099805,0.018318431,-0.0382413,0.016367892,-0.15644217,-0.3932625,-0.3454042,0.060097605,-3.0772634,0.61353946,0.00024090422,-0.105995096,0.03172563,-0.0028742757,0.046250265,-0.011726109,0.071246885,0.46309257,-1.408626,1.9361581,-2.0946586,-1.5736984,2.4311433,-0.12646382,0.16029362,-0.19299653,0.063383445,-0.036843304,-0.19747153,0.05746084,0.47884035,-9.251195,0.80456203,47.65643,-1.2472312,-1.9492997,-3.3445225,-0.09458923,-0.33112448,-0.1654729,28.5625,29.6875,28.9375,33.0,35.3125,36.4375
0.23204139,-0.34219214,-1.4120063,0.33240902,-0.027155988,0.003593774,-0.15975636,-0.39345002,-0.34533316,0.060073253,-3.0771484,0.61338824,0.00019718631,-0.10776765,0.0341354,-0.0005813144,0.04663831,-0.011015932,0.059543505,0.46286246,-1.4083027,1.93581,-2.094525,-1.5737947,2.4308336,-0.13179113,0.15670983,-0.19537331,0.06887723,-0.03751401,-0.19108944,-0.038307227,0.4405331,-9.11712,0.86498255,47.703903,-1.0372765,-1.8383174,-3.2590694,-0.13531533,-0.3139694,-0.2524572,28.5625,29.6875,28.9375,33.0,35.3125,36.4375
0.23404293,0.38674572,-0.48418203,0.005549179,-0.007019022,-0.019226715,-0.15813695,-0.39370412,-0.34526753,0.060081072,-3.077127,0.6132307,0.00030320103,-0.10801554,0.032886192,-0.00093950453,0.045295764,-0.011767363,0.057857957,0.4625752,-1.4079779,1.9354032,-2.0944655,-1.5738786,2.430451,-0.1307025,0.15924783,-0.19744706,0.06846324,-0.035980858,-0.18832052,0.05746084,0.38307226,-9.11712,0.8672237,47.690468,-1.1640759,-1.9106176,-3.1568046,-0.1765128,-0.297011,-0.3118276,28.5625,29.6875,28.9375,33.0,35.3125,36.4375
0.23604158,1.0687742,0.12702273,0.14634915,0.010886928,-0.030604903,-0.1654202,-0.39392987,-0.34520712,0.06010602,-3.0771086,0.61298007,0.00037911156,-0.10928782,0.03383145,-0.0010742794,0.046523962,-0.012029674,0.053486306,0.46232238,-1.4077008,1.934996,-2.0943334,-1.5739626,2.4300442,-0.13278727,0.16085991,-0.19925857,0.06943187,-0.036967713,-0.18602903,0.15322891,0.3256114,-9.193734,0.81351066,47.690468,-1.0193369,-1.8544992,-3.1911187,-0.17562404,-0.2909426,-0.39431325,28.5625,29.6875,28.9375,33.0,35.3125,36.4375
0.23804143,0.43619156,0.116433665,0.39581013,0.008199909,-0.03800546,-0.16749048,-0.3941157,-0.34514195,0.060061727,-3.0769885,0.6128004,0.00022296241,-0.10994802,0.035158023,-0.0013985639,0.048863932,-0.01306975,0.05301707,0.46208197,-1.4073161,1.9346141,-2.0941646,-1.5740236,2.429707,-0.13457513,0.16191347,-0.20020387,0.071279496,-0.03863908,-0.18733467,0.11492168,0.24899697,-8.963891,0.9097417,47.713753,-1.052965,-1.8590987,-3.3274713,-0.19905402,-0.25182652,-0.40919262,28.5625,29.6875,28.9375,33.0,35.3125,36.4375
0.24004143,0.40134862,0.32601392,0.40969878,0.0077145263,-0.022992035,-0.16216955,-0.39436,-0.34506586,0.06008349,-3.076947,0.6126145,0.00021600326,-0.11066389,0.035151135,-0.0014668495,0.049064033,-0.014117868,0.06144163,0.46176985,-1.4070034,1.9341592,-2.093973,-1.5740832,2.4292843,-0.13526349,0.16381481,-0.20263135,0.072777934,-0.038395464,-0.19644569,0.19153613,0.095768064,-8.983045,0.8493211,47.694946,-1.0692345,-1.8559203,-3.272996,-0.23285684,-0.2205838,-0.34890288,28.5625,29.6875,28.9375,33.0,35.3125,36.4375
0.2420414,0.20670207,0.40611556,0.406691,0.0034925342,0.0037011933,-0.16403438,-0.3945778,-0.34501526,0.0600647,-3.0768983,0.6123679,0.00023050419,-0.11167807,0.035286035,-0.002691801,0.049052358,-0.017247904,0.07153156,0.46154118,-1.4066414,1.9337643,-2.0938895,-1.5741662,2.428908,-0.1371884,0.16826622,-0.20524533,0.07366569,-0.03704306,-0.20846255,0.22984336,0.0,-8.963891,0.82694155,47.68062,-1.0406486,-1.9463829,-3.2163782,-0.26145342,-0.225183,-0.24523896,28.5625,29.6875,28.9375,33.0,35.3125,36.4375
0.24404149,-0.21547182,0.772128,0.3733445,-0.0046096416,0.021370256,-0.17308494,-0.39476678,-0.34495112,0.060047213,-3.0768487,0.6120663,7.123388e-05,-0.11253457,0.03499971,-0.0013490411,0.047320656,-0.014891503,0.078891434,0.46127674,-1.4063057,1.9333695,-2.0936854,-1.5741905,2.4284618,-0.13764527,0.16671406,-0.2065487,0.0735964,-0.03660524,-0.21627566,0.095768064,-0.038307227,-9.059659,0.87393653,47.66987,-0.96630263,-1.8741993,-3.3043408,-0.2863232,-0.2275421,-0.15569222,28.5625,29.6875,28.9375,33.0,35.3125,36.4375
0.24604134,-0.70731,0.1704833,0.36749807,0.015060322,0.023687394,-0.1718659,-0.3950131,-0.3448774,0.06005182,-3.0768108,0.61184967,9.0527006e-05,-0.11429392,0.036769688,-0.002216794,0.047801856,-0.015730135,0.07444049,0.46097547,-1.4059685,1.9329389,-2.0935543,-1.5742625,2.4280303,-0.14217474,0.16880459,-0.20684494,0.07274106,-0.0366845,-0.21635203,-0.05746084,-0.1340753,-9.2703495,0.8717007,47.682407,-0.95762336,-1.9778829,-3.2762392,-0.3030202,-0.2116023,-0.08712653,28.5625,29.6875,28.9375,33.0,35.3125,36.4375
0.2480414,-1.1311104,0.042360205,0.22790095,0.019655589,0.03417664,-0.15559639,-0.3952287,-0.34482527,0.06004606,-3.076778,0.61157763,3.6904257e-05,-0.11424008,0.03556565,-0.003140536,0.047770143,-0.01615216,0.06969295,0.4607242,-1.405619,1.9325122,-2.0933988,-1.5743107,2.4276135,-0.14005667,0.17189346,-0.2080187,0.071195066,-0.036481116,-0.20948327,-0.34476507,-0.076614454,-9.308657,0.89631605,47.703007,-1.0147579,-2.0212805,-3.2598495,-0.30923533,-0.2008534,-0.16718888,28.5625,29.6875,28.9375,33.0,35.3125,36.4375
0.25004134,-0.6970414,0.35171476,0.14917842,0.017711366,0.06495407,-0.17001578,-0.39544797,-0.34472808,0.060034446,-3.076641,0.61145693,2.0061138e-05,-0.11615374,0.034678992,-0.0025905883,0.046211727,-0.012690694,0.062285263,0.46043625,-1.4052943,1.932125,-2.0932324,-1.5744303,2.4272678,-0.13999255,0.17364113,-0.21070114,0.06833011,-0.036645796,-0.20200515,-0.61291564,-0.13407528,-9.32781,0.8627467,47.670765,-1.0670269,-2.1287117,-3.309421,-0.28378692,-0.19872946,-0.24579203,28.5625,29.6875,28.9375,33.0,35.3125,36.4375
0.25204152,-0.895931,1.086984,0.12803276,0.005703651,0.07022488,-0.18273556,-0.3956571,-0.34467208,0.059997845,-3.0765822,0.61117977,-8.774192e-05,-0.11743003,0.03456086,-0.00286095,0.04562159,-0.010972101,0.054363757,0.4601842,-1.4048971,1.9317187,-2.0931017,-1.5744785,2.4268503,-0.14066586,0.17537397,-0.21155117,0.06565557,-0.03689899,-0.19475041,-0.5554548,-0.17238252,-9.404425,0.8873621,47.690468,-1.0990318,-2.175877,-3.4160268,-0.25577682,-0.18028429,-0.36743426,28.5625,29.6875,28.9375,33.0,35.3125,36.4375
0.25404146,-1.8510402,0.10137788,0.118343085,0.004761242,0.06794223,-0.17186546,-0.3959207,-0.3445824,0.059995733,-3.0764954,0.61112666,-7.0803806e-05,-0.11943765,0.034226246,-0.0018549002,0.043695375,-0.007112116,0.048602853,0.45984793,-1.4045366,1.9312762,-2.092971,-1.5745624,2.4264922,-0.14173618,0.1755639,-0.21356149,0.063152164,-0.036901258,-0.19005683,-0.7278373,-0.076614454,-9.442732,0.9410752,47.67793,-1.1381252,-2.1442854,-3.373912,-0.23367357,-0.15650423,-0.46315825,28.5625,29.6875,28.9375,33.0,35.3125,36.4375
0.25604153,-1.7875531,-0.06010603,0.056067716,-0.021657966,0.08926568,-0.18494612,-0.39614868,-0.3445156,0.05998324,-3.0764356,0.61086345,-8.358084e-05,-0.12105267,0.033858847,-0.0016925599,0.041944005,-0.0059037684,0.051113542,0.45958343,-1.4041756,1.9308566,-2.09284,-1.5746464,2.4260712,-0.14305381,0.17740926,-0.21579035,0.0616315,-0.03590858,-0.1938858,-0.7278373,0.05746084,-9.519346,0.8784135,47.717335,-1.0430851,-2.2647958,-3.4342642,-0.20608306,-0.16023439,-0.49213725,28.5625,29.6875,28.9375,33.0,35.3125,36.4375
0.2580414,-2.0732622,-0.6343928,-0.2503914,-0.022261487,0.08807481,-0.17659345,-0.3963611,-0.34446958,0.059972197,-3.0764291,0.61052763,-0.00017308627,-0.12186254,0.033875678,-0.0024004912,0.04190079,-0.0065391115,0.06384257,0.45933107,-1.4038142,1.9304274,-2.0926845,-1.5746702,2.42561,-0.14386907,0.17993751,-0.21697162,0.06076603,-0.03565961,-0.20742741,-0.8236054,0.019153614,-9.691729,0.88960326,47.71465,-1.034975,-2.2374163,-3.4799757,-0.19776674,-0.16988766,-0.42078248,28.5625,29.6875,28.9375,33.0,35.3125,36.4375
0.26004136,-2.3419802,-1.1282703,-0.40395242,-0.02920908,0.092409745,-0.17182101,-0.3966294,-0.34438428,0.05998996,-3.0763826,0.6103756,-8.461692e-05,-0.12311121,0.033461038,-0.0019750937,0.040502723,-0.0051701968,0.07730983,0.4590067,-1.4034901,1.929984,-2.0925653,-1.574766,2.425197,-0.14450218,0.18097624,-0.21898606,0.05980379,-0.035072844,-0.2215297,-0.8619126,0.076614454,-9.749189,0.87617236,47.692257,-1.0067949,-2.21109,-3.5029678,-0.17859733,-0.1586766,-0.2833581,28.5625,29.6875,28.9375,33.0,35.3125,36.4375
0.26204136,-2.375213,-0.84631497,-0.29856798,-0.04911174,0.10294583,-0.17958632,-0.39685643,-0.3443252,0.059952177,-3.0763366,0.61001825,-0.00016912144,-0.12451185,0.03416594,-0.002416086,0.03981594,-0.0055372985,0.08319221,0.45874196,-1.4030689,1.9295543,-2.0924456,-1.5748261,2.424715,-0.1473354,0.18277274,-0.21993886,0.058923863,-0.03435841,-0.2302444,-0.9768343,0.19153613,-9.730036,0.8493211,47.661808,-1.0920172,-2.1523302,-3.4860668,-0.14882842,-0.16079058,-0.18170407,28.5625,29.6875,28.9375,33.0,35.3125,36.4375
0.26404136,-2.2859235,-1.4055727,-0.635681,-0.040441573,0.101410024,-0.16790792,-0.3971142,-0.34421223,0.05992834,-3.0762365,0.60988295,-0.00021360525,-0.1241038,0.033545084,-0.0022455622,0.039338086,-0.006966516,0.08195133,0.45837054,-1.4026964,1.9291466,-2.0923135,-1.5749096,2.424272,-0.14644007,0.18328124,-0.22144318,0.06096381,-0.033319294,-0.22810979,-0.9576807,0.28730422,-9.864111,0.93436235,47.647476,-1.137526,-2.1851847,-3.5455656,-0.13561216,-0.1732787,-0.16793379,28.5625,29.6875,28.9375,33.0,35.3125,36.4375
0.26604143,-2.1431675,-1.0409329,-0.34118542,-0.03785997,0.09968459,-0.17141393,-0.3973589,-0.3441336,0.059907485,-3.0761364,0.6096373,-0.00020866921,-0.1267636,0.032532264,-0.00064974703,0.03658998,-0.0027411801,0.07257059,0.4580942,-1.4022993,1.9287037,-2.0921824,-1.5750293,2.4238553,-0.14726038,0.18431748,-0.226034,0.059512742,-0.032732166,-0.21954718,-0.91937345,0.19153613,-9.634268,0.85826975,47.703903,-1.1757312,-2.223445,-3.5210755,-0.11654643,-0.15817556,-0.24713938,28.5625,29.6875,28.9375,33.0,35.3125,36.4375
0.26804146,-1.9877737,-0.7176004,-0.29643926,-0.027395556,0.08439559,-0.17624113,-0.3976163,-0.34409562,0.059925385,-3.0761795,0.6093996,-0.00016034182,-0.12851377,0.03210752,-0.00048116336,0.035069406,-0.0013964438,0.06732653,0.45781764,-1.4019505,1.9282359,-2.092087,-1.5750531,2.423425,-0.14842993,0.18652892,-0.22874096,0.058131248,-0.031957313,-0.21547559,-0.63206923,0.11492168,-9.653421,1.0194036,47.681515,-1.1123123,-2.149887,-3.5464869,-0.0867213,-0.17365575,-0.32459402,28.5625,29.6875,28.9375,33.0,35.3125,36.4375
0.2700414,-0.7822803,0.27455598,-0.5064732,-0.008089173,0.066230804,-0.18909766,-0.39789957,-0.34403062,0.05992247,-3.0761504,0.60925967,-0.00012599643,-0.12907575,0.031635653,0.00015354637,0.034454085,-0.0004157604,0.06602435,0.45749387,-1.4015421,1.9277462,-2.0919907,-1.5751127,2.4230177,-0.14804459,0.18675122,-0.23063312,0.058633983,-0.031844083,-0.21378753,-0.36391866,0.11492168,-9.691729,0.8493211,47.691364,-1.2170655,-2.1501532,-3.5269134,-0.04585858,-0.18609056,-0.38534886,28.5625,29.6875,28.9375,33.0,35.3125,36.4375
0.27204138,-0.47973585,0.2026377,-0.5192903,0.011638469,0.027762488,-0.17264655,-0.39817086,-0.34394386,0.059920747,-3.0760822,0.60903203,-4.9190217e-05,-0.12964262,0.032426827,-0.00036499533,0.03589842,-0.0025794948,0.07021374,0.45718104,-1.401169,1.9272922,-2.0918825,-1.5752329,2.4225717,-0.14958589,0.18881902,-0.23241806,0.060870133,-0.03221464,-0.21951506,-0.30645782,0.095768064,-9.653421,0.8023209,47.668976,-1.0521034,-2.2200418,-3.555272,-0.03995561,-0.1882298,-0.38209164,28.5625,29.6875,28.9375,33.0,35.3125,36.4375
0.27404135,-0.03106492,-0.07477866,-0.52992696,0.010542951,0.013783862,-0.18469016,-0.39842984,-0.34388125,0.059913643,-3.076071,0.6088305,-6.383826e-05,-0.13216731,0.032998502,0.00046353388,0.034005035,0.00061098335,0.07928853,0.45686826,-1.4007846,1.9268373,-2.0917757,-1.5752691,2.4221346,-0.15282077,0.18906043,-0.23414445,0.058581352,-0.031989694,-0.23182395,-0.11492168,0.17238252,-9.615114,0.83813137,47.679718,-1.1393313,-2.222665,-3.566443,-0.012641317,-0.18924326,-0.27325296,28.5625,29.6875,28.9375,33.0,35.3125,36.4375
0.27604136,-0.2548933,-0.46385986,-0.63967854,0.0033562954,-0.007260156,-0.18150426,-0.39868745,-0.34381464,0.059908856,-3.0760486,0.608475,-3.9373594e-05,-0.13248643,0.033133738,0.00014681528,0.035230212,-0.00096961355,0.0901729,0.4565802,-1.4003996,1.9263734,-2.0916555,-1.575353,2.4216275,-0.15293953,0.19105121,-0.23625182,0.060578536,-0.032446012,-0.24282293,0.076614454,0.095768064,-9.653421,0.8023209,47.67793,-1.1316137,-2.1530766,-3.5933301,0.02500783,-0.17162555,-0.16188295,28.5625,29.6875,28.9375,33.0,35.3125,36.4375
0.2780418,-0.38629308,-0.6904664,-0.51333797,-0.008856129,-0.023126248,-0.17226723,-0.39896643,-0.3437283,0.059880596,-3.0759747,0.60828924,-8.204886e-05,-0.13290812,0.034453698,-0.0013587103,0.037737105,-0.0059448127,0.08771376,0.45623142,-1.3999537,1.9258918,-2.091534,-1.575425,2.4211724,-0.15545683,0.19504651,-0.23836628,0.06424036,-0.032527424,-0.24287716,0.05746084,0.038307227,-9.576807,0.8940802,47.716442,-0.9698102,-2.1441422,-3.5482607,0.03872937,-0.18559077,-0.08836049,28.5625,29.6875,28.9375,33.0,35.3125,36.4375
0.2800414,-0.09147908,-0.69272476,-0.21212865,-0.02502918,-0.018820366,-0.17923945,-0.39925098,-0.34366918,0.059902504,-3.0760064,0.6079938,1.322355e-05,-0.13388269,0.035657182,-0.00058442884,0.038043775,-0.007112063,0.07904478,0.45591843,-1.3995936,1.9254006,-2.091437,-1.5754851,2.420671,-0.15846536,0.19468917,-0.24064326,0.06805998,-0.03226267,-0.23721884,0.076614454,0.05746084,-9.576807,0.8627467,47.63852,-0.8518418,-2.2182271,-3.4952455,0.004994074,-0.16321364,-0.13867193,28.5625,29.6875,28.9375,33.0,35.3125,36.4375
0.28204137,0.23605663,-0.26021707,-0.23579402,-0.010290764,-0.03142464,-0.17798291,-0.39952454,-0.343592,0.05991382,-3.0759487,0.60773736,3.702177e-05,-0.13466105,0.0359022,0.00020995292,0.037802078,-0.007956893,0.069203466,0.45560616,-1.399209,1.9248866,-2.0912569,-1.575581,2.420206,-0.15983725,0.19501239,-0.24365653,0.07140965,-0.031660315,-0.22875014,0.15322891,0.019153614,-9.500193,0.8314132,47.67614,-0.8557699,-2.1705334,-3.3962069,-0.001238666,-0.17628816,-0.25162613,28.5625,29.6875,28.9375,33.0,35.3125,36.4375
0.28404137,0.96977156,-0.16827166,-0.5615686,0.008384124,-0.035197996,-0.18517281,-0.39979985,-0.34351256,0.059924513,-3.075935,0.60760546,7.420805e-05,-0.13355957,0.03629094,-0.00065061037,0.03980169,-0.012698362,0.05899999,0.45525813,-1.3988602,1.9244312,-2.0911472,-1.5756286,2.4197776,-0.15965234,0.1966866,-0.24473256,0.075978436,-0.03133343,-0.21836326,0.22984336,0.11492168,-9.5385,0.83589023,47.693153,-0.8392458,-2.1875362,-3.33262,-0.035414465,-0.1968759,-0.36903018,28.5625,29.6875,28.9375,33.0,35.3125,36.4375
0.28604138,0.13684098,-0.52285016,-0.14215381,0.005949028,-0.059580136,-0.17613238,-0.40007985,-0.343436,0.0599223,-3.075867,0.6073996,6.724605e-05,-0.13380352,0.03623959,-0.00015504568,0.041066457,-0.0142304,0.05657889,0.45493463,-1.3984395,1.9239081,-2.0909784,-1.575713,2.4193344,-0.15935278,0.19783813,-0.24824093,0.080254756,-0.031807564,-0.21563712,0.1340753,0.19153613,-9.557653,0.80456203,47.674347,-0.97815716,-2.151286,-3.3442245,-0.06991027,-0.19718856,-0.4734808,28.5625,29.6875,28.9375,33.0,35.3125,36.4375
0.28804162,-0.19367684,-1.0578754,-0.06033291,0.0012652703,-0.055480555,-0.181104,-0.4003322,-0.3433594,0.059910245,-3.0757933,0.6071676,3.7680304e-05,-0.13314056,0.036417313,-1.4740275e-05,0.043431405,-0.017610706,0.06530132,0.45463485,-1.3980428,1.923438,-2.0908206,-1.575797,2.4188993,-0.15854579,0.1988071,-0.25108087,0.08613589,-0.03249847,-0.22354606,0.24899697,0.22984336,-9.500193,0.92093146,47.677036,-0.9464775,-2.22462,-3.2967753,-0.1671811,-0.17005087,-0.4794503,28.5625,29.6875,28.9375,33.0,35.3125,36.4375
0.29004142,0.33820182,-0.30473384,-0.17703998,-0.0060771974,-0.042927533,-0.18938951,-0.40056816,-0.34328178,0.059894603,-3.0757294,0.6069373,-0.00012733212,-0.13585092,0.036520932,0.00084287976,0.04173639,-0.016956054,0.0776042,0.45430952,-1.3976457,1.9229592,-2.0905921,-1.5758208,2.4184384,-0.16167364,0.20122689,-0.25622895,0.087432824,-0.031377118,-0.23897633,0.30645782,0.30645782,-9.289502,0.9365982,47.682407,-0.86379755,-2.264308,-3.2206454,-0.17854182,-0.18495116,-0.32927728,28.5625,29.6875,28.9375,33.0,35.3125,36.4375
0.2920414,-0.10517013,-0.857289,-0.14842676,-0.01201837,-0.036211267,-0.18570963,-0.40084773,-0.34320837,0.05988337,-3.0757024,0.6066956,-0.00019356787,-0.13415636,0.037539314,-0.00048436853,0.043720122,-0.0244167,0.08804578,0.45396143,-1.3972127,1.9224442,-2.0904343,-1.5758561,2.417943,-0.16278,0.20270406,-0.2563932,0.093610786,-0.029951407,-0.25053096,0.30645782,0.28730422,-9.289503,0.85826975,47.686886,-0.9393779,-2.2312756,-3.1674776,-0.24248615,-0.22410843,-0.23036122,28.5625,29.6875,28.9375,33.0,35.3125,36.4375
0.29404137,-0.8042668,-1.0770991,-0.026884057,-0.027463723,-0.036130026,-0.17194591,-0.40110475,-0.34315366,0.05990683,-3.0756836,0.60629016,-0.00018224453,-0.13450126,0.038444243,-0.0013609815,0.04469656,-0.025864849,0.08579068,0.45369673,-1.3968397,1.9219073,-2.0902193,-1.57594,2.4174275,-0.16439147,0.2041898,-0.25619346,0.09363087,-0.030214833,-0.24988444,0.095768064,0.28730422,-9.289503,0.8627467,47.67345,-0.81392455,-2.2212055,-3.375254,-0.2941754,-0.23885885,-0.17151651,28.5625,29.6875,28.9375,33.0,35.3125,36.4375
0.29604137,-0.8673652,-1.435691,0.08959601,-0.031426758,-0.01208144,-0.17924882,-0.4013821,-0.3430656,0.05991283,-3.0756307,0.6060736,-0.00019424796,-0.1346591,0.038542368,-0.0015742535,0.045467846,-0.025514161,0.07774628,0.45334893,-1.3964553,1.9214047,-2.0900404,-1.5760125,2.4169514,-0.16404188,0.20485532,-0.25647137,0.09328595,-0.0310579,-0.24148363,0.019153614,0.28730422,-9.270349,0.82694155,47.692257,-0.8754305,-2.1563525,-3.3706803,-0.3236882,-0.23548955,-0.2560444,28.5625,29.6875,28.9375,33.0,35.3125,36.4375
0.2980413,-1.1320664,-1.1906021,0.25975698,-0.0366947,0.009955318,-0.18576923,-0.40163755,-0.3430068,0.05989297,-3.0756106,0.6056877,-0.00030185535,-0.13604869,0.038222086,-0.00031279644,0.043477792,-0.021624874,0.0727198,0.45304853,-1.396011,1.9208912,-2.0898616,-1.5760487,2.4164126,-0.16459788,0.20362993,-0.257539,0.091217406,-0.030998116,-0.23700975,-0.038307227,0.28730422,-9.270349,0.8672237,47.693153,-0.75696313,-2.0610785,-3.577023,-0.3390884,-0.26919246,-0.35705402,28.5625,29.6875,28.9375,33.0,35.3125,36.4375
0.30004135,-1.6792637,-1.407164,0.13400874,-0.026567934,0.022133112,-0.18491668,-0.40192685,-0.34292826,0.059904426,-3.0755754,0.6055086,-0.0002954125,-0.13802078,0.038246397,0.0004179652,0.040831428,-0.017749825,0.07019292,0.45269984,-1.3956151,1.9203652,-2.0896952,-1.5761088,2.4159567,-0.1666196,0.20329991,-0.2580352,0.08737736,-0.03034308,-0.23650685,-0.076614454,0.28730422,-9.270349,0.8090337,47.682407,-0.83992434,-2.0622153,-3.52718,-0.3157295,-0.2846112,-0.38653135,28.5625,29.6875,28.9375,33.0,35.3125,36.4375
0.3020414,-2.3106835,-1.2001506,-0.028380185,-0.016841318,0.021458799,-0.18689863,-0.40219438,-0.34285977,0.059890978,-3.0755422,0.60528463,-0.00039712037,-0.14047243,0.036538992,0.0020874343,0.03792157,-0.010561395,0.07905574,0.4523647,-1.3951826,1.9198507,-2.0895178,-1.5761327,2.415486,-0.16521652,0.2035264,-0.26107362,0.08239824,-0.030953214,-0.2439585,-0.11492168,0.11492168,-9.3661175,0.8851263,47.67345,-1.0396504,-1.9373521,-3.5283828,-0.2660941,-0.28499848,-0.3788706,28.5625,29.6875,28.9375,33.0,35.3125,36.4375
0.3040415,-2.1706553,-0.72326773,-0.06839039,-0.017617201,0.03933257,-0.19175741,-0.40247688,-0.34279186,0.059891026,-3.0755384,0.60491127,-0.00040662003,-0.14299019,0.035281114,0.0031053545,0.034482937,-0.005554343,0.09275093,0.45204064,-1.3947614,1.9193238,-2.0893638,-1.5761923,2.4149294,-0.16555089,0.20475304,-0.26390275,0.077890046,-0.030147042,-0.25799,-0.3256114,0.15322891,-9.404425,0.9388393,47.661808,-1.0583253,-1.8431358,-3.5655618,-0.2334136,-0.32658428,-0.22289394,28.5625,29.6875,28.9375,33.0,35.3125,36.4375
0.30604142,-2.1284697,-0.7759952,0.03017678,-0.0023285071,0.060217857,-0.18672138,-0.40274996,-0.34272787,0.059885915,-3.0755448,0.60454476,-0.00045472276,-0.14505395,0.034134544,0.0041741333,0.031887777,-0.001081892,0.10069979,0.45171672,-1.3943409,1.9188088,-2.0892084,-1.576228,2.4143758,-0.16537657,0.2055852,-0.26665834,0.07459405,-0.029835815,-0.2657633,-0.38307226,0.1340753,-9.500193,0.7239871,47.677036,-1.1258696,-1.7915542,-3.5456176,-0.1741116,-0.3485643,-0.10910992,28.5625,29.6875,28.9375,33.0,35.3125,36.4375
0.30804136,-2.1638737,-0.26182812,-0.32800052,-0.004895923,0.061077908,-0.18998413,-0.4030649,-0.34264413,0.0599074,-3.07551,0.60427123,-0.00035948885,-0.14671049,0.033814177,0.004220287,0.03192185,0.0013269909,0.09743671,0.45136875,-1.393932,1.9182471,-2.0890539,-1.5763367,2.4138615,-0.16540542,0.20785446,-0.26902348,0.07252104,-0.030917972,-0.26252106,-0.4405331,0.095768064,-9.5385,0.842603,47.67345,-1.2290641,-1.8825183,-3.5494866,-0.12700829,-0.35484305,-0.09402479,28.5625,29.6875,28.9375,33.0,35.3125,36.4375
0.31004158,-1.6983731,-0.11801469,-0.29927927,-0.01566647,0.07982772,-0.19140054,-0.4033343,-0.34257403,0.059880104,-3.0754507,0.6039582,-0.0003935621,-0.14889033,0.034067087,0.0045879,0.032517526,0.0035326637,0.08533033,0.45106852,-1.3934746,1.917745,-2.0889223,-1.5764211,2.4133735,-0.16665183,0.21010724,-0.27247047,0.07202721,-0.032400306,-0.2516475,-0.57460845,0.095768064,-9.595961,0.83365434,47.66987,-1.1620185,-1.8145387,-3.3574157,-0.09196481,-0.38045567,-0.17430496,28.5625,29.6875,28.9375,33.0,35.3125,36.4375
0.31204137,-2.431045,-0.60655785,-0.26923084,-0.012690997,0.06388442,-0.1710892,-0.40365893,-0.3424977,0.05990651,-3.0754573,0.60373783,-0.00031833284,-0.15058757,0.035336096,0.0035912022,0.03423317,0.0026771652,0.072329454,0.45069546,-1.393065,1.9171733,-2.0887792,-1.5764817,2.412862,-0.1694598,0.2136266,-0.2743722,0.07196398,-0.033528343,-0.24144688,-0.80445176,0.1340753,-9.519346,0.9254084,47.705692,-1.2275593,-1.9868424,-3.3495088,-0.0761931,-0.37579858,-0.3279344,28.5625,29.6875,28.9375,33.0,35.3125,36.4375
0.31404138,-2.220594,-0.34363383,-0.7553617,0.013373044,0.04753887,-0.17555921,-0.4039497,-0.34244668,0.05991206,-3.075468,0.6035092,-0.00033275358,-0.14982395,0.034520574,0.0020265603,0.036438003,-0.00011420678,0.069529496,0.45037267,-1.3926312,1.9166201,-2.0886347,-1.5765055,2.4123952,-0.166764,0.21770953,-0.27586418,0.072864905,-0.034283932,-0.23594455,-0.59376204,0.095768064,-9.634268,0.9388393,47.684196,-1.3627715,-2.067494,-3.4002047,-0.046038363,-0.38847193,-0.46204102,28.5625,29.6875,28.9375,33.0,35.3125,36.4375
0.31604144,-1.5195372,-0.39079717,-0.88682026,0.015118374,0.054977544,-0.182576,-0.40426025,-0.34239373,0.05992921,-3.0754867,0.6031814,-0.00024497323,-0.14991339,0.035009824,0.001183843,0.03830389,-0.0019857807,0.07622944,0.45006064,-1.3921982,1.916047,-2.0885146,-1.576578,2.4118762,-0.16698924,0.21987237,-0.27683204,0.07410208,-0.03518141,-0.24286477,-0.53630114,0.05746084,-9.825804,0.86945957,47.683304,-1.3163414,-2.1480389,-3.520984,-0.03210237,-0.39225656,-0.48151797,28.5625,29.6875,28.9375,33.0,35.3125,36.4375
0.31804135,-1.5132343,-0.16040403,-0.3401854,-0.03199944,0.06453713,-0.1968917,-0.40456477,-0.34230828,0.059950877,-3.075445,0.6028776,-0.00020827215,-0.1497684,0.036132995,0.00066182954,0.040074077,-0.0032888523,0.08935991,0.44971216,-1.3917896,1.9154733,-2.088311,-1.5766743,2.4113433,-0.16799192,0.22002113,-0.2760998,0.07504831,-0.036287155,-0.25699094,-0.49799395,0.038307227,-9.710882,0.8157518,47.685097,-1.4141002,-2.1719823,-3.6137643,-0.032245636,-0.40139294,-0.362104,28.5625,29.6875,28.9375,33.0,35.3125,36.4375
0.32004133,-1.9915597,-0.6673017,-0.48345536,-0.028704446,0.058683503,-0.18288696,-0.40488508,-0.3422234,0.059951447,-3.0754104,0.6026345,-0.00013188063,-0.14993767,0.03728456,-5.9666518e-06,0.04302518,-0.006242871,0.0994588,0.44935188,-1.3913447,1.9149264,-2.0882018,-1.5767711,2.4108357,-0.16910009,0.222075,-0.2778604,0.078597456,-0.03771927,-0.26818895,-0.2681506,-0.05746084,-9.672575,0.8291774,47.67166,-1.414424,-2.1827297,-3.6176906,-0.013039701,-0.382922,-0.21484667,28.5625,29.6875,28.9375,33.0,35.3125,36.4375
0.3220414,-1.4528102,-0.68259835,-0.48949352,0.0021261515,0.035797056,-0.16836518,-0.40518785,-0.34214926,0.05993959,-3.0753903,0.60230803,-0.00015372867,-0.15181564,0.038802113,0.0001629833,0.04475024,-0.005847914,0.09494341,0.44900268,-1.3908757,1.9143714,-2.0880578,-1.5768317,2.4102852,-0.17210758,0.22350962,-0.28033394,0.08001654,-0.03946373,-0.26666722,-0.19153613,-0.076614454,-9.653421,0.8717007,47.678825,-1.229733,-2.2203562,-3.585166,-0.01622482,-0.37790468,-0.20742567,28.5625,29.6875,28.9375,33.0,35.3125,36.4375
0.3240414,-0.39346486,0.6104935,0.09052937,-0.0082998555,0.030705534,-0.18189287,-0.40550038,-0.34207553,0.05995287,-3.0753636,0.6020983,-0.00011213539,-0.15413842,0.040365417,0.0008246568,0.045475572,-0.0049601463,0.08365211,0.44865352,-1.3904426,1.9137982,-2.0879014,-1.5769037,2.4098086,-0.17602278,0.22441165,-0.2833558,0.08166874,-0.04048294,-0.25928298,-0.2873042,-0.1340753,-9.423578,0.96569055,47.668976,-1.1766682,-2.1399987,-3.5219865,-0.020829981,-0.37770066,-0.2888102,28.5625,29.6875,28.9375,33.0,35.3125,36.4375
0.32604137,-0.5733171,0.5210794,-0.22821115,0.052191094,-0.029677162,-0.17343791,-0.4058261,-0.34198162,0.059957154,-3.0753298,0.60176647,-3.810014e-05,-0.15347818,0.04125026,0.0004787214,0.04993923,-0.009533184,0.07892983,0.4482816,-1.3899972,1.913236,-2.087767,-1.5770129,2.4092338,-0.17558344,0.22643504,-0.28666508,0.08900821,-0.042502515,-0.2541074,-0.21068975,-0.076614454,-9.346964,0.842603,47.674347,-1.1562765,-2.149733,-3.4852698,-0.08222443,-0.37282887,-0.36408532,28.5625,29.6875,28.9375,33.0,35.3125,36.4375
0.32804143,0.25724435,1.2479562,-0.1736974,0.067234606,-0.028957678,-0.17847139,-0.40613025,-0.34191304,0.05996183,-3.0752935,0.6015294,5.752533e-06,-0.15542726,0.04214629,0.002087523,0.050336957,-0.0074495063,0.07752082,0.44795695,-1.3895533,1.9126724,-2.0876234,-1.5770973,2.4087658,-0.17784736,0.22578683,-0.29021117,0.091461465,-0.04378541,-0.2549525,-0.17238252,-0.15322891,-9.289503,0.9030289,47.68062,-1.1061594,-2.0927973,-3.398403,-0.08657929,-0.35468644,-0.42081487,28.5625,29.6875,28.9375,33.0,35.3125,36.4375
0.33004144,0.3448487,1.6043416,-0.13265607,0.07133308,-0.023315083,-0.18109678,-0.4064468,-0.34182763,0.05996898,-3.075246,0.6012253,-3.4221e-05,-0.15531,0.043134242,0.0020051815,0.052809995,-0.010537101,0.08817205,0.44758478,-1.3890847,1.9120544,-2.0873935,-1.5771693,2.4082098,-0.1787075,0.2267336,-0.29232463,0.09637689,-0.04475895,-0.2664545,-0.17238252,-0.19153613,-9.270349,0.85155696,47.667187,-1.0836147,-1.9538865,-3.3020034,-0.120181754,-0.34203926,-0.33977225,28.5625,29.6875,28.9375,33.0,35.3125,36.4375
0.33204144,-0.36449465,1.3974671,-0.2728251,0.070120595,-0.026804773,-0.18405104,-0.40673062,-0.34171954,0.05995961,-3.0751445,0.6009102,-9.3479706e-05,-0.15598144,0.044410575,0.0023573206,0.054259717,-0.012436947,0.09963945,0.44722408,-1.3886522,1.911517,-2.087165,-1.577278,2.4076653,-0.1809925,0.22711018,-0.29456413,0.100446776,-0.04535312,-0.280198,-0.095768064,-0.13407528,-9.32781,0.8717007,47.686886,-1.0435369,-1.9391813,-3.3276687,-0.18450056,-0.34610212,-0.22605708,28.5625,29.6875,28.9375,33.0,35.3125,36.4375
0.33404136,-1.3895628,-0.15270646,-0.070109144,0.038392086,0.004936199,-0.15648872,-0.40704724,-0.3416359,0.059975978,-3.0750954,0.6005941,-0.00010771922,-0.15696564,0.04570126,0.0031637764,0.056958787,-0.011767211,0.09961011,0.44686374,-1.388196,1.91089,-2.0869248,-1.5773629,2.4071138,-0.18218705,0.22685456,-0.2968723,0.10353617,-0.048112217,-0.28134188,-0.19153614,-0.11492168,-9.385271,0.8784135,47.705692,-0.9989092,-1.7667878,-3.3301277,-0.246835,-0.2934626,-0.15350378,28.5625,29.6875,28.9375,33.0,35.3125,36.4375
0.33604133,-1.0669705,-0.14103042,0.021730293,-0.008123972,0.057492763,-0.19203378,-0.40737057,-0.34154233,0.05998825,-3.0750208,0.60023993,-9.890724e-05,-0.15803908,0.047577597,0.002512871,0.059441067,-0.014663288,0.089334145,0.44650254,-1.3877267,1.9102567,-2.086684,-1.5774826,2.4065409,-0.18559748,0.22924855,-0.29906672,0.10702097,-0.049096197,-0.2744655,-0.3256114,-0.11492168,-9.346964,0.9030289,47.704796,-0.9809026,-1.7765563,-3.4059124,-0.31085366,-0.28258497,-0.18851262,28.5625,29.6875,28.9375,33.0,35.3125,36.4375
0.33804134,-1.6479524,-0.69455415,-0.12749352,-0.020946657,0.074749134,-0.18273193,-0.4076963,-0.34146768,0.06001024,-3.0750105,0.5999361,-6.133538e-05,-0.15791981,0.046471655,0.0007256053,0.05908259,-0.015166723,0.080397405,0.44614306,-1.3872802,1.9096392,-2.0864942,-1.5775551,2.405993,-0.18376186,0.23306336,-0.29870632,0.10318067,-0.04852723,-0.26369506,-0.40222588,-0.076614454,-9.461885,0.8023209,47.672558,-1.0881201,-2.0828097,-3.327128,-0.31718093,-0.27467477,-0.31692353,28.5625,29.6875,28.9375,33.0,35.3125,36.4375
0.34004143,-1.9951,-1.1721027,-0.09913163,-0.038219895,0.09636906,-0.17378029,-0.40799692,-0.3413761,0.060007192,-3.0749252,0.59973097,-0.000106783795,-0.15911639,0.04740483,2.6781318e-05,0.060670264,-0.014860633,0.07013873,0.4457829,-1.3868238,1.9090613,-2.0862787,-1.5776395,2.4055157,-0.18526705,0.23529103,-0.29962012,0.1023031,-0.050088607,-0.25492576,-0.45968673,0.019153614,-9.519346,0.85155696,47.658226,-0.9672917,-2.0555267,-3.4684289,-0.32352006,-0.2614739,-0.4588654,28.5625,29.6875,28.9375,33.0,35.3125,36.4375
0.34204143,-2.02798,-1.1867315,-0.39494258,-0.028277963,0.08952658,-0.18891646,-0.40834692,-0.34127015,0.060038,-3.0748587,0.5995228,9.6284775e-06,-0.16209975,0.04716607,0.00036576236,0.059283603,-0.0079658935,0.07532708,0.4453865,-1.386391,1.90844,-2.0860898,-1.5777715,2.4049978,-0.18605971,0.23676673,-0.30053893,0.094838284,-0.051874004,-0.26089388,-0.21068975,0.038307227,-9.519346,0.91198283,47.66271,-0.981001,-2.0012891,-3.5255198,-0.28085667,-0.21123415,-0.5233251,28.5625,29.6875,28.9375,33.0,35.3125,36.4375
0.34404138,-1.6096936,-0.9460591,-0.38961443,-0.014638096,0.059128303,-0.18699762,-0.40865797,-0.34115845,0.059998386,-3.074726,0.5991987,-5.3866577e-05,-0.16506083,0.047368504,0.0013003256,0.058763307,-0.0010165009,0.09093729,0.44501388,-1.3858616,1.9078654,-2.0859005,-1.577905,2.4044397,-0.1870568,0.23711531,-0.30192074,0.089211605,-0.05455139,-0.2774753,-0.2681506,0.17238252,-9.519346,0.92093146,47.660015,-1.0786511,-2.0339208,-3.6217384,-0.20834066,-0.17237434,-0.37355447,28.5625,29.6875,28.9375,33.0,35.3125,36.4375
0.3460414,-1.4589683,-1.1938953,0.073908284,-0.022960637,0.047207184,-0.17377163,-0.40899166,-0.3410902,0.060021818,-3.0747623,0.59881294,7.595373e-05,-0.16687198,0.04425471,0.0027403824,0.053850934,0.0044648126,0.10764432,0.44466713,-1.3854295,1.9072794,-2.0857937,-1.5779885,2.4038472,-0.18421607,0.2384482,-0.3058494,0.08459607,-0.05256406,-0.29135627,-0.34476504,0.24899697,-9.423578,0.8112748,47.67166,-1.2852092,-1.9440464,-3.523327,-0.13518131,-0.1647988,-0.21379475,28.5625,29.6875,28.9375,33.0,35.3125,36.4375
0.34804142,-1.0738771,-0.9092724,-0.38229868,-0.009417054,0.017036064,-0.17647977,-0.40935674,-0.34098032,0.060025115,-3.0746891,0.5985699,0.00019507631,-0.1683452,0.04340219,0.0029747908,0.05317151,0.007156906,0.1049986,0.44425973,-1.384936,1.9066619,-2.0856636,-1.5781325,2.4032974,-0.18343331,0.24053241,-0.30843735,0.08234239,-0.053109642,-0.28792247,-0.36391866,0.4405331,-9.346964,0.9388393,47.70032,-1.332248,-1.8561988,-3.5556757,-0.054245632,-0.1338827,-0.16726923,28.5625,29.6875,28.9375,33.0,35.3125,36.4375
0.3500414,-0.51651174,-1.5149093,-0.5387491,-0.0016628616,0.009046032,-0.16568069,-0.40967754,-0.34088874,0.060037438,-3.074634,0.5982191,0.0002147472,-0.16820522,0.044176806,0.0017269499,0.055144265,0.0044186795,0.09638133,0.44389924,-1.384479,1.9060472,-2.085447,-1.5782408,2.4027247,-0.18413933,0.24289821,-0.3087576,0.083629645,-0.053692847,-0.2800039,-0.4213795,0.38307226,-9.576807,0.92093146,47.684196,-1.3974462,-1.938992,-3.4654021,-0.036848105,-0.09527463,-0.30617237,28.5625,29.6875,28.9375,33.0,35.3125,36.4375
0.35204133,-0.4653817,-1.7723094,-0.5428919,-0.050558705,0.015856959,-0.17370823,-0.41002408,-0.3407716,0.060036294,-3.074507,0.5980235,0.00027208813,-0.16939776,0.04433785,0.0021792203,0.05381948,0.0034699794,0.08965148,0.44350258,-1.383986,1.9054264,-2.0852554,-1.5783962,2.4022222,-0.18624452,0.24414784,-0.3118451,0.08572196,-0.05209125,-0.2753862,-0.2681506,0.38307226,-9.519346,1.0216395,47.68062,-1.3666044,-1.7867181,-3.5501418,-0.04296089,-0.096122846,-0.3900438,28.5625,29.6875,28.9375,32.9375,35.3125,36.4375
0.3540414,-0.6604127,-2.2995722,-0.34083894,-0.06986949,0.006955961,-0.17980431,-0.41036177,-0.34069514,0.060043365,-3.074474,0.5976109,0.00030987462,-0.16967538,0.04458207,0.0019079365,0.05361287,0.0010863225,0.0932071,0.44315445,-1.3834808,1.9047717,-2.0850627,-1.5785035,2.4016204,-0.18746208,0.24566743,-0.31363708,0.08797079,-0.050926317,-0.28016534,-0.17238252,0.47884035,-9.481039,0.91198283,47.691364,-1.2897453,-1.8600385,-3.5393407,-0.038547367,-0.09518303,-0.39288187,28.5625,29.6875,28.9375,32.9375,35.3125,36.4375
0.35604137,-0.59640527,-2.282998,-0.06682796,-0.094717294,0.017699944,-0.18144841,-0.41069663,-0.34061855,0.06004495,-3.0744488,0.59725314,0.0003219347,-0.17132941,0.044234704,0.0028161376,0.05038071,0.0013280372,0.10468671,0.44279352,-1.3829765,1.9041332,-2.084883,-1.5785865,2.4010391,-0.18976086,0.24647792,-0.31696215,0.08872245,-0.04821232,-0.29396033,-0.24899697,0.40222588,-9.442732,0.87617236,47.705692,-1.2248985,-1.7791266,-3.473617,-0.0145341195,-0.09823805,-0.25761414,28.5625,29.6875,28.9375,32.9375,35.3125,36.4375
0.35804138,-0.6451094,-2.0639284,-0.047785703,-0.07913564,0.026164386,-0.17993127,-0.4110782,-0.34052813,0.06004955,-3.074428,0.5969,0.00040795677,-0.17166811,0.044051945,0.0019758516,0.049717173,-0.0012945379,0.11411517,0.4423852,-1.3824351,1.9034518,-2.084739,-1.5786937,2.4004128,-0.19056237,0.2493292,-0.31873488,0.08959181,-0.04655824,-0.30420172,-0.05746084,0.3256114,-9.500193,0.8940802,47.719128,-1.1841507,-1.840863,-3.4982061,-0.008646739,-0.10327873,-0.11997921,28.5625,29.6875,28.9375,32.9375,35.3125,36.4375
0.36004144,-0.4875928,-1.225184,-0.07286841,-0.042529933,0.0041238586,-0.1765451,-0.41141775,-0.3404624,0.060051713,-3.074455,0.5964673,0.0004348899,-0.17173992,0.04401297,0.00077590015,0.048951533,-0.005381679,0.109510615,0.44202513,-1.3819294,1.9028176,-2.084595,-1.5787529,2.3997788,-0.19190833,0.25261277,-0.32038888,0.091312595,-0.044112027,-0.300959,-0.038307227,0.28730422,-9.423578,0.86498255,47.67614,-1.121104,-1.8250108,-3.491911,0.010111837,-0.13897383,-0.1020565,28.5625,29.6875,28.9375,32.9375,35.3125,36.4375
0.36204135,-0.5344973,-0.58135694,0.23840863,-0.014028697,0.00092122325,-0.15980443,-0.4117761,-0.3403592,0.0600695,-3.0744247,0.5962771,0.00047353955,-0.17253578,0.04443443,0.0024050842,0.04658701,-0.0056216144,0.09543252,0.44159234,-1.3814614,1.9021839,-2.0844138,-1.5788244,2.3992312,-0.19454001,0.25066298,-0.32270926,0.094834425,-0.041820318,-0.28952777,-0.40222588,0.24899697,-9.155427,0.8403672,47.691364,-1.0677637,-1.7616527,-3.5611515,-0.005634013,-0.1537433,-0.214143,28.5625,29.6875,28.9375,32.9375,35.3125,36.4375
0.3640415,0.1737135,0.7839334,0.45336094,0.009460232,0.01162584,-0.1803155,-0.41214237,-0.3402787,0.060077205,-3.0743964,0.5960504,0.0005637828,-0.1735201,0.04487077,0.002552255,0.045922905,-0.008343447,0.07914417,0.4412075,-1.3809443,1.9015259,-2.0842807,-1.5789193,2.3987083,-0.19707046,0.25265348,-0.32640937,0.09878569,-0.039986677,-0.2757816,-0.2681506,0.0,-9.059659,0.88960326,47.65643,-1.0168853,-1.7964237,-3.412941,-0.021933911,-0.18913254,-0.40582746,28.5625,29.6875,28.9375,32.9375,35.3125,36.4375
0.36604136,0.14039584,1.228771,-0.14631903,0.06132489,-0.02479745,-0.17414474,-0.41248396,-0.34019166,0.06008225,-3.0743542,0.59581196,0.0005280426,-0.17199215,0.046654206,0.0002766722,0.049872804,-0.01831475,0.077337824,0.44081026,-1.3804386,1.9008678,-2.0840623,-1.5789794,2.3981676,-0.19914538,0.25651765,-0.32771552,0.10689503,-0.039318956,-0.2760525,-0.038307227,-0.095768064,-9.136273,0.9567419,47.717335,-0.865217,-1.896148,-3.4423616,-0.06777244,-0.19418159,-0.47822034,28.5625,29.6875,28.9375,32.9375,35.3125,36.4375
0.3680414,0.21320973,1.2387015,0.50731695,0.078779384,-0.019366022,-0.171198,-0.41281712,-0.34011167,0.060059253,-3.0743139,0.59550816,0.00043738438,-0.17298605,0.04780792,-0.000715729,0.050609555,-0.021561055,0.089912586,0.44042528,-1.3798846,1.9002222,-2.0838702,-1.5790275,2.397598,-0.20216054,0.25962213,-0.3296958,0.10886184,-0.03873327,-0.29164296,-0.11492168,-0.15322891,-8.983045,0.9030289,47.690468,-0.75404274,-1.9429573,-3.4405327,-0.11847095,-0.22788349,-0.40796906,28.5625,29.6875,28.9375,32.9375,35.3125,36.4375
0.37004134,0.5083227,1.7563441,0.71723086,0.062706776,0.011390108,-0.1685847,-0.41315135,-0.34001946,0.060057975,-3.0742946,0.59513056,0.000360597,-0.17067729,0.047758784,-0.0018550634,0.053720772,-0.028877556,0.10523826,0.44001842,-1.3793794,1.8995761,-2.0836403,-1.5790757,2.3969576,-0.20010546,0.26175693,-0.33138242,0.11621778,-0.038538378,-0.30491248,-0.26815057,-0.34476504,-8.944737,0.88960326,47.667187,-0.9017878,-2.071321,-3.4586697,-0.18196647,-0.24275696,-0.23881269,28.5625,29.6875,28.9375,32.9375,35.3125,36.4375
0.37204137,-0.19544867,1.6040555,0.5567655,0.0685516,0.017071,-0.17774375,-0.41349006,-0.33991674,0.060052548,-3.0741894,0.59482354,0.00032219753,-0.17150795,0.0468378,-0.000913523,0.05320764,-0.028005991,0.105627164,0.43963468,-1.3788501,1.8989061,-2.083388,-1.5791954,2.3963954,-0.199032,0.262835,-0.33533645,0.118042216,-0.038498014,-0.30422306,-0.34476504,-0.36391866,-9.040505,0.8291774,47.67166,-1.0413942,-2.1298132,-3.3730822,-0.22688419,-0.25990298,-0.20853221,28.5625,29.6875,28.9375,32.9375,35.3125,36.4375
0.3740414,-0.92355925,1.0289917,0.7997114,0.046280827,0.038336806,-0.17846116,-0.41385257,-0.33983302,0.060056135,-3.074156,0.5945895,0.00030562855,-0.17086738,0.04593045,-0.00092080544,0.053393774,-0.028512944,0.10011222,0.4392275,-1.3783102,1.8982133,-2.083185,-1.5792555,2.3958464,-0.19676541,0.26347467,-0.33643508,0.11907292,-0.03843895,-0.29643968,-0.4405331,-0.2681506,-9.040505,0.91421866,47.691364,-1.17242,-2.0942538,-3.2789316,-0.2726063,-0.29369783,-0.31133342,28.5625,29.6875,28.9375,32.9375,35.3125,36.4375
