Tylouw/Master_Thesis_Code/training_data/batch_1/small_rod_t0.3/sample_49_session_2.csv
timestamp[s],tcp_force_x[N],tcp_force_y[N],tcp_force_z[N],tcp_force_rx[Nm?],tcp_force_ry[Nm?],tcp_force_rz[Nm?],tcp_pose_x[m],tcp_pose_y[m],tcp_pose_z[m],tcp_pose_rx[rot_vec_x],tcp_pose_ry[rot_vec_y],tcp_pose_rz[rot_vec_z],tcp_velo_x[m/s],tcp_velo_y[m/s],tcp_velo_z[m/s],tcp_velo_rx[rot_vec_x/s],tcp_velo_ry[rot_vec_y/s],tcp_velo_rz[rot_vec_z/s],q1[rad],q2[rad],q3[rad],q4[rad],q5[rad],q6[rad],qd1[rad/s],qd2[rad/s],qd3[rad/s],qd4[rad/s],qd5[rad/s],qd6[rad/s],tool_acc_x,tool_acc_y,tool_acc_z,current_of_whole_robot[A],voltage_of_whole_robot[V],current_J1[A],current_J2[A],current_J3[A],current_J4[A],current_J5[A],current_J6[A],temp_J1[C],temp_J2[C],temp_J3[C],temp_J4[C],temp_J5[C],temp_J6[C]
1.0269869e-06,-0.066151,0.32119346,1.2371953,-0.029415976,0.0092748655,-0.026578307,-0.38102502,-0.3485347,0.059980076,-3.0785341,0.624823,-0.00020092598,0.0023423366,0.0012124119,-0.0020025144,0.0024212352,-0.0049345386,6.0916176e-05,0.4778342,-1.4259939,1.9577507,-2.100797,-1.5707458,2.452752,-7.071598e-05,-1.8131084e-05,0.004326514,0.0011863917,0.00013114596,-0.00013429167,0.0,0.21068975,-8.810662,0.69937176,47.72719,-0.0010483926,-2.7412932,-2.5162196,-0.4508254,0.15523191,0.058499046,28.5,29.625,28.875,32.875,35.25,36.375
0.002055083,-0.19417045,0.1569631,1.2816466,-0.019295735,0.0047620386,-0.0264479,-0.3810447,-0.34851158,0.059954464,-3.078483,0.62487036,-0.00019094055,-0.00042167582,-0.00022767202,-0.0028453763,-0.00088147813,0.0013966247,6.163811e-05,0.47779807,-1.4259446,1.9577621,-2.100837,-1.5707816,2.452752,-6.993101e-05,0.003736391,0.0044909096,-0.0098733455,0.0001274404,-0.00013148872,-0.038307227,0.11492168,-8.734048,0.78888994,47.69763,-0.0259188,-2.7643461,-2.5056279,-0.41985467,0.15085688,0.052640907,28.5,29.625,28.875,32.875,35.25,36.375
0.004054336,-0.20720677,0.16391961,1.0731711,-0.017948719,0.00307159,-0.02646457,-0.3810589,-0.34852144,0.05996079,-3.0785034,0.62483597,-0.0001360319,-0.0021186487,-0.001145524,-0.002452227,-0.0030544037,0.005572178,0.00012242999,0.47781014,-1.4259322,1.9577392,-2.1008618,-1.5707935,2.4527402,-8.055307e-06,0.004732145,0.0035389278,-0.014624219,0.0001239337,-0.00012880056,0.019153614,0.13407528,-8.7532015,0.7418897,47.689575,0.04402134,-3.2076468,-2.6776474,-0.28547823,0.15231371,0.05571414,28.5,29.625,28.875,32.875,35.25,36.375
0.00605387,0.22499613,0.47347596,1.0474721,-0.004258997,-0.0025091462,-0.024526687,-0.38104174,-0.34850812,0.059933715,-3.0784533,0.6248449,-0.00019811396,-0.0011510038,-0.0006442858,-0.0016174716,-0.001734342,0.0030538605,0.00012693314,0.47781014,-1.4259089,1.957774,-2.1008594,-1.5708054,2.452752,-1.0807222e-07,0.0029279757,0.002361835,-0.008799646,0.00012060179,-0.0001262199,-0.038307227,0.24899697,-8.714894,0.74413085,47.689575,0.005183731,-3.0880742,-2.5711973,-0.32256675,0.16053294,0.05492911,28.5,29.625,28.875,32.875,35.25,36.375
0.0080538,0.3929038,0.99904567,0.4419554,0.02629835,-0.03540353,-0.018958185,-0.381055,-0.34852335,0.059939243,-3.0785246,0.6248788,-0.00019822287,-0.0008158402,-0.00046778188,4.0879208e-05,-0.0016190893,0.0028541728,0.00013711906,0.47778618,-1.42591,1.9577731,-2.1009057,-1.5707458,2.4527402,-1.4499268e-09,9.609359e-05,0.0007318011,-0.0041073803,0.00011746289,-0.00013685622,0.019153614,0.24899697,-8.829816,0.7172743,47.690468,0.044353604,-2.8657718,-2.524324,-0.37395495,0.15944743,0.049449123,28.5,29.625,28.875,32.875,35.25,36.375
0.010054006,0.4398495,1.2687835,0.0825226,0.029538501,-0.039564744,-0.024937065,-0.3810652,-0.34850204,0.059938014,-3.078486,0.6248903,-0.00017797376,-0.00037045442,-0.00023474514,6.3729814e-05,-0.00079464074,0.0012780738,0.00013841919,0.4777621,-1.42591,1.9577731,-2.1008933,-1.5707816,2.4527283,-1.945262e-11,1.2892182e-06,0.0002520525,-0.0017541207,0.00011447506,-0.0001383961,0.095768064,0.13407528,-9.136273,0.7105615,47.66987,-0.54918975,-2.5069232,-2.914396,-0.41728917,0.1478959,-0.018791104,28.5,29.625,28.875,32.875,35.25,36.375
0.012053793,0.37992397,0.46563825,-0.077980086,-0.004601201,-0.012389319,-0.03034657,-0.38105482,-0.34852123,0.05994547,-3.078494,0.6248917,-0.00019168128,-1.0366537e-05,1.9357985e-06,-0.0012417604,0.00071836717,-0.0016796328,5.665415e-05,0.47779807,-1.4259088,1.9577492,-2.100869,-1.5707697,2.452764,-0.00010083661,0.0026489526,9.167955e-06,-0.0008367784,0.00013246719,-0.00015713985,0.11492168,0.038307227,-9.308657,0.7150385,47.692257,-0.7514409,-2.5477872,-2.9404726,-0.43944442,0.19059727,-0.073225796,28.5,29.625,28.875,32.875,35.25,36.375
0.014053495,-0.12557265,-0.4432426,-0.32974258,-0.044753257,0.0078122104,-0.029567488,-0.38104776,-0.34851706,0.059912745,-3.0784733,0.62485,-0.0003071997,-0.003554455,0.005304213,-0.006111318,0.005183027,-0.010370478,-0.0028155954,0.47778168,-1.4258456,1.9577492,-2.100857,-1.5707458,2.4527242,-0.012831568,0.012419993,1.2299982e-07,-0.00082979316,0.00016023168,-0.010014126,0.076614454,0.05746084,-9.557653,0.7933669,47.668976,-0.35285676,-3.022296,-3.0948377,-0.455735,0.21412459,-0.067587286,28.5,29.625,28.875,32.875,35.25,36.375
0.016054722,-0.7881637,-0.5869918,-0.11351054,-0.074344136,0.028215075,-0.03889494,-0.38106892,-0.34849897,0.05991265,-3.0784607,0.6248241,-0.00028196027,-0.0060766176,0.00460062,-0.0037426965,0.0025003029,-0.0054479484,0.00444548,0.47774538,-1.4258342,1.9577364,-2.100857,-1.5707697,2.4526734,-0.013984336,0.011379088,-0.004127032,-0.0012686221,0.00026592435,-0.018426156,-0.15322891,0.15322891,-9.595961,0.7284641,47.687782,-0.31612974,-3.007275,-2.9777794,-0.47932065,0.21239531,0.018373502,28.5,29.625,28.875,32.875,35.25,36.375
0.018054109,-1.6198988,-0.92796236,-0.22532398,-0.06270159,0.042634737,-0.060112745,-0.38107154,-0.34850284,0.05991701,-3.0784695,0.62488294,-0.0003052906,-0.0063940156,0.0030999205,-0.0021698296,-0.0024775625,-0.0031611791,0.0072630234,0.47773343,-1.425835,1.9577249,-2.100846,-1.5707444,2.452697,-0.01379504,0.009022734,-0.004723207,-0.0026476537,0.003629639,-0.02106038,-0.40222588,0.1340753,-9.825804,0.784413,47.689575,-0.5743793,-2.7007408,-3.0324702,-0.47243387,0.21651745,0.047938205,28.5,29.625,28.875,32.875,35.25,36.375
0.020054257,-1.3205885,-0.03684753,-0.60882163,-0.043400776,0.06436835,-0.07972614,-0.38104066,-0.348498,0.05987076,-3.078429,0.6247992,-0.00044960398,-0.006568367,0.0032984104,-0.0027608827,-0.0055272696,-0.005953342,0.004300132,0.47774434,-1.4257749,1.9577593,-2.1008337,-1.5707306,2.4526608,-0.01690414,0.009637991,-0.0040157544,-0.0029073057,0.007620308,-0.021214943,-0.47884035,0.11492168,-9.80665,0.7709874,47.690468,-0.6459156,-2.634286,-3.2363653,-0.4822619,0.18095684,0.0116677685,28.5,29.625,28.875,32.875,35.25,36.375
0.022053966,-1.8435724,-0.039428465,-0.7301875,0.0035213428,0.051899835,-0.09161962,-0.38107857,-0.34850085,0.05989374,-3.0785115,0.6247988,-0.00041209246,-0.0073367027,0.0040370533,-0.0037273671,-0.0055583445,-0.007926398,0.0013217464,0.47768337,-1.4257861,1.9577249,-2.1008575,-1.5706829,2.452589,-0.019536102,0.011872817,-0.00430697,-0.0031149003,0.008555306,-0.0208692,-0.45968673,0.1340753,-9.825804,0.8179876,47.694054,-0.5673951,-2.6381621,-3.3602705,-0.49648052,0.14692152,0.002333223,28.5,29.625,28.875,32.875,35.25,36.375
0.024054646,-1.6476234,0.23207992,-0.4589349,0.0059558833,0.06233472,-0.10817199,-0.3810717,-0.34848598,0.05985395,-3.0784755,0.62481123,-0.0005366176,-0.008300962,0.003770782,-0.00334,-0.006108167,-0.0064171506,0.00028962424,0.47764745,-1.4257258,1.9577473,-2.100858,-1.5706586,2.4525654,-0.019818554,0.012507533,-0.005733986,-0.0039140545,0.00834338,-0.020118836,-0.51714754,-0.038307227,-9.825804,0.8291774,47.681515,-0.62246954,-2.637352,-3.3801208,-0.523397,0.15982428,-0.011915952,28.5,29.625,28.875,32.875,35.25,36.375
0.026054146,-1.8250965,0.16385359,-0.66400886,0.007115416,0.061284274,-0.12370928,-0.38108703,-0.34848055,0.059840422,-3.0784686,0.62477297,-0.00056621764,-0.010199634,0.0024045936,-0.0024648537,-0.009237614,-0.003907744,-0.0011776781,0.47762325,-1.4256773,1.957723,-2.1008584,-1.5706581,2.4525182,-0.020197215,0.014201752,-0.009244022,-0.0057709394,0.009957303,-0.019031176,-0.8810662,0.038307227,-9.787497,0.7486078,47.693153,-0.67541033,-2.6277068,-3.3801072,-0.49790615,0.17033279,-0.029988216,28.5,29.625,28.875,32.875,35.25,36.375
0.028054245,-1.0612668,0.50367993,-0.6074586,-0.022402255,0.07584708,-0.1510526,-0.3810913,-0.34847564,0.05983183,-3.0784597,0.62484914,-0.0006440756,-0.011207973,0.0016615188,-0.00155147,-0.011584951,-0.0018667426,-0.0028569244,0.47758704,-1.4256535,1.9577101,-2.100835,-1.5706218,2.4525306,-0.02055051,0.013947106,-0.01079391,-0.0068610334,0.011098125,-0.017706906,-0.7661445,-0.019153614,-9.787497,0.7396539,47.67345,-0.7053549,-2.5161834,-3.3571095,-0.4834088,0.13212034,-0.0502714,28.5,29.625,28.875,32.875,35.25,36.375
0.030053725,-1.7975912,0.26668486,-0.7050324,-0.026760194,0.063074194,-0.1575651,-0.38112476,-0.34847692,0.05983467,-3.078498,0.62485653,-0.00059881253,-0.011666633,0.002211589,-0.0023988546,-0.010834976,-0.0035810592,-0.0047923075,0.47755054,-1.4256288,1.9576863,-2.1008828,-1.5706099,2.452494,-0.022032227,0.016029492,-0.01129632,-0.0065736147,0.011220732,-0.017252436,-0.63206923,-0.019153614,-9.940725,0.7777002,47.691364,-0.761141,-2.5344367,-3.3547688,-0.48926544,0.11703543,-0.06052717,28.5,29.625,28.875,32.875,35.25,36.375
0.032053217,-1.716483,-0.11595613,-0.5004069,-0.014427985,0.06321388,-0.16947265,-0.38116547,-0.34845722,0.05982235,-3.078484,0.624893,-0.0006114374,-0.013450158,0.0023810782,-0.0013764689,-0.012191513,-0.0016699918,-0.005912584,0.47747785,-1.4255689,1.9576491,-2.1008952,-1.5706099,2.4524457,-0.02419062,0.016025359,-0.013634289,-0.0065525877,0.011541785,-0.018290129,-0.5554548,-0.05746084,-9.844957,0.80456203,47.68062,-0.7889316,-2.5666885,-3.3772807,-0.5170256,0.13009682,-0.08473138,28.5,29.625,28.875,32.875,35.25,36.375
0.034053978,-1.9126447,-0.020341156,-0.51883745,0.0037633188,0.054234505,-0.17134014,-0.38118237,-0.3484699,0.059830867,-3.078542,0.62494355,-0.0006019581,-0.014400031,0.0027556731,-0.0013770177,-0.011609836,-0.00097102526,-0.006069661,0.47745347,-1.4255685,1.9576372,-2.1009305,-1.5705618,2.4524455,-0.025188766,0.016997304,-0.014677038,-0.006831039,0.010701642,-0.019128298,-0.6512228,0.038307227,-9.825804,0.73741806,47.63404,-0.7637156,-2.5595627,-3.240906,-0.52592915,0.14405352,-0.1101973,28.5,29.625,28.875,32.875,35.25,36.375
0.036053475,-1.7100275,0.5111189,-0.47820136,0.0107236495,0.062622,-0.19961941,-0.3811904,-0.3484488,0.059803277,-3.0784986,0.62499315,-0.0007253445,-0.016193166,0.0025582898,-0.000283295,-0.013783365,0.0020465285,-0.0071570715,0.47739297,-1.4255089,1.9576243,-2.1008956,-1.5705379,2.4524214,-0.026843524,0.016646251,-0.016416565,-0.008420114,0.011236703,-0.01969646,-0.53630114,0.019153614,-9.787497,0.7665104,47.705692,-0.74105144,-2.5137062,-3.3175006,-0.5349825,0.13221085,-0.09951941,28.5,29.625,28.875,32.875,35.25,36.375
0.03805341,-1.1878104,0.5406954,-0.5085984,0.0047655366,0.06301872,-0.211447,-0.38124225,-0.3484397,0.059811965,-3.0785418,0.6250215,-0.00066436897,-0.017245457,0.0027015575,3.369479e-05,-0.015133934,0.00353359,-0.007868411,0.47732043,-1.4254849,1.9575881,-2.1009438,-1.570525,2.452361,-0.028401498,0.016554132,-0.016673747,-0.01001285,0.011750313,-0.020542985,-0.38307226,-0.076614454,-9.844957,0.7777002,47.681515,-0.75121224,-2.4283438,-3.2866957,-0.5191291,0.12544125,-0.15916316,28.5,29.625,28.875,32.875,35.25,36.375
0.04005427,-1.1345633,0.43964052,-0.21030764,-0.010345272,0.051382516,-0.21413755,-0.38129592,-0.34845558,0.05983837,-3.0786266,0.62503856,-0.00055457256,-0.018524269,0.0030727407,0.00018478556,-0.015460858,0.0044549746,-0.008345511,0.4772838,-1.4254726,1.9575275,-2.1010044,-1.5705017,2.4523244,-0.03015315,0.017395701,-0.017829012,-0.0106662195,0.011615581,-0.021815162,-0.40222588,-0.05746084,-9.710882,0.7172743,47.679718,-0.7093216,-2.4142058,-3.2749743,-0.50146484,0.14426771,-0.15564667,28.5,29.625,28.875,32.875,35.25,36.375
0.042053636,-0.79754204,-0.050628696,-0.2543319,-0.0036696757,0.03971449,-0.24333526,-0.3813319,-0.34842667,0.059824716,-3.0785854,0.62516505,-0.0005846091,-0.01995571,0.0033347956,0.0009871237,-0.016370812,0.0063045933,-0.0089034755,0.47719917,-1.4254247,1.9575042,-2.1010044,-1.5705017,2.452324,-0.031910118,0.017167939,-0.019328527,-0.010998597,0.011570293,-0.023013582,-0.34476504,0.019153614,-9.634268,0.8291774,47.682407,-0.7308278,-2.371457,-3.3014212,-0.5035392,0.12842938,-0.16438463,28.5,29.625,28.875,32.875,35.25,36.375
0.04405388,-0.5043153,0.08876441,-0.20606662,-0.0093203895,0.03260834,-0.23906745,-0.3813799,-0.34843314,0.05984537,-3.0786588,0.62508446,-0.00053561677,-0.020608129,0.0039498513,0.00046186213,-0.015890384,0.005763077,-0.009203868,0.47715074,-1.4254003,1.9574317,-2.1010158,-1.5704778,2.452216,-0.03348775,0.018441405,-0.01948563,-0.011411373,0.011392495,-0.024289448,-0.21068975,0.11492168,-9.634268,0.78217715,47.69763,-0.79510796,-2.4129217,-3.3059278,-0.49773568,0.1596943,-0.19715983,28.5,29.625,28.875,32.875,35.25,36.375
0.046054196,-0.6029466,0.40309608,-0.42233986,-0.01373726,0.009125707,-0.24405023,-0.3814314,-0.34842566,0.05986499,-3.0787168,0.6251732,-0.00048294506,-0.0218163,0.0040906663,0.0009273619,-0.017336395,0.0061941976,-0.010108247,0.477066,-1.4254001,1.957395,-2.101052,-1.5704411,2.4521792,-0.035555813,0.018836137,-0.021018974,-0.011321618,0.0124785155,-0.02545337,-0.15322891,0.05746084,-9.519346,0.7933669,47.678825,-0.7475327,-2.378901,-3.223343,-0.515363,0.159271,-0.20483762,28.5,29.625,28.875,32.875,35.25,36.375
0.048053894,0.051445402,0.23025633,-0.15039895,-0.003284948,0.015281582,-0.20422101,-0.38148457,-0.3484033,0.059855383,-3.0787,0.6252663,-0.00050900126,-0.023330696,0.0041710366,0.0017464113,-0.01884012,0.008640563,-0.0095987115,0.47696933,-1.4253286,1.9573354,-2.1010525,-1.5704292,2.4521427,-0.037227627,0.018490333,-0.022191964,-0.012665363,0.012686094,-0.027634427,-0.095768064,0.11492168,-9.461885,0.784413,47.66987,-0.7300812,-2.3302226,-3.3223085,-0.49197814,0.14721067,-0.22420931,28.5,29.625,28.875,32.875,35.25,36.375
0.05005413,0.21785031,0.31763077,-0.074642904,-0.0039240564,0.01793645,-0.22212438,-0.3815263,-0.34839314,0.059847426,-3.0787146,0.6252876,-0.0005342411,-0.024227776,0.0043453095,0.001583614,-0.019482033,0.008252306,-0.008613212,0.47689685,-1.425268,1.9572872,-2.101064,-1.5704049,2.4520817,-0.03884745,0.01982527,-0.023303453,-0.012839136,0.013432248,-0.030240262,-0.076614454,0.11492168,-9.404425,0.8090337,47.65643,-0.67426705,-2.373132,-3.2637138,-0.48594064,0.15618554,-0.22988637,28.5,29.625,28.875,32.875,35.25,36.375
0.052053705,-0.1774774,-0.30382887,-0.3307633,-0.0011033134,0.009507472,-0.20470835,-0.38156337,-0.34838957,0.05984485,3.0787218,-0.6253073,0.0005011927,-0.025255881,0.0044786674,0.0018311884,-0.020296298,0.008885393,-0.007887635,0.47684848,-1.4252319,1.9572629,-2.1011126,-1.570393,2.4520447,-0.040310767,0.020399079,-0.024438277,-0.013214413,0.013863166,-0.032428663,0.076614454,0.1340753,-9.404425,0.82694155,47.688675,-0.72988546,-2.339547,-3.2331083,-0.48861018,0.12284696,-0.22305036,28.5,29.625,28.875,32.875,35.25,36.375
0.054053523,-0.21405147,-0.2534695,-0.16288626,-0.011113989,0.0062833503,-0.20646678,-0.38163108,-0.34835473,0.05984729,3.078686,-0.62539667,0.00049899565,-0.02593106,0.005049467,0.0022646855,-0.02026369,0.009557167,-0.0074628573,0.47671595,-1.4251842,1.9572028,-2.1011121,-1.5703806,2.4519725,-0.041723423,0.01983163,-0.024880782,-0.012782493,0.013528223,-0.03426532,0.15322891,0.15322891,-9.346964,0.73069996,47.666286,-0.7648114,-2.3188481,-3.2379653,-0.49551037,0.11288023,-0.24585038,28.5,29.625,28.875,32.875,35.25,36.375
0.0560539,-0.0638608,-0.44960582,-0.11377363,-0.015718836,0.008964755,-0.20822112,-0.38168246,-0.34837392,0.059874594,3.0786219,-0.6253059,0.0004310386,-0.027016455,0.0053119916,0.002444789,-0.020540604,0.010159137,-0.0069943485,0.47667933,-1.42516,1.9571184,-2.1011364,-1.5703448,2.4518874,-0.043167632,0.020639872,-0.026172834,-0.012958276,0.013498142,-0.036176033,0.0,0.15322891,-9.442732,0.84708,47.719128,-0.7268349,-2.1821837,-3.179173,-0.50137424,0.114108995,-0.27098715,28.5,29.625,28.875,32.875,35.25,36.375
0.05805352,-0.62541944,-0.68489575,-0.21867271,-0.012388056,-0.0023613868,-0.20095555,-0.38174635,-0.3483528,0.05988515,3.0785275,-0.6254009,0.00037859427,-0.027808182,0.005242141,0.00262075,-0.020688929,0.011045751,-0.005446571,0.47655925,-1.4251479,1.9570941,-2.1011965,-1.5703086,2.4518385,-0.043589253,0.021407772,-0.027348407,-0.01340195,0.013224351,-0.038143232,0.05746084,0.1340753,-9.423578,0.7709874,47.690468,-0.7654606,-2.1850278,-3.1333113,-0.48751765,0.1480782,-0.25593325,28.5,29.625,28.875,32.875,35.25,36.375
0.06005338,-0.18695974,-0.3444799,-0.07539265,-0.0174053,0.010605253,-0.20241654,-0.38180515,-0.34833825,0.059902217,3.0785112,-0.6254172,0.00032424857,-0.028611988,0.005383894,0.0027436616,-0.021440664,0.011286093,-0.005166543,0.47648686,-1.4251117,1.9570111,-2.1011846,-1.5703205,2.4517784,-0.044939406,0.021952918,-0.028191611,-0.013663313,0.01378237,-0.039773233,0.019153614,0.1340753,-9.500193,0.7642693,47.698532,-0.792927,-2.189416,-3.174952,-0.48456907,0.112271145,-0.26872742,28.5,29.625,28.875,32.875,35.25,36.375
0.0620541,-0.32291114,0.139509,0.018191647,-0.023490371,0.00929826,-0.21448337,-0.38181347,-0.34834608,0.059870094,3.078484,-0.6253337,0.00045046303,-0.029628051,0.005492841,0.0032090473,-0.021811964,0.0126335025,-0.0040433467,0.47643858,-1.4250396,1.9570106,-2.1012208,-1.5702366,2.4516814,-0.045878604,0.0221493,-0.029400915,-0.014012207,0.013490354,-0.04183496,-0.019153614,0.19153613,-9.500193,0.7597976,47.696735,-0.8509516,-2.1564615,-3.1690845,-0.4623384,0.12731534,-0.29672745,28.5,29.625,28.875,32.875,35.25,36.375
0.064053684,-0.281458,-0.15678321,0.13014443,-0.011073944,0.015928183,-0.20087227,-0.38189322,-0.34833974,0.05988296,3.0784194,-0.62535864,0.00042676635,-0.030049106,0.0052457983,0.0031483169,-0.02252763,0.012256706,-0.0029070803,0.47633043,-1.4249674,1.9569014,-2.1012323,-1.5702008,2.451597,-0.046345215,0.023167346,-0.030426962,-0.013996835,0.0143012265,-0.04343773,-0.019153614,0.2681506,-9.3661175,0.83813137,47.684196,-0.94543886,-2.1859806,-3.2032852,-0.47890365,0.10409017,-0.2884608,28.5,29.625,28.875,32.875,35.25,36.375
0.06605372,0.08793647,0.26107678,-0.013118183,-0.015731633,0.035891734,-0.20575356,-0.38197273,-0.34832686,0.059897155,3.078375,-0.62538797,0.00035386262,-0.030729847,0.005419142,0.0026657612,-0.02228024,0.012034802,-0.0029799296,0.4762342,-1.424907,1.9568056,-2.1012566,-1.5702008,2.4515247,-0.047197025,0.024874492,-0.031109847,-0.014708342,0.0141846435,-0.04421492,-0.15322891,0.15322891,-9.308656,0.7642693,47.707485,-1.0122128,-2.2079782,-3.1851995,-0.4753831,0.123036355,-0.31507808,28.5,29.625,28.875,32.875,35.25,36.375
0.0680546,-0.76548445,0.13170676,-0.13477375,-0.009997969,0.025297277,-0.20173,-0.3820549,-0.34832633,0.05993244,3.078261,-0.6253832,0.00025572113,-0.031203786,0.0052046156,0.0023313006,-0.022863654,0.011105598,-0.0011975262,0.47612587,-1.4248945,1.9567217,-2.1013048,-1.5701522,2.451428,-0.047859754,0.02658058,-0.032299086,-0.014665386,0.01513452,-0.046658747,-0.15322891,0.17238252,-9.423578,0.784413,47.682407,-1.0583779,-2.243558,-3.1377873,-0.47908092,0.09998667,-0.3280603,28.5,29.625,28.875,32.875,35.25,36.375
0.07005415,-0.63163245,0.016075162,-0.1205645,-0.009366611,0.034288235,-0.19919406,-0.38208485,-0.34828097,0.05989832,3.0782983,-0.625389,0.00032992655,-0.03167616,0.005550455,0.0021661113,-0.022573197,0.010764328,0.00033365324,0.4760176,-1.4248343,1.9567336,-2.1013162,-1.5701522,2.4513185,-0.048838902,0.02733529,-0.032835644,-0.014443954,0.015031698,-0.04916951,-0.15322891,0.21068975,-9.519346,0.8493211,47.70211,-1.111274,-2.2185123,-3.217485,-0.46081978,0.100942194,-0.29487884,28.5,29.625,28.875,32.875,35.25,36.375
0.07205378,-1.1515703,-0.39960784,-0.082527705,-0.0010053662,0.024550974,-0.19289492,-0.38214228,-0.34828126,0.05991249,3.0782704,-0.6253268,0.00028266295,-0.032102477,0.005161345,0.0026581478,-0.023560347,0.0111103365,-0.0007336676,0.47595745,-1.4247862,1.9566492,-2.1013281,-1.5701402,2.4512231,-0.049001016,0.02743522,-0.034185078,-0.013955842,0.01575226,-0.04826394,-0.19153613,0.17238252,-9.404425,0.85826975,47.699425,-1.2253013,-2.1558838,-3.150908,-0.4662682,0.08851766,-0.37262857,28.5,29.625,28.875,32.875,35.25,36.375
0.07405605,-0.6420027,0.30078518,-0.07941692,-0.0089456905,0.035371665,-0.20536278,-0.38221675,-0.34828267,0.05991204,3.078177,-0.62530756,0.0003070219,-0.03364818,0.005792742,0.0033210882,-0.023910971,0.012668859,-0.00067639776,0.47583675,-1.4247025,1.9565657,-2.1013763,-1.5700563,2.4511023,-0.051275954,0.02739343,-0.03564407,-0.013992357,0.015352003,-0.05059416,-0.19153613,0.15322891,-9.3661175,0.8247004,47.703903,-1.220512,-2.1282628,-3.1593807,-0.46672583,0.10203412,-0.3825064,28.5,29.625,28.875,32.875,35.25,36.375
0.07605413,-0.73052406,0.3556348,-0.09754368,-0.0040590893,0.029986355,-0.19867605,-0.38229442,-0.34826875,0.05993045,3.0781176,-0.62533253,0.0002048196,-0.034140255,0.0063342694,0.0025906563,-0.023881432,0.010952429,0.0001807684,0.47574016,-1.4246664,1.9564933,-2.101424,-1.5700558,2.4510288,-0.053179685,0.029090831,-0.035943504,-0.013850715,0.016118692,-0.053354297,-0.19153613,0.1340753,-9.404425,0.8112748,47.72271,-1.1973983,-2.1270208,-3.14941,-0.47066614,0.0981365,-0.37786314,28.5,29.625,28.875,32.875,35.25,36.375
0.07805423,-0.9424533,0.0144764185,-0.1509963,0.0049270657,0.028501734,-0.2008227,-0.38233903,-0.34826204,0.05991394,3.0780773,-0.6252831,0.00031925153,-0.03359482,0.0055554565,0.0019069613,-0.023939999,0.009814478,0.0068285866,0.47563267,-1.4245815,1.9564341,-2.101424,-1.5699719,2.4508955,-0.05165886,0.030717652,-0.036139447,-0.014289393,0.01669249,-0.058481976,-0.21068975,0.019153614,-9.346964,0.7732232,47.690468,-1.3822427,-2.1693068,-3.07344,-0.45857066,0.09085357,-0.34402287,28.5,29.625,28.875,32.875,35.25,36.375
0.08005387,-1.0123851,0.13068657,-0.18583028,-0.0036118207,0.031849403,-0.196825,-0.38243446,-0.34823224,0.059942372,3.0780194,-0.6253122,0.00019004887,-0.03526536,0.006535799,0.0021079783,-0.024075596,0.010480704,0.0036809482,0.47549957,-1.4245573,1.9563497,-2.1014597,-1.5699838,2.450788,-0.054809824,0.031427298,-0.037379883,-0.014410793,0.016513338,-0.05848274,-0.28730422,0.076614454,-9.404425,0.76874626,47.682407,-1.3921793,-2.1998515,-3.1389506,-0.4549057,0.08251872,-0.3589949,28.5,29.625,28.875,32.875,35.25,36.375
0.082053915,-0.73487747,0.40159652,-0.038148288,-0.004690325,0.036493417,-0.20900765,-0.38249093,-0.3482308,0.059939522,3.0779512,-0.6252775,0.0002566671,-0.03704001,0.007228217,0.001845429,-0.02425998,0.010344599,0.0038831942,0.47539055,-1.4244847,1.9562763,-2.1014721,-1.5698999,2.450666,-0.05781101,0.033669725,-0.03926931,-0.014719014,0.016738905,-0.06168485,-0.3256114,0.05746084,-9.32781,0.8314132,47.701214,-1.3517776,-2.2178457,-3.0547829,-0.43489832,0.1002059,-0.35562363,28.5,29.625,28.875,32.875,35.25,36.375
0.0840539,-1.0347743,0.3751834,0.07595458,-0.0027819746,0.026111774,-0.21123384,-0.38255307,-0.34822172,0.059937935,3.0779605,-0.6251251,0.00021395508,-0.037188567,0.0090809725,0.0006688385,-0.022359446,0.008388424,0.0051638503,0.47531748,-1.4244125,1.9562057,-2.1015084,-1.5699004,2.4504967,-0.060721077,0.034282904,-0.037288874,-0.014696549,0.015953789,-0.06587506,-0.3256114,0.038307227,-9.385271,0.7709874,47.70211,-1.2535862,-2.3449152,-3.096103,-0.4483363,0.10899346,-0.3481906,28.5,29.625,28.875,32.875,35.25,36.375
0.08605429,-0.6909953,0.3294156,0.04276517,-0.0021857913,0.034937747,-0.20099157,-0.38262787,-0.34817985,0.059929702,3.0779417,-0.62521446,0.00021423616,-0.037748057,0.008027748,0.0015499154,-0.024140913,0.010310784,0.010515611,0.47517392,-1.4243406,1.9561452,-2.1015198,-1.5698999,2.4504113,-0.05980926,0.034103334,-0.03894128,-0.015386065,0.016657565,-0.07031483,-0.2681506,-0.076614454,-9.423578,0.8112748,47.688675,-1.4157228,-2.248918,-3.1934705,-0.4389692,0.09099379,-0.31239486,28.5,29.625,28.875,32.875,35.25,36.375
0.088053145,-0.9927857,0.22115125,0.12634048,0.0044221366,0.03173581,-0.19932848,-0.38272434,-0.3481742,0.05994819,3.0778344,-0.62515444,0.0001661508,-0.040009078,0.009094442,0.0023423461,-0.025186926,0.012324652,0.01059639,0.47502849,-1.4242815,1.9560493,-2.1015804,-1.5698279,2.450242,-0.06377704,0.033940185,-0.040424787,-0.015998106,0.016673818,-0.07436096,-0.30645782,-0.1340753,-9.32781,0.79560274,47.67166,-1.3604684,-2.1888843,-3.1407223,-0.42294362,0.13344927,-0.24026448,28.5,29.625,28.875,32.875,35.25,36.375
0.09005392,-0.846121,0.2560981,0.041057177,0.0061710575,0.042068962,-0.2045302,-0.38278338,-0.34816355,0.059944805,3.0778186,-0.625053,0.0001865118,-0.040851735,0.00954716,0.0011881618,-0.024625514,0.010422249,0.012561911,0.47493196,-1.4242083,1.9559764,-2.1015928,-1.5697922,2.4500842,-0.065589264,0.03721959,-0.041468903,-0.016278822,0.01704652,-0.07813778,-0.28730422,-0.076614454,-9.404425,0.800085,47.67614,-1.2828553,-2.257423,-3.110644,-0.41709745,0.11543746,-0.21842739,28.5,29.625,28.875,32.875,35.25,36.375
0.092055246,-0.97153115,0.42201585,0.09689941,-0.0005463491,0.046707973,-0.200077,-0.38289198,-0.34813854,0.059966724,3.0777748,-0.6249661,7.017844e-05,-0.042412467,0.009506636,0.0019829273,-0.025964994,0.011706956,0.015027929,0.4747874,-1.4241482,1.9558686,-2.1016405,-1.5697917,2.449891,-0.067330755,0.037754953,-0.043936346,-0.016097961,0.017658561,-0.08234292,-0.38307226,0.019153614,-9.3661175,0.7911258,47.694946,-1.3238182,-2.3051264,-3.0312371,-0.44038278,0.11646409,-0.18267594,28.5,29.625,28.875,32.875,35.25,36.375
0.09405414,-1.058612,-0.03018508,0.009696765,-0.0013710991,0.051339474,-0.19344209,-0.38295177,-0.34812805,0.059947755,3.0777285,-0.624917,0.00014466415,-0.04244272,0.01053563,0.001300648,-0.025054201,0.010243257,0.01614353,0.4746668,-1.4240518,1.95581,-2.1016757,-1.5697192,2.4497457,-0.06908734,0.038152743,-0.04290309,-0.015799692,0.0175245,-0.08521557,-0.49799395,0.19153613,-9.308656,0.7933669,47.64658,-1.3315384,-2.3244123,-3.057547,-0.43193707,0.11034289,-0.098124266,28.5,29.625,28.875,32.875,35.25,36.375
0.09605344,-1.0240518,0.22832227,0.1300689,-0.009438841,0.062613025,-0.20200942,-0.38307154,-0.3480907,0.0599769,3.0776854,-0.6249093,2.929478e-05,-0.0430392,0.010782089,0.00105946,-0.026178775,0.0094563,0.014616124,0.47449815,-1.4239923,1.9556783,-2.1016881,-1.5697311,2.4495778,-0.07094082,0.038953934,-0.0431921,-0.016128393,0.018893909,-0.08554092,-0.51714754,0.11492168,-9.289502,0.8112748,47.70659,-1.3677998,-2.2595308,-3.1804628,-0.42443788,0.11981024,-0.12103115,28.5,29.625,28.875,32.875,35.25,36.375
0.098053515,-2.0044198,-0.1417629,-0.039137732,-0.0003533082,0.043808505,-0.19276984,-0.38312942,-0.34808308,0.059967536,3.0775824,-0.62487036,0.00011821228,-0.044649493,0.010739949,0.001842125,-0.027210401,0.010969217,0.013603866,0.47435355,-1.4239314,1.9556412,-2.1017358,-1.569611,2.449422,-0.07247765,0.039626133,-0.045769654,-0.016027393,0.019120593,-0.086063854,-0.40222588,0.076614454,-9.404425,0.7933669,47.672558,-1.3517439,-2.270216,-3.069509,-0.4231376,0.115775876,-0.0676701,28.5,29.625,28.875,32.875,35.25,36.375
0.10005408,-1.1457253,0.030049603,0.018377941,0.0002722986,0.056415193,-0.20276128,-0.3832528,-0.34805414,0.06000603,3.0775397,-0.6248251,-1.211352e-05,-0.046082813,0.011664406,0.0019952352,-0.026551018,0.01217178,0.008227477,0.47419694,-1.4238718,1.9554852,-2.1017358,-1.5696234,2.4492426,-0.07468085,0.0402101,-0.04668873,-0.016458113,0.017991103,-0.08288743,-0.40222588,0.11492168,-9.3661175,0.7732232,47.690468,-1.3214153,-2.230011,-2.9949703,-0.40398926,0.13830759,-0.0923592,28.5,29.625,28.875,32.875,35.25,36.375
0.10205343,-1.1594144,0.112368606,-0.023242664,-0.0037584093,0.04916239,-0.19505748,-0.38334018,-0.34801805,0.060004935,3.0775247,-0.62478435,-5.5473494e-05,-0.04659455,0.011862138,0.0016896977,-0.027009139,0.011449248,0.007060444,0.47405234,-1.4237998,1.9554137,-2.101772,-1.5696229,2.4490745,-0.07596674,0.041286543,-0.04718933,-0.01660015,0.018733509,-0.08300568,-0.4405331,0.11492168,-9.289503,0.81351066,47.703903,-1.3120689,-2.1895616,-3.0769854,-0.4173505,0.15782522,-0.117385864,28.5,29.625,28.875,32.875,35.25,36.375
0.1040536,-0.8099095,0.19335975,-0.048097458,-0.0026489364,0.057132367,-0.19688262,-0.3834237,-0.348021,0.060002323,3.0774312,-0.62475127,-6.7771916e-06,-0.048710074,0.013140432,0.0018060284,-0.027740618,0.011814928,-0.0020148945,0.47391883,-1.4236915,1.9553045,-2.1018083,-1.569527,2.4489322,-0.08047129,0.042275902,-0.048513185,-0.016921068,0.019215988,-0.078433625,-0.38307226,0.05746084,-9.385271,0.78888994,47.677036,-1.2179897,-2.21649,-3.085134,-0.40403646,0.15940765,-0.13404725,28.5,29.625,28.875,32.875,35.25,36.375
0.10605344,-0.8193222,0.12654817,-0.021781722,-0.004610403,0.050805695,-0.19339319,-0.3835411,-0.34798968,0.0600153,3.07735,-0.62475383,-9.944106e-05,-0.048493184,0.012067181,0.0016040227,-0.028599346,0.011512972,-0.0024629848,0.47373945,-1.4236192,1.9552087,-2.1018803,-1.5695022,2.4487648,-0.078932084,0.043581888,-0.049425393,-0.017437989,0.020124463,-0.0764442,-0.40222588,0.0,-9.308656,0.8112748,47.658226,-1.3531008,-2.1984067,-3.016056,-0.39844805,0.15327597,-0.17868802,28.5,29.625,28.875,32.875,35.25,36.375
0.10805409,-1.0645527,-0.13084096,0.043856207,-0.003573562,0.04558953,-0.19217065,-0.38363197,-0.34794337,0.06001026,3.0773237,-0.62478894,-7.620372e-05,-0.05010312,0.013180409,0.0018291743,-0.028765183,0.011729662,-0.006623838,0.4735585,-1.4235352,1.9551243,-2.1018798,-1.5694784,2.448609,-0.08239772,0.044152096,-0.050692312,-0.017005233,0.020175032,-0.075748384,-0.38307226,0.0,-9.308657,0.8023209,47.67166,-1.3854141,-2.2120552,-3.0259686,-0.40934286,0.17589349,-0.22502671,28.5,29.625,28.875,32.875,35.25,36.375
0.11005362,-1.3261132,-0.06936957,-0.15018284,0.00047707892,0.04018041,-0.18512698,-0.38370994,-0.34791914,0.059988722,3.0772946,-0.6247858,-1.2100103e-05,-0.051790614,0.014501304,0.0013373967,-0.028709047,0.010997258,-0.011108467,0.47341275,-1.4234147,1.9550413,-2.1019037,-1.5694302,2.448465,-0.08645588,0.045960274,-0.05158599,-0.017237207,0.020458505,-0.07532158,-0.36391866,0.019153614,-9.385271,0.779936,47.67614,-1.0848924,-2.2464197,-2.9781885,-0.41624033,0.17820886,-0.23727643,28.5,29.625,28.875,32.875,35.25,36.375
0.11205337,-1.025127,-0.1709143,-0.170971,0.008764164,0.043102738,-0.1930629,-0.38383907,-0.34788415,0.060020413,3.0772283,-0.6247718,-0.0001461046,-0.052612137,0.014489838,0.0020576438,-0.02916363,0.012474481,-0.011651551,0.47323272,-1.4233551,1.9549092,-2.10194,-1.5694307,2.4482849,-0.086992286,0.045620155,-0.05286581,-0.017134711,0.020199638,-0.07531202,-0.36391866,0.0,-9.481039,0.8291774,47.675243,-1.2643331,-2.1671946,-2.977359,-0.41635793,0.1896289,-0.28244966,28.5,29.625,28.875,32.875,35.25,36.375
0.114053644,-1.2755821,0.5570055,0.05863726,-0.007594739,0.03476942,-0.19567512,-0.38395578,-0.3478708,0.060030006,3.0770931,-0.6248031,-0.00015164645,-0.053612858,0.015349283,0.00045804234,-0.028630422,0.009393555,-0.014282825,0.47303978,-1.4232575,1.9547895,-2.1019995,-1.5693344,2.4481287,-0.090016164,0.04962972,-0.053768605,-0.017247682,0.021137707,-0.0757022,-0.3256114,0.17238252,-9.423578,0.8627467,47.698532,-1.1101611,-2.3506658,-3.0039039,-0.40812266,0.21382457,-0.33119285,28.5,29.625,28.875,32.875,35.25,36.375
0.116054624,-1.1724253,-0.23427038,-0.3566316,0.0069249454,0.027275287,-0.1951383,-0.38404378,-0.34782562,0.060010605,3.0770857,-0.6248219,-0.00012709835,-0.0549072,0.015479742,0.0015199058,-0.030915326,0.010996239,-0.01575041,0.47287095,-1.42315,1.9547166,-2.1020238,-1.569322,2.4479725,-0.09225559,0.048577137,-0.054938477,-0.017491912,0.02244257,-0.07647425,-0.34476504,0.076614454,-9.481039,0.84708,47.681515,-1.0978923,-2.3422287,-2.981707,-0.42191517,0.21385565,-0.33708614,28.5,29.625,28.875,32.875,35.25,36.375
0.11805406,-0.5881598,0.29174736,-0.11444535,-0.011741457,0.039421324,-0.20240223,-0.3841809,-0.34779203,0.060034867,3.0769682,-0.62491363,-0.00019537394,-0.055671737,0.015700312,0.0021777314,-0.032574728,0.011413729,-0.017735584,0.4726544,-1.4230661,1.9545735,-2.1020591,-1.5692734,2.4478283,-0.09415422,0.04780835,-0.055641495,-0.017143495,0.023741545,-0.07638576,-0.4405331,-0.076614454,-9.500193,0.7642693,47.66808,-1.095968,-2.11838,-2.9564962,-0.4240412,0.22667,-0.37308815,28.5,29.625,28.875,32.875,35.25,36.375
0.12005397,-0.9071667,0.29408932,0.058229156,-0.015318096,0.04088797,-0.2023625,-0.38427147,-0.3477718,0.06000803,3.0768907,-0.62495655,-8.614372e-05,-0.056941755,0.016316295,0.0016674062,-0.032669242,0.010692511,-0.020125533,0.4724736,-1.4229212,1.9544777,-2.1020958,-1.5691775,2.447684,-0.0966525,0.049950324,-0.056855977,-0.017461501,0.024154248,-0.07649352,-0.4405331,0.038307227,-9.346964,0.75755644,47.664497,-1.0025898,-2.2521417,-2.9871798,-0.43624675,0.21860127,-0.4396808,28.5,29.625,28.875,32.875,35.25,36.375
0.12205382,-0.44501588,0.3873318,-0.21770455,-0.012667196,0.059672806,-0.21165696,-0.38438478,-0.34772375,0.060022127,3.076825,-0.625001,-0.00013472009,-0.057842664,0.016933903,0.0014588581,-0.03234935,0.010330809,-0.02081355,0.47226906,-1.4228607,1.9543818,-2.1021192,-1.5691532,2.4475157,-0.098473094,0.05111489,-0.057761468,-0.017244063,0.024043374,-0.077624075,-0.40222588,-0.038307227,-9.404425,0.83813137,47.66987,-1.072084,-2.2233238,-2.9988308,-0.44179916,0.24559912,-0.454253,28.5,29.625,28.875,32.875,35.25,36.375
0.12405358,-0.98913705,0.37981096,-0.36406538,-0.0054591415,0.052748285,-0.20372613,-0.38450238,-0.3476954,0.060017258,3.076771,-0.62501055,-0.00014320247,-0.058866408,0.017830735,0.0005176158,-0.032171562,0.008453737,-0.021962175,0.47208786,-1.4227277,1.9542493,-2.1021554,-1.569117,2.4473474,-0.101427495,0.053592023,-0.058439136,-0.01728358,0.024746526,-0.0794284,-0.40222588,-0.095768064,-9.500193,0.8224646,47.67614,-0.92793524,-2.3875618,-2.9440851,-0.42645335,0.239784,-0.5041005,28.5,29.625,28.875,32.875,35.25,36.375
0.12605453,-1.2974038,0.053873524,-0.20904206,0.0050142934,0.0508266,-0.19936514,-0.3846117,-0.3476562,0.06001799,3.0766864,-0.62506604,-0.00010232402,-0.05959605,0.018058313,0.0015230309,-0.033918686,0.010069163,-0.01643239,0.4718715,-1.4226325,1.9541415,-2.1021674,-1.5690445,2.4471765,-0.10300834,0.051759917,-0.058589738,-0.017514696,0.025583735,-0.08653875,-0.3256114,0.038307227,-9.461885,0.8179876,47.68599,-0.9198824,-2.1936483,-3.0187173,-0.44680777,0.2643309,-0.4684599,28.5,29.625,28.875,32.875,35.25,36.375
0.12805396,-1.1991178,-0.013002707,-0.31007147,0.004345865,0.054823138,-0.18940243,-0.3847368,-0.3476136,0.06002547,3.0766203,-0.6251108,-0.0001509947,-0.061322626,0.01900565,0.0008563124,-0.034541726,0.008715039,-0.01682885,0.47166604,-1.4225353,1.9540218,-2.1022036,-1.5690202,2.4470074,-0.10699915,0.054424044,-0.060053226,-0.01778335,0.026765332,-0.090130515,-0.4213795,0.0,-9.423578,0.8560339,47.67614,-0.84933674,-2.256978,-3.003353,-0.4641118,0.26241958,-0.46616575,28.5,29.625,28.875,32.875,35.25,36.375
0.13005345,-0.9699235,0.0871648,-0.19678907,0.0025916186,0.057706293,-0.2015618,-0.38485333,-0.34757853,0.060008883,3.0765564,-0.62511015,-9.2894414e-05,-0.06054605,0.018067256,0.00047167845,-0.03487542,0.008244385,-0.0057301167,0.47145087,-1.4223908,1.9539026,-2.102239,-1.5689481,2.4468,-0.10493565,0.055131193,-0.05984748,-0.018403105,0.027293948,-0.09916545,-0.4213795,0.0,-9.557653,0.81351066,47.67614,-0.9430401,-2.2656047,-3.0457323,-0.4684437,0.2570061,-0.43764725,28.5,29.625,28.875,32.875,35.25,36.375
0.13205405,-1.2521967,0.20326671,-0.22061771,-0.008379259,0.057056706,-0.19760177,-0.38499832,-0.34753913,0.0600336,3.0764437,-0.625124,-0.00015270662,-0.062417902,0.01908291,0.00036177662,-0.035835143,0.007971382,-0.0039820406,0.47120965,-1.4223063,1.9537581,-2.1022756,-1.5688876,2.4465818,-0.10905234,0.056618746,-0.061234616,-0.018676858,0.02829332,-0.10502661,-0.38307226,0.0,-9.500193,0.84708,47.704796,-0.9558889,-2.3529987,-3.0679455,-0.46784577,0.2599659,-0.33958614,28.5,29.625,28.875,32.875,35.25,36.375
0.13405366,-1.1002753,-0.11001762,-0.23650603,0.004564414,0.053793374,-0.19696105,-0.38511705,-0.34749007,0.06002335,3.076406,-0.62511075,-0.00019946104,-0.062299173,0.01759417,0.00077516737,-0.03719201,0.008583491,0.005884012,0.47100633,-1.422198,1.9536742,-2.1023476,-1.5688752,2.4463751,-0.10688414,0.057329442,-0.062965654,-0.0188007,0.029242279,-0.11272209,-0.3256114,0.095768064,-9.442732,0.80679786,47.69763,-0.943764,-2.2696567,-2.899025,-0.4727856,0.28014717,-0.27163202,28.5,29.625,28.875,32.875,35.25,36.375
0.13605371,-0.97595364,0.026488286,-0.23083991,0.0073460434,0.044104148,-0.1994382,-0.3852338,-0.34745416,0.060016684,3.0763628,-0.6250819,-0.000112936235,-0.061656892,0.018455695,-0.00059597264,-0.03662738,0.0056531387,0.009011926,0.4707897,-1.4220535,1.9535187,-2.1023233,-1.5688032,2.446146,-0.108341366,0.05824649,-0.06086016,-0.01893585,0.03008326,-0.1173085,-0.4213795,0.095768064,-9.442732,0.8493211,47.690468,-1.0106981,-2.3153212,-3.1514516,-0.4907713,0.27410388,-0.2254265,28.5,29.625,28.875,32.875,35.25,36.375
0.1380542,-0.7563832,-0.122063175,-0.0077843843,0.0009931216,0.040152505,-0.18923785,-0.38535082,-0.34740514,0.060018245,3.0762713,-0.6250612,-0.00011686124,-0.06222631,0.018246192,-0.00019412761,-0.03756009,0.006561349,0.01140734,0.47054964,-1.4219816,1.9534467,-2.1023834,-1.5687312,2.4459047,-0.10873432,0.05824697,-0.06169101,-0.019318499,0.030516816,-0.12009456,-0.36391866,0.05746084,-9.481039,0.79560274,47.67614,-1.0762265,-2.211274,-3.1428816,-0.48907062,0.28328422,-0.15599544,28.5,29.625,28.875,32.875,35.25,36.375
0.1400541,-0.1195052,0.1570892,-0.13219722,-0.005332293,0.04058778,-0.20612471,-0.3855075,-0.34739032,0.060033496,3.076185,-0.6249658,-0.00022983279,-0.06477274,0.017232362,0.001431642,-0.040024057,0.0105819525,0.011373666,0.47035748,-1.421837,1.953266,-2.1024678,-1.568695,2.4456642,-0.10945375,0.059208285,-0.06625497,-0.020406343,0.03089873,-0.12077398,-0.1340753,0.11492168,-9.3661175,0.81351066,47.661808,-1.1507467,-2.2654088,-3.0057342,-0.51119065,0.3038727,-0.13595542,28.5,29.625,28.875,32.875,35.25,36.375
0.14205378,-0.69781256,-0.049735703,-0.538844,0.0015881968,0.008327436,-0.18370397,-0.38566875,-0.3473433,0.060051784,3.0760598,-0.62500215,-0.00027490896,-0.06430547,0.01851677,-5.9620867e-05,-0.039277304,0.007986913,0.005182582,0.47008058,-1.4217287,1.9531115,-2.1025155,-1.5686225,2.445426,-0.11160391,0.059872873,-0.063423395,-0.021243304,0.031424243,-0.11673115,0.0,0.076614454,-9.461885,0.800085,47.687782,-1.1493735,-2.2649536,-3.0529537,-0.48700732,0.3095224,-0.15527862,28.5,29.625,28.875,32.875,35.25,36.375
0.14405344,-0.12095659,-0.4692785,-0.2942087,-0.005404277,0.006676431,-0.18841009,-0.3857971,-0.34729335,0.060041726,3.076013,-0.6250139,-0.00026947772,-0.06523574,0.019121774,-1.6358334e-05,-0.03965371,0.007824277,0.0004767205,0.46985194,-1.4215963,1.9529914,-2.1025517,-1.5685862,2.4452107,-0.11375282,0.06040458,-0.06418339,-0.021035664,0.031836137,-0.114172906,-0.019153614,0.19153613,-9.3661175,0.8403672,47.675243,-1.1235253,-2.1492844,-3.2054567,-0.48973793,0.30477956,-0.1815628,28.5,29.625,28.875,32.875,35.25,36.375
0.14605434,0.06830659,-0.4154251,-0.14442614,-0.014305521,-0.0039342814,-0.19127259,-0.38589978,-0.34727436,0.060035706,3.0759447,-0.62487113,-0.00024653893,-0.06704786,0.020052422,0.0005045439,-0.04045016,0.008310596,-0.009950731,0.4696708,-1.421488,1.952895,-2.1026113,-1.5685023,2.4449492,-0.11733077,0.06084246,-0.06601124,-0.020440673,0.032320753,-0.107320845,0.019153614,0.1340753,-9.3661175,0.82694155,47.67614,-1.1085833,-2.179837,-3.1376705,-0.5023272,0.3277806,-0.26162112,28.5,29.625,28.875,32.875,35.25,36.375
0.14805432,0.16526596,-0.4555495,-0.38538304,-0.012288342,-0.011159523,-0.19493029,-0.38605282,-0.34721267,0.060041457,3.0758703,-0.6249298,-0.00021665508,-0.06610521,0.019401316,2.2805743e-07,-0.040383715,0.0069552693,-0.0065055597,0.4693836,-1.4213558,1.9527282,-2.1025994,-1.5684422,2.444708,-0.1156431,0.061548326,-0.06573619,-0.020165287,0.032888927,-0.10907749,0.13407528,0.17238252,-9.385271,0.8314132,47.684196,-1.1406193,-2.0560422,-3.2057896,-0.51723415,0.34950954,-0.27141795,28.5,29.625,28.875,32.875,35.25,36.375
0.15005384,-0.085032165,0.1303303,-0.24572419,-0.032040022,-0.015625954,-0.19799033,-0.38617545,-0.34716576,0.060018342,3.0758195,-0.62496215,-0.00020981503,-0.068298906,0.020964606,-6.261535e-05,-0.04168995,0.006937669,-0.013952738,0.46916538,-1.4212112,1.9526318,-2.102671,-1.5684055,2.4445167,-0.12112904,0.062430345,-0.06643438,-0.020921418,0.034062814,-0.10711436,0.11492168,0.21068975,-9.3661175,0.8157518,47.666286,-1.0556772,-2.1635387,-3.2486606,-0.53255737,0.34429753,-0.32016045,28.5,29.625,28.875,32.875,35.25,36.375
0.15205337,0.14465469,-0.36990532,-0.15401603,-0.01848088,0.004949487,-0.20107353,-0.38631913,-0.3471488,0.06004305,3.0757155,-0.6248808,-0.0002305963,-0.067475036,0.019357076,-6.848942e-05,-0.043204878,0.0067337984,-0.010905184,0.46895057,-1.4210911,1.9524411,-2.1026838,-1.5683211,2.4442644,-0.11842683,0.0629535,-0.06689371,-0.021476183,0.035519034,-0.107455716,0.076614454,0.19153613,-9.385271,0.8627467,47.68599,-1.1840516,-2.0775318,-3.2517161,-0.54577804,0.3554743,-0.33593023,28.5,29.625,28.875,32.875,35.25,36.375
0.1540543,-0.19943772,-0.51201075,-0.3238082,-0.015479856,0.005860862,-0.19304661,-0.38645148,-0.34711775,0.060051303,3.0755959,-0.6249171,-0.0002365824,-0.06854282,0.02029115,-0.00019366477,-0.04397286,0.0066268966,-0.014354795,0.4687214,-1.4209828,1.9523095,-2.1027315,-1.5682372,2.4440732,-0.12149147,0.06325037,-0.06680749,-0.022097277,0.036263883,-0.1070677,0.05746084,0.22984336,-9.308656,0.81351066,47.682407,-1.1830913,-2.0847254,-3.3412952,-0.54211515,0.35743815,-0.3677307,28.5,29.625,28.875,32.875,35.25,36.375
0.1560544,-0.3201656,-0.24472918,-0.29202375,-0.015238008,0.0057915836,-0.19181879,-0.38659114,-0.3470801,0.060041104,3.0755112,-0.62493616,-0.00021033244,-0.06975086,0.019782377,5.9608836e-05,-0.04503665,0.006449972,-0.013661977,0.46848142,-1.4208258,1.952164,-2.1027787,-1.5681647,2.443856,-0.12230891,0.065384895,-0.07000625,-0.02133911,0.037300948,-0.10857428,0.19153613,0.21068975,-9.308657,0.8493211,47.703903,-1.2277925,-2.0957785,-3.280661,-0.5649783,0.3539013,-0.3936928,28.5,29.625,28.875,32.875,35.25,36.375
0.15805392,-0.3928583,-0.34371552,-0.45457706,-0.014222728,0.006499107,-0.18926628,-0.38674885,-0.34703788,0.060073964,3.075376,-0.6249837,-0.00027004466,-0.06926787,0.020359425,-0.0010386235,-0.046119306,0.0033493855,-0.0118514905,0.4682167,-1.4207413,1.9519981,-2.102803,-1.5680918,2.4436383,-0.12439569,0.066030465,-0.068202995,-0.021490717,0.03969689,-0.11246664,0.1340753,0.21068975,-9.308657,0.842603,47.675243,-1.1824759,-2.1847556,-3.2814302,-0.56291056,0.35193053,-0.40670794,28.5,29.625,28.875,32.875,35.25,36.375
0.1600534,-0.30084237,-0.37436932,-0.38250515,-0.013446512,0.002791954,-0.19591515,-0.38685828,-0.3469931,0.060043804,3.0753021,-0.62500346,-0.00016322444,-0.070105195,0.020687161,-0.000758577,-0.047379088,0.0039234743,-0.0065692062,0.46797606,-1.4205977,1.9519137,-2.1028512,-1.5679954,2.4434195,-0.1262676,0.06584062,-0.068502046,-0.02204651,0.040580533,-0.11962049,0.05746084,0.21068975,-9.308657,0.8605109,47.678825,-1.1994497,-1.889317,-3.4497695,-0.57015944,0.34657407,-0.34581977,28.5,29.625,28.875,32.9375,35.25,36.375
0.16205415,-0.41486824,-0.28784758,-0.5327393,-0.01866209,-0.002780674,-0.19283997,-0.38700828,-0.34694666,0.060028177,3.07523,-0.6249657,-0.00013655478,-0.07209901,0.020207103,-0.0002480129,-0.047975842,0.0056490507,0.00021222017,0.46771166,-1.4204288,1.9517697,-2.1029108,-1.5679234,2.4431407,-0.12702216,0.06831801,-0.07243955,-0.022355212,0.04035356,-0.12715296,-0.05746084,0.095768064,-9.3661175,0.83589023,47.681515,-1.1288979,-1.9421163,-3.2859023,-0.58345294,0.337342,-0.29810596,28.5,29.625,28.875,32.9375,35.25,36.375
0.16405386,-0.557441,-0.40307614,-0.42035803,-0.01686617,0.0041739205,-0.1948365,-0.38715896,-0.34692487,0.060066223,3.0750928,-0.62485886,-0.00023135688,-0.0730644,0.021274416,-0.0010638839,-0.048704922,0.0033244428,0.0031407413,0.46748224,-1.4203557,1.9516133,-2.1029708,-1.5678385,2.4428623,-0.13086197,0.07011993,-0.07269011,-0.0221274,0.04209239,-0.13391367,-0.19153613,0.1340753,-9.423578,0.87393653,47.677036,-1.0540608,-2.084968,-3.2506077,-0.5940497,0.347309,-0.19458774,28.5,29.625,28.875,32.9375,35.25,36.375
0.16605355,-0.8254671,-0.18750262,-0.3592175,-0.0203969,0.017673403,-0.19439557,-0.3872755,-0.34686205,0.060035415,3.0750747,-0.62481207,-0.00010294205,-0.07303183,0.020268759,0.00012078697,-0.05165486,0.004392694,0.010459242,0.4672188,-1.4202005,1.951506,-2.1029708,-1.5677661,2.4425719,-0.13040611,0.06838345,-0.07346917,-0.021861812,0.044260073,-0.14077647,-0.24899697,0.076614454,-9.404425,0.8537928,47.72271,-1.2029672,-1.8945758,-3.3489103,-0.62611187,0.31483987,-0.12689945,28.5,29.625,28.875,32.9375,35.25,36.375
0.16805385,-0.6687654,0.1042564,-0.48193604,-0.012970384,0.045530178,-0.19268696,-0.3874168,-0.34684166,0.060047407,3.0749207,-0.62472564,-3.9066686e-05,-0.074325316,0.020253835,0.00018624499,-0.054776963,0.0026301125,0.006327143,0.46695364,-1.4200796,1.9513487,-2.1030061,-1.5676087,2.4422724,-0.13381459,0.0699678,-0.075592585,-0.021135721,0.047853984,-0.14004523,-0.2681506,0.1340753,-9.519346,0.8291774,47.687782,-1.0372921,-1.9031281,-3.3187556,-0.66175973,0.27495053,-0.0718097,28.5,29.625,28.875,32.9375,35.25,36.375
0.17005426,-0.98153436,0.041919168,-0.26430228,-0.014612518,0.063968755,-0.19197948,-0.38754794,-0.34680977,0.06004151,3.0748413,-0.624675,-8.187768e-07,-0.07547681,0.020533333,0.00010832535,-0.056736585,0.0019462551,0.0012113983,0.46672446,-1.4199352,1.9512051,-2.103042,-1.5675243,2.4420218,-0.13663203,0.07107822,-0.07660553,-0.021496065,0.049914137,-0.13774255,-0.4405331,0.076614454,-9.500193,0.8023209,47.684196,-1.1381464,-1.9369158,-3.2783535,-0.67928624,0.23040722,-0.08514221,28.5,29.625,28.875,32.9375,35.25,36.375
0.1720538,-1.8830533,0.14999565,-0.26583105,-0.022855762,0.060606606,-0.19549319,-0.3877288,-0.3467602,0.06003954,3.0747044,-0.6247842,1.921705e-05,-0.07700297,0.021577403,0.00018579219,-0.056969658,0.0029568053,-0.00590362,0.46641147,-1.4197549,1.9510144,-2.1030905,-1.567428,2.4417946,-0.13963835,0.07149165,-0.07704192,-0.02246385,0.049671043,-0.13363077,-0.5746084,0.05746084,-9.519346,0.8179876,47.701214,-1.0125433,-1.8368411,-3.2854996,-0.70671296,0.22396494,-0.12030886,28.5,29.625,28.875,32.9375,35.25,36.375
0.17405346,-1.549651,-0.057133745,-0.60754144,-0.012515819,0.07514341,-0.1936115,-0.38786826,-0.3467282,0.06005204,3.0745876,-0.6247058,3.507911e-05,-0.07794949,0.02116876,-7.145238e-05,-0.058895405,0.00222504,-0.011816906,0.46615908,-1.4196461,1.9508699,-2.1031268,-1.5673193,2.4415083,-0.14103627,0.07356414,-0.078679144,-0.023106286,0.0517203,-0.12910835,-0.59376204,-0.05746084,-9.615114,0.7239871,47.694946,-0.9697588,-1.851856,-3.3060017,-0.69697165,0.18895365,-0.19799882,28.5,29.625,28.875,32.9375,35.25,36.375
0.17605413,-1.9031343,0.14566799,-0.38729376,-0.020102702,0.06996614,-0.19255935,-0.38803637,-0.34667492,0.06004578,3.0744824,-0.62474436,5.8243444e-05,-0.078495026,0.020494385,0.00032150105,-0.061294004,0.0023806205,-0.01671281,0.46585897,-1.4194778,1.9507025,-2.1031744,-1.5672349,2.4412458,-0.14160663,0.0739483,-0.07994119,-0.023440605,0.053793132,-0.124777295,-0.7469909,0.0,-9.634268,0.9254084,47.717335,-0.97321737,-1.8287687,-3.2748828,-0.71825296,0.15082978,-0.24608362,28.5,29.625,28.875,32.9375,35.25,36.375
0.17805433,-1.9413134,-0.2752062,-0.42101386,-0.0008383109,0.07797747,-0.19037333,-0.38818377,-0.34662864,0.06005505,3.0743673,-0.62477964,9.094687e-05,-0.07930932,0.020979607,-0.00037585341,-0.061604455,0.001492422,-0.019442251,0.46558228,-1.419357,1.9505461,-2.1031873,-1.5671386,2.441006,-0.14358772,0.075786985,-0.08026837,-0.024276033,0.054478854,-0.12402499,-0.8236054,0.0,-9.557653,0.83589023,47.694054,-1.0713861,-1.8374398,-3.3276367,-0.73664623,0.11270104,-0.32090226,28.5,29.625,28.875,32.9375,35.25,36.375
0.18005346,-1.5539694,0.59345603,-0.2189991,-0.010990654,0.0938863,-0.2012985,-0.38833514,-0.34658918,0.06003945,3.074216,-0.6248453,0.00018704147,-0.07926517,0.019561885,-0.00031361045,-0.06246277,0.0022684592,-0.021452457,0.46528322,-1.4191883,1.9504026,-2.1032474,-1.5669941,2.4407673,-0.14124171,0.07711116,-0.08171729,-0.025213031,0.054893624,-0.119665325,-0.7661445,-0.076614454,-9.595961,0.7418897,47.685097,-1.2411234,-1.9681668,-3.3134193,-0.7454124,0.09501783,-0.3837356,28.5,29.625,28.875,32.9375,35.25,36.375
0.18205401,-1.6815708,0.23571444,-0.3844622,0.011662207,0.0943273,-0.19177343,-0.38850212,-0.34656793,0.060051434,3.0740955,-0.62478215,0.00013626508,-0.0807644,0.02047095,-0.0017355591,-0.06129699,0.00047531305,-0.023245385,0.4650422,-1.4190307,1.9502114,-2.1033194,-1.5669111,2.4405024,-0.14399965,0.08141949,-0.083284736,-0.025800835,0.054673582,-0.12062339,-0.6512228,-0.11492168,-9.634268,0.80679786,47.67345,-1.1449038,-2.0814703,-3.2969112,-0.74591494,0.06857448,-0.42378676,28.5,29.625,28.875,32.9375,35.25,36.375
0.1840536,-1.5869379,0.678965,-0.24480313,0.0028934772,0.08073138,-0.19826631,-0.38869336,-0.34652385,0.060061403,3.073926,-0.6248626,8.194511e-05,-0.08223055,0.019940775,4.5557037e-05,-0.063863054,0.0046509774,-0.023845227,0.4647302,-1.4188743,1.9500316,-2.1034153,-1.5668143,2.4402626,-0.14458273,0.079561494,-0.08490294,-0.027180431,0.05511234,-0.12059884,-0.61291564,-0.038307227,-9.615114,0.779936,47.677036,-1.292834,-2.0447114,-3.275557,-0.7522898,0.041029647,-0.48981345,28.5,29.625,28.875,32.9375,35.25,36.375
0.18605414,-1.8930376,0.33019876,-0.22000027,-0.0002168689,0.059580073,-0.1980951,-0.3888369,-0.34648764,0.060050365,3.073767,-0.62490565,0.00021195882,-0.08397178,0.020646458,-0.00064809003,-0.06271586,0.00498408,-0.020720435,0.46442953,-1.4187181,1.9498867,-2.1034515,-1.5666469,2.440009,-0.14659254,0.08273938,-0.086724676,-0.02825919,0.053958952,-0.12573236,-0.5363012,0.038307227,-9.442732,0.8314132,47.694946,-1.2555838,-1.9278414,-3.2654445,-0.75715923,0.03705514,-0.48752126,28.5,29.625,28.875,32.9375,35.25,36.375
0.18805394,-1.2366241,0.0056281183,-0.24510269,0.0035904439,0.06806069,-0.19621581,-0.3890416,-0.34644312,0.060068153,3.0736244,-0.6249667,0.00010773932,-0.085291,0.021136455,-0.0013000888,-0.061518285,0.0050846436,-0.012713056,0.46412894,-1.4185488,1.9496716,-2.103536,-1.5665873,2.4397652,-0.14788118,0.08561148,-0.088380225,-0.028964447,0.052892532,-0.13502192,-0.4596867,0.05746084,-9.404425,0.7866488,47.677036,-1.2523776,-2.2398922,-3.1640682,-0.761737,0.010040076,-0.43915838,28.5,29.625,28.875,32.9375,35.25,36.375
0.19005358,-1.5471287,0.5028338,-0.45185867,-0.00341983,0.045729205,-0.20070595,-0.38922393,-0.34639317,0.060097225,3.0734472,-0.62498224,9.821797e-05,-0.08739475,0.021439923,0.00022471666,-0.06136381,0.009578042,-0.003429903,0.46379286,-1.418441,1.9494904,-2.1035717,-1.5664562,2.4394617,-0.14887477,0.08495971,-0.09097208,-0.029584503,0.050795417,-0.14529553,-0.2681506,0.05746084,-9.442732,0.784413,47.674347,-1.3070166,-1.9665222,-3.1741183,-0.7594852,0.023801304,-0.36415607,28.5,29.625,28.875,32.9375,35.25,36.375
0.19205402,-0.95266664,0.17499368,-0.15933587,-0.00547859,0.057021234,-0.201073,-0.3893697,-0.34634125,0.06005423,3.0734243,-0.6248769,0.00022250004,-0.08859062,0.022162834,-0.00015162265,-0.05891767,0.010790725,0.00448343,0.46351668,-1.4182122,1.9493345,-2.103608,-1.5663728,2.4391227,-0.14942688,0.086962976,-0.09229964,-0.030179264,0.04809214,-0.15376654,-0.19153613,0.15322891,-9.423578,0.85155696,47.690468,-1.3684895,-2.0657237,-2.9138615,-0.77587163,0.042336345,-0.26415423,28.5,29.625,28.875,32.9375,35.25,36.375
0.19405368,-0.7986683,-0.13394861,-0.26987073,-0.008731606,0.04712953,-0.1908475,-0.38955018,-0.34628388,0.060056485,3.0733175,-0.6249098,0.00017505193,-0.0901312,0.023207013,-0.00013797966,-0.057779048,0.012252764,0.009491077,0.46321568,-1.4180557,1.9491667,-2.10368,-1.5663136,2.4388561,-0.15153547,0.08790712,-0.093261436,-0.03090063,0.046463072,-0.16088113,-0.2681506,0.24899697,-9.346964,0.8314132,47.687782,-1.1988199,-2.1226943,-3.1244535,-0.7722378,0.0663682,-0.1968754,28.5,29.625,28.875,32.9375,35.25,36.375
0.19605367,-0.91709834,-0.5187204,-0.1428076,-0.0052521587,0.039443705,-0.19488218,-0.3897312,-0.3462639,0.060083847,3.0731556,-0.6247647,0.00016320946,-0.09360963,0.024725216,0.001237523,-0.057918288,0.016604085,0.0034782323,0.46292633,-1.4179116,1.9489506,-2.1037285,-1.5661701,2.438497,-0.15609387,0.08785708,-0.09611366,-0.031917274,0.04466104,-0.15942311,-0.19153613,0.28730422,-9.346964,0.83813137,47.694054,-1.3119752,-1.980768,-2.888162,-0.7907054,0.08242622,-0.16371799,28.5,29.625,28.875,32.9375,35.25,36.375
0.19805399,-0.8047168,-0.47942737,-0.2591238,-0.023526799,0.042898897,-0.19450596,-0.38994247,-0.3461936,0.06008738,3.0730703,-0.6247877,9.321784e-05,-0.093845405,0.024977421,0.0007857713,-0.05691747,0.017134134,-0.0001782402,0.4625906,-1.417719,1.9487356,-2.1037886,-1.5661348,2.438187,-0.1559473,0.0887171,-0.095816776,-0.033094265,0.04354051,-0.15561846,-0.17238252,0.30645782,-9.289502,0.8291774,47.690468,-1.3253224,-2.0769958,-2.9684305,-0.77324545,0.122700006,-0.1930168,28.5,29.625,28.875,32.9375,35.25,36.375
0.20005359,-0.81559455,-0.48571405,-0.2789171,-0.030096594,0.023286061,-0.18368883,-0.39015216,-0.346157,0.060101893,3.0729096,-0.62475836,7.215059e-06,-0.09597049,0.026219197,0.0008940092,-0.0553943,0.019099873,-0.008021654,0.4622776,-1.4175384,1.9485205,-2.1038969,-1.5660394,2.4378765,-0.1585216,0.090163715,-0.097561024,-0.03386429,0.04131101,-0.15034674,-0.1340753,0.3256114,-9.32781,0.8627467,47.71286,-1.275796,-2.0363593,-2.9597297,-0.7845446,0.1448506,-0.251333,28.5,29.625,28.875,32.9375,35.25,36.375
0.20205337,-0.1154478,-0.62819046,-0.13653679,-0.034274865,0.026824314,-0.19665633,-0.39033523,-0.34609413,0.06010689,3.0728195,-0.6247431,-2.4649467e-05,-0.09750367,0.027367389,0.0009239557,-0.055523407,0.019882811,-0.013580623,0.4619645,-1.4173819,1.9483408,-2.1039445,-1.5659794,2.4375656,-0.1617036,0.090663955,-0.09803595,-0.034636315,0.04108985,-0.14796697,-0.076614454,0.36391866,-9.289502,0.79560274,47.67793,-1.1505672,-2.1281605,-2.9945607,-0.77674454,0.17126606,-0.3198228,28.5,29.625,28.875,32.9375,35.25,36.375
0.204054,-0.22587249,-0.654698,-0.25391865,-0.02860191,0.015933074,-0.18811548,-0.39053813,-0.3460634,0.06010353,3.0726464,-0.62478554,-4.330985e-05,-0.09804223,0.027562004,0.00025604226,-0.055486813,0.019469475,-0.015712686,0.46165228,-1.4171653,1.9481252,-2.1040533,-1.5658592,2.4373024,-0.1625524,0.0923987,-0.098264985,-0.035731804,0.041262474,-0.14667848,-0.1340753,0.21068975,-9.308656,0.9030289,47.68599,-1.1504681,-2.1185508,-2.9745789,-0.7508495,0.19350854,-0.34037745,28.5,29.625,28.875,32.9375,35.25,36.375
0.20605364,-0.43654305,-0.5477878,-0.271018,-0.02235658,0.018262573,-0.19549033,-0.39072385,-0.34598115,0.060096074,3.0725632,-0.62484753,-3.1438314e-05,-0.09977895,0.028536815,4.0278985e-05,-0.05575767,0.02010422,-0.018944217,0.4613028,-1.4169965,1.9479569,-2.104089,-1.5657991,2.4370024,-0.16572835,0.09383636,-0.0991573,-0.03694309,0.041237406,-0.14662072,-0.17238252,0.19153613,-9.289502,0.7777002,47.696735,-1.0131285,-2.1137366,-3.0139031,-0.74320877,0.21235687,-0.39727238,28.5,29.625,28.875,32.9375,35.25,36.375
0.20805341,-1.0111599,-0.5236579,-0.08511832,-0.01848488,0.022648335,-0.19300336,-0.3909194,-0.34593284,0.060101602,3.0724304,-0.6248772,-6.984591e-05,-0.100997604,0.030977864,-0.0017479484,-0.05291916,0.018077957,-0.021210901,0.4609899,-1.4168154,1.9477533,-2.104161,-1.5657157,2.4367254,-0.17002374,0.09669497,-0.09822899,-0.03761163,0.039632075,-0.14864951,-0.1340753,0.19153613,-9.289503,0.8112748,47.674347,-1.0286555,-2.0863895,-3.131365,-0.7288612,0.24277654,-0.38728034,28.5,29.625,28.875,32.9375,35.25,36.375
0.21005327,-0.8729105,-0.11700857,0.10723977,-0.015372758,0.048834827,-0.19441338,-0.39113945,-0.345873,0.060112502,3.0723057,-0.6248648,-0.00013754575,-0.103017904,0.028768364,0.0016676883,-0.058871105,0.025387892,-0.011655328,0.46064207,-1.4166232,1.9475249,-2.104234,-1.5656432,2.436386,-0.16916959,0.09344208,-0.10172962,-0.039991803,0.041765854,-0.15733993,-0.19153613,0.15322891,-9.232041,0.81351066,47.67614,-1.0544606,-1.9955413,-2.9914424,-0.6969656,0.2670141,-0.34582376,28.5,29.625,28.875,32.9375,35.25,36.375
0.21205415,-1.2427733,0.6665921,0.09856112,-0.01091552,0.051695574,-0.19779456,-0.39133474,-0.34582517,0.0601004,3.0721874,-0.624817,-0.00017499948,-0.10314136,0.028911583,1.2070163e-05,-0.059732024,0.023144804,-0.004967758,0.46032965,-1.4164193,1.9473461,-2.1043537,-1.5655583,2.4360592,-0.17062302,0.096252576,-0.100697406,-0.04214639,0.04359422,-0.1654722,-0.2681506,0.11492168,-9.308656,0.8784135,47.703903,-1.0639424,-2.0212946,-3.1256611,-0.66056204,0.26744312,-0.28597742,28.5,29.625,28.875,32.9375,35.25,36.375
0.21405382,-0.3690477,1.1243674,0.17004658,0.0042342893,0.07245568,-0.2094963,-0.39156452,-0.34576276,0.06012887,3.0719955,-0.62488765,-0.00025032109,-0.10297929,0.028377926,0.00039498034,-0.06155058,0.022336474,0.0047313776,0.45994577,-1.4162631,1.9471191,-2.1044261,-1.5654496,2.4357445,-0.17076196,0.095975175,-0.10149499,-0.041076288,0.04566673,-0.17529857,-0.1340753,0.038307227,-9.346964,0.7418897,47.68062,-1.1626383,-2.0920012,-3.2103736,-0.65379006,0.25819755,-0.15633154,28.5,29.625,28.875,32.9375,35.25,36.375
0.21605419,-0.8137756,0.9813903,0.09484634,0.01513186,0.05211781,-0.1904401,-0.3917358,-0.34568632,0.06007169,3.0719442,-0.62487644,-0.00011401085,-0.10355735,0.029239487,-0.0007294044,-0.060920034,0.020427225,0.006589243,0.4595971,-1.4160101,1.9469756,-2.1044977,-1.5653538,2.4353955,-0.17292024,0.09828545,-0.10156346,-0.041274533,0.04597453,-0.1793154,-0.24899697,-0.11492168,-9.289503,0.90750587,47.698532,-1.088265,-2.017889,-3.2099369,-0.6587809,0.2567141,-0.09328998,28.5,29.625,28.875,32.9375,35.25,36.375
0.21805388,-0.24393217,1.8725585,0.28207847,0.006564044,0.053041704,-0.19963363,-0.39198837,-0.34563473,0.060115416,3.0717661,-0.62480307,-0.00031492053,-0.105128415,0.0296638,-0.0011127326,-0.060656186,0.022189753,0.0034351174,0.45923665,-1.4158533,1.9467238,-2.1046183,-1.5652822,2.4350126,-0.17432179,0.10023625,-0.10233873,-0.0438895,0.044996213,-0.17755489,-0.34476507,-0.19153613,-9.251195,0.8493211,47.694946,-1.085851,-2.1324182,-3.2763298,-0.6140713,0.305605,-0.068491645,28.5,29.625,28.875,32.9375,35.25,36.375
0.2200538,-1.4357886,1.6895759,0.13477746,0.008685294,0.026606927,-0.19646817,-0.39217898,-0.34556648,0.060100712,3.0716658,-0.6248233,-0.00032107238,-0.10608103,0.029112013,-0.0001285162,-0.062893935,0.0244685,-0.0019792188,0.4589005,-1.4156613,1.9465564,-2.1047022,-1.5652093,2.4347022,-0.17473526,0.09954144,-0.10352471,-0.04504571,0.04599168,-0.17254774,-0.4405331,-0.2873042,-9.308656,0.80456203,47.667187,-1.1024559,-2.0565364,-3.2046752,-0.5785912,0.30888963,-0.14028777,28.5,29.625,28.875,32.9375,35.25,36.375
0.22205354,-1.2348361,1.2433915,0.13467997,0.012344524,0.03978563,-0.19711654,-0.39238718,-0.34551713,0.060102336,3.071515,-0.62475926,-0.00033954487,-0.106075205,0.029140085,-0.0016081716,-0.063552454,0.021456916,-0.011360687,0.458552,-1.4154681,1.9463533,-2.1047986,-1.5650886,2.4343333,-0.1759173,0.10247517,-0.10337123,-0.045739666,0.047912065,-0.16433696,-0.5554548,-0.30645782,-9.289503,0.84708,47.691364,-1.0821369,-2.1292138,-3.3120742,-0.53711796,0.3204037,-0.20133936,28.5,29.625,28.875,32.9375,35.25,36.375
0.22405393,-1.0603539,1.4691032,0.119258374,0.009427315,0.052302625,-0.19540596,-0.39260724,-0.34545153,0.06010494,3.0713494,-0.6248621,-0.00038216918,-0.1061424,0.029220391,-0.0013550522,-0.06422991,0.01966825,-0.016660025,0.45818,-1.415276,1.9461488,-2.104893,-1.5649923,2.4340472,-0.17692691,0.10271161,-0.10480144,-0.043237194,0.04932853,-0.16003738,-0.6512229,-0.22984336,-9.308656,0.82694155,47.692257,-1.1955724,-2.0272756,-3.290783,-0.53954715,0.33571184,-0.28009054,28.5,29.625,28.875,32.9375,35.25,36.375
0.2260538,-0.8667695,1.2242266,-0.034675293,0.017788433,0.068725705,-0.19328398,-0.39281327,-0.34539413,0.060094275,3.0712168,-0.6248943,-0.0003259024,-0.10658585,0.029598296,-0.001327322,-0.064616814,0.018382255,-0.022121973,0.45781952,-1.4150475,1.9459218,-2.1049402,-1.5648717,2.4337242,-0.17848155,0.103332065,-0.105938286,-0.041727133,0.050250385,-0.15612453,-0.6512228,-0.15322891,-9.423578,0.85155696,47.667187,-1.2395893,-2.0495112,-3.3447251,-0.54909956,0.3262806,-0.37670285,28.5,29.625,28.875,32.9375,35.25,36.375
0.22805382,-0.884303,1.7023435,0.05365562,0.004983795,0.077393256,-0.19488385,-0.39303565,-0.3453404,0.06011366,3.0710392,-0.6248982,-0.0004033561,-0.10636207,0.029315107,-0.002666637,-0.06471911,0.01587906,-0.02475238,0.45745957,-1.4148782,1.9457058,-2.105037,-1.5647639,2.43339,-0.17846502,0.1062134,-0.106086835,-0.042244487,0.05147187,-0.15346578,-0.47884035,-0.076614454,-9.404425,0.8605109,47.694946,-1.3683331,-2.2349467,-3.413515,-0.53834885,0.33129817,-0.44401702,28.5,29.625,28.875,32.9375,35.25,36.375
0.23005344,-1.6758636,0.7271846,-0.14166036,0.0047416324,0.053909108,-0.19922951,-0.39325067,-0.34525463,0.060090564,3.070961,-0.6250527,-0.00037412494,-0.10713171,0.028517459,-2.9581457e-05,-0.06765463,0.019807385,-0.022238605,0.4570874,-1.4146276,1.9454783,-2.1050718,-1.5647153,2.4331245,-0.17822115,0.102474384,-0.108009614,-0.04136672,0.052398928,-0.15573193,-0.36391866,0.05746084,-9.481039,0.81351066,47.68062,-1.320802,-1.8373485,-3.3448195,-0.5144176,0.34823787,-0.4965565,28.5,29.625,28.875,32.9375,35.25,36.375
0.2320539,-1.3109177,0.24103233,-0.2469097,-0.013026363,0.0499241,-0.19487275,-0.39347008,-0.3451828,0.060069323,3.0708091,-0.6251117,-0.0003470026,-0.10816203,0.029173566,-0.0022060273,-0.066516995,0.015281221,-0.014016741,0.4566905,-1.4143969,1.9452866,-2.105179,-1.5645951,2.4327843,-0.18086332,0.1085978,-0.11030333,-0.04053127,0.053453956,-0.16658734,-0.34476504,0.11492168,-9.481039,0.92093146,47.674347,-1.3337517,-2.2371006,-3.3957763,-0.5079237,0.34851277,-0.43530732,28.5,29.625,28.875,32.9375,35.25,36.375
0.23405364,-0.5043266,-0.4253995,-0.11517518,-0.016301647,0.055714995,-0.198113,-0.39368206,-0.34512332,0.060076877,3.0706542,-0.6251115,-0.0003803476,-0.10834757,0.030720618,-0.0019949204,-0.066704996,0.014280255,-0.0043273494,0.45632985,-1.4142176,1.945083,-2.1052625,-1.5644869,2.4324439,-0.18412395,0.10681694,-0.1090878,-0.039036,0.0541687,-0.17953081,-0.3256114,0.17238252,-9.461885,0.8314132,47.64479,-1.3736246,-1.9608834,-3.3965702,-0.51398885,0.34903896,-0.33948094,28.5,29.625,28.875,32.9375,35.25,36.375
0.23605348,-0.20314004,-0.25801694,-0.36568436,-0.03580873,0.048397083,-0.19434862,-0.39391422,-0.34506294,0.060091943,3.0705504,-0.6250108,-0.00047426656,-0.11117799,0.030442819,-0.00032666256,-0.07019444,0.01611207,0.0013308595,0.4559804,-1.4140131,1.9448303,-2.105334,-1.5644258,2.4320452,-0.1875407,0.10774199,-0.11420131,-0.03795145,0.056569554,-0.18858847,-0.3256114,0.21068975,-9.576807,0.88960326,47.705692,-1.2160767,-1.9598447,-3.349281,-0.5172185,0.35786182,-0.23537618,28.5,29.625,28.875,32.9375,35.25,36.375
0.23805612,-0.22191857,-0.20814043,-0.3947726,-0.04638353,0.026733601,-0.19129616,-0.39413786,-0.34498882,0.060072985,3.0704134,-0.6250779,-0.00044433647,-0.11075791,0.03118907,-0.0013631639,-0.07132034,0.012207238,0.0030672962,0.45558363,-1.4137725,1.9446162,-2.1054175,-1.5643171,2.4317083,-0.19017169,0.10857723,-0.113063835,-0.036852807,0.05935512,-0.19294317,-0.076614454,0.30645782,-9.404425,0.75755644,47.67345,-1.0833589,-1.9731514,-3.3995285,-0.5194081,0.35570422,-0.1498237,28.5,29.625,28.875,32.9375,35.25,36.375
0.24005577,-0.39079058,-0.649579,-0.53434634,-0.04655346,-0.006813418,-0.17941454,-0.39435843,-0.3449382,0.0600757,3.0702627,-0.6249724,-0.00048002467,-0.11153199,0.030037187,-0.0009969736,-0.07435293,0.011450663,-0.0006500523,0.45522347,-1.4135677,1.9443997,-2.1055248,-1.564196,2.431302,-0.19066703,0.11026835,-0.115974545,-0.036274478,0.06242741,-0.18970078,-0.1340753,0.38307226,-9.500193,0.8537928,47.683304,-1.152861,-2.0163655,-3.2664738,-0.5409646,0.31336182,-0.14507353,28.5,29.625,28.875,32.9375,35.25,36.375
0.24205433,-0.1739939,-0.9134478,-0.30066574,-0.058939137,-0.0034608708,-0.18341222,-0.3945933,-0.34486216,0.06008601,3.070091,-0.6250183,-0.0004354366,-0.11201797,0.029790329,-0.00067004754,-0.07721742,0.010321989,-0.00954247,0.45479086,-1.4133635,1.9441475,-2.105549,-1.564051,2.4309206,-0.1924959,0.11041645,-0.117041565,-0.03560342,0.06548966,-0.1826202,-0.28730422,0.4213795,-9.461885,0.92093146,47.692257,-1.1946366,-1.9163301,-3.2325883,-0.53505796,0.30463624,-0.22764267,28.5,29.625,28.875,32.9375,35.25,36.375
0.24405412,-0.018134037,-1.0941828,-0.49364752,-0.06462078,0.003992566,-0.1879978,-0.39482117,-0.3448235,0.06008284,3.069909,-0.6250423,-0.000416556,-0.1133749,0.0290844,0.00022671663,-0.081740424,0.009955619,-0.016707888,0.45443013,-1.4131112,1.9438843,-2.1056325,-1.5639051,2.4305987,-0.19501929,0.11095689,-0.119838975,-0.034999333,0.069716856,-0.17795366,-0.21068975,0.45968673,-9.519346,0.82022345,47.68062,-1.2606816,-1.884064,-3.101829,-0.5527924,0.25146884,-0.31878594,28.5,29.625,28.875,32.9375,35.25,36.375
0.24605407,0.11686871,-0.77233326,-0.5835787,-0.06231315,0.014166095,-0.18421097,-0.3950442,-0.34476155,0.0600725,3.0697513,-0.6250689,-0.00035461748,-0.11243914,0.029486196,-0.00043563353,-0.08187759,0.0072078444,-0.020189743,0.4540338,-1.4128708,1.9436454,-2.1056917,-1.5637611,2.4302397,-0.19566302,0.11084779,-0.11849411,-0.033797257,0.07106305,-0.17510703,-0.019153614,0.40222588,-9.557653,0.9388393,47.705692,-1.1238781,-1.8089235,-3.2801409,-0.56469285,0.22074956,-0.36554277,28.5,29.625,28.875,32.9375,35.25,36.375
0.24805361,0.11173631,-0.86240435,-0.39615932,-0.06335338,0.017981311,-0.1883066,-0.39529473,-0.34468824,0.060086954,3.069555,-0.6251433,-0.00037956156,-0.113938645,0.030021524,-0.0013988117,-0.0821115,0.0047275806,-0.02128111,0.45360103,-1.4126649,1.9433926,-2.1057632,-1.5636286,2.4298792,-0.19865035,0.11493472,-0.121201694,-0.032987565,0.07240591,-0.1769875,0.038307227,0.34476504,-9.5385,0.8291774,47.704796,-1.0139749,-2.0403225,-3.152295,-0.5851392,0.1906932,-0.41219372,28.5,29.625,28.875,32.9375,35.25,36.375
0.25005424,0.06541353,-0.5910646,-0.39399967,-0.057159666,0.01239108,-0.18587255,-0.3955151,-0.34464517,0.060091868,3.0693781,-0.6251042,-0.00037855498,-0.11595397,0.029831547,0.00013805603,-0.08679434,0.0066488697,-0.019208921,0.45324004,-1.4124494,1.9431533,-2.1058471,-1.5634831,2.429517,-0.20214227,0.113986135,-0.1234927,-0.033446893,0.07583429,-0.18252848,0.095768064,0.38307226,-9.519346,0.8291774,47.681515,-0.9908102,-1.9042003,-3.203413,-0.58608204,0.14650747,-0.39013618,28.5,29.625,28.875,32.9375,35.25,36.375
0.252054,0.401727,-0.15400809,-0.29304397,-0.040005084,0.016770933,-0.188323,-0.39576823,-0.34459713,0.060104057,3.0691535,-0.62512773,-0.00035970742,-0.116886936,0.029790392,-0.0009762163,-0.08528493,0.006029544,-0.008184384,0.45282006,-1.4122076,1.9428648,-2.1059196,-1.5633034,2.4291413,-0.20211494,0.118109785,-0.12557018,-0.03412702,0.074847,-0.19352023,0.038307227,0.30645782,-9.461885,0.8851263,47.68062,-1.0701487,-2.1064358,-3.0405545,-0.5730287,0.10575199,-0.31798115,28.5,29.625,28.875,32.9375,35.25,36.375
0.25405347,0.41279194,0.26310387,-0.34543112,-0.035186414,0.021122394,-0.19452485,-0.39594916,-0.34450963,0.06004131,3.0691075,-0.6250554,-0.00014777514,-0.11728152,0.029764516,-0.0013009743,-0.084932,0.006124273,0.0025755318,0.45242384,-1.4119312,1.9426979,-2.1059554,-1.5631717,2.4287057,-0.20212275,0.11947382,-0.12634236,-0.03451332,0.07455101,-0.20429482,0.038307227,0.24899697,-9.500193,0.7978386,47.675243,-1.0585883,-2.0736468,-3.1163487,-0.5765768,0.11146914,-0.18489307,28.5,29.625,28.875,32.9375,35.25,36.375
0.25605324,0.32967177,0.82293266,-0.111653365,-0.027579114,0.02734153,-0.19589977,-0.39621043,-0.34447888,0.060085356,3.0688403,-0.6250353,-0.00023240208,-0.118358456,0.030236179,-0.0015073846,-0.08360054,0.0067266547,0.0061620735,0.45202798,-1.4117382,1.9423984,-2.1060512,-1.562992,2.4283326,-0.2028704,0.12129526,-0.12797496,-0.034558263,0.07317074,-0.20862,-0.019153614,0.15322891,-9.404425,0.8537928,47.691364,-1.1233802,-2.1473947,-3.1160817,-0.572261,0.096596636,-0.102700636,28.5,29.625,28.875,32.9375,35.25,36.375
0.25805444,0.08901957,1.2658988,0.05063743,-0.0043937103,0.041295264,-0.18561266,-0.3964728,-0.34442323,0.060097862,3.0686178,-0.62499225,-0.0002708069,-0.11907416,0.031079708,-0.0018555566,-0.08105594,0.0075326306,0.001402504,0.45159563,-1.4115096,1.9421352,-2.106171,-1.5628251,2.4279027,-0.203169,0.122530796,-0.12858999,-0.03475257,0.07055055,-0.20415999,-0.11492168,0.17238252,-9.3661175,0.83589023,47.677036,-1.1745796,-2.1729102,-3.1069193,-0.57453626,0.105966076,-0.110519275,28.5,29.625,28.875,32.9375,35.25,36.375
0.26005417,-0.32822934,1.3359506,0.18804854,0.014466087,0.06513116,-0.18910016,-0.3967102,-0.34436747,0.060112182,3.0684922,-0.6248937,-0.00029226296,-0.12059687,0.03201332,-0.0018681658,-0.078687765,0.00917508,-0.0074612363,0.45122334,-1.4112806,1.9418477,-2.1062071,-1.5627183,2.4274855,-0.20418341,0.124111496,-0.13035725,-0.035015244,0.067684345,-0.1963167,-0.21068975,0.15322891,-9.308656,0.8493211,47.668976,-1.2032824,-2.2241988,-3.0939858,-0.5820656,0.122293286,-0.21171483,28.5,29.625,28.875,32.9375,35.25,36.375
0.26205367,-0.9929453,1.8180084,0.08278128,0.019791486,0.07526245,-0.20242916,-0.39692783,-0.34431663,0.06008775,3.0683012,-0.62495434,-0.00013142153,-0.12076275,0.033093974,-0.0024130747,-0.076090455,0.008910006,-0.014697056,0.45081547,-1.4110044,1.9415969,-2.1062548,-1.5625151,2.4271405,-0.20468548,0.12478005,-0.1300118,-0.03463826,0.06544272,-0.18959257,-0.30645782,0.019153614,-9.385271,0.8560339,47.71286,-1.2521057,-2.199448,-3.1147912,-0.5821415,0.15843567,-0.28106326,28.5,29.625,28.875,32.9375,35.25,36.375
0.26405442,-0.39721307,1.6734802,0.59313476,0.014441267,0.1103574,-0.1986446,-0.39715365,-0.3442442,0.060084734,3.0681784,-0.6249313,-0.00014626856,-0.12085048,0.033914834,-0.0041533234,-0.07243096,0.006315916,-0.020922143,0.45043144,-1.4107869,1.9413699,-2.1063259,-1.5624198,2.4267583,-0.20471005,0.12868403,-0.1307726,-0.033852935,0.06326912,-0.18339668,-0.4405331,-0.038307227,-9.289503,0.82694155,47.67793,-1.3496957,-2.2018666,-3.2217534,-0.6037512,0.15623622,-0.39748728,28.5,29.625,28.875,32.9375,35.25,36.375
0.2660539,-1.2222843,1.6906098,0.56446683,0.009552313,0.09483787,-0.20022443,-0.39741477,-0.34415478,0.06007281,3.0680296,-0.6250954,-0.00013660177,-0.12207303,0.03482853,-0.0022310885,-0.07163538,0.010330957,-0.025340555,0.44998702,-1.4105115,1.9410938,-2.106386,-1.5623244,2.4264362,-0.20567267,0.12565105,-0.13189542,-0.032940798,0.060811393,-0.17994958,-0.4213795,-0.11492168,-9.232041,0.90527004,47.674347,-1.4100071,-2.1943202,-3.2547162,-0.61863077,0.20227858,-0.50377023,28.5,29.625,28.875,32.9375,35.25,36.375
0.2680536,-0.8396959,1.3253018,0.5694285,0.02110839,0.095752776,-0.20143715,-0.3976799,-0.3440939,0.06010694,3.067825,-0.6251057,-0.00020911929,-0.12193173,0.03574362,-0.003802962,-0.06858232,0.007782162,-0.020972468,0.44956696,-1.4103061,1.9407939,-2.1064456,-1.5621928,2.4260497,-0.20603403,0.1285898,-0.13192467,-0.032133248,0.059247002,-0.18467812,-0.4213795,-0.076614454,-9.193734,0.8314132,47.699425,-1.572392,-2.2640138,-3.182191,-0.6644491,0.21879846,-0.48722073,28.5,29.625,28.875,32.9375,35.25,36.375
0.2700542,-1.267592,0.82929957,0.6734665,0.015843807,0.07785082,-0.19660118,-0.3979305,-0.3440214,0.060082644,3.0676866,-0.6250888,-0.00019012112,-0.12450491,0.03622682,-0.0025170422,-0.07001619,0.011632099,-0.009817168,0.44914642,-1.4100181,1.9405426,-2.1065538,-1.5620726,2.425637,-0.20879579,0.12850712,-0.13448432,-0.033414412,0.058980007,-0.19859213,-0.4213795,0.0,-9.155427,0.95897776,47.667187,-1.612457,-2.1203072,-3.2915335,-0.6557888,0.2803318,-0.42683822,28.5,29.625,28.875,32.9375,35.25,36.375
0.27205417,-0.4769205,1.3130373,0.62018573,-0.0063117435,0.07739305,-0.20969675,-0.398165,-0.34394985,0.06006942,3.0675836,-0.62502223,-0.00015299323,-0.12503107,0.037350412,-0.0030124264,-0.069646865,0.011364882,0.0012489015,0.44874978,-1.4097538,1.9402794,-2.106602,-1.5619653,2.4252124,-0.21104494,0.12881039,-0.13358817,-0.034052394,0.058878593,-0.21190652,-0.45968673,-0.038307227,-9.097966,0.94331104,47.684196,-1.5437646,-2.1470218,-3.265281,-0.666348,0.28144097,-0.2869214,28.5,29.625,28.875,32.9375,35.25,36.375
0.27405378,-0.4455698,0.68571997,0.38808507,0.0012602039,0.053166486,-0.19808273,-0.39841592,-0.3438438,0.06006128,3.0674949,-0.62498295,-0.00013607567,-0.12528649,0.038199104,-0.0036026153,-0.068880364,0.009083268,0.007161042,0.44829285,-1.4095131,1.9400285,-2.1066368,-1.561881,2.4247427,-0.21287517,0.13022153,-0.13431983,-0.03223258,0.05925966,-0.21964474,-0.51714754,0.0,-9.174581,0.8717007,47.690468,-1.436053,-2.0893302,-3.3734994,-0.6808597,0.30468428,-0.19265987,28.5,29.625,28.875,32.9375,35.25,36.375
0.27605376,-0.23088086,0.8414547,0.68461215,-0.021471957,0.044493433,-0.2019549,-0.39867103,-0.34378433,0.060058933,3.0673227,-0.6249694,-0.00015040736,-0.12673503,0.03824997,-0.0022464378,-0.07224626,0.00963784,0.0014025238,0.44788408,-1.4092491,1.939752,-2.1067321,-1.5617479,2.4243484,-0.21585809,0.12934813,-0.13670325,-0.030915279,0.06207127,-0.21684703,-0.61291564,0.019153614,-9.136273,0.947788,47.679718,-1.3564012,-1.9677215,-3.3231044,-0.7137722,0.31958035,-0.17846195,28.5,29.625,28.875,32.9375,35.25,36.375
0.27805337,-0.1532876,0.67411184,0.73408145,-0.018782048,0.04953407,-0.19424671,-0.39894533,-0.34372038,0.06007585,3.0671628,-0.6249409,-0.00024355687,-0.12753098,0.03942306,-0.0034817895,-0.07121207,0.008794713,-0.008836451,0.44747522,-1.408996,1.9394416,-2.106817,-1.5616525,2.423943,-0.21809943,0.1314463,-0.13596372,-0.032569528,0.061492447,-0.20884351,-0.61291564,0.11492168,-9.078813,0.900793,47.65912,-1.338625,-2.0123858,-3.4336443,-0.7146515,0.32679927,-0.26221597,28.5,29.625,28.875,32.9375,35.25,36.375
0.28005397,-0.97909516,0.70006394,0.18981269,-0.00658385,0.032718614,-0.19590993,-0.39921147,-0.34363434,0.060070626,3.0669997,-0.625006,-0.00023983339,-0.12926121,0.039238863,-0.0027597814,-0.07323292,0.010165166,-0.014450611,0.44701847,-1.4087317,1.9391655,-2.1068885,-1.5615319,2.4235487,-0.21988818,0.13242622,-0.13866639,-0.032942723,0.06272337,-0.20500472,-0.34476504,0.095768064,-9.251195,0.9410752,47.661808,-1.2745445,-1.9212961,-3.2209592,-0.7291543,0.3531154,-0.33679008,28.5,29.625,28.875,32.9375,35.25,36.375
0.28205395,-0.699182,0.6344213,0.29846478,-0.00829931,0.04154605,-0.19541126,-0.39945033,-0.34355327,0.060057722,3.066868,-0.62498015,-0.00017723876,-0.13106892,0.038720027,-0.0016010883,-0.077495106,0.01071944,-0.018975377,0.44658595,-1.4084773,1.9389127,-2.1069357,-1.5613984,2.4231174,-0.22267735,0.13289927,-0.14196274,-0.032435473,0.0663366,-0.2032444,-0.32561144,0.038307227,-9.232041,0.95897776,47.71465,-1.2651665,-2.1208212,-3.1860538,-0.75355786,0.3121398,-0.3885613,28.5,29.625,28.875,32.9375,35.25,36.375
0.2840538,-0.32609215,0.9020214,0.43512928,-0.025930386,0.050006587,-0.20782591,-0.3997189,-0.34347683,0.060031768,3.0666907,-0.6250556,-0.00013670052,-0.13218042,0.038433425,-0.0025391327,-0.07868923,0.009539186,-0.01638199,0.44612944,-1.4081657,1.9386376,-2.107044,-1.5612539,2.4227316,-0.22401027,0.13658267,-0.14383766,-0.03360437,0.06797875,-0.20715559,-0.4405331,0.076614454,-9.212888,0.88289046,47.651955,-1.2930093,-2.0527537,-3.194621,-0.7752805,0.3297853,-0.39865118,28.5,29.625,28.875,32.9375,35.25,36.375
0.28605378,-1.4356085,0.33999282,0.19651632,-0.013381759,0.037067454,-0.19624504,-0.39997664,-0.3433946,0.06002,3.0665615,-0.6250054,-5.2865416e-05,-0.1338737,0.039001014,-0.00085301267,-0.08029131,0.013202589,-0.009645188,0.4456726,-1.4078782,1.9383386,-2.1070683,-1.5611099,2.4222605,-0.22627409,0.13439552,-0.1450678,-0.034036666,0.06793347,-0.21615483,-0.51714754,0.21068975,-9.193734,0.9097417,47.693153,-1.2039347,-2.0093222,-3.2008781,-0.77265537,0.3291528,-0.3284585,28.5,29.625,28.875,32.9375,35.25,36.375
0.28805324,-0.8804475,0.6496747,-0.030194603,-0.020816492,0.0589973,-0.21477596,-0.4002553,-0.34332132,0.060035408,3.066377,-0.62503684,-0.00010590816,-0.13314973,0.038352657,-0.0016179662,-0.08190902,0.009655198,0.0019346322,0.4452287,-1.4076253,1.9380287,-2.1071398,-1.5609888,2.421861,-0.22634032,0.13614942,-0.14572051,-0.03247606,0.07105758,-0.22777466,-0.2681506,0.17238252,-9.461885,0.9567419,47.703007,-1.1485398,-2.0243278,-3.1905684,-0.80308545,0.32976592,-0.18883681,28.5,29.625,28.875,32.9375,35.25,36.375
0.29005373,-1.3529748,-0.1645867,-0.18215768,-0.023674723,0.049337607,-0.19676068,-0.40048596,-0.34323066,0.059979912,3.0662777,-0.6248988,0.00012897326,-0.13299868,0.036843836,-0.0014059809,-0.085133135,0.009263996,0.008189087,0.44474924,-1.4073006,1.9377888,-2.1071756,-1.5607957,2.421308,-0.22538722,0.13682601,-0.14690062,-0.032888222,0.07418134,-0.23306124,-0.24899697,0.21068975,-9.500193,0.90750587,47.684196,-1.2937691,-1.9524741,-3.2266245,-0.8291295,0.29827142,-0.10390699,28.5,29.625,28.875,32.9375,35.25,36.375
0.29205433,-1.3546125,-1.0206977,0.016768502,-0.03292645,0.054406494,-0.1902248,-0.40075654,-0.3431638,0.05997778,3.0660985,-0.62495995,0.0001286029,-0.1338368,0.03573468,-0.0011901114,-0.08857094,0.009969317,0.0031406214,0.44431683,-1.4070122,1.937478,-2.107248,-1.5606631,2.4209378,-0.22575998,0.13798584,-0.14830802,-0.034749832,0.076981485,-0.2283608,-0.45968673,0.30645782,-9.461885,0.9186956,47.64927,-1.4558301,-2.0407197,-3.1983678,-0.8329777,0.2590279,-0.11036782,28.5,29.625,28.875,32.9375,35.25,36.375
0.2940541,-0.9766284,-0.19990373,-0.22839268,-0.053171583,0.060388416,-0.19885623,-0.40102026,-0.34309316,0.05997153,3.0659308,-0.6248521,0.00017543796,-0.13431789,0.03497355,-0.0011052806,-0.09247474,0.009728573,-0.0071020885,0.44386056,-1.4067358,1.9371904,-2.1073205,-1.5604938,2.4204364,-0.2269499,0.13840127,-0.14860596,-0.03635842,0.08057838,-0.21927918,-0.34476504,0.2681506,-9.519346,0.8717007,47.670765,-1.5279002,-2.1184173,-3.176734,-0.829852,0.24052113,-0.18529633,28.5,29.625,28.875,32.9375,35.25,36.375
0.2960538,-1.3286488,-0.40611067,-0.7075127,-0.036605366,0.034338832,-0.1895463,-0.40129685,-0.34301534,0.059964832,3.0657694,-0.62482446,0.00017564862,-0.13635224,0.03443472,-0.0006583565,-0.09622007,0.01053922,-0.017532095,0.44340378,-1.4064466,1.9368914,-2.107405,-1.5603603,2.4199839,-0.22946756,0.14029825,-0.15150411,-0.037723396,0.08358672,-0.21133876,-0.11492168,0.24899697,-9.844957,0.92093146,47.723602,-1.4583135,-2.3263521,-3.1746168,-0.84298915,0.19062135,-0.29179347,28.5,29.625,28.875,32.9375,35.25,36.375
0.29805377,-1.4633607,-0.9778538,-0.6691228,-0.03621367,0.006987111,-0.1879104,-0.40156475,-0.34294513,0.059955694,3.0655293,-0.6249718,0.00027370345,-0.13692029,0.03509161,-0.002845185,-0.09738274,0.0066756858,-0.027974622,0.4429229,-1.4061569,1.9365925,-2.1074655,-1.5601557,2.419627,-0.23265196,0.14442138,-0.15091583,-0.0394457,0.08627357,-0.20405746,-0.038307227,0.22984336,-9.80665,0.9455522,47.667187,-1.3817683,-2.1474905,-3.509321,-0.82776785,0.14456598,-0.43686575,28.5,29.625,28.875,32.9375,35.25,36.375
0.30005336,-0.8833912,-0.9264815,-0.67707396,-0.04891975,-0.0015252802,-0.19772428,-0.4018713,-0.34288958,0.059966527,3.0652964,-0.6250176,0.00021871777,-0.13887927,0.034669727,-0.0011586315,-0.10085261,0.010936105,-0.028232181,0.44246632,-1.4058453,1.9362334,-2.1075737,-1.5599993,2.4192302,-0.23424137,0.14309144,-0.15273187,-0.041555613,0.08764006,-0.205367,-0.095768064,0.3256114,-9.634268,0.93436235,47.685097,-1.2581539,-2.1109636,-3.3665957,-0.8097217,0.10387473,-0.5095081,28.5,29.625,28.875,32.9375,35.25,36.375
0.3020541,-0.046420727,-0.41753376,-0.7206528,-0.04437909,0.005510557,-0.21119863,-0.40215492,-0.342791,0.05994962,3.0651026,-0.6250289,0.0002911077,-0.14076099,0.034455802,-0.0011596286,-0.10354681,0.01217921,-0.019572314,0.44193754,-1.405556,1.9359578,-2.1076581,-1.5598181,2.4187343,-0.23655497,0.14518362,-0.15463485,-0.04382631,0.08966334,-0.21632124,0.15322891,0.2681506,-9.653421,0.8873621,47.67614,-1.1721392,-2.3155055,-3.2695222,-0.79523206,0.07896049,-0.45160836,28.5,29.625,28.875,32.9375,35.25,36.375
0.3040536,0.00062394975,-0.47592172,-1.0599585,-0.031717386,0.0012211413,-0.20936573,-0.4024195,-0.34273833,0.059941854,3.064884,-0.6250326,0.0003686282,-0.14407022,0.035747845,-0.0004599623,-0.103402756,0.016197843,-0.007946473,0.44149247,-1.4052554,1.9356459,-2.107731,-1.559615,2.4183207,-0.2403802,0.1465869,-0.15744425,-0.045731563,0.08797141,-0.23177621,0.22984336,0.36391866,-9.883265,0.8605109,47.653748,-1.1974459,-2.2648034,-3.325148,-0.77569276,0.058568195,-0.30012125,28.5,29.625,28.875,32.9375,35.25,36.375
0.30605376,-0.24819769,-0.75920856,-0.7800073,-0.0332104,0.0045069656,-0.20813471,-0.4027213,-0.34265426,0.059937112,3.064705,-0.6249541,0.00033299343,-0.14449024,0.03820039,-0.0023911719,-0.0998066,0.01449872,-0.0020432766,0.4409994,-1.4049546,1.935337,-2.1078508,-1.5594724,2.4178026,-0.243361,0.14862074,-0.1552352,-0.046718717,0.08557756,-0.24066707,0.17238252,0.34476504,-9.80665,0.8537928,47.707485,-1.1312253,-2.4025898,-3.432416,-0.75632536,0.06563521,-0.19389847,28.5,29.625,28.875,32.9375,35.25,36.375
0.3080543,-1.142196,-0.41597584,-0.6095839,-0.04315489,0.007994059,-0.20301564,-0.40301478,-0.34256405,0.059941225,3.0644999,-0.6250103,0.00033590329,-0.14704733,0.03943442,-0.0017485386,-0.100094885,0.017037917,-0.008990158,0.4404943,-1.4046783,1.9350256,-2.1079228,-1.5593165,2.41736,-0.2469917,0.1493027,-0.15728045,-0.047729746,0.084775396,-0.23734638,-0.114921674,0.28730422,-9.672575,0.8090337,47.66987,-1.0387267,-2.2842531,-3.3273191,-0.7524582,0.07617865,-0.17918982,28.5,29.625,28.875,32.9375,35.25,36.375
0.31005406,-1.0952033,-0.15782246,-0.45160946,-0.038728703,0.050547004,-0.2140831,-0.40332285,-0.34249586,0.059942175,3.0642636,-0.62502295,0.00031485446,-0.14851247,0.04054583,-0.0020337396,-0.09597582,0.019910885,-0.017271658,0.4400021,-1.4043655,1.9346904,-2.1080434,-1.5591382,2.4169075,-0.24683619,0.1511143,-0.1584595,-0.049202465,0.079810955,-0.22893062,-0.2681506,0.28730422,-9.691729,0.8179876,47.70211,-0.9865328,-2.2208025,-3.3868885,-0.7158759,0.11255406,-0.27049673,28.5,29.625,28.875,32.9375,35.25,36.375
0.3120536,-1.9837563,-0.15403181,-0.5444227,-0.021074869,0.068177536,-0.20298336,-0.40359747,-0.34239897,0.059918277,3.0640836,-0.6250432,0.00041350655,-0.14954135,0.040274102,-0.00034904032,-0.09527891,0.024915958,-0.020038115,0.43948698,-1.4040653,1.9344147,-2.1081154,-1.5589589,2.416429,-0.24528077,0.14936103,-0.1601231,-0.049977284,0.07705008,-0.22462387,-0.36391866,0.15322891,-9.710882,0.93436235,47.689575,-1.092001,-2.3258743,-3.4244623,-0.7007968,0.14194109,-0.33959448,28.5,29.625,28.875,32.9375,35.25,36.375
0.31405422,-2.5371518,0.6894601,-0.10090481,-0.017000189,0.08348518,-0.21037781,-0.40391007,-0.34235632,0.059952892,3.0638201,-0.62502223,0.00029410416,-0.14980453,0.039887946,-0.0007590502,-0.0931475,0.025966838,-0.017917767,0.4390439,-1.4037882,1.9340442,-2.1082356,-1.5587915,2.4160085,-0.24315833,0.15146244,-0.1615118,-0.050655473,0.0747453,-0.22462179,-0.4405331,0.19153613,-9.615114,0.8717007,47.691364,-1.3389814,-2.4072132,-3.3889055,-0.67485094,0.16258404,-0.40489358,28.5,29.625,28.875,32.9375,35.25,36.375
0.3160546,-2.726844,0.92832696,-0.104106486,0.00021367946,0.08759292,-0.21570145,-0.40422755,-0.34227934,0.059944727,3.0636384,-0.62497985,0.00026860673,-0.15170431,0.04011801,-0.00060483784,-0.09174176,0.0289189,-0.01177592,0.43855187,-1.4034395,1.9336847,-2.1083438,-1.5586485,2.4155145,-0.24341385,0.15366597,-0.16412368,-0.052168656,0.07232342,-0.23102766,-0.5554548,0.17238252,-9.481039,0.83813137,47.678825,-1.4360516,-2.3810282,-3.341453,-0.645735,0.19831645,-0.36997697,28.5,29.625,28.875,32.9375,35.25,36.375
0.31805345,-2.0329242,1.3137553,0.070579804,0.016509546,0.09394365,-0.2180855,-0.40456292,-0.3422126,0.059977815,3.0633936,-0.62494105,8.358001e-05,-0.15330869,0.041452594,-0.0006798853,-0.090482995,0.030584417,-0.00078980473,0.438071,-1.403163,1.9333261,-2.1084993,-1.5585173,2.4150426,-0.24585588,0.15459844,-0.16485201,-0.053113353,0.07067974,-0.24445292,-0.34476507,0.1340753,-9.3661175,0.86945957,47.655537,-1.5312462,-2.2880268,-3.3457036,-0.5978022,0.24708998,-0.24430227,28.5,29.625,28.875,32.9375,35.25,36.375
0.32005405,-1.6595079,1.1221168,5.9915536e-05,0.018453253,0.07561059,-0.21429175,-0.4048363,-0.3421433,0.05996859,3.0632107,-0.6248407,9.5356845e-05,-0.15532464,0.04164467,0.00027201005,-0.0912007,0.03537898,0.0062288935,0.43761447,-1.4028747,1.9330395,-2.1086085,-1.5583495,2.414548,-0.24689057,0.15436403,-0.16607776,-0.0561235,0.06941773,-0.2525092,-0.19153613,0.0,-9.519346,0.8672237,47.68599,-1.5270915,-2.3346868,-3.4211102,-0.5503444,0.26096657,-0.114813134,28.5,29.625,28.875,32.9375,35.25,36.375
0.32205385,-1.410146,1.4996908,0.12562142,-0.003840685,0.038602766,-0.22275175,-0.4051536,-0.34203285,0.059943225,3.06306,-0.62482905,5.326204e-05,-0.15581727,0.041598838,0.00015866915,-0.09036955,0.034474235,0.004538961,0.43708676,-1.4025378,1.9327401,-2.108751,-1.5582412,2.4140334,-0.24680789,0.15632221,-0.16853409,-0.0544115,0.069093734,-0.25073117,-0.40222588,-0.019153614,-9.385271,0.88960326,47.68599,-1.5827202,-2.2054918,-3.200283,-0.51820374,0.32607025,-0.10164942,28.5,29.625,28.875,32.9375,35.25,36.375
0.3240537,-0.45057216,0.5149134,0.12344859,0.0031117734,0.03224599,-0.20340604,-0.40546206,-0.34193265,0.059930973,3.0629108,-0.6248212,7.5981596e-05,-0.15716696,0.041618943,0.0024737162,-0.0915449,0.038014524,-0.0041350564,0.4365704,-1.402202,1.932393,-2.1088102,-1.5581101,2.4135323,-0.24746968,0.15375686,-0.17119534,-0.052921284,0.06863883,-0.24271682,-0.45968673,-0.038307227,-9.3661175,0.85826975,47.699425,-1.398848,-2.201984,-3.3294554,-0.51769936,0.3426243,-0.1445367,28.5,29.625,28.875,32.9375,35.25,36.375
0.3260534,-0.29482308,0.89932853,-0.2876642,0.0050852513,0.010261326,-0.2091311,-0.4057978,-0.34185037,0.05995335,3.062716,-0.62476754,-7.176385e-05,-0.15773064,0.043523435,0.0013740995,-0.09117468,0.034265038,-0.018930277,0.4360774,-1.4019014,1.932022,-2.1089299,-1.5580009,2.4130323,-0.25186682,0.15528083,-0.17086808,-0.051294394,0.06987529,-0.23229554,-0.34476504,-0.076614454,-9.346964,0.9186956,47.674347,-1.4614072,-2.2833962,-3.3167014,-0.49886665,0.37694252,-0.26443762,28.5,29.625,28.875,32.9375,35.25,36.375
0.32805368,-0.20818204,0.8273615,-0.28299555,-0.0022370773,0.006850905,-0.21321116,-0.40614477,-0.34177804,0.059981048,3.0624092,-0.62484324,-0.0002105298,-0.15892985,0.04399708,0.0011413209,-0.09327456,0.032914825,-0.03210712,0.4355482,-1.4016125,1.9316643,-2.1090968,-1.5578207,2.4125922,-0.25502312,0.15682094,-0.17212729,-0.0512972,0.072340354,-0.22223727,-0.24899697,0.05746084,-9.385271,0.8784135,47.678825,-1.3169926,-2.0632422,-3.3064198,-0.4741405,0.39485353,-0.42554727,28.5,29.625,28.875,32.9375,35.25,36.375
0.3300546,-0.71507806,0.4707759,0.18708907,-0.004769056,0.011717239,-0.19889066,-0.40645432,-0.3416845,0.059959076,3.062248,-0.62488735,-0.00018575255,-0.16020678,0.045011517,0.0019352731,-0.09441529,0.030861406,-0.034886993,0.4350427,-1.4012522,1.9313158,-2.1091788,-1.5576876,2.412136,-0.2589028,0.1571542,-0.1753516,-0.04695244,0.07430436,-0.22331563,-0.30645782,0.095768064,-9.270349,0.83813137,47.68062,-1.1853995,-2.148331,-3.3023071,-0.4720923,0.38598156,-0.47831577,28.5,29.625,28.875,32.9375,35.25,36.375
0.33205336,-0.49600235,0.7101501,0.033248022,0.0014907272,0.02609043,-0.21964937,-0.4067654,-0.341587,0.059966773,3.0620458,-0.62489355,-0.00019810078,-0.15870486,0.045560088,0.0008583046,-0.09644255,0.02360904,-0.023798289,0.43451384,-1.4009635,1.930981,-2.1092498,-1.5575298,2.4116385,-0.26164275,0.15777442,-0.17470701,-0.042255864,0.07940655,-0.23709613,-0.22984336,0.1340753,-9.232041,0.9567419,47.696735,-1.0578479,-2.061112,-3.4149182,-0.5155802,0.3826999,-0.40489867,28.5,29.625,28.875,32.9375,35.25,36.375
0.33405405,-0.9382859,1.0547893,-0.2274457,-0.0011982449,0.016843822,-0.2180786,-0.40708503,-0.34148496,0.05996329,3.061884,-0.6249084,-0.00018949395,-0.15894765,0.044355825,0.0019877485,-0.098884255,0.02436575,-0.009416178,0.43398625,-1.4006275,1.9306105,-2.109297,-1.5573972,2.411142,-0.26081458,0.15743043,-0.17720582,-0.04088171,0.08148805,-0.2506276,-0.11492168,0.095768064,-9.270349,0.92093146,47.67614,-1.189012,-2.0119362,-3.3248186,-0.5377634,0.3643556,-0.26236272,28.5,29.625,28.875,32.9375,35.25,36.375
0.33605412,-0.4282855,0.1964816,-0.27489257,-0.0049894215,0.028938085,-0.20665434,-0.40738747,-0.34141168,0.059955336,3.0616667,-0.6247825,-0.00013327625,-0.15880229,0.043372262,0.0016080036,-0.1024406,0.021462241,-0.0053261556,0.43347037,-1.4003028,1.9302753,-2.1093924,-1.5571798,2.4105768,-0.26162234,0.15912239,-0.17850827,-0.03998546,0.086042404,-0.2554786,-0.22984336,0.1340753,-9.3661175,0.9321212,47.67166,-1.3126936,-2.0951583,-3.2025106,-0.54765296,0.34363294,-0.19219173,28.5,29.625,28.875,32.9375,35.25,36.375
0.33805397,-0.29122213,-0.09629035,-0.14371789,-0.027697263,0.022589505,-0.20406526,-0.4076966,-0.34131992,0.05994942,3.0614684,-0.62484056,-0.00011435377,-0.15815179,0.04143648,0.00096311216,-0.10712377,0.01670527,-0.011262433,0.43295416,-1.3999771,1.9299282,-2.1094635,-1.5570215,2.4101238,-0.26139835,0.16194886,-0.18070464,-0.038286176,0.0922814,-0.24925481,-0.30645782,0.21068975,-9.3661175,0.8940802,47.66987,-1.3305821,-2.1629658,-3.2491355,-0.5739097,0.24851276,-0.2138195,28.5,29.625,28.875,32.9375,35.25,36.375
0.34005356,-0.32903612,-0.3120248,-0.42561007,-0.039689433,0.006766879,-0.20093259,-0.40800282,-0.34124044,0.05995002,3.0612094,-0.6249243,-5.7359484e-05,-0.15725479,0.041089006,-3.7397134e-05,-0.107853964,0.01279945,-0.018517084,0.4324257,-1.3996645,1.929582,-2.109535,-1.556805,2.4096828,-0.26127586,0.16374049,-0.18091258,-0.036638837,0.09456659,-0.24184772,-0.2681506,0.22984336,-9.404425,0.8403672,47.666286,-1.3284321,-2.0847564,-3.2466598,-0.5851203,0.24800271,-0.3148995,28.5,29.625,28.875,32.9375,35.25,36.375
0.34205383,-0.41762736,-1.1793379,-0.33471376,-0.042631112,0.017204626,-0.18925731,-0.4083361,-0.34114605,0.059945334,3.061024,-0.6248469,-7.2977164e-05,-0.15774764,0.039972086,0.00095429044,-0.11184837,0.012953552,-0.023128932,0.4318862,-1.3993164,1.9292115,-2.1096303,-1.5566472,2.40912,-0.2617364,0.16341358,-0.18290235,-0.036117733,0.09814236,-0.23765288,-0.114921674,0.2681506,-9.346964,0.9254084,47.634937,-1.4272151,-2.0494437,-3.250192,-0.6138928,0.18314648,-0.40041316,28.5,29.625,28.875,32.9375,35.25,36.375
0.34405324,-0.59583414,-0.37403747,-0.39128232,-0.046367273,0.015404598,-0.20597805,-0.40866134,-0.3410729,0.059949443,3.0607915,-0.62492996,-2.5352907e-05,-0.1583791,0.04051216,0.00053721434,-0.1128024,0.011677897,-0.020473296,0.43136948,-1.3989553,1.9287924,-2.1096666,-1.556455,2.4086869,-0.2639285,0.16464224,-0.1834704,-0.035859704,0.09964478,-0.24247919,-0.05746084,0.28730422,-9.461885,0.9365982,47.67614,-1.5082424,-2.1528556,-3.3332977,-0.6258848,0.13147262,-0.41739476,28.5,29.625,28.875,32.9375,35.25,36.375
0.34605348,-0.20829698,-0.14763932,-0.15069209,-0.023179267,0.029354258,-0.20985591,-0.40896645,-0.34099978,0.059961185,3.060492,-0.62493527,7.016355e-05,-0.15923728,0.041179467,-0.00016037456,-0.113320984,0.010369121,-0.009748614,0.43081668,-1.3986664,1.9284462,-2.1097262,-1.5561785,2.4081779,-0.26635012,0.1666945,-0.18430024,-0.035802353,0.10085974,-0.25560555,-0.038307227,0.30645782,-9.385271,0.947788,47.695843,-1.4388139,-2.1413436,-3.2437162,-0.6404919,0.12840588,-0.32902217,28.5,29.625,28.875,32.9375,35.25,36.375
0.34805351,-0.8314518,0.5880009,0.038473297,-0.013063694,0.035803452,-0.20937786,-0.4092866,-0.34090766,0.05994885,3.060308,-0.6248138,6.203953e-05,-0.16128753,0.042952143,-0.0013838349,-0.1110553,0.009595186,-0.0013090312,0.43028754,-1.3983287,1.9281105,-2.1098459,-1.5560116,2.4075978,-0.26994964,0.17075948,-0.18627892,-0.035962705,0.099307336,-0.26764873,0.038307227,0.2681506,-9.270349,0.8112748,47.667187,-1.2757566,-2.2026565,-3.2516475,-0.63931024,0.10693028,-0.1878952,28.5,29.625,28.875,32.9375,35.25,36.375
0.35005426,-0.4706153,0.7350817,-0.14238167,0.016483791,0.04543007,-0.20116363,-0.40961954,-0.34081885,0.059948996,3.0601037,-0.624811,9.515936e-05,-0.16374409,0.045219105,-0.0006234533,-0.10891484,0.012821875,-0.0052560377,0.42974648,-1.3979685,1.9277037,-2.1098936,-1.5558323,2.4070828,-0.2736711,0.17041533,-0.18761756,-0.0362119,0.09606615,-0.2674447,0.076614454,0.28730422,-9.212888,0.8403672,47.667187,-1.184068,-2.1122594,-3.2869709,-0.6500081,0.11019767,-0.13153154,28.5,29.625,28.875,32.9375,35.25,36.375
0.3520538,-0.71119493,1.4053925,-0.22369607,0.009821844,0.037156463,-0.20301066,-0.40996206,-0.34071824,0.059941806,3.0598752,-0.6248443,0.00012417622,-0.1643697,0.046354968,-0.0011206554,-0.10685127,0.012492387,-0.014221011,0.42916977,-1.3976077,1.9273213,-2.1099775,-1.555641,2.406558,-0.27482715,0.17163523,-0.18806069,-0.035835903,0.09430266,-0.25964192,-0.15322891,0.30645782,-9.289502,0.947788,47.68599,-1.071353,-2.2281284,-3.331545,-0.6708623,0.1414721,-0.18063806,28.5,29.625,28.875,32.9375,35.25,36.375
0.35405362,-1.061829,0.29304498,0.12978105,-0.005183288,0.05724851,-0.1946021,-0.4102738,-0.340622,0.059936695,3.0596952,-0.6248486,0.0001756099,-0.16489232,0.04833529,-0.0015986871,-0.10031995,0.01352965,-0.024280207,0.42864218,-1.3972712,1.9269508,-2.1100132,-1.5554751,2.4060576,-0.2744692,0.17260584,-0.1885006,-0.03463765,0.087866455,-0.2492786,-0.51714754,0.3256114,-9.232041,0.8537928,47.698532,-1.2006027,-2.2544541,-3.2817564,-0.69259644,0.19968866,-0.32755578,28.5,29.625,28.875,32.9375,35.25,36.375
0.35605425,-1.0462973,0.14590506,-0.014224148,-0.011685008,0.08209135,-0.19571106,-0.41061616,-0.34054825,0.059956092,3.0594182,-0.6249076,0.00011455,-0.16616824,0.04958936,-0.0017364749,-0.09823329,0.013670549,-0.03424966,0.428114,-1.3969463,1.9265555,-2.1101205,-1.5552839,2.4056044,-0.27622786,0.17410883,-0.19021167,-0.03371752,0.085889325,-0.24107043,-0.36391866,0.24899697,-9.232041,0.8717007,47.67614,-1.1517581,-2.2557154,-3.3224778,-0.7123543,0.24704123,-0.44357628,28.5,29.625,28.875,32.9375,35.25,36.375
0.35805368,-1.2931826,0.60144836,-0.16466664,-0.0033674783,0.07702064,-0.21196239,-0.4109297,-0.34043333,0.059922747,3.0592322,-0.6249819,0.00024960376,-0.16800167,0.050969485,-0.0012610134,-0.09688282,0.015354026,-0.03454168,0.42753696,-1.3965738,1.9262098,-2.1101682,-1.5550927,2.405099,-0.27873856,0.17471813,-0.19219394,-0.033180255,0.08401965,-0.243306,-0.22984336,0.15322891,-9.289502,0.8717007,47.66271,-1.1152228,-2.2670507,-3.4016752,-0.7490957,0.27382722,-0.479311,28.5,29.625,28.875,32.9375,35.25,36.375
0.3600541,-1.1895568,0.5419011,0.20461762,-0.008294838,0.07793518,-0.20643842,-0.41127494,-0.34033036,0.059932113,3.0590217,-0.6250422,0.00020325891,-0.16872804,0.050290108,-0.0006448093,-0.097858645,0.017634643,-0.017435135,0.4269853,-1.3962371,1.9258145,-2.1102402,-1.5549482,2.404614,-0.27799723,0.17508335,-0.19385625,-0.03402585,0.08420393,-0.25966164,-0.30645782,0.05746084,-9.251195,0.8985519,47.677036,-1.18805,-2.1687994,-3.3755808,-0.7822876,0.3056708,-0.40814435,28.5,29.625,28.875,32.9375,35.25,36.375
0.36205372,-1.2390851,0.6591472,0.29141816,0.007312109,0.05605387,-0.20749232,-0.41162935,-0.3402332,0.059950095,3.0587747,-0.6250758,0.0001326053,-0.16931097,0.049454067,-0.0012561379,-0.09908186,0.017627666,-0.0027806258,0.4264217,-1.3959122,1.9254192,-2.110337,-1.5547794,2.4041054,-0.27758744,0.17788504,-0.19543162,-0.035440262,0.08555182,-0.27388152,-0.45968673,0.05746084,-9.270349,0.8672237,47.693153,-1.324672,-2.1029549,-3.3290799,-0.7814033,0.28875643,-0.24422094,28.5,29.625,28.875,32.9375,35.25,36.375
0.36405426,-0.90809226,1.015309,0.2308386,0.015303925,0.056620307,-0.20565054,-0.41192448,-0.34014565,0.059906486,3.058624,-0.62490904,0.00030126248,-0.17065512,0.04801507,0.0018840568,-0.10274871,0.023905847,8.885721e-05,0.4258938,-1.3955168,1.925073,-2.1103966,-1.5545639,2.4034934,-0.2764045,0.17423809,-0.1981531,-0.03617689,0.086341724,-0.27556002,-0.49799395,0.095768064,-9.155427,0.87617236,47.66987,-1.4401574,-2.0089624,-3.2749777,-0.7844392,0.32964888,-0.17493817,28.5,29.625,28.875,32.9375,35.25,36.375
0.36605418,-0.66430455,1.2743938,-0.0789962,0.021616247,0.056577016,-0.19594072,-0.412298,-0.34001467,0.05991077,3.0584445,-0.62502897,0.000249222,-0.1728076,0.047987737,0.0028748238,-0.10499052,0.026096692,-0.010518725,0.42529395,-1.3951442,1.924641,-2.1104448,-1.5544552,2.4029934,-0.27851158,0.17504206,-0.20119587,-0.03692071,0.08744117,-0.26703683,-0.47884035,0.05746084,-9.251195,1.0395473,47.67614,-1.5520905,-1.935472,-3.2852554,-0.7970756,0.3373049,-0.27087104,28.5,29.625,28.875,32.9375,35.25,36.375
0.36805364,-1.0701343,1.0194612,-0.35171264,0.017026534,0.039756007,-0.19434611,-0.41262913,-0.3399402,0.05990884,3.058187,-0.6250161,0.00029546133,-0.17369743,0.048233055,0.0026317602,-0.1064969,0.025297657,-0.017893353,0.42475277,-1.3947836,1.9242467,-2.1105287,-1.5542263,2.4024794,-0.28047854,0.17645524,-0.20226167,-0.037149265,0.08914426,-0.2616011,-0.34476507,-0.1340753,-9.404425,0.9455522,47.66091,-1.4847338,-2.0371153,-3.3517067,-0.80291367,0.33179098,-0.3448527,28.5,29.625,28.875,32.9375,35.25,36.375
0.3700537,-0.58410704,0.976943,-0.12660131,-0.020655792,0.07065357,-0.205487,-0.41298762,-0.33981192,0.059905972,3.0580406,-0.6250043,0.00028414256,-0.17483987,0.049150504,0.0025962917,-0.107360385,0.024886034,-0.020720448,0.42416394,-1.3944108,1.9238275,-2.1105645,-1.5541066,2.4019034,-0.28338736,0.17723103,-0.203183,-0.036904056,0.09016079,-0.26166546,-0.5363012,-0.038307227,-9.346964,0.8537928,47.652847,-1.4453655,-1.9308805,-3.276219,-0.81960404,0.34754223,-0.39030248,28.5,29.625,28.875,32.9375,35.25,36.375
0.3720538,-0.91062254,0.61789817,-0.3929755,-0.014768094,0.06722346,-0.20548783,-0.41331232,-0.33970794,0.059900656,3.0578089,-0.62504506,0.000312696,-0.17621553,0.048768234,0.0023311947,-0.109979026,0.02475455,-0.013032333,0.42359906,-1.3940849,1.9234809,-2.1106489,-1.553913,2.4013958,-0.28520668,0.17978823,-0.20531003,-0.03804096,0.092772454,-0.27113795,-0.51714754,0.0,-9.404425,0.92093146,47.66808,-1.3358098,-2.1234102,-3.1603847,-0.81593966,0.3338097,-0.3282712,28.5,29.625,28.875,32.9375,35.25,36.375
0.3740541,-1.1344082,0.63579935,-0.9220699,-0.0142624155,0.038780157,-0.2065177,-0.413677,-0.33961138,0.05990245,3.0575986,-0.6249526,0.00029569477,-0.17725916,0.046473656,0.002726152,-0.115844555,0.024753723,0.00070831063,0.42302328,-1.3937004,1.9230493,-2.1107328,-1.5537313,2.4007912,-0.28522336,0.18234159,-0.20892368,-0.039074615,0.098349996,-0.28482637,-0.19153613,0.05746084,-9.768343,0.82694155,47.664497,-1.4103163,-2.145523,-3.1605885,-0.82277095,0.27909625,-0.19868197,28.5,29.625,28.875,32.9375,35.25,36.375
0.37605393,-0.45337364,-0.2531741,-0.60984653,-0.046438377,0.04856147,-0.19558391,-0.41401443,-0.33951682,0.059900906,3.0573645,-0.62492126,0.00031861349,-0.17790605,0.0468043,0.0025443698,-0.11898529,0.023078328,0.00060869544,0.42245835,-1.393352,1.9226679,-2.1108167,-1.5535258,2.4002388,-0.28835613,0.18295413,-0.20924617,-0.03897369,0.102010235,-0.28781083,-0.34476504,0.22984336,-9.710882,0.9634547,47.63225,-1.3754623,-1.963508,-3.2598953,-0.8483994,0.2506933,-0.10158411,28.5,29.625,28.875,32.9375,35.25,36.375
0.3780538,-0.29236495,-0.513509,-0.81550974,-0.06645958,0.032262024,-0.18549834,-0.41436273,-0.33941692,0.05990536,3.0571785,-0.6248487,0.00030086533,-0.17714146,0.04675316,0.0001240128,-0.123459265,0.015514375,-0.00941792,0.42190516,-1.3929902,1.9222506,-2.1108763,-1.553367,2.3996658,-0.29189146,0.18650188,-0.20791024,-0.038828325,0.10918415,-0.28123012,-0.51714754,0.34476504,-9.730036,0.8918391,47.6636,-1.201573,-2.2006567,-3.393021,-0.86569524,0.18785954,-0.12658685,28.5,29.625,28.875,32.9375,35.25,36.375
