Tylouw/Master_Thesis_Code/training_data/batch_1/small_rod_t0.3/sample_56_session_2.csv
timestamp[s],tcp_force_x[N],tcp_force_y[N],tcp_force_z[N],tcp_force_rx[Nm?],tcp_force_ry[Nm?],tcp_force_rz[Nm?],tcp_pose_x[m],tcp_pose_y[m],tcp_pose_z[m],tcp_pose_rx[rot_vec_x],tcp_pose_ry[rot_vec_y],tcp_pose_rz[rot_vec_z],tcp_velo_x[m/s],tcp_velo_y[m/s],tcp_velo_z[m/s],tcp_velo_rx[rot_vec_x/s],tcp_velo_ry[rot_vec_y/s],tcp_velo_rz[rot_vec_z/s],q1[rad],q2[rad],q3[rad],q4[rad],q5[rad],q6[rad],qd1[rad/s],qd2[rad/s],qd3[rad/s],qd4[rad/s],qd5[rad/s],qd6[rad/s],tool_acc_x,tool_acc_y,tool_acc_z,current_of_whole_robot[A],voltage_of_whole_robot[V],current_J1[A],current_J2[A],current_J3[A],current_J4[A],current_J5[A],current_J6[A],temp_J1[C],temp_J2[C],temp_J3[C],temp_J4[C],temp_J5[C],temp_J6[C]
9.560026e-07,-0.6292491,0.04372267,0.89154255,-0.019652443,-0.00094417174,-0.0074555427,-0.38106516,-0.34849966,0.059948858,-3.0784788,0.6249272,-0.00020689786,0.0020764526,0.0010753648,-0.0022419032,0.002318318,-0.004730003,7.540303e-05,0.47775015,-1.4259217,1.9577507,-2.100845,-1.5707697,2.4527402,-7.066213e-05,0.00081245403,0.0041217525,0.0003316361,0.00012561936,-0.00014830986,0.095768064,0.15322891,-8.714894,0.7418897,47.696735,-0.004538825,-2.843853,-2.4959128,-0.441277,0.12761226,0.04322937,28.5,29.625,28.875,32.9375,35.3125,36.375
0.002052882,-0.67278194,-0.34136647,0.79432875,0.00022094003,-0.01014001,-0.003910747,-0.3810601,-0.3485416,0.059960313,-3.0785682,0.62490684,-0.00016503097,-0.00037944998,-0.00020422212,-0.0030006962,-0.0009102771,0.0014601428,7.54404e-05,0.47779807,-1.4259325,1.9577512,-2.100908,-1.5707215,2.452764,-6.987838e-05,0.0037902948,0.004907345,-0.010413311,0.00012346508,-0.00014531639,0.076614454,0.21068975,-8.695741,0.7463667,47.72002,0.011474048,-2.8054295,-2.4211373,-0.3797945,0.14954555,0.05613926,28.5,29.625,28.875,32.9375,35.3125,36.375
0.004052677,-0.46333233,0.0990141,0.90699416,-0.006618086,-0.003203035,-0.007926368,-0.3810426,-0.34853488,0.059952114,-3.078531,0.624899,-0.00020895335,-0.0011832147,-0.0006568502,-0.0025795058,-0.0022178649,0.0039763926,0.00013497473,0.47781014,-1.4259326,1.9577621,-2.1008732,-1.5707334,2.452776,-8.0492755e-06,0.0036339427,0.0046813735,-0.012866706,0.00012138362,-0.00014244152,-0.019153614,0.19153613,-8.63828,0.679228,47.71017,0.024385724,-3.1673574,-2.705624,-0.2888685,0.14830038,0.057022095,28.5,29.625,28.875,32.9375,35.3125,36.375
0.006051876,-0.4917223,0.23743957,0.66288346,0.008627192,-0.024363823,-0.007895213,-0.3810485,-0.34851164,0.059936207,-3.0784678,0.6248478,-0.00016918733,-0.0007035813,-0.0004104059,-0.0015100205,-0.0014811934,0.002574737,0.00013976498,0.47781014,-1.4259093,1.957774,-2.1008828,-1.5708054,2.452752,-1.0799131e-07,0.001999448,0.0029807722,-0.00794818,0.000119414755,-0.00013967825,-0.019153614,0.1340753,-8.695741,0.69041777,47.7254,-0.0069372933,-3.0188384,-2.6872973,-0.3134872,0.12545115,0.06000928,28.5,29.625,28.875,32.9375,35.3125,36.375
0.008051881,0.37277916,0.80884236,0.33846188,0.037217177,-0.030848935,-0.018381668,-0.3810449,-0.34851173,0.059928473,-3.0784786,0.6248885,-0.00019284122,-0.00015678378,-0.00011743041,-0.0008587799,-0.00063715247,0.0010072148,0.00013680597,0.4777981,-1.4259096,1.9577974,-2.1009057,-1.5707816,2.452764,-1.4488413e-09,0.00083841576,0.0019006148,-0.0039268117,9.765876e-05,-0.00013702002,-0.038307227,0.1340753,-8.772355,0.7329411,47.703007,-0.026364855,-2.9941988,-2.558149,-0.36397207,0.14540893,0.053675085,28.5,29.625,28.875,32.9375,35.3125,36.3125
0.010051986,0.18088809,0.73365366,-0.30941203,0.034527604,-0.033430215,-0.004452936,-0.3810506,-0.3485012,0.059925474,-3.0784671,0.62486726,-0.00022266291,-0.00048705417,-0.00028800836,0.00022671574,-0.0010634722,0.0018393025,0.00013463861,0.47777414,-1.4258982,1.9577855,-2.1008809,-1.5707816,2.4527283,-1.9438055e-11,-0.00029045725,0.00029752383,-0.0021297664,9.435861e-05,-0.00013457754,0.05746084,0.1340753,-9.11712,0.7418897,47.709274,-0.38370746,-2.3569498,-3.109258,-0.37537524,0.12634215,0.0005678369,28.5,29.625,28.875,32.9375,35.3125,36.3125
0.012052256,-0.43050435,-0.1993677,-0.39522082,0.008451737,-0.026190065,-0.011922742,-0.38099885,-0.3485169,0.059888165,-3.0784364,0.6248031,-0.00036684965,0.00026112245,0.00018266024,-0.0033287788,0.0025727837,-0.0051399493,2.1540163e-05,0.47783417,-1.4258599,1.9578217,-2.100857,-1.5707573,2.452752,-0.00013697635,0.0069035185,3.9916617e-06,-0.0011604639,7.6296106e-05,-0.00015733248,0.076614454,0.095768064,-9.32781,0.6948948,47.689575,-0.59489906,-2.3499644,-3.2309477,-0.37263572,0.12292053,-0.067163296,28.5,29.625,28.875,32.9375,35.3125,36.3125
0.014052467,-0.6638331,-0.6043242,-0.59007174,-0.03035518,0.0029251173,-0.01733639,-0.38105118,-0.3484974,0.05991612,-3.078427,0.6249155,-0.00031030085,-0.005140609,0.00201209,-0.0036999818,0.0029863673,-0.005968307,0.00080216606,0.477759,-1.4258571,1.9577464,-2.1008208,-1.5707697,2.4527483,-0.008393699,0.01415387,-0.0077321185,0.00024952728,7.254104e-05,-0.009189892,-0.038307227,0.17238252,-9.3661175,0.779936,47.695843,-0.27959785,-2.9195795,-3.0524096,-0.38136113,0.10640043,-0.047317564,28.5,29.625,28.875,32.9375,35.3125,36.3125
0.016051723,-1.576396,-1.1774814,-0.74560374,-0.058951173,0.019487014,-0.015136825,-0.38102418,-0.34850338,0.059887886,-3.0784092,0.6248131,-0.0003840053,-0.0054286085,0.0027679794,-0.0033367604,0.0033324005,-0.0066331555,0.0060886545,0.47779465,-1.4258215,1.9577702,-2.1008198,-1.5707697,2.4527223,-0.010003232,0.013447282,-0.008192728,0.0021650642,7.096612e-05,-0.01608618,-0.15322891,0.22984336,-9.5385,0.7418897,47.70211,-0.30919886,-2.8321898,-3.1330159,-0.37885094,0.08082825,-0.007624996,28.5,29.625,28.875,32.9375,35.3125,36.3125
0.018052565,-2.205524,-1.80463,-0.8057431,-0.058958948,0.040694095,-0.03369825,-0.38103178,-0.34848228,0.05989134,-3.0783942,0.62482756,-0.00046642954,-0.0051078396,0.00306913,-0.0030101764,0.0035589845,-0.0070657926,0.008967825,0.47773463,-1.425822,1.9577464,-2.1007473,-1.5707458,2.4526732,-0.010239774,0.012314844,-0.007965154,0.003558243,6.9584865e-05,-0.019202469,-0.2873042,0.30645782,-9.653421,0.8179876,47.70211,-0.42862833,-2.5301375,-3.3950458,-0.41039732,0.10094376,0.027495759,28.5,29.625,28.875,32.9375,35.3125,36.3125
0.020052524,-2.2835054,-1.0531691,-0.76771694,-0.060820356,0.06389954,-0.05565198,-0.3810536,-0.3484872,0.059874285,-3.0783744,0.62478477,-0.00043172468,-0.0062462073,0.0030435945,-0.0033033346,0.0036385185,-0.0072285533,0.009465408,0.47774634,-1.4257492,1.9577106,-2.100784,-1.5707816,2.4526608,-0.011248961,0.014739994,-0.010015955,0.0033640396,6.8264715e-05,-0.020707775,-0.40222588,0.30645782,-9.710882,0.7642693,47.687782,-0.5322819,-2.5565639,-3.518939,-0.38565308,0.07710193,0.00086241495,28.5,29.625,28.875,32.9375,35.3125,36.3125
0.022052625,-2.1892815,-0.84914756,-0.8963872,-0.033831283,0.06346434,-0.08079883,-0.38102922,-0.34847608,0.059836764,-3.078334,0.6247402,-0.000586542,-0.008875907,0.0031859216,-0.002395106,0.002392611,-0.004812126,0.006640711,0.47773334,-1.4257008,1.957733,-2.1007478,-1.5707573,2.452625,-0.013928427,0.016169827,-0.0135916695,0.002791783,5.243975e-05,-0.020560373,-0.5554548,0.30645782,-9.844957,0.74413085,47.716442,-0.56641084,-2.4343174,-3.4814944,-0.37374568,0.09900979,0.0051291804,28.5,29.625,28.875,32.9375,35.3125,36.3125
0.024051704,-2.3814156,-0.8252602,-0.990944,-0.020521399,0.05482374,-0.09420548,-0.3810786,-0.34849438,0.059859972,-3.0784209,0.6247204,-0.0005188439,-0.009667956,0.003619255,-0.0029662931,0.002735164,-0.005468488,0.0044719707,0.47769684,-1.4256761,1.9576601,-2.100784,-1.5707215,2.4525652,-0.015429487,0.017999545,-0.014281996,0.0023935947,4.9470982e-05,-0.019891962,-0.57460845,0.24899697,-9.902418,0.7239871,47.678825,-0.62905586,-2.5447192,-3.3745499,-0.35476536,0.045909066,0.0039842227,28.5,29.625,28.875,32.9375,35.3125,36.3125
0.026052173,-2.3935966,-0.79397804,-0.9527565,-0.015923342,0.043502647,-0.11281927,-0.38108203,-0.3484827,0.059840094,-3.0783749,0.62465554,-0.00054250204,-0.011496456,0.0038267008,-0.0024177788,0.0021311701,-0.004068237,0.0012451573,0.47769612,-1.4256278,1.9576477,-2.1007717,-1.5707573,2.45253,-0.017418407,0.019169006,-0.016839052,0.0022598999,-6.395831e-05,-0.018652337,-0.63206923,0.2681506,-9.921572,0.68818194,47.688675,-0.6158467,-2.4808264,-3.4224105,-0.3512484,0.07550069,-0.04061412,28.5,29.625,28.875,32.9375,35.3125,36.3125
0.028052142,-2.483867,-0.8573144,-0.97868526,-0.017272381,0.044085357,-0.12012599,-0.38110402,-0.3484668,0.059819575,-3.0783617,0.6247101,-0.0006359004,-0.011841516,0.0037364704,-0.0020047054,0.0020120325,-0.0035006935,-0.00010664597,0.47762424,-1.4255681,1.9576238,-2.1007602,-1.5707215,2.4524937,-0.01747454,0.019057726,-0.017766852,0.002741579,-0.00022034037,-0.017355984,-0.80445176,0.15322891,-9.825804,0.81351066,47.675243,-0.63300204,-2.4633782,-3.4663415,-0.33948207,0.036921185,-0.038654298,28.5,29.625,28.875,32.9375,35.3125,36.3125
0.030052174,-2.6922247,-0.6578226,-0.7966787,-0.0149685545,0.051250085,-0.12942784,-0.38111904,-0.34848553,0.059835523,-3.0783815,0.6246954,-0.00063370913,-0.0128985,0.0035945836,-0.0013003437,0.0017213953,-0.0027862322,-0.00092328474,0.47763586,-1.4255438,1.9575514,-2.1007235,-1.5707096,2.4524937,-0.018153543,0.019700795,-0.020385174,0.0039492175,-0.00029317747,-0.017217018,-0.7278373,0.1340753,-9.825804,0.7553206,47.674347,-0.6581292,-2.3959563,-3.3818843,-0.34690425,0.034575038,-0.060679637,28.5,29.625,28.875,32.9375,35.3125,36.3125
0.03205235,-2.3228166,-0.60804266,-0.8592331,0.00054823415,0.06298184,-0.14062333,-0.38115957,-0.3484574,0.059820548,-3.0783522,0.62474793,-0.00061004783,-0.013386373,0.0035322974,-0.0013597148,0.0021455204,-0.0034869916,-0.0015556992,0.4775638,-1.4254954,1.9575385,-2.1007593,-1.5707334,2.4524581,-0.018457396,0.021176206,-0.022194132,0.0050998763,-0.0003490436,-0.016887425,-0.7086837,0.076614454,-9.844957,0.7597976,47.719128,-0.6717609,-2.4826317,-3.4379737,-0.34978318,0.031453047,-0.06679635,28.5,29.625,28.875,32.9375,35.3125,36.3125
0.034051955,-1.9474235,-0.07180574,-0.66790825,0.0145971,0.062826656,-0.1651765,-0.38121286,-0.3484713,0.059845973,-3.0783777,0.6248489,-0.0005217591,-0.015132085,0.0035733313,-0.00028124408,0.0017629612,-0.00093748164,-0.0022859788,0.47753948,-1.4254596,1.9574422,-2.1007707,-1.5707339,2.4524937,-0.019600041,0.021383224,-0.0249129,0.005174483,-0.0011858128,-0.017296748,-0.6703765,-0.038307227,-9.844957,0.70608455,47.67345,-0.70457727,-2.350946,-3.3599548,-0.35210466,0.03375667,-0.09141387,28.5,29.625,28.875,32.9375,35.3125,36.3125
0.036052287,-1.8267982,0.19590278,-0.6276843,0.031208834,0.04002937,-0.17349468,-0.381229,-0.3484702,0.059836745,-3.0783834,0.62479377,-0.00056194473,-0.01605543,0.0040581063,-0.00034693812,0.0018214294,-0.00086795114,-0.0030653102,0.47751477,-1.4254111,1.9574054,-2.1007593,-1.570722,2.4524338,-0.021259265,0.022267343,-0.025754148,0.005097116,-0.0012726167,-0.018175859,-0.47884035,-0.076614454,-9.749189,0.75084364,47.675243,-0.6820651,-2.3437698,-3.3618653,-0.33304626,0.013792666,-0.116954625,28.5,29.625,28.875,32.9375,35.3125,36.3125
0.038052343,-1.4590615,0.6062983,-0.61027205,0.030876707,0.024895985,-0.18026298,-0.38127607,-0.3484586,0.059848923,-3.0783758,0.6248108,-0.0005094915,-0.017071433,0.0043940446,-0.00046380467,0.0018113657,-0.00079655723,-0.003773276,0.47746637,-1.4253749,1.9573334,-2.1007469,-1.5707463,2.452397,-0.022777256,0.023570633,-0.026928911,0.0049000336,-0.0012995529,-0.018985022,-0.38307226,-0.17238252,-9.672575,0.78888994,47.699425,-0.67264295,-2.4678738,-3.4581861,-0.3174023,0.021041175,-0.11026196,28.5,29.625,28.875,32.9375,35.3125,36.3125
0.040052477,-0.8047568,0.67010164,-0.48390675,0.021181555,0.024166279,-0.20255062,-0.38131687,-0.3484237,0.059819408,-3.078307,0.62491244,-0.00054240867,-0.018684238,0.004078984,0.000383035,0.00092348777,0.00096902106,-0.0035346192,0.477382,-1.4252907,1.9573077,-2.1007593,-1.5707701,2.452385,-0.02368758,0.024515776,-0.029971803,0.005021007,-0.001330083,-0.020132225,-0.3256114,-0.17238252,-9.557653,0.7597976,47.66808,-0.69984126,-2.3722155,-3.335355,-0.3024437,0.010125138,-0.13963181,28.5,29.625,28.875,32.9375,35.3125,36.3125
0.04205255,-1.0969188,0.36497435,-0.68209577,0.02576431,0.0010970145,-0.22256766,-0.38133973,-0.3484332,0.059834965,-3.078338,0.6248414,-0.0005418076,-0.019710682,0.0042337575,0.0007844099,0.0009057874,0.0011386842,-0.0033963528,0.4773697,-1.4252664,1.9572362,-2.1007226,-1.5707577,2.4523244,-0.02486933,0.025399214,-0.03215709,0.0061642895,-0.0013949152,-0.02145111,-0.17238252,-0.21068975,-9.576807,0.78888994,47.70838,-0.66890264,-2.3267057,-3.3131807,-0.29205507,0.0017204514,-0.17868683,28.5,29.625,28.875,32.9375,35.3125,36.3125
0.04405259,-1.2478453,0.23301332,-0.6671573,0.018402949,-0.0068406574,-0.2277333,-0.38139954,-0.34842822,0.059847184,-3.078349,0.6248057,-0.0004739359,-0.020060992,0.004761224,0.00061478786,0.0018477368,-0.000117148775,-0.0033337665,0.4773213,-1.4252062,1.9571394,-2.100722,-1.5707821,2.4522524,-0.02596019,0.02634986,-0.033236038,0.007840943,-0.0016529241,-0.022603732,-0.11492168,-0.095768064,-9.461885,0.7351769,47.682407,-0.679724,-2.2955208,-3.3141046,-0.29111505,-0.021629093,-0.1732791,28.5,29.625,28.875,32.9375,35.3125,36.3125
0.046052665,-1.1260501,0.2026509,-0.48763728,0.00066835695,-0.0055000735,-0.24344397,-0.38144493,-0.34840852,0.059861004,-3.078335,0.62499464,-0.0004563401,-0.020746792,0.005417985,0.00085902,0.0028915447,-0.0005125968,-0.0034305265,0.4772369,-1.425194,1.9570912,-2.1007097,-1.5707706,2.4522877,-0.027274614,0.026807744,-0.034745023,0.009725386,-0.0023975426,-0.023819502,-0.05746084,-0.019153614,-9.5385,0.7038487,47.691364,-0.67059606,-2.2552161,-3.2994673,-0.31269145,-0.027522735,-0.18445873,28.5,29.625,28.875,32.9375,35.3125,36.3125
0.048052642,-0.63777846,-0.4382587,-0.65706307,0.002819449,0.017304473,-0.22780465,-0.38148013,-0.34839728,0.059853792,-3.0783107,0.6249702,-0.00054246216,-0.021426935,0.0060675726,0.0008524841,0.004450081,-0.00041526122,-0.0029661977,0.47717655,-1.42511,1.9569954,-2.1006372,-1.5707587,2.4522152,-0.02812557,0.027602304,-0.03585357,0.010673851,-0.003829203,-0.025131227,-0.038307227,0.11492168,-9.442732,0.8023209,47.705692,-0.64862275,-2.2332907,-3.328019,-0.30237645,-0.026163,-0.20817375,28.5,29.625,28.875,32.9375,35.3125,36.3125
0.05005186,-0.80002695,-0.659869,-0.56720084,-0.003577936,0.009968282,-0.2090194,-0.38153073,-0.3483697,0.059857067,-3.0782812,0.6249827,-0.0004121175,-0.023121562,0.0063234144,0.0015633656,0.00454809,0.0013421787,-0.0028306707,0.47712812,-1.4250858,1.956971,-2.100685,-1.5708317,2.4521785,-0.02956049,0.028421916,-0.03847951,0.010964918,-0.0047280537,-0.026698671,0.038307227,0.17238252,-9.461885,0.7933669,47.672558,-0.61945736,-2.1867847,-3.301732,-0.2948597,-0.023133438,-0.21068466,28.5,29.625,28.875,32.9375,35.3125,36.3125
0.052044377,-0.59068626,-1.2203293,-0.750419,-0.0053522745,0.00865734,-0.20405212,-0.38157588,-0.3483813,0.059865993,-3.0783205,0.62495166,-0.00050082547,-0.024042824,0.0065437267,0.0020178934,0.004260158,0.0018764276,-0.0017682418,0.47706765,-1.4250017,1.9568385,-2.1006129,-1.5707711,2.4520936,-0.030803723,0.028688842,-0.039964255,0.011576847,-0.0047213156,-0.029003574,0.038307227,0.19153613,-9.557653,0.7172743,47.70032,-0.56373215,-2.134054,-3.2981155,-0.30463266,-0.028305808,-0.2330606,28.5,29.625,28.875,32.9375,35.3125,36.3125
0.054052394,-0.55424595,-1.4834576,-0.77015096,-0.011626458,-0.0017478123,-0.20000325,-0.38161588,-0.34834623,0.059863653,-3.0782459,0.6249737,-0.00048481717,-0.024632761,0.0066553038,0.0020091685,0.004073472,0.0013728358,0.00031442594,0.47700733,-1.4249535,1.9567779,-2.1005652,-1.5708312,2.4520566,-0.03180024,0.029654598,-0.041186705,0.012191045,-0.0043283002,-0.032082755,0.05746084,0.22984336,-9.500193,0.73741806,47.64837,-0.62428963,-2.118003,-3.2798667,-0.30538228,-0.044909906,-0.23272449,28.5,29.625,28.875,32.9375,35.3125,36.3125
0.056051895,-0.5566,-1.3744305,-0.56522983,-0.017593913,0.00047692502,-0.18912159,-0.38166425,-0.34830588,0.0598461,-3.0781953,0.6250213,-0.0005322983,-0.025513863,0.0071458025,0.0015721719,0.0057055936,0.00050361664,0.0009841046,0.47689894,-1.424881,1.9567298,-2.1005409,-1.5708436,2.4519844,-0.03279755,0.032032825,-0.043155868,0.013305981,-0.0053836796,-0.03374617,0.019153614,0.2681506,-9.519346,0.7620334,47.661808,-0.6603644,-2.132298,-3.2434058,-0.3227619,-0.028481476,-0.21992023,28.5,29.625,28.875,32.9375,35.3125,36.3125
0.058051866,-0.8057327,-1.3265955,-0.5874954,-0.026172211,0.0027518675,-0.19193484,-0.38171795,-0.3483243,0.059875272,-3.0782595,0.62497634,-0.00045599634,-0.026722217,0.0077116448,0.0014638649,0.007028098,0.0012022523,0.00094660773,0.47687456,-1.4248445,1.9566215,-2.1005409,-1.5708321,2.4519238,-0.03394349,0.03360948,-0.044697322,0.013262581,-0.0068809926,-0.03485093,0.0,0.34476504,-9.461885,0.7911258,47.667187,-0.6437419,-2.1477914,-3.295393,-0.33432728,-0.015658762,-0.24006175,28.5,29.625,28.875,32.9375,35.3125,36.3125
0.060051907,-1.5264205,-1.7444303,-0.6272695,-0.0081662955,0.0015149346,-0.1816709,-0.38179594,-0.3483239,0.059885282,-3.0782895,0.62494206,-0.0004104467,-0.028218135,0.007819888,0.0026364983,0.007060295,0.004891232,0.0025592418,0.47680238,-1.4247487,1.9564894,-2.1005414,-1.5708331,2.4518266,-0.03438829,0.03287147,-0.0463379,0.012383699,-0.008608138,-0.036904298,0.0,0.36391866,-9.461885,0.8112748,47.686886,-0.6606796,-2.1012132,-3.2520444,-0.31724933,-0.01643503,-0.2586274,28.5,29.625,28.875,32.9375,35.3125,36.3125
0.062051807,-1.4758273,-1.2165543,-0.44104564,-0.01858513,0.013476724,-0.18714854,-0.38183016,-0.34828794,0.059886202,-3.078229,0.62494844,-0.0004344279,-0.02909821,0.008174262,0.0027641556,0.0076371958,0.005296933,0.003142669,0.47673008,-1.4247127,1.9564298,-2.1004694,-1.5708688,2.451766,-0.03537114,0.033720646,-0.047692064,0.012793153,-0.009311454,-0.038467992,-0.095768064,0.36391866,-9.500193,0.75755644,47.692257,-0.68345934,-2.0165038,-3.2660785,-0.3241425,0.012406968,-0.2529697,28.5,29.625,28.875,32.9375,35.3125,36.3125
0.06405221,-1.2533493,-0.9021574,-0.43909428,-0.023223503,0.02129538,-0.18949182,-0.381892,-0.34829733,0.05989331,-3.07828,0.62486213,-0.00040077412,-0.031116923,0.0075426865,0.003263473,0.0069494387,0.007443679,0.0047030663,0.4766819,-1.4246279,1.9563197,-2.1004813,-1.5708569,2.4516575,-0.035859354,0.0362015,-0.051451508,0.011849634,-0.009695231,-0.040513717,-0.1340753,0.30645782,-9.481039,0.7665104,47.689575,-0.7343931,-2.0718114,-3.2332666,-0.32377034,-0.009956281,-0.26144898,28.5,29.625,28.875,32.9375,35.3125,36.3125
0.06605196,-1.2602382,-0.683158,-0.1790425,-0.019789668,0.018673653,-0.18880557,-0.3819629,-0.34825596,0.059906162,-3.0782323,0.6249085,-0.00035464184,-0.030871186,0.0077539384,0.0023941067,0.007635741,0.005938857,0.005851314,0.47657382,-1.4245796,1.9562243,-2.1004336,-1.5709046,2.4515846,-0.03605383,0.037539236,-0.050948158,0.011656859,-0.009614469,-0.0418566,-0.17238252,0.21068975,-9.423578,0.7351769,47.694946,-0.8035753,-2.1523137,-3.146491,-0.31837058,0.016273972,-0.2882545,28.5,29.625,28.875,32.9375,35.3125,36.3125
0.068051964,-1.4875405,-0.9197963,-0.25618827,-0.010858216,0.013080426,-0.18775898,-0.38204476,-0.34827152,0.05993119,-3.078299,0.6248846,-0.00023866181,-0.03155318,0.0072368095,0.0018504745,0.0064746896,0.0048234123,0.005830037,0.47652557,-1.4245067,1.9560922,-2.1004698,-1.5709041,2.451513,-0.036759842,0.040145893,-0.05255925,0.011113653,-0.008072043,-0.042543873,-0.11492168,0.24899697,-9.3661175,0.81351066,47.677036,-0.86820555,-2.1244316,-3.3213983,-0.3103575,-0.0032744599,-0.2794587,28.5,29.625,28.875,32.9375,35.3125,36.3125
0.070051946,-0.5921939,-0.43645975,-0.13427995,-0.014194104,0.020883212,-0.20160936,-0.38210613,-0.34825853,0.05992915,-3.0782611,0.6249135,-0.00027044443,-0.032447923,0.0064343032,0.002025283,0.0049919295,0.0049630674,0.0073359567,0.47645354,-1.4243983,1.9559597,-2.1004102,-1.570916,2.451464,-0.036963142,0.04194044,-0.054965917,0.010915482,-0.0068263207,-0.044253707,-0.19153613,0.15322891,-9.404425,0.78888994,47.705692,-0.89986515,-2.2166302,-3.180879,-0.30065238,-0.029678997,-0.3290823,28.5,29.625,28.875,32.9375,35.3125,36.3125
0.07205202,-0.7151285,-0.5312042,-0.14098406,0.0011299179,0.017799582,-0.19598858,-0.38214627,-0.3482319,0.059915923,-3.0782504,0.62481374,-0.0003299214,-0.033875342,0.0060374727,0.003298654,0.0035353773,0.0067291623,0.008987931,0.4763692,-1.4243265,1.9558996,-2.1003735,-1.570916,2.4513187,-0.03787903,0.041906804,-0.05803741,0.011780125,-0.0063497066,-0.04682083,-0.19153613,0.095768064,-9.385271,0.7597976,47.703007,-0.9422248,-2.106237,-3.0705528,-0.2953033,-0.04579099,-0.3116265,28.5,29.625,28.875,32.9375,35.3125,36.3125
0.07405248,-1.4737505,-0.18492651,0.0090797385,0.00092211075,0.0068806526,-0.19161643,-0.38221383,-0.3482513,0.059933733,-3.0782933,0.6247662,-0.00029810023,-0.03358335,0.0065816552,0.002240933,0.004931511,0.0052966885,0.0077241445,0.4763332,-1.4242302,1.9557437,-2.1003501,-1.5709037,2.4512477,-0.038193703,0.04317559,-0.056977678,0.01136755,-0.0069299666,-0.045871068,-0.2681506,0.1340753,-9.308656,0.7486078,47.682407,-0.9999956,-2.137601,-3.1524985,-0.29475576,-0.05488799,-0.30873293,28.5,29.625,28.875,32.9375,35.3125,36.3125
0.076051846,-1.1617658,0.14195159,0.16667031,-0.00057455857,0.028718216,-0.20317629,-0.38228992,-0.34820342,0.059926875,-3.0782115,0.624844,-0.00024347508,-0.03409075,0.006523414,0.0016231774,0.0053227996,0.003533547,0.008576962,0.47622496,-1.4241455,1.9556597,-2.1003373,-1.5709761,2.4511986,-0.038848747,0.045842677,-0.058822047,0.012284883,-0.0064724023,-0.047378577,-0.1340753,0.038307227,-9.289502,0.7284641,47.64389,-1.0711169,-2.1750455,-3.275736,-0.26688612,-0.05752108,-0.36578152,28.5,29.625,28.875,32.9375,35.3125,36.3125
0.078051776,-1.1606271,0.11060255,0.22952236,0.00089635304,0.031939592,-0.19442686,-0.38239142,-0.34821516,0.05997622,-3.0783315,0.62477154,-0.00013373926,-0.035551243,0.0063885567,0.002410565,0.0049977424,0.004838976,0.010270527,0.47612873,-1.4240973,1.9554919,-2.1003368,-1.5709399,2.451042,-0.03974358,0.04678541,-0.0618828,0.013095058,-0.006781828,-0.04996565,-0.22984336,0.038307227,-9.289502,0.8023209,47.6636,-1.0875399,-2.1835947,-3.0669131,-0.29065925,-0.07547425,-0.37138546,28.5,29.625,28.875,32.9375,35.3125,36.3125
0.080051854,-1.1746193,0.36519742,0.11676309,0.00516636,0.031582076,-0.19811897,-0.38244674,-0.34820747,0.059955552,-3.0783048,0.6248015,-0.00020228363,-0.036337327,0.00660278,0.0021914893,0.006054294,0.005351376,0.014546877,0.47605655,-1.423965,1.9553827,-2.1003134,-1.5709285,2.4509919,-0.040075943,0.048299503,-0.063043006,0.0127728395,-0.007963122,-0.054570936,-0.34476504,0.076614454,-9.308657,0.83365434,47.683304,-1.1423472,-2.204142,-3.1751246,-0.26556247,-0.06403531,-0.34062135,28.5,29.625,28.875,32.9375,35.3125,36.3125
0.08205238,-0.94336814,0.17297238,0.009458231,0.010174186,0.0278631,-0.19435573,-0.38250884,-0.34820133,0.059975043,-3.078325,0.6246515,-0.00019131169,-0.037413992,0.0068889726,0.002266881,0.007239228,0.0058198087,0.015104015,0.47599643,-1.4238925,1.9552392,-2.1002414,-1.5709409,2.4508357,-0.040745378,0.049888574,-0.06518734,0.013457784,-0.00923448,-0.055793904,-0.1340753,0.076614454,-9.308656,0.80679786,47.733456,-1.1944789,-2.1389556,-3.1247473,-0.27433318,-0.07964737,-0.3370582,28.5,29.625,28.875,32.9375,35.3125,36.3125
0.08405278,-0.8256872,0.07281899,0.045406636,0.00637668,0.031933777,-0.19696867,-0.38256693,-0.34819502,0.05995524,-3.0783193,0.6246109,-0.0002471471,-0.038068645,0.007364978,0.002268034,0.008666872,0.006062237,0.015687915,0.47592422,-1.4237605,1.9551309,-2.100229,-1.5709294,2.450739,-0.041289438,0.050778307,-0.06638197,0.014205942,-0.010617809,-0.056918275,-0.21068975,0.1340753,-9.251195,0.7777002,47.694054,-1.2248882,-2.1826372,-3.096218,-0.2666622,-0.05263361,-0.36848617,28.5,29.625,28.875,32.9375,35.3125,36.3125
0.08605207,-0.99225813,-0.16761348,0.077731825,0.007907094,0.02493515,-0.19190353,-0.38265237,-0.34816927,0.059959367,-3.07831,0.6244926,-0.00015895856,-0.039597146,0.0086821765,0.0020369508,0.010783109,0.006369555,0.01732315,0.47583932,-1.423664,1.9550112,-2.100229,-1.5709904,2.4505816,-0.043714385,0.052422218,-0.06785355,0.014731301,-0.012642041,-0.06097395,-0.21068975,0.15322891,-9.308656,0.7665104,47.684196,-1.2415422,-2.1710386,-3.0506835,-0.27411887,-0.029602006,-0.33009255,28.5,29.625,28.875,32.9375,35.3125,36.3125
0.088052206,-1.542661,-0.45523396,-0.2155615,0.0065480713,0.015243158,-0.18581943,-0.38272637,-0.3481356,0.0599494,-3.0782835,0.6244659,-0.00019043448,-0.041017894,0.008890999,0.0024727113,0.01097746,0.007801367,0.020394167,0.47571903,-1.423556,1.9549025,-2.1001933,-1.5710024,2.450448,-0.04484016,0.05339918,-0.069956414,0.014672539,-0.013479264,-0.065167464,-0.30645782,0.11492168,-9.270349,0.8224646,47.689575,-1.287332,-2.2061708,-3.0765963,-0.24351163,-0.010062129,-0.31767228,28.5,29.625,28.875,32.9375,35.3125,36.3125
0.09005228,-1.77664,-1.0142075,-0.23902519,0.008012397,0.021446733,-0.19051836,-0.38278756,-0.34812692,0.059968095,-3.0782955,0.62436926,-0.00020563725,-0.041031804,0.008377305,0.002379414,0.010934996,0.006939908,0.024869664,0.47564724,-1.4234836,1.954758,-2.1001089,-1.5710024,2.4503145,-0.04421161,0.054682173,-0.07142211,0.0155975865,-0.013050596,-0.06901434,-0.3256114,0.19153613,-9.289502,0.7978386,47.681515,-1.2968282,-2.169876,-3.081705,-0.25634608,-0.0013884108,-0.26095328,28.5,29.625,28.875,32.9375,35.3125,36.3125
0.092052385,-1.5582848,-0.7340464,-0.12728901,-0.007075503,0.032824036,-0.18937327,-0.38286442,-0.3481018,0.05994577,-3.0782456,0.62428236,-0.00021741891,-0.04210471,0.0084628565,0.003035389,0.009222211,0.0071683135,0.026009902,0.47556245,-1.423328,1.954626,-2.100085,-1.5710496,2.450182,-0.04625628,0.05466496,-0.07305923,0.016253792,-0.011639309,-0.0722008,-0.28730422,0.3256114,-9.32781,0.82022345,47.704796,-1.3941593,-2.0670774,-3.0487795,-0.2499497,-0.031450108,-0.2296057,28.5,29.625,28.875,32.9375,35.3125,36.3125
0.09405246,-1.0145109,-0.40683258,-0.3024922,-0.01381573,0.04223243,-0.20032468,-0.38294783,-0.34809062,0.059951242,-3.0782895,0.62409717,-0.00020593009,-0.04269089,0.009163296,0.00087475433,0.01078568,0.0029134387,0.028156318,0.4754658,-1.423218,1.9544824,-2.1000612,-1.5710496,2.4499643,-0.04839058,0.059874177,-0.0741673,0.016646227,-0.011084493,-0.07648144,-0.11492168,0.21068975,-9.385271,0.7933669,47.647476,-1.3321584,-2.1954577,-3.0167055,-0.2561586,-0.03068029,-0.20890617,28.5,29.625,28.875,32.9375,35.3125,36.3125
0.09605193,-1.0995369,-0.55974305,-0.30377877,-0.020202996,0.032115597,-0.19903801,-0.38308758,-0.34807914,0.060009547,-3.07833,0.62414205,-5.067637e-05,-0.044694103,0.010363404,0.002240614,0.0106138745,0.0054560867,0.028597271,0.47533265,-1.4231343,1.9542426,-2.1000125,-1.5710739,2.4498541,-0.051690478,0.058490366,-0.07588287,0.017404841,-0.012090931,-0.0802211,-0.21068975,0.22984336,-9.461885,0.6948948,47.687782,-1.2378516,-2.2604752,-3.0405827,-0.25281632,-0.046831533,-0.119855545,28.5,29.625,28.875,32.9375,35.3125,36.3125
0.09805241,-1.0814258,-0.45113334,-0.25207138,-0.020371437,0.03802571,-0.19936928,-0.38315803,-0.34806406,0.060006607,-3.078319,0.62400556,-3.6952454e-06,-0.045303475,0.01068603,0.0022818297,0.011658598,0.0061529027,0.029485004,0.4752725,-1.4230261,1.9541229,-2.1000006,-1.5711225,2.4497104,-0.052004352,0.05912564,-0.07672153,0.017466016,-0.013340924,-0.08141985,-0.28730422,0.2681506,-9.500193,0.80679786,47.66091,-1.2339625,-2.058001,-3.0970147,-0.23518555,-0.012377703,-0.09953384,28.5,29.625,28.875,32.9375,35.3125,36.3125
0.10005257,-1.4737086,-1.2400512,-0.5846043,0.00027147235,0.030517332,-0.18508044,-0.38321975,-0.34804398,0.059983965,-3.078323,0.6238895,-0.00010203358,-0.045811888,0.010537852,0.0019582706,0.012591076,0.006044649,0.030697286,0.47516462,-1.4228933,1.9540147,-2.0999644,-1.5710987,2.4495296,-0.051688254,0.061078005,-0.07824173,0.017559666,-0.014129016,-0.08231265,-0.34476504,0.19153613,-9.442732,0.87617236,47.688675,-1.3766768,-2.1400702,-3.0902147,-0.24234033,-0.012915768,-0.08094764,28.5,29.625,28.875,32.9375,35.3125,36.3125
0.102051646,-1.7076371,-0.8886692,-0.5023928,-0.0070735337,0.027992351,-0.17967762,-0.38333806,-0.34801546,0.06000442,-3.07828,0.6239034,-3.1315056e-05,-0.046540935,0.011555675,-4.0850555e-05,0.01307897,0.0019923537,0.025877528,0.4750435,-1.4227598,1.9537991,-2.0998929,-1.5711578,2.4494228,-0.05507095,0.065285094,-0.07844669,0.017373377,-0.0127088195,-0.08087771,-0.22984336,0.15322891,-9.423578,0.75084364,47.7451,-1.3670665,-2.2411003,-3.2067704,-0.22530636,-0.010782602,-0.048415445,28.5,29.625,28.875,32.9375,35.3125,36.3125
0.10405196,-1.3194319,-0.8591417,-0.3950258,-0.005527225,0.028728168,-0.18384603,-0.3834223,-0.34800467,0.05999482,-3.0782995,0.6237744,-4.4869244e-05,-0.049408082,0.011029867,0.0030921942,0.009707997,0.007910901,0.021662874,0.4749469,-1.4226165,1.9536546,-2.099881,-1.5711578,2.4492433,-0.056938406,0.06285989,-0.08284665,0.017392624,-0.012427039,-0.078529134,-0.19153613,0.11492168,-9.442732,0.78888994,47.70211,-1.2017906,-2.1379182,-3.0121398,-0.21313134,-0.028440503,-0.10192688,28.5,29.625,28.875,32.9375,35.3125,36.3125
0.1060518,-0.97312576,-0.21404588,-0.2608643,-0.017373819,0.02887445,-0.20049168,-0.38352567,-0.3479725,0.05999791,-3.0783157,0.62372,-5.774284e-06,-0.048589747,0.012076806,0.0006735484,0.012367491,0.003057168,0.021476252,0.47480255,-1.422507,1.9535226,-2.099881,-1.5711697,2.449063,-0.057939075,0.066259235,-0.08135828,0.018034933,-0.0125669325,-0.079343535,-0.22984336,0.15322891,-9.500193,0.8314132,47.69763,-1.2809243,-2.2280164,-3.199492,-0.21275814,-0.017985681,-0.08521658,28.5,29.625,28.875,32.9375,35.3125,36.3125
0.108051814,-0.9372095,-0.32236648,-0.22596,-0.011079385,0.03143122,-0.19182466,-0.38364187,-0.34796318,0.060005512,-3.07831,0.6235873,8.1115446e-05,-0.049949467,0.012034003,0.00083044916,0.0120821735,0.0036792692,0.01572363,0.4747182,-1.4223384,1.953307,-2.099857,-1.5712298,2.448897,-0.059074614,0.06801794,-0.08371725,0.017948689,-0.012599215,-0.07472523,-0.30645782,0.11492168,-9.423578,0.7777002,47.699425,-1.2259903,-2.1909108,-3.259534,-0.17538998,-0.022909578,-0.11909969,28.5,29.625,28.875,32.9375,35.3125,36.3125
0.11005196,-0.69842935,0.32811597,-0.047241956,-0.009836328,0.038947564,-0.2025439,-0.38372612,-0.34794062,0.06001216,-3.0783122,0.6235888,2.6813148e-05,-0.05092299,0.012667895,0.00064821047,0.012775742,0.0034047246,0.012308959,0.47458565,-1.4222298,1.9531511,-2.0997846,-1.5712065,2.448765,-0.060757212,0.06935205,-0.08493427,0.018395688,-0.013093671,-0.07299117,-0.34476504,0.11492168,-9.423578,0.70608455,47.698532,-1.2297231,-2.2736325,-3.0563798,-0.16146523,-0.021248862,-0.18504106,28.5,29.625,28.875,32.9375,35.3125,36.3125
0.11205201,-0.6408343,0.15116969,-0.112382814,0.007468801,0.041801766,-0.19986907,-0.38383412,-0.347925,0.060007047,-3.078294,0.6234508,5.5835622e-05,-0.050862137,0.012996829,-0.00028651988,0.013221989,0.000919613,0.010378434,0.4744893,-1.422049,1.952948,-2.0997484,-1.5712537,2.448585,-0.06174804,0.07122149,-0.0851106,0.019110283,-0.012354771,-0.07205251,-0.22984336,0.0,-9.423578,0.7239871,47.677036,-1.2733387,-2.2006874,-3.2768912,-0.1755959,-0.034557488,-0.19928063,28.5,29.625,28.875,32.9375,35.3125,36.3125
0.1140526,-0.8504563,0.29297692,-0.032224577,0.00029082998,0.04237202,-0.1962524,-0.38392875,-0.34788787,0.060005486,-3.0782516,0.62353975,3.9222687e-05,-0.052264247,0.013392281,0.00046615975,0.012678252,0.0025542597,0.008258361,0.4743446,-1.421929,1.9528035,-2.0997007,-1.571266,2.4485013,-0.063543595,0.07107804,-0.08667453,0.01911369,-0.012623332,-0.07172644,-0.28730422,-0.038307227,-9.442732,0.79560274,47.692257,-1.2934011,-2.2394829,-3.2586637,-0.15058617,-0.03644067,-0.22799358,28.5,29.625,28.875,32.9375,35.3125,36.3125
0.11605206,-1.3499525,-0.20998697,-0.12687658,0.010233812,0.030165544,-0.19042583,-0.38406244,-0.3478583,0.060023736,-3.0782404,0.62351835,0.0001282591,-0.05274286,0.013685646,6.2855244e-05,0.012892941,0.0015104268,0.0069183167,0.47420043,-1.4217845,1.9525884,-2.099665,-1.5713137,2.4483454,-0.06466677,0.07250927,-0.087491535,0.01952008,-0.012336417,-0.07151003,-0.28730422,0.019153614,-9.346964,0.69937176,47.64389,-1.2577312,-2.1853163,-3.2998047,-0.14240167,-0.024894092,-0.2762393,28.5,29.625,28.875,32.9375,35.3125,36.3125
0.11805218,-1.4822296,-0.05078328,-0.090231046,0.014894434,0.028731164,-0.18486317,-0.38417533,-0.34785554,0.060037684,-3.078296,0.6234339,0.00020095693,-0.05326842,0.013982667,6.392359e-05,0.013193271,0.0011949821,0.006346225,0.474092,-1.4216521,1.9524077,-2.0996764,-1.5713137,2.4481773,-0.065578066,0.07321394,-0.088464715,0.020205257,-0.012456492,-0.0718493,-0.3256114,0.019153614,-9.346964,0.83589023,47.66091,-1.2738223,-2.1938987,-3.3011124,-0.13181613,-0.061261635,-0.27647963,28.5,29.625,28.875,32.9375,35.3125,36.3125
0.12005222,-1.1227827,0.7137117,-0.022134582,-0.0011742492,0.035653085,-0.20255114,-0.38425872,-0.34780532,0.060023125,-3.078237,0.62348115,0.00013681261,-0.055057112,0.015333991,-8.807387e-05,0.0130921295,0.00091082026,0.0028500196,0.47393453,-1.4215314,1.9522895,-2.0996168,-1.5713261,2.448057,-0.06973378,0.0744501,-0.089551926,0.020258931,-0.012244567,-0.07250775,-0.24899697,0.019153614,-9.346964,0.81351066,47.68062,-1.2130468,-2.1003127,-3.4408321,-0.13403483,-0.008653499,-0.3241042,28.5,29.625,28.875,32.9375,35.3125,36.3125
0.122052036,-1.1926371,0.15386815,0.0018090995,0.01163509,0.03465191,-0.19342956,-0.38437897,-0.34777597,0.0600131,-3.0781872,0.62347007,0.00015508091,-0.055740267,0.014192721,0.00094298023,0.011753689,0.0028990193,0.004166478,0.47380307,-1.4213392,1.9520844,-2.099581,-1.5713738,2.447925,-0.06849203,0.07457987,-0.09206944,0.020260714,-0.011968523,-0.07258148,-0.30645782,0.038307227,-9.270349,0.8493211,47.73256,-1.121382,-2.0990112,-3.338395,-0.09665856,-0.041116044,-0.36435288,28.5,29.625,28.875,32.9375,35.3125,36.3125
0.124052174,-1.1720692,0.35456142,0.015619705,0.002271272,0.0356464,-0.20124659,-0.38449505,-0.3477699,0.060043726,-3.0782516,0.62342525,0.00020088411,-0.054900914,0.015548309,-0.0007233537,0.0143265575,-0.0014264764,0.0027484272,0.4736706,-1.4212307,1.9518818,-2.0995438,-1.57135,2.4477565,-0.06990939,0.07624629,-0.09060809,0.02215715,-0.012273748,-0.072581716,-0.4405331,0.076614454,-9.308656,0.83589023,47.69763,-1.3032985,-2.071436,-3.5424402,-0.09088634,-0.041709505,-0.39605588,28.5,29.625,28.875,32.9375,35.3125,36.3125
0.12605172,-1.1090599,0.088378,0.15407999,0.006179333,0.04103534,-0.19626907,-0.3846146,-0.34772977,0.06004101,-3.0782058,0.6234758,0.00022127396,-0.058121577,0.016233863,0.0007632206,0.012878797,0.0004835873,-0.0006589111,0.47351316,-1.421074,1.9517006,-2.0995076,-1.5713857,2.4476366,-0.074312374,0.077267036,-0.0955322,0.02369367,-0.011865872,-0.07357572,-0.4405331,0.038307227,-9.289502,0.784413,47.69763,-1.1645576,-2.0440595,-3.321649,-0.08573853,-0.04630461,-0.43561018,28.5,29.625,28.875,32.9375,35.3125,36.3125
0.12805183,-1.4910879,-0.20747635,-0.1838288,0.017831879,0.021286456,-0.19019958,-0.38471305,-0.3476862,0.060020085,-3.0781565,0.62338716,0.00018183554,-0.058090325,0.01618189,0.00095803186,0.013596153,0.00051807676,0.0019460635,0.47336918,-1.420906,1.9515451,-2.0994594,-1.571422,2.4474437,-0.07374505,0.07735301,-0.09631119,0.024679443,-0.012525751,-0.07561117,-0.28730422,0.095768064,-9.289502,0.800085,47.652847,-1.1077753,-1.9377499,-3.4022803,-0.07300956,-0.052661747,-0.46251816,28.5,29.625,28.875,32.9375,35.3125,36.3125
0.13005206,-0.7125811,0.11032108,-0.020697357,0.002928861,0.040910758,-0.20013757,-0.38484448,-0.34766382,0.06004525,-3.0781565,0.6233659,0.00023276008,-0.05901778,0.016543895,6.1849154e-05,0.014543593,-0.0018546743,0.0046817204,0.47322473,-1.4207605,1.9513048,-2.0993874,-1.5714458,2.4472861,-0.07536317,0.08095836,-0.09870071,0.025999358,-0.012290945,-0.079964206,-0.30645782,0.076614454,-9.404425,0.7866488,47.64121,-1.1803055,-2.1516824,-3.3689506,-0.06962341,-0.038145717,-0.47740477,28.5,29.625,28.875,32.9375,35.3125,36.3125
0.13205215,-1.3122889,-0.45863044,-0.33212468,0.0076060225,0.032795414,-0.19040187,-0.38496304,-0.3476186,0.060045134,-3.0781152,0.62333643,0.00017067777,-0.060866944,0.017352948,0.001582263,0.013602747,0.00069967454,0.0064746495,0.4730439,-1.420593,1.9510888,-2.0992792,-1.5714577,2.4470923,-0.07824182,0.07939509,-0.10055792,0.026711492,-0.012628316,-0.08463387,-0.3256114,0.11492168,-9.289502,0.842603,47.703903,-1.091656,-1.8723918,-3.363983,-0.083799794,-0.046273805,-0.4625337,28.5,29.625,28.875,32.9375,35.3125,36.3125
0.1340524,-1.1310196,-0.44063067,-0.48534963,-0.0019273798,0.03846689,-0.19331303,-0.38509053,-0.34757653,0.06003375,-3.0780487,0.623301,0.00020885094,-0.061511442,0.017913671,0.0005055641,0.014866427,-0.0017144121,0.009218328,0.47289926,-1.4203995,1.9508852,-2.099243,-1.5715297,2.4469342,-0.07978097,0.08260999,-0.10200867,0.027660375,-0.01266011,-0.0889153,-0.34476504,0.22984336,-9.442732,0.84708,47.695843,-1.0111846,-1.9723943,-3.3948998,-0.083218336,-0.029363459,-0.45328808,28.5,29.625,28.875,32.9375,35.3125,36.3125
0.13605224,-1.2097512,-0.7640932,-0.37772265,-0.015732117,0.04667677,-0.19078645,-0.3851913,-0.34753343,0.060023956,-3.078017,0.623308,0.00014955184,-0.062445328,0.018021202,0.0013287392,0.0142770065,-0.0007972312,0.018656785,0.47273082,-1.4202553,1.9507288,-2.0991828,-1.5715297,2.4467742,-0.080860905,0.082322784,-0.10379269,0.028634548,-0.012566619,-0.09943266,-0.36391866,0.19153613,-9.500193,0.7665104,47.68599,-1.0738969,-1.9750301,-3.344401,-0.07272984,-0.04288379,-0.34973478,28.5,29.625,28.875,32.9375,35.3125,36.3125
0.13805228,-1.3402447,-1.2187314,-0.28736404,-0.024993446,0.060638305,-0.19086477,-0.3853251,-0.3475227,0.06003751,-3.0780723,0.6231638,0.00013943386,-0.063181065,0.018625513,0.0013366466,0.014660883,-0.0007833612,0.021649139,0.47257447,-1.4200752,1.950478,-2.0991232,-1.5715064,2.446521,-0.0823465,0.082809545,-0.10445887,0.028974056,-0.012918117,-0.10390971,-0.51714754,0.15322891,-9.5385,0.7866488,47.66271,-1.0243845,-1.852591,-3.4390523,-0.0716222,-0.041254327,-0.32324737,28.5,29.625,28.875,32.9375,35.3125,36.3125
0.14005232,-1.4556258,-0.9082107,-0.57050854,-0.025202794,0.058246773,-0.19204403,-0.38545763,-0.34747168,0.060036924,-3.0780373,0.62307596,0.00015652836,-0.06468221,0.018574936,0.0018283487,0.013794955,-0.00048134592,0.026628781,0.4723939,-1.4199066,1.9502724,-2.0990627,-1.5715541,2.4462903,-0.0839991,0.0842897,-0.1074881,0.02984445,-0.012296872,-0.11054142,-0.34476504,0.22984336,-9.5385,0.8247004,47.66987,-0.9892467,-1.75113,-3.3803854,-0.07298377,-0.058426484,-0.2343904,28.5,29.625,28.875,32.9375,35.3125,36.3125
0.14205243,-1.7902763,-1.3753883,-0.7211367,-0.005946078,0.052708443,-0.18564764,-0.38559934,-0.3474228,0.060043372,-3.0780196,0.6230532,0.00020263004,-0.06590012,0.019448262,0.0013956978,0.014795466,-0.001488153,0.02796772,0.47220114,-1.4197496,1.9500698,-2.0990264,-1.5715898,2.4460857,-0.08634376,0.086457044,-0.10919467,0.03072714,-0.01273409,-0.114223234,-0.34476504,0.21068975,-9.615114,0.78888994,47.711964,-0.9350965,-1.789757,-3.3879185,-0.059342183,-0.06880462,-0.15892103,28.5,29.625,28.875,32.9375,35.3125,36.3125
0.14405261,-1.7219017,-1.0393903,-0.66418004,-0.010777322,0.045477036,-0.18583435,-0.38570032,-0.34739563,0.060035557,-3.0780072,0.62291527,0.00015368355,-0.06717195,0.019728307,0.0011149998,0.014826272,-0.0020923465,0.02758045,0.47206855,-1.4195806,1.9498776,-2.0989544,-1.5716017,2.4458687,-0.08812901,0.088818446,-0.11134989,0.031067839,-0.01249822,-0.11561976,-0.38307226,0.21068975,-9.615114,0.7777002,47.72719,-0.8714395,-1.9084337,-3.326705,-0.07222475,-0.069368035,-0.14336972,28.5,29.625,28.875,32.9375,35.3125,36.3125
0.14605242,-1.522403,-0.3457672,-0.53698117,-0.016396536,0.044866107,-0.19464509,-0.38586724,-0.3473614,0.060045026,-3.0780346,0.62280655,0.00019512439,-0.06863027,0.01992104,0.0011381016,0.014530992,-0.0007561848,0.025346931,0.4718641,-1.4193759,1.9496135,-2.0989192,-1.5716146,2.445593,-0.08953397,0.09026841,-0.11277331,0.029715085,-0.012847189,-0.11478962,-0.45968673,0.1340753,-9.595961,0.8112748,47.701214,-0.8113841,-1.8088771,-3.3547316,-0.0647583,-0.070595965,-0.12161623,28.5,29.625,28.875,32.9375,35.3125,36.3125
0.14805245,-1.4067153,-0.5097805,-0.68082696,-0.0011620957,0.044297125,-0.19316012,-0.38599735,-0.34731767,0.06005012,-3.0780203,0.62274987,0.00020318487,-0.07186537,0.019622047,0.0022052277,0.012728314,0.0019850445,0.018247105,0.47168317,-1.4192189,1.9494084,-2.0988595,-1.571638,2.4453788,-0.0921419,0.09285128,-0.11805595,0.029152242,-0.012499341,-0.11029523,-0.47884035,0.19153613,-9.595961,0.784413,47.67614,-0.80922306,-1.888082,-3.1510262,-0.03376523,-0.06636898,-0.14805637,28.5,29.625,28.875,32.9375,35.3125,36.3125
0.15005253,-1.4047982,-0.18050863,-0.5581619,-0.004561784,0.048626393,-0.18632342,-0.3861589,-0.34727716,0.060055003,-3.0779831,0.6226853,0.00025694905,-0.07055034,0.019796975,-0.00021403619,0.015800267,-0.003025094,0.016704712,0.47150344,-1.4190013,1.9491342,-2.098799,-1.5716985,2.4451637,-0.09092611,0.09699171,-0.11757373,0.030384257,-0.012955829,-0.107535884,-0.45968673,0.1340753,-9.557653,0.7486078,47.674347,-0.7951615,-1.9421413,-3.227086,-0.01309209,-0.10059278,-0.18699452,28.5,29.625,28.875,32.9375,35.3125,36.3125
0.15205258,-1.4832677,-0.49619105,-0.44564378,0.0041663595,0.053146213,-0.19099326,-0.38627496,-0.3472375,0.060069345,-3.0779674,0.62264764,0.00024094635,-0.07241736,0.019666936,0.0018598681,0.0144362915,0.00054605684,0.009422072,0.4713353,-1.4188696,1.9489287,-2.0987031,-1.5717105,2.4449742,-0.092096634,0.09556487,-0.12090401,0.031345073,-0.013367026,-0.10142139,-0.4405331,0.17238252,-9.519346,0.8157518,47.678825,-0.87356967,-1.9191607,-3.0858512,-0.024808263,-0.07181222,-0.2538655,28.5,29.625,28.875,32.9375,35.3125,36.3125
0.15405259,-1.6834406,-0.44683433,-0.4685688,0.0060613267,0.04945864,-0.19351847,-0.38644734,-0.34718373,0.06006449,-3.0779352,0.6226206,0.0002566108,-0.073425084,0.02036535,4.4421624e-05,0.016036304,-0.0026066848,0.00992941,0.47110635,-1.4186395,1.948665,-2.0986545,-1.5717462,2.4447327,-0.094207585,0.10060914,-0.122602284,0.031525046,-0.013369766,-0.104037926,-0.38307226,0.15322891,-9.519346,0.7150385,47.701214,-0.730159,-1.9850559,-3.1786776,0.0037072396,-0.08678716,-0.26321727,28.5,29.625,28.875,32.9375,35.3125,36.3125
0.15605275,-0.8132303,-0.17148405,-0.364753,-0.011937438,0.07448148,-0.19721097,-0.3866042,-0.34718356,0.060096867,-3.0779986,0.6225363,0.00034509762,-0.073543735,0.019233692,0.0014443151,0.015683413,-0.0005100308,0.010276664,0.47096348,-1.41846,1.948377,-2.0986187,-1.5717462,2.4445293,-0.09186387,0.099688224,-0.12506871,0.032886613,-0.014001409,-0.102040336,-0.3256114,0.17238252,-9.557653,0.8112748,47.658226,-1.017259,-2.0295186,-3.1353698,0.003140764,-0.09248315,-0.29572707,28.5,29.625,28.875,32.9375,35.3125,36.3125
0.15805174,-1.6502713,-1.2891483,-0.30500472,0.0014832206,0.05078145,-0.18461518,-0.38677,-0.34712434,0.06010369,-3.0779514,0.622526,0.00040000534,-0.07379242,0.019828483,0.00018019337,0.016958266,-0.003427919,0.009839161,0.47074676,-1.4182667,1.9481262,-2.0985587,-1.5718063,2.4443123,-0.09322354,0.102666125,-0.1258309,0.03383879,-0.0138160875,-0.10296223,-0.30645782,0.22984336,-9.346964,0.80679786,47.64927,-0.96475446,-2.0455456,-3.141029,-0.0055374107,-0.09415968,-0.32792348,28.5,29.625,28.875,32.9375,35.3125,36.3125
0.16005164,-0.7430266,-0.9227186,-0.2517323,-0.01850948,0.059123255,-0.19777375,-0.38690698,-0.34708402,0.060117632,-3.0779326,0.6225232,0.00042255074,-0.0744509,0.020316329,0.000155139,0.017582985,-0.0031498617,0.008266799,0.47056666,-1.4181103,1.9478987,-2.0984871,-1.5718306,2.444133,-0.094207555,0.103244334,-0.1264727,0.033936083,-0.014501758,-0.10237209,-0.34476504,0.24899697,-9.404425,0.78888994,47.65643,-1.0483122,-1.9769645,-3.1876948,0.009856201,-0.09686476,-0.34454829,28.5,29.625,28.875,32.9375,35.3125,36.3125
0.16205186,-1.4915857,-1.1765759,-0.32371423,-0.019008573,0.021203395,-0.18382159,-0.3870806,-0.34706277,0.060131278,-3.0779326,0.62246406,0.0004579507,-0.07636726,0.01922291,0.0014671034,0.016342118,-0.00027797915,0.00974527,0.47038686,-1.4178696,1.947575,-2.0984147,-1.5718545,2.4439166,-0.09383213,0.10468458,-0.13117364,0.034068845,-0.014708651,-0.103472404,-0.34476504,0.24899697,-9.481039,0.82694155,47.690468,-1.1202118,-1.9455919,-3.1689813,0.011165352,-0.10063234,-0.38550436,28.5,29.625,28.875,32.9375,35.3125,36.3125
0.1640521,-0.80434453,-0.73257065,0.03116643,-0.029057095,0.020752108,-0.19239548,-0.38720787,-0.3470102,0.060114104,-3.0778725,0.62243086,0.00039002704,-0.075204216,0.020874003,-0.00028921175,0.019545585,-0.004854436,0.011876926,0.4701943,-1.417665,1.9473604,-2.0983303,-1.5718793,2.443711,-0.095163286,0.10586859,-0.12904204,0.036277596,-0.015492917,-0.10693374,-0.095768064,0.2681506,-9.289502,0.7777002,47.66987,-1.1933842,-1.9768062,-3.2486925,0.0021152287,-0.09012893,-0.36792564,28.5,29.625,28.875,32.9375,35.3125,36.3125
0.16605222,-0.16119571,-0.504137,0.07159608,-0.019591976,0.008049987,-0.19729163,-0.38738036,-0.34699652,0.06013225,-3.0779393,0.6223266,0.00047673527,-0.07639389,0.021356845,-0.00036302212,0.019905971,-0.005435779,0.015605457,0.47001374,-1.4174602,1.9470838,-2.0983298,-1.5718793,2.4434571,-0.09701472,0.10766357,-0.13118614,0.03729872,-0.015551383,-0.11251359,0.019153614,0.28730422,-9.251195,0.78217715,47.70838,-1.0863574,-1.9460866,-3.1993332,0.011196874,-0.09233667,-0.3473364,28.5,29.625,28.875,32.9375,35.3125,36.3125
0.1680522,0.13200474,-0.33931947,-0.0048086033,-0.0003180249,-0.010192045,-0.18883102,-0.387548,-0.3469342,0.060139697,-3.0778885,0.6222926,0.0005454342,-0.07625276,0.021471506,-0.0006181476,0.020777492,-0.00645369,0.0217494,0.469798,-1.4172678,1.9468325,-2.0982702,-1.5719513,2.4432268,-0.09684046,0.108421914,-0.13173653,0.0383748,-0.01587308,-0.118482456,0.095768064,0.30645782,-9.136273,0.84708,47.647476,-1.1519709,-2.0013208,-3.280724,-0.01052347,-0.09019898,-0.2955254,28.5,29.625,28.875,32.9375,35.3125,36.3125
0.17005174,-0.08367132,-0.6252033,0.20514952,0.02010183,-0.027861716,-0.18883371,-0.38771942,-0.34689474,0.060147323,-3.0778906,0.6221941,0.00053852575,-0.077876516,0.022634268,-0.0013094351,0.021394303,-0.0085085975,0.026358167,0.46958038,-1.4170384,1.9465326,-2.0981858,-1.5719627,2.4429476,-0.10056065,0.11146615,-0.1339672,0.039655596,-0.015505276,-0.12681068,0.17238252,0.28730422,-9.021352,0.76874626,47.63046,-0.954463,-1.9822304,-3.20328,0.004720873,-0.10302667,-0.19870016,28.5,29.625,28.875,32.9375,35.3125,36.3125
0.17205197,0.79887474,0.5769831,0.40748185,0.0076269354,-0.01855388,-0.20388576,-0.387886,-0.34684074,0.06015627,-3.077857,0.6221253,0.000566418,-0.07681701,0.021750927,-0.0024377452,0.022187676,-0.011925131,0.03328613,0.46936512,-1.4168333,1.9462575,-2.098101,-1.5720109,2.442694,-0.09853276,0.11430169,-0.13503636,0.04127594,-0.01467477,-0.13171166,0.1340753,0.24899697,-8.983045,0.7351769,47.709274,-1.1737247,-2.0254667,-3.2655387,0.011717735,-0.0911174,-0.16104089,28.5,29.625,28.875,32.9375,35.3125,36.3125
0.1740523,-0.24738836,-0.19827947,0.4040104,0.030565407,-0.047151472,-0.18334262,-0.3880219,-0.34680325,0.06012885,-3.077834,0.62196785,0.0004882868,-0.07869214,0.023457613,-0.0006912234,0.021670612,-0.010109043,0.030780945,0.46918353,-1.4165819,1.9460176,-2.0980403,-1.5720228,2.4424171,-0.10296861,0.11167169,-0.13654822,0.04355868,-0.015047373,-0.13364062,0.15322891,0.28730422,-8.944737,0.784413,47.677036,-0.9065639,-1.9543529,-3.286025,-0.009956216,-0.12875763,-0.08636437,28.5,29.625,28.875,32.9375,35.3125,36.3125
0.17605254,0.23331292,0.6546112,0.34831578,0.017918186,-0.02758903,-0.20129195,-0.3882094,-0.34674707,0.06014741,-3.0777946,0.62186164,0.0005807926,-0.07736888,0.022649964,-0.0024761287,0.023779793,-0.014992625,0.03246883,0.4689687,-1.4163643,1.9457062,-2.097956,-1.5721067,2.4421413,-0.100509755,0.115992926,-0.13801198,0.04599645,-0.014721362,-0.1328696,0.095768064,0.095768064,-9.002198,0.7396539,47.668976,-1.1886016,-1.9450049,-3.2988033,-0.03638129,-0.11038437,-0.0854903,28.5,29.625,28.875,32.9375,35.3125,36.3125
0.17805165,-0.3899863,0.06454084,0.30829313,0.03187411,-0.038235795,-0.18805003,-0.38834316,-0.34673068,0.06014577,-3.0778193,0.6218125,0.0004865435,-0.07830078,0.023434777,-0.0010655515,0.023213904,-0.014456925,0.026821893,0.46878785,-1.4161488,1.945443,-2.0978706,-1.5720586,2.4419267,-0.10286635,0.114132814,-0.13977778,0.04889642,-0.01446262,-0.12957928,0.076614454,0.15322891,-8.887277,0.7665104,47.635834,-1.13058,-1.8154454,-3.2812715,-0.07197398,-0.12533133,-0.100418985,28.5,29.625,28.875,32.9375,35.3125,36.3125
0.18005273,-0.42222384,-0.11402793,0.19216278,0.029282527,-0.031574044,-0.18562804,-0.38849184,-0.34666497,0.0601354,-3.0777278,0.62164235,0.00042198366,-0.07927017,0.02340972,-0.0010930347,0.023850288,-0.016064681,0.021533705,0.46858367,-1.4159075,1.9451541,-2.0977142,-1.5721306,2.4416282,-0.103749745,0.116842054,-0.14346264,0.051587857,-0.014321138,-0.12517157,0.095768064,0.15322891,-8.925584,0.86945957,47.647476,-1.195358,-1.9083045,-3.2104368,-0.12193191,-0.13735054,-0.13407943,28.5,29.625,28.875,32.9375,35.3125,36.3125
0.1820519,-0.08199592,-0.24972837,0.027271183,0.016223699,-0.013395938,-0.18446054,-0.38865387,-0.3466119,0.060134288,-3.0776875,0.62161785,0.00042395736,-0.07853874,0.024953624,-0.002386482,0.02614505,-0.019719183,0.015558762,0.4683669,-1.415691,1.9448913,-2.0976417,-1.5721668,2.4414015,-0.10552446,0.11754734,-0.14177412,0.053491328,-0.014716032,-0.12097113,0.095768064,0.15322891,-9.021352,0.81351066,47.695843,-1.1392807,-1.9084094,-3.4096813,-0.16811283,-0.14438374,-0.21274066,28.5,29.625,28.875,32.9375,35.3125,36.3125
0.18405221,-0.25234747,-0.41040567,-0.07511046,0.008005447,-0.0017836228,-0.18309431,-0.3888104,-0.3465497,0.060136475,-3.0776258,0.62155074,0.00036671612,-0.07950739,0.025071833,-0.0024589133,0.02703483,-0.020637292,0.010613938,0.46813872,-1.4154739,1.9446043,-2.0974977,-1.5722026,2.4411395,-0.10631059,0.119913556,-0.14477001,0.055342264,-0.015109697,-0.11680895,0.0,0.21068975,-9.136273,0.8157518,47.664497,-1.137947,-1.8989365,-3.2387185,-0.20521975,-0.15372066,-0.27482608,28.5,29.625,28.875,32.9375,35.3125,36.3125
0.18605186,-0.62474054,-0.21608503,-0.11916103,-0.0029925087,0.0056510544,-0.1964582,-0.38893735,-0.346488,0.060105838,-3.0775092,0.6214887,0.00023637735,-0.08084931,0.02524043,-0.00215608,0.027951911,-0.020224337,0.009179032,0.4679464,-1.4152212,1.9443511,-2.0973537,-1.5722512,2.4409235,-0.107119314,0.121779546,-0.14793506,0.0566827,-0.01614016,-0.11617644,-0.076614454,0.22984336,-9.155427,0.8247004,47.652847,-1.1054845,-1.9444435,-3.226664,-0.24635622,-0.14056192,-0.31575027,28.5,29.625,28.875,32.9375,35.3125,36.3125
0.18805198,-1.1175975,-0.71205145,-0.30579212,-0.0034966727,0.010157912,-0.18682636,-0.38909245,-0.3464653,0.060116027,-3.0775087,0.62141293,0.00020273092,-0.08139796,0.025134144,-0.0029196264,0.027783044,-0.022544215,0.0049848314,0.46776623,-1.4149921,1.9440397,-2.0972455,-1.5722507,2.4406962,-0.10814871,0.12480065,-0.14990646,0.057625588,-0.0149505045,-0.11301308,-0.21068975,0.17238252,-9.270349,0.7530795,47.619713,-1.1575005,-1.8942593,-3.2942805,-0.2890206,-0.15737128,-0.3928568,28.5,29.625,28.875,32.9375,35.3125,36.3125
0.19005188,-1.3582795,-1.2272347,-0.50087535,-0.009520676,0.035344277,-0.18262021,-0.38924953,-0.34641138,0.060095143,-3.0774302,0.62141734,7.997544e-05,-0.08255006,0.026273003,-0.0017470589,0.026522093,-0.0203837,0.002193893,0.46753708,-1.4147166,1.9437407,-2.0971138,-1.5722626,2.44048,-0.11123611,0.12209367,-0.14944169,0.057365227,-0.014818272,-0.113308966,-0.38307226,0.22984336,-9.423578,0.8493211,47.63225,-1.118339,-1.9392707,-3.2681437,-0.32347888,-0.1898874,-0.4271445,28.5,29.625,28.875,32.9375,35.3125,36.3125
0.19205202,-1.7413795,-1.2692114,-0.46808505,-0.030954968,0.06681006,-0.19234407,-0.38941056,-0.34636036,0.06009732,-3.0773766,0.6214432,1.4294201e-05,-0.08332952,0.024869924,-0.0030246587,0.026586717,-0.021776013,0.005021959,0.46730962,-1.4144864,1.9434413,-2.0969827,-1.5722746,2.4402757,-0.10976031,0.12780766,-0.15289782,0.05637068,-0.014274118,-0.11465913,-0.53630114,0.30645782,-9.500193,0.8179876,47.677036,-1.2463614,-1.8826275,-3.2272882,-0.3533771,-0.18979414,-0.49655402,28.5,29.625,28.875,32.9375,35.3125,36.3125
0.19405234,-2.1897244,-1.2476122,-0.78173345,-0.042398635,0.08662917,-0.19901273,-0.38956505,-0.3462982,0.06007743,-3.0772936,0.621329,-7.255136e-05,-0.08635352,0.02682138,-0.0019937968,0.025898525,-0.01828306,0.0055595995,0.46709165,-1.4142225,1.9431533,-2.096851,-1.5723227,2.4399972,-0.115243524,0.12688434,-0.15386555,0.054817904,-0.0152657535,-0.12067511,-0.47884035,0.30645782,-9.825804,0.77545905,47.691364,-1.0362684,-1.917203,-3.2976093,-0.35653794,-0.20458868,-0.48938227,28.5,29.625,28.875,32.9375,35.3125,36.3125
0.19605237,-2.365011,-1.0989075,-0.78317845,-0.052563075,0.11026145,-0.20265332,-0.3897334,-0.34623727,0.06006634,-3.0772393,0.62125224,-0.0001798445,-0.087006874,0.02538669,-0.0014142712,0.024735501,-0.015763463,0.016789397,0.46684062,-1.4139581,1.9428419,-2.0967085,-1.5723351,2.4397054,-0.11315223,0.12783727,-0.15593556,0.053141207,-0.01540173,-0.12981041,-0.6512228,0.2681506,-9.80665,0.8224646,47.640312,-1.2176683,-1.9094719,-3.2540407,-0.38693523,-0.21186043,-0.43740103,28.5,29.625,28.875,32.9375,35.3125,36.3125
0.19805236,-2.6948526,-1.4424328,-0.7251006,-0.051637515,0.115857504,-0.19402929,-0.38991562,-0.34621397,0.060077045,-3.0772314,0.6211515,-0.0001450332,-0.0903167,0.026286993,-0.0013459516,0.023631651,-0.0123647135,0.022465518,0.4666591,-1.4136931,1.9424938,-2.096626,-1.5723714,2.4394622,-0.117290534,0.13005471,-0.15778635,0.04922017,-0.01597721,-0.1396213,-0.7661445,0.22984336,-9.749189,0.8985519,47.690468,-1.0779207,-1.9329994,-3.2800903,-0.39144474,-0.21983886,-0.3507441,28.5,29.625,28.875,32.9375,35.3125,36.3125
0.20005238,-2.761725,-1.2193772,-0.87516236,-0.035663035,0.104459174,-0.19998088,-0.3901261,-0.34616733,0.060097367,-3.0772357,0.62109023,-4.2511598e-05,-0.09240613,0.02623139,-0.0008709149,0.021549815,-0.0093019465,0.029188022,0.46641845,-1.4134523,1.9421595,-2.0965793,-1.572419,2.439183,-0.119296364,0.13086633,-0.1591144,0.046037126,-0.01551656,-0.14835049,-0.7086837,0.1340753,-9.940725,0.8023209,47.640312,-0.95041084,-1.8559633,-3.2764273,-0.36266196,-0.25334466,-0.26123622,28.5,29.625,28.875,32.9375,35.3125,36.3125
0.20205246,-1.8651928,-0.5290687,-0.8999206,-0.024006091,0.10167204,-0.19154926,-0.39027688,-0.3461078,0.060043525,-3.0771604,0.6209747,-0.0002364237,-0.09439699,0.025901498,-0.0005283131,0.020209704,-0.006390374,0.03426598,0.46617824,-1.4131275,1.9418844,-2.0964725,-1.5724195,2.4388804,-0.12034216,0.13247281,-0.16115642,0.04325537,-0.015676316,-0.15446974,-0.842759,0.17238252,-9.844957,0.8314132,47.664497,-0.9496016,-1.8750598,-3.3014295,-0.33685932,-0.24145895,-0.19969162,28.5,29.625,28.875,32.9375,35.3125,36.3125
0.20405285,-1.8331056,-0.41628662,-0.7901392,-0.012876918,0.10031237,-0.19465718,-0.39048588,-0.34606242,0.060078412,-3.0771904,0.6208864,-0.00015425855,-0.0960457,0.025288273,0.00021229671,0.017930053,-0.0014252575,0.032909207,0.46592608,-1.4129115,1.9415373,-2.0963905,-1.5724434,2.4385695,-0.12053578,0.13213876,-0.16137652,0.038344942,-0.015876424,-0.1533059,-0.9002198,0.05746084,-9.710882,0.7933669,47.65912,-1.0418646,-1.7934759,-3.3708339,-0.2822771,-0.2720706,-0.16861488,28.5,29.625,28.875,32.9375,35.3125,36.3125
0.20605184,-2.6599889,0.037070762,-0.94980335,-0.006891706,0.08090395,-0.1913597,-0.3906822,-0.34601325,0.06007404,-3.077181,0.6207507,-0.00013776585,-0.096547455,0.025382107,-0.0013219941,0.019234443,-0.0021605468,0.02988493,0.46568632,-1.4126338,1.941214,-2.0963314,-1.5724791,2.4382465,-0.120548345,0.1357184,-0.1615368,0.036167853,-0.016716726,-0.15029047,-0.9768343,-0.019153614,-9.691729,0.8314132,47.67614,-1.1085714,-1.9256749,-3.4446912,-0.24262577,-0.28329927,-0.16429707,28.5,29.625,28.875,32.9375,35.3125,36.3125
0.20805193,-2.0686452,0.42288664,-0.80824244,0.0012768015,0.099372014,-0.1976468,-0.39088944,-0.34597757,0.060085457,-3.0771902,0.6206994,-0.00011135673,-0.09822351,0.025388833,-0.0013009853,0.019508447,-0.0008260048,0.022928284,0.46544582,-1.4123572,1.940853,-2.0962598,-1.5724915,2.437973,-0.12144968,0.13809185,-0.16417326,0.03536998,-0.017559318,-0.14423111,-0.9002198,-0.038307227,-9.672575,0.8560339,47.655537,-0.9011295,-1.8500702,-3.3703957,-0.21187413,-0.28076053,-0.25512397,28.5,29.625,28.875,32.9375,35.3125,36.3125
0.21005201,-1.7512369,0.6563541,-0.736839,0.0076452624,0.100035384,-0.19460349,-0.3910852,-0.34591216,0.060065117,-3.0771549,0.6205976,-7.072752e-05,-0.099756666,0.025238764,-0.00089689874,0.019138925,0.00036466296,0.018999325,0.46519372,-1.41208,1.9405774,-2.0962484,-1.5725516,2.4376621,-0.122354716,0.13975541,-0.16704261,0.035339564,-0.017768998,-0.14120477,-0.59376204,-0.17238252,-9.576807,0.8605109,47.66987,-1.2211535,-1.9860461,-3.4232419,-0.1886009,-0.2947284,-0.30792454,28.5,29.625,28.875,32.9375,35.3125,36.3125
0.21205208,-1.6492234,0.64911026,-0.7328833,0.01599314,0.07250722,-0.19130445,-0.3913101,-0.3458699,0.06010137,-3.0771432,0.6205764,-1.1414025e-05,-0.099129915,0.026095062,-0.0027674637,0.02232275,-0.0037299597,0.017590387,0.46494174,-1.4118148,1.9401587,-2.0961154,-1.5725883,2.4373987,-0.12259257,0.14299,-0.16692433,0.03707072,-0.018772082,-0.14003094,-0.4405331,-0.11492168,-9.576807,0.8247004,47.71465,-1.1146325,-2.1071198,-3.495161,-0.17640908,-0.29887542,-0.34704328,28.5,29.625,28.875,32.9375,35.3125,36.3125
0.21405235,-1.0263042,0.36368576,-0.65898865,0.019061144,0.05166766,-0.19045638,-0.39148813,-0.34581482,0.060072213,-3.0770984,0.6205493,-5.156006e-05,-0.100141704,0.02686041,-0.003158508,0.023002772,-0.004266327,0.014689995,0.46470076,-1.4115258,1.9398841,-2.0960796,-1.5726122,2.4371467,-0.1245439,0.1446165,-0.16799666,0.03729639,-0.019150132,-0.13907914,-0.40222588,-0.1340753,-9.557653,0.8179876,47.670765,-1.1524682,-2.1012335,-3.5733688,-0.15259369,-0.30407438,-0.37916866,28.5,29.625,28.875,32.9375,35.3125,36.3125
0.21605258,-1.1852638,0.12488486,-0.37526783,0.009711297,0.018366136,-0.18879166,-0.39172775,-0.34576422,0.060104407,-3.0770922,0.6205275,7.903846e-05,-0.10147033,0.027325692,-0.0032961953,0.023203412,-0.0029730548,0.016378941,0.4644365,-1.4112611,1.9394892,-2.096009,-1.5726727,2.4368699,-0.12598068,0.14590938,-0.16886634,0.035789914,-0.019914415,-0.14220291,-0.38307226,-0.095768064,-9.481039,0.85826975,47.681515,-1.1182067,-2.0502183,-3.5548155,-0.12992552,-0.31657255,-0.37518114,28.5,29.625,28.875,32.9375,35.3125,36.3125
0.21805179,-0.7836071,-0.2120595,-0.6017316,0.011005134,0.0026417074,-0.19554967,-0.3919241,-0.34570518,0.060076874,-3.077029,0.6204155,6.207958e-05,-0.103731245,0.027157286,-0.0020664902,0.022609478,0.00019213922,0.020947611,0.46419603,-1.4109365,1.939164,-2.0959485,-1.5727333,2.4365678,-0.12704264,0.14681718,-0.17272708,0.035624992,-0.02082976,-0.14782768,-0.15322891,-0.076614454,-9.423578,0.87617236,47.67614,-1.0475779,-2.1297612,-3.4223547,-0.08491256,-0.29629958,-0.39368755,28.5,29.625,28.875,32.9375,35.3125,36.3125
0.22005187,-0.35399163,0.28592283,-0.4321175,0.007221721,-0.005865565,-0.20055994,-0.3921327,-0.34565884,0.06007666,-3.0770397,0.6202602,7.952188e-05,-0.10507532,0.027373394,-0.0021526893,0.023666136,-0.0013483837,0.027441988,0.46394366,-1.4106468,1.9388164,-2.0958874,-1.5727571,2.4362173,-0.12837341,0.15003347,-0.17691535,0.038423274,-0.021103429,-0.15565003,-0.05746084,0.11492168,-9.346964,0.86945957,47.684196,-1.0782175,-2.238954,-3.3781927,-0.055101387,-0.30800465,-0.28148302,28.5,29.625,28.875,32.9375,35.3125,36.3125
0.22205177,-0.20353906,0.0853104,-0.16031888,-0.0025526604,-0.004642869,-0.19307311,-0.39236322,-0.3455998,0.060117386,-3.0770094,0.6202099,0.00027176266,-0.10618982,0.027210623,-0.00066086557,0.022629978,0.00014482466,0.035409607,0.46370336,-1.4104191,1.9384445,-2.0958154,-1.5728649,2.4359498,-0.12916149,0.14920793,-0.17982893,0.04032132,-0.020851338,-0.16440721,0.0,0.22984336,-9.251195,0.8493211,47.674347,-1.0730097,-1.9994015,-3.329367,-0.04988818,-0.30897254,-0.2283061,28.5,29.625,28.875,32.9375,35.3125,36.3125
0.22405209,-0.42102545,-0.56793386,-0.24648532,-0.0022537839,-0.00441238,-0.18743569,-0.39257818,-0.3455312,0.060096484,-3.0769944,0.62008965,0.00019188342,-0.107201464,0.027839115,-0.00037249154,0.02256753,-2.6022151e-05,0.039868258,0.46339104,-1.410095,1.9380988,-2.095731,-1.5728649,2.4355645,-0.13115743,0.14971152,-0.18137407,0.041466735,-0.020743536,-0.17086034,0.0,0.2681506,-9.193734,0.8560339,47.698532,-1.1760582,-2.0276804,-3.3043993,-0.043482035,-0.31154662,-0.10070692,28.5,29.625,28.875,32.9375,35.3125,36.3125
0.2260524,-0.087107524,-0.82718563,-0.4722568,-0.016365858,0.005349939,-0.18847075,-0.39279783,-0.3454711,0.060105305,-3.0769465,0.619944,0.00028225084,-0.10681278,0.027036076,-0.0005564295,0.023811907,-0.0013694856,0.0427458,0.46315154,-1.409806,1.9377259,-2.0956461,-1.5729612,2.4352405,-0.12899013,0.15164112,-0.18370461,0.043604616,-0.021260366,-0.17156805,0.019153614,0.49799395,-9.232041,0.8179876,47.694946,-1.1947904,-1.9867225,-3.287376,-0.038055465,-0.3311511,-0.087092854,28.5,29.625,28.875,32.9375,35.3125,36.3125
0.22805257,-0.7189306,-1.4237199,0.0004500928,-0.052600615,0.007844075,-0.18389904,-0.39302436,-0.34541824,0.060116854,-3.0769682,0.6198767,0.00026507102,-0.1087548,0.029393611,-0.00085855415,0.024917271,-0.0032055643,0.033059817,0.46284944,-1.4095169,1.937344,-2.0955503,-1.5729493,2.4348938,-0.13468367,0.15313609,-0.18528724,0.045834467,-0.021425644,-0.1675745,-0.11492168,0.59376204,-9.232041,0.8940802,47.67166,-1.0604445,-1.992918,-3.2480245,-0.027589377,-0.32542297,-0.094344676,28.5,29.625,28.875,32.9375,35.3125,36.3125
0.23005262,-0.39411056,-1.3524102,-0.22001047,-0.06761655,0.014383746,-0.18791148,-0.3932328,-0.34535047,0.060092274,-3.076871,0.61976177,0.00023771414,-0.10872241,0.028446333,0.00022721167,0.023989713,-0.002310827,0.02984748,0.4625983,-1.4091687,1.9369735,-2.095442,-1.5730327,2.4345837,-0.13317731,0.1523737,-0.18728185,0.04736749,-0.021005614,-0.16285487,-0.076614454,0.49799395,-9.251195,0.85155696,47.677036,-1.1450368,-1.974071,-3.2896047,-0.047021005,-0.34188253,-0.14517644,28.5,29.625,28.875,32.9375,35.3125,36.3125
0.23205197,-0.47943136,-1.7678318,-0.23298028,-0.059577502,0.0038567756,-0.18245864,-0.39345798,-0.34528235,0.060081683,-3.0768206,0.6196987,0.00023448358,-0.10904405,0.02966468,-0.0005807593,0.025608283,-0.004624403,0.021108,0.4623096,-1.4088441,1.9366034,-2.0953577,-1.5730814,2.4342623,-0.13526635,0.15389302,-0.18759875,0.04896177,-0.021418009,-0.15620226,-0.05746084,0.49799395,-9.308656,0.8627467,47.711063,-1.0670431,-1.8706362,-3.3381624,-0.051896937,-0.34930938,-0.23464,28.5,29.625,28.875,32.9375,35.3125,36.3125
0.23405217,0.2514193,-1.1213742,-0.038083363,-0.06515854,0.023785064,-0.18438962,-0.39369678,-0.34525028,0.060106218,-3.0768306,0.6197048,0.00031479332,-0.1107767,0.03015733,-0.0011903503,0.026151594,-0.0051738173,0.014197826,0.46205676,-1.4085424,1.9361824,-2.0952861,-1.5731052,2.4340122,-0.13743293,0.15739165,-0.19027528,0.048877385,-0.021653986,-0.15145719,-0.095768064,0.4405331,-9.193734,0.7978386,47.68062,-1.0437433,-2.03897,-3.2797794,-0.035607446,-0.34187445,-0.30107793,28.5,29.625,28.875,32.9375,35.3125,36.3125
0.23605293,-0.4967373,-1.2771522,-0.33050677,-0.024372898,7.0452064e-05,-0.18200594,-0.3938883,-0.34519714,0.060110364,-3.0767949,0.619584,0.00028604438,-0.111841336,0.030058913,-0.0003747851,0.025232434,-0.003812293,0.009926487,0.4618167,-1.4082667,1.9358243,-2.0951536,-1.5731415,2.4337015,-0.13826083,0.15737014,-0.19223024,0.049222805,-0.021446785,-0.14801256,-0.076614454,0.36391866,-9.136273,0.8224646,47.703007,-1.0330411,-1.8351614,-3.287715,-0.027298762,-0.34982088,-0.395046,28.5,29.625,28.875,32.9375,35.3125,36.3125
0.23805207,-0.11200139,-0.40232146,-0.25585693,-0.0064519527,0.008016873,-0.18357682,-0.3941181,-0.3451378,0.060088966,-3.0767453,0.6195571,0.00020348834,-0.113286175,0.030439816,0.00012315641,0.024379015,-0.0034153198,0.005822642,0.46151605,-1.4078939,1.9354175,-2.0950458,-1.5731529,2.4333906,-0.14048582,0.15813988,-0.19448102,0.04996312,-0.020874577,-0.14613308,-0.095768064,0.3256114,-9.174581,0.8179876,47.68062,-1.1103897,-1.8505554,-3.1405268,0.005303264,-0.37780008,-0.43878174,28.5,29.625,28.875,32.9375,35.3125,36.3125
0.24005213,-1.011698,-0.036984056,-0.16556005,0.015786478,-0.0019390893,-0.1812497,-0.3943335,-0.34508052,0.06009989,-3.0767374,0.61953264,0.00023649764,-0.11278063,0.030514661,6.893348e-05,0.02556809,-0.006154466,0.009443536,0.46123993,-1.4076293,1.9350699,-2.0949724,-1.5731767,2.4331005,-0.1401855,0.15899564,-0.19626738,0.053857855,-0.02072352,-0.14945412,-0.15322891,0.21068975,-9.11712,0.88289046,47.661808,-0.99325407,-1.8640988,-3.223854,-0.027462542,-0.38218838,-0.49144876,28.5,29.625,28.875,32.9375,35.3125,36.3125
0.24205221,-0.909083,0.6401538,-0.21337695,0.019866433,0.012926551,-0.19366816,-0.3945732,-0.34502044,0.060078293,-3.076678,0.61953634,0.00018070768,-0.1142278,0.03254398,-0.0005041655,0.027086977,-0.006977136,0.015913064,0.4609382,-1.4072443,1.9346522,-2.094877,-1.5732015,2.4328089,-0.14429091,0.16021667,-0.19651987,0.05426866,-0.021751555,-0.16002429,-0.11492168,0.114921674,-9.174581,0.8493211,47.674347,-0.7985233,-1.8311687,-3.3534517,-0.027190365,-0.40276685,-0.42645016,28.5,29.625,28.875,32.9375,35.3125,36.3125
0.24405229,-0.9444076,0.8557484,-0.211283,0.024919827,0.034873478,-0.18367769,-0.3947996,-0.34495342,0.06008172,-3.0766315,0.6193832,0.0001475356,-0.11340146,0.032358523,-0.0011461745,0.029472651,-0.009871034,0.03036453,0.4606511,-1.4069196,1.9342331,-2.0947201,-1.5732497,2.4324324,-0.14258347,0.16222835,-0.19816011,0.057506245,-0.022637727,-0.1727636,-0.17238252,-0.038307227,-9.155427,0.8314132,47.675243,-1.0222833,-1.8556575,-3.2866995,-0.03021025,-0.3911531,-0.32968256,28.5,29.625,28.875,32.9375,35.3125,36.3125
0.24605244,-1.1983544,0.9472628,0.038976867,0.023916643,0.049789175,-0.18871441,-0.39501235,-0.34490377,0.060057275,-3.0765991,0.6191997,9.9570236e-05,-0.11274942,0.033224326,-0.0030814311,0.033146124,-0.016580297,0.038165297,0.46039915,-1.4065574,1.9338502,-2.0946343,-1.5732859,2.4320703,-0.14324394,0.16682439,-0.20027804,0.06263808,-0.0229739,-0.1812215,-0.22984336,-0.17238252,-9.136273,0.8851263,47.694946,-1.0606217,-2.0522497,-3.2935324,-0.07810219,-0.40595472,-0.23104674,28.5,29.625,28.875,32.9375,35.3125,36.3125
0.24805258,-1.0173731,1.0024012,-0.23594049,0.038900573,0.056092348,-0.19215791,-0.39525542,-0.34485546,0.060072705,-3.076589,0.6190609,0.00011362077,-0.11211797,0.033999506,-0.0027749485,0.035511855,-0.019113239,0.04192479,0.46012306,-1.4062215,1.9333957,-2.0945008,-1.5733222,2.431709,-0.14332198,0.16638422,-0.20167951,0.06778053,-0.023978451,-0.18505558,-0.40222588,-0.21068975,-9.251195,0.900793,47.661808,-1.0528209,-1.8547719,-3.3126292,-0.15557964,-0.41743994,-0.158007,28.5,29.625,28.875,32.9375,35.3125,36.3125
0.25005272,-0.8405265,1.2503887,-0.13504806,0.04648431,0.055162318,-0.18189505,-0.3954757,-0.34477067,0.060065813,-3.0765412,0.6189197,8.227739e-05,-0.11368799,0.034345705,-0.002503908,0.035363387,-0.017734831,0.03732616,0.45981053,-1.4059209,1.9330362,-2.094381,-1.5733703,2.4313147,-0.14490744,0.16759104,-0.20360789,0.06719492,-0.024477996,-0.18203814,-0.45968673,-0.3256114,-9.289502,0.8493211,47.67614,-1.0730425,-1.9818735,-3.2711487,-0.17181955,-0.3927116,-0.1361685,28.5,29.625,28.875,32.9375,35.3125,36.3125
0.2520518,-1.3143555,0.8947785,-0.21320358,0.05765305,0.04179085,-0.16980278,-0.39568892,-0.34469342,0.060051825,-3.0764432,0.6188474,-5.181475e-05,-0.114716195,0.035364058,-0.0029626042,0.03772166,-0.019043515,0.028362378,0.45951,-1.4055713,1.9326171,-2.094177,-1.5734066,2.4309819,-0.14653173,0.17005505,-0.20593818,0.06929238,-0.02602939,-0.17468867,-0.47884035,-0.36391866,-9.270349,0.8918391,47.664497,-1.0808649,-2.093043,-3.1795154,-0.19446199,-0.40993783,-0.24051073,28.5,29.625,28.875,32.9375,35.3125,36.3125
0.25405195,-0.7240438,1.1496998,-0.2977711,0.048918255,0.048012607,-0.17875463,-0.3959398,-0.344624,0.06003253,-3.0763764,0.6187217,-1.9628873e-05,-0.115781516,0.036264453,-0.0033243143,0.03968918,-0.019335479,0.021141043,0.45922175,-1.4051863,1.9321989,-2.0941055,-1.5734919,2.430624,-0.1479135,0.17201513,-0.2076382,0.07016673,-0.027668769,-0.16884121,-0.5746084,-0.40222588,-9.346964,0.842603,47.66987,-1.0885862,-2.0133564,-3.306069,-0.25351274,-0.3933909,-0.29278535,28.5,29.625,28.875,32.9375,35.3125,36.3125
0.2560525,-0.82198995,1.1377575,-0.33849037,0.037925698,0.053772014,-0.18273346,-0.39613515,-0.34455374,0.05999611,-3.076291,0.6186458,-0.00019248069,-0.11568359,0.036599904,-0.0038961372,0.04176811,-0.020302484,0.019492188,0.458934,-1.4048256,1.9318284,-2.093949,-1.5735039,2.4303,-0.14740507,0.17344277,-0.20826292,0.07115356,-0.029133018,-0.16667403,-0.59376204,-0.30645782,-9.289503,0.8224646,47.682407,-1.0763597,-2.2677913,-3.3030167,-0.2724034,-0.37430036,-0.36586344,28.5,29.625,28.875,32.9375,35.3125,36.3125
0.25805238,-1.6120914,0.4370412,-0.37708274,0.02812884,0.060673863,-0.18176472,-0.39637628,-0.34445485,0.060013548,-3.0761526,0.618618,-0.00014219349,-0.11747078,0.037335474,-0.0028522217,0.041859537,-0.018003734,0.018997677,0.45863292,-1.4045253,1.9313973,-2.0937579,-1.5736364,2.4299996,-0.1494558,0.17316747,-0.2104641,0.07157823,-0.03026134,-0.16822337,-0.51714754,-0.2681506,-9.346964,0.8851263,47.681515,-0.97844225,-2.0962763,-3.461728,-0.28661114,-0.36962622,-0.4092639,28.5,29.625,28.875,32.9375,35.3125,36.375
0.26005247,-1.5165595,0.35310945,-0.43444684,0.009643372,0.07702499,-0.19832326,-0.39659858,-0.3443821,0.059995893,-3.0760846,0.61854476,-0.00021753261,-0.11824974,0.03752649,-0.0030464097,0.042897545,-0.01746799,0.021253163,0.45833305,-1.4041762,1.931003,-2.0936258,-1.5736727,2.429663,-0.14961809,0.17471683,-0.21181644,0.071342245,-0.031463813,-0.17063299,-0.51714754,-0.17238252,-9.404425,0.8627467,47.645687,-1.0675656,-2.264572,-3.4386663,-0.32803327,-0.33634195,-0.41372487,28.5,29.625,28.875,32.9375,35.3125,36.375
0.26205257,-2.379135,-0.48094103,-0.35167027,-0.007831235,0.07969755,-0.18928365,-0.39684552,-0.34428164,0.059984658,-3.0759628,0.6184183,-0.00023682415,-0.11977552,0.037396394,-0.0031610248,0.043380253,-0.015987495,0.030864,0.45800894,-1.4038149,1.9305719,-2.093459,-1.5737809,2.4292758,-0.1498948,0.17725392,-0.21426772,0.0700868,-0.032613177,-0.18051136,-0.49799395,-0.076614454,-9.500193,0.9030289,47.684196,-1.1520406,-2.2518208,-3.4062262,-0.34358075,-0.30450398,-0.36049023,28.5,29.625,28.875,32.9375,35.3125,36.375
0.2640527,-2.2351394,-1.0190955,-0.564909,-0.026292589,0.09878592,-0.1822003,-0.3970605,-0.34420574,0.059952017,-3.075852,0.6182734,-0.00033480913,-0.12099965,0.03725372,-0.0032218609,0.042503573,-0.014633569,0.040507074,0.457733,-1.4034307,1.9301656,-2.0933044,-1.5738529,2.4289238,-0.150704,0.17869519,-0.21542421,0.06814438,-0.03249389,-0.19095907,-0.5746084,0.17238252,-9.461885,0.800085,47.67614,-1.2034974,-2.1897352,-3.3960767,-0.33721372,-0.30326056,-0.23943543,28.5,29.625,28.875,32.9375,35.3125,36.375
0.2660519,-1.6677752,-0.87275183,-0.89399743,-0.039777078,0.099898495,-0.18333109,-0.39732537,-0.3441286,0.059952468,-3.0758007,0.61818403,-0.00035334274,-0.12332058,0.037136223,-0.0026273848,0.040765096,-0.011206684,0.04465674,0.45739642,-1.4030577,1.9296993,-2.0931613,-1.573901,2.4285383,-0.15241356,0.17988099,-0.21755746,0.06521066,-0.03249548,-0.1968153,-0.51714754,0.2681506,-9.481039,0.88960326,47.657326,-1.3011838,-2.203707,-3.389388,-0.3415377,-0.3174516,-0.15565518,28.5,29.625,28.875,32.9375,35.3125,36.375
0.2680521,-1.8154597,-1.7152373,-0.9612781,-0.04997533,0.08412297,-0.17172144,-0.39758763,-0.34404844,0.059965458,-3.0757704,0.6180435,-0.00028733295,-0.12466804,0.03650869,-0.0020195774,0.040940527,-0.0064078346,0.04700089,0.4570728,-1.4027331,1.9292687,-2.0930545,-1.573974,2.428131,-0.1509122,0.18036017,-0.21875174,0.061678115,-0.034793094,-0.19764724,-0.51714754,0.38307226,-9.672575,0.90527004,47.675243,-1.3055933,-2.0824237,-3.468031,-0.31883287,-0.2758786,-0.09703511,28.5,29.625,28.875,32.9375,35.3125,36.375
0.27005213,-1.6981387,-1.9051826,-0.7504631,-0.07315361,0.07632944,-0.17654982,-0.3978341,-0.34396648,0.05992821,-3.0756567,0.61798656,-0.00035524645,-0.12688303,0.03746318,-0.0020366935,0.041140895,-0.0034010985,0.038118735,0.45675966,-1.402312,1.9288381,-2.0929368,-1.5740465,2.4277973,-0.15344933,0.18157695,-0.21949713,0.058598973,-0.036318235,-0.19129096,-0.49799395,0.36391866,-9.634268,0.87393653,47.651955,-1.1149931,-2.2271557,-3.5446534,-0.28009543,-0.2302485,-0.17649668,28.5,29.625,28.875,32.9375,35.3125,36.375
0.2720522,-1.4721445,-1.4638325,-0.7100666,-0.06850439,0.06272015,-0.18088865,-0.39811632,-0.34390455,0.059950665,-3.075662,0.61787575,-0.0002700661,-0.12975353,0.03730862,-0.0015040959,0.03967588,0.00027290013,0.029237498,0.45643538,-1.4019631,1.9283599,-2.0928414,-1.5740947,2.4274035,-0.15536843,0.18385592,-0.22275138,0.055635225,-0.036616858,-0.18432654,-0.45968673,0.34476504,-9.653421,0.8985519,47.679718,-1.2134823,-2.0876231,-3.5027037,-0.2413068,-0.20890826,-0.2641468,28.5,29.625,28.875,32.9375,35.3125,36.375
0.2740525,-0.95103407,-1.4524021,-0.8473786,-0.0356476,0.04348074,-0.17940667,-0.3983701,-0.3438132,0.05992623,-3.0755649,0.6176699,-0.00027400212,-0.13224085,0.03779111,-0.00041763758,0.0375107,0.0037898503,0.020135313,0.45612225,-1.4015671,1.9279288,-2.0927227,-1.5742024,2.4269745,-0.15851685,0.18361944,-0.22455451,0.05355259,-0.036234107,-0.17837052,-0.21068975,0.34476504,-9.768343,0.82694155,47.679718,-1.0888844,-2.0852356,-3.4966245,-0.20499301,-0.1910679,-0.33647323,28.5,29.625,28.875,32.9375,35.3125,36.375
0.2760519,-0.07366229,-0.6102317,-0.766494,-0.03959998,0.040822282,-0.19402586,-0.3986484,-0.343736,0.059941947,-3.0755024,0.61767924,-0.00018472265,-0.13430755,0.038177885,-0.00039760646,0.035905037,0.005338531,0.012254428,0.45579743,-1.4012179,1.9274629,-2.0926158,-1.5742859,2.4266639,-0.16136022,0.1852647,-0.2260685,0.05131326,-0.035470206,-0.17333558,-0.15322891,0.3256114,-9.615114,0.8806493,47.68062,-0.89340657,-2.1738229,-3.6370819,-0.15752394,-0.16409406,-0.4440456,28.5,29.625,28.875,32.9375,35.3125,36.375
0.27805218,0.09035936,-0.3942458,-0.8414049,-0.026396682,0.018945154,-0.1835956,-0.3989294,-0.34364146,0.059931237,-3.0754125,0.61777604,-0.00017563894,-0.13602339,0.03744296,0.0006629002,0.03440347,0.0079771755,0.011421676,0.45542523,-1.4008335,1.9270185,-2.0925195,-1.574346,2.426364,-0.16153775,0.1862115,-0.22953904,0.0507855,-0.035299484,-0.17267823,-0.095768064,0.2681506,-9.634268,0.89631605,47.68062,-0.9570787,-2.1493278,-3.452634,-0.108317465,-0.15289411,-0.5296452,28.5,29.625,28.875,32.9375,35.3125,36.375
0.28005224,-0.47305635,-0.36915773,-0.8076272,-0.035518475,-0.00064137694,-0.19060007,-0.39918885,-0.343584,0.059927974,-3.0753994,0.61759806,-0.0001238237,-0.13638109,0.037614033,0.00026443665,0.034470506,0.0068315463,0.01647814,0.45513716,-1.4004605,1.926576,-2.092448,-1.574406,2.4259667,-0.16230512,0.18765853,-0.23049657,0.05131089,-0.034876913,-0.17850354,-0.038307227,0.28730422,-9.615114,0.9231726,47.661808,-0.94637764,-1.987061,-3.4799619,-0.07861394,-0.124049686,-0.52109855,28.5,29.625,28.875,32.9375,35.3125,36.375
0.28205222,-0.019461429,-0.61281204,-0.6214459,-0.035390332,0.020938613,-0.20095563,-0.3994696,-0.3434898,0.059906468,-3.0752966,0.6175291,-0.00011667909,-0.1363922,0.03810581,-0.0010704886,0.036088977,0.0019711806,0.029635493,0.4547886,-1.4000391,1.9261101,-2.0923388,-1.5745014,2.4255886,-0.16345598,0.19151375,-0.23278168,0.054731928,-0.034251057,-0.19281162,0.076614454,0.24899697,-9.595961,0.9925471,47.699425,-1.0070109,-2.0081565,-3.5588262,-0.08395003,-0.1122748,-0.42308182,28.5,29.625,28.875,32.9375,35.3125,36.375
0.28405252,-0.26221517,-0.65434104,-0.80439246,-0.021845726,0.011638085,-0.19018476,-0.39973894,-0.34341928,0.059895296,-3.075261,0.6173414,-8.264855e-05,-0.13767919,0.037434015,-1.7197859e-06,0.03439373,0.004297532,0.041538764,0.45447704,-1.3996425,1.9256552,-2.0922554,-1.5745734,2.4251647,-0.1635542,0.19164877,-0.23534223,0.054250218,-0.033801824,-0.20481344,0.15322891,0.22984336,-9.557653,0.81351066,47.666286,-1.0880094,-2.1135943,-3.531097,-0.054765202,-0.12201469,-0.28036174,28.5,29.625,28.875,32.9375,35.3125,36.375
0.28605184,-0.36167166,-0.50557053,-0.6201584,-0.01937821,0.0067166267,-0.18287745,-0.4000004,-0.34335026,0.059898783,-3.0752485,0.6171835,-8.322114e-05,-0.13904822,0.0373904,0.0008732031,0.033587817,0.00539661,0.046572313,0.45415246,-1.3992819,1.9252003,-2.0921357,-1.5746096,2.4247434,-0.16467443,0.19218071,-0.23824671,0.055238478,-0.033591647,-0.21096633,0.24899697,0.19153613,-9.557653,0.8717007,47.64121,-1.0286813,-2.1334808,-3.510693,-0.022692174,-0.08393901,-0.19047013,28.5,29.625,28.875,32.9375,35.3125,36.375
0.28805196,-0.28162703,-0.6937017,-0.73928565,-0.012102543,-0.012452183,-0.18117204,-0.40031323,-0.3432935,0.05992408,-3.0752492,0.6170723,5.2978008e-05,-0.1405513,0.037590936,0.0012439819,0.032481037,0.004259657,0.040209636,0.45382762,-1.3988849,1.924661,-2.0920508,-1.5746812,2.4243493,-0.16714773,0.19409756,-0.24191254,0.057508767,-0.0320804,-0.20708422,0.038307227,0.17238252,-9.461885,0.8873621,47.66091,-0.90141237,-2.1881096,-3.4852,-0.0065384153,-0.08667661,-0.19299874,28.5,29.625,28.875,32.9375,35.3125,36.375
0.29005218,-0.34784243,-0.3828527,-0.90319854,-0.0066390526,-0.03564295,-0.1814552,-0.40058362,-0.34321603,0.05992738,-3.0751822,0.61696637,5.53886e-05,-0.14102384,0.03779028,0.001240016,0.032751843,0.002355305,0.031635758,0.45350337,-1.3985001,1.9241699,-2.0918944,-1.5747527,2.4239678,-0.16816476,0.19565986,-0.24442038,0.06028887,-0.031478923,-0.1995277,-0.019153614,0.19153613,-9.5385,0.8918391,47.652847,-0.92899954,-2.1896415,-3.3673892,-0.021634305,-0.08550525,-0.27822196,28.5,29.625,28.875,32.9375,35.3125,36.375
0.29205218,-0.31129137,-0.5439813,-0.7505702,-0.010353189,-0.03020018,-0.18717743,-0.4008807,-0.34312356,0.059917793,-3.0751324,0.61692244,0.00011684736,-0.14318815,0.038320187,0.0015268462,0.030957812,0.003669401,0.02405062,0.45313,-1.3981029,1.9237155,-2.0918348,-1.5748242,2.4235737,-0.17148107,0.19697367,-0.24638267,0.058958992,-0.030440426,-0.19526243,0.05746084,0.11492168,-9.557653,0.9231726,47.690468,-0.8029779,-2.318824,-3.3867517,0.002941846,-0.0798567,-0.34506214,28.5,29.625,28.875,32.9375,35.3125,36.375
0.29405236,-0.92915404,-0.8598778,-0.5086336,-0.008675031,-0.031397894,-0.17380603,-0.40112528,-0.343051,0.05990756,-3.0750706,0.6168324,1.2692712e-05,-0.14290708,0.037544914,0.0010917907,0.031036863,0.0012209796,0.023259714,0.4528068,-1.3977177,1.9232491,-2.0916545,-1.574848,2.4232025,-0.17038329,0.19936492,-0.248747,0.061158616,-0.029457022,-0.19337441,0.0,0.095768064,-9.500193,0.8157518,47.653748,-0.90914345,-2.3602104,-3.2115915,0.03176257,-0.07929583,-0.39537942,28.5,29.625,28.875,32.9375,35.3125,36.375
0.29605272,-1.0627565,-0.76358825,-0.57110846,-0.010059682,-0.011276366,-0.18402041,-0.40142354,-0.34298643,0.059917793,-3.0750651,0.61671317,3.9331433e-05,-0.14230195,0.03698238,0.0010068322,0.030960603,-0.0018657574,0.026669554,0.45245898,-1.3973091,1.9227217,-2.0915334,-1.5748833,2.4227812,-0.16962864,0.20066829,-0.2509709,0.06478898,-0.028048653,-0.19603565,-0.1340753,0.15322891,-9.500193,0.80456203,47.68062,-0.97379005,-2.3230476,-3.1081595,0.015519621,-0.079800986,-0.43251994,28.5,29.625,28.875,32.9375,35.3125,36.375
0.29805183,-0.7696195,-0.40299693,-0.59236443,-0.0105632,0.0147935795,-0.19347574,-0.40172106,-0.34292352,0.059930068,-3.0750484,0.6166661,0.00010507196,-0.14141332,0.037110835,0.00011928468,0.03188525,-0.0062781465,0.035526462,0.45212284,-1.396912,1.9222087,-2.0914366,-1.574931,2.422418,-0.16963458,0.20248136,-0.25191233,0.06823024,-0.026976189,-0.20490412,-0.095768064,0.17238252,-9.442732,0.85826975,47.66091,-1.0068846,-2.3090367,-3.2920997,-0.007996531,-0.10329794,-0.36656463,28.5,29.625,28.875,32.9375,35.3125,36.375
0.30005178,-1.3409116,-0.74083453,-0.5174547,7.3475836e-05,0.025424417,-0.19189362,-0.40195513,-0.34284848,0.05991243,-3.074966,0.6164105,1.5203217e-05,-0.14028873,0.037554048,-0.00040369143,0.033032257,-0.010395051,0.04714632,0.45183524,-1.3965155,1.9217428,-2.0912435,-1.5750026,2.4219818,-0.16978687,0.20292085,-0.25220174,0.07220898,-0.026271671,-0.21667713,-0.15322891,0.21068975,-9.385271,0.8851263,47.668976,-1.0696077,-2.2578573,-3.365984,-0.041680906,-0.115572914,-0.23007645,28.5,29.625,28.875,32.9375,35.3125,36.375
0.3020518,-1.2800962,-0.16210598,-0.22161876,-0.0093355775,0.040541437,-0.20166732,-0.4022458,-0.34276378,0.059919573,-3.074923,0.6162644,1.9723659e-05,-0.138862,0.03806565,-0.0010141627,0.034261893,-0.014738541,0.053716965,0.45147508,-1.396119,1.9212283,-2.0910866,-1.5750626,2.4215362,-0.16980858,0.2030207,-0.25189707,0.07619548,-0.025512068,-0.22327313,-0.21068975,0.11492168,-9.3661175,0.8627467,47.68062,-1.1555928,-2.1619158,-3.4965649,-0.0873972,-0.13467452,-0.12835374,28.5,29.625,28.875,32.9375,35.3125,36.375
0.30405203,-0.9950352,-0.10370583,-0.13218391,-0.008529088,0.051889554,-0.19533408,-0.40252924,-0.3426866,0.059902627,-3.0748777,0.6160661,-3.4867327e-05,-0.13870203,0.03872157,-0.0013638472,0.0353369,-0.017987516,0.04935498,0.4511267,-1.3956739,1.9207143,-2.0909412,-1.5751103,2.42107,-0.17097023,0.2042068,-0.25340268,0.07990131,-0.025073737,-0.22007287,-0.36391866,0.076614454,-9.289502,0.8605109,47.6421,-1.1755193,-2.314192,-3.5470245,-0.114422396,-0.1550053,-0.12522423,28.5,29.625,28.875,32.9375,35.3125,36.375
0.3060521,-1.053283,0.07762096,-0.12873846,0.007017478,0.03794795,-0.20186183,-0.40281656,-0.34262407,0.059917916,-3.0748954,0.61591995,-3.1622043e-05,-0.13912833,0.038741503,-7.663059e-05,0.03553236,-0.018111955,0.042401157,0.4507787,-1.3952899,1.9202007,-2.0908082,-1.5751227,2.4206288,-0.17116633,0.20352453,-0.25651965,0.083917394,-0.025181629,-0.21331386,-0.4213795,0.0,-9.251195,0.83813137,47.67166,-1.1864678,-2.0682316,-3.6553607,-0.1806879,-0.13681634,-0.18537068,28.5,29.625,28.875,32.9375,35.3125,36.375
0.308052,-1.218257,0.6612756,-0.06709504,0.01178653,0.02564934,-0.19535178,-0.40308574,-0.34254736,0.059911087,-3.0748172,0.6157159,-6.0503062e-05,-0.14011943,0.038324628,0.0007347513,0.035090603,-0.016478984,0.03510452,0.45046684,-1.3948698,1.9196852,-2.0906289,-1.5752066,2.4201999,-0.17095779,0.20398541,-0.25908864,0.08437316,-0.025500983,-0.20580402,-0.51714754,0.0,-9.251195,0.900793,47.667187,-1.2260668,-1.9161019,-3.5032887,-0.19596282,-0.1574538,-0.30382305,28.5,29.625,28.875,32.9375,35.3125,36.375
0.31005204,-0.91127026,0.5407985,-0.2066657,0.03655477,0.018686583,-0.19049837,-0.40335327,-0.3424735,0.059900977,-3.0747015,0.6156972,-0.00012054765,-0.14039962,0.039037216,0.0013201997,0.036065444,-0.01855286,0.024911394,0.4501541,-1.394437,1.9191588,-2.0904353,-1.5752786,2.4198906,-0.17234541,0.20411503,-0.26174337,0.08920798,-0.025469242,-0.19699575,-0.45968673,-0.05746084,-9.32781,0.91198283,47.6636,-1.1559724,-1.8496182,-3.4479048,-0.2518541,-0.15284331,-0.39876652,28.5,29.625,28.875,32.9375,35.3125,36.375
0.31205207,-1.5658724,0.5478196,-0.34251675,0.041676402,-0.0032631487,-0.19083802,-0.4036682,-0.34238565,0.05991526,-3.0746896,0.61565757,-0.000103681945,-0.14125545,0.038555123,0.001421755,0.03545342,-0.01730913,0.02177911,0.44974646,-1.39404,1.9186324,-2.0903046,-1.575303,2.41946,-0.1720807,0.20545004,-0.2633636,0.08810827,-0.025466116,-0.19359778,-0.38307226,-0.05746084,-9.404425,1.0238806,47.716442,-1.3493962,-1.9736285,-3.421643,-0.30376774,-0.15774664,-0.5033585,28.5,29.625,28.875,32.9375,35.3125,36.375
0.3140523,-1.0988001,0.44388494,-0.10479883,0.00673063,0.029856896,-0.21333624,-0.40394965,-0.34230903,0.059916988,-3.0746193,0.61554384,-0.00014234368,-0.1433592,0.03876989,0.0019770416,0.035361715,-0.015199597,0.026000809,0.44940996,-1.3936195,1.9180936,-2.090113,-1.575363,2.419062,-0.17355745,0.20713525,-0.26657462,0.08765097,-0.02635351,-0.19928843,-0.19153613,-0.05746084,-9.385271,0.85826975,47.698532,-1.3309343,-2.0053482,-3.3207598,-0.29434243,-0.16173956,-0.5074737,28.5,29.625,28.875,32.9375,35.3125,36.375
0.31605244,-1.691016,-0.40072602,-0.2924359,-0.0056170328,0.035583407,-0.2026548,-0.4042458,-0.34223214,0.05993072,-3.0745707,0.61543167,-0.00013663566,-0.1470179,0.03923369,0.002735186,0.034367535,-0.012233905,0.03579949,0.44906074,-1.39321,1.9175428,-2.089934,-1.5754231,2.4186492,-0.17704655,0.21009584,-0.2715919,0.086522244,-0.026825726,-0.21257046,-0.05746084,-0.05746084,-9.404425,0.8918391,47.661808,-1.2391284,-1.961643,-3.2403207,-0.32013428,-0.17173314,-0.42486656,28.5,29.625,28.875,32.9375,35.3125,36.375
0.3180523,-1.8039709,-1.0547774,-0.6916899,-0.00042685278,0.02727333,-0.19114868,-0.40452322,-0.34214124,0.05993271,-3.0744975,0.61531377,-0.0002446565,-0.14915545,0.04003291,0.0014057676,0.034630287,-0.012328343,0.045955215,0.44868812,-1.3927999,1.9170045,-2.0896957,-1.5754594,2.4182127,-0.17994526,0.21447888,-0.27315933,0.08382701,-0.02711408,-0.22561921,-0.11492168,-0.019153614,-9.404425,0.90527004,47.65912,-1.2764318,-2.0379255,-3.2320938,-0.31702107,-0.17884314,-0.26490697,28.5,29.625,28.875,32.9375,35.3125,36.375
0.32005253,-1.8568074,-0.99321216,-0.7483384,-0.013224138,0.014442179,-0.1919258,-0.40483874,-0.34206527,0.059938136,-3.0744734,0.6150569,-0.00018538101,-0.15068707,0.03933896,0.0016255365,0.03343027,-0.008817343,0.049895257,0.44834,-1.3923552,1.9164423,-2.0895655,-1.5755438,2.4177074,-0.17957625,0.21584713,-0.2745059,0.08007767,-0.027591804,-0.22918643,-0.21068975,0.13407528,-9.576807,0.9455522,47.66808,-1.159879,-2.2091737,-3.267282,-0.28600907,-0.17223702,-0.19092032,28.5,29.625,28.875,32.9375,35.3125,36.375
0.32205242,-1.9733965,-1.7055818,-0.7284761,-0.035263263,0.028162077,-0.18472251,-0.4051342,-0.3419651,0.059922267,-3.0743968,0.6149504,-0.000268367,-0.15218394,0.040030494,0.00041506812,0.032839775,-0.007678954,0.042235706,0.4479433,-1.39191,1.9159168,-2.0893872,-1.575591,2.4172544,-0.18191981,0.2182836,-0.27366105,0.07551956,-0.027571928,-0.22386746,-0.47884035,0.24899697,-9.5385,0.9992599,47.71465,-1.0654509,-2.1427011,-3.3373697,-0.23781963,-0.18722853,-0.22445667,28.5,29.625,28.875,32.9375,35.3125,36.375
0.32405248,-1.9656448,-1.6655608,-0.7367614,-0.054284934,0.037653532,-0.19389524,-0.40542263,-0.34190056,0.05993673,-3.074362,0.6147557,-0.00023596606,-0.15274723,0.040418368,-0.00040269722,0.03323131,-0.00624911,0.035315953,0.44763124,-1.3915007,1.915367,-2.0892212,-1.5756634,2.4168255,-0.18232846,0.21933599,-0.27231696,0.07201545,-0.028535562,-0.21735053,-0.4213795,0.21068975,-9.710882,0.9186956,47.652847,-1.0978817,-2.3142135,-3.5653574,-0.20498827,-0.18620944,-0.30465832,28.5,29.625,28.875,32.9375,35.3125,36.375
0.3260518,-1.9862193,-1.7496816,-0.8049947,-0.05967576,0.037715137,-0.19672763,-0.40575615,-0.34181345,0.059929162,-3.0743182,0.61465186,-0.00021719825,-0.15503669,0.041421756,0.00026470015,0.032973494,-0.0023722125,0.029694304,0.44723424,-1.3910205,1.9147948,-2.0891025,-1.575724,2.4163697,-0.18493788,0.21924993,-0.27324846,0.06942275,-0.029989582,-0.21432911,-0.38307226,0.19153613,-9.710882,0.9030289,47.661808,-0.9974753,-2.134399,-3.6479535,-0.16888937,-0.1746744,-0.3731241,28.5,29.625,28.875,32.9375,35.3125,36.375
0.32805192,-2.0355864,-1.9240215,-0.49205887,-0.062252056,0.03756744,-0.19137526,-0.4060645,-0.34169057,0.05993975,-3.0742059,0.6146283,-0.00018149459,-0.15696043,0.040826038,0.00081399817,0.031021433,-0.0005456854,0.03012546,0.446826,-1.3906358,1.9142793,-2.0889227,-1.5758318,2.4159615,-0.18595436,0.221197,-0.2766143,0.06830524,-0.029051319,-0.21577892,-0.3256114,0.19153613,-9.576807,0.9030289,47.66808,-1.0313916,-2.0902922,-3.582606,-0.13007008,-0.17624655,-0.37977952,28.5,29.625,28.875,32.9375,35.3125,36.375
0.33005184,-1.759318,-0.9557122,-0.7395454,-0.036392856,0.015127228,-0.20074254,-0.4063731,-0.34166968,0.05995137,-3.0743117,0.6143784,-0.00013736068,-0.15907094,0.041303735,0.00092146604,0.029442456,0.00044345378,0.034654513,0.4465132,-1.3901908,1.9137172,-2.0888631,-1.5758075,2.4154792,-0.18902516,0.22295254,-0.27873415,0.06704969,-0.02808394,-0.22338466,-0.36391866,0.1340753,-9.481039,0.90750587,47.670765,-0.9805137,-2.0106177,-3.630135,-0.09186256,-0.19068502,-0.35798764,28.5,29.625,28.875,32.9375,35.3125,36.375
0.33205184,-1.8352399,-0.49764234,-0.6731572,-0.0054821474,0.004564085,-0.19490054,-0.40671232,-0.34158602,0.05996695,-3.074296,0.61425066,-7.302377e-05,-0.15984112,0.03962979,0.0021810075,0.027138675,0.002575229,0.04894267,0.44611788,-1.3897461,1.9131302,-2.0887315,-1.575867,2.4150064,-0.18726003,0.22327898,-0.28209174,0.067070864,-0.026984701,-0.23591302,-0.3256114,0.1340753,-9.557653,0.947788,47.704796,-1.0967507,-1.9120605,-3.5591125,-0.052759334,-0.20988739,-0.22256097,28.5,29.625,28.875,32.9375,35.3125,36.375
0.33405212,-0.9631074,0.08481906,-0.5409171,0.0016726789,0.030983986,-0.2067216,-0.40703657,-0.3415034,0.05995784,-3.074259,0.61410517,-2.7488499e-05,-0.16157751,0.040122513,0.0031634846,0.026341055,0.004079594,0.054685116,0.4457452,-1.3892779,1.9125799,-2.0886357,-1.575939,2.414548,-0.1894353,0.22339438,-0.28473696,0.06783132,-0.026955744,-0.24382997,-0.3256114,0.15322891,-9.481039,0.8560339,47.67614,-0.9736201,-1.9187394,-3.3919756,-0.020635005,-0.23447005,-0.121865466,28.5,29.625,28.875,32.9375,35.3125,36.375
0.3360522,-1.7620192,0.17211564,-0.8758242,0.027721034,0.011338086,-0.19199866,-0.40732712,-0.34140822,0.05993527,-3.0742152,0.6138878,-0.00014939567,-0.16247115,0.039874498,0.003701422,0.026522798,0.0047663953,0.05243421,0.44534913,-1.3888206,1.912054,-2.088456,-1.5759634,2.414022,-0.18928824,0.224488,-0.2876232,0.06908105,-0.027439358,-0.24142537,-0.38307226,0.19153613,-9.481039,0.87617236,47.655537,-1.0072769,-1.9781411,-3.4755597,-0.004779394,-0.24023297,-0.06184312,28.5,29.625,28.875,32.9375,35.3125,36.375
0.3380523,-1.5908867,0.50340694,-0.7290329,0.005303935,0.027510704,-0.19584069,-0.40769,-0.341357,0.059979532,-3.0742648,0.6137888,-2.1451017e-06,-0.16325065,0.04035051,0.004596819,0.026216652,0.0051680095,0.041955713,0.4449767,-1.388377,1.9114074,-2.0883477,-1.5759991,2.4135816,-0.19068897,0.2238461,-0.28945264,0.07108787,-0.027278824,-0.2323506,-0.57460845,0.19153613,-9.557653,0.9612189,47.635834,-1.0573901,-1.7958632,-3.435717,-0.00751769,-0.25650358,-0.1497934,28.5,29.625,28.875,32.9375,35.3125,36.375
0.34005228,-1.6513075,-0.42104754,-0.3994252,-0.024339138,0.067319825,-0.20676717,-0.40800202,-0.34124678,0.059973367,-3.0741706,0.6136373,-1.3859863e-05,-0.16164799,0.039683085,0.0035656332,0.028922072,0.00016243519,0.035281926,0.44458202,-1.3879313,1.9108571,-2.088166,-1.576095,2.4131048,-0.18784624,0.2268205,-0.29183197,0.076195635,-0.02754356,-0.22282983,-0.7086837,0.1340753,-9.5385,0.9410752,47.651955,-1.3241968,-1.7226744,-3.3321772,-0.014163037,-0.2612152,-0.2684008,28.5,29.625,28.875,32.9375,35.3125,36.375
0.34205243,-2.0293667,-0.30382428,-0.7544586,-0.01829691,0.049701877,-0.19863571,-0.40835083,-0.34117076,0.059982847,-3.0741234,0.6135177,5.649069e-05,-0.16174813,0.04008495,0.0019235655,0.032471456,-0.0034571753,0.025311891,0.44420996,-1.3874373,1.9102224,-2.0880215,-1.5761803,2.4126644,-0.18744482,0.23166732,-0.2944673,0.07881237,-0.029155837,-0.21244784,-0.2873042,-0.038307227,-9.749189,1.0462601,47.694054,-1.3534713,-1.910551,-3.4178245,-0.038550097,-0.27589536,-0.40083176,28.5,29.625,28.875,32.9375,35.3125,36.375
0.34405264,-1.8245074,0.0077371458,-0.6364714,-0.014196439,0.03828541,-0.20437811,-0.40864545,-0.3411018,0.059986997,-3.0740945,0.6134543,-5.125893e-06,-0.16064562,0.04130291,-0.0005250949,0.03536423,-0.010449772,0.023784287,0.44384953,-1.3870034,1.9096621,-2.0878413,-1.5761918,2.4122684,-0.18873653,0.23549323,-0.29426274,0.082326785,-0.028773582,-0.21221267,-0.3256114,0.15322891,-9.749189,0.91421866,47.64479,-1.368865,-2.0257688,-3.3933167,-0.053322274,-0.2869738,-0.49119312,28.5,29.625,28.875,32.9375,35.3125,36.375
0.3460519,-1.4137957,-0.2925163,-0.3447317,-0.0058327853,0.024776025,-0.20241696,-0.4089844,-0.3410182,0.060003433,-3.0740588,0.61332566,5.023364e-05,-0.1600281,0.042789966,-0.00066443527,0.037238803,-0.01567655,0.03235028,0.44346485,-1.3865469,1.9090518,-2.087682,-1.5762638,2.4118083,-0.19096416,0.23566507,-0.29576504,0.08909495,-0.028266827,-0.22300968,-0.17238253,0.11492168,-9.404425,0.9186956,47.661808,-1.2485316,-2.1416173,-3.444603,-0.11258119,-0.28576156,-0.4295476,28.5,29.625,28.875,32.9375,35.3125,36.375
0.34805202,-0.40532595,0.32565144,-0.501653,0.02289424,-0.011063639,-0.20133752,-0.40933454,-0.3409082,0.059984818,-3.073981,0.6131875,4.5073415e-05,-0.16045032,0.04400136,-0.0016835486,0.03909697,-0.017971046,0.043714833,0.44303247,-1.3860298,1.9084538,-2.087539,-1.5763477,2.4113,-0.19276433,0.23779853,-0.29632795,0.090292014,-0.029042413,-0.23616852,0.11492168,0.0,-9.3661175,0.93436235,47.660015,-1.2057695,-2.0535173,-3.4949052,-0.11876795,-0.31453001,-0.31230482,28.5,29.625,28.875,32.9375,35.3125,36.375
0.35005215,-0.0061599766,0.6491817,-0.19794203,0.029854175,-0.03248791,-0.196842,-0.4096607,-0.34082726,0.060015347,-3.0739753,0.61293375,0.00014468748,-0.16185284,0.04482919,-0.0009834643,0.040657118,-0.017900636,0.050052445,0.44267192,-1.3856211,1.9078678,-2.087382,-1.5764326,2.4107819,-0.19428466,0.23884708,-0.29993498,0.09338564,-0.030522777,-0.24401784,0.0,0.0,-9.385271,0.88289046,47.666286,-1.1962007,-2.0136728,-3.582128,-0.15389442,-0.30993104,-0.18612549,28.5,29.625,28.875,32.9375,35.3125,36.375
0.3520522,-0.16455744,0.26015103,-0.39866623,0.048347622,-0.062594086,-0.18690078,-0.40999746,-0.34075516,0.06002586,-3.0739214,0.6128681,9.3171635e-05,-0.16369031,0.045641113,0.0003900172,0.04091366,-0.016257275,0.04454813,0.44228747,-1.3851166,1.9071983,-2.0871537,-1.5764683,2.4103637,-0.19645788,0.23862469,-0.30343884,0.09573961,-0.031474464,-0.24067846,-0.019153614,-0.095768064,-9.155427,1.0283576,47.711964,-1.1372693,-2.0236378,-3.4217672,-0.19248444,-0.3068201,-0.17358536,28.5,29.625,28.875,32.9375,35.3125,36.375
0.35405242,1.0771462,0.8466539,-0.24936464,0.03392346,-0.03844065,-0.20248461,-0.410343,-0.34067816,0.060044993,-3.0739233,0.61268264,0.00017244968,-0.16544095,0.045798637,0.0010523382,0.04104203,-0.014722069,0.035790127,0.44190308,-1.3846599,1.906587,-2.0870216,-1.5765289,2.4098635,-0.19753537,0.24007916,-0.30692053,0.09645585,-0.03222759,-0.23299283,0.05746084,0.076614454,-9.155427,0.9321212,47.66539,-1.1421125,-2.0960152,-3.352662,-0.2265616,-0.3074456,-0.30365884,28.5,29.625,28.875,32.9375,35.3125,36.375
0.35605177,-0.5138015,-0.5165194,-0.14304996,0.022791695,-0.050092585,-0.18112294,-0.41066474,-0.34057155,0.060038157,-3.073799,0.6126402,7.94139e-05,-0.165384,0.04718216,0.00038876047,0.042183157,-0.017856816,0.029381463,0.44149426,-1.384167,1.9059652,-2.0867693,-1.5766009,2.4094446,-0.19991076,0.24083589,-0.3069953,0.09908932,-0.031937756,-0.22895776,-0.095768064,0.22984336,-9.097966,0.90750587,47.674347,-1.052026,-1.857079,-3.2358723,-0.27695295,-0.32163677,-0.38350588,28.5,29.625,28.875,32.9375,35.3125,36.375
0.35805175,-0.9334068,-1.1553779,-0.4803706,-0.004434046,-0.014465017,-0.18950771,-0.4109956,-0.34047353,0.06004296,-3.0737307,0.6125497,5.1547668e-05,-0.16731408,0.046942577,0.0008083435,0.041268975,-0.015050299,0.027731745,0.44108582,-1.383698,1.9053558,-2.0865667,-1.576661,2.4089887,-0.20065953,0.24246284,-0.309509,0.09702877,-0.03234377,-0.22805123,-0.05746084,0.076614454,-9.136273,0.95002913,47.67345,-0.99307704,-1.920692,-3.3636637,-0.26398116,-0.30944794,-0.42109358,28.5,29.625,28.875,32.9375,35.3125,36.375
0.36005187,-1.061546,-1.1293579,-0.45782873,-0.044301707,0.017882798,-0.19943133,-0.4112877,-0.34036878,0.060016017,-3.0736134,0.61231124,-7.6039934e-05,-0.16834648,0.047726918,0.00061215303,0.041850396,-0.01585446,0.032236222,0.440713,-1.3832049,1.9047822,-2.0863268,-1.5767449,2.4084823,-0.20256126,0.24405289,-0.3112886,0.098125316,-0.032605,-0.23445053,-0.095768064,0.22984336,-9.3661175,0.98135734,47.66091,-0.92006576,-1.8693662,-3.4023347,-0.27531657,-0.31737778,-0.40778184,28.5,29.625,28.875,32.9375,35.3125,36.375
0.36205193,-2.0068157,-1.6965162,-0.079818405,-0.07033145,0.059186447,-0.19234172,-0.41166773,-0.34030664,0.060062546,-3.0736532,0.6122344,3.069625e-05,-0.17134494,0.04731878,0.001484233,0.03925407,-0.010508858,0.043900203,0.4403047,-1.3827358,1.9040879,-2.0861733,-1.5767692,2.4080212,-0.20412263,0.2453347,-0.31382182,0.09333575,-0.032606985,-0.247677,-0.2873042,0.076614454,-9.500193,0.9567419,47.67614,-0.85313654,-1.8678238,-3.3115206,-0.2681601,-0.33406937,-0.2607152,28.5,29.625,28.875,32.9375,35.3125,36.375
0.36405206,-2.5636454,-1.246071,-0.16274434,-0.049249295,0.07354113,-0.1987616,-0.41199476,-0.34018853,0.060036298,-3.0735464,0.61207443,-7.578206e-05,-0.1731811,0.04647293,0.0024764424,0.036649235,-0.005436636,0.051337842,0.4398729,-1.3822196,1.9034904,-2.0859592,-1.5768412,2.4075036,-0.20404361,0.24522676,-0.31508654,0.08893311,-0.032501202,-0.25503168,-0.30645782,0.095768064,-9.404425,0.8717007,47.687782,-0.95851797,-1.7533476,-3.4019256,-0.22527105,-0.35364673,-0.15839283,28.5,29.625,28.875,32.9375,35.3125,36.375
0.36605218,-2.4493217,-0.41643322,-0.21483307,-0.027361125,0.10236852,-0.19516562,-0.41231728,-0.3401226,0.060032956,-3.0735593,0.6117517,-9.6554046e-05,-0.17414342,0.04514932,0.0028736524,0.035404317,-0.001319744,0.051125642,0.43951353,-1.3817267,1.9028815,-2.0858052,-1.576877,2.4069412,-0.2019469,0.24602254,-0.3161454,0.08493758,-0.033144295,-0.25271687,-0.6895301,0.21068975,-9.385271,0.9567419,47.661808,-1.0973232,-1.824817,-3.4695444,-0.18789984,-0.3522448,-0.16708606,28.5,29.625,28.875,32.9375,35.3125,36.375
0.36805218,-2.677977,-0.2074864,0.16961163,-0.014001199,0.11796115,-0.19479196,-0.41269174,-0.34004474,0.060057886,-3.07354,0.6117128,-8.929213e-07,-0.17516568,0.044124626,0.0032677387,0.03479437,0.0027169134,0.04463691,0.43910632,-1.3812346,1.9022115,-2.085663,-1.5769376,2.4065125,-0.20008704,0.24683188,-0.31731516,0.08141356,-0.03427814,-0.24436161,-0.7086837,0.22984336,-9.423578,0.8985519,47.675243,-1.2545748,-1.6067283,-3.5567617,-0.11064783,-0.37389404,-0.22328454,28.5,29.625,28.875,32.9375,35.3125,36.375
0.37005198,-2.8739917,-0.26655608,-0.40833515,0.013273515,0.09344789,-0.19203123,-0.41301996,-0.33994392,0.06004241,-3.0734844,0.6115161,-4.5272947e-05,-0.17727794,0.044626012,0.0025504965,0.03639644,0.0033981616,0.03310086,0.43869793,-1.3807398,1.9016246,-2.0854957,-1.5769986,2.4059887,-0.2014376,0.2511372,-0.32068855,0.08058808,-0.03600281,-0.23416086,-0.57460845,0.2681506,-9.308657,0.9679317,47.677036,-1.4101186,-1.685445,-3.5050964,-0.056525104,-0.36981666,-0.37292874,28.5,29.625,28.875,32.9375,35.3125,36.375
0.3720522,-2.7331843,-0.48109585,-0.65154064,0.027480915,0.05197364,-0.18627429,-0.4134026,-0.33983815,0.060052477,-3.0733972,0.6115008,4.399052e-05,-0.1771351,0.045167696,0.00094853283,0.039468847,0.0007593818,0.026751595,0.43826604,-1.3802224,1.9009551,-2.0853393,-1.5771068,2.4055588,-0.20103152,0.25469556,-0.32158524,0.08162914,-0.037639175,-0.22739463,-0.6703765,0.2681506,-9.423578,1.0395473,47.687782,-1.3201671,-1.8956524,-3.5615149,-0.051620588,-0.3394028,-0.49048442,28.5,29.625,28.875,32.9375,35.3125,36.375
0.37405235,-1.8653296,-0.17520322,-0.09339648,-0.0078060944,0.043269765,-0.19723387,-0.41373315,-0.33975244,0.060039837,-3.073314,0.6113269,4.753775e-05,-0.17800906,0.046071004,0.00018030025,0.042415027,0.0004606142,0.030692752,0.4379054,-1.3797051,1.9003347,-2.085172,-1.5772041,2.4051006,-0.20152867,0.25730166,-0.32310933,0.08201282,-0.040224604,-0.23181398,-0.51714754,0.17238252,-9.3661175,0.88289046,47.661808,-1.2954266,-1.8708005,-3.6166573,-0.028849456,-0.32926947,-0.5004991,28.5,29.625,28.875,32.9375,35.3125,36.375
