Tylouw/Master_Thesis_Code/training_data/batch_1/small_rod_t0.3/sample_96_session_3.csv
timestamp[s],tcp_force_x[N],tcp_force_y[N],tcp_force_z[N],tcp_force_rx[Nm?],tcp_force_ry[Nm?],tcp_force_rz[Nm?],tcp_pose_x[m],tcp_pose_y[m],tcp_pose_z[m],tcp_pose_rx[rot_vec_x],tcp_pose_ry[rot_vec_y],tcp_pose_rz[rot_vec_z],tcp_velo_x[m/s],tcp_velo_y[m/s],tcp_velo_z[m/s],tcp_velo_rx[rot_vec_x/s],tcp_velo_ry[rot_vec_y/s],tcp_velo_rz[rot_vec_z/s],q1[rad],q2[rad],q3[rad],q4[rad],q5[rad],q6[rad],qd1[rad/s],qd2[rad/s],qd3[rad/s],qd4[rad/s],qd5[rad/s],qd6[rad/s],tool_acc_x,tool_acc_y,tool_acc_z,current_of_whole_robot[A],voltage_of_whole_robot[V],current_J1[A],current_J2[A],current_J3[A],current_J4[A],current_J5[A],current_J6[A],temp_J1[C],temp_J2[C],temp_J3[C],temp_J4[C],temp_J5[C],temp_J6[C]
9.920041e-07,-0.8357427,-0.1929771,1.074679,-0.00991217,-0.0031746682,-0.012050771,-0.38106415,-0.3485063,0.05995959,-3.0784657,0.62492406,-0.0001435483,0.0026362976,0.0013692883,-0.0027112665,0.003115135,-0.0062653157,4.9513405e-05,0.47778615,-1.4259336,1.9577397,-2.100845,-1.5708054,2.452776,-7.595207e-05,0.0010376669,0.0047345804,0.0012233553,0.00012756347,-0.00012816397,0.076614454,0.05746084,-8.714894,0.7553206,47.699425,0.030929342,-2.870361,-2.4677358,-0.4340486,0.16785625,0.07572873,28.625,29.75,28.9375,33.0,35.4375,36.5
0.002055647,-0.4740992,0.04057705,1.2150192,-0.0009832777,-0.00048701226,-0.016005373,-0.3810856,-0.34853727,0.05998875,-3.0785685,0.6248303,-7.383771e-05,-1.8489536e-05,-1.3588579e-05,-0.0030082345,-0.00062784436,0.0009176915,5.049237e-05,0.47779807,-1.4259448,1.957692,-2.1008723,-1.5707697,2.4527164,-7.489873e-05,0.003260048,0.005375241,-0.009739394,0.0001246625,-0.00012584236,0.076614454,0.17238252,-8.63828,0.7172743,47.696735,0.017042523,-2.8298426,-2.494306,-0.40573126,0.15277135,0.064420074,28.625,29.75,28.9375,33.0,35.4375,36.5
0.004054568,-0.36592957,0.15310594,1.1003927,-0.0027799746,-0.00020468589,-0.027623853,-0.38106176,-0.34852937,0.059953693,-3.0785203,0.62493604,-0.00015558129,-0.0017584561,-0.00091951614,-0.0021819288,-0.0030920974,0.0056556985,5.011752e-05,0.47779807,-1.4259208,1.9577507,-2.100898,-1.5707573,2.4527884,-7.387417e-05,0.0033834884,0.004358809,-0.014186925,0.00012185225,-0.0001230189,0.11492168,0.1340753,-8.599973,0.7486078,47.703007,0.036857367,-3.1176953,-2.696906,-0.27108857,0.15849255,0.059955105,28.625,29.75,28.9375,33.0,35.4375,36.5
0.006054549,0.022719769,0.5512699,0.9597544,0.009337332,-0.014012357,-0.017670535,-0.38105795,-0.34853834,0.059955522,-3.0785313,0.62487996,-0.00018505336,-0.0010321405,-0.00054040534,-0.001212624,-0.0020196897,0.003610995,4.7774876e-05,0.4778101,-1.4259093,1.9577273,-2.1008713,-1.5707458,2.452764,-7.287717e-05,0.0016847749,0.0028165698,-0.008637115,0.00011916332,-0.00012028132,0.05746084,0.15322891,-8.6574335,0.7016076,47.711063,0.072447784,-3.122457,-2.5960288,-0.31340224,0.15826707,0.06782811,28.625,29.75,28.9375,33.0,35.4375,36.5
0.008054873,0.32184967,1.1597513,0.58730775,0.03952776,-0.037135705,-0.016917944,-0.38103887,-0.34853053,0.059938423,-3.078539,0.62486273,-0.00023783685,-0.0002419401,-0.00012798325,-0.0004494537,-0.0009703855,0.0016100509,4.5398298e-05,0.47779807,-1.425922,1.957786,-2.1008937,-1.5707215,2.4527402,-7.190668e-05,6.525311e-05,0.0018054306,-0.003747076,0.000116590556,-0.000117660675,-0.038307227,0.17238252,-8.868123,0.7486078,47.696735,-0.015368648,-2.8982549,-2.568365,-0.36477607,0.17076805,0.06927611,28.625,29.75,28.9375,33.0,35.4375,36.5
0.010054099,0.32394987,0.6627686,-0.013809285,0.04085349,-0.03487686,-0.016566515,-0.38105556,-0.34853074,0.059954852,-3.0785036,0.6248361,-0.00016513784,-0.00040831565,-0.00021443416,4.475525e-05,-0.000839772,0.0013652879,4.420813e-05,0.47782204,-1.42591,1.9577264,-2.100857,-1.5707816,2.452752,-7.096185e-05,8.7545374e-07,0.0003376159,-0.0019374717,0.00011412625,-0.00011515156,0.038307227,0.15322891,-9.155427,0.800085,47.67614,-0.4554989,-2.3699405,-3.0004914,-0.37924403,0.15135099,0.004836272,28.625,29.75,28.9375,33.0,35.4375,36.5
0.012055109,0.009928818,-0.09990865,-0.2129921,0.0015779022,-0.017571725,-0.020901268,-0.38105235,-0.34852675,0.05992433,-3.078464,0.6248853,-0.00025178833,0.00018865126,0.00010643932,-0.0024924912,0.0018507902,-0.0038219783,5.3545413e-05,0.4778101,-1.4258487,1.9577264,-2.100857,-1.5707697,2.452776,-9.052535e-05,0.005181888,4.5295483e-06,-0.00094185973,0.00011176418,-0.00014326262,0.1340753,0.019153614,-9.32781,0.679228,47.68599,-0.56633306,-2.3154902,-3.1148324,-0.39012748,0.1365602,-0.04587,28.625,29.75,28.9375,33.0,35.4375,36.5
0.01405495,-0.68786484,-0.60908353,-0.23895155,-0.048737254,0.0081156725,-0.02281174,-0.3810517,-0.34849745,0.05989054,-3.078408,0.6249332,-0.0003398791,-0.0047633536,0.0027580052,-0.0045796,0.0037271269,-0.007470706,-0.0035042951,0.47775865,-1.4258091,1.9577583,-2.1008565,-1.5707697,2.4527614,-0.009394284,0.01448403,-0.0060134195,-0.00012413501,0.00010949779,-0.0058848285,0.038307227,0.15322891,-9.481039,0.7597976,47.679718,-0.30597672,-3.0631275,-3.0435328,-0.38678622,0.13528065,-0.055302117,28.625,29.75,28.9375,33.0,35.4375,36.5
0.016054736,-1.1495124,-1.4938296,-0.42928538,-0.06425465,0.036568657,-0.028684845,-0.38101605,-0.3485055,0.059873246,-3.07838,0.62480897,-0.00044088843,-0.006498864,0.0033937695,-0.0029357972,0.0023828344,-0.004884209,0.0025371031,0.47780594,-1.425786,1.9577578,-2.1007965,-1.5707697,2.4527347,-0.012129781,0.012598116,-0.007790595,0.00062248664,0.00010732148,-0.014661281,-0.19153613,0.22984336,-9.557653,0.779936,47.70211,-0.272436,-2.8157692,-3.0232692,-0.40085867,0.14967546,0.014879955,28.625,29.75,28.9375,33.0,35.4375,36.5
0.018054713,-1.8799787,-1.6518115,-0.5845184,-0.06106925,0.05324138,-0.03974037,-0.3810455,-0.348514,0.05989949,-3.0784514,0.62478286,-0.00040604032,-0.0054017184,0.0035461572,-0.0031973864,0.0031552666,-0.006361911,0.0070739095,0.47777024,-1.4257982,1.9577116,-2.100796,-1.5707334,2.4526737,-0.011381952,0.0118386485,-0.0066111106,0.001869911,0.000105230094,-0.018451216,-0.38307226,0.30645782,-9.787497,0.7396539,47.64121,-0.44267362,-2.6114304,-3.270574,-0.3987136,0.136917,0.034684177,28.625,29.75,28.9375,33.0,35.4375,36.5
0.020055516,-2.189121,-0.95318085,-0.5296309,-0.047285724,0.067835025,-0.06236664,-0.38104424,-0.34851763,0.05987506,-3.0784388,0.6247424,-0.00047585074,-0.006065619,0.0035990141,-0.0031962977,0.0031706954,-0.0063941283,0.006577876,0.47777003,-1.4257379,1.9576987,-2.100796,-1.5707215,2.4526498,-0.012090157,0.012887713,-0.007864272,0.0021099118,0.00010321863,-0.018662637,-0.51714754,0.2681506,-9.768343,0.75084364,47.683304,-0.6283077,-2.5245206,-3.4630246,-0.41182888,0.12968908,0.036292918,28.625,29.75,28.9375,33.0,35.4375,36.5
0.022054411,-1.8793218,-0.63504016,-0.59732956,-0.016125463,0.07342348,-0.08871138,-0.38106942,-0.34847206,0.059849933,-3.0783577,0.6247664,-0.00050098344,-0.008102764,0.004101629,-0.0030183166,0.00272466,-0.0055720196,0.0035323636,0.477697,-1.4256893,1.9576982,-2.1007845,-1.5707697,2.4526021,-0.014877628,0.014750839,-0.010316025,0.0017625092,0.000113808666,-0.01840302,-0.49799395,0.24899697,-9.940725,0.6926589,47.68599,-0.5680417,-2.4911551,-3.491086,-0.39606732,0.14048564,0.0054138387,28.625,29.75,28.9375,33.0,35.4375,36.5
0.024054343,-2.2104225,-0.2364826,-0.72975016,-0.0073198136,0.056555685,-0.091030695,-0.38107252,-0.34849545,0.05986267,-3.0783982,0.62469894,-0.0005093539,-0.010186179,0.0042930404,-0.0026696755,0.0021034642,-0.0043908153,0.0011027453,0.4777202,-1.4256766,1.9576491,-2.1007607,-1.5707458,2.452578,-0.01714931,0.016714554,-0.013274469,0.0014231221,0.00011570324,-0.018243212,-0.5554548,0.24899697,-9.902418,0.7597976,47.688675,-0.6161589,-2.560418,-3.4489436,-0.40700227,0.13296984,-0.015311435,28.625,29.75,28.9375,33.0,35.4375,36.5
0.026054518,-1.8103406,-0.11761611,-0.71192026,-0.009675967,0.05501311,-0.10955273,-0.3810854,-0.3484729,0.05983487,-3.0783556,0.6248061,-0.0005802597,-0.011062135,0.0040987334,-0.0026694362,0.0019179239,-0.0040392014,-2.6177051e-05,0.4776601,-1.4256282,1.9576601,-2.1007721,-1.5707334,2.4525902,-0.017614199,0.018246163,-0.014967966,0.0011877846,0.000113872076,-0.017578036,-0.6703765,0.15322891,-9.883265,0.7777002,47.67345,-0.5491553,-2.512843,-3.3242235,-0.4052286,0.13312218,-0.0013832585,28.625,29.75,28.9375,33.0,35.4375,36.5
0.028054528,-2.4779077,-0.7721397,-0.81380475,-0.011008306,0.0493385,-0.11064109,-0.3811021,-0.34848776,0.059830613,-3.078412,0.62474215,-0.00058731687,-0.0118106445,0.0042554517,-0.0022686105,0.001443627,-0.0031212769,-0.0017334777,0.4776478,-1.4255923,1.9576372,-2.1008084,-1.5706977,2.4525309,-0.018583432,0.01814075,-0.01572632,0.0010190422,0.00011186708,-0.016839562,-0.8236054,0.17238252,-9.844957,0.7150385,47.658226,-0.6762467,-2.501494,-3.423139,-0.38007212,0.1377031,-0.025075197,28.625,29.75,28.9375,33.0,35.4375,36.5
0.030054225,-2.0426419,-0.829983,-0.6846097,-0.013398592,0.06938783,-0.1296666,-0.38116127,-0.3484673,0.05985278,-3.0783908,0.62485284,-0.00046449964,-0.012764712,0.0035601633,-0.0017664285,0.00075062364,-0.0017880611,-0.0019298325,0.4775879,-1.42558,1.9575752,-2.1008203,-1.5707458,2.4525428,-0.018227978,0.019279502,-0.018115142,0.000765826,0.00010991652,-0.016286304,-0.8236054,-0.038307227,-9.844957,0.7933669,47.683304,-0.7221827,-2.5192337,-3.3912168,-0.35570264,0.13341022,-0.037826717,28.625,29.75,28.9375,33.0,35.4375,36.5
0.03205472,-2.327297,-0.30788708,-0.5131873,-0.0073108464,0.06633219,-0.14631876,-0.38116488,-0.34845537,0.05982938,-3.0783648,0.624752,-0.0005534058,-0.013911819,0.003747309,-0.0015378003,0.0004543701,-0.0012216527,-0.0033569916,0.47756335,-1.4255197,1.9575518,-2.1007845,-1.5707458,2.4524586,-0.019621555,0.020245438,-0.019745762,0.0007913201,0.00010803177,-0.016251758,-0.7278373,-0.038307227,-9.864111,0.71951014,47.677036,-0.7364492,-2.4137342,-3.3579316,-0.35535914,0.11663979,-0.0640652,28.625,29.75,28.9375,33.0,35.4375,36.5
0.034054533,-1.7013683,0.24557857,-0.55074316,0.016932728,0.06731847,-0.16320834,-0.38121602,-0.34843895,0.059833534,-3.0783637,0.6249641,-0.0005050919,-0.015533641,0.003914837,-0.000347642,-0.00074261747,0.0010876787,-0.0050072027,0.47747874,-1.425496,1.9575261,-2.1008322,-1.5707334,2.4525065,-0.021415748,0.019656826,-0.021806674,0.0008399327,0.000106210435,-0.016394794,-0.63206923,-0.05746084,-9.844957,0.7620334,47.675243,-0.73542404,-2.4365556,-3.3954995,-0.35952917,0.11357561,-0.07332142,28.625,29.75,28.9375,33.0,35.4375,36.5
0.03605504,-1.5306326,0.32342476,-0.3933906,0.038943026,0.049680475,-0.16848004,-0.38126674,-0.34845838,0.059854377,-3.0784,0.62493324,-0.0004479656,-0.01596062,0.0045657638,-0.00089355826,3.8190203e-05,-0.00041452967,-0.006324706,0.47746632,-1.4254355,1.9574069,-2.1008203,-1.5707334,2.4524703,-0.022965025,0.021065533,-0.022355597,0.0016731403,0.00010444958,-0.016626228,-0.61291564,-0.076614454,-9.730036,0.7620334,47.675243,-0.7332671,-2.463493,-3.3721457,-0.37956,0.14930971,-0.08181273,28.625,29.75,28.9375,33.0,35.4375,36.5
0.03805441,-1.4884944,0.8060818,-0.2798611,0.031105964,0.022927146,-0.1756375,-0.3812767,-0.34842968,0.059828088,-3.0783522,0.6249429,-0.0005357074,-0.016742706,0.0044988543,-0.0009054823,-5.7100242e-05,-0.00023766725,-0.0058293445,0.47740605,-1.4253873,1.9574064,-2.1007965,-1.5707334,2.4524221,-0.023568613,0.022375608,-0.023810204,0.001616666,0.00010274612,-0.01772423,-0.36391866,-0.13407528,-9.615114,0.7642693,47.67793,-0.72789514,-2.4360685,-3.3698633,-0.35753334,0.13557835,-0.1069943,28.625,29.75,28.9375,33.0,35.4375,36.5
0.040054206,-1.7742915,0.1020864,-0.522163,0.032927893,0.00037990857,-0.17850338,-0.381332,-0.3484335,0.059846755,-3.078362,0.6250027,-0.0004632456,-0.018113915,0.0045273104,-9.530535e-05,-0.00088102935,0.0013503887,-0.006091507,0.47736967,-1.4253393,1.9573091,-2.1007965,-1.5707458,2.452422,-0.024883594,0.022542173,-0.02587844,0.0017289041,0.0001010972,-0.018775996,-0.38307226,-0.05746084,-9.595961,0.7777002,47.71465,-0.6702491,-2.371205,-3.3761475,-0.34460637,0.12014092,-0.13354522,28.625,29.75,28.9375,33.0,35.4375,36.5
0.042054713,-1.2188836,0.022656543,-0.59123665,0.018476445,0.0074173417,-0.19757181,-0.3813612,-0.3484146,0.059847314,-3.0783694,0.6250042,-0.00044842585,-0.019947313,0.004319922,0.0009378699,-0.0020492163,0.0035977399,-0.006553084,0.47730914,-1.4253272,1.9572967,-2.1008084,-1.5707458,2.4523613,-0.026208013,0.02312275,-0.02887568,0.0016126223,9.950057e-05,-0.019637207,-0.24899697,-0.076614454,-9.576807,0.7284641,47.683304,-0.65524447,-2.346417,-3.2411368,-0.31894445,0.12053294,-0.1399115,28.625,29.75,28.9375,33.0,35.4375,36.5
0.044054225,-1.4455692,-0.015376985,-0.4356202,0.0029704657,-0.0015825448,-0.22017077,-0.3813997,-0.34839395,0.059812244,-3.0783138,0.62505037,-0.0005372788,-0.020782791,0.004734746,0.0009106821,-0.0021011385,0.0036937543,-0.0069677248,0.47723672,-1.425207,1.9572371,-2.1007965,-1.5707458,2.4523249,-0.027714286,0.0238593,-0.029637381,0.0015284971,9.79535e-05,-0.020728333,-0.15322891,0.019153614,-9.595961,0.7620334,47.696735,-0.6379205,-2.3628645,-3.2290535,-0.32593775,0.12148529,-0.15351556,28.625,29.75,28.9375,33.0,35.4375,36.5
0.046054494,-0.9849711,-0.86038154,-0.4350936,0.012072703,0.0058866222,-0.21959034,-0.38146013,-0.34840068,0.059860423,-3.0783718,0.62506247,-0.00039345582,-0.021497205,0.004961333,0.00090378727,-0.002016935,0.0035345664,-0.007060612,0.47720024,-1.4252187,1.9571403,-2.1007965,-1.5707573,2.4522886,-0.028773272,0.024825284,-0.0308102,0.0019150344,9.661003e-05,-0.02169375,-0.1340753,0.076614454,-9.5385,0.75755644,47.674347,-0.6762736,-2.366966,-3.2602878,-0.3127581,0.106116645,-0.17712283,28.625,29.75,28.9375,33.0,35.4375,36.5
0.048054855,-1.3246567,-0.5222268,-0.34675193,-0.0025157155,-0.0090634115,-0.2410566,-0.3814953,-0.34838915,0.059844512,-3.078376,0.62508345,-0.0004061975,-0.02208348,0.005490789,0.00090163667,-0.0014665148,0.0025696526,-0.0077068903,0.47713974,-1.4251585,1.957116,-2.1008313,-1.5707458,2.4522407,-0.030224541,0.025656153,-0.032114618,0.0034988138,5.1494255e-05,-0.022498183,-0.11492168,0.11492168,-9.615114,0.7463667,47.69763,-0.6618664,-2.2805567,-3.2681727,-0.31546944,0.109057695,-0.19303086,28.625,29.75,28.9375,33.0,35.4375,36.5
0.050054196,-0.4176832,-0.24642305,-0.3442651,-0.017980289,0.005508346,-0.24706355,-0.38156217,-0.34838572,0.059870277,-3.0783854,0.62514275,-0.00033731837,-0.02280455,0.006003388,0.0009590246,-0.0011197077,0.0019095744,-0.008059743,0.47707927,-1.4251103,1.9569968,-2.1008074,-1.5707573,2.4522161,-0.0317948,0.026443623,-0.033435628,0.0047775563,4.7366797e-05,-0.023715047,-0.019153614,0.24899697,-9.519346,0.7642693,47.695843,-0.6735714,-2.30299,-3.274248,-0.31201223,0.11361924,-0.19069478,28.625,29.75,28.9375,33.0,35.4375,36.5
0.05205486,-0.4810677,-0.7723564,-0.29761076,-0.016786061,0.0039232643,-0.24642248,-0.38157973,-0.34836096,0.05986249,-3.0783489,0.6251345,-0.00041011025,-0.023944363,0.005976715,0.0014627933,-0.0016172117,0.0028628013,-0.007570359,0.47701898,-1.4250742,1.9569596,-2.1007469,-1.5707573,2.4521554,-0.03279853,0.02711885,-0.035408653,0.0049998914,4.597557e-05,-0.025207104,0.0,0.2681506,-9.442732,0.6635613,47.629562,-0.6392534,-2.2495718,-3.3473053,-0.32662228,0.11651789,-0.23403218,28.625,29.75,28.9375,33.0,35.4375,36.5
0.0540543,-0.4883444,-1.0479392,-0.45354322,-0.018252756,-0.0002754684,-0.20748957,-0.38164017,-0.34834266,0.05986525,-3.0783381,0.62517023,-0.0003565215,-0.025429623,0.0062050414,0.0021108158,-0.0023018953,0.004181169,-0.0072215027,0.47694638,-1.4250141,1.9568876,-2.1007593,-1.5707816,2.4521065,-0.03457114,0.02755973,-0.03741102,0.0050748405,4.481888e-05,-0.02732751,-0.038307227,0.30645782,-9.595961,0.7463667,47.704796,-0.6115735,-2.128752,-3.2768877,-0.32492694,0.1066654,-0.22065246,28.625,29.75,28.9375,33.0,35.4375,36.5
0.056054343,-0.7885961,-1.361322,-0.55462354,-0.01984824,-0.0051897853,-0.20749824,-0.3816992,-0.34833926,0.059871152,-3.078349,0.6251919,-0.00032783573,-0.02616684,0.0066624647,0.0018167157,-0.0019753694,0.0035489146,-0.0066421856,0.47688577,-1.4249419,1.9567918,-2.1007593,-1.5707816,2.452058,-0.036059827,0.028890742,-0.038325872,0.0053699175,4.3729302e-05,-0.0293949,-0.019153614,0.34476504,-9.557653,0.7978386,47.677036,-0.57648635,-2.1069825,-3.3076987,-0.30650198,0.117434144,-0.23384783,28.625,29.75,28.9375,33.0,35.4375,36.5
0.058054876,-0.8636588,-1.5108027,-0.30918807,-0.018857485,0.004741203,-0.20489879,-0.38173622,-0.3483243,0.05986966,-3.07835,0.62524855,-0.00039377497,-0.02630135,0.006737438,0.0010955356,-0.0009769184,0.0016152952,-0.004956951,0.4768017,-1.4248931,1.9567312,-2.1007226,-1.5707458,2.4520092,-0.036313884,0.031199917,-0.03956472,0.0064765653,4.2692063e-05,-0.031333424,0.095768064,0.30645782,-9.519346,0.7239871,47.709274,-0.6575199,-2.215013,-3.2790534,-0.3110388,0.1325926,-0.2368485,28.625,29.75,28.9375,33.0,35.4375,36.5
0.06005455,-0.70931065,-1.1165951,-0.25022814,-0.017002156,0.013829196,-0.20600535,-0.38180202,-0.34833807,0.05990352,-3.0784285,0.62520635,-0.00026092897,-0.027549202,0.0065773027,0.0016780597,-0.0016137512,0.0028469039,-0.0044916575,0.47676542,-1.424869,1.9566344,-2.1007588,-1.5707458,2.4519367,-0.037175782,0.031979192,-0.04180106,0.0065469397,4.1702817e-05,-0.032659374,-0.019153614,0.34476504,-9.557653,0.7665104,47.666286,-0.70296836,-2.213123,-3.2139163,-0.3249501,0.105948076,-0.23583207,28.625,29.75,28.9375,33.0,35.4375,36.5
0.062054817,-0.89959794,-0.9585182,-0.19582899,-0.014987721,0.01718051,-0.21136399,-0.38187113,-0.34831575,0.05991708,-3.078412,0.625279,-0.00023586156,-0.02832675,0.0066162115,0.0025734652,-0.0023329528,0.0042387038,-0.003603997,0.4766693,-1.4248093,1.9565271,-2.1007226,-1.5707573,2.451888,-0.037954662,0.031162554,-0.043024875,0.0070201387,4.075857e-05,-0.034325525,-0.076614454,0.2873042,-9.442732,0.7486078,47.682407,-0.75148255,-2.1479654,-3.2844281,-0.31461188,0.11086775,-0.23786625,28.625,29.75,28.9375,33.0,35.4375,36.5
0.064054504,-1.3258137,-0.6070523,-0.039790243,-0.015110114,0.0068715247,-0.20726994,-0.38192582,-0.34827915,0.059898578,-3.0783463,0.6252649,-0.00024661174,-0.028694259,0.0066032596,0.0024290427,-0.0020925251,0.0037679826,-0.0018439584,0.47658503,-1.4247131,1.9564542,-2.1006982,-1.5708054,2.4518034,-0.038265843,0.03229436,-0.044094913,0.007484876,3.985605e-05,-0.036396127,-0.095768064,0.30645782,-9.32781,0.7978386,47.691364,-0.7604238,-2.0740545,-3.2692895,-0.3087392,0.10034606,-0.27266827,28.625,29.75,28.9375,33.0,35.4375,36.5
0.06605412,-0.6664816,-0.68753153,-0.1357969,-0.0044347355,0.026371002,-0.21229509,-0.38198575,-0.3482873,0.05992025,-3.0784159,0.625259,-0.0002371554,-0.029887317,0.0064567025,0.002522374,-0.0022323693,0.0040335436,-0.00089664955,0.4765129,-1.4246645,1.9563464,-2.1006858,-1.5707573,2.4517188,-0.03910037,0.034224685,-0.046566624,0.0077276314,3.8992595e-05,-0.038176462,-0.11492168,0.30645782,-9.308657,0.7553206,47.67614,-0.8268024,-2.1512554,-3.27202,-0.30549788,0.1083528,-0.2634619,28.625,29.75,28.9375,33.0,35.4375,36.5
0.06805474,-1.1059909,-0.7325553,-0.18424329,0.0071457927,0.010438267,-0.19803548,-0.38207206,-0.34826913,0.059922617,-3.0784059,0.62533337,-0.00016723365,-0.03140066,0.006154331,0.0032719218,-0.0029229445,0.005364552,-0.00056325144,0.4764167,-1.4245683,1.9562367,-2.1007102,-1.5707816,2.4516704,-0.0399508,0.0353875,-0.049720585,0.008218168,3.816583e-05,-0.03935862,-0.15322891,0.21068975,-9.385271,0.800085,47.684196,-0.89895487,-2.0947895,-3.1074846,-0.31575674,0.10706986,-0.2691561,28.625,29.75,28.9375,33.0,35.4375,36.5
0.07005438,-0.5798988,-0.084950425,0.00532484,-0.0011852611,0.029273149,-0.20904396,-0.3820996,-0.3482674,0.059919376,-3.0784214,0.62522036,-0.00021152075,-0.030222828,0.0067905174,0.0009245156,-0.0006337326,0.0009369275,0.00042063504,0.47638047,-1.4245075,1.9561666,-2.1006744,-1.5707697,2.4515617,-0.039992645,0.03836806,-0.04777235,0.008274097,3.73733e-05,-0.040384874,-0.17238252,0.095768064,-9.346964,0.7553206,47.67166,-0.9226926,-2.1394508,-3.1887376,-0.29721338,0.10707544,-0.30922124,28.625,29.75,28.9375,33.0,35.4375,36.5
0.07205488,-1.2503071,0.05594777,0.0351733,0.0011250013,0.015719,-0.20610127,-0.3821773,-0.34825566,0.05993954,-3.0784507,0.6252841,-0.00019098406,-0.03120063,0.0065589766,0.0009925707,-0.0008727341,0.0013950572,0.0003273044,0.4762724,-1.424447,1.956046,-2.1006505,-1.5707458,2.4514897,-0.040474568,0.039976653,-0.049726505,0.008103867,3.6613124e-05,-0.040772196,-0.19153613,0.11492168,-9.32781,0.7217513,47.66987,-1.016944,-2.2277718,-3.2735715,-0.30305457,0.10232205,-0.31268966,28.625,29.75,28.9375,33.0,35.4375,36.5
0.07405438,-1.2890282,-0.5168958,0.16991337,0.018570231,0.019598763,-0.19803844,-0.3821999,-0.34824476,0.0599084,-3.0784125,0.62525636,-0.0003060914,-0.03225421,0.0065791705,0.0016875181,-0.0013869931,0.002378218,0.0021687958,0.47622404,-1.4243392,1.9559859,-2.1006143,-1.5707334,2.451429,-0.04147855,0.040170163,-0.051690113,0.00876459,3.588324e-05,-0.043616794,-0.19153613,0.15322891,-9.32781,0.779936,47.66808,-1.0492414,-2.2049072,-3.1827629,-0.31023836,0.09160174,-0.30384374,28.625,29.75,28.9375,33.0,35.4375,36.5
0.07605467,-0.60841,0.024262547,0.16205823,0.019472813,0.03809044,-0.2132266,-0.38228485,-0.34823486,0.059929237,-3.0784466,0.62524194,-0.0002469054,-0.03381328,0.00582505,0.0029459232,-0.0026959502,0.004906361,0.003825066,0.4761281,-1.424267,1.9558533,-2.1006024,-1.5707334,2.4513197,-0.04156635,0.04066139,-0.05515789,0.008894028,3.5181834e-05,-0.045359075,-0.21068975,0.11492168,-9.251195,0.784413,47.68062,-1.0735,-2.1090713,-3.0006022,-0.29393393,0.09819156,-0.3253557,28.625,29.75,28.9375,33.0,35.4375,36.5
0.07805499,-0.85595244,0.29738483,0.09909028,0.010676004,0.02853201,-0.21054387,-0.38236624,-0.34820738,0.059929993,-3.078431,0.6252984,-0.0001960314,-0.033215083,0.0068002874,0.0010777981,-0.00079700694,0.0012372374,0.0017904127,0.4760197,-1.4241823,1.9557575,-2.1006138,-1.5707573,2.4512486,-0.04273876,0.042986654,-0.053603437,0.009144791,3.4507375e-05,-0.0444973,-0.11492168,0.05746084,-9.289503,0.7217513,47.692257,-1.1320258,-2.2493823,-3.1477425,-0.2955124,0.09218799,-0.3520475,28.625,29.75,28.9375,33.0,35.4375,36.5
0.08005438,-1.1451851,-0.3323629,-0.07579801,0.013388483,0.018786365,-0.19948053,-0.38243812,-0.34822178,0.05996469,-3.078488,0.6252515,-0.00013387768,-0.034178175,0.006381436,0.0013302633,-0.00089628284,0.0014271283,0.0034515022,0.47597155,-1.4241219,1.9556011,-2.100578,-1.5707458,2.451164,-0.0428751,0.04479261,-0.05642606,0.009947454,3.3858272e-05,-0.046293184,-0.21068975,0.038307227,-9.232041,0.81351066,47.71017,-1.1791395,-2.2511227,-3.2072732,-0.31246087,0.08700709,-0.35281512,28.625,29.75,28.9375,33.0,35.4375,36.5
0.082054555,-1.0525515,-0.3667831,-0.28028125,0.011824873,0.021002777,-0.20267661,-0.3825068,-0.34818548,0.059940714,-3.0784624,0.6251868,-0.00018039405,-0.035633888,0.006539008,0.0019569686,-0.0014999429,0.0025850513,0.0042953724,0.4758512,-1.4240019,1.9555162,-2.1005661,-1.5707573,2.4510067,-0.044486735,0.045429602,-0.05865547,0.010233174,3.3233136e-05,-0.04874754,-0.19153613,0.076614454,-9.212888,0.75755644,47.682407,-1.3104053,-2.205369,-3.0607336,-0.30857962,0.08380323,-0.36753935,28.625,29.75,28.9375,33.0,35.4375,36.5
0.084054045,-1.5671269,-0.8064079,-0.20272827,0.02233809,0.010725855,-0.19217207,-0.3825693,-0.348168,0.05996269,-3.0784578,0.6251464,-0.00014395872,-0.036541637,0.007269036,0.0017515863,-0.0011869033,0.0019760863,0.0067957854,0.47577825,-1.4239535,1.955397,-2.1005056,-1.5707816,2.4509091,-0.046611924,0.046505004,-0.059523664,0.01070869,3.263063e-05,-0.053372633,-0.1340753,0.17238252,-9.251195,0.79560274,47.695843,-1.2206844,-2.2472174,-3.1922672,-0.29268584,0.09847449,-0.35828647,28.625,29.75,28.9375,33.0,35.4375,36.5
0.086054236,-1.3470106,-0.11714216,-0.11208289,-0.0052488274,0.024104573,-0.20211492,-0.3826344,-0.34816068,0.059954748,-3.078474,0.6251696,-0.00019422539,-0.036963835,0.0071240175,0.0015320085,-0.00079361664,0.0012090564,0.006918325,0.47568214,-1.4238452,1.9552888,-2.1004937,-1.5707458,2.4508255,-0.04673449,0.048222248,-0.061166998,0.011498658,3.2049695e-05,-0.053616807,-0.22984336,0.095768064,-9.346964,0.7418897,47.68062,-1.2725173,-2.155671,-3.0732353,-0.30761892,0.07249792,-0.3338791,28.625,29.75,28.9375,33.0,35.4375,36.5
0.0880547,-1.5341182,-0.9041403,-0.10916421,0.008913719,0.025827486,-0.19085436,-0.38273063,-0.34814084,0.05995639,-3.0784683,0.62528235,-0.00019308894,-0.037602436,0.0071769645,0.0017840363,-0.0009185691,0.0014501174,0.007971361,0.47555017,-1.4237252,1.9551452,-2.1004813,-1.5707334,2.4507647,-0.047402933,0.048737537,-0.062449396,0.011994724,3.1489006e-05,-0.05533767,-0.36391866,0.15322891,-9.346964,0.7486078,47.684196,-1.4156349,-2.1952238,-3.137045,-0.3163191,0.081903264,-0.35670722,28.625,29.75,28.9375,33.0,35.4375,36.5
0.09005399,-1.3513635,-0.49443164,-0.0016350299,-0.008525409,0.034846522,-0.1919748,-0.38279065,-0.34813088,0.059962284,-3.0784917,0.62513226,-0.00020727352,-0.03903831,0.007883786,0.0017374508,-0.00096593844,0.0015622946,0.009535387,0.4754772,-1.4236408,1.9550246,-2.1004336,-1.5707334,2.4505951,-0.0499628,0.050062228,-0.06384839,0.011947147,1.7498613e-05,-0.05946063,-0.2681506,0.22984336,-9.308656,0.80456203,47.68062,-1.3421484,-2.1332865,-3.0836701,-0.31551892,0.087216474,-0.34239465,28.625,29.75,28.9375,33.0,35.4375,36.5
0.0920543,-1.2480751,-0.55066526,-0.14870399,-0.0129937045,0.036458958,-0.20269172,-0.38289744,-0.34810665,0.059985448,-3.0785122,0.6252133,-0.00010625969,-0.04099018,0.008906598,0.0018069549,-0.0011870988,0.0019964234,0.009460519,0.47534397,-1.4235686,1.954892,-2.100446,-1.5707458,2.45051,-0.053558584,0.051412445,-0.065512106,0.0117722405,1.5344463e-05,-0.062980466,-0.21068975,0.15322891,-9.346964,0.75755644,47.66091,-1.2618796,-2.1446893,-3.0672865,-0.32519433,0.07755349,-0.29576254,28.625,29.75,28.9375,33.0,35.4375,36.5
0.094054714,-1.2251796,-0.91492826,-0.36902577,-0.011762712,0.033935037,-0.20089522,-0.38297236,-0.34807387,0.05998316,-3.078477,0.6250885,-0.000103401,-0.04208117,0.008785731,0.001924459,-0.001517396,0.0026224852,0.012373152,0.4752477,-1.4234602,1.95476,-2.1003864,-1.5707935,2.4503405,-0.054337427,0.052867603,-0.06737942,0.011472908,1.4968039e-05,-0.06667073,-0.24899697,0.13407528,-9.461885,0.7709874,47.66987,-1.2096512,-2.1794977,-3.0724087,-0.30536133,0.06748578,-0.2594452,28.625,29.75,28.9375,33.0,35.4375,36.5
0.09605405,-1.1330684,-0.6844734,-0.4676353,-0.01394623,0.040668253,-0.19920939,-0.38304046,-0.3480592,0.05996524,-3.078514,0.625017,-0.00018002742,-0.04230869,0.008306979,0.0021790694,-0.0018167255,0.003195225,0.016495936,0.47512805,-1.4233404,1.9546641,-2.1003864,-1.5707458,2.4501715,-0.053684566,0.0532818,-0.068441406,0.011477187,1.4715366e-05,-0.07014007,-0.3256114,0.15322891,-9.481039,0.7642693,47.683304,-1.3284831,-2.1263876,-3.0352826,-0.30052996,0.072373495,-0.23599371,28.625,29.75,28.9375,33.0,35.4375,36.5
0.0980546,-1.113337,-0.13413572,-0.31736124,-0.023126306,0.052677974,-0.20389543,-0.38312727,-0.34805423,0.059980404,-3.0785286,0.62492275,-0.00012955583,-0.043924376,0.0095746415,0.00054431404,-0.00050120853,0.0006323548,0.016084656,0.4750548,-1.4232306,1.9544958,-2.1003501,-1.5707697,2.4500377,-0.057410732,0.0578415,-0.069860294,0.011214966,1.4478135e-05,-0.073453486,-0.2681506,0.21068975,-9.404425,0.7530795,47.70211,-1.3000612,-2.3155627,-3.0126977,-0.3107186,0.055560887,-0.17766374,28.625,29.75,28.9375,33.0,35.4375,36.5
0.10005419,-1.5806057,-0.81115246,-0.465682,-0.008309584,0.043934297,-0.19100833,-0.38321027,-0.34802702,0.059984647,-3.078553,0.6248899,-0.00012742908,-0.045632094,0.009739565,0.0024768736,-0.002560993,0.0046300916,0.0167032,0.47492218,-1.4231477,1.9543885,-2.1003377,-1.5707573,2.4498816,-0.0592561,0.055363584,-0.07132256,0.010658538,1.4248892e-05,-0.07591696,-0.26815057,0.19153613,-9.481039,0.8112748,47.703903,-1.2119862,-2.1633778,-3.0527837,-0.32499957,0.046360634,-0.14083104,28.625,29.75,28.9375,33.0,35.4375,36.5
0.10205488,-1.3697529,-0.81133795,-0.23802446,-0.009018998,0.043539595,-0.20492083,-0.38332438,-0.34801617,0.05999516,-3.078572,0.6248155,-5.999697e-05,-0.04632066,0.0100917285,0.0019765666,-0.0020529865,0.0036734615,0.01768204,0.47481373,-1.4230027,1.9541963,-2.1003263,-1.5707816,2.4497244,-0.06048867,0.057266217,-0.072424136,0.010938393,9.3035084e-07,-0.07812757,-0.30645782,0.19153613,-9.404425,0.7418897,47.688675,-1.2541821,-2.1279685,-3.0827484,-0.31000525,0.06303609,-0.12486089,28.625,29.75,28.9375,33.0,35.4375,36.5
0.10405444,-1.3516904,-0.58846617,-0.329306,-0.009902723,0.04486268,-0.19646089,-0.38339546,-0.34802496,0.059989724,-3.0786347,0.62475234,-0.0001454477,-0.047584966,0.010133435,0.0020229607,-0.0024631622,0.0044610174,0.016327031,0.47471735,-1.42287,1.9540519,-2.100303,-1.5707096,2.4495807,-0.061710045,0.05875307,-0.074071966,0.0102170855,6.074526e-08,-0.07799275,-0.40222588,0.22984336,-9.481039,0.77545905,47.688675,-1.2487496,-2.1614132,-3.0950809,-0.30411094,0.06633073,-0.08531221,28.625,29.75,28.9375,33.0,35.4375,36.5
0.10605449,-1.1572443,-0.18113945,-0.3648612,-0.008968647,0.052579943,-0.20027143,-0.38350627,-0.3479766,0.06000381,-3.0785968,0.6247831,-8.7379005e-05,-0.048121143,0.01101059,8.315796e-05,-0.00069962646,0.001029136,0.015020738,0.47456062,-1.4227725,1.9538974,-2.1002553,-1.5707573,2.449448,-0.06374325,0.06306768,-0.07458887,0.010274071,3.9662313e-09,-0.078718744,-0.36391866,0.17238252,-9.461885,0.75755644,47.690468,-1.2193358,-2.3058333,-3.1387477,-0.3017817,0.048491642,-0.061112083,28.625,29.75,28.9375,33.0,35.4375,36.5
0.10805418,-1.0704305,-0.53574944,-0.40086386,0.004896158,0.044922672,-0.19442807,-0.38358834,-0.34795544,0.05997898,-3.0785952,0.624728,-0.00014136745,-0.049521036,0.010855617,0.0020645405,-0.0027514226,0.0050113713,0.01029396,0.47444025,-1.4226173,1.9537767,-2.1002553,-1.5707458,2.4492936,-0.064735405,0.060508143,-0.07610905,0.009875508,2.589666e-10,-0.074983716,-0.30645782,0.15322891,-9.481039,0.7777002,47.686886,-1.2982814,-2.177959,-3.1560702,-0.30914775,0.0426825,-0.0989313,28.625,29.75,28.9375,33.0,35.4375,36.5
0.110054895,-0.97008216,-0.6745217,-0.36470208,0.013543981,0.036446936,-0.19762279,-0.38368163,-0.3479402,0.059995007,-3.078622,0.62471545,-0.00012628053,-0.0505352,0.01138008,0.0010046026,-0.0020726419,0.0036867452,0.007820922,0.47431958,-1.4225202,1.9536208,-2.100219,-1.5707334,2.4491618,-0.066581085,0.06364974,-0.0771426,0.009256924,1.6908669e-11,-0.07435524,-0.3256114,0.05746084,-9.442732,0.76874626,47.687782,-1.196889,-2.193932,-3.0601225,-0.28184637,0.06368632,-0.09847267,28.625,29.75,28.9375,33.0,35.4375,36.5
0.11205444,-1.5009124,-0.52593935,-0.36562002,0.016354604,0.024095433,-0.19050029,-0.38380015,-0.34791157,0.059987072,-3.0786219,0.624697,-7.542093e-05,-0.050605558,0.012044644,0.000104051614,-0.0011851501,0.0019655032,0.00554506,0.47417542,-1.4223635,1.9534653,-2.1002429,-1.5707573,2.4490063,-0.06780478,0.0650532,-0.07672518,0.009371039,1.1040152e-12,-0.0733031,-0.30645782,-0.038307227,-9.461885,0.7486078,47.696735,-1.2570099,-2.2866251,-3.2269206,-0.2867697,0.028660372,-0.086098164,28.625,29.75,28.9375,33.0,35.4375,36.5
0.114054166,-1.0264212,-0.0958776,-0.24048367,0.010964668,0.035768546,-0.19737083,-0.38389805,-0.34788272,0.05999374,-3.078622,0.6247181,-0.00012709374,-0.052574795,0.011677302,0.0011038447,-0.0021205926,0.0037717302,0.0003985036,0.47401896,-1.422243,1.9532961,-2.1001713,-1.5707334,2.448863,-0.06893865,0.06646091,-0.080761075,0.0099674435,7.208431e-14,-0.06928831,-0.28730422,-0.019153614,-9.461885,0.78888994,47.66808,-1.2768694,-2.3046048,-3.1943998,-0.2708462,0.04456076,-0.17213383,28.625,29.75,28.9375,33.0,35.4375,36.5
0.11605434,-1.1933281,0.04326197,-0.14494503,0.016423877,0.028066989,-0.20000184,-0.38401783,-0.34786287,0.060002513,-3.078648,0.6246298,-2.1351958e-05,-0.053296443,0.013753039,-0.0002525367,-0.00073344144,0.0010842622,-0.0050680903,0.47389743,-1.4221102,1.9531296,-2.1001952,-1.5707697,2.4486833,-0.0732627,0.06803081,-0.07951206,0.010170586,4.7065902e-15,-0.0681462,-0.36391866,-0.05746084,-9.442732,0.71951014,47.651955,-1.1235595,-2.3208637,-3.129919,-0.26772937,0.054250322,-0.17621377,28.625,29.75,28.9375,33.0,35.4375,36.5
0.11805501,-0.9582363,-0.13264559,-0.23149222,0.018747535,0.03929758,-0.20139077,-0.38410878,-0.34784922,0.059998848,-3.078661,0.6246319,-8.790401e-05,-0.05328021,0.012401133,0.0005249312,-0.0015071119,0.0025819452,-0.0033563157,0.47376636,-1.4219661,1.9529623,-2.100147,-1.5707334,2.448552,-0.07083003,0.06809029,-0.08139775,0.010313689,3.073067e-16,-0.06742441,-0.40222588,0.0,-9.346964,0.74413085,47.68062,-1.2594681,-2.2020192,-3.329578,-0.2709634,0.031181887,-0.20287223,28.625,29.75,28.9375,33.0,35.4375,36.5
0.120054536,-1.5981411,0.24138114,0.03509997,0.0038295283,0.028814696,-0.20631742,-0.38423347,-0.34782702,0.060007423,-3.0786893,0.6247354,-5.3604752e-05,-0.054729387,0.013354585,0.00061413256,-0.0014796878,0.0025325713,-0.0061130556,0.47359726,-1.4218336,1.952794,-2.1001585,-1.5707096,2.448444,-0.073823325,0.06900847,-0.08277814,0.010833983,2.0064933e-17,-0.06766025,-0.40222588,-0.038307227,-9.385271,0.83813137,47.703903,-1.254545,-2.2505732,-3.2116845,-0.26616,0.034655795,-0.26175013,28.625,29.75,28.9375,33.0,35.4375,36.5
0.12205466,-1.3777109,0.43974563,-0.10975032,0.004559816,0.03161279,-0.20665368,-0.38433456,-0.34777713,0.059991326,-3.078628,0.6247056,-9.268936e-05,-0.05626206,0.01489132,0.00029111144,-0.0011899116,0.0019571378,-0.010368142,0.47343963,-1.4216771,1.952638,-2.1000984,-1.5707458,2.4482756,-0.0779323,0.07005053,-0.08326152,0.01091717,1.3100968e-18,-0.06751377,-0.3256114,0.038307227,-9.404425,0.7418897,47.70659,-1.0357522,-2.1715655,-3.2476845,-0.24054763,0.03032909,-0.27516985,28.625,29.75,28.9375,33.0,35.4375,36.5
0.12405416,-0.9334025,0.0021888765,-0.15597352,0.007884586,0.043020286,-0.205836,-0.3844625,-0.34776497,0.06001021,-3.0786638,0.624711,6.144653e-06,-0.055944793,0.014479636,8.974087e-05,-0.00080198,0.001210928,-0.008711441,0.47330838,-1.4215448,1.9524463,-2.1001108,-1.5707573,2.4481432,-0.07688713,0.0709061,-0.083939366,0.01157964,8.553996e-20,-0.06812498,-0.3256114,0.0,-9.3661175,0.83365434,47.704796,-1.20962,-2.1479294,-3.3543773,-0.23992038,0.02214523,-0.30499277,28.625,29.75,28.9375,33.0,35.4375,36.5
0.1260541,-1.1736084,-0.024083996,0.054604642,0.0011213243,0.035609286,-0.198622,-0.3845766,-0.34772575,0.060018227,-3.078649,0.62482464,-7.3416836e-06,-0.057341535,0.016073123,0.0001364955,-0.00035794268,0.0011061697,-0.01173473,0.473127,-1.4214245,1.9522794,-2.1000626,-1.5707458,2.4480348,-0.08074125,0.071029216,-0.08432144,0.012136163,-0.00034701507,-0.068955176,-0.34476504,0.095768064,-9.289502,0.7709874,47.675243,-1.1301123,-2.0970578,-3.4316716,-0.27050665,0.027487887,-0.34003788,28.625,29.75,28.9375,33.0,35.4375,36.5
0.12805445,-1.1101748,0.09208758,-0.23877442,0.00393249,0.031680632,-0.19997972,-0.3847027,-0.34768698,0.06002256,-3.078627,0.6248794,3.0822244e-05,-0.058906373,0.016375411,0.00033128704,-0.00029160286,0.0013864753,-0.013500087,0.47295833,-1.4212799,1.9520987,-2.1000388,-1.5707697,2.4479032,-0.08255894,0.07287422,-0.08703382,0.012783256,-0.0005370763,-0.06900572,-0.3256114,0.05746084,-9.385271,0.79560274,47.67345,-1.0487981,-2.1242042,-3.2604322,-0.257532,0.017567571,-0.36702824,28.625,29.75,28.9375,33.0,35.4375,36.5
0.13005438,-1.4560568,-0.21053208,-0.20405342,0.004776615,0.027498351,-0.19762053,-0.38481712,-0.34766218,0.060018957,-3.0786498,0.62488407,4.4089917e-05,-0.058461152,0.017299335,-0.0005098437,0.000707654,-0.0006497554,-0.0145613095,0.47280177,-1.4211354,1.9519442,-2.1000497,-1.5707573,2.4477468,-0.08379428,0.073132634,-0.085534945,0.013294497,-0.0004933952,-0.06918074,-0.3256114,0.05746084,-9.385271,0.81351066,47.704796,-0.98689675,-2.0311122,-3.471695,-0.24554035,0.014719648,-0.3935447,28.625,29.75,28.9375,33.0,35.4375,36.5
0.13205478,-1.4674282,-0.51416236,0.068827905,0.0030940766,0.03842778,-0.19982949,-0.38494036,-0.3476172,0.06002447,-3.0786216,0.62495536,1.7367314e-05,-0.06119029,0.016714992,0.0013318829,-0.0014065327,0.003533726,-0.015192373,0.4726094,-1.4209914,1.9517506,-2.0999787,-1.5707573,2.4476025,-0.085198574,0.07354033,-0.090095684,0.012760189,-0.00052813336,-0.069951504,-0.4213795,0.019153614,-9.404425,0.8291774,47.689575,-1.0183392,-2.0103583,-3.408979,-0.22482581,0.017559068,-0.45050147,28.625,29.75,28.9375,33.0,35.4375,36.5
0.13405436,-1.9009023,-0.56676394,-0.2711845,0.008568768,0.039720383,-0.19402471,-0.38505232,-0.34756848,0.060010016,-3.078574,0.62502223,-1.8217628e-05,-0.061564047,0.017617581,-0.0002708484,0.00021769453,0.00025898064,-0.015395752,0.4724287,-1.420834,1.9515952,-2.099942,-1.5707697,2.4474697,-0.08714419,0.07699173,-0.090544745,0.013411662,-0.00048601377,-0.07169317,-0.4213795,0.076614454,-9.404425,0.8247004,47.689575,-0.9556298,-2.0356655,-3.3943486,-0.24459893,0.0048706783,-0.4591997,28.625,29.75,28.9375,33.0,35.4375,36.5
0.13605443,-1.0985159,-0.16176589,-0.30295226,0.0026096276,0.058258843,-0.20677252,-0.3851901,-0.34757102,0.060037807,-3.078661,0.6250008,4.9121147e-05,-0.06355816,0.017790867,0.0015987376,-0.0016536777,0.0039558676,-0.014233979,0.47228402,-1.4206903,1.9513673,-2.099942,-1.5707334,2.4473007,-0.08922722,0.07529297,-0.09284819,0.013272585,-0.00050071935,-0.07493712,-0.4213795,0.17238252,-9.3661175,0.79560274,47.683304,-0.92708695,-2.014133,-3.4148808,-0.24387112,0.012001146,-0.48110273,28.625,29.75,28.9375,33.0,35.4375,36.5
0.13805462,-1.8871279,-0.74771553,-0.5435249,0.009240107,0.02955128,-0.19450721,-0.38532734,-0.34750873,0.06004382,-3.078603,0.62506247,8.202651e-05,-0.0649062,0.018190872,0.0021874132,-0.0021040046,0.0047843405,-0.010578112,0.4720795,-1.4205463,1.9511751,-2.0998824,-1.5707816,2.4471421,-0.09114745,0.07567003,-0.09477012,0.013870126,-0.0004795123,-0.080512375,-0.4213795,0.19153613,-9.404425,0.784413,47.66987,-0.8186586,-1.8905697,-3.4458632,-0.21483937,0.0057687457,-0.45553008,28.625,29.75,28.9375,33.0,35.4375,36.5
0.14005432,-1.2288505,-0.35526937,-0.4607072,-0.0041856193,0.04306656,-0.20391062,-0.3854721,-0.34747213,0.06003843,-3.0786076,0.6250811,6.6598885e-05,-0.065479465,0.018889336,0.00045286896,-0.0005353433,0.0017042072,-0.008582051,0.4718749,-1.4203523,1.95096,-2.0998585,-1.5707697,2.4469488,-0.092876635,0.07983175,-0.09562107,0.014016273,-0.0004775726,-0.0842366,-0.3256114,0.22984336,-9.500193,0.8023209,47.674347,-0.85823834,-2.0130792,-3.4036727,-0.22149423,0.0007112565,-0.44335592,28.625,29.75,28.9375,33.0,35.4375,36.5
0.14205466,-0.92243093,-0.84712744,-0.48932245,-0.0058777966,0.05642593,-0.210415,-0.38558322,-0.34742978,0.060036726,-3.0786037,0.62509567,9.443444e-05,-0.067530476,0.019101474,0.0027173262,-0.002573832,0.005687172,-0.0011758468,0.47170624,-1.4202332,1.9508275,-2.0998585,-1.5707816,2.4467897,-0.095092565,0.07747305,-0.09820659,0.014483508,-0.00047521418,-0.09385795,-0.38307226,0.19153613,-9.5385,0.7665104,47.66987,-0.8581654,-1.9510932,-3.3757322,-0.20871076,-0.006259421,-0.39412218,28.625,29.75,28.9375,33.0,35.4375,36.5
0.14405529,-1.2015511,-0.383957,-0.72429216,-0.01790755,0.0555745,-0.20850134,-0.3857108,-0.3474115,0.060039777,-3.0786297,0.62511766,3.102427e-05,-0.067328006,0.0187219,0.0016587535,-0.0016830579,0.003976409,0.0035670747,0.47152647,-1.420052,1.9505996,-2.099799,-1.5707334,2.4466205,-0.09419135,0.08021093,-0.098916024,0.014387877,-0.00049380236,-0.09769885,-0.47884035,0.22984336,-9.557653,0.83365434,47.64837,-0.7492468,-1.7308203,-3.415002,-0.20625001,0.013146706,-0.32944113,28.625,29.75,28.9375,33.0,35.4375,36.5
0.14605404,-1.4158006,-0.59114707,-0.43433082,-0.012801328,0.07074327,-0.20552646,-0.3858489,-0.34736276,0.060039535,-3.0786128,0.62511,2.5665513e-05,-0.06823698,0.018824672,0.0011965799,-0.0011793762,0.0028805446,0.009431929,0.4713223,-1.4198831,1.9503955,-2.0997498,-1.5707458,2.4464138,-0.09519623,0.082892194,-0.101106316,0.01509967,-0.00044912373,-0.10456731,-0.51714754,0.15322891,-9.615114,0.7597976,47.66091,-0.9479311,-1.8318079,-3.3707073,-0.21175957,0.009417686,-0.25369257,28.625,29.75,28.9375,33.0,35.4375,36.5
0.14805493,-1.9124241,-0.5626424,-0.5183227,-0.012486325,0.065692484,-0.19724,-0.38600287,-0.34732386,0.060050156,-3.0786588,0.625081,7.084482e-05,-0.06964093,0.019500334,0.0012780849,-0.0012831346,0.003167447,0.01085499,0.47110528,-1.4197266,1.9501919,-2.0997498,-1.5707334,2.446173,-0.09760826,0.08398544,-0.10257293,0.01517125,-0.0004844486,-0.108401515,-0.47884035,0.15322891,-9.653421,0.76874626,47.666286,-0.74895453,-1.7856967,-3.3606138,-0.20202547,-0.014327835,-0.19547713,28.625,29.75,28.9375,33.0,35.4375,36.5
0.15005422,-1.0768604,-0.5100207,-0.5349319,-0.0058751497,0.06850158,-0.20410416,-0.38611278,-0.34727278,0.060022015,-3.0786061,0.62497073,1.6282564e-05,-0.06992259,0.018215027,0.0016831628,-0.0017960876,0.004069214,0.014943838,0.47093812,-1.4195338,1.9500245,-2.0997021,-1.5707697,2.4459438,-0.09558129,0.085292175,-0.10503758,0.015288412,-0.0004491025,-0.110462055,-0.36391866,0.15322891,-9.595961,0.7777002,47.68599,-1.0624291,-1.8301015,-3.3634987,-0.1851848,-0.00838448,-0.15385416,28.625,29.75,28.9375,33.0,35.4375,36.5
0.15205453,-0.87753534,-0.34267238,-0.5990614,-0.010669411,0.053829286,-0.20619369,-0.38629025,-0.34722373,0.060043562,-3.0786374,0.62499744,0.00011605778,-0.07119321,0.018337965,0.0016238538,-0.0019362714,0.004390516,0.013675181,0.47069758,-1.419377,1.9497956,-2.0997021,-1.5707816,2.4457161,-0.096897654,0.08715237,-0.10698556,0.015024993,-0.00046566283,-0.110508494,-0.34476504,0.076614454,-9.557653,0.779936,47.685097,-0.9929153,-1.8106366,-3.3280315,-0.17499523,-0.015813937,-0.12570235,28.625,29.75,28.9375,33.0,35.4375,36.5
0.15405492,-0.79188764,-0.6694389,-0.6085013,-0.0052125836,0.03811948,-0.20072933,-0.38645437,-0.3471909,0.060068823,-3.078659,0.62502253,0.00022712564,-0.071916044,0.018298319,0.001326215,-0.001729817,0.0040805703,0.01025008,0.47050568,-1.4192203,1.9495558,-2.0996907,-1.5708054,2.4455373,-0.09741846,0.08905961,-0.10849745,0.014997553,-0.00050375133,-0.107603155,-0.22984336,0.19153613,-9.423578,0.8605109,47.67614,-1.0740646,-1.833533,-3.2991798,-0.1681905,-0.038989507,-0.12676466,28.625,29.75,28.9375,33.0,35.4375,36.5
0.1560543,-0.86047703,-0.84304494,-0.80391234,0.003245086,0.02069027,-0.19339485,-0.386609,-0.3471726,0.060094915,-3.0787115,0.62495756,0.00027338043,-0.073662706,0.017824983,0.0010744456,-0.0016135499,0.0043425914,0.0061633685,0.47032553,-1.4190509,1.9492911,-2.0996425,-1.570794,2.44531,-0.097979836,0.09299748,-0.1124008,0.01478483,-0.0007294773,-0.104074985,-0.15322891,0.21068975,-9.481039,0.8023209,47.684196,-1.1280811,-1.8925283,-3.0283532,-0.15553468,-0.03153202,-0.16746695,28.625,29.75,28.9375,33.0,35.4375,36.5
0.15805496,-0.5165748,-0.3528501,-0.6381821,-0.009466148,0.012369397,-0.20129243,-0.38674077,-0.34712037,0.06007479,-3.0786836,0.6249366,0.00023999714,-0.0747103,0.018081361,0.0022995337,-0.0026129675,0.0066347206,-0.0008869917,0.4701211,-1.4188591,1.9491118,-2.0996187,-1.5708059,2.4450963,-0.09924785,0.09140845,-0.11341874,0.014895949,-0.00088184554,-0.09829221,-0.095768064,0.24899697,-9.5385,0.7597976,47.674347,-1.135432,-1.9146811,-3.229998,-0.15177658,-0.017205363,-0.2159853,28.625,29.75,28.9375,33.0,35.4375,36.5
0.16005448,-0.5039744,-0.788995,-0.48062325,-0.015911384,0.010619627,-0.19779886,-0.38692036,-0.34710756,0.060113378,-3.078778,0.62495655,0.000308087,-0.07599944,0.018770661,0.0010835151,-0.0006864828,0.004866787,-0.004538944,0.46990448,-1.4186896,1.9488238,-2.0995944,-1.5707577,2.4448802,-0.1010023,0.095721036,-0.11569588,0.015317346,-0.0017924436,-0.09639189,-0.17238252,0.21068975,-9.481039,0.76874626,47.682407,-1.0881951,-1.9116479,-3.0313466,-0.13124408,-0.010117009,-0.287067,28.625,29.75,28.9375,33.0,35.4375,36.5
0.16205469,-0.14792667,-0.66604877,-0.54949653,-0.031613637,0.016218524,-0.20351864,-0.38703915,-0.34704894,0.060096413,-3.0787334,0.6249094,0.00032420448,-0.076906085,0.019066783,0.0012825596,-0.00074977917,0.004778048,-0.0049317456,0.46972403,-1.418533,1.9486803,-2.0995824,-1.5708059,2.4446762,-0.102376476,0.09657995,-0.11733818,0.016145784,-0.0016989174,-0.09737259,0.038307227,0.28730422,-9.423578,0.7329411,47.691364,-1.1837782,-2.0149229,-3.0633678,-0.1316599,-0.008582111,-0.28097314,28.625,29.75,28.9375,33.0,35.4375,36.5
0.1640543,-0.39047286,-1.4334106,-0.67738676,-0.021395985,0.0039515267,-0.19399439,-0.38722154,-0.34701136,0.06010234,-3.0787108,0.62496233,0.00036131454,-0.07743745,0.018903626,0.0015164228,-0.000945315,0.004434056,-0.0060186223,0.4695079,-1.4182924,1.9483799,-2.0995338,-1.5708302,2.4444962,-0.10273268,0.097515956,-0.11923467,0.017320879,-0.0013682859,-0.09664158,0.076614454,0.28730422,-9.442732,0.85826975,47.693153,-1.0175401,-2.0018377,-3.035602,-0.13548191,-0.022098022,-0.31492117,28.625,29.75,28.9375,33.0,35.4375,36.5
0.16605416,-0.6030617,-1.3909475,-0.4229651,-0.030795092,0.0057327775,-0.20191541,-0.38735387,-0.34699288,0.060118157,-3.078747,0.6249503,0.0003646147,-0.07772304,0.019154299,0.0007272942,-0.00023082481,0.0027946238,-0.006378924,0.46933967,-1.4181355,1.9481529,-2.099486,-1.5708059,2.444316,-0.10346719,0.09966964,-0.12001079,0.01773036,-0.0012618009,-0.09701534,0.095768064,0.36391866,-9.423578,0.80679786,47.658226,-1.2552522,-1.9944748,-3.1401715,-0.12919438,-0.041824654,-0.33144912,28.625,29.75,28.9375,33.0,35.4375,36.5
0.16805531,-0.75269,-1.4493878,-0.313922,-0.024660995,0.0070732385,-0.19095612,-0.38752514,-0.34695327,0.060117103,-3.0787916,0.6249411,0.00038608347,-0.07854728,0.019640177,0.0009176767,-0.00054807647,0.0030444334,-0.008055921,0.46909916,-1.4179314,1.947924,-2.099498,-1.5707821,2.4440641,-0.10513434,0.0998697,-0.120729014,0.017883757,-0.0010887765,-0.09700546,0.019153614,0.2681506,-9.423578,0.78888994,47.690468,-1.0791659,-1.987978,-3.0613623,-0.12658565,-0.017075308,-0.36323333,28.625,29.75,28.9375,33.0,35.4375,36.5
0.17005448,-0.668729,-1.1411095,-0.19131266,-0.031624652,0.023877766,-0.20581636,-0.38765582,-0.34690532,0.06010542,-3.0787275,0.62492675,0.00034522745,-0.07985176,0.018996207,0.0013163392,-0.0013633268,0.0041466895,-0.006729894,0.4689191,-1.4177266,1.9476966,-2.099414,-1.5708178,2.4438834,-0.10527617,0.10172302,-0.12373962,0.017684644,-0.00087185,-0.09847178,-0.11492168,0.36391866,-9.404425,0.8112748,47.678825,-1.2262379,-1.9818304,-3.1611423,-0.110466056,-0.05278369,-0.39033306,28.625,29.75,28.9375,33.0,35.4375,36.5
0.17205487,-0.7128938,-0.93646467,0.03292936,-0.028231181,0.027955046,-0.20473886,-0.387874,-0.34689632,0.06016328,3.0787735,-0.62497264,-0.00049574656,-0.08030611,0.019994223,0.000671244,-0.0008891975,0.0028315482,-0.005041719,0.46869037,-1.417534,1.947338,-2.0993903,-1.5707935,2.4436777,-0.1075137,0.10261996,-0.12333267,0.01776919,-0.00068371074,-0.10239796,0.0,0.38307226,-9.423578,0.77545905,47.677036,-1.1613954,-1.9105994,-3.115035,-0.08819593,-0.031461768,-0.3710907,28.625,29.75,28.9375,33.0,35.4375,36.5
0.17405422,-1.34485,-1.1921325,-0.15381245,-0.00025047787,-0.003630429,-0.18591553,-0.38801983,-0.34684858,0.060158767,3.0787675,-0.6250075,-0.00049240876,-0.0808111,0.020388525,0.0001509042,-0.00014651282,0.0014011161,-0.000623398,0.46847415,-1.4173532,1.9471353,-2.099366,-1.5707935,2.443484,-0.108615056,0.104511015,-0.124545336,0.018701483,-0.00069914595,-0.10791694,0.05746084,0.36391866,-9.232041,0.8314132,47.704796,-1.2242429,-1.9483302,-3.1475277,-0.082828075,-0.03891375,-0.34375978,28.625,29.75,28.9375,33.0,35.4375,36.5
0.17605421,-0.6803914,-0.66647923,0.114543416,-0.007008851,0.002485447,-0.19728482,-0.3881606,-0.34680897,0.060121924,-3.0787976,0.62493396,0.0003908992,-0.08108535,0.021062138,-0.0005600319,0.00065650133,-0.00016533621,0.0034565045,0.46826956,-1.4170885,1.9469074,-2.0993297,-1.5707821,2.44323,-0.11000344,0.10591725,-0.12467391,0.019184424,-0.00071446627,-0.113385014,-0.05746084,0.3256114,-9.155427,0.80679786,47.66539,-1.2069572,-1.9149752,-3.2582428,-0.07638816,-0.06840098,-0.281133,28.625,29.75,28.9375,33.0,35.4375,36.5
0.17805453,-0.5931762,0.022237925,0.25685352,-0.0025306847,0.0011956126,-0.19751084,-0.38832888,-0.3467638,0.060123194,-3.0787916,0.62494737,0.00044365684,-0.08235374,0.021201495,0.000342101,-6.968293e-05,0.0013156929,0.010813177,0.46805307,-1.4168844,1.9466676,-2.0993183,-1.5708059,2.4430227,-0.1113317,0.10576856,-0.1267014,0.019706937,-0.0007332145,-0.12206912,0.038307227,0.17238252,-9.097966,0.8224646,47.677036,-1.1820427,-1.899616,-3.2703671,-0.05961129,-0.04860778,-0.2042333,28.625,29.75,28.9375,33.0,35.4375,36.5
0.18005411,-0.9094542,0.14325099,0.114267856,0.023039687,-0.015781332,-0.19255565,-0.38853154,-0.34673297,0.06016242,3.0787625,-0.6248829,-0.0005192143,-0.082760766,0.021917032,-0.0011220132,0.001400613,-0.0014778151,0.0122666,0.46780053,-1.4166908,1.9463447,-2.0992696,-1.5707821,2.4427338,-0.11287874,0.1091317,-0.12733932,0.020140603,-0.00077525363,-0.12506887,-0.05746084,0.095768064,-9.136273,0.83813137,47.681515,-1.1506542,-2.0262387,-3.23981,-0.056257337,-0.05949053,-0.14776567,28.625,29.75,28.9375,33.0,35.4375,36.5
0.18205445,-0.6262123,0.38179728,0.348633,0.032211386,0.0040595145,-0.19715339,-0.38869715,-0.3466973,0.060165,3.078772,-0.624769,-0.0005748357,-0.08403864,0.022813128,5.854193e-06,0.00064859237,0.00019368055,0.012967114,0.46759585,-1.4164876,1.9461054,-2.0992696,-1.570794,2.442457,-0.11551458,0.10748053,-0.12818988,0.020809453,-0.0008524613,-0.12840518,-0.22984336,-0.038307227,-9.002198,0.7642693,47.688675,-1.2355855,-1.8033581,-3.339207,-0.047142845,-0.07050251,-0.08726226,28.625,29.75,28.9375,33.0,35.4375,36.5
0.18405494,-0.9708339,0.45162126,0.24895959,0.046460535,0.014897721,-0.19612907,-0.3888543,-0.34665084,0.06015128,3.0788002,-0.62475526,-0.00055496674,-0.08478392,0.022236384,-5.17049e-05,0.0006976861,-0.000105017185,0.011951593,0.46737984,-1.4162582,1.945865,-2.0992334,-1.5708059,2.442229,-0.11517017,0.109859794,-0.13097228,0.021499705,-0.0007698108,-0.12704378,-0.28730422,-0.11492168,-8.887277,0.8314132,47.690468,-1.1722972,-1.9864333,-3.2622402,-0.027131043,-0.07052842,-0.067476034,28.625,29.75,28.9375,33.0,35.4375,36.5
0.18605483,-0.6441538,0.7585739,0.27347574,0.058721844,0.04053894,-0.1958487,-0.3889988,-0.34661016,0.060143717,3.0788221,-0.62470615,-0.00046895794,-0.08626464,0.024454398,-0.0007383867,0.0016436623,-0.0022004812,0.0037078809,0.4671621,-1.4160416,1.9456142,-2.099149,-1.5707816,2.441978,-0.12044134,0.111249454,-0.13130817,0.022746034,-0.0006758181,-0.1240712,-0.3256114,-0.13407528,-9.040505,0.8157518,47.65464,-1.1545746,-1.8402692,-3.341532,-0.04271739,-0.0766058,-0.098246984,28.625,29.75,28.9375,33.0,35.4375,36.5
0.18805426,-1.352683,0.35842088,0.2042579,0.05245223,0.043379743,-0.18787919,-0.389158,-0.3465601,0.060134906,3.078832,-0.6246899,-0.00042654615,-0.08524806,0.023789069,-0.0014857174,0.0027418928,-0.0043464093,0.0019878447,0.466923,-1.4158249,1.9453744,-2.0991008,-1.5707701,2.4417276,-0.118288666,0.11292906,-0.13184471,0.02401555,-0.0006934037,-0.120198205,-0.38307226,-0.19153613,-9.097966,0.779936,47.66808,-1.1486108,-1.8660672,-3.3501446,-0.03721696,-0.08089579,-0.14254948,28.625,29.75,28.9375,33.0,35.4375,36.5
0.19005454,-1.1510737,0.17928173,0.16081147,0.036690768,0.06493442,-0.19760449,-0.38932765,-0.3465281,0.06013908,3.078818,-0.6246336,-0.00044197464,-0.08744663,0.02480226,-0.0010201107,0.0025961257,-0.0041082744,-0.0061927363,0.46670565,-1.4156082,1.9451102,-2.0990765,-1.5707573,2.441477,-0.12201528,0.11438997,-0.1349122,0.025345888,-0.00067340134,-0.115742855,-0.6512228,-0.19153613,-9.040505,0.7777002,47.64121,-1.0862622,-1.8811162,-3.2207212,-0.047383048,-0.091782406,-0.19142874,28.625,29.75,28.9375,33.0,35.4375,36.5
0.19205484,-1.5438741,-0.13777953,-0.13735205,0.03387323,0.058856398,-0.19287913,-0.38948503,-0.3464562,0.060138617,-3.0788386,0.6247181,0.00037595863,-0.089396104,0.025364477,-0.000531445,0.0022247527,-0.0033828905,-0.0127016045,0.4664527,-1.4154036,1.944846,-2.0989444,-1.5707816,2.4412744,-0.12470197,0.11578017,-0.13780233,0.02602866,-0.00068289024,-0.111919165,-0.7086837,-0.19153613,-9.193734,0.81351066,47.67614,-0.93421066,-1.8648899,-3.4558897,-0.04489041,-0.0984164,-0.2537883,28.625,29.75,28.9375,33.0,35.4375,36.5
0.19405416,-2.010877,-0.33033744,-0.27541724,0.023955012,0.053598296,-0.19045821,-0.38969567,-0.34642026,0.060159974,3.0788116,-0.6248083,-0.000446356,-0.08973059,0.025972143,-0.0012818956,0.002919116,-0.0045052134,-0.014260447,0.4662004,-1.4151627,1.9445122,-2.0989087,-1.5707821,2.441082,-0.1259383,0.117219865,-0.13772534,0.025826987,-0.0007936867,-0.11159638,-0.6703765,-0.11492168,-9.3661175,0.7866488,47.67166,-0.9878644,-1.8952285,-3.3384728,-0.044009402,-0.09362106,-0.29831564,28.625,29.75,28.9375,33.0,35.4375,36.5
0.19605467,-2.1481402,-0.5831667,-0.34565118,0.016045181,0.07419776,-0.19358002,-0.38987806,-0.346352,0.06014426,3.0787954,-0.6249039,-0.00037725084,-0.09079979,0.025698554,-0.002430482,0.0044474523,-0.005767499,-0.017879467,0.46590042,-1.4149208,1.944259,-2.098861,-1.5707577,2.4408438,-0.12582935,0.12215193,-0.14079297,0.025782904,-0.0016052462,-0.10786515,-0.68953013,-0.076614454,-9.404425,0.784413,47.657326,-1.0130925,-1.9686007,-3.27236,-0.036662392,-0.099088565,-0.3451457,28.625,29.75,28.9375,33.0,35.4375,36.5
0.19805408,-2.745083,-0.7402199,-0.47024214,0.023237571,0.07524863,-0.19837846,-0.3900397,-0.34629598,0.06012633,-3.078778,0.62489796,0.00032778396,-0.092648655,0.025447924,0.0010317945,0.0020203365,0.0004834454,-0.0174553,0.46567237,-1.4146702,1.9439954,-2.0987885,-1.5707825,2.4406145,-0.12656564,0.1175148,-0.14355223,0.026503365,-0.0022555604,-0.109024234,-0.91937345,0.038307227,-9.461885,0.7463667,47.660015,-1.1035349,-1.782238,-3.3094835,-0.048085384,-0.088981606,-0.42819628,28.625,29.75,28.9375,33.0,35.4375,36.5
0.2000545,-2.765044,-0.42134386,-0.64879614,0.009279344,0.09254682,-0.20012328,-0.39023307,-0.34622902,0.060139988,-3.0787642,0.62497425,0.0003905023,-0.091035955,0.026341468,-0.0025771093,0.0063193175,-0.0063169017,-0.018845031,0.46539614,-1.414476,1.9437326,-2.0987523,-1.5708064,2.4403877,-0.12614064,0.122901976,-0.14171357,0.027283983,-0.0030366369,-0.10720878,-0.82360536,0.17238252,-9.595961,0.83589023,47.677036,-1.0813856,-1.9774806,-3.368392,-0.06625624,-0.08301617,-0.4570764,28.625,29.75,28.9375,33.0,35.4375,36.5
0.20205463,-3.1710768,-0.6533983,-0.986211,-0.0074982396,0.08103756,-0.20167606,-0.39039707,-0.34617794,0.060111303,-3.0787218,0.6249818,0.00024852867,-0.093733124,0.026753936,-0.00080214004,0.0045025856,-0.002180165,-0.018176349,0.46514362,-1.4141881,1.9434451,-2.098657,-1.5707825,2.4401455,-0.12906063,0.12203908,-0.14464033,0.026563732,-0.0032886043,-0.11079548,-0.6703765,0.2681506,-9.730036,0.81351066,47.68599,-1.2337844,-1.8301741,-3.2018201,-0.05115462,-0.09020524,-0.49996853,28.625,29.75,28.9375,33.0,35.4375,36.5
0.20405436,-2.31851,-1.0597754,-0.89466804,-0.027386043,0.08733983,-0.20328812,-0.39057904,-0.34614164,0.060120646,-3.0787055,0.624955,0.00029716498,-0.09400621,0.02630078,-0.0012021476,0.0054773847,-0.002813325,-0.010509371,0.46493995,-1.4139471,1.9431328,-2.0985968,-1.5708188,2.4399273,-0.12806657,0.124416426,-0.1466301,0.027175456,-0.003877896,-0.117466465,-0.63206923,0.34476504,-9.710882,0.84708,47.670765,-1.1658592,-1.8306873,-3.3375282,-0.065136105,-0.07913315,-0.4720138,28.625,29.75,28.9375,33.0,35.4375,36.5
0.20605429,-2.33885,-1.8216,-0.9756304,-0.029118424,0.05540498,-0.19174765,-0.3907598,-0.34608227,0.0601131,-3.0786812,0.6251006,0.0002177095,-0.095817074,0.027585436,-0.0008623329,0.0073917327,-0.0012749758,-0.0041299136,0.4646511,-1.4137065,1.9428567,-2.0985248,-1.570784,2.4397326,-0.13034211,0.12531886,-0.14859922,0.027735258,-0.006286909,-0.12611698,-0.68953013,0.30645782,-9.768343,0.8314132,47.67614,-1.1776221,-1.905687,-3.2768726,-0.06593345,-0.04553888,-0.40013897,28.625,29.75,28.9375,33.0,35.4375,36.5
0.20805492,-2.2334657,-1.7676959,-0.93710613,-0.036296308,0.050461885,-0.18723941,-0.3909945,-0.34603554,0.060128704,-3.0787146,0.6250257,0.00031361333,-0.09762467,0.028315162,-0.0005310012,0.00826294,0.0006318026,0.0027612522,0.4643745,-1.4134299,1.9424971,-2.098501,-1.5708083,2.4394052,-0.13211808,0.12645204,-0.15058716,0.027275061,-0.007918032,-0.13478112,-0.47884035,0.24899697,-9.787497,0.79560274,47.677036,-1.1352324,-1.8539907,-3.2741785,-0.058517806,-0.008101654,-0.3362575,28.625,29.75,28.9375,33.0,35.4375,36.5
0.21005426,-1.1769094,-1.4024384,-1.0540448,-0.022518732,0.05896014,-0.1954469,-0.391192,-0.34595,0.060113687,-3.0786242,0.62507993,0.00031184097,-0.09915004,0.028802834,-0.0004087312,0.009648211,0.0027542415,0.00923351,0.46408623,-1.4131653,1.9422106,-2.09843,-1.5708693,2.4391625,-0.13285784,0.12786521,-0.15230092,0.026293676,-0.010119844,-0.14198852,-0.3256114,0.22984336,-9.730036,0.86498255,47.687782,-1.1550175,-1.8534536,-3.2843845,-0.04455635,0.0015514335,-0.2465193,28.625,29.75,28.9375,33.0,35.4375,36.5
0.21205498,-1.01893,-0.52868766,-0.8862641,-0.019734023,0.04612522,-0.20660229,-0.39138496,-0.34591815,0.0601314,-3.078695,0.6248799,0.00036985014,-0.10064241,0.028525887,0.0006851403,0.008092353,0.005736705,0.014011184,0.46385792,-1.412937,1.9418992,-2.0983942,-1.5708693,2.4388006,-0.13366535,0.12748718,-0.15412273,0.025126366,-0.010062474,-0.1475733,-0.19153613,0.2681506,-9.653421,0.8023209,47.71465,-1.1755905,-1.7563784,-3.234387,-0.0317803,0.04012571,-0.18984525,28.625,29.75,28.9375,33.0,35.4375,36.5
0.21405455,-1.8409489,-0.85308766,-0.8519324,-0.007814147,0.014646458,-0.18459637,-0.39157775,-0.34584835,0.06009294,-3.0786443,0.62492985,0.00031635188,-0.09995365,0.028426956,-0.001800279,0.0085020475,-1.3984744e-05,0.011236898,0.46356976,-1.4126348,1.941636,-2.0983818,-1.5708803,2.4385502,-0.13422118,0.13236147,-0.15423088,0.02567537,-0.007863791,-0.14535679,-0.05746084,0.24899697,-9.500193,0.84708,47.69763,-1.0951226,-1.9784191,-3.3028884,-0.008319167,0.033390015,-0.15466575,28.625,29.75,28.9375,33.0,35.4375,36.5
0.21605498,-0.5107625,-0.8297414,-1.0783116,0.0016253932,0.0060418146,-0.1962696,-0.39178517,-0.3457765,0.060110383,-3.0786097,0.6249643,0.00034964966,-0.101020806,0.02891378,-0.00097983,0.0055686426,-0.0006719288,0.0047348277,0.46328047,-1.4124074,1.9413122,-2.0982854,-1.5709151,2.438287,-0.13782777,0.13148384,-0.15542285,0.027005667,-0.0049463157,-0.1424653,-0.05746084,0.21068975,-9.557653,0.8403672,47.66808,-1.0044717,-1.798743,-3.383221,-0.015184758,0.02717073,-0.16546705,28.625,29.75,28.9375,33.0,35.4375,36.5
0.21805437,-0.71639436,-0.88943964,-0.8703004,-0.003691347,-0.030098945,-0.19479614,-0.39201584,-0.34575695,0.06013224,-3.0786955,0.6249464,0.00041633856,-0.10124465,0.027407644,-0.0012817068,0.0043461993,-0.0023117776,-0.00015266263,0.46301723,-1.4121299,1.9409398,-2.098274,-1.5708784,2.4380019,-0.13645686,0.1347344,-0.15874031,0.027992718,-0.0031148838,-0.1362079,-0.019153614,0.1340753,-9.481039,0.82694155,47.695843,-1.3243152,-2.0116038,-3.3139749,-0.016017761,0.0016694369,-0.24002334,28.625,29.75,28.9375,33.0,35.4375,36.5
0.22005479,-0.03640171,-0.72940844,-0.8107423,-0.019770762,-0.031975087,-0.19162321,-0.39222062,-0.34567246,0.060104568,-3.0786202,0.6249319,0.0003834639,-0.10088801,0.02832702,-0.003330265,0.005616886,-0.007086883,-0.00453884,0.4627168,-1.4118285,1.9406418,-2.0982134,-1.5709265,2.4377022,-0.1383264,0.13804339,-0.15812722,0.028900618,-0.002127108,-0.13369244,0.095768064,0.21068975,-9.442732,0.8851263,47.709274,-1.1157823,-2.0447083,-3.45645,-0.014958682,-0.004555924,-0.31362256,28.625,29.75,28.9375,33.0,35.4375,36.5
0.22205415,0.5035438,-0.47173283,-0.8071881,-0.0084199775,-0.026506368,-0.21036102,-0.39244458,-0.34564593,0.060135785,-3.0787103,0.6250101,0.00046659278,-0.101879895,0.029019285,-0.0036630414,0.005916756,-0.0084473975,-0.0075654956,0.46243992,-1.4115996,1.9403065,-2.098213,-1.5708779,2.4374628,-0.14057067,0.13988563,-0.15979049,0.030078039,-0.0017778577,-0.13290991,0.17238252,0.2681506,-9.481039,0.8314132,47.698532,-1.1277065,-2.1044612,-3.408034,-0.035355568,-0.02936057,-0.33679834,28.625,29.75,28.9375,33.0,35.4375,36.5
0.2240544,0.024582954,-0.09869221,-0.5539787,-0.012476735,-0.022351548,-0.19679253,-0.39264345,-0.34557554,0.060109414,-3.07867,0.6250218,0.00039061243,-0.102689266,0.029879117,-0.0036710636,0.0060365456,-0.0093113,-0.010597827,0.46213904,-1.4112993,1.9400066,-2.0981524,-1.5708779,2.4371746,-0.1429031,0.14046675,-0.160758,0.031289935,-0.0015104599,-0.13221,0.11492168,0.19153613,-9.481039,0.88289046,47.653748,-1.0394279,-2.0199935,-3.4716063,-0.030553067,-0.019277306,-0.35599184,28.625,29.75,28.9375,33.0,35.4375,36.5
0.22605489,-0.13325723,-0.34268326,-0.26816583,0.0009118554,-0.008496983,-0.19661386,-0.39286083,-0.34552866,0.060129043,-3.078682,0.6249654,0.00048251415,-0.10359592,0.030042375,-0.003189084,0.005813489,-0.0093833,-0.008960116,0.46188676,-1.4110467,1.9396595,-2.0981042,-1.5709141,2.4368858,-0.1440663,0.14113069,-0.16300836,0.032834742,-0.0012761593,-0.13501045,0.15322891,0.19153613,-9.3661175,0.8537928,47.677036,-1.0630568,-2.043935,-3.3492093,-0.060148995,-0.0133221755,-0.38862103,28.625,29.75,28.9375,33.0,35.4375,36.5
0.22805442,0.542515,0.10398058,-0.10009405,-0.0012579702,0.016435644,-0.21472158,-0.39305228,-0.34546396,0.06013587,-3.0786529,0.625018,0.00047579082,-0.10485822,0.0299038,-0.003642773,0.0064169075,-0.010746477,-0.008694276,0.4616105,-1.4108173,1.93936,-2.0980198,-1.5709261,2.4366462,-0.14490415,0.14495507,-0.16673175,0.034220632,-0.0012189326,-0.13611212,0.05746084,0.114921674,-9.346964,0.8314132,47.66091,-1.0589917,-2.0634353,-3.4021084,-0.051688395,-0.029367909,-0.38284543,28.625,29.75,28.9375,33.0,35.4375,36.5
0.2300548,-1.1769491,-0.3663384,-0.27388686,0.015225579,-0.03212745,-0.1917237,-0.3932944,-0.34538335,0.06012607,-3.0786154,0.6251209,0.00047221905,-0.10610188,0.030519301,-0.0013839898,0.0047440184,-0.007506973,-0.0021029394,0.46126145,-1.4105061,1.9390124,-2.0979717,-1.570938,2.4363663,-0.14702752,0.14121568,-0.16789605,0.03547409,-0.0011670291,-0.14482723,0.076614454,0.11492168,-9.193734,0.86498255,47.660015,-0.8853184,-1.944632,-3.3323603,-0.07914358,-0.030562352,-0.3240786,28.625,29.75,28.9375,33.0,35.4375,36.5
0.23205425,-0.16854629,-0.108846724,0.075327136,0.0038589393,0.0065218103,-0.20424205,-0.39345863,-0.34535325,0.060129933,-3.0786455,0.6250478,0.00037895163,-0.10791372,0.031820163,-0.0018281647,0.005513215,-0.009277308,0.0019002577,0.46103248,-1.410265,1.9387006,-2.0978634,-1.5708903,2.436088,-0.15091874,0.14405726,-0.17060372,0.03727229,-0.001076706,-0.15272036,-0.15322891,0.13407528,-9.155427,0.79560274,47.71823,-0.93085617,-2.0544553,-3.2159338,-0.09925919,-0.032067534,-0.26083553,28.625,29.75,28.9375,33.0,35.4375,36.5
0.23405445,-0.5643027,0.15072416,-0.07701947,-0.0034909039,0.018141003,-0.21455084,-0.39367184,-0.3453018,0.06010987,-3.0786412,0.6249644,0.00030416847,-0.10749147,0.030938132,-0.0019011148,0.005949292,-0.010586419,0.01218832,0.46074525,-1.4099283,1.938341,-2.0977905,-1.5708779,2.4357495,-0.14902018,0.14555591,-0.17264837,0.039183818,-0.0008955598,-0.16110928,-0.24899697,0.17238252,-9.097966,0.82694155,47.69763,-0.9996476,-1.9312613,-3.2196903,-0.14006095,-0.040283203,-0.15420417,28.625,29.75,28.9375,33.0,35.4375,36.5
0.23605417,-1.2143323,-0.37205958,0.053903583,0.0030776085,0.038421597,-0.19047114,-0.39390346,-0.34520543,0.060108285,-3.0785804,0.6249498,0.00033000045,-0.10770994,0.031197205,-0.0021468266,0.0065944255,-0.011992374,0.014712123,0.460409,-1.4096514,1.9380058,-2.0977066,-1.570938,2.4354122,-0.1496068,0.14680982,-0.17392893,0.040745784,-0.0008560775,-0.16421928,-0.38307226,0.22984336,-9.136273,0.79560274,47.661808,-1.0742224,-1.9264729,-3.2543697,-0.171915,-0.027062558,-0.07974306,28.625,29.75,28.9375,33.0,35.4375,36.5
0.23805432,-2.168031,-0.83523065,-0.1023735,0.011957139,0.053808205,-0.19662526,-0.39412633,-0.3451667,0.060128536,-3.0786145,0.6249212,0.00029189122,-0.10818884,0.031114975,-0.0018001469,0.006641571,-0.012299779,0.012934223,0.46012083,-1.4093629,1.9375991,-2.0975864,-1.5709018,2.435102,-0.14985181,0.14751738,-0.17594174,0.042353354,-0.0007667835,-0.16268581,-0.5363012,0.21068975,-9.174581,0.8179876,47.67345,-1.0850077,-1.897173,-3.2093654,-0.19924758,-0.05503065,-0.06935296,28.625,29.75,28.9375,33.0,35.4375,36.5
0.24005465,-2.5371196,0.07060297,0.13675964,-0.017810058,0.077237904,-0.20682785,-0.39434087,-0.3450839,0.06010507,-3.0785499,0.6249117,0.00025019053,-0.109073296,0.031397615,-0.0013246492,0.0064511774,-0.012160628,0.0050589414,0.45980838,-1.4090507,1.9372753,-2.097514,-1.5709375,2.434792,-0.15110485,0.14791456,-0.17781591,0.043616936,-0.00067312334,-0.15606302,-0.59376204,0.21068975,-9.155427,0.8224646,47.688675,-1.1415243,-1.7420148,-3.1879566,-0.25566074,-0.054151393,-0.10319811,28.625,29.75,28.9375,33.0,35.4375,36.5
0.24205483,-2.8074389,-0.6813362,0.10599945,-0.0039760317,0.08032498,-0.19235493,-0.39455244,-0.3450324,0.06011539,-3.0785694,0.62488145,0.00018249548,-0.11068631,0.031689145,-0.001262528,0.0063313926,-0.011922865,-0.002593735,0.45950794,-1.4087735,1.9369043,-2.0973942,-1.5709013,2.4344704,-0.152945,0.15004641,-0.1805336,0.043943744,-0.0006841978,-0.15024897,-0.7278373,0.21068975,-9.174581,0.8247004,47.67345,-1.1079518,-1.8252534,-3.220739,-0.26970148,-0.059758157,-0.1586377,28.625,29.75,28.9375,33.0,35.4375,36.5
0.24405436,-2.205565,-0.46511954,0.014897283,-0.008048318,0.08173893,-0.19897057,-0.3947923,-0.34498394,0.060105823,-3.0785656,0.62492144,0.000220675,-0.111134276,0.0329485,-0.0018753308,0.006655958,-0.012705291,-0.008642751,0.45921928,-1.4084373,1.9365348,-2.0973828,-1.5709137,2.4342074,-0.15550287,0.15025659,-0.17928787,0.043331955,-0.000627568,-0.14675848,-0.8619126,0.19153613,-9.270349,0.90527004,47.696735,-1.116425,-1.9639595,-3.3043687,-0.28593165,-0.06576593,-0.24833572,28.625,29.75,28.9375,33.0,35.4375,36.5
0.24605487,-1.9822977,0.04527347,-0.05625005,-0.011460227,0.07161182,-0.19696215,-0.3949708,-0.34493357,0.060085583,-3.078564,0.6249238,2.2154104e-06,-0.11096475,0.031943996,-0.0029068482,0.0073913746,-0.014203232,-0.011989689,0.45891976,-1.4081353,1.9361991,-2.0972388,-1.5708297,2.4339097,-0.15349072,0.1537926,-0.18104357,0.043233734,-0.0006471135,-0.14139798,-0.80445176,0.076614454,-9.232041,0.83589023,47.67166,-1.1607611,-1.9809507,-3.2902954,-0.30948213,-0.059742246,-0.32092977,28.625,29.75,28.9375,33.0,35.4375,36.5
0.24805413,-1.6709987,0.29504734,-0.09970601,0.005739075,0.07625654,-0.19871598,-0.3952123,-0.3448528,0.060076725,-3.078494,0.6250066,1.7230122e-05,-0.11290591,0.031790584,-0.001739443,0.005647229,-0.010810688,-0.016057136,0.4585955,-1.4078114,1.9358286,-2.0971677,-1.5708774,2.4336462,-0.15485533,0.15367638,-0.1832868,0.041772783,-0.0006014435,-0.13869403,-0.8619126,-0.038307227,-9.232041,0.8224646,47.689575,-1.113889,-1.7915258,-3.3040137,-0.33620238,-0.08322963,-0.39200953,28.625,29.75,28.9375,33.0,35.4375,36.5
0.2500542,-1.2137461,0.7412106,0.045395013,0.02599466,0.08759859,-0.19364576,-0.39548865,-0.344791,0.06009839,-3.0784924,0.6251421,0.00012776554,-0.11485015,0.031465966,-0.0008916077,0.004053302,-0.007478682,-0.017477995,0.4582592,-1.4074988,1.9354094,-2.0971324,-1.5709013,2.433395,-0.15584387,0.1543205,-0.18553555,0.03968105,-0.0006499174,-0.13826029,-0.7469909,-0.019153614,-9.174581,0.8851263,47.690468,-1.1840428,-1.8313423,-3.1846013,-0.33770037,-0.069518834,-0.46774495,28.625,29.75,28.9375,33.0,35.4375,36.5
0.25205445,-1.2933935,0.5714331,-0.024230186,0.0367407,0.0829744,-0.19047403,-0.39566922,-0.3447121,0.060041666,-3.078398,0.6252165,-9.14236e-05,-0.1163334,0.031689655,-0.0009721724,0.0038243358,-0.005997739,-0.014552506,0.45794672,-1.4071501,1.9351109,-2.0970247,-1.5708779,2.433141,-0.1571493,0.15592301,-0.1868735,0.03799083,-0.00113171,-0.14248924,-0.51714754,-0.05746084,-9.232041,0.8157518,47.689575,-1.1943218,-1.8124105,-3.2520618,-0.3089071,-0.08189857,-0.46178773,28.625,29.75,28.9375,33.0,35.4375,36.5
0.25405487,-0.69532716,0.41888255,-0.12194021,0.038816467,0.08772699,-0.19657227,-0.39592832,-0.34466806,0.06006139,-3.0784512,0.62518257,-3.1911095e-05,-0.11679525,0.032084443,-0.001879736,0.0047368202,-0.0067254826,-0.0041695302,0.45763445,-1.4068366,1.9346923,-2.0969775,-1.570866,2.432801,-0.15782613,0.15804604,-0.1871205,0.037171707,-0.0016274018,-0.1535478,-0.40222588,-0.15322891,-9.3661175,0.8672237,47.685097,-1.298693,-1.9134536,-3.3367953,-0.31323004,-0.07374881,-0.41208193,28.625,29.75,28.9375,33.0,35.4375,36.5
0.25605458,-0.95124495,0.47389627,-0.25192854,0.018845575,0.056263544,-0.19808349,-0.39615837,-0.3445671,0.060041487,-3.07836,0.6251776,-9.328744e-05,-0.118096866,0.032767747,-0.0028107094,0.0051330184,-0.0077204644,0.005404132,0.45728573,-1.4065115,1.9343342,-2.0968583,-1.5709141,2.432461,-0.16011134,0.16110303,-0.1884275,0.036478166,-0.0015674985,-0.16540554,-0.2681506,-0.1340753,-9.423578,0.86498255,47.651955,-1.1678898,-2.1024723,-3.3828154,-0.3216222,-0.07441547,-0.31239632,28.625,29.75,28.9375,33.0,35.4375,36.5
0.25805414,-1.2409497,0.0042720903,-0.5324262,0.0009937563,0.029900378,-0.18527445,-0.39642382,-0.34451973,0.060047437,-3.0784132,0.6251452,-3.4566878e-05,-0.11871602,0.03228546,-0.0035112065,0.005632481,-0.007982289,0.013593162,0.45696223,-1.4061744,1.9339274,-2.0968463,-1.5709018,2.4321108,-0.15947711,0.16414721,-0.19022842,0.03569129,-0.0019011146,-0.17295854,-0.17238252,-0.076614454,-9.500193,0.8672237,47.645687,-1.3788061,-1.9813569,-3.3580213,-0.32741588,-0.07569027,-0.20192003,28.625,29.75,28.9375,33.0,35.4375,36.5
0.26005474,-0.5743583,0.1829402,-0.6569972,-0.018342637,0.0332316,-0.20740014,-0.39663783,-0.34441668,0.060010817,-3.0783288,0.625108,-0.00018644083,-0.12048416,0.03263091,-0.0025656275,0.0045755147,-0.0050706756,0.015352848,0.45660165,-1.4058383,1.9335917,-2.0967152,-1.5709146,2.431738,-0.16129658,0.1637963,-0.19175757,0.03448966,-0.0022698112,-0.17653604,-0.19153613,-0.05746084,-9.557653,0.8627467,47.668976,-1.3048639,-1.9161754,-3.3633337,-0.32047123,-0.080727726,-0.14624542,28.625,29.75,28.9375,33.0,35.4375,36.5
0.2620549,-0.5406794,-0.22865684,-0.6210035,-0.007158848,0.028636625,-0.19761643,-0.3969032,-0.34435493,0.060029503,-3.0783343,0.6251316,-0.000106854946,-0.12236536,0.03337722,-0.00286106,0.0044928174,-0.003982244,0.0107379835,0.45627645,-1.405525,1.9331726,-2.0966556,-1.5709385,2.431427,-0.16388121,0.16582738,-0.19309758,0.03278246,-0.0026753491,-0.17450409,-0.15322891,0.038307227,-9.576807,0.80679786,47.65643,-1.1716688,-2.1018054,-3.3799434,-0.30208814,-0.077807866,-0.11745423,28.625,29.75,28.9375,33.0,35.4375,36.5
0.26405412,-0.61842364,-0.31293014,-0.8050761,-0.0080411015,0.026175383,-0.18452838,-0.3971447,-0.34430107,0.060019378,-3.0783463,0.62508255,-0.0001357627,-0.12478136,0.034243092,-0.0026245632,0.0044241697,-0.0032552616,0.00037856583,0.45596334,-1.4051759,1.9327778,-2.0965965,-1.5709265,2.431082,-0.16723534,0.16807689,-0.19637981,0.03313669,-0.0029419183,-0.16749659,-0.076614454,0.15322891,-9.5385,0.88289046,47.691364,-1.0041871,-2.1446786,-3.4574246,-0.30588475,-0.07170814,-0.2178228,28.625,29.75,28.9375,33.0,35.4375,36.5
0.26605472,-0.255054,-0.4662978,-0.74187726,-0.015227661,0.028877597,-0.19339676,-0.39739096,-0.34419617,0.05998417,-3.078268,0.6251851,-0.0001907667,-0.12576845,0.03474219,-0.0027214058,0.0044365153,-0.00291847,-0.0065258676,0.45557904,-1.4048275,1.932443,-2.0965483,-1.5709504,2.4307718,-0.16875075,0.16908464,-0.1972941,0.03274363,-0.003114257,-0.16210654,-0.05746084,0.21068975,-9.576807,0.85155696,47.67614,-1.0141186,-2.326879,-3.4041424,-0.28889015,-0.05577544,-0.27381164,28.625,29.75,28.9375,33.0,35.4375,36.5
0.26805422,-0.32916194,-0.52270216,-0.69698566,-0.02743911,0.026636729,-0.18772316,-0.39765054,-0.34412736,0.059983358,-3.0782397,0.6251797,-0.00015876506,-0.12648965,0.034770988,-0.002116153,0.0035213972,-0.0008161919,-0.008191713,0.45525497,-1.4044793,1.9320248,-2.0964768,-1.5709866,2.4304483,-0.16924404,0.16826949,-0.1974933,0.03146161,-0.0032213884,-0.16093375,-0.038307227,0.2681506,-9.653421,0.86498255,47.653748,-1.0317876,-2.172668,-3.4708934,-0.27383345,-0.059797212,-0.31011638,28.625,29.75,28.9375,33.0,35.4375,36.5
0.27005538,-0.008607917,-0.92147005,-0.8506199,-0.042254396,0.033366315,-0.19135274,-0.3978872,-0.34406894,0.059969597,-3.0782502,0.62518245,-0.00019990883,-0.12741669,0.034590703,-0.0023109124,0.0032102598,0.00015425279,-0.011155052,0.4549311,-1.404142,1.9316543,-2.0964296,-1.5709628,2.430125,-0.1695229,0.16987233,-0.19862834,0.0299898,-0.0033761186,-0.15824805,0.038307227,0.34476504,-9.634268,0.8851263,47.67614,-1.1336373,-2.332251,-3.4597907,-0.25387734,-0.07280156,-0.38722533,28.625,29.75,28.9375,33.0,35.4375,36.5
0.27205458,-0.13134855,-1.2757224,-0.8187059,-0.058182474,0.047467835,-0.203879,-0.3981395,-0.3440028,0.059966825,-3.078229,0.62521595,-0.00023122171,-0.12744251,0.034161635,-0.0030217285,0.0045925733,-0.00092778937,-0.007880255,0.45459542,-1.4037929,1.9312338,-2.0963337,-1.5709628,2.4298131,-0.16818152,0.17257898,-0.2003357,0.030570969,-0.004150429,-0.16017893,0.019153614,0.34476504,-9.672575,0.85155696,47.677036,-1.1450214,-2.4114466,-3.3643672,-0.23037264,-0.040707693,-0.3889291,28.625,29.75,28.9375,33.0,35.4375,36.5
0.27405477,-0.9647606,-1.4006557,-0.8964538,-0.059089947,0.034198865,-0.18499461,-0.39838374,-0.34390914,0.05993505,-3.0781627,0.62518024,-0.00031670474,-0.12984638,0.035245184,-0.0025260297,0.0049695014,0.00040563208,-0.004342404,0.45423424,-1.4034202,1.9308518,-2.0962374,-1.5709876,2.4294384,-0.1714575,0.17410082,-0.20341115,0.031087678,-0.0050981846,-0.16698909,0.05746084,0.4213795,-9.691729,0.92093146,47.69763,-1.0341707,-2.222829,-3.414384,-0.24785568,-0.03225846,-0.3408966,28.625,29.75,28.9375,33.0,35.4375,36.5
0.27605423,-0.6369824,-1.1700928,-0.8285682,-0.05756864,0.03652605,-0.1914427,-0.39870086,-0.34384862,0.0599682,-3.0782175,0.6253018,-0.0002225547,-0.13230826,0.035784524,-0.0018436818,0.0043544364,0.0030538149,0.0030981442,0.45383734,-1.4030716,1.9303607,-2.0961902,-1.5709633,2.4291105,-0.17400485,0.17530778,-0.20617794,0.02999917,-0.0057039694,-0.17697483,0.076614454,0.4405331,-9.576807,0.77545905,47.67166,-1.0002937,-2.2970235,-3.402953,-0.22646797,-0.013908856,-0.28115386,28.625,29.75,28.9375,33.0,35.4375,36.5
0.27805474,-0.90899915,-1.6821399,-0.8823209,-0.038008872,0.029425066,-0.18647961,-0.3989174,-0.34376964,0.059935167,-3.07815,0.6251677,-0.00025844068,-0.13384843,0.036328904,-0.0012801486,0.0042622434,0.004566084,0.010762423,0.4535492,-1.4027231,1.930015,-2.0961182,-1.5710238,2.4287477,-0.1758131,0.17577823,-0.20806947,0.030007008,-0.0063054743,-0.18644495,-0.038307227,0.47884035,-9.691729,0.87617236,47.66091,-0.978071,-2.2385457,-3.526856,-0.2047031,0.010876561,-0.17529827,28.625,29.75,28.9375,33.0,35.4375,36.5
0.2800543,-0.61956203,-0.97541666,-0.8082518,-0.04303814,0.032778513,-0.18958084,-0.39920038,-0.34370768,0.059940737,-3.0781803,0.6251747,-0.00022785393,-0.1358459,0.037800986,-0.0013582505,0.004833329,0.0053901533,0.01019276,0.45318776,-1.402362,1.929572,-2.096071,-1.5710119,2.428387,-0.17944121,0.17708361,-0.20935087,0.029494526,-0.007177878,-0.18950121,-0.076614454,0.34476504,-9.672575,0.8605109,47.66271,-0.9526509,-2.339078,-3.496345,-0.1921644,0.026055912,-0.0948217,28.625,29.75,28.9375,33.0,35.4375,36.5
0.28205433,0.07814445,-0.40838715,-0.74942935,-0.050371762,0.05598328,-0.19574262,-0.39949143,-0.34363964,0.059932988,-3.078202,0.6251803,-0.00018482155,-0.13651507,0.03654028,-0.00093873957,0.003831305,0.0067869825,0.007969333,0.4528165,-1.4019773,1.92914,-2.096059,-1.5710119,2.4280167,-0.17784382,0.17859341,-0.21200052,0.028937925,-0.006885666,-0.18567982,-0.11492168,0.30645782,-9.672575,0.86498255,47.691364,-1.0068555,-2.144574,-3.4247437,-0.1734219,0.030993788,-0.11379807,28.625,29.75,28.9375,33.0,35.4375,36.5
0.28405422,-0.8313533,-0.94740045,-0.48866928,-0.0341024,0.041287035,-0.18605903,-0.39974704,-0.34359476,0.05993777,-3.078234,0.62517196,-0.0001276613,-0.138323,0.035262592,0.0012784059,0.00065904314,0.011218355,0.0018384601,0.45251656,-1.4016415,1.9287332,-2.0960352,-1.5710114,2.4277077,-0.1776128,0.17753465,-0.21575446,0.028375508,-0.0059672277,-0.17931846,-0.1340753,0.19153613,-9.576807,0.9164598,47.686886,-1.023498,-2.15113,-3.498258,-0.13029584,0.02679773,-0.16062258,28.625,29.75,28.9375,33.0,35.4375,36.5
0.2860548,-0.5218225,0.13278638,-0.56944126,-0.025538757,0.039683778,-0.19274692,-0.4000371,-0.34351438,0.05992538,-3.0782053,0.62518895,-0.00015130613,-0.13861442,0.034668725,0.0010437683,-0.0005596144,0.009538201,-0.004678045,0.45213223,-1.4012322,1.9282664,-2.0959508,-1.5710229,2.427338,-0.17783962,0.17951596,-0.21783616,0.029446436,-0.004137547,-0.17303112,-0.24899697,0.095768064,-9.500193,0.92093146,47.657326,-1.10495,-2.19651,-3.400735,-0.10198364,0.004255961,-0.22152749,28.625,29.75,28.9375,33.0,35.4375,36.5
0.28805423,-1.0719709,0.4078568,-0.6242409,0.004902095,0.022170665,-0.1814029,-0.4003108,-0.34346628,0.059950884,-3.0782762,0.6251871,-7.4958865e-05,-0.1380467,0.034727138,0.0005600109,-0.0004634342,0.006774326,-0.010766154,0.45179644,-1.40092,1.9278368,-2.0959141,-1.5709985,2.4269922,-0.1780464,0.18041594,-0.21830893,0.031548753,-0.0029947716,-0.16715226,-0.28730422,0.019153614,-9.519346,0.84484416,47.68062,-1.164072,-2.162179,-3.373013,-0.11231913,0.0023887707,-0.3481773,28.625,29.75,28.9375,33.0,35.4375,36.5
0.29005554,-0.46079794,0.8050723,-0.5730959,0.024050016,0.031852994,-0.19757639,-0.40056512,-0.3433888,0.059945274,-3.0782595,0.6251857,-8.168108e-05,-0.1380644,0.034504794,0.0006357778,-0.0012309967,0.005708219,-0.015558236,0.45144853,-1.4005833,1.9274415,-2.0958421,-1.57101,2.4266458,-0.17828004,0.18090796,-0.21938494,0.03275189,-0.0018370738,-0.16259561,-0.24899697,0.038307227,-9.442732,0.8179876,47.675243,-1.2485368,-1.9941878,-3.3380513,-0.10945794,-0.007925097,-0.4233687,28.625,29.6875,28.9375,33.0,35.4375,36.5
0.29205504,-0.5690376,0.9739651,-0.6150075,0.037281115,0.024068156,-0.19837295,-0.40085277,-0.34332612,0.05995352,-3.0782702,0.62522614,-0.00010746409,-0.1383656,0.034836274,0.00037276713,-0.0014521325,0.0049093515,-0.01600894,0.45107588,-1.4001988,1.9269508,-2.0957344,-1.5709862,2.4262972,-0.17932774,0.18162008,-0.21973944,0.03301813,-0.0012883438,-0.16319352,-0.19153613,-0.05746084,-9.481039,0.87617236,47.666286,-1.2366419,-2.1084006,-3.3565025,-0.07508393,-0.01828622,-0.49629173,28.625,29.6875,28.9375,33.0,35.4375,36.5
0.2940553,-0.97824603,0.5090729,-0.3040738,0.022208618,0.028292209,-0.19597468,-0.4011111,-0.3432481,0.059912115,-3.0782025,0.6252295,-0.00015234153,-0.13994806,0.03553622,0.00059327326,-0.0015506154,0.0050456994,-0.012727429,0.45073947,-1.3997778,1.9265441,-2.0956862,-1.5710219,2.4259717,-0.18180063,0.18299223,-0.22209783,0.033830572,-0.0012731624,-0.16894689,-0.24899697,-0.1340753,-9.576807,0.9030289,47.704796,-1.3330878,-2.1709454,-3.4353662,-0.06046316,-0.022043988,-0.47966263,28.625,29.6875,28.9375,33.0,35.4375,36.5
0.29605448,-0.96940887,0.5979563,-0.014527776,0.0004496645,0.056083854,-0.20458263,-0.40140134,-0.34318012,0.059929173,-3.0782459,0.6252869,-0.00010540253,-0.13964944,0.034964263,0.00037315954,-0.000871001,0.0036539624,0.0023815513,0.45035586,-1.399441,1.926102,-2.0956376,-1.5709981,2.4256186,-0.18039364,0.18458708,-0.22391124,0.035597112,-0.0012722379,-0.18264827,-0.2681506,-0.15322891,-9.500193,0.92764956,47.691364,-1.3517878,-2.1844044,-3.519022,-0.060108624,-0.025691407,-0.3691764,28.625,29.6875,28.9375,33.0,35.4375,36.5
0.29805437,-1.1598847,0.268083,-0.1889058,0.017040301,0.052403927,-0.19836603,-0.40169644,-0.34309694,0.059934977,-3.0782351,0.6252779,-7.1398215e-05,-0.1400714,0.034885634,0.00028726214,-0.0005070803,0.0025073807,0.013538464,0.4499719,-1.399068,1.9256352,-2.0955536,-1.5710219,2.4252307,-0.18057935,0.18628107,-0.22614343,0.03731677,-0.0011027051,-0.19399035,-0.22984336,-0.15322891,-9.442732,0.8717007,47.69763,-1.3694208,-2.15142,-3.4766092,-0.059725314,-0.03481943,-0.2493414,28.625,29.6875,28.9375,33.0,35.4375,36.5
0.30005434,-0.5372298,0.65911406,-0.110345654,0.006543979,0.06377617,-0.20821448,-0.40195775,-0.34303224,0.059916805,-3.0782452,0.6252202,-0.00016991014,-0.14121233,0.034735333,0.00044411572,-0.00048530905,0.0026363807,0.01844917,0.44961178,-1.3986712,1.9251922,-2.0954568,-1.5709862,2.4248335,-0.1810991,0.18828532,-0.22909969,0.038167454,-0.0011939184,-0.19941923,-0.26815057,-0.095768064,-9.385271,0.94331104,47.66987,-1.4106196,-2.1528087,-3.3699007,-0.058374867,-0.028021298,-0.1630913,28.625,29.6875,28.9375,33.0,35.4375,36.5
0.30205518,-1.1557482,0.018489974,0.11097766,0.017032748,0.038301993,-0.19997796,-0.4022533,-0.34294936,0.059931427,-3.0782292,0.6252,-5.721745e-05,-0.14208125,0.035175547,-0.0005619342,0.0009691684,0.0010748873,0.0147223715,0.44925153,-1.3983214,1.9247378,-2.0953972,-1.5710462,2.424463,-0.18207821,0.19178255,-0.23105395,0.03865398,-0.0018181728,-0.19666925,-0.40222588,-0.11492168,-9.308657,0.83365434,47.64837,-1.4917438,-2.1723745,-3.3969193,-0.029244166,-0.032504164,-0.1333377,28.625,29.6875,28.9375,33.0,35.4375,36.5
0.304055,-0.6774451,0.155212,-0.14110485,0.018118598,0.032323398,-0.19675706,-0.40253085,-0.34289464,0.059908878,-3.0782437,0.62515026,-0.000114111615,-0.14327154,0.035725214,-0.000395037,0.0009985807,0.0011534475,0.0058108373,0.4489029,-1.3978887,1.924271,-2.0953372,-1.5710219,2.4240818,-0.18387808,0.19286487,-0.23294789,0.039414894,-0.0018834958,-0.18955669,-0.36391866,0.095768064,-9.404425,0.88289046,47.67166,-1.3291752,-2.122983,-3.4618664,-0.020602673,-0.04267147,-0.21232718,28.625,29.6875,28.9375,33.0,35.4375,36.5
0.30605423,-0.404176,-0.034699496,-0.1854973,0.0008470324,0.028009964,-0.20630392,-0.40282425,-0.34280732,0.05992568,-3.0782192,0.62514985,-4.1559328e-05,-0.14495032,0.03683386,0.00016082182,0.00076047564,0.0018509948,-0.0021403602,0.44852972,-1.3975402,1.9238046,-2.0952413,-1.5710701,2.4237118,-0.18705744,0.19311197,-0.23475042,0.04023128,-0.001967388,-0.18478416,-0.21068975,0.05746084,-9.423578,0.8493211,47.687782,-1.1555908,-2.2046952,-3.3916998,-0.033551343,-0.027677316,-0.29277876,28.625,29.6875,28.9375,33.0,35.4375,36.5
0.30805442,-0.68161184,-0.3869386,0.033079118,-0.029865783,0.028013041,-0.21008945,-0.40312007,-0.34273985,0.059939533,-3.0782495,0.6252727,-8.7809676e-05,-0.14674282,0.03761704,0.00084127404,0.00047456016,0.002566936,-0.006797909,0.44812104,-1.3971674,1.9233135,-2.0951326,-1.57101,2.423376,-0.1897676,0.1938506,-0.23751843,0.04150304,-0.0020200491,-0.18283568,-0.28730422,0.19153613,-9.308657,0.9097417,47.677036,-1.27611,-2.216188,-3.307075,-0.036280163,-0.03480322,-0.35186994,28.625,29.6875,28.9375,33.0,35.4375,36.5
0.31005484,-1.1039329,-0.8156402,-0.20472087,-0.028432094,0.034780346,-0.20643553,-0.40340516,-0.34263703,0.059918504,-3.0781844,0.6252408,-7.7985576e-05,-0.14863884,0.038007677,0.0017306358,3.8883776e-05,0.0038184084,-0.008177294,0.4477361,-1.396771,1.9228824,-2.0950606,-1.5710706,2.4229798,-0.19181766,0.19476758,-0.24096008,0.042699765,-0.002180086,-0.18350466,-0.47884035,0.21068975,-9.308656,0.85826975,47.694946,-1.1854198,-2.2332318,-3.1615078,-0.040017035,-0.025387425,-0.385763,28.625,29.6875,28.9375,33.0,35.4375,36.5
0.3120542,-1.5860647,-0.43908808,-0.18911898,-0.027789485,0.04779328,-0.20704284,-0.40371105,-0.34256464,0.05992496,-3.0781724,0.62523514,-4.6583264e-05,-0.1478092,0.039338756,0.000911042,0.0020237535,-0.0005330929,-0.003922374,0.4473637,-1.3963625,1.9223689,-2.0949638,-1.5710939,2.4226058,-0.19336048,0.19529802,-0.24068591,0.04666945,-0.0020767418,-0.18930337,-0.36391866,0.2681506,-9.404425,0.842603,47.698532,-1.1153557,-2.0947485,-3.239079,-0.06860734,-0.017651148,-0.3512619,28.625,29.6875,28.9375,33.0,35.4375,36.5
0.3140549,-1.8610265,-0.6065063,-0.05455881,-0.040572837,0.05893286,-0.21031791,-0.40398777,-0.34249246,0.0599234,-3.0781963,0.62521607,-0.00010158694,-0.14737229,0.040182464,0.00045371914,0.0029961828,-0.002835301,0.0046909177,0.44697934,-1.3959899,1.9219154,-2.094867,-1.5710582,2.4222066,-0.19439633,0.19542633,-0.24031493,0.048668586,-0.001960329,-0.19895327,-0.30645782,0.3256114,-9.557653,0.8493211,47.681515,-1.0997581,-1.9895287,-3.4466343,-0.10787988,-0.032190595,-0.2652431,28.625,29.6875,28.9375,33.0,35.4375,36.5
0.3160546,-1.7770691,-0.6518627,0.03798246,-0.035154156,0.057193324,-0.20498239,-0.40426603,-0.34241432,0.05990409,-3.0782006,0.62519324,-0.00019867653,-0.14853178,0.04071638,0.00079058396,0.0022674375,-0.0017754261,0.012015363,0.44658315,-1.3955817,1.921461,-2.0947716,-1.5710219,2.4217958,-0.19627902,0.19554281,-0.24117506,0.048144378,-0.0017792018,-0.20816036,-0.36391866,0.24899697,-9.500193,0.8784135,47.696735,-1.152233,-2.0894375,-3.491634,-0.10123308,-0.029734923,-0.15546331,28.625,29.6875,28.9375,33.0,35.4375,36.5
0.318055,-1.4703172,-0.75131816,-0.006103452,-0.019379955,0.06126611,-0.20843285,-0.4045788,-0.34233603,0.05991174,-3.078191,0.62511355,-0.00012872886,-0.14814468,0.04076856,0.0010872203,0.0026404723,-0.0032931352,0.015108962,0.4462112,-1.3951733,1.920947,-2.0946863,-1.5710701,2.4213758,-0.19608852,0.19536062,-0.24236885,0.05103779,-0.0014545496,-0.21106417,-0.51714754,0.21068975,-9.481039,0.8627467,47.674347,-1.138785,-1.9344542,-3.5775008,-0.12372212,-0.036268994,-0.0658132,28.625,29.6875,28.9375,33.0,35.4375,36.5
0.32005444,-1.5746262,-0.25457218,0.1238885,-0.003970994,0.045111757,-0.19769242,-0.4049003,-0.34227526,0.05993525,-3.078263,0.62509394,-0.00011838402,-0.14924839,0.041784868,0.0013518403,0.0032677234,-0.0046631466,0.0076493984,0.44580203,-1.3947766,1.9204077,-2.0945895,-1.5710219,2.4209454,-0.19865657,0.19642696,-0.24498591,0.054106664,-0.0014186479,-0.20617205,-0.36391866,0.13407528,-9.308656,0.8560339,47.66091,-1.0581872,-1.9738626,-3.5675278,-0.14683077,-0.044160396,-0.100907356,28.625,29.6875,28.9375,33.0,35.4375,36.5
0.3220547,-0.7201049,0.8363368,0.034995984,0.020864472,0.03746161,-0.20304197,-0.40518266,-0.34217235,0.05990997,-3.0782049,0.6250478,-0.00016393114,-0.14970717,0.042280886,0.0016267031,0.0036510401,-0.0055426843,-0.0014763142,0.44540566,-1.3943679,1.9199656,-2.0944932,-1.5710582,2.420528,-0.19977851,0.19680566,-0.24663553,0.056331813,-0.0013958637,-0.19816792,-0.2681506,0.038307227,-9.32781,0.800085,47.647476,-1.0678155,-1.8732207,-3.3792248,-0.19835854,-0.035139836,-0.161828,28.625,29.6875,28.9375,33.0,35.4375,36.5
0.32405442,0.0108144805,1.0367225,0.098750815,0.049254894,0.014146497,-0.20411125,-0.40549722,-0.34210217,0.059923742,-3.0782232,0.62511337,-0.00013308488,-0.1518137,0.042143892,0.0020795607,0.0025773805,-0.002693254,-0.008989009,0.44500944,-1.393971,1.9194511,-2.0944102,-1.5710462,2.4201705,-0.2009808,0.19844644,-0.2491758,0.05420274,-0.0016571614,-0.19185558,-0.22984336,-0.11492168,-9.404425,0.94331104,47.690468,-1.0804396,-1.9179184,-3.4809973,-0.1765612,-0.024489332,-0.2732165,28.625,29.6875,28.9375,33.0,35.4375,36.5
0.3260557,-0.3602048,0.8780347,0.16124567,0.03491144,0.010217658,-0.19961038,-0.40581492,-0.3420225,0.059923254,-3.078199,0.62515056,-0.00016884855,-0.1510419,0.04155659,0.0010890075,0.004287876,-0.0050895317,-0.015064257,0.4446021,-1.3935258,1.9189013,-2.0942776,-1.5710467,2.4197898,-0.19880521,0.20110033,-0.2504519,0.055728547,-0.0021733483,-0.18360314,-0.36391866,-0.095768064,-9.232041,0.9410752,47.684196,-1.3659836,-1.9444051,-3.5269265,-0.19872308,-0.0450804,-0.3862486,28.625,29.6875,28.9375,33.0,35.4375,36.5
0.3280548,-1.0554277,0.169587,-0.069232434,0.04101291,0.0044533657,-0.19803067,-0.4061111,-0.3419418,0.05992986,-3.0781739,0.6252212,-0.00016227455,-0.15110952,0.040798895,0.00037098685,0.0056606624,-0.0070408154,-0.0154319005,0.44421864,-1.39314,1.9184102,-2.0941694,-1.5710586,2.4194539,-0.19712083,0.20474866,-0.25357124,0.057551034,-0.0025790434,-0.1815488,-0.28730422,-0.05746084,-9.270349,0.9545008,47.677036,-1.4081773,-2.0112002,-3.4772837,-0.23000623,-0.026100364,-0.47150174,28.625,29.6875,28.9375,33.0,35.4375,36.5
0.33005425,-0.71955764,0.017056271,-0.44846317,0.029078148,0.017386837,-0.21478169,-0.40639454,-0.3418425,0.05990578,-3.0781155,0.6252262,-0.00031340038,-0.15298294,0.04116001,4.579473e-05,0.0067656045,-0.0078068487,-0.011157441,0.44379845,-1.3927062,1.917919,-2.0940015,-1.5710467,2.4190445,-0.19873017,0.20875092,-0.25794935,0.059094902,-0.003280912,-0.18742877,0.076614454,-0.076614454,-9.461885,0.80456203,47.678825,-1.3708141,-2.1446671,-3.2725666,-0.2675099,-0.030022794,-0.46685338,28.625,29.6875,28.9375,33.0,35.4375,36.5
0.33205494,-0.96346146,-0.21593142,-0.20935999,-0.0030816277,0.0067271595,-0.216778,-0.40674043,-0.34174588,0.059932556,-3.0781028,0.62533206,-0.0002342703,-0.15484492,0.04193533,4.6191024e-05,0.0077223945,-0.007862122,-0.0006158769,0.4433538,-1.3923088,1.9173683,-2.0938938,-1.571071,2.4186678,-0.20093341,0.21136995,-0.26138046,0.060359742,-0.0041281,-0.2001705,0.095768064,0.0,-9.557653,0.85155696,47.698532,-1.340474,-2.269334,-3.1582546,-0.30970022,-0.029074114,-0.3911742,28.625,29.6875,28.9375,33.0,35.4375,36.5
0.33405432,-0.55443096,-0.64643365,-0.19676165,-0.020890031,0.009071582,-0.21712157,-0.40702924,-0.34166077,0.059940204,-3.0780845,0.62522644,-0.00019149506,-0.15622692,0.04297382,0.00018833061,0.008487639,-0.006623641,0.009805669,0.4429929,-1.3919367,1.9168905,-2.0937865,-1.5711197,2.4182436,-0.20297974,0.2119348,-0.26234707,0.059958637,-0.0053635864,-0.21263556,-0.038307227,0.17238252,-9.500193,0.81351066,47.683304,-1.3014376,-2.1777956,-3.2315676,-0.31600356,-0.0020450738,-0.23316824,28.625,29.6875,28.9375,33.0,35.4375,36.5
0.33605462,-0.9771714,-0.8186268,-0.5233864,-0.014890955,-0.009769821,-0.21457113,-0.40734518,-0.3415652,0.0599295,-3.0780604,0.62519985,-0.00025457842,-0.15747501,0.043580864,-0.00019831125,0.008458845,-0.006017916,0.012861351,0.44256055,-1.3914912,1.9163631,-2.0936553,-1.5711197,2.417798,-0.20475157,0.21352617,-0.26310182,0.058559176,-0.005619139,-0.21746174,-0.019153614,0.21068975,-9.500193,0.8851263,47.70032,-1.2603332,-2.392085,-3.2235985,-0.33244246,0.0024773055,-0.17254467,28.625,29.6875,28.9375,33.0,35.4375,36.5
0.33805385,-0.98317444,-0.71307445,-0.67844987,-0.036390204,-0.006970499,-0.2004384,-0.40764305,-0.34148535,0.059904866,-3.0780396,0.625124,-0.00036450077,-0.15739173,0.04497592,-0.0014866908,0.008834682,-0.007943702,0.0059288554,0.4421634,-1.3910226,1.91584,-2.0935237,-1.5711073,2.4173565,-0.20725615,0.21411443,-0.26070446,0.057476033,-0.0051498185,-0.21303539,-0.038307227,0.28730422,-9.615114,0.8672237,47.683304,-1.1059555,-2.2681208,-3.3616369,-0.34049803,0.01639867,-0.18187135,28.625,29.6875,28.9375,33.0,35.4375,36.5
0.34005412,-1.0838553,-1.8109925,-0.41319454,-0.055717755,0.009476514,-0.20773382,-0.40796858,-0.3413988,0.059931714,-3.078034,0.6251668,-0.0002988746,-0.1593685,0.04549239,-0.0007514291,0.0072060693,-0.0053202235,-0.0047255093,0.44175467,-1.3906387,1.9153017,-2.0934045,-1.5711311,2.4169755,-0.20985302,0.21413124,-0.26208824,0.05577072,-0.004798446,-0.20497815,-0.05746084,0.30645782,-9.615114,0.88289046,47.66271,-1.0648867,-2.1297085,-3.5489612,-0.339951,0.010166982,-0.2650936,28.625,29.6875,28.9375,33.0,35.4375,36.5
0.3420545,-1.5042018,-1.7568228,-0.34912246,-0.0707181,0.0161656,-0.21237862,-0.40828195,-0.34129986,0.059922468,-3.0779932,0.6251595,-0.00032576796,-0.1604251,0.045348532,-0.00095355575,0.006333269,-0.0038737587,-0.007956609,0.4413346,-1.3902056,1.9147877,-2.0932853,-1.571155,2.4165564,-0.21040282,0.21552409,-0.26281536,0.053418517,-0.004643721,-0.20229636,-0.19153613,0.30645782,-9.557653,0.8157518,47.677036,-1.1167186,-2.0633836,-3.6253028,-0.33875445,0.009925692,-0.34259284,28.625,29.6875,28.9375,33.0,35.4375,36.5
0.34405467,-1.2582422,-0.96088046,-0.37467754,-0.055283073,0.041203864,-0.22123532,-0.40861744,-0.34123737,0.05992762,-3.078009,0.62524253,-0.0002932159,-0.16389458,0.045340117,0.0009964638,0.003021575,0.0017182957,-0.012636811,0.44093785,-1.3897495,1.9142245,-2.0932143,-1.571143,2.4162097,-0.213465,0.21531697,-0.26652828,0.050867543,-0.004043721,-0.20067808,-0.22984336,0.24899697,-9.519346,0.91421866,47.647476,-1.09983,-1.957835,-3.6203833,-0.32088524,0.019057514,-0.38898396,28.625,29.6875,28.9375,33.0,35.4375,36.5
0.3460545,-1.7806787,-0.53353167,-0.22232477,-0.029745238,0.03631431,-0.21612899,-0.40895492,-0.3411241,0.059948035,-3.0779986,0.6252195,-0.00023316087,-0.16610603,0.045757726,0.001505552,0.000764509,0.004334044,-0.0119814975,0.4404809,-1.3893647,1.9136995,-2.093096,-1.5711788,2.41574,-0.21641831,0.21592924,-0.26789683,0.04828162,-0.0031238873,-0.20428784,-0.24899697,0.17238252,-9.557653,0.97240865,47.687782,-0.97938955,-1.9762022,-3.6293955,-0.3069143,-0.0044497624,-0.38378128,28.625,29.6875,28.9375,33.0,35.4375,36.5
0.34805426,-1.1517272,0.15849428,-0.28602198,-0.019346233,0.061443206,-0.22721088,-0.40926448,-0.34106696,0.059933495,-3.0780597,0.6251671,-0.0002903486,-0.16721302,0.043861184,0.0027466037,-0.0018941446,0.008438126,0.0005423463,0.4400856,-1.3889086,1.9131836,-2.093037,-1.5711187,2.4153044,-0.21423326,0.21618615,-0.27056843,0.045855206,-0.0024827442,-0.21462668,-0.21068975,0.21068975,-9.481039,0.94331104,47.66271,-1.0053091,-1.8780563,-3.5074744,-0.26270637,0.011019868,-0.2935707,28.625,29.6875,28.9375,33.0,35.4375,36.5
0.35005435,-2.0134568,-0.061867174,-0.4280579,0.019502789,0.046210147,-0.21812728,-0.40960667,-0.3409805,0.059946116,-3.0780845,0.6251652,-0.00027686876,-0.16884694,0.042610805,0.0038369612,-0.0045735934,0.012070275,0.012464804,0.43964186,-1.3884757,1.9126219,-2.0929296,-1.5711058,2.4148567,-0.21374232,0.21683465,-0.27338737,0.043592546,-0.0016132548,-0.22605863,-0.4405331,0.11492168,-9.461885,0.89631605,47.67793,-1.1222086,-1.7718863,-3.3677015,-0.2233441,-0.011379539,-0.16371718,28.625,29.6875,28.9375,33.0,35.4375,36.5
0.3520549,-2.6418242,-0.20008057,-0.5909725,0.019647378,0.05473366,-0.19197635,-0.40991303,-0.34087494,0.05993961,-3.0780513,0.62509936,-0.00034325526,-0.1690259,0.041007288,0.0046210247,-0.005776845,0.014048138,0.01786248,0.43921068,-1.3880551,1.9121073,-2.0927746,-1.5711182,2.414389,-0.21104427,0.21720815,-0.27558884,0.043113623,-0.0013810517,-0.22875781,-0.61291564,0.15322891,-9.481039,0.86498255,47.67345,-1.382539,-1.7477489,-3.4318573,-0.18873027,-0.011700339,-0.07609925,28.625,29.6875,28.9375,33.0,35.4375,36.5
0.3540548,-2.442721,-0.25392923,-0.80354685,0.015785092,0.062835835,-0.19903213,-0.41027445,-0.3408037,0.059946865,-3.078099,0.6250537,-0.00029977033,-0.1696522,0.040788427,0.0038411475,-0.0051977793,0.012440105,0.012178938,0.43877882,-1.3875736,1.9115084,-2.0927022,-1.5711058,2.4139228,-0.2110805,0.22065249,-0.27814367,0.043930355,-0.0012058701,-0.22310963,-0.57460845,0.19153613,-9.576807,0.90527004,47.674347,-1.4461191,-1.7750185,-3.4966369,-0.17721958,-0.018387938,-0.09409636,28.625,29.6875,28.9375,33.0,35.4375,36.5
0.35605422,-2.103422,-0.3104838,-0.6831058,-0.016308798,0.07271919,-0.20505422,-0.41060138,-0.34069395,0.059941433,-3.0780594,0.6250517,-0.00025915314,-0.17060444,0.041232217,0.0027539907,-0.0042511793,0.010397371,0.0012522164,0.43834648,-1.3871518,1.9110059,-2.0926187,-1.571154,2.4134946,-0.21246493,0.22444002,-0.2803624,0.044606574,-0.0011886889,-0.21356612,-0.59376204,0.15322891,-9.749189,0.9186956,47.66987,-1.4099115,-2.0228333,-3.3930018,-0.1644302,-0.029029682,-0.18992607,28.625,29.6875,28.9375,33.0,35.4375,36.5
0.35805473,-1.9137115,-1.1600231,-0.6486321,-0.04174315,0.06548709,-0.20714831,-0.41094694,-0.34064314,0.059947826,-3.078109,0.62508607,-0.00023945875,-0.17147805,0.04189266,0.0017016347,-0.003241759,0.008616116,-0.008868285,0.4379496,-1.3866702,1.9104084,-2.0925462,-1.5711182,2.413113,-0.21405044,0.22763868,-0.28192326,0.045021906,-0.0013318516,-0.20503002,-0.49799395,0.21068975,-9.768343,0.9388393,47.642998,-1.415741,-2.045655,-3.4546204,-0.14939815,-0.0369335,-0.2976655,28.625,29.6875,28.9375,33.0,35.4375,36.5
0.36005405,-1.483305,-0.97180724,-0.8811798,-0.035022963,0.04342513,-0.20435295,-0.41132608,-0.34055233,0.05997977,-3.0781329,0.6251546,-9.920746e-05,-0.17310856,0.042546485,0.0025899566,-0.0024796166,0.011620258,-0.018118994,0.43749347,-1.3862377,1.9098104,-2.0924747,-1.571143,2.412697,-0.2150977,0.22752209,-0.283808,0.04463062,-0.0032731716,-0.19682242,-0.34476504,0.095768064,-9.710882,0.93436235,47.64479,-1.38626,-2.0568275,-3.4324398,-0.13303968,-0.023743553,-0.44369534,28.625,29.6875,28.9375,33.0,35.4375,36.5
0.3620546,-0.6435729,-0.12026254,-0.64240265,-0.032777384,0.041299187,-0.21731867,-0.41170228,-0.3404559,0.060009707,-3.0781484,0.6251744,3.373431e-05,-0.17274064,0.043638527,0.001646219,-0.00037286407,0.009606354,-0.017663484,0.43703762,-1.3858051,1.9092139,-2.0923903,-1.5711793,2.412252,-0.21583764,0.22841693,-0.28303868,0.045677837,-0.0043049096,-0.19801679,-0.47884035,0.22984336,-9.653421,0.8851263,47.66271,-1.4629734,-2.0949237,-3.5542116,-0.112632066,0.010915747,-0.501333,28.625,29.6875,28.9375,33.0,35.4375,36.5
0.36405423,-0.99826145,-0.38614085,-0.7167147,-0.009816685,0.008006646,-0.21610603,-0.41203073,-0.3403818,0.060010564,-3.078137,0.6251667,6.6235865e-05,-0.17320578,0.043924782,0.0008938876,0.0002797239,0.007832227,-0.0074277455,0.43665272,-1.3853478,1.9086517,-2.0922945,-1.5712031,2.411864,-0.21662964,0.2309193,-0.2845755,0.046583693,-0.004145688,-0.20904416,-0.19153614,0.21068975,-9.576807,0.9858343,47.66091,-1.316451,-2.0165255,-3.5413213,-0.09944686,0.005768951,-0.44975471,28.625,29.6875,28.9375,33.0,35.4375,36.5
0.36605453,-0.37778932,0.20583026,-0.64208037,-0.008332378,1.804445e-05,-0.21579888,-0.41239205,-0.34031883,0.06003165,-3.0782564,0.6251458,0.00014396233,-0.17547837,0.044506732,0.0011302095,-0.0012341469,0.009467404,0.0020216913,0.4362082,-1.384915,1.9080886,-2.0922716,-1.571143,2.4113915,-0.21972777,0.23249568,-0.28670844,0.04502153,-0.0034500745,-0.22159225,0.038307227,0.21068975,-9.500193,0.9925471,47.675243,-1.2927632,-1.9830723,-3.6613429,-0.049726404,-0.0072282804,-0.328152,28.625,29.6875,28.9375,33.0,35.4375,36.5
0.36805463,-0.32219437,-0.7198406,-0.4063163,-0.004519956,-0.0010969097,-0.19919482,-0.41277215,-0.34020928,0.060028203,-3.0782228,0.62519354,0.00018540207,-0.17777435,0.04532383,0.002006389,-0.0026237464,0.010464508,0.0067538554,0.43572718,-1.3844101,1.9074796,-2.0921748,-1.5711788,2.410945,-0.22333218,0.23333204,-0.2900167,0.04598676,-0.0026119333,-0.22992913,-0.076614454,0.114921674,-9.423578,0.95226496,47.672558,-1.2420287,-2.0427783,-3.417033,-0.015456988,-0.011352054,-0.20593333,28.625,29.6875,28.9375,33.0,35.4375,36.5
0.3700549,0.16073197,0.11667869,-0.22218974,-0.020634238,0.015145397,-0.21248017,-0.41311747,-0.34012327,0.06002221,-3.0782363,0.62512404,0.00018141339,-0.1798142,0.046154134,0.0027069056,-0.0030999905,0.011061704,0.002245192,0.43529394,-1.3839294,1.9069046,-2.0920784,-1.5711788,2.410467,-0.22635232,0.23446904,-0.2933961,0.047486223,-0.0024314204,-0.22843975,-0.28730422,0.19153613,-9.308657,0.92093146,47.66987,-1.1231307,-1.9500303,-3.4001162,-0.0022517422,-0.011445847,-0.19503284,28.625,29.6875,28.9375,33.0,35.4375,36.5
0.3720542,-1.2288544,-0.6034147,-0.5090203,0.02814707,-0.006724547,-0.19405459,-0.41346627,-0.3400167,0.06003926,-3.0782218,0.6251646,0.00022847582,-0.18107124,0.04716576,0.0037066888,-0.0025501086,0.01063136,-0.007868623,0.4348373,-1.3835088,1.9063424,-2.0919573,-1.5712026,2.4100378,-0.22873837,0.23452573,-0.2967062,0.051360596,-0.0027356609,-0.2207108,-0.2681506,0.17238252,-9.346964,0.8940802,47.691364,-1.0458475,-1.9288054,-3.3568468,-0.024962887,-0.0066755493,-0.2614618,28.625,29.6875,28.9375,33.0,35.4375,36.5
0.37405476,-0.82774657,0.12377434,-0.35554916,0.011555744,0.01984199,-0.2060281,-0.41384125,-0.33994392,0.060052905,-3.078258,0.6252715,0.00025071573,-0.18182115,0.047124106,0.0040742676,-0.0024165488,0.01118824,-0.013799782,0.4343811,-1.383016,1.9057082,-2.0918615,-1.5711664,2.409644,-0.22882752,0.23537566,-0.29884368,0.052210487,-0.0030781266,-0.2148677,-0.22984336,0.038307227,-9.346964,0.9567419,47.675243,-0.99548036,-1.949009,-3.3588262,-0.0010977192,0.0066777393,-0.35721195,28.625,29.6875,28.9375,33.0,35.4375,36.5
