Tylouw/Master_Thesis_Code/training_data/batch_1/small_rod_t0.3/sample_33_session_2.csv
timestamp[s],tcp_force_x[N],tcp_force_y[N],tcp_force_z[N],tcp_force_rx[Nm?],tcp_force_ry[Nm?],tcp_force_rz[Nm?],tcp_pose_x[m],tcp_pose_y[m],tcp_pose_z[m],tcp_pose_rx[rot_vec_x],tcp_pose_ry[rot_vec_y],tcp_pose_rz[rot_vec_z],tcp_velo_x[m/s],tcp_velo_y[m/s],tcp_velo_z[m/s],tcp_velo_rx[rot_vec_x/s],tcp_velo_ry[rot_vec_y/s],tcp_velo_rz[rot_vec_z/s],q1[rad],q2[rad],q3[rad],q4[rad],q5[rad],q6[rad],qd1[rad/s],qd2[rad/s],qd3[rad/s],qd4[rad/s],qd5[rad/s],qd6[rad/s],tool_acc_x,tool_acc_y,tool_acc_z,current_of_whole_robot[A],voltage_of_whole_robot[V],current_J1[A],current_J2[A],current_J3[A],current_J4[A],current_J5[A],current_J6[A],temp_J1[C],temp_J2[C],temp_J3[C],temp_J4[C],temp_J5[C],temp_J6[C]
7.789931e-07,-0.6103126,-0.4725657,1.0101393,-0.0022774462,-0.0046886555,-0.01881506,-0.3810582,-0.34853846,0.059970412,-3.078534,0.6248996,-0.00017238542,0.0020948376,0.0010819132,-0.0019988804,0.0019272988,-0.004030033,2.5705722e-05,0.4778101,-1.425934,1.9577154,-2.100845,-1.5707458,2.452776,-8.1039e-05,-1.29074415e-05,0.0046131276,-0.00013584961,0.00015128838,-0.00010931381,0.05746084,0.038307227,-8.810662,0.7642693,47.69763,0.09259773,-2.767229,-2.504585,-0.44490027,0.14179313,0.06262772,28.4375,29.5625,28.875,32.875,35.25,36.3125
0.002052078,-0.49193856,-0.1505042,1.0890502,-0.0030516456,0.0010784287,-0.029552173,-0.3810551,-0.3485529,0.05997228,-3.0785487,0.62486476,-0.00012906888,-0.00059179513,-0.0003179823,-0.0030614347,-0.0012299545,0.002021322,2.7980488e-05,0.47784612,-1.4259324,1.9577159,-2.1008732,-1.5707573,2.4527884,-7.984092e-05,0.0040171375,0.0050091767,-0.01138741,0.00014716855,-0.00010767906,0.095768064,0.05746084,-8.734048,0.7329411,47.70211,0.035951663,-2.7837052,-2.570173,-0.4131329,0.15969998,0.07378628,28.4375,29.5625,28.875,32.875,35.25,36.3125
0.00405266,-0.20474115,-0.41584292,1.2870569,0.0030288578,0.006060947,-0.026146008,-0.38107273,-0.34853297,0.05996165,-3.0785306,0.62482244,-0.00011937524,-0.0016846117,-0.0008866656,-0.0026621039,-0.0025448287,0.0045526074,1.7103415e-05,0.4778101,-1.4259083,1.9577154,-2.1008852,-1.5707816,2.4527283,-7.867769e-05,0.0045405417,0.00405025,-0.013804294,0.00014326397,-9.458081e-05,0.05746084,0.1340753,-8.7532015,0.7978386,47.703903,0.07146096,-3.1667724,-2.6746852,-0.2863488,0.13401096,0.061987907,28.4375,29.5625,28.875,32.875,35.25,36.3125
0.006051737,-0.26451203,0.1697595,0.9909191,0.012608904,-0.01283302,-0.024679987,-0.38105518,-0.34852383,0.059956428,-3.0785117,0.62491494,-0.000119414275,-0.0011351616,-0.00059939455,-0.0016181872,-0.0016898814,0.0029275892,5.24043e-06,0.4778101,-1.4259449,1.957774,-2.100907,-1.5707816,2.4527884,-7.754784e-05,0.002907342,0.0023495636,-0.0086342245,0.00013956109,-8.201913e-05,0.0,0.19153613,-8.7532015,0.7486078,47.675243,0.039823532,-3.0931654,-2.6358185,-0.31952226,0.17454249,0.042538352,28.4375,29.5625,28.875,32.875,35.25,36.3125
0.008051686,0.30499008,0.683837,0.23473221,0.042580944,-0.03821898,-0.022616139,-0.38106948,-0.34852886,0.059948534,-3.0785093,0.6249337,-0.0001466898,-0.00057429954,-0.00030571193,-0.00018712733,-0.0013597525,0.0023157783,3.358495e-06,0.47779807,-1.4258981,1.9577383,-2.1009057,-1.5707697,2.4527884,-7.6449964e-05,8.2215294e-05,0.0012467853,-0.0040111984,0.0001360449,-7.985554e-05,0.0,0.1340753,-8.925584,0.73741806,47.682407,0.07906801,-2.9435964,-2.528266,-0.3688957,0.15589273,0.054396853,28.4375,29.5625,28.875,32.875,35.25,36.3125
0.010053119,0.1681999,0.15362029,0.012671025,0.060392026,-0.034907296,-0.026182607,-0.38103664,-0.3485205,0.059925195,-3.0784788,0.6249475,-0.0002587794,-0.00026134984,-0.00014213241,-0.0001255791,-0.00074467843,0.0011424117,2.8342267e-06,0.47779807,-1.4258981,1.957786,-2.1008809,-1.5707458,2.4528008,-7.538278e-05,1.1030231e-06,0.0007700506,-0.0021285461,0.00013270167,-7.841777e-05,0.076614454,0.114921674,-9.193734,0.7486078,47.691364,-0.23380622,-2.2688305,-3.2558722,-0.3619901,0.10184726,0.032794394,28.4375,29.5625,28.875,32.875,35.25,36.3125
0.012052009,0.26424134,0.03060213,-0.04310172,0.017077835,-0.01278516,-0.03186668,-0.38105512,-0.34852594,0.0599184,-3.0784972,0.6248159,-0.00024639867,-0.002033088,-0.0010408066,-0.00083140127,3.5753066e-05,-0.00031192595,1.7499555e-07,0.47779807,-1.4258485,1.9577478,-2.1008933,-1.5707573,2.4527164,-0.000101394304,0.006213771,-0.0049642543,-0.00095647294,9.8766664e-05,-9.805753e-05,0.076614454,0.1340753,-9.32781,0.6725152,47.666286,-0.45968926,-2.1271887,-3.342926,-0.33479053,0.09304985,-0.041278172,28.4375,29.5625,28.875,32.875,35.25,36.3125
0.014051971,-0.5172772,-0.74913234,-0.4053327,-0.0058875103,0.00031748172,-0.02583258,-0.38105395,-0.34850615,0.059915926,-3.0784354,0.62490165,-0.00029962705,-0.003751287,0.0010799102,-0.0045097833,0.0052851285,-0.010377977,-0.0044227,0.47777203,-1.425844,1.957734,-2.1008303,-1.5707697,2.4527516,-0.0054493085,0.017195504,-0.01039349,0.004843536,6.690803e-05,-0.0010197158,0.019153614,0.17238252,-9.385271,0.8537928,47.74331,-0.35513508,-2.943784,-3.073514,-0.35076988,0.058224298,-0.049995255,28.4375,29.5625,28.875,32.875,35.25,36.3125
0.016051807,-0.7213228,-1.5951059,-0.46678606,-0.029364247,0.036229674,-0.032913707,-0.38104326,-0.34850004,0.059881303,-3.0784035,0.62483406,-0.00038678802,-0.004221902,0.002876832,-0.003848451,0.005902546,-0.011158618,0.0008924755,0.47777104,-1.4257851,1.9577459,-2.1008298,-1.5707697,2.4527125,-0.008956959,0.014986434,-0.010028945,0.007664362,-0.00011923599,-0.009843291,-0.1340753,0.3256114,-9.500193,0.75084364,47.705692,-0.12425034,-2.7412405,-3.322752,-0.37908053,0.049568765,0.00010220648,28.4375,29.5625,28.875,32.875,35.25,36.3125
0.018052418,-1.2840862,-1.7217278,-0.4161052,-0.049120057,0.061992418,-0.04700891,-0.38104632,-0.3485016,0.059884608,-3.0783777,0.6248452,-0.00042922073,-0.0049080197,0.0024421255,-0.0030884543,0.006740644,-0.008900817,0.0059939874,0.47777152,-1.425761,1.9576973,-2.1007698,-1.5707706,2.4527233,-0.007657495,0.015217268,-0.012074284,0.007865095,-0.0019077779,-0.0136408005,-0.2681506,0.30645782,-9.615114,0.7486078,47.698532,-0.32024822,-2.4452887,-3.499171,-0.365914,0.023858324,0.038964383,28.4375,29.5625,28.875,32.875,35.25,36.3125
0.020052223,-1.7595314,-1.9298432,-0.45036575,-0.038846985,0.06977101,-0.05389047,-0.3810715,-0.34848762,0.059876207,-3.0783818,0.62486506,-0.00041438773,-0.0057290094,0.0025608724,-0.0031283367,0.007643851,-0.008866285,0.0060023787,0.4777234,-1.4257365,1.9576968,-2.100806,-1.5707706,2.452687,-0.008095911,0.01684053,-0.013987674,0.008542633,-0.0027288795,-0.014084943,-0.45968673,0.36391866,-9.730036,0.73069996,47.67614,-0.46182412,-2.3439376,-3.4619334,-0.3440153,0.010587301,0.043729074,28.4375,29.5625,28.875,32.875,35.25,36.3125
0.022052215,-1.8553218,-1.137703,-0.70866233,-0.040872585,0.071905844,-0.07186464,-0.38105476,-0.34849417,0.059854906,-3.0783556,0.6247839,-0.0005555183,-0.0070934636,0.0023625947,-0.0029399013,0.0076526804,-0.0087303985,0.005041929,0.47773498,-1.4256756,1.9576596,-2.1007335,-1.5707468,2.4526513,-0.008959223,0.01912901,-0.017214168,0.009364688,-0.0028054137,-0.013985558,-0.53630114,0.45968673,-9.672575,0.7553206,47.65106,-0.44978145,-2.4656658,-3.4916663,-0.33656004,-0.00082277216,0.020307047,28.4375,29.5625,28.875,32.875,35.25,36.3125
0.024051802,-1.8130766,-0.90604794,-0.87360597,-0.031124424,0.05769336,-0.07864204,-0.38105068,-0.34849432,0.059832502,-3.0783198,0.62472004,-0.00061991793,-0.00730111,0.0032287173,-0.0035567977,0.008495025,-0.011688505,0.0031980742,0.4777464,-1.4256152,1.9576362,-2.1007087,-1.5707582,2.4526274,-0.011092009,0.020583741,-0.017994579,0.01170215,-0.00219058,-0.014275455,-0.57460845,0.36391866,-9.80665,0.7777002,47.689575,-0.4840699,-2.4717135,-3.5307624,-0.32875317,-0.006348226,0.006437917,28.4375,29.5625,28.875,32.875,35.25,36.3125
0.026051793,-1.8577774,-1.1090364,-0.8750171,-0.023003032,0.036327023,-0.08279511,-0.3810704,-0.34848627,0.059832793,-3.0783002,0.62469757,-0.00063501694,-0.00860092,0.0031635012,-0.002552817,0.007885458,-0.010537641,0.0016861358,0.4777219,-1.4255794,1.9575866,-2.1006725,-1.5707706,2.4525914,-0.012185236,0.02080362,-0.020842087,0.013027315,-0.002181842,-0.013855507,-0.5554548,0.30645782,-9.825804,0.7396539,47.675243,-0.4953845,-2.3840024,-3.511866,-0.33846003,-0.057260733,-0.012018865,28.4375,29.5625,28.875,32.875,35.25,36.3125
0.028051648,-1.5678538,-1.1017334,-0.97483605,-0.011775894,0.040959474,-0.0971745,-0.38111222,-0.3484632,0.05983748,-3.0782552,0.6248045,-0.00055942056,-0.010099378,0.0041714245,-0.0021083388,0.009894168,-0.0091034975,0.000551915,0.47767344,-1.4255552,1.9575509,-2.100684,-1.5708188,2.4526155,-0.013774125,0.021458678,-0.022829976,0.014017993,-0.004627617,-0.014304167,-0.63206923,0.30645782,-9.80665,0.83365434,47.690468,-0.5880841,-2.3746748,-3.478007,-0.32268727,-0.08041936,-0.02502234,28.4375,29.5625,28.875,32.875,35.25,36.3125
0.030052546,-1.5129215,-0.5795378,-0.5951187,-0.01017847,0.05649385,-0.11950492,-0.38114515,-0.3484746,0.059822194,-3.0782635,0.62484455,-0.00067508395,-0.012511023,0.005044013,-0.0014336613,0.012281442,-0.0062097246,-0.0005639329,0.47762498,-1.4254467,1.9574541,-2.1006486,-1.5707601,2.452591,-0.015309808,0.023090435,-0.026325656,0.01442248,-0.008086103,-0.014714401,-0.61291564,0.21068975,-9.80665,0.7665104,47.691364,-0.52244425,-2.3555264,-3.425124,-0.3497727,-0.048540328,-0.029140078,28.4375,29.5625,28.875,32.875,35.25,36.3125
0.032051597,-1.4300933,-0.17604451,-0.4713992,0.008788456,0.08075981,-0.13642173,-0.38116485,-0.3484488,0.05981936,-3.0781949,0.6247927,-0.000673577,-0.013602474,0.0058313077,-0.001798589,0.014567084,-0.00571127,-0.00092032226,0.47760057,-1.42541,1.957405,-2.100588,-1.5708212,2.452543,-0.016249582,0.024968397,-0.027644575,0.014478364,-0.010349225,-0.015291466,-0.49799395,0.17238252,-9.768343,0.72622824,47.690468,-0.5021697,-2.3804579,-3.493195,-0.34247452,-0.06218514,-0.034436133,28.4375,29.5625,28.875,32.875,35.25,36.3125
0.034051985,-1.3122056,0.41222736,-0.42518058,0.015800064,0.08699965,-0.14299937,-0.38119203,-0.34846297,0.059821837,-3.0782356,0.6247433,-0.000615163,-0.014747789,0.0056303223,-0.001428437,0.014749702,-0.0037957698,-0.0014410322,0.47760057,-1.425374,1.9573692,-2.1006362,-1.5708212,2.452507,-0.016271567,0.025971686,-0.02945154,0.013668743,-0.011396555,-0.014789751,-0.40222588,0.019153614,-9.710882,0.78217715,47.668976,-0.57553774,-2.3639388,-3.5090861,-0.33758527,-0.062136434,-0.03621331,28.4375,29.5625,28.875,32.875,35.25,36.3125
0.036052108,-1.2256781,0.32155743,-0.22396716,0.03239907,0.07239199,-0.15426895,-0.38123292,-0.34845242,0.05983719,-3.078189,0.62485045,-0.00063060067,-0.016836444,0.0056185294,-0.00046388898,0.014963278,-0.00071041315,-0.0029231748,0.47755226,-1.4253258,1.95726,-2.1005523,-1.570834,2.4525316,-0.017132413,0.027011383,-0.03275816,0.013298935,-0.013012658,-0.014162771,-0.4405331,0.019153614,-9.576807,0.7709874,47.687782,-0.60173124,-2.3319716,-3.457357,-0.32039636,-0.07553175,-0.051525492,28.4375,29.5625,28.875,32.875,35.25,36.3125
0.03805194,-1.4630696,0.43589798,-0.24000256,0.034366082,0.042366747,-0.15915956,-0.38125443,-0.34844095,0.059828077,-3.0781522,0.62486297,-0.0006341701,-0.018295461,0.005989415,0.00015682056,0.016250907,0.001329255,-0.0040628514,0.47752807,-1.4252776,1.9572233,-2.1005409,-1.5708588,2.45252,-0.01778644,0.027772851,-0.035137724,0.013704356,-0.015098001,-0.013671001,-0.45968673,-0.11492168,-9.576807,0.7620334,47.698532,-0.62375134,-2.293161,-3.3815904,-0.3168251,-0.047348924,-0.050389796,28.4375,29.5625,28.875,32.875,35.25,36.3125
0.0400516,-1.2744657,0.12655982,-0.44770178,0.040009223,0.020678563,-0.16038644,-0.38129672,-0.34840706,0.059828687,-3.078099,0.6248516,-0.0005898597,-0.019461177,0.0061436933,0.00012849706,0.016565248,0.0018862081,-0.004871015,0.47746772,-1.425241,1.9571747,-2.1005166,-1.5709189,2.4524593,-0.01878728,0.029424267,-0.036902275,0.013467449,-0.015638158,-0.013861101,-0.28730422,-0.076614454,-9.615114,0.7418897,47.67614,-0.5524666,-2.3187082,-3.3233705,-0.31714886,-0.050528537,-0.08987588,28.4375,29.5625,28.875,32.875,35.25,36.3125
0.042052437,-0.66956794,0.5083343,-0.32891887,0.021635335,0.018426582,-0.18325682,-0.38132328,-0.34843615,0.059817567,-3.0781024,0.6248142,-0.00065834937,-0.02042105,0.0062040295,0.00049473555,0.016470222,0.0019627186,-0.005725779,0.47747928,-1.425121,1.957055,-2.1004803,-1.5708951,2.4524472,-0.019812532,0.03038996,-0.039098874,0.014587024,-0.01559164,-0.0140300905,-0.34476504,-0.076614454,-9.5385,0.71279734,47.660015,-0.5312991,-2.2823923,-3.4050517,-0.3167472,-0.059176408,-0.09263258,28.4375,29.5625,28.875,32.875,35.25,36.3125
0.044051636,-0.3118583,-0.31740957,-0.33062226,0.017785715,0.021836057,-0.18487357,-0.38138953,-0.34842187,0.059843678,-3.078098,0.6248315,-0.0005111776,-0.021212045,0.0057430416,0.00073284557,0.015658734,0.001943196,-0.0054973736,0.47743133,-1.4250964,1.9569701,-2.1004922,-1.5709547,2.4524107,-0.020194722,0.031767532,-0.04132596,0.015076559,-0.014865272,-0.014642151,-0.24899697,0.0,-9.5385,0.79560274,47.689575,-0.59743285,-2.2926881,-3.3698199,-0.305,-0.049141258,-0.10276356,28.4375,29.5625,28.875,32.875,35.25,36.3125
0.046052676,-0.24875468,-0.9929704,-0.48334825,0.0169828,0.026905326,-0.19108884,-0.38140282,-0.34837696,0.05981634,-3.0779932,0.6249263,-0.0006447317,-0.022382384,0.005874966,0.0013037068,0.015780143,0.0028760403,-0.0061769676,0.4773469,-1.4250362,1.9569448,-2.1004083,-1.5709666,2.4523988,-0.021158332,0.03244338,-0.04358795,0.015890349,-0.015407116,-0.014922077,-0.17238252,0.095768064,-9.653421,0.7597976,47.63315,-0.5662702,-2.2230828,-3.3953218,-0.28319645,-0.07063233,-0.12828298,28.4375,29.5625,28.875,32.875,35.25,36.3125
0.048052542,-0.39527512,-0.5668493,-0.52740157,-0.0015386449,0.028302807,-0.21088395,-0.38145402,-0.34838274,0.05985379,-3.0780325,0.6249159,-0.00057189044,-0.02363457,0.0066697723,0.001956084,0.017218154,0.00402424,-0.0068673976,0.4773104,-1.4250242,1.956837,-2.1003716,-1.5709676,2.4523509,-0.022553084,0.03262093,-0.045622837,0.017394172,-0.017212635,-0.015622519,-0.11492168,0.22984336,-9.615114,0.7597976,47.690468,-0.5142332,-2.1472778,-3.3654351,-0.29480517,-0.047899716,-0.12635149,28.4375,29.5625,28.875,32.875,35.25,36.3125
0.05005172,-0.69512296,-0.707886,-0.32479393,-0.008639845,0.025058597,-0.2237741,-0.3815302,-0.34837326,0.059851535,-3.077983,0.62496346,-0.00049841637,-0.024597226,0.007218859,0.0017591835,0.018671114,0.003544436,-0.007405201,0.47726208,-1.4249038,1.956705,-2.1003716,-1.5710276,2.4523387,-0.023719525,0.03448852,-0.047573313,0.018572534,-0.018284824,-0.016247937,-0.095768064,0.30645782,-9.615114,0.82022345,47.690468,-0.5001383,-2.1504607,-3.4205313,-0.3207811,-0.026037766,-0.1551488,28.4375,29.5625,28.875,32.875,35.25,36.3125
0.052052516,-1.0102824,-1.3366402,-0.32879528,-0.0052313623,0.0090901265,-0.21576777,-0.38154498,-0.34834525,0.059824485,-3.0778809,0.6249228,-0.0005573296,-0.025140785,0.0074758376,0.0012299696,0.020069504,0.0017405975,-0.007317219,0.4772379,-1.424819,1.9566563,-2.1003106,-1.5710882,2.4523022,-0.024409492,0.03707275,-0.049724672,0.020383986,-0.018701244,-0.017022017,-0.076614454,0.28730422,-9.576807,0.7530795,47.65912,-0.5485225,-2.1698263,-3.4073272,-0.3151708,-0.05359757,-0.15043569,28.4375,29.5625,28.875,32.875,35.25,36.3125
0.05405178,-0.56822073,-1.2807772,-0.53648025,-0.027527893,0.009227494,-0.23255837,-0.38160017,-0.34834033,0.05985501,-3.0778852,0.62501913,-0.0005135029,-0.025903251,0.0070689586,0.0015687809,0.019328842,0.0024387792,-0.006221112,0.4771778,-1.4247948,1.9565481,-2.1002629,-1.5710877,2.4523017,-0.024603756,0.037913848,-0.051438965,0.020293873,-0.018368756,-0.018312816,-0.17238252,0.38307226,-9.576807,0.76874626,47.667187,-0.54422164,-2.1913102,-3.3710432,-0.32343388,-0.023665238,-0.15723401,28.4375,29.5625,28.875,32.875,35.25,36.3125
0.056051668,-0.49037883,-1.8621494,-0.45507902,-0.028880686,0.010610498,-0.22082587,-0.38170305,-0.34833345,0.059902504,-3.0778747,0.6250174,-0.0003534069,-0.02738019,0.007082313,0.0027352206,0.01883704,0.005292572,-0.006165612,0.4771175,-1.4247229,1.956344,-2.1002033,-1.5711602,2.452242,-0.025415385,0.03742788,-0.053503633,0.02008386,-0.01924704,-0.019178338,-0.076614454,0.38307226,-9.615114,0.74413085,47.690468,-0.4935056,-2.037531,-3.4789045,-0.2970694,-0.043062247,-0.18085422,28.4375,29.5625,28.875,32.875,35.25,36.3125
0.058052465,-0.56197107,-1.6075203,-0.23783861,-0.045152478,0.013710083,-0.22956757,-0.3817387,-0.34832716,0.059879623,-3.0778334,0.62502706,-0.00039785806,-0.029624363,0.0065966584,0.0035306367,0.01932819,0.0072175707,-0.005491698,0.47708136,-1.4246143,1.9562696,-2.1001914,-1.5711726,2.452217,-0.025761295,0.04028857,-0.05880727,0.021045614,-0.020578325,-0.020191345,-0.076614454,0.36391866,-9.576807,0.7978386,47.689575,-0.5587662,-2.069646,-3.217734,-0.28255892,-0.015996493,-0.19284733,28.4375,29.5625,28.875,32.875,35.25,36.3125
0.06005241,-0.13482094,-1.1276976,-0.21149476,-0.04669735,0.024899043,-0.2093437,-0.3817703,-0.34831217,0.05987639,-3.077794,0.62498,-0.00046207037,-0.028892748,0.007245211,0.0019157514,0.020345677,0.0039928826,-0.0046855016,0.47703317,-1.4245417,1.9561752,-2.1001074,-1.5711845,2.4521446,-0.026610492,0.041983813,-0.05701684,0.020887513,-0.020000901,-0.021847408,-0.17238252,0.4405331,-9.519346,0.77545905,47.65106,-0.56561124,-2.1204963,-3.4071245,-0.27303833,-0.00016822154,-0.18903309,28.4375,29.5625,28.875,32.875,35.25,36.3125
0.062052194,-0.28860497,-1.2164221,-0.17757808,-0.032824382,0.028688509,-0.20690328,-0.38186523,-0.34827867,0.0599037,-3.0777519,0.6251439,-0.00033037737,-0.030126194,0.0070157247,0.0015094173,0.020121489,0.0029319683,-0.0042696334,0.4769247,-1.4244927,1.9560541,-2.100095,-1.5712441,2.452144,-0.027778428,0.04528548,-0.05996577,0.021367438,-0.019320518,-0.023432037,-0.1340753,0.47884035,-9.423578,0.8112748,47.647476,-0.54862154,-2.131043,-3.3904066,-0.26310548,-0.027333021,-0.22264153,28.4375,29.5625,28.875,32.875,35.25,36.3125
0.06405235,-0.030980932,-1.1337851,-0.17493849,-0.012660399,0.03742147,-0.21044262,-0.38193497,-0.34827897,0.059912432,-3.0777524,0.62512434,-0.00027691762,-0.032228727,0.006308666,0.0028519437,0.019072633,0.0054886737,-0.0037146916,0.4768765,-1.4243964,1.9559215,-2.100083,-1.5712684,2.4520836,-0.028296886,0.046601947,-0.06468826,0.022019265,-0.019571455,-0.024502901,-0.05746084,0.38307226,-9.461885,0.7933669,47.677036,-0.5498559,-2.150788,-3.2930233,-0.25840288,-0.022931332,-0.20909971,28.4375,29.5625,28.875,32.875,35.25,36.3125
0.066052616,-0.2471832,-0.7665952,0.03875073,-0.0011641484,0.03480673,-0.20085368,-0.38195813,-0.3482977,0.05989921,-3.0777268,0.62506115,-0.00035067226,-0.032837916,0.0062936307,0.0038304275,0.01875218,0.0066155903,-0.002840453,0.47688827,-1.4242771,1.9558018,-2.1000226,-1.5712684,2.4520593,-0.02867829,0.045759115,-0.06625451,0.023280328,-0.019806962,-0.025756435,-0.05746084,0.36391866,-9.3661175,0.82022345,47.67614,-0.5308664,-2.048302,-3.1730752,-0.23967873,-0.04010817,-0.20834953,28.4375,29.5625,28.875,32.875,35.25,36.3125
0.06805307,-0.7710973,-1.1141173,-0.22144501,0.016240267,0.029434135,-0.19350326,-0.38203487,-0.34826836,0.059912696,-3.0776813,0.625012,-0.00030686654,-0.032935016,0.0063862447,0.0027246112,0.019892693,0.004393296,-0.0017469482,0.4768043,-1.4241922,1.9556578,-2.099951,-1.5713285,2.4519506,-0.028930238,0.048660543,-0.06715198,0.023770042,-0.019802839,-0.027100844,-0.19153613,0.30645782,-9.32781,0.70608455,47.691364,-0.6137967,-2.0457072,-3.3551648,-0.23994555,-0.06341686,-0.23161763,28.4375,29.5625,28.875,32.875,35.25,36.3125
0.07005184,-0.8020401,-0.84337133,0.08739054,0.0092308745,0.033966135,-0.19754246,-0.38210472,-0.348271,0.059933566,-3.0776837,0.625012,-0.00021217327,-0.035079475,0.0060421154,0.0033977036,0.019819206,0.0062655136,-0.0020766219,0.476768,-1.4241194,1.9555243,-2.0999386,-1.5713648,2.451914,-0.029774413,0.051075302,-0.07150303,0.024010006,-0.020604823,-0.027611978,-0.11492168,0.28730422,-9.289503,0.83813137,47.683304,-0.68443406,-2.1142926,-3.1432552,-0.19662091,-0.039534364,-0.22379997,28.4375,29.5625,28.875,32.875,35.25,36.3125
0.07205171,-0.41024804,-0.71077967,0.135618,0.0050936043,0.040042054,-0.20090772,-0.382182,-0.34825084,0.05994629,-3.0776377,0.62505907,-0.00019295738,-0.035269782,0.006151156,0.0030146025,0.020942388,0.005207387,-0.00085304095,0.47668397,-1.424023,1.9553689,-2.0998666,-1.5714005,2.4518654,-0.029803522,0.052669466,-0.07268761,0.025054121,-0.02111909,-0.028862603,-0.15322891,0.17238252,-9.251195,0.7150385,47.689575,-0.6700779,-2.1174564,-3.2009094,-0.1998543,-0.08287075,-0.2394445,28.4375,29.5625,28.875,32.875,35.25,36.3125
0.074051954,-0.7805699,-0.5450716,0.15871383,0.009099477,0.03166576,-0.19810583,-0.38224563,-0.3482479,0.05995172,-3.0775971,0.62505037,-0.00021207474,-0.036215298,0.0058584944,0.0032848967,0.021002106,0.005775639,0.0005987355,0.476636,-1.4239028,1.9552001,-2.0997827,-1.5714253,2.4518173,-0.02994368,0.054134835,-0.075086236,0.025507998,-0.021439573,-0.030451719,-0.21068975,0.15322891,-9.3661175,0.7463667,47.66539,-0.7678944,-2.0636265,-3.1379285,-0.1733174,-0.0713745,-0.2631707,28.4375,29.5625,28.875,32.875,35.25,36.3125
0.07605179,0.039456066,-0.10108394,0.27486646,0.0031491013,0.048861157,-0.20495142,-0.3823272,-0.34823853,0.0599497,-3.0775957,0.6250496,-0.00018602997,-0.037316352,0.005883918,0.003692417,0.02134173,0.0066837445,0.0013323167,0.47655177,-1.4237826,1.9550675,-2.0997822,-1.5714372,2.4517329,-0.030527703,0.05517592,-0.07733882,0.026067749,-0.022162585,-0.03176675,-0.24899697,0.17238252,-9.32781,0.8179876,47.660015,-0.7726544,-2.1056275,-3.1745582,-0.1777999,-0.05813225,-0.24145907,28.4375,29.5625,28.875,32.875,35.25,36.3125
0.0780525,-0.8332782,-0.2605758,0.2646725,0.014000559,0.032382168,-0.19817257,-0.38239965,-0.34823832,0.05996563,-3.0775728,0.6250447,-0.00011174697,-0.038108896,0.006020669,0.0033777426,0.02268623,0.0063372543,0.0020602087,0.47651577,-1.4236859,1.9549125,-2.099746,-1.5714854,2.4516969,-0.030823255,0.057436224,-0.07935909,0.026752872,-0.023201404,-0.032787096,-0.30645782,-0.038307227,-9.232041,0.8090337,47.66539,-0.78053695,-2.0736482,-3.0323272,-0.12910551,-0.07616518,-0.2569275,28.4375,29.5625,28.875,32.875,35.25,36.3125
0.08005239,-0.87864625,-0.43029892,0.27457538,0.027598722,0.03174447,-0.19012253,-0.38249823,-0.34822696,0.059984956,-3.0775383,0.6250559,-2.3921892e-05,-0.038946625,0.0061803595,0.0034279025,0.023772085,0.0059042,0.0023511297,0.47644362,-1.4235655,1.9547199,-2.0996974,-1.5715455,2.4516363,-0.03137322,0.05919469,-0.08185348,0.028369999,-0.023969589,-0.033625606,-0.22984336,0.095768064,-9.212888,0.800085,47.684196,-0.8729137,-2.1413467,-3.0854325,-0.124013305,-0.05919178,-0.2869571,28.4375,29.5625,28.875,32.875,35.25,36.3125
0.08205253,-0.66330296,0.28115928,0.25239983,0.016607702,0.035574857,-0.20421882,-0.3825589,-0.34822467,0.05998975,-3.077518,0.6248969,-3.3090433e-05,-0.039568707,0.0063545248,0.0033738536,0.024393098,0.004933266,0.0023973323,0.47640732,-1.4234452,1.9545525,-2.0996134,-1.5715822,2.4515035,-0.032180797,0.060729906,-0.0838547,0.029981084,-0.024078926,-0.03447734,-0.24899697,0.17238252,-9.308656,0.7418897,47.672558,-0.8894786,-2.106248,-3.048689,-0.11841532,-0.08598508,-0.27898616,28.4375,29.5625,28.875,32.875,35.25,36.3125
0.08405195,-0.43714657,0.105283916,0.21123222,0.015982788,0.041947454,-0.20485406,-0.38262704,-0.34822232,0.059976995,-3.0774493,0.6249405,-2.9144845e-05,-0.040105667,0.006243273,0.0036621771,0.024755167,0.0047326675,0.0023219895,0.47637117,-1.4232892,1.9543952,-2.0995772,-1.5716299,2.4515035,-0.03232253,0.061672214,-0.08593385,0.0314605,-0.024311274,-0.034541465,-0.3256114,0.21068975,-9.251195,0.7486078,47.66091,-0.9498419,-1.9931293,-3.0688891,-0.09946196,-0.102535024,-0.29886177,28.4375,29.5625,28.875,32.875,35.25,36.3125
0.08605195,-0.5029076,-0.40683064,0.20866059,0.016330551,0.034493513,-0.19679053,-0.38270804,-0.3481902,0.05998959,-3.077405,0.6249702,-1.2082826e-05,-0.04010708,0.0067832563,0.0014549928,0.027634941,-0.00046960515,0.0030930913,0.47626296,-1.4232031,1.9542516,-2.0995047,-1.5716661,2.4514196,-0.033162456,0.06718603,-0.087686,0.033637512,-0.024486966,-0.036150403,-0.3256114,0.17238252,-9.308656,0.7239871,47.63852,-0.98382723,-2.2367978,-3.1064723,-0.08791296,-0.107190534,-0.3111431,28.4375,29.5625,28.875,32.875,35.25,36.3125
0.08805195,-0.4448836,-0.69968677,0.10514335,0.008822213,0.044268154,-0.19002286,-0.38281503,-0.34818307,0.060008723,-3.0773523,0.6249968,4.6930043e-05,-0.041050687,0.006924305,0.0035958623,0.02678092,0.0028114042,0.004547371,0.47619057,-1.4230481,1.9540118,-2.0994198,-1.5717262,2.4513707,-0.03378489,0.06402128,-0.08930488,0.035110142,-0.02523479,-0.038225375,-0.30645782,0.22984336,-9.251195,0.7978386,47.68062,-0.9991262,-2.0207992,-3.1242487,-0.068210475,-0.11056192,-0.2857681,28.4375,29.5625,28.875,32.875,35.25,36.3125
0.09005174,-0.56917524,-0.5166271,0.22365679,0.0021391422,0.04224247,-0.19802226,-0.38288096,-0.34813923,0.05998472,-3.0772467,0.6249554,3.9893865e-05,-0.040843826,0.007690289,0.0022318931,0.029747823,2.3625214e-05,0.003561769,0.47610667,-1.422915,1.9539036,-2.0993712,-1.5718106,2.4512746,-0.034066856,0.066756025,-0.08964495,0.036553495,-0.026594415,-0.037516303,-0.28730422,0.15322891,-9.289502,0.84484416,47.65464,-0.9840555,-2.0137293,-3.1394606,-0.067435056,-0.11618677,-0.31046295,28.4375,29.5625,28.875,32.875,35.25,36.3125
0.09205166,-0.6951541,-0.71423775,0.13015419,-1.8574669e-05,0.039237864,-0.19666523,-0.38297737,-0.34815344,0.060029577,-3.077265,0.6248825,0.00010560717,-0.04219858,0.0073381476,0.0017768634,0.030673819,-0.001247076,0.0026730981,0.4760585,-1.4228054,1.9536513,-2.0992634,-1.5718344,2.4511788,-0.034524336,0.07110051,-0.09390885,0.03802594,-0.026839856,-0.037082937,-0.15322891,0.22984336,-9.270349,0.73069996,47.695843,-1.0008177,-2.1325321,-3.076166,-0.07016029,-0.1127494,-0.33172655,28.4375,29.5625,28.875,32.875,35.25,36.3125
0.09405177,-0.6691227,-0.9874366,0.03403297,0.004804037,0.036362723,-0.19507892,-0.3830722,-0.34813064,0.060011517,-3.0771878,0.62488484,7.914637e-05,-0.041776594,0.008225504,0.0017993465,0.031508777,-0.0022253154,0.004313866,0.47596213,-1.4226139,1.9534601,-2.0992033,-1.5718831,2.451094,-0.03550793,0.06980049,-0.0928154,0.039477963,-0.027134314,-0.03970602,-0.1340753,0.17238252,-9.270349,0.8291774,47.696735,-1.0848421,-2.0974422,-3.238442,-0.06276682,-0.13960934,-0.335778,28.4375,29.5625,28.875,32.875,35.25,36.3125
0.096052624,-0.4631364,-0.7386838,0.01232635,0.0052358625,0.03721108,-0.19261654,-0.38313133,-0.34809232,0.06000525,-3.077066,0.62487787,8.434095e-05,-0.043033365,0.008375418,0.0013048712,0.033080056,-0.0026523543,0.0051728045,0.47590208,-1.4225043,1.9533275,-2.099107,-1.5719794,2.4510453,-0.036141798,0.07318407,-0.09568836,0.040063713,-0.028345622,-0.04119197,-0.15322891,0.15322891,-9.308656,0.7866488,47.703903,-1.158107,-2.1463435,-3.240666,-0.03990528,-0.1135284,-0.33816034,28.4375,29.5625,28.875,32.875,35.25,36.3125
0.09805254,-0.38733095,-0.7346329,-0.18962759,0.008744202,0.026857946,-0.19867837,-0.3832428,-0.34810036,0.060018677,-3.0770614,0.6248368,0.00011956002,-0.042721912,0.009462998,0.00026740023,0.035085823,-0.006060282,0.006844934,0.47582945,-1.4223237,1.9530767,-2.0990465,-1.5720037,2.4509478,-0.03763129,0.07468003,-0.09556633,0.042387236,-0.028565982,-0.04435361,-0.05746084,0.17238252,-9.3661175,0.8247004,47.693153,-1.1336265,-2.0914931,-3.2044892,-0.028618641,-0.12444124,-0.33456174,28.4375,29.5625,28.875,32.875,35.25,36.3125
0.10005267,-0.33745933,-0.55857694,-0.0061074393,5.7580535e-05,0.023959145,-0.19835459,-0.38330388,-0.3480692,0.059995808,-3.0769918,0.62478477,2.3710572e-05,-0.04357692,0.009703289,-0.000154632,0.0357451,-0.00790898,0.00643177,0.47573298,-1.4221789,1.9529442,-2.098962,-1.5720271,2.4508278,-0.039000534,0.07737547,-0.09809434,0.04415911,-0.02831416,-0.04530626,-0.05746084,0.24899697,-9.404425,0.90750587,47.696735,-1.0682205,-2.1299963,-3.2786436,-0.049843393,-0.16025779,-0.31042847,28.4375,29.5625,28.875,32.875,35.25,36.3125
0.10205245,-0.113104925,-0.6751898,-0.1524462,-0.005037488,0.018577337,-0.19665451,-0.38340443,-0.34804112,0.060000032,-3.0768757,0.62478054,7.028248e-05,-0.04452214,0.009469752,-0.0001924727,0.03486371,-0.0071408562,0.005441408,0.4756607,-1.4220098,1.9527172,-2.0988553,-1.5721353,2.450768,-0.039719876,0.0786539,-0.09918899,0.042880815,-0.027891235,-0.045034014,-0.15322891,0.21068975,-9.289502,0.779936,47.6421,-1.1044985,-2.2210417,-3.3985026,-0.006887812,-0.16936916,-0.34912205,28.4375,29.5625,28.875,32.875,35.25,36.3125
0.1040518,-0.5576474,-1.1669484,-0.10995826,0.0016810546,0.011329875,-0.1960872,-0.38348922,-0.34802958,0.06000484,-3.0768232,0.62472737,9.869088e-05,-0.04432455,0.009206209,5.1720162e-05,0.035751276,-0.007130311,0.010219021,0.47560117,-1.4218658,1.952525,-2.0987823,-1.5721954,2.4506822,-0.038543884,0.078792885,-0.10020013,0.044142842,-0.028691141,-0.048632555,-0.038307227,0.15322891,-9.385271,0.80456203,47.66271,-1.2411952,-2.0981073,-3.3960683,0.020564944,-0.16398248,-0.32779044,28.4375,29.5625,28.875,32.875,35.25,36.3125
0.106051825,-0.48970425,-0.6843611,-0.079443984,-0.008849794,0.016414374,-0.19613189,-0.38358966,-0.34801832,0.0600286,-3.0767803,0.6247003,0.00015687612,-0.04555134,0.011016541,-0.0005621356,0.038243897,-0.00853387,0.009646874,0.47552797,-1.4217334,1.9522976,-2.0986865,-1.572256,2.4505978,-0.041850653,0.08057616,-0.10120751,0.04575215,-0.030268079,-0.051362492,-0.038307227,0.1340753,-9.385271,0.77545905,47.67166,-1.1233723,-2.0825381,-3.471962,0.026158268,-0.1890685,-0.29380578,28.4375,29.5625,28.875,32.875,35.25,36.3125
0.108051926,-0.34807247,-0.787456,-0.03141955,0.0054344684,0.013111932,-0.19610761,-0.3836807,-0.347976,0.060005356,-3.0766568,0.62473166,8.1028884e-05,-0.04659289,0.010658822,6.787597e-05,0.03776112,-0.009251578,0.010957752,0.47540778,-1.4215404,1.9521054,-2.0985777,-1.5723156,2.4505131,-0.042644195,0.0821615,-0.105085276,0.048448753,-0.029523855,-0.053464048,-0.038307227,0.17238252,-9.308656,0.81351066,47.66987,-1.1188809,-2.0396047,-3.3569028,0.016891744,-0.18851608,-0.28305364,28.4375,29.5625,28.875,32.875,35.25,36.3125
0.110052235,-0.742873,-0.66151816,-0.1427709,0.0053923656,-0.0024293163,-0.19460133,-0.383768,-0.34797361,0.0600151,-3.0766442,0.6246128,0.00010063734,-0.04646644,0.012598341,-0.0010890353,0.039803576,-0.012332604,0.010606237,0.47534668,-1.421396,1.9519018,-2.0985057,-1.5723518,2.4503796,-0.04569504,0.08270327,-0.10339582,0.04988476,-0.029928694,-0.056162927,-0.076614454,0.24899697,-9.346964,0.83813137,47.692257,-1.094542,-2.0671253,-3.6110005,0.009630557,-0.21989782,-0.26160014,28.4375,29.5625,28.875,32.875,35.25,36.3125
0.11205251,0.13125545,-0.31475273,0.09449852,-0.004993633,0.029255558,-0.20095702,-0.38384843,-0.34794623,0.059989464,-3.076559,0.62449753,4.1996303e-05,-0.048864406,0.010967992,0.0006053265,0.037910465,-0.008274026,0.01418047,0.47526306,-1.421203,1.9517206,-2.0984218,-1.5724119,2.4502351,-0.044868194,0.08445668,-0.10918466,0.04943509,-0.030127686,-0.058903683,-0.1340753,0.24899697,-9.3661175,0.683705,47.672558,-1.1197212,-2.0341406,-3.3762934,0.033866785,-0.23657313,-0.2098926,28.4375,29.5625,28.875,32.875,35.25,36.3125
0.11405233,-0.44834048,-0.73678184,0.037859,0.011800654,0.021082025,-0.19385314,-0.38398394,-0.34792495,0.060030956,-3.076513,0.6244658,0.00015081551,-0.04824718,0.011390441,0.00011052553,0.03997039,-0.011393115,0.016913846,0.47515514,-1.4210585,1.9514331,-2.0983007,-1.5724958,2.4501135,-0.044773526,0.08566199,-0.110249266,0.052998662,-0.03053161,-0.06154189,-0.17238252,0.22984336,-9.481039,0.86498255,47.678825,-1.2076159,-2.0025988,-3.5164084,0.026735341,-0.2386677,-0.19303706,28.4375,29.5625,28.875,32.875,35.25,36.3125
0.11605228,-0.24279864,-0.2996164,-0.13083173,0.010010142,0.03199768,-0.19872856,-0.38408816,-0.34792045,0.060043387,-3.0764837,0.62438285,0.00018171313,-0.049375106,0.012068271,0.000647523,0.04089349,-0.012280632,0.01716504,0.47508255,-1.4208901,1.9511927,-2.0982158,-1.572544,2.4499931,-0.046726506,0.08662139,-0.113342434,0.056336027,-0.030951437,-0.06374344,-0.21068975,0.21068975,-9.3661175,0.82022345,47.65912,-1.1680484,-1.8923283,-3.433395,-0.007909334,-0.27823985,-0.15120137,28.4375,29.5625,28.875,32.875,35.25,36.3125
0.11805233,-0.81344146,-0.535896,-0.33404997,0.023842739,0.018175937,-0.19562083,-0.3841579,-0.34790012,0.060037483,-3.0763924,0.6242479,0.00010520903,-0.049700014,0.0133996075,-0.00051492325,0.04375138,-0.016380835,0.016739614,0.47502163,-1.4207207,1.9509767,-2.0980585,-1.5726045,2.4498599,-0.04894228,0.089647934,-0.11496064,0.059874177,-0.031624548,-0.06552778,-0.17238252,0.17238252,-9.404425,0.8112748,47.667187,-1.0599613,-2.1196413,-3.4726949,-0.029975181,-0.30226758,-0.11508678,28.4375,29.5625,28.875,32.875,35.25,36.3125
0.12005218,-0.67351437,-0.36271754,-0.20643859,0.018130526,0.02660703,-0.19582774,-0.38425317,-0.3478663,0.06002094,-3.0763044,0.6242116,-1.8697681e-05,-0.050259545,0.013472035,0.00088334805,0.043887388,-0.015853073,0.016275398,0.47488958,-1.420517,1.9507488,-2.0979145,-1.5726284,2.4497166,-0.049327284,0.08852617,-0.117657825,0.06328179,-0.03199706,-0.06544316,-0.30645782,0.1340753,-9.576807,0.83589023,47.681515,-1.1367036,-1.8407698,-3.425527,-0.054286785,-0.30307412,-0.09164348,28.4375,29.5625,28.875,32.875,35.25,36.3125
0.122051954,-0.98005843,-0.06152885,-0.13540068,0.008169246,0.035140682,-0.19833171,-0.3843704,-0.34783053,0.060035747,-3.0762174,0.62417555,4.1725954e-05,-0.049956966,0.014422803,-0.0009488023,0.047446497,-0.021186577,0.014613291,0.47478124,-1.4203594,1.9505099,-2.0978053,-1.5727252,2.4495971,-0.05025267,0.09278043,-0.11917037,0.06690513,-0.032723516,-0.064702556,-0.49799395,0.1340753,-9.576807,0.7642693,47.627773,-1.1696582,-1.9477469,-3.438076,-0.09054831,-0.3348226,-0.072355926,28.4375,29.5625,28.875,32.875,35.25,36.3125
0.12405207,-1.1251966,-0.6531321,-0.3369321,0.016118392,0.04572581,-0.19010504,-0.38446417,-0.34779614,0.060017884,-3.076103,0.6240932,-6.0325325e-05,-0.05070596,0.014775834,0.00079773954,0.04775371,-0.019980079,0.014292408,0.47467306,-1.420144,1.9502686,-2.0976484,-1.5727853,2.4494524,-0.051009644,0.090885654,-0.121822454,0.07051402,-0.033559225,-0.06513135,-0.49799395,0.15322891,-9.557653,0.7620334,47.64121,-1.1289124,-1.7606826,-3.4676535,-0.1302532,-0.3487419,-0.042451598,28.4375,29.5625,28.875,32.875,35.25,36.3125
0.1260521,-1.3599994,-0.62793034,-0.3852925,0.013953666,0.0511473,-0.18634132,-0.38455224,-0.3477722,0.060024712,-3.0760152,0.6240588,-9.2183145e-05,-0.051334467,0.015275746,0.0006758859,0.04926497,-0.022056967,0.009388159,0.47458866,-1.4199872,1.9500407,-2.0975034,-1.5728453,2.449358,-0.05220554,0.0929024,-0.124612905,0.07382872,-0.03395398,-0.06141815,-0.36391866,0.019153614,-9.615114,0.8090337,47.62867,-1.1853309,-1.7741745,-3.4007788,-0.19155504,-0.36620995,-0.07966837,28.4375,29.5625,28.875,32.875,35.25,36.3125
0.12805207,-1.6082191,-0.3230146,-0.3835859,0.012735351,0.05041592,-0.19005692,-0.38469088,-0.34774977,0.060040314,-3.0759635,0.62402886,-2.4333585e-05,-0.052088942,0.015676124,0.0007250088,0.050724186,-0.023229515,0.007297647,0.47446838,-1.4197943,1.9497651,-2.097419,-1.5729173,2.449226,-0.05309326,0.09464906,-0.12734963,0.07652559,-0.034718897,-0.060211647,-0.38307226,0.05746084,-9.653421,0.86945957,47.675243,-1.1909368,-1.8082678,-3.3516102,-0.24564654,-0.39513034,-0.07784319,28.4375,29.5625,28.875,32.875,35.25,36.3125
0.13005245,-1.0122093,0.1997793,-0.31771326,0.00073376286,0.05773511,-0.19894178,-0.3847697,-0.34772027,0.060032815,-3.0758524,0.6239876,-0.0001923872,-0.05343184,0.016305529,0.0006711264,0.052390717,-0.023378244,0.006297215,0.47435978,-1.4196014,1.9495124,-2.0972025,-1.5729421,2.449106,-0.054500297,0.096816495,-0.13003802,0.07793914,-0.03615104,-0.060606446,-0.36391866,0.019153614,-9.595961,0.9030289,47.704796,-1.1488293,-1.7927926,-3.4396863,-0.2815926,-0.40443546,-0.09027234,28.4375,29.5625,28.875,32.875,35.25,36.3125
0.13205256,-0.9185453,-0.054088283,-0.21209453,0.010493453,0.05635447,-0.2104963,-0.38487074,-0.3476873,0.06002225,-3.0757477,0.6238716,-0.00022769044,-0.055567697,0.01653649,0.001559421,0.05257632,-0.020691434,0.0020521989,0.4742633,-1.4193969,1.9492725,-2.0970714,-1.5730265,2.4489508,-0.055942837,0.09784547,-0.13322598,0.07779595,-0.03755457,-0.05779373,-0.36391866,0.019153614,-9.595961,0.7597976,47.67166,-1.1460629,-1.7061505,-3.1787176,-0.33305413,-0.41789472,-0.1164632,28.4375,29.5625,28.875,32.875,35.25,36.3125
0.13405181,-0.95836884,0.18002844,-0.39032638,0.00948837,0.050531223,-0.20368095,-0.38499787,-0.34764788,0.060053103,-3.0756264,0.6238867,-0.00015359628,-0.05836246,0.015981339,0.0020575838,0.0523691,-0.017584708,-0.0016639542,0.47415507,-1.4192394,1.948984,-2.0969045,-1.5731472,2.4488678,-0.056693323,0.10132455,-0.13800566,0.07623904,-0.038802855,-0.054819014,-0.38307226,0.076614454,-9.653421,0.8224646,47.64837,-1.1544662,-1.7188143,-3.1411438,-0.33551392,-0.42606866,-0.14185181,28.4375,29.5625,28.875,32.875,35.25,36.3125
0.13605186,-1.431463,-0.42173713,-0.35854968,0.0054451562,0.04939679,-0.191692,-0.38513613,-0.3476202,0.060053434,-3.075525,0.62396216,-0.00019815643,-0.058962803,0.016882943,-0.0005650223,0.055842366,-0.020051043,-0.002802666,0.4740108,-1.4189974,1.9486736,-2.0967615,-1.5731958,2.4487839,-0.05754119,0.10690854,-0.138021,0.07444999,-0.04078072,-0.05451676,-0.4213795,0.038307227,-9.576807,0.86498255,47.667187,-1.2189835,-1.8537922,-3.2138236,-0.33843613,-0.42131078,-0.1639309,28.4375,29.5625,28.875,32.875,35.25,36.3125
0.13805185,-1.4047958,-1.0205436,-0.42054516,-0.003578885,0.063981235,-0.19493735,-0.3852199,-0.34757993,0.06005188,-3.0753906,0.62387794,-0.00024627062,-0.062376816,0.017893344,0.0009695149,0.05545371,-0.013825585,-0.0063003013,0.47392565,-1.4188296,1.9484447,-2.0965836,-1.5732931,2.4486637,-0.06081178,0.10629904,-0.14016506,0.07148792,-0.04329708,-0.05427387,-0.47884035,0.17238252,-9.557653,0.842603,47.687782,-1.06866,-1.8380096,-3.2397614,-0.33044475,-0.41418588,-0.20162347,28.4375,29.5625,28.875,32.875,35.25,36.3125
0.14005177,-1.6077318,-0.8672797,-0.37749064,-0.030790677,0.08108394,-0.20109837,-0.3853865,-0.34755206,0.06007486,-3.0753114,0.6239373,-0.00019624879,-0.062328074,0.017937083,-0.001458264,0.05956531,-0.016570155,-0.0045952764,0.47377038,-1.418599,1.9480981,-2.0964515,-1.5733651,2.448556,-0.05925827,0.11224224,-0.1413416,0.071037285,-0.045714255,-0.05441385,-0.4405331,0.22984336,-9.634268,0.80456203,47.63852,-1.1068842,-1.9524226,-3.3007946,-0.33028546,-0.42392164,-0.21608743,28.4375,29.5625,28.875,32.875,35.25,36.3125
0.14205267,-1.6243274,-1.3354917,-0.39126647,-0.04579588,0.09277569,-0.19806103,-0.38550577,-0.34752843,0.060086682,-3.075235,0.62384427,-0.00017038787,-0.06491935,0.017602982,0.00020170362,0.055878256,-0.009629858,-0.0061174408,0.47367367,-1.4184076,1.9478225,-2.0963218,-1.573449,2.4484112,-0.06107348,0.11038668,-0.14175889,0.06544197,-0.04562007,-0.05470429,-0.5554548,0.2681506,-9.653421,0.78217715,47.62419,-1.1646712,-1.8710495,-3.2816496,-0.27462605,-0.41324514,-0.24826936,28.4375,29.5625,28.875,32.875,35.25,36.3125
0.14405194,-1.6597778,-1.6249734,-0.22752544,-0.056707572,0.112091854,-0.20312598,-0.38562903,-0.34747738,0.06008325,-3.0750573,0.6238467,-0.00014561616,-0.06865396,0.01845773,0.0006869605,0.057016578,-0.004738594,-0.00800053,0.4735648,-1.4181904,1.9475464,-2.0961668,-1.5735949,2.448327,-0.063866496,0.113134645,-0.14535114,0.062448777,-0.04888973,-0.055594143,-0.36391866,0.30645782,-9.653421,0.8291774,47.666286,-1.1080759,-1.9125233,-3.2149153,-0.2293379,-0.4138736,-0.26662943,28.4375,29.5625,28.875,32.875,35.25,36.3125
0.14605209,-2.1678102,-1.7779851,-0.10720712,-0.041605256,0.089637496,-0.19317617,-0.385795,-0.34743482,0.060079206,-3.0749583,0.62390345,-4.172644e-05,-0.06934387,0.020194514,4.6202455e-05,0.061263736,-0.004506709,-0.008520039,0.47340834,-1.4179497,1.9472717,-2.096131,-1.5737041,2.448219,-0.06502861,0.114242665,-0.1452978,0.06301601,-0.052780524,-0.05622118,-0.47884035,0.36391866,-9.557653,0.79560274,47.64121,-1.0195507,-1.8904513,-3.4235952,-0.20427576,-0.3760354,-0.26145253,28.4375,29.5625,28.875,32.875,35.25,36.3125
0.14805213,-1.3841252,-1.2778295,0.19908586,-0.040033024,0.09051379,-0.19476776,-0.38593847,-0.3473971,0.06009275,-3.0748374,0.62387717,1.8148608e-05,-0.07113522,0.020211143,0.0003238651,0.062807664,0.00029183837,-0.0078542475,0.4732887,-1.4177331,1.9469603,-2.095989,-1.5738252,2.448099,-0.06435686,0.11548124,-0.14656074,0.05947312,-0.056359366,-0.056196902,-0.6512229,0.40222588,-9.423578,0.92093146,47.69763,-1.1590152,-1.7902725,-3.3955498,-0.16578592,-0.32695723,-0.3098946,28.4375,29.5625,28.875,32.875,35.25,36.3125
0.150052,-1.473854,-0.874131,0.23710169,-0.022930386,0.078117885,-0.20123042,-0.38610086,-0.34739277,0.06013345,-3.0748434,0.6238602,0.00010942417,-0.07335721,0.020472048,0.00018330592,0.061385464,0.0013627922,-0.010234154,0.47315562,-1.41754,1.9466242,-2.0958931,-1.5738605,2.4479547,-0.067310154,0.117931835,-0.14861925,0.057465564,-0.055593066,-0.056774285,-0.57460845,0.34476504,-9.32781,0.83813137,47.645687,-1.052212,-1.878901,-3.4938788,-0.09262922,-0.33150032,-0.32807285,28.4375,29.5625,28.875,32.875,35.25,36.3125
0.15205187,-1.0040197,-0.129909,0.34888253,7.87555e-05,0.05150078,-0.19033666,-0.3862377,-0.34732893,0.060110573,-3.0746517,0.62389815,0.000118346004,-0.07455188,0.021266555,0.00039461695,0.06349254,0.0023046453,-0.011198068,0.47301129,-1.4172875,1.94636,-2.0957735,-1.5740055,2.447859,-0.068284474,0.11899102,-0.15055656,0.058457457,-0.057909768,-0.05676837,-0.4213795,0.2681506,-9.270349,0.7396539,47.668976,-0.943728,-1.7851989,-3.503849,-0.058079597,-0.29983848,-0.35007778,28.4375,29.5625,28.875,32.875,35.25,36.3125
0.15405233,-0.6721884,-0.06072249,0.54951674,0.018794216,0.03717777,-0.1922412,-0.3864177,-0.34729156,0.06013353,-3.0745633,0.6238796,0.00027296742,-0.07604419,0.022278994,0.00022017883,0.06620114,0.0031593803,-0.012167628,0.4728669,-1.4170583,1.9460257,-2.095689,-1.5741385,2.4477148,-0.06959168,0.12101427,-0.15260303,0.0589466,-0.06071729,-0.057094626,-0.45968673,0.19153613,-9.097966,0.83365434,47.6636,-0.9512721,-1.8320601,-3.5105228,-0.019883644,-0.26554662,-0.40051347,28.4375,29.5625,28.875,32.875,35.25,36.3125
0.15605219,-0.65299153,0.5489694,0.91769373,0.025036206,0.029364195,-0.19824594,-0.3865942,-0.34725884,0.06014707,-3.0744739,0.62397677,0.00037988333,-0.07722519,0.023134014,-0.00092786376,0.0696925,0.0015686159,-0.01270834,0.4727105,-1.4168168,1.9457015,-2.095617,-1.5742353,2.447631,-0.07060471,0.12539092,-0.15532422,0.06028919,-0.06310914,-0.057556186,-0.51714754,0.17238252,-8.90643,0.8291774,47.6636,-0.9333111,-1.7680554,-3.4328158,0.0020343913,-0.23175266,-0.41756022,28.4375,29.5625,28.875,32.875,35.25,36.3125
0.15805213,-0.61743736,0.75943244,0.750286,0.047516752,0.024516987,-0.21326159,-0.3867287,-0.3472008,0.06012069,-3.0742807,0.6239535,0.00035904432,-0.078560956,0.023502931,0.001230726,0.06897084,0.004571855,-0.012094999,0.47257814,-1.4165416,1.9454135,-2.095473,-1.5743793,2.4475093,-0.071966775,0.12272517,-0.15766631,0.062273204,-0.063850984,-0.05951997,-0.3256114,0.05746084,-8.848969,0.8314132,47.67166,-0.9331229,-1.7934778,-3.4457064,0.03604214,-0.19034965,-0.4376924,28.4375,29.5625,28.875,32.875,35.25,36.3125
0.16005196,-0.8098554,0.86481977,0.6890582,0.049910862,0.023988176,-0.20566367,-0.38686588,-0.3471591,0.06012596,-3.0741818,0.62395275,0.0003772082,-0.079555996,0.02390327,0.0001538266,0.07112395,0.001231501,-0.011838683,0.4724335,-1.4163353,1.9451374,-2.095352,-1.5744632,2.4473772,-0.07329005,0.1275608,-0.16142187,0.06512867,-0.06426107,-0.06109256,-0.24899697,-0.05746084,-8.829816,0.8627467,47.639416,-0.841146,-1.9096514,-3.2752876,0.026213765,-0.16748944,-0.47403386,28.4375,29.5625,28.875,32.875,35.25,36.3125
0.16205193,-0.6923985,0.7879479,0.66235,0.04523427,0.023143085,-0.20559648,-0.38703,-0.34711152,0.06012538,-3.0740225,0.6238964,0.0004407689,-0.08138317,0.023904135,0.0017786247,0.07050618,0.003043491,-0.0080465,0.4723011,-1.4160593,1.9447893,-2.0952075,-1.5746201,2.4472306,-0.074727416,0.1275149,-0.16563092,0.06745113,-0.06456235,-0.066314705,-0.15322891,-0.038307227,-8.810662,0.8672237,47.675243,-0.84824085,-1.7020392,-3.41109,0.046062253,-0.14749515,-0.44055057,28.4375,29.5625,28.875,32.875,35.25,36.3125
0.1640522,-0.39573193,0.3815867,0.64252764,0.041089583,0.020455567,-0.19745575,-0.38720825,-0.34703326,0.0601316,-3.0738306,0.6239913,0.0005271603,-0.08106563,0.02501157,0.00047504954,0.07254532,-0.0022020945,-0.007545957,0.47210845,-1.4158182,1.944466,-2.095063,-1.5747875,2.4471223,-0.07672197,0.13015325,-0.1665778,0.071322896,-0.06400299,-0.0688082,-0.1340753,-0.11492168,-8.925584,0.83365434,47.655537,-0.808511,-1.9159216,-3.338906,0.045464985,-0.12365258,-0.4246205,28.4375,29.5625,28.875,32.875,35.25,36.3125
0.1660523,-0.12938514,0.7709891,0.5847485,0.02944286,0.02007748,-0.20882183,-0.38735607,-0.3470195,0.060140174,-3.0737584,0.62391627,0.0005061192,-0.08063944,0.025363088,0.00014426473,0.07366193,-0.0071949707,-0.0045624766,0.47198805,-1.4155535,1.9441065,-2.0949047,-1.5748471,2.4469647,-0.07774093,0.13198225,-0.16925856,0.07709607,-0.062740326,-0.07281176,-0.17238252,-0.1340753,-8.925584,0.8314132,47.675243,-0.7545191,-1.7241066,-3.2117991,-0.0066738967,-0.10520668,-0.4290644,28.4375,29.5625,28.875,32.875,35.25,36.3125
0.16805212,-0.36944395,0.30017203,0.2329722,0.037657492,-0.001473506,-0.19829166,-0.38755357,-0.34694275,0.060148645,-3.073565,0.6239287,0.00061657594,-0.08031071,0.024827614,-1.9406802e-05,0.072693534,-0.010647553,0.002950994,0.47179607,-1.4152766,1.943734,-2.0947478,-1.5750383,2.446806,-0.078002445,0.13353491,-0.17141666,0.08026777,-0.06034143,-0.08059322,-0.17238252,-0.019153614,-9.059659,0.8157518,47.689575,-0.7364811,-1.8755972,-3.1711185,-0.0019926624,-0.11101063,-0.36904752,28.4375,29.5625,28.875,32.875,35.25,36.3125
0.170052,-0.042946693,0.1404691,0.12113999,0.021884004,0.0031833262,-0.19973244,-0.3876858,-0.34687644,0.060140207,-3.073373,0.6238121,0.00055868045,-0.07987326,0.026360622,-0.00083231984,0.07471905,-0.01891344,0.0021177924,0.4716508,-1.4150234,1.9434108,-2.0945175,-1.5751814,2.446613,-0.08153846,0.13600469,-0.17440102,0.08902648,-0.058403973,-0.083295316,-0.22984336,0.0,-9.232041,0.84708,47.692257,-0.6553106,-1.8223789,-3.1360426,-0.08545272,-0.12871926,-0.30417293,28.4375,29.5625,28.875,32.875,35.25,36.3125
0.17205186,-0.040880766,-0.36641014,0.15170223,0.013418185,0.012766357,-0.19885673,-0.3878549,-0.34683198,0.060141053,-3.0732343,0.6237592,0.0005687907,-0.078012474,0.025344567,-0.0011049878,0.07513683,-0.022987576,0.009738506,0.47149572,-1.414735,1.9430393,-2.0943487,-1.575301,2.4464433,-0.07895704,0.13670945,-0.17557867,0.09327091,-0.056949794,-0.08833678,-0.30645782,0.11492168,-9.308657,0.8090337,47.70211,-0.7582663,-1.9249885,-3.2745245,-0.14469719,-0.14561984,-0.26905465,28.4375,29.5625,28.875,32.875,35.25,36.3125
0.174052,-0.4923307,-0.6525044,-0.27977422,0.00557116,0.014162989,-0.19178651,-0.3880008,-0.34679237,0.060149115,-3.0731196,0.6236948,0.00050004554,-0.077472955,0.025789123,-0.0026679896,0.076747626,-0.02959807,0.0120561905,0.47133934,-1.4144812,1.9426802,-2.0941317,-1.5753726,2.446262,-0.08021801,0.14070222,-0.17768848,0.09797132,-0.055407412,-0.09191592,-0.4213795,0.19153613,-9.308657,0.8179876,47.687782,-0.76590097,-1.8222547,-3.2387044,-0.19681582,-0.1507294,-0.17891458,28.4375,29.5625,28.875,32.875,35.25,36.3125
0.17605208,-0.7100366,-0.8544265,-0.30399865,-0.004307233,0.029912129,-0.1969625,-0.38814607,-0.34672767,0.060127202,-3.0729368,0.6236384,0.00042400046,-0.07843668,0.02656017,-0.0016714161,0.075928345,-0.030129068,0.01085488,0.47117022,-1.4141932,1.942356,-2.0939395,-1.5754923,2.4460816,-0.08302915,0.13979313,-0.17960308,0.10086473,-0.054464158,-0.09352176,-0.30645782,0.21068975,-9.404425,0.779936,47.674347,-0.6272747,-1.8193586,-3.3340414,-0.25886476,-0.17341647,-0.14320587,28.4375,29.5625,28.875,32.875,35.25,36.3125
0.17805208,-0.9536414,-1.3021072,-0.45196918,-0.017270982,0.03497412,-0.19634718,-0.3883035,-0.34667763,0.060126033,-3.0727985,0.62350976,0.000403944,-0.07737503,0.024839146,-0.0023213946,0.0756657,-0.032396916,0.01409742,0.47101575,-1.413916,1.9419969,-2.0937479,-1.5756115,2.4458652,-0.07979486,0.14231311,-0.18128219,0.10190155,-0.05322195,-0.093529515,-0.24899697,0.2681506,-9.500193,0.80679786,47.685097,-0.84300244,-1.7986822,-3.368023,-0.32207733,-0.18644708,-0.10870953,28.4375,29.5625,28.875,32.875,35.25,36.3125
0.18005203,-0.7435472,-1.2571228,-0.31816673,-0.037310086,0.054799203,-0.19553146,-0.38849038,-0.3466137,0.06014233,-3.072636,0.62353426,0.0004001903,-0.07891279,0.025348643,-0.002432264,0.07608638,-0.031425912,0.011200077,0.47081113,-1.4136392,1.9415902,-2.0935204,-1.5757321,2.4456973,-0.08150711,0.14407052,-0.18288596,0.10106051,-0.05406032,-0.09233377,-0.4213795,0.36391866,-9.519346,0.87617236,47.683304,-0.89833856,-1.8787456,-3.2919025,-0.34278113,-0.20690978,-0.090268046,28.4375,29.5625,28.875,32.875,35.25,36.3125
0.18205196,-1.023725,-2.0585754,-0.46228808,-0.032969188,0.05286501,-0.18811399,-0.388597,-0.34656748,0.06009044,-3.0724454,0.62340087,0.00015870317,-0.079727605,0.02498717,-0.0026350012,0.075556196,-0.02967622,0.008246692,0.47067901,-1.4133027,1.9412678,-2.093282,-1.5758041,2.445507,-0.081358165,0.14527771,-0.18324967,0.098420896,-0.05440738,-0.089215174,-0.22984336,0.30645782,-9.653421,0.88289046,47.709274,-0.872916,-1.834375,-3.438654,-0.34147745,-0.2067863,-0.110087916,28.4375,29.5625,28.875,32.875,35.25,36.3125
0.18405183,-1.2957109,-1.9364198,-0.49393898,-0.045843408,0.04018237,-0.1823913,-0.38877618,-0.3465001,0.06010034,-3.0722964,0.6233722,0.00015808184,-0.08204677,0.023296129,-0.0015348144,0.07065706,-0.025281716,0.002963655,0.47047478,-1.413038,1.9408954,-2.0930803,-1.5759238,2.4453046,-0.081943825,0.14633496,-0.18602455,0.09399527,-0.0520504,-0.08452359,-0.11492168,0.3256114,-9.653421,0.89631605,47.690468,-0.8896568,-1.8068019,-3.3462636,-0.3101921,-0.22716877,-0.15624392,28.4375,29.5625,28.875,32.875,35.25,36.3125
0.18605207,-0.869988,-1.8819362,-0.48526734,-0.05541567,0.039408505,-0.19558834,-0.38894418,-0.34645247,0.0600863,-3.0721133,0.62333375,0.0001490402,-0.083689176,0.022134617,-0.0026836868,0.06973002,-0.023086123,0.0013090676,0.47033128,-1.412712,1.9405125,-2.092903,-1.5760678,2.4451613,-0.08121945,0.15097083,-0.18753354,0.08848527,-0.052243024,-0.08213496,-0.05746084,0.34476504,-9.710882,0.87393653,47.668976,-0.9610669,-1.7639406,-3.440947,-0.26945066,-0.22805306,-0.17233443,28.4375,29.5625,28.875,32.875,35.25,36.3125
0.18805209,-0.38100377,-1.8135334,-0.46103832,-0.048806332,0.03608755,-0.19933996,-0.38911948,-0.34641373,0.060088832,-3.0719965,0.62340796,0.00013196786,-0.08595428,0.02197863,-0.0014413154,0.067671,-0.01679155,-0.0044158134,0.4701509,-1.4124241,1.9401406,-2.0927489,-1.5761403,2.4450428,-0.082288176,0.14984797,-0.18800107,0.08354552,-0.053266685,-0.077468365,-0.095768064,0.4213795,-9.691729,0.82694155,47.694946,-0.9464344,-1.7829111,-3.595223,-0.21291669,-0.25544202,-0.23966753,28.4375,29.5625,28.8125,32.875,35.25,36.3125
0.19005229,-0.7445604,-1.5616134,-0.60930246,-0.04630727,0.01737641,-0.186952,-0.38930973,-0.3463813,0.060101192,-3.0718815,0.6233439,0.00021424945,-0.088607214,0.02149467,-0.0014237463,0.06674098,-0.013417906,-0.004118857,0.47000656,-1.4121226,1.9397334,-2.0926068,-1.5762724,2.4448738,-0.08331998,0.15316413,-0.19106403,0.07984069,-0.05399569,-0.07878851,-0.019153614,0.3256114,-9.595961,0.8717007,47.689575,-0.90691566,-1.9580804,-3.6540723,-0.14408316,-0.2638343,-0.25269645,28.4375,29.5625,28.8125,32.875,35.25,36.3125
0.1920524,-0.23192024,-1.4199603,-0.5214311,-0.041816812,0.014119423,-0.19619639,-0.38946575,-0.3463183,0.060066894,-3.0716934,0.62334305,0.00017738035,-0.0898732,0.01994176,-0.0016194864,0.063673355,-0.012845959,-0.0036062603,0.46983862,-1.4118092,1.9394215,-2.0924757,-1.5764035,2.4447303,-0.083256826,0.15631521,-0.19376297,0.07745891,-0.05155028,-0.079243295,0.05746084,0.34476504,-9.595961,0.8179876,47.661808,-0.96074474,-1.9918213,-3.6718402,-0.08561195,-0.3078186,-0.2558688,28.4375,29.5625,28.8125,32.875,35.25,36.3125
0.19405241,-0.3338987,-1.4636742,-0.58139694,-0.021105137,-0.00881154,-0.18948859,-0.38965327,-0.34629223,0.060081497,-3.0716186,0.62327045,0.00018184159,-0.09136831,0.021153238,-0.0022186176,0.06541939,-0.014856735,-0.0075265584,0.46966955,-1.4115078,1.9390029,-2.0923069,-1.5764755,2.444526,-0.0862791,0.15943108,-0.19652176,0.07967853,-0.05220487,-0.07833738,0.0,0.34476504,-9.634268,0.90527004,47.688675,-0.88596946,-2.0258698,-3.5745406,-0.054827966,-0.33329868,-0.28934854,28.4375,29.5625,28.8125,32.875,35.25,36.3125
0.19605257,0.5420075,-0.8914326,-0.49155745,-0.015010142,0.0020956404,-0.20466098,-0.38988706,-0.34624606,0.060102537,-3.0715086,0.6233804,0.00031195147,-0.09287506,0.019483224,-0.0009483276,0.06414172,-0.0106922565,-0.004841937,0.46945435,-1.4111952,1.9385704,-2.0921996,-1.5765957,2.444394,-0.08413919,0.16051851,-0.20037256,0.07812905,-0.052971993,-0.07887605,0.095768064,0.30645782,-9.557653,0.8247004,47.705692,-0.97827137,-2.0419006,-3.4414573,-0.014333373,-0.3322606,-0.31888098,28.4375,29.5625,28.8125,32.875,35.25,36.3125
0.19805235,0.118437745,-1.2219197,-0.5420623,-0.0027414225,-0.002143446,-0.19390507,-0.39006537,-0.3462179,0.060098004,-3.071396,0.6232989,0.0002711537,-0.093958676,0.019921944,-0.0005719238,0.064817175,-0.010513341,-0.0061951918,0.46929806,-1.4108585,1.9381522,-2.0920198,-1.5766801,2.444202,-0.085397504,0.16144143,-0.20268166,0.07964954,-0.053670157,-0.078770846,0.05746084,0.2681506,-9.442732,0.87617236,47.684196,-1.0975941,-2.0787735,-3.3876917,0.03341557,-0.3393436,-0.34319985,28.4375,29.5625,28.8125,32.875,35.25,36.3125
0.20005222,-0.35034865,-0.79003894,-0.5186652,-0.015953515,-0.004887771,-0.19585508,-0.39024347,-0.3461785,0.060100496,-3.0712419,0.6232675,0.00029146645,-0.09430217,0.02156536,-0.0012019429,0.06853449,-0.014133233,-0.007920468,0.46915314,-1.4105453,1.937745,-2.0918386,-1.5768126,2.444058,-0.08748291,0.16355912,-0.20482059,0.0845662,-0.055356525,-0.07911559,0.038307227,0.34476504,-9.5385,0.8672237,47.67614,-0.84748775,-2.1319904,-3.3895798,0.009593586,-0.36834782,-0.35636353,28.4375,29.5625,28.8125,32.875,35.25,36.3125
0.20205224,-0.578696,-1.0287673,-0.3548407,-0.027321016,0.013721951,-0.19645618,-0.39042354,-0.34613848,0.060102664,-3.0710938,0.6232522,0.00030113765,-0.09450989,0.021148654,-0.0018178439,0.07106296,-0.014421025,-0.0039424687,0.46899801,-1.410232,1.9373382,-2.0916588,-1.5769337,2.443913,-0.08551127,0.16654246,-0.20701922,0.085158356,-0.057508387,-0.08110256,-0.076614454,0.38307226,-9.481039,0.88289046,47.668976,-1.1716418,-2.1554992,-3.3617563,0.04335052,-0.36381328,-0.35441983,28.4375,29.5625,28.8125,32.875,35.25,36.3125
0.20405222,-1.0408459,-1.2758384,-0.37074974,-0.0414739,0.034908045,-0.19601713,-0.39061344,-0.34609094,0.06009678,-3.0709648,0.6232425,0.00028749407,-0.09581015,0.02240396,-0.0009333845,0.07358255,-0.014174146,-0.0021620553,0.46880537,-1.4099078,1.9369425,-2.0915015,-1.5770305,2.4437315,-0.087311186,0.16672914,-0.21014982,0.0889876,-0.05989849,-0.08466226,-0.1340753,0.38307226,-9.442732,0.84484416,47.684196,-1.1277989,-2.0428936,-3.4795141,0.04555814,-0.36228395,-0.3593841,28.4375,29.5625,28.8125,32.875,35.25,36.3125
0.20605217,-1.1361485,-1.256828,-0.23275419,-0.035901442,0.047030833,-0.19093183,-0.390768,-0.3460534,0.06007123,-3.0707748,0.6231228,0.00020460942,-0.09551107,0.023815371,-0.0017506097,0.078454286,-0.017293243,0.0017973016,0.46868533,-1.4095467,1.9365357,-2.0912845,-1.5771636,2.443562,-0.087590225,0.16861294,-0.21147111,0.09337345,-0.06286983,-0.08887128,-0.21068975,0.36391866,-9.442732,0.78217715,47.67793,-1.1158563,-2.0249028,-3.4414446,0.016855609,-0.34444222,-0.33725563,28.4375,29.5625,28.8125,32.875,35.25,36.3125
0.2080521,-1.0354024,-0.7761948,-0.092153,-0.023305526,0.051509302,-0.20095795,-0.39098406,-0.34602395,0.060088713,-3.07068,0.6231373,0.00023566802,-0.09503128,0.025135197,-0.0017782748,0.082491696,-0.020443525,0.006736927,0.46849328,-1.4092103,1.9360694,-2.0911152,-1.577248,2.4433918,-0.08801434,0.16899116,-0.21321593,0.09932724,-0.06508001,-0.094218545,-0.2681506,0.24899697,-9.3661175,0.8605109,47.694054,-1.1741426,-2.0032005,-3.415596,-0.031582303,-0.33189386,-0.28405493,28.4375,29.5625,28.8125,32.875,35.25,36.3125
0.21005198,-1.080169,-1.0185001,0.018273577,0.015071282,0.048082866,-0.19014964,-0.39119455,-0.34595606,0.060097434,-3.0705144,0.6230419,0.00033158244,-0.09566867,0.026568172,-0.0018375178,0.087552555,-0.022450361,0.011041456,0.46830097,-1.4088974,1.9356507,-2.090946,-1.5774297,2.443162,-0.088724144,0.17107059,-0.21672666,0.104783595,-0.068727314,-0.099204,-0.28730422,0.19153613,-9.251195,0.82694155,47.71286,-1.1712298,-1.9107102,-3.4229608,-0.049093604,-0.31098345,-0.23991355,28.4375,29.5625,28.8125,32.875,35.25,36.3125
0.2120521,-0.61825925,0.1899908,-0.043762077,0.046811458,0.04173464,-0.20199667,-0.39142033,-0.34591356,0.06010164,-3.0703783,0.62299204,0.00037895606,-0.09546452,0.02833746,-0.0031556117,0.092810884,-0.027170729,0.014820351,0.46810856,-1.4085237,1.9351715,-2.0907762,-1.5775627,2.4429567,-0.08994062,0.17408885,-0.21840115,0.109973736,-0.07132537,-0.104177624,-0.28730422,0.076614454,-9.059659,0.842603,47.68599,-1.1240612,-2.057389,-3.4684165,-0.113119066,-0.2855801,-0.15036862,28.4375,29.5625,28.8125,32.875,35.25,36.3125
0.21405223,-0.2911544,1.3891709,0.07253526,0.08159486,0.038816005,-0.19276696,-0.39158997,-0.34588557,0.06009701,-3.0702446,0.62280864,0.00031662462,-0.09566438,0.02883108,-0.0031053463,0.09472135,-0.028988218,0.016712675,0.46797633,-1.4081753,1.9347285,-2.0905473,-1.5776709,2.4427278,-0.09036252,0.17525327,-0.2207077,0.11356633,-0.07224224,-0.10647569,-0.28730422,-0.095768064,-9.021352,0.8672237,47.668976,-1.1713442,-1.8798137,-3.4270945,-0.16260338,-0.2727273,-0.12086461,28.4375,29.5625,28.8125,32.875,35.25,36.3125
0.21605249,-0.44673607,1.8446513,0.41804487,0.086858556,0.034685623,-0.2029458,-0.3917947,-0.34582135,0.060100388,-3.0700684,0.6226555,0.0003687121,-0.09661213,0.03085132,-0.0025048326,0.099369004,-0.028071702,0.01662554,0.46779594,-1.4078391,1.934287,-2.0903432,-1.5778526,2.4424753,-0.091781855,0.17470749,-0.22220272,0.11686005,-0.07682946,-0.10776936,-0.3256114,-0.2681506,-9.021352,0.8672237,47.668976,-1.1789582,-1.9209508,-3.4292526,-0.22662994,-0.22539568,-0.058070682,28.4375,29.5625,28.8125,32.875,35.25,36.3125
0.21805269,-0.6686328,1.4346725,0.6492475,0.08960377,0.048186656,-0.18415244,-0.3919788,-0.34575066,0.060085423,-3.0698469,0.6226299,0.00025798127,-0.0989603,0.032189894,-0.0016612157,0.10055185,-0.026220506,0.011624403,0.46759093,-1.4074787,1.933843,-2.0900676,-1.5779847,2.4422839,-0.09496463,0.17535046,-0.22517772,0.11806358,-0.07874821,-0.10592157,-0.5363012,-0.38307226,-8.925584,0.8403672,47.684196,-1.1367352,-1.8737557,-3.3555899,-0.22965923,-0.1830358,-0.06298262,28.4375,29.5625,28.8125,32.875,35.25,36.3125
0.22005253,-1.1237799,1.3580525,0.53415614,0.08667832,0.06400326,-0.19129966,-0.39217076,-0.3456826,0.060059164,-3.0696099,0.6225801,0.0001702203,-0.09995816,0.030960167,-0.0010270692,0.09997766,-0.023486301,0.0107645895,0.46739942,-1.4070816,1.9333881,-2.0898168,-1.5781416,2.442093,-0.093164384,0.17666024,-0.22789772,0.11676553,-0.079494625,-0.1032394,-0.59376204,-0.4213795,-8.983045,0.90527004,47.698532,-1.1370847,-1.7526214,-3.3441935,-0.23637187,-0.18225458,-0.09015381,28.4375,29.5625,28.8125,32.875,35.25,36.3125
0.22205247,-1.7807901,0.5544239,0.36737382,0.06741192,0.07862967,-0.19563004,-0.3923893,-0.34563252,0.060085233,-3.0694277,0.622544,0.00025224485,-0.10218677,0.03142942,-0.0010377968,0.09889493,-0.02114946,0.004584022,0.4672307,-1.4067447,1.932886,-2.0895784,-1.5783213,2.441926,-0.09587123,0.17829472,-0.22914033,0.11379497,-0.07958836,-0.09975797,-0.5554548,-0.4213795,-9.078813,0.8672237,47.709274,-1.1869881,-1.7769938,-3.3431792,-0.21769622,-0.13940123,-0.09741434,28.4375,29.5625,28.8125,32.875,35.25,36.3125
0.22405174,-2.1039777,0.07607077,0.4223658,0.033805825,0.08253318,-0.20440213,-0.39259568,-0.34554234,0.060079325,-3.0692286,0.62244684,0.00027488673,-0.105036765,0.030835046,-0.00024259668,0.09589361,-0.016601335,-0.001019908,0.467002,-1.4064201,1.9324793,-2.0893762,-1.5785006,2.4416633,-0.097707614,0.17976004,-0.23174074,0.10950933,-0.07897551,-0.09598343,-0.51714754,-0.38307226,-9.059659,0.8672237,47.661808,-0.9811234,-1.9664121,-3.3562884,-0.17656122,-0.1400901,-0.13489634,28.4375,29.5625,28.8125,32.875,35.25,36.3125
0.2260519,-1.9743574,-0.6268691,0.15645204,0.02170288,0.07205594,-0.1870839,-0.39278793,-0.34548095,0.060051505,-3.0689886,0.62241685,0.00018582652,-0.10725458,0.029903622,-0.00045154706,0.09310132,-0.013891965,-0.005254374,0.4668217,-1.4060104,1.9320134,-2.0891268,-1.5786566,2.4414964,-0.0987977,0.18280688,-0.23381154,0.10484887,-0.07772623,-0.09283137,-0.7278373,-0.24899697,-9.212888,0.8717007,47.689575,-1.1386238,-1.9273419,-3.3782442,-0.121064425,-0.16107392,-0.19199322,28.4375,29.5625,28.8125,32.875,35.25,36.3125
0.22805212,-1.576352,-0.8085408,-0.18383394,0.005626766,0.06741868,-0.1980306,-0.39300418,-0.34540462,0.060052827,-3.068768,0.62241113,0.00023346841,-0.10899447,0.030369611,-0.0014385253,0.09102718,-0.014439032,-0.011523012,0.46661642,-1.4056615,1.931559,-2.0889118,-1.5788478,2.441317,-0.10244804,0.18569566,-0.23432273,0.10200713,-0.075640276,-0.0902198,-0.80445176,-0.05746084,-9.251196,0.88289046,47.667187,-0.8903665,-1.9517307,-3.4370048,-0.0669315,-0.15295854,-0.22953613,28.4375,29.5625,28.8125,32.875,35.25,36.3125
0.23005202,-1.4017944,-1.2249167,-0.7285305,-0.002432694,0.039798297,-0.1792006,-0.39322224,-0.34535587,0.060035072,-3.0686026,0.6224537,0.00022487373,-0.10941857,0.030280566,-0.0018859918,0.0900099,-0.0154355755,-0.014400186,0.46641213,-1.4052641,1.931105,-2.0887568,-1.578967,2.4411616,-0.10346862,0.18714525,-0.23495853,0.10161056,-0.07429387,-0.08836595,-0.63206923,0.0,-9.3661175,0.94331104,47.66987,-0.8341662,-1.9217997,-3.5185623,-0.040235285,-0.16746733,-0.28732443,28.4375,29.5625,28.8125,32.875,35.25,36.3125
0.23205188,-1.0278046,-1.7603596,-0.720792,-0.013958815,0.027304577,-0.18809818,-0.39343703,-0.34528515,0.06002943,-3.0683846,0.6224263,0.00017919843,-0.11106147,0.029824864,-0.0016610231,0.088442005,-0.0152293695,-0.0150572695,0.46619564,-1.4048791,1.9306134,-2.088493,-1.5791229,2.4409573,-0.104881935,0.18958452,-0.23837428,0.10165741,-0.07302383,-0.08911912,-0.63206923,0.17238252,-9.519346,0.8493211,47.675243,-0.8694797,-2.0135593,-3.5466971,0.0043521393,-0.19500789,-0.3033753,28.4375,29.5625,28.8125,32.875,35.25,36.3125
0.23405199,-1.243415,-2.1050308,-0.6587638,-0.045974374,0.032653358,-0.18530282,-0.393636,-0.345216,0.060007036,-3.0681572,0.6223979,0.00014371453,-0.11140182,0.029405158,-0.0013001309,0.08708259,-0.015695788,-0.018353134,0.4660035,-1.4044945,1.9301714,-2.0882776,-1.5792903,2.440778,-0.105296016,0.18999156,-0.2399519,0.102624916,-0.07160604,-0.08623693,-0.9002198,0.30645782,-9.5385,0.900793,47.694946,-0.7935796,-1.979155,-3.5838265,0.0125525575,-0.20527223,-0.37011236,28.4375,29.5625,28.8125,32.875,35.25,36.3125
0.23605195,-1.6493171,-2.4959915,-0.8976674,-0.052780338,0.04597803,-0.18736288,-0.39386395,-0.34514984,0.06001114,-3.067963,0.62245053,0.00014396032,-0.11091197,0.028784342,-0.0006395199,0.086188965,-0.018703612,-0.01592779,0.46577564,-1.4041224,1.9296798,-2.0880482,-1.5794338,2.4406092,-0.10505404,0.19021775,-0.24289991,0.107577346,-0.06948811,-0.088429816,-0.842759,0.47884035,-9.557653,0.83813137,47.661808,-0.82301927,-2.0812564,-3.555623,-0.008372144,-0.22546226,-0.40050653,28.4375,29.5625,28.8125,32.875,35.25,36.3125
0.23805194,-1.4528956,-2.520159,-1.0594813,-0.06795788,0.06642831,-0.19130732,-0.39406836,-0.3450713,0.059969593,-3.0677087,0.6225331,3.8420716e-05,-0.11101004,0.029547893,-0.0022519191,0.08636393,-0.023970427,-0.020222472,0.4655468,-1.4037007,1.9292382,-2.0878327,-1.5795768,2.4404662,-0.10782455,0.19371088,-0.24383095,0.10977739,-0.067296386,-0.086910285,-0.63206923,0.49799395,-9.80665,0.92764956,47.677036,-0.86919457,-2.0812418,-3.5904703,-0.027760569,-0.27662593,-0.45100406,28.4375,29.5625,28.8125,32.875,35.25,36.3125
0.24005188,-1.5148162,-2.529219,-0.43937862,-0.078606784,0.07273856,-0.19255407,-0.39430076,-0.3450437,0.05998768,-3.0675724,0.62242264,2.5480253e-05,-0.109342664,0.02856735,-0.0025371655,0.088109605,-0.031361807,-0.014836281,0.46536747,-1.4032911,1.9286622,-2.0875652,-1.579696,2.4402363,-0.105657056,0.19670916,-0.24881151,0.119090684,-0.06557116,-0.09013618,-0.51714754,0.51714754,-9.787497,0.9231726,47.69763,-0.9432049,-2.084489,-3.6049447,-0.08793749,-0.31397018,-0.4689551,28.4375,29.5625,28.8125,32.875,35.25,36.3125
0.24205175,-0.7904538,-1.9517683,-0.435617,-0.045572866,0.05347116,-0.19512634,-0.39455646,-0.34497684,0.06000883,-3.0674238,0.6225049,0.00012710474,-0.109714426,0.029753173,-0.0028592374,0.08944362,-0.035585567,-0.012810795,0.46511453,-1.4029424,1.928172,-2.0873964,-1.5798401,2.440055,-0.108415395,0.19843984,-0.25126275,0.124108925,-0.06491627,-0.094923794,-0.2873042,0.47884035,-9.519346,0.90750587,47.690468,-0.947467,-2.1176324,-3.5107868,-0.16848847,-0.34092158,-0.45491594,28.4375,29.5625,28.8125,32.875,35.25,36.3125
0.24405164,-0.68721765,-0.8836095,-0.62394136,0.005790426,0.0065215877,-0.19282818,-0.3947609,-0.34493282,0.05997418,-3.0672002,0.62246966,3.6811256e-05,-0.10850498,0.029596504,-0.004229316,0.09204899,-0.040153172,-0.004674384,0.4649473,-1.4024848,1.9276694,-2.0871675,-1.5799841,2.4398959,-0.10678605,0.20146902,-0.25245565,0.12743984,-0.065268934,-0.101416126,-0.076614454,0.3256114,-9.557653,0.8851263,47.67614,-0.8871936,-2.073563,-3.4939961,-0.20521316,-0.409276,-0.421288,28.4375,29.5625,28.8125,32.875,35.25,36.3125
0.24605262,0.51413804,0.119551934,-0.60603064,0.03452996,-0.008184679,-0.20099676,-0.39500532,-0.3448865,0.05997532,-3.0670512,0.62247366,1.7741067e-05,-0.11122805,0.03016348,-0.002229622,0.09261095,-0.03597444,0.0003471568,0.46471852,-1.4020647,1.927131,-2.0869515,-1.5800933,2.4396899,-0.10855396,0.20113403,-0.2569858,0.12874062,-0.067728646,-0.10817626,0.038307227,0.24899697,-9.500193,0.9186956,47.66539,-0.90179443,-2.0546038,-3.489853,-0.22899336,-0.41637072,-0.36044297,28.4375,29.5625,28.8125,32.875,35.25,36.3125
0.24805242,0.3536185,-0.013527093,-0.515649,0.051169027,-0.028991673,-0.18880458,-0.3952348,-0.34480682,0.05996004,-3.0668404,0.6223863,-7.123151e-05,-0.11189494,0.029800659,-0.0020741872,0.091135785,-0.03631331,0.0064608906,0.46446636,-1.4016435,1.9266161,-2.0866768,-1.5802368,2.4394116,-0.109315135,0.20213687,-0.258618,0.12890881,-0.06635139,-0.11505149,0.11492168,0.114921674,-9.32781,0.89631605,47.68599,-0.89204806,-2.0332446,-3.4744725,-0.25761646,-0.42734683,-0.3002947,28.4375,29.5625,28.8125,32.875,35.25,36.3125
0.25005224,-0.18749745,0.24614045,-0.24200323,0.037707888,-0.033420905,-0.18993178,-0.39545178,-0.34476537,0.059948053,-3.0666914,0.62225544,-8.3001214e-05,-0.113618955,0.03086855,-0.0026575536,0.09397412,-0.035172828,0.010253754,0.4642859,-1.401234,1.9261254,-2.0864851,-1.5803698,2.4391696,-0.11066593,0.20493014,-0.2603878,0.12807126,-0.06947115,-0.12015851,0.17238252,-0.038307227,-9.270349,0.8627467,47.678825,-0.8411659,-2.1392143,-3.4488564,-0.2126354,-0.46423757,-0.23269947,28.4375,29.5625,28.8125,32.875,35.25,36.3125
0.25205213,-0.46884483,0.032260064,-0.38897055,0.02750986,-0.011487527,-0.19582069,-0.39569843,-0.34468582,0.05994612,-3.0664837,0.6223245,-0.00018866846,-0.116800345,0.03153267,-0.0015474459,0.0965251,-0.027717473,0.012310584,0.46399784,-1.4008138,1.9255751,-2.0861871,-1.58048,2.438953,-0.11093554,0.20579515,-0.26314378,0.12440246,-0.07516289,-0.12241862,0.2681506,-0.22984336,-9.174581,0.8784135,47.684196,-0.8635034,-2.1624026,-3.417449,-0.19343723,-0.42167643,-0.19279742,28.4375,29.5625,28.8125,32.875,35.25,36.3125
0.25405195,-0.6690945,0.31587747,-0.38168877,0.023164388,0.012785359,-0.19914374,-0.39591613,-0.34461567,0.059918094,-3.0662675,0.62221915,-0.00026216512,-0.12048208,0.031099025,5.548745e-05,0.0962041,-0.019805357,0.012510104,0.46378183,-1.4003807,1.9250835,-2.0859497,-1.5806369,2.4387004,-0.11124974,0.2070663,-0.267387,0.12012695,-0.078474864,-0.12288507,0.30645782,-0.21068975,-9.346964,0.9097417,47.67614,-0.85497063,-2.0337133,-3.353674,-0.12541333,-0.39910552,-0.13179474,28.4375,29.5625,28.8125,32.875,35.25,36.3125
0.25605202,-0.6140271,-0.10623214,-0.42692086,0.04668855,0.030631484,-0.19612543,-0.39614955,-0.34455302,0.05991373,-3.0660586,0.62217563,-0.0002936688,-0.12342201,0.031310134,0.00021911733,0.0987455,-0.014461891,0.010975047,0.46356586,-1.399959,1.9245452,-2.0856874,-1.5807947,2.4384856,-0.11115346,0.21030581,-0.27079126,0.11664687,-0.0831703,-0.12119458,0.28730422,-0.17238252,-9.289502,0.8918391,47.651955,-0.8998378,-2.1517706,-3.282238,-0.07503301,-0.37590843,-0.14390594,28.4375,29.5625,28.8125,32.875,35.25,36.3125
0.2580521,-0.9844046,0.16723837,-0.5725268,0.03566174,0.024414161,-0.19747458,-0.3964177,-0.34449002,0.059934758,-3.065885,0.62202805,-0.00017797112,-0.12499381,0.033613026,-0.00023037624,0.103223115,-0.012212564,0.0025873308,0.4633491,-1.3995504,1.923972,-2.08546,-1.5810002,2.4382002,-0.113329284,0.21113688,-0.2705139,0.11556814,-0.08815161,-0.11492861,0.076614454,-0.05746084,-9.308656,0.9612189,47.65912,-0.9729293,-2.1641579,-3.3232932,-0.03605413,-0.32810175,-0.18537684,28.4375,29.5625,28.8125,32.875,35.25,36.3125
0.26005232,-0.61952233,-0.56514776,-0.6026444,0.034524787,0.023117976,-0.19569504,-0.39660856,-0.34439814,0.059874207,-3.0655866,0.6220019,-0.0003186964,-0.12557502,0.032846898,0.0008085664,0.10633993,-0.008530531,0.0020556028,0.4631345,-1.399106,1.923541,-2.0852206,-1.5811814,2.4380097,-0.10960368,0.21170644,-0.27377072,0.11637614,-0.09259521,-0.11060331,0.019153614,0.095768064,-9.346964,0.947788,47.684196,-1.1076417,-2.0734825,-3.3761764,-0.015007887,-0.27382636,-0.24780457,28.4375,29.5625,28.8125,32.875,35.25,36.3125
0.26205215,-0.4120317,-0.3469345,-0.7969236,0.01093726,0.0143522695,-0.19067656,-0.39684656,-0.34435534,0.059883486,-3.0653882,0.62188405,-0.00029933287,-0.12890291,0.03511929,0.0016708111,0.10922273,-0.006005553,-0.0036394629,0.46296486,-1.3986729,1.9229549,-2.0849445,-1.5813631,2.4377935,-0.11408536,0.21307665,-0.27774018,0.11799537,-0.09631942,-0.1093394,-0.05746084,0.19153613,-9.442732,0.8672237,47.66091,-1.0340275,-2.1739423,-3.4280128,0.0028390305,-0.21095493,-0.28206825,28.4375,29.5625,28.8125,32.875,35.25,36.3125
0.264052,-0.30799857,-0.88945955,-1.3949676,-0.005465702,0.008395626,-0.19720887,-0.3971378,-0.3442624,0.0599168,-3.0651577,0.62185234,-9.653228e-05,-0.12824379,0.035457324,-0.00028299444,0.11531014,-0.008482059,-0.0015326582,0.46271402,-1.3982873,1.9223803,-2.0847166,-1.5816287,2.4375541,-0.111240126,0.21766353,-0.27897596,0.119549446,-0.10067156,-0.10855231,-0.15322891,0.30645782,-9.691729,0.89631605,47.675243,-1.1527783,-2.180711,-3.397993,0.008604796,-0.15068443,-0.30297187,28.4375,29.5625,28.8125,32.875,35.25,36.3125
0.26605213,-1.0786194,-2.3389146,-1.2962414,-0.041964084,0.020076877,-0.18712382,-0.397361,-0.34420854,0.059920583,-3.0649526,0.62179005,-0.00013458703,-0.1273351,0.03640632,-0.0015249852,0.11696746,-0.013424766,-0.003528179,0.4625216,-1.397878,1.9218315,-2.084428,-1.5817841,2.4373507,-0.11248786,0.21921714,-0.27875844,0.1229111,-0.09996195,-0.10779758,-0.26815057,0.40222588,-9.749189,0.900793,47.67793,-1.226095,-2.1231894,-3.6097453,0.011553774,-0.10942889,-0.32091647,28.4375,29.5625,28.8125,32.875,35.25,36.3125
0.26805204,-1.3559442,-2.765894,-1.2913021,-0.08263743,0.04003361,-0.18633445,-0.3976128,-0.34412146,0.05990287,-3.0647013,0.62173617,-0.000168252,-0.1255913,0.037973113,-0.002608195,0.120452784,-0.020409293,-0.0057053403,0.46226925,-1.3974215,1.9212817,-2.084162,-1.5819763,2.437099,-0.11361268,0.21994251,-0.27875617,0.12995595,-0.09997551,-0.10672913,-0.49799395,0.4405331,-9.9790325,0.94331104,47.666286,-1.1284324,-2.2339897,-3.6979356,-0.045223042,-0.10258277,-0.37377316,28.4375,29.5625,28.8125,32.875,35.25,36.3125
0.27005187,-1.2353078,-3.0497975,-1.0083795,-0.07773682,0.056824658,-0.1853433,-0.3978795,-0.34404916,0.05990415,-3.0644732,0.621761,-0.00012985806,-0.123435825,0.038556445,-0.00340517,0.121142946,-0.030650934,-0.0028658372,0.4620287,-1.3969767,1.9207071,-2.0839188,-1.5821666,2.4369051,-0.1151381,0.22127071,-0.2808259,0.14006409,-0.09607816,-0.11112528,-0.51714754,0.40222588,-9.998186,0.900793,47.675243,-1.1269299,-2.199935,-3.7952404,-0.14115074,-0.08130023,-0.34701195,28.4375,29.5625,28.8125,32.875,35.25,36.3125
0.27205178,-1.6403863,-2.185005,-0.8138526,-0.06253342,0.03987586,-0.18885075,-0.39809993,-0.34397852,0.05988219,-3.0642054,0.62170327,-0.00023048081,-0.12380755,0.037043698,-0.002387781,0.11731694,-0.032874975,-0.0023809215,0.46182463,-1.3965198,1.9201564,-2.0836074,-1.5823454,2.4367015,-0.115520805,0.22223131,-0.28519067,0.14368893,-0.091712005,-0.11201838,-0.59376204,0.34476504,-9.902418,0.9097417,47.689575,-1.1600785,-2.1384645,-3.7703097,-0.2016359,-0.12723072,-0.36835098,28.4375,29.5625,28.8125,32.875,35.25,36.3125
0.27405164,-1.5234977,-1.2531011,-0.700306,-0.021544183,0.025082743,-0.1892293,-0.39837068,-0.34393033,0.05990085,-3.0640476,0.6216254,-0.00015487592,-0.123483256,0.037049558,-0.0021874423,0.116023265,-0.036934707,0.0041791736,0.4616082,-1.3960873,1.9195589,-2.083378,-1.5825123,2.436458,-0.116989255,0.2226657,-0.2872643,0.14824255,-0.0888397,-0.120073274,-0.49799395,0.2873042,-9.557653,0.97464454,47.691364,-1.1206926,-2.1986437,-3.7426543,-0.28655082,-0.16315952,-0.3034923,28.4375,29.5625,28.8125,32.875,35.25,36.3125
0.27605185,-1.5931826,-0.4055619,-0.82818043,0.00803096,0.010915765,-0.18372545,-0.39860845,-0.34384707,0.059886087,-3.0637977,0.6215513,-0.00022586223,-0.12497715,0.036290966,-0.00074141356,0.11279707,-0.035106026,0.0073252865,0.46136764,-1.3956425,1.9190081,-2.083079,-1.582692,2.4362054,-0.11815264,0.22234684,-0.29034117,0.1484628,-0.086855896,-0.12438745,-0.45968673,0.19153613,-9.557653,0.9097417,47.645687,-0.9069978,-2.1988611,-3.571392,-0.30115476,-0.1935865,-0.24677789,28.4375,29.5625,28.8125,32.875,35.25,36.3125
0.27805227,-1.0569257,0.2993414,-0.6561384,0.027366575,0.023537444,-0.20291539,-0.39889482,-0.34379718,0.059889615,-3.0636265,0.6214903,-0.00020071004,-0.1284653,0.034898896,0.0016564034,0.10702036,-0.028468227,0.012772057,0.46112737,-1.3951509,1.918374,-2.0828412,-1.582847,2.4359505,-0.120010056,0.22191457,-0.29454848,0.14445083,-0.084756635,-0.13170588,-0.59376204,0.076614454,-9.500193,0.8784135,47.68062,-1.1063544,-1.9562914,-3.6407592,-0.27172983,-0.21506143,-0.18747316,28.4375,29.5625,28.8125,32.875,35.25,36.3125
0.2800521,-2.067537,-0.18420444,-0.53802586,0.022553226,0.036422372,-0.18751214,-0.39914805,-0.34372807,0.05987667,-3.063418,0.6213663,-0.00030385784,-0.13231638,0.03240468,0.0037828595,0.100897685,-0.020290904,0.01702337,0.46087533,-1.3946697,1.9177736,-2.0825322,-1.5829905,2.4356496,-0.12002685,0.22324024,-0.29966468,0.13809541,-0.08302088,-0.13597548,-0.61291564,-0.19153614,-9.500193,0.8784135,47.66091,-1.015425,-1.8173332,-3.3933115,-0.23958209,-0.27460152,-0.08246763,28.4375,29.5625,28.8125,32.875,35.25,36.3125
0.28205198,-1.4891356,0.410862,-0.29288408,-0.0076900288,0.07877687,-0.19384076,-0.39942032,-0.34366366,0.059891913,-3.0632334,0.62136483,-0.00028030208,-0.13516624,0.03147024,0.0041292096,0.09783562,-0.016959572,0.015617158,0.4606227,-1.3942366,1.9171752,-2.08227,-1.583146,2.4354215,-0.121561274,0.22628275,-0.30325463,0.13424994,-0.08180588,-0.13610756,-0.5746084,-0.21068975,-9.461885,0.92093146,47.67345,-1.0336345,-1.7806864,-3.1423635,-0.16606347,-0.29851234,-0.056838766,28.4375,29.5625,28.8125,32.875,35.25,36.3125
0.28405198,-1.94927,-0.015728105,-0.3812008,0.00016745192,0.08814007,-0.18739289,-0.39969155,-0.34361002,0.05991269,-3.0630836,0.6212002,-0.00028433173,-0.13807155,0.030139275,0.004739373,0.09405402,-0.011471899,0.011896008,0.4603824,-1.3937913,1.9165419,-2.0819728,-1.5832895,2.435099,-0.122266285,0.22842622,-0.30590183,0.12815326,-0.08087468,-0.13309114,-0.5363012,-0.34476504,-9.481039,0.8918391,47.661808,-1.0442117,-1.7913089,-3.2372637,-0.07071266,-0.35607913,-0.065266855,28.4375,29.5625,28.8125,32.875,35.25,36.3125
0.28605202,-1.489025,-0.16248325,-0.5784162,0.010485602,0.101973414,-0.19866714,-0.39997151,-0.34355992,0.05992976,-3.0629232,0.62126344,-0.00030761506,-0.13859187,0.03024802,0.0045782095,0.09447505,-0.011154851,0.006330657,0.4601185,-1.3933343,1.9159077,-2.0816977,-1.5833977,2.4348967,-0.12249548,0.22947474,-0.3067908,0.12793146,-0.08136774,-0.1277405,-0.7086837,-0.2681506,-9.576807,0.9186956,47.65106,-1.0350225,-1.8629072,-3.2808394,-0.018526707,-0.40065205,-0.08650901,28.4375,29.5625,28.8125,32.875,35.25,36.3125
0.2880519,-1.4150885,0.30571917,-0.45466954,-0.00019548512,0.09425973,-0.19413726,-0.40023315,-0.3434746,0.059912387,-3.0626483,0.62122524,-0.0003199719,-0.13774003,0.031765357,0.0013612739,0.09844234,-0.016751893,0.0017742533,0.45987815,-1.3928523,1.9153241,-2.081422,-1.5836147,2.4346702,-0.12364376,0.23406163,-0.30493852,0.12827036,-0.08243328,-0.12430603,-0.51714754,-0.24899697,-9.461885,0.9254084,47.66808,-1.0633796,-1.9733331,-3.5628572,-0.0018450216,-0.40338016,-0.14770943,28.4375,29.5625,28.8125,32.875,35.25,36.3125
0.2900518,-1.1357368,0.64703053,-0.49762046,0.022399133,0.066388726,-0.1920882,-0.40052783,-0.34339368,0.059924524,-3.0624583,0.62117,-0.00023519117,-0.13855338,0.03367578,-4.591538e-05,0.1026512,-0.018718014,-0.007146825,0.4596014,-1.3924067,1.9147257,-2.0811942,-1.5838073,2.434385,-0.12578335,0.23716992,-0.30570433,0.12961103,-0.08528665,-0.117483325,-0.4213795,-0.2681506,-9.481039,0.94331104,47.668976,-0.936921,-2.128793,-3.6251712,0.029529294,-0.4009369,-0.208107,28.4375,29.5625,28.8125,32.875,35.25,36.3125
0.29205188,-0.8131077,0.5943331,-0.37387282,0.05055277,0.035078373,-0.18839428,-0.40082484,-0.34332037,0.05993168,-3.0622318,0.6212162,-0.00017860398,-0.14005584,0.03536731,-1.6796479e-05,0.10753871,-0.019107928,-0.008841034,0.45933676,-1.3919255,1.914091,-2.0809414,-1.584001,2.4341805,-0.12726523,0.23952585,-0.30943203,0.13347356,-0.08951948,-0.11721073,-0.3256114,-0.17238252,-9.442732,0.8672237,47.664497,-0.799307,-2.1514177,-3.6257687,0.01831282,-0.40006083,-0.25261122,28.4375,29.5625,28.8125,32.875,35.25,36.3125
0.2940518,-0.7972368,0.5926157,-0.33892348,0.06352315,0.017763846,-0.17687222,-0.40109825,-0.34326234,0.0599353,-3.0620217,0.6211747,-0.00012305481,-0.14077288,0.038727585,0.000117288575,0.11559229,-0.02064888,-0.014926784,0.4591199,-1.3914564,1.9134811,-2.0806997,-1.584195,2.4339666,-0.12954883,0.23985857,-0.31166896,0.14036304,-0.09603024,-0.11332055,-0.4213795,-0.095768064,-9.32781,0.9992599,47.647476,-0.7975153,-2.1774805,-3.6067548,-0.0060868515,-0.34266537,-0.30536854,28.4375,29.5625,28.8125,32.875,35.25,36.3125
0.2960519,0.08747222,1.4448807,-0.37794286,0.07158667,0.015057607,-0.1961339,-0.40138885,-0.3431598,0.059948303,-3.0617461,0.6211708,-9.324286e-05,-0.13942125,0.039273094,0.00070720754,0.12084388,-0.024591332,-0.014822765,0.4588328,-1.3910003,1.9128464,-2.080373,-1.5844244,2.433715,-0.12734745,0.24009444,-0.31540412,0.14971039,-0.09899296,-0.11117256,-0.2873042,-0.019153614,-9.251195,0.9097417,47.660015,-0.9154005,-2.1364577,-3.585895,-0.100926146,-0.29077557,-0.36690602,28.4375,29.5625,28.8125,32.875,35.25,36.3125
0.2980521,-0.22043467,0.61861014,-0.33164537,0.07438417,0.009319689,-0.18151791,-0.40169945,-0.34309304,0.059959363,-3.0615,0.6212712,-5.2209998e-05,-0.13989343,0.041719757,0.00038753846,0.12895109,-0.0273508,-0.016541043,0.4585687,-1.3904831,1.9121522,-2.0800836,-1.5846184,2.4335477,-0.12809236,0.24246703,-0.31911534,0.157102,-0.105053455,-0.110112466,-0.19153613,0.05746084,-9.385271,0.8985519,47.65912,-0.8351924,-2.0181084,-3.4189997,-0.1859575,-0.27013585,-0.43073964,28.4375,29.5625,28.8125,32.875,35.25,36.3125
0.30005205,-0.4923034,0.08747694,-0.50777334,0.041842937,0.01540809,-0.18238883,-0.40192828,-0.34299254,0.059937146,-3.0611992,0.6211274,-0.0002211258,-0.14021882,0.043453228,0.0003096811,0.1336376,-0.02925211,-0.015405226,0.45831633,-1.3900138,1.9115666,-2.0796869,-1.5848116,2.433247,-0.12915036,0.24348238,-0.32122537,0.16191049,-0.10848421,-0.11223408,-0.21068975,0.13407528,-9.32781,0.9679317,47.661808,-0.885237,-2.0079658,-3.409885,-0.26759502,-0.18914683,-0.45830846,28.4375,29.5625,28.8125,32.875,35.25,36.3125
0.3020519,-0.6283043,-0.85098386,-0.4468283,-0.0003113296,0.03819353,-0.18884407,-0.40218815,-0.3428819,0.059926394,-3.0608454,0.6211606,-0.00023952435,-0.14302902,0.043128263,0.0022786048,0.133615,-0.022256661,-0.009605105,0.4580646,-1.3895459,1.9109682,-2.0793412,-1.5850762,2.433065,-0.1289074,0.24319993,-0.32490584,0.15946506,-0.1116796,-0.117726706,-0.15322891,0.19153613,-9.423578,0.9164598,47.682407,-0.9258499,-1.9020858,-3.3998237,-0.2500609,-0.14694324,-0.4373298,28.4375,29.5625,28.8125,32.875,35.25,36.3125
0.30405188,-1.1530402,-1.8063812,-0.3534058,-0.052491747,0.06119898,-0.19411045,-0.40249988,-0.3427983,0.05993605,-3.0605834,0.621097,-0.00017898728,-0.14629246,0.042316247,0.0037261683,0.13157144,-0.014613449,0.0006497558,0.45780033,-1.3890294,1.9102734,-2.0790317,-1.585317,2.4327972,-0.12911911,0.24386546,-0.32781768,0.15374804,-0.11340058,-0.12815678,-0.095768064,0.21068975,-9.442732,0.9254084,47.688675,-0.9847615,-1.788897,-3.3778362,-0.24133855,-0.10161461,-0.36527175,28.4375,29.5625,28.8125,32.875,35.25,36.3125
0.30605197,-1.523757,-2.2267127,-0.49257857,-0.070086926,0.057830535,-0.1897259,-0.40279874,-0.34273365,0.059978947,-3.060391,0.6210306,-0.00010899894,-0.14697978,0.040498726,0.0033670154,0.1268901,-0.011443763,0.008676386,0.45754886,-1.3885845,1.9095811,-2.0786994,-1.5855078,2.4325309,-0.12812331,0.24474761,-0.32654482,0.14651437,-0.11072527,-0.13521445,-0.05746084,0.24899697,-9.557653,0.9567419,47.668976,-1.0222639,-1.7258286,-3.3832655,-0.16660678,-0.07879036,-0.3097408,28.4375,29.5625,28.8125,32.875,35.25,36.3125
0.30805185,-1.3522078,-2.796284,-0.472333,-0.08655845,0.066805154,-0.18458156,-0.40309605,-0.34263662,0.059972443,-3.0601442,0.6210136,-0.00015635857,-0.1495227,0.04072367,0.003973709,0.12379289,-0.008880669,0.0123021845,0.45723552,-1.3880798,1.9089359,-2.078389,-1.5856875,2.4322412,-0.13155364,0.2455708,-0.32839447,0.14370379,-0.10921496,-0.14227262,-0.1340753,0.22984336,-9.634268,0.9321212,47.65912,-0.92252916,-1.6230698,-3.550591,-0.0813608,-0.07409622,-0.18988469,28.4375,29.5625,28.8125,32.875,35.25,36.3125
0.31005165,-1.1280614,-2.4714072,-0.7765263,-0.06549045,0.03411995,-0.18327707,-0.40339315,-0.34255442,0.05996418,-3.0598974,0.6208774,-0.00010382586,-0.14873464,0.03703477,0.0025681374,0.117567584,-0.010854167,0.019337663,0.45698488,-1.3875619,1.9082907,-2.0781271,-1.585925,2.4319396,-0.12834813,0.2495828,-0.32908192,0.13925995,-0.10285011,-0.14617339,-0.11492168,0.24899697,-9.557653,1.005978,47.674347,-1.1650511,-1.6809657,-3.7219057,-0.03616455,-0.14691688,-0.14358076,28.4375,29.5625,28.8125,32.875,35.25,36.3125
0.31205258,-0.12937772,-1.6384786,-1.0841064,-0.03828236,0.0070461305,-0.1797337,-0.40373433,-0.34247735,0.059991978,-3.0597105,0.62087655,3.425524e-05,-0.15071824,0.036864508,0.002115513,0.1159773,-0.012145442,0.01619003,0.45668405,-1.3870687,1.907596,-2.0778873,-1.5861286,2.4316642,-0.13088311,0.25373858,-0.333115,0.13953696,-0.10087839,-0.14558157,-0.05746084,0.2873042,-9.557653,0.90750587,47.66539,-0.9944245,-1.7558024,-3.582829,-0.0011313392,-0.16806063,-0.10166031,28.4375,29.5625,28.8125,32.875,35.25,36.3125
0.31405264,0.53491366,-0.89415485,-0.9122631,-0.026193101,-0.016618205,-0.182184,-0.4040414,-0.3424295,0.060015265,-3.0595467,0.6208054,0.00015850154,-0.15112138,0.03575086,0.0015659049,0.112581454,-0.01474513,0.010437432,0.4564557,-1.3865865,1.906927,-2.0776598,-1.5863193,2.4314141,-0.13184647,0.2565203,-0.3353392,0.13982473,-0.09665158,-0.14084363,-0.11492168,0.2681506,-9.576807,0.9612189,47.661808,-1.0309364,-1.9766998,-3.6180916,0.04677876,-0.2288142,-0.13039972,28.4375,29.5625,28.8125,32.875,35.25,36.3125
0.31605208,1.0014809,-0.7452131,-0.82500964,-0.010554853,-0.021742234,-0.19143629,-0.4043605,-0.3423483,0.060037125,-3.0593414,0.6207079,0.0002200858,-0.1519919,0.03572101,0.0016683065,0.11113738,-0.017997418,0.0011193608,0.45616695,-1.3860935,1.9062322,-2.077359,-1.5865225,2.431093,-0.13417831,0.25887498,-0.33935276,0.14381169,-0.09387003,-0.13388342,-0.17238252,0.30645782,-9.481039,0.91198283,47.661808,-0.95359933,-1.9442106,-3.5430717,0.047287144,-0.28808236,-0.22499932,28.4375,29.5625,28.8125,32.875,35.25,36.3125
0.3180524,0.5670844,-0.73070675,-0.7420696,-0.018813465,-0.030986248,-0.181484,-0.40463498,-0.34227878,0.060018525,-3.0591018,0.62065697,0.00014063918,-0.15021074,0.036897376,0.0012150301,0.112756096,-0.02633788,-0.004713171,0.4559143,-1.3855647,1.9055871,-2.0770562,-1.5866894,2.430842,-0.13600609,0.25919062,-0.34088928,0.15324417,-0.09162518,-0.12989251,-0.11492168,0.4213795,-9.442732,0.90750587,47.65643,-0.8693599,-1.9455366,-3.4896593,-0.017327957,-0.31348526,-0.26997024,28.4375,29.5625,28.8125,32.875,35.25,36.3125
0.32005236,0.50538355,-0.7932436,-0.81007504,-0.02109284,-0.036162358,-0.18163441,-0.40492266,-0.34218898,0.05999311,-3.0587869,0.62068444,3.8696227e-05,-0.14756073,0.037910547,0.0004620023,0.116523154,-0.035886895,-0.007488864,0.45563856,-1.3849998,1.9049047,-2.0767052,-1.5868934,2.4306273,-0.13590483,0.26007983,-0.3427968,0.16448769,-0.09079867,-0.12700652,-0.038307227,0.3256114,-9.461885,0.9791215,47.65912,-0.9203156,-1.8618932,-3.5902977,-0.11670488,-0.3678981,-0.30897477,28.4375,29.5625,28.8125,32.875,35.25,36.3125
0.32205224,0.60960394,-0.9449266,-0.35232022,-0.040757354,-0.015072593,-0.18169455,-0.4052353,-0.34211555,0.0600209,-3.0585568,0.62071025,7.2224626e-05,-0.14601353,0.038684998,-0.00013132319,0.12000392,-0.042936854,-0.0074978783,0.45536232,-1.3845068,1.9041876,-2.0763671,-1.5870851,2.4303994,-0.13578005,0.26174808,-0.34542212,0.17326094,-0.090845324,-0.1268621,-0.076614454,0.24899697,-9.32781,0.87617236,47.675243,-0.95067835,-1.9328015,-3.5296953,-0.22072472,-0.38917118,-0.34359407,28.4375,29.5625,28.8125,32.875,35.25,36.3125
0.32405227,0.48631057,-1.2711363,-0.081924476,-0.029696792,-1.3952924e-05,-0.18357414,-0.4055499,-0.34204027,0.060034312,-3.0583303,0.6206588,5.2421943e-05,-0.14658536,0.038974047,-0.0003246478,0.1223274,-0.043759376,-0.006730117,0.45507455,-1.3839773,1.903458,-2.0760195,-1.5872658,2.4301112,-0.13553692,0.26395938,-0.34816062,0.17549828,-0.09262306,-0.12734768,-0.05746084,0.19153613,-9.174581,0.94331104,47.675243,-0.9294734,-1.8402764,-3.5041833,-0.29131418,-0.4134114,-0.39187747,28.4375,29.5625,28.8125,32.875,35.25,36.3125
0.32605225,-0.33143747,-0.49318594,-0.21935031,-0.009328839,0.016583685,-0.17800923,-0.4058072,-0.34198067,0.060037076,-3.058121,0.62053585,-8.235238e-05,-0.14953944,0.03990614,0.0007041226,0.123611085,-0.038298707,-0.0061225095,0.45483375,-1.3834847,1.902788,-2.0756376,-1.5873994,2.429823,-0.13730125,0.26453078,-0.35071352,0.17307432,-0.09626523,-0.12964791,-0.038307227,0.019153614,-9.270349,0.92093146,47.67166,-0.95250195,-1.8804753,-3.4848924,-0.27950495,-0.43344876,-0.3737011,28.4375,29.5625,28.8125,32.875,35.25,36.3125
0.32805234,-0.5363239,-0.16058694,-0.009055599,0.012504674,0.06325408,-0.19751258,-0.40613544,-0.3419009,0.060044926,-3.057877,0.62053305,-8.463914e-05,-0.15354773,0.03851558,0.0016072751,0.123459876,-0.027011765,0.0012550824,0.454535,-1.3829316,1.9020466,-2.0753062,-1.587593,2.4295566,-0.13506523,0.26717272,-0.35378757,0.1631786,-0.10122643,-0.13470253,0.038307227,-0.076614454,-9.251195,0.97240865,47.647476,-1.2155854,-1.8550956,-3.4491982,-0.210038,-0.41212648,-0.37118286,28.4375,29.5625,28.8125,32.875,35.25,36.3125
0.3300523,-1.5150379,0.084966235,0.18420151,0.013973809,0.0954456,-0.19168578,-0.40644255,-0.34183496,0.060047142,-3.0576546,0.62036574,-4.842918e-05,-0.1587959,0.039451707,0.0032008889,0.12402999,-0.016061615,0.006961636,0.45429406,-1.3823905,1.9013399,-2.07501,-1.5878109,2.4292421,-0.13762115,0.2681516,-0.35698816,0.15563793,-0.10671358,-0.14287153,-0.038307227,-0.17238252,-9.232041,0.9388393,47.66987,-0.97779155,-1.7968066,-3.2668557,-0.123464495,-0.3804346,-0.27345866,28.4375,29.5625,28.8125,32.875,35.25,36.3125
0.33205208,-1.2117788,0.10846752,0.15323351,0.031731002,0.11299582,-0.19250739,-0.40675262,-0.34175625,0.060054887,-3.0574167,0.62029123,-3.4120271e-06,-0.16205578,0.041519333,0.003001386,0.12852159,-0.010883626,0.011611441,0.4540291,-1.3818728,1.9006475,-2.074711,-1.5880297,2.428964,-0.13983446,0.27057934,-0.35862723,0.1520134,-0.11316003,-0.14962679,-0.019153614,-0.24899697,-9.136273,0.900793,47.642998,-0.9871317,-1.8354154,-3.4208472,-0.03358613,-0.3157996,-0.20013809,28.4375,29.5625,28.8125,32.875,35.25,36.3125
0.33405212,-1.6117054,0.65188307,0.35358915,0.05633879,0.09239973,-0.18736666,-0.40707394,-0.34167045,0.060032833,-3.0571609,0.62025094,1.3461258e-05,-0.1638594,0.04295783,0.00491142,0.13077608,-0.0055394545,0.015549482,0.45374092,-1.3812976,1.8999656,-2.0744598,-1.5882462,2.4286864,-0.14093173,0.26782417,-0.3598068,0.15199815,-0.11763961,-0.15458082,-0.34476504,-0.095768064,-9.040505,0.9679317,47.658226,-0.89593077,-1.6937752,-3.471046,0.009094772,-0.26499146,-0.11049591,28.4375,29.5625,28.8125,32.875,35.25,36.3125
0.33605224,-0.55120337,1.4210044,0.049407654,0.065007135,0.080541186,-0.18499584,-0.40740192,-0.34158117,0.060040135,-3.0568774,0.62018555,6.249118e-05,-0.16445924,0.044467058,0.0032151304,0.13845092,-0.008047802,0.017553007,0.45346525,-1.3807433,1.8992227,-2.0741231,-1.5885009,2.4284096,-0.14026509,0.2731832,-0.363031,0.15540901,-0.12349667,-0.15581132,-0.45968673,-0.17238253,-9.097966,0.94331104,47.67614,-1.0212206,-1.578452,-3.5121524,0.0004098774,-0.17491114,-0.08726911,28.4375,29.5625,28.8125,32.875,35.25,36.3125
0.3380522,-0.09239673,1.6173663,-0.087051585,0.07479746,0.053105213,-0.18549223,-0.40771297,-0.34149912,0.06002002,-3.0565896,0.62005085,6.3535545e-06,-0.16400857,0.046968214,0.0011991403,0.14397761,-0.016315944,0.009104964,0.45320007,-1.3801408,1.8984822,-2.0737731,-1.5887288,2.4281006,-0.14328803,0.27744868,-0.36527926,0.16328135,-0.12480766,-0.15033908,-0.49799395,-0.24899697,-9.212888,0.91421866,47.6636,-0.8931813,-1.7689545,-3.452219,-0.044299424,-0.17505041,-0.107031554,28.4375,29.5625,28.8125,32.875,35.25,36.3125
0.3400521,-0.24971993,0.29206216,0.0430233,0.069366135,0.03597281,-0.17361338,-0.4080451,-0.34138212,0.060037315,-3.0562913,0.6199468,0.0001234904,-0.1604026,0.046497725,-0.0006805295,0.14711681,-0.02639875,0.0063350443,0.4529013,-1.3796356,1.897777,-2.073447,-1.5890282,2.4277785,-0.14030437,0.28024665,-0.36628807,0.17195016,-0.12316229,-0.14459506,-0.842759,-0.11492168,-9.078813,0.92093146,47.66539,-1.1576914,-1.8673692,-3.520937,-0.11970108,-0.13346094,-0.15614083,28.4375,29.5625,28.8125,32.875,35.25,36.3125
0.34205216,-0.0060137464,0.20022792,-0.076882035,0.033676546,0.04432298,-0.19437657,-0.4083511,-0.34127396,0.06002562,-3.0559106,0.6199039,4.0620103e-05,-0.15876275,0.04676151,-0.0018156598,0.14877225,-0.035163537,0.00032029752,0.45262513,-1.3790463,1.8970121,-2.0730011,-1.5893034,2.427529,-0.14074187,0.28321373,-0.36921597,0.18053932,-0.12078853,-0.13902116,-0.8236054,-0.1340753,-9.040505,0.92093146,47.674347,-1.0557835,-1.8396206,-3.5585294,-0.20725329,-0.14405629,-0.21560197,28.4375,29.5625,28.8125,32.875,35.25,36.3125
0.3440521,-0.11250553,0.14048617,-0.0072818915,0.0033434324,0.047264334,-0.19702815,-0.4086674,-0.34120467,0.060042933,-3.0556536,0.61981004,8.974189e-05,-0.15779947,0.04624563,-0.0023164176,0.14717333,-0.040755227,-0.004411958,0.45238495,-1.3785051,1.8962582,-2.072653,-1.5895418,2.4272664,-0.14136022,0.28486007,-0.3712004,0.18520877,-0.116882965,-0.13495235,-0.5746084,-0.17238252,-9.174581,0.95897776,47.684196,-1.1806393,-1.9764543,-3.5595574,-0.27658802,-0.16636203,-0.2999303,28.4375,29.5625,28.8125,32.875,35.25,36.3125
0.34605235,-0.8424578,-0.7480229,0.47541934,-0.039870296,0.05138659,-0.18109015,-0.40896,-0.341111,0.060011074,-3.0553045,0.6197915,-7.2804716e-05,-0.16011392,0.04493218,-0.0006587419,0.14314777,-0.035909582,-0.009031428,0.45210865,-1.3778925,1.8955168,-2.0722353,-1.5897578,2.427028,-0.14185773,0.28489497,-0.37459114,0.18245995,-0.11539921,-0.13081917,-0.82360536,-0.076614454,-9.212888,0.91421866,47.645687,-1.1504353,-1.871131,-3.548118,-0.30242437,-0.20061292,-0.3554459,28.4375,29.5625,28.8125,32.875,35.25,36.3125
0.34805238,-1.4596896,-1.9933131,0.35627794,-0.05871065,0.059944972,-0.18567923,-0.40928328,-0.34098136,0.05999676,-3.0549483,0.6198076,-0.00011946239,-0.16142577,0.04280388,-0.00088275236,0.1361609,-0.033019215,-0.012298102,0.45177287,-1.3773272,1.8947996,-2.0718548,-1.5900196,2.4267526,-0.14226694,0.28633615,-0.37437084,0.17511168,-0.11041154,-0.12801681,-0.6703765,0.05746084,-9.078813,0.97464454,47.65464,-1.184344,-1.7765152,-3.5548148,-0.25178206,-0.25336027,-0.43603817,28.4375,29.5625,28.8125,32.875,35.25,36.3125
0.3500523,-1.2138234,-2.2084842,0.16535439,-0.081365556,0.070892125,-0.18709025,-0.4096386,-0.3409151,0.060009502,-3.0547307,0.6197797,-5.472739e-05,-0.16677523,0.04070759,0.0017954758,0.12984626,-0.021141011,-0.01438445,0.45148432,-1.3767384,1.89401,-2.0715587,-1.5902241,2.4264774,-0.14329778,0.28727454,-0.37981722,0.16613846,-0.109967045,-0.12695557,-0.4213795,-0.019153614,-9.270349,0.9455522,47.655537,-1.1779655,-1.8128114,-3.6452107,-0.14890227,-0.28081992,-0.50482154,28.4375,29.5625,28.8125,32.875,35.25,36.3125
0.35205215,-1.0196469,-2.125019,0.2401114,-0.09207372,0.06983143,-0.19832624,-0.40995383,-0.34081632,0.059986167,-3.0544293,0.61980224,-0.00014207882,-0.1690818,0.038941152,0.0030574359,0.1233049,-0.01712196,-0.008874238,0.45117208,-1.3761495,1.8932918,-2.0712135,-1.5904263,2.426222,-0.14453074,0.28765422,-0.382374,0.16163869,-0.10600255,-0.13374308,-0.53630114,0.095768064,-9.270349,0.9455522,47.653748,-1.1893067,-1.7362098,-3.5141401,-0.0898907,-0.33844537,-0.47791362,28.4375,29.5625,28.8125,32.875,35.25,36.3125
0.3540522,-0.91622084,-1.740337,0.13171169,-0.06600682,0.031543892,-0.19659577,-0.4103026,-0.3407392,0.05998397,-3.0541756,0.6196654,-4.254115e-05,-0.17011787,0.03809786,0.0035841167,0.121660866,-0.016547779,-0.000650138,0.45090786,-1.3755485,1.8925265,-2.0709374,-1.59069,2.425908,-0.14447358,0.28902403,-0.38540226,0.16183393,-0.10493735,-0.14191851,-0.3256114,0.19153613,-9.232041,0.9791215,47.6636,-1.1099119,-1.6680248,-3.4392989,-0.027371746,-0.38393027,-0.4504075,28.4375,29.5625,28.8125,32.875,35.25,36.3125
0.3560524,-0.5601915,-1.1499426,-0.008129513,-0.021084705,0.008017542,-0.18631007,-0.41066635,-0.34066248,0.06000232,-3.053953,0.6196866,3.304349e-05,-0.17199051,0.03938491,0.003257506,0.12392155,-0.01576405,0.007597298,0.45059526,-1.3749719,1.8917369,-2.0706384,-1.590895,2.4256403,-0.14652681,0.2913786,-0.38749072,0.16158812,-0.10751031,-0.15216976,-0.34476507,0.24899697,-9.289502,0.97240865,47.67345,-0.97137105,-1.7090341,-3.5401807,0.008805895,-0.37289447,-0.33446258,28.4375,29.5625,28.8125,32.875,35.25,36.3125
0.3580523,-0.16583847,0.0035655536,-0.26918766,0.02689362,-0.0053120065,-0.18552466,-0.4109674,-0.3405892,0.059976384,-3.0537074,0.61954933,-9.379539e-05,-0.172626,0.040780883,0.0026869879,0.12914802,-0.018326404,0.015316294,0.45031944,-1.3743699,1.8910068,-2.070289,-1.5910643,2.4253137,-0.14700063,0.294508,-0.391023,0.1663668,-0.111276865,-0.16027676,-0.40222588,0.22984336,-9.212888,0.9947882,47.670765,-1.2222608,-1.8044128,-3.444784,0.020074356,-0.3796248,-0.23807967,28.4375,29.5625,28.8125,32.875,35.25,36.3125
0.3600522,-0.3320044,0.5075292,-0.31574178,0.052027576,0.0052858773,-0.19571522,-0.41131404,-0.34047574,0.059957784,-3.053378,0.6194724,-0.0001181654,-0.16901483,0.04334713,0.000118819975,0.13901149,-0.028294742,0.020718277,0.44999605,-1.3737444,1.8902305,-2.0699265,-1.5913299,2.424989,-0.14536268,0.29649276,-0.38968274,0.17617197,-0.11591303,-0.16394085,-0.3256114,0.22984336,-9.308657,0.97464454,47.66808,-1.3087679,-1.8856852,-3.5466344,-0.057177052,-0.32879922,-0.17113796,28.4375,29.5625,28.8125,32.875,35.25,36.3125
0.3620522,-0.7044571,0.32587287,-0.08454895,0.054665808,0.038796823,-0.19231446,-0.41165236,-0.3404014,0.05993789,-3.0531194,0.6193372,-0.00023915526,-0.16635588,0.047190152,-0.0031232748,0.15033014,-0.03980749,0.019147772,0.44969556,-1.3730826,1.889407,-2.0695393,-1.5915121,2.424641,-0.14638731,0.30045596,-0.38942236,0.18720606,-0.1211289,-0.16327891,-0.45968673,0.19153613,-9.212888,0.9701675,47.66091,-1.2830093,-1.9488323,-3.7686858,-0.13313763,-0.29689258,-0.14635494,28.4375,29.5625,28.8125,32.875,35.25,36.3125
0.36405227,-1.3796864,0.40791246,0.10064999,0.039383892,0.055621527,-0.18843123,-0.41198245,-0.34029967,0.059941653,-3.0527978,0.6192706,-0.00024282958,-0.16750143,0.04942776,-0.0031500892,0.15692662,-0.041708045,0.010587455,0.44940695,-1.372505,1.8886284,-2.0691426,-1.5917777,2.4243565,-0.14793992,0.30303994,-0.39390334,0.19377226,-0.12618585,-0.1561552,-0.2873042,0.19153613,-9.193734,0.98807013,47.681515,-1.2186575,-2.1248074,-3.7899156,-0.2300849,-0.25473526,-0.20527649,28.4375,29.5625,28.8125,32.875,35.25,36.3125
0.36605224,-1.3257349,0.42242074,-0.016162274,0.017175386,0.066986874,-0.20083845,-0.41232455,-0.34018248,0.059937224,-3.0524557,0.61916023,-0.00030716995,-0.1710164,0.051721524,-0.0033204246,0.16046643,-0.039761074,-0.00047442116,0.44908178,-1.3718908,1.8878149,-2.0687006,-1.5920433,2.424011,-0.15222833,0.30678105,-0.3981056,0.19409654,-0.13018848,-0.14927606,-0.076614454,0.13407528,-9.251195,1.0104496,47.682407,-1.1699958,-2.1885488,-3.6785703,-0.28999525,-0.18490963,-0.26688397,28.4375,29.5625,28.8125,32.875,35.25,36.3125
0.3680522,-0.9280486,-0.4424092,0.09603431,-0.0005061147,0.072282426,-0.20292276,-0.41268468,-0.34008747,0.059920233,-3.0520988,0.6191548,-0.00029796787,-0.17505513,0.04969017,-0.0008137984,0.15767474,-0.028453587,-0.0004949467,0.44879436,-1.3712182,1.8869766,-2.068332,-1.5923318,2.4237711,-0.15042837,0.3073342,-0.4031226,0.18713193,-0.13263644,-0.14738297,-0.05746084,0.05746084,-9.32781,0.9567419,47.6636,-1.0967451,-2.175096,-3.5069437,-0.2424185,-0.15349735,-0.32142055,28.4375,29.5625,28.8125,32.875,35.25,36.3125
0.3700521,-1.1173741,-0.9992206,-0.06589995,-0.046131946,0.055330478,-0.20943739,-0.41305616,-0.3399836,0.059937667,-3.0518057,0.6190904,-0.00018994343,-0.1799473,0.04783414,0.0007518469,0.15071149,-0.018789055,-0.003821004,0.4484816,-1.3706293,1.8861641,-2.0679882,-1.5926188,2.4234598,-0.15242752,0.3092631,-0.40706664,0.17735755,-0.13060883,-0.14607567,-0.15322891,0.0,-9.461885,0.95897776,47.65912,-0.9489513,-2.186248,-3.322946,-0.13737169,-0.1262327,-0.35007757,28.4375,29.5625,28.8125,32.875,35.25,36.3125
0.37205195,-0.83793926,-1.9606324,-0.10727536,-0.06683612,0.043050755,-0.19428106,-0.4134176,-0.33989322,0.05992932,-3.0514865,0.61905706,-0.00015187214,-0.1822685,0.046623524,0.0021862306,0.14511888,-0.013876897,-0.0062477295,0.44819334,-1.3699806,1.8853387,-2.067643,-1.592894,2.4231963,-0.15390958,0.30874044,-0.40895882,0.17285489,-0.12774454,-0.14516225,-0.11492168,0.038307227,-9.481039,0.8985519,47.66271,-0.9836768,-2.0892906,-3.4111218,-0.042700462,-0.14594838,-0.39252162,28.4375,29.5625,28.8125,32.875,35.25,36.3125
0.3740518,0.004005617,-2.1343517,-0.59887147,-0.06445139,0.013076874,-0.19537815,-0.41377038,-0.33977935,0.05990346,-3.051156,0.6190182,-0.00020345449,-0.18156809,0.046498377,0.0018239839,0.14311902,-0.016646467,-0.004520025,0.44785693,-1.369332,1.8845495,-2.067282,-1.5931448,2.422883,-0.15475653,0.30864444,-0.40843996,0.17391507,-0.12484094,-0.14776617,-0.17238252,0.11492168,-9.5385,0.9858343,47.67793,-0.9827012,-2.03612,-3.5593781,-0.0016256231,-0.19794649,-0.38742954,28.4375,29.5625,28.8125,32.875,35.25,36.3125
