Tylouw/Master_Thesis_Code/training_data/batch_1/small_rod_t0.3/sample_60_session_2.csv
timestamp[s],tcp_force_x[N],tcp_force_y[N],tcp_force_z[N],tcp_force_rx[Nm?],tcp_force_ry[Nm?],tcp_force_rz[Nm?],tcp_pose_x[m],tcp_pose_y[m],tcp_pose_z[m],tcp_pose_rx[rot_vec_x],tcp_pose_ry[rot_vec_y],tcp_pose_rz[rot_vec_z],tcp_velo_x[m/s],tcp_velo_y[m/s],tcp_velo_z[m/s],tcp_velo_rx[rot_vec_x/s],tcp_velo_ry[rot_vec_y/s],tcp_velo_rz[rot_vec_z/s],q1[rad],q2[rad],q3[rad],q4[rad],q5[rad],q6[rad],qd1[rad/s],qd2[rad/s],qd3[rad/s],qd4[rad/s],qd5[rad/s],qd6[rad/s],tool_acc_x,tool_acc_y,tool_acc_z,current_of_whole_robot[A],voltage_of_whole_robot[V],current_J1[A],current_J2[A],current_J3[A],current_J4[A],current_J5[A],current_J6[A],temp_J1[C],temp_J2[C],temp_J3[C],temp_J4[C],temp_J5[C],temp_J6[C]
9.459909e-07,-0.953945,-1.0130094,0.17457147,-0.022132013,0.0060355403,-0.0060329507,-0.38104802,-0.34854257,0.059961267,-3.0785365,0.624727,-0.0002054255,0.0020705718,0.0010199229,-0.0022544996,0.0024334376,-0.005026276,-0.00030332248,0.47783422,-1.4259095,1.957703,-2.1008208,-1.5707573,2.452692,-9.6629785e-21,0.0011005385,0.0037255841,0.00075568387,0.00016033907,0.000301179,0.019153614,0.11492168,-8.734048,0.8247004,47.719128,0.027782531,-2.8398104,-2.4633298,-0.45396015,0.16303088,0.20473936,28.5,29.625,28.875,32.9375,35.3125,36.375
0.0020543719,-0.82784235,-0.7355572,0.22029799,-0.020538392,0.0030823413,-0.012612581,-0.38105324,-0.34854746,0.05997102,-3.0785575,0.624732,-0.0001324804,-0.0002232003,-0.00017387122,-0.0031042367,-0.00088746805,0.0013470388,-0.00033135418,0.47784615,-1.4259325,1.9577159,-2.1008604,-1.5707697,2.4527044,-1.2964119e-22,0.0036741088,0.005317948,-0.010596854,0.00015571722,0.00033111052,0.038307227,0.15322891,-8.772355,0.66803825,47.696735,-0.005120199,-2.8438907,-2.5027766,-0.39283967,0.14510526,0.16920462,28.5,29.625,28.875,32.9375,35.3125,36.375
0.004054518,-0.35910684,-0.78888285,0.099068195,-0.01575977,0.01584807,-0.013243205,-0.381049,-0.34851822,0.059957348,-3.0785027,0.624817,-0.000203936,-0.0009905291,-0.0005719985,-0.0026146902,-0.001885911,0.0032743155,-0.0003178261,0.4777981,-1.4259326,1.9577392,-2.100825,-1.5707697,2.4527164,-1.739302e-24,0.0036730852,0.0045103775,-0.011958793,0.00015135249,0.00031826276,0.038307227,0.1340753,-8.714894,0.7351769,47.675243,-0.023448944,-3.1627073,-2.68394,-0.3061035,0.14034823,0.17658027,28.5,29.625,28.875,32.9375,35.3125,36.375
0.006054773,0.026129156,0.17210396,0.21277767,-0.010700853,0.004863291,-0.015769213,-0.38104934,-0.34853873,0.059947778,-3.0785284,0.6248029,-0.00016055025,-0.00059004937,-0.00036172254,-0.0017768721,-0.0011415755,0.0018599179,-0.0003474444,0.47783422,-1.425909,1.9577502,-2.1008952,-1.5707697,2.4527404,-2.3334954e-26,0.0025339047,0.0029061458,-0.007617096,0.00014721732,0.0003476514,0.076614454,0.1340753,-8.810662,0.72622824,47.666286,-0.03644801,-3.0875568,-2.6633377,-0.3366119,0.15361035,0.19137022,28.5,29.625,28.875,32.9375,35.3125,36.375
0.008053985,0.19915363,-0.19236386,-0.5454149,0.03725831,-0.021832403,-0.0063386587,-0.381052,-0.34851977,0.059936143,-3.0784993,0.6248354,-0.0002037602,-0.00033874463,-0.00023677686,-0.00041921047,-0.0012193659,0.0019822519,-0.00033272983,0.4777981,-1.4258981,1.9577612,-2.1008818,-1.5707697,2.4527283,-3.130682e-28,8.621628e-05,0.0018222922,-0.004230015,0.00016559978,0.00033237756,0.019153614,0.19153613,-8.868123,0.6971306,47.72719,-0.011355146,-2.9203107,-2.5551887,-0.35543644,0.15885952,0.17933284,28.5,29.625,28.875,32.9375,35.3125,36.375
0.01005397,-0.007513906,0.2872152,-0.69395953,0.021385413,-0.024265066,-0.008463698,-0.38104975,-0.34853023,0.0599306,-3.0785036,0.6247202,-0.00018036205,-0.00049448764,-0.00031703015,7.517765e-05,-0.0010830968,0.0017274109,-0.0003159016,0.47783422,-1.4258741,1.9577492,-2.1008937,-1.5707935,2.452692,-4.2002095e-30,1.1567014e-06,0.00037496703,-0.0024086589,0.00016277656,0.00031590677,0.038307227,0.19153613,-9.11712,0.7239871,47.660015,-0.43508637,-2.3687215,-3.0655088,-0.38027132,0.1437845,0.14302841,28.5,29.625,28.875,32.9375,35.3125,36.375
0.012054033,-0.21942389,-0.8086632,-0.93222606,-0.004117674,-0.00947381,-0.016976442,-0.38104331,-0.34852657,0.059938595,-3.0784955,0.6247771,-0.00026448775,0.00025038578,0.00011190454,-0.002519996,0.0019241717,-0.003982451,-0.00022369313,0.47781014,-1.4258846,1.9577264,-2.1008208,-1.5707573,2.4527044,-4.9007915e-05,0.0052065062,5.030661e-06,-0.0007907158,0.000120850964,0.00017545026,0.038307227,0.1340753,-9.32781,0.7777002,47.666286,-0.7117539,-2.2534063,-3.2166271,-0.3861186,0.12461441,0.11756845,28.5,29.625,28.875,32.9375,35.3125,36.375
0.014054215,-0.6360577,-1.173297,-1.0207756,-0.046685435,0.014277252,-0.0144676035,-0.38104802,-0.3485048,0.059916973,-3.0784538,0.62477326,-0.00028478217,-0.005529051,0.0024548217,-0.004281368,0.0033990503,-0.006777174,-0.009551946,0.4777829,-1.4258565,1.9577464,-2.1008327,-1.5707816,2.45268,-0.009546724,0.015402855,-0.0077549443,-6.7057634e-05,8.09735e-05,1.1455648e-05,-0.019153614,0.19153613,-9.5385,0.78888994,47.68599,-0.31312808,-3.0497775,-2.9689083,-0.38599986,0.11713938,0.0818504,28.5,29.625,28.875,32.9375,35.3125,36.375
0.016054645,-1.1231275,-2.0113018,-1.1767417,-0.06504256,0.047592755,-0.016710086,-0.38102835,-0.34850067,0.059874263,-3.0783973,0.62485594,-0.0004498935,-0.0062145637,0.0027122141,-0.0030451643,0.002270991,-0.0045918925,-0.0063114013,0.47777048,-1.4257855,1.9577578,-2.1008089,-1.5707458,2.4527264,-0.010634172,0.013132431,-0.008007072,-4.3783843e-06,7.53288e-05,-0.0043167826,-0.22984336,0.21068975,-9.653421,0.7709874,47.690468,-0.2863736,-2.764225,-3.1841702,-0.3779109,0.109242484,0.095562495,28.5,29.625,28.875,32.9375,35.3125,36.375
0.018054632,-1.9667606,-2.418718,-1.3719509,-0.069254555,0.06859562,-0.017800596,-0.38104057,-0.34849158,0.059887826,-3.0783966,0.6247977,-0.00041435234,-0.0050759516,0.003211718,-0.003179039,0.0036373395,-0.0072065834,-0.005052045,0.4777585,-1.4257977,1.957735,-2.1007836,-1.5707697,2.4526782,-0.01046518,0.012355169,-0.0075616776,0.003277374,7.216083e-05,-0.0054081464,-0.4213795,0.3256114,-9.653421,0.6971306,47.721813,-0.43797386,-2.597223,-3.3512414,-0.387186,0.10810082,0.084718645,28.5,29.625,28.875,32.9375,35.3125,36.375
0.020054752,-1.7517499,-1.7418078,-1.4623286,-0.058821443,0.089794226,-0.023257801,-0.38106093,-0.34848374,0.059874568,-3.0783775,0.62491065,-0.00046680582,-0.0061306525,0.0031586282,-0.0028104947,0.003564957,-0.0070677227,-0.0063399733,0.4777102,-1.4257494,1.9577101,-2.1007836,-1.5707458,2.4527028,-0.011346215,0.013634917,-0.01011788,0.0043974356,6.93651e-05,-0.00499998,-0.51714754,0.30645782,-9.825804,0.7418897,47.689575,-0.5918656,-2.476328,-3.5029645,-0.41221362,0.10258142,0.050389808,28.5,29.625,28.875,32.9375,35.3125,36.375
0.022054162,-2.1014698,-1.6339085,-1.378136,-0.033222314,0.08296374,-0.025927842,-0.38107002,-0.34850147,0.059864376,-3.0783992,0.62483877,-0.0004532696,-0.008224802,0.0037045327,-0.0030898193,0.003416984,-0.006790819,-0.00924424,0.47773322,-1.4257005,1.9576858,-2.1008193,-1.5707458,2.4526782,-0.014255576,0.016478634,-0.012558459,0.0036803638,6.679285e-05,-0.00500324,-0.49799395,0.3256114,-9.902418,0.7642693,47.71017,-0.6258629,-2.5015712,-3.441185,-0.39671353,0.1073952,0.0318733,28.5,29.625,28.875,32.9375,35.3125,36.375
0.024054566,-1.7334844,-0.88653713,-1.5148784,-0.03813959,0.08775627,-0.037760682,-0.38106444,-0.34847608,0.059835996,-3.078315,0.62486047,-0.0005457306,-0.0101053715,0.0034382292,-0.0022187228,0.002109304,-0.0042797676,-0.009394522,0.47770873,-1.4256523,1.9576849,-2.1007717,-1.5707697,2.452678,-0.015522777,0.017260762,-0.015226299,0.0027346262,6.4403925e-05,-0.0061185006,-0.5554548,0.30645782,-9.9790325,0.784413,47.678825,-0.64755714,-2.4329562,-3.3887522,-0.37410802,0.082808614,0.045614585,28.5,29.625,28.875,32.9375,35.3125,36.375
0.02605435,-2.5056386,-1.4856286,-1.5548834,-0.033590436,0.0616883,-0.026992332,-0.38110787,-0.34847814,0.059848465,-3.0783484,0.6248872,-0.0004721781,-0.011334471,0.0038842899,-0.0025549084,0.0020521695,-0.0041412483,-0.010253221,0.47767216,-1.4256277,1.9576367,-2.1008084,-1.5707697,2.452654,-0.017441655,0.018984014,-0.016223878,0.0018595561,4.694224e-05,-0.0071776886,-0.7086837,0.17238252,-9.902418,0.80679786,47.684196,-0.55812097,-2.5397556,-3.4212246,-0.36550242,0.06577921,0.0006605473,28.5,29.625,28.875,32.9375,35.3125,36.375
0.028054168,-2.3707845,-1.64239,-1.6442578,-0.035697628,0.06709941,-0.034633633,-0.3811061,-0.34845072,0.05981539,-3.0782554,0.6249054,-0.00055320066,-0.012332909,0.0033537033,-0.0017698783,0.0011280364,-0.002336018,-0.00879219,0.47764823,-1.4255677,1.9576358,-2.1007721,-1.5708054,2.4526532,-0.017413054,0.019276038,-0.018295402,0.0016105562,3.1086292e-05,-0.00860895,-0.7852981,0.19153613,-9.883265,0.68818194,47.698532,-0.60208774,-2.4537187,-3.428424,-0.33435544,0.07127193,-0.011028319,28.5,29.625,28.875,32.9375,35.3125,36.375
0.030053684,-1.6671408,-1.2373397,-1.655083,-0.036224406,0.09075177,-0.055539437,-0.38113332,-0.34847713,0.05983669,-3.0783446,0.6249622,-0.00063049723,-0.012925424,0.003412411,-0.001387675,0.0010832263,-0.0022174995,-0.008159152,0.47759992,-1.4255437,1.9575514,-2.100736,-1.5706977,2.4526289,-0.018053785,0.01961469,-0.019790135,0.002641649,1.4886061e-05,-0.009882083,-0.7086837,0.13407528,-9.80665,0.7732232,47.68599,-0.6755842,-2.4671605,-3.4309263,-0.32626975,0.0548203,-0.043913968,28.5,29.625,28.875,32.9375,35.3125,36.375
0.032054335,-2.1985142,-0.9638585,-1.4164733,-0.019671557,0.0755699,-0.060048856,-0.38116992,-0.3484676,0.05983896,-3.078299,0.62499017,-0.00055791566,-0.013082322,0.0035844245,-0.0013604405,0.0020390595,-0.004031298,-0.0066011166,0.4775878,-1.4254953,1.9574908,-2.100735,-1.5707573,2.45264,-0.018495692,0.020775283,-0.021846196,0.005586453,9.719533e-07,-0.011881365,-0.63206923,0.0,-9.902418,0.7351769,47.67614,-0.75223845,-2.441843,-3.4134042,-0.35039887,0.04158721,-0.040368944,28.5,29.625,28.875,32.9375,35.3125,36.375
0.034054235,-1.3993979,-0.104851834,-1.3074249,-0.0038115983,0.085875675,-0.07614547,-0.3811768,-0.34845743,0.05981951,-3.0782816,0.62492865,-0.000615329,-0.014187286,0.0036994594,-0.0011297,0.0019353807,-0.0038390767,-0.0063799443,0.47756338,-1.425447,1.9574775,-2.100723,-1.5707573,2.4525795,-0.01972283,0.022022903,-0.023939539,0.006213581,6.3461606e-08,-0.013328548,-0.47884035,-0.076614454,-9.768343,0.7709874,47.655537,-0.72340596,-2.420035,-3.2560945,-0.35983533,0.017768793,-0.016331628,28.5,29.625,28.875,32.9375,35.3125,36.375
0.03605444,-1.3614001,-0.073153436,-1.2592638,0.019285262,0.061919842,-0.089575544,-0.38122305,-0.3484516,0.059822813,-3.0782936,0.6249904,-0.00059762225,-0.015669333,0.0038549593,-0.0008128428,0.0011175652,-0.0022706413,-0.008121537,0.47750273,-1.4253988,1.9574178,-2.1007354,-1.5707458,2.452556,-0.02136856,0.022827178,-0.025308032,0.005009128,4.143589e-09,-0.013231627,-0.40222588,-0.1340753,-9.691729,0.78888994,47.675243,-0.6775671,-2.3976007,-3.4159598,-0.33423987,0.009021645,-0.03292624,28.5,29.625,28.875,32.9375,35.3125,36.375
0.03805402,-0.7894068,0.42072126,-1.1865427,0.0020020527,0.059622113,-0.104615346,-0.3812855,-0.34845492,0.059854385,-3.0783126,0.6250716,-0.0004706274,-0.017283756,0.0038426812,-1.13385195e-05,-7.358354e-05,2.091552e-05,-0.009916441,0.47746632,-1.4253749,1.957321,-2.1007473,-1.5707697,2.4525678,-0.0228374,0.023011878,-0.027137913,0.004071404,2.7054678e-10,-0.012904424,-0.40222588,-0.1340753,-9.595961,0.7396539,47.71017,-0.63296807,-2.418513,-3.4399254,-0.297204,0.0031317838,-0.03733915,28.5,29.625,28.875,32.9375,35.3125,36.375
0.040054575,-1.2078892,-0.23502907,-1.1681893,0.010983701,0.03530915,-0.10393289,-0.38132286,-0.3484382,0.059835605,-3.0783,0.62510896,-0.00051142584,-0.019059729,0.003676287,0.00083131745,-0.00071798824,0.001801489,-0.011323959,0.47739395,-1.4253025,1.9572843,-2.1007597,-1.5707573,2.4525204,-0.024018869,0.024107562,-0.030375287,0.004336627,-0.00025228626,-0.012676116,-0.3256114,-0.11492168,-9.557653,0.7620334,47.687782,-0.67468536,-2.3772974,-3.3095183,-0.2866264,0.010885959,-0.06371477,28.5,29.625,28.875,32.9375,35.3125,36.375
0.042054307,-1.1678786,-0.76988345,-1.29897,0.017762592,0.026044704,-0.10609953,-0.38137013,-0.34842873,0.05983975,-3.0783026,0.6250895,-0.0005130739,-0.019320574,0.0046562115,0.00056465104,0.0015613898,0.0004934332,-0.01188817,0.47733364,-1.4252423,1.9572004,-2.1007345,-1.5707577,2.4524477,-0.0250763,0.024948446,-0.031232929,0.0065674866,-0.0016728365,-0.013166353,-0.24899697,-0.11492168,-9.519346,0.7463667,47.635834,-0.6798997,-2.3274505,-3.2784424,-0.2998196,0.00076504296,-0.044839364,28.5,29.625,28.875,32.9375,35.3125,36.375
0.04405442,-0.99226105,-0.84998715,-1.2775633,0.007983783,0.019280296,-0.118559696,-0.38140905,-0.34843263,0.059865918,-3.078322,0.6252283,-0.00045170606,-0.019817466,0.005056187,0.00024929337,0.0023000333,-0.0008456306,-0.012829067,0.47729716,-1.4252417,1.9571398,-2.100734,-1.5707463,2.4524953,-0.026219113,0.026473766,-0.03255228,0.007890455,-0.0017129065,-0.0133676445,-0.11492168,-0.038307227,-9.557653,0.69937176,47.67614,-0.6804223,-2.382908,-3.2677412,-0.31969115,-0.028991656,-0.0872273,28.5,29.625,28.875,32.9375,35.3125,36.375
0.046054445,-0.49438307,-0.51382965,-1.0880741,-0.010558602,0.02498002,-0.13666116,-0.3814325,-0.34839982,0.05982415,-3.078224,0.62532353,-0.0005719964,-0.020702254,0.0055038678,0.00050213543,0.002700037,-0.000597566,-0.013414196,0.4772248,-1.4251338,1.9571041,-2.1006982,-1.5707582,2.4524949,-0.027524462,0.02701393,-0.033931732,0.008694449,-0.002185282,-0.014086091,-0.11492168,0.095768064,-9.481039,0.779936,47.678825,-0.69036484,-2.3098087,-3.3232212,-0.3087289,-0.009418587,-0.08542609,28.5,29.625,28.875,32.9375,35.3125,36.375
0.048053756,-0.76519513,-1.5606076,-1.2791282,2.8442844e-05,0.014494995,-0.13014096,-0.38146597,-0.34838352,0.059834916,-3.0781999,0.62530035,-0.0005366819,-0.021470655,0.005923047,0.00068032154,0.0033632389,-0.0008986031,-0.014142786,0.4771884,-1.4251096,1.9570435,-2.1006615,-1.5707945,2.4524472,-0.028685182,0.027850326,-0.03561641,0.010115708,-0.0026368154,-0.014516589,-0.076614454,0.11492168,-9.5385,0.7105615,47.694054,-0.6262852,-2.257668,-3.326138,-0.3105623,-0.032873064,-0.0927206,28.5,29.625,28.875,32.9375,35.3125,36.375
0.050054416,-0.9723016,-1.5089934,-1.2687552,-0.0073471707,0.004925359,-0.14036262,-0.3815556,-0.3483782,0.059867136,-3.0782132,0.6254186,-0.0004360383,-0.022944205,0.0060438816,0.0013331978,0.003068437,0.000215105,-0.014533513,0.47710386,-1.4250494,1.9568986,-2.1006496,-1.5708064,2.4524348,-0.030091517,0.028688053,-0.038208675,0.010745856,-0.0028901566,-0.015530573,-0.076614454,0.2681506,-9.615114,0.784413,47.690468,-0.62979794,-2.237704,-3.277947,-0.30316523,-0.030394794,-0.1100178,28.5,29.625,28.875,32.9375,35.3125,36.375
0.05205422,-0.8934758,-1.6730607,-1.2615505,-0.02203814,0.0039775893,-0.15742154,-0.38157928,-0.34836343,0.05984596,-3.078184,0.6254124,-0.0004946523,-0.023580518,0.0063394285,0.0015009941,0.0031141732,0.00019180239,-0.0149681745,0.47705558,-1.4249773,1.9568619,-2.1006372,-1.5708064,2.4523864,-0.031182308,0.029116333,-0.039226238,0.011376685,-0.002922,-0.01618605,0.019153614,0.30645782,-9.5385,0.7105615,47.690468,-0.6419395,-2.1912906,-3.2954354,-0.30986565,-0.035166513,-0.1191459,28.5,29.625,28.875,32.9375,35.3125,36.375
0.054054458,-0.05354256,-1.6955417,-1.3281413,-0.032993454,0.02390635,-0.177769,-0.3816228,-0.34836316,0.059870988,-3.0781999,0.62545455,-0.00047792122,-0.024320217,0.006490118,0.0016363221,0.003120988,0.00015639195,-0.015074187,0.47700718,-1.424953,1.956766,-2.100589,-1.5707945,2.4523623,-0.032135975,0.02997076,-0.040647153,0.01197762,-0.002913615,-0.01703306,0.038307227,0.2681506,-9.481039,0.77545905,47.661808,-0.7084075,-2.2068639,-3.3470907,-0.30298162,-0.04567381,-0.12836584,28.5,29.625,28.875,32.9375,35.3125,36.375
0.05605387,-0.74192387,-1.7457608,-1.2178011,-0.0448292,0.008973458,-0.1788916,-0.38166863,-0.3483419,0.059866942,-3.0781424,0.6255776,-0.0005101326,-0.02518963,0.0067480835,0.0013246188,0.0035053727,-0.0008335235,-0.015806574,0.47693473,-1.4248804,1.9566816,-2.1005414,-1.5708064,2.452374,-0.033466406,0.03202926,-0.042471405,0.012798342,-0.0028037636,-0.017630147,-0.05746084,0.4213795,-9.5385,0.7418897,47.67614,-0.6594926,-2.213193,-3.2662072,-0.3197444,-0.06047197,-0.15084514,28.5,29.625,28.875,32.9375,35.3125,36.375
0.058053687,-1.1942388,-2.0802999,-1.1638335,-0.031338733,0.0045337267,-0.18604957,-0.38172555,-0.34831733,0.059869148,-3.0781457,0.6255981,-0.0004963288,-0.02609883,0.0069033327,0.0016362561,0.0037310913,-0.00020710501,-0.016154442,0.47683844,-1.4248322,1.9566215,-2.1005409,-1.5708064,2.45229,-0.034258466,0.032746613,-0.04411009,0.0132681625,-0.0032945387,-0.018072527,-0.038307227,0.36391866,-9.519346,0.70608455,47.716442,-0.6059283,-2.1880722,-3.3149695,-0.33373696,-0.06712011,-0.15826884,28.5,29.625,28.875,32.9375,35.3125,36.375
0.06005465,-0.7619333,-1.9171593,-1.1311435,-0.031793263,0.021030817,-0.20066996,-0.38178477,-0.34831682,0.059897494,-3.0781462,0.6255971,-0.0003743119,-0.027311884,0.00672508,0.002725752,0.003257805,0.0029157787,-0.014860422,0.47681442,-1.4247965,1.9565133,-2.100529,-1.570855,2.4522655,-0.034396477,0.032101672,-0.045691032,0.012504652,-0.0043121395,-0.019501898,0.0,0.3256114,-9.557653,0.7597976,47.683304,-0.64231944,-2.1271524,-3.233727,-0.33017653,-0.061124433,-0.16539624,28.5,29.625,28.875,32.9375,35.3125,36.375
0.062054392,-0.96355176,-1.7396053,-1.181413,-0.033920527,0.033674225,-0.19006145,-0.38183564,-0.34831524,0.059900176,-3.078183,0.62566155,-0.00045904284,-0.028585782,0.007227794,0.0027119033,0.0041819895,0.0038899202,-0.01523469,0.4767181,-1.4247242,1.9564165,-2.1004932,-1.5707835,2.4522047,-0.035634186,0.03347291,-0.047145333,0.012151723,-0.0055848067,-0.02036174,-0.1340753,0.28730422,-9.519346,0.7665104,47.71465,-0.6352507,-2.0883896,-3.3126218,-0.33110142,-0.08616106,-0.19138685,28.5,29.625,28.875,32.9375,35.3125,36.375
0.064054444,-1.134169,-1.4441928,-1.0315945,-0.0329615,0.039309893,-0.19787247,-0.38188794,-0.34829292,0.059886497,-3.0781198,0.625764,-0.00047930275,-0.030547377,0.007204666,0.0029107197,0.0050416044,0.0055017164,-0.015030289,0.47664586,-1.4246275,1.9563321,-2.1004694,-1.5708078,2.4522045,-0.036418654,0.036221802,-0.050682895,0.011907047,-0.0070974655,-0.021345083,-0.05746084,0.2681506,-9.442732,0.77545905,47.67614,-0.7361207,-2.0981514,-3.215012,-0.33185995,-0.04121112,-0.2015816,28.5,29.625,28.875,32.9375,35.3125,36.375
0.06605427,-1.157946,-1.5964018,-1.1288799,-0.018910332,0.048070643,-0.16847296,-0.3819538,-0.3482752,0.05989755,-3.078098,0.6258172,-0.00046939368,-0.030411214,0.007789779,0.002039201,0.0069804736,0.004421837,-0.014054058,0.47656167,-1.4245552,1.9562134,-2.1004212,-1.5708202,2.4521563,-0.036530126,0.03753745,-0.050207984,0.011968832,-0.008324206,-0.02243033,-0.17238252,0.24899697,-9.423578,0.7597976,47.647476,-0.77806056,-2.113399,-3.132176,-0.33097237,-0.043991886,-0.19996238,28.5,29.625,28.875,32.9375,35.3125,36.375
0.06805372,-1.0279354,-1.0598996,-1.050568,-0.017063009,0.0527769,-0.16815874,-0.38202786,-0.34826627,0.059910044,-3.0780964,0.6258352,-0.00037325337,-0.03152003,0.00818642,0.001509497,0.008558125,0.0048123384,-0.013141687,0.47650146,-1.4244823,1.9561046,-2.100434,-1.5708574,2.4521077,-0.03722369,0.039994717,-0.051661,0.011345242,-0.009909484,-0.024032291,-0.19153614,0.24899697,-9.346964,0.70608455,47.682407,-0.8247058,-2.1404839,-3.3244257,-0.31443533,-0.029996952,-0.21267428,28.5,29.625,28.875,32.9375,35.3125,36.375
0.07005446,-0.5593839,-0.8819812,-0.78162855,-0.015488222,0.058226246,-0.17257482,-0.38208053,-0.34824857,0.05989936,-3.078072,0.6258683,-0.00037650377,-0.033035655,0.008369154,0.0015771174,0.010095145,0.0063261865,-0.012179901,0.47642946,-1.4243978,1.9560326,-2.100434,-1.5708698,2.4520595,-0.03760055,0.042189546,-0.0542732,0.011128402,-0.011976715,-0.025364997,-0.17238252,0.19153613,-9.32781,0.800085,47.698532,-0.91309583,-2.2394986,-3.2223246,-0.2999931,-0.039684992,-0.19871825,28.5,29.625,28.875,32.9375,35.3125,36.375
0.07205414,-0.8421723,-0.8891833,-0.9818167,-0.0026869546,0.052494776,-0.1730224,-0.38214812,-0.3482567,0.05991591,-3.0780852,0.6258512,-0.00035951735,-0.035031375,0.007400201,0.003633595,0.007179785,0.01034167,-0.0114970375,0.47638115,-1.4243022,1.9558748,-2.1003864,-1.5708693,2.451999,-0.038193315,0.041369356,-0.057946023,0.0107125295,-0.011236409,-0.026640477,-0.19153613,0.17238252,-9.289502,0.7351769,47.71823,-0.9080641,-2.1654189,-3.077777,-0.29285353,-0.013263798,-0.20953391,28.5,29.625,28.875,32.9375,35.3125,36.375
0.07405396,-1.2222457,-1.1855228,-1.0627966,0.001931006,0.039887153,-0.15602578,-0.3822141,-0.348231,0.059924807,-3.078039,0.6259758,-0.0003129646,-0.033745836,0.0071613123,0.002116251,0.0068264077,0.005795376,-0.010471597,0.4762972,-1.4242417,1.9557799,-2.100362,-1.5709041,2.4519987,-0.03813712,0.043338843,-0.056929465,0.011593858,-0.008833406,-0.027614944,-0.2681506,0.13407528,-9.346964,0.779936,47.67614,-0.9966151,-2.1559422,-3.1524887,-0.29175508,-0.023375921,-0.23264182,28.5,29.625,28.875,32.9375,35.3125,36.375
0.0760541,-1.0153924,-1.1781884,-0.9977324,-0.0040631024,0.043594047,-0.1650381,-0.3822922,-0.34823108,0.05994895,-3.0780644,0.6259996,-0.00025664282,-0.03422089,0.007019672,0.0016520325,0.0058520073,0.004429842,-0.010595218,0.47622493,-1.4241692,1.9556364,-2.1003377,-1.5709037,2.4519382,-0.03928365,0.04511459,-0.0578849,0.0115340995,-0.0073426384,-0.028640367,-0.21068975,0.076614454,-9.32781,0.7418897,47.685097,-1.0316528,-2.271109,-3.24052,-0.29010174,-0.05463362,-0.23901246,28.5,29.625,28.875,32.9375,35.3125,36.375
0.0780552,-0.4491887,-0.91950244,-0.78223634,-0.018732905,0.053488366,-0.1710154,-0.38238147,-0.34821886,0.05996499,-3.0780816,0.6260212,-0.0001862164,-0.035475522,0.006213199,0.0023562575,0.0043071327,0.0048596463,-0.009451309,0.4761287,-1.4240848,1.9555033,-2.1003373,-1.5709156,2.4518533,-0.03975889,0.046687532,-0.06151076,0.012491132,-0.0061713303,-0.030260192,-0.15322891,0.076614454,-9.308656,0.7732232,47.72092,-1.0824986,-2.2250657,-3.1466117,-0.28879514,-0.06721565,-0.24903977,28.5,29.625,28.875,32.9375,35.3125,36.375
0.08005391,-0.9490658,-1.2359954,-0.9974126,-0.003633506,0.038676556,-0.16064073,-0.38243583,-0.34821105,0.059960555,-3.0780728,0.626039,-0.00022776665,-0.035856266,0.0061150054,0.0022446022,0.004158188,0.00467461,-0.008869072,0.47605658,-1.4239885,1.9553956,-2.100302,-1.5709032,2.4517934,-0.040068164,0.047636528,-0.062337026,0.0124635,-0.005956925,-0.031151403,-0.2681506,0.114921674,-9.32781,0.7597976,47.71286,-1.1747553,-2.2235203,-3.0570872,-0.2817298,-0.08691861,-0.2634884,28.5,29.625,28.875,32.9375,35.3125,36.375
0.08205463,-0.8793975,-1.0726098,-1.0345285,0.005130317,0.0449943,-0.16170827,-0.38251382,-0.3481838,0.059956588,-3.0780187,0.62612385,-0.00020708986,-0.037129905,0.006594388,0.0023293963,0.005237877,0.0050975345,-0.00927374,0.47596014,-1.4238801,1.9552754,-2.1002777,-1.5709399,2.451757,-0.041334156,0.049223796,-0.06450709,0.013167303,-0.0071139997,-0.03200925,-0.24899697,0.15322891,-9.3661175,0.7038487,47.694054,-1.227262,-2.1583638,-3.124711,-0.26854208,-0.083592296,-0.2481178,28.5,29.625,28.875,32.9375,35.3125,36.375
0.08405477,-0.77971417,-0.92540205,-0.87463427,0.0027866743,0.054642763,-0.16632952,-0.38257807,-0.34819177,0.05996223,-3.0780516,0.6260532,-0.0002297391,-0.037938055,0.006830862,0.0024815907,0.006566564,0.006210331,-0.00863782,0.4759001,-1.4237721,1.9551309,-2.1002414,-1.570917,2.4516487,-0.041392364,0.05012475,-0.06591879,0.013303896,-0.008807773,-0.03269933,-0.17238252,0.17238252,-9.32781,0.8179876,47.67614,-1.2504002,-2.1355834,-3.1053863,-0.27278376,-0.09237188,-0.26688942,28.5,29.625,28.875,32.9375,35.3125,36.375
0.08605384,-0.990753,-0.63215685,-0.93037707,-0.0071885423,0.049762882,-0.16157867,-0.38262394,-0.34815463,0.059940845,-3.0779686,0.62609524,-0.00028276024,-0.039688095,0.008189662,0.0024056046,0.0077634207,0.0063572805,-0.011249284,0.4758151,-1.4236758,1.9550589,-2.1001937,-1.5709528,2.4516006,-0.044674743,0.051545106,-0.067504026,0.013888381,-0.009943554,-0.033366468,-0.19153613,0.13407528,-9.32781,0.7620334,47.675243,-1.1913035,-2.1911955,-3.0680764,-0.26559988,-0.06596597,-0.2772351,28.5,29.625,28.875,32.9375,35.3125,36.375
0.088054284,-0.71375734,-1.0173796,-0.83540636,-0.00563848,0.05783137,-0.1657852,-0.38273412,-0.34813055,0.059947427,-3.0779328,0.62620276,-0.00021679852,-0.04104141,0.008465504,0.00271899,0.008781472,0.0077598183,-0.011653742,0.47569492,-1.4235436,1.9548901,-2.1001813,-1.57099,2.4515522,-0.045391418,0.052837454,-0.06973855,0.0140530765,-0.011494412,-0.033674613,-0.17238252,0.21068975,-9.385271,0.7172743,47.699425,-1.2083641,-2.1616204,-3.0873737,-0.26946494,-0.07291199,-0.27233195,28.5,29.625,28.875,32.9375,35.3125,36.375
0.09005374,-1.3648033,-1.4820528,-0.999033,-0.005249,0.041053407,-0.15783733,-0.38283437,-0.34812894,0.05997845,-3.0779638,0.62616974,-8.042824e-05,-0.04132452,0.008505481,0.0024632155,0.010931429,0.008016185,-0.009700139,0.47562322,-1.423459,1.9547228,-2.1001809,-1.5710262,2.451456,-0.04439734,0.05441233,-0.07107341,0.014574555,-0.013522217,-0.034630474,-0.24899697,0.15322891,-9.346964,0.7642693,47.67614,-1.3367095,-2.1902623,-3.0553641,-0.262495,-0.051913626,-0.28981358,28.5,29.625,28.875,32.9375,35.3125,36.375
0.092054546,-1.0867156,-1.291193,-1.1454921,-0.018168429,0.046805084,-0.1556248,-0.3829233,-0.34812906,0.060009368,-3.0779781,0.6263076,-5.9586087e-05,-0.042948734,0.009338824,0.003222859,0.010631516,0.009054385,-0.010417005,0.4755261,-1.4233754,1.954543,-2.1001213,-1.5710024,2.4514432,-0.047222488,0.054317974,-0.072900645,0.015435288,-0.013732134,-0.036738142,-0.3256114,0.17238252,-9.32781,0.7351769,47.68599,-1.309857,-2.0959237,-3.0540452,-0.26249743,-0.023201816,-0.30615216,28.5,29.625,28.875,32.9375,35.3125,36.375
0.094054595,-0.75054353,-1.0216528,-1.0352714,-0.029366082,0.059148755,-0.16316323,-0.3829856,-0.34809154,0.059990667,-3.0779326,0.6263185,-8.327836e-05,-0.043182313,0.009915976,0.0009882286,0.012494386,0.004562584,-0.011022287,0.47541758,-1.4232774,1.954471,-2.1001089,-1.5710262,2.4513474,-0.048713725,0.059451688,-0.0738029,0.016045986,-0.013334433,-0.037623182,-0.22984336,0.19153613,-9.385271,0.8314132,47.691364,-1.2997985,-2.24292,-3.0174766,-0.24005039,-0.029786909,-0.28470653,28.5,29.625,28.875,32.9375,35.3125,36.375
0.09605391,-1.0209699,-1.4078647,-1.1554973,-0.027709588,0.049092617,-0.15554412,-0.38306993,-0.34807652,0.05999261,-3.0779023,0.62635255,-0.00010126239,-0.044969663,0.01040901,0.0023247837,0.009588489,0.005961837,-0.016011491,0.47532037,-1.4231459,1.9543027,-2.1000488,-1.5710372,2.4512753,-0.052477147,0.058118425,-0.07542702,0.016421191,-0.011394128,-0.03640027,-0.3256114,0.2681506,-9.3661175,0.7777002,47.689575,-1.1882538,-2.2872152,-3.0352645,-0.25202107,-0.022230208,-0.33318973,28.5,29.625,28.875,32.9375,35.3125,36.375
0.09805393,-0.8442366,-1.539482,-1.1508267,-0.021108149,0.054383624,-0.15873177,-0.38314575,-0.34806216,0.05997485,-3.0778599,0.6263043,-0.00011131155,-0.04470653,0.010086092,0.0021472771,0.009801196,0.005047778,-0.01461444,0.47524858,-1.4229896,1.9541591,-2.1000245,-1.5710734,2.451179,-0.05180005,0.058887053,-0.07609054,0.017222887,-0.011166229,-0.037119966,-0.38307226,0.21068975,-9.385271,0.7351769,47.70211,-1.2369864,-2.074149,-3.1331608,-0.2466611,-0.0602752,-0.34739745,28.5,29.625,28.875,32.9375,35.3125,36.375
0.100054614,-0.7479311,-1.5295924,-1.308906,-0.01155194,0.061624378,-0.16054913,-0.38324913,-0.3480479,0.05999178,-3.0778635,0.6263999,-6.6965746e-05,-0.045831095,0.010258438,0.0020696744,0.010860985,0.0059261164,-0.012918689,0.4751285,-1.4228808,1.9539908,-2.100001,-1.5710739,2.4511182,-0.05225095,0.06070165,-0.07793039,0.016954472,-0.012514603,-0.03926321,-0.2681506,0.22984336,-9.423578,0.76874626,47.68062,-1.3122193,-2.1539588,-3.0326016,-0.24166681,-0.027509734,-0.31886747,28.5,29.625,28.875,32.9375,35.3125,36.375
0.102054514,-1.2462128,-0.9558819,-1.2023937,-0.016442921,0.060981777,-0.16462107,-0.38333732,-0.34803241,0.059999656,-3.0778427,0.62635815,-3.388001e-05,-0.04709556,0.012057357,9.623329e-05,0.012976394,0.002487188,-0.015585825,0.47504306,-1.422759,1.953823,-2.0999534,-1.5711097,2.4510095,-0.056394964,0.06502554,-0.07840936,0.01713317,-0.012824186,-0.040738605,-0.26815057,0.21068975,-9.442732,0.7396539,47.705692,-1.2256153,-2.3070567,-3.1610556,-0.23668735,-0.040165976,-0.34273526,28.5,29.625,28.875,32.9375,35.3125,36.375
0.10405429,-1.1623553,-0.89873683,-1.0927844,-0.014436431,0.058415033,-0.16460405,-0.38343018,-0.34799248,0.05998903,-3.0777802,0.6264783,-0.00010747704,-0.049451847,0.011340537,0.0030989773,0.010216192,0.008094876,-0.013240625,0.47488683,-1.4226158,1.953667,-2.099881,-1.5711097,2.4509363,-0.057189453,0.062605545,-0.082592614,0.017484067,-0.01294623,-0.043875676,-0.24899697,0.21068975,-9.3661175,0.8112748,47.68599,-1.1944213,-2.147754,-3.05584,-0.21480608,-0.02998468,-0.34201008,28.5,29.625,28.875,32.9375,35.3125,36.375
0.106054634,-1.40538,-0.8404192,-0.98104376,-0.011262131,0.044613175,-0.1548679,-0.38354197,-0.3479941,0.06000898,-3.077812,0.62648576,1.51687245e-05,-0.048430104,0.012264411,0.00046880846,0.011954959,0.0028399487,-0.014978949,0.4748024,-1.4224944,1.9534882,-2.0999048,-1.5711335,2.4508526,-0.058436655,0.0658917,-0.080326386,0.017395237,-0.012081638,-0.043387838,-0.19153613,0.11492168,-9.3661175,0.7665104,47.661808,-1.2443774,-2.2497447,-3.208227,-0.20435944,-0.041230932,-0.3288873,28.5625,29.625,28.875,32.9375,35.3125,36.375
0.10805428,-0.5104263,-0.7103965,-0.9406108,-0.01701831,0.05701393,-0.16542113,-0.38362044,-0.34797153,0.05999213,-3.0777676,0.62649614,-5.6123035e-06,-0.04949059,0.012330588,0.00045827625,0.011828714,0.0028877833,-0.015687034,0.47470602,-1.4223499,1.9533561,-2.099881,-1.5711578,2.4507685,-0.05957056,0.06751368,-0.082198806,0.017542684,-0.011996958,-0.04381224,-0.28730422,0.076614454,-9.3661175,0.7396539,47.70211,-1.2367328,-2.2096024,-3.2822804,-0.20197786,-0.058861576,-0.36202496,28.5625,29.625,28.875,32.9375,35.3125,36.375
0.110053994,-0.7377811,-0.713096,-1.0069325,-0.019041015,0.049854428,-0.16319834,-0.3837219,-0.34793875,0.06001171,-3.0777283,0.62654364,5.638695e-05,-0.05099208,0.012364152,0.00090020953,0.011119865,0.0037739424,-0.013689906,0.4745856,-1.4222533,1.9531873,-2.0998213,-1.5712055,2.4506829,-0.061134018,0.06873417,-0.084630035,0.017634843,-0.011777753,-0.047372025,-0.22984336,0.0,-9.32781,0.7933669,47.705692,-1.2104895,-2.2914512,-3.0244222,-0.16723716,-0.033580527,-0.319681,28.5625,29.625,28.875,32.9375,35.3125,36.375
0.11205384,-0.98676795,-0.87285334,-1.0490383,-0.00848658,0.038552705,-0.15214196,-0.38385567,-0.34790614,0.060023576,-3.077734,0.62665987,0.00011282578,-0.050856426,0.013077553,-0.0003077948,0.012661328,0.0014768669,-0.012238602,0.47440523,-1.4221206,1.9530085,-2.0998213,-1.571206,2.4505744,-0.062046003,0.070647515,-0.08414512,0.017981786,-0.012096863,-0.049735285,-0.22984336,0.076614454,-9.346964,0.7553206,47.699425,-1.2691474,-2.2342238,-3.326974,-0.17110303,-0.043801866,-0.2947439,28.5625,29.625,28.875,32.9375,35.3125,36.375
0.11405436,-1.1152943,-0.771452,-0.8029895,-0.009865787,0.04570101,-0.16667926,-0.38395908,-0.3478897,0.060014986,-3.0776825,0.6266685,7.6484685e-05,-0.0523644,0.013365273,0.0007152581,0.01194705,0.0029869971,-0.012276078,0.47429657,-1.4219285,1.952792,-2.0997484,-1.5712298,2.4504778,-0.06388181,0.0704732,-0.08648709,0.018825052,-0.012157912,-0.051531967,-0.34476504,0.05746084,-9.3661175,0.8179876,47.711063,-1.2299807,-2.1998596,-3.2250922,-0.16023478,-0.03516968,-0.2988053,28.5625,29.625,28.875,32.9375,35.3125,36.375
0.11605448,-1.5309052,-0.74445885,-0.89169884,-0.0023649752,0.04150954,-0.15086967,-0.38406056,-0.34786752,0.06002621,-3.0776856,0.62672573,0.00010406108,-0.052794453,0.013915186,0.00019487324,0.012540018,0.0018823164,-0.011361378,0.47416416,-1.4218197,1.9526366,-2.0997245,-1.5712298,2.4503808,-0.065218486,0.071771994,-0.08686579,0.019155623,-0.012181251,-0.053783264,-0.2681506,0.019153614,-9.346964,0.7597976,47.692257,-1.2365053,-2.197245,-3.2912107,-0.1539505,-0.06012147,-0.25170022,28.5625,29.625,28.875,32.9375,35.3125,36.375
0.11805408,-0.9031405,-0.5893401,-0.91084427,0.008387333,0.06265967,-0.16023524,-0.38416106,-0.34784484,0.0600068,-3.0776522,0.62677574,5.8444104e-05,-0.05340908,0.014312513,0.00014125291,0.013029181,0.0016479717,-0.009766283,0.47403178,-1.4216393,1.9524692,-2.0997007,-1.5712298,2.450284,-0.066252716,0.0725911,-0.087820984,0.01972151,-0.012513968,-0.05641103,-0.28730422,0.0,-9.308656,0.78888994,47.716442,-1.2480476,-2.1457891,-3.36481,-0.14090616,-0.055805795,-0.22407064,28.5625,29.625,28.875,32.9375,35.3125,36.375
0.12005401,-0.6912,-0.41223252,-0.7468309,0.0021491435,0.06789125,-0.16309984,-0.38428304,-0.34780207,0.060019605,-3.0776064,0.62670875,0.00015419465,-0.054628354,0.015644658,-0.0003065636,0.013078901,0.00034485006,-0.011254129,0.47389847,-1.4215069,1.9522775,-2.0996525,-1.5713137,2.450115,-0.07006797,0.07378505,-0.08826913,0.020147905,-0.011964479,-0.058739323,-0.24899697,0.05746084,-9.32781,0.7642693,47.703007,-1.1129888,-2.1401443,-3.411922,-0.1281762,-0.042781524,-0.20968235,28.5625,29.625,28.875,32.9375,35.3125,36.375
0.1220535,-1.1043869,-0.6049805,-0.8514947,0.0038952883,0.062159248,-0.1581971,-0.3844011,-0.34779328,0.06002872,-3.07762,0.6267665,0.00017292715,-0.05588848,0.014456344,0.0010882398,0.012536674,0.0038217753,-0.007071254,0.47376725,-1.4213506,1.9520725,-2.0996287,-1.5713023,2.4500182,-0.06837155,0.07419149,-0.09190524,0.020037703,-0.013076707,-0.06122211,-0.34476504,0.076614454,-9.251195,0.7553206,47.690468,-1.230763,-2.094191,-3.2671404,-0.118543416,-0.0651678,-0.14209425,28.5625,29.625,28.875,32.9375,35.3125,36.375
0.12405466,-1.5488026,-0.8542891,-0.9066994,0.0018143937,0.05821867,-0.15732175,-0.38452247,-0.3477545,0.06004405,-3.077588,0.6267801,0.00020582128,-0.05552569,0.015481761,-0.00040601956,0.01364929,0.0006077331,-0.0070744776,0.47361055,-1.4212179,1.9518694,-2.0995567,-1.571338,2.4498742,-0.07014596,0.07582741,-0.090429164,0.020286208,-0.012598355,-0.06299472,-0.30645782,0.076614454,-9.270349,0.8224646,47.68062,-1.2081438,-2.0722597,-3.4816628,-0.09218209,-0.05090103,-0.1066398,28.5625,29.625,28.875,32.9375,35.3125,36.375
0.12605403,-1.424031,-0.7195285,-0.8725015,-0.012000871,0.06157737,-0.16122495,-0.38460422,-0.34771264,0.060007345,-3.0775077,0.62678444,0.00011237107,-0.05892122,0.016504435,0.0014943508,0.012334022,0.0029258423,-0.01188778,0.47347683,-1.4210374,1.9517359,-2.0995085,-1.5713619,2.4497535,-0.0751138,0.07597674,-0.0954569,0.022498148,-0.012497362,-0.063146204,-0.38307226,0.038307227,-9.3661175,0.82022345,47.692257,-1.0611963,-1.981142,-3.4110608,-0.095334426,-0.06477407,-0.09123846,28.5625,29.625,28.875,32.9375,35.3125,36.375
0.1280545,-0.9172372,-0.5882551,-1.0065045,-0.011520314,0.06118354,-0.15970983,-0.38472632,-0.34767506,0.060018737,-3.0774975,0.62680167,0.00018847658,-0.057461545,0.016139569,0.0006531531,0.013681917,0.00038706712,-0.01127269,0.4733216,-1.4209173,1.9515694,-2.0994961,-1.5713977,2.4496105,-0.073085986,0.076856494,-0.09486944,0.023902126,-0.012532936,-0.061734267,-0.40222588,0.11492168,-9.308656,0.82694155,47.72719,-1.1861684,-1.9529104,-3.422428,-0.089674756,-0.05315098,-0.0528588,28.5625,29.625,28.875,32.9375,35.3125,36.375
0.13005412,-0.85045224,-0.6478658,-0.83636725,-0.011584599,0.055963084,-0.16122378,-0.3848558,-0.3476357,0.06003947,-3.0774562,0.62685096,0.00024847375,-0.05932546,0.017000973,-0.00039526325,0.014356846,-0.0018086691,-0.014195388,0.4731645,-1.4207834,1.9513525,-2.0994236,-1.5714458,2.4494896,-0.076549806,0.0812807,-0.097697094,0.024560843,-0.012138186,-0.062274333,-0.45968673,0.15322891,-9.32781,0.76874626,47.690468,-1.1533316,-2.1073105,-3.4372196,-0.0794763,-0.053060982,-0.06418949,28.5625,29.625,28.875,32.9375,35.3125,36.375
0.13205391,-1.2578084,-1.5388536,-1.0999055,0.0028341578,0.046870172,-0.15192267,-0.38495842,-0.34761798,0.060029417,-3.077405,0.62696016,0.000162066,-0.06093582,0.017467223,0.0016491197,0.013097079,0.001357201,-0.019361269,0.47303155,-1.4205922,1.9511374,-2.0993392,-1.5714339,2.4494314,-0.07861285,0.0787584,-0.09976744,0.025764234,-0.012464004,-0.059169747,-0.51714754,0.019153614,-9.481039,0.73741806,47.68062,-1.0853804,-1.9056736,-3.3692293,-0.07688445,-0.053524204,-0.07094401,28.5625,29.625,28.875,32.9375,35.3125,36.375
0.1340555,-1.1389114,-0.76159257,-1.1542904,-0.017354926,0.04820693,-0.15321027,-0.3850819,-0.34756696,0.060024753,-3.0773668,0.6269337,0.00016579474,-0.061609264,0.017733121,0.0011243427,0.012934947,-0.00015231587,-0.022617161,0.4728511,-1.4204353,1.9509577,-2.0992916,-1.5714692,2.4492395,-0.08020999,0.0807606,-0.10098089,0.026239654,-0.011635114,-0.057511564,-0.38307226,0.11492168,-9.557653,0.7933669,47.67614,-1.0178204,-1.8736751,-3.4117897,-0.07436129,-0.053427197,-0.07798305,28.5625,29.625,28.875,32.9375,35.3125,36.375
0.13605402,-1.4907149,-1.4973485,-1.191794,-0.015564766,0.04820695,-0.14987464,-0.385221,-0.34754583,0.060048856,-3.077357,0.62708604,0.00023679894,-0.062961206,0.018199086,0.0012979988,0.013464933,0.0003170323,-0.02455258,0.47269458,-1.4202906,1.9507288,-2.0992558,-1.5714816,2.4491794,-0.08179692,0.08214873,-0.103103876,0.026798243,-0.012321952,-0.05716114,-0.4405331,0.15322891,-9.595961,0.8537928,47.698532,-1.0055337,-2.05927,-3.3991427,-0.072054975,-0.057424262,-0.09302356,28.5625,29.625,28.875,32.9375,35.3125,36.375
0.13805361,-1.029896,-1.5785975,-1.1374239,-0.030564481,0.07737394,-0.15974694,-0.3853511,-0.34750238,0.06004375,-3.07729,0.6271698,0.00019954333,-0.06384043,0.018519854,0.001734708,0.012676162,0.0003028797,-0.026607778,0.47251418,-1.4200985,1.9505013,-2.0991714,-1.5715054,2.44906,-0.08359382,0.08226498,-0.10444863,0.027674489,-0.011617759,-0.056903183,-0.57460845,0.17238252,-9.595961,0.7597976,47.72808,-0.9534618,-1.7962506,-3.4263146,-0.07769198,-0.07441893,-0.09374384,28.5625,29.625,28.875,32.9375,35.3125,36.375
0.14005436,-0.61811686,-1.0462921,-1.2774792,-0.04106851,0.08821232,-0.16812818,-0.3854608,-0.3474755,0.060038455,-3.0772605,0.6271468,0.00019249503,-0.064776,0.018743724,0.0014837494,0.012941906,-0.00039734395,-0.03215267,0.47238177,-1.4199296,1.9503092,-2.0991237,-1.5715293,2.4489172,-0.08487235,0.084253214,-0.106304795,0.028287647,-0.0115380455,-0.05263561,-0.49799395,0.1340753,-9.653421,0.76874626,47.70211,-0.95519996,-1.7743627,-3.4290276,-0.063495465,-0.07596639,-0.12919971,28.5625,29.625,28.875,32.9375,35.3125,36.375
0.14205419,-1.3195401,-1.2604825,-1.3971491,-0.032586996,0.06557047,-0.15780202,-0.38558668,-0.34742236,0.060025692,-3.0771735,0.6273227,0.00015540335,-0.06647135,0.019496582,0.0014945727,0.013589457,-0.00034315584,-0.035358667,0.47218877,-1.4197488,1.9501175,-2.0990632,-1.5715541,2.4488451,-0.08733033,0.08622736,-0.10877241,0.029026834,-0.012146359,-0.051884383,-0.49799395,0.24899697,-9.730036,0.7665104,47.703007,-0.9191427,-1.777365,-3.3374543,-0.06392823,-0.0687026,-0.17709833,28.5625,29.625,28.875,32.9375,35.3125,36.375
0.14405417,-0.7643812,-0.94560736,-1.3061287,-0.043616503,0.07314277,-0.16898519,-0.38573903,-0.34739903,0.060067326,-3.0771947,0.6274052,0.00022645656,-0.067359075,0.019466117,0.001369195,0.012821877,-0.0013519807,-0.03701957,0.47200826,-1.4196159,1.9498538,-2.0989912,-1.5715536,2.4487135,-0.088788025,0.08805406,-0.11074674,0.029717894,-0.011004683,-0.05168311,-0.34476504,0.24899697,-9.672575,0.80679786,47.689575,-0.8513956,-1.8463339,-3.298366,-0.065861076,-0.09322473,-0.17455539,28.5625,29.625,28.875,32.9375,35.3125,36.375
0.14605372,-1.2046521,-1.2649441,-1.526173,-0.023781046,0.06125734,-0.15978031,-0.38589376,-0.3473501,0.060075168,-3.077148,0.6275688,0.00029092215,-0.06834829,0.019637326,0.0012984048,0.0134496745,-0.0009813338,-0.03818911,0.471804,-1.4194473,1.9496373,-2.0989673,-1.5715898,2.4486175,-0.089484,0.089686796,-0.112481534,0.029774196,-0.011735904,-0.051207263,-0.40222588,0.15322891,-9.710882,0.79560274,47.672558,-0.7985418,-1.8122411,-3.3879976,-0.060766906,-0.08936305,-0.19640304,28.5625,29.625,28.875,32.9375,35.3125,36.375
0.14805418,-1.2029945,-0.97587657,-1.3573921,-0.0118802525,0.06007701,-0.15247764,-0.38604462,-0.34732333,0.060079522,-3.0771182,0.62766,0.000329067,-0.072134115,0.019799989,0.0028624209,0.011717943,0.0029434669,-0.04189734,0.47163486,-1.4192425,1.9493846,-2.0989316,-1.5716141,2.4485092,-0.09301741,0.09137769,-0.11787566,0.029192226,-0.011989882,-0.051029082,-0.45968673,0.095768064,-9.653421,0.7418897,47.687782,-0.6937883,-1.8041854,-3.1880336,-0.04675366,-0.073258765,-0.232308,28.5625,29.625,28.875,32.9375,35.3125,36.375
0.15005398,-1.1775765,-0.8121754,-1.1609341,-0.014635187,0.068618104,-0.15778269,-0.38616994,-0.34728244,0.06007714,-3.0770748,0.62774503,0.00030646962,-0.07066946,0.019600218,0.0003502706,0.01452157,-0.001081528,-0.039322164,0.4714557,-1.4190727,1.9491819,-2.0988715,-1.5716256,2.4483888,-0.090869375,0.09540858,-0.1166908,0.028835075,-0.012659958,-0.05145445,-0.4213795,0.17238252,-9.615114,0.79560274,47.667187,-0.907371,-1.905448,-3.2635133,-0.017024603,-0.07902002,-0.23873994,28.5625,29.625,28.875,32.9375,35.3125,36.375
0.15205386,-1.7179049,-0.50944686,-1.2137489,-0.017097976,0.06486839,-0.16018344,-0.38631457,-0.34723887,0.060078096,-3.0770187,0.62792736,0.00033037527,-0.073359296,0.019821102,0.002115768,0.01261424,0.001469579,-0.042159047,0.47126263,-1.4188926,1.948965,-2.0988352,-1.5716499,2.4483168,-0.09401322,0.09543409,-0.1210353,0.03000919,-0.012127028,-0.05176062,-0.5363012,0.19153613,-9.500193,0.7866488,47.705692,-0.88334227,-1.948302,-3.0519123,-0.0022332794,-0.08874016,-0.27488372,28.5625,29.625,28.875,32.9375,35.3125,36.375
0.15405476,-1.5037507,-0.9873653,-1.1950209,-0.011159038,0.07701706,-0.16132796,-0.3864458,-0.34719837,0.06007963,-3.0769596,0.6280296,0.00025425645,-0.07232034,0.019304916,0.0010301439,0.013827853,-0.0017698539,-0.040172577,0.4710712,-1.4186999,1.9487132,-2.098715,-1.5716494,2.448197,-0.09237179,0.09780575,-0.121679775,0.03171539,-0.0117399525,-0.052105393,-0.45968673,0.076614454,-9.5385,0.7777002,47.682407,-0.8444638,-1.8802471,-3.164868,-0.01660883,-0.09652169,-0.2856837,28.5625,29.625,28.875,32.9375,35.3125,36.375
0.15605399,-1.3894328,-0.7590825,-1.1101338,-0.024414787,0.07302145,-0.16316594,-0.3866191,-0.3471591,0.06008977,-3.076916,0.6282116,0.00033186396,-0.07312471,0.019061359,0.0006661595,0.01496534,-0.0017034111,-0.039018817,0.4708675,-1.4184943,1.948449,-2.0986912,-1.5716857,2.4481125,-0.0919525,0.100481816,-0.12394477,0.031759966,-0.0127888,-0.05283663,-0.34476504,0.21068975,-9.557653,0.79560274,47.694946,-0.9627856,-2.1512713,-3.1555603,-0.009268719,-0.11074081,-0.30154166,28.5625,29.625,28.875,32.9375,35.3125,36.375
0.15805392,-1.2835162,-1.6420172,-1.2487911,-0.019458743,0.068576396,-0.15653253,-0.3867692,-0.34712353,0.060115956,-3.0768743,0.628261,0.0003908195,-0.07287053,0.019312384,0.00028667963,0.015637057,-0.0033239857,-0.03883419,0.47069928,-1.418326,1.9481744,-2.098595,-1.5717338,2.4479806,-0.09221974,0.10117679,-0.1241822,0.033045754,-0.012651191,-0.05328895,-0.34476504,0.28730422,-9.423578,0.7665104,47.695843,-1.0006471,-1.9146726,-3.1667824,-0.0037820698,-0.10197841,-0.3446129,28.5625,29.625,28.875,32.9375,35.3125,36.375
0.16005376,-1.5960928,-1.8699542,-1.2697266,-0.023276849,0.05066379,-0.14377439,-0.38691786,-0.34709573,0.060121376,-3.0768464,0.62837136,0.00044047151,-0.07430739,0.019969657,0.00012258237,0.016964156,-0.0032816096,-0.040336724,0.47053084,-1.418133,1.947935,-2.09857,-1.5717582,2.4478848,-0.09387327,0.10338821,-0.1265174,0.033734273,-0.013857372,-0.05343645,-0.30645782,0.2681506,-9.385271,0.75084364,47.68062,-1.0086943,-2.0677507,-3.0609422,-0.007706022,-0.08802001,-0.35070813,28.5625,29.625,28.875,32.9375,35.3125,36.375
0.16205446,-1.2616755,-2.064351,-1.188467,-0.024252469,0.0386383,-0.15674396,-0.3870797,-0.34705666,0.06013733,-3.0768173,0.6285177,0.00044092137,-0.07555913,0.019589027,0.0010460063,0.016072722,-0.0010967967,-0.039888747,0.47031483,-1.4179409,1.9476594,-2.0984876,-1.5717582,2.447764,-0.094159275,0.10358647,-0.12881292,0.03347695,-0.014061012,-0.054168876,-0.17238252,0.30645782,-9.3661175,0.81351066,47.701214,-1.1532192,-1.9274786,-3.254502,-0.00048441533,-0.10743189,-0.37455124,28.5625,29.625,28.875,32.9375,35.3125,36.375
0.16405454,-0.6050742,-1.531108,-0.9065993,-0.044133563,0.03550084,-0.16128096,-0.38722178,-0.34699246,0.060111728,-3.0766797,0.6286242,0.00045855806,-0.07596416,0.020352684,0.00013427595,0.017560868,-0.002144261,-0.04074468,0.47013438,-1.4177119,1.9474443,-2.0984395,-1.5718545,2.4476678,-0.09529176,0.10540188,-0.12877855,0.03323022,-0.014918718,-0.054442506,-0.1340753,0.34476504,-9.289502,0.8247004,47.687782,-1.06323,-1.9845135,-3.1667,0.02748885,-0.082231194,-0.41881147,28.5625,29.625,28.875,32.9375,35.3125,36.375
0.16605458,-0.78595954,-1.8552387,-0.7531183,-0.0273427,0.0065836743,-0.15233395,-0.38740727,-0.3469496,0.060111355,-3.076635,0.6287492,0.0004796222,-0.07686732,0.02081464,-0.00024760322,0.017602168,-0.0038167841,-0.041007556,0.46990573,-1.4174589,1.9471439,-2.0983908,-1.5718783,2.447523,-0.09734203,0.10748391,-0.1306042,0.034474287,-0.014202701,-0.056230437,-0.019153614,0.30645782,-9.232041,0.8493211,47.67614,-1.0728327,-1.9530817,-3.1626024,0.029129688,-0.09937373,-0.4403073,28.5625,29.625,28.875,32.9375,35.3125,36.375
0.16805454,0.07404978,-1.1128039,-0.7482777,-0.023873143,0.0028163963,-0.16805832,-0.38756305,-0.3469254,0.060134932,-3.076607,0.62889665,0.00054416445,-0.07690125,0.021608198,-0.0004373248,0.018825797,-0.005462413,-0.040675394,0.4697375,-1.4172785,1.9468693,-2.0983303,-1.5719026,2.4474506,-0.098516844,0.10785183,-0.13109717,0.036616232,-0.014545915,-0.057737317,0.076614454,0.30645782,-9.155427,0.8157518,47.71823,-1.114583,-1.9354861,-3.262084,0.022082498,-0.10235618,-0.45395875,28.5625,29.625,28.875,32.9375,35.3125,36.375
0.17005453,0.56494504,-0.61685,-0.41845325,-0.019627582,0.003203618,-0.17399554,-0.38771498,-0.34687266,0.06013168,-3.0765364,0.6289385,0.00057329313,-0.07727009,0.021390826,-0.0008727903,0.018923648,-0.007098526,-0.03752548,0.469545,-1.4170736,1.946628,-2.0982707,-1.5719622,2.4472935,-0.09884397,0.110132076,-0.13299234,0.03772128,-0.013900408,-0.061214328,0.1340753,0.24899697,-8.963891,0.8314132,47.698532,-0.940805,-1.9324832,-3.2826638,0.019586196,-0.09572823,-0.45764738,28.5625,29.625,28.875,32.9375,35.3125,36.375
0.17205384,0.09517592,-0.6963707,-0.33129573,-0.0011245128,-0.018100014,-0.16217853,-0.38788417,-0.34685048,0.060153387,-3.0765343,0.6290507,0.0006135444,-0.07771662,0.021810746,-0.0011629785,0.020164933,-0.007919907,-0.033778675,0.46935302,-1.4168692,1.94633,-2.09821,-1.5719627,2.447172,-0.0994704,0.111537084,-0.13421416,0.03882629,-0.0146393655,-0.06558594,0.11492168,0.24899697,-8.963891,0.80679786,47.691364,-1.1437507,-1.8224622,-3.2906175,0.03138656,-0.09450747,-0.4294959,28.5625,29.625,28.875,32.9375,35.3125,36.375
0.17405489,0.8518866,-0.1905361,-0.23663001,0.0031260713,0.00088714034,-0.18127356,-0.38803932,-0.34681424,0.060147896,-3.0764968,0.6291576,0.0005805243,-0.07811533,0.022542814,-0.0010812818,0.020163534,-0.00974051,-0.033884134,0.46914828,-1.4166406,1.9460663,-2.098149,-1.5719622,2.447039,-0.10161313,0.1118155,-0.13529398,0.041242335,-0.01381795,-0.06762445,0.11492168,0.24899697,-8.829816,0.83589023,47.698532,-0.9177592,-2.0591307,-3.3143218,0.014430524,-0.09332528,-0.43993428,28.5625,29.625,28.875,32.9375,35.3125,36.375
0.17605397,0.2737702,-0.62836415,-0.47718763,0.017057799,-0.005631448,-0.15520462,-0.38819143,-0.3467746,0.060156263,-3.0764449,0.62924004,0.00057293125,-0.078136,0.0224557,-0.0013719007,0.021145709,-0.0118037425,-0.028367346,0.4689563,-1.416436,1.9457902,-2.0980527,-1.5719866,2.4469051,-0.1014696,0.11369341,-0.1373691,0.04371218,-0.01376881,-0.07299666,0.19153613,0.15322891,-8.829816,0.7396539,47.67793,-1.1985377,-1.7274758,-3.3022866,-0.017892651,-0.118575245,-0.3886338,28.5625,29.625,28.875,32.9375,35.3125,36.375
0.17805387,0.51132154,-0.29714048,-0.46331766,0.0119730625,0.0070211566,-0.16402623,-0.38836282,-0.34673554,0.06015693,-3.0763888,0.6293598,0.0005391975,-0.07900112,0.022942001,-0.00030290254,0.020288985,-0.012110771,-0.023859235,0.46873972,-1.4161841,1.9454774,-2.097956,-1.571998,2.4467707,-0.10363882,0.11284412,-0.13951132,0.046574377,-0.012875146,-0.07967508,0.22984336,0.15322891,-8.868123,0.8112748,47.703903,-1.1131762,-1.9411601,-3.3059728,-0.051888786,-0.14450139,-0.3000615,28.5625,29.625,28.875,32.9375,35.3125,36.375
0.18005456,-0.011036985,-0.79981744,-0.4446501,0.026826715,-0.00051923265,-0.15928076,-0.38847432,-0.34666616,0.06012038,-3.0762696,0.6293341,0.00041998923,-0.07953172,0.023048542,-0.0009374926,0.022014396,-0.014308843,-0.022466991,0.46854758,-1.4159665,1.9452862,-2.0978472,-1.5720466,2.446578,-0.10391363,0.116108224,-0.14236008,0.048892777,-0.013438688,-0.08133769,0.076614454,0.05746084,-8.925584,0.8784135,47.690468,-1.1612337,-1.9032617,-3.3257775,-0.08650209,-0.1342258,-0.2852152,28.5625,29.625,28.875,32.9375,35.3125,36.375
0.18205427,-0.29113945,-0.61218035,-0.50298905,0.0072852573,0.0061229374,-0.15993907,-0.38865462,-0.3466334,0.06013426,-3.0762632,0.6294464,0.0004189134,-0.07880034,0.024524776,-0.0022732776,0.024385318,-0.01838555,-0.019514473,0.46831897,-1.4157379,1.9449753,-2.0977747,-1.5720342,2.4464204,-0.10563948,0.11718018,-0.1411054,0.05126654,-0.013714028,-0.08601648,-0.019153614,0.11492168,-8.963891,0.8023209,47.690468,-1.1270881,-1.9135553,-3.3357897,-0.119080484,-0.1451386,-0.2205795,28.5625,29.625,28.875,32.9375,35.3125,36.375
0.18405443,0.37592348,-0.1323626,-0.5321142,-0.0108266305,0.035811536,-0.17148882,-0.38884228,-0.34656712,0.060142744,-3.0761743,0.6294841,0.00044174268,-0.080006525,0.024375964,-0.0019894403,0.024610873,-0.018966323,-0.018327147,0.4680789,-1.4154967,1.9446515,-2.097654,-1.5721062,2.4462156,-0.10644312,0.119458966,-0.14487381,0.053363726,-0.013668042,-0.08800529,0.038307227,0.076614454,-9.002198,0.8493211,47.698532,-1.1482724,-1.9415859,-3.1899443,-0.16620275,-0.16527098,-0.1733224,28.5625,29.625,28.875,32.9375,35.3125,36.375
0.18605419,-0.12908177,-0.4199857,-0.87214535,-0.006788086,0.032704026,-0.17476408,-0.38897222,-0.3465113,0.06013365,-3.076069,0.62951976,0.00034248293,-0.08078319,0.024903748,-0.0021248835,0.025636677,-0.02040799,-0.018755417,0.46788633,-1.4152801,1.9443878,-2.0974982,-1.5721425,2.446059,-0.10785958,0.12124377,-0.1471435,0.055591743,-0.013949057,-0.08899039,-0.05746084,0.05746084,-9.232041,0.78217715,47.691364,-1.1280823,-1.8411051,-3.1989107,-0.2192777,-0.15503299,-0.13321638,28.5625,29.625,28.875,32.9375,35.3125,36.375
0.18805441,-0.9075492,-0.7029987,-1.0028576,-0.021286234,0.038293146,-0.15711556,-0.38912994,-0.34648272,0.060136896,-3.0760634,0.62953806,0.00024525533,-0.08081718,0.024913669,-0.0023917332,0.025767643,-0.021842321,-0.01901671,0.4676704,-1.4150394,1.9440764,-2.097378,-1.5721062,2.4458554,-0.10819565,0.12233659,-0.14808777,0.056780852,-0.013429561,-0.08906538,-0.19153613,0.19153613,-9.251195,0.83813137,47.704796,-1.2111616,-1.9275057,-3.2344303,-0.26007038,-0.183016,-0.11618794,28.5625,29.625,28.875,32.9375,35.3125,36.375
0.1900543,-1.0441564,-0.8740431,-1.0018924,-0.023044128,0.06063202,-0.1732396,-0.38927516,-0.346428,0.060116645,-3.075942,0.6295157,0.00018150738,-0.08244565,0.025963167,-0.0021565182,0.026032995,-0.021337526,-0.02399715,0.4674892,-1.4147747,1.9437884,-2.0972464,-1.5721782,2.445676,-0.1111685,0.12313172,-0.14966874,0.057231747,-0.013909403,-0.087054364,-0.4405331,0.21068975,-9.251195,0.8112748,47.684196,-1.0330461,-1.9916537,-3.14552,-0.2794187,-0.17807843,-0.110040426,28.5625,29.625,28.875,32.9375,35.3125,36.375
0.19205399,-1.2193967,-0.8364675,-1.1378441,-0.03757859,0.091954276,-0.17402898,-0.38942057,-0.3463732,0.060091116,-3.07585,0.62959445,3.264174e-05,-0.083750166,0.025225807,-0.002095749,0.025970498,-0.020331135,-0.027167218,0.4672614,-1.4145095,1.9435118,-2.0971148,-1.5721782,2.4455094,-0.11072385,0.12593147,-0.15295842,0.056799095,-0.014328168,-0.08343481,-0.59376204,0.17238252,-9.481039,0.83365434,47.70211,-1.182284,-1.7717417,-3.2661285,-0.33482832,-0.18988562,-0.119783126,28.5625,29.625,28.875,32.9375,35.3125,36.375
0.19405434,-2.2957022,-1.848015,-1.5381526,-0.038319368,0.0996392,-0.15471071,-0.38955808,-0.34632447,0.060084853,-3.0757728,0.62967914,-0.00011401863,-0.085446864,0.02642188,-0.001929135,0.025785511,-0.019145228,-0.03474453,0.4670442,-1.4142815,1.9432257,-2.0969474,-1.5721668,2.4453552,-0.11407401,0.1262295,-0.15350461,0.055910923,-0.014710253,-0.079204604,-0.6703765,0.21068975,-9.653421,0.90750587,47.696735,-0.9265538,-1.8729806,-3.3574495,-0.3514527,-0.19628543,-0.1730699,28.5625,29.625,28.875,32.9375,35.3125,36.375
0.19605403,-2.0485122,-1.8671827,-1.4587705,-0.056986853,0.12550047,-0.16071966,-0.38977116,-0.3462708,0.060100798,-3.075699,0.6297988,-3.0818635e-05,-0.08694666,0.026347147,-0.0016703819,0.024681266,-0.017473973,-0.037990566,0.46680385,-1.4140166,1.9428657,-2.096864,-1.5722383,2.4451993,-0.11537055,0.12738362,-0.15510276,0.0543588,-0.014486733,-0.07725474,-0.7086837,0.22984336,-9.730036,0.800085,47.691364,-1.117852,-1.8692338,-3.2952566,-0.35075092,-0.21387938,-0.18763125,28.5625,29.625,28.875,32.9375,35.3125,36.375
0.1980543,-2.2855473,-1.6604937,-1.4521512,-0.066979825,0.13159102,-0.16638869,-0.3899293,-0.3462108,0.060080674,-3.0755992,0.6298778,-7.332939e-05,-0.089417644,0.027072933,-0.0017720694,0.024170948,-0.015868828,-0.045533985,0.46658674,-1.4137635,1.9426016,-2.096781,-1.5722865,2.4450445,-0.118642464,0.12971513,-0.15713969,0.052402444,-0.014767436,-0.07297976,-0.80445176,0.19153613,-9.691729,0.8403672,47.704796,-0.9239012,-1.8932207,-3.3269627,-0.3818697,-0.21834293,-0.23109484,28.5625,29.625,28.875,32.9375,35.3125,36.375
0.20005426,-2.2819638,-1.4558419,-1.412874,-0.059149355,0.12654448,-0.16405265,-0.39011765,-0.34615913,0.06009493,-3.075523,0.63005453,-0.000121856436,-0.09169715,0.026878994,-0.0013685443,0.022323497,-0.011924943,-0.04671533,0.46633434,-1.413511,1.9422435,-2.096627,-1.5722989,2.4449124,-0.12018801,0.13087392,-0.15847749,0.048223436,-0.014913415,-0.07334134,-0.7852981,0.11492168,-9.80665,0.8157518,47.682407,-0.91466403,-1.9192398,-3.310966,-0.37926552,-0.2499691,-0.25750834,28.5625,29.625,28.875,32.9375,35.3125,36.375
0.20205455,-1.8688724,-1.0947474,-1.6081868,-0.04991135,0.11952605,-0.1655042,-0.39030924,-0.3461183,0.060091674,-3.075483,0.63012236,-0.000112717375,-0.09401361,0.026841084,-0.00090007874,0.021461092,-0.008081054,-0.04566446,0.46610597,-1.4132341,1.9419187,-2.0965683,-1.5723232,2.4447317,-0.12150619,0.1322375,-0.16041252,0.044967946,-0.015891131,-0.07570575,-0.9002198,0.17238252,-9.80665,0.8493211,47.687782,-0.87021667,-1.8186121,-3.3434424,-0.36781305,-0.22156695,-0.24422093,28.5625,29.625,28.875,32.9375,35.3125,36.375
0.20405422,-2.4388807,-1.2300007,-1.4810158,-0.03238052,0.10760219,-0.15567993,-0.39048183,-0.34604493,0.060063213,-3.0753696,0.6303307,-0.00022101688,-0.09491486,0.026954127,-0.0005534243,0.02081952,-0.00582164,-0.04844215,0.46582955,-1.412958,1.9416441,-2.096473,-1.5723356,2.4446,-0.12215985,0.13193637,-0.16044298,0.042992774,-0.016346166,-0.07357858,-0.9576807,0.095768064,-9.749189,0.8605109,47.698532,-0.9323983,-1.7286865,-3.37257,-0.33907822,-0.23423144,-0.29064828,28.5625,29.625,28.875,32.9375,35.3125,36.375
0.20605381,-2.2966561,-1.0156535,-1.5035274,-0.021425491,0.11288503,-0.15260285,-0.39069661,-0.34600252,0.060093496,-3.075354,0.6305009,-0.00012660281,-0.09633383,0.026799085,-0.0025270295,0.020588204,-0.006553676,-0.04915236,0.46557736,-1.4127277,1.9412965,-2.0964148,-1.572359,2.4444563,-0.123424046,0.13734059,-0.161279,0.038966253,-0.015822083,-0.07413318,-0.9768343,0.05746084,-9.615114,0.84708,47.668976,-0.9885962,-1.9864606,-3.4951825,-0.29369628,-0.25601706,-0.3151636,28.5625,29.625,28.875,32.9375,35.3125,36.375
0.20805429,-2.2646542,-0.9723965,-1.4350984,-0.0105021065,0.117552385,-0.15611692,-0.39090198,-0.34596267,0.060096003,-3.0752974,0.6305831,-5.2841908e-05,-0.098189265,0.024714997,1.886734e-05,0.017194726,0.0007314788,-0.0469688,0.4653621,-1.4124402,1.9409488,-2.0963676,-1.5724195,2.4443,-0.12116853,0.13576142,-0.16459745,0.035823897,-0.016075285,-0.0740589,-0.7661445,0.019153614,-9.730036,0.83589023,47.721813,-1.1248842,-1.8245897,-3.4043965,-0.2584751,-0.2690872,-0.318659,28.5625,29.625,28.875,32.9375,35.3125,36.375
0.21005361,-2.1498003,-0.8832046,-1.426724,-0.015033946,0.10981268,-0.1617865,-0.39110094,-0.34591794,0.060107287,-3.075258,0.63071233,-1.9590498e-05,-0.09958519,0.026528317,-0.0016830278,0.018582966,-0.002019168,-0.051762257,0.4651205,-1.4121866,1.9406146,-2.096296,-1.5724434,2.4441442,-0.12554951,0.13940932,-0.1648829,0.035537824,-0.016084025,-0.073645845,-0.57460845,0.05746084,-9.672575,0.8403672,47.705692,-1.0493693,-2.059325,-3.558917,-0.22698428,-0.2967393,-0.34737247,28.5625,29.625,28.875,32.9375,35.3125,36.375
0.21205385,-1.3585798,-0.8268903,-1.4660591,-0.016998285,0.09446311,-0.16182376,-0.39130303,-0.3458356,0.060074825,-3.0751195,0.63093066,-5.1166713e-05,-0.09971892,0.026028806,-0.0022606787,0.0201452,-0.0020575675,-0.048309147,0.4648333,-1.4118738,1.9403147,-2.0962365,-1.5725039,2.4440114,-0.123822905,0.14184766,-0.16636099,0.035305135,-0.017477913,-0.07536598,-0.47884035,0.019153614,-9.710882,0.8560339,47.713753,-1.1031731,-2.0055037,-3.537846,-0.19955313,-0.2852969,-0.36851025,28.5625,29.625,28.875,32.9375,35.3125,36.375
0.21405435,-0.614771,-0.819691,-1.4789985,-0.013354812,0.07419368,-0.15904662,-0.3915549,-0.3458154,0.060123816,-3.075181,0.6310203,0.00013224702,-0.09995784,0.027153865,-0.0034590347,0.021862455,-0.0048937425,-0.04767984,0.46458054,-1.4116206,1.9399079,-2.0962236,-1.5725158,2.443807,-0.1257765,0.14411071,-0.16654319,0.036520172,-0.01773572,-0.07795043,-0.4213795,-0.05746084,-9.595961,0.8784135,47.687782,-1.0269495,-2.1252322,-3.5204775,-0.17858514,-0.2849968,-0.35821533,28.5625,29.625,28.875,32.9375,35.3125,36.375
0.21605407,-0.51830506,-0.7933908,-1.2752837,-0.0142311305,0.044808786,-0.15926056,-0.39173898,-0.3457704,0.06010057,-3.0751119,0.6310809,7.9640384e-05,-0.10182495,0.02752896,-0.002947234,0.021712264,-0.0031863237,-0.046051428,0.4643521,-1.4113078,1.9395841,-2.096152,-1.5725397,2.4436255,-0.12762289,0.14528026,-0.16903925,0.036242753,-0.018385101,-0.08142096,-0.2681506,-0.038307227,-9.500193,0.8940802,47.71286,-1.0386505,-2.0805657,-3.450698,-0.15574014,-0.296951,-0.34018368,28.5625,29.625,28.875,32.9375,35.3125,36.375
0.21805368,0.041920677,-0.90543157,-1.2251183,0.00042728116,0.03532006,-0.16164824,-0.39195618,-0.34569708,0.06010111,-3.0750196,0.631213,0.00013544185,-0.10408506,0.027283441,-0.0020015314,0.021804588,0.00031488395,-0.042269014,0.46407583,-1.411031,1.9392475,-2.096081,-1.5726126,2.4434438,-0.12805553,0.14682457,-0.17281787,0.03537436,-0.02005548,-0.08562884,-0.15322891,-0.095768064,-9.500193,0.7866488,47.71554,-1.0995369,-2.053016,-3.3783832,-0.11713755,-0.27849138,-0.30766296,28.5625,29.625,28.875,32.9375,35.3125,36.375
0.220054,0.026226439,-0.21486564,-1.0374011,-0.011966966,0.018219708,-0.17669307,-0.39215916,-0.34561896,0.060086735,-3.0748932,0.6314529,0.00010364435,-0.10507069,0.026841106,-0.0030288687,0.021930482,-0.0013667806,-0.038252722,0.4637877,-1.4107411,1.9389242,-2.0959852,-1.5726603,2.443322,-0.12847686,0.15128766,-0.17564015,0.03527291,-0.019436931,-0.090065114,-0.05746084,-0.038307227,-9.404425,0.7083204,47.66539,-1.0705436,-2.0968935,-3.3864167,-0.07250883,-0.27244505,-0.26122257,28.5625,29.625,28.875,32.9375,35.3125,36.375
0.22205438,0.26108468,-0.9826909,-1.0532249,-0.006868574,0.023317434,-0.16147617,-0.39235398,-0.34558648,0.060077082,-3.0748522,0.6313833,0.00014573819,-0.10636067,0.026521832,-0.00018144125,0.01982553,0.0022937246,-0.033026535,0.46359548,-1.41043,1.9385761,-2.095936,-1.5727204,2.4430919,-0.12914097,0.14785796,-0.17874794,0.03757282,-0.01920461,-0.09595547,-0.019153614,0.15322891,-9.289503,0.79560274,47.683304,-1.06199,-1.9979196,-3.3039308,-0.064871535,-0.29434004,-0.20388775,28.5625,29.625,28.875,32.9375,35.3125,36.375
0.22405499,0.14873229,-1.0137732,-1.1599119,-0.009613251,0.01606169,-0.15669325,-0.39257213,-0.34551713,0.060082316,-3.074787,0.6316011,0.0001635393,-0.1074647,0.027773969,-0.0004739179,0.020970795,0.00050779345,-0.033746142,0.4632943,-1.410165,1.9382418,-2.0958636,-1.5727443,2.4429352,-0.13210453,0.14955309,-0.18057908,0.039806545,-0.01943561,-0.098198,0.11492168,0.21068975,-9.212888,0.8224646,47.68599,-0.95969784,-2.1434054,-3.2416182,-0.060157515,-0.31178573,-0.1458897,28.5625,29.625,28.875,32.9375,35.3125,36.375
0.22605379,0.580909,-1.037277,-1.0471616,-0.032275736,0.02356704,-0.16465569,-0.392805,-0.34548336,0.060099706,-3.0747795,0.6316149,0.00021359313,-0.10739247,0.026576435,-0.00017256044,0.020520244,4.290733e-05,-0.029338004,0.4630434,-1.4098525,1.9378222,-2.0957792,-1.5727686,2.4426942,-0.1302315,0.150884,-0.18318172,0.041278243,-0.018830903,-0.10073426,0.095768064,0.34476504,-9.232041,0.8537928,47.71017,-1.2327334,-2.036928,-3.2425356,-0.04111769,-0.30309713,-0.11612131,28.5625,29.625,28.875,32.9375,35.3125,36.375
0.22805452,-0.22868885,-2.1362517,-0.89018196,-0.053395,0.014444122,-0.15400974,-0.39303413,-0.3454137,0.060114093,-3.074697,0.63167614,0.00031811744,-0.10848724,0.027369216,-0.00023835659,0.021272684,-0.0010412924,-0.031161452,0.46277848,-1.4095753,1.9374503,-2.0956948,-1.5728644,2.4424784,-0.13240038,0.1524863,-0.18533736,0.043123145,-0.019022439,-0.101078466,0.076614454,0.36391866,-9.174581,0.8627467,47.716442,-0.9964323,-2.009008,-3.167562,-0.0530358,-0.31340948,-0.0524617,28.5625,29.625,28.875,32.9375,35.3125,36.375
0.23005398,-0.18014632,-2.3333592,-1.1106828,-0.06361977,0.013111784,-0.15854312,-0.39323944,-0.34538013,0.060101457,-3.0746636,0.6318243,0.00021876318,-0.10889271,0.028373295,-0.00014549807,0.022674378,-0.0016763008,-0.03449512,0.4625141,-1.4092392,1.9370688,-2.0955985,-1.5728287,2.442311,-0.13382961,0.152483,-0.18601933,0.04500865,-0.019995656,-0.0991702,0.019153614,0.51714754,-9.251195,0.8023209,47.7245,-1.1057663,-1.9683949,-3.235778,-0.05316831,-0.3098126,-0.053248007,28.5625,29.625,28.875,32.9375,35.3125,36.375
0.23205437,-0.05612466,-2.2710667,-0.9829177,-0.07345757,0.024472458,-0.16252114,-0.39347818,-0.34531298,0.060117017,-3.074576,0.63192344,0.00029636966,-0.10960288,0.029421465,-0.0005261563,0.023242643,-0.003286498,-0.03953363,0.46223745,-1.4089385,1.9366616,-2.0954902,-1.5729121,2.442108,-0.13635911,0.15361467,-0.18680257,0.046346184,-0.019784294,-0.096661575,0.0,0.57460845,-9.308657,0.75755644,47.698532,-0.9867798,-1.885083,-3.1852894,-0.051627606,-0.3269961,-0.085629635,28.5625,29.625,28.875,32.9375,35.3125,36.375
0.23405553,-0.4266256,-2.0314753,-0.9166426,-0.06580762,0.02479971,-0.15095042,-0.39367774,-0.34526113,0.060093727,-3.0744855,0.632041,0.00022633796,-0.11042669,0.029603427,-0.0017760609,0.024105797,-0.006221075,-0.044124264,0.46198478,-1.4086007,1.9363025,-2.0953944,-1.5729364,2.4419405,-0.13767414,0.15802015,-0.18935293,0.047501177,-0.01925707,-0.09338453,0.019153614,0.4405331,-9.308657,0.842603,47.698532,-0.993283,-1.9136298,-3.1964433,-0.034294702,-0.33136117,-0.106812835,28.5625,29.625,28.875,32.9375,35.3125,36.375
0.23605461,-0.07015772,-1.3726944,-0.880029,-0.045906976,0.03521854,-0.16735451,-0.39389595,-0.3451962,0.06008751,-3.0744202,0.63216454,0.00017577992,-0.11113013,0.02976643,0.00014554679,0.022772849,-0.0030870412,-0.048029564,0.46168467,-1.4082894,1.9359325,-2.0952866,-1.5729483,2.4417262,-0.13836376,0.15465604,-0.19004375,0.048157927,-0.019463848,-0.09016767,-0.019153614,0.38307226,-9.32781,0.9254084,47.704796,-1.0378993,-1.8717477,-3.3338187,-0.025815535,-0.34190702,-0.1263534,28.5625,29.625,28.875,32.9375,35.3125,36.375
0.23805414,-0.22088872,-0.772494,-0.8846824,-0.03567494,0.038802143,-0.16245107,-0.39411932,-0.34511867,0.060084615,-3.0742848,0.63233143,0.00024810244,-0.11417652,0.030192116,0.00097511814,0.021079766,-0.001550302,-0.054738924,0.4614191,-1.4079888,1.9355725,-2.0952027,-1.5730556,2.4415827,-0.14225079,0.15679626,-0.19449557,0.04832886,-0.018642094,-0.08734518,-0.17238252,0.24899697,-9.251195,0.88289046,47.734352,-0.87034816,-1.8894463,-3.3076606,-0.026718117,-0.3817541,-0.17902215,28.5625,29.625,28.875,32.9375,35.3125,36.375
0.24005443,-0.36018828,-0.87253094,-0.8026663,-0.0016430006,0.048401073,-0.15725684,-0.3943605,-0.34508544,0.060103085,-3.0742643,0.6325571,0.00023546425,-0.11359559,0.02932864,0.00039833135,0.021221913,-0.0028610795,-0.0550073,0.46113217,-1.4076633,1.9351295,-2.095095,-1.5730318,2.4414394,-0.14041235,0.15851538,-0.19528578,0.04863738,-0.018185852,-0.085239485,-0.22984336,0.19153614,-9.193734,0.80456203,47.686886,-1.0184792,-1.8796872,-3.3351736,-0.009112746,-0.37494123,-0.20752528,28.5625,29.625,28.875,32.9375,35.3125,36.375
0.2420544,-1.2916214,-0.322225,-0.9658981,0.0037722848,0.039424766,-0.15798794,-0.39457092,-0.34502497,0.06008087,-3.0741804,0.6326762,0.00017839839,-0.11328981,0.030772585,-0.00019064035,0.023484219,-0.0059453542,-0.05889618,0.46085528,-1.4073272,1.9347719,-2.0950096,-1.5730561,2.441248,-0.1421905,0.15896887,-0.1952586,0.051925868,-0.018837953,-0.083126076,-0.30645782,0.095768064,-9.251195,0.78217715,47.701214,-0.9156191,-1.7657284,-3.3332505,-0.012393435,-0.39586645,-0.25435725,28.5625,29.625,28.875,32.9375,35.3125,36.375
0.24405491,-1.06101,-0.16172214,-0.75681865,0.010032761,0.062410142,-0.15949859,-0.39477852,-0.34496793,0.06005366,-3.0740898,0.63277113,6.63628e-05,-0.11308029,0.031325303,-0.00085047405,0.02513758,-0.008964207,-0.058211796,0.4605792,-1.4069662,1.934389,-2.094889,-1.573068,2.4410431,-0.14280386,0.1607031,-0.1964707,0.054834254,-0.018988112,-0.084421225,-0.4405331,-0.019153614,-9.251195,0.8873621,47.71286,-0.99119157,-1.854105,-3.390892,-0.03972949,-0.40492895,-0.29486385,28.5625,29.625,28.875,32.9375,35.3125,36.375
0.24605466,-1.3229547,-0.032184854,-0.77423817,0.010757938,0.07419595,-0.15289381,-0.39496985,-0.34492236,0.060048804,-3.074021,0.6329719,-5.032255e-05,-0.113765,0.031779833,-0.0021785514,0.02689377,-0.011491797,-0.06222936,0.4603149,-1.4066647,1.9340185,-2.0947454,-1.5730442,2.4409132,-0.14383978,0.16477698,-0.19840571,0.055746056,-0.019446418,-0.081435286,-0.4405331,-0.1340753,-9.212888,0.84484416,47.684196,-1.0251554,-1.7910333,-3.3888183,-0.033947658,-0.40688187,-0.31690195,28.5625,29.625,28.875,32.9375,35.3125,36.375
0.2480541,-1.1376384,0.46627268,-0.82197934,0.019305669,0.083060466,-0.16285267,-0.3952329,-0.34483743,0.06007044,-3.0738978,0.633214,7.983982e-05,-0.113842085,0.03196908,-0.001087983,0.027854145,-0.011490302,-0.06328295,0.46000302,-1.4063647,1.9335998,-2.0946481,-1.5731529,2.4407687,-0.1435932,0.1637261,-0.20053446,0.059342407,-0.02030662,-0.08013249,-0.4405331,-0.19153613,-9.212888,0.79560274,47.704796,-1.0879945,-1.9485583,-3.2657313,-0.07098554,-0.43551433,-0.40637216,28.5625,29.625,28.875,32.9375,35.3125,36.375
0.25005448,-1.386085,0.34558102,-0.8145412,0.03313937,0.07487745,-0.1535732,-0.39548886,-0.34477013,0.06005533,-3.0737913,0.63342196,7.529174e-05,-0.11370741,0.033794854,-0.0022461717,0.031889588,-0.016965427,-0.062977396,0.45969027,-1.4059792,1.9331683,-2.0945618,-1.5732015,2.4406,-0.1458353,0.16643317,-0.20240508,0.065190926,-0.021499773,-0.08267502,-0.45968673,-0.24899697,-9.232041,0.7777002,47.685097,-1.0307603,-2.0691972,-3.3590813,-0.12747172,-0.43016088,-0.4097481,28.5625,29.625,28.875,32.9375,35.3125,36.375
0.25205424,-0.8454893,0.40779018,-0.7058686,0.04907241,0.074420035,-0.15761837,-0.39572212,-0.34472102,0.06007222,-3.0737422,0.63352793,7.982309e-05,-0.11541096,0.0341918,-0.002445039,0.0329543,-0.016956978,-0.06546778,0.45941392,-1.4056658,1.9327368,-2.0944302,-1.5732254,2.4403963,-0.14732176,0.1694938,-0.20570146,0.06588964,-0.022470644,-0.081665665,-0.45968673,-0.30645782,-9.174581,0.8918391,47.703007,-0.9953274,-1.9709082,-3.3476582,-0.17285061,-0.43802398,-0.458089,28.5625,29.625,28.875,32.9375,35.3125,36.375
0.25405475,-1.3463894,1.2488394,-0.9460465,0.040470455,0.04675082,-0.1628762,-0.39593783,-0.34465143,0.06003576,-3.0736291,0.6336381,-8.797262e-06,-0.11673156,0.035341084,-0.0027555511,0.034574732,-0.017342173,-0.064348504,0.4591249,-1.405293,1.9323663,-2.094334,-1.5732616,2.440191,-0.14958608,0.17133678,-0.20738554,0.066780806,-0.023777777,-0.08504166,-0.49799395,-0.38307226,-9.289502,0.9388393,47.698532,-0.9908851,-2.1279538,-3.3808913,-0.16303109,-0.43258244,-0.46295,28.5625,29.625,28.875,32.9375,35.3125,36.375
0.25605428,-1.2832673,0.38652036,-1.0224677,0.043089043,0.05613969,-0.15454787,-0.3961654,-0.3445748,0.060031623,-3.0734892,0.63383466,-0.000112323476,-0.11551504,0.03563429,-0.004210687,0.037936058,-0.020677026,-0.057598453,0.45881394,-1.4049436,1.9319247,-2.0941303,-1.5732988,2.4400213,-0.1479498,0.17362885,-0.20722373,0.06878734,-0.025339676,-0.09014728,-0.61291564,-0.22984336,-9.3661175,0.84708,47.705692,-1.1398647,-2.126875,-3.3828573,-0.22441828,-0.41992053,-0.45370692,28.5625,29.625,28.875,32.9375,35.3125,36.375
0.25805447,-1.2794288,-0.036016855,-1.0007539,0.023816088,0.07211895,-0.15964463,-0.396387,-0.3445086,0.0600247,-3.0733802,0.63400024,-0.00017099446,-0.115864776,0.036121383,-0.0041377996,0.03888248,-0.021261916,-0.05199767,0.45852572,-1.4046074,1.931518,-2.0939858,-1.5733346,2.4398508,-0.14863162,0.17412207,-0.20836774,0.07035653,-0.025959224,-0.0964255,-0.63206923,-0.15322891,-9.32781,0.88289046,47.711964,-1.0804101,-2.1690786,-3.3869426,-0.24639592,-0.41233063,-0.4021725,28.5625,29.625,28.875,32.9375,35.3125,36.375
0.2600544,-1.7029864,-0.24399209,-1.1320603,-0.00394004,0.08441865,-0.16304924,-0.39661372,-0.3444118,0.060011555,-3.0731978,0.6340925,-0.00022077738,-0.116233885,0.036930487,-0.00503415,0.04047103,-0.023133779,-0.047088273,0.4582253,-1.4042579,1.9310993,-2.0937936,-1.5734423,2.4396322,-0.14989047,0.1762431,-0.20903438,0.07125068,-0.026592553,-0.10258782,-0.45968673,-0.1340753,-9.404425,0.81351066,47.661808,-1.1380274,-2.1958017,-3.4531307,-0.29552612,-0.43094558,-0.35380167,28.5625,29.625,28.875,32.9375,35.3125,36.375
0.26205438,-1.7465156,-0.4203183,-1.1106329,-0.03261493,0.1005507,-0.1759545,-0.3968538,-0.34431973,0.059986565,-3.0730557,0.63431,-0.0003206559,-0.1184692,0.03734935,-0.0043390696,0.041521274,-0.020919632,-0.041898686,0.4578767,-1.4038851,1.9306916,-2.0936506,-1.5734795,2.439438,-0.15122946,0.17807841,-0.21291989,0.0717549,-0.028561309,-0.10910395,-0.5554548,-0.038307227,-9.442732,0.87393653,47.681515,-1.1354743,-2.0523326,-3.3633323,-0.32941115,-0.40993583,-0.27901363,28.5625,29.625,28.875,32.9375,35.3125,36.375
0.26405492,-1.8420098,-1.8106965,-1.2693684,-0.022121744,0.110360034,-0.15796378,-0.397084,-0.34425616,0.059988074,-3.0729382,0.63432,-0.0003046355,-0.12007344,0.03689612,-0.0031651931,0.041332953,-0.016910393,-0.03648061,0.45762512,-1.4035369,1.9302491,-2.0934951,-1.5735763,2.4392085,-0.15069926,0.17819743,-0.21551056,0.07052078,-0.030200562,-0.113982305,-0.47884035,0.076614454,-9.461885,0.8605109,47.682407,-1.1975375,-2.1965787,-3.3635564,-0.3555913,-0.3711384,-0.2295545,28.5625,29.625,28.875,32.9375,35.3125,36.375
0.26605463,-2.04788,-1.631739,-1.484759,-0.0352247,0.09639477,-0.15418245,-0.3973414,-0.3441794,0.05997663,-3.0728474,0.63447475,-0.00033282876,-0.122601636,0.037536807,-0.0029641052,0.040685635,-0.014369208,-0.03781213,0.4572878,-1.4031639,1.929818,-2.0933883,-1.5736121,2.4389799,-0.15356377,0.17997277,-0.21757281,0.06822536,-0.030772323,-0.115510084,-0.4405331,0.22984336,-9.461885,0.8537928,47.67614,-1.0792661,-2.1570094,-3.3388746,-0.3463183,-0.36894685,-0.17009532,28.5625,29.625,28.875,32.9375,35.3125,36.375
0.26805437,-1.720764,-2.2409613,-1.4460919,-0.050260503,0.08661593,-0.15504688,-0.39758888,-0.34408548,0.059977397,-3.0727146,0.63461715,-0.00035529933,-0.12361668,0.03685773,-0.0025866965,0.04016811,-0.010755453,-0.034839604,0.4569526,-1.4028273,1.9293879,-2.093222,-1.5736846,2.4387512,-0.15240906,0.18048711,-0.2183552,0.0650024,-0.031935096,-0.1173201,-0.4213795,0.3256114,-9.595961,0.8851263,47.733456,-1.3479344,-2.1977928,-3.4227376,-0.34700698,-0.3401726,-0.111151874,28.5625,29.625,28.875,32.9375,35.3125,36.375
0.2700537,-1.5004363,-2.4445105,-1.4906107,-0.06455914,0.073469274,-0.15055127,-0.39783338,-0.34400108,0.059950195,-3.0725737,0.63470596,-0.00035500116,-0.12553541,0.03749527,-0.003391981,0.04059699,-0.009113387,-0.04039494,0.4566521,-1.4024419,1.9289812,-2.0931275,-1.5737809,2.438525,-0.15438837,0.18335481,-0.21914934,0.06163887,-0.033060677,-0.11373583,-0.36391866,0.38307226,-9.557653,0.7933669,47.704796,-1.2416576,-2.1927154,-3.4576297,-0.3089294,-0.3147514,-0.14487873,28.5625,29.625,28.875,32.9375,35.3125,36.375
0.27205396,-1.2462846,-2.4184952,-1.6252915,-0.06681986,0.060121525,-0.15685229,-0.39809194,-0.3439184,0.05993139,-3.0724528,0.6347989,-0.0003757782,-0.12818305,0.0375743,-0.0019649328,0.03777598,-0.004022887,-0.0470323,0.4563271,-1.4020463,1.9285377,-2.0930088,-1.5738529,2.4382741,-0.15689573,0.18258363,-0.22081551,0.058257114,-0.03278793,-0.10960366,-0.24899697,0.38307226,-9.615114,0.779936,47.666286,-1.1197295,-2.005524,-3.4019341,-0.28338173,-0.28680196,-0.15415767,28.5625,29.625,28.875,32.9375,35.3125,36.375
0.2740543,-0.7121306,-2.3919177,-1.6767744,-0.057711184,0.051244434,-0.1521943,-0.39836523,-0.34383598,0.05993814,-3.0723424,0.63505065,-0.00031051575,-0.13145185,0.037629504,-0.00032981328,0.034593493,0.0011253416,-0.056375377,0.45599002,-1.4016976,1.9280957,-2.0929139,-1.5739249,2.438109,-0.16009097,0.18247469,-0.22382727,0.055353556,-0.032200716,-0.103456594,-0.21068975,0.36391866,-9.634268,0.9030289,47.685097,-1.0039678,-2.039985,-3.3635902,-0.2254099,-0.2749241,-0.22791606,28.5625,29.625,28.875,32.9375,35.3125,36.375
0.27605394,-0.86040473,-2.1244223,-1.7489089,-0.037234772,0.03135158,-0.14706823,-0.39860532,-0.34375533,0.059901685,-3.0722046,0.6351579,-0.00038957305,-0.133412,0.038142394,-0.00089838315,0.03515111,0.0022911807,-0.060551852,0.45567748,-1.4012882,1.9276761,-2.0927951,-1.573985,2.4378817,-0.16193518,0.18556397,-0.22574142,0.053372506,-0.033232167,-0.10111484,-0.15322891,0.36391866,-9.595961,0.88960326,47.674347,-0.9036004,-2.1158605,-3.5553894,-0.2011741,-0.2728399,-0.2780107,28.5625,29.625,28.875,32.9375,35.3125,36.375
0.2780544,-0.20558079,-1.2591603,-1.691846,-0.03029569,0.034766916,-0.16261049,-0.39891934,-0.34368628,0.059941117,-3.0721452,0.6354135,-0.00022094385,-0.13570747,0.037188698,0.000917799,0.033457574,0.0071901283,-0.06029069,0.4553294,-1.4009397,1.927162,-2.0927112,-1.5740575,2.4377012,-0.1617039,0.18579245,-0.22994311,0.052184824,-0.033873875,-0.1011427,-0.11492168,0.2681506,-9.749189,0.9545008,47.681515,-0.9642048,-2.080536,-3.5603585,-0.15306121,-0.2317172,-0.30135116,28.5625,29.625,28.875,32.9375,35.3125,36.375
0.28005454,-0.31667328,-1.4526678,-1.6901591,-0.03856824,0.041495144,-0.1582302,-0.39915827,-0.34360126,0.05991791,-3.0720212,0.63548297,-0.00025881923,-0.13587204,0.03637223,0.00083808816,0.032763176,0.0072670826,-0.059737243,0.4550179,-1.400567,1.9267548,-2.0925925,-1.574129,2.4374497,-0.16066995,0.18711266,-0.2312772,0.051806454,-0.03329742,-0.100661196,0.019153614,0.2681506,-9.672575,0.8918391,47.658226,-0.95697224,-2.061177,-3.5657585,-0.115098126,-0.2070888,-0.31578457,28.5625,29.625,28.875,32.9375,35.3125,36.375
0.282054,-0.67309976,-1.3825418,-1.7405764,-0.044607148,0.042293724,-0.15648289,-0.39943767,-0.343526,0.05992217,-3.0719118,0.63576853,-0.00020858175,-0.13596871,0.036723733,0.00039638547,0.03262809,0.006028157,-0.06124552,0.45468152,-1.4001943,1.9262894,-2.0924957,-1.5741891,2.4373062,-0.16167055,0.1878883,-0.23130088,0.052090645,-0.032632954,-0.10015637,-0.05746084,0.2681506,-9.634268,0.83813137,47.681515,-1.0007555,-1.9774661,-3.5859182,-0.103976145,-0.22233762,-0.33930123,28.5625,29.625,28.875,32.9375,35.3125,36.375
0.2840552,0.07266396,-1.4710346,-1.9776574,-0.039075676,0.046050504,-0.16543934,-0.39972925,-0.34346712,0.059925333,-3.0718539,0.6358931,-0.00015347294,-0.13745302,0.038112503,6.744327e-05,0.033569656,0.0044086403,-0.06555103,0.454356,-1.3997854,1.9257873,-2.0924118,-1.5742372,2.4370663,-0.16518351,0.18998282,-0.23350184,0.054053742,-0.03276812,-0.099362664,-0.038307227,0.24899697,-9.710882,0.86498255,47.657326,-0.8990316,-2.140751,-3.624804,-0.08211808,-0.19077286,-0.36648834,28.5625,29.625,28.875,32.9375,35.3125,36.375
0.2860537,-0.7804904,-2.0281005,-1.8455096,-0.035759047,0.022708138,-0.14700007,-0.40000293,-0.34337875,0.059923895,-3.071718,0.63605326,-8.489431e-05,-0.13838927,0.03785413,0.000536852,0.033513848,0.004232157,-0.061147984,0.45403233,-1.3994124,1.925332,-2.092303,-1.574345,2.4368608,-0.16548504,0.19148916,-0.2368229,0.05596381,-0.032663193,-0.10406562,0.095768064,0.22984336,-9.595961,0.86498255,47.664497,-1.0252182,-2.235531,-3.5056603,-0.095148176,-0.17276776,-0.36798373,28.5625,29.625,28.875,32.9375,35.3125,36.375
0.28805393,0.177428,-1.2073487,-1.6237184,-0.0461677,0.026045403,-0.16649002,-0.40025368,-0.34330684,0.059886623,-3.0715892,0.6361996,-0.00016077686,-0.1407412,0.038119033,0.00097395637,0.03240045,0.006561314,-0.061864164,0.45371968,-1.3989793,1.9248885,-2.0921962,-1.5743932,2.4366567,-0.16783556,0.1931251,-0.23943907,0.054341663,-0.032711193,-0.10569517,0.15322891,0.21068975,-9.5385,0.84708,47.696735,-0.90098345,-2.1460137,-3.3569536,-0.03878915,-0.15764058,-0.34953818,28.5625,29.625,28.875,32.9375,35.3125,36.375
0.29005405,0.15399605,-0.9095543,-1.8801179,-0.02548466,0.010955498,-0.15421027,-0.40055126,-0.3432151,0.059906047,-3.0715196,0.6364286,-0.000118790624,-0.14081906,0.037855253,0.00021482226,0.032870125,0.004758586,-0.05345788,0.4533239,-1.3986301,1.9244102,-2.092076,-1.5744284,2.4364133,-0.16751361,0.19567561,-0.24089476,0.0550251,-0.032372195,-0.11378061,0.1340753,0.22984336,-9.595961,0.86498255,47.682407,-0.96041906,-2.1779623,-3.4051204,-0.012232568,-0.14622022,-0.29297328,28.5625,29.625,28.875,32.9375,35.3125,36.375
0.29205438,0.5269872,-0.44008806,-1.4216362,-0.03417687,0.02644498,-0.15993355,-0.40083396,-0.3431729,0.05990305,-3.0714455,0.63648856,-3.0353312e-05,-0.14159878,0.038117476,2.801352e-05,0.033715665,0.00221084,-0.05081976,0.45305917,-1.3981965,1.9238952,-2.092003,-1.5745124,2.436196,-0.1687425,0.19838946,-0.2445057,0.058549028,-0.032030236,-0.11764813,0.11492168,0.15322891,-9.576807,0.8627467,47.684196,-0.7747692,-2.3156862,-3.415022,-0.006371888,-0.12234553,-0.23083436,28.5625,29.625,28.875,32.9375,35.3125,36.375
0.29405382,-0.5598585,-1.133261,-1.5067785,-0.018311767,0.017940788,-0.15364963,-0.40113297,-0.34309056,0.05991778,-3.0713525,0.63667786,7.334818e-05,-0.14313172,0.038468815,-7.244152e-05,0.033385925,0.0013160893,-0.04621234,0.45271006,-1.397823,1.9234046,-2.0919068,-1.5745963,2.4359777,-0.17096302,0.20094742,-0.24758352,0.05967923,-0.031368762,-0.12447835,-0.038307227,0.05746084,-9.481039,0.88289046,47.674347,-0.81994134,-2.3315105,-3.2383685,-0.015755923,-0.12665494,-0.17250764,28.5625,29.625,28.875,32.9375,35.3125,36.375
0.29605407,-0.65066725,-0.82074434,-1.794621,-0.013105832,0.033523712,-0.14792942,-0.4013797,-0.34300247,0.059883963,-3.0712414,0.636843,-0.00014594823,-0.14486837,0.036580104,0.002026323,0.03052732,0.005897424,-0.041219696,0.45232743,-1.397403,1.9229487,-2.0917156,-1.574572,2.435713,-0.16933985,0.20087494,-0.25221723,0.05899172,-0.030846702,-0.12784348,-0.1340753,0.1340753,-9.461885,0.86945957,47.67345,-1.0370078,-2.2823825,-3.161345,0.015794842,-0.11118166,-0.08089382,28.5625,29.625,28.875,32.9375,35.3125,36.375
0.29805386,-0.8942518,-0.7616621,-1.6500691,-0.014471104,0.05292812,-0.15256934,-0.40168312,-0.34294552,0.059916202,-3.0711792,0.63690615,-1.9490137e-06,-0.1434202,0.036954675,0.0006053543,0.03132634,0.00012847007,-0.041673247,0.45202723,-1.3970181,1.9223989,-2.091595,-1.5746678,2.4354608,-0.16976972,0.2026099,-0.2518368,0.062387165,-0.029033616,-0.12783003,-0.22984336,0.1340753,-9.5385,0.8918391,47.686886,-1.0601445,-2.3247075,-3.1965878,-0.0010901578,-0.13303554,-0.06328082,28.5625,29.625,28.875,32.9375,35.3125,36.375
0.30005413,-1.3358992,-1.2379847,-1.5662953,-0.018748384,0.06646826,-0.14615275,-0.4019576,-0.34287354,0.059903245,-3.0710897,0.6369476,-1.3403325e-05,-0.14195229,0.037519176,-0.00035677993,0.032752816,-0.004495499,-0.044673808,0.4517031,-1.3965973,1.9219102,-2.0914738,-1.5747279,2.4351747,-0.16984503,0.20321727,-0.25123253,0.065950856,-0.028291086,-0.12490752,-0.2681506,0.17238252,-9.519346,0.77545905,47.675243,-1.1181375,-2.2703967,-3.4331002,-0.028348915,-0.13205087,-0.047232967,28.5625,29.625,28.875,32.9375,35.3125,36.375
0.302054,-1.5709393,-0.88882494,-1.4967461,-0.032071084,0.06969749,-0.15132265,-0.4022434,-0.3428067,0.059917647,-3.0710247,0.6371286,-1.2622915e-05,-0.14098679,0.03795683,-0.00090516976,0.0339919,-0.008000039,-0.049586166,0.45135528,-1.3962127,1.9213957,-2.0913289,-1.5747513,2.4349487,-0.16992238,0.20378532,-0.25147703,0.06932721,-0.02786313,-0.12007446,-0.49799395,0.15322891,-9.461885,0.8918391,47.664497,-1.2090672,-2.1730618,-3.4471502,-0.038246784,-0.14747497,-0.07442756,28.5625,29.625,28.875,32.9375,35.3125,36.375
0.3040544,-1.1901817,-0.77889717,-1.409523,-0.028791402,0.07432299,-0.15395601,-0.4025255,-0.34272686,0.05991117,-3.0709107,0.6372797,3.7225725e-06,-0.1407931,0.03860757,-0.0018654905,0.035222422,-0.012362937,-0.055280466,0.4510189,-1.3958036,1.9209055,-2.0912077,-1.5748233,2.434722,-0.17127806,0.20624769,-0.25304246,0.072890736,-0.027062343,-0.115738034,-0.57460845,0.095768064,-9.500193,0.91421866,47.66808,-1.2156303,-2.1996083,-3.591671,-0.059471283,-0.13909617,-0.12818053,28.5625,29.625,28.875,32.9375,35.3125,36.375
0.30605376,-1.1315323,-0.90369684,-1.1778724,-0.016650878,0.06845276,-0.14513893,-0.40279025,-0.34264272,0.059897687,-3.0707731,0.6373888,-7.814943e-05,-0.14113992,0.03974082,-0.0012780512,0.0351541,-0.013755734,-0.062373128,0.45068187,-1.3953836,1.9204024,-2.0910156,-1.5748824,2.4344716,-0.17386118,0.20513535,-0.25387797,0.076063536,-0.02639525,-0.111229144,-0.59376204,-0.019153614,-9.404425,0.9030289,47.67614,-1.1865034,-2.029162,-3.5646067,-0.07605229,-0.14163671,-0.18784323,28.5625,29.625,28.875,32.9375,35.3125,36.375
0.30805433,-1.3783273,-0.7333022,-1.248234,0.008863418,0.05316211,-0.14026356,-0.4030815,-0.34258062,0.05989408,-3.0706975,0.6376028,-5.1321065e-05,-0.14070252,0.039055783,0.00033858474,0.03479501,-0.014118383,-0.06331575,0.45034665,-1.3949639,1.9199008,-2.0909297,-1.5749186,2.4342802,-0.17245461,0.20344937,-0.25674054,0.08077798,-0.025911324,-0.10888197,-0.47884035,-0.19153613,-9.3661175,0.9634547,47.719128,-1.3694832,-1.9134349,-3.5040922,-0.12666795,-0.15580349,-0.25696576,28.5625,29.625,28.875,32.9375,35.3125,36.375
0.31005427,-0.72045875,-0.02002561,-1.1482658,0.021030873,0.056883622,-0.14657709,-0.40338573,-0.34247997,0.059906106,-3.070543,0.637841,-5.085115e-05,-0.14173177,0.038384587,0.0014518544,0.03365812,-0.012612729,-0.06598483,0.44996285,-1.3945553,1.91935,-2.0907261,-1.5750021,2.4340658,-0.17223853,0.20374793,-0.25994092,0.081822105,-0.025554614,-0.10599582,-0.40222588,-0.05746084,-9.404425,0.9030289,47.67614,-1.3531189,-1.8961899,-3.5215907,-0.18352869,-0.1490502,-0.2703374,28.5625,29.625,28.875,32.9375,35.3125,36.375
0.31205457,-0.7428583,0.29403406,-1.2027931,0.028545428,0.04616035,-0.14812675,-0.40368876,-0.3424337,0.05992656,-3.0705056,0.63802713,9.468106e-06,-0.14283551,0.038321234,0.0008947083,0.034246683,-0.014061514,-0.068734534,0.44963837,-1.3941456,1.9187998,-2.090618,-1.5750264,2.4338627,-0.17299122,0.20739374,-0.26329657,0.08309038,-0.025457675,-0.10399835,-0.4213795,-0.1340753,-9.461885,0.900793,47.66271,-1.3879973,-1.9208314,-3.4970798,-0.21035673,-0.15199381,-0.3411211,28.5625,29.625,28.875,32.9375,35.3125,36.375
0.31405458,-0.85506284,0.13436893,-1.263829,0.02118628,0.048042316,-0.15809408,-0.4039922,-0.34234506,0.059929404,-3.0703528,0.6383215,-5.560147e-05,-0.1426741,0.03885192,0.001316669,0.035281017,-0.01728802,-0.071273014,0.4492543,-1.393701,1.9182242,-2.0904005,-1.5750741,2.433683,-0.17393233,0.2077823,-0.2660934,0.088845186,-0.024994938,-0.102400735,-0.22984336,-0.11492168,-9.232041,0.9030289,47.651955,-1.4117466,-1.8910322,-3.509956,-0.27323687,-0.17492467,-0.38889474,28.5625,29.625,28.875,32.9375,35.3125,36.375
0.31605437,-0.49317324,-0.06707953,-1.1589527,0.0018887427,0.048338927,-0.16196139,-0.40425506,-0.34224343,0.05991657,-3.0701842,0.6384796,-0.000115300856,-0.14504954,0.03916293,0.0020602793,0.034344137,-0.014857093,-0.07398501,0.44890523,-1.3933043,1.9177464,-2.0902092,-1.575158,2.4334552,-0.17622119,0.20908143,-0.26920405,0.088045835,-0.025235038,-0.1019722,-0.17238252,-0.05746084,-9.32781,0.9186956,47.661808,-1.2116783,-1.8691268,-3.2665,-0.30325416,-0.16655129,-0.45109344,28.5625,29.625,28.875,32.9375,35.3125,36.375
0.3180537,-0.644199,-0.13486934,-1.2664521,-0.028999547,0.040055066,-0.15140277,-0.40454596,-0.34217972,0.059934944,-3.07007,0.63866717,-8.306334e-05,-0.1475351,0.04058255,0.0009352452,0.03564848,-0.015866976,-0.07470221,0.44859177,-1.3928939,1.9171838,-2.0900295,-1.5752305,2.4332743,-0.1802042,0.21375464,-0.27211028,0.08772744,-0.026002724,-0.10523165,-0.19153613,-0.1340753,-9.423578,0.92764956,47.677036,-1.0471696,-2.045215,-3.1534562,-0.32876262,-0.16195165,-0.44992065,28.5625,29.625,28.875,32.9375,35.3125,36.375
0.32005396,-0.46310267,-1.3094195,-1.4663382,-0.015779743,0.03840939,-0.14849465,-0.40484697,-0.34207463,0.059923626,-3.0699453,0.63900274,-0.00016626154,-0.14878544,0.04101583,0.00046883486,0.03550693,-0.0147626,-0.07119363,0.44815952,-1.3924729,1.9166816,-2.089875,-1.5752429,2.4330683,-0.1816194,0.21540141,-0.27253565,0.08541617,-0.026398541,-0.110151045,-0.21068975,-0.038307227,-9.442732,0.81351066,47.701214,-1.156594,-2.1398737,-3.2144103,-0.33690625,-0.16739427,-0.4431079,28.5625,29.625,28.875,32.9375,35.3125,36.375
0.32205403,-0.9289157,-1.3072375,-1.4045291,-0.043503452,0.046799928,-0.14552268,-0.40515047,-0.34199935,0.05993617,-3.0698073,0.63916,-0.0001655111,-0.15075415,0.041352194,0.0001960793,0.03466083,-0.012773901,-0.06297597,0.44782287,-1.3920282,1.9160842,-2.089661,-1.5753268,2.4328485,-0.18363032,0.2174615,-0.27371302,0.082309626,-0.026561042,-0.12037634,-0.17238252,0.095768064,-9.423578,0.9164598,47.67614,-1.082706,-2.1297174,-3.3777404,-0.31031215,-0.16128851,-0.35423616,28.5625,29.625,28.875,32.9375,35.3125,36.375
0.32405382,-0.65758073,-1.4269174,-1.5220257,-0.064524636,0.083766125,-0.16103014,-0.4054396,-0.34191895,0.059928887,-3.06971,0.63921297,-0.00018852032,-0.1517791,0.041634176,-0.0010832255,0.034284193,-0.012356189,-0.057864014,0.44747466,-1.3915946,1.9155582,-2.0895069,-1.5753869,2.4325466,-0.18491915,0.22014457,-0.273166,0.07849326,-0.02645067,-0.12677576,-0.1340753,0.22984336,-9.404425,0.8851263,47.667187,-1.0807085,-2.174005,-3.4928823,-0.2851577,-0.16403353,-0.29915905,28.5625,29.625,28.875,32.9375,35.3125,36.375
0.32605457,-1.3157388,-1.9173508,-1.388319,-0.0714574,0.084035136,-0.15394066,-0.4057551,-0.3418298,0.059922848,-3.0696166,0.6394589,-0.00021747046,-0.15356201,0.041331407,-0.0007125375,0.032004084,-0.0090495795,-0.051697347,0.44706625,-1.39115,1.9150213,-2.0893762,-1.5754107,2.4323044,-0.18609396,0.22084156,-0.2740642,0.07467681,-0.02587842,-0.13411862,-0.095768064,0.2681506,-9.576807,0.9164598,47.679718,-0.9988922,-1.9963893,-3.5639677,-0.23625991,-0.16325787,-0.20399937,28.5625,29.625,28.875,32.9375,35.3125,36.375
0.32805407,-1.3382543,-2.0554464,-1.0335029,-0.08183442,0.090704836,-0.15086696,-0.40607402,-0.34174776,0.05994928,-3.0695226,0.63959134,-0.00013905227,-0.15663016,0.04083232,0.0012221427,0.028831063,-0.002641747,-0.049504083,0.44670564,-1.390742,1.9144453,-2.0892098,-1.5754946,2.4320393,-0.18768734,0.22032195,-0.2771455,0.071089275,-0.025822056,-0.13790421,-0.24899697,0.24899697,-9.461885,0.89631605,47.711063,-0.95137507,-2.0912933,-3.5455132,-0.18691967,-0.1801987,-0.14121105,28.5625,29.625,28.875,32.9375,35.3125,36.375
0.33005437,-0.80271286,-1.6059438,-1.1074682,-0.06745239,0.090350404,-0.15404573,-0.40638983,-0.34166947,0.059956886,-3.0694788,0.63975656,-0.00013406153,-0.15787399,0.040760655,0.0016041795,0.0270378,2.9933335e-05,-0.050888933,0.44630888,-1.3903214,1.9139079,-2.0890915,-1.5755061,2.4317517,-0.1887282,0.22025247,-0.27737132,0.068189226,-0.025369713,-0.13756232,-0.45968673,0.21068975,-9.404425,0.88289046,47.705692,-0.87264717,-1.9432166,-3.4917397,-0.14540648,-0.1764844,-0.107024625,28.5625,29.625,28.875,32.9375,35.3125,36.375
0.33205464,-0.9509394,-1.088371,-1.4614594,-0.03691669,0.06115193,-0.14824098,-0.40673256,-0.34159184,0.059972815,-3.069397,0.6398951,-2.942238e-05,-0.16041212,0.040820144,0.0027003211,0.025448253,0.0035758712,-0.056881543,0.44593653,-1.389865,1.9133095,-2.0889723,-1.57559,2.431477,-0.19074014,0.22102043,-0.2805294,0.06669405,-0.025461486,-0.13358027,-0.4405331,0.2681506,-9.5385,0.9679317,47.677036,-0.9306359,-1.9467127,-3.518755,-0.10847992,-0.19379805,-0.12975956,28.5625,29.625,28.875,32.9375,35.3125,36.375
0.33405465,-0.10251011,-0.6359806,-1.2365144,-0.029635848,0.07507639,-0.15261884,-0.40702558,-0.34152147,0.0599481,-3.0693016,0.63999265,-9.237781e-05,-0.16204643,0.039822347,0.003666959,0.023943555,0.0061784764,-0.06275603,0.44558913,-1.3893842,1.9127716,-2.0888402,-1.5756263,2.4312036,-0.19036412,0.2223652,-0.28428766,0.06612743,-0.02522359,-0.1273274,-0.4405331,0.30645782,-9.423578,0.8918391,47.672558,-0.9558463,-1.8831317,-3.4100585,-0.08805907,-0.20333633,-0.1760349,28.5625,29.625,28.875,32.9375,35.3125,36.375
0.3360546,-0.5330592,-0.78362733,-1.3753732,-0.0027003828,0.051123474,-0.14280373,-0.40736338,-0.3414113,0.05995421,-3.0691762,0.64027655,-4.375765e-05,-0.16242546,0.039545573,0.004020298,0.024521995,0.0068020322,-0.067233376,0.44515747,-1.3889513,1.9122199,-2.0887082,-1.5756987,2.4309661,-0.1895283,0.2230674,-0.28620893,0.06704278,-0.025999412,-0.122009076,-0.40222588,0.2681506,-9.461885,0.8985519,47.66987,-1.0602819,-1.8815979,-3.3441896,-0.040557608,-0.20302737,-0.23900561,28.5625,29.625,28.875,32.9375,35.3125,36.375
0.33805385,-0.5940199,-0.74887013,-1.5581445,-0.010396308,0.053513702,-0.14730597,-0.4076887,-0.34135142,0.05997625,-3.0691168,0.64047545,3.9704606e-05,-0.16240436,0.03939191,0.004395125,0.02596068,0.0069381758,-0.068400495,0.4448094,-1.3885186,1.9116343,-2.0885885,-1.5757469,2.4307504,-0.18822676,0.2234252,-0.2880009,0.06897615,-0.027344149,-0.11953371,-0.51714754,0.28730422,-9.481039,1.0194036,47.719128,-1.1114521,-1.767648,-3.4278927,-0.033771776,-0.1913577,-0.3006293,28.5625,29.625,28.875,32.9375,35.3125,36.375
0.34005383,-1.2479353,-0.9898095,-1.326628,-0.04363229,0.08103354,-0.15163969,-0.40802217,-0.34128204,0.059996665,-3.06904,0.64064956,7.576307e-05,-0.16249996,0.038907427,0.00425522,0.025786234,0.005210989,-0.06764781,0.4444379,-1.3880618,1.911013,-2.0884197,-1.5757946,2.4304981,-0.1878499,0.22525892,-0.29038525,0.07099053,-0.026448349,-0.119913384,-0.5363012,0.17238252,-9.519346,0.9030289,47.70032,-1.2496908,-1.7186968,-3.4288077,-0.0479337,-0.20836997,-0.31106186,28.5625,29.625,28.875,32.9375,35.3125,36.375
0.34205413,-0.72881365,-0.80548406,-1.6143631,-0.04714886,0.09783976,-0.16427113,-0.40831152,-0.34118915,0.059955325,-3.0688653,0.64080614,-2.9300365e-05,-0.1627075,0.03908459,0.0033402462,0.026587386,0.0022737677,-0.07099275,0.44407782,-1.387556,1.9104751,-2.0882514,-1.5758666,2.4302595,-0.18851565,0.22823611,-0.29235122,0.07297009,-0.025917575,-0.11723271,-0.28730422,0.076614454,-9.653421,0.947788,47.704796,-1.3603779,-1.8552507,-3.4590516,-0.03165688,-0.22711344,-0.36035192,28.5625,29.625,28.875,32.9375,35.3125,36.375
0.34405446,-1.2063286,-1.4462707,-1.5326489,-0.035654392,0.08392526,-0.14352104,-0.40868267,-0.34110913,0.06000424,-3.068835,0.6410867,0.00014655481,-0.16262986,0.04029814,0.0018699957,0.029449746,-0.003764773,-0.069581866,0.4436572,-1.3871497,1.9098638,-2.088154,-1.5759147,2.4300182,-0.19038634,0.23218797,-0.29490843,0.078224786,-0.02590814,-0.12051629,-0.22984336,0.076614454,-9.710882,0.9567419,47.67614,-1.3330469,-2.0018892,-3.373629,-0.048545554,-0.24726006,-0.3805095,28.5625,29.625,28.875,32.9375,35.3125,36.375
0.34605402,-0.92581564,-0.8400875,-1.2838888,-0.04989094,0.07422241,-0.14900838,-0.40901375,-0.34103116,0.0600211,-3.0687168,0.64127314,0.00019832655,-0.16272366,0.04166473,-0.00041604182,0.03191658,-0.0075581474,-0.07061154,0.44329652,-1.3866887,1.909243,-2.0879748,-1.5759987,2.42979,-0.19230127,0.23605369,-0.29434264,0.07825661,-0.02651976,-0.12139769,-0.21068975,0.15322891,-9.557653,0.8672237,47.705692,-1.2861145,-2.1513681,-3.477686,-0.052472923,-0.2423642,-0.35670725,28.5625,29.625,28.875,32.9375,35.3125,36.375
0.34805435,0.32991326,-0.19144525,-1.445984,-0.019573247,0.057917695,-0.16293116,-0.40933946,-0.34094533,0.059991583,-3.0686395,0.64152336,5.0200688e-05,-0.16330601,0.0431075,-0.00016329883,0.033723146,-0.00876916,-0.06692571,0.442852,-1.3861719,1.9086694,-2.0878298,-1.5759634,2.4295123,-0.19440101,0.2360603,-0.29576692,0.081509314,-0.02767149,-0.1271748,0.0,0.19153613,-9.500193,0.9567419,47.71823,-1.1845573,-2.0671864,-3.5568953,-0.048876647,-0.24704812,-0.34349817,28.5625,29.625,28.875,32.9375,35.3125,36.375
0.35005435,0.47519505,-0.07722727,-1.2384511,-0.004017102,0.026687076,-0.153803,-0.40966445,-0.34086674,0.060012754,-3.0685382,0.6416706,0.00015079197,-0.1629714,0.04406312,-0.00025210634,0.035666127,-0.012689587,-0.06011751,0.4425035,-1.3857425,1.9080828,-2.0876834,-1.5760592,2.4292696,-0.19555879,0.23686838,-0.29786342,0.08710871,-0.027778083,-0.13514057,-0.019153614,0.076614454,-9.3661175,1.0037369,47.672558,-1.1644039,-1.9911835,-3.5721984,-0.092902094,-0.26206467,-0.24285321,28.5625,29.625,28.875,32.9375,35.3125,36.375
0.3520538,0.72893196,-0.03461991,-0.9791806,0.0038953568,0.00028115124,-0.15293436,-0.41002563,-0.3407809,0.060027976,-3.068465,0.6418643,0.00020303474,-0.16419175,0.044665564,8.686498e-05,0.035797734,-0.013241665,-0.056039475,0.44208258,-1.3852613,1.9074491,-2.08754,-1.5761074,2.4289796,-0.19748661,0.23808885,-0.30064204,0.08917162,-0.027695885,-0.14114639,0.038307227,0.076614454,-9.232041,1.0015011,47.694946,-1.0165337,-1.9508886,-3.491375,-0.09572816,-0.26746944,-0.14493713,28.5625,29.625,28.875,32.9375,35.3125,36.375
0.354054,1.0720366,0.3153363,-1.0414184,0.0091495635,-0.022398857,-0.14810587,-0.4103546,-0.34069607,0.06003357,-3.0683508,0.6420492,0.0002017889,-0.1653419,0.045920577,0.00014747254,0.038443815,-0.015052153,-0.053898275,0.44169837,-1.3847889,1.9068393,-2.0873587,-1.576168,2.4287264,-0.19942594,0.24019848,-0.30432874,0.09348159,-0.029345017,-0.14521566,0.1340753,0.11492168,-9.193734,0.9455522,47.64389,-0.97320855,-2.0344493,-3.3876321,-0.15486622,-0.25490263,-0.10198274,28.5625,29.625,28.875,32.9375,35.3125,36.375
0.35605407,0.8039788,-0.16980696,-0.9089646,0.0050137592,-0.012233728,-0.14452198,-0.41067296,-0.3406089,0.060027033,-3.06823,0.64209986,0.00015807523,-0.16635755,0.04606424,0.00111835,0.038016707,-0.015265715,-0.05469216,0.44132614,-1.3842964,1.906228,-2.0871542,-1.5762395,2.4284024,-0.20063299,0.2405583,-0.30776253,0.09654149,-0.028893283,-0.14562804,-0.19153613,0.076614454,-9.174581,0.90750587,47.655537,-0.9907168,-1.9826306,-3.3566656,-0.19593985,-0.26733363,-0.05173332,28.5625,29.625,28.875,32.9375,35.3125,36.375
0.35805458,0.5127471,-0.5570394,-1.1989064,-0.0070883147,0.012744167,-0.1499763,-0.4110108,-0.34050035,0.060025886,-3.0680857,0.64234287,0.00011639924,-0.16746624,0.04699349,0.0011744496,0.036938682,-0.016648447,-0.06299056,0.440893,-1.383816,1.9056185,-2.0869505,-1.5762986,2.4281406,-0.20396695,0.24138615,-0.30931827,0.09806142,-0.02733139,-0.14066984,-0.15322891,0.095768064,-9.251195,0.9835985,47.678825,-0.92976165,-1.885277,-3.3139365,-0.23747572,-0.28976595,-0.070918426,28.5625,29.625,28.875,32.9375,35.3125,36.375
0.36005402,-0.2773593,-0.73338854,-1.0102596,-0.025498895,0.027360803,-0.15651591,-0.41133755,-0.34040856,0.060031243,-3.0679476,0.6426057,3.629021e-05,-0.16815956,0.048157975,0.0009074016,0.03764721,-0.01941118,-0.07192673,0.44048432,-1.383335,1.9049848,-2.0867097,-1.5763348,2.4279149,-0.20673124,0.24291871,-0.31137243,0.10140131,-0.026789853,-0.13449809,-0.15322891,0.05746084,-9.251195,0.8672237,47.72002,-0.9253798,-1.8678124,-3.342225,-0.29522818,-0.3066111,-0.13879247,28.5625,29.625,28.875,32.9375,35.3125,36.375
0.36205432,-1.0001259,-1.3451344,-0.7023551,-0.05559563,0.082234904,-0.14152054,-0.41167116,-0.3403263,0.060060937,-3.0678556,0.64264554,0.00011074552,-0.16952336,0.04692406,0.0010632051,0.036589414,-0.015970478,-0.075614944,0.44012463,-1.3828931,1.9043506,-2.0865076,-1.5764312,2.4275928,-0.20520696,0.24498144,-0.31346482,0.097877264,-0.027302807,-0.12928095,-0.61291564,0.038307227,-9.232041,0.9567419,47.71465,-0.9227984,-1.8504801,-3.3159099,-0.30358776,-0.32477772,-0.17497376,28.5625,29.625,28.875,32.9375,35.3125,36.375
0.36405465,-1.549368,-1.0904754,-0.71780425,-0.049954,0.113615,-0.15423357,-0.4119792,-0.34024474,0.0600236,-3.0677373,0.64294845,-9.904836e-05,-0.16913845,0.046678856,0.0006265074,0.036928833,-0.016214436,-0.078506336,0.43970487,-1.3823607,1.9037641,-2.0863163,-1.5763954,2.4273782,-0.20414296,0.2455811,-0.3131847,0.09737983,-0.027519703,-0.1253207,-0.5554548,-0.019153614,-9.308656,0.9186956,47.64837,-1.0072173,-1.7234814,-3.2207727,-0.30166265,-0.350079,-0.24425972,28.5625,29.625,28.875,32.9375,35.3125,36.375
0.36605373,-2.307233,-0.8907308,-0.7197615,-0.021843836,0.12163086,-0.14772558,-0.4123317,-0.34014156,0.060021855,-3.067589,0.64318526,-8.759635e-05,-0.17095129,0.0446917,0.00089783047,0.034135897,-0.011109989,-0.07986809,0.43928593,-1.3818551,1.9031314,-2.0861385,-1.5764793,2.4271274,-0.20218791,0.24788494,-0.31529275,0.09137289,-0.027185813,-0.122002855,-0.5554548,0.0,-9.32781,0.9298854,47.67345,-1.1964571,-1.898693,-3.4746127,-0.25906363,-0.36098483,-0.3377667,28.5625,29.625,28.875,32.9375,35.3125,36.375
0.3680542,-2.280462,-0.77767915,-0.5595634,-0.019481473,0.13762353,-0.14285593,-0.41267058,-0.3400623,0.060031034,-3.067492,0.6434542,-8.476983e-05,-0.1730119,0.043306552,0.0028895356,0.030432591,-0.0037521927,-0.082041055,0.43888995,-1.3813783,1.90251,-2.085973,-1.5765146,2.4269125,-0.20141126,0.24623708,-0.31687602,0.08637177,-0.026974363,-0.11905321,-0.6895301,0.15322891,-9.308657,1.0395473,47.73256,-1.344032,-1.7770119,-3.5094256,-0.20770529,-0.3917706,-0.37046325,28.5625,29.625,28.875,32.9375,35.3125,36.375
0.37005427,-0.95168734,-0.3245279,-0.63605165,-0.017791532,0.14582235,-0.1699436,-0.4130397,-0.33996305,0.06005263,-3.0673773,0.64371824,-2.3248434e-05,-0.17462792,0.04331249,0.0021131185,0.030398,-0.001660362,-0.08383133,0.43845788,-1.3808973,1.9018525,-2.0857947,-1.5765871,2.426661,-0.20200297,0.2491569,-0.3177773,0.08243516,-0.02784421,-0.117848426,-0.49799395,0.15322891,-9.32781,0.8985519,47.677036,-1.3856757,-1.6372266,-3.4544878,-0.13123119,-0.4012145,-0.44703597,28.5625,29.625,28.875,32.9375,35.3125,36.375
0.37205377,-0.76082236,-0.39923587,-0.83109033,-0.022331031,0.11244632,-0.16714644,-0.41337365,-0.3398988,0.060040385,-3.0672715,0.6438688,-2.1777341e-05,-0.1776247,0.044556364,0.0017086875,0.03148418,0.00045039866,-0.08589462,0.43810898,-1.3803642,1.9012183,-2.085652,-1.5766481,2.4264207,-0.2052629,0.25264817,-0.32062492,0.0803244,-0.029749714,-0.11903092,-0.51714754,0.21068975,-9.404425,0.9835985,47.711063,-1.4092956,-1.8479397,-3.547163,-0.0784038,-0.39691368,-0.4875505,28.5625,29.625,28.875,32.9375,35.3125,36.375
0.3740539,-0.7469976,-1.0765762,-0.8424046,-0.038868688,0.08139907,-0.15320556,-0.4137507,-0.3397716,0.06006115,-3.0670874,0.64420944,5.838453e-05,-0.17879495,0.045436624,0.00086234906,0.034391474,0.00013602886,-0.08027319,0.4376529,-1.3798862,1.9005603,-2.0854485,-1.5767692,2.4262023,-0.20595789,0.2559272,-0.3227351,0.08061607,-0.032290976,-0.12533054,-0.36391866,0.2681506,-9.346964,0.8940802,47.666286,-1.4313291,-1.8754907,-3.5257635,-0.052943133,-0.3808453,-0.42075142,28.5625,29.625,28.875,32.9375,35.3125,36.375
