Tylouw/Master_Thesis_Code/training_data/batch_1/small_rod_t0.3/sample_70_session_2.csv
timestamp[s],tcp_force_x[N],tcp_force_y[N],tcp_force_z[N],tcp_force_rx[Nm?],tcp_force_ry[Nm?],tcp_force_rz[Nm?],tcp_pose_x[m],tcp_pose_y[m],tcp_pose_z[m],tcp_pose_rx[rot_vec_x],tcp_pose_ry[rot_vec_y],tcp_pose_rz[rot_vec_z],tcp_velo_x[m/s],tcp_velo_y[m/s],tcp_velo_z[m/s],tcp_velo_rx[rot_vec_x/s],tcp_velo_ry[rot_vec_y/s],tcp_velo_rz[rot_vec_z/s],q1[rad],q2[rad],q3[rad],q4[rad],q5[rad],q6[rad],qd1[rad/s],qd2[rad/s],qd3[rad/s],qd4[rad/s],qd5[rad/s],qd6[rad/s],tool_acc_x,tool_acc_y,tool_acc_z,current_of_whole_robot[A],voltage_of_whole_robot[V],current_J1[A],current_J2[A],current_J3[A],current_J4[A],current_J5[A],current_J6[A],temp_J1[C],temp_J2[C],temp_J3[C],temp_J4[C],temp_J5[C],temp_J6[C]
8.9398236e-07,-0.46603602,-0.38487756,0.92325747,-0.009665082,-0.0032878534,-0.01399145,-0.3810663,-0.3485452,0.060000155,-3.0785704,0.6248688,-8.613842e-05,0.0010801983,0.0005459868,-0.0010397701,0.00091504207,-0.0020502901,9.494084e-05,0.47782204,-1.4259819,1.957702,-2.100845,-1.5707573,2.452764,-5.7667494e-05,-2.336056e-05,0.0024430163,-0.0001787328,0.00013507703,-0.00015403707,0.038307227,0.11492168,-8.829816,0.68818194,47.701214,0.062171236,-2.7559395,-2.372093,-0.42254305,0.17561677,0.06844029,28.5625,29.6875,28.9375,33.0,35.375,36.4375
0.002052519,-0.08693705,-0.20937628,0.8690911,0.00085982017,0.00045689708,-0.022435773,-0.38104644,-0.34853488,0.05996548,-3.078541,0.62478644,-0.00017389338,-9.087879e-05,-6.488139e-05,-0.0031273754,2.0700249e-05,-0.00034957178,9.416311e-05,0.47782204,-1.4259443,1.9577392,-2.100848,-1.5707573,2.4527164,-5.675835e-05,0.004440383,0.0039147865,-0.008035748,0.00013224172,-0.00015081088,0.038307227,0.1340753,-8.734048,0.7933669,47.73256,0.04895154,-2.8037674,-2.4963548,-0.40293774,0.16315979,0.06438924,28.5625,29.6875,28.9375,33.0,35.375,36.4375
0.004052028,-0.38417566,-0.329775,0.9101956,0.011282913,-0.006402456,-0.012787869,-0.38105682,-0.34852427,0.059951015,-3.078509,0.62495285,-0.000199022,-0.0008589137,-0.00046460686,-0.0028963205,-0.000900522,0.0014234324,9.26964e-05,0.47778615,-1.4259202,1.9577502,-2.1008718,-1.5707458,2.4527884,-5.58773e-05,0.004876158,0.0033054068,-0.009860178,0.0001295227,-0.00014771633,0.095768064,0.095768064,-8.772355,0.6948948,47.71286,0.07428981,-3.1948152,-2.710854,-0.31611735,0.17060605,0.054998986,28.5625,29.6875,28.9375,33.0,35.375,36.4375
0.006052142,-0.15106201,-0.32848838,0.6606556,0.02208391,-0.017886715,-0.008799425,-0.38108554,-0.348519,0.059957687,-3.078538,0.6249201,-0.00015694817,-0.0005489311,-0.00030209453,-0.0018017957,-0.000706645,0.0010668979,9.013498e-05,0.47775015,-1.4259089,1.9577273,-2.1008947,-1.5707458,2.4527283,-5.5023378e-05,0.0029360442,0.0022385926,-0.0064474735,0.00012691352,-0.00014474659,0.1340753,0.19153613,-8.7532015,0.7665104,47.70838,0.078020684,-3.0931745,-2.6130407,-0.32033503,0.1641826,0.06523041,28.5625,29.6875,28.9375,33.0,35.375,36.4375
0.008052225,0.4239103,0.75004977,0.3180875,0.027118325,-0.027096253,-0.020498946,-0.38102666,-0.34850857,0.059913833,-3.0784688,0.62488663,-0.00030129563,-0.00062310137,-0.00034555266,9.6179596e-05,-0.0012110202,0.002019884,8.782503e-05,0.47778615,-1.4258981,1.9578093,-2.1008694,-1.5707458,2.452752,-5.419504e-05,5.142617e-05,0.00034720806,-0.0027497066,0.00014099576,-0.00014189421,0.05746084,0.15322891,-8.868123,0.7642693,47.681515,0.0971494,-2.8865042,-2.5101619,-0.3758238,0.16301972,0.066285074,28.5625,29.6875,28.9375,33.0,35.375,36.4375
0.010052136,0.12927116,0.3550135,0.030915685,0.027579231,-0.024049414,-0.015572471,-0.38104445,-0.3485091,0.059942115,-3.0784872,0.6248903,-0.00020528023,-0.00039775518,-0.00022804829,0.00013682517,-0.00076679426,0.0011707429,8.576216e-05,0.47778615,-1.425934,1.9577855,-2.100869,-1.5707697,2.452752,-5.342063e-05,6.8994774e-07,4.658239e-06,-0.0013981031,0.00013934908,-0.00013915174,0.038307227,0.095768064,-9.078813,0.6725152,47.675243,-0.31165934,-2.4066877,-3.034707,-0.39637053,0.1516175,0.013884858,28.5625,29.6875,28.9375,33.0,35.375,36.4375
0.012052126,-0.39658764,-0.4036194,-0.17598271,-0.0027055796,-0.011429276,-0.019295312,-0.38105673,-0.34852007,0.059936836,-3.078503,0.6248171,-0.00023509779,0.0003386563,0.00018586447,-0.003382792,0.0026384322,-0.005397884,4.3947413e-05,0.47778615,-1.4258839,1.9577378,-2.100857,-1.5707573,2.4527044,-0.00011026277,0.00697683,6.249623e-08,-0.0009708251,0.00013677259,-0.00015315053,0.076614454,0.095768064,-9.32781,0.784413,47.705692,-0.5704554,-2.395429,-3.1962738,-0.38454628,0.15180466,-0.0364157,28.5625,29.6875,28.9375,33.0,35.375,36.4375
0.014052165,-0.50332147,-0.92031187,-0.48789558,-0.029431734,0.007348647,-0.019867545,-0.38102445,-0.34851453,0.059888784,-3.078445,0.62486404,-0.00041655288,-0.0045476784,0.002859443,-0.0044998,0.0034563171,-0.0070002647,-0.0029101016,0.47778293,-1.4258215,1.9577712,-2.1008332,-1.5707215,2.4527378,-0.009390563,0.013544833,-0.004980336,-0.00076018437,0.00013422733,-0.0064758942,0.05746084,0.095768064,-9.500193,0.72622824,47.67614,-0.30181015,-2.890419,-3.1642265,-0.3699237,0.15157379,-0.041109122,28.5625,29.6875,28.9375,33.0,35.375,36.4375
0.016052218,-1.1707597,-1.0484236,-0.59198135,-0.04363441,0.014249207,-0.027483275,-0.3810166,-0.34849027,0.059876457,-3.0784004,0.62479496,-0.00043855785,-0.0064465553,0.0028798901,-0.0029261499,0.0020895367,-0.0043392614,0.0007290252,0.4777703,-1.4258218,1.9577941,-2.1008089,-1.5707573,2.4526877,-0.011173928,0.012923041,-0.008020313,-9.091761e-05,0.00011639509,-0.011897055,-0.21068975,0.22984336,-9.5385,0.7530795,47.694946,-0.27929074,-2.8178394,-3.1552076,-0.3729705,0.13270931,-0.0032353806,28.5625,29.6875,28.9375,33.0,35.375,36.4375
0.018051894,-1.7002467,-1.5713356,-0.84260106,-0.029039776,0.031268787,-0.028104793,-0.38106105,-0.34847093,0.059885457,-3.078367,0.6249404,-0.00038538332,-0.006038029,0.0025613888,-0.002482886,0.0019085732,-0.003983171,0.0048554884,0.47771055,-1.4257979,1.9577464,-2.1008089,-1.5707816,2.452723,-0.010225867,0.011924394,-0.0080351215,0.00052226824,0.00011329882,-0.015075724,-0.34476507,0.21068975,-9.653421,0.79560274,47.66808,-0.4193381,-2.6463223,-3.3381305,-0.387162,0.13164721,0.037204687,28.5625,29.6875,28.9375,33.0,35.375,36.4375
0.020051844,-2.280927,-0.8444949,-0.8364257,-0.027998755,0.041578133,-0.054158524,-0.38106963,-0.3484726,0.059871178,-3.0783749,0.6248653,-0.0004297681,-0.0065709557,0.0035608937,-0.0033114976,0.0031399466,-0.0063561494,0.004035401,0.47769782,-1.4257494,1.9577235,-2.100808,-1.5707697,2.4526625,-0.012495861,0.013911238,-0.00871773,0.0018914215,0.00011123295,-0.016525244,-0.4405331,0.22984336,-9.787497,0.784413,47.704796,-0.52711135,-2.5279107,-3.5501056,-0.37820637,0.11863242,0.032133758,28.5625,29.6875,28.9375,33.0,35.375,36.4375
0.02205179,-2.399377,-0.7983161,-0.96958995,-0.013558927,0.052263305,-0.061949726,-0.3810656,-0.34847882,0.05986547,-3.078397,0.6248133,-0.00046722929,-0.008521948,0.0037264286,-0.0025353127,0.0023481075,-0.0048361653,0.0025846204,0.4776971,-1.4257371,1.9577225,-2.100808,-1.5707458,2.4526265,-0.014596131,0.014922914,-0.011704555,0.0021530031,0.00010929882,-0.017173113,-0.4596867,0.21068975,-9.768343,0.8291774,47.68062,-0.54762244,-2.5018125,-3.572905,-0.3761267,0.1311468,0.027585119,28.5625,29.6875,28.9375,33.0,35.375,36.4375
0.0240517,-2.2646618,-0.90546197,-0.9267734,-0.01077374,0.05305881,-0.08225319,-0.38105792,-0.3484699,0.059835434,-3.0783718,0.6248098,-0.00057771296,-0.009903089,0.004017407,-0.0028120172,0.0023738358,-0.004894217,5.8729667e-05,0.47767252,-1.4256885,1.957733,-2.1007965,-1.5707215,2.4526029,-0.016392643,0.01718152,-0.013572668,0.0018264026,0.00010743464,-0.016442372,-0.6895301,0.22984336,-9.864111,0.7239871,47.701214,-0.55438876,-2.520911,-3.4360156,-0.38386142,0.1126754,-0.0048786537,28.5625,29.6875,28.9375,33.0,35.375,36.4375
0.026052104,-1.9113961,-1.118914,-0.9291167,-0.0077918926,0.07114332,-0.09964087,-0.3810744,-0.34846926,0.059840806,-3.0783772,0.6247916,-0.0006041519,-0.011206115,0.0037031004,-0.0024170936,0.0017058408,-0.0036134105,-0.00070483953,0.47764835,-1.4256641,1.9576849,-2.1007607,-1.5707096,2.4525666,-0.017039383,0.018491765,-0.015864022,0.0013631948,0.000105633226,-0.016324082,-0.8619126,0.21068975,-9.940725,0.83813137,47.705692,-0.6259147,-2.509408,-3.4758,-0.35371077,0.11834752,-0.020646118,28.5625,29.6875,28.9375,33.0,35.375,36.4375
0.028051982,-1.6984986,-0.8804724,-0.82906497,-0.01636139,0.08098731,-0.11572676,-0.3811151,-0.34848347,0.05984219,-3.0784032,0.6248167,-0.0005452092,-0.012018793,0.0039053238,-0.0020423627,0.0012623052,-0.0027560645,-0.0015076939,0.47763592,-1.4256042,1.9576243,-2.1008084,-1.5707096,2.4525666,-0.01814842,0.018497184,-0.016696513,0.001224963,0.00010389128,-0.01662981,-0.7086837,0.17238252,-9.883265,0.7486078,47.682407,-0.6030407,-2.4800506,-3.4719384,-0.3616175,0.115866736,-0.014777449,28.5625,29.6875,28.9375,33.0,35.375,36.4375
0.030051908,-2.1190486,-0.68731254,-0.9119375,-0.020096844,0.06961018,-0.121890165,-0.3811455,-0.34844828,0.059830703,-3.0783303,0.6248407,-0.0005561468,-0.01300757,0.003108255,-0.0014767075,0.00060531497,-0.0014971346,-0.0015598681,0.4775761,-1.4255558,1.9575871,-2.1007721,-1.5707573,2.452531,-0.017645653,0.019815328,-0.019509936,0.0012995038,0.000102205755,-0.016073257,-0.7661445,0.05746084,-9.844957,0.77545905,47.63852,-0.65757674,-2.4480867,-3.3786879,-0.35471535,0.098299325,-0.027512547,28.5625,29.6875,28.9375,33.0,35.375,36.4375
0.03205195,-2.2661865,-0.43548056,-0.79763687,-0.0031690302,0.058332834,-0.13585606,-0.38116768,-0.34846374,0.05983317,-3.0783541,0.62480766,-0.00055246096,-0.013863751,0.0033819503,-0.0014272855,0.00058526493,-0.0014579383,-0.0035816464,0.47757563,-1.4255077,1.9575266,-2.1007721,-1.5707458,2.452507,-0.018923251,0.020739432,-0.020736141,0.0015578766,0.00010057421,-0.015328359,-0.8236054,0.1340753,-9.80665,0.75755644,47.70659,-0.6798446,-2.4283104,-3.4677815,-0.34098905,0.09794243,-0.028428026,28.5625,29.6875,28.9375,33.0,35.375,36.4375
0.034051985,-1.5287967,-0.045158666,-0.8397841,0.013830085,0.064141266,-0.14390591,-0.3811731,-0.34844175,0.059809987,-3.0783114,0.6248192,-0.00060072093,-0.0150117865,0.0039561796,-0.00052844,0.00028234813,-0.00087013986,-0.00635941,0.4775389,-1.4254718,1.9575385,-2.1007712,-1.5707573,2.452483,-0.021004932,0.020239284,-0.022611009,0.0032715779,9.899384e-05,-0.014631756,-0.7469909,0.0,-9.787497,0.71951014,47.65912,-0.66377527,-2.3722577,-3.4403172,-0.35695666,0.101446465,-0.067341276,28.5625,29.6875,28.9375,33.0,35.375,36.4375
0.03605246,-1.7667974,0.461214,-0.7550779,0.023587985,0.04415127,-0.1636016,-0.3812554,-0.34844124,0.059856113,-3.07836,0.62496406,-0.00048073658,-0.015776549,0.004326852,-0.00097006117,0.0006695729,-0.0016165773,-0.007488634,0.47745442,-1.4254593,1.9574188,-2.1007717,-1.5707458,2.4524827,-0.022367056,0.022013469,-0.023648243,0.0033756802,9.746239e-05,-0.014863857,-0.5554548,-0.038307227,-9.749189,0.7665104,47.690468,-0.6138766,-2.5149276,-3.3450508,-0.3536681,0.073218524,-0.071266815,28.5625,29.6875,28.9375,33.0,35.375,36.4375
0.03805253,-1.5678326,-0.03332756,-0.7680534,0.03492804,0.030439008,-0.16615045,-0.38126242,-0.3484267,0.05981255,-3.0783165,0.62497514,-0.0006209317,-0.01681122,0.0041311244,-0.00083968,0.00023492977,-0.0007874044,-0.007913069,0.47740623,-1.4253628,1.9574059,-2.1007602,-1.5707215,2.452447,-0.022975521,0.02333054,-0.025317201,0.0027917423,9.5977564e-05,-0.015046731,-0.4213795,-0.076614454,-9.691729,0.7530795,47.658226,-0.657797,-2.4401793,-3.4236708,-0.33495393,0.07710926,-0.09315324,28.5625,29.6875,28.9375,33.0,35.375,36.4375
0.040052537,-1.3287065,-0.47828627,-0.5581456,0.03318139,0.029711705,-0.17378432,-0.38132092,-0.3484324,0.059840113,-3.0783672,0.6249469,-0.0005056954,-0.018229919,0.004053528,-0.00010131536,-0.00071148394,0.0010963564,-0.008350094,0.4773699,-1.425339,1.957321,-2.100784,-1.5707334,2.4523866,-0.024127917,0.023650972,-0.02726036,0.0023063098,6.6679466e-05,-0.015760908,-0.22984336,0.0,-9.615114,0.7911258,47.691364,-0.61041015,-2.36002,-3.4368472,-0.2916503,0.08013126,-0.0995343,28.5625,29.6875,28.9375,33.0,35.375,36.4375
0.04205246,-1.1844728,-0.36003456,-0.6114319,0.028941624,0.022712035,-0.17886892,-0.38135752,-0.34842217,0.059824646,-3.078312,0.62505186,-0.0005111326,-0.020171417,0.003970484,0.0013008567,-0.0021570835,0.0039562453,-0.009371562,0.47733334,-1.4252552,1.957261,-2.100784,-1.5707573,2.4524226,-0.025749922,0.023361385,-0.030125856,0.0022567124,2.9895487e-05,-0.016359968,-0.19153613,-0.019153614,-9.576807,0.784413,47.711063,-0.60179806,-2.3460755,-3.2797914,-0.2810522,0.06403897,-0.113157704,28.5625,29.6875,28.9375,33.0,35.375,36.4375
0.044052433,-0.8928976,-0.122528754,-0.48625252,0.02035283,0.010261228,-0.19969872,-0.38138416,-0.34839937,0.05982649,-3.0783093,0.625071,-0.0005377393,-0.02076002,0.0045730746,0.0010492369,-0.0016244288,0.0029501931,-0.0102786785,0.47726074,-1.4252428,1.9572371,-2.1007602,-1.5707458,2.4523623,-0.027356416,0.02441633,-0.030963454,0.003177805,1.8941912e-05,-0.017058918,-0.15322891,0.019153614,-9.634268,0.7418897,47.71465,-0.60317814,-2.2504888,-3.294888,-0.27902108,0.04762704,-0.14187512,28.5625,29.6875,28.9375,33.0,35.375,36.4375
0.046051994,-1.2421752,-0.67373186,-0.7837849,0.02308694,-0.012970652,-0.20216876,-0.38143677,-0.3483886,0.05983205,-3.0783,0.6251069,-0.0005133305,-0.020972349,0.004945692,0.001074061,-0.0009599804,0.0017052237,-0.00998502,0.47720036,-1.4251826,1.9571527,-2.1007469,-1.5707573,2.4523256,-0.02820103,0.02499704,-0.032140147,0.0051845475,2.3876623e-06,-0.018196875,-0.11492168,0.076614454,-9.461885,0.8023209,47.690468,-0.64144766,-2.2682283,-3.339578,-0.29790282,0.060745433,-0.14319116,28.5625,29.6875,28.9375,33.0,35.375,36.4375
0.048052005,-0.26898476,-0.52730376,-0.4785542,0.014363561,0.0016731339,-0.22052923,-0.3814808,-0.34838167,0.059831366,-3.078319,0.62513095,-0.0004963823,-0.021789432,0.005394651,0.0010427528,-0.0004672672,0.0007562748,-0.010534217,0.47713983,-1.4251343,1.9571046,-2.1007702,-1.5707458,2.4522777,-0.029750397,0.026343063,-0.033954475,0.0067221685,1.5589728e-07,-0.019196222,-0.076614454,0.17238252,-9.442732,0.72622824,47.689575,-0.55892867,-2.3501914,-3.3580709,-0.29570052,0.038136866,-0.15700923,28.5625,29.6875,28.9375,33.0,35.375,36.4375
0.050051775,-0.32807747,-0.28238234,-0.48813328,-0.008095,0.0032077893,-0.22311196,-0.38154405,-0.34836757,0.05985733,-3.0783036,0.6251853,-0.00041617168,-0.022837205,0.00552984,0.0013567167,-0.0007815446,0.0013583048,-0.010504868,0.4770795,-1.4250982,1.9569958,-2.1007345,-1.5707816,2.4522533,-0.03095504,0.027093368,-0.035570655,0.006908019,1.0178978e-08,-0.020429319,-0.05746084,0.17238252,-9.5385,0.8023209,47.667187,-0.55094635,-2.2545214,-3.4057984,-0.29127696,0.049442954,-0.17715229,28.5625,29.6875,28.9375,33.0,35.375,36.4375
0.052051753,-0.7332129,-1.0261697,-0.32037187,-0.010494992,-0.0012751003,-0.20647573,-0.38158303,-0.3483539,0.05986338,-3.0782926,0.62524045,-0.00041567392,-0.02434218,0.005410766,0.002064076,-0.0016663768,0.0030573101,-0.01068673,0.47701916,-1.425062,1.9569353,-2.1007106,-1.5707816,2.4522288,-0.03213135,0.027769798,-0.037899815,0.006644971,6.646146e-10,-0.021422436,-0.05746084,0.21068975,-9.519346,0.73069996,47.694054,-0.59035385,-2.2328453,-3.3010535,-0.2948333,0.040632255,-0.1844731,28.5625,29.6875,28.9375,33.0,35.375,36.4375
0.05405176,-0.5575203,-1.3851444,-0.42718786,-0.007850408,0.0022440103,-0.18577571,-0.38162825,-0.34833902,0.059868854,-3.0782838,0.6252385,-0.00040389877,-0.024745045,0.0058880453,0.0020823565,-0.0012814827,0.0023141317,-0.010765201,0.47695863,-1.4250139,1.9568623,-2.1006858,-1.5707935,2.4521682,-0.033348206,0.02818139,-0.038688153,0.007858184,4.3394576e-11,-0.022560602,-0.076614454,0.2681506,-9.595961,0.683705,47.642998,-0.6194402,-2.188782,-3.2939126,-0.299923,0.019234668,-0.18392251,28.5625,29.6875,28.9375,33.0,35.375,36.4375
0.05605211,-0.39663056,-0.97641313,-0.4410411,-0.0126362685,0.004686238,-0.1977558,-0.38170785,-0.3483482,0.059874535,-3.0783231,0.6252846,-0.00037029668,-0.025879247,0.006651951,0.0020694714,0.00029512556,0.0022106578,-0.011013859,0.47688615,-1.4249055,1.9567312,-2.1007097,-1.5707701,2.4521196,-0.034868173,0.029665064,-0.04064851,0.009155735,-0.0013537644,-0.023828369,0.038307227,0.3256114,-9.461885,0.73069996,47.695843,-0.6194514,-2.154768,-3.2870007,-0.29177955,0.043268763,-0.21603481,28.5625,29.6875,28.9375,33.0,35.375,36.4375
0.058052126,-0.39647537,-1.0987103,-0.4521396,-0.01681292,0.007625455,-0.19305159,-0.38174352,-0.34831747,0.059862252,-3.0782611,0.6253484,-0.0004045348,-0.026178988,0.006719804,0.0015439632,0.0009891711,0.00065204565,-0.009878604,0.4768141,-1.424845,1.9566821,-2.100674,-1.570794,2.4520953,-0.03532627,0.031715233,-0.042020872,0.010179913,-0.001257429,-0.025421035,-0.05746084,0.34476507,-9.461885,0.78888994,47.66271,-0.64115536,-2.1958857,-3.271223,-0.31436348,0.034388043,-0.20316252,28.5625,29.6875,28.9375,33.0,35.375,36.4375
0.06005206,-1.0699323,-1.5833228,-0.53142273,-0.014886163,-0.007252078,-0.18125443,-0.38181934,-0.3483226,0.059897456,-3.078314,0.6254163,-0.00036813543,-0.027223224,0.0067140604,0.0019950958,4.7621823e-05,0.0019741186,-0.009053854,0.47672957,-1.4247969,1.9565386,-2.1006377,-1.5707577,2.4520464,-0.036419917,0.031917654,-0.043122943,0.009472545,-0.0010308342,-0.027339213,-0.038307227,0.30645782,-9.461885,0.78217715,47.716442,-0.6432357,-2.203895,-3.3886027,-0.30094546,0.027496153,-0.22256294,28.5625,29.6875,28.9375,33.0,35.375,36.4375
0.06205206,-0.57214826,-0.8404764,-0.29135358,-0.026990132,0.011049606,-0.19216974,-0.38184783,-0.34829682,0.05989208,-3.0782812,0.62546706,-0.00041131827,-0.027955469,0.0066557317,0.0026975262,-0.0005202284,0.0029336785,-0.008063115,0.47665745,-1.4247612,1.9565018,-2.1006014,-1.5707577,2.4520102,-0.037028484,0.031671565,-0.044583566,0.010065578,-0.0009698918,-0.028938025,0.0,0.30645782,-9.481039,0.8179876,47.719128,-0.65475714,-2.1394887,-3.297048,-0.3016991,0.026627384,-0.222387,28.5625,29.6875,28.9375,33.0,35.375,36.4375
0.064052135,-1.0172272,-0.9226156,-0.2257357,-0.018036028,0.010115179,-0.18829033,-0.38190532,-0.34828165,0.05988103,-3.0782576,0.62550044,-0.00041316228,-0.028740916,0.0063909087,0.0027719077,-0.0007532419,0.0031519062,-0.0069988584,0.4765854,-1.424665,1.9564174,-2.100602,-1.5707701,2.451962,-0.037344806,0.03310283,-0.046410892,0.010159809,-0.0008674466,-0.030317672,-0.076614454,0.24899697,-9.481039,0.78217715,47.71823,-0.73899925,-2.0490732,-3.379058,-0.30913565,0.0096749365,-0.22175333,28.5625,29.6875,28.9375,33.0,35.375,36.4375
0.06605211,-0.9148788,-1.1060511,-0.2486782,-0.000980493,0.021952871,-0.1839963,-0.38194224,-0.34828687,0.059895884,-3.0783036,0.62545127,-0.000434989,-0.030461887,0.0059796516,0.002777067,-0.0010295629,0.0036478448,-0.00624135,0.47653708,-1.4246279,1.956333,-2.1005661,-1.5707339,2.451877,-0.038206615,0.03627441,-0.050010428,0.010021134,-0.00085771584,-0.03193468,-0.11492168,0.2681506,-9.32781,0.8493211,47.698532,-0.74044836,-2.1667454,-3.2209406,-0.30346546,-0.002291365,-0.23702124,28.5625,29.6875,28.9375,33.0,35.375,36.4375
0.06805219,-0.81953186,-0.6983336,-0.08917945,0.0027105715,0.026161699,-0.18422954,-0.38200906,-0.3482812,0.059892792,-3.0782921,0.62550515,-0.0004378882,-0.030128274,0.006274098,0.0022861531,-0.00048447415,0.00224722,-0.0045683067,0.47646496,-1.4245198,1.9562138,-2.1005533,-1.5707334,2.4518402,-0.03851876,0.03674143,-0.04955513,0.0105925705,-0.00069812324,-0.033920452,-0.1340753,0.21068975,-9.308657,0.7351769,47.64479,-0.7826049,-2.1206636,-3.1167026,-0.2965815,-0.0015308068,-0.26593575,28.5625,29.6875,28.9375,33.0,35.375,36.4375
0.070052154,-1.1569871,-0.6943164,-0.12312762,0.008647486,0.012078294,-0.17882007,-0.3820684,-0.34827605,0.059913356,-3.078307,0.62544954,-0.0003706521,-0.030690286,0.0064893127,0.0012268774,0.0005076804,0.0002680786,-0.003868095,0.4764168,-1.4244709,1.9561056,-2.1005294,-1.5707577,2.4517555,-0.03943196,0.040003918,-0.050932977,0.010920494,-0.000673753,-0.03553279,-0.095768064,0.17238252,-9.3661175,0.83589023,47.67345,-0.85734785,-2.2605848,-3.3398542,-0.2923369,-0.020754812,-0.2471152,28.5625,29.6875,28.9375,33.0,35.375,36.4375
0.07205224,-0.62589294,-0.35078502,-0.04181777,0.004040011,0.027160805,-0.19137546,-0.38216227,-0.3482372,0.059935424,-3.0782864,0.62556106,-0.00027630004,-0.031713463,0.0059436588,0.0016227455,-2.8493145e-05,0.0013480536,-0.0028473737,0.47628465,-1.4244225,1.9559973,-2.1005175,-1.570794,2.4516957,-0.03938217,0.04135096,-0.053343475,0.01077688,-0.00069657713,-0.036502264,-0.15322891,0.095768064,-9.346964,0.85826975,47.719128,-0.9174084,-2.174097,-3.1873717,-0.29134494,-0.023987362,-0.26105696,28.5625,29.6875,28.9375,33.0,35.375,36.4375
0.074052185,-1.110271,-0.21264964,-0.1234235,0.008243999,0.017879304,-0.18543288,-0.38223085,-0.3482522,0.059945922,-3.078345,0.6255337,-0.0002665448,-0.03343448,0.005555322,0.0034712288,-0.001608695,0.0050804513,-0.003022868,0.4762245,-1.424327,1.9558643,-2.1005175,-1.5707577,2.451611,-0.040068418,0.040157262,-0.05621419,0.010802132,-0.0010080971,-0.03701124,-0.2681506,0.11492168,-9.251195,0.75755644,47.67166,-0.97415155,-2.197906,-3.0386395,-0.2892241,-0.03310225,-0.2902058,28.5625,29.6875,28.9375,33.0,35.375,36.4375
0.07605247,-0.8637967,0.2119419,0.047701072,-0.002777771,0.033208307,-0.18517011,-0.38228023,-0.3482196,0.05992732,-3.078271,0.6254806,-0.0003087581,-0.033168923,0.006354152,0.0018103182,0.00049078744,0.0021202804,-0.0033390995,0.47615224,-1.4242184,1.9557694,-2.100458,-1.5708059,2.4515152,-0.04090818,0.042821772,-0.055516735,0.011033294,-0.0015177273,-0.03753372,-0.15322891,0.15322891,-9.289503,0.84708,47.701214,-1.0466051,-2.165396,-3.112433,-0.3106533,-0.056567375,-0.2784407,28.5625,29.6875,28.9375,33.0,35.375,36.4375
0.07805256,-1.4091651,-0.34266227,-0.058440294,0.0071787173,0.028185701,-0.19006874,-0.38236767,-0.3482261,0.05995125,-3.0783365,0.62551236,-0.00023014462,-0.033882804,0.0065747383,0.0014996858,0.0014853962,0.0024649338,-0.0022408331,0.476068,-1.4241459,1.9556373,-2.1004817,-1.5707825,2.4514425,-0.041272417,0.044371393,-0.056479238,0.010599965,-0.00255999,-0.03899366,-0.11492168,0.11492168,-9.289502,0.74413085,47.699425,-1.0547383,-2.2134318,-3.2138648,-0.27962157,-0.03824362,-0.30078605,28.5625,29.6875,28.9375,33.0,35.375,36.4375
0.080052905,-1.7056572,-0.54943585,0.22038992,0.01603223,0.021982089,-0.18143855,-0.3824361,-0.348192,0.059939098,-3.078293,0.6255603,-0.00023541262,-0.035497878,0.0062594474,0.002109495,0.0007983848,0.0035807493,-0.00075978384,0.47595978,-1.4240496,1.9555525,-2.1004698,-1.5708064,2.4513698,-0.04225258,0.045999274,-0.059828863,0.011013102,-0.0024684735,-0.041453134,-0.21068975,0.05746084,-9.251195,0.78888994,47.690468,-1.1104515,-2.2069786,-3.067882,-0.29274106,-0.038291603,-0.3181409,28.5625,29.6875,28.9375,33.0,35.375,36.4375
0.08205252,-0.88014543,0.19827296,0.027385935,0.006946859,0.029612772,-0.18479697,-0.38249224,-0.34819844,0.05993933,-3.0783064,0.6255047,-0.00026187947,-0.035766255,0.0060930895,0.002043783,0.000705554,0.003394301,-0.0009550025,0.4759117,-1.4239415,1.9554204,-2.100434,-1.5707945,2.4512854,-0.042306036,0.046829086,-0.06065867,0.011136107,-0.002302346,-0.041311134,-0.3256114,0.076614454,-9.289502,0.75755644,47.711964,-1.237591,-2.1841025,-3.1084485,-0.28130212,-0.057832837,-0.29430616,28.5625,29.6875,28.9375,33.0,35.375,36.4375
0.084052466,-0.76063687,-0.40547985,-0.145636,0.022134492,0.024172163,-0.17967479,-0.38257483,-0.34817764,0.059961256,-3.0783298,0.6255884,-0.00021633963,-0.03753374,0.006981155,0.001965447,0.00047835585,0.0031207763,-0.0050305766,0.47579062,-1.423893,1.9553121,-2.1004217,-1.5707821,2.4512136,-0.045712512,0.04856357,-0.06252239,0.0114036035,-0.0019759955,-0.040641576,-0.2873042,0.15322891,-9.270349,0.7172743,47.64121,-1.171955,-2.208817,-3.077924,-0.27621114,-0.057528973,-0.37585574,28.5625,29.6875,28.9375,33.0,35.375,36.4375
0.08605183,-1.075015,-0.22253673,-0.04483868,0.0064752935,0.010855883,-0.18383689,-0.38264427,-0.34817073,0.059959307,-3.0783317,0.6255492,-0.00025809344,-0.038137,0.0068300306,0.0020924367,0.00019994352,0.0033424662,-0.0027047098,0.47570658,-1.4237729,1.9551686,-2.100374,-1.5707701,2.4511049,-0.04608265,0.049429357,-0.063833974,0.011524193,-0.0018342712,-0.043337032,-0.21068975,0.17238252,-9.346964,0.7866488,47.67166,-1.1999142,-2.2048385,-3.094675,-0.28605643,-0.073788844,-0.35701975,28.5625,29.6875,28.9375,33.0,35.375,36.4375
0.088052034,-0.96270746,-0.18240622,-0.21984547,-0.0058174515,0.02423192,-0.18707724,-0.3827015,-0.3481493,0.059951093,-3.0782852,0.6255176,-0.00023955248,-0.03857925,0.0061877854,0.0021245186,0.000853312,0.0041321823,0.00069515686,0.47564703,-1.4236764,1.9550718,-2.1003501,-1.5708183,2.4510317,-0.044728544,0.05105617,-0.06574132,0.01140269,-0.0027827243,-0.04537978,-0.34476507,0.11492168,-9.289502,0.83365434,47.66987,-1.373822,-2.1356387,-3.0545716,-0.27751693,-0.075142644,-0.34936643,28.5625,29.6875,28.9375,33.0,35.375,36.4375
0.09005203,-1.0413667,-0.4744395,-0.0978498,-0.002333562,0.039875567,-0.18591216,-0.38277313,-0.34811804,0.05995853,-3.078259,0.625531,-0.00028371337,-0.04033884,0.007684951,0.0023301318,0.002133492,0.004643185,0.00164981,0.47552583,-1.4235924,1.9549397,-2.1002657,-1.5708188,2.4509223,-0.048103612,0.051804103,-0.067279026,0.012327968,-0.004158999,-0.049706124,-0.22984336,0.19153613,-9.232041,0.8157518,47.66808,-1.3475485,-2.236895,-3.0395367,-0.2683627,-0.052655637,-0.34872207,28.5625,29.6875,28.9375,33.0,35.375,36.4375
0.09205238,-1.1703264,-0.64860845,-0.30202582,-0.0021679841,0.047531717,-0.19138055,-0.3828764,-0.34810564,0.05996144,-3.0782666,0.6255539,-0.00022854222,-0.041349996,0.008450614,0.0020836522,0.0029073155,0.0042595128,-0.00021486262,0.47541705,-1.42346,1.9547848,-2.1002781,-1.5708317,2.450827,-0.05004842,0.053157825,-0.06836546,0.012756777,-0.0046707,-0.049784802,-0.19153613,0.15322891,-9.346964,0.8314132,47.71465,-1.2851028,-2.1518,-3.0469105,-0.29140356,-0.06583704,-0.31820276,28.5625,29.6875,28.9375,33.0,35.375,36.4375
0.094052136,-1.1531477,-0.6911997,-0.25296113,-0.009078385,0.039347403,-0.18167488,-0.3829456,-0.34812027,0.059962988,-3.0783324,0.6254907,-0.00021900958,-0.04359628,0.009672553,0.0027470589,0.0028952723,0.0059248023,-0.0025865033,0.4753558,-1.4233524,1.9546636,-2.100302,-1.5707954,2.450718,-0.05378499,0.053489503,-0.07029045,0.012867937,-0.0054244706,-0.051147565,-0.22984336,0.19153613,-9.3661175,0.71951014,47.661808,-1.1403891,-2.1574042,-3.0449815,-0.2909012,-0.06257147,-0.35837597,28.5625,29.6875,28.9375,33.0,35.375,36.4375
0.09605243,-1.7572917,-0.79972714,-0.19038564,-0.01649504,0.021147877,-0.18154286,-0.3830291,-0.34808737,0.05995907,-3.0782688,0.62558967,-0.0002419162,-0.043595865,0.009357447,0.0013747269,0.0048814537,0.0041411915,0.0024945051,0.4752363,-1.4232308,1.9545201,-2.100242,-1.5708197,2.4506683,-0.05259529,0.05737322,-0.071572624,0.0127619095,-0.006380392,-0.055035647,-0.2681506,0.17238252,-9.385271,0.77545905,47.711063,-1.2587948,-2.218627,-3.004795,-0.28959796,-0.049893774,-0.32240915,28.5625,29.6875,28.9375,33.0,35.375,36.4375
0.098051704,-1.1335198,-0.8137625,-0.36901912,-0.014672844,0.04273569,-0.17915386,-0.38311705,-0.3480628,0.059964307,-3.0782611,0.6255301,-0.00021811732,-0.04493169,0.009912462,0.002007865,0.0053509464,0.0061613037,0.0042726058,0.4751279,-1.4231228,1.9543766,-2.1002061,-1.5708445,2.4505239,-0.05392274,0.057296377,-0.07289566,0.012582333,-0.0077262647,-0.058138046,-0.4213795,0.1340753,-9.3661175,0.8112748,47.678825,-1.311805,-2.2873003,-3.0739899,-0.28092837,-0.049781784,-0.30115786,28.5625,29.6875,28.9375,33.0,35.375,36.4375
0.10005164,-0.982706,-0.6341774,-0.48826018,-0.0059313118,0.053545784,-0.18554476,-0.3832203,-0.34804094,0.05997425,-3.0782723,0.62551266,-0.00020310949,-0.04695307,0.011754912,0.0025655136,0.0063921316,0.007896239,0.0033071218,0.47499442,-1.4230028,1.9542087,-2.1001704,-1.570845,2.4503782,-0.057918444,0.05687991,-0.07374609,0.012787047,-0.009446978,-0.06116491,-0.26815057,0.22984336,-9.346964,0.7665104,47.66987,-1.1739752,-2.0546827,-3.0662694,-0.28217942,-0.014687939,-0.26611853,28.5625,29.6875,28.9375,33.0,35.375,36.4375
0.10205258,-1.1571234,-0.1052444,-0.28213525,-0.009651536,0.04790585,-0.1935458,-0.3833253,-0.34803686,0.05999074,-3.0783153,0.6254818,-0.00010400315,-0.047887515,0.011739144,0.0020196547,0.0068846364,0.0077509144,0.0056156586,0.47489837,-1.4228938,1.9540519,-2.1001942,-1.5708569,2.4502575,-0.058492813,0.059456695,-0.07529473,0.012112374,-0.009819475,-0.06404654,-0.30645782,0.19153613,-9.500193,0.779936,47.704796,-1.1295341,-2.180845,-3.1208549,-0.26376978,-0.0117892185,-0.23288491,28.5625,29.6875,28.9375,33.0,35.375,36.4375
0.10405253,-1.5550779,-0.42562747,-0.20989212,-0.00789727,0.04124184,-0.18254639,-0.38341436,-0.34800595,0.059989978,-3.078309,0.6255172,-0.00013389517,-0.04814917,0.011910052,0.00069061806,0.0066001024,0.004566803,0.0071329116,0.4747536,-1.4227847,1.9539207,-2.100158,-1.5708445,2.4501357,-0.060128126,0.06260083,-0.07589129,0.0122591425,-0.008113143,-0.067201234,-0.38307226,0.15322891,-9.481039,0.8224646,47.70032,-1.2338665,-2.2656014,-3.095469,-0.26155448,-0.0028535374,-0.20231837,28.5625,29.6875,28.9375,33.0,35.375,36.4375
0.10605228,-1.4006305,-0.6982513,-0.28361085,0.0019088528,0.040830117,-0.17726341,-0.3835136,-0.34798777,0.060006253,-3.0783217,0.62544245,-8.067956e-05,-0.04928422,0.011576005,0.001955245,0.004233227,0.0062352796,0.008617867,0.47464532,-1.422677,1.9537524,-2.1001222,-1.5708679,2.4499793,-0.06142871,0.0616496,-0.07775434,0.012499644,-0.006772871,-0.0699886,-0.3256114,0.15322891,-9.442732,0.81351066,47.704796,-1.159867,-2.2754428,-3.1168776,-0.26154083,-0.030438378,-0.15472105,28.5625,29.6875,28.9375,33.0,35.375,36.4375
0.10805226,-1.0091941,-0.16345192,-0.36847433,-0.0027755594,0.0407676,-0.19105001,-0.38361534,-0.34796372,0.059998296,-3.0782952,0.6254357,-7.53764e-05,-0.049448967,0.012029354,0.00074338604,0.00442799,0.0033540195,0.009411976,0.47452465,-1.4225199,1.9535855,-2.100098,-1.5708917,2.449858,-0.06310912,0.06412714,-0.07789768,0.012810035,-0.0056305057,-0.07246465,-0.30645782,-0.038307227,-9.481039,0.79560274,47.65912,-1.2024615,-2.152929,-3.094819,-0.2738306,-0.042638224,-0.105543815,28.5625,29.6875,28.9375,33.0,35.375,36.4375
0.11005237,-0.8677644,-0.17047784,-0.34266424,-0.00064987235,0.031724963,-0.1868474,-0.38369584,-0.34793752,0.060002945,-3.0783098,0.6253247,-9.090429e-05,-0.04978249,0.0123478705,0.00031463287,0.004157449,0.00214712,0.007973827,0.47440425,-1.4224235,1.9534539,-2.1000502,-1.5708917,2.4496665,-0.06447865,0.06516552,-0.0781469,0.012967392,-0.004839457,-0.07239712,-0.2681506,0.019153614,-9.423578,0.800085,47.67614,-1.2068198,-2.254013,-3.2615032,-0.25296414,-0.048981186,-0.08474046,28.5625,29.6875,28.9375,33.0,35.375,36.4375
0.112052746,-0.89077574,-0.35380116,-0.1975204,0.002804157,0.028308162,-0.19062594,-0.3838305,-0.34791285,0.060002606,-3.0782986,0.6253222,-2.6355508e-05,-0.052352518,0.011753672,0.0017620468,0.0025046368,0.004866473,0.0070282365,0.4742597,-1.4222426,1.9532479,-2.1000497,-1.570927,2.449522,-0.0659012,0.0666429,-0.08325641,0.01342133,-0.0046192342,-0.072871916,-0.30645782,0.038307227,-9.289502,0.8179876,47.691364,-1.1783699,-2.322493,-3.1026754,-0.24054864,-0.0857718,-0.06478843,28.5625,29.6875,28.9375,33.0,35.375,36.4375
0.11405196,-1.0437489,-0.33596605,-0.27540234,0.017827915,0.023985578,-0.17911275,-0.38391137,-0.34788632,0.059993472,-3.0783055,0.6253839,-7.924057e-05,-0.051255874,0.013098218,-0.00037891552,0.0047610756,0.00061426515,0.003709408,0.47411528,-1.4221342,1.953142,-2.1000383,-1.5708913,2.4494152,-0.06722762,0.06833355,-0.08035713,0.013647524,-0.0046786694,-0.07088057,-0.28730422,0.0,-9.289502,0.7418897,47.734352,-1.1797619,-2.2116652,-3.1882534,-0.24583381,-0.07337252,-0.05350913,28.5625,29.6875,28.9375,33.0,35.375,36.4375
0.116052225,-1.2582415,-0.43049458,-0.41739145,0.024991583,0.023973886,-0.17993754,-0.38402417,-0.34784815,0.060001336,-3.0782635,0.6253575,-2.1243357e-05,-0.05299623,0.013305839,0.00055085786,0.0037628605,0.0021890104,-0.0013558642,0.47398272,-1.4220017,1.9529618,-2.0999901,-1.5709509,2.4492717,-0.06927829,0.068644926,-0.08293822,0.014056101,-0.004513231,-0.06786503,-0.30645782,-0.038307227,-9.404425,0.82694155,47.704796,-1.1917107,-2.2958918,-3.260775,-0.21842407,-0.06601083,-0.10030356,28.5625,29.6875,28.9375,33.0,35.375,36.4375
0.118052274,-0.84586185,-0.3157622,-0.12786275,0.018577026,0.03861373,-0.18528537,-0.38413984,-0.34783477,0.060010463,-3.0782914,0.6253839,-1.7191216e-05,-0.053709373,0.0142581025,0.00017734586,0.0047359434,0.0012484519,-0.0039029925,0.47383782,-1.4218572,1.9527701,-2.0999653,-1.5709275,2.4491398,-0.07131771,0.06971562,-0.083493166,0.0148240365,-0.00494767,-0.067356385,-0.28730422,0.0,-9.404425,0.7866488,47.67614,-1.039645,-2.1433818,-3.2833428,-0.22987026,-0.084042594,-0.0961121,28.5625,29.6875,28.9375,33.0,35.375,36.4375
0.120052226,-0.3972413,0.08703225,0.047046095,0.0066976557,0.047674313,-0.18759234,-0.38425288,-0.34781656,0.060003716,-3.0783005,0.6253862,-2.9471288e-05,-0.054041374,0.01409852,0.00024732496,0.005075843,0.0015158033,-0.004527309,0.4736942,-1.4216889,1.9525903,-2.099954,-1.5709156,2.4489965,-0.07104094,0.07047061,-0.08458596,0.015080947,-0.005373791,-0.06645397,-0.34476504,-0.05746084,-9.308656,0.82022345,47.703903,-1.2617977,-2.1756437,-3.342853,-0.2200182,-0.08960204,-0.11910699,28.5625,29.6875,28.9375,33.0,35.375,36.4375
0.122052155,-1.4951936,-0.10314086,-0.30134207,0.010019052,0.029266074,-0.18464957,-0.3843451,-0.34778708,0.060000934,-3.0782704,0.62536365,-3.596119e-05,-0.055354003,0.015371694,0.00026503368,0.0060989996,0.0017217101,-0.01116294,0.47357318,-1.4215566,1.9524344,-2.0999057,-1.5709399,2.4488654,-0.07383248,0.071084894,-0.085461855,0.015628649,-0.006379503,-0.062607564,-0.30645782,0.0,-9.270349,0.8157518,47.71823,-1.14166,-2.1198132,-3.393508,-0.20538107,-0.07115361,-0.16928087,28.5625,29.6875,28.9375,33.0,35.375,36.4375
0.12405209,-1.4884472,-0.081435144,-0.2618649,0.016968928,0.02666321,-0.1815041,-0.38450098,-0.34775862,0.060026657,-3.078279,0.6255402,4.984083e-05,-0.056889787,0.016585322,0.00020518451,0.0073554995,0.0020446563,-0.01448286,0.4733803,-1.421412,1.9522074,-2.0998933,-1.5709404,2.4487817,-0.076541916,0.072323866,-0.08685123,0.01606806,-0.0076427767,-0.0619946,-0.28730422,-0.019153614,-9.289502,0.7530795,47.70211,-0.9916831,-2.0955229,-3.4704952,-0.1940821,-0.06481476,-0.17647001,28.5625,29.6875,28.9375,33.0,35.375,36.4375
0.12605247,-1.2074213,-0.016413812,-0.28212315,0.008313294,0.03724819,-0.18859354,-0.38455766,-0.34772262,0.06000205,-3.0782602,0.62540144,-1.1031083e-05,-0.057317186,0.016477402,6.0068352e-05,0.0077622905,0.0020955256,-0.014921205,0.47327226,-1.4213034,1.952134,-2.0998695,-1.5709523,2.4485896,-0.07647656,0.07355576,-0.08793464,0.016059771,-0.00803408,-0.061489046,-0.2681506,-0.05746084,-9.404425,0.8224646,47.711964,-1.1524312,-2.0696764,-3.3355188,-0.18441083,-0.050838206,-0.2237316,28.5625,29.6875,28.9375,33.0,35.375,36.4375
0.12805231,-1.0036654,-0.061883528,-0.25563467,0.0012455503,0.045823596,-0.18602315,-0.38470092,-0.34769654,0.060032383,-3.0782604,0.6254611,4.3843185e-05,-0.05813331,0.018439338,-0.00036688038,0.010201683,0.0018720693,-0.017842546,0.4731033,-1.4211593,1.9518837,-2.099798,-1.5709652,2.448458,-0.07933724,0.07367124,-0.08720793,0.016533455,-0.010099199,-0.061425567,-0.3256114,0.05746084,-9.385271,0.7933669,47.687782,-0.98716354,-2.0121064,-3.5661361,-0.1877339,-0.04691033,-0.22602093,28.5625,29.6875,28.9375,33.0,35.375,36.4375
0.13005175,-1.1588771,-0.1427714,-0.33071727,0.006003554,0.04579708,-0.18651693,-0.3848193,-0.34764922,0.060007766,-3.0781739,0.62559754,2.1124953e-05,-0.061062258,0.018378345,0.0011359897,0.009446923,0.005356044,-0.019562818,0.47293457,-1.4209666,1.9517139,-2.0997736,-1.5710014,2.4483855,-0.081279814,0.07494036,-0.092159614,0.016770069,-0.011027839,-0.061643176,-0.34476504,0.11492168,-9.404425,0.8291774,47.67614,-0.9908879,-2.0884573,-3.3679605,-0.18013531,-0.020857047,-0.25376108,28.5625,29.6875,28.9375,33.0,35.375,36.4375
0.13205296,-0.6392723,-0.026622009,-0.38567355,0.0026641057,0.054892853,-0.1846987,-0.38494074,-0.3476082,0.060026947,-3.0781655,0.6256154,7.110015e-05,-0.061192073,0.018689804,0.00032097253,0.009565896,0.0031229989,-0.020796262,0.47276628,-1.4208579,1.9515346,-2.099725,-1.5710253,2.4482296,-0.082516216,0.07676691,-0.0925272,0.017346788,-0.010114969,-0.061647624,-0.34476504,0.095768064,-9.385271,0.8314132,47.711964,-0.9815686,-1.9320407,-3.4961948,-0.17927493,-0.02116337,-0.29330584,28.5625,29.6875,28.9375,33.0,35.375,36.4375
0.13405223,-1.2744615,-0.18969989,-0.30876467,-0.0011125841,0.040738918,-0.18241608,-0.38508412,-0.3475871,0.06005393,-3.078199,0.6256802,0.0001583578,-0.06283632,0.018588921,0.0012863525,0.00779035,0.0044885348,-0.021735547,0.47259763,-1.4207257,1.9513191,-2.0997136,-1.5710248,2.4480972,-0.084426254,0.07710498,-0.0951973,0.017649207,-0.009156718,-0.06261941,-0.4405331,0.1340753,-9.404425,0.784413,47.678825,-0.9643421,-2.077619,-3.4062524,-0.17558978,-0.028587135,-0.29182267,28.5625,29.6875,28.9375,33.0,35.375,36.4375
0.13605174,-1.8635043,-1.0148546,-0.44219866,0.007741924,0.03098727,-0.172546,-0.38518336,-0.347552,0.06003112,-3.0781543,0.6257679,4.516616e-05,-0.06387186,0.01857682,0.0019712567,0.0060233413,0.0054094037,-0.022634562,0.47242898,-1.4205455,1.9511513,-2.0996535,-1.5710005,2.447989,-0.08606619,0.076838374,-0.09644438,0.01753437,-0.008009921,-0.0633611,-0.4405331,0.17238252,-9.346964,0.8090337,47.719128,-0.9426475,-1.8294834,-3.3986611,-0.1538462,-0.030161705,-0.3456549,28.5625,29.6875,28.9375,33.0,35.375,36.4375
0.13805175,-1.3573678,-0.35252464,-0.5409676,-0.007699776,0.043822423,-0.18144456,-0.38534632,-0.34750307,0.060049765,-3.0781393,0.62580353,0.00014907759,-0.06464898,0.019058635,0.0010352356,0.0063699293,0.0029087781,-0.024520282,0.47222438,-1.4203883,1.9509233,-2.0996296,-1.5710481,2.4478087,-0.088132076,0.07986962,-0.09799116,0.018426806,-0.007179031,-0.06354201,-0.36391866,0.19153613,-9.5385,0.85155696,47.69763,-0.9020011,-1.9908893,-3.3688855,-0.13955659,-0.06668927,-0.36988112,28.5625,29.6875,28.9375,33.0,35.375,36.4375
0.14005166,-1.0747714,-1.0673137,-0.5964832,-0.012446609,0.05290019,-0.18428622,-0.38546932,-0.3474667,0.060057294,-3.0781078,0.6259136,0.00016185491,-0.06617026,0.019300496,0.0024428712,0.00542943,0.005288875,-0.025800284,0.47205573,-1.4202447,1.9507307,-2.0995815,-1.5710605,2.447713,-0.08975715,0.07884159,-0.100194305,0.019109318,-0.0074269203,-0.0638859,-0.4213795,0.19153613,-9.5385,0.7597976,47.677036,-0.8338264,-1.9086747,-3.430654,-0.1484191,-0.049239725,-0.3971563,28.5625,29.6875,28.9375,33.0,35.375,36.4375
0.14205271,-1.6830288,-0.9089007,-0.54832363,-0.019515961,0.040839255,-0.1785791,-0.3855967,-0.34742612,0.06004453,-3.0780532,0.6260176,0.000126071,-0.066947944,0.019898847,0.0014050162,0.0066902246,0.0037669048,-0.026716355,0.4718753,-1.4200513,1.9505275,-2.0995333,-1.5710725,2.4476044,-0.09121594,0.08179651,-0.10122271,0.019110838,-0.0078625195,-0.06442663,-0.4405331,0.21068975,-9.500193,0.83589023,47.684196,-0.8431664,-1.762925,-3.3997934,-0.14421842,-0.059863195,-0.45263606,28.5625,29.6875,28.9375,33.0,35.375,36.4375
0.14405173,-0.69747895,-0.8963327,-0.6259421,-0.008366243,0.07208731,-0.18022826,-0.38574934,-0.34739143,0.060065426,-3.0780618,0.6261153,0.00020993006,-0.068599924,0.020817569,0.0010213158,0.0076928013,0.003098801,-0.027599711,0.47168246,-1.4199065,1.9503111,-2.099521,-1.5710844,2.4474716,-0.09393254,0.08442165,-0.10352993,0.01984269,-0.008451838,-0.06625796,-0.47884035,0.19153613,-9.5385,0.8112748,47.694054,-0.80578434,-1.8421158,-3.4035873,-0.13553074,-0.030801348,-0.45680943,28.5625,29.6875,28.9375,33.0,35.375,36.4375
0.14605244,-1.8945109,-0.66470313,-0.64697963,-0.011517524,0.047310542,-0.17649502,-0.3858436,-0.34734756,0.060037978,-3.0779903,0.62607914,8.8215544e-05,-0.06915854,0.02016649,0.0013440117,0.007635576,0.003930833,-0.023661347,0.47152677,-1.4197139,1.9501313,-2.099425,-1.5710968,2.4473026,-0.09304392,0.08556525,-0.105636194,0.020035787,-0.008791185,-0.06930504,-0.51714754,0.15322891,-9.576807,0.7597976,47.705692,-0.68235934,-1.7824413,-3.2744138,-0.14624783,-0.034891933,-0.48296294,28.5625,29.6875,28.9375,33.0,35.375,36.4375
0.14805236,-1.4969472,-0.84721464,-0.5692231,-0.004127568,0.062123213,-0.1839127,-0.38601574,-0.34730035,0.06004926,-3.0779903,0.626268,0.00016115596,-0.070317626,0.020133128,0.0015047995,0.007066779,0.0047157505,-0.01844976,0.47128648,-1.4195453,1.9499153,-2.0994375,-1.5710968,2.4471803,-0.094091415,0.086803235,-0.10731675,0.01951515,-0.008643034,-0.07556381,-0.47884035,0.05746084,-9.481039,0.8627467,47.695843,-0.8874542,-1.8544278,-3.392941,-0.13454606,-0.03516166,-0.44410416,28.5625,29.6875,28.9375,33.0,35.375,36.4375
0.1500522,-1.4791658,-0.38655174,-0.48947188,-0.0039355624,0.05360232,-0.1849581,-0.3861369,-0.34727183,0.060067914,-3.0780141,0.6262731,0.00017724602,-0.0718749,0.020357087,0.0016062495,0.0066076824,0.005182759,-0.017753994,0.47111773,-1.4194247,1.9497236,-2.0993898,-1.5710844,2.4470117,-0.095997885,0.088574834,-0.10955027,0.019350164,-0.008449788,-0.07816519,-0.40222588,0.15322891,-9.595961,0.800085,47.65643,-0.74956524,-1.7731069,-3.2907386,-0.11030188,-0.033617347,-0.42384696,28.5625,29.6875,28.9375,33.0,35.375,36.4375
0.15205225,-1.0636966,-0.5080867,-0.46676704,-0.00035271782,0.052419126,-0.18043083,-0.38632438,-0.34723815,0.060090486,-3.0780098,0.626285,0.00032376513,-0.07314339,0.01842583,0.0029489272,0.004586404,0.007348262,-0.008853522,0.47092637,-1.4192199,1.9494346,-2.0993774,-1.5711445,2.4468286,-0.0942089,0.09012366,-0.11453951,0.019930745,-0.00763565,-0.08527607,-0.34476504,0.15322891,-9.481039,0.8605109,47.703903,-0.9538965,-1.8591628,-3.236947,-0.09120496,-0.053509843,-0.398399,28.5625,29.6875,28.9375,33.0,35.375,36.4375
0.15405251,-0.87880915,-0.48141515,-0.27253744,-0.0033175433,0.04837802,-0.184414,-0.38646042,-0.3471971,0.060093146,-3.0779958,0.626357,0.00029246253,-0.072877064,0.01920325,0.00052460935,0.006834054,0.0024289351,-0.0045790393,0.47072196,-1.4190502,1.9492205,-2.0993178,-1.5711321,2.446671,-0.09545841,0.094726965,-0.11445685,0.020644339,-0.0074073137,-0.09079979,-0.21068975,0.13407528,-9.481039,0.81351066,47.71465,-0.946104,-1.9860756,-3.1788657,-0.07936256,-0.04619059,-0.31772017,28.5625,29.6875,28.9375,33.0,35.375,36.4375
0.15605251,-1.2542038,-0.81676537,-0.5936949,0.012900524,0.02398356,-0.17214319,-0.3866115,-0.3471465,0.06007993,-3.077924,0.62631994,0.00032066272,-0.074657016,0.018926626,0.002752934,0.0062743337,0.0062307008,-0.00018752477,0.47054186,-1.4188222,1.9489783,-2.0992692,-1.5712045,2.4464772,-0.09574888,0.09342237,-0.11844198,0.0222856,-0.008641098,-0.09547806,-0.21068975,0.21068975,-9.500193,0.80456203,47.686886,-1.0316454,-1.9264307,-3.082981,-0.08450295,-0.05417776,-0.27491724,28.5625,29.6875,28.9375,33.0,35.375,36.4375
0.15805323,-0.90458924,-0.8590506,-0.59072125,0.008251856,0.023776257,-0.18227382,-0.38675418,-0.34710887,0.060084943,-3.0779352,0.6263386,0.00031860484,-0.07403751,0.019312976,0.00028968227,0.008889173,0.0012987029,0.0042315624,0.47033796,-1.4186525,1.9487642,-2.099233,-1.5711926,2.4462836,-0.09577558,0.09823655,-0.1185505,0.023158645,-0.008734662,-0.09992314,-0.15322891,0.30645782,-9.404425,0.8179876,47.703903,-1.0554745,-1.9340935,-3.0894587,-0.08433542,-0.023067072,-0.212039,28.5625,29.6875,28.9375,33.0,35.375,36.4375
0.16005409,-0.41872722,-0.9454525,-0.47744712,-0.0027139208,0.034070093,-0.18730684,-0.38692406,-0.34708077,0.060110968,-3.0779555,0.62636167,0.00045630586,-0.075444385,0.019626796,0.0014708515,0.0075479317,0.0032140238,0.0046798796,0.47015718,-1.4184848,1.9485124,-2.099233,-1.5712284,2.4461148,-0.097778045,0.097235955,-0.12018631,0.023472153,-0.0084018465,-0.102374636,-0.17238252,0.28730422,-9.3661175,0.78888994,47.691364,-1.0622982,-2.0657701,-3.0991993,-0.0647455,-0.039911196,-0.15483817,28.5625,29.6875,28.9375,33.0,35.375,36.4375
0.16205469,-0.32983413,-0.78770614,-0.31840438,-0.020842403,0.028805317,-0.18850838,-0.38703832,-0.34703436,0.06009249,-3.077944,0.62630165,0.00029023533,-0.076108985,0.020199269,0.00051942765,0.00874517,0.0017154606,0.004221507,0.46994084,-1.4182914,1.9483083,-2.0991251,-1.5711812,2.4458625,-0.09910222,0.0998998,-0.121122055,0.023626372,-0.008802632,-0.103238136,-0.05746084,0.34476504,-9.32781,0.8179876,47.711063,-1.1036016,-2.0021276,-3.0704074,-0.060874254,-0.022272868,-0.11439515,28.5625,29.6875,28.9375,33.0,35.375,36.4375
0.16405499,-0.19122976,-1.2358394,-0.4183869,-0.025738632,0.024386033,-0.18917494,-0.38724315,-0.34700236,0.06014713,-3.0779467,0.62632185,0.00054414826,-0.07753871,0.020450337,0.0011168283,0.008776176,0.002619736,0.0012896684,0.46976045,-1.418123,1.947985,-2.0991008,-1.571277,2.4456947,-0.10051653,0.10081504,-0.12375893,0.024546897,-0.009229985,-0.10171986,-0.05746084,0.38307226,-9.32781,0.800085,47.70838,-1.071448,-2.0069454,-3.010252,-0.056739856,-0.014781484,-0.12213674,28.5625,29.6875,28.9375,33.0,35.375,36.4375
0.16605389,0.02227427,-1.4430163,-0.07379329,-0.031686943,0.0180668,-0.18521439,-0.3873882,-0.34695208,0.06011677,-3.0779107,0.6263557,0.000455267,-0.07671809,0.02116245,-0.00026887175,0.0098361755,-0.00084954576,-0.0031933384,0.46953198,-1.4178823,1.94777,-2.0990646,-1.5712646,2.445492,-0.10139634,0.10212041,-0.12230116,0.02535653,-0.008606684,-0.098117806,-0.038307227,0.36391866,-9.289502,0.8605109,47.699425,-0.97574395,-2.0052443,-3.23734,-0.056157716,-0.009748067,-0.1332613,28.5625,29.6875,28.9375,33.0,35.375,36.4375
0.1680529,-0.33352834,-1.7635326,-0.16517134,-0.028348617,0.0017593435,-0.17664336,-0.38755873,-0.3469134,0.06015436,-3.0779073,0.6262991,0.00054589007,-0.0781642,0.020620564,0.0010015925,0.008568562,0.0010337095,-0.0065683,0.4693399,-1.417714,1.9474691,-2.0989683,-1.5713123,2.4452653,-0.101877816,0.10241695,-0.12576318,0.026263805,-0.008330437,-0.09522354,-0.019153614,0.38307226,-9.32781,0.8672237,47.687782,-1.104598,-1.9691399,-3.0067685,-0.055377454,-0.026908075,-0.16128376,28.5625,29.6875,28.9375,33.0,35.375,36.4375
0.17005299,-0.4113044,-1.2607383,-0.21181828,-0.024730522,-0.0038692956,-0.17563377,-0.38769814,-0.34689307,0.06011666,-3.0779169,0.6263235,0.00045209145,-0.07884468,0.021746095,-0.00058715354,0.009845093,-0.0015373761,-0.0149741275,0.46914697,-1.4174488,1.9472536,-2.0989802,-1.5712646,2.4450865,-0.104459554,0.105584696,-0.12572338,0.025933417,-0.00831062,-0.089398675,-0.019153614,0.3256114,-9.289503,0.8493211,47.690468,-0.9081903,-1.9174595,-3.188635,-0.040707737,-0.01412365,-0.21285447,28.5625,29.6875,28.9375,33.0,35.375,36.4375
0.17205206,-0.4108459,-0.9442419,-0.17731111,-0.006142067,-0.0038713843,-0.17524315,-0.3878847,-0.34686455,0.060161307,-3.0779564,0.62637085,0.0006063822,-0.07966548,0.021123063,-1.9598068e-05,0.008873062,0.0003906218,-0.01569009,0.46894327,-1.4172925,1.946967,-2.0989568,-1.5712885,2.4449074,-0.10404589,0.10595979,-0.12722978,0.02490259,-0.008312084,-0.08826899,0.05746084,0.38307226,-9.174581,0.8112748,47.70032,-1.2221347,-1.980418,-3.222793,-0.019432206,-0.006522159,-0.2720968,28.5625,29.6875,28.9375,33.0,35.375,36.4375
0.17405266,-0.3704281,-0.7761064,0.14121523,0.0074265287,0.00038774902,-0.17991534,-0.388018,-0.34679937,0.060132183,-3.0778527,0.6263888,0.0005330606,-0.08035853,0.021881657,-0.0008221346,0.009035938,-0.0013164262,-0.016690603,0.4687384,-1.4170635,1.9467515,-2.098873,-1.5713366,2.4447272,-0.10637476,0.10784712,-0.12760486,0.02497776,-0.007696379,-0.08959711,0.05746084,0.2681506,-9.078813,0.83365434,47.71823,-1.0883083,-2.0119748,-3.2881503,0.0007744441,-0.007618618,-0.26128793,28.5625,29.6875,28.9375,33.0,35.375,36.4375
0.17605244,0.015813231,-0.20151596,0.35166126,0.011065925,0.0026075006,-0.18669422,-0.38818878,-0.34677362,0.06014747,-3.0778685,0.62641114,0.0006011339,-0.08089596,0.022007085,-0.00093376933,0.009803604,-0.0018313401,-0.01807849,0.4685463,-1.416859,1.9464763,-2.0988486,-1.5713485,2.4445472,-0.10674456,0.1092885,-0.12925644,0.025993984,-0.008146773,-0.088577874,0.095768064,0.15322891,-8.944737,0.7866488,47.73077,-1.1501784,-1.8813236,-3.3010738,0.012817936,-0.024667993,-0.31110406,28.5625,29.6875,28.9375,33.0,35.375,36.4375
0.17805257,-0.3335723,0.3303248,0.24401726,0.011840448,-0.014359842,-0.18876636,-0.3883521,-0.34674782,0.060156588,-3.0778954,0.62649393,0.0005935009,-0.08157517,0.022499466,-0.00065206946,0.00969858,-0.0019739023,-0.018689781,0.46832988,-1.4166547,1.9462126,-2.0988123,-1.5713123,2.444379,-0.10828184,0.10937916,-0.13024795,0.026974957,-0.007987926,-0.089504026,0.019153614,0.17238252,-8.944737,0.7911258,47.677036,-1.0997117,-2.0623655,-3.2827907,0.009619017,-0.02657524,-0.31578934,28.5625,29.6875,28.9375,33.0,35.375,36.4375
0.1800526,0.06568253,0.22251382,0.1814552,0.02554113,-0.005243792,-0.18636279,-0.388536,-0.34668377,0.060154825,-3.0778315,0.62649995,0.0006225299,-0.08296632,0.0224095,-0.00034434648,0.008748148,-0.0010852254,-0.02051794,0.46808934,-1.4164141,1.9459242,-2.0987408,-1.5713724,2.4441507,-0.109606504,0.11070841,-0.13241167,0.0265791,-0.007549804,-0.08899975,-0.05746084,0.076614454,-8.848969,0.8605109,47.733456,-1.1522042,-1.7624426,-3.3302011,0.030898333,-0.019431207,-0.34381112,28.5625,29.6875,28.9375,33.0,35.375,36.4375
0.18205264,0.048100337,0.22986604,0.071642846,0.035399266,-0.0058257724,-0.18160746,-0.3887063,-0.3466343,0.060156904,-3.0778358,0.62661606,0.0005838874,-0.08334065,0.022755703,-9.0474816e-05,0.008344042,-0.0018148302,-0.020984031,0.46782497,-1.4162098,1.9456738,-2.0986927,-1.5713362,2.4439583,-0.11094624,0.1106756,-0.13328846,0.027955862,-0.006860402,-0.08987433,-0.019153614,-0.038307227,-9.040505,0.88960326,47.746887,-1.174185,-1.9400933,-3.292231,0.04168588,-0.045493808,-0.36894298,28.5625,29.6875,28.9375,33.0,35.375,36.4375
0.18405241,-0.057937454,0.47927785,0.27437714,0.029058926,0.0039838543,-0.19535087,-0.38885003,-0.34659073,0.06015079,-3.0777638,0.6266199,0.0005952657,-0.083251104,0.023190204,-0.0013565924,0.010143403,-0.00546043,-0.019548694,0.46765676,-1.4159925,1.9454216,-2.0986202,-1.5713958,2.4438019,-0.111619286,0.11386675,-0.13457768,0.030111048,-0.0068254955,-0.09198182,-0.1340753,-0.1340753,-9.174581,0.79560274,47.713753,-1.232552,-1.9071056,-3.294263,0.03030647,-0.05051955,-0.37589258,28.5625,29.6875,28.9375,33.0,35.375,36.4375
0.1860517,-1.4574665,0.06810711,-0.02182729,0.02694173,0.0049550193,-0.18808128,-0.38898548,-0.34655026,0.06013471,-3.0777626,0.6265796,0.0004852574,-0.08508425,0.023322504,-0.00042162827,0.0097569255,-0.0040961565,-0.017329896,0.46744016,-1.4157761,1.9451932,-2.0985477,-1.57136,2.4435604,-0.11327638,0.114835605,-0.1381159,0.0312884,-0.0071085053,-0.09585522,-0.28730422,-0.038307227,-9.136273,0.81351066,47.687782,-1.0840342,-1.8978413,-3.3062944,0.02844232,-0.035842802,-0.35048437,28.5625,29.6875,28.9375,33.0,35.375,36.4375
0.18805178,-1.3552563,0.05367014,-0.1968951,0.029388065,0.040414087,-0.18840356,-0.3891823,-0.3465101,0.060154427,-3.0777483,0.6267076,0.0005370237,-0.08492545,0.024824856,-0.00239893,0.011511446,-0.008081949,-0.013989451,0.4671997,-1.415547,1.9448713,-2.098488,-1.5713719,2.4434018,-0.11588457,0.11735484,-0.13659059,0.03158467,-0.0068755657,-0.10180492,-0.36391866,-0.05746084,-9.2703495,0.8403672,47.684196,-1.1871351,-1.961035,-3.4811068,0.03474049,-0.050316747,-0.31930602,28.5625,29.6875,28.9375,33.0,35.375,36.4375
0.19005182,-2.1442745,0.030461872,-0.31648085,0.020945711,0.039948765,-0.189032,-0.38932365,-0.34645724,0.06012485,-3.0776887,0.6266738,0.0003750035,-0.0860374,0.024641113,-0.0017285643,0.0105203455,-0.007887834,-0.010087991,0.46697104,-1.4152824,1.9446071,-2.0983675,-1.5713595,2.4431598,-0.1170134,0.11817152,-0.13939944,0.032950558,-0.00609745,-0.10683456,-0.30645782,-0.1340753,-9.346964,0.8179876,47.681515,-1.021668,-1.8919766,-3.2645695,0.026261091,-0.060745288,-0.24984464,28.5625,29.6875,28.9375,33.0,35.375,36.4375
0.1920519,-2.5317001,0.17250869,-0.39683267,0.0017004826,0.04849645,-0.18752213,-0.38951102,-0.34639812,0.060133956,-3.0776825,0.62672865,0.0004147421,-0.08763446,0.025700375,-0.0010048904,0.011508049,-0.007908531,-0.0061424687,0.46670607,-1.4150779,1.944343,-2.0983307,-1.5713719,2.44293,-0.11969947,0.11882603,-0.14248203,0.03583694,-0.006972558,-0.11346375,-0.5746084,-0.038307227,-9.289502,0.8918391,47.701214,-1.0945166,-1.8772814,-3.321752,-0.011342991,-0.07159853,-0.17038469,28.5625,29.6875,28.9375,33.0,35.375,36.4375
0.19405234,-2.1014447,0.118635096,-0.6153399,0.008365723,0.06515349,-0.18963404,-0.38968298,-0.34635457,0.060128186,-3.0776324,0.62662077,0.00042506913,-0.08863613,0.026779095,-0.0020314048,0.012932806,-0.010429635,-0.0048589935,0.46651328,-1.4148123,1.9440316,-2.0982463,-1.571432,2.4426765,-0.12236287,0.1219429,-0.14405751,0.037177365,-0.0071193296,-0.11740915,-0.6512228,0.095768064,-9.404425,0.75755644,47.745995,-0.968246,-2.1006854,-3.29065,-0.04247246,-0.05308683,-0.12810275,28.5625,29.6875,28.9375,33.0,35.375,36.4375
0.19605169,-2.1129184,-0.82673395,-0.9237609,0.026169742,0.062016316,-0.18261111,-0.38984358,-0.3462907,0.060118232,-3.0775793,0.6267057,0.00032465666,-0.08891334,0.02786202,-0.0018308042,0.014031027,-0.01071067,-0.0049992767,0.46624878,-1.414585,1.9437684,-2.0981386,-1.5714206,2.442472,-0.12391671,0.121168725,-0.14397684,0.038617194,-0.007983469,-0.11882108,-0.7469909,0.11492168,-9.595961,0.82694155,47.717335,-0.840665,-1.7657692,-3.2955875,-0.04492016,-0.07031162,-0.056242716,28.5625,29.6875,28.9375,33.0,35.375,36.4375
0.19805266,-2.1507668,-1.3513635,-1.0754217,0.00026648014,0.07350667,-0.17575759,-0.3900096,-0.34623957,0.060119737,-3.0775445,0.6266228,0.00031335105,-0.090119265,0.027514728,-0.0016477603,0.013863088,-0.01093623,-0.0071392218,0.46603242,-1.4143555,1.943479,-2.0980418,-1.5714563,2.4422085,-0.12448566,0.123553984,-0.14743608,0.039811783,-0.0077439738,-0.11724846,-0.9002198,0.15322891,-9.615114,0.8493211,47.70211,-0.87187123,-2.0454104,-3.2500515,-0.07918643,-0.059252623,-0.07511074,28.5625,29.6875,28.9375,33.0,35.375,36.4375
0.20005183,-2.824717,-1.268126,-0.7679472,-0.021990674,0.07741626,-0.17636308,-0.39017567,-0.3461661,0.060089838,-3.0774596,0.6266059,0.00019986501,-0.089625746,0.027415054,-0.0021352605,0.015140371,-0.012402088,-0.009409184,0.46576893,-1.414079,1.9432043,-2.0979335,-1.5714802,2.4419456,-0.12349408,0.124721,-0.14798455,0.04107647,-0.00824061,-0.11398493,-0.9768343,0.22984336,-9.672575,0.8090337,47.694946,-0.9749503,-1.8796387,-3.3872907,-0.12089078,-0.077788725,-0.07154654,28.5625,29.6875,28.9375,33.0,35.375,36.4375
0.20205176,-2.603993,-1.3287796,-0.91305584,-0.020649659,0.10205422,-0.17461456,-0.39035836,-0.3461214,0.0600854,-3.0774517,0.6267811,0.00016337955,-0.091507345,0.028436763,-0.002165775,0.015612256,-0.0125030605,-0.01586533,0.46550357,-1.413838,1.9429291,-2.0978982,-1.5714449,2.4417906,-0.12667722,0.12669684,-0.15038371,0.041807882,-0.008623665,-0.11070986,-1.0534487,0.15322891,-9.710882,0.784413,47.696735,-0.94627726,-1.8811121,-3.3736405,-0.13689485,-0.067869514,-0.10735232,28.5625,29.6875,28.9375,33.0,35.375,36.4375
0.20405175,-2.3598375,-1.2179316,-0.9417701,-0.02281143,0.11560618,-0.18713875,-0.39056703,-0.346079,0.06010484,-3.077427,0.626796,0.00020958399,-0.09142486,0.027010329,-0.0021078128,0.015688438,-0.012223626,-0.017233385,0.46526483,-1.4135733,1.9425582,-2.097802,-1.5714806,2.4415646,-0.12388749,0.1285736,-0.1527751,0.04210535,-0.008822753,-0.10655044,-0.80445176,0.17238252,-9.825804,0.8806493,47.716442,-1.1298909,-1.9827516,-3.3425984,-0.16377294,-0.069836,-0.17631541,28.5625,29.6875,28.9375,33.0,35.375,36.4375
0.20605221,-2.077103,-1.0748347,-0.8327218,-0.02175983,0.10645147,-0.18265644,-0.39077035,-0.34602132,0.060118902,-3.077379,0.6268847,0.00027101708,-0.092948705,0.02763644,-0.0013645269,0.014862136,-0.011283307,-0.022971012,0.46501172,-1.4133329,1.942233,-2.09773,-1.5715283,2.441373,-0.12649156,0.12854743,-0.15461871,0.04275862,-0.008509973,-0.10341691,-0.6703765,0.1340753,-9.749189,0.83589023,47.67345,-1.0277938,-1.8793312,-3.2211354,-0.18520103,-0.071436755,-0.20574263,28.5625,29.6875,28.9375,33.0,35.375,36.4375
0.20805225,-1.6737674,-0.7157779,-0.8469694,-0.012418837,0.071684845,-0.17272566,-0.3909343,-0.34594777,0.060094744,-3.077326,0.6269141,0.00017898282,-0.09430866,0.028062515,-0.0014418748,0.015281903,-0.010627292,-0.02754062,0.46473542,-1.4130923,1.9419945,-2.097658,-1.5715288,2.441122,-0.12796217,0.1302478,-0.15634488,0.042389117,-0.009194404,-0.10031479,-0.6512229,0.17238252,-9.710882,0.83589023,47.68599,-1.0869689,-1.8675615,-3.287612,-0.21167117,-0.06721547,-0.28700143,28.5625,29.6875,28.9375,33.0,35.375,36.4375
0.21005192,-1.4888132,-0.5103219,-0.8504084,-0.002592865,0.03743037,-0.17829022,-0.3911351,-0.3459089,0.06009108,-3.0772862,0.62705964,0.0001875449,-0.094997905,0.028462812,-0.0018895254,0.016270258,-0.010980961,-0.02780633,0.46449503,-1.4128034,1.9416593,-2.0976098,-1.5715407,2.4409778,-0.12874877,0.13200164,-0.15738942,0.042437695,-0.00992617,-0.100833476,-0.53630114,0.1340753,-9.576807,0.8873621,47.698532,-1.1002343,-1.766534,-3.2844687,-0.21312824,-0.080122545,-0.3129604,28.5625,29.6875,28.9375,33.0,35.375,36.4375
0.21205176,-0.6218059,-0.4900559,-0.9109735,0.015680065,0.02848045,-0.17860247,-0.39135864,-0.34585217,0.06009983,-3.0772429,0.6271305,0.0002210456,-0.0958248,0.029094744,-0.002016315,0.015999032,-0.011226718,-0.03373933,0.46421853,-1.4125148,1.9412879,-2.0975263,-1.571577,2.4407513,-0.13075247,0.13265972,-0.15787661,0.042361327,-0.009577419,-0.096904606,-0.34476504,0.11492168,-9.615114,0.83365434,47.733456,-1.0522949,-1.9598356,-3.3692715,-0.23108432,-0.06916412,-0.38172543,28.5625,29.6875,28.9375,33.0,35.375,36.4375
0.21405198,0.12536389,0.36842215,-0.8301663,0.011117884,0.018209156,-0.19178486,-0.39155024,-0.34582588,0.060117662,-3.077258,0.6272665,0.00021252364,-0.097596295,0.028976653,-0.002681465,0.017389264,-0.011729732,-0.032119587,0.46397835,-1.4122726,1.9409517,-2.0974543,-1.5715412,2.4405942,-0.13139589,0.13752997,-0.1620978,0.042787217,-0.0106069725,-0.09916324,-0.24899697,0.05746084,-9.576807,0.8560339,47.7254,-1.1126223,-2.082917,-3.314724,-0.23235047,-0.0670813,-0.39896178,28.5625,29.6875,28.9375,33.0,35.375,36.4375
0.21605237,-0.24040888,0.19361717,-0.5431456,0.0071575395,0.00872934,-0.19610193,-0.39178693,-0.34573737,0.06011882,-3.0771906,0.62740666,0.0002567062,-0.09758324,0.029902067,-0.0032055138,0.017779937,-0.012756297,-0.03437332,0.46364197,-1.4119966,1.9406174,-2.0973947,-1.5715894,2.440354,-0.13300565,0.13747156,-0.16084503,0.042677812,-0.010500788,-0.09852013,-0.076614454,0.019153614,-9.404425,0.800085,47.71554,-1.0922714,-1.9353845,-3.4075418,-0.25322005,-0.054037914,-0.47823918,28.5625,29.6875,28.9375,33.0,35.375,36.4375
0.2180526,-0.45313632,0.042678215,-0.5020303,0.013292228,-0.0061941845,-0.18456651,-0.39196134,-0.34567198,0.060105603,-3.0771067,0.6274065,0.00021212036,-0.09841297,0.029694207,-0.0035593743,0.017062757,-0.01370419,-0.031340025,0.46340176,-1.4117315,1.9403175,-2.097287,-1.571637,2.4401248,-0.1339891,0.13978279,-0.16276373,0.042797655,-0.009453726,-0.10253712,0.076614454,0.05746084,-9.442732,0.87617236,47.684196,-1.2251754,-2.1194928,-3.3582067,-0.26299554,-0.06420574,-0.48741814,28.5625,29.6875,28.9375,33.0,35.375,36.4375
0.2200525,0.37645355,-0.08057036,-0.41972354,0.015552428,0.0063806614,-0.18828505,-0.39215165,-0.34560746,0.060080536,-3.0770347,0.6275597,0.00016070754,-0.09812499,0.02916381,-0.0037201873,0.017612064,-0.014016472,-0.02329561,0.46312606,-1.4114429,1.9400309,-2.0972388,-1.571649,2.439954,-0.13249235,0.14070621,-0.16359553,0.043221794,-0.0098215025,-0.10908314,0.21068975,0.019153614,-9.423578,0.88960326,47.70659,-1.1209754,-2.0813904,-3.4273174,-0.2853432,-0.050132647,-0.4608215,28.5625,29.6875,28.9375,33.0,35.375,36.4375
0.22205238,-0.11943484,-0.5199658,-0.18118083,0.004840008,-0.006144133,-0.18594992,-0.3923702,-0.34555808,0.060098596,-3.0770137,0.62757355,0.00018374597,-0.10096277,0.030980354,-0.0034166223,0.017090792,-0.013266255,-0.020877574,0.46285987,-1.4111661,1.9396461,-2.0971315,-1.5716728,2.4396994,-0.13822046,0.14191018,-0.16571222,0.043216504,-0.009705441,-0.117228426,0.30645782,0.11492168,-9.270349,0.92093146,47.707485,-1.00582,-2.1016574,-3.339937,-0.28751296,-0.050086595,-0.40090024,28.5625,29.6875,28.9375,33.0,35.375,36.4375
0.22405224,-0.23104899,-0.55489826,-0.3746379,-0.00020377873,-0.023067197,-0.180569,-0.39259395,-0.34547675,0.060092513,-3.0769403,0.62766874,0.00019825358,-0.10262255,0.029658156,-0.0018839377,0.014989695,-0.009827407,-0.01175713,0.46254835,-1.4108776,1.9393109,-2.0970595,-1.571721,2.439457,-0.13748163,0.14239722,-0.16968657,0.04266993,-0.009384338,-0.12560853,0.22984336,0.17238252,-9.193734,0.92093146,47.71465,-1.1469121,-2.0525155,-3.398444,-0.30172265,-0.08745842,-0.3402211,28.5625,29.6875,28.9375,33.0,35.375,36.4375
0.22605197,0.37742516,-0.7956928,-0.4565102,0.0019634925,-0.026742928,-0.18434641,-0.39280838,-0.34545007,0.06012634,-3.0770028,0.6276394,0.00024789642,-0.10406718,0.030275077,-0.0021660526,0.015549787,-0.008954381,-0.007067125,0.462296,-1.4106367,1.9389395,-2.0969884,-1.5716976,2.4391785,-0.13919908,0.14418651,-0.17088313,0.0415428,-0.010280741,-0.13201368,0.17238252,0.19153613,-9.155427,0.900793,47.711063,-1.0337741,-2.1969564,-3.330668,-0.2984387,-0.050413556,-0.226295,28.5625,29.6875,28.9375,33.0,35.375,36.4375
0.2280518,-0.38117954,-1.1169946,-0.45899498,-0.008501491,-0.038304526,-0.17975368,-0.39295068,-0.34537464,0.060078606,-3.076883,0.62755644,9.931076e-05,-0.10597536,0.030721871,-0.0025521968,0.015719295,-0.008144408,-0.005347498,0.4620671,-1.4103476,1.9386877,-2.0968688,-1.5717453,2.4389133,-0.14127547,0.14699918,-0.17297253,0.040159296,-0.01082842,-0.13580528,0.11492168,0.30645782,-9.155427,0.8851263,47.694054,-1.0445598,-2.0365434,-3.302644,-0.29207498,-0.055671398,-0.20091891,28.5625,29.6875,28.9375,33.0,35.375,36.4375
0.23005165,-0.7325573,-1.6111711,-0.50204027,-0.0097750835,-0.029450571,-0.17630343,-0.39317286,-0.34532294,0.060095314,-3.0768833,0.62763023,0.00012738025,-0.10715693,0.030333785,-0.0014954996,0.013675351,-0.0058404766,-0.0061349333,0.4617789,-1.4100838,1.9383286,-2.0967972,-1.5717453,2.4386714,-0.14206102,0.14641449,-0.17456394,0.03935628,-0.010031276,-0.13580473,0.0,0.36391866,-9.174581,0.8314132,47.71286,-1.0412529,-1.9994344,-3.2646246,-0.29723018,-0.056095075,-0.14210808,28.5625,29.6875,28.9375,33.0,35.375,36.4375
0.2320526,-0.53149235,-2.086952,-0.6275605,-0.02323627,0.00642367,-0.17886126,-0.39338645,-0.34524482,0.060071204,-3.076785,0.6276149,7.7779034e-05,-0.10924019,0.031427607,-0.001499292,0.012669495,-0.0053758617,-0.010992877,0.46148998,-1.409747,1.9379705,-2.09669,-1.5718049,2.4383857,-0.14618735,0.14774501,-0.17595299,0.03853848,-0.009356733,-0.13507293,-0.13407528,0.36391866,-9.32781,0.8314132,47.721813,-0.9908763,-1.9635549,-3.3094482,-0.30017233,-0.060699128,-0.17091662,28.5625,29.6875,28.9375,33.0,35.375,36.4375
0.23405257,-1.6585356,-1.9644072,-0.53023815,-0.05764588,0.026632208,-0.17562528,-0.3936087,-0.34518838,0.060063034,-3.0767767,0.6276743,2.1977026e-05,-0.10917215,0.030270077,-0.0013729889,0.012423811,-0.004997564,-0.01677499,0.46117842,-1.4094341,1.9376115,-2.0966184,-1.571781,2.4381125,-0.14402515,0.14898267,-0.17773989,0.038649067,-0.009308418,-0.12712756,-0.36391866,0.49799395,-9.346964,0.8627467,47.733456,-1.000005,-1.9870641,-3.243743,-0.28937745,-0.06124915,-0.19491784,28.5625,29.6875,28.9375,33.0,35.375,36.4375
0.23605204,-2.0276508,-2.0425224,-0.3900438,-0.06257481,0.05427353,-0.17835969,-0.3938325,-0.34513733,0.0600881,-3.0767517,0.6277302,8.44671e-05,-0.110755116,0.03094974,-0.00066667737,0.011540004,-0.0042257956,-0.023382112,0.46091336,-1.4091699,1.9372271,-2.0965216,-1.5718168,2.4378858,-0.14682558,0.14910255,-0.17969675,0.039397765,-0.008859023,-0.1233214,-0.49799395,0.4213795,-9.461885,0.84484416,47.72808,-0.82219946,-1.8371272,-3.313939,-0.31487837,-0.10021494,-0.28302032,28.5625,29.6875,28.9375,33.0,35.375,36.4375
0.23805203,-2.047622,-1.9348646,-0.47701365,-0.055088297,0.08783886,-0.1811824,-0.3940483,-0.34508428,0.060084507,-3.076737,0.62782335,2.8647959e-05,-0.11251047,0.029906576,4.0366584e-05,0.009411833,-0.0014555615,-0.024426514,0.46061358,-1.4088688,1.9368685,-2.0964391,-1.5717925,2.4376462,-0.14686607,0.15066993,-0.18271667,0.037422094,-0.008200033,-0.12231691,-0.6512228,0.4405331,-9.5385,0.83813137,47.711063,-1.0246987,-1.9296777,-3.2994328,-0.30753407,-0.0889831,-0.30675036,28.5625,29.6875,28.9375,33.0,35.375,36.4375
0.24005184,-2.7800593,-1.6391938,-0.53983974,-0.041614875,0.095011175,-0.18130016,-0.3942967,-0.34504682,0.060105048,-3.076779,0.62789136,7.522539e-05,-0.11335746,0.0300791,-0.00097026874,0.009049441,-0.0013862071,-0.026151124,0.46031308,-1.4085675,1.9364628,-2.096392,-1.5717686,2.437383,-0.14800608,0.15300927,-0.18253498,0.034678206,-0.007906315,-0.12173281,-0.7469909,0.38307226,-9.442732,0.89631605,47.67345,-1.0602757,-2.0012732,-3.3968978,-0.27399093,-0.09334257,-0.32639703,28.5625,29.6875,28.9375,33.0,35.375,36.4375
0.2420521,-2.1168478,-1.0547376,-0.43369776,-0.01974421,0.11159783,-0.1831895,-0.39450973,-0.3449663,0.060070273,-3.0766804,0.6279665,2.9890649e-05,-0.11362734,0.02966673,-0.0016334971,0.008628591,-0.0021025054,-0.02700828,0.46001327,-1.4082313,1.93614,-2.0963328,-1.5718158,2.4371428,-0.14786753,0.15511125,-0.18329953,0.03378652,-0.007224453,-0.120737426,-0.63206923,0.19153613,-9.404425,0.8605109,47.709274,-1.0848354,-1.8307133,-3.3465867,-0.25682938,-0.11822744,-0.3681439,28.5625,29.6875,28.9375,33.0,35.375,36.4375
0.24405216,-1.0884291,0.39005747,-0.2066049,-0.0148395775,0.115145296,-0.19911745,-0.39473766,-0.3449208,0.060063988,-3.0766864,0.62798566,1.65564e-05,-0.115764916,0.029706193,-0.00050589844,0.0067391736,0.0013562135,-0.025391465,0.4597246,-1.4079067,1.935768,-2.096285,-1.5718039,2.4368656,-0.14981675,0.15498534,-0.18538137,0.032051183,-0.0070792837,-0.12430268,-0.7661445,0.095768064,-9.385271,0.84484416,47.707485,-1.0622654,-1.8771434,-3.346608,-0.22320572,-0.1198527,-0.37216905,28.5625,29.6875,28.9375,33.0,35.375,36.4375
0.24605256,-2.099886,0.47226173,-0.19747421,0.022300232,0.066252016,-0.18533882,-0.39497787,-0.34484595,0.060032967,-3.076598,0.6280822,1.2894742e-06,-0.117425606,0.0301939,-0.00043868975,0.0065050744,0.003000505,-0.025316766,0.45941192,-1.407534,1.935397,-2.096238,-1.5718521,2.4366248,-0.15169857,0.15623485,-0.1866883,0.030522602,-0.007613432,-0.12625664,-0.7278373,-0.05746084,-9.385271,0.8627467,47.705692,-0.9789939,-1.937061,-3.2469583,-0.17051956,-0.15077525,-0.37471658,28.5625,29.6875,28.9375,33.0,35.375,36.4375
0.24805243,-1.7168971,0.60107446,-0.35551453,0.050509647,0.05206232,-0.1729693,-0.3952265,-0.34480104,0.060054794,-3.0766294,0.6282014,4.9249866e-05,-0.11938408,0.030892951,4.792026e-05,0.0071167676,0.004334587,-0.019827614,0.45909914,-1.4072449,1.9350017,-2.0961897,-1.5718287,2.4363825,-0.15381634,0.15764233,-0.1895985,0.03109636,-0.008757452,-0.13385992,-0.61291564,-0.1340753,-9.461885,0.8605109,47.677036,-0.9454608,-1.8781143,-3.2163043,-0.1504884,-0.13227317,-0.2861972,28.5625,29.6875,28.9375,33.0,35.375,36.4375
0.2500523,-1.2920704,0.14744246,-0.2432121,0.061858054,0.06777823,-0.17643386,-0.39544785,-0.34475514,0.06004393,-3.0766258,0.62813765,1.3944785e-05,-0.11917084,0.030814128,-0.0006017732,0.008051343,0.0029597518,-0.012626238,0.45882377,-1.406908,1.9346203,-2.0961177,-1.5718287,2.436068,-0.1532457,0.1592704,-0.19018598,0.031693112,-0.008995905,-0.14048953,-0.6703765,-0.15322891,-9.423578,0.90527004,47.689575,-1.1439406,-1.9968135,-3.3233292,-0.11896137,-0.131974,-0.2587242,28.5625,29.6875,28.9375,33.0,35.375,36.4375
0.25205237,-0.6883339,0.87703395,-0.09736189,0.036621124,0.08651337,-0.1818486,-0.39569077,-0.34468594,0.060025804,-3.07656,0.62819684,-1.8502711e-06,-0.11946893,0.03054574,-0.0023776202,0.009597098,-0.0002069842,-0.0044542644,0.45851162,-1.4065458,1.9342259,-2.0960457,-1.571865,2.4358015,-0.15293498,0.16452189,-0.19236854,0.032130726,-0.0089974655,-0.1483488,-0.59376204,-0.21068975,-9.32781,0.8493211,47.716442,-1.1150224,-2.007719,-3.3990235,-0.09126681,-0.16429523,-0.13226092,28.5625,29.6875,28.9375,33.0,35.375,36.4375
0.25405225,-1.7339958,0.2970409,-0.3279514,0.056278475,0.06750843,-0.17146446,-0.3959443,-0.3446196,0.0600458,-3.076568,0.6282557,9.601552e-05,-0.12071067,0.030564172,-0.00056352076,0.009022438,0.002932817,-0.0024762342,0.4581876,-1.4062706,1.9338535,-2.09601,-1.5718888,2.4355135,-0.15339142,0.16275394,-0.19474325,0.0331972,-0.009868058,-0.1507812,-0.47884035,-0.3256114,-9.461885,0.9231726,47.71823,-1.1642034,-1.96967,-3.36761,-0.088358104,-0.14640465,-0.082854055,28.5625,29.6875,28.9375,33.0,35.375,36.4375
0.25605252,-1.9502637,0.06300916,-0.29118514,0.05567322,0.05600682,-0.16263169,-0.39620155,-0.34455442,0.06004435,-3.0765352,0.6283083,0.00011209752,-0.12099346,0.03179938,-0.0012889784,0.011026285,0.00011805835,-0.005488859,0.45786282,-1.4059216,1.9334358,-2.0959365,-1.5719131,2.435226,-0.15535934,0.1644783,-0.19574787,0.0358848,-0.010417496,-0.14973496,-0.5746084,-0.3256114,-9.346964,0.9254084,47.72271,-1.1470321,-2.0500937,-3.3724978,-0.06352188,-0.13751805,-0.063185185,28.5625,29.6875,28.9375,33.0,35.375,36.4375
0.2580517,-1.0143282,0.65847445,-0.44015658,0.032355733,0.06130169,-0.1765145,-0.39641613,-0.3444686,0.060023453,-3.0764387,0.62838644,1.2512398e-05,-0.12072205,0.03138886,-0.0018010514,0.0123954695,-0.0013383473,-0.008182494,0.4575392,-1.4055964,1.9330767,-2.0958045,-1.5719374,2.4349637,-0.15392461,0.16655807,-0.19736864,0.03733798,-0.011014804,-0.14560337,-0.47884035,-0.22984336,-9.346964,0.86945957,47.70032,-1.197667,-2.1884682,-3.336751,-0.08428,-0.16524503,-0.10158897,28.5625,29.6875,28.9375,33.0,35.375,36.4375
0.26005253,-0.3797096,0.39880925,-0.6658386,0.038805887,0.038705483,-0.17457372,-0.3966824,-0.34439695,0.060013335,-3.0763748,0.6284149,8.001213e-05,-0.12254267,0.03231267,-0.0015345584,0.01251322,-0.0006573055,-0.015212584,0.45722628,-1.4052236,1.9326571,-2.0957568,-1.5720099,2.4346771,-0.156775,0.16776842,-0.1995234,0.037716776,-0.011422942,-0.14142166,-0.3256114,-0.19153613,-9.385271,0.8493211,47.687782,-1.1406105,-2.165643,-3.2264967,-0.07154685,-0.13850594,-0.13948178,28.5625,29.6875,28.9375,33.0,35.375,36.4375
0.26205254,-0.23213363,0.44865555,-0.5670396,0.014140618,0.017098205,-0.18608832,-0.39695477,-0.34434304,0.060034685,-3.0763934,0.62855923,0.00011072706,-0.12357316,0.033119738,-0.0020968793,0.012771886,-0.0018590358,-0.025561614,0.45687786,-1.4048985,1.9322151,-2.0956848,-1.5719856,2.4344165,-0.15917498,0.16975778,-0.20068279,0.03808867,-0.011114857,-0.13347317,-0.15322891,-0.19153613,-9.346964,0.92093146,47.71286,-1.2513766,-2.2067375,-3.312509,-0.05805759,-0.14122517,-0.22360063,28.5625,29.6875,28.9375,33.0,35.375,36.4375
0.26405266,0.049480468,-0.08515052,-0.80600107,-0.0020433809,0.01294727,-0.18690963,-0.3971917,-0.34424594,0.060017236,-3.0763044,0.62858,0.00015649933,-0.12367131,0.03374477,-0.0025120825,0.01453692,-0.0029630228,-0.027644325,0.45655376,-1.4045858,1.9318813,-2.0956361,-1.57207,2.434117,-0.15956071,0.17083159,-0.20133224,0.039425172,-0.012215107,-0.13177305,-0.15322891,0.0,-9.500193,0.8605109,47.734352,-1.1932508,-2.279836,-3.4021692,-0.046019275,-0.12209194,-0.26815417,28.5625,29.6875,28.9375,33.0,35.375,36.4375
0.26605213,-0.6249272,-1.0416533,-0.904898,-0.0002629058,-0.0065800645,-0.17298603,-0.39741987,-0.34418115,0.059996184,-3.0762374,0.6286851,6.3367625e-05,-0.12490848,0.034778584,-0.0028776815,0.015393846,-0.004464275,-0.034561563,0.45624062,-1.4042244,1.9314855,-2.095528,-1.57207,2.4338784,-0.16228561,0.17296195,-0.2034067,0.041097328,-0.012331789,-0.12757862,-0.095768064,0.076614454,-9.500193,0.8918391,47.694946,-1.0454093,-2.2541463,-3.4467402,-0.06054446,-0.11961942,-0.3379209,28.5625,29.6875,28.9375,33.0,35.375,36.4375
0.2680521,-0.72845197,-1.0864373,-0.72422934,-0.02372127,0.0006237757,-0.1687199,-0.39770448,-0.34410203,0.060009513,-3.0761735,0.6288281,0.00014622703,-0.12575652,0.0359973,-0.0036743148,0.015874814,-0.007098321,-0.040338505,0.4558916,-1.4038757,1.9310316,-2.095444,-1.5721301,2.4336271,-0.16551585,0.1750595,-0.204415,0.04257426,-0.011601141,-0.12503357,-0.05746084,0.21068975,-9.5385,0.83813137,47.698532,-0.9995123,-2.2878838,-3.4589581,-0.057604432,-0.12701812,-0.43350056,28.5625,29.6875,28.9375,33.0,35.375,36.4375
0.27005196,-0.40469557,-1.3911239,-0.72225565,-0.033530537,0.010938382,-0.17387414,-0.39795253,-0.34402004,0.059990324,-3.0761075,0.62896895,6.92268e-05,-0.12750724,0.035895154,-0.0020428826,0.014725112,-0.004708592,-0.041540198,0.4555313,-1.4035155,1.9306353,-2.0953472,-1.5721301,2.4333634,-0.16672009,0.17466731,-0.20805272,0.04394853,-0.011637153,-0.12503406,-0.038307227,0.30645782,-9.481039,0.8247004,47.71286,-0.92784345,-2.2144754,-3.3931444,-0.05931919,-0.12590677,-0.48323154,28.5625,29.6875,28.9375,33.0,35.375,36.4375
0.27205193,-0.49310255,-1.1635181,-1.0000479,-0.034307685,0.009112111,-0.17457746,-0.3981953,-0.3439654,0.059990745,-3.0760655,0.6290526,4.6653702e-05,-0.12792094,0.035394676,-0.0019666683,0.014002174,-0.0049867947,-0.03619887,0.45523128,-1.4031668,1.9302052,-2.0952399,-1.5721415,2.4331212,-0.1665717,0.17589125,-0.20980687,0.044395536,-0.0108805485,-0.13022788,0.019153614,0.34476504,-9.500193,0.9030289,47.728977,-0.9746634,-2.249173,-3.401965,-0.039509572,-0.14234222,-0.48073655,28.5625,29.6875,28.9375,33.0,35.375,36.4375
0.27405214,-1.1795999,-2.0318058,-0.88752836,-0.027885973,0.0012574304,-0.1640408,-0.39843038,-0.34389722,0.059970707,-3.0760226,0.62907624,-3.200485e-05,-0.12897734,0.035824563,-0.0015577642,0.013751862,-0.004764642,-0.02709461,0.454907,-1.4028063,1.9298104,-2.0951436,-1.5721415,2.4328175,-0.16820171,0.17640051,-0.21160966,0.04535982,-0.010779175,-0.14096114,-0.019153614,0.45968673,-9.5385,0.85155696,47.74062,-1.0549657,-2.2276914,-3.379639,-0.0490103,-0.13198356,-0.4310454,28.5625,29.6875,28.9375,33.0,35.375,36.4375
0.2760524,-1.3128778,-2.0675101,-0.893897,-0.039246053,0.01148023,-0.16500275,-0.39869308,-0.34381145,0.05995536,-3.0759442,0.6291887,-0.00011479064,-0.12839599,0.035109024,-0.0028667627,0.015014467,-0.007214618,-0.01625379,0.45453557,-1.4024209,1.9293679,-2.095012,-1.5721534,2.4325266,-0.16626377,0.17980117,-0.21274427,0.04583084,-0.010864813,-0.14986217,0.05746084,0.45968673,-9.461885,0.8985519,47.69763,-1.1427499,-2.1920226,-3.395026,-0.03641647,-0.12906788,-0.35846168,28.5625,29.6875,28.9375,33.0,35.375,36.4375
0.27805242,-0.8083665,-1.9632604,-1.0045406,-0.03836206,0.023703836,-0.17802104,-0.3989628,-0.3437381,0.05994876,-3.0758939,0.6291951,-6.226443e-05,-0.12886263,0.03636875,-0.0021495116,0.014960115,-0.0087092435,-0.010488504,0.45421058,-1.4020493,1.9289373,-2.0949504,-1.572213,2.4322124,-0.1692097,0.17854436,-0.21379963,0.049433906,-0.010169676,-0.15857568,0.05746084,0.40222588,-9.576807,0.90750587,47.689575,-0.96269256,-1.9790106,-3.4719086,-0.056479435,-0.15324515,-0.2248932,28.5625,29.6875,28.9375,33.0,35.375,36.4375
0.2800524,-0.58637285,-1.4994239,-0.810903,-0.049213424,0.013019698,-0.16794246,-0.3992317,-0.34366155,0.05997506,-3.0758631,0.6292637,2.5469606e-05,-0.13050368,0.037386265,-0.0012751725,0.01501426,-0.0073560397,-0.008755663,0.45387363,-1.4017488,1.9285063,-2.0948546,-1.5722612,2.4319224,-0.17188728,0.1782504,-0.21573167,0.050451938,-0.010818215,-0.16298415,0.019153614,0.34476504,-9.500193,0.8717007,47.679718,-0.91916364,-2.093716,-3.342487,-0.06784144,-0.14527416,-0.1648485,28.5625,29.6875,28.9375,33.0,35.375,36.4375
0.28205243,0.20246905,-1.0104071,-0.6181618,-0.034452315,0.020666027,-0.18429519,-0.39949536,-0.34357968,0.05993725,-3.0757968,0.6292906,-9.9198434e-05,-0.13244036,0.03714644,-0.0010848029,0.013680365,-0.0062088366,-0.010905341,0.45350137,-1.4013153,1.9280642,-2.0947473,-1.5722612,2.4315758,-0.17343879,0.18067479,-0.21884918,0.049524233,-0.010150917,-0.16238502,-0.019153614,0.3256114,-9.346964,0.8627467,47.690468,-0.87615645,-2.1092072,-3.285003,-0.061670095,-0.16698457,-0.11811085,28.5625,29.6875,28.9375,33.0,35.375,36.4375
0.28405255,0.68011326,0.1897444,-0.5733116,-0.016562825,0.014708205,-0.18895842,-0.3997419,-0.3435252,0.059940554,-3.0758045,0.6292777,-6.105657e-05,-0.13363837,0.0381549,-0.00051479135,0.013172242,-0.0074255164,-0.01993269,0.4532,-1.400991,1.9276685,-2.0946987,-1.5722731,2.4312656,-0.17676876,0.18091638,-0.22115116,0.052456886,-0.009151975,-0.1566901,0.019153614,0.30645782,-9.308657,0.8537928,47.72002,-0.87578773,-2.0580292,-3.3133945,-0.09293648,-0.16177341,-0.17710653,28.5625,29.6875,28.9375,33.0,35.375,36.4375
0.28605187,0.33816674,0.51370496,-0.5157065,0.0019338616,0.00092203304,-0.17377555,-0.4000406,-0.343454,0.05994701,-3.0757902,0.6294119,-3.807356e-05,-0.1327638,0.037562642,-0.00019299696,0.014439215,-0.009821674,-0.024684116,0.45281687,-1.4006066,1.9271897,-2.0946243,-1.5722731,2.4309683,-0.17478159,0.18157105,-0.2237727,0.057140805,-0.009230826,-0.149951,-0.11492168,0.15322891,-9.385271,0.88960326,47.703007,-1.0212238,-2.0572593,-3.4285414,-0.13494241,-0.17521739,-0.25309774,28.5625,29.6875,28.9375,33.0,35.375,36.4375
0.28805178,-0.43139434,0.031965658,-0.6020238,0.025254644,-0.006450303,-0.17048548,-0.40030512,-0.3433886,0.05995186,-3.0757551,0.62942487,-7.6821954e-05,-0.13269128,0.037462372,-0.00018310723,0.014540338,-0.01061376,-0.028238026,0.4524809,-1.4002339,1.9267124,-2.0944812,-1.5722846,2.4306452,-0.17457815,0.18205796,-0.22469456,0.05833303,-0.0089806635,-0.1461938,-0.11492168,0.095768064,-9.3661175,0.83365434,47.668976,-0.95499796,-1.9959682,-3.4600065,-0.18182588,-0.18890646,-0.30621636,28.5625,29.6875,28.9375,33.0,35.375,36.4375
0.29005194,-0.084624924,-0.13093111,-0.664217,0.041766237,0.017086618,-0.16989514,-0.40054548,-0.34331775,0.059924312,-3.075687,0.6294878,-0.00015929817,-0.13320245,0.0373836,-0.0011008405,0.014753702,-0.011899139,-0.029722579,0.45215675,-1.3998483,1.9263047,-2.094385,-1.5722965,2.4303694,-0.17499055,0.18493116,-0.22592184,0.05793263,-0.008629113,-0.14512108,-0.095768064,-0.076614454,-9.423578,0.8873621,47.703903,-1.0227225,-2.1895113,-3.4352198,-0.17548434,-0.19673689,-0.3429302,28.5625,29.6875,28.9375,33.0,35.375,36.4375
0.29205188,-0.46291557,0.88332075,-0.27573988,0.013733464,0.027781047,-0.17920068,-0.4008272,-0.34323764,0.059951864,-3.0756345,0.6295931,-0.00012981302,-0.1330394,0.037914455,-0.0014308487,0.016764605,-0.014212049,-0.03006177,0.4517967,-1.3995118,1.9258145,-2.094228,-1.5723332,2.430082,-0.17514537,0.18624939,-0.2274833,0.06112975,-0.009430835,-0.14493407,-0.019153614,-0.15322891,-9.346964,0.8672237,47.71017,-1.0353119,-2.2097485,-3.5552585,-0.22482696,-0.20683149,-0.3860637,28.5625,29.6875,28.9375,33.0,35.375,36.4375
0.29405206,0.4674181,1.4438568,-0.3380553,0.0074981935,0.050342083,-0.20220093,-0.40105796,-0.34315532,0.059893366,-3.0755208,0.62966484,-0.00030174432,-0.13430436,0.037629593,-0.0011282635,0.016932977,-0.013676666,-0.028191743,0.45146072,-1.3990788,1.9254192,-2.0941203,-1.5723447,2.4298058,-0.17535295,0.1883446,-0.23089354,0.06202997,-0.009852289,-0.1470075,-0.076614454,-0.21068975,-9.251195,0.90750587,47.7254,-1.1615356,-2.0809116,-3.442818,-0.23667888,-0.22375178,-0.39330572,28.5625,29.6875,28.9375,33.0,35.375,36.4375
0.2960518,-0.6888716,0.9615551,-0.43052244,0.03583874,0.02764329,-0.1805538,-0.40133783,-0.34306735,0.05989241,-3.0754533,0.6297034,-0.00033126032,-0.13578404,0.03747629,-0.00059120986,0.016191244,-0.013103766,-0.022798803,0.4510886,-1.3986937,1.92494,-2.0939763,-1.5723809,2.4294667,-0.17646705,0.18993747,-0.23424596,0.062929235,-0.009464695,-0.15351379,-0.1340753,-0.21068975,-9.346964,0.9097417,47.694054,-1.1573422,-2.1710985,-3.3668094,-0.26137614,-0.21577528,-0.37465656,28.5625,29.6875,28.9375,33.0,35.375,36.4375
0.29805225,-0.5417566,0.929266,-0.39284694,0.028218372,0.042504493,-0.18563078,-0.4016142,-0.34299475,0.059900362,-3.0754328,0.6298095,-0.0003628267,-0.13629918,0.0382659,-0.0023411303,0.018171852,-0.015981698,-0.014249494,0.45071626,-1.3983325,1.9244736,-2.0938566,-1.572369,2.4291635,-0.17781228,0.1940525,-0.2351689,0.06317418,-0.010020434,-0.16340561,-0.28730422,-0.076614454,-9.404425,0.8940802,47.690468,-1.2539793,-2.1229181,-3.2501926,-0.2904426,-0.23001799,-0.26302457,28.5625,29.6875,28.9375,33.0,35.375,36.4375
0.3000522,-1.6348114,0.4783884,-0.4695801,0.009017437,0.03209276,-0.1797042,-0.40186125,-0.34290004,0.05987718,-3.0753314,0.6297832,-0.00045453061,-0.13660344,0.037133627,-0.0015599701,0.017290052,-0.0141012,-0.0035493842,0.4503688,-1.3979479,1.924043,-2.0937011,-1.5724176,2.428813,-0.17591852,0.19411586,-0.2370226,0.0628613,-0.010090582,-0.17220998,-0.38307226,-0.038307227,-9.346964,0.84708,47.661808,-1.3029735,-2.1855469,-3.3140042,-0.30572522,-0.23988727,-0.18574041,28.5625,29.6875,28.9375,33.0,35.375,36.4375
0.30205208,-1.068923,-0.1906634,-0.65688884,-0.00062076823,0.06619427,-0.17732336,-0.4021098,-0.34284726,0.05986553,-3.0753236,0.6297245,-0.0006239032,-0.13849995,0.0367922,-0.00065242423,0.015953012,-0.011854376,-0.0032483637,0.45003226,-1.3975391,1.9235524,-2.0935223,-1.572369,2.428441,-0.17693835,0.19523273,-0.24039026,0.062509716,-0.00989809,-0.17352894,-0.4405331,0.0,-9.461885,0.8873621,47.713753,-1.283727,-2.2595496,-3.2688475,-0.33067083,-0.24286512,-0.10647099,28.5625,29.6875,28.9375,33.0,35.375,36.4375
0.3040519,-2.003741,-0.98288095,-0.55049133,-0.024612814,0.07388484,-0.16833414,-0.40239125,-0.34276634,0.059860617,-3.0752506,0.62982625,-0.00063826493,-0.14058827,0.036583476,0.0004569441,0.015477486,-0.008146336,-0.00521979,0.44967225,-1.3971424,1.9230736,-2.0934026,-1.5724052,2.4281542,-0.17745738,0.19595642,-0.24359441,0.06144153,-0.011101274,-0.17207065,-0.6703765,0.076614454,-9.595961,0.83813137,47.704796,-1.4720559,-2.1451564,-3.282383,-0.3413046,-0.25714386,-0.08101654,28.5625,29.6875,28.9375,33.0,35.375,36.4375
0.3060525,-1.7463248,-1.4034009,-0.57832676,-0.04153604,0.107760884,-0.17080548,-0.40271166,-0.34270808,0.059906423,-3.075284,0.6298172,-0.00051478646,-0.14236465,0.03644217,0.00073077943,0.015199695,-0.005675098,-0.011805843,0.44931188,-1.3967812,1.9225234,-2.0932953,-1.57243,2.4277842,-0.17805785,0.1977415,-0.24597012,0.059691276,-0.011914108,-0.16608188,-0.7469909,0.24899697,-9.557653,0.9455522,47.703903,-1.4066627,-2.2190301,-3.26687,-0.3502859,-0.2416924,-0.15815419,28.5625,29.6875,28.9375,33.0,35.375,36.4375
0.30805248,-2.096666,-1.8252412,-0.95144933,-0.037325587,0.09483546,-0.16379876,-0.40297455,-0.3426063,0.059867974,-3.0751328,0.63004124,-0.00060684845,-0.14277436,0.037821654,-0.0005239939,0.01564593,-0.006352596,-0.021136863,0.44893888,-1.3963605,1.9220933,-2.093177,-1.5724777,2.4275708,-0.1806249,0.1985962,-0.24364662,0.057317857,-0.0120323645,-0.15931697,-0.6512228,0.2681506,-9.634268,0.9567419,47.698532,-1.2582936,-2.179298,-3.4331121,-0.3451538,-0.2550274,-0.20361093,28.5625,29.6875,28.9375,33.0,35.375,36.4375
0.31005245,-2.5245335,-1.9370581,-0.78095263,-0.057652567,0.079121105,-0.16989,-0.40325367,-0.34254095,0.059881207,-3.0751026,0.6300187,-0.0006168934,-0.14562911,0.038827017,0.00064677914,0.014157586,-0.0017057505,-0.029672949,0.44860178,-1.3959767,1.9215797,-2.093022,-1.5725025,2.427224,-0.18425138,0.19795771,-0.2449993,0.05448035,-0.012715151,-0.15440403,-0.59376204,0.2681506,-9.634268,0.99031126,47.703007,-1.1816983,-2.0879552,-3.4816566,-0.32113838,-0.24470723,-0.28528255,28.5625,29.6875,28.9375,33.0,35.375,36.4375
0.31205255,-1.5911362,-1.9178687,-0.6052944,-0.06337804,0.08096108,-0.17525937,-0.40354553,-0.34243554,0.059860844,-3.075015,0.6301376,-0.00059374556,-0.14638238,0.03900518,0.0008257635,0.012485774,0.0006186414,-0.035660487,0.44820577,-1.3955804,1.9211501,-2.0929635,-1.5725621,2.4269137,-0.18537095,0.19714212,-0.24380478,0.051275726,-0.012218194,-0.14953782,-0.6895301,0.34476507,-9.5385,0.9768804,47.689575,-1.2775244,-2.0193877,-3.6912618,-0.29641086,-0.24443176,-0.3747251,28.5625,29.6875,28.9375,33.0,35.375,36.4375
0.3140525,-1.2406738,-1.1177243,-0.77052873,-0.054184765,0.06935885,-0.17688367,-0.4038666,-0.34238318,0.05988755,-3.0750418,0.6302039,-0.0005485491,-0.14973944,0.03904277,0.002108056,0.010174134,0.006085128,-0.041084602,0.44783288,-1.3951716,1.9205874,-2.0928571,-1.5725497,2.426579,-0.18794361,0.19793284,-0.2469125,0.04766846,-0.0125061,-0.14668414,-0.59376204,0.3256114,-9.5385,0.86945957,47.703007,-1.1109288,-2.035355,-3.685707,-0.23577875,-0.2609041,-0.44677728,28.5625,29.6875,28.9375,33.0,35.375,36.4375
0.31605172,-0.85137737,-0.96501213,-0.94793284,-0.026457591,0.071873434,-0.18543503,-0.4041608,-0.3422997,0.059871815,-3.0749974,0.63038546,-0.0005669338,-0.15212916,0.038687628,0.0029439768,0.007864197,0.00911995,-0.039978683,0.4474363,-1.3947629,1.920132,-2.0927975,-1.5725497,2.4263017,-0.18966687,0.19927461,-0.25001696,0.04568301,-0.011754795,-0.14951403,-0.51714754,0.2873042,-9.672575,0.9321212,47.684196,-1.1635196,-1.9017177,-3.6940393,-0.18460675,-0.26647514,-0.51212454,28.5625,29.6875,28.9375,33.0,35.375,36.4375
0.31805173,-1.0825378,-0.11245412,-0.86038375,-0.017663162,0.057273723,-0.18574214,-0.40447006,-0.3422196,0.059877668,-3.074955,0.6304319,-0.00051248673,-0.15322731,0.039267577,0.0030968809,0.0074915946,0.010296337,-0.035820097,0.44706368,-1.3943543,1.9196194,-2.0927022,-1.5725979,2.4259639,-0.19133992,0.19954304,-0.25052816,0.044682138,-0.011938709,-0.15534498,-0.26815057,0.24899697,-9.634268,0.9388393,47.66808,-1.0886233,-1.8417437,-3.5715153,-0.14862645,-0.2829938,-0.48450553,28.5625,29.6875,28.9375,33.0,35.375,36.4375
0.32005176,-0.95728195,0.101260714,-0.9101028,0.011556813,0.041425575,-0.18672393,-0.40478355,-0.3421493,0.059877276,-3.0749316,0.6305931,-0.0005280739,-0.15531555,0.03930704,0.0034040762,0.006927821,0.0116354,-0.02412478,0.44666702,-1.3939213,1.919092,-2.0926063,-1.5725859,2.425671,-0.19294578,0.20193735,-0.2540256,0.044306424,-0.0120400395,-0.16864407,-0.21068975,0.15322891,-9.615114,1.0507371,47.667187,-0.97078407,-1.9996231,-3.5013409,-0.12681785,-0.28364325,-0.34453073,28.5625,29.6875,28.9375,33.0,35.375,36.4375
0.32205197,-0.9810397,0.11465107,-0.9492192,0.014617807,0.04504369,-0.19400197,-0.40509713,-0.34207562,0.059888456,-3.074903,0.6306605,-0.00047057,-0.15558626,0.039466083,0.002196012,0.0073197503,0.009034765,-0.01519742,0.44629458,-1.3935117,1.9185656,-2.0925105,-1.5726212,2.4253447,-0.19376831,0.20509616,-0.25514445,0.044749696,-0.011284294,-0.17839603,-0.38307226,0.1340753,-9.730036,0.8940802,47.690468,-0.87188,-2.062245,-3.4790854,-0.10142388,-0.30297008,-0.27715346,28.5625,29.6875,28.9375,33.0,35.375,36.4375
0.3240519,-1.173962,-0.2893653,-0.66806656,0.0018263182,0.0575632,-0.18383342,-0.4054155,-0.34201458,0.059896685,-3.0749567,0.63051546,-0.0003619165,-0.15843222,0.03994383,0.0025117313,0.00804002,0.009964489,-0.012324198,0.44593394,-1.393102,1.9180621,-2.0924866,-1.572646,2.424887,-0.1961787,0.20885807,-0.26060614,0.0459067,-0.0123394625,-0.18367437,-0.2681506,0.038307227,-9.634268,0.9567419,47.690468,-0.95218277,-2.0654168,-3.34377,-0.08233459,-0.29752117,-0.1555343,28.5625,29.6875,28.9375,33.0,35.375,36.4375
0.3260522,-1.051331,0.0675333,-0.97793293,0.0073424797,0.045518503,-0.18775,-0.40574497,-0.34189782,0.059897065,-3.074867,0.63074327,-0.00039126317,-0.15939921,0.039796557,0.0026017772,0.008677646,0.008352255,-0.014194689,0.4454659,-1.3926805,1.9175347,-2.0923412,-1.5726699,2.424573,-0.19662574,0.21172133,-0.26497632,0.049136057,-0.012224298,-0.18224908,-0.19153613,-0.11492168,-9.672575,0.8314132,47.696735,-0.9206947,-2.1749434,-3.3044715,-0.08404794,-0.31248504,-0.13805418,28.5625,29.6875,28.9375,33.0,35.375,36.4375
0.32805213,-0.8521047,-0.15687044,-0.92937297,0.018680025,0.02582444,-0.17081998,-0.4060696,-0.34182027,0.059908375,-3.0748386,0.6307447,-0.00029497693,-0.15955853,0.03999502,0.0018304155,0.01026359,0.007563199,-0.02012666,0.44509426,-1.3922594,1.9169968,-2.0922573,-1.5727304,2.4242063,-0.19625969,0.21379271,-0.26574516,0.04923034,-0.013298757,-0.17594749,-0.36391866,0.019153614,-9.691729,0.90750587,47.65912,-1.0149888,-2.3381975,-3.22093,-0.067303084,-0.31773472,-0.19698875,28.5625,29.6875,28.9375,33.0,35.375,36.4375
0.33005202,-0.8221905,-0.5236556,-0.7086716,0.00957605,0.029573178,-0.18029818,-0.40638253,-0.34175465,0.05990408,-3.0748096,0.63079864,-0.00030453526,-0.15971173,0.039118655,0.0020185402,0.010050196,0.00814535,-0.025448868,0.444723,-1.3918027,1.916447,-2.0921495,-1.5727423,2.4238727,-0.19465114,0.21484044,-0.26751938,0.049347483,-0.013349357,-0.16901565,-0.38307226,-0.095768064,-9.500193,0.9410752,47.66539,-1.2620089,-2.1756582,-3.3128242,-0.03658915,-0.31113267,-0.28674418,28.5625,29.6875,28.9375,33.0,35.375,36.4375
0.332052,-1.3255993,-0.5250554,-0.5827261,0.005946802,0.02634491,-0.18377279,-0.4067039,-0.34169236,0.05993411,-3.0748343,0.63084286,-0.00020883758,-0.15931576,0.039565768,0.0021139083,0.010680071,0.007425595,-0.027452774,0.44435096,-1.391418,1.9159087,-2.092065,-1.5727543,2.4235253,-0.19477817,0.21408908,-0.26724622,0.050744567,-0.013588745,-0.1671395,-0.24899697,-0.038307227,-9.557653,0.9186956,47.717335,-1.2469202,-2.3644185,-3.4235194,-0.021781402,-0.3082207,-0.3250643,28.5625,29.6875,28.9375,33.0,35.375,36.4375
0.33405203,-0.672405,0.16437636,-0.61687875,-0.0068194903,0.026186427,-0.19278517,-0.40698454,-0.34159228,0.05989742,-3.0747266,0.6309761,-0.00031408985,-0.15784465,0.040521443,0.0005086392,0.013027888,0.0016744683,-0.02965436,0.44395462,-1.3909733,1.9154438,-2.0919445,-1.5727781,2.4232264,-0.1952821,0.21583225,-0.2665754,0.054525983,-0.013241369,-0.16544236,-0.15322891,0.095768064,-9.768343,1.0328293,47.696735,-1.400528,-2.2410338,-3.5163686,-0.02418516,-0.30606386,-0.36169183,28.5625,29.6875,28.9375,33.0,35.375,36.4375
0.33605236,-0.607004,-0.5605429,-0.2370295,-0.030228587,0.035870872,-0.19304654,-0.40735033,-0.3415196,0.059934158,-3.0747173,0.6310684,-0.00014256916,-0.15895464,0.04157294,0.0004903339,0.013505053,0.0014988054,-0.029676339,0.44355804,-1.390541,1.9148339,-2.0918605,-1.5728382,2.422889,-0.19764733,0.21663575,-0.26771402,0.055206046,-0.013588125,-0.1677854,-0.05746084,0.05746084,-9.442732,0.9030289,47.691364,-1.2873147,-2.1772294,-3.5877745,-0.034670472,-0.33479434,-0.39874786,28.5625,29.6875,28.9375,33.0,35.375,36.4375
0.33805162,-0.5127516,-0.39851063,-0.3800082,-0.02399959,0.009716362,-0.18914057,-0.40766126,-0.34143326,0.059929986,-3.0746536,0.6312059,-0.00015528848,-0.16074546,0.041715864,0.00012597673,0.013271182,0.0025077518,-0.023949038,0.4431614,-1.3901075,1.914308,-2.0917413,-1.5728625,2.4225867,-0.19907162,0.21951279,-0.2699727,0.053552147,-0.013837201,-0.17493443,-0.019153614,0.038307227,-9.346964,0.9567419,47.67345,-1.3306625,-2.0414085,-3.4689178,0.0016883789,-0.3145917,-0.33766907,28.5625,29.6875,28.9375,33.0,35.375,36.4375
0.34005275,-0.46850678,-0.51231706,-0.42703223,-0.004575116,-0.012639054,-0.1886352,-0.40797853,-0.34134316,0.059947174,-3.0746574,0.6311632,-0.000107651606,-0.16250476,0.042144157,0.0016914061,0.012348807,0.0041300454,-0.015971454,0.4427529,-1.3897233,1.9137934,-2.091633,-1.5728863,2.4221513,-0.20119272,0.21896367,-0.273458,0.05569338,-0.013716644,-0.1850329,0.11492168,0.17238252,-9.346964,0.9634547,47.695843,-1.1967478,-2.0486584,-3.4906392,0.013688895,-0.32316792,-0.25112534,28.5625,29.6875,28.9375,33.0,35.375,36.4375
0.3420516,-0.23733634,-0.19833253,-0.13433412,-0.0009484829,-0.016811844,-0.18548487,-0.4083345,-0.341269,0.059956275,-3.0746577,0.6312556,-4.1787018e-05,-0.16382335,0.0424489,0.003530107,0.011605131,0.006320705,-0.010055338,0.44233277,-1.3892555,1.9132069,-2.0915601,-1.5728983,2.4217892,-0.20245962,0.21732226,-0.27630588,0.05786211,-0.01398789,-0.19221523,0.05746084,0.095768064,-9.289503,0.8851263,47.71823,-1.1645449,-1.900947,-3.4247012,0.018077994,-0.34238642,-0.14309633,28.5625,29.6875,28.9375,33.0,35.375,36.4375
0.34405246,0.18785082,0.3099912,-0.4008876,0.024310675,-0.029189032,-0.18949465,-0.4086737,-0.34117576,0.059980497,-3.0746267,0.6312697,5.4917455e-05,-0.16494519,0.042940166,0.0037900012,0.012246669,0.00556051,-0.010226018,0.44192433,-1.3888464,1.9126443,-2.09144,-1.5729588,2.4213939,-0.20391238,0.21894266,-0.2794353,0.060313825,-0.014239184,-0.19349591,0.15322891,0.15322891,-9.3661175,0.9365982,47.703007,-1.1102971,-1.8549125,-3.2516568,0.015403944,-0.34384632,-0.07895576,28.5625,29.6875,28.9375,33.0,35.375,36.4375
0.34605208,0.2872472,0.23286085,-0.4198889,0.030123778,-0.022211205,-0.19470532,-0.4089909,-0.34109154,0.059988923,-3.074585,0.63130385,4.195428e-05,-0.16571504,0.044503573,0.0045111515,0.012825476,0.0048834877,-0.01861262,0.44152725,-1.3884144,1.9120821,-2.0912836,-1.5729827,2.4210238,-0.2069695,0.21778907,-0.28050697,0.06340185,-0.014464477,-0.18816565,-0.17238253,0.11492168,-9.32781,0.9567419,47.678825,-1.0636351,-1.7139605,-3.293971,0.0016715585,-0.34182113,-0.10473983,28.5625,29.6875,28.9375,33.0,35.375,36.4375
0.34805202,-0.17162684,0.104784936,-0.33123004,0.013002165,-0.00018704987,-0.18192089,-0.40932545,-0.34100896,0.059993085,-3.074545,0.63139546,5.5363176e-05,-0.16543397,0.044854477,0.003616942,0.01434453,2.0384707e-05,-0.025226107,0.44111863,-1.387957,1.9115075,-2.0911615,-1.573006,2.420678,-0.2076138,0.22083713,-0.28320652,0.06810096,-0.013747954,-0.18219781,-0.24899697,0.21068975,-9.346964,0.96569055,47.655537,-0.9837805,-1.7197945,-3.395307,-0.034684263,-0.36985976,-0.19521639,28.5625,29.6875,28.9375,33.0,35.375,36.4375
0.35005197,-0.71886384,0.3337697,-0.62303865,-0.003759919,0.010595253,-0.19579397,-0.40965262,-0.34092247,0.060003504,-3.0744898,0.6314846,3.9812625e-05,-0.16494696,0.04600059,0.0018654073,0.01715824,-0.0060533076,-0.034340043,0.4407103,-1.3875115,1.9109219,-2.0909927,-1.5730304,2.4203327,-0.2090692,0.2245414,-0.2846677,0.07255974,-0.013689166,-0.1745386,-0.05746084,0.1340753,-9.576807,0.90750587,47.691364,-0.9114422,-1.7911723,-3.3381119,-0.082391396,-0.3404191,-0.2553407,28.5625,29.6875,28.9375,33.0,35.375,36.4375
0.35205203,-1.414775,-0.64608735,-0.37451187,-0.027879147,0.035614096,-0.18615742,-0.40995646,-0.34082472,0.059984185,-3.0744107,0.63147295,-6.928615e-05,-0.16369994,0.04803928,-2.0051386e-05,0.020965483,-0.014839939,-0.042903885,0.44030166,-1.387042,1.9103726,-2.09081,-1.5730542,2.4199274,-0.21162035,0.22744456,-0.28560114,0.08016517,-0.013384799,-0.16852577,-0.4213795,0.13407528,-9.557653,0.92764956,47.66808,-0.78395265,-1.8695138,-3.456482,-0.17235664,-0.37975582,-0.33490068,28.5625,29.6875,28.9375,33.0,35.375,36.4375
0.35405216,-2.6473422,-1.1690017,-0.1116145,-0.02872735,0.039430317,-0.17715602,-0.41029876,-0.34070647,0.060003195,-3.0743065,0.63179886,-5.4669195e-05,-0.16468664,0.047927346,0.00015661363,0.021044394,-0.013886866,-0.046954352,0.43983343,-1.3866327,1.90981,-2.0906432,-1.5730904,2.4196763,-0.21174082,0.22883777,-0.28769812,0.08003955,-0.0138723925,-0.16459304,-0.59376204,0.1340753,-9.423578,0.9634547,47.703007,-0.9469774,-2.0199366,-3.4588614,-0.21978241,-0.3786916,-0.43039396,28.5625,29.6875,28.9375,33.0,35.375,36.4375
0.35605213,-2.0194883,-0.76479405,-0.27773425,-0.0043701585,0.0654944,-0.20169419,-0.41062945,-0.34065047,0.06001365,-3.0743444,0.63182276,-6.594654e-05,-0.16289273,0.047301374,-0.00083241245,0.022138387,-0.017370762,-0.042585358,0.4394386,-1.3861763,1.9092244,-2.0905344,-1.5730542,2.4192917,-0.20928007,0.22999755,-0.28739223,0.08218683,-0.013383299,-0.16650358,-0.5554548,0.17238252,-9.404425,0.9455522,47.694946,-1.1096035,-1.8950667,-3.577117,-0.25405145,-0.38039154,-0.46798116,28.5625,29.6875,28.9375,33.0,35.375,36.4375
0.35805207,-2.4048593,-0.56400883,-0.06926431,0.00093311025,0.06701789,-0.19004542,-0.41098517,-0.34054947,0.060032707,-3.0742724,0.6320325,-6.474509e-05,-0.16256158,0.046843186,-0.0005855705,0.023163805,-0.018308464,-0.031968974,0.4389831,-1.3857198,1.9086026,-2.0903537,-1.573079,2.4189768,-0.20765531,0.23074314,-0.28952307,0.08482746,-0.013942074,-0.17549269,-0.4405331,0.15322891,-9.308657,0.96569055,47.66987,-1.3410585,-1.8244041,-3.5401185,-0.33806795,-0.40094027,-0.4414502,28.5625,29.6875,28.9375,33.0,35.375,36.4375
0.36005202,-1.8308221,-0.43210325,-0.10483879,0.015523363,0.062620655,-0.19436003,-0.41129556,-0.34044817,0.060015824,-3.0741827,0.6319875,-0.00011638222,-0.16456033,0.04651563,-5.8544047e-05,0.021336045,-0.015030962,-0.02049588,0.43858668,-1.3852508,1.9080514,-2.0901878,-1.5731386,2.4185643,-0.20868811,0.23188084,-0.29149646,0.081872664,-0.013739574,-0.18799709,-0.3256114,0.019153614,-9.193734,0.9388393,47.703007,-1.3260962,-1.8400913,-3.5258315,-0.33184916,-0.4200312,-0.3138798,28.5625,29.6875,28.9375,33.0,35.375,36.4375
0.3620519,-1.2162628,-0.0675722,0.22660868,0.015158801,0.043056626,-0.2000423,-0.41162857,-0.34036154,0.060021546,-3.0741405,0.6320308,-6.167004e-05,-0.1669436,0.04630948,0.0005218948,0.021360891,-0.0113553,-0.011312871,0.43819076,-1.3848056,1.9074897,-2.0900805,-1.5731872,2.4182012,-0.20909427,0.23402703,-0.29498726,0.079867296,-0.015359579,-0.19757913,-0.19153613,0.05746084,-9.232041,0.90527004,47.717335,-1.3792671,-1.7943487,-3.429664,-0.32175782,-0.3860672,-0.1866803,28.5625,29.6875,28.9375,33.0,35.375,36.4375
0.3640521,-1.7377081,-0.092024684,0.25220543,0.014323649,-0.010994035,-0.18638574,-0.41197664,-0.34029245,0.060042564,-3.0741456,0.6319722,-8.111243e-05,-0.16981705,0.04572727,0.0013937072,0.019857423,-0.0061047366,-0.009942629,0.43778297,-1.3843243,1.9068316,-2.0898907,-1.5731872,2.4177566,-0.20968586,0.23587444,-0.29838267,0.07601516,-0.016254466,-0.19953582,-0.21068975,0.019153614,-9.097966,0.9186956,47.686886,-1.3793347,-1.8360264,-3.3070352,-0.30693832,-0.39402038,-0.13076073,28.5625,29.6875,28.9375,33.0,35.375,36.4375
0.36605248,-0.5108295,-0.044400778,-0.13529108,0.018749563,-0.015250162,-0.18920967,-0.41234517,-0.3401828,0.06004775,-3.0740805,0.63211834,9.926728e-07,-0.17292944,0.04602982,0.0020008546,0.01893836,-0.0014257598,-0.017523829,0.43732584,-1.383855,1.9062451,-2.0897958,-1.5732478,2.4173994,-0.21184048,0.23772341,-0.30122545,0.07238034,-0.017409787,-0.19410403,-0.22984336,0.05746084,-9.155427,0.95897776,47.689575,-1.3251731,-1.8523355,-3.3664944,-0.26323083,-0.3739429,-0.17815778,28.5625,29.6875,28.9375,33.0,35.375,36.4375
0.3680525,-0.7133323,-0.7814603,-0.116471715,0.0029182245,-0.020312501,-0.19185431,-0.41268596,-0.34006527,0.06003935,-3.0739589,0.6321948,-2.8135713e-07,-0.17526075,0.046867643,0.0024096137,0.018378034,0.0019882666,-0.028732182,0.43689305,-1.3833745,1.90566,-2.0896294,-1.5733322,2.4170306,-0.21442984,0.23842776,-0.3024585,0.0695815,-0.018354943,-0.18548003,-0.24899697,0.11492168,-9.251195,1.0037369,47.685097,-1.3406549,-1.7906048,-3.346651,-0.24576327,-0.3841226,-0.26077053,28.5625,29.6875,28.9375,33.0,35.375,36.4375
0.3700518,-1.3201694,-1.4072914,-0.2781867,-0.025425576,-0.0025595562,-0.18649845,-0.41301686,-0.34000713,0.06005897,-3.0739784,0.632239,-3.9537656e-05,-0.17621055,0.04694553,0.0013823002,0.018414067,0.0018879261,-0.03312586,0.43649727,-1.3829174,1.9050382,-2.0894625,-1.5732964,2.41666,-0.21515311,0.24141519,-0.30328143,0.06753261,-0.018347358,-0.18180877,-0.30645782,0.17238252,-9.289502,0.9321212,47.687782,-1.3678406,-1.7633687,-3.389964,-0.22009256,-0.37932175,-0.3351523,28.5625,29.6875,28.9375,33.0,35.375,36.4375
0.3720519,-1.3367987,-1.1893768,-0.41770226,-0.04110127,0.023124905,-0.19866739,-0.41338038,-0.33988586,0.06005544,-3.073886,0.6323187,1.8968449e-05,-0.17896476,0.04782303,0.0025863997,0.017370157,0.005826177,-0.03806545,0.4360398,-1.3824364,1.9044517,-2.0893433,-1.5733804,2.4162648,-0.21827178,0.24137814,-0.30574018,0.06600225,-0.019075051,-0.17998418,-0.24899697,0.2681506,-9.3661175,0.99702406,47.72719,-1.2108235,-1.802964,-3.3718805,-0.19317417,-0.35211605,-0.3720308,28.5625,29.6875,28.9375,33.0,35.375,36.4375
