Tylouw/Master_Thesis_Code/training_data/batch_1/small_rod_t0.3/sample_62_session_2.csv
timestamp[s],tcp_force_x[N],tcp_force_y[N],tcp_force_z[N],tcp_force_rx[Nm?],tcp_force_ry[Nm?],tcp_force_rz[Nm?],tcp_pose_x[m],tcp_pose_y[m],tcp_pose_z[m],tcp_pose_rx[rot_vec_x],tcp_pose_ry[rot_vec_y],tcp_pose_rz[rot_vec_z],tcp_velo_x[m/s],tcp_velo_y[m/s],tcp_velo_z[m/s],tcp_velo_rx[rot_vec_x/s],tcp_velo_ry[rot_vec_y/s],tcp_velo_rz[rot_vec_z/s],q1[rad],q2[rad],q3[rad],q4[rad],q5[rad],q6[rad],qd1[rad/s],qd2[rad/s],qd3[rad/s],qd4[rad/s],qd5[rad/s],qd6[rad/s],tool_acc_x,tool_acc_y,tool_acc_z,current_of_whole_robot[A],voltage_of_whole_robot[V],current_J1[A],current_J2[A],current_J3[A],current_J4[A],current_J5[A],current_J6[A],temp_J1[C],temp_J2[C],temp_J3[C],temp_J4[C],temp_J5[C],temp_J6[C]
7.0099486e-07,-0.6247598,-0.06534729,1.4018422,-0.018636497,-0.0014557552,0.008835618,-0.38104975,-0.34852728,0.05997048,-3.078522,0.62491655,-0.00018831114,0.0022897243,0.0011800561,-0.0021661907,0.002765678,-0.0056600524,1.8222827e-05,0.47779807,-1.4259576,1.9577392,-2.1008322,-1.5707458,2.452776,-8.0742284e-05,0.00079202367,0.0036177032,0.0018876027,0.00015878884,-0.00010132456,0.076614454,0.15322891,-8.714894,0.70608455,47.694054,-0.010880191,-2.7863042,-2.5340433,-0.44784212,0.13298565,0.049958553,28.5,29.6875,28.9375,32.9375,35.375,36.375
0.002052145,-0.36259022,0.42245698,1.2382904,-0.015849156,0.0012994263,0.004407982,-0.38102219,-0.34854254,0.059958365,-3.078505,0.62485653,-0.0002152907,-0.0011085285,-0.0005902354,-0.0025761302,-0.0014933523,0.0025105525,2.1143993e-05,0.47785816,-1.4259443,1.9577502,-2.100825,-1.5707573,2.4528008,-7.955282e-05,0.0043477607,0.003346785,-0.010611229,0.00015425221,-9.983999e-05,0.019153614,0.15322891,-8.695741,0.78888994,47.709274,0.0169264,-2.8396707,-2.4532537,-0.4010252,0.15385754,0.043512605,28.5,29.6875,28.9375,32.9375,35.375,36.375
0.0040519442,-0.10489288,0.48521784,1.2719194,-0.018774413,0.004738649,-0.0005388144,-0.3810438,-0.34852898,0.059944108,-3.0785036,0.624817,-0.00020261598,-0.0022656322,-0.0011919969,-0.0020307805,-0.0032131681,0.0058227587,2.1080285e-05,0.47782204,-1.4259084,1.9577502,-2.1008613,-1.5707697,2.4527402,-7.83979e-05,0.004329202,0.0028547943,-0.0138327535,0.00014996834,-9.772172e-05,0.05746084,0.15322891,-8.63828,0.7284641,47.70211,0.009951902,-3.1777458,-2.6290388,-0.30939692,0.15285969,0.028684454,28.5,29.6875,28.9375,32.9375,35.375,36.375
0.00605183,-0.27917466,0.46174288,1.0565122,-0.0039279624,-0.00900025,0.0027583563,-0.38106892,-0.34855077,0.059975408,-3.0785837,0.6248142,-0.000110629306,-0.0013531733,-0.0007153787,-0.0012747686,-0.0020194678,0.0035483213,1.9299154e-05,0.47782204,-1.425933,1.9577144,-2.1008956,-1.5707458,2.4527283,-7.727595e-05,0.0025965197,0.0019076582,-0.00858429,0.00014591588,-9.5647694e-05,0.038307227,0.11492168,-8.714894,0.7418897,47.690468,0.008177474,-3.1134853,-2.6035728,-0.32260805,0.14933135,0.038692072,28.5,29.6875,28.9375,32.9375,35.375,36.375
0.0080526,-0.2544155,0.6594857,0.50419223,0.02735669,-0.033438787,0.01467947,-0.3810466,-0.34852147,0.05993358,-3.078519,0.6248204,-0.00020269289,-0.0006093716,-0.00033442615,-0.0002854194,-0.0014722347,0.0024702419,1.7384371e-05,0.47779807,-1.4259099,1.957786,-2.1009057,-1.5707573,2.4527164,-7.618564e-05,0.00019608764,0.0014587317,-0.004526009,0.00016416764,-9.365721e-05,0.019153614,0.2681506,-8.944737,0.79560274,47.696735,-0.017097177,-2.9255219,-2.554907,-0.37757856,0.15009503,0.049004905,28.5,29.6875,28.9375,32.9375,35.375,36.375
0.01005263,0.58267075,1.1077564,0.34848082,0.016411847,-0.015125002,-0.011690609,-0.38105747,-0.34851632,0.059935313,-3.0784566,0.6249037,-0.00016909915,-0.0006044364,-0.00033152345,0.00012628375,-0.0011921753,0.0019397058,1.6703005e-05,0.4778101,-1.425886,1.9577492,-2.1008813,-1.5708054,2.4527884,-7.512593e-05,2.6307657e-06,0.0002923642,-0.0025662787,0.00016140242,-9.174774e-05,0.05746084,0.17238252,-9.136273,0.7172743,47.699425,-0.35152113,-2.3519514,-3.120306,-0.34851518,0.11338289,-0.012811524,28.5,29.6875,28.9375,32.9375,35.375,36.375
0.012052558,-0.33984974,0.37018058,0.18610533,-0.0005793211,-0.022592055,0.0056029228,-0.38102216,-0.34852225,0.059899498,-3.078455,0.6248263,-0.0003225224,0.0004487358,0.00026565566,-0.0029407884,0.0025359571,-0.005123298,1.9029859e-06,0.47782204,-1.4258486,1.9577855,-2.1008685,-1.5707573,2.452752,-0.0001278236,0.005939078,3.9224387e-06,-0.00022776623,0.00010343642,-0.00012893083,0.19153613,0.11492168,-9.32781,0.7396539,47.691364,-0.507869,-2.1748195,-3.3639927,-0.344747,0.09264651,-0.07656664,28.5,29.6875,28.9375,32.9375,35.375,36.375
0.014052553,-0.5077425,-0.4104003,-0.12638912,-0.016814787,-0.0031573891,-0.0032649278,-0.38104862,-0.3485143,0.059916086,-3.0784507,0.62488276,-0.0003092382,-0.005533578,0.0015466242,-0.004362222,0.003421364,-0.006781935,-0.0017267453,0.47778335,-1.4258442,1.9577345,-2.1008327,-1.5707573,2.4527493,-0.007922648,0.016915461,-0.009306145,-1.4871506e-05,5.7779136e-05,-0.0061886134,0.076614454,0.1340753,-9.461885,0.6635613,47.653748,-0.4534852,-3.0346584,-3.1276374,-0.33777002,0.096441835,-0.07218379,28.5,29.6875,28.9375,32.9375,35.375,36.375
0.01605252,-0.9456238,-0.4236048,-0.011083348,-0.04809377,0.021333542,-0.020835364,-0.38104823,-0.3485135,0.059908304,-3.078454,0.6247857,-0.00034016097,-0.005763277,0.0033173442,-0.0033556514,0.0043579224,-0.008544661,0.0018515517,0.47778234,-1.4258213,1.957723,-2.1008189,-1.5707573,2.4526873,-0.011272559,0.014458723,-0.009970754,0.0051014163,4.4003704e-05,-0.013117879,-0.21068975,0.22984336,-9.519346,0.7911258,47.704796,-0.14515637,-2.774609,-3.2202408,-0.37208623,0.062025763,-0.026467424,28.5,29.6875,28.9375,32.9375,35.375,36.375
0.018051745,-1.6149852,-0.6180308,-0.14665036,-0.06617998,0.04181931,-0.020391373,-0.38105345,-0.34851208,0.059884965,-3.0784192,0.6247955,-0.0003721199,-0.004892401,0.002669984,-0.0033584232,0.0047187586,-0.00915298,0.0076775025,0.477783,-1.4257613,1.9577106,-2.1008303,-1.5707697,2.4526985,-0.009288772,0.014414693,-0.010118912,0.005999054,2.8731279e-06,-0.016960079,-0.36391866,0.28730422,-9.519346,0.7933669,47.68062,-0.33367693,-2.5468776,-3.5186098,-0.36904263,0.0579715,-0.003452535,28.5,29.6875,28.9375,32.9375,35.375,36.375
0.02005178,-1.683232,-0.75423187,-0.07873317,-0.06272097,0.07584641,-0.046582807,-0.38105872,-0.34849018,0.059880737,-3.0783668,0.6247823,-0.00044719173,-0.005998513,0.0023019728,-0.0028487842,0.0042311284,-0.008222866,0.010867573,0.47774687,-1.425737,1.9576734,-2.1007464,-1.5707816,2.4526608,-0.009658045,0.015559635,-0.012669228,0.0063534076,1.8759474e-07,-0.02051802,-0.38307226,0.30645782,-9.672575,0.7284641,47.70211,-0.44922298,-2.4354298,-3.5015552,-0.3506646,0.03337812,0.0024196957,28.5,29.6875,28.9375,32.9375,35.375,36.375
0.022052025,-2.4460363,-0.6549061,-0.411735,-0.04679503,0.06892681,-0.053291164,-0.38106233,-0.3484695,0.05984957,-3.078293,0.6248251,-0.0005115525,-0.007104145,0.0025873575,-0.0034358879,0.0047611482,-0.009260433,0.011466249,0.47772226,-1.425676,1.9576725,-2.1007345,-1.5708054,2.4526722,-0.011190993,0.018406544,-0.014637744,0.00663917,1.2248596e-08,-0.022648254,-0.5746084,0.34476504,-9.749189,0.79560274,47.69763,-0.5380462,-2.4122365,-3.5079153,-0.34659892,0.015210216,0.042265113,28.5,29.6875,28.9375,32.9375,35.375,36.375
0.024052143,-2.309371,-0.26005736,-0.39671168,-0.04241481,0.064823635,-0.084076636,-0.38107046,-0.3484882,0.05984951,-3.0783563,0.62478316,-0.00055537024,-0.009055289,0.0033013958,-0.0026095924,0.0056772945,-0.0073726196,0.007992536,0.47770953,-1.4256519,1.9576477,-2.100746,-1.5707463,2.4526253,-0.013172202,0.019103426,-0.017538382,0.0075953337,-0.0016845474,-0.021150924,-0.5363012,0.38307226,-9.864111,0.7418897,47.684196,-0.5895332,-2.452419,-3.458952,-0.32653528,0.0037980282,0.0019198305,28.5,29.6875,28.9375,32.9375,35.375,36.375
0.026051752,-1.9151306,-0.56228906,-0.382977,-0.03671138,0.058781084,-0.097441986,-0.38109356,-0.34850228,0.059862778,-3.078401,0.62473583,-0.000549595,-0.009908865,0.0035113895,-0.0022071989,0.0058186725,-0.007017496,0.0049442747,0.47769728,-1.4256277,1.9575871,-2.100734,-1.570722,2.4525778,-0.014147758,0.019600613,-0.019243745,0.008554936,-0.0019732832,-0.019076928,-0.61291564,0.28730422,-9.883265,0.7150385,47.675243,-0.6215194,-2.4104686,-3.4568686,-0.33432856,0.0074857064,-0.008785378,28.5,29.6875,28.9375,32.9375,35.375,36.375
0.028052557,-1.9269648,-0.69271624,-0.39643142,-0.029896745,0.044292722,-0.109485015,-0.381121,-0.34846684,0.05983276,-3.07833,0.6247231,-0.0006293256,-0.01056257,0.004327314,-0.0025764152,0.0065890155,-0.008646761,0.0015296371,0.47762465,-1.4255434,1.9575514,-2.1006978,-1.5707463,2.4525063,-0.016245235,0.0209593,-0.02028749,0.010040385,-0.0019087455,-0.017759293,-0.7661445,0.22984336,-9.80665,0.78217715,47.668976,-0.57919484,-2.375546,-3.480688,-0.34964475,-0.033289954,-0.005229063,28.5,29.6875,28.9375,32.9375,35.375,36.375
0.03005251,-1.7595384,-0.22413637,-0.45494324,-0.022149311,0.051553536,-0.13344625,-0.38112408,-0.34844825,0.05982266,-3.0782616,0.6247682,-0.0006517321,-0.011787611,0.0040605552,-0.0021100708,0.006212252,-0.0075831814,-5.6582863e-05,0.47761232,-1.4255191,1.9575385,-2.1006615,-1.5707825,2.4525309,-0.016802408,0.022194792,-0.022797858,0.010197616,-0.0020683461,-0.01672838,-0.6703765,0.15322891,-9.787497,0.70608455,47.68599,-0.56016845,-2.3712761,-3.4932337,-0.33699965,-0.053704247,-0.05171045,28.5,29.6875,28.9375,32.9375,35.375,36.375
0.03205236,-1.8759452,0.18171132,-0.19028328,-0.009131752,0.061438218,-0.1403153,-0.38113922,-0.34845588,0.059809998,-3.0782468,0.62480414,-0.000665225,-0.013472149,0.0043025627,-0.0011202167,0.0071997256,-0.0048078676,-0.0013866113,0.47761208,-1.4254591,1.9575018,-2.1006734,-1.570783,2.452555,-0.017389702,0.022606708,-0.025624534,0.010609511,-0.004225844,-0.015979549,-0.5554548,0.05746084,-9.80665,0.79560274,47.68599,-0.58566093,-2.3457406,-3.5009408,-0.32000148,-0.069112204,-0.065331325,28.5,29.6875,28.9375,32.9375,35.375,36.375
0.034052078,-1.7574364,0.4991235,-0.07339338,0.004901746,0.06859758,-0.15337494,-0.38119242,-0.3484521,0.05981503,-3.0782561,0.62474746,-0.0006389039,-0.013970735,0.004556373,-0.000982036,0.008575781,-0.0049330317,-0.0014571646,0.47756416,-1.4253869,1.957405,-2.1006606,-1.5707954,2.4524705,-0.017543813,0.023530345,-0.027346099,0.0121548865,-0.005390801,-0.016059946,-0.47884035,0.038307227,-9.749189,0.8090337,47.716442,-0.6056084,-2.3715403,-3.5112095,-0.31122375,-0.053473316,-0.09337723,28.5,29.6875,28.9375,32.9375,35.375,36.375
0.036052376,-1.665882,0.612595,-0.28417212,0.030582141,0.056203857,-0.15919073,-0.38123697,-0.34845048,0.05983735,-3.0782728,0.62473226,-0.00058319693,-0.015017787,0.004730663,-0.000933423,0.008808332,-0.0048016873,-0.0021855987,0.47752777,-1.4253623,1.9573206,-2.1006367,-1.5708073,2.4524226,-0.018646248,0.024999004,-0.029223079,0.012553952,-0.0056607863,-0.01643247,-0.4405331,-0.1340753,-9.672575,0.7732232,47.703903,-0.6050852,-2.3531654,-3.4880357,-0.32130507,-0.093416214,-0.09736962,28.5,29.6875,28.9375,32.9375,35.375,36.375
0.03805224,-1.8038292,0.45826462,-0.26313496,0.04015899,0.028718252,-0.16680305,-0.38125396,-0.34843877,0.059829623,-3.0782435,0.6247264,-0.000641628,-0.017189024,0.004577428,8.724306e-05,0.007834507,-0.0021499027,-0.0031666118,0.4774912,-1.4253141,1.9572724,-2.100589,-1.5708073,2.4523861,-0.020146636,0.025987653,-0.032587517,0.012128034,-0.006024188,-0.016948853,-0.38307226,-0.11492168,-9.672575,0.78217715,47.675243,-0.59830344,-2.3376532,-3.4242568,-0.31155506,-0.0973646,-0.10187411,28.5,29.6875,28.9375,32.9375,35.375,36.375
0.0400522,-0.9271688,0.38366404,-0.11426954,0.026023233,0.028262366,-0.18709436,-0.38129306,-0.34842926,0.059816197,-3.0782266,0.6248191,-0.00066601863,-0.018599214,0.0053386907,-4.4996537e-05,0.009942598,-0.00057404453,-0.003292509,0.47743094,-1.4252417,1.9572233,-2.1006014,-1.5707964,2.452386,-0.021112211,0.027599107,-0.03397762,0.011484835,-0.008626254,-0.017781727,-0.3256114,-0.076614454,-9.653421,0.68818194,47.691364,-0.5481309,-2.2762337,-3.3587527,-0.30224943,-0.10625143,-0.1245487,28.5,29.6875,28.9375,32.9375,35.375,36.375
0.042052075,-0.8210273,0.2490484,-0.13520288,0.016129462,0.014128694,-0.19006117,-0.38133442,-0.34840366,0.059829958,-3.0781744,0.62486565,-0.0005641717,-0.020028323,0.0059521897,0.00046952313,0.012203794,0.001937772,-0.0027355382,0.47739488,-1.4252294,1.9571751,-2.1005895,-1.5708698,2.4523857,-0.021465715,0.028300703,-0.03597923,0.011602477,-0.011793163,-0.018684505,-0.28730422,-0.076614454,-9.653421,0.784413,47.67793,-0.6514199,-2.3268714,-3.414359,-0.2855112,-0.07239125,-0.15436491,28.5,29.6875,28.9375,32.9375,35.375,36.375
0.044051994,-1.2915401,0.43718758,-0.26344606,-0.00035216613,0.00872445,-0.21416081,-0.38136774,-0.3484002,0.05982214,-3.078125,0.6249131,-0.00063764973,-0.021322498,0.0071142204,0.0007025881,0.01555366,0.0030797154,-0.0024145842,0.4773585,-1.4251333,1.9570669,-2.1005166,-1.5708708,2.4523852,-0.022450848,0.029363155,-0.03808361,0.013181116,-0.015296362,-0.019981222,-0.21068975,0.038307227,-9.595961,0.7530795,47.703903,-0.5902159,-2.2841704,-3.4086192,-0.291127,-0.038180426,-0.15511936,28.5,29.6875,28.9375,32.9375,35.375,36.375
0.046052653,-1.1373272,-0.113942385,-0.13633673,0.0060531413,0.015955688,-0.2214801,-0.38141948,-0.34840903,0.05984619,-3.0781868,0.6247531,-0.00055265875,-0.022577401,0.0075233593,0.0009951638,0.016015403,0.0036997555,-0.0026708667,0.477334,-1.4250971,1.9569706,-2.1005166,-1.5708827,2.452253,-0.023883305,0.030397197,-0.0400728,0.013799259,-0.015993914,-0.021155775,-0.19153614,0.17238252,-9.5385,0.7642693,47.69763,-0.5822873,-2.344168,-3.362784,-0.3039692,-0.030484289,-0.17630103,28.5,29.6875,28.9375,32.9375,35.375,36.375
0.04805252,-1.0854516,-0.21031445,0.10382057,-0.008554652,0.014953597,-0.23529662,-0.38148057,-0.34838188,0.059853643,-3.078125,0.624971,-0.0005543567,-0.023522303,0.0077518723,0.0012856876,0.016033519,0.00374827,-0.0028731578,0.47723758,-1.4250368,1.9568738,-2.1004684,-1.5708956,2.4523005,-0.025132252,0.0312457,-0.04192611,0.01476733,-0.01603541,-0.022201281,-0.11492168,0.19153613,-9.557653,0.7777002,47.704796,-0.5646396,-2.2684166,-3.4470136,-0.3219241,-0.027401973,-0.20217219,28.5,29.6875,28.9375,32.9375,35.375,36.375
0.050052155,-1.3177541,-0.9703082,-0.05239794,-0.0038790146,-0.0025008337,-0.24086945,-0.3815015,-0.34835967,0.059832186,-3.078066,0.6248619,-0.0006219608,-0.024275867,0.007142763,0.002102056,0.013817882,0.004541123,-0.002530665,0.4772013,-1.4249529,1.9568137,-2.1004088,-1.5709304,2.4522038,-0.02578301,0.031078832,-0.043638773,0.014917454,-0.014437541,-0.023195984,-0.11492168,0.22984336,-9.519346,0.7530795,47.68599,-0.63343835,-2.1525476,-3.4109678,-0.3054232,-0.049965795,-0.19800757,28.5,29.6875,28.9375,32.9375,35.375,36.375
0.052052084,-0.5091683,-0.3726076,0.07333705,-0.03998875,-0.0019463898,-0.2686458,-0.38156793,-0.34834495,0.05985043,-3.078054,0.6248398,-0.0005030333,-0.025197685,0.0071937228,0.0020342132,0.0139947375,0.0043949634,-0.0015367146,0.47715306,-1.4249046,1.9567169,-2.1004088,-1.5709909,2.4521434,-0.026662093,0.032773647,-0.04550348,0.015295913,-0.014531,-0.025068382,-0.076614454,0.38307226,-9.5385,0.82694155,47.693153,-0.6293062,-2.0703046,-3.398395,-0.30824313,-0.061248742,-0.2241176,28.5,29.6875,28.9375,32.9375,35.375,36.375
0.054052435,-0.46585694,-1.0310446,-0.026518142,-0.03902664,0.00021253787,-0.23957123,-0.38160425,-0.34833872,0.059846465,-3.0780392,0.62489367,-0.00057128933,-0.02640252,0.0073704403,0.0016418905,0.014552852,0.0039359704,-0.0008995376,0.47709256,-1.4248319,1.956632,-2.1003606,-1.5709666,2.4521184,-0.027898569,0.035467763,-0.04772593,0.015488386,-0.01482285,-0.026939357,0.019153614,0.38307226,-9.672575,0.7418897,47.70032,-0.61573213,-2.1971219,-3.3421593,-0.29680747,-0.06531608,-0.23892154,28.5,29.6875,28.9375,32.9375,35.375,36.375
0.05605264,-0.04684904,-1.3366574,-0.2765891,-0.038277224,0.013195892,-0.18460244,-0.3816656,-0.3483281,0.059856202,-3.0780072,0.624886,-0.00048328366,-0.027522797,0.007810142,0.0021610835,0.016399,0.0056431754,0.001195636,0.47705662,-1.4247597,1.9565247,-2.1003482,-1.5710276,2.452082,-0.02813502,0.036076967,-0.049787533,0.016277552,-0.01725062,-0.029264983,-0.11492168,0.4213795,-9.653421,0.7396539,47.667187,-0.66079783,-2.080973,-3.3279116,-0.2948618,-0.016571874,-0.23575737,28.5,29.6875,28.9375,32.9375,35.375,36.375
0.058052532,-0.1729699,-0.8200909,-0.048954632,-0.047914714,0.019190015,-0.18907855,-0.38173324,-0.3483229,0.05989726,-3.0780282,0.6248318,-0.00037384097,-0.028341433,0.007821952,0.002879962,0.016003292,0.006666006,0.0028775018,0.47700834,-1.4247357,1.9563926,-2.1003006,-1.5710639,2.4519973,-0.028829595,0.03589519,-0.051377285,0.016956199,-0.017370507,-0.031641573,-0.05746084,0.40222588,-9.442732,0.800085,47.683304,-0.6391425,-2.0182068,-3.4484344,-0.2924258,0.005207295,-0.23011726,28.5,29.6875,28.9375,32.9375,35.375,36.375
0.060052484,-0.8716311,-0.9794109,-0.028391667,-0.039725646,0.013577952,-0.18789624,-0.38178438,-0.34831578,0.059887182,-3.0779915,0.624901,-0.00041868893,-0.030055963,0.0070735374,0.0033862896,0.014620875,0.0070833,0.0030005053,0.47694805,-1.4246272,1.9562835,-2.1002638,-1.5710634,2.451985,-0.029747998,0.03847484,-0.055633318,0.017621985,-0.016343527,-0.032682188,0.05746084,0.38307226,-9.500193,0.7463667,47.690468,-0.6448755,-2.0549698,-3.2938073,-0.31276396,-0.02689565,-0.26025483,28.5,29.6875,28.9375,32.9375,35.375,36.375
0.062052354,-0.664514,-1.1661727,-0.013403349,-0.032447692,0.027460009,-0.18773761,-0.38183954,-0.3483083,0.059888415,-3.0779934,0.62490034,-0.00044697552,-0.029532287,0.007403946,0.0021535344,0.014725074,0.0040619983,0.0035076807,0.4768757,-1.4245427,1.9561762,-2.100228,-1.571051,2.451912,-0.030687807,0.040027015,-0.054628868,0.017791284,-0.0150482515,-0.034132108,-0.076614454,0.38307226,-9.595961,0.784413,47.699425,-0.7010008,-2.0861118,-3.3437662,-0.29427797,-0.028039634,-0.2477957,28.5,29.6875,28.9375,32.9375,35.375,36.375
0.064052254,-1.0332989,-0.8867736,-0.010417949,-0.028256841,0.014398279,-0.18581194,-0.38190335,-0.34829706,0.059897985,-3.0779977,0.6247659,-0.00037210985,-0.030685637,0.007076578,0.0018112507,0.01502525,0.00393297,0.005281805,0.4768277,-1.4244698,1.9560684,-2.1002162,-1.5710987,2.4517796,-0.03102926,0.043086506,-0.057310436,0.017663153,-0.015262645,-0.03624571,-0.019153614,0.4213795,-9.5385,0.75084364,47.655537,-0.7311301,-2.1308982,-3.4299712,-0.2772514,-0.04396243,-0.2538014,28.5,29.6875,28.9375,32.9375,35.375,36.375
0.06605215,-0.8534455,-0.9876867,0.069189854,-0.025758259,0.022256576,-0.18799607,-0.3819594,-0.34828117,0.059911266,-3.0779471,0.6248323,-0.00032173266,-0.032201696,0.0071317796,0.002087279,0.015880525,0.0051161656,0.0062576933,0.47677925,-1.4244093,1.9559582,-2.1001685,-1.5711473,2.4517791,-0.03167366,0.04505232,-0.06025947,0.01798902,-0.016572358,-0.03786146,-0.095768064,0.38307226,-9.442732,0.7866488,47.68599,-0.74270606,-2.2012937,-3.3104022,-0.2731298,-0.03321462,-0.29121563,28.5,29.6875,28.9375,32.9375,35.375,36.375
0.06805198,-1.0300783,-0.8407021,0.09966363,-0.012514429,0.014332264,-0.1807944,-0.38203335,-0.34828168,0.05992433,-3.0779653,0.6247767,-0.00028072274,-0.03427366,0.005924104,0.0045681307,0.012534237,0.009680604,0.0071013095,0.4767193,-1.4243137,1.9558138,-2.1001441,-1.5711588,2.4516823,-0.03199796,0.043753468,-0.06442033,0.01785247,-0.01570292,-0.03902975,-0.2681506,0.30645782,-9.3661175,0.8090337,47.67345,-0.7582677,-2.163985,-3.1593914,-0.2625367,-0.03462678,-0.28574297,28.5,29.6875,28.9375,32.9375,35.375,36.375
0.07005194,-0.8250046,-0.5481167,0.16354485,-0.0024467618,0.023743397,-0.18055,-0.3821061,-0.34827664,0.05994875,-3.077986,0.62472194,-0.00020075141,-0.032953136,0.0066436324,0.0021511177,0.015356102,0.0047495062,0.008705286,0.4766592,-1.424253,1.9556831,-2.1001198,-1.5711836,2.4515855,-0.03189796,0.04690802,-0.06267397,0.018625816,-0.015941244,-0.040534474,-0.21068975,0.24899697,-9.404425,0.70608455,47.705692,-0.84823227,-2.0810099,-3.3110366,-0.252729,-0.04843489,-0.30749804,28.5,29.6875,28.9375,32.9375,35.375,36.375
0.07205185,-0.86587524,-0.5788046,0.22619447,0.0059131575,0.030538296,-0.18540926,-0.38215724,-0.3482723,0.059943005,-3.0779603,0.6246978,-0.00023254633,-0.034317788,0.0058923396,0.0027724642,0.0146888085,0.0054719746,0.008751873,0.47661132,-1.4241444,1.9555615,-2.1000721,-1.5711945,2.451526,-0.03198413,0.048939615,-0.066641554,0.019611515,-0.015687661,-0.040665116,-0.19153613,0.22984336,-9.251195,0.7597976,47.666286,-0.87006134,-2.1795416,-3.1284695,-0.24681473,-0.05902613,-0.3296643,28.5,29.6875,28.9375,32.9375,35.375,36.375
0.07405173,-0.86208045,0.09154191,0.4606831,-0.002644497,0.034057595,-0.18924649,-0.3822139,-0.34824523,0.059935752,-3.0779111,0.62468666,-0.00026914707,-0.03474417,0.006440317,0.00228825,0.016142063,0.0042806864,0.010035312,0.47652704,-1.424048,1.9554542,-2.1000116,-1.5712193,2.451441,-0.03285988,0.05058944,-0.06767309,0.020717477,-0.016435977,-0.042821337,-0.30645782,0.22984336,-9.174581,0.7777002,47.733456,-0.93719393,-2.1920185,-3.2062306,-0.22557825,-0.055680133,-0.33394086,28.5,29.6875,28.9375,32.9375,35.375,36.375
0.07605181,-1.1788852,-0.02337839,0.38196495,0.006087882,0.032765035,-0.1838252,-0.38230088,-0.3482546,0.059951786,-3.0779495,0.6245977,-0.00017121791,-0.035731487,0.0062008104,0.002595814,0.016025774,0.0047204695,0.012075363,0.47647882,-1.4239398,1.9552969,-2.1000235,-1.5712432,2.4513326,-0.03327279,0.05197401,-0.07009546,0.021308146,-0.016537359,-0.04527378,-0.26815057,0.095768064,-9.193734,0.7665104,47.694054,-1.0003489,-2.0670488,-3.1075053,-0.21058938,-0.067933194,-0.33209682,28.5,29.6875,28.9375,32.9375,35.375,36.375
0.07805173,-0.6006373,0.34188178,0.50527775,-0.0019014514,0.04823332,-0.19302198,-0.38235444,-0.34824207,0.05994614,-3.0778773,0.62462103,-0.00021041947,-0.037005678,0.006172052,0.0030064546,0.016160173,0.005675083,0.010345516,0.47643062,-1.4238195,1.9551533,-2.099939,-1.5712794,2.4513083,-0.034026653,0.053273745,-0.07262294,0.021749511,-0.017101236,-0.04429418,-0.15322891,0.0,-9.251195,0.7665104,47.683304,-0.99287486,-2.1310773,-3.139779,-0.20621532,-0.057316266,-0.378492,28.5,29.6875,28.9375,32.9375,35.375,36.375
0.08005159,-0.399433,0.5211495,0.63498056,0.00196633,0.051889416,-0.19546705,-0.3824682,-0.34823135,0.05998167,-3.0779104,0.6246271,-8.461976e-05,-0.037795838,0.0063417037,0.0030721994,0.017009217,0.0055844355,0.011306732,0.47632244,-1.4237353,1.9549731,-2.0999267,-1.5713037,2.4511998,-0.034583166,0.05466937,-0.07461046,0.022809895,-0.017813556,-0.045810837,-0.30645782,0.038307227,-9.212888,0.7217513,47.705692,-1.0632801,-2.1368437,-3.0306702,-0.19986498,-0.07789561,-0.38761878,28.5,29.6875,28.9375,32.9375,35.375,36.375
0.08205236,-0.78000563,0.5180124,0.46304083,0.0062034344,0.037707288,-0.19339402,-0.38253018,-0.348214,0.059973348,-3.0778737,0.6245615,-0.00011967286,-0.0383699,0.006263919,0.0029219962,0.017321212,0.004910985,0.013371301,0.47625017,-1.4236147,1.954841,-2.099867,-1.571328,2.4510913,-0.034984875,0.05637021,-0.07640372,0.023639599,-0.017788118,-0.048275325,-0.30645782,0.019153614,-9.346964,0.7978386,47.711964,-1.0640807,-2.1107316,-3.0669699,-0.17663404,-0.07415879,-0.37839413,28.5,29.6875,28.9375,32.9375,35.375,36.375
0.08405218,-1.2517945,-0.018986793,0.35751083,0.026048722,0.031552132,-0.18325056,-0.38260624,-0.34819725,0.059977517,-3.0778522,0.62453467,-0.000111124864,-0.03944248,0.0063009993,0.0031081566,0.017927082,0.0053564026,0.016949037,0.47616604,-1.4235066,1.954697,-2.099819,-1.5713524,2.4509933,-0.03554503,0.05794631,-0.07879025,0.024328856,-0.01853807,-0.052410077,-0.19153613,0.05746084,-9.251195,0.74413085,47.70211,-1.1125455,-2.184214,-3.0692897,-0.16867012,-0.07181829,-0.3879357,28.5,29.6875,28.9375,32.9375,35.375,36.375
0.086052515,-1.2418394,0.11113111,0.3458556,0.009070628,0.033854228,-0.17622486,-0.38268012,-0.3481847,0.05997918,-3.0778039,0.62437016,-5.7911795e-05,-0.040268783,0.006357718,0.003400376,0.018336717,0.0057116463,0.017806504,0.47613,-1.4233744,1.9545287,-2.0997589,-1.5714363,2.450861,-0.03605677,0.0588948,-0.08074538,0.025203265,-0.019069511,-0.05377674,-0.21068975,0.19153613,-9.136273,0.84484416,47.72271,-1.1786805,-2.0945494,-3.0333128,-0.16460474,-0.0833057,-0.3548906,28.5,29.6875,28.9375,32.9375,35.375,36.375
0.08805254,-1.1566284,0.036894083,0.35545865,-0.0059715942,0.031947788,-0.18155378,-0.38277012,-0.3481707,0.059999228,-3.077802,0.6243118,4.397886e-06,-0.041016128,0.006998295,0.002182455,0.019858714,0.0033425407,0.016923917,0.4760454,-1.4232771,1.9543608,-2.0997107,-1.571472,2.4507403,-0.037700534,0.062422697,-0.08214964,0.025879614,-0.019337665,-0.054536648,-0.24899697,0.19153613,-9.232041,0.8314132,47.703007,-1.202799,-2.1734798,-3.0155573,-0.15031825,-0.09227625,-0.38411742,28.5,29.6875,28.9375,32.9375,35.375,36.375
0.090052366,-1.2210493,-0.36595,0.057763252,-0.012536461,0.027234102,-0.17656387,-0.3828462,-0.34816498,0.059999876,-3.0778005,0.6242713,1.6382024e-05,-0.041807763,0.007362192,0.0026703714,0.020778209,0.0046257204,0.02077663,0.47597313,-1.4231571,1.9542168,-2.0996869,-1.5714844,2.450643,-0.038152047,0.062417824,-0.08338224,0.026397156,-0.020747803,-0.058837324,-0.28730422,0.2681506,-9.270349,0.7709874,47.690468,-1.1917162,-2.2732496,-3.0457373,-0.12734815,-0.07507148,-0.36825162,28.5,29.6875,28.9375,32.9375,35.375,36.375
0.09205227,-0.6425855,-0.21172929,0.32673004,-0.025430765,0.039365564,-0.18973902,-0.38293839,-0.34814104,0.060003266,-3.0777488,0.62422043,1.8672608e-05,-0.042519405,0.007514041,0.0030359335,0.021406252,0.005224678,0.02410971,0.47587723,-1.4230129,1.9540251,-2.0996025,-1.5715331,2.4505222,-0.038521815,0.06292885,-0.08500345,0.02725745,-0.021587363,-0.06253686,-0.30645782,0.17238252,-9.32781,0.8403672,47.690468,-1.2646182,-2.086641,-3.07443,-0.11385581,-0.06476239,-0.32059056,28.5,29.6875,28.9375,32.9375,35.375,36.375
0.094052196,-0.8673872,-0.26880085,0.21039268,-0.02463397,0.03144711,-0.18676962,-0.38302276,-0.3481218,0.0600017,-3.0777109,0.62413454,6.1030885e-05,-0.04300741,0.008650162,0.0019928834,0.021860367,0.0017250649,0.024267787,0.475804,-1.42288,1.9538687,-2.0995657,-1.5715927,2.4504004,-0.041756008,0.06506124,-0.08542722,0.028854733,-0.020388953,-0.06593128,-0.28730422,0.19153613,-9.3661175,0.7620334,47.709274,-1.1704755,-2.121339,-3.0961847,-0.09232909,-0.073559,-0.2844959,28.5,29.6875,28.9375,32.9375,35.375,36.375
0.09605175,-0.5939218,-0.08840812,0.19202174,-0.021504672,0.0347441,-0.19335501,-0.38311014,-0.34812444,0.060015053,-3.0777292,0.62390614,6.78495e-05,-0.04429148,0.008343796,0.0014798464,0.022978883,0.0004959995,0.027341945,0.47574392,-1.4227344,1.9536527,-2.0994818,-1.571617,2.4501956,-0.042100962,0.06935548,-0.08947767,0.030211158,-0.020829936,-0.06934672,-0.3256114,0.22984336,-9.404425,0.8112748,47.696735,-1.2001195,-2.2914076,-3.1057565,-0.09281263,-0.10194191,-0.27720103,28.5,29.6875,28.9375,32.9375,35.375,36.375
0.098052055,-0.801861,-0.2258044,0.14092706,-0.008324026,0.032647848,-0.18304592,-0.383191,-0.34809902,0.060009994,-3.077693,0.6239335,8.115622e-06,-0.04339354,0.00839893,0.0017317107,0.023287952,0.00063640444,0.031872705,0.47562438,-1.4226029,1.9534978,-2.0994098,-1.571617,2.4500978,-0.041137677,0.06752364,-0.088065706,0.030642916,-0.021172397,-0.072913505,-0.05746084,0.19153613,-9.423578,0.7396539,47.6636,-1.3214221,-2.0434732,-3.2145522,-0.076583475,-0.07962961,-0.2053474,28.5,29.6875,28.9375,32.9375,35.375,36.375
0.10005188,-0.82757497,0.036857694,0.22906986,-0.009954758,0.030303622,-0.18771644,-0.38328564,-0.34807864,0.06001465,-3.0776567,0.62377244,0.0001153401,-0.044983372,0.009172648,0.0012128195,0.024106577,-0.00076477433,0.032360718,0.47556317,-1.4224697,1.9533294,-2.0993855,-1.5717129,2.449941,-0.043905128,0.07063616,-0.09070149,0.031775158,-0.021264127,-0.07616743,-0.11492168,0.19153613,-9.404425,0.7486078,47.71017,-1.3475934,-2.1356916,-3.2612352,-0.062862664,-0.10841721,-0.17723265,28.5,29.6875,28.9375,32.9375,35.375,36.375
0.10205177,-1.154714,-0.3757704,0.045755,-0.0023089293,0.01735044,-0.17657293,-0.38338086,-0.34804454,0.059997957,-3.0776162,0.62368613,6.426226e-05,-0.04582624,0.00984599,0.00075786293,0.025389807,-0.0020112994,0.032678537,0.4754308,-1.4223007,1.9531606,-2.099325,-1.5717372,2.44976,-0.04548693,0.07270965,-0.09232365,0.03301481,-0.021842923,-0.07806354,-0.17238252,0.2681506,-9.251195,0.8090337,47.704796,-1.2338623,-2.1956282,-3.0518942,-0.050568216,-0.1194209,-0.13662747,28.5,29.6875,28.9375,32.9375,35.375,36.375
0.10405249,-1.2268811,-0.6185492,-0.07191086,0.00049031177,0.009215398,-0.16867575,-0.3834439,-0.3480294,0.05998877,-3.077561,0.6235815,8.930955e-06,-0.04687087,0.011385048,0.00020763892,0.027303275,-0.0033640051,0.02889178,0.4753697,-1.4221562,1.9529947,-2.099229,-1.5717739,2.4496408,-0.048466075,0.07424435,-0.093136534,0.034372177,-0.022929648,-0.07725133,-0.22984336,0.19153613,-9.32781,0.8179876,47.686886,-1.1459204,-2.2010734,-3.3366973,-0.047898546,-0.0875594,-0.101917654,28.5,29.6875,28.9375,32.9375,35.375,36.375
0.10605241,-0.7180283,-0.13152988,0.070981435,-0.015630014,0.018599093,-0.17366292,-0.38355055,-0.3480218,0.060004793,-3.0775685,0.6234855,4.4747343e-05,-0.046999738,0.011563732,-0.00035561903,0.028280878,-0.0048614223,0.029991802,0.47527355,-1.4220113,1.9527787,-2.0991685,-1.5717977,2.4494839,-0.04876776,0.075987265,-0.09407065,0.035337176,-0.023115456,-0.0786523,-0.15322891,0.19153613,-9.32781,0.8314132,47.68062,-1.1528367,-2.2569077,-3.305511,-0.055628937,-0.1138477,-0.07021337,28.5,29.6875,28.9375,32.9375,35.375,36.375
0.10805243,-0.99885553,-0.051533084,-0.0367456,-0.01588466,0.012958627,-0.17326626,-0.38365275,-0.34799454,0.060013097,-3.0775216,0.6234391,0.00011639191,-0.047118824,0.011171038,8.737788e-05,0.028035643,-0.0045970846,0.026980605,0.47517785,-1.4218792,1.952598,-2.0991209,-1.5718697,2.4493654,-0.048230983,0.07600299,-0.09530643,0.036206268,-0.02301729,-0.075104155,-0.1340753,0.15322891,-9.3661175,0.8851263,47.684196,-1.3424923,-2.144819,-3.2988076,-0.045138657,-0.1448516,-0.1154405,28.5,29.6875,28.9375,32.9375,35.375,36.375
0.11005237,-1.3654846,-0.34679037,0.008540007,0.0016278578,0.0012689704,-0.16562812,-0.3837673,-0.34797055,0.060023673,-3.0774744,0.6233539,0.00014249167,-0.04786143,0.012466145,-0.00056614255,0.0295942,-0.006789053,0.022922978,0.4750689,-1.4217106,1.9523591,-2.099024,-1.5719298,2.4492095,-0.05094707,0.0777479,-0.09623743,0.038050685,-0.023400962,-0.07376072,-0.15322891,0.05746084,-9.346964,0.7217513,47.696735,-1.2726619,-2.0987716,-3.3959732,-0.023702852,-0.13991629,-0.108741045,28.5,29.6875,28.9375,32.9375,35.375,36.375
0.11205241,-0.6245956,-0.023846462,0.15180594,0.0027181995,0.017078046,-0.18335791,-0.38388523,-0.347937,0.060030717,-3.0774503,0.6233318,0.00017615144,-0.04954285,0.012996119,-9.155954e-05,0.030038876,-0.0064676497,0.02059405,0.47492424,-1.4215659,1.9521664,-2.0989754,-1.5719656,2.4490542,-0.05305818,0.07921802,-0.09937058,0.039627533,-0.023949184,-0.07354009,-0.21068975,0.11492168,-9.346964,0.8112748,47.687782,-1.1303685,-2.102245,-3.4162188,-0.046899155,-0.14353736,-0.100424476,28.5,29.6875,28.9375,32.9375,35.375,36.375
0.114052355,-0.93080807,-0.11030225,0.25574628,0.004069447,0.023352556,-0.17458032,-0.38397092,-0.34790957,0.060022507,-3.0773952,0.62322646,0.00014941211,-0.049611192,0.012969467,-0.00053816044,0.029419422,-0.0065104133,0.01566062,0.47482806,-1.4214095,1.9519876,-2.098893,-1.5720137,2.4488995,-0.05342809,0.07970526,-0.098569684,0.03809277,-0.02338223,-0.06897659,-0.22984336,0.11492168,-9.270349,0.7597976,47.687782,-1.2214015,-2.0322099,-3.5371656,-0.004278515,-0.15890072,-0.17510462,28.5,29.6875,28.9375,32.9375,35.375,36.375
0.116051726,-0.9578043,-0.18246397,0.1437487,0.0030749629,0.030845897,-0.17646855,-0.38407385,-0.34792435,0.060043454,-3.0774343,0.6230624,0.0001894131,-0.051399495,0.0128513295,0.0003025848,0.028573075,-0.005454562,0.013521997,0.47476748,-1.4212528,1.9517468,-2.0988324,-1.5720257,2.4487317,-0.055017244,0.08098624,-0.1021998,0.03911355,-0.023116617,-0.068426535,-0.24899697,0.19153613,-9.270349,0.86498255,47.69763,-1.1738458,-2.0832052,-3.6164656,0.011748569,-0.16633362,-0.20836794,28.5,29.6875,28.9375,32.9375,35.375,36.375
0.11805236,-1.2385957,-0.30881312,0.14210385,0.0055617155,0.030226937,-0.17445137,-0.38417363,-0.34789738,0.06002307,-3.0773525,0.62304586,0.00014605229,-0.05205584,0.013169255,0.0005301858,0.028951012,-0.005856273,0.011649167,0.47465917,-1.4210486,1.9515432,-2.0987594,-1.5720738,2.4486237,-0.056065068,0.081657015,-0.10384108,0.040610123,-0.023275366,-0.06759883,-0.24899697,0.15322891,-9.385271,0.84484416,47.704796,-1.2011428,-1.9775069,-3.433456,0.014651382,-0.19804278,-0.21668664,28.5,29.6875,28.9375,32.9375,35.375,36.375
0.12005237,-0.4895708,0.470326,0.21076238,-0.007533879,0.049525637,-0.17940018,-0.38425285,-0.34786418,0.060026843,-3.0772858,0.622975,7.918485e-05,-0.05307661,0.013509336,0.0008838717,0.029553352,-0.005726019,0.010484085,0.47455075,-1.4209161,1.9513506,-2.0986164,-1.5721096,2.4484797,-0.057199903,0.082614936,-0.10607888,0.04204671,-0.02387974,-0.067564115,-0.3256114,0.19153613,-9.3661175,0.7553206,47.704796,-1.1822481,-1.8949145,-3.451447,0.024348434,-0.20698452,-0.2616342,28.5,29.6875,28.9375,32.9375,35.375,36.375
0.1220523,-1.4764776,0.14686117,-0.12838213,0.004964092,0.019504257,-0.17309424,-0.38437518,-0.347822,0.06002,-3.077201,0.6229768,0.00012747629,-0.053653337,0.014412834,-0.0005265334,0.032954983,-0.009096195,0.009281674,0.47441843,-1.4207343,1.951147,-2.0985668,-1.572194,2.4483595,-0.058350123,0.08695985,-0.10841602,0.04458756,-0.025369573,-0.067506,-0.40222588,0.15322891,-9.385271,0.8314132,47.681515,-1.2219098,-2.0895886,-3.4156542,0.0042887405,-0.20955467,-0.28381136,28.5,29.6875,28.9375,32.9375,35.375,36.375
0.12405229,-1.0049336,0.12658651,0.021825861,0.0014532342,0.044189278,-0.19451736,-0.38449335,-0.3478265,0.06006428,-3.07722,0.6229036,0.00019680736,-0.05524277,0.014555897,0.001396766,0.03180301,-0.0053084367,0.008305425,0.47433406,-1.4206032,1.9508713,-2.0984595,-1.5722188,2.4482272,-0.05958121,0.08481962,-0.11042709,0.044841513,-0.0260783,-0.06775935,-0.36391866,0.1340753,-9.442732,0.7732232,47.6421,-1.2005379,-1.8332338,-3.440822,0.001569729,-0.21778864,-0.31411552,28.5,29.6875,28.9375,32.9375,35.375,36.375
0.12605177,-0.8975045,-0.14578578,-0.25595507,-0.008897846,0.049236037,-0.18476848,-0.38460815,-0.34777603,0.060051184,-3.0771224,0.62288374,0.00015014086,-0.05589889,0.014450592,0.00046050438,0.032193486,-0.0073300223,0.008107072,0.4741779,-1.4204097,1.9506553,-2.0983517,-1.5722784,2.4480712,-0.06034164,0.088334106,-0.112428024,0.045293752,-0.025515353,-0.0683193,-0.3256114,0.095768064,-9.519346,0.81351066,47.699425,-1.1880846,-1.9252963,-3.419139,0.033763397,-0.24394977,-0.36187854,28.5,29.6875,28.9375,32.9375,35.375,36.375
0.12805174,-1.3494929,-0.60256654,-0.29990876,-0.01248681,0.048373032,-0.17586574,-0.38471854,-0.34773397,0.060036223,-3.0770488,0.622831,0.000107899934,-0.055930633,0.015269735,0.00108486,0.033329744,-0.008632032,0.006931157,0.4740334,-1.420218,1.9504508,-2.0982664,-1.5723265,2.4479034,-0.061532024,0.08741226,-0.11368642,0.0491457,-0.025933841,-0.068331055,-0.34476504,0.19153613,-9.634268,0.8537928,47.661808,-1.2458166,-1.8576612,-3.477283,0.009326385,-0.24350256,-0.37681305,28.5,29.6875,28.9375,32.9375,35.375,36.375
0.13005213,-1.032971,-0.24377505,-0.26453105,-0.032258045,0.055916764,-0.19060208,-0.3848146,-0.34770444,0.060040046,-3.0769815,0.6227792,7.832392e-05,-0.057629548,0.016563429,0.0013487124,0.034203604,-0.009679526,0.0037297392,0.4739242,-1.4200613,1.9502352,-2.0981452,-1.5723747,2.4477706,-0.065165386,0.08880522,-0.116522565,0.051914018,-0.026240386,-0.06875946,-0.38307226,0.15322891,-9.710882,0.83813137,47.703007,-1.1183722,-1.8436846,-3.4466505,-0.020538282,-0.26548886,-0.40222198,28.5,29.6875,28.9375,32.9375,35.375,36.375
0.13205215,-1.4518069,-0.08426933,-0.33729565,-0.023948848,0.045399867,-0.18795775,-0.38493568,-0.34768423,0.06005218,-3.0769558,0.62277275,8.503618e-05,-0.057229053,0.015929997,0.0012327848,0.035451252,-0.0110078445,0.0062142955,0.4737929,-1.4198924,1.9499949,-2.0980608,-1.5723985,2.4476388,-0.06332746,0.09036892,-0.11856571,0.05414039,-0.026748756,-0.0694035,-0.4405331,0.15322891,-9.691729,0.83365434,47.682407,-1.180681,-1.8278176,-3.4282715,-0.04414367,-0.26450908,-0.4563575,28.5,29.6875,28.9375,32.9375,35.375,36.375
0.13405205,-1.6287605,-0.46335575,-0.31683588,-0.0055817408,0.040060647,-0.17549247,-0.38506028,-0.34764966,0.06006809,-3.0768542,0.6227903,0.00010743624,-0.058563218,0.01658036,0.0018301095,0.03609291,-0.01113164,0.006327566,0.4736722,-1.419712,1.9497193,-2.0979168,-1.572483,2.4475422,-0.06534044,0.09120156,-0.121449515,0.05658332,-0.027273381,-0.07152588,-0.4213795,0.22984336,-9.595961,0.7933669,47.668976,-1.2182587,-1.7509292,-3.3758068,-0.070792414,-0.29136974,-0.4731595,28.5,29.6875,28.9375,32.9375,35.375,36.375
0.1360524,-1.029834,0.35661286,-0.19724877,-0.011969478,0.05333656,-0.18746342,-0.3851894,-0.34760812,0.06005539,-3.0767882,0.6227188,0.00013157762,-0.060753014,0.017491065,0.0019670005,0.036561728,-0.012051613,0.004854688,0.47352695,-1.4195068,1.9495023,-2.0978677,-1.572555,2.447361,-0.06892694,0.0939335,-0.12542018,0.058841463,-0.027283957,-0.07363654,-0.40222588,0.13407528,-9.615114,0.8023209,47.653748,-1.1200371,-1.746747,-3.3060553,-0.09904769,-0.30399308,-0.5038287,28.5,29.6875,28.9375,32.9375,35.375,36.375
0.1380522,-1.1031635,0.13408232,-0.3455444,0.011263029,0.043928627,-0.17385307,-0.38529578,-0.347575,0.060049154,-3.076722,0.6227391,1.0823086e-05,-0.060225073,0.01789927,0.0006085799,0.039416704,-0.015868247,0.011463203,0.473371,-1.4193137,1.9492625,-2.0977232,-1.572555,2.4472263,-0.06861909,0.09706532,-0.12651946,0.06149396,-0.028102478,-0.07993158,-0.34476504,0.019153614,-9.691729,0.8314132,47.652847,-0.9855584,-1.7302562,-3.2127821,-0.14492005,-0.31319284,-0.48165125,28.5,29.6875,28.9375,32.9375,35.375,36.375
0.14005208,-1.4761757,0.30864608,-0.36347052,0.007153621,0.028979767,-0.17851125,-0.3854173,-0.3475436,0.060049985,-3.0766523,0.62260807,5.0603385e-06,-0.06217259,0.017527904,0.0016870706,0.03878546,-0.0148336245,0.013681715,0.47325078,-1.419109,1.9489988,-2.0976026,-1.572627,2.4470334,-0.0697642,0.098805666,-0.13143688,0.06344631,-0.02803243,-0.08329142,-0.40222588,0.076614454,-9.615114,0.77545905,47.687782,-1.1948152,-1.7893207,-3.1655543,-0.16072105,-0.33623934,-0.45311454,28.5,29.6875,28.9375,32.9375,35.375,36.375
0.14205202,-0.57450724,0.12178639,-0.3034755,-0.0021955515,0.04732209,-0.1901366,-0.38554773,-0.3474913,0.060061786,-3.0765498,0.6226216,2.5239204e-05,-0.062340666,0.019372499,-0.00066970004,0.042720996,-0.020268036,0.019301638,0.4730938,-1.418939,1.948747,-2.09747,-1.5727118,2.4468982,-0.07248836,0.10337699,-0.1318576,0.06590131,-0.029077653,-0.09163041,-0.2873042,0.13407528,-9.500193,0.75755644,47.679718,-1.0522966,-2.0889091,-3.1835537,-0.20420459,-0.33222213,-0.4123724,28.5,29.6875,28.9375,32.9375,35.375,36.375
0.14405188,-0.9674383,0.113095805,-0.24360237,-0.004123135,0.029394528,-0.18336652,-0.38569173,-0.3474818,0.06010448,-3.0765882,0.6224543,9.3337105e-05,-0.06385733,0.019911014,0.000812152,0.04261497,-0.018164236,0.0227714,0.47296122,-1.4187833,1.9484466,-2.0973623,-1.5727361,2.4466565,-0.07423159,0.1022703,-0.13436899,0.06758435,-0.029953135,-0.09684106,-0.21068975,0.19153613,-9.461885,0.76874626,47.707485,-1.0191007,-1.8302631,-3.1684551,-0.25086874,-0.36425322,-0.35653988,28.5,29.6875,28.9375,32.9375,35.375,36.375
0.14605218,-1.1993656,-0.1791465,-0.17493662,-0.020704601,0.03267674,-0.18146102,-0.3858015,-0.34743506,0.060066517,-3.0764608,0.622348,-4.4080058e-05,-0.063619554,0.020593408,-0.0016078379,0.04556518,-0.023011677,0.028575404,0.47281697,-1.4185172,1.9481958,-2.0972183,-1.5727962,2.4464624,-0.074914336,0.10731601,-0.1348982,0.068704404,-0.030402793,-0.10332083,-0.34476504,0.19153613,-9.404425,0.84708,47.705692,-0.97193635,-2.1089525,-3.1968994,-0.29268235,-0.35199767,-0.28895923,28.5,29.6875,28.9375,32.9375,35.375,36.375
0.14805217,-1.3089602,-1.0791311,-0.17051259,-0.01868459,0.048019428,-0.17705715,-0.38593593,-0.34740332,0.060091738,-3.0764327,0.6220899,-1.9597775e-05,-0.06484086,0.020955954,-0.0011745158,0.045463447,-0.021944787,0.031736508,0.4726846,-1.4183371,1.9478964,-2.0970623,-1.5728682,2.4461727,-0.07637547,0.10777262,-0.13644175,0.06877483,-0.030818708,-0.10793984,-0.4213795,0.19153613,-9.423578,0.83813137,47.693153,-1.0087328,-1.8910812,-3.1884713,-0.32588714,-0.3832502,-0.21800864,28.5,29.6875,28.9375,32.9375,35.375,36.375
0.15005252,-2.114684,-1.2093558,0.03934554,-0.021870837,0.04629224,-0.1721244,-0.38607636,-0.34734502,0.06008806,-3.0763404,0.62209004,-4.896947e-05,-0.06787046,0.020376638,0.00045109747,0.043316115,-0.017661877,0.032053526,0.4724918,-1.4181324,1.9476432,-2.0969431,-1.5729278,2.445992,-0.07803535,0.10889759,-0.14119822,0.06759879,-0.030887885,-0.10991167,-0.4405331,0.19153613,-9.3661175,0.83589023,47.704796,-0.900712,-1.9711436,-3.2197547,-0.33130085,-0.39460236,-0.16723219,28.5,29.6875,28.9375,32.9375,35.375,36.375
0.15205245,-1.2012529,-0.5759319,0.27064875,-0.03041159,0.072162546,-0.18610893,-0.386225,-0.34732682,0.06010533,-3.0763237,0.62191296,-6.000775e-05,-0.06846208,0.02084927,-1.5281486e-05,0.04368166,-0.016716063,0.031616922,0.47234774,-1.417904,1.9473094,-2.0968006,-1.5729645,2.4457397,-0.07888348,0.1095406,-0.14041087,0.065485954,-0.0316569,-0.11031938,-0.38307226,0.19153613,-9.346964,0.7486078,47.70211,-0.8457569,-1.8034217,-3.23728,-0.32723072,-0.40756828,-0.13542539,28.5,29.6875,28.9375,32.9375,35.375,36.375
0.15405239,-2.1043787,-0.74706966,0.35812768,-0.024639048,0.05370046,-0.1679484,-0.38638663,-0.34728625,0.060133126,-3.0762498,0.6219004,3.3225337e-05,-0.07095057,0.021367026,0.00010563079,0.043281235,-0.013319929,0.026617711,0.47219086,-1.4177113,1.946998,-2.0966818,-1.5730609,2.4455848,-0.08125825,0.11116611,-0.14178196,0.062020198,-0.032856345,-0.10768935,-0.38307226,0.24899697,-9.251195,0.78888994,47.684196,-0.8244258,-1.8815869,-3.25987,-0.3115201,-0.42085552,-0.13125516,28.5,29.6875,28.9375,32.9375,35.375,36.375
0.15605241,-1.9050678,-0.7863984,0.44494256,-0.016467558,0.048007324,-0.1752537,-0.3865413,-0.3472396,0.060144473,-3.0762093,0.62179923,3.464373e-05,-0.07199616,0.022036714,-0.00083425664,0.044342563,-0.013396358,0.020929014,0.4719985,-1.4175063,1.94671,-2.0965626,-1.573109,2.4453347,-0.08276929,0.11363407,-0.14212847,0.060451753,-0.03377304,-0.10350654,-0.40222588,0.095768064,-9.193734,0.8314132,47.67614,-0.80135727,-1.8731742,-3.3733473,-0.28776756,-0.438257,-0.17830226,28.5,29.6875,28.9375,32.9375,35.375,36.375
0.15805171,-1.652336,-0.38424858,0.5273312,-0.0020545356,0.035135135,-0.17515528,-0.38666585,-0.3471913,0.06011889,-3.076086,0.6217762,-1.6988042e-06,-0.074554354,0.021783447,1.326955e-05,0.04321086,-0.008252103,0.015172745,0.47185403,-1.4172657,1.9464711,-2.0964682,-1.5731934,2.4451919,-0.08374934,0.11453905,-0.14424516,0.05657066,-0.03512157,-0.09872049,-0.38307226,0.019153614,-9.136273,0.7978386,47.690468,-0.77148736,-1.8280556,-3.3514655,-0.26171505,-0.44428685,-0.20316261,28.5,29.6875,28.9375,32.9375,35.375,36.375
0.16005257,-1.2744019,0.16172586,0.5372538,-0.0005794786,0.035288975,-0.17784415,-0.38683096,-0.34716076,0.060133364,-3.076082,0.6216254,0.000113375965,-0.077388145,0.02290648,-0.0002739787,0.04369141,-0.004869041,0.008296402,0.47169688,-1.4170606,1.946195,-2.0964339,-1.5732664,2.4449413,-0.087005146,0.116741955,-0.14522605,0.052557558,-0.037091605,-0.09509283,-0.40222588,0.076614454,-9.040505,0.7396539,47.687782,-0.6840952,-1.8635445,-3.4657388,-0.18097092,-0.4274811,-0.2840265,28.5,29.6875,28.9375,32.9375,35.375,36.375
0.16205245,-0.9775566,0.3302065,0.8593805,0.0064478843,0.04145958,-0.174932,-0.38700774,-0.3471192,0.060138907,-3.0760007,0.6216809,9.832984e-05,-0.078095816,0.021676315,-0.000806714,0.04492742,-0.0038283265,0.013265661,0.47149396,-1.4167953,1.9458479,-2.0963023,-1.573315,2.4447837,-0.084399916,0.12057351,-0.14813817,0.051259805,-0.03868928,-0.09744718,-0.34476504,0.11492168,-8.963891,0.800085,47.677036,-0.8290795,-1.8240013,-3.3836255,-0.14941147,-0.42731997,-0.2744659,28.5,29.6875,28.9375,32.9375,35.375,36.375
0.16405246,-1.0093436,0.9430263,0.82445556,0.0069559286,0.03971216,-0.18446955,-0.38715234,-0.34706342,0.060127735,-3.0758994,0.62154627,8.902812e-05,-0.07888796,0.021959187,0.0011789714,0.043757394,-0.0011722633,0.010573404,0.47132564,-1.416556,1.9455718,-2.0961826,-1.5734109,2.4445446,-0.08547334,0.117312126,-0.14929411,0.05276881,-0.03886046,-0.09582483,-0.34476504,0.038307227,-8.90643,0.8023209,47.684196,-0.846399,-1.8038038,-3.4331167,-0.13450849,-0.44949737,-0.32114285,28.5,29.6875,28.9375,32.9375,35.375,36.375
0.1660525,-0.69085443,0.62473154,0.7708371,0.021491883,0.049392298,-0.1850117,-0.38730744,-0.34702054,0.06013324,-3.075844,0.6215552,7.635191e-05,-0.08056834,0.023350328,-0.0008966328,0.046994578,-0.0034361044,0.008479281,0.47113255,-1.4163378,1.9452842,-2.0960748,-1.5734476,2.4443643,-0.08821731,0.123093486,-0.15109774,0.052271742,-0.04073161,-0.096464515,-0.28730422,0.0,-8.983045,0.8717007,47.67166,-0.62132454,-1.888417,-3.4692798,-0.11088227,-0.4477285,-0.33768526,28.5,29.6875,28.9375,32.9375,35.375,36.375
0.16805238,-1.2834078,0.5117435,0.5506717,0.015044924,0.042234972,-0.18691172,-0.38746932,-0.34698072,0.060142267,-3.0757558,0.62149656,0.00012582784,-0.08074457,0.02260825,7.3106974e-05,0.04830065,0.0006351871,0.011091792,0.4709778,-1.416098,1.9449614,-2.0959556,-1.5735449,2.4441845,-0.08507824,0.12209352,-0.15190257,0.051038165,-0.04375354,-0.09592493,-0.22984336,0.095768064,-9.097966,0.8157518,47.683304,-0.88212645,-1.7695538,-3.431109,-0.06456436,-0.41703862,-0.3648996,28.5,29.6875,28.9375,32.9375,35.375,36.375
0.17005233,-1.6058451,0.42592552,0.48859045,0.0002793561,0.036214087,-0.17887762,-0.38762307,-0.34690672,0.060128618,-3.075631,0.6214115,0.00015406548,-0.08249712,0.02332747,0.00041444795,0.051408153,0.0011038498,0.011689972,0.47078547,-1.415869,1.9447078,-2.0958588,-1.573666,2.4439554,-0.085970655,0.12468508,-0.15630639,0.053828787,-0.046753053,-0.097399116,-0.2681506,0.15322891,-9.078813,0.7396539,47.70211,-0.8639374,-1.8569317,-3.2848096,-0.047813565,-0.38444197,-0.3867594,28.5,29.6875,28.9375,32.9375,35.375,36.375
0.17205231,-1.032522,-0.23148692,0.39989805,0.012991704,0.045101184,-0.17124383,-0.3877814,-0.3468734,0.060119834,-3.075557,0.6212976,0.00014646137,-0.08327732,0.02372079,3.0715684e-05,0.054389928,0.0007511602,0.01524547,0.47062963,-1.4155918,1.9443849,-2.0957506,-1.5737385,2.4437382,-0.0857156,0.12734926,-0.15886398,0.055373315,-0.049270034,-0.100685716,-0.2681506,0.17238252,-9.097966,0.84708,47.64479,-0.9754572,-1.8674127,-3.2981362,-0.060150944,-0.34315103,-0.3906765,28.5,29.6875,28.9375,32.9375,35.375,36.375
0.17405222,-0.30444062,0.63349044,0.05422162,-0.008780867,0.035573326,-0.18761444,-0.387956,-0.3468217,0.06012487,-3.0754457,0.6212342,0.00017578634,-0.0842915,0.02340893,0.00059748394,0.053612534,0.0009466974,0.019376582,0.47044936,-1.4153271,1.9440368,-2.0956066,-1.5738462,2.443533,-0.08641468,0.12839885,-0.1616615,0.056557268,-0.04869109,-0.10551402,-0.15322891,0.17238252,-9.251195,0.7777002,47.696735,-0.92382526,-1.8613763,-3.347097,-0.021770215,-0.33053553,-0.37508208,28.5,29.6875,28.9375,32.9375,35.375,36.375
0.1760522,-0.45523763,0.1975633,-0.047945622,-0.020806748,0.017138826,-0.18550651,-0.38811317,-0.3467674,0.060096893,-3.075337,0.62107277,0.00017476265,-0.084386714,0.02457894,-0.00022899316,0.057269003,-0.00062303763,0.025097193,0.47028124,-1.4150382,1.9437498,-2.0955222,-1.5739554,2.4432783,-0.086876035,0.1301222,-0.16219209,0.05838994,-0.05126471,-0.11168151,-0.076614454,0.21068975,-9.404425,0.83365434,47.688675,-0.98946905,-1.9008416,-3.264897,-0.024728492,-0.32864165,-0.31372538,28.5,29.6875,28.9375,32.9375,35.375,36.375
0.17805205,-0.232316,-0.8357266,-0.25205216,-0.017816728,0.015494981,-0.16921988,-0.38829488,-0.34671685,0.06011893,-3.075247,0.6209151,0.00027106283,-0.08577267,0.025731439,-0.0005982065,0.060327694,-0.0012903262,0.031719755,0.47011274,-1.4147971,1.9433898,-2.0953777,-1.574088,2.4430232,-0.08854696,0.13281383,-0.16490275,0.060346328,-0.05371888,-0.119962655,0.038307227,0.3256114,-9.461885,0.83813137,47.66987,-0.9649253,-2.0391455,-3.2377973,-0.013298176,-0.26667553,-0.24978277,28.5,29.6875,28.9375,32.9375,35.375,36.375
0.1800521,-0.47542438,-1.2952093,-0.4584089,-0.023677452,0.011269709,-0.17113271,-0.38849118,-0.34665284,0.06012606,-3.075136,0.62096786,0.00031811406,-0.08691715,0.026528275,-0.00050716073,0.06227854,-0.0012466204,0.033530083,0.46988428,-1.4145324,1.9430422,-2.0952575,-1.5741848,2.4428422,-0.089795806,0.13427584,-0.16718589,0.061983712,-0.05549801,-0.12301173,0.05746084,0.2681506,-9.557653,0.7553206,47.686886,-0.94290704,-1.7705979,-3.2727516,-0.00581862,-0.22697909,-0.18385696,28.5,29.6875,28.9375,32.9375,35.375,36.375
0.1820525,-0.9150339,-1.1742605,-0.48531747,-0.04181967,0.0066170893,-0.16852584,-0.38863915,-0.3465896,0.06011233,-3.075008,0.62074566,0.00028432792,-0.08771326,0.02684955,-0.00042511878,0.06349412,-0.0016509033,0.037445538,0.4697163,-1.4142677,1.9427313,-2.0950897,-1.5743054,2.4425523,-0.090446375,0.13574442,-0.16946764,0.06367018,-0.056432102,-0.12756628,-0.038307227,0.3256114,-9.672575,0.8784135,47.677036,-1.0476663,-1.9210823,-3.3029184,-0.017173458,-0.19372073,-0.11030139,28.5,29.6875,28.9375,32.9375,35.375,36.375
0.18405236,-0.6654161,-1.42097,-0.70889604,-0.05182313,0.023216289,-0.17501932,-0.38880953,-0.34653983,0.060096003,-3.0749042,0.62061065,0.00026975438,-0.08738245,0.027174987,-0.0010186795,0.064998046,-0.00502557,0.035797037,0.46953598,-1.4139668,1.9423951,-2.094968,-1.5744013,2.4423013,-0.09079636,0.13759238,-0.17103788,0.06706446,-0.056254707,-0.12626332,-0.038307227,0.30645782,-9.749189,0.8918391,47.684196,-0.88228416,-1.8511314,-3.323721,-0.033820543,-0.16832644,-0.08575043,28.5,29.6875,28.9375,32.9375,35.375,36.375
0.18605283,-1.4311543,-1.6939598,-0.5876592,-0.04483118,0.0022922766,-0.16384465,-0.38900065,-0.3464836,0.060116753,-3.074786,0.6205482,0.00037573598,-0.086835355,0.026906006,-0.0012505158,0.06580689,-0.0075465506,0.03409028,0.4693563,-1.413714,1.9420246,-2.094824,-1.5745448,2.4420981,-0.09005363,0.13884345,-0.17263962,0.070009366,-0.055834968,-0.123813815,-0.21068975,0.34476504,-9.825804,0.8985519,47.698532,-1.0947559,-1.9609991,-3.332705,-0.086605445,-0.13926965,-0.1010702,28.5,29.6875,28.9375,32.9375,35.375,36.375
0.18805175,-0.8349275,-1.1160291,-0.45274332,-0.04510325,0.014440494,-0.16542241,-0.38919556,-0.34642068,0.060113534,-3.0746803,0.62041575,0.00038753002,-0.088419445,0.02826034,-0.0017087951,0.0654002,-0.009926787,0.025802242,0.4691385,-1.4134132,1.9416531,-2.0946796,-1.5746526,2.4418116,-0.09474854,0.14095841,-0.17442465,0.07160257,-0.054403003,-0.12022198,-0.22984336,0.38307226,-9.691729,0.8672237,47.709274,-0.85719436,-1.9852217,-3.403235,-0.07525292,-0.14879373,-0.12980613,28.5,29.6875,28.9375,32.9375,35.375,36.375
0.19005184,-0.71260375,-0.9838073,-0.410488,-0.03020106,0.007916945,-0.17310107,-0.3893441,-0.34638348,0.06010731,-3.0745928,0.6202623,0.00042611008,-0.08564416,0.027663745,-0.002473781,0.06702148,-0.01605246,0.024410855,0.46900773,-1.4131606,1.9413546,-2.0945814,-1.5747598,2.4415965,-0.09201897,0.14153546,-0.17470196,0.07749216,-0.05306663,-0.11610494,-0.11492168,0.3256114,-9.691729,0.80456203,47.704796,-1.0811734,-1.8854322,-3.4232469,-0.107534654,-0.108144425,-0.19063959,28.5,29.6875,28.9375,32.9375,35.375,36.375
0.19205183,0.015222478,-0.13296643,-0.52311593,-0.031775434,0.008980726,-0.17842917,-0.3895548,-0.34633166,0.06013604,-3.0744908,0.62022436,0.0005123208,-0.08686914,0.027427323,-0.0011342068,0.065317884,-0.016451022,0.019229814,0.46880314,-1.4128844,1.9409331,-2.094413,-1.5748795,2.4413817,-0.09374529,0.14172663,-0.17880552,0.08097432,-0.051369153,-0.11265521,-0.11492168,0.28730422,-9.615114,0.81351066,47.698532,-1.1098222,-1.8358552,-3.4587703,-0.18281834,-0.11526946,-0.23344597,28.5,29.6875,28.9375,32.9375,35.375,36.375
0.19405186,-0.47909203,-0.24362893,-0.29943836,-0.01654455,-0.017834699,-0.16727786,-0.38968804,-0.34629622,0.060113497,-3.0744066,0.6200932,0.00035247582,-0.086461134,0.027064038,-0.0022147985,0.06440459,-0.02014082,0.015789084,0.46863508,-1.4125949,1.9406108,-2.0942338,-1.5749024,2.4411428,-0.094287775,0.14419599,-0.17946142,0.08203265,-0.048901703,-0.10976029,-0.15322891,0.17238252,-9.5385,0.8672237,47.68599,-1.0969269,-1.9426923,-3.5668256,-0.20177516,-0.14169772,-0.31102192,28.5,29.6875,28.9375,32.9375,35.375,36.375
0.19605206,-0.85544556,0.3959428,-0.43158424,-0.007037714,-0.031884167,-0.17910562,-0.38988742,-0.3462255,0.060114037,-3.0742536,0.6200053,0.00041009646,-0.08617272,0.027471244,-0.0041583097,0.06538588,-0.025363306,0.012844635,0.4684305,-1.4122936,1.9402274,-2.0940773,-1.5750579,2.4409034,-0.095648125,0.1482979,-0.1801627,0.08370971,-0.047429774,-0.10817884,-0.05746084,0.05746084,-9.500193,0.84708,47.677036,-1.0886137,-1.9621111,-3.5247722,-0.23581639,-0.15050676,-0.34387574,28.5,29.6875,28.9375,32.9375,35.375,36.375
0.19805203,0.07464542,0.7658145,-0.029840115,-0.013783376,0.0050378446,-0.18086654,-0.3900682,-0.34617838,0.060121443,-3.074152,0.61998487,0.0004127,-0.08626502,0.027788155,-0.004153999,0.06501058,-0.027021129,0.009532309,0.4682382,-1.4120171,1.9398569,-2.093921,-1.5751413,2.4407117,-0.0969359,0.14856626,-0.18092154,0.08549743,-0.046354387,-0.106156394,0.019153614,0.019153614,-9.385271,0.9186956,47.682407,-1.1219486,-1.8990979,-3.6042943,-0.25932103,-0.16022457,-0.4201079,28.5,29.6875,28.9375,32.9375,35.375,36.375
0.20005175,-0.50220335,0.50618863,0.05702994,-0.0057303947,0.00346022,-0.17649631,-0.3902239,-0.34614334,0.060102213,-3.0740352,0.619864,0.00031579507,-0.0868141,0.02730627,-0.0049219667,0.0644593,-0.028979503,0.009279144,0.46808207,-1.4116919,1.9394854,-2.0937412,-1.5752128,2.4404955,-0.09740727,0.15182373,-0.18304287,0.085839674,-0.045005888,-0.10637362,0.05746084,-0.095768064,-9.32781,0.8090337,47.690468,-1.0938854,-2.0033329,-3.5689564,-0.28830096,-0.16614679,-0.45840168,28.5,29.6875,28.9375,32.9375,35.375,36.375
0.20205264,-0.8267754,0.39063457,0.18420686,0.002539809,0.006397878,-0.17431489,-0.39038736,-0.3460824,0.060093194,-3.0739107,0.61976045,0.00027369385,-0.08918317,0.026852913,-0.0039301245,0.06236438,-0.02684462,0.009111049,0.46788937,-1.411415,1.9391493,-2.0935733,-1.5753092,2.4402544,-0.09925053,0.15343091,-0.18710367,0.08541326,-0.044136632,-0.10804614,0.0,-0.11492168,-9.308657,0.85155696,47.695843,-1.0752995,-2.0942512,-3.425747,-0.30420595,-0.18169987,-0.50344455,28.5,29.6875,28.9375,32.9375,35.375,36.375
0.20405258,-1.2545329,0.4593487,0.26106495,0.0055396226,0.00723377,-0.1748624,-0.3906006,-0.34604514,0.060121752,-3.0738525,0.619688,0.00033967977,-0.0916808,0.025276776,-0.001859091,0.058825966,-0.02187387,0.014052749,0.46768555,-1.4111263,1.9387163,-2.0934188,-1.5753926,2.4400132,-0.099214904,0.15370296,-0.19182657,0.083787516,-0.04326184,-0.11295374,-0.19153613,0.0,-9.212888,0.81351066,47.692257,-1.0547282,-2.0100193,-3.3263404,-0.28820032,-0.21263951,-0.4992565,28.5,29.6875,28.9375,32.9375,35.375,36.375
0.2060526,-1.2111838,0.6594206,0.299853,-0.0008409525,0.021939607,-0.17834537,-0.39075795,-0.3459766,0.06010293,-3.0737128,0.61957806,0.00029379583,-0.09438194,0.025634302,-0.002016542,0.057962887,-0.02003084,0.019271698,0.4674924,-1.4108493,1.9384054,-2.0932643,-1.5755004,2.4397697,-0.102147385,0.15676174,-0.19446243,0.08127074,-0.04338524,-0.12109749,-0.21068975,0.0,-9.155427,0.8851263,47.694946,-0.9800048,-1.9090302,-3.266688,-0.28572068,-0.21385908,-0.46629602,28.5,29.6875,28.9375,32.9375,35.375,36.375
0.2080527,-2.0109756,0.417796,0.07339945,-0.0008841107,0.021567723,-0.1729404,-0.39096072,-0.34592894,0.060108628,-3.0736203,0.61953306,0.0002444106,-0.09510859,0.02443328,-0.0007893888,0.05535809,-0.016338484,0.02983643,0.46726483,-1.4105252,1.9379753,-2.0930731,-1.5755605,2.4395263,-0.101003855,0.15551,-0.19532175,0.078846306,-0.04278537,-0.13051781,-0.3256114,0.095768064,-9.193734,0.88289046,47.681515,-1.1500701,-1.9671408,-3.2706113,-0.23906565,-0.22971289,-0.3940547,28.5,29.6875,28.9375,32.9375,35.375,36.375
0.21005195,-1.7088095,-0.5146667,0.13445476,-0.020044297,0.06742959,-0.173842,-0.3911318,-0.3458885,0.060094565,-3.0735373,0.61937934,0.00014030407,-0.098527364,0.026319342,-0.00078417547,0.055750657,-0.013616393,0.032796647,0.4670709,-1.4102004,1.9375924,-2.0928948,-1.5756086,2.4392474,-0.10629216,0.15744857,-0.19704062,0.07632338,-0.044425853,-0.1387513,-0.61291564,0.21068975,-9.308656,0.75755644,47.71823,-0.9042312,-1.9666566,-3.3363667,-0.20758441,-0.24450248,-0.30671802,28.5,29.6875,28.9375,32.9375,35.375,36.375
0.21205194,-1.9825062,-1.07278,0.23541112,-0.0530915,0.09232105,-0.19014648,-0.39135316,-0.34583578,0.06011476,-3.0734212,0.6192557,0.00025759113,-0.09901143,0.025238981,-0.0007832557,0.05537487,-0.012434758,0.038920566,0.46687979,-1.4098873,1.9371504,-2.0927398,-1.575765,2.4389944,-0.10461228,0.15921909,-0.19884698,0.07508298,-0.044656593,-0.14319192,-0.6512229,0.30645782,-9.270349,0.83589023,47.698532,-1.0884914,-1.9338229,-3.3385212,-0.17831849,-0.23534843,-0.22603288,28.5,29.6875,28.9375,32.9375,35.375,36.375
0.21405226,-3.5394764,-1.7353183,0.027224686,-0.06900452,0.07486914,-0.16234018,-0.3915509,-0.34576038,0.060115583,-3.0733073,0.6191355,0.00025585236,-0.101341516,0.025772303,-0.00047661134,0.053389005,-0.011117101,0.03792965,0.46663848,-1.4095987,1.936778,-2.0925725,-1.5758723,2.438693,-0.10831055,0.16057253,-0.20081618,0.07358428,-0.043514766,-0.14590058,-0.7469909,0.30645782,-9.385271,0.83813137,47.677036,-0.92521024,-1.8736756,-3.315363,-0.16089751,-0.26291177,-0.17414409,28.5,29.6875,28.9375,32.9375,35.375,36.375
0.21605235,-2.1933784,-1.6806195,0.1236978,-0.074586675,0.109658815,-0.17555451,-0.39172825,-0.34571502,0.06008537,-3.0731938,0.61899817,0.00015857905,-0.10288352,0.02601547,-4.599402e-05,0.052206647,-0.009349501,0.035626534,0.46644577,-1.409238,1.9363955,-2.0924175,-1.5759443,2.4384296,-0.110211894,0.1610159,-0.20206685,0.07226375,-0.04328376,-0.14549363,-0.82360536,0.38307226,-9.461885,0.89631605,47.70211,-0.845708,-1.8671421,-3.4276667,-0.13102995,-0.28212422,-0.17398804,28.5,29.6875,28.9375,32.9375,35.375,36.375
0.21805237,-2.1559908,-1.6587355,-0.058066495,-0.06252256,0.09913857,-0.16921769,-0.39191565,-0.3456815,0.060074657,-3.0731256,0.61881614,0.00013349402,-0.10319495,0.026800854,-0.000788126,0.054500464,-0.011679423,0.02677627,0.46626547,-1.4089011,1.9360012,-2.092285,-1.5760168,2.4381447,-0.11118998,0.16335692,-0.20365623,0.07465248,-0.044267427,-0.13761197,-0.8619126,0.3256114,-9.481039,0.8291774,47.690468,-0.8312255,-1.7324656,-3.5164764,-0.12566152,-0.291428,-0.24011151,28.5,29.6875,28.9375,32.9375,35.375,36.375
0.22005223,-2.2829158,-1.0930635,0.03414946,-0.04064027,0.07845502,-0.16320628,-0.39216012,-0.34561837,0.06008707,-3.0730608,0.6187663,0.00019517324,-0.10575558,0.025787719,-0.0005395418,0.053296063,-0.008376768,0.022895053,0.46598938,-1.4085753,1.9355696,-2.0921662,-1.5761007,2.4378462,-0.11134449,0.1669678,-0.20777284,0.07166505,-0.04468719,-0.13387941,-0.9385271,0.2681506,-9.3661175,0.83813137,47.711964,-0.852857,-1.9428957,-3.4038787,-0.08856392,-0.29176715,-0.3069383,28.5,29.6875,28.9375,32.9375,35.375,36.375
0.2220521,-2.0020144,-0.40379092,0.022680294,-0.007741686,0.06848187,-0.17204753,-0.39239752,-0.34561235,0.06013397,-3.0730891,0.6186567,0.0003256834,-0.10654454,0.025163094,-7.844773e-05,0.052322626,-0.0064833807,0.021822216,0.4657976,-1.4082752,1.9350914,-2.0920584,-1.5761489,2.4375825,-0.11089006,0.16743717,-0.20913562,0.07042317,-0.04466405,-0.13235456,-0.9002198,0.24899697,-9.289502,0.88960326,47.678825,-0.9122238,-1.8023756,-3.474598,-0.031268768,-0.3204109,-0.34818706,28.5,29.6875,28.9375,32.9375,35.375,36.375
0.22405195,-1.4732375,0.14737335,-0.076337434,0.026036844,0.061815877,-0.17226379,-0.3925988,-0.3455366,0.0600903,-3.072911,0.61860174,0.00028547415,-0.10659474,0.026236584,-0.0003436394,0.052117575,-0.0102160955,0.01812901,0.46556863,-1.4078908,1.9347199,-2.0919378,-1.5762805,2.4373426,-0.1139456,0.16783692,-0.209847,0.073947646,-0.042820167,-0.13172185,-0.68953013,0.1340753,-9.289502,0.85826975,47.701214,-0.87989795,-1.8045115,-3.4335775,-0.020523414,-0.3657481,-0.3736953,28.5,29.6875,28.9375,32.9375,35.375,36.375
0.22605205,-1.7626365,0.5426396,0.02376846,0.025243925,0.039456613,-0.16402473,-0.3928116,-0.345478,0.060073312,-3.0728064,0.6184447,0.00022804792,-0.10728002,0.02474719,-0.00010785903,0.052035052,-0.007686863,0.020528922,0.46532956,-1.4075177,1.9342898,-2.091771,-1.5763649,2.4370193,-0.111164086,0.16980644,-0.21230474,0.07212369,-0.043911472,-0.13132769,-0.51714754,0.05746084,-9.289502,0.98807013,47.717335,-1.0022854,-1.8304404,-3.490361,0.031046819,-0.37078822,-0.41733563,28.5,29.6875,28.9375,32.9375,35.375,36.375
0.22805196,-1.4353089,1.1329544,0.31261238,0.0067096283,0.03621564,-0.17649086,-0.39304808,-0.3454322,0.060079966,-3.0727239,0.61842734,0.00030119639,-0.10946695,0.026741566,0.00016544825,0.053912457,-0.007720795,0.01911787,0.46510002,-1.4071687,1.9338468,-2.0916626,-1.5764617,2.43679,-0.11547374,0.1710398,-0.21489525,0.07432002,-0.045596033,-0.1342151,-0.38307226,-0.11492168,-9.174581,0.9254084,47.694054,-0.9404938,-1.8310443,-3.411871,0.06886175,-0.3762943,-0.39824834,28.5,29.6875,28.9375,32.9375,35.375,36.375
0.230052,-0.61807084,0.5418812,0.1207121,0.020026857,0.02649618,-0.16974463,-0.3932972,-0.34539425,0.060107842,-3.0726569,0.618368,0.0003866965,-0.108761795,0.026474938,-0.00014650423,0.05688344,-0.010379994,0.028833963,0.464873,-1.4068199,1.9333442,-2.0915053,-1.576558,2.436535,-0.11334076,0.17309071,-0.217558,0.0785784,-0.047095753,-0.14178884,-0.17238252,-0.19153613,-9.212888,0.83365434,47.691364,-1.0441895,-1.9487896,-3.4306688,0.048025563,-0.40042746,-0.38987452,28.5,29.6875,28.9375,32.9375,35.375,36.375
0.23205312,-0.52658755,0.8121701,0.22887534,0.025902739,-0.0008089913,-0.16838367,-0.3934936,-0.3453151,0.06007732,-3.0725124,0.6182785,0.00030798407,-0.10865679,0.02824239,-0.0017453248,0.060942326,-0.015549809,0.032798793,0.46462038,-1.4064698,1.9329737,-2.0913484,-1.5766543,2.4362454,-0.115427375,0.17633206,-0.21865334,0.08281624,-0.04845549,-0.14782587,-0.11492168,-0.17238252,-9.385271,0.8560339,47.684196,-0.98526394,-2.0656872,-3.3528767,0.042136364,-0.40002123,-0.30210626,28.5,29.6875,28.9375,32.9375,35.375,36.375
0.23405254,-0.15996857,0.6091865,0.17504148,0.044842355,-0.012767431,-0.1701664,-0.39372998,-0.3452479,0.060081605,-3.0723834,0.6180938,0.0003745806,-0.10829257,0.029999588,-0.0033814772,0.0658463,-0.021574523,0.04053143,0.4643918,-1.4061085,1.9325079,-2.0911782,-1.5768107,2.4359186,-0.11701783,0.17992318,-0.22038214,0.08845194,-0.050193664,-0.15713541,-0.05746084,-0.21068975,-9.308657,0.784413,47.68062,-0.92733026,-2.1218853,-3.3200917,0.005312443,-0.38755602,-0.21599287,28.5,29.6875,28.9375,32.9375,35.375,36.375
0.23605263,0.3247977,1.3295109,0.23006815,0.05465435,-0.019876644,-0.17196994,-0.39393544,-0.34519312,0.06006619,-3.072301,0.6179204,0.00029440378,-0.10843711,0.030690944,-0.002686814,0.06861619,-0.023226386,0.045428343,0.46415174,-1.4057481,1.9320878,-2.091009,-1.5768718,2.4355812,-0.11715515,0.18019632,-0.22359295,0.09406059,-0.051977195,-0.16215298,0.019153614,-0.19153613,-9.193734,0.8717007,47.694946,-0.94694066,-1.9539363,-3.2963428,-0.02868301,-0.383355,-0.14020339,28.5,29.6875,28.9375,32.9375,35.375,36.375
0.23805255,0.1429574,1.4430887,-0.02195066,0.061648224,-0.032968882,-0.15931235,-0.39417294,-0.34512588,0.060067646,-3.0721707,0.61781627,0.0002994592,-0.10768332,0.032105736,-0.0037202877,0.073238365,-0.027936272,0.04541951,0.46389958,-1.4053754,1.9316095,-2.0908163,-1.5769924,2.4352813,-0.117596745,0.18221003,-0.22484031,0.099547036,-0.05402259,-0.16256878,0.0,-0.17238252,-9.251195,0.90527004,47.68062,-0.98599654,-2.1716042,-3.3860598,-0.117900364,-0.38557616,-0.098782055,28.5,29.6875,28.9375,32.9375,35.375,36.375
0.24005242,0.24553534,1.4109972,0.1610004,0.043238744,-0.024288977,-0.16775288,-0.39438373,-0.34505442,0.060044292,-3.0720062,0.6176117,0.00022732916,-0.10787718,0.033193897,-0.0041224346,0.076615624,-0.03009786,0.040991686,0.46367136,-1.4049784,1.9311546,-2.0905993,-1.577125,2.434947,-0.118296556,0.18387333,-0.22671556,0.103201136,-0.056092914,-0.15881868,0.05746084,-0.019153614,-9.136273,0.85826975,47.69763,-1.0095421,-2.1885564,-3.337735,-0.13626495,-0.35664403,-0.11008285,28.5,29.6875,28.9375,32.9375,35.375,36.375
0.24205278,-0.20730226,0.4978251,0.105463125,0.03398587,-0.024943726,-0.16216853,-0.3945892,-0.34497982,0.060037702,-3.0718582,0.6175057,0.00013548078,-0.10759815,0.033928383,-0.0039757635,0.080291145,-0.03279101,0.036806934,0.46341968,-1.4046298,1.9307116,-2.090358,-1.5772218,2.4346488,-0.11793918,0.18493845,-0.2296567,0.10913781,-0.058185402,-0.15425423,0.05746084,0.13407528,-9.212888,0.8493211,47.66271,-1.158892,-2.102443,-3.3251333,-0.25006706,-0.3410703,-0.16823731,28.5,29.6875,28.9375,32.9375,35.375,36.375
0.24405177,-0.15870397,0.51221883,0.011283693,-0.004611954,-0.011007333,-0.18026671,-0.39478725,-0.3449042,0.06001837,-3.071669,0.61733526,6.044664e-05,-0.10844403,0.034473155,-0.0043634325,0.08354523,-0.032934707,0.029081792,0.46320367,-1.404256,1.9302691,-2.0901182,-1.5773667,2.4343512,-0.117767714,0.18756829,-0.23219976,0.1106627,-0.06103376,-0.14632736,0.13407528,0.095768064,-9.32781,0.87393653,47.698532,-0.987965,-2.2505765,-3.3586926,-0.28789204,-0.31762975,-0.24565485,28.5,29.6875,28.9375,32.9375,35.375,36.375
0.24605219,0.073176794,-0.22594862,-0.013013117,-0.03862515,0.017622538,-0.1760771,-0.3949932,-0.34481806,0.059993632,-3.0714662,0.6172006,-2.7072165e-05,-0.1111237,0.0361993,-0.004139847,0.086249545,-0.03048469,0.022946665,0.46296248,-1.4038717,1.9298266,-2.0898788,-1.5775121,2.4340527,-0.12084604,0.18940438,-0.23483504,0.11047607,-0.06457986,-0.14323388,0.038307227,0.17238252,-9.32781,0.9365982,47.696735,-1.1065273,-2.0587363,-3.3048759,-0.3169963,-0.25376064,-0.29887295,28.5,29.6875,28.9375,32.9375,35.375,36.375
0.24805197,-0.622869,-1.1677912,-0.09618616,-0.059588354,0.030905724,-0.18025799,-0.39519528,-0.34473565,0.059971623,-3.07126,0.6171004,-0.00014150333,-0.1123737,0.035539944,-0.0031917265,0.08423613,-0.026306722,0.019671792,0.4627229,-1.4034873,1.9293727,-2.0896165,-1.5776442,2.4337778,-0.1206617,0.18866499,-0.2354638,0.10719745,-0.064676195,-0.13976112,-0.05746084,0.22984336,-9.404425,0.91421866,47.70032,-1.0619452,-2.1886668,-3.3993373,-0.31888232,-0.25178617,-0.3907042,28.5,29.6875,28.9375,32.9375,35.375,36.375
0.25005203,-1.1069815,-1.7502172,-0.13068368,-0.074436724,0.040758453,-0.1695805,-0.39544994,-0.34466752,0.059982214,-3.0711062,0.61707044,-9.384387e-05,-0.11474179,0.035949588,-0.0033686724,0.084171265,-0.021867555,0.015630862,0.4624701,-1.4031026,1.9288572,-2.0894148,-1.5777887,2.4335268,-0.12214972,0.19037405,-0.23590952,0.101921655,-0.066622846,-0.13718866,0.0,0.34476504,-9.519346,0.83589023,47.690468,-1.049514,-2.1278033,-3.4585977,-0.30052358,-0.20687683,-0.45009327,28.5,29.6875,28.9375,32.9375,35.375,36.375
0.25205204,-1.4315143,-2.111842,-0.08614597,-0.0910033,0.060236666,-0.17303069,-0.39566007,-0.3445723,0.05994404,-3.0708878,0.6169674,-0.0001684995,-0.11894196,0.036313806,-0.0020097753,0.08425247,-0.012808832,0.015210734,0.4622176,-1.4027056,1.928439,-2.0892136,-1.5779465,2.4332387,-0.12375861,0.1913369,-0.23878661,0.0957327,-0.070801675,-0.13833292,-0.05746084,0.40222588,-9.615114,0.8717007,47.68062,-1.0106498,-2.121441,-3.4345589,-0.23324057,-0.1484485,-0.5085881,28.5,29.6875,28.9375,32.9375,35.375,36.375
0.25405195,-1.5780029,-1.7171427,-0.24095845,-0.08831951,0.059187792,-0.17355917,-0.3958904,-0.3445349,0.059966903,-3.0708039,0.6169061,-0.00015185971,-0.12131514,0.035107244,-0.00089736877,0.07974557,-0.00791735,0.021998655,0.4620014,-1.4023566,1.9279364,-2.089012,-1.5780295,2.4329956,-0.12478295,0.1916821,-0.24069943,0.09082197,-0.069026195,-0.14615376,-0.19153613,0.47884035,-9.672575,0.842603,47.687782,-0.96236724,-2.192093,-3.4398499,-0.17061517,-0.13510734,-0.4814316,28.5,29.6875,28.9375,32.9375,35.375,36.375
0.25605193,-1.622236,-1.5530744,-0.7236699,-0.0485419,0.042833224,-0.17043895,-0.39614463,-0.34446752,0.059969123,-3.0706642,0.6166989,-5.8814578e-05,-0.122536115,0.034895893,-0.0012130387,0.07870279,-0.006532351,0.031260677,0.46177298,-1.4019603,1.9274343,-2.0888455,-1.5782088,2.4326563,-0.12555164,0.19341704,-0.24142112,0.08798582,-0.06879581,-0.15618181,-0.15322891,0.49799395,-9.749189,0.8314132,47.658226,-1.0333545,-2.0149512,-3.519009,-0.11259155,-0.11251779,-0.39637756,28.5,29.6875,28.9375,32.9375,35.375,36.375
0.25805226,-0.9147492,-1.0520881,-0.686581,-0.042210225,0.052023657,-0.16858247,-0.39640075,-0.3443993,0.05995485,-3.070557,0.61653584,-6.561432e-05,-0.123941705,0.03559346,-0.0014869847,0.077466406,-0.0069175838,0.03974645,0.46149626,-1.4015396,1.9269437,-2.08869,-1.578317,2.432292,-0.12867704,0.1947689,-0.24225065,0.0871289,-0.06761543,-0.16779615,-0.21068975,0.40222588,-9.653421,0.92093146,47.657326,-1.0041928,-1.9985918,-3.4896383,-0.08830778,-0.102610685,-0.27199098,28.5,29.6875,28.9375,32.9375,35.375,36.375
0.26005238,-1.5098585,-0.92806834,-0.6138122,-0.045905355,0.041412994,-0.16734539,-0.39661327,-0.34432623,0.059921335,-3.0703964,0.61636317,-0.00015225857,-0.123688854,0.034209833,-0.001611068,0.076336436,-0.0077179275,0.048230678,0.46125686,-1.4011304,1.9265021,-2.0884984,-1.5784367,2.431966,-0.1267677,0.19642228,-0.24401568,0.08736251,-0.06632763,-0.17436989,-0.3256114,0.3256114,-9.749189,0.8314132,47.703903,-0.9914187,-2.0590863,-3.6539347,-0.053047832,-0.122357234,-0.20126873,28.5,29.6875,28.9375,32.9375,35.375,36.375
0.26205248,-1.6067024,-0.7923919,-0.58828795,-0.046595234,0.043127988,-0.1732489,-0.3968632,-0.34427065,0.059931353,-3.0703115,0.6161953,-8.9844456e-05,-0.1262523,0.03490221,-0.00032190385,0.07323464,-0.006840081,0.04453037,0.4610149,-1.4007578,1.9260114,-2.0883424,-1.5785555,2.4316306,-0.131653,0.19646057,-0.24731883,0.08840691,-0.063968726,-0.1755696,-0.59376204,0.21068975,-9.653421,0.88289046,47.661808,-0.83326316,-2.0296917,-3.7643309,-0.033409618,-0.13726597,-0.14145324,28.5,29.6875,28.9375,32.9375,35.375,36.375
0.26405245,-0.8780539,0.09503716,-0.45316616,-0.056758326,0.0734087,-0.17750472,-0.39712206,-0.34420535,0.05992019,-3.0701938,0.61594105,-6.434842e-05,-0.1260274,0.033054233,7.4992815e-05,0.071908385,-0.008341841,0.042474024,0.46076393,-1.4003248,1.925496,-2.0881736,-1.578699,2.4312365,-0.12930036,0.19845143,-0.25122032,0.09106092,-0.062112458,-0.17116807,-0.6703765,0.11492168,-9.653421,0.900793,47.68062,-1.0536685,-2.0054286,-3.761898,-0.013966779,-0.14647496,-0.15482935,28.5,29.6875,28.9375,32.9375,35.375,36.375
0.26605245,-1.761572,0.14689574,-0.32517675,-0.032073732,0.053775676,-0.15627018,-0.39738545,-0.3441341,0.059915815,-3.070074,0.61588085,-5.8112833e-05,-0.12710424,0.0323165,0.00018593372,0.07044506,-0.010082061,0.03447435,0.4604756,-1.3999151,1.924992,-2.0880053,-1.5788063,2.4309266,-0.13019119,0.20144151,-0.25554284,0.093316615,-0.060011156,-0.16406907,-0.7469909,-0.019153614,-9.730036,0.8851263,47.696735,-0.99741924,-2.1283193,-3.5021896,-0.021930963,-0.15697747,-0.24938852,28.5,29.6875,28.9375,32.9375,35.375,36.375
0.26805246,-1.500428,0.539929,-0.35688427,-0.008939195,0.05468337,-0.16122028,-0.39759985,-0.3440838,0.059887983,-3.069945,0.6157218,-0.0001389993,-0.12641336,0.032190155,-0.00023678488,0.07027768,-0.014206975,0.029478079,0.4602597,-1.3994944,1.9245256,-2.087824,-1.5789016,2.4306285,-0.13055159,0.20278378,-0.25707582,0.097131416,-0.058024295,-0.15944077,-0.63206923,-0.076614454,-9.634268,0.8940802,47.68062,-1.0399953,-2.1676886,-3.4377465,-0.009085562,-0.21523279,-0.31883106,28.5,29.6875,28.9375,32.9375,35.375,36.375
0.27005252,-0.9451567,1.0556513,0.054390103,0.015464309,0.05842785,-0.17536466,-0.3979071,-0.3440185,0.05993979,-3.069863,0.61566675,6.0480957e-06,-0.12575325,0.03272888,-0.0002228967,0.07157597,-0.01959884,0.026565066,0.4599593,-1.3991221,1.9239281,-2.0876186,-1.5790333,2.4303048,-0.13160074,0.20385267,-0.26005033,0.10441801,-0.05678161,-0.15758769,-0.61291564,-0.05746084,-9.576807,0.8493211,47.690468,-1.0316951,-2.1141462,-3.4653175,-0.07656576,-0.2212531,-0.36277345,28.5,29.6875,28.9375,32.9375,35.375,36.375
0.27205235,-0.31651455,1.658467,-0.09404003,0.032757614,0.048021566,-0.17674145,-0.39813125,-0.34391648,0.05988721,-3.069638,0.6155237,-0.00010664724,-0.12639211,0.033262655,-0.00040349932,0.07259572,-0.023480346,0.026616618,0.45968258,-1.3986766,1.9234842,-2.087413,-1.5791887,2.4299686,-0.13349395,0.20656468,-0.2640228,0.10955042,-0.056029376,-0.15952606,-0.53630114,-0.11492168,-9.481039,0.88960326,47.67614,-0.9708407,-2.1899152,-3.466565,-0.11850368,-0.2543689,-0.39304197,28.5,29.6875,28.9375,32.9375,35.375,36.375
0.27405238,-0.0672703,1.570929,-0.22546642,0.044002026,0.035068847,-0.15808809,-0.39841327,-0.34388265,0.05991173,-3.0695906,0.61537874,-5.0048646e-05,-0.12759915,0.033569507,-0.0008307714,0.07439764,-0.027007516,0.027156556,0.45942998,-1.3982548,1.9228963,-2.0872319,-1.5792731,2.429632,-0.13493764,0.211058,-0.26944113,0.114391975,-0.05610999,-0.16150615,-0.4405331,-0.22984336,-9.461885,0.8537928,47.678825,-0.9108008,-2.1623845,-3.3244371,-0.19825342,-0.2779378,-0.38636154,28.5,29.6875,28.9375,32.9375,35.375,36.375
0.2760526,-0.509706,1.0236535,-0.070147425,0.02856182,0.02657969,-0.16006638,-0.3986487,-0.34378535,0.059906792,-3.069389,0.6153703,-0.00015327352,-0.1273853,0.034933545,-0.0021455185,0.075683795,-0.031581882,0.03361923,0.45912924,-1.39787,1.9223951,-2.0869439,-1.5793928,2.4293528,-0.13754575,0.21294253,-0.26925153,0.116870604,-0.05533682,-0.17057495,-0.4405331,-0.22984336,-9.385271,0.8851263,47.64479,-0.8568579,-2.1618478,-3.2490244,-0.24100661,-0.29664955,-0.3327278,28.5,29.6875,28.9375,32.9375,35.375,36.375
0.2780517,-0.44804296,0.73309195,0.043232307,0.0044818814,0.036602918,-0.17790078,-0.3989254,-0.34371448,0.05990685,-3.0692542,0.6151228,-0.00015965429,-0.12568623,0.03422681,-0.00203549,0.07644431,-0.033996172,0.045761872,0.45885453,-1.3974134,1.9218096,-2.0867035,-1.5795368,2.4289415,-0.13490683,0.21236156,-0.26965585,0.12023254,-0.055044703,-0.18007648,-0.30645782,-0.19153613,-9.385271,0.9231726,47.682407,-1.0250576,-2.3146424,-3.4661188,-0.27882403,-0.31733978,-0.24266073,28.5,29.6875,28.9375,32.9375,35.375,36.375
0.28005177,-0.8757612,0.6465566,0.07412984,-0.023995582,0.04446429,-0.1639729,-0.3991664,-0.343656,0.059899617,-3.0691376,0.61494213,-0.00022615364,-0.12703602,0.03429607,-0.0027205916,0.07577985,-0.033503696,0.05079615,0.458602,-1.3969922,1.9212846,-2.086477,-1.5796322,2.4285917,-0.13629863,0.21493693,-0.27062944,0.11780569,-0.054758634,-0.18649796,-0.36391866,-0.21068975,-9.519346,0.8537928,47.72808,-0.8828181,-2.244422,-3.5469174,-0.26862007,-0.35757995,-0.118303806,28.5,29.6875,28.9375,32.9375,35.375,36.375
0.2820524,-1.2299861,-0.03590039,0.19302738,-0.04217274,0.0716246,-0.17288071,-0.3994503,-0.34357294,0.059912235,-3.0690005,0.61489457,-0.0002473302,-0.1282946,0.034362573,-0.0020693168,0.074927695,-0.030506618,0.05121541,0.45827764,-1.3965721,1.92071,-2.0862267,-1.5797409,2.428256,-0.13701126,0.21454182,-0.27126506,0.11572627,-0.055373155,-0.18761927,-0.38307226,-0.15322891,-9.500193,0.8851263,47.703007,-0.9646741,-2.2451172,-3.5560586,-0.28547534,-0.38874573,-0.07320367,28.5,29.6875,28.9375,32.9375,35.375,36.375
0.2840522,-0.98291904,-0.267138,0.25616595,-0.041153792,0.09192615,-0.17156966,-0.39970177,-0.3434919,0.059885923,-3.0688515,0.6147323,-0.00037125242,-0.13173808,0.03325063,-0.00085564004,0.07127893,-0.024182016,0.04487108,0.45797712,-1.3961151,1.920184,-2.0859892,-1.5798367,2.427874,-0.13824075,0.21623412,-0.27492258,0.11041684,-0.054929093,-0.18249662,-0.40222588,-0.038307227,-9.442732,0.85826975,47.70659,-0.9941629,-2.1670794,-3.6023936,-0.2333776,-0.40288293,-0.1347146,28.5,29.6875,28.9375,32.9375,35.375,36.375
0.28605232,-1.0305272,0.13652998,-0.040513895,-0.03842984,0.07545911,-0.17111559,-0.39998597,-0.34343424,0.059912127,-3.0687702,0.61456674,-0.0002658818,-0.13459289,0.033004653,0.00035985635,0.07004722,-0.016921075,0.03688602,0.45771295,-1.3957181,1.9196213,-2.085811,-1.5799698,2.4275174,-0.13886338,0.21627717,-0.27661726,0.10504889,-0.057010826,-0.17511338,-0.30645782,0.05746084,-9.423578,0.8851263,47.728977,-0.9316449,-2.190969,-3.5994835,-0.16403377,-0.41481024,-0.18217528,28.5,29.6875,28.9375,32.9375,35.375,36.375
0.2880524,-0.56283885,0.08658178,-0.15940894,-0.018872822,0.059917115,-0.16925673,-0.40025637,-0.3433723,0.059916392,-3.0686443,0.61450255,-0.00027338456,-0.13710576,0.032220747,0.0021375623,0.06821541,-0.010097167,0.031376135,0.4574374,-1.3952861,1.9190596,-2.0855968,-1.5800775,2.4272187,-0.13869604,0.21575406,-0.27932566,0.10137378,-0.0583806,-0.16941749,-0.17238252,0.21068975,-9.461885,0.8605109,47.686886,-1.0864388,-2.0775597,-3.5288057,-0.0937499,-0.4426585,-0.2809362,28.5,29.6875,28.9375,32.9375,35.375,36.375
0.29005232,-0.9142822,-0.66426545,-0.3251394,-0.011236783,0.019694122,-0.15392463,-0.40053394,-0.3432865,0.059892368,-3.0684686,0.6143915,-0.00030724847,-0.13743493,0.0321398,0.0028068402,0.06759183,-0.008539665,0.025858061,0.45713705,-1.394806,1.9185089,-2.0853932,-1.5802215,2.4268725,-0.1386517,0.21472406,-0.2796774,0.10109516,-0.058501914,-0.16384634,-0.095768064,0.21068975,-9.576807,0.84484416,47.70659,-1.033273,-1.8908812,-3.537549,-0.06413514,-0.45722687,-0.38277304,28.5,29.6875,28.9375,32.9375,35.375,36.375
0.29205218,-0.40780514,-0.6218808,-0.39909124,-0.048380937,0.016756415,-0.16816798,-0.4008119,-0.34321794,0.059897747,-3.068351,0.61421615,-0.00027754184,-0.14093499,0.033620965,0.0043466804,0.06939898,-0.0043276586,0.019572068,0.4568601,-1.3943735,1.9179462,-2.0851896,-1.580355,2.4265018,-0.14196293,0.21556157,-0.2844463,0.10204823,-0.06198939,-0.16083343,-0.21068975,0.3256114,-9.576807,0.94331104,47.661808,-1.0819964,-1.8516526,-3.4853234,-0.035594173,-0.45327133,-0.44840834,28.5,29.6875,28.9375,32.9375,35.375,36.375
0.29405198,-0.19149242,-0.90053505,-0.5552946,-0.050333533,0.012315076,-0.17087798,-0.40109378,-0.34315118,0.059908092,-3.068254,0.6141919,-0.00023809464,-0.14261857,0.0344054,0.0055072964,0.07385528,-0.0008101275,0.02447571,0.45656055,-1.3939648,1.9174074,-2.0850213,-1.5804528,2.4262002,-0.1411293,0.21620381,-0.288333,0.10404755,-0.0675915,-0.1648486,-0.11492168,0.34476504,-9.615114,0.93436235,47.693153,-1.0284779,-1.8594319,-3.3539557,-0.020004608,-0.42843342,-0.49044067,28.5,29.6875,28.9375,32.9375,35.375,36.375
0.29605177,-0.0054771597,-0.72080654,-0.39158604,-0.054383997,0.02674641,-0.18443836,-0.40137365,-0.3430846,0.05991733,-3.068081,0.61399627,-0.00023658978,-0.1435877,0.035603687,0.0037897564,0.07681988,-0.0036162848,0.03317814,0.4563082,-1.3934951,1.9167737,-2.0847337,-1.5806216,2.4258487,-0.14298819,0.22076118,-0.28997827,0.10481703,-0.069129445,-0.17538734,-0.11492168,0.38307226,-9.80665,0.8851263,47.683304,-0.9651077,-1.9172437,-3.3857107,0.004455047,-0.38194382,-0.45961785,28.5,29.6875,28.9375,32.9375,35.375,36.375
0.2980517,-0.7037384,-1.1243361,-0.39505488,-0.058600657,0.03832385,-0.17249991,-0.40167487,-0.34299946,0.059913028,-3.0679405,0.6138858,-0.00022740646,-0.14354113,0.038604006,0.0013742432,0.08325865,-0.008733871,0.04164061,0.4559828,-1.3930254,1.9161891,-2.0845296,-1.5807551,2.4254732,-0.1457779,0.2243431,-0.28939772,0.10793941,-0.07276503,-0.18660064,-0.095768064,0.51714754,-9.730036,0.9254084,47.719128,-0.8753772,-1.994776,-3.4375665,-0.010560321,-0.34559894,-0.32300073,28.5,29.6875,28.9375,32.9375,35.375,36.375
0.30005172,-0.904273,-1.1789739,-0.66510016,-0.040668257,0.05004612,-0.1686499,-0.40195158,-0.34292865,0.059923124,-3.067822,0.613644,-0.0001671951,-0.14296854,0.040467747,-0.0004360829,0.089157805,-0.01442217,0.05043628,0.4557187,-1.3926035,1.9156269,-2.0843232,-1.580912,2.4250739,-0.14661357,0.22794622,-0.2907004,0.113207266,-0.07565014,-0.1962007,0.095768064,0.36391866,-9.730036,0.8224646,47.728977,-0.75781333,-2.156299,-3.6202765,-0.046839923,-0.3256554,-0.21688631,28.5,29.6875,28.9375,32.9375,35.375,36.375
0.30205262,-0.33108792,-0.5939816,-0.2510932,-0.046566464,0.053443465,-0.17815615,-0.40225184,-0.34284168,0.059936915,-3.067689,0.6134797,-0.00010390509,-0.14283065,0.042169485,-0.0013440094,0.09484667,-0.017466653,0.054215983,0.45540655,-1.3921708,1.9150413,-2.0841067,-1.5810694,2.424677,-0.1469335,0.23017466,-0.29228562,0.11771839,-0.07947471,-0.20025945,-0.038307227,0.2681506,-9.825804,0.9545008,47.690468,-0.8296453,-2.113271,-3.69504,-0.09298446,-0.2915528,-0.15092218,28.5,29.6875,28.9375,32.9375,35.375,36.375
0.3040526,-0.508089,-0.583527,0.19443046,-0.03360539,0.030171834,-0.16555019,-0.40255168,-0.34277454,0.05994069,-3.0675685,0.61332303,-0.00010562464,-0.14268456,0.043003224,-0.0011602368,0.0993754,-0.020421052,0.04946719,0.45510674,-1.3916898,1.9144186,-2.0838768,-1.5811905,2.4242954,-0.14640531,0.23179424,-0.29622647,0.12470274,-0.08222795,-0.19494796,-0.15322891,0.17238252,-9.442732,0.8717007,47.682407,-0.9076959,-2.1763735,-3.6841154,-0.15289901,-0.23651272,-0.18562487,28.5,29.6875,28.9375,32.9375,35.375,36.375
0.3060518,0.1618519,0.9018765,0.064942166,-0.00028365702,-0.0016088602,-0.17112266,-0.402858,-0.34270242,0.059956912,-3.0674376,0.6131659,2.4192273e-05,-0.14296971,0.044589818,-0.0019723377,0.103257775,-0.02305883,0.039691705,0.45483026,-1.3912446,1.9138206,-2.0836961,-1.5813707,2.4239383,-0.1478699,0.23389938,-0.29766765,0.12815449,-0.08450652,-0.18661204,-0.095768064,0.17238252,-9.346964,0.9186956,47.698532,-0.8976651,-2.077806,-3.5439854,-0.16451134,-0.18664774,-0.24107099,28.5,29.6875,28.9375,32.9375,35.375,36.375
0.30805203,1.0406021,1.4682264,0.26259932,0.03839179,-0.023969345,-0.18281198,-0.40314966,-0.34260938,0.059936844,-3.067225,0.6130445,7.3338692e-06,-0.14388737,0.04472313,-0.0005579491,0.105734825,-0.021292461,0.03785641,0.45453092,-1.3907398,1.9132222,-2.0834558,-1.5815524,2.4235916,-0.14686498,0.23384471,-0.3017017,0.13172773,-0.08753145,-0.18372895,-0.038307227,0.076614454,-9.270349,0.9388393,47.698532,-1.1148083,-2.1493726,-3.5162768,-0.2332257,-0.16149874,-0.31498143,28.5,29.6875,28.9375,32.9375,35.375,36.375
0.31005204,0.65966034,1.416934,0.5831542,0.042317357,-0.042735007,-0.1706,-0.40345186,-0.3425235,0.059955854,-3.0670652,0.6129546,4.0684128e-05,-0.14555083,0.043880332,0.0011930378,0.102810964,-0.019028703,0.034808546,0.45421848,-1.3902955,1.9125999,-2.083192,-1.5817074,2.4232445,-0.14771591,0.23356862,-0.3056789,0.13262714,-0.0859216,-0.18153931,0.11492168,-0.17238252,-9.136273,0.89631605,47.734352,-0.95615613,-2.0020478,-3.3414087,-0.2356767,-0.10695662,-0.3626755,28.5,29.6875,28.9375,32.9375,35.375,36.375
0.31205234,0.36299312,1.4482834,0.24090403,0.0494461,-0.052842073,-0.16692686,-0.40375504,-0.342447,0.05996883,-3.06693,0.6126952,8.649824e-05,-0.14816947,0.04310027,0.0025233498,0.098856464,-0.015148575,0.034596764,0.45392972,-1.3898268,1.9119657,-2.0829422,-1.5818747,2.4228117,-0.14961171,0.23417757,-0.3089554,0.1299934,-0.0841298,-0.18323296,-0.076614454,-0.15322891,-9.021352,0.8918391,47.695843,-0.96137947,-1.9804556,-3.3213809,-0.22385314,-0.15087828,-0.38466096,28.5,29.6875,28.9375,32.9375,35.375,36.375
0.31405228,-0.06562671,0.63287395,0.2994597,0.027803311,-0.019170182,-0.17775899,-0.40398514,-0.34235707,0.0599579,-3.0667171,0.61254984,-3.6684123e-05,-0.15009348,0.042627968,0.0032809374,0.09689928,-0.011542809,0.04134436,0.45366558,-1.3894066,1.9114269,-2.08262,-1.5820187,2.4224854,-0.15037121,0.2348011,-0.31083623,0.1270186,-0.08407938,-0.19072372,-0.15322891,-0.1340753,-9.136273,0.8918391,47.66091,-0.92924047,-1.873432,-3.2861562,-0.23034073,-0.116798714,-0.32564172,28.5,29.6875,28.9375,32.9375,35.375,36.375
0.31605238,-1.1707159,-0.17789546,0.2648641,-0.024460414,0.022149356,-0.19202821,-0.40432346,-0.34228045,0.06000023,-3.0665698,0.6123766,4.7123125e-05,-0.15129355,0.04026847,0.0039274525,0.09029657,-0.010078766,0.053168416,0.45335376,-1.3889254,1.9106973,-2.0823095,-1.5821971,2.422085,-0.15038899,0.23604628,-0.31317237,0.12368606,-0.07892961,-0.20261349,-0.038307227,-0.30645782,-9.32781,0.9298854,47.63315,-1.0170696,-1.8124561,-3.254071,-0.16168764,-0.13677529,-0.22589073,28.5,29.6875,28.9375,32.9375,35.375,36.375
0.31805223,-1.4844657,-1.1651899,0.102176204,-0.044975728,0.05473904,-0.17605552,-0.4046081,-0.34220594,0.05999618,-3.0664344,0.6120568,3.5268546e-05,-0.15254949,0.039527103,0.0043692095,0.08645099,-0.007431322,0.05966787,0.4530772,-1.3884448,1.9100875,-2.0820596,-1.582352,2.4216268,-0.15142827,0.23594186,-0.31328613,0.11969179,-0.07674518,-0.21016644,-0.17238253,-0.22984336,-9.442732,0.8851263,47.67345,-0.87972414,-1.7606149,-3.25381,-0.13549256,-0.1611704,-0.121787004,28.5,29.6875,28.9375,32.9375,35.375,36.375
0.32005203,-2.2477357,-1.3484973,0.3275947,-0.074040055,0.07921065,-0.18151824,-0.40489656,-0.3420967,0.059991505,-3.0662272,0.6119199,1.5672036e-05,-0.1538427,0.03988946,0.0038227239,0.08453798,-0.008000729,0.055031847,0.45275226,-1.3879877,1.9095014,-2.081785,-1.5825313,2.4212441,-0.15426384,0.2378429,-0.31403506,0.118167326,-0.07480985,-0.20837508,-0.53630114,-0.1340753,-9.442732,0.842603,47.684196,-0.86809796,-1.6801827,-3.4681935,-0.091405734,-0.21312675,-0.07565471,28.5,29.6875,28.9375,32.9375,35.375,36.375
0.3220521,-2.4715583,-0.9463923,-0.1334052,-0.0562259,0.06339913,-0.17976327,-0.4051836,-0.34202746,0.05999571,-3.0661094,0.6117247,-3.238857e-05,-0.15234175,0.03842442,0.0012640046,0.08532414,-0.012949515,0.050672557,0.4524535,-1.3875179,1.9088815,-2.0815213,-1.5826391,2.4208393,-0.15123579,0.24321304,-0.3146112,0.11820686,-0.07332411,-0.20099379,-0.63206923,-0.019153614,-9.595961,0.89631605,47.69763,-1.0834905,-1.7602205,-3.6109548,-0.08074412,-0.21223468,-0.12608027,28.5,29.6875,28.9375,32.9375,35.375,36.375
0.32405204,-1.8514322,-0.3221776,-0.43012136,-0.033555254,0.05432273,-0.18038633,-0.40550855,-0.3419516,0.059989214,-3.0659764,0.6115659,2.6083439e-05,-0.15267622,0.03872191,-0.0006625791,0.08575253,-0.015989432,0.041263577,0.45214117,-1.3869998,1.9082483,-2.081342,-1.5827945,2.4204457,-0.15252808,0.24739055,-0.31506577,0.11744711,-0.0723377,-0.19288178,-0.5554548,0.15322891,-9.710882,0.9835985,47.675243,-1.1484076,-2.0205998,-3.7459822,-0.05251883,-0.23050144,-0.2200294,28.5,29.6875,28.9375,32.9375,35.375,36.375
0.32605213,-1.7227901,0.03274072,-0.089911096,-0.027349627,0.038236547,-0.17624483,-0.40581858,-0.341895,0.06000634,-3.0659015,0.6113425,8.496531e-05,-0.15410452,0.037784774,0.0006461535,0.08356972,-0.013545851,0.03528362,0.45185322,-1.3865309,1.9076132,-2.0811388,-1.5829147,2.4200282,-0.15255973,0.24764591,-0.31847593,0.11747672,-0.071415424,-0.18693909,-0.6895301,0.19153613,-9.634268,0.97464454,47.66091,-1.1059248,-1.9872384,-3.7072916,-0.02958362,-0.25831237,-0.2951007,28.5,29.6875,28.9375,32.9375,35.375,36.375
0.32805252,-0.4928085,0.16192837,-0.34726778,-0.011822613,0.035330024,-0.18021415,-0.40615392,-0.34180173,0.06002767,-3.0657241,0.61130816,0.00016595687,-0.15406765,0.037699014,0.00046235498,0.08435437,-0.016512733,0.029043376,0.4515172,-1.3860497,1.9069432,-2.0808856,-1.583094,2.4196947,-0.15262704,0.24970041,-0.32145235,0.12142841,-0.070795186,-0.18076713,-0.5554548,0.22984336,-9.595961,0.9612189,47.672558,-1.2151833,-2.0222766,-3.6450186,-0.023199927,-0.28367198,-0.42590293,28.5,29.6875,28.9375,32.9375,35.375,36.375
0.33005252,-1.1671268,-0.034753066,-0.26228416,-0.0030273271,0.006652808,-0.18805939,-0.40644744,-0.34172735,0.06000432,-3.065557,0.61125267,7.428491e-05,-0.15362823,0.03832467,0.0006911334,0.08561656,-0.021557909,0.027979787,0.45120493,-1.3855209,1.9063209,-2.0806434,-1.5832018,2.4193704,-0.15386368,0.2506112,-0.32483363,0.12894285,-0.06976563,-0.18094099,-0.63206923,0.21068975,-9.595961,0.8314132,47.709274,-1.1880808,-1.9945395,-3.6094818,-0.08352265,-0.29438242,-0.4921002,28.5,29.6875,28.9375,32.9375,35.375,36.375
0.33205193,-0.7635164,-0.12168328,-0.27211842,-0.017281124,0.013631916,-0.18909194,-0.40676025,-0.34164056,0.06001959,-3.065381,0.611076,7.061845e-05,-0.1526454,0.03904264,0.000989561,0.08783657,-0.026578285,0.03642782,0.45089275,-1.385029,1.9056381,-2.0803297,-1.5833696,2.4189715,-0.1541967,0.25073054,-0.32749528,0.1368081,-0.069687314,-0.189716,-0.4405331,0.22984336,-9.519346,0.9835985,47.678825,-1.1761394,-1.8609493,-3.519895,-0.16401488,-0.34191954,-0.47774473,28.5,29.6875,28.9375,32.9375,35.375,36.375
0.33405206,-1.3868309,-0.39220473,-0.10304705,-0.03492626,0.007801826,-0.18869653,-0.40706423,-0.3415462,0.06002037,-3.065191,0.61089426,6.4545443e-06,-0.15216608,0.040660705,0.00028614755,0.091044545,-0.031563833,0.048112832,0.45056796,-1.3845236,1.90497,-2.0800045,-1.583526,2.4185588,-0.15592226,0.2520346,-0.32875738,0.14243074,-0.070574924,-0.20310782,-0.34476504,0.21068975,-9.500193,0.88960326,47.691364,-1.0705937,-1.8480196,-3.5673585,-0.24981998,-0.3786041,-0.34194392,28.5,29.6875,28.9375,32.9375,35.375,36.375
0.33605233,-1.4104158,-0.9631124,0.05839485,-0.04825734,0.02580033,-0.18461719,-0.4073467,-0.34148648,0.060003854,-3.0650623,0.6106114,-9.918916e-05,-0.15326774,0.04147255,0.00013450721,0.0924054,-0.03384349,0.056671385,0.45029175,-1.3839946,1.9043235,-2.079728,-1.5836343,2.4181232,-0.15790868,0.25452942,-0.33221996,0.14586744,-0.0709627,-0.2136379,-0.30645782,0.1340753,-9.442732,0.98807013,47.685097,-1.2620507,-1.9228117,-3.4501257,-0.29655728,-0.3806374,-0.2210225,28.5,29.6875,28.9375,32.9375,35.375,36.375
0.33805218,-1.8727561,-1.0037415,0.27027115,-0.04850567,0.030672517,-0.18632661,-0.40767536,-0.34142447,0.06004072,-3.0649962,0.61034685,-4.0005772e-05,-0.1549007,0.040161155,0.00082178356,0.09163541,-0.027785826,0.05974539,0.4499804,-1.3835256,1.9036292,-2.079467,-1.5837549,2.4176555,-0.15561116,0.25539544,-0.33375224,0.14069474,-0.07295666,-0.21438845,-0.22984336,0.11492168,-9.442732,0.9612189,47.657326,-1.2513425,-1.8501455,-3.4773483,-0.29115024,-0.3811044,-0.13730761,28.5,29.6875,28.9375,32.9375,35.375,36.375
0.34005266,-1.5363582,-0.48249733,0.4019455,-0.031458348,0.04587049,-0.1767948,-0.40801066,-0.34131816,0.060033843,-3.064789,0.6101926,-3.4002212e-05,-0.15838836,0.040272444,0.001847448,0.09143487,-0.020875309,0.052143615,0.4496321,-1.3829844,1.9029473,-2.0791934,-1.583948,2.4172387,-0.15683605,0.2568776,-0.33691916,0.13609856,-0.075784065,-0.20796728,-0.22984336,0.0,-9.3661175,0.90527004,47.701214,-1.3299508,-1.9823442,-3.4295816,-0.2656705,-0.37419823,-0.22263846,28.5,29.6875,28.9375,32.9375,35.375,36.375
0.34205258,-1.3938248,1.0044137,0.3639819,-0.02117932,0.044931155,-0.18488158,-0.40832937,-0.3412374,0.060048915,-3.0646348,0.6101048,1.3286244e-05,-0.16111599,0.04016363,0.0014971578,0.09135419,-0.0147030065,0.045489304,0.44931993,-1.3825033,1.9022912,-2.078945,-1.5841049,2.4168925,-0.15718353,0.2594523,-0.3375865,0.12863593,-0.07838076,-0.20162308,-0.13407528,0.019153614,-9.270349,0.8985519,47.667187,-1.2494421,-1.8839326,-3.491478,-0.16326371,-0.38515413,-0.30029714,28.5,29.6875,28.9375,32.9375,35.375,36.375
0.34405246,-1.1555794,0.476756,0.14364225,0.0070340075,0.04225456,-0.18334427,-0.4086427,-0.34115306,0.060019482,-3.0644464,0.60989434,-5.7307447e-05,-0.16655271,0.04112158,0.0024155597,0.09247313,-0.005405657,0.040311098,0.44900686,-1.3819261,1.9016203,-2.0786836,-1.5842627,2.4164734,-0.16010784,0.2626364,-0.34207135,0.12204157,-0.08347656,-0.19929354,0.0,0.038307227,-9.289502,0.98135734,47.684196,-1.0737932,-1.7945644,-3.507731,-0.094805606,-0.31658965,-0.3549959,28.5,29.6875,28.9375,32.9375,35.375,36.375
0.3460527,-1.3328596,0.64645326,0.6078849,-0.010261875,0.03544639,-0.19159715,-0.4089959,-0.34107885,0.060051568,-3.064351,0.6097401,4.8783277e-05,-0.1690016,0.042983122,0.0039689126,0.09284931,-0.0016070358,0.037455674,0.4486698,-1.3814332,1.9009155,-2.0784562,-1.5844072,2.4160528,-0.16398689,0.26079112,-0.34352696,0.122020796,-0.08549509,-0.20029253,-0.095768064,-0.019153614,-9.232041,0.99031126,47.683304,-1.1567179,-1.8823426,-3.4247937,-0.030770173,-0.3155042,-0.3983425,28.5,29.6875,28.9375,32.9375,35.375,36.375
0.34805164,-0.7794237,0.46321,0.5261465,-0.0021169414,0.022662826,-0.18299912,-0.40932724,-0.34098193,0.060033806,-3.0641434,0.6095587,0.00010778073,-0.17059064,0.043845244,0.0034453678,0.09823479,0.001583384,0.0435353,0.4483582,-1.3808804,1.900257,-2.078241,-1.5846256,2.4156559,-0.16271083,0.2637862,-0.3455683,0.12041451,-0.091823995,-0.20501158,-0.15322891,0.076614454,-9.021352,0.9679317,47.682407,-1.1016893,-1.7417431,-3.4726622,0.037724376,-0.2633411,-0.37467012,28.5,29.6875,28.9375,32.9375,35.375,36.375
0.35005262,-1.0487387,0.41899925,0.094057366,0.010479522,-0.001938714,-0.18124516,-0.40965062,-0.34090507,0.060023498,-3.0639882,0.60923135,8.458089e-05,-0.17031726,0.04599324,0.001395986,0.10300527,-0.0037017663,0.053519662,0.44805744,-1.3803145,1.8995517,-2.077965,-1.5847944,2.4151714,-0.16471475,0.267137,-0.34568503,0.12378852,-0.09399302,-0.21696381,-0.2681506,0.1340753,-9.174581,0.90750587,47.709274,-1.0036227,-1.8054228,-3.4688115,0.040771022,-0.1886869,-0.27875274,28.5,29.6875,28.9375,32.9375,35.375,36.375
0.35205176,-0.8111789,0.6633466,0.2460986,-0.005867305,0.00017562554,-0.18712135,-0.41001517,-0.3407905,0.060038432,-3.063788,0.6090491,0.0002462998,-0.17206387,0.046374857,0.001664791,0.10571468,-0.0030679463,0.06300158,0.44770935,-1.3797972,1.8988575,-2.0777361,-1.5850471,2.4147363,-0.1648986,0.27012262,-0.35037202,0.12587719,-0.09684516,-0.22659068,-0.24899697,0.095768064,-9.232041,0.96569055,47.683304,-1.0222361,-1.9006137,-3.4728503,0.070336536,-0.14567597,-0.12985079,28.5625,29.6875,28.9375,32.9375,35.375,36.375
0.354052,-0.85945433,-0.055419475,0.20439194,-0.012298877,0.014913149,-0.18203858,-0.41035724,-0.34071746,0.06004876,-3.0636604,0.6087922,0.00024400569,-0.17219163,0.047768634,0.0014638527,0.10824448,-0.0061967256,0.061958913,0.4473849,-1.379244,1.8981165,-2.0774472,-1.5851916,2.4142685,-0.16666669,0.2711401,-0.35227022,0.13060352,-0.09781187,-0.22729513,-0.36391866,0.019153614,-9.212888,0.96569055,47.691364,-1.0016147,-1.9243045,-3.4908948,0.054516047,-0.1252297,-0.08197746,28.5625,29.6875,28.9375,32.9375,35.375,36.375
0.35605216,-1.1121413,-0.1543276,0.24624635,-0.01056754,0.011240194,-0.1737861,-0.4106775,-0.34062755,0.060044676,-3.0635111,0.60861164,0.00022525148,-0.17046355,0.04858528,3.495451e-05,0.110930234,-0.014932623,0.053989884,0.44704884,-1.3787271,1.8974589,-2.077193,-1.5853347,2.4138398,-0.16736539,0.27394697,-0.35427734,0.1388794,-0.096406996,-0.2200304,-0.4213795,0.114921674,-9.155427,0.9321212,47.667187,-1.0437653,-2.0378628,-3.5092242,0.004967713,-0.09143324,-0.111637264,28.5625,29.6875,28.9375,32.9375,35.375,36.375
0.35805207,-0.7304996,-0.38417727,0.48204806,-0.014273408,0.024490416,-0.17993289,-0.41102237,-0.34051466,0.060034774,-3.0632653,0.60844976,0.0002664743,-0.1682235,0.049144644,-0.00068667304,0.11185992,-0.024346046,0.04325532,0.44671246,-1.3781621,1.8967532,-2.0769145,-1.5855736,2.4134355,-0.16837205,0.2749668,-0.3561454,0.14866756,-0.09310458,-0.21033017,-0.47884035,0.076614454,-9.11712,0.94331104,47.685097,-0.98544335,-1.9194517,-3.5248904,-0.0925114,-0.11355563,-0.21787271,28.5625,29.6875,28.9375,32.9375,35.375,36.375
0.36005196,-1.0805596,0.3926495,0.5690632,-0.021382948,-0.0036946577,-0.18192847,-0.41135487,-0.34042582,0.060024925,-3.0630784,0.60826075,0.00019779534,-0.16716895,0.049146984,-0.00020161245,0.11110675,-0.030033192,0.034430027,0.44637606,-1.3775848,1.8960236,-2.0766003,-1.5857285,2.4130063,-0.16932523,0.2749426,-0.35911614,0.15651093,-0.089928634,-0.20248243,-0.40222588,0.15322891,-9.078813,0.8403672,47.695843,-0.91793716,-1.947883,-3.5140429,-0.19558725,-0.15609367,-0.3190868,28.5625,29.6875,28.9375,32.9375,35.375,36.375
0.36205196,0.14048158,0.5255447,0.6248343,-0.007726359,-0.009044875,-0.19063838,-0.41168207,-0.3403146,0.060013276,-3.0628264,0.60815287,0.00012131029,-0.16628174,0.049103417,-0.0012290173,0.10871505,-0.03659652,0.025382675,0.44602752,-1.3770202,1.895306,-2.0762522,-1.5859188,2.4126246,-0.17148782,0.2768487,-0.36007252,0.16046779,-0.084920496,-0.19564411,-0.61291564,0.076614454,-9.002198,1.0305934,47.687782,-1.0469755,-1.8447262,-3.4495683,-0.26555648,-0.18059264,-0.44897127,28.5625,29.6875,28.9375,32.9375,35.375,36.375
0.36405182,-0.57013845,-0.042921953,0.61600983,0.00028293216,-0.019507093,-0.17036597,-0.41202778,-0.34023172,0.06001074,-3.0626664,0.60794365,0.0001021587,-0.16750695,0.048413392,-0.00083264994,0.10797638,-0.034321696,0.028778145,0.44569194,-1.3764429,1.8945655,-2.0759661,-1.5860752,2.41218,-0.17089969,0.27818203,-0.3623541,0.1589455,-0.08532598,-0.198436,-0.51714754,-0.076614454,-9.097966,0.9164598,47.70032,-1.0626079,-1.8571733,-3.6654704,-0.28773472,-0.19954672,-0.48964083,28.5625,29.6875,28.9375,32.9375,35.375,36.375
0.3660521,-0.45338777,0.365103,0.5893041,-0.021735704,-0.0050179358,-0.18470912,-0.41234365,-0.34013462,0.05999867,-3.0624511,0.60777366,-1.8607092e-05,-0.1708533,0.045703474,0.0015725684,0.100125566,-0.02843309,0.04091673,0.44535568,-1.3758786,1.8938459,-2.075608,-1.5862297,2.4117668,-0.17152908,0.27890253,-0.36800525,0.15490668,-0.08101437,-0.21124424,-0.095768064,-0.19153613,-9.040505,1.0305934,47.695843,-1.0659937,-1.7674253,-3.4574494,-0.2626594,-0.25846538,-0.41089967,28.5625,29.6875,28.9375,32.9375,35.375,36.375
0.36805224,-0.99339294,-0.16167313,0.79363424,-0.03537791,0.020249767,-0.18134168,-0.41270313,-0.3400243,0.059989132,-3.0622525,0.60755235,-3.264306e-05,-0.17461804,0.043970976,0.002168335,0.09441875,-0.0203176,0.05319787,0.44498333,-1.3752892,1.8931049,-2.0753129,-1.5864209,2.411283,-0.17237319,0.28107068,-0.36980668,0.14447708,-0.079595245,-0.2243785,-0.22984336,-0.17238252,-9.059659,0.9321212,47.694946,-1.0897309,-1.7213044,-3.421802,-0.18533266,-0.2954966,-0.2820222,28.5625,29.6875,28.9375,32.9375,35.375,36.375
0.3700522,-1.377402,-0.23033021,1.1251595,-0.0510813,0.061671562,-0.19027056,-0.41299823,-0.33995503,0.059967823,-3.0620892,0.60733956,-0.00018596968,-0.17636657,0.041188918,0.0021893745,0.09037569,-0.016059872,0.061759457,0.44468418,-1.3747228,1.8924111,-2.0749915,-1.5865287,2.4108732,-0.16989392,0.28441653,-0.3726092,0.1382014,-0.07793174,-0.23046798,-0.34476504,-0.1340753,-8.983045,0.91198283,47.711964,-1.2847941,-1.8453064,-3.3312583,-0.10853934,-0.31968647,-0.17597875,28.5625,29.6875,28.9375,32.9375,35.375,36.375
0.37205216,-1.8747401,0.33242005,0.61758643,-0.03423162,0.052782446,-0.18702321,-0.4133792,-0.33986366,0.059980456,-3.0619345,0.6071748,-0.00014985175,-0.17749201,0.039735865,0.0033162234,0.08729833,-0.012910226,0.058297742,0.44431263,-1.3741348,1.891622,-2.074705,-1.586696,2.4104197,-0.16901398,0.28445405,-0.3749911,0.1363772,-0.0765037,-0.22613822,-0.2681506,-0.095768064,-9.059659,0.8314132,47.664497,-1.3543391,-1.8710468,-3.34768,-0.029307602,-0.39287618,-0.19858077,28.5625,29.6875,28.9375,32.9375,35.375,36.375
0.3740522,-1.5019069,0.5361348,0.16724774,-0.0087419,0.04619957,-0.1746165,-0.41370937,-0.33978602,0.059950676,-3.0617743,0.6068566,-0.00021680821,-0.17866531,0.03974484,0.0020835076,0.08802411,-0.014518035,0.05008105,0.44400036,-1.3735211,1.8909038,-2.0744412,-1.586852,2.4099302,-0.16989025,0.2891143,-0.37787387,0.13642415,-0.0764364,-0.21878448,-0.36391866,0.11492168,-9.232042,1.0126908,47.67614,-1.3633673,-1.932486,-3.294502,-0.013394926,-0.41597462,-0.2807988,28.5625,29.6875,28.9375,32.9375,35.375,36.375
0.3760524,-1.1880842,0.45917132,0.21425308,-0.010741445,0.03142984,-0.17841274,-0.41409844,-0.33969954,0.05996245,-3.0616195,0.6066926,-0.0001451012,-0.17674254,0.04224053,-0.0010619664,0.092841834,-0.022658484,0.043287046,0.4436396,-1.3729192,1.8901047,-2.074177,-1.5870327,2.409488,-0.1719293,0.29194137,-0.37498719,0.14014603,-0.07725314,-0.21401429,-0.30645782,0.22984336,-9.3661175,1.0104496,47.719128,-1.3880174,-2.089046,-3.524986,-0.011227416,-0.44716072,-0.34243715,28.5625,29.6875,28.9375,32.9375,35.375,36.375
