Tylouw/Master_Thesis_Code/training_data/batch_1/small_rod_t0.3/sample_89_session_3.csv
timestamp[s],tcp_force_x[N],tcp_force_y[N],tcp_force_z[N],tcp_force_rx[Nm?],tcp_force_ry[Nm?],tcp_force_rz[Nm?],tcp_pose_x[m],tcp_pose_y[m],tcp_pose_z[m],tcp_pose_rx[rot_vec_x],tcp_pose_ry[rot_vec_y],tcp_pose_rz[rot_vec_z],tcp_velo_x[m/s],tcp_velo_y[m/s],tcp_velo_z[m/s],tcp_velo_rx[rot_vec_x/s],tcp_velo_ry[rot_vec_y/s],tcp_velo_rz[rot_vec_z/s],q1[rad],q2[rad],q3[rad],q4[rad],q5[rad],q6[rad],qd1[rad/s],qd2[rad/s],qd3[rad/s],qd4[rad/s],qd5[rad/s],qd6[rad/s],tool_acc_x,tool_acc_y,tool_acc_z,current_of_whole_robot[A],voltage_of_whole_robot[V],current_J1[A],current_J2[A],current_J3[A],current_J4[A],current_J5[A],current_J6[A],temp_J1[C],temp_J2[C],temp_J3[C],temp_J4[C],temp_J5[C],temp_J6[C]
6.3100015e-07,-0.9057913,-0.92383265,0.8814945,0.005407652,-0.0101505015,-0.0056842123,-0.38106182,-0.34852687,0.059970707,-3.078537,0.6248813,-0.00017350214,0.0019054257,0.0009779668,-0.0024914793,0.0022782632,-0.004753812,5.6167366e-05,0.47778615,-1.4259454,1.9577278,-2.100845,-1.5707458,2.4527402,-8.5462656e-05,0.0015614983,0.0039745453,-0.0002676413,0.0001706374,-0.00014363305,0.05746084,0.1340753,-8.7532015,0.7597976,47.729877,0.0635729,-2.8858197,-2.517127,-0.4460787,0.15696761,0.05190122,28.625,29.75,28.9375,33.0,35.375,36.5
0.00205252,-1.2127541,-0.16915676,0.78435194,0.0035871281,-0.022200609,-0.014866526,-0.38105214,-0.34852436,0.05995587,-3.0785086,0.62491375,-0.00018657585,-0.0009856037,-0.00052726833,-0.0025495882,-0.0016497411,0.0027894168,5.6628895e-05,0.47779807,-1.4259325,1.9577507,-2.1008608,-1.5707573,2.452776,-8.431882e-05,0.0038238056,0.003981134,-0.011041204,0.00016543899,-0.00014042479,0.05746084,0.1340753,-8.676587,0.71279734,47.728977,0.028251126,-2.9160833,-2.4559402,-0.38574183,0.16034494,0.039617233,28.625,29.75,28.9375,33.0,35.375,36.5
0.0040522357,-0.05894566,-0.37149888,0.912668,0.006438989,0.0041710506,-0.012082821,-0.38108414,-0.34852496,0.059969563,-3.078554,0.62492335,-0.00012508717,-0.0017625456,-0.0009306762,-0.0022689526,-0.00286491,0.005134014,5.5265387e-05,0.47776207,-1.4259326,1.9577278,-2.1008976,-1.5707458,2.4527402,-8.3203704e-05,0.0038424307,0.0039071925,-0.013626658,0.0001605228,-0.00013736835,0.05746084,0.11492168,-8.7532015,0.82694155,47.74868,0.07155998,-3.1222014,-2.617847,-0.2839393,0.14593913,0.052141443,28.625,29.75,28.9375,33.0,35.375,36.5
0.006052485,-0.11313445,-0.17893778,0.76710147,0.015162271,-0.012440815,-0.021655295,-0.38104388,-0.34851554,0.059934977,-3.0784764,0.62490726,-0.00021922463,-0.0009096136,-0.00048506228,-0.0014939007,-0.0015996489,0.0027218321,5.2712574e-05,0.47779807,-1.4259092,1.957774,-2.1008708,-1.5707697,2.452776,-8.212071e-05,0.0023226426,0.00260598,-0.008081799,0.00015588822,-0.00013443746,0.05746084,0.21068975,-8.7532015,0.7553206,47.733456,0.073272005,-3.0986962,-2.5907326,-0.31223905,0.16582231,0.04655938,28.625,29.75,28.9375,33.0,35.375,36.5
0.008052604,-0.28219745,0.38189724,0.36409116,0.037781283,-0.043352686,-0.013722694,-0.38105956,-0.34852612,0.059948303,-3.0785048,0.62487453,-0.00014833148,-0.0005032472,-0.00027179674,-0.00029620057,-0.0012650094,0.0020996789,6.798814e-05,0.4778101,-1.4259099,1.9577497,-2.1008942,-1.5707816,2.452764,-8.106412e-05,0.00018610335,0.0013774093,-0.0040103183,0.00015151432,-0.00014917737,0.05746084,0.19153613,-8.887277,0.75755644,47.713753,0.042054772,-2.9323463,-2.538014,-0.35129857,0.16017787,0.049729515,28.625,29.75,28.9375,33.0,35.375,36.5
0.010051825,0.063138254,0.74597245,0.27171707,0.037064318,-0.03388169,-0.024055582,-0.38105884,-0.3485166,0.059945814,-3.078483,0.62494755,-0.00019091168,-3.1962376e-05,-2.1169732e-05,-0.00021914413,-0.00039885822,0.00044649487,5.9316662e-05,0.47778615,-1.42591,1.9577497,-2.100869,-1.5707697,2.4527884,-8.756386e-05,2.496814e-06,0.0008163275,-0.0013992824,0.00014737883,-0.00014727192,0.038307227,0.15322891,-9.136273,0.6702794,47.72629,-0.39546502,-2.4987774,-2.9669228,-0.4062715,0.14246598,-0.0058452566,28.625,29.75,28.9375,33.0,35.375,36.5
0.012051734,-0.68463445,-0.23392574,-0.122075334,0.024073103,-0.037623547,-0.018000124,-0.38105622,-0.34851524,0.059935804,-3.078491,0.62487197,-0.00020538222,-0.00035226333,-0.0001812283,-0.0019229397,0.0012670835,-0.0027690225,9.364402e-05,0.47778615,-1.4258968,1.9577602,-2.1008809,-1.5707697,2.4527402,-0.00010075256,0.0050859964,-0.001212558,-0.00083244155,0.00014346275,-0.00019306228,0.11492168,0.0,-9.423578,0.80456203,47.678825,-0.6215077,-2.3900025,-3.0105271,-0.4022798,0.15958568,-0.053156503,28.625,29.75,28.9375,33.0,35.375,36.5
0.014051811,-0.6675794,-0.60463524,-0.23057996,-0.012667052,-0.0041315807,-0.02183286,-0.38106346,-0.34850138,0.05991922,-3.0784538,0.62494254,-0.000280186,-0.0050490843,0.002895573,-0.0044814404,0.0034310126,-0.006966806,-0.0029662594,0.4777467,-1.4258571,1.9577473,-2.1008565,-1.5707573,2.4527495,-0.009922561,0.014279067,-0.0058897277,-0.00062669505,0.00013975012,-0.0069511835,-0.038307227,0.11492168,-9.461885,0.683705,47.71286,-0.36318225,-3.0927494,-2.9856694,-0.41126907,0.15945202,-0.07047415,28.625,29.75,28.9375,33.0,35.375,36.5
0.016051767,-1.6183239,-0.93887174,-0.54093754,-0.052119765,0.009350251,-0.031766735,-0.38105166,-0.34846374,0.05987902,-3.0783453,0.62487864,-0.00039099317,-0.0059443777,0.0035150659,-0.0034716337,0.002515632,-0.005245565,0.00363795,0.477722,-1.4257979,1.9577583,-2.100797,-1.5708054,2.4526987,-0.011862473,0.012390168,-0.0060718283,-0.0005072385,0.00015593905,-0.015495589,-0.21068975,0.22984336,-9.557653,0.75084364,47.709274,-0.2949101,-2.9161515,-3.0307689,-0.41380477,0.16682991,0.00025429088,28.625,29.75,28.9375,33.0,35.375,36.5
0.018051747,-2.022271,-1.7157586,-0.38408542,-0.05205949,0.04340296,-0.040114537,-0.38102514,-0.34849468,0.05987482,-3.0784009,0.6247914,-0.00043919048,-0.0052355113,0.003606586,-0.0031507728,0.0025454871,-0.0052955034,0.007712771,0.4777702,-1.4257984,1.9577712,-2.1008089,-1.5707573,2.4526854,-0.011367259,0.010684712,-0.0050242036,0.00020884852,0.00015482237,-0.019076139,-0.40222588,0.30645782,-9.634268,0.79560274,47.698532,-0.5252662,-2.6311898,-3.2583456,-0.42194897,0.17056787,0.0436397,28.625,29.75,28.9375,33.0,35.375,36.5
0.020051705,-1.6645161,-0.9195077,-0.4678224,-0.042746525,0.07373788,-0.0696122,-0.38105118,-0.34848946,0.059880666,-3.0784142,0.6248147,-0.00046484568,-0.006191455,0.004468476,-0.0037864053,0.003189008,-0.0065792347,0.0060515334,0.47772133,-1.4257739,1.9577245,-2.100785,-1.5707334,2.4526494,-0.013796249,0.012617085,-0.0058489423,0.00053738646,0.00017183927,-0.019843267,-0.51714754,0.24899697,-9.749189,0.75755644,47.658226,-0.5459666,-2.5994158,-3.4676836,-0.45571864,0.1747753,0.009082603,28.625,29.75,28.9375,33.0,35.375,36.5
0.022051759,-1.8871875,-0.39109007,-0.6583013,-0.010582891,0.06742168,-0.091795355,-0.3810645,-0.34848922,0.059865013,-3.0784073,0.62481505,-0.00047791447,-0.008533417,0.004437448,-0.0026663556,0.0018440766,-0.004298741,0.0033862859,0.47770855,-1.4257256,1.9577106,-2.1008089,-1.5707334,2.4526377,-0.015999764,0.0135724535,-0.0095132105,0.0006023209,0.0003099538,-0.019379819,-0.57460845,0.19153613,-9.730036,0.7665104,47.694946,-0.6030292,-2.5367193,-3.466685,-0.4556366,0.18036823,0.009515839,28.625,29.75,28.9375,33.0,35.375,36.5
0.024051761,-1.842359,-0.17398138,-0.6431553,0.006760355,0.046585985,-0.10463206,-0.38106415,-0.34847543,0.059841465,-3.0783741,0.624829,-0.00053839164,-0.009681802,0.0042759087,-0.0030781343,-0.00022400073,-0.0059113316,0.00070622517,0.47768372,-1.4256889,1.9577225,-2.1008089,-1.5707325,2.4526258,-0.018449707,0.016060043,-0.011373066,0.0004466132,0.0028826066,-0.019153543,-0.61291564,0.114921674,-9.615114,0.7978386,47.70211,-0.55019546,-2.5664678,-3.4470112,-0.45583004,0.15037484,-0.0064396868,28.625,29.75,28.9375,33.0,35.375,36.5
0.026051909,-1.9491593,-0.25743082,-0.69566643,0.0075861113,0.04595933,-0.116435245,-0.38111916,-0.34848633,0.059874758,-3.0784392,0.62476534,-0.0004091848,-0.010333036,0.0035564068,-0.002355282,-0.0016463287,-0.004614858,0.00031368306,0.47765988,-1.4256768,1.9576381,-2.1008327,-1.5707444,2.452554,-0.018203875,0.016140625,-0.013075746,0.00026101255,0.0035476685,-0.018515259,-0.7278373,0.019153614,-9.787497,0.7329411,47.71286,-0.62629557,-2.4586391,-3.4377913,-0.46176082,0.15019634,-0.0079216445,28.625,29.75,28.9375,33.0,35.375,36.5
0.028051786,-2.0747736,-0.431565,-0.69569945,-0.008553197,0.068259746,-0.13434048,-0.3811239,-0.3484729,0.059840336,-3.078379,0.62481165,-0.0005365482,-0.011222375,0.0035685208,-0.0025727374,-0.001122173,-0.00439039,-0.0013959309,0.4776238,-1.4255923,1.9576124,-2.100797,-1.5707325,2.4525545,-0.01867676,0.018023593,-0.014670555,1.7042254e-05,0.002973796,-0.017276557,-0.7661445,-0.019153614,-9.864111,0.7418897,47.670765,-0.6949306,-2.5505598,-3.3380923,-0.45902407,0.15237683,-0.009749329,28.625,29.75,28.9375,33.0,35.375,36.5
0.030051725,-2.01564,-0.6085816,-0.5761939,-0.014527111,0.086135805,-0.14773645,-0.38113013,-0.34846234,0.059829403,-3.078349,0.6248066,-0.0005942462,-0.012266758,0.0036265303,-0.0021883592,-0.0007725195,-0.003082954,-0.002644889,0.47759956,-1.4255562,1.9575881,-2.1007612,-1.570733,2.4525309,-0.019151809,0.018778736,-0.016406689,1.1127373e-06,0.0020580837,-0.016499901,-0.7469909,-0.019153614,-9.902418,0.78217715,47.694054,-0.7617227,-2.5435705,-3.463015,-0.45567524,0.15832485,-0.05029875,28.625,29.75,28.9375,33.0,35.375,36.5
0.032051954,-2.4854064,-0.85879445,-0.58081603,0.0026232006,0.072642006,-0.14733952,-0.38114634,-0.3484344,0.0598037,-3.0783212,0.6248785,-0.00064928277,-0.013554277,0.0039433828,-0.0012665478,-0.0013989414,-0.0011303514,-0.0048020286,0.47752708,-1.4255204,1.9576114,-2.100785,-1.570721,2.4525068,-0.020681486,0.018149877,-0.017797181,7.26538e-08,0.0017136862,-0.015871188,-0.6895301,0.019153614,-9.749189,0.69041777,47.71286,-0.7532419,-2.5135183,-3.339179,-0.4464147,0.15807919,-0.080027804,28.625,29.75,28.9375,33.0,35.375,36.5
0.03405236,-2.4996128,-0.65699863,-0.7957153,0.028081516,0.049026612,-0.14948665,-0.38121545,-0.3484367,0.05983962,-3.07836,0.6248481,-0.00049829116,-0.014535593,0.004312977,-0.0014442167,-0.001216536,-0.001265056,-0.005853572,0.4774905,-1.425496,1.9575042,-2.100797,-1.5707568,2.4524465,-0.022178419,0.019594213,-0.01903819,4.7437734e-09,0.0016121699,-0.016315356,-0.6895301,-0.019153614,-9.787497,0.8023209,47.704796,-0.6759552,-2.5379791,-3.3956063,-0.43663967,0.16887106,-0.06705569,28.625,29.75,28.9375,33.0,35.375,36.5
0.036052667,-1.4036787,-0.052906703,-0.5036371,0.030500581,0.048313282,-0.17824748,-0.38124353,-0.34844822,0.059843887,-3.078396,0.6249332,-0.0005162202,-0.015946709,0.0044095223,-0.0008651683,-0.0018769691,-1.3685006e-05,-0.0070393854,0.47745398,-1.4254599,1.957456,-2.1008089,-1.5707091,2.4524584,-0.023659034,0.020236323,-0.021094427,3.0973452e-10,0.0016195099,-0.016608994,-0.5554548,-0.05746084,-9.787497,0.75084364,47.689575,-0.6530217,-2.397615,-3.3452568,-0.44945478,0.16859196,-0.1037496,28.625,29.75,28.9375,33.0,35.375,36.5
0.038051642,-1.5403903,0.10181297,-0.38652426,0.028506607,0.018119443,-0.18046044,-0.38129535,-0.34843466,0.059833154,-3.0783935,0.624991,-0.0005003596,-0.016446188,0.0044879867,-0.00055329944,-0.003109826,0.000105620114,-0.007663124,0.47738156,-1.4253881,1.9574069,-2.100845,-1.5707086,2.4524224,-0.02493246,0.019962559,-0.021496793,2.0223451e-11,0.0026588244,-0.01726055,-0.4213795,-0.11492168,-9.768343,0.7665104,47.705692,-0.7541598,-2.4535723,-3.307221,-0.45623553,0.17305644,-0.113193184,28.625,29.75,28.9375,33.0,35.375,36.5
0.040052578,-1.1245282,0.27467015,-0.28752634,0.025509527,0.018866098,-0.20028561,-0.38132524,-0.34842068,0.059852086,-3.0784059,0.62505084,-0.00048466804,-0.017554857,0.0046512405,-0.0005175526,-0.0037997954,4.1476203e-05,-0.008379075,0.477321,-1.4253995,1.9573711,-2.1008208,-1.5706962,2.4523976,-0.02666206,0.0212503,-0.023046581,1.3204468e-12,0.0032978202,-0.018274391,-0.40222588,-0.095768064,-9.710882,0.79560274,47.668976,-0.73547995,-2.4555564,-3.3005357,-0.44728178,0.15289332,-0.12768479,28.625,29.75,28.9375,33.0,35.375,36.5
0.042052507,-1.3879212,0.0017809857,-0.41043857,0.024357706,0.0037709726,-0.20865497,-0.3813849,-0.34841076,0.059833642,-3.0783947,0.62510705,-0.00048369833,-0.018841986,0.0049309963,-0.00021046415,-0.004227319,0.0007462485,-0.00932804,0.47724843,-1.4252914,1.9572982,-2.1008565,-1.5706967,2.4523616,-0.028380068,0.02209359,-0.0247123,8.621573e-14,0.0033500372,-0.019042565,-0.22984336,-0.076614454,-9.710882,0.7172743,47.719128,-0.68512034,-2.4568448,-3.287508,-0.43759578,0.15316924,-0.1404881,28.625,29.75,28.9375,33.0,35.375,36.5
0.044052504,-1.4518579,-0.3564838,-0.5055331,0.02904991,-0.0028412268,-0.2149051,-0.3813838,-0.34841645,0.059842728,-3.0784488,0.6249841,-0.00051874615,-0.02065105,0.004790717,0.00096986967,-0.005554687,0.0034108486,-0.00972416,0.477236,-1.4253036,1.9572858,-2.1008327,-1.5706605,2.4522655,-0.029769748,0.022091053,-0.027324753,-0.00036073002,0.003298298,-0.020034634,-0.17238252,-0.019153614,-9.557653,0.8403672,47.73256,-0.66410995,-2.305477,-3.264271,-0.45670727,0.17141291,-0.15283601,28.625,29.75,28.9375,33.0,35.375,36.5
0.04605193,-0.93710107,-0.3376369,-0.31976134,0.018776298,0.0015473956,-0.23382698,-0.38143018,-0.34839764,0.05984232,-3.0784087,0.625053,-0.00050772313,-0.02176214,0.005025458,0.0011592227,-0.0059849736,0.0045125373,-0.009784207,0.47717547,-1.4252434,1.9572128,-2.1008093,-1.5706848,2.452253,-0.031127876,0.022689383,-0.028247356,-0.0012126284,0.003170097,-0.021331772,-0.1340753,0.076614454,-9.557653,0.7530795,47.691364,-0.66535693,-2.370255,-3.2667434,-0.43350485,0.1606806,-0.17474447,28.625,29.75,28.9375,33.0,35.375,36.5
0.04805192,-0.977022,-0.86548775,-0.35987148,0.020471437,-0.007357402,-0.24500506,-0.3814837,-0.34838048,0.05984538,-3.0783918,0.625165,-0.00046849734,-0.022654703,0.005154329,0.0014444627,-0.0068820985,0.0046890834,-0.010181544,0.47710288,-1.4251953,1.9571537,-2.1008213,-1.5706962,2.4522526,-0.03264193,0.023154384,-0.029473899,-0.0010225974,0.0038842387,-0.022449141,0.019153614,0.1340753,-9.576807,0.7978386,47.691364,-0.6265966,-2.301947,-3.2241602,-0.4286092,0.16476828,-0.19104132,28.625,29.75,28.9375,33.0,35.375,36.5
0.050052147,-0.6727096,-0.7919728,-0.36697266,0.0015366765,-0.003086702,-0.24496324,-0.38153344,-0.34836373,0.059845053,-3.0783892,0.6251635,-0.00041476803,-0.023419999,0.0050515574,0.0016144837,-0.0075924695,0.0046904846,-0.009922425,0.47704262,-1.4251472,1.957105,-2.1008456,-1.5707201,2.4521918,-0.033571407,0.024065265,-0.030957647,-0.00077987014,0.0045125117,-0.023637999,0.038307227,0.17238252,-9.500193,0.75755644,47.66539,-0.6636709,-2.2740445,-3.2858763,-0.42750794,0.17127126,-0.21434747,28.625,29.75,28.9375,33.0,35.375,36.5
0.052052237,-0.68455607,-0.9398465,-0.34625107,-0.0107553,-0.0055282246,-0.2335443,-0.38158393,-0.3483625,0.059873115,-3.078438,0.62521195,-0.00039357232,-0.02399785,0.0054520867,0.0013319796,-0.007564233,0.003935573,-0.0096189715,0.4769702,-1.4251348,1.9570211,-2.1008208,-1.5706838,2.4521434,-0.03502184,0.02512479,-0.031574942,-0.00053860573,0.004834203,-0.025391843,0.076614454,0.2681506,-9.461885,0.7597976,47.695843,-0.678116,-2.2868862,-3.269499,-0.42558002,0.15892157,-0.2164722,28.625,29.75,28.9375,33.0,35.375,36.5
0.054052368,-0.7601205,-1.6416606,-0.5159585,-0.0042963387,-0.00855327,-0.20620316,-0.3816458,-0.34835598,0.059875276,-3.0784643,0.6252554,-0.00038815103,-0.025271801,0.005592766,0.0017974607,-0.008377442,0.004744653,-0.008995534,0.4768856,-1.4250627,1.9569367,-2.1008327,-1.5706595,2.4520826,-0.036669075,0.02574418,-0.03336432,-0.00046106693,0.0051820083,-0.027662056,-0.076614454,0.2681506,-9.500193,0.800085,47.69763,-0.627326,-2.2206619,-3.2288866,-0.4223411,0.15825266,-0.21930087,28.625,29.75,28.9375,33.0,35.375,36.5
0.056051854,-0.26352176,-1.130602,-0.29407266,-0.016676951,0.005100398,-0.21472695,-0.38166592,-0.3483101,0.05984533,-3.0783987,0.6252602,-0.00045088804,-0.02613885,0.0056477003,0.0022520046,-0.008791642,0.005687391,-0.007398169,0.4768013,-1.4250146,1.9569477,-2.1008208,-1.5706838,2.4520097,-0.03752027,0.025943529,-0.034644485,-0.00040811687,0.005112374,-0.03011019,0.0,0.24899697,-9.557653,0.79560274,47.72002,-0.67952275,-2.1814437,-3.2808979,-0.41659576,0.15029529,-0.24087293,28.625,29.75,28.9375,33.0,35.375,36.5
0.0580518,-0.5930307,-1.3622694,-0.32082906,-0.014017207,0.0053626634,-0.21124148,-0.38173008,-0.34832278,0.059861396,-3.0784514,0.6252904,-0.0004296707,-0.02702678,0.0058828797,0.0024418621,-0.008864658,0.0062052775,-0.006946051,0.47674096,-1.4249427,1.956829,-2.1008208,-1.5706476,2.4519615,-0.03863915,0.026575465,-0.035809748,-0.00036646498,0.004938527,-0.03167995,0.019153614,0.2681506,-9.500193,0.7553206,47.66987,-0.7506944,-2.1285148,-3.2962186,-0.43182966,0.16798124,-0.23892295,28.625,29.75,28.9375,33.0,35.375,36.5
0.060051735,-0.7763173,-0.991321,-0.32626593,-0.013647503,0.0063548926,-0.20563361,-0.38177994,-0.34831005,0.05986404,-3.0784705,0.6253314,-0.00043762443,-0.027684573,0.005678643,0.002075769,-0.009200397,0.005391743,-0.0064263595,0.47665673,-1.4248941,1.9567674,-2.1008208,-1.5706238,2.4519005,-0.039313823,0.028667333,-0.037367992,-0.00033255917,0.0056075943,-0.03287438,-0.019153614,0.3256114,-9.500193,0.7351769,47.690468,-0.72040004,-2.133401,-3.2458262,-0.4258214,0.1529368,-0.23249906,28.625,29.75,28.9375,33.0,35.375,36.5
0.062051915,-0.64533246,-1.0682181,-0.19310342,-0.005116772,0.019485863,-0.21354175,-0.3818351,-0.3482937,0.059881233,-3.0784907,0.6253733,-0.00035276223,-0.028215721,0.005734749,0.0017368129,-0.008759209,0.00497941,-0.005157821,0.4765845,-1.4248815,1.9567193,-2.100845,-1.5706357,2.4518518,-0.039767448,0.030281732,-0.038441062,-0.0003044062,0.005404556,-0.034595054,-0.11492168,0.38307226,-9.442732,0.7642693,47.69763,-0.8178864,-2.207987,-3.2895265,-0.420561,0.1527723,-0.2563983,28.625,29.75,28.9375,33.0,35.375,36.5
0.06405201,-0.9247408,-0.8613324,-0.38302547,-0.004428254,0.018829625,-0.20871511,-0.38189197,-0.348285,0.059877947,-3.0784776,0.6253517,-0.00035686392,-0.02912408,0.0057589067,0.0023952944,-0.009352428,0.0062691686,-0.0045004883,0.47652423,-1.4247857,1.956612,-2.1008208,-1.5706476,2.4517798,-0.040599026,0.03010804,-0.03976974,-0.00022011573,0.005336994,-0.036083296,-0.05746084,0.2681506,-9.442732,0.80456203,47.705692,-0.80995774,-2.1968443,-3.219881,-0.42098626,0.15282194,-0.25875115,28.625,29.75,28.9375,33.0,35.375,36.5
0.066052556,-1.2872956,-0.98682463,-0.3242183,0.005776757,0.0106912395,-0.20133564,-0.38195035,-0.34826759,0.05987576,-3.0785017,0.62541336,-0.00037692732,-0.030213436,0.0057857963,0.0031438181,-0.010244632,0.007688215,-0.003718795,0.47641614,-1.4247259,1.9565514,-2.1008327,-1.5706118,2.4517071,-0.041735206,0.029934108,-0.041288875,-0.00019588499,0.0054767723,-0.038000625,-0.11492168,0.2681506,-9.423578,0.683705,47.713753,-0.93625486,-2.0264156,-3.2357545,-0.42833236,0.1505757,-0.25623617,28.625,29.75,28.9375,33.0,35.375,36.5
0.068052635,-0.70559317,0.10957342,0.1347095,-0.0093517415,0.022750713,-0.20987721,-0.3820229,-0.3482757,0.059915796,-3.0785694,0.62542653,-0.00027270155,-0.03057282,0.005675826,0.0024405045,-0.009593149,0.006591522,-0.002594279,0.47635588,-1.4247012,1.9564317,-2.1008327,-1.5705999,2.4516466,-0.041816723,0.032369997,-0.042462874,-0.00018337129,0.0054022353,-0.039205037,-0.15322891,0.21068975,-9.385271,0.80679786,47.690468,-0.9131377,-2.0775237,-3.2498574,-0.4154821,0.14995877,-0.27822602,28.625,29.75,28.9375,33.0,35.375,36.5
0.07005179,-0.48098984,-0.40709877,-0.027573902,0.0071006836,0.029826967,-0.2101274,-0.38205892,-0.34826228,0.05988588,-3.0785716,0.625426,-0.00041966242,-0.032030012,0.0053746793,0.002837946,-0.009990921,0.007448264,-0.0019422185,0.47625974,-1.4245925,1.9563707,-2.1008089,-1.5705398,2.4515498,-0.042590357,0.03422006,-0.04555409,0.00011716477,0.0053547574,-0.040629257,-0.1340753,0.17238252,-9.251195,0.7597976,47.684196,-1.0266258,-2.1738825,-3.1800766,-0.4035172,0.14169364,-0.29549384,28.625,29.75,28.9375,33.0,35.375,36.5
0.07205176,-0.8586198,-0.11475276,0.08457454,0.012178444,0.019711722,-0.20642143,-0.3821418,-0.3482404,0.05990069,-3.0785654,0.6254634,-0.0002984972,-0.032757558,0.005267178,0.003225079,-0.010636516,0.008149311,-0.0021997143,0.47617537,-1.4245325,1.9562739,-2.1008327,-1.5705875,2.4514897,-0.043225884,0.034527414,-0.046793234,0.00012757942,0.005607872,-0.04100673,-0.19153613,0.05746084,-9.251195,0.8112748,47.705692,-1.0214952,-2.1203012,-3.0695658,-0.39829412,0.1547114,-0.28896028,28.625,29.75,28.9375,33.0,35.375,36.5
0.074051835,-1.12766,-0.05952117,0.30598685,0.012390954,0.021946386,-0.2102989,-0.38221148,-0.3482358,0.059904896,-3.0785952,0.625526,-0.00030813494,-0.031929366,0.0057743182,0.0011396507,-0.009141905,0.0039998526,0.00020991564,0.47607931,-1.4244478,1.9561676,-2.1008327,-1.5705513,2.451429,-0.04373119,0.037491556,-0.045421243,0.00016455138,0.0061856224,-0.04392275,-0.1340753,0.05746084,-9.270349,0.8023209,47.71017,-1.1304696,-2.2283094,-3.2913272,-0.39582384,0.13980107,-0.31806928,28.625,29.75,28.9375,33.0,35.375,36.5
0.076052055,-0.99310476,0.015519024,0.112713486,0.0106226215,0.031614583,-0.20416707,-0.38227147,-0.34824413,0.059913274,-3.0786567,0.625422,-0.0002616681,-0.033520225,0.0053029647,0.0017969664,-0.01004582,0.0054641794,0.00069413445,0.47603106,-1.4243754,1.9560713,-2.1008565,-1.5705394,2.451308,-0.044437088,0.03900882,-0.048657447,0.00016818735,0.0063133226,-0.04511092,-0.11492168,0.095768064,-9.404425,0.7777002,47.703903,-1.1608434,-2.2413483,-3.197874,-0.39034945,0.12606816,-0.32761568,28.625,29.75,28.9375,33.0,35.375,36.5
0.078052096,-1.0368869,0.3784176,0.28197467,0.0073098587,0.029186623,-0.21534048,-0.38234657,-0.34822422,0.059931494,-3.0786715,0.6254837,-0.00026916488,-0.034361195,0.00516289,0.0027824168,-0.0107638035,0.0074872687,-0.000777289,0.475911,-1.4243157,1.9559506,-2.1008089,-1.5705155,2.4512246,-0.044764366,0.038188487,-0.049978368,0.00018502554,0.0060237367,-0.043965697,-0.17238252,0.05746084,-9.346964,0.7777002,47.703903,-1.2370365,-2.1545134,-3.1102126,-0.37712622,0.1381121,-0.34476212,28.625,29.75,28.9375,33.0,35.375,36.5
0.08005214,-0.89066845,-0.19936204,-0.077340014,0.019813586,0.03333656,-0.20512189,-0.3824275,-0.34821427,0.059947114,3.0786881,-0.62546784,0.00016970716,-0.03617442,0.0057356786,0.002883987,-0.011153643,0.0077812932,-0.0012691941,0.4758261,-1.4242554,1.9558543,-2.100845,-1.570527,2.4511278,-0.04758029,0.03993145,-0.052212473,0.00023566434,0.0062348736,-0.046288226,-0.19153613,0.1340753,-9.346964,0.7620334,47.664497,-1.2665126,-2.2100048,-2.971632,-0.37754774,0.13396713,-0.3716246,28.625,29.75,28.9375,33.0,35.375,36.5
0.082052596,-0.9423036,-0.015531659,-0.12497109,0.011427153,0.028382981,-0.20853256,-0.38249406,-0.34816742,0.059938595,-3.0786734,0.6255405,-0.00021576372,-0.035206158,0.006710866,0.00065847585,-0.0091084195,0.0032236613,0.00015910967,0.47568157,-1.4241825,1.9557823,-2.1008084,-1.570527,2.4510305,-0.048590153,0.042545035,-0.05019543,0.00059339893,0.0065087387,-0.048727736,-0.21068975,0.038307227,-9.404425,0.784413,47.683304,-1.2341517,-2.2540622,-3.1405358,-0.3740372,0.12421915,-0.35110837,28.625,29.75,28.9375,33.0,35.375,36.5
0.084052615,-1.1549762,-0.67433447,-0.0231501,0.010656639,0.021644738,-0.20483065,-0.38256484,-0.34817246,0.05993846,3.0786717,-0.6254983,0.0002095185,-0.036122292,0.0058282297,0.0016537001,-0.009721155,0.0053454787,0.00583146,0.47561014,-1.4240745,1.9556621,-2.1008203,-1.5705036,2.450933,-0.04757707,0.042970758,-0.053010564,0.00081958296,0.006077638,-0.053384747,-0.22984336,0.038307227,-9.308657,0.86498255,47.705692,-1.3723748,-2.337562,-3.2290657,-0.37438917,0.13812779,-0.32721967,28.625,29.75,28.9375,33.0,35.375,36.5
0.086052135,-0.8881688,-0.36790305,0.01391904,0.007857094,0.03213273,-0.20630491,-0.38263133,-0.34816775,0.05993187,3.0786602,-0.62546,0.00023300607,-0.03786484,0.006601414,0.0021053655,-0.010005724,0.005876593,0.0027338627,0.475525,-1.4239665,1.9555539,-2.1008203,-1.5704798,2.4508255,-0.05055032,0.043782957,-0.055136114,0.0015322341,0.0060853525,-0.05325937,-0.19153613,0.11492168,-9.289502,0.7642693,47.70211,-1.4083334,-2.255179,-3.0658722,-0.3755397,0.12901963,-0.3573701,28.625,29.75,28.9375,33.0,35.375,36.5
0.08805222,-0.98457175,-0.43345383,-0.1715337,0.012862085,0.031857096,-0.20933495,-0.38273558,-0.34816554,0.05996799,3.0786126,-0.62541085,6.492604e-05,-0.03872855,0.007276204,0.002064885,-0.010147117,0.0056404904,0.0031460177,0.47544032,-1.4239063,1.9554108,-2.100856,-1.5705031,2.4507163,-0.052686155,0.044301514,-0.055674158,0.001695602,0.0063255783,-0.05580667,-0.17238252,0.1340753,-9.308657,0.77545905,47.67345,-1.2968289,-2.2070427,-3.1083899,-0.36331242,0.12838647,-0.36786407,28.625,29.75,28.9375,33.0,35.375,36.5
0.090052396,-1.1298306,-0.60209024,-0.041223373,0.005343174,0.03417114,-0.21007353,-0.382792,-0.34815523,0.0599559,3.0785882,-0.6253671,0.00015233313,-0.04066934,0.00825405,0.0020354646,-0.010437371,0.005897124,0.0034719873,0.47533104,-1.4238101,1.955326,-2.1008446,-1.570443,2.4505827,-0.05628711,0.045871805,-0.05734538,0.0014397181,0.0064618117,-0.059732813,-0.17238252,0.11492168,-9.308657,0.7418897,47.67345,-1.21422,-2.191508,-3.101966,-0.35796398,0.14140072,-0.3060847,28.625,29.75,28.9375,33.0,35.375,36.5
0.0920518,-1.0550538,-0.6077122,0.0883829,-0.0032176229,0.035082497,-0.20880932,-0.3828612,-0.34811705,0.05994238,3.0785959,-0.6254429,0.00019661621,-0.04070773,0.0074362294,0.002083191,-0.011048765,0.0059664696,0.007874861,0.47519952,-1.423714,1.9552416,-2.1008203,-1.570443,2.4504976,-0.055188783,0.046834555,-0.058531113,0.0013208726,0.006969975,-0.0630376,-0.34476504,0.15322891,-9.308657,0.784413,47.70032,-1.3168037,-2.1381834,-3.0798898,-0.34607512,0.122890115,-0.3137595,28.625,29.75,28.9375,33.0,35.375,36.5
0.09405174,-0.9261713,-0.43951145,-0.121981636,-0.004553225,0.04332887,-0.21096711,-0.38296226,-0.3481217,0.059979834,3.078567,-0.6252819,7.948092e-05,-0.04210844,0.00785395,0.0022073044,-0.011079074,0.006626968,0.009357502,0.47511482,-1.4236414,1.9550732,-2.1008203,-1.570443,2.4503162,-0.057028025,0.048097357,-0.060218737,0.0011466357,0.0066978824,-0.06635736,-0.4213795,0.17238252,-9.3661175,0.79560274,47.686886,-1.4281478,-2.2197456,-3.1031888,-0.33816573,0.119553804,-0.26431537,28.625,29.75,28.9375,33.0,35.375,36.5
0.096052274,-1.1533587,-0.40451857,0.045303714,0.0029904249,0.043287344,-0.20747393,-0.3830501,-0.3480897,0.059959028,3.07858,-0.62528545,0.00013592877,-0.043844603,0.009094428,0.0020949612,-0.011047901,0.0064487164,0.009109327,0.47496945,-1.4234974,1.9549536,-2.1008084,-1.5704311,2.4501715,-0.060844894,0.04936294,-0.061445273,0.0012825999,0.006748628,-0.0699256,-0.30645782,0.17238252,-9.385271,0.7418897,47.711063,-1.2227931,-2.179181,-3.0602932,-0.34418052,0.13218638,-0.21699178,28.625,29.75,28.9375,33.0,35.375,36.5
0.0980525,-1.6248116,-0.53594756,-0.11021932,0.007819012,0.030772194,-0.20121467,-0.38311085,-0.34808466,0.05995582,3.0785623,-0.6252215,0.00019880982,-0.04423106,0.009227363,0.0018082707,-0.010860012,0.005049582,0.011914711,0.47487336,-1.4234011,1.9548453,-2.100784,-1.570383,2.4500377,-0.06173212,0.050868366,-0.062778324,0.0024435932,0.0072212704,-0.073618315,-0.2873042,0.17238252,-9.481039,0.784413,47.675243,-1.3228765,-2.1533213,-3.0556164,-0.34161314,0.106418,-0.19041163,28.625,29.75,28.9375,33.0,35.375,36.5
0.10005247,-1.7304726,-0.78603554,-0.03628908,0.014486579,0.026185906,-0.19410993,-0.383234,-0.3480669,0.059973687,3.0785224,-0.6251543,9.69414e-05,-0.045271058,0.009480337,0.0025491915,-0.011616161,0.00571266,0.013372821,0.47472867,-1.4232932,1.9546894,-2.1008193,-1.570383,2.4498563,-0.063359514,0.05067303,-0.06446843,0.0033940596,0.007597074,-0.07670312,-0.38307226,0.19153613,-9.500193,0.7597976,47.668976,-1.2554483,-2.1678982,-3.0391178,-0.34649307,0.1174674,-0.1601021,28.625,29.75,28.9375,33.0,35.375,36.5
0.1020523,-1.4522043,-0.33712596,0.049347065,0.00040826414,0.040059134,-0.206894,-0.38330746,-0.34804133,0.059988543,3.0785103,-0.6250951,8.066942e-05,-0.046017706,0.010121029,0.0009169362,-0.010131998,0.0030846554,0.013230576,0.4746081,-1.4232436,1.9545935,-2.100796,-1.570371,2.4497004,-0.06509505,0.054835208,-0.065461785,0.0032436817,0.007478638,-0.078294896,-0.40222588,0.15322891,-9.423578,0.77545905,47.692257,-1.2634789,-2.2484818,-3.0319247,-0.3362661,0.1131829,-0.097104736,28.625,29.75,28.9375,33.0,35.375,36.5
0.104052275,-1.4219033,-0.37838212,-0.15617505,-0.00150276,0.051128153,-0.20763533,-0.38340878,-0.34801477,0.060005497,3.078504,-0.62509394,3.884983e-05,-0.04737776,0.010288883,0.0021841435,-0.011526993,0.005859175,0.011662063,0.47447562,-1.4231482,1.9544376,-2.1007602,-1.570383,2.449568,-0.06660469,0.053443685,-0.06665191,0.0027201464,0.00745106,-0.078235336,-0.3256114,0.019153614,-9.500193,0.81351066,47.709274,-1.2739512,-2.3115811,-3.0421011,-0.3370964,0.09876375,-0.07921083,28.625,29.75,28.9375,33.0,35.375,36.5
0.106052004,-1.1451439,-0.42116335,0.023605792,-0.002058687,0.052938476,-0.20556922,-0.3834971,-0.34799638,0.05998902,3.0784824,-0.6250141,8.651134e-05,-0.048933815,0.010549054,0.0026596682,-0.012331244,0.00716692,0.009714618,0.474331,-1.4230157,1.9543294,-2.100784,-1.5703353,2.4493763,-0.068551056,0.05414569,-0.06844815,0.0022881,0.0075658206,-0.07823334,-0.24899697,0.05746084,-9.500193,0.7732232,47.68599,-1.3344482,-2.094665,-3.0695324,-0.32824865,0.11645013,-0.07057636,28.625,29.75,28.9375,33.0,35.375,36.5
0.108052,-1.0343795,-0.070568435,-0.08020515,-0.0050985203,0.049081292,-0.20777611,-0.3836286,-0.3479897,0.0600197,3.0783844,-0.625054,6.799332e-06,-0.049243428,0.010973035,0.0016964568,-0.011522958,0.005397866,0.0051056687,0.47417465,-1.4229069,1.9541377,-2.100796,-1.5702986,2.4492574,-0.069626726,0.056386244,-0.06883267,0.0023776782,0.0076622725,-0.07469895,-0.40222588,0.11492168,-9.32781,0.8023209,47.689575,-1.3012488,-2.1793375,-3.0568516,-0.32720596,0.10382716,-0.08246103,28.625,29.75,28.9375,33.0,35.375,36.5
0.11005207,-1.01762,-0.030169236,-0.08305003,0.0050298506,0.038726285,-0.2051339,-0.3837142,-0.34795728,0.05999532,3.0784292,-0.6250064,1.5143247e-05,-0.050361853,0.011265585,0.0012075593,-0.011174543,0.0046672025,0.003319597,0.474054,-1.4227619,1.9540304,-2.100808,-1.5703224,2.4491014,-0.07116953,0.058920898,-0.070638716,0.0024572408,0.0076813526,-0.074454635,-0.3256114,0.038307227,-9.346964,0.7530795,47.698532,-1.3354365,-2.2134967,-3.0564518,-0.32542467,0.08750971,-0.100016534,28.625,29.75,28.9375,33.0,35.375,36.5
0.11205209,-0.7855059,-0.21647035,-0.19665055,0.020043114,0.038203754,-0.20195593,-0.38379347,-0.34793162,0.059997283,3.078421,-0.62506676,8.20959e-05,-0.051735666,0.013048203,0.0015580031,-0.010917281,0.0050622113,-0.0033096883,0.4739206,-1.4226542,1.9538864,-2.100736,-1.570299,2.4490068,-0.07531015,0.058018442,-0.07054572,0.003036151,0.007271817,-0.07196603,-0.22984336,-0.05746084,-9.423578,0.7530795,47.703903,-1.1085634,-2.2600064,-3.09555,-0.32717884,0.10517202,-0.12645975,28.625,29.75,28.9375,33.0,35.375,36.5
0.11405174,-1.106582,0.24293436,-0.2579585,0.010700616,0.024285022,-0.20860942,-0.383949,-0.3478931,0.060027294,3.078353,-0.62507194,-7.591986e-05,-0.05200619,0.012011803,0.0016503973,-0.011084702,0.0052977763,-0.004881194,0.4737174,-1.4225576,1.9537185,-2.100784,-1.570311,2.4488156,-0.07371959,0.059777223,-0.0728238,0.0032690158,0.007318546,-0.0688018,-0.28730422,0.019153614,-9.423578,0.8493211,47.711063,-1.2919512,-2.1902618,-3.0704618,-0.3312533,0.11535425,-0.14966488,28.625,29.75,28.9375,33.0,35.375,36.5
0.11605234,-0.9993076,-0.3533441,-0.13492504,0.014754421,0.03139492,-0.19898655,-0.38401774,-0.34787175,0.05999521,3.0783799,-0.62507963,1.058922e-05,-0.05245324,0.012875234,0.00071103964,-0.011014455,0.0033007143,-0.008118944,0.47360843,-1.4224008,1.9536098,-2.1007717,-1.5702986,2.448708,-0.076195605,0.0613206,-0.07242057,0.003130051,0.008164162,-0.068041496,-0.40222588,-0.019153614,-9.346964,0.7620334,47.686886,-1.2839539,-2.21656,-3.0698638,-0.31788653,0.08530761,-0.19019619,28.625,29.75,28.9375,33.0,35.375,36.5
0.11805242,-1.0192959,-0.24013719,-0.3191667,0.008937002,0.03930441,-0.2044505,-0.38413712,-0.34786,0.06001322,3.0783179,-0.6251072,-3.7315716e-05,-0.05383299,0.014580361,-0.00011295967,-0.01033292,0.0016948887,-0.01321566,0.47346285,-1.42228,1.9534305,-2.1007717,-1.5702747,2.4485877,-0.080545574,0.063106105,-0.07262225,0.0032882926,0.008294638,-0.06729409,-0.40222588,-0.019153614,-9.3661175,0.7597976,47.684196,-1.0797449,-2.258873,-3.197754,-0.31563818,0.09646486,-0.23348421,28.625,29.75,28.9375,33.0,35.375,36.5
0.12005265,-1.3687451,-0.5644797,-0.35050967,0.01939222,0.03489845,-0.20167801,-0.384261,-0.34781128,0.06001486,3.0782924,-0.6251009,-2.815681e-05,-0.054944877,0.013452453,0.0010158368,-0.011377058,0.00379632,-0.012072674,0.47324753,-1.4221597,1.9532865,-2.1007597,-1.5702509,2.4483716,-0.07951281,0.06390035,-0.07621954,0.0037485573,0.008261695,-0.06740237,-0.2681506,-0.05746084,-9.423578,0.90527004,47.683304,-1.269645,-2.2099051,-3.1425447,-0.29335216,0.09976627,-0.24155387,28.625,29.75,28.9375,33.0,35.375,36.5
0.12205265,-1.3684887,0.2602813,0.0123495655,0.005857353,0.027414717,-0.21108155,-0.3843461,-0.34778872,0.060028803,3.0782514,-0.62513363,-3.28742e-05,-0.055713437,0.015380819,5.4620068e-05,-0.010352293,0.0014581815,-0.016275357,0.47311386,-1.4220872,1.9531664,-2.1007354,-1.5702266,2.4482636,-0.08372244,0.06496261,-0.07539398,0.004411193,0.008420916,-0.06740969,-0.2681506,0.05746084,-9.461885,0.7665104,47.719128,-1.1307372,-2.2707343,-3.096799,-0.30494326,0.10040702,-0.2799643,28.625,29.75,28.9375,33.0,35.375,36.5
0.12405257,-1.0155659,-0.10773909,-0.13700601,0.019054942,0.029148173,-0.19670004,-0.3844618,-0.34774652,0.06000405,3.0782847,-0.6251983,5.7206445e-05,-0.056383293,0.01629614,-0.00029241905,-0.009833146,0.00075100147,-0.017694425,0.47293314,-1.4218829,1.9529756,-2.1006758,-1.5702266,2.4481192,-0.08584126,0.06569153,-0.07550525,0.004661922,0.008277532,-0.06810979,-0.30645782,0.095768064,-9.423578,0.85155696,47.71465,-1.0035067,-2.1821506,-3.2730825,-0.31798393,0.091781,-0.31056327,28.625,29.75,28.9375,33.0,35.375,36.5
0.12605204,-1.6275705,-0.06972632,-0.13539965,0.021321524,0.016367795,-0.21309109,-0.38458794,-0.3477389,0.06003177,3.0781827,-0.625197,-7.89162e-05,-0.057624996,0.016363258,0.0003147826,-0.010299317,0.0019085264,-0.018250579,0.47278884,-1.4217985,1.9528321,-2.1007469,-1.5702027,2.447987,-0.08699861,0.066211656,-0.07755748,0.004954697,0.008171551,-0.06870876,-0.28730422,0.11492168,-9.423578,0.7597976,47.691364,-1.019185,-2.1039977,-3.2283342,-0.31973556,0.11231585,-0.33956298,28.625,29.75,28.9375,33.0,35.375,36.5
0.12805201,-1.2079426,-0.012340604,-0.25373477,0.01517809,0.032565545,-0.20279685,-0.38470596,-0.3476728,0.06001376,3.078156,-0.62538487,3.5499354e-06,-0.058383092,0.016815592,0.00025172127,-0.010760572,0.0015355783,-0.020043831,0.47254828,-1.4216542,1.9527,-2.100711,-1.5701789,2.4478672,-0.08883903,0.06686653,-0.078196146,0.0050621824,0.008749125,-0.068756595,-0.34476504,0.019153614,-9.461885,0.7933669,47.67166,-1.0527477,-2.16179,-3.279832,-0.31861317,0.109448254,-0.3647866,28.625,29.75,28.9375,33.0,35.375,36.5
0.13005215,-1.1968883,-0.082508296,-0.10209553,0.010001446,0.04417403,-0.20446199,-0.38485214,-0.3476508,0.060039982,3.078084,-0.62539,-0.0001013413,-0.05903815,0.017145772,0.00018045072,-0.01127387,0.0011485806,-0.021155363,0.47236773,-1.4215337,1.9525079,-2.100735,-1.5701665,2.447699,-0.09040399,0.06752481,-0.07880783,0.005127013,0.009389022,-0.06920947,-0.4213795,-0.05746084,-9.346964,0.77545905,47.68062,-0.98889965,-2.11126,-3.266728,-0.32094452,0.083459064,-0.40540588,28.625,29.75,28.9375,33.0,35.375,36.5
0.13205218,-1.6820592,-0.36116856,-0.2657746,0.01699872,0.039197132,-0.19733025,-0.38493374,-0.34760895,0.06001273,3.078108,-0.625491,1.667696e-05,-0.059379987,0.018236361,-0.0003448202,-0.010303785,-0.00042098452,-0.022331186,0.4722109,-1.4213775,1.9523777,-2.1006749,-1.5701541,2.4476023,-0.09253315,0.06823301,-0.078652166,0.006105549,0.009236944,-0.07016362,-0.22984336,0.0,-9.423578,0.8224646,47.703007,-0.93290573,-2.044891,-3.4045305,-0.3200795,0.07611155,-0.43594742,28.625,29.75,28.9375,33.0,35.375,36.5
0.13405195,-1.5750285,-0.4039611,-0.26587212,0.017881801,0.03969226,-0.19816197,-0.3850695,-0.34758976,0.060031325,3.078032,-0.62553304,-2.3967328e-05,-0.061656326,0.018529687,0.00064657524,-0.010797582,0.001429747,-0.022585716,0.47203022,-1.421245,1.9521836,-2.1006749,-1.5701188,2.4474576,-0.09483694,0.06935063,-0.08236921,0.0068387617,0.008834825,-0.072210036,-0.2681506,0.038307227,-9.404425,0.8851263,47.71017,-0.93604875,-2.0464144,-3.4014754,-0.32468304,0.09980643,-0.4658755,28.625,29.75,28.9375,33.0,35.375,36.5
0.13605237,-0.9668399,-0.13057859,-0.0801328,0.00291726,0.054962993,-0.21221974,-0.3852078,-0.34756604,0.06005853,3.0779963,-0.6254862,-0.000109604676,-0.061390493,0.019346764,-0.0005809719,-0.010381153,-0.00071538583,-0.02014961,0.4718617,-1.4211245,1.951981,-2.100663,-1.5701183,2.4472644,-0.0964096,0.07037054,-0.08057944,0.0061304034,0.00944923,-0.076219395,-0.3256114,-0.019153614,-9.385271,0.83589023,47.704796,-0.8730202,-2.0042763,-3.4609025,-0.32331806,0.08516746,-0.4832484,28.625,29.75,28.9375,33.0,35.375,36.5
0.13805237,-1.1809263,-0.27111495,-0.15831266,0.007679165,0.04353785,-0.2038523,-0.3853255,-0.34752166,0.06004105,3.07793,-0.62562466,-6.128983e-05,-0.06329639,0.020251699,2.5589758e-05,-0.01094327,0.0008490506,-0.018590286,0.47164455,-1.4209802,1.9518613,-2.1006868,-1.5700701,2.4471421,-0.099583566,0.070532344,-0.0820932,0.0058424296,0.009238332,-0.08095168,-0.28730422,0.038307227,-9.404425,0.81351066,47.704796,-0.8050354,-1.9992875,-3.5429373,-0.3311566,0.075194895,-0.4477174,28.625,29.75,28.9375,33.0,35.375,36.5
0.14005232,-1.86432,-0.4886563,-0.18450338,0.012504656,0.031773847,-0.20516017,-0.38545573,-0.34747127,0.060042623,3.0779102,-0.62571436,-3.491607e-05,-0.06438412,0.01920644,-0.00014107312,-0.0102154175,0.0011895598,-0.013187031,0.47142908,-1.4208349,1.9516805,-2.100639,-1.5700587,2.4469852,-0.09816576,0.07435467,-0.086160585,0.00612279,0.008429201,-0.08493389,-0.2681506,0.05746084,-9.385271,0.78888994,47.661808,-0.8811716,-2.0524664,-3.2827473,-0.32151616,0.10452716,-0.45307177,28.625,29.75,28.9375,33.0,35.375,36.5
0.14205243,-1.204167,-0.3869347,-0.048619974,0.009724598,0.054170147,-0.21335925,-0.3855996,-0.34743634,0.060052402,3.0778966,-0.625668,-7.85072e-05,-0.06557289,0.020343153,0.00070577057,-0.011170418,0.0025099684,-0.0065176478,0.4712361,-1.4206793,1.9514774,-2.1006272,-1.5700587,2.4467652,-0.10139524,0.07259075,-0.08611062,0.00623291,0.008690136,-0.09483307,-0.36391866,0.095768064,-9.3661175,0.83589023,47.701214,-0.9123248,-2.0539634,-3.4168615,-0.32088563,0.0882174,-0.37349963,28.625,29.75,28.9375,33.0,35.375,36.5
0.14405261,-1.123582,-0.47646594,-0.26177782,0.021257466,0.048914563,-0.19908808,-0.3857119,-0.3473681,0.060021546,3.0779066,-0.62578183,4.811635e-05,-0.06572035,0.018767847,0.0011897691,-0.01292869,0.002889259,-0.000652928,0.47099677,-1.4205108,1.9513439,-2.100579,-1.5700339,2.4465957,-0.099600255,0.07370973,-0.088551015,0.0064202594,0.010075581,-0.098903656,-0.36391866,0.076614454,-9.481039,0.75084364,47.705692,-0.89965725,-1.812815,-3.3540363,-0.3203898,0.08123494,-0.3112223,28.625,29.75,28.9375,33.0,35.375,36.5
0.14605226,-1.1017246,-0.17467715,-0.24455087,0.009041533,0.04463345,-0.20517923,-0.38584912,-0.34731874,0.06002957,3.0779037,-0.62570155,-1.947207e-05,-0.06647242,0.019129653,-0.00031753402,-0.010942481,0.00080010114,0.005117338,0.47079247,-1.4203889,1.9511889,-2.100591,-1.5700463,2.4463418,-0.100365736,0.0781496,-0.09019559,0.006395334,0.009258706,-0.10543663,-0.34476504,0.0,-9.5385,0.800085,47.704796,-1.0646081,-2.0407934,-3.362142,-0.32555956,0.08481035,-0.26054022,28.625,29.75,28.9375,33.0,35.375,36.5
0.14805266,-1.1315626,-0.70349944,-0.24589737,0.0027936085,0.046078626,-0.20382759,-0.38596475,-0.34729874,0.06002429,3.0779183,-0.62560564,3.1717715e-05,-0.06753834,0.018979216,0.0012502081,-0.012376065,0.004016977,0.008780403,0.4706364,-1.4202095,1.9509848,-2.1005437,-1.5700225,2.446124,-0.10091636,0.07617236,-0.09146351,0.006130471,0.009074744,-0.109650016,-0.36391866,0.095768064,-9.481039,0.8112748,47.686886,-1.0768741,-1.8888439,-3.4002233,-0.32222837,0.09504649,-0.17606145,28.625,29.75,28.9375,33.0,35.375,36.5
0.15005179,-1.4467828,-0.91524416,-0.29796878,0.00030857103,0.03367755,-0.20248179,-0.38612422,-0.34726486,0.06006479,3.0778148,-0.6256416,-6.348152e-05,-0.068067186,0.018958425,0.0008474438,-0.0116679445,0.003337698,0.010243059,0.47040835,-1.420113,1.9507817,-2.1005433,-1.5699867,2.4459317,-0.10111721,0.078242876,-0.09301527,0.006546404,0.008763652,-0.11131128,-0.17238252,0.21068975,-9.442732,0.80679786,47.703903,-1.1877413,-1.8623765,-3.3647432,-0.3238887,0.09734811,-0.14242145,28.625,29.75,28.9375,33.0,35.375,36.5
0.15205267,-0.9758767,-0.9568089,-0.53429127,-0.0059675053,0.022767773,-0.19902457,-0.38627583,-0.34722677,0.060057618,3.0777907,-0.62558,-4.213687e-05,-0.069057785,0.019543158,0.00061954523,-0.011213124,0.0027896825,0.00800222,0.4701797,-1.4199201,1.9505771,-2.1005433,-1.5699505,2.4456677,-0.10291183,0.07978038,-0.09439349,0.007088113,0.008607646,-0.110864036,-0.11492168,0.28730422,-9.5385,0.83365434,47.709274,-1.1412135,-1.8612258,-3.289242,-0.3323691,0.09892827,-0.121872805,28.625,29.75,28.9375,33.0,35.375,36.5
0.15405212,-0.48899406,-1.0808036,-0.5061312,-0.018988224,0.024866754,-0.20159893,-0.38640755,-0.34718364,0.060048483,3.0778244,-0.6255508,-4.938894e-05,-0.07033595,0.019685917,0.0012300657,-0.011710614,0.0040985923,0.003087646,0.46999937,-1.4197397,1.9503859,-2.100519,-1.5699748,2.445465,-0.10418979,0.08017538,-0.096274056,0.0071785385,0.008452445,-0.10722645,-0.05746084,0.21068975,-9.576807,0.8403672,47.716442,-1.0953242,-1.877392,-3.3177636,-0.34675708,0.111330844,-0.13856928,28.625,29.75,28.9375,33.0,35.375,36.5
0.15605228,-1.0883884,-0.9881405,-0.5993518,-0.023099365,-0.0026268295,-0.19260097,-0.38655064,-0.3471524,0.06005401,3.0777576,-0.62557805,-4.5622422e-05,-0.071023524,0.019549614,0.00094610796,-0.011690706,0.0039549945,-0.0004548588,0.46978313,-1.419583,1.9501938,-2.100519,-1.5699266,2.4452744,-0.10456225,0.08200221,-0.09766222,0.0068816277,0.008499878,-0.10405516,-0.038307227,0.24899697,-9.461885,0.7665104,47.705692,-1.1304021,-1.8907425,-3.2972455,-0.3435166,0.12028685,-0.16703066,28.625,29.75,28.9375,33.0,35.375,36.5
0.1580523,-0.4453035,-0.8427905,-0.85172534,-0.018604806,0.005156812,-0.2017122,-0.3867142,-0.347109,0.060070146,3.0777252,-0.6255966,-0.00013050271,-0.07300512,0.020745208,0.0009614893,-0.01175862,0.004447709,-0.0106230555,0.46956557,-1.4194266,1.9499778,-2.100519,-1.5699385,2.4450727,-0.10832885,0.08329929,-0.09912485,0.006574,0.008337626,-0.097651966,-0.05746084,0.24899697,-9.576807,0.8291774,47.67614,-1.0062271,-1.8619386,-3.299942,-0.3301254,0.11964061,-0.22861981,28.625,29.75,28.9375,33.0,35.375,36.5
0.16005224,-0.48793563,-0.95188975,-0.5850839,-0.015795587,0.003377126,-0.20323806,-0.38684765,-0.3470538,0.06005892,3.0777698,-0.625584,-0.00010996104,-0.07335517,0.019553373,0.000919944,-0.01194271,0.0048579155,-0.00912152,0.46936247,-1.4192456,1.9497851,-2.1004713,-1.5699629,2.4448562,-0.106478274,0.085513406,-0.10152078,0.0063059423,0.008308631,-0.097301655,0.038307227,0.21068975,-9.595961,0.7933669,47.651955,-1.2292012,-1.8917675,-3.3011827,-0.32827502,0.12886657,-0.28309008,28.625,29.75,28.9375,33.0,35.375,36.5
0.16205223,-0.4238689,-1.001081,-0.5611974,-0.010250774,-0.0015337686,-0.20355947,-0.38700378,-0.3470108,0.060056914,3.0777087,-0.6256705,-0.00010071249,-0.074863374,0.020824507,0.00019760893,-0.011928975,0.0031730507,-0.013993971,0.46912113,-1.4190648,1.9495825,-2.1004713,-1.5699261,2.4446766,-0.110537186,0.08782684,-0.10260094,0.006584073,0.009060364,-0.09648776,0.038307227,0.2681506,-9.461885,0.7642693,47.69763,-0.9004431,-1.8810697,-3.2171593,-0.32806283,0.11357282,-0.27990097,28.625,29.75,28.9375,33.0,35.375,36.5
0.16405226,-0.7239563,-1.0828494,-0.47457442,-0.00079867936,-0.0055772057,-0.20100534,-0.387144,-0.34697622,0.06007542,3.0776503,-0.62567663,-0.00015102138,-0.076575,0.019200237,0.0015580953,-0.014040179,0.006056399,-0.013091082,0.4689176,-1.4189439,1.9494017,-2.1004713,-1.5699023,2.4444845,-0.109536596,0.08929119,-0.10733506,0.006329655,0.009637211,-0.096387394,0.038307227,0.30645782,-9.442732,0.75755644,47.70032,-1.2247136,-2.133758,-3.0529897,-0.32187855,0.10975537,-0.31394604,28.625,29.75,28.9375,33.0,35.375,36.5
0.16605233,-0.51730853,-0.6229798,-0.37143418,-0.01180795,0.0109525705,-0.2061225,-0.38728368,-0.34692487,0.060059313,3.0776327,-0.62573135,-7.136532e-05,-0.07732893,0.020373385,0.0011154171,-0.013548894,0.0058113034,-0.015119606,0.46867684,-1.4187516,1.94921,-2.100436,-1.5698661,2.4442801,-0.11204251,0.08970981,-0.1066783,0.005702293,0.009309235,-0.09686504,0.05746084,0.2681506,-9.500193,0.83365434,47.696735,-1.1402025,-1.9273397,-3.156004,-0.30509144,0.107282266,-0.3298661,28.625,29.75,28.9375,33.0,35.375,36.5
0.16805242,-0.44558877,-0.78474957,-0.44117022,-0.014836567,0.012569716,-0.20129181,-0.3874686,-0.3468994,0.060089026,3.077592,-0.6256849,-0.00019921358,-0.0787115,0.020012138,-0.00017609465,-0.01289462,0.0032869726,-0.016137809,0.4684725,-1.4185692,1.948933,-2.1004355,-1.5698785,2.4440522,-0.11296339,0.09564316,-0.11069028,0.0063273646,0.00986939,-0.096764505,0.038307227,0.3256114,-9.5385,0.8493211,47.694946,-1.171417,-2.2725391,-2.979138,-0.30254686,0.105959535,-0.3610558,28.625,29.75,28.9375,33.0,35.375,36.5
0.17005242,-0.6956567,-1.0559384,-0.5112881,-0.018296124,0.014527935,-0.20185937,-0.38762787,-0.34685826,0.06009676,3.0775092,-0.6257631,-0.00023562397,-0.07898631,0.020356249,0.0004930526,-0.013801509,0.0038678881,-0.015281774,0.46823213,-1.4184139,1.9487427,-2.1004593,-1.5698417,2.4438713,-0.11413037,0.09412638,-0.11060788,0.0068396106,0.010427258,-0.098787725,-0.15322891,0.36391866,-9.481039,0.7709874,47.67614,-1.2657062,-1.8834167,-3.0789454,-0.308451,0.13057756,-0.38376004,28.625,29.75,28.9375,33.0,35.375,36.5
0.17205234,-1.2443454,-1.2893956,-0.39061007,-0.018622559,0.010054313,-0.19741723,-0.38775712,-0.346815,0.06006858,3.0775223,-0.6257451,-0.00012621094,-0.08010039,0.020914711,0.00036490767,-0.012779867,0.0038591141,-0.012852003,0.46801564,-1.418197,1.9485501,-2.100423,-1.569806,2.443642,-0.115496755,0.09580019,-0.11238961,0.0074284975,0.009515867,-0.10258287,-0.095768064,0.3256114,-9.3661175,0.8314132,47.71017,-1.2122957,-2.0902774,-3.0565882,-0.32165584,0.12304512,-0.36781657,28.625,29.75,28.9375,33.0,35.375,36.5
0.17405233,-0.7015025,-1.0667437,-0.51832014,-0.015923077,0.025989987,-0.20839891,-0.38791978,-0.3467621,0.060064863,3.077516,-0.62574047,-0.00013973526,-0.081129156,0.021142876,0.00030668185,-0.013438824,0.004103045,-0.008589241,0.4677751,-1.4180044,1.948335,-2.1004117,-1.569806,2.4433994,-0.117089756,0.0969145,-0.11341588,0.006830977,0.009998206,-0.108438134,-0.21068975,0.38307226,-9.500193,0.9030289,47.71823,-1.2073346,-2.1387904,-3.0808508,-0.3231957,0.13771002,-0.33773977,28.625,29.75,28.9375,33.0,35.375,36.5
0.17605239,-1.0630608,-0.7689361,-0.16501111,-0.027226657,0.026794512,-0.2054711,-0.3880999,-0.346758,0.06011535,3.0774078,-0.6257557,-0.00025165812,-0.08323618,0.02165542,0.0010626997,-0.014628141,0.0054366137,-0.00620904,0.46758217,-1.417848,1.9480351,-2.1003878,-1.5697697,2.44323,-0.12014697,0.09767314,-0.116061784,0.0070005856,0.010473065,-0.1138733,-0.22984336,0.30645782,-9.423578,0.79560274,47.703903,-1.245845,-1.9298353,-3.0964856,-0.3130767,0.13076624,-0.27536058,28.625,29.75,28.9375,33.0,35.375,36.5
0.17805228,-1.2922119,-1.0082828,-0.07165408,-0.0182985,0.04913229,-0.21139859,-0.38825202,-0.34670696,0.060115326,3.077432,-0.62563986,-0.0002499726,-0.082007624,0.02186431,0.00017589434,-0.01367527,0.0033861895,0.0025915857,0.46735463,-1.4176677,1.9478201,-2.1003516,-1.5697697,2.4429271,-0.119419105,0.09775988,-0.11423591,0.007356813,0.010560383,-0.121947125,-0.40222588,0.3256114,-9.308657,0.83589023,47.699425,-1.1921086,-2.0409865,-3.1527402,-0.3236183,0.13049951,-0.20102775,28.625,29.75,28.9375,33.0,35.375,36.5
0.18005227,-1.694865,-0.59063953,-0.21057607,-0.0026526477,0.0560321,-0.20404965,-0.38840437,-0.34667146,0.06009272,3.0773642,-0.62564594,-0.00016654556,-0.08554681,0.023016108,0.00055916153,-0.015229001,0.0044276607,0.0010080333,0.46710044,-1.4174505,1.9476279,-2.1003754,-1.5696858,2.4426854,-0.12518182,0.100423105,-0.11808857,0.0069302674,0.0114751905,-0.12612453,-0.4405331,0.22984336,-9.32781,0.8291774,47.703007,-1.072212,-1.9586825,-2.967886,-0.31719822,0.12408866,-0.14297336,28.625,29.75,28.9375,33.0,35.375,36.5
0.18205221,-1.7520978,-0.40066367,0.046761293,0.014414858,0.068845175,-0.20223343,-0.38861504,-0.34662992,0.06013204,3.0772948,-0.62564975,-0.00029802482,-0.08440169,0.022525009,0.00016508903,-0.01533442,0.0034875635,0.0041747396,0.46683702,-1.4172705,1.9473289,-2.1003635,-1.5696853,2.4424334,-0.12356087,0.100145735,-0.11684814,0.0067619462,0.012012574,-0.12766999,-0.53630114,0.1340753,-9.3661175,0.7978386,47.698532,-1.1451709,-1.9778938,-3.262014,-0.30812976,0.11422208,-0.09137805,28.625,29.75,28.9375,33.0,35.375,36.5
0.18405211,-1.8290617,0.28737995,0.3264787,0.019904261,0.0688792,-0.19878906,-0.38877583,-0.34659973,0.060126726,3.0772471,-0.6256605,-0.00026425728,-0.08595877,0.023905829,-0.00086186134,-0.014404453,0.0020855707,-0.0006799674,0.46660793,-1.4170533,1.9470891,-2.1003516,-1.5696372,2.442217,-0.12722448,0.10305189,-0.11779862,0.0064852787,0.011812478,-0.12647775,-0.7469909,-0.038307227,-9.270349,0.87393653,47.70211,-1.0641463,-1.9697081,-3.2331648,-0.3056702,0.110678,-0.074486546,28.625,29.75,28.9375,33.0,35.375,36.5
0.18605252,-1.8492024,0.32641655,0.18894109,0.045247167,0.062043417,-0.19485217,-0.38894418,-0.3465554,0.060117204,3.0772238,-0.6256011,-0.00024221059,-0.08701638,0.024988113,-0.0014356072,-0.013804879,0.0013342046,-0.006418206,0.4663551,-1.4168367,1.9468621,-2.1003516,-1.5696014,2.4419303,-0.12990646,0.104566365,-0.11821492,0.006333029,0.011613846,-0.123420864,-0.68953013,-0.19153614,-9.232041,0.79560274,47.705692,-0.9667194,-1.9055016,-3.2441528,-0.29982546,0.11764547,-0.11226019,28.625,29.75,28.9375,33.0,35.375,36.5
0.18805245,-1.863425,0.283089,0.14234042,0.05857379,0.047801122,-0.18876521,-0.38914382,-0.34651414,0.06014757,3.0771608,-0.6256099,-0.00036056284,-0.088142976,0.025206845,-0.0005974741,-0.014064845,0.0031529851,-0.011736747,0.46610278,-1.4166566,1.946586,-2.1003516,-1.5696014,2.4416916,-0.13086537,0.10421192,-0.11977689,0.0065085357,0.011034653,-0.11905928,-0.7852981,-0.2681506,-9.11712,0.8560339,47.684196,-0.96539533,-2.044269,-3.2689362,-0.30019397,0.12560278,-0.13903017,28.625,29.75,28.9375,33.0,35.375,36.5
0.1900523,-1.1309233,0.7809225,0.58644444,0.050650973,0.061085124,-0.1957863,-0.3893141,-0.34645748,0.060127158,3.077121,-0.6257011,-0.0003097285,-0.08850344,0.025459258,-0.0012289264,-0.013946965,0.0016591572,-0.016923536,0.4658263,-1.416428,1.94637,-2.1003516,-1.5695652,2.4414773,-0.13193788,0.10599065,-0.120471224,0.0068128,0.011596043,-0.114944845,-0.8236054,-0.30645782,-9.078813,0.83813137,47.687782,-0.985429,-1.783843,-3.3033705,-0.27359545,0.1264659,-0.2044433,28.625,29.75,28.9375,33.0,35.375,36.5
0.1920521,-1.5497359,0.29946393,0.32315522,0.07454724,0.054369073,-0.18710715,-0.38949266,-0.34642255,0.060126264,3.0770588,-0.62574893,-0.00029073076,-0.08989271,0.025899313,-0.0002325477,-0.014837719,0.0038345263,-0.022003364,0.46557364,-1.4161998,1.9461073,-2.1003392,-1.5695175,2.4412625,-0.13378026,0.10511857,-0.12171347,0.006588979,0.011413088,-0.11170663,-0.6512229,-0.34476504,-9.040505,0.8605109,47.71286,-1.0753521,-2.0122614,-3.3280864,-0.27304873,0.117010064,-0.26077616,28.625,29.75,28.9375,33.0,35.375,36.5
0.19405212,-1.3733485,0.91151464,0.35417876,0.06977929,0.071404964,-0.19340761,-0.38966525,-0.34636378,0.06012131,3.0770473,-0.6258199,-0.0003158304,-0.089749716,0.024482803,-0.0010040845,-0.013997916,0.0030905032,-0.018954296,0.4653229,-1.4159943,1.9458798,-2.1003277,-1.5695299,2.4410577,-0.13081792,0.108715415,-0.12406007,0.0063836575,0.010994668,-0.1117914,-0.7086837,-0.34476504,-9.078813,0.84484416,47.70838,-1.1668617,-1.9061007,-3.265255,-0.27472973,0.14080112,-0.30855632,28.625,29.75,28.9375,33.0,35.375,36.5
0.19605215,-1.6562806,0.703939,0.18097043,0.06524455,0.06605891,-0.19871832,-0.38984552,-0.34629586,0.060121894,3.0770106,-0.6259138,-0.00031826933,-0.090624586,0.025981838,-0.0016462874,-0.01352614,0.0010313591,-0.02657036,0.46503326,-1.4158018,1.9456519,-2.100304,-1.5695175,2.4408314,-0.13451593,0.10990921,-0.12421794,0.0073982677,0.0114979055,-0.10787335,-0.57460845,-0.22984336,-9.11712,0.8157518,47.692257,-1.068099,-2.0021298,-3.309224,-0.26878855,0.11455677,-0.36494872,28.625,29.75,28.9375,33.0,35.375,36.5
0.19805208,-1.109956,0.27816993,-0.10408248,0.05681745,0.060593277,-0.19429544,-0.39002416,-0.34624177,0.060114387,3.0769842,-0.62600154,-0.00030457287,-0.09025152,0.026182786,-0.0023421105,-0.01169085,-0.00064979587,-0.024665946,0.46476996,-1.415573,1.9454006,-2.1002796,-1.5695056,2.4406264,-0.13390946,0.11142883,-0.124697134,0.008692343,0.010615854,-0.10917084,-0.38307226,-0.21068975,-9.251195,0.91421866,47.67793,-1.2137388,-1.9340994,-3.3732777,-0.2815471,0.14686611,-0.43345055,28.625,29.75,28.9375,33.0,35.375,36.5
0.20005211,-0.8424292,0.05803385,0.043278247,0.027898805,0.05027537,-0.20542082,-0.39020708,-0.34618202,0.06010957,3.0769484,-0.6260929,-0.00030719783,-0.09268809,0.02608157,-0.0010351227,-0.012887028,0.0018829383,-0.027837379,0.46449295,-1.4153565,1.9451598,-2.1002667,-1.5694937,2.440411,-0.13579583,0.11246292,-0.12899621,0.0091602085,0.010543562,-0.10788353,-0.47884035,-0.019153614,-9.270349,0.8179876,47.696735,-1.146863,-2.0412374,-3.2142096,-0.2738867,0.14304362,-0.46580803,28.625,29.75,28.9375,33.0,35.375,36.5
0.20205234,-1.1752375,0.010695896,-0.065025695,-0.000968726,0.034021,-0.21983306,-0.39040568,-0.34610996,0.06011187,3.0769036,-0.6262356,-0.00030862304,-0.092640325,0.027548838,-0.002170621,-0.011134598,-0.00019971712,-0.026227351,0.4641806,-1.41514,1.9448975,-2.100231,-1.5694822,2.4401937,-0.13787928,0.11334776,-0.12751338,0.009450496,0.009920433,-0.11157739,-0.2681506,0.095768064,-9.32781,0.84708,47.698532,-1.1829815,-1.9869859,-3.488986,-0.2694292,0.14297223,-0.50123584,28.625,29.75,28.9375,33.0,35.375,36.5
0.20405225,-0.6755533,-0.97241205,-0.45585513,0.0033741277,0.035190042,-0.20308703,-0.3905662,-0.34603664,0.060080506,3.076934,-0.6262955,-0.00016391896,-0.09351834,0.027775338,-0.0035549963,-0.009477802,-0.0028690281,-0.020111654,0.46389216,-1.414886,1.9446577,-2.1001465,-1.5694584,2.4399388,-0.13881813,0.11817985,-0.13015886,0.010407297,0.009627308,-0.11863098,-0.15322891,0.17238252,-9.423578,0.8851263,47.70211,-1.1756997,-2.0803785,-3.279156,-0.30871034,0.18559813,-0.47549564,28.625,29.75,28.9375,33.0,35.375,36.5
0.20605235,-0.96414036,-1.5063907,-0.4826774,-0.010095581,0.02390616,-0.19744603,-0.39076114,-0.34598333,0.060092825,3.0768952,-0.6262825,-0.00021338458,-0.0953795,0.027072715,-0.00015764033,-0.013576576,0.0034772074,-0.012172616,0.46361595,-1.4146833,1.944394,-2.100135,-1.569446,2.4396596,-0.13969731,0.11358745,-0.13252366,0.009866832,0.010465138,-0.1274486,-0.19153614,0.2681506,-9.404425,0.8537928,47.690468,-1.1787983,-1.8388506,-3.3590634,-0.30230162,0.18198317,-0.4081275,28.625,29.75,28.9375,33.0,35.375,36.5
0.20805229,-1.0239638,-1.5261664,-0.6770877,-0.028564246,0.025018407,-0.20584306,-0.39096108,-0.34593683,0.06010769,3.0768738,-0.62625515,-0.0002961057,-0.09638834,0.028126003,-0.00255069,-0.011773521,-0.00078718323,-0.005784906,0.46336308,-1.4144652,1.9441065,-2.1001232,-1.5694579,2.4393926,-0.14259255,0.1194475,-0.13385302,0.009967712,0.010775934,-0.13672957,-0.15322891,0.36391866,-9.385271,0.8493211,47.70211,-1.2321577,-2.0385482,-3.284543,-0.28805467,0.18699914,-0.33629143,28.625,29.75,28.9375,33.0,35.375,36.5
0.21005243,-0.86700815,-1.499069,-0.9374523,-0.027413625,0.02143318,-0.2054258,-0.3911459,-0.34587625,0.060086142,3.0768557,-0.62628466,-0.0002586949,-0.09665673,0.026928466,-0.00084873696,-0.012524619,0.0024694686,0.0033081833,0.4630759,-1.4142137,1.9438661,-2.1001227,-1.569434,2.4391263,-0.14014018,0.11783908,-0.13604192,0.0105330665,0.0099970205,-0.14336954,-0.019153614,0.45968673,-9.576807,0.8672237,47.67614,-1.3611866,-1.8865609,-3.1987994,-0.3041063,0.21074432,-0.24227577,28.625,29.75,28.9375,33.0,35.375,36.5
0.21205238,-1.4057595,-2.552479,-0.99054414,-0.02549989,0.015277818,-0.19277571,-0.39133054,-0.34581688,0.060068518,3.0768833,-0.62621194,-0.00020151213,-0.09891367,0.027599538,-0.0005473967,-0.013938911,0.0031909805,0.0048839687,0.4627985,-1.413949,1.943591,-2.1000755,-1.5694216,2.4388,-0.14386962,0.119403526,-0.13846505,0.010122329,0.010936979,-0.14867407,0.076614454,0.49799395,-9.595961,0.83813137,47.696735,-1.0962243,-1.9079261,-3.4695067,-0.3026991,0.23140556,-0.18866834,28.625,29.75,28.9375,33.0,35.375,36.5
0.21405254,-0.3222307,-2.0831013,-1.0570061,-0.04816729,0.034639627,-0.20084527,-0.3915507,-0.34576216,0.060102142,3.0768347,-0.62618506,-0.00027675115,-0.098994195,0.028150918,-0.0012723552,-0.013677632,0.0013506452,0.0014300372,0.46249828,-1.4137443,1.9432677,-2.1000268,-1.5694097,2.4384894,-0.14521968,0.12061317,-0.13831872,0.010530347,0.011536178,-0.14656962,0.019153614,0.61291564,-9.576807,0.88289046,47.71286,-1.14743,-1.9358128,-3.3429894,-0.3034826,0.22538121,-0.1483041,28.625,29.75,28.9375,33.0,35.375,36.5
0.21605256,-0.809935,-2.5387826,-1.1157537,-0.045999132,0.008739308,-0.1957518,-0.39173228,-0.34569412,0.06006444,3.076799,-0.6262784,-0.00018528766,-0.1008059,0.02879299,-0.001562094,-0.013904163,0.0015260809,-0.0057214596,0.4621853,-1.4134791,1.9430512,-2.1000397,-1.5693611,2.4382393,-0.1479632,0.122970484,-0.14024691,0.009848031,0.011646912,-0.14216074,-0.05746084,0.5746084,-9.634268,0.8560339,47.686886,-1.1295698,-1.9686754,-3.250225,-0.29264694,0.24097529,-0.17296264,28.625,29.75,28.9375,33.0,35.375,36.5
0.21805246,-0.81611115,-2.1134446,-0.84674525,-0.057681844,0.0077716997,-0.19772099,-0.39194754,-0.34565452,0.06007952,3.0767443,-0.62623245,-0.00024979058,-0.10260261,0.02888134,-0.00048390415,-0.015397278,0.004067175,-0.012776164,0.4619088,-1.4132389,1.9427403,-2.1000397,-1.5693372,2.4379413,-0.14976043,0.12281481,-0.14241146,0.009227217,0.011850732,-0.13690145,-0.095768064,0.5746084,-9.653421,0.81351066,47.675243,-1.0484729,-1.9831231,-3.268486,-0.27890712,0.25277632,-0.23737836,28.625,29.75,28.9375,33.0,35.375,36.5
0.22005223,-0.5293676,-1.9318067,-1.0895327,-0.044310257,0.009214272,-0.20093437,-0.39215297,-0.3456274,0.06008615,3.0766587,-0.6262546,-0.00022501484,-0.10357382,0.028830204,2.9131112e-05,-0.016286006,0.005208072,-0.016152209,0.4616324,-1.4129748,1.9424156,-2.1000154,-1.5692652,2.4376898,-0.15063259,0.12305889,-0.1438407,0.009003832,0.0121393595,-0.13439654,-0.038307227,0.4405331,-9.80665,0.86945957,47.68599,-1.1072263,-1.8762679,-3.2158191,-0.27821714,0.24190864,-0.31050852,28.625,29.75,28.9375,33.0,35.375,36.5
0.22205222,-0.2253744,-0.9526754,-1.0805572,-0.032451335,0.011063366,-0.20448342,-0.39239,-0.34554708,0.060103845,3.0766263,-0.62632793,-0.00031882335,-0.10458485,0.029334467,-0.0018059446,-0.01624636,0.0019070306,-0.020065326,0.46129522,-1.412745,1.9421052,-2.099992,-1.5692886,2.4374027,-0.15325396,0.12788151,-0.1451015,0.008409748,0.013579102,-0.13310292,-0.038307227,0.2681506,-9.768343,0.8157518,47.701214,-0.8712124,-1.8682373,-3.200059,-0.28533906,0.26319164,-0.33239114,28.625,29.75,28.9375,33.0,35.375,36.5
0.22405225,-1.2728539,-1.3319335,-0.9169285,0.008594106,0.0006867021,-0.19878636,-0.3925895,-0.34551397,0.060077082,3.0765498,-0.6263333,-0.00025262282,-0.10702813,0.030231146,-3.337918e-05,-0.018754052,0.0053487234,-0.025162151,0.46100613,-1.4124452,1.9418291,-2.1000278,-1.5692047,2.4371269,-0.15737252,0.12591116,-0.14678656,0.007878423,0.014291945,-0.13212413,-0.19153613,0.24899697,-9.672575,0.91421866,47.704796,-1.0078856,-1.9854529,-3.2429652,-0.26068702,0.2541679,-0.37794936,28.625,29.75,28.9375,33.0,35.375,36.5
0.22605243,-1.4325414,-0.4914285,-0.92579365,0.019437218,0.011907037,-0.19021714,-0.3928128,-0.3454429,0.06009874,3.0764954,-0.62645376,-0.00030956056,-0.10662847,0.029426401,-0.0015618844,-0.018832574,0.0028398763,-0.020938719,0.4606826,-1.4122276,1.9415182,-2.0999806,-1.5692042,2.4368856,-0.1562744,0.1295127,-0.14727086,0.0069784694,0.015489066,-0.13524802,-0.17238252,0.15322891,-9.634268,0.8560339,47.704796,-0.96485925,-2.0145304,-3.271858,-0.2508577,0.23441756,-0.37634245,28.625,29.75,28.9375,33.0,35.375,36.5
0.2280526,-1.3833354,0.41823617,-0.5189195,0.020618068,0.035766385,-0.19840586,-0.3930262,-0.34541276,0.06011964,3.0763903,-0.626431,-0.0003417713,-0.10656327,0.029635508,-0.0023201248,-0.018181577,0.0007245862,-0.018701848,0.4603945,-1.4119989,1.9412068,-2.09998,-1.5691322,2.4365969,-0.15673901,0.13131721,-0.14787722,0.0079815965,0.015864784,-0.13794795,-0.13407528,-0.019153614,-9.576807,0.84708,47.698532,-1.0603721,-2.0214677,-3.321985,-0.23298714,0.23445196,-0.39102882,28.625,29.75,28.9375,33.0,35.375,36.5
0.2300526,-1.6561837,0.15241098,-0.47535545,0.037888013,0.04644149,-0.2009302,-0.39323038,-0.34534028,0.06010057,3.0763683,-0.6264799,-0.00030307935,-0.10793896,0.028914806,-0.0017313402,-0.019598508,0.0013933547,-0.010702446,0.4600704,-1.411734,1.9409422,-2.0999677,-1.5691079,2.4363062,-0.15722094,0.13314655,-0.15149172,0.008556352,0.016844159,-0.1464277,-0.24899697,-0.076614454,-9.461885,0.81351066,47.713753,-1.1178143,-2.121791,-3.1815417,-0.23226222,0.22564137,-0.3163736,28.625,29.75,28.9375,33.0,35.375,36.5
0.23205173,-1.7092655,0.025570596,-0.59208584,0.048333913,0.052663088,-0.19980285,-0.39346918,-0.34529153,0.06010861,3.0763116,-0.6264443,-0.00036683204,-0.108138815,0.029658884,-0.002462114,-0.018987129,0.00020638942,-0.0033344408,0.45975786,-1.4114574,1.9406079,-2.09998,-1.5690836,2.435979,-0.15861888,0.13415806,-0.15099102,0.008401688,0.016850187,-0.15519264,-0.3256114,-0.22984336,-9.404425,0.86498255,47.7245,-1.0867243,-2.0994515,-3.4070263,-0.24454956,0.22021905,-0.2352597,28.625,29.75,28.9375,33.0,35.375,36.5
0.2340526,-1.4848623,0.47204798,-0.26792595,0.03880923,0.054492988,-0.20294496,-0.393658,-0.34523973,0.060095873,3.0762868,-0.6264556,-0.00028938983,-0.109186016,0.030744502,-0.0029115528,-0.018045574,-0.00040849327,0.0016657216,0.45946926,-1.4111924,1.9403204,-2.099932,-1.5690359,2.4357007,-0.16101962,0.13562319,-0.15175818,0.008698633,0.016287368,-0.16259354,-0.40222588,-0.19153613,-9.423578,0.85155696,47.711964,-1.0639398,-2.1838107,-3.344195,-0.22349176,0.24112874,-0.14434907,28.625,29.75,28.9375,33.0,35.375,36.5
0.2360518,-1.8081261,0.21247111,-0.37700194,0.043349095,0.04457103,-0.19693902,-0.39389154,-0.34515604,0.06009375,3.0762308,-0.6265791,-0.00032080882,-0.11010282,0.03149131,-0.0028150831,-0.017654557,-5.8029786e-06,0.0022518428,0.4591083,-1.4109403,1.9400343,-2.099932,-1.5690244,2.435424,-0.16271544,0.13601479,-0.15250345,0.008878014,0.015768867,-0.16487466,-0.30645782,-0.24899697,-9.3661175,0.7777002,47.716442,-1.0777433,-2.0438793,-3.4441066,-0.23113035,0.23768175,-0.062183723,28.625,29.75,28.9375,33.0,35.375,36.5
0.23805188,-1.8500192,0.22457646,-0.2618617,0.038442552,0.04293392,-0.19373085,-0.3941353,-0.3450809,0.060091674,3.076217,-0.626501,-0.00037933362,-0.11140977,0.030789766,-0.0023924022,-0.017786756,0.0013788143,-0.0003162133,0.45876095,-1.4106631,1.939722,-2.0999434,-1.5690244,2.43503,-0.16220489,0.13814722,-0.15597224,0.008916835,0.01527242,-0.16179349,-0.53630114,-0.28730422,-9.308657,0.81351066,47.685097,-1.2206315,-2.204821,-3.3892164,-0.22815737,0.25144082,-0.071539275,28.625,29.75,28.9375,33.0,35.375,36.5
0.24005187,-1.5197818,0.30021918,0.06543346,0.031253703,0.06620075,-0.19548488,-0.39434874,-0.34502774,0.06008494,3.0761354,-0.6265649,-0.00029760253,-0.11186537,0.03057472,-0.0022159372,-0.018456744,0.0016243788,-0.006760639,0.45842496,-1.4103874,1.939411,-2.099908,-1.5689396,2.4347444,-0.16243799,0.13869037,-0.15703908,0.008930486,0.01575558,-0.15558162,-0.7278373,-0.24899697,-9.270349,0.8672237,47.682407,-1.2156044,-2.0056298,-3.5115647,-0.20244059,0.26112616,-0.119971626,28.625,29.75,28.9375,33.0,35.375,36.5
0.24205182,-1.8015492,-0.03927701,-0.00018189882,0.048996426,0.06551833,-0.19171484,-0.39456525,-0.34500062,0.060105696,3.0760374,-0.62655014,-0.00034457183,-0.112927675,0.030203981,-0.0013490884,-0.019222338,0.003191367,-0.014220229,0.45814875,-1.4101466,1.9390858,-2.0999076,-1.56888,2.4344716,-0.16261666,0.13898692,-0.15947801,0.00932984,0.015748542,-0.14829834,-0.61291564,-0.095768064,-9.270349,0.83813137,47.686886,-1.2260163,-1.9891423,-3.4403565,-0.21195373,0.2583232,-0.20200078,28.625,29.75,28.9375,33.0,35.375,36.5
0.24405208,-1.5123332,0.62324727,0.027815087,0.030385114,0.078833334,-0.19664116,-0.39481118,-0.3449165,0.060094174,3.0760176,-0.62664247,-0.00031551733,-0.113929585,0.02986051,-0.001162019,-0.020094294,0.0032566676,-0.017531693,0.45777655,-1.4098334,1.9387397,-2.09986,-1.568868,2.4341598,-0.16325915,0.14063793,-0.16193353,0.00969069,0.01649507,-0.14562821,-0.7278373,0.038307227,-9.097966,0.89631605,47.701214,-1.2985098,-2.009613,-3.3018398,-0.19998729,0.24116927,-0.2601825,28.625,29.75,28.9375,33.0,35.375,36.5
0.2460521,-1.8153687,0.11468802,0.05860192,0.027827233,0.071381584,-0.19696842,-0.39503196,-0.3448558,0.060103487,3.075956,-0.6267289,-0.00030975198,-0.11494449,0.029918334,-0.0009794608,-0.020068642,0.0036260518,-0.022894796,0.45745257,-1.409581,1.9384159,-2.0998118,-1.5688318,2.4338977,-0.16403146,0.14195992,-0.16400875,0.01012698,0.016305009,-0.14103605,-0.6703765,0.13407528,-9.155427,0.8493211,47.703903,-1.3648437,-1.9764192,-3.2443213,-0.1762901,0.2648561,-0.34813684,28.625,29.75,28.9375,33.0,35.375,36.5
0.24805206,-2.0451508,-0.38569582,-0.20273307,0.015380214,0.05260432,-0.19628052,-0.39525333,-0.34476605,0.06008526,3.0759206,-0.6268575,-0.00029771787,-0.11517854,0.029726505,-0.00057693344,-0.020170294,0.0039198967,-0.025408754,0.45709243,-1.4093168,1.9381522,-2.0998113,-1.5688199,2.4336226,-0.16377263,0.14203343,-0.16524164,0.010980587,0.016265478,-0.13826291,-0.59376204,0.17238252,-9.232041,0.86945957,47.67345,-1.252312,-1.9612008,-3.2600913,-0.19171911,0.25375265,-0.4209133,28.625,29.75,28.9375,33.0,35.375,36.5
0.250052,-1.8264788,-0.97114295,-0.2880933,-0.010186256,0.056268785,-0.18774527,-0.39551866,-0.34471077,0.060101304,3.075865,-0.62690544,-0.0003585419,-0.11694595,0.030870467,-0.0004552379,-0.019767562,0.0046935305,-0.02807078,0.45675525,-1.4090042,1.9377464,-2.0997756,-1.5688084,2.4333227,-0.16678147,0.14309531,-0.16678084,0.010951564,0.015572116,-0.13860819,-0.68953013,0.30645782,-9.3661175,0.86498255,47.696735,-1.2624744,-1.8481392,-3.300963,-0.21339127,0.27981335,-0.47072166,28.625,29.75,28.9375,33.0,35.375,36.5
0.25205198,-1.5116824,-1.6149819,-0.22349782,-0.02297565,0.057460748,-0.19372053,-0.39574835,-0.34465218,0.060099877,3.0758383,-0.6269155,-0.0003756921,-0.11799102,0.03146358,-0.0013584491,-0.018799242,0.003117488,-0.024485234,0.45644304,-1.4087149,1.9374098,-2.0997512,-1.568796,2.4330204,-0.16853942,0.1463116,-0.16857953,0.0113926055,0.015411122,-0.14395021,-0.51714754,0.30645782,-9.270349,0.8717007,47.71465,-1.3173182,-1.8807927,-3.1824903,-0.19721512,0.3026687,-0.4985144,28.625,29.75,28.9375,33.0,35.375,36.5
0.25405195,-1.0598882,-1.4013597,-0.26071155,-0.03475608,0.05639075,-0.20338188,-0.39600796,-0.3445556,0.060097903,3.0757992,-0.6270384,-0.0004032893,-0.1192824,0.032944217,-0.0007518721,-0.019317575,0.0037841734,-0.017393844,0.4560457,-1.408427,1.937076,-2.099727,-1.568796,2.432705,-0.17229012,0.14513493,-0.16877003,0.011958484,0.015610213,-0.15479223,-0.3256114,0.34476504,-9.32781,0.92764956,47.709274,-1.189856,-1.991543,-3.254757,-0.21529827,0.29526514,-0.3921737,28.625,29.75,28.9375,33.0,35.375,36.5
0.25605208,-0.95634806,-1.4194456,-0.36301777,-0.036900785,0.045481045,-0.19794153,-0.39620242,-0.34449875,0.060048323,3.0758216,-0.6269979,-0.0002511798,-0.12063705,0.03377422,-0.0016481504,-0.018793404,0.0023186617,-0.007447253,0.45574477,-1.4080772,1.9367765,-2.0996916,-1.5687479,2.432376,-0.17496328,0.14828272,-0.17044052,0.012063312,0.015792439,-0.16741218,-0.19153613,0.4405331,-9.174581,0.7777002,47.695843,-1.0136431,-2.0586221,-3.1542158,-0.18008128,0.30423373,-0.29476172,28.625,29.75,28.9375,33.0,35.375,36.5
0.25805223,-0.76528615,-1.5558718,-0.5168041,-0.0139522385,0.02627048,-0.19429381,-0.39648277,-0.34443873,0.06008474,3.075661,-0.62709725,-0.00034594646,-0.122052096,0.033425476,-0.0006197733,-0.02078076,0.0045081577,-0.0018257664,0.45534843,-1.4078254,1.9364051,-2.0997036,-1.5686759,2.4320624,-0.17599204,0.14820275,-0.17258932,0.01148011,0.01664639,-0.17405915,-0.095768064,0.30645782,-9.3661175,0.9030289,47.701214,-1.0275795,-1.9517272,-3.296772,-0.18429556,0.30988452,-0.20875241,28.625,29.75,28.9375,33.0,35.375,36.5
0.26005235,-0.5696146,-1.2331125,-0.38210583,-0.010372556,0.011155723,-0.19527802,-0.39674386,-0.3443664,0.06007273,3.075672,-0.6270595,-0.00036971786,-0.12246446,0.032794375,-0.000509614,-0.021084486,0.005805138,0.0019390968,0.45500097,-1.4074764,1.9360236,-2.0996802,-1.5686878,2.4316902,-0.17493214,0.14908318,-0.1736567,0.010378757,0.016355423,-0.17676337,-0.05746084,0.36391866,-9.346964,0.7418897,47.688675,-1.1739813,-1.9150922,-3.3199792,-0.17092034,0.30975765,-0.14733195,28.625,29.75,28.9375,33.0,35.375,36.5
0.26205242,0.16065425,-0.39773157,-0.1704274,-0.017896459,0.024623971,-0.19000643,-0.39696622,-0.3442961,0.060050607,3.0756524,-0.62700075,-0.00030879708,-0.1231138,0.03259299,-0.00060251827,-0.022011712,0.005448901,-0.0022349085,0.45465264,-1.407176,1.9357237,-2.0996683,-1.5686396,2.4313078,-0.17566137,0.15044346,-0.17504828,0.010326733,0.017338376,-0.17331772,-0.05746084,0.30645782,-9.174581,0.86945957,47.677036,-1.0920455,-1.9573092,-3.25852,-0.15641415,0.31041148,-0.14108174,28.625,29.75,28.9375,33.0,35.375,36.5
0.26405257,-0.13578372,-0.39515382,-0.49216774,0.008349462,0.0054798075,-0.18545659,-0.397256,-0.34422243,0.06007149,3.0755568,-0.62716013,-0.00037170667,-0.12433553,0.03399567,-0.001306694,-0.0217847,0.0037016938,-0.012964346,0.45425528,-1.4068629,1.9353055,-2.099632,-1.5686153,2.4310224,-0.17942534,0.1522992,-0.17575096,0.010838358,0.01790543,-0.16635041,-0.019153614,0.2681506,-9.232041,0.8605109,47.66808,-1.0558839,-1.9629273,-3.2379932,-0.15352653,0.32224524,-0.23011523,28.625,29.75,28.9375,33.0,35.375,36.5
0.26605266,0.28314716,-0.2847074,-0.64695376,0.0075237164,-0.00034678305,-0.19313088,-0.3974716,-0.34416884,0.060036518,3.0755494,-0.6270846,-0.00029335514,-0.1256568,0.034276094,-0.0027211562,-0.021372024,0.0014754673,-0.019752169,0.45394275,-1.4065245,1.9349936,-2.099632,-1.5685672,2.4306638,-0.18134077,0.15714192,-0.1781165,0.01054434,0.018495614,-0.16147646,0.15322891,0.21068975,-9.346964,0.88289046,47.688675,-0.992591,-2.202824,-3.2310538,-0.13352527,0.3171777,-0.2805967,28.625,29.75,28.9375,33.0,35.375,36.5
0.2680517,0.16423999,-0.44203648,-0.5420806,0.00065321225,-0.0075576487,-0.19143848,-0.3977649,-0.34409073,0.060061224,3.0754673,-0.62724274,-0.00042298064,-0.12672658,0.035002768,-0.0024541041,-0.021920104,0.0014839552,-0.02387913,0.45355812,-1.4062247,1.9345874,-2.09962,-1.5685791,2.4303887,-0.18373398,0.15741546,-0.17921655,0.011122985,0.018999517,-0.1597404,0.05746084,0.076614454,-9.270349,0.8940802,47.71554,-0.92935026,-2.0071118,-3.3215013,-0.11379957,0.33330938,-0.33084822,28.625,29.75,28.9375,33.0,35.375,36.5
0.2700518,0.16715427,-0.29168746,-0.60057294,-0.0049954853,-0.0107271215,-0.18959898,-0.39800864,-0.3440162,0.06004501,3.0754302,-0.6272757,-0.00036120423,-0.12863871,0.03643474,-0.0020976688,-0.021725526,0.0021152813,-0.02776578,0.453185,-1.4059001,1.9342402,-2.0995839,-1.5685314,2.430041,-0.1875063,0.15800498,-0.18090434,0.01175509,0.018547598,-0.15962589,0.21068975,0.076614454,-9.346964,0.8247004,47.696735,-0.9271481,-2.05726,-3.302655,-0.11682524,0.33477518,-0.4077434,28.625,29.75,28.9375,33.0,35.375,36.5
0.2720521,-0.06947704,-0.6924472,-0.62152743,0.005288756,-0.00875397,-0.18932913,-0.39828065,-0.34393865,0.060047235,3.0753484,-0.6273913,-0.00038293857,-0.12869948,0.03580419,-0.0022201203,-0.02177153,0.0014038415,-0.02543,0.4527894,-1.4055871,1.9338697,-2.0995715,-1.5684947,2.4297283,-0.18654455,0.15958343,-0.18269241,0.0125992885,0.018912632,-0.1609981,0.15322891,0.05746084,-9.385271,0.76874626,47.705692,-0.9396005,-2.28408,-3.2880583,-0.106741026,0.3329742,-0.37894675,28.625,29.75,28.9375,33.0,35.375,36.5
0.2740522,-0.27537054,-0.48706016,-0.4885384,0.010445723,-0.0006086188,-0.19054641,-0.39851093,-0.34390098,0.060032267,3.0752907,-0.627355,-0.00032621602,-0.1279746,0.035355825,-0.0028659268,-0.02176867,-0.00079588353,-0.01673731,0.45247763,-1.4052507,1.9335111,-2.099559,-1.5684222,2.4294014,-0.1856379,0.16087325,-0.18299988,0.013628005,0.019893656,-0.16878347,0.038307227,0.0,-9.346964,0.8224646,47.709274,-1.0243906,-2.2170208,-3.2842717,-0.12600437,0.3479116,-0.35863093,28.625,29.75,28.9375,33.0,35.375,36.5
0.2760525,0.13290375,0.40500486,-0.48919758,0.004657488,0.026533237,-0.2085634,-0.3987897,-0.34381214,0.060031857,3.0752234,-0.62747055,-0.0003217136,-0.1290703,0.035005085,-0.0023712704,-0.023154391,3.0121517e-05,-0.0071958643,0.4520574,-1.4049261,1.9331278,-2.0995233,-1.5683864,2.4290621,-0.18640462,0.16179778,-0.18524763,0.01363742,0.020802578,-0.1790897,0.095768064,0.076614454,-9.32781,0.83813137,47.677036,-1.0214422,-2.2254965,-3.3627033,-0.11433549,0.33561558,-0.25683594,28.625,29.75,28.9375,33.0,35.375,36.5
0.27805248,-0.21283962,0.006003819,-0.3335426,0.012102526,0.040082037,-0.1945848,-0.39899868,-0.34373954,0.059992403,3.0752637,-0.62739754,-0.00020812744,-0.1299981,0.034394246,-0.0016924001,-0.024040082,0.00078600686,0.0011429529,0.45173347,-1.404589,1.9328159,-2.0994751,-1.5683621,2.4286876,-0.18632019,0.16279435,-0.18821411,0.0145689985,0.021271128,-0.18734416,-0.11492168,0.095768064,-9.423578,0.900793,47.693153,-1.1392624,-2.2311752,-3.3269067,-0.11334872,0.30766964,-0.13651611,28.625,29.75,28.9375,33.0,35.375,36.5
0.28005245,-0.79224354,-0.3029861,-0.5990316,0.019738564,0.038695168,-0.18964136,-0.39927664,-0.3436805,0.059999134,3.07514,-0.6274282,-0.00013399083,-0.12954503,0.03467292,-0.0035954535,-0.022819627,-0.0030535155,0.003917919,0.45131332,-1.4042515,1.9323982,-2.099427,-1.568242,2.4283025,-0.18665712,0.16632934,-0.18811832,0.014962539,0.02186522,-0.19045484,-0.17238252,0.11492168,-9.481039,0.82022345,47.687782,-1.1832715,-2.3618658,-3.4353585,-0.10963723,0.3326489,-0.100915425,28.625,29.75,28.9375,33.0,35.375,36.5
0.28205267,-0.66401505,0.087257296,-0.6436706,0.010453038,0.052800715,-0.190367,-0.39952037,-0.3436199,0.059992556,3.0751238,-0.62735194,-0.0001671463,-0.13006335,0.03531017,-0.0037474153,-0.02226899,-0.0036592535,-0.0028780221,0.45098904,-1.4039392,1.9320511,-2.099427,-1.56823,2.427933,-0.18795966,0.16704163,-0.18882538,0.015739528,0.021631975,-0.18496059,-0.19153613,0.114921674,-9.5385,0.8493211,47.694946,-1.207098,-2.226682,-3.433101,-0.1205299,0.3240599,-0.10213944,28.625,29.75,28.9375,33.0,35.375,36.5
0.28405267,-1.4877157,-0.785921,-0.484932,0.0056096967,0.04868973,-0.18408768,-0.3997817,-0.3435266,0.05997322,3.0751283,-0.62743586,-9.284501e-05,-0.13135512,0.035885196,-0.002856844,-0.022590693,-0.0019242232,-0.011347436,0.4505921,-1.4035789,1.9316577,-2.0993426,-1.5682181,2.427588,-0.18964088,0.16646795,-0.19033127,0.016113304,0.021143446,-0.17817329,-0.38307226,0.095768064,-9.519346,0.90527004,47.729877,-1.1577773,-2.1696868,-3.4210665,-0.10479889,0.31595665,-0.1678876,28.625,29.75,28.9375,33.0,35.375,36.5
0.28605253,-1.3122663,-0.9999356,-0.68171084,-0.008571781,0.066315725,-0.18856438,-0.4000293,-0.34346288,0.059969593,3.075089,-0.6274113,-8.9503e-05,-0.13243516,0.035837494,-0.0025813393,-0.02305227,-0.0014320351,-0.018155336,0.4502443,-1.4032661,1.9312977,-2.0993192,-1.5681823,2.4272301,-0.19048166,0.16770199,-0.19250703,0.016409423,0.02133615,-0.17220454,-0.5363012,0.19153613,-9.481039,0.7709874,47.694946,-1.2723348,-2.3563218,-3.3595982,-0.11636917,0.3177232,-0.26839742,28.625,29.75,28.9375,33.0,35.375,36.5
0.28805256,-1.2661759,-1.2031734,-0.87519485,-0.006492528,0.0680069,-0.19472186,-0.40031156,-0.34338862,0.0599663,3.0749702,-0.6275614,-7.9313235e-05,-0.132568,0.034376536,-0.0018477881,-0.024218686,-0.00022781252,-0.021643795,0.44982505,-1.4029298,1.9309148,-2.0993192,-1.5681099,2.42692,-0.18820535,0.16821969,-0.19489431,0.016692411,0.021858463,-0.1664375,-0.47884035,0.15322891,-9.5385,0.8717007,47.711063,-1.4294705,-2.2491226,-3.5075502,-0.110163376,0.31737673,-0.35770136,28.625,29.75,28.9375,33.0,35.375,36.5
0.29005253,-1.7762473,-1.4179934,-0.5599096,-0.009129497,0.065828234,-0.1909441,-0.40055728,-0.3433074,0.05995348,3.074946,-0.6276366,2.7111248e-05,-0.13384077,0.03417288,-0.000980697,-0.025686774,0.0014803716,-0.026549429,0.4494406,-1.4025937,1.9305319,-2.099223,-1.5680617,2.4265857,-0.18916562,0.16831763,-0.19699632,0.016524335,0.022421652,-0.16249207,-0.47884035,0.24899697,-9.500193,0.8806493,47.71823,-1.4622464,-2.0840952,-3.4776258,-0.105941325,0.30597028,-0.43803,28.625,29.75,28.875,33.0,35.375,36.5
0.29205167,-1.9388183,-1.0745952,-0.63341427,-0.0021832827,0.06088792,-0.19294845,-0.40084988,-0.34324643,0.059969965,3.0748737,-0.62764055,-5.485492e-05,-0.13625406,0.035461955,-2.92042e-08,-0.026327733,0.0035915866,-0.028100567,0.4490674,-1.4022572,1.9301008,-2.0992115,-1.5680379,2.4262245,-0.19315098,0.16821532,-0.19919495,0.016665077,0.022101147,-0.16492383,-0.61291564,0.22984336,-9.500193,0.89631605,47.72002,-1.3781893,-2.1428745,-3.448978,-0.11740008,0.32096303,-0.49627241,28.625,29.6875,28.875,33.0,35.375,36.5
0.29405168,-1.4466317,-0.6727779,-0.91854614,0.0036660891,0.060005672,-0.19319798,-0.4011149,-0.3431785,0.059938412,3.0748165,-0.62775993,3.4471577e-05,-0.13841109,0.035963446,0.0005690493,-0.027095634,0.0053214883,-0.022356655,0.4486828,-1.4018602,1.929706,-2.0991871,-1.5679778,2.425922,-0.19570734,0.16946687,-0.20192286,0.01629062,0.022053737,-0.17322344,-0.38307226,0.24899697,-9.653421,0.9388393,47.711063,-1.3820436,-2.1527374,-3.313618,-0.11548005,0.31578857,-0.45776975,28.625,29.6875,28.875,33.0,35.375,36.5
0.2960526,-1.3053287,-0.75568527,-0.81185216,0.0007143977,0.052432593,-0.20478542,-0.40137482,-0.34310624,0.059941377,3.0747695,-0.6277048,9.400971e-06,-0.13855866,0.035785377,4.7622263e-05,-0.02704508,0.0044180444,-0.009868494,0.44831067,-1.4015595,1.9293469,-2.0991752,-1.567942,2.4255216,-0.19562644,0.17117028,-0.20276698,0.016314233,0.022437617,-0.18562903,-0.38307226,0.19153613,-9.672575,0.8873621,47.731667,-1.2692387,-2.090989,-3.3783524,-0.10465939,0.3027756,-0.34319302,28.625,29.6875,28.875,33.0,35.375,36.5
0.2980519,-1.4015924,-1.0229881,-0.49817935,-0.016667027,0.05077149,-0.20059493,-0.40167668,-0.34303528,0.059961062,3.0746722,-0.627796,7.654506e-06,-0.13978831,0.03690941,-0.0004122942,-0.027068345,0.0040949965,-0.0020971082,0.44788963,-1.4012107,1.9288806,-2.0991042,-1.5678815,2.4251702,-0.19861947,0.17247228,-0.20315357,0.01572993,0.02263409,-0.19639206,-0.47884035,0.19153613,-9.595961,0.8314132,47.698532,-1.2207309,-2.138359,-3.4337316,-0.087658376,0.3219,-0.2276373,28.625,29.6875,28.875,33.0,35.375,36.5
0.300052,-1.186933,-0.7744363,-0.56044376,-0.016606169,0.050674256,-0.19724393,-0.40196216,-0.3429621,0.05994651,3.07466,-0.62771493,-5.065069e-05,-0.14123666,0.03703053,0.00034659146,-0.028071731,0.005267428,0.00090501463,0.44751734,-1.4008381,1.9284858,-2.0991275,-1.5678815,2.4247491,-0.20018262,0.17297947,-0.20564908,0.016246822,0.023051564,-0.20095508,-0.40222588,0.11492168,-9.615114,0.92764956,47.677036,-1.2615422,-2.0995507,-3.3574758,-0.08680111,0.30047253,-0.15776642,28.625,29.6875,28.875,33.0,35.375,36.5
0.30205208,-0.6698313,-0.2664198,-0.54354894,-0.010982561,0.056472525,-0.2026791,-0.4022424,-0.34289783,0.05995336,3.074543,-0.62775314,8.951771e-06,-0.14219554,0.037320457,0.00026884474,-0.028671285,0.0045639696,-0.0063336417,0.44709685,-1.4005013,1.9280676,-2.0990798,-1.5677732,2.4243677,-0.20188764,0.174461,-0.20739523,0.016899055,0.023895726,-0.19541931,-0.36391866,0.076614454,-9.691729,0.8672237,47.74241,-1.109617,-2.0591416,-3.2503788,-0.07633501,0.29977867,-0.17164594,28.625,29.6875,28.875,33.0,35.375,36.5
0.30405205,-0.94993794,-0.27512395,-0.7258003,0.017583685,0.03600353,-0.19611096,-0.40251866,-0.34280097,0.05993419,3.0745344,-0.62781423,7.8338475e-05,-0.143328,0.03765807,-0.00012739317,-0.028632728,0.003771797,-0.015492381,0.4466762,-1.4001284,1.9276608,-2.0990074,-1.5677494,2.4239864,-0.20347595,0.17687286,-0.20944293,0.017257754,0.024182666,-0.18784846,-0.34476504,0.076614454,-9.5385,0.8985519,47.709274,-1.150977,-1.9289719,-3.3449774,-0.08097148,0.2991415,-0.23505399,28.625,29.6875,28.875,33.0,35.375,36.5
0.306052,-1.5732895,0.43000987,-0.47487944,0.014524259,0.012057053,-0.20406358,-0.4028521,-0.3427449,0.059965044,3.074368,-0.62791616,-5.9295744e-05,-0.14432631,0.037176594,0.0009156161,-0.030401371,0.005615363,-0.019145774,0.4462559,-1.39978,1.9271935,-2.0990436,-1.5676888,2.4236515,-0.20381618,0.17653082,-0.21145749,0.017196868,0.02500601,-0.18453021,-0.57460845,0.038307227,-9.557653,0.8672237,47.695843,-1.0433962,-2.1826315,-3.4122095,-0.07209135,0.27476448,-0.3153256,28.625,29.6875,28.875,33.0,35.375,36.5
0.3080519,-1.0463219,-0.36307764,-0.2932064,0.024370713,0.04467775,-0.19873929,-0.4031146,-0.3426686,0.059940062,3.0743635,-0.6278792,-1.9608216e-05,-0.14504306,0.037770122,0.0004199441,-0.031842478,0.0042808554,-0.023663899,0.44588313,-1.3994073,1.9268111,-2.0990198,-1.567664,2.4232564,-0.20651247,0.1776063,-0.21154854,0.016796695,0.026880572,-0.18270707,-0.40222588,0.05746084,-9.557653,0.8717007,47.65643,-1.0146532,-2.1352959,-3.552505,-0.061089814,0.23865876,-0.3611419,28.625,29.6875,28.875,33.0,35.375,36.5
0.31005195,-1.4809763,-0.4191663,-0.45023638,0.0256798,0.04271667,-0.20214152,-0.40339437,-0.3425815,0.05992295,3.0743084,-0.6280018,4.3146047e-05,-0.14609298,0.03855981,-0.00025655873,-0.03075586,0.00306118,-0.024262324,0.44546247,-1.399034,1.9264044,-2.0989711,-1.5676163,2.4229195,-0.20835015,0.18021324,-0.21327005,0.017505689,0.026430799,-0.1839462,-0.21068975,0.0,-9.481039,0.90527004,47.68599,-1.1324737,-2.1489987,-3.4336786,-0.055181928,0.23189306,-0.37553826,28.625,29.6875,28.875,33.0,35.375,36.5
0.31205195,-1.0185103,-0.050670914,-0.38673726,0.024419993,0.039360736,-0.20587857,-0.40367365,-0.34249887,0.059929572,3.0742295,-0.62807775,7.031485e-05,-0.14756992,0.03888457,-0.000105686326,-0.030233644,0.0039102086,-0.01829909,0.44504258,-1.398709,1.9259971,-2.0989115,-1.5675563,2.4225574,-0.20949596,0.18204823,-0.21586758,0.017774059,0.025616,-0.19105415,-0.17238252,-0.019153614,-9.5385,0.91198283,47.689575,-1.2196994,-2.1963084,-3.4385774,-0.052643377,0.24023697,-0.33974344,28.625,29.6875,28.875,33.0,35.375,36.5
0.31405196,-1.0299166,-0.20670426,0.109065495,0.006743217,0.041827362,-0.20864317,-0.40398023,-0.34240702,0.05991089,3.0742042,-0.62806463,0.000105973726,-0.14737481,0.037837785,-0.0010675907,-0.029566234,0.0025654351,-0.004450368,0.44459906,-1.3982995,1.9255542,-2.0988753,-1.5675205,2.4221091,-0.20732136,0.18545476,-0.21771836,0.017774437,0.025621245,-0.20272726,-0.22984336,0.076614454,-9.346964,0.91198283,47.689575,-1.3426259,-2.2639081,-3.3777707,-0.05484563,0.23458219,-0.24965352,28.625,29.6875,28.875,33.0,35.375,36.5
0.31605178,-1.2677959,-0.41479498,-0.13643281,0.015310168,0.025078254,-0.19687197,-0.40429106,-0.3423523,0.059926424,3.0740738,-0.62803197,7.640025e-05,-0.14805813,0.036544375,-0.00036108898,-0.03104434,0.0037938429,0.00519749,0.44417974,-1.3979388,1.9250988,-2.0988753,-1.5674247,2.4216864,-0.20598085,0.18658376,-0.22074819,0.017985046,0.026467163,-0.21103023,-0.3256114,0.076614454,-9.251195,0.8851263,47.681515,-1.4071338,-2.1650162,-3.3423345,-0.017910304,0.20798987,-0.12890147,28.625,29.6875,28.875,33.0,35.375,36.5
0.31805187,-0.71180147,0.042101335,-0.4112259,0.02212875,0.015896814,-0.20810372,-0.40456265,-0.3422729,0.059907194,3.0740726,-0.6280156,0.00013121667,-0.14945008,0.036394276,0.000779105,-0.03287135,0.0052263057,0.0025937036,0.44379526,-1.3975544,1.9246806,-2.0988152,-1.5673999,2.421292,-0.2073872,0.1864601,-0.22343299,0.018723207,0.027496021,-0.20983166,-0.1340753,0.19153613,-9.385271,0.9164598,47.682407,-1.4504318,-2.2942219,-3.3527465,-0.024079133,0.1939342,-0.08623767,28.625,29.6875,28.875,33.0,35.375,36.5
0.320052,-1.0528728,-0.66525453,-0.19975899,0.012548066,2.0255404e-06,-0.19232515,-0.40487725,-0.34217227,0.05990868,3.0740335,-0.62797475,9.580434e-05,-0.15065384,0.037411686,0.00070759084,-0.032634333,0.004701774,-0.0064781937,0.44333816,-1.3971937,1.924251,-2.098791,-1.567376,2.4208148,-0.2100192,0.18758902,-0.22484426,0.019577526,0.027508285,-0.20338999,-0.076614454,0.17238252,-9.557653,0.91198283,47.650166,-1.3227571,-2.2286828,-3.3653507,-0.024644371,0.19071758,-0.11974044,28.625,29.6875,28.875,33.0,35.375,36.5
0.32205203,-0.606034,-1.331028,-0.07115568,-0.0043834494,0.002082289,-0.19893311,-0.40520805,-0.34210172,0.05993109,3.07392,-0.62805164,2.070551e-05,-0.1518268,0.038172517,0.0008467021,-0.032255456,0.005294536,-0.01630099,0.4429057,-1.396821,1.9237598,-2.098767,-1.5673283,2.4204452,-0.21178183,0.18833262,-0.22613019,0.01974367,0.026916469,-0.19532734,-0.17238252,0.34476504,-9.385271,0.90750587,47.723602,-1.3494827,-2.2696521,-3.3413637,-0.031463042,0.18537444,-0.20144027,28.625,29.6875,28.875,33.0,35.375,36.5
0.32405204,-0.7976671,-1.599381,-0.5029585,-0.014798186,-0.0004340072,-0.20007302,-0.4055002,-0.3420348,0.059932563,3.0738442,-0.62817556,0.00010490291,-0.15364525,0.038627822,0.0015335768,-0.032844853,0.006654977,-0.02430452,0.442497,-1.3964245,1.9232692,-2.0986588,-1.5672563,2.4201238,-0.21389708,0.1891881,-0.22884828,0.020129832,0.02685171,-0.18943839,-0.24899697,0.36391866,-9.346964,0.8918391,47.693153,-1.2671319,-2.1140733,-3.1934752,-0.0036779146,0.17305739,-0.28908384,28.625,29.6875,28.875,33.0,35.375,36.5
0.32605198,-0.9298295,-1.4472754,-0.34872285,-0.019909542,0.0056194467,-0.20557149,-0.4057906,-0.34194946,0.059927844,3.073784,-0.62822604,6.6554465e-05,-0.15533683,0.03893818,0.0029415942,-0.034289323,0.008781389,-0.033143792,0.44208795,-1.3960762,1.9228734,-2.0986588,-1.567232,2.4197543,-0.21593876,0.18843766,-0.23140998,0.020892931,0.027243756,-0.18263833,-0.21068975,0.4405331,-9.423578,0.92093146,47.717335,-1.1596485,-2.1809387,-3.0666225,-0.0073765763,0.16696444,-0.41768858,28.625,29.6875,28.875,33.0,35.375,36.5
0.32805187,-0.7765112,-1.3338879,-0.3590277,-0.030629588,0.013639535,-0.2190355,-0.40610623,-0.34187305,0.05992928,3.0737007,-0.62824696,9.185345e-05,-0.15534681,0.039851204,0.0024025256,-0.033665136,0.0067971735,-0.03487009,0.4416436,-1.3956795,1.9223961,-2.0986106,-1.56716,2.419334,-0.21755612,0.18908095,-0.23130803,0.02223223,0.027546495,-0.18252854,-0.11492168,0.40222588,-9.404425,0.85826975,47.704796,-1.0942203,-2.1846163,-3.2032306,-0.033074245,0.1564104,-0.4660058,28.625,29.6875,28.875,33.0,35.375,36.5
0.33005187,-1.7225394,-1.1706097,-0.14039898,-0.044317886,0.00026498947,-0.20835829,-0.40638265,-0.34177333,0.05991412,3.0736504,-0.62836766,0.00019566902,-0.15577327,0.041191813,0.001717888,-0.033211946,0.0049849777,-0.029330427,0.441199,-1.395319,1.9219903,-2.0985262,-1.5670999,2.4189713,-0.22034661,0.18987139,-0.23089088,0.0229085,0.027935917,-0.19085978,-0.1340753,0.3256114,-9.423578,0.9701675,47.703007,-1.1435869,-2.1059113,-3.4065757,-0.038201932,0.12751895,-0.46009964,28.625,29.6875,28.875,33.0,35.375,36.5
0.33205187,-0.99124974,-1.214849,-0.4709399,-0.030337662,0.028403072,-0.21462236,-0.4067358,-0.34172264,0.059935063,3.073483,-0.6284418,0.00013696187,-0.15686281,0.042018037,0.0020291507,-0.033913266,0.005553732,-0.018178118,0.44075364,-1.3948988,1.9214519,-2.0985262,-1.5670031,2.4185941,-0.22278757,0.18977582,-0.23156421,0.0229431,0.028392786,-0.20444939,-0.22984336,0.2681506,-9.3661175,0.95226496,47.687782,-0.93007153,-1.898479,-3.4544778,-0.024815913,0.1361425,-0.3500746,28.625,29.6875,28.875,33.0,35.375,36.5
0.3340518,-1.974155,-1.1704402,-0.5336676,-0.0040879813,0.020772897,-0.20565823,-0.4070114,-0.34162042,0.059905007,3.0734918,-0.6284004,0.00022993427,-0.15803854,0.042542133,0.0017306746,-0.034422427,0.005691414,-0.009470976,0.44032133,-1.394514,1.9210571,-2.098467,-1.5669674,2.418135,-0.224789,0.1912879,-0.23253152,0.02211458,0.028816694,-0.21515837,-0.24899697,0.21068975,-9.442732,0.8717007,47.688675,-0.8516828,-1.8806962,-3.5101762,-0.020833885,0.10424249,-0.21250165,28.625,29.6875,28.875,33.0,35.375,36.5
0.3360518,-1.1388805,-0.15242338,-0.29550582,0.004389314,0.04598102,-0.21981645,-0.40732032,-0.34153107,0.059900712,3.0734165,-0.6284021,0.000294891,-0.15887657,0.042084422,0.0011348248,-0.03441318,0.005002601,-0.007585661,0.4398538,-1.3941281,1.9206022,-2.0984075,-1.5668834,2.4176784,-0.22467923,0.19458799,-0.23508179,0.022029249,0.029111657,-0.21693194,-0.34476504,0.11492168,-9.423578,0.89631605,47.687782,-1.0296488,-2.108834,-3.5312262,-0.014563562,0.07831009,-0.14696869,28.625,29.6875,28.875,33.0,35.375,36.5
0.3380518,-1.843889,0.3890416,-0.19453849,0.023203496,0.039798588,-0.20415321,-0.40766698,-0.34146446,0.05992544,3.0732954,-0.6284385,0.00021804929,-0.15900145,0.04109126,0.0013195882,-0.034886114,0.0050307107,-0.0123659745,0.43941027,-1.3937315,1.9200767,-2.0983832,-1.5668234,2.4172735,-0.22310144,0.19592032,-0.2372721,0.022660654,0.029538324,-0.2105694,-0.53630114,0.076614454,-9.3661175,0.8940802,47.647476,-1.1222649,-1.9703174,-3.5205855,-0.009843223,0.06460285,-0.18919736,28.625,29.6875,28.875,33.0,35.375,36.5
0.34005192,-1.9896338,-0.105044395,-0.38521385,0.06450496,0.049002454,-0.20328274,-0.4079816,-0.34137562,0.059923634,3.0732203,-0.6284644,0.00023015117,-0.15871023,0.041054524,0.0011482813,-0.03388541,0.0043894188,-0.018157406,0.43895504,-1.3933468,1.9196228,-2.098347,-1.5667638,2.4168444,-0.22220373,0.19650984,-0.23787662,0.023683736,0.028903509,-0.20388004,-0.5363012,-0.076614454,-9.404425,0.95226496,47.650166,-1.341485,-2.0140848,-3.4885602,-0.022654444,0.03807355,-0.28666723,28.625,29.6875,28.875,33.0,35.375,36.5
0.3420519,-1.6068054,0.7990405,-0.64261025,0.060452513,0.05530152,-0.2082516,-0.408307,-0.34131336,0.059928596,3.0731225,-0.6284649,0.0002499973,-0.159903,0.041061375,0.00044022844,-0.03300127,0.0031748647,-0.021589622,0.4385223,-1.3929256,1.9191078,-2.0982988,-1.5666794,2.4164248,-0.22283421,0.20046431,-0.24115822,0.024505582,0.028622849,-0.20107567,-0.4213795,-0.13407528,-9.481039,0.9567419,47.688675,-1.3310795,-2.0166469,-3.4360604,-0.008071357,0.037327264,-0.33325803,28.625,29.6875,28.875,33.0,35.375,36.5
0.34405184,-0.82032925,0.4410608,-0.71793556,0.056594126,0.05053373,-0.21212766,-0.4086255,-0.341203,0.0599096,3.07308,-0.62860966,0.0003149854,-0.16044684,0.042231392,-0.0007605702,-0.030902792,0.0009080406,-0.022650203,0.43804213,-1.392504,1.918641,-2.0982263,-1.5666441,2.4160407,-0.22455807,0.20323777,-0.24199212,0.025535984,0.027688965,-0.20174049,-0.2681506,-0.038307227,-9.595961,0.90527004,47.687782,-1.4627154,-2.2371306,-3.346675,-0.011119485,0.022949789,-0.40059507,28.625,29.6875,28.875,33.0,35.375,36.5
0.34605205,-0.98896456,-0.48783317,-0.6153703,0.019179745,0.04072179,-0.21820216,-0.40893808,-0.34113744,0.05992848,3.073026,-0.62852037,0.00025893305,-0.16217938,0.042899743,-0.000154184,-0.029750412,0.002393317,-0.019283038,0.43764567,-1.3921314,1.9181508,-2.0981781,-1.5666083,2.4155958,-0.2259443,0.20444088,-0.24510382,0.026631389,0.02604436,-0.20649311,-0.24899697,0.0,-9.634268,0.9030289,47.677036,-1.4313785,-2.2731576,-3.3754625,-0.025821356,0.026210068,-0.33523047,28.625,29.6875,28.875,33.0,35.375,36.5
0.34805202,-1.3663657,-1.0697788,-0.74874616,-0.005538961,0.01861477,-0.21557711,-0.4092741,-0.3410323,0.059904173,3.0729795,-0.62859917,0.0003180933,-0.16399357,0.04280002,0.0015262613,-0.02875539,0.0062905913,-0.0072187725,0.43715376,-1.3916746,1.9176601,-2.09813,-1.5665616,2.4151592,-0.2254742,0.2044382,-0.24927908,0.027779397,0.023523303,-0.21808979,-0.21068975,0.19153613,-9.5385,0.90750587,47.696735,-1.4580317,-2.1146598,-3.265987,-0.044935625,0.046811014,-0.25359523,28.625,29.6875,28.875,33.0,35.375,36.5
0.350052,-0.8184594,-0.9118219,-0.9673272,-0.008929026,0.021299677,-0.21388479,-0.4096424,-0.34096718,0.05997514,3.0728528,-0.62855,9.746124e-05,-0.16560717,0.044396017,0.0016892403,-0.0275285,0.0064163157,-0.00031849634,0.4367203,-1.3913383,1.9170965,-2.0980937,-1.5665377,2.414712,-0.2287057,0.20533624,-0.25107542,0.029144222,0.022437379,-0.22821845,-0.076614454,0.19153613,-9.519346,0.9388393,47.661808,-1.3083456,-2.2556765,-3.2066216,-0.058203552,0.06627158,-0.11056715,28.625,29.6875,28.875,33.0,35.375,36.5
0.3520519,-1.2932693,-0.79082805,-0.96995103,-0.004986407,0.0007905014,-0.21203646,-0.40994576,-0.34085158,0.059937127,3.072892,-0.6285589,0.00024337681,-0.16580312,0.04540094,0.0006491893,-0.026076538,0.0040447554,-0.001538617,0.43625218,-1.3908812,1.9166197,-2.0979736,-1.5665139,2.4142444,-0.23023589,0.20732903,-0.2513901,0.030247593,0.02211144,-0.2285311,-0.095768064,0.17238252,-9.672575,0.8873621,47.701214,-1.2636521,-2.1276479,-3.2899551,-0.08029915,0.06625732,-0.049113423,28.625,29.6875,28.875,33.0,35.375,36.5
0.35405204,-0.8116269,-1.0191504,-0.66846883,-0.007335827,0.024498386,-0.21153904,-0.41027766,-0.3407778,0.059961673,3.0727987,-0.628546,0.0001696489,-0.16662328,0.046960756,0.00013413302,-0.024773402,0.003104531,-0.012070319,0.43581942,-1.3905083,1.9161185,-2.0979373,-1.5664662,2.413816,-0.23295386,0.2082334,-0.25148475,0.030830855,0.02133212,-0.22071661,-0.21068975,0.21068975,-9.615114,0.9321212,47.68599,-1.2132331,-2.1479242,-3.4025896,-0.100689024,0.06781256,-0.11372957,28.625,29.6875,28.875,33.0,35.375,36.5
0.3560522,-1.7883154,-1.3845967,-0.9276184,-0.0036845594,0.016599959,-0.19373687,-0.41065553,-0.34067032,0.05998697,3.0726736,-0.62872034,0.000108548964,-0.167765,0.048670657,-0.0004975211,-0.024009442,0.0015860131,-0.025391268,0.43529013,-1.3900994,1.9155678,-2.0978773,-1.5664185,2.413412,-0.23661996,0.20969151,-0.25200647,0.031574484,0.021275634,-0.21105991,-0.4213795,0.19153613,-9.634268,0.8157518,47.694946,-1.1115645,-2.1083686,-3.4604173,-0.13059531,0.08776518,-0.19250762,28.625,29.6875,28.875,33.0,35.375,36.5
0.3580524,-2.009353,-1.2110242,-0.7935721,-0.016168969,0.038327113,-0.19981313,-0.41094452,-0.34058738,0.059953332,3.072662,-0.62864655,0.00021186161,-0.16902727,0.04958157,6.865947e-06,-0.024659451,0.0018266959,-0.036077544,0.4348692,-1.3896668,1.9151257,-2.0978286,-1.566358,2.4129467,-0.2393562,0.20967478,-0.2534313,0.032509666,0.021735216,-0.20310962,-0.2873042,0.15322891,-9.519346,0.9097417,47.653748,-0.96028936,-2.0601115,-3.5136714,-0.13924964,0.09045501,-0.3120979,28.625,29.6875,28.875,33.0,35.375,36.5
0.36005244,-1.4702427,-0.704262,-0.48036474,-0.015338812,0.056160215,-0.20720221,-0.41130033,-0.34050325,0.05996243,3.0725303,-0.62877613,0.00021376263,-0.16972232,0.0493249,0.00086354476,-0.025767494,0.003050547,-0.042873785,0.43437713,-1.3892348,1.9145874,-2.097781,-1.566274,2.4125528,-0.23955126,0.20931768,-0.2551544,0.033010326,0.022220049,-0.19650598,-0.15322891,0.05746084,-9.442732,0.9365982,47.666286,-0.92735386,-1.9658859,-3.6087213,-0.17233261,0.084270604,-0.42655623,28.625,29.6875,28.875,33.0,35.375,36.5
0.36205253,-0.9838852,-0.34692112,-0.40048385,0.0072111934,0.044698745,-0.2210934,-0.41162705,-0.3403779,0.0599406,3.0725205,-0.6289069,0.00021627294,-0.17136873,0.049212415,0.0016115042,-0.02654605,0.004928199,-0.04060945,0.4338972,-1.388814,1.914132,-2.0977333,-1.566286,2.412156,-0.24044713,0.21038722,-0.25818235,0.032960374,0.022144001,-0.19966537,-0.30645782,0.019153614,-9.519346,0.9030289,47.693153,-1.1168048,-1.9023149,-3.542779,-0.18430741,0.092462,-0.4746439,28.625,29.6875,28.875,33.0,35.375,36.5
0.36405236,-1.2744911,-0.064545915,-0.058225904,0.025116764,0.035904054,-0.21416521,-0.4119713,-0.34027925,0.059946064,3.0724318,-0.62895733,0.00021060032,-0.17221,0.04903456,0.0027475518,-0.027181799,0.0076557817,-0.027582189,0.43340504,-1.3884062,1.9136299,-2.0976856,-1.5662259,2.4117072,-0.24027555,0.20938472,-0.25961462,0.032735016,0.021628885,-0.21252087,-0.40222588,0.038307227,-9.3661175,0.9388393,47.67345,-1.1733218,-1.7942059,-3.4598596,-0.17647761,0.08441794,-0.38948956,28.625,29.6875,28.875,33.0,35.375,36.5
0.36605254,-1.3089688,0.42441532,-0.5007268,0.057941563,0.02322037,-0.20084202,-0.412319,-0.34021837,0.059969556,3.072316,-0.62894374,0.00018426163,-0.17332156,0.047963426,0.0030535238,-0.027878484,0.008988212,-0.013781543,0.43296167,-1.3879849,1.9130682,-2.097626,-1.566142,2.4112706,-0.23916543,0.2117409,-0.26308745,0.032434665,0.021759834,-0.22520807,-0.22984335,-0.019153614,-9.251195,0.95002913,47.705692,-1.1807647,-1.8183079,-3.391423,-0.18799794,0.08976213,-0.26247022,28.625,29.6875,28.875,33.0,35.375,36.5
0.3680526,-0.40584865,0.9809645,-0.7368392,0.07133588,0.015270272,-0.21029459,-0.4127021,-0.3401047,0.05998184,3.0722773,-0.628972,8.286666e-05,-0.1734311,0.047449797,0.0022638699,-0.02733807,0.0072681857,-0.007260262,0.4324575,-1.3875393,1.9125055,-2.0975778,-1.5661539,2.4107895,-0.23828636,0.21481535,-0.2651857,0.033279642,0.022031376,-0.23084737,-0.038307227,0.05746084,-9.481039,0.947788,47.67614,-1.2379239,-1.8193119,-3.3223462,-0.21036217,0.0987086,-0.17734562,28.625,29.6875,28.875,33.0,35.375,36.5
0.3700526,-0.89943886,0.20902134,-0.37958327,0.039865803,0.024069749,-0.20007223,-0.41304547,-0.33999807,0.059970997,3.0722156,-0.6290383,0.00013851412,-0.17412642,0.04786404,0.0017749858,-0.025940336,0.0062432825,-0.011882915,0.43195373,-1.3870945,1.911991,-2.0975053,-1.5660943,2.4103353,-0.23882343,0.21721673,-0.26726475,0.034482494,0.021184385,-0.22676249,-0.36391866,0.11492168,-9.308657,0.89631605,47.661808,-1.2812772,-1.9796855,-3.390017,-0.2243472,0.1163863,-0.17389709,28.625,29.6875,28.875,33.0,35.375,36.5
0.37205267,-0.9001588,-0.22091445,-0.36094663,0.013364536,0.038383204,-0.21176942,-0.41339287,-0.33989725,0.059997942,3.0721192,-0.6291579,0.0001772094,-0.17488068,0.048688732,0.000921926,-0.024173044,0.004429139,-0.020955037,0.43144956,-1.3866968,1.9114293,-2.0973613,-1.5660223,2.4099185,-0.24011485,0.22009516,-0.26909775,0.03581792,0.020323968,-0.21898204,-0.47884035,0.22984336,-9.174581,0.947788,47.675243,-1.403912,-2.0065293,-3.3247461,-0.2377778,0.13272527,-0.2710731,28.625,29.6875,28.875,33.0,35.375,36.5
0.3740527,-1.4502814,-0.9620408,-0.8201367,0.0007080642,0.03673287,-0.20991449,-0.41373545,-0.3398023,0.059997402,3.0721092,-0.6291394,0.0001471983,-0.17597213,0.04901745,0.0018135485,-0.024455683,0.005323739,-0.026734304,0.43100506,-1.3862522,1.9108909,-2.0972888,-1.5660223,2.4094641,-0.24128191,0.22002405,-0.2714753,0.037323758,0.020200957,-0.21436898,-0.15322891,0.19153613,-9.519346,0.9567419,47.695843,-1.4097006,-2.0306754,-3.2409325,-0.28520155,0.1409705,-0.37539816,28.625,29.6875,28.875,33.0,35.375,36.5
0.37605205,-1.5563792,-1.9088966,-0.41268745,-0.03413656,0.05023233,-0.19694984,-0.4140875,-0.33971027,0.060010735,3.0720272,-0.62922007,0.00010356027,-0.17734215,0.050351903,0.0021339934,-0.024708545,0.0058118654,-0.031090992,0.43053606,-1.385832,1.9103526,-2.0972292,-1.5659865,2.4090564,-0.24452557,0.21993674,-0.27226105,0.03765958,0.020241855,-0.21325469,-0.21068975,0.2681506,-9.500193,0.9298854,47.684196,-1.2056832,-2.0231924,-3.3148267,-0.33617276,0.1522825,-0.40798938,28.625,29.6875,28.875,33.0,35.375,36.5
0.37805215,-1.7784318,-2.2276456,-0.6892495,-0.030765245,0.034066767,-0.19857207,-0.4144657,-0.33959186,0.060023613,3.0719502,-0.6293928,7.9332276e-05,-0.17881563,0.05096537,0.0016328647,-0.024849463,0.0064075305,-0.026708264,0.43000734,-1.3853872,1.909778,-2.0971339,-1.5659622,2.4086459,-0.24648815,0.22211339,-0.27341375,0.036081787,0.020152535,-0.21959886,-0.22984336,0.22984336,-9.385271,0.95897776,47.657326,-1.1689888,-1.9152994,-3.3260412,-0.34730577,0.18989764,-0.3932804,28.625,29.6875,28.875,33.0,35.375,36.5
