Tylouw/Master_Thesis_Code/training_data/batch_1/small_rod_t0.3/sample_10_session_1.csv
timestamp[s],tcp_force_x[N],tcp_force_y[N],tcp_force_z[N],tcp_force_rx[Nm?],tcp_force_ry[Nm?],tcp_force_rz[Nm?],tcp_pose_x[m],tcp_pose_y[m],tcp_pose_z[m],tcp_pose_rx[rot_vec_x],tcp_pose_ry[rot_vec_y],tcp_pose_rz[rot_vec_z],tcp_velo_x[m/s],tcp_velo_y[m/s],tcp_velo_z[m/s],tcp_velo_rx[rot_vec_x/s],tcp_velo_ry[rot_vec_y/s],tcp_velo_rz[rot_vec_z/s],q1[rad],q2[rad],q3[rad],q4[rad],q5[rad],q6[rad],qd1[rad/s],qd2[rad/s],qd3[rad/s],qd4[rad/s],qd5[rad/s],qd6[rad/s],tool_acc_x,tool_acc_y,tool_acc_z,current_of_whole_robot[A],voltage_of_whole_robot[V],current_J1[A],current_J2[A],current_J3[A],current_J4[A],current_J5[A],current_J6[A],temp_J1[C],temp_J2[C],temp_J3[C],temp_J4[C],temp_J5[C],temp_J6[C]
7.930212e-07,0.5546888,0.1763444,1.3045741,-0.023658449,0.02586067,-0.02444423,-0.38104478,-0.34854084,0.059975963,-3.0785363,0.6248424,-0.00016124039,0.0012986545,0.00067819335,-0.0014833668,0.0015171923,-0.0032281412,4.265498e-05,0.4778342,-1.4259576,1.9577268,-2.1008327,-1.5707573,2.452764,-9.622459e-05,0.000749065,0.0024537477,0.00036090892,0.00014330228,-0.0001403217,0.05746084,0.21068975,-8.734048,0.76874626,47.70211,0.0449148,-2.7954462,-2.3937917,-0.4374529,0.08921585,0.0018949916,28.375,29.5625,28.8125,32.8125,35.125,36.25
0.002019494,0.06408619,0.28853306,1.3600284,-0.020714162,0.010179515,-0.015928367,-0.38108525,-0.34853005,0.059988502,-3.0785701,0.6249267,-0.00012356356,-0.00032058466,-0.00016566356,-0.003095581,-0.00053700205,0.0007063934,4.2611136e-05,0.47776207,-1.4259562,1.957703,-2.1008604,-1.5707334,2.4527402,-9.477712e-05,0.004240903,0.0044079702,-0.00952362,0.00013959748,-0.0001372641,0.05746084,0.15322891,-8.714894,0.7105615,47.696735,0.040340643,-2.8534133,-2.431232,-0.40924168,0.073925905,-0.0021063234,28.375,29.5625,28.8125,32.8125,35.125,36.25
0.004019479,0.41658765,0.3443124,1.3264076,-0.013523055,0.0153305065,-0.017277593,-0.38105252,-0.34853762,0.05995219,-3.0785391,0.6249399,-0.00020769762,-0.0013109497,-0.0006811384,-0.0026109791,-0.0018540262,0.0032425267,5.618852e-05,0.47779807,-1.4259205,1.9577507,-2.1008847,-1.5707215,2.4527884,-9.337233e-05,0.0043990426,0.003629782,-0.011761283,0.00013607963,-0.0001485714,0.076614454,0.15322891,-8.7532015,0.7239871,47.70211,0.09242847,-3.2100759,-2.7183957,-0.3181258,0.063709885,-0.0011244296,28.375,29.5625,28.8125,32.8125,35.125,36.25
0.006019987,0.7896437,0.63782805,1.1878392,0.0014461237,0.0054323254,-0.021642031,-0.3810703,-0.34851822,0.059959963,-3.0785084,0.62493277,-0.00011880928,-0.001196397,-0.0006205486,-0.0012255345,-0.0017192067,0.003001111,5.8834965e-05,0.47778615,-1.4259331,1.9577497,-2.1008952,-1.5707816,2.452776,-9.20088e-05,0.0024916925,0.0017018537,-0.0076496205,0.00013273442,-0.00014999932,0.038307227,0.19153613,-8.7532015,0.71279734,47.67345,0.042579062,-3.035282,-2.5542464,-0.34213924,0.080147564,0.011746676,28.375,29.5625,28.8125,32.8125,35.125,36.25
0.008019576,0.9729827,1.3905736,0.65538234,0.020310683,-0.016742226,-0.013695656,-0.38107303,-0.34853274,0.059958298,-3.0785382,0.62491983,-0.00015629396,-0.00063950144,-0.00032933927,-7.666713e-05,-0.0013271073,0.0022671227,5.662897e-05,0.47778615,-1.42591,1.9577268,-2.1008937,-1.5707458,2.452764,-9.068435e-05,0.000120189834,0.0008580207,-0.0036021732,0.00012954994,-0.00014722714,0.038307227,0.21068975,-8.944737,0.7172743,47.67614,0.071042575,-2.9546435,-2.5155725,-0.35448667,0.06701531,0.003762064,28.375,29.5625,28.8125,32.8125,35.125,36.25
0.010019798,1.0092807,1.2322438,0.16504712,0.016168525,-0.013427376,-0.0223208,-0.38106367,-0.34854135,0.059952512,-3.0785422,0.6248631,-0.00017087281,-0.00079666794,-0.00041096035,0.0004207571,-0.0012176738,0.0020644632,5.532589e-05,0.4778101,-1.4258981,1.9577264,-2.1008933,-1.5707458,2.452752,-8.939769e-05,1.6125e-06,-0.00054142496,-0.0018538567,0.00012651474,-0.0001442961,0.038307227,0.17238252,-9.155427,0.8493211,47.71286,-0.37996125,-2.391576,-2.9476686,-0.3984711,0.06596229,-0.041822746,28.375,29.5625,28.8125,32.8125,35.125,36.25
0.012019486,0.6617817,0.37560415,-0.08953484,-0.011464488,0.0055695046,-0.02603312,-0.38102823,-0.34852064,0.0599225,-3.0784996,0.62481654,-0.00030081914,-0.00028012967,-0.000119577395,-0.00228525,0.0015524431,-0.0032770617,0.00011827707,0.47779804,-1.4258965,1.957785,-2.100857,-1.5707334,2.4527164,-0.00013101888,0.0056807706,-0.0010143246,-0.0010430199,0.0001236183,-0.0002478958,0.095768064,0.11492168,-9.308657,0.64342284,47.71286,-0.6116599,-2.319316,-3.079482,-0.41632152,0.06183944,-0.08491108,28.375,29.5625,28.8125,32.8125,35.125,36.25
0.014019706,-0.31184447,-0.6445228,-0.17803667,-0.0423308,0.015159723,-0.013436939,-0.38103992,-0.3485112,0.05990934,-3.0784607,0.6248491,-0.00036261126,-0.0037919483,0.0040256837,-0.005995843,0.0049831937,-0.009907852,-0.004613188,0.47777042,-1.4258451,1.9577483,-2.1008213,-1.5707334,2.452714,-0.010755102,0.014338958,-0.0024593296,-0.0007912296,0.00012085146,-0.006138459,0.0,0.15322891,-9.461885,0.7016076,47.684196,-0.22113922,-3.043683,-3.22187,-0.4005161,0.07408412,-0.07977212,28.375,29.5625,28.8125,32.8125,35.125,36.25
0.016019447,-0.3583425,-0.83126485,-0.14943668,-0.061750155,0.048151996,-0.028398987,-0.3810441,-0.34851083,0.059916224,-3.078475,0.6248682,-0.0003577747,-0.005965774,0.0032404065,-0.003312064,0.0023723047,-0.0048822067,0.00085720205,0.47775817,-1.4258578,1.9577469,-2.1008208,-1.5707215,2.4527118,-0.011369403,0.012420816,-0.0064660427,-0.0005304143,0.000118206146,-0.012221476,-0.24899697,0.19153613,-9.5385,0.77545905,47.66271,-0.2770965,-2.9495664,-3.116098,-0.41250578,0.06676029,-0.042806495,28.375,29.5625,28.8125,32.8125,35.125,36.25
0.018019862,-0.55639917,-0.29780942,-0.1756312,-0.06564951,0.069197685,-0.05137195,-0.38107544,-0.34849614,0.059892632,-3.0784245,0.62485516,-0.00033903518,-0.0061812936,0.0031090456,-0.0022742138,0.0015593179,-0.003310799,0.0050984668,0.47773427,-1.4257746,1.9577116,-2.100845,-1.5707697,2.4526863,-0.011332087,0.010615738,-0.006884438,-7.748627e-05,0.00011567379,-0.016425591,-0.34476504,0.22984336,-9.576807,0.7642693,47.683304,-0.43366355,-2.6018963,-3.2821774,-0.40404868,0.06363867,-0.009821421,28.375,29.5625,28.8125,32.8125,35.125,36.25
0.020019498,-1.1561445,-0.19773757,-0.35001546,-0.03347313,0.07443863,-0.059024002,-0.38103682,-0.3484976,0.059863385,-3.0784223,0.6248358,-0.00050088763,-0.0068272264,0.0038681934,-0.0032485833,0.0025594225,-0.0052819117,0.0053093974,0.47773358,-1.4257618,1.9577583,-2.1008208,-1.5707096,2.4526737,-0.013291983,0.013073909,-0.007555374,0.00034620982,0.00013086377,-0.018595813,-0.4405331,0.19153613,-9.749189,0.8672237,47.733456,-0.5887732,-2.5843763,-3.4667304,-0.41109726,0.079934016,0.0048535867,28.375,29.5625,28.8125,32.8125,35.125,36.25
0.022019828,-0.70564723,0.042324416,-0.3306869,-0.023496402,0.093007036,-0.08863724,-0.38106653,-0.3484836,0.05986998,-3.0784113,0.62479705,-0.00047731676,-0.008709545,0.004294126,-0.0026584927,0.0018885524,-0.004032173,0.0028586937,0.4776967,-1.4257375,1.9577101,-2.100797,-1.5707334,2.452614,-0.015802307,0.013981466,-0.009955814,0.00042032404,0.00014684844,-0.018654123,-0.47884035,0.21068975,-9.844957,0.6948948,47.71017,-0.62118757,-2.6097884,-3.4529643,-0.42048603,0.076060034,0.005706937,28.375,29.5625,28.8125,32.8125,35.125,36.25
0.024019439,-1.4631537,0.049854573,-0.46373913,-0.020433454,0.07184144,-0.09220029,-0.38106844,-0.34847945,0.059842836,-3.0784025,0.62481695,-0.0005459721,-0.010372043,0.0046224394,-0.0027123324,0.0017218146,-0.0039470913,-0.0009860172,0.47767198,-1.4256889,1.9577221,-2.1008208,-1.5707096,2.4526029,-0.017994124,0.016220674,-0.012397026,0.0004703657,0.00025075948,-0.016999865,-0.6512228,0.1340753,-9.902418,0.7351769,47.677036,-0.50238895,-2.516536,-3.4545028,-0.42124367,0.093209505,-0.024889156,28.375,29.5625,28.8125,32.8125,35.125,36.25
0.026020048,-0.8562888,0.09179274,-0.5535766,-0.029621534,0.0874246,-0.11586507,-0.38108078,-0.3484639,0.05982757,-3.0783412,0.6248813,-0.0005798443,-0.010533101,0.0040594707,-0.0025691628,0.00052941433,-0.0040898295,-0.001584358,0.47764808,-1.4256408,1.9576968,-2.100797,-1.570733,2.452627,-0.01787182,0.016707461,-0.013271403,0.00043220056,0.0013728847,-0.016281009,-0.6895301,0.1340753,-9.844957,0.73741806,47.72002,-0.6335614,-2.470082,-3.4812865,-0.4081738,0.07313824,-0.039461955,28.375,29.5625,28.8125,32.8125,35.125,36.25
0.028019475,-0.9528592,0.0014748219,-0.40116817,-0.037269797,0.09941321,-0.12610908,-0.3811248,-0.34847733,0.059855763,-3.0784364,0.6248622,-0.0005262702,-0.011656439,0.0033801128,-0.0020232473,-0.00094313157,-0.0031925095,-0.0016654442,0.4775999,-1.4256403,1.9576372,-2.1008208,-1.5706848,2.4525547,-0.018281668,0.01789435,-0.015854465,0.00035218894,0.0022634636,-0.016609902,-0.7469909,0.15322891,-9.844957,0.73069996,47.661808,-0.6329543,-2.5166037,-3.3731322,-0.42077854,0.047264643,-0.04971102,28.375,29.5625,28.8125,32.8125,35.125,36.25
0.030019796,-0.8160913,0.5680314,-0.3235551,-0.04597336,0.1054986,-0.14455855,-0.38112342,-0.34846306,0.059827864,-3.078389,0.6248346,-0.000627747,-0.012183159,0.0033549808,-0.002059538,-0.00097260287,-0.0032079224,-0.003168657,0.47757578,-1.4255801,1.9576243,-2.100785,-1.5706848,2.4525194,-0.01874497,0.018854806,-0.016882742,0.00042018265,0.0022938345,-0.015569584,-0.7278373,0.15322891,-9.921572,0.83365434,47.728977,-0.6928692,-2.5005202,-3.4320016,-0.41188014,0.045852423,-0.049827583,28.375,29.5625,28.8125,32.8125,35.125,36.25
0.032019403,-1.586784,0.43396077,-0.2772928,-0.028447347,0.08594396,-0.14225669,-0.38120002,-0.34844676,0.05985068,-3.0783725,0.62494755,-0.00046438375,-0.013742392,0.0035107315,-0.0009201446,-0.001813928,-0.00075418904,-0.0053339764,0.47751522,-1.4255444,1.9575394,-2.1008208,-1.5707453,2.4525316,-0.020212296,0.018337758,-0.018888853,0.00037812802,0.0019104854,-0.014869705,-0.7086837,0.095768064,-9.921572,0.71279734,47.69763,-0.77462614,-2.440869,-3.338767,-0.42479146,0.060709953,-0.058512587,28.375,29.5625,28.8125,32.8125,35.125,36.25
0.034019854,-1.6310468,0.13730644,-0.45130336,0.0017311943,0.08098935,-0.14986596,-0.381192,-0.3484464,0.059812818,-3.0783725,0.62494844,-0.00058460876,-0.014818755,0.0039910125,-0.0009871104,-0.001488965,-0.0005264123,-0.007674672,0.47749066,-1.4254841,1.9575628,-2.100845,-1.5706972,2.4525075,-0.021805188,0.019534377,-0.020090591,0.00033256068,0.0015140353,-0.0141204065,-0.7469909,0.095768064,-9.902418,0.7620334,47.71554,-0.6976111,-2.4493806,-3.317071,-0.41405916,0.051961128,-0.096296296,28.375,29.5625,28.8125,32.8125,35.125,36.25
0.03601945,-1.4318267,0.56707937,-0.33972955,0.009735911,0.06355101,-0.15503109,-0.38123962,-0.34843716,0.05983409,-3.0783799,0.62498873,-0.0005553699,-0.016288457,0.0040780273,-0.00038172203,-0.0020585798,0.0008772209,-0.009108016,0.47743016,-1.42546,1.9574784,-2.1008089,-1.5706972,2.4524713,-0.023224361,0.020230604,-0.022260858,0.00029880035,0.0013705993,-0.014104701,-0.68953013,0.0,-9.749189,0.7418897,47.687782,-0.63306856,-2.3675485,-3.330725,-0.40659052,0.070781834,-0.11494019,28.375,29.5625,28.8125,32.8125,35.125,36.25
0.03801999,-0.6712039,0.7572962,-0.12989862,0.011418122,0.051486336,-0.17080104,-0.38127548,-0.34843093,0.059823148,-3.0783815,0.62497073,-0.000529796,-0.017183041,0.0045901486,-0.00032304504,-0.0020310353,0.0014547713,-0.010464107,0.47739366,-1.4253998,1.9574431,-2.100845,-1.5707091,2.4524233,-0.024770858,0.020633867,-0.022765301,-9.9415854e-05,0.0010788894,-0.014294115,-0.51714754,-0.1340753,-9.710882,0.78217715,47.681515,-0.6549431,-2.389835,-3.3600335,-0.4070322,0.0781109,-0.12170275,28.375,29.5625,28.8125,32.8125,35.125,36.25
0.040019505,-0.2554368,1.0382165,-0.10365686,0.009182377,0.03614292,-0.18401487,-0.38131243,-0.34843445,0.059830643,-3.0783706,0.6250071,-0.00047715657,-0.018229658,0.0048780604,-0.00011802139,-0.0021618372,0.0020421708,-0.011126623,0.47738117,-1.4253517,1.9573711,-2.100845,-1.570733,2.452435,-0.026147619,0.02137199,-0.024073847,-0.00011067289,0.0009223565,-0.015007249,-0.45968673,-0.17238252,-9.691729,0.7978386,47.716442,-0.7017193,-2.4435396,-3.348346,-0.397996,0.08293777,-0.12339266,28.375,29.5625,28.8125,32.8125,35.125,36.25
0.042019885,-0.6036651,0.5482426,0.04922756,0.014220066,0.015104609,-0.18998332,-0.38137075,-0.3484212,0.05983479,-3.078396,0.625147,-0.000493808,-0.019591112,0.0050607272,0.00019050972,-0.0025472373,0.0028044488,-0.0119624855,0.4772726,-1.4253033,1.9573091,-2.1008565,-1.5706853,2.4524105,-0.027719898,0.022481123,-0.026047062,-9.992075e-05,0.0009106398,-0.015742453,-0.24899697,-0.19153613,-9.615114,0.7597976,47.71017,-0.7106888,-2.3803334,-3.4003997,-0.38280427,0.07900064,-0.1448587,28.375,29.5625,28.8125,32.8125,35.125,36.25
0.044019524,-0.26719043,0.3107046,-0.053861268,0.0089371875,0.022485567,-0.19458245,-0.38139033,-0.3483998,0.059824854,-3.078361,0.6251597,-0.0005261765,-0.021248752,0.004997589,0.0011053408,-0.0035504797,0.004701401,-0.012529861,0.4772242,-1.4252673,1.9572853,-2.1008327,-1.5706972,2.4523745,-0.029148167,0.022921586,-0.028643528,-9.001354e-05,0.00092410273,-0.01660203,-0.1340753,-0.05746084,-9.595961,0.7396539,47.65464,-0.7156886,-2.3396292,-3.2268229,-0.37948892,0.08289722,-0.1449765,28.375,29.5625,28.8125,32.8125,35.125,36.25
0.046019673,0.5668818,0.6858707,0.08932044,-0.015713174,0.04776025,-0.20830414,-0.3814571,-0.34839174,0.05985462,-3.0783832,0.62518346,-0.0004154749,-0.021967625,0.0053285123,0.0013182006,-0.003929373,0.0049998723,-0.013298949,0.47716367,-1.4252433,1.9571899,-2.1008327,-1.570721,2.452326,-0.03052585,0.023054656,-0.02930101,-5.877241e-06,0.0011236503,-0.017210605,-0.1340753,0.0,-9.500193,0.7329411,47.645687,-0.657423,-2.2829773,-3.27685,-0.37863284,0.08079776,-0.17670798,28.375,29.5625,28.8125,32.8125,35.125,36.25
0.04801945,0.21319357,0.36190853,-0.042130243,-0.024473416,0.036755297,-0.2037464,-0.38148943,-0.34837645,0.0598506,-3.0783978,0.6252451,-0.00042372418,-0.02298215,0.0056211757,0.0017026272,-0.0043949387,0.005779092,-0.014137554,0.4770911,-1.4252192,1.957177,-2.1008565,-1.5706972,2.45229,-0.03201565,0.023274776,-0.03043238,-3.8374185e-07,0.0011773844,-0.017861286,-0.076614454,0.019153614,-9.481039,0.7665104,47.655537,-0.6651534,-2.2295256,-3.3049054,-0.3639611,0.06383183,-0.19315927,28.375,29.5625,28.8125,32.8125,35.125,36.25
0.050019786,-0.12390041,-0.06476731,-0.03404528,-0.021898003,0.024525635,-0.19939964,-0.38154718,-0.34837267,0.05985953,-3.078398,0.62528336,-0.00040908213,-0.023811989,0.0056189327,0.0016648133,-0.004646393,0.0057640644,-0.013621733,0.47703093,-1.4251469,1.9570688,-2.1008327,-1.5706972,2.4522538,-0.03292235,0.024615314,-0.03187627,-2.50556e-08,0.0014046222,-0.019283284,-0.038307227,0.11492168,-9.423578,0.7597976,47.71286,-0.6599096,-2.2522235,-3.258707,-0.36293474,0.085562326,-0.1799442,28.375,29.5625,28.8125,32.8125,35.125,36.25
0.05201948,0.040026892,-0.5075327,-0.21262363,-0.019286178,0.01618228,-0.17388874,-0.38159046,-0.34835434,0.059856564,-3.0783718,0.62541276,-0.00040921854,-0.024860494,0.0058016717,0.0018582608,-0.0051499414,0.006136098,-0.013957626,0.4769583,-1.4250988,1.9570206,-2.1008327,-1.5706972,2.4522653,-0.034390222,0.02546533,-0.03328899,-1.6359515e-09,0.0016782017,-0.020414934,-0.05746084,0.21068975,-9.423578,0.74413085,47.693153,-0.58514446,-2.2433782,-3.301718,-0.35196298,0.100761786,-0.2002027,28.375,29.5625,28.8125,32.8125,35.125,36.25
0.054019734,0.56750584,-0.16222347,-0.14474703,-0.0319479,0.019778568,-0.1884513,-0.38164732,-0.34833446,0.05988289,-3.0783832,0.62545335,-0.0003121076,-0.026076451,0.0058102687,0.0023142262,-0.00565744,0.006965873,-0.01397472,0.47688594,-1.4250984,1.9569601,-2.1008327,-1.570721,2.4522169,-0.03556837,0.026327088,-0.035369717,0.00024807654,0.0017456821,-0.021574875,-0.019153614,0.2681506,-9.481039,0.66803825,47.689575,-0.62452465,-2.19808,-3.3207536,-0.34553924,0.088533394,-0.2285572,28.375,29.5625,28.8125,32.8125,35.125,36.25
0.05601946,0.4576537,-0.3697397,-0.117652915,-0.032631584,0.020571193,-0.18050577,-0.38169256,-0.34831497,0.059864137,-3.0783553,0.6254856,-0.0003829906,-0.026459262,0.0061063482,0.00270306,-0.005576736,0.006533169,-0.013480221,0.47680172,-1.4250026,1.9568881,-2.1008084,-1.5707091,2.4521563,-0.036526103,0.026238644,-0.03654332,0.0019314012,0.0018730351,-0.023027193,-0.038307227,0.36391866,-9.500193,0.784413,47.688675,-0.6586741,-2.1174989,-3.2929776,-0.3545633,0.091721594,-0.23780802,28.375,29.5625,28.8125,32.8125,35.125,36.25
0.058019824,-0.021258188,-0.7765489,-0.17928284,-0.030781789,0.017171163,-0.17630652,-0.38173598,-0.3483288,0.05989863,-3.0783892,0.62545276,-0.000273184,-0.026958691,0.0063498057,0.002253586,-0.005285123,0.005481966,-0.012896502,0.47680137,-1.42499,1.9567922,-2.100796,-1.5707325,2.4521313,-0.037562843,0.027862199,-0.03744607,0.00227683,0.0020963468,-0.024647277,0.019153614,0.30645782,-9.500193,0.8090337,47.67345,-0.7292468,-2.1103888,-3.289164,-0.3516184,0.09115001,-0.22849457,28.375,29.5625,28.8125,32.8125,35.125,36.25
0.06001945,-0.5623903,-1.3052286,-0.19882427,-0.029607892,0.020783523,-0.16698518,-0.3818054,-0.34831023,0.05988259,-3.078398,0.62551224,-0.0003232432,-0.02780606,0.00639519,0.0017242617,-0.005109591,0.0047973855,-0.012615799,0.47668096,-1.4248815,1.9567078,-2.1008084,-1.5706967,2.4520469,-0.038520034,0.030268755,-0.038931806,0.0020452784,0.0022509212,-0.025884308,0.019153614,0.2681506,-9.461885,0.8090337,47.70032,-0.6817342,-2.1313906,-3.247299,-0.35542363,0.09466627,-0.2320807,28.375,29.5625,28.8125,32.8125,35.125,36.25
0.06201975,-0.48351038,-0.8102025,-0.15420619,-0.043585137,0.029943638,-0.1674903,-0.38187724,-0.34827802,0.059887428,-3.0783722,0.6256604,-0.00025552217,-0.028747832,0.0058589326,0.0022234118,-0.006500225,0.0056980355,-0.011400826,0.4765728,-1.4248333,1.9566473,-2.1008322,-1.5707206,2.4520345,-0.03896137,0.031034213,-0.040890448,0.0017966935,0.003069808,-0.027540835,-0.114921674,0.34476504,-9.3661175,0.71279734,47.682407,-0.78675437,-2.1516533,-3.259791,-0.35712814,0.09919611,-0.26720315,28.375,29.5625,28.8125,32.8125,35.125,36.25
0.06401947,-0.2678449,-0.66259736,-0.07543154,-0.035132814,0.03904433,-0.17569147,-0.38190752,-0.34827793,0.05988929,-3.0783894,0.6255487,-0.0002974296,-0.02968616,0.0056199413,0.0029949176,-0.008141789,0.0071395305,-0.011393951,0.47653663,-1.4247735,1.9565638,-2.1007845,-1.5707082,2.4519265,-0.039914064,0.030643204,-0.042113286,0.001374115,0.0038629728,-0.028501274,-0.21068975,0.3256114,-9.423578,0.7396539,47.677036,-0.8059683,-2.0726347,-3.2486913,-0.32155827,0.08542314,-0.24097624,28.375,29.5625,28.8125,32.8125,35.125,36.25
0.066019826,0.37070325,-0.24755053,0.11670811,-0.027358176,0.050251517,-0.18002896,-0.38198173,-0.34828022,0.05991122,-3.0784395,0.6256157,-0.00020606843,-0.030233596,0.0053525385,0.0032869447,-0.008949094,0.0075322636,-0.010540837,0.47646445,-1.4247254,1.956467,-2.1008203,-1.5706962,2.4518898,-0.040285435,0.031076398,-0.043277778,0.0013847185,0.0044005956,-0.029725704,-0.13407528,0.24899697,-9.500193,0.8224646,47.687782,-0.83738005,-2.0455163,-3.243558,-0.32502997,0.09241155,-0.26761118,28.375,29.5625,28.8125,32.8125,35.125,36.25
0.068019465,0.026488775,0.03356443,0.19327165,-0.01568149,0.038241982,-0.17103894,-0.38205197,-0.34825337,0.059908662,-3.0784152,0.6257443,-0.00023311621,-0.03123675,0.0054554865,0.0029224046,-0.0084574465,0.006856156,-0.009732871,0.47634414,-1.4246405,1.9563707,-2.1007965,-1.5706843,2.4518528,-0.041302506,0.033579405,-0.04540585,0.001837281,0.0042706206,-0.0315492,-0.17238252,0.24899697,-9.404425,0.7597976,47.694946,-0.90162015,-2.08888,-3.3000886,-0.32423392,0.07381591,-0.28459442,28.375,29.5625,28.8125,32.8125,35.125,36.25
0.07001969,0.14690016,0.50688523,0.3544138,-0.013490412,0.04280976,-0.17566387,-0.38209164,-0.34826046,0.05990516,-3.0784495,0.62569344,-0.00018769546,-0.032522175,0.0047691143,0.003973158,-0.00941338,0.008603165,-0.008301824,0.4763201,-1.4245806,1.9563211,-2.1008441,-1.5706843,2.4517927,-0.04129376,0.034260403,-0.048735004,0.0024944132,0.004314575,-0.03296977,-0.11492168,0.15322891,-9.423578,0.8023209,47.72271,-1.0012367,-2.1706448,-3.0568428,-0.31883293,0.073998004,-0.2825402,28.375,29.5625,28.8125,32.8125,35.125,36.25
0.07201961,0.3997449,0.6207425,0.33454245,-0.018034892,0.0507316,-0.18066101,-0.38217345,-0.34826654,0.059938803,-3.0785146,0.6257447,-0.00016574284,-0.03155351,0.005671578,0.0022329518,-0.007930442,0.0047186785,-0.0076478994,0.47622386,-1.4245203,1.9561671,-2.100808,-1.5706357,2.4517202,-0.0423003,0.03582353,-0.046654593,0.0029832353,0.0047857654,-0.034631655,-0.17238252,0.17238252,-9.3661175,0.74413085,47.687782,-0.9963764,-2.0836077,-3.2566695,-0.31092215,0.06353314,-0.27778834,28.375,29.5625,28.8125,32.8125,35.125,36.25
0.074019894,-0.30301595,0.14957999,0.3431179,-0.011753404,0.04012891,-0.17349194,-0.3822316,-0.3482426,0.059931003,-3.0784957,0.62576014,-0.00019601313,-0.032325413,0.0051647387,0.0014865074,-0.008140355,0.0029013604,-0.0072477735,0.47612765,-1.424435,1.9560822,-2.1007836,-1.5706357,2.451636,-0.042765364,0.03954457,-0.04929794,0.003421267,0.0058003487,-0.03549682,-0.21068975,0.15322891,-9.346964,0.7172743,47.691364,-1.1121253,-2.1842475,-3.1640291,-0.32630616,0.06387313,-0.30395758,28.375,29.5625,28.8125,32.8125,35.125,36.25
0.0760195,-0.12507503,0.44008714,0.25754696,-0.010841741,0.048674632,-0.18109506,-0.38232496,-0.34823012,0.059958793,-3.0785291,0.6258234,-0.00010823983,-0.033159696,0.005431128,0.0022294298,-0.008446948,0.0044110506,-0.007243148,0.47601938,-1.4243754,1.9559506,-2.1007836,-1.5706357,2.4515631,-0.04372472,0.038804766,-0.05018623,0.003569155,0.005382597,-0.036459427,-0.22984336,0.11492168,-9.308656,0.73741806,47.68062,-1.1736739,-2.2148466,-3.1172717,-0.31479892,0.053082462,-0.30153286,28.375,29.5625,28.8125,32.8125,35.125,36.25
0.07801979,-0.08872547,0.9872869,0.44365263,-0.013096822,0.04993411,-0.1826974,-0.38236362,-0.34822044,0.05995558,-3.078517,0.6258212,-0.0001613299,-0.034854572,0.005074389,0.0034608478,-0.009014293,0.0074215,-0.007432484,0.4759591,-1.4243037,1.9558653,-2.100736,-1.5706242,2.451503,-0.044074938,0.039065413,-0.05327627,0.0034666976,0.00449983,-0.036617458,-0.22984336,0.038307227,-9.3661175,0.7732232,47.66808,-1.1817114,-2.0693438,-3.0130563,-0.31138527,0.054463208,-0.31499696,28.375,29.5625,28.8125,32.8125,35.125,36.25
0.08001947,-0.03797051,0.57899034,0.3419253,-0.001805567,0.050529912,-0.17711212,-0.38243493,-0.3482009,0.059947714,-3.078528,0.6258811,-0.00014726943,-0.034736667,0.0059897043,0.0016736805,-0.007099325,0.0042212135,-0.0070004216,0.47585088,-1.4242187,1.9557942,-2.1007712,-1.5706123,2.4514308,-0.04543337,0.04198743,-0.052547652,0.0035398223,0.0042670867,-0.038407408,-0.24899697,-0.038307227,-9.32781,0.8224646,47.71286,-1.2650748,-2.1621737,-3.0704327,-0.28997684,0.06140077,-0.32679307,28.375,29.5625,28.8125,32.8125,35.125,36.25
0.08201974,-0.07451981,0.32219732,0.16938062,0.0039708437,0.048543483,-0.16537587,-0.38252228,-0.34819162,0.059954252,-3.0785496,0.6259243,-8.963419e-05,-0.035678547,0.006810593,0.0012576925,-0.006401382,0.0032792257,-0.0071191983,0.47575387,-1.4241223,1.955675,-2.1007955,-1.5706123,2.451358,-0.047627203,0.043563813,-0.053527918,0.0041018478,0.0040796013,-0.04048135,-0.19153613,-0.038307227,-9.3661175,0.81351066,47.701214,-1.164182,-2.2211251,-3.1936603,-0.2983413,0.065411314,-0.3367977,28.375,29.5625,28.8125,32.8125,35.125,36.25
0.08401943,0.63657135,1.0174601,0.46513367,-0.0071615875,0.060861066,-0.18379246,-0.38257983,-0.3481831,0.059950776,-3.0785658,0.6258702,-0.00014115675,-0.036604565,0.00627077,0.0020422507,-0.007126218,0.0041551813,-0.008113869,0.47566992,-1.4240261,1.9555649,-2.1007593,-1.570588,2.4512384,-0.047668565,0.044241235,-0.056328,0.005114319,0.0043188264,-0.039527208,-0.17238252,0.095768064,-9.270349,0.7530795,47.698532,-1.2209338,-2.2838974,-3.112059,-0.31227404,0.056445885,-0.33024177,28.375,29.5625,28.8125,32.8125,35.125,36.25
0.086019754,-0.38114372,0.8529598,0.43645066,-0.008475755,0.036807854,-0.177805,-0.38267124,-0.34817877,0.059992038,-3.0785809,0.62600714,-2.8417006e-05,-0.036914576,0.006307812,0.0021180261,-0.0072490266,0.0041990117,-0.008058227,0.4755861,-1.4239782,1.9554104,-2.100735,-1.5706004,2.4512382,-0.048068173,0.04454217,-0.05688138,0.0052711256,0.004410934,-0.03998195,-0.17238252,0.05746084,-9.232041,0.8023209,47.668976,-1.4190702,-2.1242619,-3.0458784,-0.31051216,0.070831515,-0.37635428,28.375,29.5625,28.8125,32.8125,35.125,36.25
0.08801966,0.062127907,0.5772023,0.4729485,-0.010744651,0.053714097,-0.17384431,-0.3827472,-0.34813446,0.05996585,-3.07853,0.62597775,-7.793427e-05,-0.038404025,0.0071764686,0.0020963165,-0.006963038,0.00390976,-0.008449803,0.4754529,-1.4238458,1.9553136,-2.100711,-1.5706242,2.4510932,-0.050889947,0.045998044,-0.058662392,0.0059844055,0.0042852433,-0.042411245,-0.24899697,0.1340753,-9.212888,0.7597976,47.684196,-1.3157697,-2.1679206,-3.0819063,-0.3151908,0.06481271,-0.39453512,28.375,29.5625,28.8125,32.8125,35.125,36.25
0.09001982,-0.13052468,0.32996893,0.35792574,-0.013751645,0.049876165,-0.1723989,-0.38280025,-0.34814274,0.059973504,3.0785866,-0.6260083,9.477056e-05,-0.040097732,0.008542871,0.0019402776,-0.0061692144,0.0038596366,-0.009795419,0.4753798,-1.4237857,1.9552301,-2.1007226,-1.5705642,2.451032,-0.05442368,0.047326498,-0.059897434,0.0063043255,0.0036023082,-0.044597417,-0.17238252,0.11492168,-9.308656,0.8224646,47.71554,-1.3001904,-2.1285858,-3.0681849,-0.30899844,0.0720229,-0.36551687,28.375,29.5625,28.8125,32.8125,35.125,36.25
0.092019476,-0.19253652,0.16971162,0.4490763,-0.020294819,0.04799989,-0.17422865,-0.3828985,-0.3481146,0.05998017,3.0785697,-0.6260999,6.786502e-05,-0.04075843,0.008810535,0.0017859857,-0.0054596164,0.0033296882,-0.006790212,0.47524744,-1.4236772,1.9550856,-2.1006987,-1.5705765,2.450959,-0.05524111,0.04877129,-0.061392084,0.007151559,0.003213807,-0.04841863,-0.21068975,0.15322891,-9.289503,0.67475104,47.66271,-1.2306088,-2.1464355,-3.0480633,-0.30635345,0.078714885,-0.34857464,28.375,29.5625,28.8125,32.8125,35.125,36.25
0.09401979,-0.6885827,-0.53714347,0.2568315,-0.015080759,0.05086748,-0.1692723,-0.38296804,-0.34811017,0.059981536,3.0785923,-0.6259895,6.8491165e-05,-0.040815376,0.008685038,0.0017494276,-0.0050564674,0.0027132514,-0.0067811687,0.47517556,-1.4235692,1.9549536,-2.1006744,-1.5705765,2.4508154,-0.05501184,0.049550604,-0.062428866,0.008142128,0.0031377685,-0.04819785,-0.21068975,0.1340753,-9.3661175,0.7933669,47.689575,-1.391159,-2.180417,-3.0795498,-0.31914076,0.0804669,-0.36426866,28.375,29.5625,28.8125,32.8125,35.125,36.25
0.09601939,-0.61805195,-0.12293423,0.20641313,-0.02202646,0.059586816,-0.16704851,-0.38303307,-0.34808233,0.059969205,-3.0785778,0.6260057,-9.771823e-05,-0.042799074,0.009643688,0.0017657807,-0.0055571743,0.0031295277,-0.008714444,0.47506627,-1.423473,1.9548692,-2.1006625,-1.5705765,2.4507182,-0.05868947,0.0510048,-0.06402806,0.0076874257,0.0033874062,-0.049941555,-0.21068975,0.15322891,-9.346964,0.78217715,47.661808,-1.3302313,-2.1180334,-3.0303712,-0.3309303,0.0674949,-0.3841883,28.375,29.5625,28.8125,32.8125,35.125,36.25
0.0980198,-0.7531376,-0.32400376,0.051901042,-0.012304766,0.057879105,-0.16821197,-0.3831396,-0.34806734,0.060016908,3.0785198,-0.62606984,-7.0888896e-06,-0.04413197,0.009821,0.002137563,-0.006299892,0.0038729918,-0.0069685383,0.4749337,-1.4234366,1.9547132,-2.1006386,-1.5705642,2.450633,-0.060421072,0.051861573,-0.065847695,0.0076495423,0.0037095665,-0.05341815,-0.24899697,0.15322891,-9.404425,0.800085,47.684196,-1.27252,-2.1740706,-3.02836,-0.31922376,0.0677465,-0.34559327,28.375,29.5,28.8125,32.8125,35.125,36.25
0.10001953,-0.6037686,0.06678741,0.027194723,-0.029021718,0.051674355,-0.17690043,-0.3832347,-0.3480572,0.05999872,3.0784633,-0.6261156,5.4021984e-05,-0.044710167,0.010355717,0.0011059515,-0.0054383245,0.001884117,-0.005643665,0.4747893,-1.4232799,1.9545811,-2.100662,-1.5705041,2.4505243,-0.061978426,0.054583285,-0.06666804,0.00791448,0.003852297,-0.056299813,-0.36391866,0.15322891,-9.442732,0.8023209,47.705692,-1.2788372,-2.1611204,-3.0712104,-0.33574784,0.065349564,-0.31650287,28.375,29.5,28.8125,32.8125,35.125,36.25
0.102019824,-0.92162055,-0.097323254,0.22391145,-0.027993606,0.053909138,-0.1784366,-0.38330352,-0.3480231,0.059993908,3.0785258,-0.6260879,0.00010367061,-0.045382686,0.010499219,0.0006164732,-0.005545062,0.0010397447,-0.0038802372,0.4746809,-1.4231712,1.954449,-2.100579,-1.5705279,2.4503908,-0.06314853,0.056447558,-0.067641884,0.0077238716,0.0043276562,-0.059233475,-0.40222588,0.17238252,-9.3661175,0.7351769,47.685097,-1.2944632,-2.3142402,-3.0292237,-0.3171016,0.062351223,-0.31692982,28.375,29.5,28.8125,32.8125,35.125,36.25
0.10401948,-1.0234878,0.24566104,0.19066556,-0.025670752,0.05643211,-0.1775447,-0.38340962,-0.34800115,0.059987396,3.0785255,-0.6261068,5.0674353e-05,-0.046901748,0.010719502,0.0023669647,-0.0071147108,0.004430841,-0.0024770244,0.47456023,-1.4230278,1.9543055,-2.1006029,-1.5705522,2.450282,-0.06481463,0.054277807,-0.069158554,0.0076765316,0.0041727624,-0.062302053,-0.40222588,0.19153613,-9.442732,0.77545905,47.689575,-1.2673322,-2.0851622,-3.0105042,-0.32597607,0.08711741,-0.2518288,28.375,29.5,28.8125,32.8125,35.125,36.25
0.10601944,-0.50778824,0.21998118,0.11974105,-0.015120266,0.07085857,-0.18112868,-0.38350967,-0.3479804,0.060002565,3.0784748,-0.62611425,1.7621214e-05,-0.047485545,0.011069685,0.0013317012,-0.006635362,0.0029129614,-0.0011914894,0.4744158,-1.4229429,1.9541739,-2.1006029,-1.5705279,2.4501488,-0.066129215,0.056929626,-0.06970575,0.0071425047,0.004441409,-0.064901575,-0.30645782,0.11492168,-9.442732,0.84484416,47.678825,-1.3049986,-2.099763,-3.0663056,-0.33597106,0.07404488,-0.22047639,28.375,29.5,28.8125,32.8125,35.125,36.25
0.10801946,-0.44205385,0.21273574,0.15807484,-0.025213074,0.06489126,-0.1793939,-0.38359663,-0.34796193,0.06001567,3.0784698,-0.6260168,1.5214629e-06,-0.04869094,0.011509489,0.0009582285,-0.0063625034,0.0017533086,-0.00037652766,0.4742952,-1.4228579,1.9540414,-2.1005785,-1.5705155,2.449968,-0.068186864,0.059390932,-0.07186334,0.007995638,0.004728007,-0.06777319,-0.4213795,0.17238252,-9.404425,0.8247004,47.7245,-1.2833328,-2.225552,-3.0264425,-0.32786226,0.087414265,-0.19349407,28.375,29.5,28.8125,32.8125,35.125,36.25
0.1100194,0.44984022,0.7672982,0.34516764,-0.03194334,0.07960748,-0.18314703,-0.3837179,-0.3479297,0.06000482,3.0784552,-0.62608933,2.764004e-06,-0.04902697,0.0121722715,0.00038927177,-0.006100788,0.0007369434,0.00044675326,0.47412664,-1.4226893,1.9538735,-2.1005785,-1.5705155,2.4498467,-0.06979998,0.060243744,-0.071505524,0.007808974,0.0049604047,-0.07020995,-0.34476507,0.095768064,-9.519346,0.8291774,47.686886,-1.2645373,-2.323607,-3.059441,-0.3381447,0.06769341,-0.1449941,28.375,29.5,28.8125,32.8125,35.125,36.25
0.11201946,-0.34293705,0.6306625,0.14758638,-0.013558186,0.049244124,-0.17916137,-0.38378406,-0.34790456,0.059991457,3.0784693,-0.62611294,9.925442e-05,-0.05160905,0.011959275,0.0019567888,-0.008400558,0.0038792666,-0.0014255762,0.47400588,-1.4225693,1.9537534,-2.100519,-1.5704917,2.449739,-0.07216277,0.060543172,-0.07537141,0.0075299786,0.0055595655,-0.070699565,-0.22984336,-0.019153614,-9.442732,0.7239871,47.689575,-1.2654612,-2.1779766,-3.0577636,-0.32819527,0.0653729,-0.09093006,28.375,29.5,28.8125,32.8125,35.125,36.25
0.11401948,0.1586452,1.0367318,0.33233517,-0.019233963,0.05600646,-0.1827629,-0.3839135,-0.3478873,0.06001648,3.0784092,-0.6261027,1.09125185e-05,-0.051491,0.013245886,0.00025001678,-0.006929753,0.0011726546,-0.0040680594,0.47384888,-1.4224604,1.9535745,-2.1005309,-1.5704798,2.4495833,-0.07427256,0.062402975,-0.073443614,0.0068238615,0.005495281,-0.07016687,-0.30645782,-0.076614454,-9.423578,0.842603,47.66271,-1.1238772,-2.237192,-3.0778205,-0.31566322,0.054091044,-0.10990965,28.375,29.5,28.8125,32.8125,35.125,36.25
0.11601948,-0.08356244,0.5493045,0.22397313,-0.007875011,0.0589437,-0.17484067,-0.38400674,-0.34786102,0.060009606,3.0783892,-0.6261358,7.669498e-05,-0.051436584,0.013154587,-0.00032780226,-0.006283054,0.00016868005,-0.0036284812,0.47369328,-1.4223279,1.9534305,-2.100495,-1.5704435,2.449451,-0.07396477,0.06392054,-0.07389513,0.006950131,0.005376036,-0.0702982,-0.3256114,0.0,-9.2703495,0.73741806,47.645687,-1.3308488,-2.1827536,-3.1771426,-0.3250267,0.051490918,-0.0790689,28.375,29.5,28.8125,32.8125,35.125,36.25
0.118019484,-0.1723908,0.93573844,0.37164232,-0.011882128,0.06322664,-0.18254526,-0.38412264,-0.3478459,0.06003514,3.0783515,-0.62609357,-1.1500996e-05,-0.054909505,0.013296604,0.0013730294,-0.007740806,0.0036361332,-0.01024691,0.47356027,-1.4222312,1.9532617,-2.100495,-1.5704435,2.4492965,-0.07718623,0.06523539,-0.0793843,0.0073750145,0.005086146,-0.066897616,-0.36391866,-0.019153614,-9.32781,0.7709874,47.675243,-1.2842078,-2.2932694,-3.0652623,-0.3077851,0.049916863,-0.09006574,28.375,29.5,28.8125,32.8125,35.125,36.25
0.1200196,-0.6219059,0.6206913,-0.008822964,0.004459286,0.055814613,-0.1689451,-0.3842278,-0.34777835,0.05998327,3.0784166,-0.6262234,7.4145704e-05,-0.05370876,0.014885465,-0.00088494294,-0.005602744,-0.0010193266,-0.0130876,0.4733675,-1.4220266,1.9531435,-2.1004827,-1.5704798,2.4491765,-0.07903014,0.06665751,-0.07591948,0.0076039946,0.0053081973,-0.06590323,-0.30645782,-0.019153614,-9.500193,0.8179876,47.688675,-1.0915495,-2.2107,-3.09474,-0.31473207,0.06314218,-0.1162405,28.375,29.5,28.8125,32.8125,35.125,36.25
0.122019865,-0.3928709,0.40960345,0.14226356,-0.0017698813,0.054265514,-0.16863365,-0.38436434,-0.34777197,0.06004552,3.0783257,-0.62620467,-7.615094e-05,-0.05517893,0.014585735,0.00022550026,-0.007178888,0.0011674368,-0.0137413535,0.47322327,-1.4219667,1.9529275,-2.1004593,-1.5704674,2.4490323,-0.08008022,0.06654693,-0.07828989,0.007420386,0.0057180156,-0.066298194,-0.28730422,-0.019153614,-9.385271,0.7351769,47.66808,-1.186472,-2.196147,-3.258306,-0.3125291,0.059102267,-0.11999943,28.375,29.5,28.8125,32.8125,35.125,36.25
0.12401948,-0.41892183,0.54832816,0.11739265,-0.016141105,0.04912192,-0.16932803,-0.38446698,-0.34774488,0.06000536,3.0782936,-0.6262413,2.8469032e-05,-0.05630064,0.015337757,-8.8116957e-07,-0.0074234614,0.00010829907,-0.021198332,0.47304234,-1.4217739,1.9528068,-2.1004946,-1.5704073,2.4488783,-0.08286772,0.067944266,-0.07953941,0.008105559,0.0064148344,-0.061629172,-0.34476504,0.0,-9.385271,0.73069996,47.703007,-1.1432984,-2.137513,-3.2202942,-0.31514594,0.05867424,-0.14073288,28.375,29.5,28.8125,32.8125,35.125,36.25
0.12601943,-0.220658,0.49922538,0.19795184,-0.010842314,0.04896359,-0.16837509,-0.38457733,-0.34770015,0.060035266,3.0782955,-0.62630063,-3.5379755e-05,-0.057163943,0.01619898,-0.0002065647,-0.007206176,7.509284e-05,-0.024461897,0.47288552,-1.4217017,1.9526395,-2.1004226,-1.5704435,2.4487584,-0.08504707,0.06847921,-0.07960892,0.0077679195,0.0062373853,-0.06054441,-0.49799395,0.0,-9.3661175,0.83365434,47.675243,-1.067668,-2.1467907,-3.2996542,-0.30797535,0.04200726,-0.18900165,28.375,29.5,28.8125,32.8125,35.125,36.25
0.12801945,-0.61682427,0.7124196,0.21813497,-0.018782081,0.046581306,-0.17878732,-0.384698,-0.34768102,0.06001565,3.0782697,-0.6263916,-4.8268066e-05,-0.05781698,0.016774263,-0.00021805677,-0.0068414677,7.527371e-05,-0.026594762,0.47274122,-1.4215093,1.9524726,-2.1004589,-1.5704435,2.4486742,-0.08642856,0.06889046,-0.08012874,0.008044393,0.005913109,-0.059792303,-0.49799395,0.05746084,-9.481039,0.82694155,47.690468,-1.104896,-2.0953753,-3.2771342,-0.30197287,0.059840325,-0.1905984,28.375,29.5,28.8125,32.8125,35.125,36.25
0.13001944,-0.8227959,0.23326583,0.1249371,-0.006592786,0.05348815,-0.16875614,-0.38482484,-0.34763476,0.060030133,3.0781956,-0.62653214,-1.570009e-05,-0.05859988,0.017664444,-0.00069944386,-0.006243419,-0.0004323738,-0.029115256,0.47251245,-1.421401,1.9523047,-2.1004112,-1.5703958,2.4485426,-0.088497855,0.06997723,-0.080218285,0.0077766296,0.005612157,-0.059340395,-0.4405331,0.076614454,-9.346964,0.784413,47.693153,-1.0509036,-2.062831,-3.4366632,-0.31741372,0.051424854,-0.22693348,28.375,29.5,28.8125,32.8125,35.125,36.25
0.13201958,-0.14292006,1.0156727,0.42250615,-0.014841107,0.06980904,-0.18272677,-0.38494617,-0.34761816,0.060040183,3.0781713,-0.62650776,-0.00010131429,-0.06082123,0.017308043,0.0006342614,-0.007708937,0.0019233034,-0.030395012,0.47237995,-1.4212683,1.9521354,-2.100435,-1.5704077,2.448398,-0.09001471,0.07090242,-0.08445498,0.008322897,0.0058414335,-0.059575316,-0.47884035,0.038307227,-9.32781,0.7463667,47.690468,-0.99959147,-2.083586,-3.2757845,-0.30737585,0.06576646,-0.2651561,28.375,29.5,28.8125,32.8125,35.125,36.25
0.13401963,-0.55667096,0.5824795,0.24896,-0.003917849,0.059585087,-0.17365015,-0.38506988,-0.3475777,0.06004284,3.0781627,-0.6265848,-5.574279e-05,-0.0603189,0.018552922,-0.00072482834,-0.0068498324,-0.0014504918,-0.03241644,0.47218716,-1.4211121,1.9519342,-2.100363,-1.5703954,2.4482546,-0.092237,0.07176551,-0.082475446,0.008874779,0.00661583,-0.05977828,-0.3256114,0.05746084,-9.3661175,0.83813137,47.689575,-0.91455406,-1.9524992,-3.5096893,-0.30615494,0.034702756,-0.28521264,28.375,29.5,28.8125,32.8125,35.125,36.25
0.13601945,-0.28028613,0.51216197,0.28235662,-0.016290382,0.062155876,-0.18111642,-0.3851811,-0.34754395,0.060033493,3.0780902,-0.6267819,3.8079663e-06,-0.062422644,0.018302055,0.00071963173,-0.008899827,0.0013627518,-0.033764686,0.4719947,-1.4209678,1.9517878,-2.100351,-1.5703472,2.4481943,-0.09402983,0.071747184,-0.08572383,0.008706124,0.007155063,-0.060221992,-0.34476504,0.038307227,-9.385271,0.79560274,47.68062,-0.89549375,-2.0276322,-3.5116527,-0.31149969,0.034357335,-0.29564095,28.375,29.5,28.8125,32.8125,35.125,36.25
0.13801955,-0.22253522,0.5440439,0.3853139,-0.0243858,0.060195964,-0.17779486,-0.38529354,-0.34748438,0.060004782,3.0781207,-0.62688434,4.2319218e-05,-0.06299682,0.018772177,-0.0006891987,-0.0069048856,-0.000681039,-0.033782873,0.4718022,-1.4207984,1.9516567,-2.1003387,-1.5703715,2.448062,-0.094811276,0.075575076,-0.08692314,0.008807972,0.006302676,-0.06098334,-0.53630114,0.0,-9.404425,0.8179876,47.661808,-0.86540735,-1.9981713,-3.3684802,-0.30197787,0.03482569,-0.340796,28.375,29.5,28.8125,32.8125,35.125,36.25
0.14001946,-0.26252487,0.2221319,0.05228215,-0.011811536,0.060258955,-0.16723178,-0.3854395,-0.34746152,0.060040034,3.07803,-0.62698233,-6.311404e-05,-0.06540026,0.019936446,0.0013083749,-0.008235087,0.0028574115,-0.037487023,0.47162098,-1.420691,1.9514531,-2.1003382,-1.5703596,2.4479535,-0.098756716,0.0732108,-0.08892448,0.009420583,0.0058834776,-0.06122304,-0.47884035,0.0,-9.481039,0.78888994,47.687782,-0.74582696,-2.0424404,-3.4434283,-0.30430084,0.056375805,-0.36704355,28.375,29.5,28.8125,32.8125,35.125,36.25
0.14201945,-0.56661594,0.38937876,0.22176479,-0.010648292,0.05975088,-0.17389183,-0.38557318,-0.34741077,0.0600401,3.0779996,-0.6271094,-1.1390163e-05,-0.06535384,0.018615443,0.0017241727,-0.008796765,0.0034973265,-0.03488413,0.47139373,-1.4205346,1.9512604,-2.100279,-1.5703357,2.4478095,-0.09647021,0.07411022,-0.09099286,0.009766525,0.006089722,-0.061538745,-0.45968673,0.05746084,-9.5385,0.7486078,47.675243,-0.95274425,-1.8762724,-3.3695087,-0.30782872,0.043476373,-0.3878471,28.375,29.5,28.8125,32.8125,35.125,36.25
0.14401947,-0.69148767,0.14622292,0.054163236,-0.007088558,0.07084611,-0.16992214,-0.38571322,-0.34737572,0.06004166,3.0779474,-0.62723535,8.770977e-07,-0.067133136,0.020039458,-0.00010178565,-0.008771834,0.00044306423,-0.039054893,0.47118804,-1.4203649,1.9510573,-2.1002557,-1.570311,2.447689,-0.101461485,0.07864218,-0.091796905,0.008769473,0.007452216,-0.062359598,-0.4405331,0.095768064,-9.423578,0.80679786,47.64389,-0.86740446,-1.9347357,-3.3737915,-0.2925849,0.04230442,-0.43736523,28.375,29.5,28.8125,32.8125,35.125,36.25
0.14601943,-1.023662,0.043574765,-0.10526346,-0.014923586,0.06703988,-0.17379385,-0.3858533,-0.34732038,0.06005195,3.077938,-0.627346,-6.2803534e-05,-0.06626783,0.018195104,0.0012812396,-0.009919882,0.0021986852,-0.03380242,0.4709856,-1.4202332,1.9508775,-2.100231,-1.5703467,2.447557,-0.097515464,0.07698071,-0.09330948,0.009856949,0.0076805684,-0.0636659,-0.4405331,0.17238252,-9.519346,0.800085,47.681515,-1.0152218,-1.9088982,-3.3751705,-0.31462306,0.026330397,-0.4577968,28.375,29.5,28.8125,32.8125,35.125,36.25
0.14801942,-0.8390212,-0.12722573,-0.111911505,-0.022668844,0.06958331,-0.1686653,-0.38596788,-0.34727672,0.060012773,3.077917,-0.6274953,4.5985373e-05,-0.06784243,0.018907232,0.0011889705,-0.009090551,0.002621905,-0.034162037,0.47078076,-1.4200286,1.9507326,-2.100231,-1.570311,2.447448,-0.09957314,0.07886751,-0.095300466,0.009967953,0.0067432947,-0.06536201,-0.4405331,0.24899697,-9.519346,0.8112748,47.699425,-1.053503,-1.8250638,-3.3408504,-0.31355798,0.033870433,-0.45278245,28.375,29.5,28.8125,32.8125,35.125,36.25
0.15001945,-0.62924474,-0.03978562,-0.22464414,-0.030872181,0.06365047,-0.17277446,-0.38610685,-0.3472441,0.060018577,3.0778906,-0.62754464,4.5505574e-05,-0.06820877,0.01892222,0.0006056121,-0.008361369,0.0019919998,-0.029791648,0.4705889,-1.4198599,1.950518,-2.1001952,-1.570299,2.4472904,-0.099662274,0.08082239,-0.09617905,0.009788567,0.006379509,-0.069820255,-0.2873042,0.22984336,-9.595961,0.8023209,47.705692,-1.1100374,-1.8647909,-3.4060898,-0.31315395,0.03164507,-0.48052305,28.375,29.5,28.8125,32.8125,35.125,36.25
0.1520198,0.08283943,-0.42247856,-0.22443616,-0.030201832,0.06505436,-0.17965953,-0.38626572,-0.34721467,0.060052913,3.077812,-0.627584,-6.038474e-05,-0.06910397,0.018707559,0.0010129149,-0.008699898,0.002634215,-0.026470525,0.47038472,-1.4197394,1.9503015,-2.1001952,-1.5702871,2.447121,-0.100063816,0.08173727,-0.09826781,0.010239901,0.006395713,-0.07354126,-0.17238252,0.24899697,-9.595961,0.7911258,47.691364,-1.0912803,-1.768708,-3.307241,-0.3099478,0.051591966,-0.44532487,28.375,29.5,28.8125,32.8125,35.125,36.25
0.15401947,-0.25076175,-0.15097901,-0.25232276,-0.036370885,0.034311485,-0.1686777,-0.38639474,-0.34717414,0.060044814,3.0777748,-0.6277102,-2.1582258e-05,-0.07065091,0.018628292,0.0013035316,-0.009570175,0.004061011,-0.024434121,0.47018027,-1.4195706,1.9501213,-2.1001713,-1.5702633,2.447,-0.10137169,0.08312136,-0.10029853,0.009224124,0.0065197796,-0.07688439,-0.17238252,0.2681506,-9.576807,0.7329411,47.690468,-1.2160335,-1.8464575,-3.3415933,-0.304363,0.04253591,-0.42436254,28.375,29.5,28.8125,32.8125,35.125,36.25
0.15601978,0.4579032,-0.35496598,-0.36375684,-0.03377413,0.036883697,-0.1799768,-0.3865589,-0.34712029,0.060045097,3.07778,-0.6277455,-5.7877038e-05,-0.07192415,0.019316033,0.0009331245,-0.009106014,0.004012502,-0.018364135,0.46995157,-1.4193778,1.9498943,-2.1001475,-1.5702876,2.4467928,-0.103451066,0.08495342,-0.10147698,0.008827736,0.0061295577,-0.08503232,-0.076614454,0.30645782,-9.557653,0.8157518,47.686886,-1.1266463,-1.8275697,-3.2763772,-0.28436607,0.049681034,-0.3890368,28.375,29.5,28.8125,32.8125,35.125,36.25
0.15801948,-0.13107014,-0.4375377,-0.26237553,-0.03319926,0.013293305,-0.16895255,-0.38669896,-0.34710404,0.060069934,3.0777476,-0.6277175,-0.00013060654,-0.07290884,0.018859474,0.0011263663,-0.00932261,0.0047095465,-0.014722405,0.46979576,-1.4192331,1.9496664,-2.1001236,-1.5702876,2.4466238,-0.10342018,0.086681515,-0.10390531,0.008811023,0.0060094204,-0.088641234,-0.019153614,0.2681506,-9.634268,0.7933669,47.664497,-1.1496496,-1.9145927,-3.2912667,-0.28381032,0.04044422,-0.30908662,28.375,29.5,28.8125,32.8125,35.125,36.25
0.16001976,-0.17726281,-0.50873667,-0.3280646,-0.022904042,0.0074726627,-0.1683319,-0.38686395,-0.34707424,0.060078308,3.0776432,-0.6277719,-0.00015876077,-0.075098954,0.019362545,0.0007734083,-0.009241246,0.004277563,-0.01211661,0.4695546,-1.4190638,1.9494613,-2.100159,-1.5702275,2.44643,-0.10633098,0.090315215,-0.107326925,0.009029515,0.0061361683,-0.09415536,0.019153614,0.2681506,-9.5385,0.8314132,47.72719,-0.9911263,-1.9300662,-3.2682958,-0.28138727,0.058982998,-0.2779717,28.375,29.5,28.8125,32.8125,35.125,36.25
0.16201948,0.23099321,-0.3954873,-0.4241691,-0.027895624,0.014153691,-0.17626111,-0.38702136,-0.3470046,0.060079876,3.0776813,-0.6278143,-0.00021820138,-0.07472034,0.018804653,0.0006842352,-0.009934959,0.0039650947,-0.0075075235,0.46932706,-1.4188955,1.9492568,-2.1001236,-1.5702871,2.4462242,-0.10544915,0.090504564,-0.10729533,0.008767795,0.0068992185,-0.09788336,0.11492168,0.34476504,-9.615114,0.6859408,47.6636,-1.2179759,-2.0560985,-3.1675913,-0.2759662,0.057095565,-0.21652642,28.375,29.5,28.8125,32.8125,35.125,36.25
0.16401973,0.12707855,-0.6370647,-0.36372298,-0.033558674,0.016727002,-0.17347787,-0.3871338,-0.3469842,0.060055215,3.0776775,-0.6278335,-9.4331146e-05,-0.077163674,0.019042738,0.00111491,-0.011003429,0.004726235,-0.008065186,0.46915767,-1.4186788,1.9490536,-2.1000755,-1.5702385,2.4460673,-0.108433865,0.09293778,-0.11114609,0.009028072,0.0074966005,-0.10030931,0.05746084,0.3256114,-9.461885,0.83365434,47.68599,-1.0023612,-1.8879492,-3.1777434,-0.26989597,0.052379124,-0.15664232,28.375,29.5,28.8125,32.8125,35.125,36.25
0.16601947,0.16390233,-0.962044,-0.29937,-0.035769157,0.030602328,-0.17219515,-0.38731045,-0.3469503,0.060085483,3.0776176,-0.6278205,-0.00018432696,-0.07674697,0.018827012,0.00034374034,-0.010650153,0.0029858267,-0.0072215674,0.4689301,-1.4185218,1.9488019,-2.1000636,-1.5702266,2.4458394,-0.10793591,0.09448973,-0.11123508,0.009278676,0.007978943,-0.10065464,-0.038307227,0.3256114,-9.3661175,0.800085,47.67614,-1.2438699,-2.1677823,-3.0925589,-0.2718227,0.028881893,-0.13173318,28.375,29.5,28.8125,32.8125,35.125,36.25
0.16801988,-0.52590275,-0.95494753,-0.2574476,-0.039090283,0.022184933,-0.16455795,-0.38745812,-0.34690523,0.06007278,3.0775802,-0.62791073,-0.00016027052,-0.078569695,0.019486688,0.0007342345,-0.011174974,0.0042558447,-0.011340287,0.4687013,-1.4183292,1.9486102,-2.100064,-1.5702027,2.4456718,-0.11063667,0.095320605,-0.112997405,0.008844105,0.007869656,-0.099235535,-0.038307227,0.36391866,-9.461885,0.7777002,47.705692,-1.15484,-1.9655976,-3.1023898,-0.26731881,0.040550746,-0.11890498,28.375,29.5,28.8125,32.8125,35.125,36.25
0.17001976,-0.0786179,-0.6663974,-0.1550824,-0.045975305,0.0410737,-0.1653856,-0.387617,-0.34688398,0.060098607,3.0775352,-0.6278466,-0.00018186365,-0.07903328,0.019498546,0.00031125537,-0.010962887,0.0028107476,-0.015789019,0.46849704,-1.4181603,1.9483465,-2.1000154,-1.570167,2.4454334,-0.11133053,0.09737249,-0.114617035,0.009798845,0.008336132,-0.09547985,-0.019153614,0.40222588,-9.404425,0.8314132,47.69763,-1.2179523,-2.0284758,-3.1420374,-0.24725822,0.048523687,-0.1335068,28.375,29.5,28.8125,32.8125,35.125,36.25
0.17201975,-0.17826433,-0.7624078,-0.07664793,-0.041704454,0.03922873,-0.171676,-0.3877658,-0.34681073,0.060074363,3.0775263,-0.6280007,-0.00013708259,-0.07996316,0.019762214,0.00076330267,-0.01136243,0.0038310955,-0.020097233,0.4682328,-1.4179682,1.9481786,-2.1000035,-1.570167,2.4452665,-0.11251947,0.09738672,-0.11567231,0.009750318,0.008226821,-0.09236029,-0.1340753,0.4213795,-9.423578,0.7777002,47.689575,-1.2116629,-2.019033,-3.199007,-0.26942152,0.03329239,-0.17152412,28.375,29.5,28.8125,32.8125,35.125,36.25
0.17401943,-0.3838877,-0.59560186,0.19864339,-0.04733952,0.044803698,-0.16695899,-0.38793817,-0.34679195,0.060109984,3.0774412,-0.6280254,-0.00023009905,-0.08059329,0.020066936,0.00030243475,-0.011357319,0.0034040713,-0.027159413,0.4680283,-1.4178115,1.947915,-2.0999916,-1.5701426,2.4450884,-0.11370098,0.09879896,-0.11612184,0.009171521,0.008419797,-0.086478494,-0.24899697,0.40222588,-9.3661175,0.7530795,47.660015,-1.2226732,-1.9251908,-3.0802555,-0.26180816,0.02857203,-0.22814065,28.375,29.5,28.8125,32.8125,35.125,36.25
0.17601973,-0.23270841,-0.24982336,0.15580799,-0.042391255,0.048771415,-0.17182109,-0.38811615,-0.34677136,0.060122043,3.07738,-0.6280916,-0.00029165376,-0.08259813,0.02004009,0.0012320435,-0.012524864,0.0056988862,-0.03036768,0.46782362,-1.4175951,1.9476393,-2.099992,-1.5701307,2.444933,-0.11541056,0.09956423,-0.11904645,0.008758195,0.008425677,-0.08497774,-0.2681506,0.30645782,-9.346964,0.8291774,47.629562,-1.2689054,-1.9474847,-3.2157016,-0.24363695,0.03979918,-0.26567924,28.375,29.5,28.8125,32.8125,35.125,36.25
0.17801948,-0.18991688,0.38671124,0.4180454,-0.042843025,0.050048392,-0.17835048,-0.3882586,-0.34673715,0.06012555,3.0773628,-0.62808734,-0.00026463615,-0.082820185,0.021248879,-0.00011921441,-0.011837005,0.002739689,-0.03116863,0.4676189,-1.4174143,1.9474128,-2.0999439,-1.5701064,2.444728,-0.118175104,0.10145634,-0.1182003,0.00897374,0.009151068,-0.086942166,-0.24899697,0.22984336,-9.251196,0.8023209,47.63225,-1.2286401,-1.9156113,-3.20794,-0.23762485,0.028948586,-0.26930708,28.375,29.5,28.8125,32.8125,35.125,36.25
0.18001983,-0.5249584,0.5842221,0.5460499,-0.022979422,0.04970567,-0.17911123,-0.3884564,-0.346684,0.06012879,3.0772727,-0.62828034,-0.00030080057,-0.08337236,0.02067519,0.0003035297,-0.012831926,0.0035996954,-0.03218657,0.46733093,-1.4171981,1.9471601,-2.0999563,-1.5700821,2.444572,-0.11791625,0.101954736,-0.11971123,0.008772584,0.009653763,-0.085664526,-0.5363012,0.114921674,-9.174581,0.86945957,47.703903,-1.2359622,-1.9297523,-3.2120113,-0.22828883,0.028535863,-0.29157972,28.375,29.5,28.8125,32.8125,35.125,36.25
0.18201946,-0.4224444,0.6579085,0.4390109,0.008190053,0.06773207,-0.17375337,-0.38862804,-0.34666598,0.060143944,3.0772092,-0.62828976,-0.0003892826,-0.08557505,0.02292228,-0.00043517104,-0.011932196,0.0026324862,-0.037356112,0.46713683,-1.417005,1.9469093,-2.09998,-1.5700701,2.444392,-0.12359284,0.10407066,-0.120448865,0.008667625,0.009293249,-0.08616987,-0.45968673,-0.05746084,-9.232041,0.779936,47.694054,-1.1105862,-1.9527358,-3.1721218,-0.21932217,0.021552049,-0.31731442,28.375,29.5,28.8125,32.8125,35.125,36.25
0.18401977,-0.87232774,1.0074874,0.6568353,0.025918111,0.063870676,-0.16680704,-0.38878533,-0.34664372,0.060136326,3.0771477,-0.6283146,-0.0003159635,-0.08509348,0.02210008,-0.0015355763,-0.011432823,0.0003204321,-0.036078107,0.46690953,-1.4167757,1.946658,-2.0999558,-1.5699981,2.444188,-0.12203468,0.10715146,-0.121575534,0.00900891,0.009887723,-0.08588924,-0.36391866,-0.17238252,-9.097966,0.85155696,47.678825,-1.1803341,-2.005626,-3.305825,-0.197564,0.0078103915,-0.34834528,28.375,29.5,28.8125,32.8125,35.125,36.25
0.18601954,-0.9170853,1.3012837,0.9678048,0.03705361,0.061060183,-0.17075375,-0.3889716,-0.3465773,0.06014891,3.0770965,-0.6284974,-0.00037245368,-0.08728077,0.023551697,0.0003608783,-0.012775776,0.0036653623,-0.039864928,0.46663216,-1.4165967,1.9464182,-2.0999315,-1.5700101,2.4440315,-0.12631254,0.1042568,-0.12269228,0.009432035,0.00958586,-0.08637976,-0.4213795,-0.2681506,-8.963891,0.8605109,47.684196,-1.0356313,-1.849751,-3.2761438,-0.21558246,0.0074669076,-0.37687656,28.375,29.5,28.8125,32.8125,35.125,36.25
0.18801996,-1.3870349,1.6349738,0.91328335,0.04237901,0.04946969,-0.1738481,-0.3891161,-0.34652323,0.060107715,3.077101,-0.62861377,-0.00025748686,-0.0879681,0.024481883,-0.0017338555,-0.010284068,0.00029284187,-0.03966032,0.4663915,-1.4163427,1.946215,-2.0999076,-1.5699867,2.443863,-0.12807012,0.10926285,-0.123728506,0.009603224,0.008872024,-0.08834091,-0.45968673,-0.26815057,-8.868123,0.8291774,47.667187,-0.9142322,-1.9470696,-3.326923,-0.18220222,-0.0027303707,-0.3862093,28.375,29.5,28.8125,32.8125,35.125,36.25
0.19001947,-0.7990403,2.1123357,0.8560043,0.041080303,0.04747319,-0.17786016,-0.38933542,-0.34648514,0.060165174,3.0769975,-0.62866783,-0.00043543286,-0.08959694,0.024614714,0.00054104254,-0.012467852,0.0038760637,-0.03789732,0.46612692,-1.4161876,1.9459032,-2.0998957,-1.5699862,2.4436455,-0.12992023,0.10646682,-0.12590024,0.010392071,0.009226736,-0.09195254,-0.40222588,-0.30645782,-9.040505,0.8112748,47.684196,-0.95277274,-1.840452,-3.3061335,-0.17889662,0.007335473,-0.3656482,28.375,29.5,28.8125,32.8125,35.125,36.25
0.19201985,-0.64624226,1.9167227,0.74339306,0.039329212,0.05828575,-0.17738412,-0.38949576,-0.34645012,0.06014301,3.0769255,-0.6287846,-0.00034694333,-0.089299865,0.024833135,-0.00096553855,-0.010639724,0.0012932752,-0.032135926,0.46587506,-1.4159461,1.9456762,-2.0998952,-1.5699147,2.4434757,-0.12968361,0.109506726,-0.12603517,0.010630446,0.0087593915,-0.09747672,-0.49799395,-0.2681506,-9.155427,0.82694155,47.690468,-1.043184,-1.888349,-3.317553,-0.16908638,-0.0002116788,-0.3272252,28.375,29.5,28.8125,32.8125,35.125,36.25
0.19401944,-1.501824,1.6614398,0.7119502,0.031613376,0.052814905,-0.18281962,-0.38965756,-0.34638757,0.060124237,3.0769737,-0.62875396,-0.00032540064,-0.09047155,0.025592316,-0.00095713354,-0.009783472,0.0012066052,-0.029214859,0.46563455,-1.4157176,1.9454483,-2.0998595,-1.5699385,2.4432101,-0.13155629,0.11078067,-0.12774998,0.0115389945,0.008033332,-0.102269486,-0.61291564,-0.28730422,-9.097966,0.7866488,47.70838,-1.1793007,-1.9381161,-3.3411813,-0.18480015,-0.007441227,-0.27628875,28.375,29.5,28.8125,32.8125,35.125,36.25
0.19601974,-1.1476629,1.24661,0.47028214,0.029611286,0.07699806,-0.18110819,-0.38987774,-0.34631887,0.060148995,3.0769105,-0.62892604,-0.00040934864,-0.09053323,0.024365962,-0.0007285707,-0.009506975,0.0009757411,-0.018349364,0.46532342,-1.4155127,1.9451479,-2.0998228,-1.5699505,2.4430146,-0.12928219,0.11270972,-0.13085444,0.013052445,0.007901725,-0.11085886,-0.5363012,-0.22984336,-9.155427,0.84708,47.62061,-1.1587337,-1.8953247,-3.3202684,-0.18767655,-0.007563197,-0.19989254,28.375,29.5,28.8125,32.8125,35.125,36.25
0.19801942,-1.187567,0.8133319,0.3549816,0.016269054,0.08550363,-0.16901088,-0.39002556,-0.34626997,0.060139008,3.076898,-0.62896454,-0.0003268588,-0.09078212,0.026613235,-0.00211312,-0.008393859,-0.0022983975,-0.021023925,0.4650815,-1.4153081,1.9449219,-2.0997627,-1.5699147,2.4427984,-0.13373736,0.11346809,-0.12871027,0.013580993,0.008379528,-0.11264113,-0.4405331,-0.17238252,-9.251195,0.842603,47.63315,-1.0786539,-1.8767955,-3.4387565,-0.18100607,-0.0014462273,-0.1549104,28.375,29.5,28.8125,32.8125,35.125,36.25
0.20001985,-0.7038591,-0.12305072,0.108908884,0.0021798492,0.08663761,-0.17340828,-0.39020857,-0.3462155,0.060121365,3.0768805,-0.6289949,-0.00028913323,-0.09141028,0.025762782,-0.0012403654,-0.008363267,-0.0005141389,-0.0152241355,0.4648063,-1.4150558,1.9446691,-2.0997503,-1.5698913,2.4425445,-0.13219571,0.11397532,-0.13146663,0.014260051,0.0075505413,-0.11689761,-0.45968673,-0.019153614,-9.32781,0.77545905,47.694946,-1.2131798,-1.863809,-3.260572,-0.19565332,0.007081153,-0.07456546,28.375,29.5,28.8125,32.8125,35.125,36.25
0.2020196,-1.4822152,-0.6898217,-0.34071463,-0.011560457,0.049645387,-0.1572727,-0.39039615,-0.34616068,0.060133997,3.0768547,-0.6290497,-0.00031716653,-0.0932592,0.026355088,-0.001523568,-0.0075814663,-0.00034919346,-0.019350702,0.46454164,-1.4148506,1.9443935,-2.0997026,-1.5698913,2.4423175,-0.13433222,0.11688267,-0.13419157,0.0142838955,0.0067737126,-0.11490518,-0.57460845,0.19153613,-9.481039,0.7642693,47.70659,-1.1863188,-2.051919,-3.3570719,-0.19402252,0.015763182,-0.07828801,28.375,29.5,28.8125,32.8125,35.125,36.25
0.20401971,-0.3332307,-0.41559622,-0.32822412,-0.03727442,0.06611315,-0.17196566,-0.39054242,-0.34607798,0.06008344,3.0769112,-0.6291788,-0.00015566872,-0.09440124,0.027146703,-0.0010047996,-0.0074356864,0.00067863107,-0.023305332,0.46426484,-1.4145868,1.944189,-2.0996306,-1.5698918,2.442114,-0.13630739,0.11662568,-0.1352056,0.0147038065,0.006166272,-0.11292582,-0.47884035,0.24899697,-9.595961,0.84484416,47.71554,-1.1384959,-1.7208483,-3.2959778,-0.1870316,0.041084632,-0.07316157,28.375,29.5,28.8125,32.8125,35.125,36.25
0.20601948,-0.5551572,-0.78485805,-0.552801,-0.043394666,0.055167157,-0.16774149,-0.39076546,-0.34601477,0.06009855,3.0768847,-0.6292329,-0.00027590626,-0.095342726,0.02697331,-0.0009953877,-0.0075212647,0.0011642763,-0.027504027,0.46397692,-1.4143575,1.9438909,-2.099631,-1.5699276,2.4418635,-0.13667426,0.118270405,-0.13709028,0.014466851,0.00602685,-0.10909232,-0.40222588,0.30645782,-9.691729,0.8112748,47.72002,-1.1946455,-1.9522784,-3.2801547,-0.18045166,0.038948603,-0.10590029,28.375,29.5,28.8125,32.8125,35.125,36.25
0.20801976,-0.65833485,-1.2875861,-0.7034264,-0.05493674,0.053573992,-0.17024377,-0.39096028,-0.34598294,0.060101334,3.0767987,-0.62937105,-0.00020489222,-0.09656014,0.027190216,-0.0010914771,-0.0076697245,0.0010715752,-0.033176757,0.4637006,-1.4140928,1.9435662,-2.0995705,-1.5698556,2.4416845,-0.1381784,0.120149955,-0.1390971,0.0146164205,0.0061949976,-0.10492268,-0.2681506,0.4405331,-9.80665,0.8291774,47.675243,-1.1584306,-1.9422096,-3.4000847,-0.19597822,0.050856367,-0.13264461,28.375,29.5,28.8125,32.8125,35.125,36.25
0.21001951,-0.54328823,-1.3703319,-0.57312423,-0.07662621,0.05656562,-0.17229481,-0.39115393,-0.34591147,0.06010396,3.0767882,-0.62952477,-0.00025380577,-0.09698968,0.02709349,-0.0016164873,-0.007834808,0.00028322707,-0.03676346,0.46342456,-1.4138758,1.9433025,-2.0995352,-1.5698913,2.441506,-0.13864113,0.12201441,-0.13999136,0.014271573,0.0066923117,-0.10179826,-0.28730422,0.59376204,-9.80665,0.8314132,47.71465,-1.2943127,-1.9171882,-3.3530583,-0.18300775,0.05478473,-0.19729039,28.375,29.5,28.8125,32.8125,35.125,36.25
0.21201982,-0.60009986,-1.6561997,-0.8099223,-0.06921159,0.05144827,-0.16693915,-0.39134124,-0.3458382,0.060068235,3.0767684,-0.6296761,-0.00016961165,-0.09801581,0.026390312,-0.0009452835,-0.008653659,0.001757303,-0.039592303,0.4631124,-1.4135995,1.9430631,-2.0995233,-1.569867,2.4412909,-0.13827835,0.12300554,-0.14270501,0.014311489,0.006754436,-0.098605625,-0.24899697,0.61291564,-9.749189,0.79560274,47.71286,-1.248277,-1.9348681,-3.3519826,-0.18114226,0.05798294,-0.2486811,28.375,29.5,28.8125,32.8125,35.125,36.25
0.21401945,-0.96883535,-1.8119015,-0.73219436,-0.06716109,0.043992598,-0.15720801,-0.3915464,-0.34579352,0.060106542,3.0767155,-0.62976354,-0.00026770445,-0.10073149,0.027775483,-0.00044505915,-0.010173701,0.002959217,-0.045207962,0.4628585,-1.4134068,1.9427403,-2.0994632,-1.5698789,2.4410985,-0.14359926,0.12377157,-0.14460745,0.013691149,0.007580383,-0.09830987,-0.15322891,0.5746084,-9.80665,0.82022345,47.683304,-1.1657103,-1.8789198,-3.308206,-0.17661284,0.06558597,-0.28489113,28.375,29.5,28.8125,32.8125,35.125,36.25
0.21601999,-0.29064038,-1.2550632,-0.71152234,-0.06322363,0.03355524,-0.1740815,-0.39176068,-0.345743,0.060095973,3.0766604,-0.629869,-0.00030063002,-0.10123317,0.027258037,-0.0005472409,-0.010650553,0.0028108715,-0.04768207,0.46257067,-1.4131302,1.9424514,-2.0994875,-1.5698665,2.4408836,-0.1433652,0.12543677,-0.14631581,0.013653927,0.008072909,-0.09560073,-0.076614454,0.45968673,-9.672575,0.842603,47.667187,-1.2295785,-1.9068241,-3.2942152,-0.15983608,0.059766352,-0.34239823,28.375,29.5,28.8125,32.8125,35.125,36.25
0.21801983,0.21307199,-0.4346827,-0.6101439,-0.05883646,0.016691716,-0.17108369,-0.39199048,-0.34569025,0.06009889,3.0765858,-0.6300665,-0.00030583725,-0.10295405,0.027760321,0.00030396038,-0.011860465,0.005189282,-0.051310133,0.46225795,-1.4128419,1.9421047,-2.0994523,-1.5698427,2.4407039,-0.14570469,0.12502266,-0.14759162,0.012679296,0.008093467,-0.09431135,-0.019153614,0.36391866,-9.710882,0.8851263,47.688675,-1.1204016,-1.8396063,-3.2571542,-0.15758225,0.048882697,-0.40954798,28.375,29.5,28.8125,32.8125,35.125,36.25
0.22001942,0.42530757,-0.5030285,-0.38520473,-0.03639639,0.011808075,-0.17222483,-0.39217773,-0.34563637,0.06009619,3.076527,-0.6302274,-0.0002948325,-0.10448222,0.028296363,-0.00034876837,-0.011899535,0.0043766606,-0.052774675,0.46198115,-1.4126124,1.941841,-2.099428,-1.5698189,2.440535,-0.14818949,0.1280309,-0.14950986,0.012303295,0.0084901815,-0.09533037,0.076614454,0.3256114,-9.5385,0.84484416,47.695843,-1.0720488,-1.9650695,-3.2340515,-0.1308971,0.07631931,-0.41526672,28.375,29.5,28.8125,32.8125,35.125,36.25
0.22201952,0.34295246,-0.079442635,-0.5260444,-0.018099116,0.0031821239,-0.16935964,-0.39239866,-0.34559986,0.060107365,3.0764277,-0.63036066,-0.0003731689,-0.10480835,0.028270023,-0.0011578768,-0.012117905,0.0028467416,-0.052547112,0.4617051,-1.41236,1.9415301,-2.0994523,-1.5697945,2.440355,-0.14891516,0.13028161,-0.15022919,0.0120467,0.009376395,-0.0962827,0.05746084,0.21068975,-9.576807,0.80456203,47.67614,-1.0502021,-1.9107022,-3.2834501,-0.11725818,0.05895108,-0.4834995,28.375,29.5,28.8125,32.8125,35.125,36.25
0.22401948,0.57439196,0.34220403,-0.22378476,-0.012060933,0.016923118,-0.17915258,-0.3926042,-0.34553233,0.060099777,3.076417,-0.63045406,-0.00035574692,-0.10650356,0.029975295,-0.0014201866,-0.011597916,0.0022376135,-0.052067697,0.46140355,-1.4120951,1.9412311,-2.099404,-1.5697945,2.4401133,-0.15322812,0.13149232,-0.1511787,0.012570089,0.009186657,-0.101074636,0.038307227,0.095768064,-9.634268,0.8179876,47.681515,-0.97302467,-1.9666374,-3.320372,-0.0893429,0.0711018,-0.48819032,28.375,29.5,28.8125,32.8125,35.125,36.25
0.22601955,0.106501974,0.36945486,-0.21431932,-0.00035143644,0.026366206,-0.17034027,-0.39280096,-0.34546557,0.06009636,3.076343,-0.6306258,-0.00030756995,-0.10725947,0.029231984,-0.0013467445,-0.012106979,0.0018197742,-0.044933904,0.4610801,-1.4118658,1.9409665,-2.0993679,-1.5697459,2.4399066,-0.15291426,0.13381663,-0.15426317,0.01348964,0.009832549,-0.10789331,-0.038307227,0.019153614,-9.442732,0.9030289,47.67793,-1.0772808,-2.0314512,-3.1635523,-0.09438009,0.07711872,-0.44619817,28.375,29.5,28.8125,32.8125,35.125,36.25
0.2280194,-0.1651069,0.61810064,-0.13358235,0.005596988,0.04351019,-0.17285495,-0.3930584,-0.3454313,0.060131323,3.0762422,-0.6307171,-0.00046654308,-0.10738357,0.029321313,-0.0024174603,-0.012008335,-0.0006234517,-0.037938297,0.46079156,-1.4116006,1.9405836,-2.0993793,-1.5697454,2.4396882,-0.15373765,0.1364288,-0.15493327,0.013786082,0.010854133,-0.11571087,-0.038307227,-0.05746084,-9.385271,0.8403672,47.693153,-0.9514493,-2.1481237,-3.3616111,-0.09942634,0.049383372,-0.39347798,28.375,29.5,28.8125,32.8125,35.125,36.25
0.23001954,-0.44335938,0.9981716,0.013773113,0.01412357,0.054461863,-0.17518699,-0.39325485,-0.34536606,0.0601148,3.0762303,-0.63070923,-0.00040127806,-0.10755284,0.029405765,-0.002621281,-0.011362202,-0.0009555281,-0.030162303,0.46047965,-1.4113364,1.9403085,-2.0993435,-1.5697097,2.439373,-0.15368149,0.13733271,-0.15563677,0.014186613,0.010428922,-0.12343047,-0.1340753,-0.05746084,-9.442732,0.8291774,47.689575,-1.0853475,-2.0347114,-3.3649418,-0.08982235,0.05492583,-0.29880938,28.375,29.5,28.8125,32.8125,35.125,36.25
0.23201953,-0.79972345,1.325135,0.3129493,0.014097187,0.061868757,-0.18143325,-0.39349312,-0.34532127,0.060138237,3.0761263,-0.63082,-0.00046909958,-0.10771101,0.0298935,-0.0030243944,-0.011320464,-0.0017982648,-0.025500255,0.4601672,-1.411084,1.9399613,-2.0993316,-1.5696739,2.4391432,-0.15481375,0.13784158,-0.15532948,0.014156139,0.01078442,-0.1292242,-0.28730422,-0.19153613,-9.404425,0.8157518,47.689575,-1.0561641,-2.0480666,-3.3418388,-0.07295937,0.044621434,-0.23965329,28.375,29.5,28.8125,32.8125,35.125,36.25
0.23401953,-0.5692287,1.3754511,0.3710258,0.0048691668,0.07578217,-0.18456107,-0.3936792,-0.34525928,0.060118824,3.0761027,-0.6308515,-0.00034929794,-0.10850802,0.030014008,-0.003907497,-0.010669822,-0.003707836,-0.02249063,0.459855,-1.4108187,1.9396857,-2.0992715,-1.5696138,2.4388537,-0.1558171,0.1413075,-0.15751739,0.014892473,0.011044741,-0.13323644,-0.3256114,-0.22984336,-9.251195,0.900793,47.66808,-1.0961914,-2.0550346,-3.410142,-0.05229131,0.031200558,-0.1808439,28.375,29.5,28.8125,32.8125,35.125,36.25
0.23601958,-0.38785347,1.0720176,0.4493088,0.0055826083,0.08196605,-0.17982236,-0.3939169,-0.3452191,0.06013548,3.0760152,-0.63093096,-0.00045668107,-0.110702895,0.030195937,-0.0009455325,-0.012363986,0.00097164785,-0.025754847,0.45956653,-1.4105552,1.939349,-2.099295,-1.5696014,2.4386263,-0.1576211,0.13828944,-0.16123015,0.016683348,0.010495136,-0.13177411,-0.47884035,-0.1340753,-9.155427,0.8717007,47.657326,-1.1045324,-1.982626,-3.4362922,-0.061747707,0.0464047,-0.15442248,28.375,29.5,28.8125,32.8125,35.125,36.25
0.23807377,-0.69389474,0.83234537,0.4602555,0.015411455,0.06635828,-0.17506321,-0.3941357,-0.34513563,0.06012325,3.0760424,-0.6310137,-0.00043238004,-0.11123618,0.030845268,-0.001957908,-0.010832151,-0.0010838204,-0.027855342,0.45924214,-1.4102657,1.9390262,-2.0992224,-1.5696262,2.4383502,-0.15885007,0.14113137,-0.16244577,0.017579626,0.010028476,-0.13090205,-0.63206923,-0.15322891,-9.174581,0.85826975,47.66987,-1.116044,-2.1113577,-3.3631124,-0.06445713,0.07247712,-0.1438871,28.375,29.5,28.8125,32.8125,35.125,36.25
0.24007727,-0.8368492,0.9856066,0.4910816,0.008196482,0.059081506,-0.16967121,-0.3943629,-0.34508526,0.060111128,3.0759838,-0.63112277,-0.00041180477,-0.111933745,0.030518604,-0.001431151,-0.010764719,-0.00046213085,-0.03565939,0.45893034,-1.4099532,1.9386905,-2.0992105,-1.5695904,2.4381142,-0.15856905,0.14194642,-0.16487814,0.018670207,0.009683249,-0.12281576,-0.7278373,0.038307227,-9.232041,0.8291774,47.684196,-1.1367366,-2.0009365,-3.2719927,-0.07104944,0.060185812,-0.22533299,28.375,29.5,28.8125,32.8125,35.125,36.25
0.24207526,-0.8126369,0.7065377,0.65527236,-0.00433658,0.08084129,-0.16866203,-0.39459482,-0.34501243,0.060120102,3.0759628,-0.63127506,-0.0004215675,-0.1133112,0.03118428,-0.0011812343,-0.010001336,0.000513499,-0.040663287,0.45860544,-1.4096767,1.9383315,-2.0991266,-1.5696024,2.4378872,-0.16014014,0.1429451,-0.16670571,0.018964576,0.0085608335,-0.11938172,-0.7852981,0.21068975,-9.212888,0.8023209,47.67614,-1.0738714,-1.9206084,-3.2236743,-0.06851835,0.08788968,-0.27060083,28.375,29.5,28.8125,32.8125,35.125,36.25
0.24408191,-1.0599252,0.44292203,0.5170652,-0.011439134,0.098772235,-0.17614491,-0.39480212,-0.3449521,0.06011369,3.0759125,-0.6313804,-0.00038456515,-0.11339389,0.031041639,-0.0013886577,-0.010354271,-0.00067532115,-0.0417787,0.45829356,-1.4094123,1.9380325,-2.0990903,-1.5695661,2.4376476,-0.16040945,0.14399473,-0.1676689,0.019791253,0.009403462,-0.118535504,-0.842759,0.095768064,-9.174581,0.85826975,47.68062,-1.1951388,-1.8791044,-3.3003483,-0.05622693,0.08198489,-0.3104124,28.375,29.5,28.8125,32.8125,35.125,36.25
0.24607167,-1.3895329,0.09489803,0.46633604,-0.021576138,0.11146033,-0.17971726,-0.39502347,-0.34487787,0.060088355,3.0758803,-0.63150907,-0.00030394367,-0.11440999,0.031233028,-0.0008231622,-0.010898394,-0.0002722075,-0.043358177,0.4579453,-1.4090998,1.9377211,-2.099054,-1.5695304,2.437384,-0.16173513,0.14438058,-0.1696815,0.020822125,0.00970798,-0.11828143,-0.8236054,0.22984336,-9.212888,0.9030289,47.652847,-1.2160054,-1.7750075,-3.2831874,-0.08233318,0.07321723,-0.32210058,28.375,29.5,28.8125,32.8125,35.125,36.25
0.24807431,-1.548379,0.06739211,0.56668115,-0.040268734,0.11532949,-0.17025925,-0.39523298,-0.34480715,0.06008146,3.07585,-0.6316756,-0.00023365485,-0.11501851,0.031354837,-0.00089056056,-0.010527503,-0.0006557787,-0.044554226,0.45762113,-1.4088231,1.9373978,-2.0989697,-1.569506,2.4371676,-0.16228352,0.14571173,-0.17128274,0.0216062,0.009539347,-0.11763333,-0.8236054,0.19153613,-9.155427,0.8672237,47.66091,-1.279629,-1.8979182,-3.2283807,-0.078828745,0.07881256,-0.35631388,28.375,29.5,28.8125,32.8125,35.125,36.25
0.2500776,-1.3577352,-0.24135141,0.3463841,-0.030396463,0.09675482,-0.1693329,-0.39551812,-0.34473523,0.06010186,3.0757663,-0.6318891,-0.00037345532,-0.116440944,0.032388017,-0.001530627,-0.009715307,-0.0009584586,-0.043995585,0.45725992,-1.4085217,1.937003,-2.0989702,-1.5695304,2.4369507,-0.16486174,0.14797084,-0.17234972,0.021050595,0.0089567555,-0.12076827,-0.59376204,0.22984336,-9.289502,0.87617236,47.71286,-1.2239714,-2.0688815,-3.344098,-0.07381366,0.090348974,-0.36280203,28.375,29.5,28.8125,32.8125,35.125,36.25
0.2520809,-0.8153766,-0.32122043,0.28950897,-0.034340974,0.083772354,-0.17229165,-0.39577556,-0.34467715,0.060105808,3.0757184,-0.6319748,-0.0004017931,-0.11647919,0.032612234,-0.0028727516,-0.008475849,-0.0026202253,-0.04318268,0.45692447,-1.4081967,1.9366101,-2.0989344,-1.5695184,2.436675,-0.16494188,0.1507339,-0.17237233,0.02035523,0.008582001,-0.12166048,-0.49799395,0.21068975,-9.270349,0.8224646,47.690468,-1.4420447,-1.8842168,-3.2357788,-0.06952183,0.08704071,-0.38349223,28.375,29.5,28.8125,32.8125,35.125,36.25
0.2540709,-0.5977403,0.114797115,0.25024727,-0.03280948,0.061668053,-0.16666052,-0.39602065,-0.3446029,0.060096037,3.0756402,-0.63218397,-0.00040978644,-0.118579306,0.032380853,-0.0011253173,-0.010389332,0.0019695654,-0.03621979,0.45656392,-1.4078969,1.9362859,-2.098935,-1.5694946,2.4364552,-0.16606411,0.1496905,-0.17487061,0.018950168,0.008280696,-0.1297442,-0.30645782,0.1340753,-9.270349,0.8112748,47.672558,-1.2827475,-1.9239366,-3.2430475,-0.04354276,0.11031168,-0.3218446,28.375,29.5,28.8125,32.8125,35.125,36.25
0.25607762,0.27739707,0.38494092,0.16444103,-0.025053643,0.052864294,-0.17867061,-0.39623603,-0.3445298,0.060073145,3.0756564,-0.63220596,-0.00033752492,-0.12037811,0.03314895,-0.0010318909,-0.010464446,0.0027767438,-0.03329086,0.4562391,-1.407584,1.9359626,-2.0988753,-1.5694827,2.4361422,-0.1687068,0.15118004,-0.17677654,0.018620722,0.007989779,-0.13531508,-0.21068975,0.19153613,-9.270349,0.81351066,47.687782,-1.2197382,-1.9235644,-3.3285532,-0.014360189,0.109083086,-0.25830597,28.375,29.5,28.8125,32.8125,35.125,36.25
0.2580676,0.2699842,0.53706986,0.25807923,-0.017857078,0.03394418,-0.17303535,-0.39650965,-0.34447408,0.06007686,3.0755916,-0.63230443,-0.00042498848,-0.12324409,0.033638004,6.706879e-05,-0.011826814,0.005008539,-0.028490532,0.455902,-1.4072473,1.9355673,-2.0988872,-1.5694827,2.4358752,-0.17210975,0.15246138,-0.1808587,0.01882933,0.008244131,-0.14351591,-0.114921674,0.19153613,-9.232041,0.7642693,47.677036,-1.0445936,-1.9198184,-3.3196955,-0.008671724,0.13083099,-0.17546761,28.375,29.5,28.8125,32.8125,35.125,36.25
0.2600628,0.50132674,0.5685287,0.0016713403,0.0020128505,0.015146637,-0.17003511,-0.39673752,-0.34438193,0.060051773,3.0755672,-0.6324721,-0.00031145412,-0.12270456,0.034315567,-0.0011991387,-0.011280385,0.0018363378,-0.02596387,0.45551762,-1.4069344,1.9352459,-2.0988152,-1.5694464,2.4355986,-0.17330593,0.15385832,-0.17977613,0.019448612,0.0091516785,-0.14724003,0.019153614,0.21068975,-9.308656,0.7642693,47.677036,-1.0194656,-1.9873347,-3.3343256,-0.0149430465,0.11865525,-0.08788261,28.375,29.5,28.8125,32.8125,35.125,36.25
0.26202402,0.5537994,0.6423264,-0.08967106,0.0013570831,0.0034030941,-0.16594622,-0.3970165,-0.34432706,0.060067028,3.0755363,-0.6325045,-0.0004209149,-0.12296793,0.034790196,-0.0035142077,-0.00901259,-0.0022100394,-0.027089098,0.4551934,-1.4065964,1.9348143,-2.098791,-1.5694708,2.435299,-0.17409524,0.15934761,-0.18098412,0.019798754,0.0089038275,-0.14690217,0.038307227,0.19153613,-9.308656,0.8247004,47.71823,-1.0549475,-2.095473,-3.3259392,-0.0057158624,0.13189338,-0.060597844,28.375,29.5,28.8125,32.8125,35.125,36.25
0.26402146,0.706687,0.49378264,0.031589534,-0.02032429,0.015440334,-0.17458592,-0.39723817,-0.34425,0.06003964,3.0755394,-0.63258535,-0.00034936855,-0.12434481,0.035364695,-0.0018597754,-0.010518975,0.0006892522,-0.03298077,0.45485663,-1.4062731,1.9344915,-2.0987432,-1.5694584,2.4350123,-0.17624198,0.15691352,-0.18203464,0.020017322,0.008970591,-0.14315772,0.076614454,0.11492168,-9.289502,0.800085,47.719128,-1.0729775,-1.9859176,-3.3747332,0.0061895624,0.13641596,-0.050325505,28.375,29.5,28.8125,32.8125,35.125,36.25
0.26601952,0.5470567,0.74215406,0.11802437,-0.035397038,0.020106655,-0.17556398,-0.39748508,-0.34416908,0.060027692,3.0754707,-0.63272756,-0.00027279073,-0.12435782,0.035128623,-0.0024926404,-0.010116665,-0.0012930022,-0.038263436,0.45446095,-1.4059598,1.9341449,-2.0986946,-1.5693983,2.4347143,-0.17603736,0.15921128,-0.18357426,0.02122047,0.009472079,-0.13766994,-0.038307227,0.17238252,-9.32781,0.842603,47.67614,-1.182387,-2.1392097,-3.391757,0.011806076,0.15518297,-0.12878947,28.375,29.5,28.8125,32.8125,35.125,36.25
0.26802,0.82670563,0.5938744,-0.21964215,-0.029554822,0.028706059,-0.17131704,-0.3977527,-0.34409893,0.060030345,3.075423,-0.63293386,-0.0003125169,-0.12535357,0.03539277,-0.00287056,-0.009916933,-0.0026746755,-0.045761324,0.45411247,-1.4056225,1.9337372,-2.0986469,-1.5694102,2.434501,-0.17751455,0.16176456,-0.18599242,0.022407446,0.0098931845,-0.13164791,0.15322891,0.17238252,-9.385271,0.8291774,47.684196,-1.0616977,-2.1788101,-3.3032703,-0.0066903755,0.1563616,-0.17058487,28.375,29.5,28.8125,32.8125,35.125,36.25
0.2700195,0.8315728,0.2589419,-0.19156025,-0.032156255,0.028241457,-0.17666999,-0.3979978,-0.34402797,0.06002996,3.075358,-0.6330763,-0.00028891757,-0.1263477,0.03662736,-0.003047828,-0.009420396,-0.003763036,-0.051185776,0.45375136,-1.4053218,1.9333786,-2.0985982,-1.5693735,2.4342372,-0.18045565,0.1626345,-0.18693203,0.023678277,0.009923739,-0.12916422,0.095768064,0.17238252,-9.500193,0.8851263,47.734352,-0.9480274,-2.253855,-3.420907,-0.0070894076,0.16759376,-0.2554038,28.375,29.5,28.8125,32.8125,35.125,36.25
0.27201995,0.524746,-0.16457586,-0.28768182,-0.0303424,0.014803966,-0.16087504,-0.39826503,-0.34397304,0.06003251,3.0753045,-0.6331839,-0.0003193506,-0.12640849,0.03653186,-0.003604063,-0.0093528135,-0.0047888695,-0.055955887,0.45341533,-1.4049731,1.9329604,-2.0985625,-1.5693616,2.4339755,-0.18046184,0.16414014,-0.18745558,0.023645487,0.0103097465,-0.12439968,-0.019153614,0.21068975,-9.481039,0.81351066,47.72002,-0.9789077,-2.1777065,-3.404275,-0.0019050301,0.16590467,-0.30544025,28.375,29.5,28.8125,32.8125,35.125,36.25
0.2740195,0.5965244,0.19219168,-0.19330208,-0.034776222,0.016993819,-0.16578506,-0.39850664,-0.34387302,0.059985396,3.0753052,-0.63343644,-0.00021468541,-0.12807457,0.037208296,-0.0034091508,-0.00946397,-0.0041257977,-0.060921427,0.45303005,-1.4046004,1.9326247,-2.0985148,-1.569362,2.4337478,-0.18284605,0.1654842,-0.18953933,0.023741826,0.010101518,-0.121818125,-0.019153614,0.24899697,-9.461885,0.7732232,47.693153,-0.83854604,-2.255182,-3.2905614,-0.0052679246,0.16724315,-0.38618302,28.375,29.5,28.8125,32.8125,35.125,36.25
0.2760198,0.5711697,0.23856805,-0.17908826,-0.033232067,0.03294336,-0.16928636,-0.39875174,-0.3437997,0.059989687,3.0752156,-0.63365036,-0.00018003659,-0.12900202,0.03755408,-0.0044640847,-0.009036212,-0.005808874,-0.06373445,0.4526579,-1.404311,1.9322656,-2.0984547,-1.5693134,2.4335208,-0.18435824,0.1688991,-0.1911095,0.023604572,0.010448982,-0.120516114,0.0,0.21068975,-9.5385,0.8493211,47.689575,-0.8853127,-2.244893,-3.2990515,0.0012053873,0.18549562,-0.44435486,28.375,29.5,28.8125,32.8125,35.125,36.25
0.27801943,0.024136752,0.082599536,-0.14223455,-0.026109478,0.037850294,-0.16492508,-0.39899895,-0.34371954,0.059982445,3.0752168,-0.63380146,-0.00014645782,-0.12843865,0.036657378,-0.003734159,-0.009704579,-0.005398537,-0.05935172,0.4523109,-1.4039752,1.9318708,-2.0983589,-1.5693258,2.433268,-0.18243976,0.16795757,-0.19200197,0.024781406,0.0108695,-0.12298093,-0.019153614,0.24899697,-9.5385,0.842603,47.690468,-1.0838228,-2.2234015,-3.423572,0.0025296933,0.19122952,-0.48201096,28.375,29.5,28.8125,32.8125,35.125,36.25
0.2800198,-0.4521217,-0.10401586,-0.27726942,-0.025692267,0.046648223,-0.15992603,-0.39925322,-0.3436792,0.05998463,3.0751123,-0.6338525,-0.00014783377,-0.12931216,0.036844797,-0.003501012,-0.009990241,-0.0057132705,-0.05324382,0.45197454,-1.4036504,1.9314889,-2.0983584,-1.5692538,2.4329772,-0.18365838,0.16897656,-0.1940396,0.02597984,0.011277732,-0.13030618,-0.1340753,0.24899697,-9.500193,0.8314132,47.729877,-1.0807588,-2.2757459,-3.4497218,-0.02544636,0.18096414,-0.46143752,28.375,29.5,28.8125,32.8125,35.125,36.25
0.28201953,-0.88528615,0.16251934,-0.13841505,-0.03700638,0.05898936,-0.17301494,-0.3995141,-0.343596,0.059961904,3.0750935,-0.6340542,-9.99703e-05,-0.12899445,0.036487453,-0.0038541562,-0.010617328,-0.007402962,-0.04315733,0.45160267,-1.4032775,1.931094,-2.0982983,-1.5692533,2.4327338,-0.18346167,0.16997996,-0.19465812,0.026855057,0.012586149,-0.14019664,-0.22984336,0.21068975,-9.442732,0.8717007,47.72719,-1.1461875,-2.2577255,-3.4845495,-0.02240037,0.1762197,-0.36336875,28.375,29.5,28.8125,32.8125,35.125,36.25
0.28401983,-0.7988086,-0.20514248,-0.22319065,-0.022491528,0.07018623,-0.16925094,-0.39976516,-0.34352314,0.05996169,3.0750644,-0.6341378,-6.0206494e-05,-0.13054322,0.036123134,-0.0027987924,-0.011499698,-0.0053787264,-0.032609086,0.45124257,-1.4029531,1.9306988,-2.098214,-1.569229,2.4324298,-0.18397453,0.17065267,-0.19800857,0.02735053,0.012501309,-0.15125647,-0.28730422,0.1340753,-9.519346,0.7777002,47.683304,-1.2042695,-2.3258817,-3.40198,-0.041714795,0.17655087,-0.29340824,28.375,29.5,28.8125,32.8125,35.125,36.25
0.2860195,-0.5226796,0.50352156,-0.1948667,-0.03622662,0.08335891,-0.16609965,-0.40004537,-0.3434543,0.05996311,3.074976,-0.63421357,-1.9535126e-05,-0.13140984,0.03597913,-0.0020135902,-0.012256353,-0.004325616,-0.027406445,0.45083445,-1.4026047,1.9302801,-2.0981662,-1.569157,2.4320805,-0.18446939,0.17067055,-0.20004854,0.02811891,0.0127309,-0.1569531,-0.3256114,0.19153613,-9.500193,0.9097417,47.707485,-1.2101766,-2.1600296,-3.4618232,-0.052707523,0.18325213,-0.16953844,28.375,29.5,28.8125,32.8125,35.125,36.25
0.28801978,-0.87854874,0.23976403,-0.26327434,-0.023492634,0.077446125,-0.16009428,-0.4002789,-0.3433722,0.05992379,3.0749853,-0.6343304,0.00010931237,-0.1330185,0.035539985,-0.0005812524,-0.013327837,-0.0014608568,-0.024724895,0.4504739,-1.4022323,1.9299206,-2.0980937,-1.5691332,2.4317918,-0.18476766,0.1706215,-0.20340045,0.028488494,0.012432075,-0.15993257,-0.40222588,0.17238252,-9.5385,0.9030289,47.71017,-1.211298,-2.1893523,-3.4657207,-0.059543796,0.18119228,-0.1088126,28.375,29.5,28.8125,32.8125,35.125,36.25
0.29001945,-0.30315927,0.4732139,-0.42401707,-0.02046794,0.090666965,-0.16829894,-0.40055895,-0.34331086,0.059937224,3.0749424,-0.63436174,3.7307153e-05,-0.13384175,0.03629761,-0.0010529291,-0.012665363,-0.0026248673,-0.029243106,0.4501255,-1.4018952,1.92949,-2.098058,-1.5691332,2.4314687,-0.18662085,0.17239055,-0.20461321,0.029269282,0.012348926,-0.15726621,-0.49799395,0.19153613,-9.576807,0.83589023,47.705692,-1.2129864,-2.1830468,-3.397638,-0.08268909,0.19112757,-0.12747593,28.375,29.5,28.8125,32.8125,35.125,36.25
0.2920198,-0.6166512,0.38439167,-0.17723133,-0.019278169,0.08655582,-0.16948746,-0.40082836,-0.34323302,0.05992297,3.074897,-0.6344907,6.278372e-05,-0.1339926,0.03562723,-0.00097398186,-0.012693348,-0.0029275937,-0.035263393,0.44974217,-1.4015347,1.9290951,-2.0980213,-1.5691093,2.431172,-0.18552753,0.17373775,-0.20662878,0.030195255,0.012496245,-0.15015183,-0.51714754,0.15322891,-9.653421,0.84708,47.699425,-1.407356,-2.0903707,-3.432698,-0.098198235,0.20294884,-0.17508845,28.375,29.5,28.8125,32.8125,35.125,36.25
0.29401943,-0.7414722,0.16712403,0.01485516,-0.02492973,0.088250205,-0.16168652,-0.40110502,-0.3431671,0.059941277,3.0748503,-0.6346001,4.5869765e-05,-0.13610467,0.035696227,8.539814e-05,-0.013176626,-0.0010663342,-0.042676557,0.44938153,-1.4011977,1.9286398,-2.0979254,-1.5690974,2.4308858,-0.1870767,0.17496923,-0.21075912,0.031206438,0.012113989,-0.14428565,-0.51714754,0.076614454,-9.634268,0.8851263,47.72719,-1.4811122,-2.1802683,-3.4060912,-0.10305889,0.1910823,-0.25305325,28.375,29.5,28.8125,32.8125,35.125,36.25
0.2960198,-0.28734767,0.8122057,-0.092687815,-0.0275221,0.08394203,-0.1662465,-0.4014002,-0.34309107,0.059946284,3.0747478,-0.6348523,3.930819e-05,-0.13749011,0.03658191,0.0004064671,-0.013603946,-0.0007773288,-0.049027275,0.4489721,-1.4008373,1.9281982,-2.0978773,-1.5690612,2.4306471,-0.18983452,0.17543198,-0.21221188,0.031754315,0.01237402,-0.14069192,-0.47884035,0.038307227,-9.576807,0.81351066,47.70032,-1.2622362,-2.105719,-3.3910875,-0.12045051,0.19834992,-0.31716502,28.375,29.5,28.8125,32.8125,35.125,36.25
0.29801947,-0.22776964,1.032467,-0.34620738,-0.015422092,0.06353917,-0.17126559,-0.40165555,-0.34300923,0.059909318,3.0747297,-0.63494647,0.00013381684,-0.13899493,0.038423173,-8.362078e-05,-0.012520351,-0.0014356029,-0.05364693,0.44858733,-1.4004526,1.9278268,-2.0978415,-1.5690259,2.4303236,-0.19378537,0.1767693,-0.21278805,0.032067623,0.011676882,-0.14002322,-0.34476504,0.076614454,-9.519346,0.8940802,47.677036,-1.2318187,-2.065755,-3.3032837,-0.13424256,0.21220818,-0.32230166,28.375,29.5,28.8125,32.8125,35.125,36.25
0.3000198,0.4756238,1.2829115,-0.06150567,-0.012838186,0.061910708,-0.1716759,-0.4019368,-0.3429482,0.059927326,3.0746903,-0.63503224,9.2888e-05,-0.1389096,0.038461614,-0.0010780063,-0.011823314,-0.0034358173,-0.05157059,0.44823954,-1.4001036,1.9273604,-2.097757,-1.5690254,2.4300346,-0.19379638,0.17909129,-0.21336569,0.0324348,0.011923622,-0.14210983,-0.2681506,0.038307227,-9.519346,0.84484416,47.717335,-1.2467208,-2.0252566,-3.4031692,-0.16150329,0.21175401,-0.37543052,28.375,29.5,28.8125,32.8125,35.125,36.25
0.30201954,0.054154165,0.88882726,-0.28907502,-0.009817962,0.04602209,-0.1606223,-0.40221775,-0.34286517,0.05991997,3.0746067,-0.6352264,9.9817546e-05,-0.13971102,0.039308265,-0.0009181569,-0.012287872,-0.0034866044,-0.052633625,0.4478308,-1.3997551,1.9269661,-2.0977333,-1.5689892,2.429758,-0.19610396,0.17896132,-0.21371214,0.03276651,0.01236976,-0.1433543,-0.28730422,0.019153614,-9.481039,0.8224646,47.703903,-1.201206,-2.1414585,-3.3646584,-0.1717571,0.21748959,-0.3819347,28.375,29.5,28.8125,32.8125,35.125,36.25
0.30401984,-0.050189566,0.33980152,-0.38106644,-0.006324791,0.041257568,-0.15992191,-0.40249008,-0.3427914,0.05990514,3.0745752,-0.6353135,0.00016624642,-0.14107732,0.039769255,-0.00073291024,-0.012131568,-0.0028481772,-0.04743906,0.44744632,-1.3993703,1.9265355,-2.0976613,-1.5689534,2.4294322,-0.19767062,0.18027826,-0.21579756,0.03305017,0.0119536705,-0.15011479,-0.22984336,0.038307227,-9.519346,0.84708,47.681515,-1.1983647,-2.1425993,-3.4698071,-0.1734814,0.23666692,-0.3270077,28.375,29.5,28.8125,32.8125,35.125,36.25
0.30601948,0.16737811,0.52454466,-0.22852471,-0.02676009,0.056395307,-0.16385902,-0.40278846,-0.34269246,0.059909858,3.074534,-0.6354915,0.0001271201,-0.14199342,0.040052626,-0.0008400862,-0.012262632,-0.0035597621,-0.0391965,0.44702592,-1.3990213,1.9261044,-2.0976012,-1.5689653,2.4291284,-0.1990714,0.18194842,-0.21776187,0.0339475,0.012393135,-0.15975714,-0.22984336,0.019153614,-9.500193,0.8560339,47.668976,-1.1495146,-2.1176927,-3.4164515,-0.20918924,0.2307927,-0.22740199,28.375,29.5,28.8125,32.8125,35.125,36.25
0.30802003,0.22671634,0.71557724,0.024973286,-0.025810352,0.059485428,-0.16756971,-0.40307486,-0.3426159,0.059912138,3.074464,-0.6356093,0.00016128799,-0.14299469,0.040570103,-0.0010364831,-0.01220326,-0.00452691,-0.032971296,0.4466173,-1.3986603,1.9256624,-2.0975292,-1.5689172,2.4288025,-0.20091553,0.18372273,-0.21968749,0.0350224,0.012767546,-0.16782564,-0.21068975,0.038307227,-9.481039,0.8873621,47.67345,-1.1082516,-2.1621418,-3.5170355,-0.22187248,0.237331,-0.1613475,28.375,29.5,28.8125,32.8125,35.125,36.25
0.3100195,0.43966436,0.7388987,0.18446527,-0.02596828,0.06982167,-0.16174547,-0.4033405,-0.34252158,0.059899904,3.0744765,-0.6356698,0.00018233467,-0.14373614,0.04004485,-0.0016675256,-0.012286417,-0.006104052,-0.032608237,0.4462331,-1.398311,1.9252666,-2.0974567,-1.5689286,2.4284546,-0.20095424,0.18731381,-0.22267419,0.03580597,0.013515078,-0.1682263,-0.40222588,0.15322891,-9.404425,0.86945957,47.723602,-1.0648615,-2.2411005,-3.4047043,-0.24805595,0.24624336,-0.0970169,28.375,29.5,28.8125,32.8125,35.125,36.25
0.31202024,0.34261215,0.84977454,0.3301987,-0.02278189,0.07634848,-0.16370773,-0.40363356,-0.34244108,0.05989538,3.0744162,-0.63585275,0.00026257368,-0.14453511,0.040996395,-0.0020492675,-0.012011217,-0.007160585,-0.036887158,0.44581246,-1.3979142,1.9247898,-2.097349,-1.5688804,2.4281561,-0.20327213,0.18847324,-0.22336522,0.036419272,0.013715194,-0.16626547,-0.38307226,0.11492168,-9.289503,0.87617236,47.66808,-1.0393302,-2.1903558,-3.4044876,-0.28023157,0.23490623,-0.05735354,28.375,29.5,28.8125,32.8125,35.125,36.25
0.31401947,0.37540084,1.2090554,0.0092816185,-0.020348193,0.074922204,-0.17154387,-0.40393144,-0.3423544,0.059873994,3.0743725,-0.6360384,0.00031657054,-0.1460072,0.040767927,-0.001146976,-0.013759387,-0.005066247,-0.043871377,0.4453923,-1.397494,1.9243349,-2.0972893,-1.5688561,2.4278576,-0.2043693,0.18864243,-0.22554728,0.035785977,0.014373011,-0.16037807,-0.24899697,0.095768064,-9.308656,0.8493211,47.682407,-1.1270808,-2.1760545,-3.3916478,-0.2985916,0.22850347,-0.14204647,28.375,29.5,28.8125,32.8125,35.125,36.25
0.3160198,0.2126252,0.48828897,-0.1763797,-0.0182852,0.06695285,-0.16349517,-0.40421435,-0.3422846,0.059889074,3.0743036,-0.6361251,0.00030583164,-0.14787367,0.040778957,-0.00031112315,-0.014433441,-0.002599212,-0.051403217,0.44500795,-1.3971572,1.9238914,-2.0972178,-1.5688208,2.4275365,-0.20551802,0.18950036,-0.22838974,0.035254885,0.01391077,-0.15399297,-0.38307226,0.15322891,-9.346964,0.8873621,47.691364,-1.1470726,-2.2303646,-3.3296723,-0.31334737,0.24383612,-0.21421081,28.375,29.5,28.8125,32.8125,35.125,36.25
0.31801948,0.05217895,-0.0059241722,0.32213086,-0.04302284,0.08225813,-0.16107035,-0.404479,-0.342193,0.059856288,3.0742834,-0.63629526,0.00043107924,-0.1490185,0.039288864,0.00061966863,-0.016086498,9.656718e-05,-0.05437428,0.44460034,-1.3967605,1.9234842,-2.0971344,-1.5687846,2.4272377,-0.20390877,0.19067144,-0.23172413,0.034275208,0.014219488,-0.14941214,-0.49799395,0.1340753,-9.32781,0.83365434,47.67166,-1.4000711,-2.2081134,-3.2213798,-0.31612659,0.2531876,-0.26031244,28.375,29.5,28.8125,32.8125,35.125,36.25
0.3200198,-0.73461115,-0.36308956,-0.091141835,-0.035893295,0.07272314,-0.15239534,-0.4048128,-0.34212577,0.05988984,3.0741608,-0.6364832,0.00029420582,-0.15074529,0.038019784,0.0017745176,-0.017210672,0.0032811721,-0.058031153,0.44419295,-1.3963995,1.9229811,-2.0971105,-1.5687727,2.4269638,-0.20273192,0.19225073,-0.23614165,0.033754732,0.013869935,-0.14457454,-0.4405331,0.24899697,-9.32781,0.8605109,47.695843,-1.410917,-2.1717887,-3.1422698,-0.33753532,0.23881418,-0.35306162,28.375,29.5,28.8125,32.8125,35.125,36.25
0.32201943,-0.32227334,-0.27521953,-0.063025214,-0.026888264,0.081227556,-0.16473679,-0.4051012,-0.3420362,0.059866905,3.0741696,-0.6366028,0.0003954344,-0.15140837,0.03838817,0.0026002224,-0.018649045,0.0049933256,-0.062617265,0.44378453,-1.3959676,1.9225019,-2.0969913,-1.5687603,2.426629,-0.2041246,0.19056898,-0.23599206,0.033122562,0.014422881,-0.14138271,-0.24899697,0.21068975,-9.481039,0.9186956,47.668976,-1.4931986,-2.132834,-3.225789,-0.33056903,0.25206158,-0.44840777,28.375,29.5,28.8125,32.8125,35.125,36.25
0.32401976,-0.04610121,0.062661275,0.06544259,-0.055602305,0.082119666,-0.16987099,-0.40540648,-0.34194207,0.059881635,3.074066,-0.6368313,0.00037353742,-0.15188797,0.039654464,0.0021883927,-0.018227983,0.004840674,-0.063881025,0.44333985,-1.3956314,1.9220623,-2.0969317,-1.568725,2.4263406,-0.2063894,0.19045033,-0.2348072,0.03238955,0.014121762,-0.14238364,-0.1340753,0.34476504,-9.519346,0.8717007,47.67345,-1.4150581,-2.127189,-3.2938776,-0.33108062,0.2519598,-0.47562242,28.375,29.5,28.8125,32.8125,35.125,36.25
0.32601947,0.12686813,-0.43623298,0.017174037,-0.058016147,0.07280272,-0.17152853,-0.40572578,-0.34186926,0.05989024,3.0739846,-0.6370427,0.00030023433,-0.15330377,0.040108155,0.0025515815,-0.019491032,0.006398793,-0.06021155,0.44294322,-1.3952348,1.9215711,-2.096896,-1.5687245,2.4260867,-0.20850901,0.19067335,-0.23566853,0.031094134,0.014610496,-0.14817162,-0.15322891,0.34476504,-9.442732,0.90750587,47.661808,-1.4131265,-1.9775825,-3.4066002,-0.3651455,0.25717178,-0.4828974,28.375,29.5,28.8125,32.8125,35.125,36.25
0.3280198,0.30026126,0.017930286,0.11221714,-0.060796924,0.06113833,-0.1758785,-0.40603453,-0.3417946,0.05988848,3.0739155,-0.6371557,0.00033253597,-0.15418977,0.041008048,0.0021028528,-0.019229483,0.006715352,-0.04951199,0.44252262,-1.3948262,1.9210814,-2.096825,-1.5686768,2.4257457,-0.21043517,0.19155674,-0.23547609,0.029884141,0.014259187,-0.16079712,-0.17238252,0.36391866,-9.461885,0.85826975,47.66539,-1.321589,-1.9141235,-3.5433998,-0.32823217,0.2775011,-0.37269163,28.375,29.5,28.8125,32.8125,35.125,36.25
0.3300195,0.27482966,0.28635365,-0.11602227,-0.049466856,0.047354028,-0.17700414,-0.4063468,-0.34170145,0.059889626,3.0738626,-0.6372955,0.0003171566,-0.15613286,0.04115134,0.002853861,-0.020897422,0.008929796,-0.04173986,0.4420893,-1.3944416,1.9206156,-2.0967648,-1.5686644,2.4254067,-0.2124987,0.1922032,-0.23777242,0.028844904,0.014833922,-0.17063156,-0.095768064,0.22984336,-9.5385,0.8940802,47.690468,-1.1520245,-1.93307,-3.541435,-0.32344073,0.27339542,-0.26397246,28.375,29.5,28.8125,32.8125,35.125,36.25
0.3320199,0.58479923,0.3518875,-0.20289463,-0.030070106,0.03417673,-0.17229246,-0.40665752,-0.34161195,0.05987589,3.0738103,-0.6374165,0.00032512582,-0.1584078,0.04151543,0.002692815,-0.021279894,0.010266954,-0.037134755,0.4416568,-1.3940318,1.9201597,-2.09673,-1.5686406,2.4250567,-0.21472493,0.19516166,-0.24060404,0.027371123,0.014616458,-0.177461,-0.019153614,0.17238252,-9.500193,0.900793,47.67793,-1.1200166,-2.031625,-3.564693,-0.3129763,0.26798764,-0.1726984,28.375,29.5,28.8125,32.8125,35.125,36.25
0.3340195,0.72836995,0.8927366,-0.052153546,-0.03565878,0.040727336,-0.17060107,-0.40697503,-0.34152487,0.05986907,3.0737126,-0.63754994,0.0003396146,-0.15930264,0.042153787,0.001606678,-0.021579945,0.008968636,-0.037188243,0.44120038,-1.3936346,1.9197053,-2.0967062,-1.5685805,2.4246964,-0.21693435,0.19772889,-0.24093941,0.026204152,0.015455794,-0.1796161,-0.11492168,0.15322891,-9.5385,0.91198283,47.696735,-1.1212264,-1.9596982,-3.5839965,-0.30008423,0.2703597,-0.14021237,28.375,29.5,28.8125,32.8125,35.125,36.25
0.33601978,0.117832504,0.6238534,-0.19328569,-0.013872736,0.02630361,-0.16450718,-0.40731785,-0.34145692,0.059906133,3.073617,-0.63763183,0.00024408077,-0.16139913,0.042625047,0.0021140305,-0.021998756,0.010289526,-0.046109047,0.44077942,-1.39325,1.9191545,-2.0966341,-1.5685562,2.4243393,-0.21920232,0.19937816,-0.24413015,0.026369996,0.015279303,-0.17296036,-0.17238252,0.17238252,-9.519346,0.8627467,47.681515,-1.0218928,-1.9955739,-3.4106364,-0.2755263,0.28832746,-0.16294487,28.375,29.5,28.8125,32.8125,35.125,36.25
0.33801967,0.34915,0.9354579,-0.48607793,-0.011832744,0.04508246,-0.17337912,-0.40761584,-0.34136334,0.0599034,3.0735836,-0.6377838,0.0002732382,-0.16230969,0.04363524,0.00049037964,-0.02118917,0.006434958,-0.056537557,0.44035864,-1.3928641,1.9186872,-2.0965383,-1.5685438,2.424018,-0.22212955,0.20368868,-0.24582608,0.02757685,0.016184064,-0.16545826,-0.2873042,0.17238252,-9.730036,0.8873621,47.66271,-0.90019375,-2.097261,-3.4226346,-0.27020258,0.27161497,-0.24883984,28.375,29.5,28.8125,32.8125,35.125,36.25
0.34002,-0.39815766,0.48099753,-0.2613074,-0.031229122,0.06028081,-0.16714518,-0.40796268,-0.34127036,0.059911694,3.073492,-0.6379957,0.00023951006,-0.1630943,0.042662576,0.0005252046,-0.02137505,0.0067578144,-0.058451146,0.43989146,-1.3924431,1.9181617,-2.0964782,-1.56852,2.423695,-0.2208904,0.20630892,-0.2491234,0.027887505,0.016218025,-0.16230321,-0.38307226,0.019153614,-9.844957,0.88960326,47.689575,-1.0674511,-2.2572584,-3.3459032,-0.28319427,0.27457762,-0.30115685,28.375,29.5,28.8125,32.8125,35.125,36.25
0.34201962,-1.0930617,0.009196013,-0.081934944,-0.0452111,0.077982165,-0.16963874,-0.40828684,-0.3411859,0.059899688,3.0733922,-0.6382061,0.00028281953,-0.164004,0.041309964,0.0012627576,-0.023042355,0.008821856,-0.058405887,0.43943566,-1.39201,1.9176711,-2.096431,-1.5684599,2.4233837,-0.21947028,0.20741731,-0.25200123,0.027091725,0.016847255,-0.1609269,-0.57460845,0.076614454,-9.730036,0.9030289,47.71465,-1.164777,-2.20927,-3.3481107,-0.2735088,0.2777624,-0.33199424,28.375,29.5,28.8125,32.8125,35.125,36.25
0.34401983,-1.0056194,0.23212674,-0.14645581,-0.040411413,0.104187615,-0.17299882,-0.40859058,-0.34112164,0.05989894,3.073318,-0.6383053,0.00030022234,-0.1640397,0.040670693,0.00067023304,-0.022729764,0.008357719,-0.05706057,0.43904015,-1.3916013,1.9171804,-2.096371,-1.5684117,2.42306,-0.21814683,0.20958999,-0.25317994,0.026665742,0.016768564,-0.16094771,-0.57460845,0.095768064,-9.595961,0.92093146,47.698532,-1.3188396,-2.1621542,-3.3066857,-0.24593608,0.27480924,-0.3574664,28.375,29.5,28.8125,32.8125,35.125,36.25
0.3460194,-1.6141655,0.36839437,-0.4010541,-0.018653052,0.084488064,-0.17449924,-0.40892172,-0.34102464,0.059877414,3.0732539,-0.6384426,0.00032273037,-0.16399969,0.040780075,0.00038536484,-0.02257894,0.007257111,-0.053085476,0.43857235,-1.3911566,1.9167026,-2.0963466,-1.5683755,2.4226863,-0.21832292,0.21041177,-0.2537777,0.027524462,0.017115563,-0.16509871,-0.34476507,0.15322891,-9.710882,0.88289046,47.670765,-1.4749427,-2.233129,-3.330522,-0.24670325,0.26663634,-0.32758844,28.375,29.5,28.8125,32.8125,35.125,36.25
0.34801975,-0.9394647,0.32086146,-0.22316277,-0.026173871,0.09077205,-0.18020123,-0.4092688,-0.34096462,0.0599202,3.0731237,-0.6386228,0.00019805973,-0.16459964,0.040854976,0.0009156934,-0.023257295,0.008588432,-0.045963503,0.43816414,-1.3907721,1.9161409,-2.0962865,-1.5683511,2.4224079,-0.21880114,0.2099402,-0.2544241,0.027177706,0.01720071,-0.1726969,-0.38307226,0.2681506,-9.672575,0.9321212,47.655537,-1.4808309,-2.1534863,-3.4735298,-0.24048686,0.2796037,-0.28531274,28.375,29.5,28.8125,32.8125,35.125,36.25
0.35001948,-0.7863788,-0.036787156,-0.17100842,-0.03516619,0.07316366,-0.17557254,-0.40960526,-0.34088537,0.059942972,3.0730426,-0.6386763,0.000116558746,-0.16577314,0.041530635,0.0011236432,-0.02280888,0.010291958,-0.036371376,0.437732,-1.3903875,1.9156274,-2.0962393,-1.5683278,2.42202,-0.22006868,0.21030337,-0.2551907,0.02626958,0.016108477,-0.18355516,-0.38307226,0.17238252,-9.615114,0.9097417,47.709274,-1.5480251,-2.1405046,-3.533488,-0.21032324,0.2774239,-0.1697116,28.375,29.5,28.8125,32.8125,35.125,36.25
0.35201982,-0.77672744,0.035329234,-0.26290184,-0.048075818,0.045528054,-0.17063977,-0.40993577,-0.34078938,0.059937283,3.0729759,-0.63883346,0.0001097305,-0.16679281,0.042188995,0.0021719136,-0.023284903,0.011910938,-0.03293342,0.4372755,-1.3899672,1.9151362,-2.0961912,-1.568304,2.4216704,-0.22171563,0.20903091,-0.25634316,0.02705119,0.015874775,-0.1886398,-0.24899697,0.1340753,-9.653421,0.91198283,47.693153,-1.4626317,-2.0966313,-3.6124368,-0.19134218,0.26991513,-0.09144788,28.375,29.5,28.8125,32.8125,35.125,36.25
0.35401952,-0.29018494,-0.23701099,0.1189155,-0.04845002,0.04506854,-0.17369331,-0.41030428,-0.3406923,0.05995727,3.0728867,-0.63897383,1.7004953e-05,-0.16913459,0.043955,0.0023853038,-0.022437697,0.013057284,-0.040246136,0.436794,-1.3895466,1.9145864,-2.0961435,-1.5682925,2.4212885,-0.22574268,0.21025479,-0.25837776,0.02718836,0.014637495,-0.18535241,-0.21068975,0.22984336,-9.5385,0.88960326,47.694946,-1.4597328,-2.0788994,-3.6460166,-0.19109273,0.3024086,-0.06532124,28.375,29.5,28.8125,32.8125,35.125,36.25
0.35601985,-0.19494314,0.003884877,0.17499928,-0.030620974,0.028499467,-0.16359621,-0.41063073,-0.34061882,0.05995517,3.0728176,-0.6390596,7.592159e-06,-0.17186315,0.043729868,0.003358076,-0.024184532,0.01632313,-0.04787185,0.43637338,-1.3891138,1.9140724,-2.0960963,-1.5682563,2.4209306,-0.2275164,0.21200979,-0.26241,0.025765693,0.014832839,-0.1794979,-0.22984336,0.095768064,-9.423578,0.9388393,47.647476,-1.4009347,-1.8673587,-3.49936,-0.17791623,0.3335982,-0.10177295,28.375,29.5,28.8125,32.8125,35.125,36.25
0.3580194,0.30713674,1.0748925,0.15612279,-0.009763292,0.024906289,-0.1750326,-0.41096976,-0.34053746,0.059955303,3.072725,-0.6392164,-1.991877e-05,-0.17368844,0.04374928,0.0046285223,-0.026159966,0.019888243,-0.055622105,0.43592894,-1.3886815,1.9135565,-2.096061,-1.56822,2.4205964,-0.22901735,0.21127425,-0.26415738,0.024179677,0.015118779,-0.17324717,-0.17238252,0.095768064,-9.3661175,0.91198283,47.667187,-1.2953627,-1.8365319,-3.457515,-0.12233265,0.31949753,-0.16999097,28.375,29.5,28.8125,32.8125,35.125,36.25
0.36001998,0.21474954,0.91282064,0.35359603,0.0054019163,0.027643958,-0.17084865,-0.41134813,-0.3404577,0.059986163,3.072557,-0.6394169,-0.00015290249,-0.17542522,0.04398905,0.005328691,-0.028054167,0.020324046,-0.06344941,0.43544805,-1.3882729,1.9130062,-2.0960605,-1.5681719,2.4202628,-0.23160236,0.21223374,-0.26713726,0.025002941,0.016675705,-0.16800085,-0.19153613,0.095768064,-9.270349,0.8873621,47.696735,-1.1777899,-1.77051,-3.3237267,-0.0755012,0.32494313,-0.2704893,28.375,29.5,28.8125,32.8125,35.125,36.25
0.36201948,0.0069591994,0.8743601,0.19523098,0.02674208,0.022390947,-0.1751308,-0.4116921,-0.3403617,0.05999207,3.072449,-0.6396501,-0.00014693046,-0.1764446,0.04525817,0.004597723,-0.027825356,0.017065657,-0.0741871,0.4349671,-1.3878516,1.9124812,-2.0959876,-1.5681232,2.4199417,-0.2351745,0.21478689,-0.26911935,0.02747706,0.017847795,-0.1608334,-0.17238252,0.095768064,-9.270349,0.92093146,47.684196,-1.0506068,-1.7283533,-3.3529148,-0.07605757,0.30884054,-0.33698767,28.375,29.5,28.8125,32.8125,35.125,36.25
0.36402008,0.34954602,1.3303978,-0.13422102,0.027951008,0.026672194,-0.17406338,-0.4120361,-0.3402576,0.05999215,3.0724032,-0.63985443,-0.000184519,-0.17697723,0.04620876,0.0025703104,-0.025562936,0.011717014,-0.07928098,0.4345103,-1.3874172,1.9119538,-2.0959146,-1.5681351,2.4196186,-0.23719236,0.22033663,-0.27178583,0.030395675,0.018057508,-0.15775545,-0.1340753,0.095768064,-9.423578,0.92764956,47.684196,-0.93038654,-1.9856379,-3.3636484,-0.08271912,0.29150188,-0.4546077,28.375,29.5,28.8125,32.8125,35.125,36.25
0.36601943,-0.46477124,0.7268806,0.06648227,-0.005660522,0.026128493,-0.18314232,-0.41238248,-0.34016553,0.059997853,3.0723171,-0.6400254,-0.00019320386,-0.17584608,0.045694582,0.0015928429,-0.024639303,0.008461576,-0.0750101,0.43404284,-1.3869845,1.9114155,-2.0958421,-1.5680989,2.4192693,-0.23549241,0.22232267,-0.27245086,0.0324357,0.018612355,-0.16032535,-0.30645782,0.17238252,-9.481039,0.92093146,47.66539,-1.0134374,-1.9672031,-3.2966847,-0.09411822,0.28921738,-0.47355014,28.375,29.5,28.8125,32.8125,35.125,36.25
0.36801976,-1.0672257,-0.4299306,0.039059404,-0.038442366,0.048031118,-0.18080999,-0.4127274,-0.34007248,0.060006067,3.0722275,-0.64024985,-0.00018707936,-0.17620362,0.045544546,0.0019251888,-0.024037428,0.0087539945,-0.065116696,0.43357566,-1.3865515,1.9108657,-2.0957463,-1.5680631,2.4189541,-0.23489946,0.22301462,-0.27440402,0.033725835,0.017973306,-0.16962534,-0.38307226,0.24899697,-9.461885,0.9186956,47.65643,-1.2062798,-2.0847745,-3.339158,-0.07747051,0.31341332,-0.41477787,28.375,29.5,28.8125,32.8125,35.125,36.25
0.37001947,-1.2529067,-1.1291504,0.014113223,-0.045403965,0.06644189,-0.17516875,-0.41310596,-0.33999497,0.06003749,3.0720608,-0.6404024,-0.00021349432,-0.17646003,0.046103463,0.0011937069,-0.02297207,0.00643909,-0.054327067,0.43307102,-1.3861184,1.9102682,-2.0956733,-1.5679673,2.4185667,-0.23587604,0.22522248,-0.27584445,0.035564125,0.018029194,-0.1813895,-0.36391866,0.2681506,-9.461885,0.900793,47.66271,-1.212626,-2.026711,-3.4172745,-0.08375315,0.2958273,-0.31217277,28.375,29.5,28.8125,32.8125,35.125,36.25
0.37201986,-1.7051779,-1.1612537,-0.075450696,-0.054330893,0.052877523,-0.16810426,-0.41345206,-0.3398871,0.060035735,3.0720437,-0.64054656,-0.00024929713,-0.17668448,0.04648991,0.0012676929,-0.0226339,0.006158112,-0.045502074,0.43261516,-1.385674,1.9097298,-2.095589,-1.5679911,2.4182034,-0.23641737,0.22539392,-0.27652043,0.03649553,0.017870039,-0.19075584,-0.3256114,0.3256114,-9.500193,0.9925471,47.68599,-1.2967968,-1.9321206,-3.3208892,-0.08917926,0.2882205,-0.18779641,28.375,29.5,28.8125,32.8125,35.125,36.25
0.37401953,-1.0894828,-0.68565565,0.23296545,-0.055588763,0.05762368,-0.18617857,-0.41379416,-0.33982217,0.060037073,3.0719419,-0.6406408,-0.00019946542,-0.17768623,0.047051214,0.0018575428,-0.022460543,0.00796889,-0.044009198,0.43217087,-1.3852055,1.9091562,-2.0955055,-1.5679077,2.4178314,-0.23742604,0.22499937,-0.27744478,0.03627712,0.016967922,-0.19325766,-0.22984336,0.34476504,-9.346964,0.9455522,47.66271,-1.38994,-1.8777122,-3.4323292,-0.10110867,0.31690624,-0.12186508,28.375,29.5,28.8125,32.8125,35.125,36.25
0.3760198,-0.5535902,-0.6595739,0.30051735,-0.02871476,0.050350416,-0.16978358,-0.41418877,-0.33971846,0.060055375,3.0718958,-0.6406911,-0.00036671545,-0.17774981,0.04599547,0.0015946954,-0.023658592,0.007703072,-0.048274923,0.43169123,-1.3847486,1.9085711,-2.095482,-1.5679435,2.4173896,-0.2361434,0.22672299,-0.27882856,0.03565923,0.018178135,-0.18770577,-0.38307226,0.24899697,-9.32781,0.91421866,47.65643,-1.3752205,-1.8027177,-3.4580307,-0.06411121,0.30707324,-0.16413257,28.375,29.5,28.8125,32.8125,35.125,36.25
