Tylouw/Master_Thesis_Code/training_data/batch_1/small_rod_t0.3/sample_58_session_2.csv
timestamp[s],tcp_force_x[N],tcp_force_y[N],tcp_force_z[N],tcp_force_rx[Nm?],tcp_force_ry[Nm?],tcp_force_rz[Nm?],tcp_pose_x[m],tcp_pose_y[m],tcp_pose_z[m],tcp_pose_rx[rot_vec_x],tcp_pose_ry[rot_vec_y],tcp_pose_rz[rot_vec_z],tcp_velo_x[m/s],tcp_velo_y[m/s],tcp_velo_z[m/s],tcp_velo_rx[rot_vec_x/s],tcp_velo_ry[rot_vec_y/s],tcp_velo_rz[rot_vec_z/s],q1[rad],q2[rad],q3[rad],q4[rad],q5[rad],q6[rad],qd1[rad/s],qd2[rad/s],qd3[rad/s],qd4[rad/s],qd5[rad/s],qd6[rad/s],tool_acc_x,tool_acc_y,tool_acc_z,current_of_whole_robot[A],voltage_of_whole_robot[V],current_J1[A],current_J2[A],current_J3[A],current_J4[A],current_J5[A],current_J6[A],temp_J1[C],temp_J2[C],temp_J3[C],temp_J4[C],temp_J5[C],temp_J6[C]
5.2299583e-07,-0.25302008,-1.0237876,0.09133215,-0.026431648,0.024884595,-0.022095779,-0.38104877,-0.3485272,0.0599604,-3.0785112,0.6247994,-0.00016494558,0.0013380499,0.000661672,-0.0011098135,0.0013195677,-0.002845701,6.337829e-05,0.47782207,-1.425934,1.9577383,-2.100845,-1.5707816,2.4527283,-3.019096e-05,-2.3165238e-05,0.0023873968,0.0007690127,0.00014369258,-9.518641e-05,0.11492168,0.17238252,-8.848969,0.74413085,47.705692,0.06603661,-2.7492352,-2.4111154,-0.45525044,0.13753366,0.124876305,28.5,29.625,28.9375,32.9375,35.25,36.375
0.002052993,-0.4954955,-1.1304487,0.016774066,-0.0117802955,0.018402983,-0.013621084,-0.381044,-0.348518,0.05995605,-3.0785022,0.62481666,-0.00017540519,-0.0008405012,-0.0004728226,-0.0018607635,-0.0018802343,0.0032927955,6.2231906e-05,0.47781014,-1.4259454,1.9577621,-2.100849,-1.5707816,2.4527283,-2.9857136e-05,0.002293472,0.0039131637,-0.009995797,0.00014088159,-9.194343e-05,0.038307227,0.1340753,-8.810662,0.7597976,47.711964,-0.016322317,-2.640883,-2.498683,-0.40838563,0.13849401,0.14514847,28.5,29.625,28.9375,32.9375,35.25,36.375
0.0040527508,-0.46696576,-0.6750735,-0.017285587,-0.021479988,0.01733855,-0.020822594,-0.3810684,-0.34853074,0.05995358,-3.0785415,0.6247665,-0.00011987824,-0.0014251446,-0.0007933111,-0.002573174,-0.0020414346,0.0035974348,8.8866036e-05,0.47781014,-1.4259084,1.9577392,-2.1009085,-1.5707816,2.452692,-1.1737151e-06,0.0044788867,0.0035419334,-0.012154624,0.0001381776,-8.891486e-05,0.0,0.17238252,-8.7532015,0.7553206,47.698532,0.031354703,-3.1800153,-2.733715,-0.32889313,0.13183203,0.113529116,28.5,29.625,28.9375,32.9375,35.25,36.375
0.006051849,-0.0377641,-0.6245923,0.0025244055,-0.0027147476,0.007016752,-0.018288946,-0.38104975,-0.34853664,0.05993602,-3.0785234,0.62480193,-0.00020158906,-0.0009779652,-0.0005596615,-0.0014173532,-0.0014268449,0.0024324504,8.676803e-05,0.47782207,-1.4258851,1.9577497,-2.1008952,-1.5707573,2.4527283,-1.5746885e-08,0.0026520733,0.00189139,-0.007360127,0.00013557581,-8.60798e-05,-0.019153614,0.22984336,-8.772355,0.7038487,47.716442,0.0219404,-3.0911832,-2.6204967,-0.31697947,0.136028,0.13973749,28.5,29.625,28.9375,32.9375,35.25,36.375
0.008052034,0.123866685,0.030092595,-0.5367125,0.024039188,-0.014237956,-0.016045572,-0.38104627,-0.34853712,0.059961483,-3.0785427,0.62472826,-0.00016197775,-0.00047389593,-0.00029572437,-0.0005204364,-0.0008645262,0.0013669399,-4.701422e-05,0.47783422,-1.4259336,1.9577383,-2.1008575,-1.5707697,2.452692,-2.1126458e-10,0.0009517841,0.00089068414,-0.003454343,0.00013307008,4.7177167e-05,0.0,0.24899697,-8.848969,0.7150385,47.754948,0.020565636,-3.0260725,-2.5926127,-0.35984558,0.12091318,0.14270198,28.5,29.625,28.9375,32.9375,35.25,36.375
0.0100521445,0.181663,-0.029323312,-0.9455658,0.022027273,-0.010060805,-0.010574076,-0.3810344,-0.34852192,0.059925523,-3.0785007,0.62479734,-0.00024659725,-0.00062607025,-0.0003727976,0.0005507714,-0.0012976162,0.0022170837,-6.334292e-05,0.47781014,-1.4258983,1.9577855,-2.1008809,-1.5707573,2.4527164,-2.834384e-12,-0.0006102105,-0.0001530702,-0.001802651,0.00012833506,6.345417e-05,0.019153614,0.17238252,-9.097966,0.7284641,47.73077,-0.29750937,-2.2830322,-3.1727984,-0.3483389,0.08748905,0.073060445,28.5,29.625,28.9375,32.9375,35.25,36.375
0.012052219,-0.11177095,-0.7702813,-0.91278964,-0.008258556,0.0062803375,-0.017320523,-0.3810156,-0.3485121,0.05990584,-3.0784593,0.6248081,-0.00032154686,-0.0012380751,-0.0006344562,-0.0022647525,0.0014848158,-0.0030684927,-8.111209e-05,0.4778101,-1.4258837,1.9578084,-2.100857,-1.5707573,2.4527283,-7.806817e-05,0.007925508,-0.0036617948,-0.0008564184,8.263122e-05,6.1738083e-06,0.095768064,0.17238252,-9.2703495,0.779936,47.733456,-0.4739261,-2.3099163,-3.346849,-0.32620376,0.0682147,0.034046136,28.5,29.625,28.9375,32.9375,35.25,36.375
0.014052361,-0.98404336,-1.3182217,-1.0887374,-0.036916304,0.014961744,-0.023675488,-0.38103497,-0.34847385,0.059880827,-3.0783706,0.62482953,-0.000390294,-0.004380397,0.0011096104,-0.004285031,0.0043598823,-0.0070394864,-0.0024674668,0.47774798,-1.4258206,1.9577826,-2.1008084,-1.570794,2.4526908,-0.005615585,0.016077561,-0.008739511,0.00091957964,-0.0006532859,-0.003140057,0.038307227,0.19153613,-9.385271,0.7486078,47.693153,-0.37960473,-2.9726472,-3.2090364,-0.33715048,0.07190191,0.009750616,28.5,29.625,28.9375,32.9375,35.25,36.375
0.016052632,-0.9246292,-1.6671426,-1.4382663,-0.056771208,0.049913235,-0.03041505,-0.38104597,-0.34850353,0.05988872,-3.0784135,0.6248176,-0.00034328696,-0.00564288,0.002972226,-0.0031591963,0.005057173,-0.0074086934,-0.0007706248,0.4777828,-1.4257972,1.9577459,-2.1008432,-1.5707821,2.4527128,-0.009804797,0.014350728,-0.010223043,0.004779045,-0.0010991095,-0.009025596,-0.15322891,0.30645782,-9.500193,0.76874626,47.67614,-0.14028604,-2.7543788,-3.3229098,-0.34584695,0.05301892,0.034402847,28.5,29.625,28.9375,32.9375,35.25,36.375
0.018052364,-1.696389,-1.6557434,-1.5040938,-0.06733337,0.055587064,-0.036301877,-0.38102183,-0.3484955,0.059861165,-3.0783756,0.62475055,-0.0004713362,-0.0055190455,0.0026434702,-0.0030250903,0.0054668654,-0.0076529034,0.002807852,0.4777831,-1.4257612,1.9577569,-2.100795,-1.5707701,2.452676,-0.008941823,0.01475793,-0.011219828,0.005774439,-0.0013527629,-0.01174012,-0.22984336,0.36391866,-9.710882,0.7418897,47.704796,-0.33823493,-2.5423503,-3.4983323,-0.3461061,0.030152878,0.060624942,28.5,29.625,28.9375,32.9375,35.25,36.375
0.020052316,-1.2611152,-1.7133985,-1.4551423,-0.06153962,0.087652415,-0.0509833,-0.38103616,-0.34848943,0.05985599,-3.078352,0.62478477,-0.0005030395,-0.0066796183,0.0021056617,-0.0023645908,0.00499784,-0.006451353,0.0025311676,0.47775903,-1.4257249,1.9577216,-2.1007702,-1.5707701,2.4526763,-0.008969284,0.015950277,-0.014205155,0.0062852753,-0.0014943552,-0.011488981,-0.4213795,0.36391866,-9.749189,0.800085,47.733456,-0.48328686,-2.471858,-3.4708154,-0.33876336,0.01924183,0.030404776,28.5,29.625,28.9375,32.9375,35.25,36.375
0.022052363,-1.7175539,-1.7638922,-1.7168967,-0.049614906,0.088980205,-0.059043452,-0.3810398,-0.34847796,0.059845146,-3.078303,0.6247374,-0.0005254577,-0.0074774134,0.0026230665,-0.0030462693,0.0057158107,-0.007858745,0.0007800543,0.47775847,-1.425688,1.9576963,-2.1007345,-1.5708059,2.4526525,-0.010634335,0.018289516,-0.015416318,0.0067366953,-0.0014868898,-0.011401971,-0.51714754,0.4405331,-9.844957,0.7597976,47.719128,-0.49467903,-2.4987922,-3.5215235,-0.33941823,0.00024008611,-0.0031984453,28.5,29.625,28.9375,32.9375,35.25,36.375
0.024052653,-1.9883236,-1.3691175,-1.7082075,-0.057099964,0.077630155,-0.06794803,-0.38108277,-0.3484859,0.059864607,-3.0783556,0.62476844,-0.00050287764,-0.009079814,0.003050012,-0.0027573393,0.0055645374,-0.00784856,-0.00086659833,0.47770953,-1.4256636,1.9576238,-2.100734,-1.5707701,2.4526162,-0.012958703,0.019874051,-0.018120617,0.007777627,-0.0013609546,-0.012078602,-0.53630114,0.38307226,-9.825804,0.77545905,47.67345,-0.47567526,-2.4353032,-3.485108,-0.32312417,-0.021440972,-0.032529347,28.5,29.625,28.9375,32.9375,35.25,36.375
0.02601475,-1.685959,-1.9440258,-1.7622066,-0.043938372,0.07763113,-0.07281545,-0.38108876,-0.3484755,0.059836917,-3.078315,0.62474,-0.0005914402,-0.0093708,0.003403113,-0.0024191034,0.006211355,-0.008727028,0.000118361015,0.4776854,-1.4255917,1.9575995,-2.1007092,-1.5707701,2.4525795,-0.013745154,0.020044753,-0.019641219,0.010205308,-0.0015314,-0.013849251,-0.57460845,0.2681506,-9.921572,0.7418897,47.67614,-0.620419,-2.4062672,-3.4705765,-0.34785298,-0.047088407,-0.02634161,28.5,29.625,28.9375,32.9375,35.25,36.375
0.028052611,-2.0236132,-1.7556388,-1.532367,-0.03864184,0.07186071,-0.08212968,-0.3811378,-0.3484894,0.059875056,-3.0783536,0.62480646,-0.00046141204,-0.010616472,0.0041860603,-0.0021063613,0.0073587922,-0.00839929,-0.00074155815,0.47767282,-1.4255913,1.9575146,-2.1007211,-1.5707825,2.4526036,-0.015528828,0.020888293,-0.02163414,0.011595029,-0.0027014436,-0.014769956,-0.7086837,0.28730422,-9.902418,0.7351769,47.707485,-0.57455826,-2.4614754,-3.4847703,-0.34347296,-0.060122848,-0.03021013,28.5,29.625,28.9375,32.9375,35.25,36.375
0.030052157,-1.4388478,-0.7204234,-1.5416073,-0.037258975,0.092963524,-0.111262225,-0.3811148,-0.34848803,0.059844136,-3.0783138,0.6247025,-0.00060504006,-0.012215183,0.004732257,-0.0019254193,0.009340249,-0.0066236784,-0.0014648259,0.4776845,-1.4255309,1.9575027,-2.100661,-1.5707716,2.4525554,-0.016303452,0.022597682,-0.023995018,0.011590167,-0.005284013,-0.014814122,-0.7086837,0.21068975,-9.864111,0.784413,47.705692,-0.5720506,-2.3632755,-3.485858,-0.33167577,-0.051351957,-0.027407724,28.5,29.625,28.9375,32.9375,35.25,36.375
0.03205218,-1.7485023,-0.60584366,-1.4804949,-0.015711205,0.0903064,-0.11596917,-0.38117453,-0.34846976,0.05984145,-3.0782888,0.6247754,-0.0005655586,-0.013317793,0.0048190802,-0.0015892319,0.009605874,-0.006212695,-0.0030717193,0.47761214,-1.4254587,1.9574293,-2.100673,-1.5707954,2.4525318,-0.017198907,0.023817122,-0.026360923,0.012494701,-0.0057119355,-0.014100653,-0.51714754,0.0,-9.80665,0.73741806,47.683304,-0.5107362,-2.3902416,-3.4311903,-0.32547292,-0.061687097,-0.060974695,28.5,29.625,28.9375,32.9375,35.25,36.375
0.034052085,-1.8675644,-0.2515263,-1.2039374,-0.0062922034,0.0779737,-0.12672766,-0.38118315,-0.34846517,0.05982186,-3.0782428,0.6248231,-0.00066484284,-0.013953136,0.0045874785,-0.001164574,0.009475902,-0.005493037,-0.0028816892,0.4775882,-1.4253867,1.9573811,-2.1006253,-1.5707835,2.4525435,-0.01723276,0.024321537,-0.028009338,0.012940614,-0.005931212,-0.014322834,-0.49799395,-0.038307227,-9.615114,0.7665104,47.690468,-0.63656247,-2.354805,-3.528057,-0.32700297,-0.09203677,-0.0685623,28.5,29.625,28.9375,32.9375,35.25,36.375
0.036051854,-1.5904313,-0.30470005,-1.2133808,0.014287139,0.065470174,-0.12822014,-0.38121593,-0.3484571,0.059819043,-3.0782483,0.6247468,-0.00065186137,-0.015461901,0.004876484,-0.0007417783,0.010114611,-0.0035764892,-0.0031169779,0.47755185,-1.4253384,1.9573325,-2.1006253,-1.5707964,2.4524589,-0.018197069,0.025315901,-0.030022796,0.0125558805,-0.0073853857,-0.015047463,-0.4405331,-0.11492168,-9.595961,0.74413085,47.674347,-0.6757709,-2.357014,-3.4360423,-0.30272585,-0.10412335,-0.09030822,28.5,29.625,28.9375,32.9375,35.25,36.375
0.03805178,-1.6126082,-0.2730159,-1.5307282,0.02570171,0.05096471,-0.13848026,-0.38123074,-0.348442,0.059807714,-3.0781858,0.62481064,-0.00068454223,-0.018217836,0.0052110883,0.00063283107,0.010597828,0.0009450286,-0.003567276,0.47752738,-1.4252902,1.9572953,-2.1005895,-1.5708212,2.4524822,-0.019705527,0.025914162,-0.03368296,0.011832519,-0.009903802,-0.016097631,-0.34476504,-0.19153613,-9.615114,0.7172743,47.696735,-0.6074588,-2.3178365,-3.3572445,-0.29657075,-0.09279094,-0.07224566,28.5,29.625,28.9375,32.9375,35.25,36.375
0.040051665,-1.4161406,-0.12875757,-1.3480017,0.025685374,0.040338054,-0.15270972,-0.3812999,-0.34843466,0.059824448,-3.07818,0.6248869,-0.0006021497,-0.019907456,0.0063402047,0.00057976285,0.01373589,0.0030166232,-0.004438553,0.47746706,-1.4252297,1.957188,-2.1005895,-1.5708469,2.4524703,-0.020840919,0.027566757,-0.035365265,0.011476906,-0.013647009,-0.016352937,-0.2681506,-0.076614454,-9.672575,0.8403672,47.716442,-0.5689078,-2.3405466,-3.385189,-0.28218204,-0.05142933,-0.09775616,28.5,29.625,28.9375,32.9375,35.25,36.375
0.04205179,-1.3929282,-0.49958137,-1.1404438,0.027066417,0.044838294,-0.1580419,-0.38135004,-0.3484264,0.059841067,-3.0781975,0.6248711,-0.00057168386,-0.021277037,0.007514751,0.0009944572,0.017799154,0.005076185,-0.003803308,0.47740686,-1.4251934,1.9571031,-2.1005647,-1.5708483,2.452398,-0.021232078,0.028421232,-0.03761647,0.012926827,-0.01820433,-0.017368942,-0.2873042,-0.019153614,-9.519346,0.83589023,47.711964,-0.62569916,-2.337225,-3.3779726,-0.2966706,-0.027347244,-0.122346714,28.5,29.625,28.9375,32.9375,35.25,36.375
0.044051655,-1.1267679,-0.5424157,-1.162101,0.011324184,0.044596452,-0.1745368,-0.38137603,-0.34839743,0.059806857,-3.0781138,0.6249308,-0.00065034936,-0.021981623,0.007416802,0.0012059741,0.017035216,0.0047276453,-0.0036631746,0.47734648,-1.4250975,1.9570664,-2.1005409,-1.5708717,2.4523857,-0.022250501,0.029294282,-0.03926387,0.013654933,-0.017370056,-0.018527022,-0.21068975,-0.019153614,-9.519346,0.72622824,47.684196,-0.6048594,-2.2816467,-3.3271756,-0.28821626,0.0037227822,-0.14360346,28.5,29.625,28.9375,32.9375,35.25,36.375
0.046052165,-0.7787697,-0.4722355,-1.1634551,-0.01168092,0.042458046,-0.20389542,-0.38142258,-0.3483998,0.059846267,-3.078116,0.62491274,-0.00050517026,-0.022776188,0.007094386,0.0012395208,0.015439854,0.0034827602,-0.004680066,0.47734597,-1.4250969,1.9569701,-2.100516,-1.5709308,2.4523737,-0.023702845,0.030912504,-0.041382536,0.0145196775,-0.015382627,-0.018966828,-0.1340753,-0.019153614,-9.691729,0.7486078,47.71286,-0.6005682,-2.2529879,-3.3881564,-0.29755855,-0.03238316,-0.1377553,28.5,29.625,28.9375,32.9375,35.25,36.375
0.048052076,-1.0408463,-1.6445477,-1.3011583,-0.016021205,0.019085716,-0.19174105,-0.38145274,-0.3483861,0.059843365,-3.0780823,0.6249054,-0.0006038249,-0.023621721,0.0064548287,0.0021037108,0.012974756,0.0036997804,-0.004666049,0.47728568,-1.4250249,1.9568728,-2.1004202,-1.5709184,2.4523132,-0.024699999,0.031023607,-0.043681774,0.015374052,-0.013298012,-0.019980542,-0.22984336,0.095768064,-9.634268,0.8157518,47.723602,-0.56389266,-2.238904,-3.4681764,-0.30326286,-0.07545613,-0.17471656,28.5,29.625,28.9375,32.9375,35.25,36.375
0.050051875,-0.32194978,-1.3787054,-1.386313,-0.040375397,0.0178188,-0.21496522,-0.3815409,-0.3483697,0.05986809,-3.078068,0.6248639,-0.00040695263,-0.024545502,0.006727742,0.0021804194,0.013791257,0.0040467847,-0.0038845653,0.47723752,-1.4249647,1.9567531,-2.100444,-1.5710148,2.4522412,-0.025459176,0.032264344,-0.04539518,0.015913563,-0.0141846035,-0.021519467,-0.15322891,0.21068975,-9.615114,0.83365434,47.729877,-0.5372375,-2.1236048,-3.3171349,-0.3083246,-0.06218879,-0.16873723,28.5,29.625,28.9375,32.9375,35.25,36.375
0.052051757,-0.9974992,-2.235309,-1.4742328,-0.027963761,0.004122122,-0.21242574,-0.3815568,-0.34832826,0.059837237,-3.0779526,0.62491643,-0.0005446696,-0.025597401,0.007305049,0.0014356266,0.016386207,0.0038966688,-0.0032082126,0.47716525,-1.4248798,1.956705,-2.1003482,-1.5710396,2.4522164,-0.02600015,0.035301413,-0.04717488,0.015987381,-0.01642846,-0.022728462,-0.095768064,0.38307226,-9.691729,0.7642693,47.72002,-0.5732094,-2.1841824,-3.308469,-0.29964718,-0.066752404,-0.1968125,28.5,29.625,28.9375,32.9375,35.25,36.375
0.05405173,-0.908074,-2.0743139,-1.4604466,-0.04031063,0.024240937,-0.20739485,-0.3816132,-0.34833252,0.059852537,-3.0779765,0.62493956,-0.00045853833,-0.02682153,0.007925438,0.0015883665,0.018081868,0.0044825766,-0.0032063385,0.47712898,-1.4248313,1.9566201,-2.100372,-1.5710524,2.4521916,-0.027076924,0.036695715,-0.04935316,0.01703469,-0.01820567,-0.023803065,-0.019153614,0.47884035,-9.576807,0.7642693,47.72002,-0.5777456,-2.233132,-3.3459249,-0.29951853,-0.005778015,-0.21356505,28.5,29.625,28.9375,32.9375,35.25,36.375
0.056052048,-0.40350652,-2.1278713,-1.4720751,-0.03370635,0.051976524,-0.18377137,-0.38168257,-0.34833938,0.059886295,-3.0779996,0.62488633,-0.0003761434,-0.027741581,0.008161846,0.0027425787,0.017591244,0.0063656983,-0.0026391747,0.47709253,-1.4247718,1.9564642,-2.100324,-1.5710763,2.452119,-0.028062351,0.03536796,-0.050640784,0.017751543,-0.018635757,-0.025355315,-0.019153614,0.47884035,-9.576807,0.800085,47.694946,-0.59228534,-2.0759153,-3.2794762,-0.29512912,0.0019065235,-0.21552196,28.5,29.625,28.9375,32.9375,35.25,36.375
0.0580521,-0.85951555,-2.0278046,-1.3556265,-0.043426823,0.042472158,-0.18214895,-0.38172913,-0.34831035,0.059879117,-3.0779178,0.6249648,-0.0004150457,-0.028536765,0.0074499273,0.0029120408,0.015893105,0.0056675714,-0.0010462488,0.47702044,-1.4246876,1.9563683,-2.1002524,-1.5711111,2.4521065,-0.028712483,0.037129257,-0.053178735,0.018358717,-0.016814075,-0.027599877,-0.019153614,0.4213795,-9.576807,0.8157518,47.72808,-0.5636788,-2.0064442,-3.4150088,-0.30388921,-0.007309568,-0.21916243,28.5,29.625,28.9375,32.9375,35.25,36.375
0.060052074,-1.1237206,-2.5117164,-1.3276498,-0.04232586,0.030560838,-0.18119702,-0.38179544,-0.34830415,0.059886985,-3.0779285,0.6249467,-0.00040213234,-0.030274818,0.006878276,0.0031791448,0.015105481,0.006167198,0.00030920698,0.47694814,-1.4246026,1.9562477,-2.1002276,-1.5711111,2.4520216,-0.029597986,0.040011708,-0.05714286,0.018630918,-0.016353134,-0.029839646,-0.038307227,0.51714754,-9.653421,0.8023209,47.719128,-0.59048176,-2.1231513,-3.1849663,-0.28579086,-0.010215331,-0.21020454,28.5,29.625,28.9375,32.9375,35.25,36.375
0.062051818,-0.19923209,-1.8464583,-1.161843,-0.057085164,0.04465948,-0.19315112,-0.38182884,-0.34828287,0.059874333,-3.0778704,0.6249548,-0.00047798653,-0.030089764,0.007685749,0.0022129503,0.016547194,0.00490098,0.00093720504,0.47688773,-1.4245183,1.9561642,-2.100156,-1.571124,2.4519737,-0.03040326,0.04088833,-0.055850342,0.01824893,-0.017054291,-0.03127058,-0.076614454,0.40222588,-9.500193,0.81351066,47.733456,-0.60053086,-2.104642,-3.4104276,-0.2792841,-0.02491368,-0.2165379,28.5,29.625,28.9375,32.9375,35.25,36.375
0.06405186,-0.67800575,-2.136971,-1.1501204,-0.041266944,0.029942919,-0.17363591,-0.38192418,-0.3483035,0.059922494,-3.077957,0.6248938,-0.00027748643,-0.03123788,0.0072479816,0.0016114855,0.01691453,0.003926417,0.0016464319,0.4768518,-1.4244692,1.9560064,-2.1001923,-1.5711478,2.4518888,-0.030758409,0.04483426,-0.059042837,0.018527584,-0.016935851,-0.032335505,-0.076614454,0.38307226,-9.519346,0.8224646,47.719128,-0.62253225,-2.2374523,-3.328034,-0.28267998,-0.0033383241,-0.24186844,28.5,29.625,28.9375,32.9375,35.25,36.375
0.06605183,-0.93608,-1.585297,-1.1335521,-0.030948604,0.023972156,-0.17229496,-0.38198674,-0.34827122,0.059902966,-3.0778575,0.6249685,-0.0003196868,-0.033529926,0.0063198707,0.0035780575,0.014846378,0.0078108595,0.0026540323,0.47676757,-1.4243373,1.9558867,-2.1001318,-1.5711955,2.451864,-0.03124696,0.044988405,-0.06375304,0.018679284,-0.01689455,-0.03382817,-0.11492168,0.34476504,-9.481039,0.800085,47.71823,-0.68281496,-2.2406423,-3.220763,-0.25292337,-0.018014614,-0.2472988,28.5,29.625,28.9375,32.9375,35.25,36.375
0.06805173,-0.58824426,-1.1346277,-0.81401485,-0.020346446,0.046954464,-0.16885921,-0.3820329,-0.34827238,0.05993263,-3.0778933,0.6249187,-0.0003008925,-0.033806723,0.006541272,0.0035325368,0.014461609,0.0071597476,0.0029314905,0.47671926,-1.4243133,1.955778,-2.1000721,-1.5711836,2.45178,-0.032307107,0.045288056,-0.06409111,0.019116146,-0.016253721,-0.03516747,-0.095768064,0.21068975,-9.3661175,0.7911258,47.73256,-0.65925986,-2.0746038,-3.056878,-0.23485318,-0.029486831,-0.25479704,28.5,29.625,28.9375,32.9375,35.25,36.375
0.07005171,-0.64018685,-0.6263788,-0.8820856,-0.014073695,0.053164963,-0.18308516,-0.38210633,-0.34825242,0.059923526,-3.0778377,0.6249638,-0.00026950604,-0.0336284,0.006823258,0.0021864106,0.016326785,0.0044942107,0.004382942,0.4766472,-1.4241925,1.9556583,-2.1000602,-1.5712317,2.4517434,-0.03235612,0.04825272,-0.064569816,0.019852163,-0.016688947,-0.036666214,-0.076614454,0.3256114,-9.346964,0.81351066,47.71823,-0.67410046,-2.1325226,-3.3193703,-0.22707449,-0.035173465,-0.26607397,28.5,29.625,28.9375,32.9375,35.25,36.375
0.072052516,-1.0950723,-0.7317916,-0.7584556,-0.015816461,0.05525683,-0.17861131,-0.38218743,-0.34824768,0.059937473,-3.0778553,0.62485105,-0.00019106922,-0.034670744,0.0061443653,0.0026888868,0.01584626,0.0047118873,0.005637916,0.4765871,-1.424096,1.9555134,-2.1000473,-1.5712675,2.4516108,-0.032315854,0.050086733,-0.06810777,0.02113796,-0.01636622,-0.03788041,-0.17238252,0.21068975,-9.308657,0.7396539,47.705692,-0.7725048,-2.189487,-3.1569378,-0.2179833,-0.07055929,-0.2463104,28.5,29.625,28.9375,32.9375,35.25,36.375
0.07405252,-0.8506558,-0.7458191,-0.66994506,-0.008635083,0.05770824,-0.17461199,-0.3822519,-0.3482428,0.0599523,-3.0778382,0.62488496,-0.00017986268,-0.035477743,0.0062214583,0.0028816625,0.016330322,0.004989106,0.006323285,0.47652695,-1.424012,1.9553698,-2.0999873,-1.5712799,2.451574,-0.032827817,0.05116749,-0.06995327,0.021878196,-0.016926821,-0.039075576,-0.19153613,0.15322891,-9.251195,0.7553206,47.675243,-0.79714155,-2.173317,-3.2079,-0.21429881,-0.05274768,-0.2817081,28.5,29.625,28.9375,32.9375,35.25,36.375
0.076051675,-1.1263676,-0.7333418,-0.68803227,0.0023615595,0.04656911,-0.17942773,-0.38233095,-0.34824145,0.059958164,-3.077835,0.62484574,-0.00014244653,-0.036578547,0.0060930536,0.0030519702,0.01694068,0.005819464,0.0062793167,0.47646698,-1.4238915,1.9552134,-2.099963,-1.5713037,2.4514902,-0.033006832,0.05289934,-0.07237792,0.022114415,-0.017854536,-0.03920739,-0.17238252,0.17238252,-9.385271,0.7329411,47.66271,-0.8376392,-2.1385834,-3.105421,-0.18406048,-0.049341805,-0.30726376,28.5,29.625,28.9375,32.9375,35.25,36.375
0.07805171,-1.064825,-0.28469613,-0.5701625,-0.0072216787,0.04205789,-0.17979258,-0.38240898,-0.3482168,0.0599418,-3.0777726,0.6248516,-0.00013860295,-0.037381325,0.006140924,0.003333298,0.017320788,0.005839739,0.008312738,0.47638273,-1.4237474,1.9550809,-2.0999386,-1.5713524,2.4514177,-0.033596177,0.053967852,-0.07452759,0.02334779,-0.018206906,-0.04182776,-0.21068975,0.17238252,-9.32781,0.7105615,47.734352,-0.8864042,-2.0957735,-3.0936532,-0.17543131,-0.06591907,-0.2965888,28.5,29.625,28.9375,32.9375,35.25,36.375
0.080051675,-0.7364521,-0.54331654,-0.70893914,-0.0056167436,0.039698187,-0.1707637,-0.3824807,-0.34822062,0.059981864,-3.0777822,0.62477607,-6.0384496e-05,-0.0382564,0.0063938983,0.0032098596,0.018527722,0.0055285203,0.0093454765,0.47634655,-1.4236869,1.9549011,-2.0998547,-1.5713881,2.4513333,-0.034242675,0.055869736,-0.07665868,0.024406925,-0.019138688,-0.04350448,-0.24899697,0.15322891,-9.212888,0.78217715,47.677036,-0.96026576,-2.1808794,-3.097509,-0.15079957,-0.04301511,-0.31303602,28.5,29.625,28.9375,32.9375,35.25,36.375
0.08205223,-0.43347663,-0.3690167,-0.67678636,-0.008367505,0.040041897,-0.1756421,-0.38255528,-0.34820062,0.05997927,-3.0777552,0.62475127,-9.124585e-05,-0.039057195,0.006634345,0.0031552708,0.019212047,0.0053871786,0.0074528838,0.47625026,-1.4235666,1.9547561,-2.099795,-1.5714005,2.451225,-0.03504511,0.05727853,-0.07830126,0.025080549,-0.019685138,-0.04241156,-0.30645782,0.15322891,-9.155427,0.7978386,47.72719,-0.94845784,-2.129671,-3.1025794,-0.15867187,-0.041777298,-0.31449687,28.5,29.625,28.9375,32.9375,35.25,36.375
0.08405591,-0.16478994,-0.529793,-0.7782685,-0.011110428,0.05193912,-0.1838181,-0.38264024,-0.34819087,0.05997589,-3.0777345,0.6247467,-4.28196e-05,-0.039631493,0.0064660353,0.002985433,0.019390788,0.004914452,0.008433656,0.4761781,-1.4234341,1.9546126,-2.0997946,-1.5714368,2.4511528,-0.03530321,0.058998674,-0.07999045,0.025547497,-0.019630572,-0.043649748,-0.2681506,0.22984336,-9.212888,0.7866488,47.71823,-0.96612513,-2.1638803,-3.0788004,-0.13242278,-0.0730681,-0.35592636,28.5,29.625,28.9375,32.9375,35.25,36.375
0.08605232,-0.9469634,-0.87020135,-0.99614817,-0.015388524,0.045467604,-0.17173816,-0.38271344,-0.34816885,0.059982985,-3.0776684,0.62471247,-2.4947353e-06,-0.04029925,0.0064760544,0.0034477075,0.020065831,0.0054465067,0.010746266,0.47611815,-1.4233264,1.9544567,-2.0997217,-1.5715088,2.45108,-0.03537935,0.059575837,-0.081996664,0.026809692,-0.0204789,-0.046035312,-0.21068975,0.17238252,-9.232041,0.7642693,47.683304,-1.0586268,-2.048608,-3.0781324,-0.11468416,-0.04506865,-0.34609005,28.5,29.625,28.9375,32.9375,35.25,36.375
0.08805217,-0.8558381,-0.8956067,-0.9130102,-0.023567261,0.054911923,-0.17644256,-0.3827861,-0.34817246,0.060002632,-3.0776756,0.62463456,-1.8956041e-05,-0.040644396,0.00726326,0.0016214324,0.02331911,0.0014682198,0.013369234,0.4760579,-1.4232165,1.9542645,-2.0996258,-1.5715092,2.4509704,-0.036395233,0.06443212,-0.083830126,0.02881309,-0.021550205,-0.04967023,-0.28730422,0.22984336,-9.212888,0.8023209,47.71286,-1.0750842,-2.30351,-3.0773149,-0.10596566,-0.05463611,-0.32987332,28.5,29.625,28.9375,32.9375,35.25,36.375
0.09005233,-1.1037799,-1.0192204,-0.99381983,-0.022708084,0.054126836,-0.17825134,-0.38287857,-0.3481535,0.060004942,-3.077618,0.62460345,3.700059e-05,-0.04124584,0.0072498377,0.0032680116,0.021463888,0.0030840372,0.014094174,0.47598538,-1.4230732,1.9540848,-2.0995777,-1.5715808,2.450886,-0.037502054,0.061844014,-0.08496945,0.03024405,-0.020643372,-0.051503904,-0.19153613,0.19153613,-9.308657,0.8179876,47.709274,-1.1171871,-2.055717,-3.1508877,-0.10003491,-0.07342948,-0.33670145,28.5,29.625,28.9375,32.9375,35.25,36.375
0.09205215,-0.54014623,-1.3504452,-1.1145021,-0.021813175,0.06320295,-0.17085202,-0.38294786,-0.34810847,0.05998606,-3.0775528,0.6245512,-1.6227523e-05,-0.041438274,0.0072933338,0.0025385632,0.02295529,0.001199604,0.013636095,0.47586536,-1.4229523,1.953976,-2.099517,-1.5716175,2.4507418,-0.037445743,0.06450369,-0.086662844,0.031633932,-0.02111042,-0.05098596,-0.13407528,0.24899697,-9.3661175,0.7911258,47.719128,-1.171246,-2.0213635,-3.1312585,-0.09162777,-0.08404866,-0.35021842,28.5,29.625,28.9375,32.9375,35.25,36.375
0.09405215,-1.2363604,-1.5148073,-1.1500554,-0.01615664,0.03437149,-0.18115394,-0.3830563,-0.34810624,0.06000374,-3.0775409,0.62452805,7.126559e-05,-0.042648483,0.008519973,0.0015002438,0.025058787,-0.00052443193,0.014940253,0.4757927,-1.422807,1.9537615,-2.0994809,-1.5716656,2.4506564,-0.040024504,0.06765718,-0.088069424,0.032378938,-0.02219399,-0.054866083,-0.076614454,0.2681506,-9.3661175,0.800085,47.705692,-1.1312846,-2.1227686,-3.2272623,-0.10389298,-0.07738657,-0.3405553,28.5,29.625,28.9375,32.9375,35.25,36.375
0.096051514,-0.9320813,-1.1937573,-1.2605051,-0.02957649,0.038444716,-0.17311983,-0.3831128,-0.34809285,0.05999845,-3.0775013,0.62444186,2.125205e-05,-0.04319157,0.008749464,0.0017781098,0.025130773,-0.0001386603,0.017576622,0.4757324,-1.4226867,1.953617,-2.099397,-1.5716895,2.4505475,-0.04076349,0.06772795,-0.08889052,0.032813914,-0.022442307,-0.058239218,-0.17238252,0.2681506,-9.423578,0.800085,47.67166,-1.1016514,-2.2144277,-3.1185145,-0.06403298,-0.09145495,-0.3263945,28.5,29.625,28.9375,32.9375,35.25,36.375
0.0980519,-0.99908155,-1.6380888,-1.1687648,-0.017994838,0.03126683,-0.16556703,-0.38321647,-0.3480799,0.06000799,-3.0774717,0.62429845,8.841866e-05,-0.042122826,0.009020671,7.85559e-05,0.027270157,-0.004043298,0.021098303,0.47566056,-1.4225299,1.9534024,-2.0993364,-1.5717615,2.45039,-0.040179193,0.070320964,-0.08825414,0.034026634,-0.022555493,-0.061176445,-0.17238252,0.2681506,-9.442732,0.86945957,47.70211,-1.2155776,-2.0917442,-3.354128,-0.07274999,-0.09331572,-0.27160117,28.5,29.625,28.9375,32.9375,35.25,36.375
0.10005188,-1.0079463,-1.2345893,-0.9576336,-0.020800063,0.04255839,-0.16826285,-0.38329446,-0.34805945,0.05999893,-3.0774236,0.62424976,6.726725e-05,-0.045266557,0.008657937,0.0019186771,0.026219362,-0.00037182673,0.02246767,0.47557595,-1.4223851,1.9532441,-2.0992768,-1.5717977,2.4502814,-0.041922096,0.071742594,-0.09428752,0.034888208,-0.023320284,-0.06428282,-0.19153613,0.22984336,-9.442732,0.8314132,47.70032,-1.3012247,-2.143824,-3.1486514,-0.057917714,-0.099429965,-0.24739784,28.5,29.625,28.9375,32.9375,35.25,36.375
0.102052145,-0.68151337,-0.8875889,-1.0404706,-0.021951083,0.050301753,-0.17297307,-0.3834026,-0.3480388,0.060018685,-3.0773778,0.62429714,5.6719276e-05,-0.04446552,0.010223998,-0.00022706628,0.028740244,-0.0053666537,0.023562744,0.47545525,-1.4222404,1.9530061,-2.0991561,-1.5718216,2.4501963,-0.043980975,0.07402668,-0.092302985,0.036206022,-0.023274079,-0.06743715,-0.076614454,0.17238252,-9.346964,0.78217715,47.70211,-1.1714084,-2.2237856,-3.340242,-0.055288777,-0.110252984,-0.20705098,28.5,29.625,28.9375,32.9375,35.25,36.375
0.104051925,-1.207301,-1.0189811,-1.0768739,-0.0151572535,0.0270828,-0.16702135,-0.38349178,-0.34804183,0.060003597,-3.077385,0.6240857,4.909358e-05,-0.046188008,0.010651578,1.382694e-06,0.029028397,-0.0050387615,0.02444983,0.4753946,-1.4220474,1.9528145,-2.0991318,-1.5718464,2.450003,-0.046043236,0.07595334,-0.095230184,0.037041724,-0.023690362,-0.07038332,-0.076614454,0.1340753,-9.3661175,0.77545905,47.64479,-1.2056803,-2.2318115,-3.3320093,-0.056067348,-0.10926066,-0.1721299,28.5,29.625,28.9375,32.9375,35.25,36.375
0.10605256,-0.5644556,-0.7253413,-0.9621919,-0.025655158,0.04451294,-0.17700405,-0.38359386,-0.34801838,0.060041323,-3.077373,0.6239859,0.00013736771,-0.046538923,0.011637641,-0.0002273305,0.030594097,-0.006053854,0.025729436,0.47529808,-1.4219633,1.9526104,-2.099036,-1.5719064,2.4498458,-0.047501046,0.07646065,-0.09563347,0.03855009,-0.024617948,-0.073119104,-0.19153613,0.17238252,-9.346964,0.75755644,47.67166,-1.1135105,-2.2020826,-3.3806696,-0.0399214,-0.14367871,-0.14597456,28.5,29.625,28.9375,32.9375,35.25,36.375
0.108051874,-1.0594344,-1.1979623,-0.87496185,-0.010851327,0.03002125,-0.16542134,-0.38369587,-0.34800628,0.06004161,-3.0773509,0.6238658,0.00016902285,-0.046373762,0.011707286,-0.0005369377,0.03258867,-0.0073327064,0.027469538,0.47521433,-1.4217945,1.9524058,-2.0989873,-1.5719551,2.44969,-0.046690308,0.07789729,-0.09703559,0.04056281,-0.025808211,-0.074044764,-0.22984336,0.15322891,-9.404425,0.82022345,47.717335,-1.1962596,-2.1600814,-3.4104147,-0.03752494,-0.12754627,-0.09062123,28.5,29.625,28.9375,32.9375,35.25,36.375
0.11005162,-0.7072214,-0.8734441,-0.9350518,-0.008629564,0.038650267,-0.17511797,-0.38375983,-0.347972,0.06000757,-3.0772648,0.6238089,7.086978e-05,-0.04792825,0.011606931,-0.00020722867,0.031284608,-0.0060358387,0.026239343,0.47511786,-1.421626,1.9522747,-2.0989163,-1.5719908,2.4495692,-0.04828628,0.0791118,-0.098949105,0.039504435,-0.025258878,-0.074407816,-0.21068975,0.15322891,-9.423578,0.8179876,47.71823,-1.306214,-2.1191463,-3.509076,-0.016354859,-0.13226573,-0.06854661,28.5,29.625,28.9375,32.9375,35.25,36.375
0.11205246,-0.6017436,-0.9889795,-1.0583544,-0.007678145,0.041743673,-0.17586759,-0.38387868,-0.34796378,0.06004296,-3.077255,0.6237331,0.00017136408,-0.0493507,0.012278888,5.8336267e-05,0.030144947,-0.0061058896,0.022293635,0.47503263,-1.4214936,1.9520234,-2.098832,-1.5720505,2.449438,-0.0514451,0.07967631,-0.10027877,0.039801426,-0.024213826,-0.07362373,-0.15322891,0.17238252,-9.423578,0.78217715,47.709274,-1.0960071,-2.1257198,-3.3813677,0.007094781,-0.17783469,-0.06333877,28.5,29.625,28.9375,32.9375,35.25,36.375
0.11405183,-1.0527295,-1.1620446,-0.9925523,-0.00910891,0.038636323,-0.16845787,-0.38397446,-0.34791756,0.060021017,-3.0771337,0.623652,0.00014641265,-0.04931092,0.012343955,-0.00043617567,0.03097134,-0.008221461,0.01871609,0.4749247,-1.4213009,1.9518312,-2.0987356,-1.5721463,2.4492953,-0.051659916,0.08142502,-0.10156885,0.04159683,-0.023985466,-0.07025871,-0.11492168,0.095768064,-9.385271,0.7642693,47.709274,-1.120203,-2.070788,-3.5977445,0.013863409,-0.194382,-0.065049626,28.5,29.625,28.9375,32.9375,35.25,36.375
0.11605219,-0.7278306,-0.69146645,-0.8637006,-0.017075317,0.054922327,-0.17475241,-0.38407668,-0.34789371,0.06001617,-3.0770829,0.62362266,9.717956e-05,-0.05118267,0.012436286,0.00064897956,0.031006062,-0.006316282,0.016832821,0.47480428,-1.4211205,1.9516143,-2.0986397,-1.5721706,2.4491632,-0.05293412,0.08223457,-0.105258934,0.042798534,-0.024898544,-0.06964411,-0.2873042,0.11492168,-9.32781,0.7777002,47.67614,-1.1583455,-2.005017,-3.355353,0.028559843,-0.18588108,-0.1140958,28.5,29.625,28.9375,32.9375,35.25,36.375
0.11805205,-0.8225185,-1.0197959,-1.028683,0.0014643257,0.058179982,-0.16979961,-0.38420188,-0.3478798,0.06005958,-3.0770962,0.6235492,0.00021545844,-0.051536914,0.013184131,0.00066229,0.033230677,-0.007351483,0.015529398,0.47469622,-1.4210122,1.9513744,-2.0985663,-1.5722193,2.4490077,-0.053596552,0.08309981,-0.10690062,0.045512993,-0.026398689,-0.06900026,-0.38307226,0.13407528,-9.346964,0.7553206,47.704796,-1.1729038,-1.9963386,-3.4558349,0.02010312,-0.20713797,-0.11450967,28.5,29.625,28.9375,32.9375,35.25,36.375
0.120051965,-0.7056035,-0.6049351,-1.0256646,-0.0020718807,0.07196661,-0.17619537,-0.3842881,-0.34786177,0.060045704,-3.0770395,0.6234053,0.00019893046,-0.05298907,0.012913942,0.00014019152,0.03302754,-0.008362719,0.010130885,0.47462365,-1.4208306,1.9511822,-2.0984948,-1.5722789,2.4488528,-0.0548503,0.086969115,-0.110203356,0.045751665,-0.025763335,-0.06485339,-0.30645782,0.11492168,-9.442732,0.83589023,47.69763,-1.1524583,-1.9307158,-3.4035037,0.02311738,-0.2039077,-0.1338616,28.5,29.625,28.9375,32.9375,35.25,36.375
0.12205167,-1.3887758,-0.8487141,-1.124959,-0.0018156868,0.058610342,-0.163292,-0.38439357,-0.34781072,0.060033377,-3.0769408,0.623405,0.00012900952,-0.053983547,0.012996381,0.001545836,0.032206524,-0.0057950434,0.008636476,0.47446752,-1.4206511,1.9509777,-2.0983746,-1.572327,2.4487092,-0.05559471,0.08526047,-0.11156326,0.04615692,-0.026216827,-0.06409941,-0.30645782,0.1340753,-9.442732,0.79560274,47.668976,-1.1814028,-1.9652917,-3.403009,0.037127707,-0.24318549,-0.19595253,28.5,29.625,28.9375,32.9375,35.25,36.375
0.12405247,-1.219586,-0.71212673,-1.171942,-0.020643609,0.066481054,-0.16899894,-0.3844971,-0.34780338,0.0600511,-3.0769012,0.6233395,0.00011749188,-0.054244455,0.013888134,0.0012767186,0.03441876,-0.008483959,0.006537784,0.47438303,-1.4204824,1.950714,-2.0982416,-1.5723633,2.448589,-0.056922477,0.08681892,-0.1136297,0.05006699,-0.026955051,-0.063324936,-0.4213795,0.19153613,-9.461885,0.8023209,47.67614,-1.2147925,-1.8318262,-3.434714,0.01284555,-0.26548183,-0.20218465,28.5,29.625,28.9375,32.9375,35.25,36.375
0.12605178,-1.0819566,-1.2772837,-1.4191474,-0.018482728,0.07059376,-0.16454981,-0.3846143,-0.34777847,0.06004352,-3.0768442,0.6233478,0.00013062847,-0.05424354,0.014816652,0.00015294449,0.03694117,-0.012405595,0.0049155047,0.47426257,-1.4202892,1.9504989,-2.0981925,-1.5724114,2.4484813,-0.05825783,0.089644425,-0.115041725,0.053290185,-0.027407877,-0.063035496,-0.45968673,0.15322891,-9.519346,0.84708,47.66987,-1.1636287,-2.0301576,-3.42703,-0.026197314,-0.24843451,-0.22274646,28.5,29.625,28.9375,32.9375,35.25,36.375
0.12805167,-1.4156536,-1.6450869,-1.4196609,-0.014138055,0.061340023,-0.15619446,-0.38469562,-0.34775972,0.060040582,-3.0767722,0.6232946,6.1670995e-05,-0.055207048,0.0152766295,0.0013699803,0.037602495,-0.011590383,0.0039909775,0.4741782,-1.4201212,1.9502834,-2.09806,-1.5724477,2.448373,-0.059315912,0.088947505,-0.117699236,0.056220036,-0.028375337,-0.06316331,-0.4405331,0.19153613,-9.481039,0.7911258,47.658226,-1.2314883,-1.7505405,-3.4443946,-0.048681088,-0.25027442,-0.2750775,28.5,29.625,28.9375,32.9375,35.25,36.375
0.13005203,-0.9614612,-1.1349939,-1.2514424,-0.021906687,0.07569062,-0.17596236,-0.38482186,-0.34771478,0.0600555,-3.0766969,0.6233182,7.570695e-05,-0.055709854,0.015837116,0.0011421412,0.038967177,-0.013528268,0.0032797572,0.4740218,-1.4199644,1.9500426,-2.0979397,-1.5725077,2.4482412,-0.060532317,0.090677544,-0.11977966,0.05890966,-0.028710552,-0.063665725,-0.36391866,0.1340753,-9.615114,0.8157518,47.703007,-1.203168,-1.8613813,-3.4074843,-0.08486533,-0.288314,-0.2870895,28.5,29.625,28.9375,32.9375,35.25,36.375
0.13205199,-1.3164096,-0.9243533,-1.4061472,-0.019882107,0.06320801,-0.1709308,-0.38494167,-0.34767756,0.06004973,-3.0765886,0.62325823,5.4984514e-05,-0.05764029,0.017193977,0.0016174506,0.040034004,-0.0136343315,0.00023457446,0.47390065,-1.419748,1.949778,-2.0978076,-1.5725921,2.4480968,-0.064094536,0.09177201,-0.12267023,0.061280496,-0.029621912,-0.0641765,-0.38307226,0.17238252,-9.557653,0.7911258,47.675243,-1.0752928,-1.8173337,-3.4312553,-0.11157874,-0.3019372,-0.31952518,28.5,29.625,28.9375,32.9375,35.25,36.375
0.1340524,-0.7698768,-1.0175785,-1.3833483,-0.011943251,0.077548794,-0.17190938,-0.38506925,-0.3476385,0.060053878,-3.0765216,0.6232804,5.310473e-05,-0.056776494,0.016334044,0.0011063663,0.041447833,-0.016053332,0.003426444,0.47374547,-1.4195668,1.9495391,-2.0977108,-1.5726398,2.4479642,-0.061655987,0.093952395,-0.12458535,0.063804306,-0.029783145,-0.06492739,-0.45968673,0.15322891,-9.500193,0.85826975,47.66987,-1.1781929,-1.8254975,-3.4046535,-0.13850607,-0.32434684,-0.34707624,28.5,29.625,28.9375,32.9375,35.25,36.375
0.13605218,-1.3975211,-0.7823965,-1.2658093,-0.003826756,0.057319477,-0.16963582,-0.3851745,-0.34760928,0.060053673,-3.0764387,0.6231879,8.6482e-06,-0.058235068,0.017125404,0.0008864665,0.04260027,-0.017582903,0.00089696486,0.4736365,-1.4193739,1.9492859,-2.0975664,-1.5727004,2.4478083,-0.06415675,0.09665489,-0.12771536,0.06611283,-0.030121488,-0.06489361,-0.36391866,0.095768064,-9.500193,0.8291774,47.67614,-1.1589345,-1.6985612,-3.2031624,-0.183994,-0.34442127,-0.3588653,28.5,29.625,28.9375,32.9375,35.25,36.375
0.13805224,-1.1740531,-0.828931,-1.3965318,0.0054955245,0.05160733,-0.16530558,-0.38527456,-0.34758607,0.060054667,-3.0763695,0.6231559,-4.7028632e-05,-0.061114177,0.017923672,0.0017959365,0.042783964,-0.016735481,-0.002315533,0.47352728,-1.4191927,1.949046,-2.0974338,-1.5727366,2.447688,-0.067819566,0.09883913,-0.13281792,0.06835626,-0.030686647,-0.065337494,-0.34476507,0.095768064,-9.461885,0.81351066,47.684196,-1.0049983,-1.8498498,-3.2346797,-0.21165119,-0.33758342,-0.4167865,28.5,29.625,28.9375,32.9375,35.25,36.375
0.14005208,-1.3410594,-0.54124177,-1.2765081,-0.0065297685,0.039413985,-0.17743807,-0.3854301,-0.34754786,0.060070198,-3.0762959,0.62321585,4.3957865e-05,-0.05969702,0.018316733,-0.0018262378,0.046985153,-0.023952309,-0.00020271332,0.47337168,-1.4189982,1.9487714,-2.0973613,-1.5728205,2.4475796,-0.06690657,0.105454706,-0.13243988,0.069689974,-0.031138793,-0.06653553,-0.3256114,0.19153613,-9.461885,0.90750587,47.70211,-1.0564029,-2.0002992,-3.2251964,-0.2542458,-0.37130868,-0.43842047,28.5,29.625,28.9375,32.9375,35.25,36.375
0.14205205,-0.72511816,-1.0468627,-1.3375945,-0.007779838,0.056943428,-0.17576669,-0.38553813,-0.34749123,0.060063574,-3.0761404,0.6232032,-4.932693e-05,-0.06174739,0.018683845,0.0005833787,0.045761026,-0.019416805,-0.000586793,0.4732271,-1.4187951,1.9485077,-2.0971577,-1.572905,2.4474473,-0.06876052,0.10278604,-0.13505246,0.07036646,-0.032138813,-0.067996934,-0.28730422,0.19153613,-9.461885,0.8291774,47.70032,-1.1116452,-1.919754,-3.1662874,-0.28882828,-0.3621251,-0.4509214,28.5,29.625,28.9375,32.9375,35.25,36.375
0.1440519,-1.1096439,-1.709855,-1.3208268,-0.010057325,0.05604732,-0.16882466,-0.38567495,-0.34745792,0.060073495,-3.0760648,0.6231861,-5.0930674e-05,-0.06278256,0.019694688,-0.0018105892,0.048339445,-0.023144826,0.0015284345,0.4730822,-1.4185888,1.9482187,-2.097026,-1.5729655,2.4473016,-0.07107502,0.10879753,-0.13646057,0.07023958,-0.032756113,-0.07242139,-0.24899697,0.17238252,-9.461885,0.83589023,47.716442,-0.95619285,-1.9545692,-3.1835666,-0.31262866,-0.37804335,-0.49664307,28.5,29.625,28.9375,32.9375,35.25,36.375
0.14605244,-1.2800537,-1.3573796,-1.2068344,-0.03910331,0.06032377,-0.17724408,-0.38581476,-0.34741348,0.060094636,-3.0759811,0.62310886,-2.6713662e-06,-0.064752825,0.019995226,-0.00051456766,0.047546525,-0.01924961,0.004189424,0.4729378,-1.4184092,1.9479321,-2.0968826,-1.5730613,2.44712,-0.07267207,0.107982114,-0.1382089,0.068956435,-0.033848353,-0.07667358,-0.2681506,0.2681506,-9.519346,0.82694155,47.689575,-0.948788,-1.9819349,-3.1656451,-0.33583814,-0.40474093,-0.42867294,28.5,29.625,28.9375,32.9375,35.25,36.375
0.14805244,-1.3854089,-2.0148723,-0.8873323,-0.04747961,0.082654856,-0.17038725,-0.38595062,-0.34737563,0.06010163,-3.0758827,0.6230867,-2.0559302e-05,-0.06685446,0.01969088,-0.00015119884,0.047256555,-0.016409302,0.0075524645,0.47279355,-1.418192,1.9476322,-2.096728,-1.5731338,2.4469748,-0.07333578,0.110167176,-0.14111948,0.067004554,-0.034913633,-0.08069212,-0.40222588,0.21068975,-9.500193,0.91421866,47.71286,-0.9150368,-1.9401617,-3.3515344,-0.3268549,-0.40083414,-0.43483752,28.5,29.625,28.9375,32.9375,35.25,36.375
0.15005255,-1.6708503,-2.2075257,-1.0359308,-0.051903628,0.08691269,-0.17680432,-0.3860887,-0.34735394,0.06011914,-3.0758717,0.6230203,-3.8062484e-05,-0.06808578,0.01990761,-0.00031671269,0.046522643,-0.0143628875,0.016058689,0.4726372,-1.4179995,1.9473447,-2.0966098,-1.5731462,2.4467785,-0.07461032,0.110924326,-0.14091492,0.06385665,-0.03522617,-0.09047046,-0.40222588,0.22984336,-9.32781,0.8537928,47.69763,-0.9554713,-1.9482521,-3.3237147,-0.31557274,-0.41604248,-0.37155926,28.5,29.625,28.9375,32.9375,35.25,36.375
0.1520523,-1.9088987,-1.9190643,-0.84272724,-0.0485735,0.08326362,-0.1651467,-0.3861991,-0.3473091,0.060075197,-3.0757823,0.62286764,-0.00018115036,-0.06960075,0.020487467,-0.00025870005,0.046906166,-0.012963315,0.0171084,0.47248048,-1.4177349,1.9471172,-2.0965025,-1.5731825,2.4465382,-0.076341845,0.11209166,-0.14218783,0.062878355,-0.03623413,-0.09324201,-0.38307226,0.22984336,-9.308656,0.82694155,47.68062,-0.85565096,-1.8763978,-3.301331,-0.3041282,-0.44260406,-0.31079626,28.5,29.625,28.9375,32.9375,35.25,36.375
0.15405202,-1.1320481,-1.1445929,-0.83301747,-0.041636378,0.09802771,-0.18046081,-0.38638,-0.34726986,0.060103502,-3.0757053,0.62284786,-3.4383676e-05,-0.07197969,0.020448504,-0.00063947384,0.04700616,-0.008308764,0.022738993,0.47232434,-1.4175179,1.9467825,-2.0964086,-1.5733036,2.44638,-0.07695919,0.11467577,-0.14295298,0.05693446,-0.038472615,-0.099480875,-0.3256114,0.24899697,-9.270349,0.8537928,47.686886,-0.89175004,-1.8371383,-3.3921218,-0.2597343,-0.39954945,-0.24868935,28.5,29.625,28.9375,32.9375,35.25,36.375
0.15605186,-1.2041904,-0.8348445,-0.6974134,-0.025807785,0.08160807,-0.17282087,-0.38650623,-0.3472602,0.06011803,-3.0757046,0.622674,-1.4601399e-05,-0.07485243,0.020917099,6.891158e-05,0.046862543,-0.0037541627,0.02409521,0.47221562,-1.4173253,1.9465069,-2.0963137,-1.5733398,2.446163,-0.07910645,0.115865804,-0.14527392,0.053933818,-0.04044031,-0.10297489,-0.30645782,0.19153613,-9.174581,0.8157518,47.709274,-0.8167497,-1.8956777,-3.378449,-0.20180249,-0.4075936,-0.19073626,28.5,29.625,28.9375,32.9375,35.25,36.375
0.15805162,-0.90771693,-0.7058113,-0.5369991,-0.017840227,0.073118314,-0.17640445,-0.3866837,-0.34718975,0.060126614,-3.0755928,0.6226493,3.0426161e-05,-0.07583643,0.021420235,-0.0007935843,0.047509436,-0.0046547153,0.024214387,0.4719992,-1.417096,1.9461945,-2.096182,-1.5734481,2.4459457,-0.08073437,0.118556015,-0.1462707,0.053312562,-0.04062481,-0.10471842,-0.4213795,0.15322891,-9.11712,0.87617236,47.694946,-0.75451446,-1.8723379,-3.4139102,-0.14215231,-0.4248886,-0.13658902,28.5,29.625,28.9375,32.9375,35.25,36.375
0.16005246,-1.1680741,-0.7945131,-0.7237818,0.009973499,0.052976172,-0.16238539,-0.38683233,-0.34715834,0.060109895,-3.0755062,0.6225356,9.188301e-05,-0.07764774,0.021992108,-0.00087890495,0.049919732,-0.0032094189,0.02328147,0.4718788,-1.4168311,1.945918,-2.0961344,-1.5735573,2.4457657,-0.081547074,0.12127487,-0.14922643,0.05335214,-0.04344155,-0.10458442,-0.45968673,0.11492168,-9.059659,0.8985519,47.683304,-0.77486354,-1.8829284,-3.4271283,-0.12594019,-0.4191065,-0.12142466,28.5,29.625,28.9375,32.9375,35.25,36.375
0.1620526,-0.7369815,-0.15723361,-0.5452487,0.010267727,0.056329433,-0.1757999,-0.3870066,-0.3471012,0.060117874,-3.0754235,0.62246436,0.000115558265,-0.080595404,0.022795353,0.0010662259,0.04921857,0.0034373498,0.01833449,0.47167394,-1.4165914,1.9455951,-2.0960042,-1.5736421,2.4455273,-0.08404904,0.119384766,-0.15091728,0.050692078,-0.045851387,-0.102127284,-0.34476504,0.1340753,-9.136273,0.7732232,47.683304,-0.77736384,-1.9353745,-3.462126,-0.06727846,-0.40119517,-0.11656245,28.5,29.625,28.9375,32.9375,35.25,36.375
0.16405272,-1.3216091,-0.4131525,-0.5201261,0.012291369,0.057142366,-0.17739837,-0.38719442,-0.34706974,0.060147844,-3.0753908,0.622478,0.0002394277,-0.080331154,0.022990514,-0.0006346314,0.053957958,0.0007852962,0.015246873,0.4714946,-1.4163735,1.9452599,-2.0959308,-1.5737151,2.445361,-0.082176596,0.1240447,-0.152791,0.0524321,-0.048856802,-0.09715666,-0.40222588,0.038307227,-9.040505,0.8291774,47.683304,-0.7479938,-1.877666,-3.478885,-0.02791432,-0.3489164,-0.17126314,28.5,29.625,28.9375,32.9375,35.25,36.375
0.16605176,-1.2682698,-0.7397904,-0.4778505,0.010347062,0.069421664,-0.16278632,-0.38733295,-0.34699294,0.060101256,-3.0752127,0.6224417,0.00015135421,-0.080099925,0.023650704,-0.00030858125,0.055719532,-1.2961911e-05,0.01266005,0.4713026,-1.4160855,1.9450086,-2.0958107,-1.5738233,2.4451694,-0.08231722,0.12337781,-0.15343007,0.05524169,-0.050072648,-0.09469846,-0.47884035,0.076614454,-9.097966,0.76874626,47.691364,-0.88360137,-1.847919,-3.404841,-0.028059017,-0.3243633,-0.18430212,28.5,29.625,28.9375,32.9375,35.25,36.375
0.16805173,-0.99576217,-0.13625477,-0.68958586,-0.0032308376,0.08114559,-0.17637564,-0.38750342,-0.34696543,0.060124323,-3.0751586,0.6223195,0.00027070177,-0.082965106,0.024436895,0.00032401728,0.05582275,0.000598606,0.0039336532,0.47116923,-1.4158564,1.944671,-2.0957139,-1.573932,2.444967,-0.08603585,0.1260097,-0.15831985,0.057002574,-0.05043887,-0.08968742,-0.34476504,0.019153614,-9.212888,0.82694155,47.66271,-0.62580264,-1.8677077,-3.261753,-0.02076451,-0.33616918,-0.26678464,28.5,29.625,28.9375,32.9375,35.25,36.375
0.17005257,-1.1169782,-0.53752756,-0.7871043,0.005091711,0.07478744,-0.17830464,-0.38764653,-0.34691158,0.06013755,-3.0750701,0.62227654,0.00026372573,-0.08244229,0.023697903,0.0005709482,0.058903623,0.0010597019,0.010606416,0.47099084,-1.415664,1.9443845,-2.0955575,-1.5740045,2.4447734,-0.08230512,0.12708136,-0.16062477,0.059208483,-0.05341069,-0.09261377,-0.24899697,0.05746084,-9.212888,0.8023209,47.685097,-0.91157496,-1.8308041,-3.3446357,-0.020121552,-0.3025945,-0.2608961,28.5,29.625,28.9375,32.9375,35.25,36.375
0.17205241,-0.7800959,-0.8458367,-0.8178356,0.00986438,0.0691427,-0.1691118,-0.3878351,-0.34686023,0.060124867,-3.0749032,0.6223029,0.0003140744,-0.08357057,0.024694327,-0.00014470007,0.062105663,-0.00043047837,0.0068107652,0.47082236,-1.4153384,1.9440125,-2.0954378,-1.5741495,2.4446433,-0.08364397,0.13044529,-0.16337001,0.06136475,-0.05559416,-0.0901429,-0.2681506,0.095768064,-9.232041,0.78217715,47.68062,-0.9306761,-1.9971454,-3.3104048,-0.016670631,-0.25689158,-0.27467468,28.5,29.625,28.9375,32.9375,35.25,36.375
0.1740523,-0.96921384,-0.78336424,-1.1693783,-0.0024118687,0.051492926,-0.16816029,-0.38799793,-0.34679607,0.06012893,-3.07477,0.6222355,0.00039169253,-0.08350884,0.025230762,-0.00025653822,0.06418636,-0.001244865,0.007567307,0.47065434,-1.41511,1.9437135,-2.0953166,-1.574294,2.4444506,-0.08353855,0.13095243,-0.16414785,0.063285656,-0.057087593,-0.09078511,-0.24899697,0.19153614,-9.251195,0.80679786,47.69763,-0.9789022,-1.9074991,-3.336525,-0.010352065,-0.2244337,-0.3231724,28.5,29.625,28.9375,32.9375,35.25,36.375
0.1760523,-0.7889457,-1.4940925,-1.5334853,-0.0040394785,0.042425912,-0.16518426,-0.38814306,-0.34671605,0.06008769,-3.0745678,0.6221353,0.00032193793,-0.08421551,0.025775937,-0.0016183783,0.06658211,-0.0042102938,0.0066484683,0.470474,-1.4148078,1.9434255,-2.0951607,-1.574438,2.4442341,-0.08458705,0.13539976,-0.16655289,0.0649519,-0.05790137,-0.0909002,-0.22984336,0.30645782,-9.270349,0.84708,47.67614,-0.9906326,-2.2202566,-3.2252388,-0.0090356255,-0.17674929,-0.32839713,28.5,29.625,28.9375,32.9375,35.25,36.375
0.17805228,-0.7051079,-2.163431,-1.7431023,-0.021121088,0.03971389,-0.17321122,-0.38834894,-0.3467093,0.060143635,-3.0745616,0.62205595,0.00048905035,-0.0848762,0.02582281,-0.00078187836,0.0671812,-0.0040825712,0.0065189563,0.47033006,-1.4145682,1.942995,-2.09504,-1.5745224,2.4440417,-0.08484252,0.13559972,-0.16933542,0.06767791,-0.058491807,-0.09102693,-0.1340753,0.36391866,-9.500193,0.9321212,47.719128,-1.0178609,-1.8434234,-3.3031557,-0.009931587,-0.15334822,-0.35870996,28.5,29.625,28.9375,32.9375,35.25,36.375
0.18005216,-1.0377525,-2.1059706,-1.5456823,-0.058957446,0.027102262,-0.15663803,-0.38848913,-0.34663075,0.060102135,-3.074354,0.6219935,0.00039451933,-0.084884524,0.0266927,-0.0007340258,0.069095224,-0.007205266,0.0071440144,0.47014955,-1.4142675,1.942706,-2.0948708,-1.5746549,2.4438493,-0.08615337,0.13644704,-0.17158139,0.07269839,-0.058804948,-0.09295075,-0.21068975,0.30645782,-9.595961,0.9298854,47.721813,-1.07692,-1.9079882,-3.319603,-0.0368571,-0.12623003,-0.36934495,28.5,29.625,28.9375,32.9375,35.25,36.375
0.18205203,-0.5848003,-2.5994892,-1.6190548,-0.060426056,0.03017132,-0.16391134,-0.38868055,-0.34658945,0.06011426,-3.074257,0.6219906,0.00041313996,-0.08544617,0.02677762,-0.000838046,0.0687743,-0.009081903,0.009435479,0.46995708,-1.4139785,1.9423107,-2.0947149,-1.5747384,2.443668,-0.08748295,0.13809325,-0.17372109,0.07468183,-0.057691466,-0.096572995,-0.095768064,0.30645782,-9.615114,0.83365434,47.7254,-1.0240061,-1.9316108,-3.3061233,-0.03661775,-0.09473781,-0.37411252,28.5,29.625,28.9375,32.9375,35.25,36.375
0.18405195,-0.0663787,-2.1598043,-1.5492743,-0.059697475,0.028707558,-0.17510368,-0.3888406,-0.34651992,0.06011765,-3.0741081,0.62184024,0.00045428006,-0.08398682,0.026722247,-0.001563708,0.069954656,-0.015234098,0.015183586,0.46978924,-1.4137378,1.9419879,-2.0945446,-1.5748934,2.4434257,-0.087133914,0.13983923,-0.1754397,0.08062065,-0.055980165,-0.10197483,0.05746084,0.36391866,-9.634268,0.842603,47.684196,-1.046059,-1.9695896,-3.3828874,-0.10310132,-0.09386757,-0.34126005,28.5,29.625,28.9375,32.9375,35.25,36.375
0.18605252,-0.077585965,-1.8336296,-1.569329,-0.045407105,0.0063297604,-0.17281218,-0.38899362,-0.34647232,0.060091387,-3.073967,0.6217908,0.00036832155,-0.08428811,0.027624214,-0.0021960821,0.069376186,-0.020441186,0.016629532,0.4696201,-1.4134246,1.9416522,-2.0943878,-1.5749763,2.4432442,-0.09079198,0.14182135,-0.17726083,0.084790826,-0.053139556,-0.10708424,0.076614454,0.34476504,-9.557653,0.8672237,47.684196,-0.9538833,-1.9882746,-3.2943542,-0.18569738,-0.1027215,-0.27430886,28.5,29.625,28.9375,32.9375,35.25,36.375
0.1880525,-0.08002769,-1.434812,-1.7349205,-0.024460372,-0.013295273,-0.16937666,-0.38919276,-0.34642476,0.060093172,-3.073864,0.6217047,0.00046394492,-0.08319867,0.026177783,-0.0024257016,0.06805521,-0.022209568,0.027460443,0.4694409,-1.413124,1.9412807,-2.094292,-1.5751079,2.4430249,-0.08845644,0.1426525,-0.17789483,0.08550449,-0.05119968,-0.115587264,0.095768064,0.3256114,-9.500193,0.8806493,47.68062,-1.1330172,-1.9587291,-3.3721194,-0.19216214,-0.11797903,-0.19954237,28.5,29.625,28.9375,32.9375,35.25,36.375
0.1900525,0.29662603,-1.1505102,-1.5649904,-0.009290213,-0.011915817,-0.17075127,-0.3893434,-0.34638682,0.060111668,-3.073796,0.62153745,0.0004430321,-0.0851327,0.026602613,-0.0012689999,0.06556936,-0.021781228,0.025776058,0.46928358,-1.4128959,1.9409326,-2.0941002,-1.575179,2.4427722,-0.09219865,0.14256486,-0.18079644,0.08695465,-0.049202096,-0.11764989,0.095768064,0.2681506,-9.500193,0.88960326,47.690468,-1.0697744,-1.8121582,-3.3210607,-0.2240613,-0.12625255,-0.14578162,28.5,29.625,28.9375,32.9375,35.25,36.375
0.1920523,0.72429687,-0.9054564,-1.3064511,-0.013329438,0.008657946,-0.17929125,-0.38952422,-0.34632495,0.060100038,-3.0736432,0.62144464,0.00037882334,-0.08450549,0.025277512,-0.0019151248,0.065480195,-0.02454863,0.03179428,0.4690804,-1.4125702,1.9405383,-2.0938957,-1.5752867,2.442531,-0.090079956,0.14549997,-0.18314643,0.08875229,-0.04791152,-0.12154798,0.15322891,0.17238253,-9.500193,0.83589023,47.68599,-0.9859278,-2.0301545,-3.4062724,-0.25317726,-0.14060436,-0.079772465,28.5,29.625,28.9375,32.9375,35.25,36.375
0.19405241,-0.022486215,-1.3712622,-1.4540142,-0.012680085,0.0021924407,-0.16633935,-0.3897216,-0.34628633,0.06012546,-3.0735862,0.62135774,0.00044195107,-0.08405574,0.025763994,-0.0041003446,0.06649774,-0.029544959,0.02927813,0.46888787,-1.4123051,1.9401425,-2.0937521,-1.5753702,2.442292,-0.09135336,0.14943129,-0.18287572,0.089448966,-0.046566475,-0.12031089,0.24899697,0.095768064,-9.442732,0.95002913,47.69763,-1.0854213,-1.9320974,-3.4587035,-0.2828227,-0.16609149,-0.06609971,28.5,29.625,28.9375,32.9375,35.25,36.375
0.19605227,-0.22371587,-1.7456331,-1.3662249,-0.014049835,0.017570235,-0.16443464,-0.38987538,-0.34623006,0.060104962,-3.073445,0.6211386,0.00035079021,-0.08585624,0.02585025,-0.0032606493,0.06457179,-0.028073419,0.0240368,0.4687191,-1.4119927,1.9397835,-2.093548,-1.575478,2.442005,-0.09375031,0.14982983,-0.18524227,0.08922348,-0.045536995,-0.117463276,0.076614454,0.095768064,-9.404425,0.9186956,47.690468,-1.0400858,-1.9992146,-3.5330207,-0.30506667,-0.17886284,-0.096471,28.5,29.625,28.9375,32.9375,35.25,36.375
0.19805242,-0.601011,-1.4360901,-1.3547592,-0.027216002,0.024598302,-0.1695142,-0.3900306,-0.34617874,0.06008411,-3.073308,0.6210916,0.00021457307,-0.08650665,0.025318488,-0.0041545955,0.06454485,-0.028406447,0.020925937,0.46852723,-1.4116793,1.9394244,-2.0933459,-1.575538,2.4418018,-0.093454435,0.15302469,-0.18656173,0.08763366,-0.045385268,-0.11404889,0.05746084,0.13407528,-9.461885,0.90527004,47.744205,-1.1466438,-2.0366614,-3.6019444,-0.3056801,-0.18707055,-0.11342876,28.5,29.625,28.9375,32.9375,35.25,36.375
0.2000523,-0.83031017,-1.7309557,-1.369925,-0.023709247,0.03414073,-0.16230147,-0.39021394,-0.34613085,0.060104024,-3.073211,0.62103486,0.00027333922,-0.08919451,0.02432833,-0.0028926674,0.061592843,-0.023634786,0.015560446,0.46834692,-1.4114264,1.9390529,-2.0931914,-1.5756458,2.441599,-0.09437783,0.15412223,-0.19001815,0.08440243,-0.04491733,-0.1096053,0.0,0.15322891,-9.404425,0.91421866,47.731667,-1.1138641,-2.060186,-3.4858375,-0.2764514,-0.20691526,-0.16124353,28.5,29.625,28.9375,32.9375,35.25,36.375
0.20205212,-0.7768076,-1.4060644,-1.2752434,-0.024680035,0.03752762,-0.16482663,-0.39036876,-0.34607685,0.060077347,-3.0730748,0.6209321,0.00017817758,-0.09252476,0.024004508,-0.0013237931,0.05992239,-0.017001491,0.010805199,0.4681664,-1.411114,1.9387163,-2.093025,-1.5757302,2.4413722,-0.09577366,0.15465298,-0.19338883,0.08057465,-0.046447404,-0.10622905,-0.076614454,0.24899697,-9.385271,0.8403672,47.719128,-1.0822599,-2.03152,-3.4130793,-0.24230117,-0.19214791,-0.21611995,28.5,29.625,28.9375,32.9375,35.25,36.375
0.20405202,-1.3422321,-1.8319477,-1.4767864,-0.011952765,0.03139552,-0.15962872,-0.3905604,-0.3460667,0.060108498,-3.0730155,0.62090206,0.00022886379,-0.0942564,0.023486495,-0.0021552092,0.059032287,-0.016082557,0.0068642003,0.4680222,-1.4108247,1.9382738,-2.092858,-1.5758017,2.4412172,-0.09660724,0.1586465,-0.19541945,0.07739068,-0.046074763,-0.103120916,-0.17238252,0.22984336,-9.404425,0.8940802,47.71286,-1.1631706,-1.9233718,-3.3323393,-0.19206281,-0.21257165,-0.27604154,28.5,29.625,28.9375,32.9375,35.25,36.375
0.20605202,-1.3761045,-1.6612831,-1.3942478,-0.034531225,0.045799017,-0.1565385,-0.3907293,-0.34599745,0.06008179,-3.0728784,0.62085366,0.00012021932,-0.095631175,0.022330679,9.982772e-07,0.05436234,-0.011780793,0.006449985,0.46779403,-1.4105132,1.9379381,-2.0926912,-1.5758733,2.4409769,-0.09715868,0.15610406,-0.19706267,0.0756045,-0.043878574,-0.103263214,-0.2681506,0.3256114,-9.500193,0.8247004,47.678825,-1.1592736,-1.9446793,-3.4048018,-0.15495281,-0.26143938,-0.3117629,28.5,29.625,28.875,32.9375,35.3125,36.375
0.20805186,-1.5606549,-2.4960098,-1.3793823,-0.058139402,0.07725725,-0.15863779,-0.39093477,-0.34595573,0.06009938,-3.07277,0.6207574,0.00017213862,-0.09793632,0.023190685,-0.00054083776,0.05491403,-0.011100043,-0.00011921635,0.467613,-1.4101998,1.9374961,-2.092512,-1.5759934,2.4407501,-0.10017487,0.15937182,-0.19932751,0.07424447,-0.044682965,-0.09970176,-0.5554548,0.40222588,-9.5385,0.8940802,47.689575,-1.1223099,-2.0105247,-3.3557453,-0.11879933,-0.27274495,-0.36617184,28.5,29.625,28.875,32.9375,35.3125,36.375
0.21005195,-2.1612074,-3.1691709,-1.5866616,-0.06347586,0.0941646,-0.16490138,-0.39113858,-0.34592888,0.060094792,-3.07268,0.6208127,0.0001683196,-0.097482696,0.022637514,-0.0009426882,0.05568654,-0.011991362,0.0033850567,0.46742153,-1.4098507,1.9370769,-2.0923927,-1.576054,2.4406052,-0.09853833,0.16068219,-0.20010108,0.07482807,-0.04499057,-0.101565294,-0.5554548,0.51714754,-9.5385,0.9097417,47.70659,-1.1763839,-1.9143816,-3.4267411,-0.109229445,-0.27690485,-0.40723276,28.5,29.625,28.875,32.9375,35.3125,36.375
0.21205187,-2.2087266,-2.3726056,-1.3645209,-0.087754935,0.11687131,-0.1709307,-0.39132646,-0.3458577,0.060082566,-3.072517,0.6207991,0.00014673383,-0.09842893,0.024393145,-0.0016918532,0.05859249,-0.013970311,-0.00024568805,0.46720487,-1.4095379,1.936706,-2.092224,-1.5761746,2.4404016,-0.101329595,0.16275561,-0.20131154,0.07703001,-0.046706725,-0.10071063,-0.7086837,0.4213795,-9.519346,0.8851263,47.711964,-1.1625273,-1.9685024,-3.3885307,-0.12285131,-0.30342165,-0.4724741,28.5,29.625,28.875,32.9375,35.3125,36.375
0.2140517,-2.275705,-2.29562,-1.3444906,-0.0818654,0.13249572,-0.18151821,-0.3915187,-0.3458342,0.060105868,-3.0724604,0.6206501,0.00015424963,-0.100330375,0.023120672,-0.00024386022,0.05514115,-0.010289398,0.0032836262,0.4670366,-1.4092374,1.936263,-2.0920336,-1.5762457,2.4401479,-0.10162211,0.16295473,-0.20446709,0.07510437,-0.045321334,-0.10453665,-0.8619126,0.38307226,-9.557653,0.8605109,47.685097,-1.0370158,-1.8703932,-3.4165921,-0.08114262,-0.31425288,-0.5070709,28.5,29.625,28.875,32.9375,35.3125,36.375
0.21605162,-2.4552066,-2.3423665,-1.0285583,-0.058624584,0.121663526,-0.17240816,-0.39170337,-0.34577656,0.060064394,-3.0723372,0.6206408,5.714164e-05,-0.1017149,0.023669928,-7.9054746e-07,0.05464947,-0.011329209,0.007280361,0.46680772,-1.4088764,1.9359163,-2.0919244,-1.5763053,2.4399295,-0.10432095,0.1644182,-0.2072022,0.07702577,-0.04446605,-0.11123085,-0.7469909,0.3256114,-9.481039,0.8403672,47.668976,-1.1187644,-1.8045137,-3.4457567,-0.037937537,-0.3695594,-0.47019398,28.5,29.625,28.875,32.9375,35.3125,36.375
0.21805252,-1.9100317,-1.342036,-1.0407495,-0.032170776,0.1077264,-0.17400467,-0.3919404,-0.34573475,0.060093805,-3.0722635,0.62050635,0.00022342696,-0.10375551,0.024685998,-0.0006190584,0.056469366,-0.011281625,0.012893791,0.46661478,-1.408563,1.9354604,-2.0918052,-1.5764502,2.4396625,-0.106788635,0.16790298,-0.20981744,0.07686716,-0.046158396,-0.11930162,-0.7852981,0.22984336,-9.32781,0.947788,47.71286,-0.9104172,-1.9517686,-3.345827,-0.03477211,-0.37865996,-0.4001568,28.5,29.625,28.875,32.9375,35.3125,36.375
0.22005257,-1.9944236,-0.5083565,-1.2281933,0.0035755741,0.07371625,-0.15975183,-0.39217144,-0.3456963,0.060095247,-3.0721834,0.620466,0.00022901679,-0.10527356,0.0251593,-0.0009949607,0.057032827,-0.010361134,0.019981183,0.4663865,-1.4081901,1.9349941,-2.0916622,-1.5765222,2.4394197,-0.10828446,0.17008765,-0.2112159,0.07544629,-0.04713404,-0.12787594,-0.7469909,0.0,-9.32781,1.0194036,47.723602,-0.900592,-1.8510787,-3.3441944,0.041080583,-0.40366155,-0.34266692,28.5,29.625,28.875,32.9375,35.3125,36.375
0.22205257,-0.8886681,-0.26008812,-1.0396922,0.03006765,0.08795894,-0.17150135,-0.39238408,-0.34564617,0.060097646,-3.072079,0.6204028,0.00024120844,-0.105915576,0.025972735,-0.00037811534,0.05818265,-0.010287841,0.025637114,0.46617004,-1.4078541,1.934565,-2.0915053,-1.576619,2.4391778,-0.109518334,0.16965756,-0.21268715,0.07773948,-0.048238736,-0.13475627,-0.6703765,-0.076614454,-9.289502,0.8627467,47.704796,-0.8779905,-1.8404875,-3.4459124,0.05463326,-0.41024667,-0.250101,28.5,29.625,28.875,32.9375,35.3125,36.375
0.22405246,-1.4453999,-0.29519075,-0.7699832,0.039735526,0.0750662,-0.15961204,-0.39259633,-0.34559867,0.06008031,-3.07197,0.6202806,0.00025051125,-0.106038526,0.026578063,-0.00046578853,0.060743585,-0.012246797,0.029765472,0.46596605,-1.407481,1.9341463,-2.0913846,-1.5767273,2.438912,-0.1097092,0.1710457,-0.21498665,0.08150639,-0.04967984,-0.1390628,-0.7661445,-0.1340753,-9.11712,0.88960326,47.67614,-0.9104328,-1.8970983,-3.4173715,0.051549062,-0.4245284,-0.20246287,28.5,29.625,28.875,32.9375,35.3125,36.375
0.22605251,-1.3289076,0.2636677,-0.81497425,0.050805073,0.07348866,-0.15502821,-0.39282015,-0.34554312,0.06007454,-3.071857,0.62014127,0.0002465432,-0.10632225,0.026749391,-0.00010808273,0.06382824,-0.0137902275,0.029933916,0.46573833,-1.4071082,1.9336904,-2.0912154,-1.5768365,2.4386122,-0.10886697,0.17284961,-0.21906464,0.08653046,-0.05175752,-0.1383708,-0.61291564,-0.30645782,-9.155427,0.88289046,47.667187,-1.0186961,-1.8712888,-3.35987,0.028509391,-0.41771093,-0.15341237,28.5,29.625,28.875,32.9375,35.3125,36.375
0.22805247,-1.1603885,1.0897809,-0.8122204,0.05380387,0.0770867,-0.16576211,-0.39302844,-0.34549212,0.060072895,-3.071745,0.62010187,0.00019134396,-0.10674304,0.029109066,-0.0005192879,0.06802764,-0.017185241,0.025598062,0.4655091,-1.4067593,1.933247,-2.0910218,-1.576909,2.4383733,-0.11190226,0.17389925,-0.22058848,0.091918305,-0.05399384,-0.13705128,-0.40222588,-0.4213795,-9.212888,0.9097417,47.686886,-0.8775314,-1.9367748,-3.3574984,-0.011957257,-0.43109643,-0.1650213,28.5,29.625,28.875,32.9375,35.3125,36.375
0.23005241,-1.4241244,0.59925693,-0.64417326,0.07136796,0.05581505,-0.1688912,-0.3932768,-0.3454159,0.060082886,-3.0716236,0.6200396,0.00029209175,-0.10512139,0.029603623,-0.0012375334,0.07432421,-0.022771297,0.02038906,0.46524623,-1.406422,1.932804,-2.0908868,-1.5770539,2.4380877,-0.10928151,0.17653741,-0.2239591,0.10049601,-0.057080884,-0.12919992,-0.2681506,-0.4405331,-9.040505,0.92093146,47.690468,-1.0759199,-2.0434003,-3.4328878,-0.08447388,-0.4026223,-0.23188347,28.5,29.625,28.875,32.9375,35.3125,36.375
0.23205224,-0.24492769,1.0681978,-0.84113044,0.07249489,0.049044244,-0.16575721,-0.39347142,-0.34534502,0.060054865,-3.071416,0.61996186,0.00021838516,-0.10720428,0.031888466,-0.0017090688,0.07789344,-0.02375935,0.012835801,0.46504074,-1.4060367,1.9323739,-2.0906708,-1.5771989,2.4378612,-0.11333451,0.17926711,-0.22662501,0.10291906,-0.059843857,-0.12567097,-0.1340753,-0.45968673,-9.002198,0.8314132,47.696735,-0.83375084,-2.1358204,-3.2857354,-0.1218671,-0.38251027,-0.28652358,28.5,29.625,28.875,32.9375,35.3125,36.375
0.23405197,0.32012886,0.82746774,-0.8834735,0.07859452,0.031344227,-0.16667406,-0.39371315,-0.34527794,0.060068645,-3.0712864,0.6199716,0.00024138503,-0.105270855,0.03320985,-0.0029869666,0.08399296,-0.029798742,0.0132511,0.46477735,-1.4056879,1.9318951,-2.0904768,-1.577308,2.437621,-0.112110995,0.18095745,-0.22728744,0.11001027,-0.062593095,-0.12484173,-0.076614454,-0.4405331,-9.097966,0.8672237,47.66091,-1.0904232,-2.013022,-3.3298154,-0.18624008,-0.36708876,-0.32255077,28.5,29.625,28.875,32.9375,35.3125,36.375
0.23605205,-0.13017172,0.6755499,-0.95177954,0.06503535,-0.0002037084,-0.169605,-0.39388013,-0.34521535,0.06004924,-3.0711167,0.6197267,0.0001173497,-0.10690865,0.035009846,-0.0032483276,0.08818799,-0.028760986,0.010927784,0.46459663,-1.405339,1.9314765,-2.0902135,-1.5774301,2.43731,-0.113968275,0.18276526,-0.22899798,0.1108575,-0.06684349,-0.12433438,-0.05746084,-0.40222588,-9.078813,0.8224646,47.681515,-0.9897413,-2.131309,-3.3511713,-0.2338802,-0.3128025,-0.35392845,28.5,29.625,28.875,32.9375,35.3125,36.375
0.23805207,0.16310245,-0.015431241,-1.2027912,0.043303158,0.00859927,-0.16644886,-0.39410844,-0.3451331,0.060016993,-3.070892,0.61971813,9.516692e-05,-0.10798611,0.035979103,-0.0036821915,0.09033281,-0.029025413,0.008199244,0.46435618,-1.404918,1.9310225,-2.0900338,-1.577598,2.437094,-0.11539531,0.1847776,-0.23054765,0.11157107,-0.068671376,-0.12300988,-0.05746084,-0.36391866,-9.193734,0.9545008,47.71017,-1.0145786,-2.1312053,-3.4271493,-0.24766445,-0.27755868,-0.37358683,28.5,29.625,28.875,32.9375,35.3125,36.375
0.24005207,0.15178846,-0.7296406,-1.0601511,0.011030753,0.03238639,-0.17900011,-0.39433447,-0.34504712,0.060013205,-3.0706813,0.61969066,6.497735e-05,-0.11021626,0.03556235,-0.0025004973,0.08997918,-0.024286509,0.011851386,0.46410432,-1.4045454,1.9305438,-2.089783,-1.5777549,2.436853,-0.11537428,0.18548551,-0.23365112,0.10951554,-0.07054233,-0.12661658,0.0,-0.1340753,-9.270349,0.9030289,47.694946,-0.96655774,-2.0932152,-3.3506267,-0.25965896,-0.2503538,-0.38279858,28.5,29.625,28.875,32.9375,35.3125,36.375
0.24205221,-0.32906848,-1.3986076,-1.323882,-0.04065027,0.058669124,-0.17894158,-0.3945508,-0.34496713,0.060019836,-3.0704734,0.6195863,7.367597e-05,-0.1125275,0.036540404,-0.0027080823,0.09323634,-0.020061469,0.016153142,0.46388796,-1.4041957,1.930065,-2.0895212,-1.577937,2.436599,-0.115967505,0.18778045,-0.23514523,0.10633784,-0.07541405,-0.13146642,0.038307227,0.17238252,-9.423578,0.85155696,47.70211,-1.0420164,-2.2949004,-3.3572655,-0.2365388,-0.1842757,-0.36828557,28.5,29.625,28.875,32.9375,35.3125,36.375
0.2440521,-1.196553,-2.7165911,-1.4586251,-0.07491429,0.07739789,-0.17335543,-0.39476633,-0.34488988,0.06001192,-3.0702982,0.6193921,4.133864e-05,-0.11431953,0.035717253,-0.002450897,0.090534166,-0.01692885,0.022625878,0.4636598,-1.4038231,1.9295982,-2.0892828,-1.578092,2.4362729,-0.116632916,0.18919778,-0.23650308,0.10217412,-0.07448458,-0.13859966,0.019153614,0.36391866,-9.5385,0.9679317,47.70032,-1.0750227,-2.1606236,-3.3898172,-0.20984532,-0.13868451,-0.31598967,28.5,29.625,28.875,32.9375,35.3125,36.375
0.24605228,-1.8311623,-3.8533118,-1.6401786,-0.10432696,0.07912621,-0.16277605,-0.39495394,-0.34479573,0.059974413,-3.0700624,0.61927944,-0.000104286766,-0.11588725,0.035433184,-0.0024200827,0.08958504,-0.014142979,0.029690666,0.4634201,-1.4034384,1.9291795,-2.089021,-1.5782365,2.4359941,-0.1171413,0.19062369,-0.2375126,0.09874825,-0.074981436,-0.14615172,-0.05746084,0.4405331,-9.653421,0.8493211,47.703903,-1.1602871,-2.1388755,-3.416214,-0.18570265,-0.13752171,-0.22580467,28.5,29.625,28.875,32.9375,35.3125,36.375
0.24805579,-1.2273557,-3.895013,-1.5795933,-0.13754366,0.09062156,-0.17542419,-0.39521414,-0.3447448,0.059995152,-3.0699596,0.6191774,1.427756e-05,-0.11757005,0.033597674,-0.0012675987,0.086509205,-0.009703753,0.0376282,0.46319205,-1.4030658,1.9286655,-2.0888665,-1.5783805,2.4357162,-0.11576699,0.19148588,-0.24046397,0.09540047,-0.07428077,-0.15271784,-0.095768064,0.63206923,-9.730036,0.90527004,47.691364,-1.0629386,-2.0913358,-3.5643835,-0.14790303,-0.10548984,-0.13459143,28.5,29.625,28.875,32.9375,35.3125,36.375
0.25005183,-1.3790586,-3.9923055,-1.7621537,-0.13495028,0.06060846,-0.17195274,-0.39542818,-0.34465492,0.059952628,-3.0697346,0.61899674,-8.121803e-05,-0.11982275,0.034176532,-0.00085211784,0.08328988,-0.008122111,0.03528062,0.46295094,-1.4026333,1.9282106,-2.08864,-1.5785474,2.4353921,-0.120053336,0.1918867,-0.24143036,0.093047075,-0.07216886,-0.15465754,-0.11492168,0.7661445,-9.749189,0.96569055,47.678825,-1.1164619,-2.0897422,-3.5478978,-0.09243341,-0.09151639,-0.0828328,28.5,29.625,28.875,32.9375,35.3125,36.375
0.25205168,-0.6241115,-3.3456318,-1.8808396,-0.112394206,0.032558914,-0.1636609,-0.39566755,-0.34460267,0.059948206,-3.0696316,0.61888,-3.275295e-05,-0.120156586,0.032354113,-0.0004058297,0.08008956,-0.0070008086,0.03461989,0.46272346,-1.4022489,1.9277452,-2.0885088,-1.5786666,2.4351056,-0.118564926,0.1927645,-0.24319726,0.09147831,-0.06981746,-0.1525221,-0.21068975,0.80445176,-9.787497,0.90527004,47.689575,-1.1159258,-2.0220776,-3.6089206,-0.059408188,-0.08751592,-0.075367905,28.5,29.625,28.875,32.9375,35.3125,36.375
0.254052,0.19803143,-2.5191693,-2.0220745,-0.09069513,0.014901797,-0.16485453,-0.39594534,-0.34454662,0.059957933,-3.0695279,0.61878425,8.277035e-05,-0.12112984,0.031826522,-0.0003763604,0.07721061,-0.0075642555,0.026909404,0.46247077,-1.4018394,1.9272183,-2.0883772,-1.5788096,2.434807,-0.120222844,0.19423687,-0.24494794,0.0909763,-0.06696917,-0.14648965,-0.2681506,0.80445176,-9.80665,0.8560339,47.687782,-1.1005768,-2.1306593,-3.6959002,-0.006576112,-0.11590007,-0.111721046,28.5,29.625,28.875,32.9375,35.3125,36.375
0.25605184,0.7384821,-2.0897932,-1.8308152,-0.07918784,0.017969253,-0.17172652,-0.39617643,-0.34446964,0.059967555,-3.0693789,0.61867976,0.00013672779,-0.12149013,0.03160099,-0.0006638409,0.075819716,-0.011154051,0.020306638,0.46223027,-1.4015026,1.9267625,-2.0881846,-1.5789646,2.4345212,-0.12189015,0.19658896,-0.24777904,0.09404023,-0.06411165,-0.14157064,-0.24899697,0.63206923,-9.768343,0.9186956,47.681515,-1.0704145,-1.9923122,-3.7954526,0.0035242334,-0.15931623,-0.17204475,28.5,29.625,28.875,32.9375,35.3125,36.375
0.25805202,0.124309465,-2.016646,-1.8246802,-0.077036284,0.02031452,-0.15924813,-0.39641586,-0.3444391,0.05996282,-3.0692823,0.6185847,0.00014466059,-0.121596284,0.0316534,-0.0011748482,0.07483316,-0.0142630255,0.014995428,0.46202582,-1.4010818,1.9262494,-2.0880282,-1.5790595,2.4342704,-0.12344866,0.1983269,-0.24916035,0.096023835,-0.061834976,-0.13783139,-0.19153613,0.4405331,-9.615114,1.0126908,47.73256,-0.9869598,-2.051428,-3.8217368,0.009869908,-0.17421809,-0.27073976,28.5,29.625,28.875,32.9375,35.3125,36.375
0.2600518,0.13730484,-1.2304872,-1.6176176,-0.06020263,0.036906846,-0.17004135,-0.3966727,-0.34435624,0.059953265,-3.0691035,0.61856955,0.00011388973,-0.121589385,0.03142115,-0.00035084947,0.073946826,-0.017903104,0.009296587,0.46173736,-1.4006612,1.9257339,-2.0878103,-1.5791906,2.4339964,-0.1244873,0.19891325,-0.25322822,0.10236483,-0.05941361,-0.13318223,-0.19153613,0.30645782,-9.595961,0.92093146,47.675243,-1.0237564,-1.9275107,-3.6364784,-0.013827953,-0.20793384,-0.3105221,28.5,29.625,28.875,32.9375,35.3125,36.375
0.26205176,-0.14875145,-0.6160598,-1.6900438,-0.020066084,0.03315604,-0.17034684,-0.39689186,-0.34430557,0.0599307,-3.0689511,0.61850065,-7.0103492e-06,-0.12244766,0.032289695,1.6418358e-05,0.07380614,-0.022116229,0.0028087243,0.46150842,-1.4002283,1.9252309,-2.087581,-1.579274,2.433745,-0.12796302,0.2004718,-0.2573723,0.108654365,-0.057418145,-0.13017602,-0.1340753,0.13407528,-9.576807,0.8851263,47.68599,-0.97616684,-1.9562546,-3.5735898,-0.08655316,-0.25745896,-0.3763346,28.5,29.625,28.875,32.9375,35.3125,36.375
0.26405257,-0.1968895,0.025827644,-1.5424732,0.018138062,0.03190913,-0.1632086,-0.3971606,-0.34423068,0.0599209,-3.068812,0.61852926,-2.5376035e-06,-0.121266015,0.031318247,-0.00024501234,0.07452282,-0.027073432,0.0026091968,0.46120903,-1.3998071,1.9247283,-2.0874236,-1.5793818,2.4334822,-0.12611537,0.20277305,-0.26085845,0.11457885,-0.055859406,-0.12813653,-0.1340753,-0.114921674,-9.615114,0.9030289,47.670765,-0.9766437,-2.166562,-3.5247898,-0.1290156,-0.2903496,-0.4461761,28.5,29.625,28.875,32.9375,35.3125,36.375
0.26605234,0.19936788,0.44619992,-1.3404403,0.038913973,0.041506827,-0.16267148,-0.39739913,-0.34418467,0.059930056,-3.068665,0.61846143,-8.187445e-05,-0.12281663,0.032865275,-6.3692e-05,0.07467465,-0.029974641,0.0005620043,0.46097916,-1.3993863,1.9241532,-2.0871346,-1.5794772,2.4332297,-0.13081755,0.20428008,-0.26406816,0.11889522,-0.054750632,-0.13079281,-0.17238252,-0.2681506,-9.423578,0.92093146,47.675243,-0.78415763,-2.1611078,-3.46005,-0.1935328,-0.3242129,-0.47956187,28.5,29.625,28.875,32.9375,35.3125,36.375
0.2680522,0.41996646,0.874613,-1.056477,0.03795441,0.057370078,-0.1595133,-0.39764088,-0.34412363,0.059916552,-3.0685322,0.61834824,-0.00012013296,-0.12239551,0.03138758,-0.00019353458,0.0747194,-0.031307787,0.011197797,0.46072847,-1.398965,1.9236511,-2.086943,-1.5795854,2.4329262,-0.12806451,0.20651974,-0.26681855,0.120520316,-0.054285172,-0.138673,-0.22984336,-0.3256114,-9.442732,0.97240865,47.67614,-0.97653913,-2.1421554,-3.3391867,-0.21645334,-0.38427448,-0.47182,28.5,29.625,28.875,32.9375,35.3125,36.375
0.270052,-0.51945674,0.21102297,-1.1934972,0.05637464,0.043162074,-0.16082795,-0.3978763,-0.34406978,0.059921898,-3.0683823,0.6182937,-0.00019976986,-0.12411421,0.031285193,0.0001751404,0.07481859,-0.030428827,0.019770626,0.4604882,-1.3985559,1.9231008,-2.0866668,-1.5796813,2.432672,-0.12893488,0.20878759,-0.27049455,0.1210761,-0.05487241,-0.14810285,-0.17238252,-0.4213795,-9.308656,0.9545008,47.686886,-0.9093884,-2.239596,-3.2778847,-0.25243637,-0.40427965,-0.3601622,28.5,29.625,28.875,32.9375,35.3125,36.375
0.27205184,-0.49921572,0.027591405,-1.2085716,0.036730867,0.08023629,-0.17088294,-0.39811692,-0.34399432,0.059924413,-3.0682082,0.6181719,-0.00023146594,-0.12580863,0.030565534,0.00048768596,0.074342035,-0.028514752,0.031167045,0.46023625,-1.398158,1.9225734,-2.086404,-1.5798253,2.4323673,-0.12872167,0.211285,-0.27393484,0.11995712,-0.055422217,-0.15927306,-0.34476504,-0.40222588,-9.346964,0.83365434,47.67345,-0.9660411,-2.2490711,-3.1817012,-0.22707292,-0.4370692,-0.2669741,28.5,29.625,28.875,32.9375,35.3125,36.375
0.27405173,-1.5009612,-0.2352011,-1.2734519,0.010118802,0.09783341,-0.1824715,-0.39836067,-0.3439484,0.05992748,-3.0681088,0.6179945,-0.00028936256,-0.12702304,0.03132325,-6.330888e-05,0.07542859,-0.026159551,0.036321335,0.45999599,-1.3977376,1.9220237,-2.0861666,-1.5799102,2.4320297,-0.1296888,0.2123724,-0.2732205,0.11645217,-0.057524573,-0.16537023,-0.40222588,-0.3256114,-9.442732,0.8985519,47.66808,-0.98937297,-2.3650644,-3.3343396,-0.2302241,-0.45539004,-0.18016444,28.5,29.625,28.875,32.9375,35.3125,36.375
0.27605602,-1.9320884,-0.15185472,-1.1938565,-0.030284643,0.12151978,-0.17042744,-0.39858764,-0.34386468,0.059903175,-3.0679235,0.6178405,-0.00044600925,-0.1288555,0.03201862,-0.00079624896,0.076703295,-0.023177499,0.03652142,0.45971966,-1.3973047,1.921511,-2.0858805,-1.5800194,2.431682,-0.13081308,0.21465789,-0.27329645,0.112099506,-0.060060218,-0.16665925,-0.34476504,-0.2681506,-9.423578,0.8627467,47.68062,-1.0198743,-2.2404976,-3.4451754,-0.17384812,-0.4741657,-0.12781174,28.5,29.625,28.875,32.9375,35.3125,36.375
0.27805188,-1.7967284,-0.9658809,-1.3073566,-0.036876183,0.13668604,-0.1729228,-0.39887026,-0.3438131,0.0599128,-3.0678353,0.6177093,-0.0004363543,-0.1306808,0.03246647,-0.0007378055,0.07520087,-0.02061901,0.030042015,0.45944276,-1.39686,1.9209255,-2.0856783,-1.5801152,2.4313352,-0.13322157,0.21533063,-0.27354756,0.10872425,-0.059850674,-0.16258597,-0.5363012,-0.05746084,-9.500193,0.9164598,47.69763,-0.90014493,-2.2711864,-3.6190827,-0.1242477,-0.5128714,-0.15573733,28.5,29.625,28.875,32.9375,35.3125,36.375
0.28005165,-2.0651183,-1.6482517,-1.5725842,-0.042662837,0.11883603,-0.16207144,-0.39912862,-0.3437274,0.05990087,-3.0676422,0.61763555,-0.0004547324,-0.13290669,0.033911377,-0.0009889356,0.07745867,-0.017545698,0.020936158,0.45916626,-1.3964269,1.9203976,-2.0854518,-1.5802721,2.4310386,-0.13545814,0.21699561,-0.27440706,0.106201805,-0.06322644,-0.15567641,-0.7278373,0.095768064,-9.576807,0.9947882,47.684196,-0.93065774,-2.1900883,-3.6141305,-0.08058107,-0.5015268,-0.21287769,28.5,29.625,28.875,32.9375,35.3125,36.375
0.28205267,-1.7660245,-1.5242857,-1.4497534,-0.04687441,0.10982263,-0.165101,-0.39939463,-0.3436456,0.059893843,-3.0674872,0.61750644,-0.00041563544,-0.13388245,0.033971887,0.0008444425,0.081828564,-0.01084065,0.019992849,0.4588913,-1.3960072,1.9198846,-2.085272,-1.5804309,2.4307039,-0.13194191,0.21523337,-0.27653378,0.10604303,-0.07011106,-0.15114617,-0.80445176,0.17238252,-9.595961,0.9321212,47.677036,-1.0780357,-2.0576863,-3.6823258,-0.046685033,-0.47624665,-0.29543358,28.5,29.625,28.875,32.9375,35.3125,36.375
0.2840517,-0.9224818,-1.0473982,-1.4367832,-0.03226474,0.12290411,-0.17152627,-0.3996585,-0.3435758,0.059902158,-3.0673082,0.6174699,-0.00039099535,-0.13597064,0.03528395,0.0013732539,0.08357038,-0.009285948,0.016544828,0.45863825,-1.3955866,1.9193219,-2.0850327,-1.5805877,2.430452,-0.13452286,0.21630974,-0.2792864,0.107072696,-0.07238406,-0.15024988,-0.7086837,0.24899697,-9.634268,1.0417832,47.677036,-0.92463064,-2.0242193,-3.707666,-0.01975972,-0.457682,-0.3316276,28.5,29.625,28.875,32.9375,35.3125,36.375
0.28605172,-1.7893484,-0.58593506,-1.8540987,-0.024900537,0.08966546,-0.17165725,-0.39996228,-0.3434938,0.059921127,-3.067176,0.61740446,-0.0003466354,-0.1381366,0.03581628,0.002952593,0.08580063,-0.00415487,0.013505307,0.45831436,-1.3951545,1.9187235,-2.0848048,-1.5807213,2.4301052,-0.13450865,0.2159962,-0.28257808,0.10706711,-0.0766607,-0.14714961,-0.80445176,0.28730422,-9.653421,0.9298854,47.686886,-1.0311491,-1.9166819,-3.6850514,-0.011647136,-0.41964906,-0.36386442,28.5,29.625,28.875,32.9375,35.3125,36.375
0.28805268,-1.1028686,-0.8035227,-1.6727649,-0.03472987,0.12426876,-0.1721897,-0.400235,-0.34342614,0.059904374,-3.0670164,0.6173114,-0.00033689235,-0.13954638,0.03678708,0.0029643606,0.08951651,-0.0030215562,0.015813611,0.4580505,-1.3946849,1.9181737,-2.084625,-1.5808667,2.4298048,-0.13487023,0.21807133,-0.28537384,0.10836074,-0.08054503,-0.1497737,-0.6895301,0.34476504,-9.634268,1.0261165,47.693153,-1.0505545,-1.8218826,-3.6109786,0.029900989,-0.37113756,-0.3987786,28.5,29.625,28.875,32.9375,35.3125,36.375
0.29005182,-1.5342423,-1.306653,-1.5064274,-0.04438048,0.11839922,-0.17978622,-0.40051088,-0.34338254,0.05992819,-3.0668914,0.61714685,-0.00025432423,-0.14140339,0.037837982,0.0034563735,0.09383517,-0.0026147668,0.021009546,0.45783412,-1.3942518,1.9175628,-2.0843966,-1.5810245,2.4295025,-0.13561513,0.22074778,-0.29055485,0.112322606,-0.084666036,-0.15566927,-0.40222588,0.22984336,-9.557653,0.9567419,47.678825,-1.04214,-1.8261659,-3.4956772,0.027963186,-0.31433943,-0.37168837,28.5,29.625,28.875,32.9375,35.3125,36.375
0.29205158,-1.0293134,-0.88114506,-1.6201,-0.04061949,0.10715735,-0.17158006,-0.4008284,-0.343257,0.059935335,-3.0666304,0.61716086,-0.00012936561,-0.14078748,0.03920303,0.002780368,0.09932777,-0.0065528825,0.030864714,0.4574984,-1.3938067,1.9169763,-2.0841663,-1.5812773,2.4292107,-0.13526939,0.22265722,-0.2926079,0.11826977,-0.08795209,-0.16514014,-0.28730422,0.24899697,-9.691729,0.900793,47.70032,-1.1174192,-1.791858,-3.400023,-0.032605104,-0.27255327,-0.2796967,28.5,29.625,28.875,32.9375,35.3125,36.375
0.29405257,-0.79052186,-0.6485525,-1.578899,-0.026672129,0.07486082,-0.16852988,-0.40109834,-0.34319234,0.059923172,-3.0664706,0.61697066,-9.932732e-05,-0.1404401,0.04142508,0.0025509573,0.104328826,-0.012119533,0.037784554,0.45725757,-1.3933378,1.9164132,-2.0839713,-1.581446,2.4288726,-0.13741846,0.2237034,-0.29530886,0.12698892,-0.09007192,-0.17418048,-0.36391866,0.22984336,-9.730036,0.97464454,47.66987,-1.008218,-1.8764262,-3.3897376,-0.093789905,-0.20532921,-0.20863754,28.5,29.625,28.875,32.9375,35.3125,36.375
0.2960526,0.22568163,-0.2661452,-1.4696852,-0.021673566,0.055621758,-0.17644937,-0.4014088,-0.3431138,0.05995051,-3.0663457,0.6167879,3.286504e-06,-0.13881642,0.043870237,-0.00073395064,0.11230095,-0.018456303,0.040877227,0.45695794,-1.392904,1.9157933,-2.0837438,-1.5816153,2.4284756,-0.13739309,0.22771968,-0.293197,0.12999208,-0.09446854,-0.17720185,-0.21068975,0.038307227,-9.5385,0.9097417,47.690468,-1.1895591,-1.9904271,-3.5070944,-0.1462646,-0.14335503,-0.0844523,28.5,29.625,28.875,32.9375,35.3125,36.375
0.29805258,0.64691687,-0.22572753,-1.5897532,-0.009139508,0.030257983,-0.17128894,-0.40170667,-0.34301364,0.059936132,-3.066116,0.61674047,8.040534e-06,-0.13789316,0.044316255,-0.00206234,0.113210164,-0.026231656,0.03854781,0.4566454,-1.3924105,1.9151958,-2.083502,-1.5818065,2.4281645,-0.13890079,0.23105842,-0.29558823,0.13636103,-0.09188455,-0.17639309,-0.095768064,-0.019153614,-9.519346,0.98135734,47.71823,-1.0810649,-2.1209035,-3.6277204,-0.24312443,-0.15071647,-0.07859821,28.5,29.625,28.875,32.9375,35.3125,36.375
0.30005246,0.66769904,-0.4695287,-1.1125991,-0.0104741,0.0099561475,-0.16850285,-0.4019984,-0.34293202,0.059965305,-3.0659456,0.6166513,5.57988e-05,-0.13923596,0.044729345,-0.0020222033,0.11315559,-0.026880866,0.030246804,0.45635644,-1.3919894,1.9145731,-2.083215,-1.5819749,2.4278429,-0.14089836,0.23305961,-0.29841033,0.13775524,-0.091534056,-0.17008398,0.038307227,-0.038307227,-9.481039,0.9858343,47.681515,-1.0283083,-2.230489,-3.6889772,-0.27679384,-0.131805,-0.13341373,28.5,29.625,28.875,32.9375,35.3125,36.375
0.3020522,0.73249453,-1.1109902,-0.8899984,0.0016153161,-0.01057128,-0.1510287,-0.40227768,-0.3428595,0.059955284,-3.065754,0.6164613,0.00010752123,-0.1420052,0.043275528,-0.001392267,0.10747693,-0.024686536,0.020929135,0.45611575,-1.3915075,1.9139851,-2.0830004,-1.582177,2.4275093,-0.14326717,0.23581259,-0.302513,0.13464242,-0.08739404,-0.1631651,0.095768064,-0.15322891,-9.232041,0.9388393,47.698532,-0.93662035,-2.2496238,-3.4778194,-0.2657875,-0.11092538,-0.20610186,28.5,29.625,28.875,32.9375,35.3125,36.375
0.3040519,1.3961828,-0.20524906,-1.1750091,-0.0013027756,-0.014394441,-0.16689385,-0.4026017,-0.3427602,0.05996614,-3.0655525,0.6164976,0.00013758377,-0.1446808,0.041765064,0.0005656286,0.10096345,-0.019872675,0.014154531,0.4557672,-1.3910271,1.91334,-2.0827382,-1.5823435,2.4272108,-0.14515455,0.23534179,-0.3058015,0.13119866,-0.08367633,-0.15830624,0.24899697,-0.076614454,-9.174581,0.8672237,47.683304,-0.8664049,-2.2763305,-3.4092903,-0.23117906,-0.14075045,-0.28828788,28.5,29.625,28.875,32.9375,35.3125,36.375
0.3060521,1.2916933,-0.61529267,-1.0625187,-0.015328842,-0.01860258,-0.16436404,-0.40287897,-0.34268576,0.059975497,-3.0653746,0.6163857,0.0001588042,-0.14775698,0.039500907,0.0022104117,0.094914176,-0.012764212,0.009046602,0.45550334,-1.3905832,1.9127411,-2.0824773,-1.5825108,2.426901,-0.14518936,0.23619574,-0.3092406,0.124742545,-0.081381224,-0.15324594,0.28730422,-0.095768064,-9.193734,0.90750587,47.68062,-0.8221211,-2.112175,-3.306512,-0.13769913,-0.16648442,-0.3649068,28.5,29.625,28.875,32.9375,35.3125,36.375
0.30805218,0.7837963,-1.2594728,-0.85933685,-0.029782837,-0.018888956,-0.16188832,-0.40315786,-0.34258005,0.059958033,-3.0651286,0.61633307,9.856957e-05,-0.14883146,0.038423575,0.0019088469,0.09230854,-0.010752066,0.0068700025,0.45519146,-1.3901021,1.9121546,-2.0821912,-1.5826906,2.4265897,-0.14501432,0.23805514,-0.30991036,0.12057093,-0.07995947,-0.15089415,0.11492168,-0.095768064,-9.251195,1.0082139,47.678825,-0.8672105,-2.0035243,-3.2361732,-0.08406781,-0.18356684,-0.4454757,28.5,29.625,28.875,32.9375,35.3125,36.375
0.3100521,0.106280476,-2.1280077,-1.1192904,-0.02766669,-0.016553234,-0.15317342,-0.40343788,-0.34251305,0.05996274,-3.0649483,0.6163302,6.4409876e-05,-0.15063508,0.037304696,0.003490798,0.08883584,-0.007416142,0.009510216,0.4549155,-1.3896335,1.9115337,-2.0819166,-1.5828212,2.4263365,-0.14549486,0.2378797,-0.3131727,0.11940119,-0.07837679,-0.15402164,0.076614454,0.15322891,-9.289503,0.9388393,47.683304,-0.97490007,-2.0621476,-3.3467038,-0.019007323,-0.19412127,-0.4928999,28.5,29.625,28.875,32.9375,35.3125,36.375
0.31205198,0.35328186,-1.9990231,-1.2422633,-0.060682483,0.029764714,-0.17180467,-0.40371472,-0.34245124,0.05997393,-3.0648189,0.616105,4.367593e-05,-0.14969599,0.03561365,0.004109092,0.086827025,-0.008745659,0.018808909,0.45465213,-1.3891772,1.9109119,-2.08164,-1.5829529,2.42595,-0.14306824,0.23772612,-0.3149932,0.12155413,-0.07608074,-0.16091093,0.0,0.21068975,-9.404425,0.8627467,47.696735,-1.0521331,-1.7535877,-3.338379,-0.014496388,-0.21842313,-0.46480286,28.5,29.625,28.875,32.9375,35.3125,36.375
0.3140519,-0.45118007,-1.9546192,-1.3860463,-0.08447583,0.035469767,-0.17108347,-0.40400663,-0.34235352,0.059957527,-3.064579,0.61597115,-8.708865e-06,-0.15073663,0.036318094,0.0042056637,0.08544645,-0.010614838,0.027919063,0.45435086,-1.3886602,1.9102772,-2.08134,-1.5831441,2.4255977,-0.14627364,0.23861219,-0.31675494,0.1232896,-0.07418053,-0.17323539,0.095768064,0.28730422,-9.500193,0.90750587,47.695843,-0.8847202,-1.8086401,-3.4418173,-0.018486809,-0.2541287,-0.34364653,28.5,29.625,28.875,32.9375,35.3125,36.375
0.31605175,-0.45819294,-2.2850182,-1.3210323,-0.087042086,0.04975064,-0.1709497,-0.40432662,-0.3422693,0.05998714,-3.0644445,0.61585987,6.613416e-05,-0.14981325,0.036525566,0.0037602829,0.08470747,-0.013754925,0.037050694,0.4540268,-1.3882158,1.9096326,-2.0810883,-1.5832995,2.4252224,-0.1469265,0.23840581,-0.31598192,0.12503968,-0.07225163,-0.18303993,-0.17238252,0.24899697,-9.500193,0.8605109,47.684196,-0.9561136,-1.7080129,-3.505001,-0.024587855,-0.31120473,-0.2331382,28.5,29.625,28.875,32.9375,35.3125,36.375
0.31805184,-0.7980002,-2.6108742,-1.4176083,-0.07920403,0.060699176,-0.16410445,-0.4046045,-0.3422311,0.06000438,-3.0643601,0.6157071,4.0812294e-05,-0.14952372,0.03751342,0.0028992083,0.086026475,-0.018857889,0.03960017,0.45377403,-1.3877589,1.9090003,-2.080835,-1.583383,2.4248857,-0.14891315,0.24041513,-0.31748328,0.12960222,-0.071263574,-0.18758218,-0.30645782,0.28730422,-9.461885,0.99702406,47.71017,-0.8610643,-1.5720586,-3.6498232,-0.04112768,-0.33782178,-0.15595016,28.5,29.625,28.875,32.9375,35.3125,36.375
0.32005173,-0.5623266,-1.2811308,-1.4529908,-0.06706098,0.06463569,-0.17843276,-0.4048805,-0.34214336,0.059977178,-3.064162,0.61551267,-7.756588e-05,-0.14731342,0.03843971,0.00025875046,0.090263404,-0.02845332,0.036649972,0.4534742,-1.3872404,1.9083899,-2.0805457,-1.583526,2.4244914,-0.14876682,0.24472518,-0.3181148,0.13639663,-0.07087697,-0.18447635,-0.17238252,0.30645782,-9.749189,1.0686398,47.66987,-0.9031936,-1.9919364,-3.674503,-0.11551304,-0.3568469,-0.13590914,28.5,29.625,28.875,32.9375,35.3125,36.375
0.32205164,-0.8184982,-0.82718045,-1.2687892,-0.04304854,0.055160668,-0.1743992,-0.40519857,-0.3420789,0.05999649,-3.0640244,0.61543095,-5.4354616e-05,-0.14824422,0.040274896,-0.0004333711,0.09326654,-0.03330725,0.026714139,0.4531729,-1.3867471,1.9077076,-2.0802805,-1.583659,2.4241579,-0.1522993,0.24805824,-0.32191455,0.14258249,-0.071415514,-0.17805982,-0.22984336,0.2681506,-9.653421,0.9164598,47.704796,-0.83250403,-1.9772407,-3.728045,-0.20284091,-0.41316882,-0.19732748,28.5,29.625,28.875,32.9375,35.3125,36.375
0.32405242,-0.18966228,-0.4565034,-0.75714725,-0.023238514,0.07098223,-0.18507424,-0.40548113,-0.34201893,0.059994947,-3.0638857,0.6152096,-9.007461e-05,-0.14835413,0.0397102,1.9502873e-05,0.09518905,-0.033219427,0.023978371,0.4529101,-1.3862542,1.9070734,-2.080016,-1.5837921,2.4237757,-0.15018399,0.24935362,-0.32516626,0.14532992,-0.07317486,-0.17317833,-0.28730422,0.17238252,-9.385271,0.8784135,47.66808,-1.0248725,-1.9797597,-3.535746,-0.24382122,-0.44481832,-0.27403894,28.5,29.625,28.875,32.9375,35.3125,36.375
0.3260525,-0.8633322,-0.0023898452,-0.9730819,0.015203449,0.05660917,-0.17291331,-0.40579242,-0.3419197,0.06000615,-3.063657,0.6152751,-0.00015826765,-0.14966048,0.040419325,6.765505e-05,0.09899456,-0.03208639,0.022292241,0.45256224,-1.3857613,1.9063915,-2.0796678,-1.5839375,2.4235,-0.14991415,0.25169414,-0.32843626,0.14689595,-0.077128366,-0.1711632,-0.36391866,0.095768064,-9.3661175,0.9365982,47.66271,-0.96136236,-1.8848708,-3.5209334,-0.27422592,-0.41688552,-0.32037508,28.5,29.625,28.875,32.9375,35.3125,36.375
0.32805192,-1.2290636,0.34810826,-1.1948473,0.028086059,0.06145464,-0.16661525,-0.4061026,-0.34185374,0.05999721,-3.0634923,0.6151441,-0.00017695018,-0.15295944,0.040661547,0.001057526,0.100140005,-0.024414413,0.020895902,0.452274,-1.3852204,1.9057211,-2.079419,-1.5840834,2.4231524,-0.15023439,0.25287873,-0.3310719,0.14193209,-0.08155851,-0.17002404,-0.38307226,0.0,-9.461885,1.0126908,47.70032,-1.0514145,-1.8608682,-3.550818,-0.23822653,-0.39468902,-0.358496,28.5,29.625,28.875,32.9375,35.3125,36.375
0.33005187,-1.342198,-0.16674,-0.980628,0.0032509065,0.09199233,-0.18142405,-0.40642232,-0.34176823,0.060039792,-3.063332,0.6150111,-6.343762e-05,-0.1558333,0.04115402,0.001463195,0.10261471,-0.018246427,0.024217105,0.4519741,-1.3847872,1.9050516,-2.0791333,-1.5842775,2.4227912,-0.15026653,0.25492147,-0.33352962,0.1377961,-0.086556196,-0.17331314,-0.40222588,0.038307227,-9.461885,0.97464454,47.672558,-1.0924463,-1.8951453,-3.4600306,-0.21973227,-0.34404668,-0.35926956,28.5,29.625,28.875,32.9375,35.3125,36.375
0.33205172,-2.0220962,-0.80527556,-0.85258025,-0.04434512,0.11485508,-0.17997822,-0.40669838,-0.34170052,0.060007915,-3.0631166,0.61473,-0.00015656768,-0.15882231,0.040705193,0.0024240445,0.102160946,-0.011143334,0.032679483,0.45173392,-1.384222,1.904394,-2.0788357,-1.5844578,2.4224048,-0.15012518,0.25611937,-0.33602932,0.13235426,-0.089405134,-0.1815823,-0.47884035,-0.05746084,-9.289502,0.84484416,47.66808,-1.1802588,-1.9224403,-3.4555836,-0.1358771,-0.34492588,-0.3074794,28.5,29.625,28.875,32.9375,35.3125,36.375
0.33405164,-2.4735258,-1.5979502,-0.71063566,-0.056299355,0.121860854,-0.1838454,-0.40705347,-0.34160164,0.060033735,-3.0629482,0.61468595,-5.446374e-05,-0.16178022,0.042231917,0.0025405923,0.106587425,-0.004818937,0.04370568,0.4513739,-1.3837289,1.9036998,-2.0785859,-1.5846404,2.4220402,-0.15080443,0.25788438,-0.3374603,0.12805873,-0.09631297,-0.1932005,-0.4405331,-0.038307227,-9.481039,0.86945957,47.68062,-1.1965432,-1.8905237,-3.3164432,-0.06373009,-0.27170107,-0.18147707,28.5,29.625,28.875,32.9375,35.3125,36.375
0.33605167,-2.2781742,-1.4122554,-0.9399399,-0.054850154,0.106383905,-0.18565814,-0.40737525,-0.34152392,0.06003478,-3.0627742,0.6144745,-6.728275e-06,-0.16321154,0.042592842,0.0022446471,0.107737415,-0.004029694,0.048910696,0.4510854,-1.3831998,1.9030193,-2.0783346,-1.5848325,2.4216433,-0.15158364,0.26033568,-0.33963004,0.12742525,-0.09779638,-0.19915745,-0.3256114,-0.038307227,-9.576807,0.842603,47.67614,-1.1696234,-1.8656726,-3.4942968,-0.045154385,-0.2058539,-0.09990917,28.5,29.625,28.875,32.9375,35.3125,36.375
0.33805186,-1.5059705,-1.0237238,-0.84142476,-0.037089862,0.09147155,-0.17917752,-0.40769765,-0.3414084,0.060026187,-3.0625298,0.614308,4.4364242e-05,-0.16331166,0.044054337,0.0017100978,0.11179189,-0.0045097643,0.045661695,0.45076165,-1.3826828,1.9023727,-2.0780709,-1.5850738,2.4212487,-0.15191054,0.2610838,-0.33967924,0.12890165,-0.10124439,-0.19618018,-0.5363012,-0.095768064,-9.442732,0.9567419,47.705692,-1.2873201,-1.985832,-3.5625768,0.009246907,-0.16741854,-0.066246435,28.5,29.625,28.875,32.9375,35.3125,36.375
0.34005168,-0.7919249,-0.090494014,-1.114643,-0.011298827,0.061983403,-0.18368427,-0.4080414,-0.3413477,0.06002889,-3.0624218,0.6141347,0.00014767639,-0.16523981,0.04268638,0.0034769126,0.10984704,0.0007857904,0.03921322,0.45046225,-1.3821423,1.9016927,-2.077904,-1.5852302,2.4208558,-0.15069972,0.26108637,-0.34344578,0.12710513,-0.101749,-0.18850957,-0.6512228,-0.076614454,-9.442732,0.93436235,47.66987,-1.3284097,-1.8482475,-3.6071227,0.03420055,-0.13472423,-0.12031497,28.5,29.625,28.875,32.9375,35.3125,36.375
0.3420518,-0.20468573,0.057967443,-1.0942912,0.012917913,0.05452604,-0.18122584,-0.40839016,-0.34127137,0.060057092,-3.0622427,0.61405873,0.00026871922,-0.16570958,0.04287844,0.0027613274,0.108346656,-0.0024140899,0.029278316,0.450161,-1.3816255,1.9009613,-2.0776398,-1.5854334,2.4205315,-0.15304679,0.26343045,-0.34504887,0.12862578,-0.09894611,-0.18095046,-0.5363012,-0.095768064,-9.3661175,0.9388393,47.705692,-1.2275777,-1.7417741,-3.6002443,0.0840041,-0.13934015,-0.1930708,28.5,29.625,28.875,32.9375,35.3125,36.375
0.34405175,-0.9366191,-0.11139361,-1.0049399,0.018937036,0.015973572,-0.17419054,-0.40871462,-0.34116167,0.060037848,-3.0620112,0.61388075,0.0003031606,-0.16446777,0.042199105,0.0028725595,0.10810932,-0.006457846,0.025284924,0.44983754,-1.3810843,1.9003147,-2.0773985,-1.5856603,2.4201283,-0.15192546,0.26396155,-0.34720027,0.13378143,-0.09695053,-0.17584732,-0.57460845,-0.11492168,-9.289503,0.9835985,47.677036,-1.3982139,-1.601449,-3.6166902,0.07381868,-0.13818906,-0.2955919,28.5,29.625,28.875,32.9375,35.3125,36.375
0.34605226,-0.2211458,0.33932066,-1.0242691,0.0019506274,0.010750132,-0.18219902,-0.4090385,-0.34108412,0.06003624,-3.0618231,0.61376727,0.00026433487,-0.16171938,0.042533584,0.0001794507,0.10908502,-0.020072334,0.017020179,0.44952524,-1.3805304,1.899598,-2.0770957,-1.5858148,2.419771,-0.15324135,0.26873046,-0.34899333,0.14352079,-0.09185774,-0.16894914,-0.53630114,-0.11492168,-9.251195,0.98807013,47.661808,-1.4060404,-1.7547007,-3.6180296,0.010707251,-0.17746942,-0.39392078,28.5,29.625,28.875,32.9375,35.3125,36.375
0.3480523,0.29961827,0.12725402,-1.0238746,-0.012737214,0.0076380298,-0.19400509,-0.4093614,-0.34099072,0.06004868,-3.061575,0.61367464,0.00027089132,-0.16103558,0.04354583,-0.0003306064,0.11150508,-0.02845781,0.014142912,0.44922486,-1.3800008,1.898868,-2.0767448,-1.5860304,2.4194467,-0.15519518,0.27159858,-0.3536088,0.15381828,-0.09041672,-0.16803014,-0.34476504,-0.05746084,-9.155427,0.9925471,47.691364,-1.4170125,-1.9219322,-3.5125988,-0.09249826,-0.24057782,-0.48185796,28.5,29.625,28.875,32.9375,35.3125,36.375
0.3500522,-0.3948628,-1.1053655,-0.9284066,-0.0048956084,-0.014958894,-0.1734404,-0.40968177,-0.34090656,0.060041986,-3.06135,0.6136616,0.00023112551,-0.1599115,0.043877155,-0.0011825808,0.1128669,-0.03637682,0.019257808,0.44891238,-1.3794472,1.8981632,-2.076443,-1.5861973,2.419157,-0.15600559,0.2744057,-0.35689485,0.1618673,-0.08831216,-0.17397045,-0.19153613,-0.17238252,-9.308656,0.9858343,47.674347,-1.2428156,-1.9952024,-3.4535666,-0.18336685,-0.22687313,-0.47334668,28.5,29.625,28.875,32.9375,35.3125,36.375
0.35205206,-0.2562408,-0.7784025,-0.9329848,-0.007584932,-0.020691974,-0.18255015,-0.40999562,-0.3407958,0.060026165,-3.061092,0.6135428,0.00014190961,-0.16138369,0.044839192,-0.0016257279,0.11148719,-0.03998997,0.0265776,0.44857463,-1.3788936,1.8974694,-2.0760953,-1.5863885,2.4187806,-0.16041559,0.27715236,-0.3598554,0.1644822,-0.085703894,-0.18571861,-0.1340753,-0.095768064,-9.500193,0.9365982,47.698532,-1.0302057,-2.0652897,-3.4084527,-0.25035936,-0.27475318,-0.40939182,28.5,29.625,28.875,32.9375,35.3125,36.375
0.35405198,-0.42857224,-1.4923356,-0.561988,-0.02830871,0.009703183,-0.18299842,-0.4103301,-0.34071058,0.060026802,-3.0609145,0.61342096,6.0031172e-05,-0.16301805,0.04384841,-0.0004195707,0.107412994,-0.03582258,0.038064167,0.44822693,-1.3783294,1.8967274,-2.075762,-1.5865201,2.4183812,-0.16094993,0.27631488,-0.36092204,0.16061506,-0.08405091,-0.19775103,-0.038307227,-0.11492168,-9.193734,0.9567419,47.67614,-1.1280607,-2.0701857,-3.4014301,-0.2478598,-0.32559276,-0.27558538,28.5,29.625,28.875,32.9375,35.3125,36.375
0.35605192,-0.9928667,-1.7563657,-0.31144014,-0.05931919,0.034021303,-0.17449407,-0.41064733,-0.34064054,0.060035788,-3.0607505,0.6131156,5.2909505e-05,-0.16672538,0.04251444,0.0004788834,0.10188597,-0.02952008,0.041829664,0.44795,-1.3777888,1.8959974,-2.0754411,-1.5866989,2.4179358,-0.16293335,0.27835467,-0.3639545,0.15337536,-0.08193951,-0.20351754,-0.038307227,0.038307227,-9.002198,0.85826975,47.661808,-1.035784,-1.8471223,-3.3967934,-0.20281124,-0.37253654,-0.18602361,28.5,29.625,28.875,32.9375,35.3125,36.375
0.358052,-1.4784864,-2.1223876,-0.5599013,-0.057976708,0.049576633,-0.18174542,-0.41095912,-0.3405506,0.060022656,-3.0605457,0.61297655,-9.03317e-05,-0.16909587,0.041818246,0.0010337789,0.09849189,-0.023990368,0.03721272,0.447614,-1.3772236,1.8952802,-2.075084,-1.586831,2.4175413,-0.16395909,0.27893916,-0.36466715,0.14705212,-0.08131106,-0.19991764,-0.11492168,0.17238252,-8.944737,0.92764956,47.690468,-1.07631,-1.8621101,-3.3688097,-0.12556824,-0.40826863,-0.1779007,28.5,29.625,28.875,32.9375,35.3125,36.375
0.3600519,-2.0472705,-2.759722,-0.47584212,-0.058779974,0.06002463,-0.16585459,-0.41128406,-0.34046638,0.05999011,-3.0603511,0.6128243,-0.0002191835,-0.17211233,0.041550018,0.0016125557,0.09581268,-0.018105885,0.027752327,0.4472772,-1.3766109,1.894564,-2.0747874,-1.586963,2.4171362,-0.1657983,0.2801523,-0.36625713,0.14103678,-0.08142354,-0.19227739,-0.22984336,0.15322891,-9.097966,0.9567419,47.681515,-0.97539526,-1.8319454,-3.6445942,-0.028649751,-0.43150607,-0.25677285,28.5,29.625,28.875,32.9375,35.3125,36.375
0.36205176,-1.3582941,-1.9625751,-0.3755508,-0.066298544,0.06268539,-0.17846504,-0.41168222,-0.34036896,0.060021847,-3.0601652,0.6127872,-3.3046046e-05,-0.1742439,0.04189537,0.0028756214,0.09612608,-0.0144067155,0.021495448,0.446917,-1.376058,1.8937849,-2.0745475,-1.5871919,2.4167783,-0.16684736,0.28036863,-0.36947066,0.14085476,-0.08327072,-0.18704122,-0.21068975,0.22984336,-9.002198,0.9835985,47.684196,-0.9518283,-1.7501748,-3.4807591,0.012030905,-0.45338213,-0.32610258,28.5,29.625,28.875,32.9375,35.3125,36.375
0.36405256,-1.0486971,-1.3981795,-0.869845,-0.029796699,0.04217203,-0.1871097,-0.41201752,-0.34029198,0.060020305,-3.0600033,0.61263216,-6.366375e-05,-0.1747025,0.043228023,0.0028520476,0.10041826,-0.014851863,0.019777514,0.44659287,-1.3754929,1.8930558,-2.0742595,-1.5873369,2.4163797,-0.16707532,0.2813752,-0.3713885,0.14400774,-0.08696834,-0.18548886,-0.34476504,0.3256114,-9.040505,0.96569055,47.629562,-0.8930565,-1.61661,-3.5272398,0.015836347,-0.45897633,-0.36641586,28.5,29.625,28.875,32.9375,35.3125,36.375
0.3660526,-0.94713503,-0.9135213,-0.88993347,-0.014297505,0.045392692,-0.17995794,-0.4123201,-0.34021097,0.05998481,-3.059789,0.61249256,-0.00012901101,-0.17580383,0.044264413,0.0021868849,0.105654195,-0.014738573,0.02229152,0.44630483,-1.3749156,1.8923978,-2.0740073,-1.5875067,2.416034,-0.16662703,0.28478637,-0.37435195,0.14564677,-0.091817014,-0.18747059,-0.45968673,0.28730422,-9.078813,0.947788,47.66987,-0.9059281,-1.7120013,-3.4879713,0.030754305,-0.4249606,-0.39150333,28.5,29.625,28.875,32.9375,35.3125,36.375
0.36805257,-1.3092936,-0.62742394,-0.72864556,0.013252509,0.041394554,-0.17860064,-0.41268152,-0.34011003,0.059978608,-3.0595663,0.6123463,-0.00012218537,-0.17633492,0.047645915,0.0013168813,0.113549344,-0.01930897,0.02480989,0.44595596,-1.3743141,1.8916329,-2.073705,-1.5877126,2.4156244,-0.1694894,0.28736803,-0.37716755,0.15326919,-0.09707245,-0.1927645,-0.34476504,0.24899697,-9.097966,1.1133988,47.70211,-0.88033956,-1.76285,-3.429564,-0.028528102,-0.39628768,-0.3615266,28.5,29.625,28.875,32.9375,35.3125,36.375
0.37005252,-1.8943543,-0.3658199,-0.86183834,0.046012416,0.031666514,-0.17039876,-0.41302502,-0.34000084,0.05996869,-3.0593314,0.61219233,-0.00014329214,-0.1762451,0.049628668,0.0016990624,0.12054921,-0.02252525,0.035936102,0.44560808,-1.373737,1.8909029,-2.0733907,-1.5879186,2.4152126,-0.1694983,0.28830573,-0.381125,0.16196427,-0.1021897,-0.20381244,-0.34476504,0.17238252,-9.059659,1.0126908,47.67793,-0.90486497,-1.8824589,-3.3539746,-0.119672865,-0.33656138,-0.25698882,28.5,29.625,28.875,32.9375,35.3125,36.375
0.37205243,-1.256709,-0.102202505,-1.2149204,0.06020629,0.05182039,-0.17872387,-0.41339734,-0.33989435,0.059975326,-3.0590832,0.6120545,-0.00015535274,-0.17286912,0.052654937,-0.002250219,0.13116357,-0.03324357,0.04587078,0.44524863,-1.3731238,1.8900789,-2.0730174,-1.5881366,2.4148014,-0.16857105,0.29234576,-0.37857977,0.16940708,-0.107307546,-0.21273252,-0.36391866,0.05746084,-9.212888,0.9925471,47.71465,-1.0446359,-1.9360715,-3.6030922,-0.21990633,-0.29079556,-0.13117412,28.5,29.625,28.875,32.9375,35.3125,36.375
0.37405235,-1.7037052,-0.047198083,-1.0480002,0.02989491,0.059191514,-0.1780321,-0.4137383,-0.33979574,0.059960324,-3.058816,0.6118242,-0.0002135242,-0.17376451,0.05381346,-0.0024883777,0.13613865,-0.03343863,0.04723683,0.44493636,-1.3724976,1.8892893,-2.0726454,-1.5883659,2.414382,-0.16837217,0.29476607,-0.3816184,0.17225915,-0.11180077,-0.21381088,-0.36391866,-0.076614454,-9.212888,0.91421866,47.668976,-0.9646605,-1.9997146,-3.7141094,-0.29388428,-0.24079174,-0.08260534,28.5,29.625,28.875,32.9375,35.3125,36.375
0.3760523,-1.9219831,-0.9465612,-0.8150068,0.002228707,0.07584948,-0.17721777,-0.4141018,-0.33969733,0.05997756,-3.058597,0.61156815,-0.00015566898,-0.17529307,0.053119127,-0.0031021186,0.13626814,-0.030914247,0.04204441,0.44461292,-1.3719199,1.8884891,-2.0723002,-1.5886062,2.4139285,-0.16753839,0.29817584,-0.38359347,0.1686279,-0.11298946,-0.20775142,-0.40222588,-0.095768064,-9.155427,0.9567419,47.67345,-1.2266015,-2.180328,-3.7066824,-0.26812533,-0.18187384,-0.09688762,28.5,29.625,28.875,32.9375,35.3125,36.375
0.37805274,-1.8149006,-1.2126842,-1.085582,-0.025215438,0.07171594,-0.17708685,-0.4144348,-0.33959487,0.05996187,-3.058337,0.611399,-0.0002742368,-0.17864995,0.051088605,-0.0017783715,0.13347961,-0.022317376,0.035132077,0.4442775,-1.371307,1.8877114,-2.0719078,-1.5887975,2.4135234,-0.16592847,0.30030522,-0.38780737,0.16183472,-0.11415062,-0.1991826,-0.49799395,0.0,-9.155427,1.0462601,47.72719,-1.3909206,-2.1146574,-3.581109,-0.2198979,-0.15103266,-0.20774093,28.5,29.625,28.875,32.9375,35.3125,36.375
